zeyangz2/DNN_classification_different_people_hand/test/Frank_right_1.csv
Timestamp,Therapist joint angle 0,Therapist joint angle 1,Therapist joint angle 2,Therapist joint angle 3,Therapist joint angle 4,Therapist joint angle 5,Patient joint angle 0,Patient joint angle 1,Patient joint angle 2,Patient joint angle 3,Patient joint angle 4,Patient joint angle 5,Virtual joint angle 0,Virtual joint angle 1,Virtual joint angle 2,Therapist position x,Therapist position y,Therapist position z,Patient position x,Patient position y,Patient position z,Virtual position x,Virtual position y,Virtual position z,Assistive Force, Obstacle Force Magnitude, Therapist Constant Force, Patient Constant Force, Recovery Factor, Assistance Level,label
6.38223E+17,0,0,0,0,0,0,0,0,0,0,0,0,0,0,0,0,0,0,0,0,0,0,0,0,0,0.3,0,0,0,0,1
6.38223E+17,20.00241,15.47637,14.19514,-27.60722,-4.565799,-34.56551,-4.570632,-0.4675641,0.1400836,-35.22471,-8.447793,45.05199,0,0,0,55.14534,-70.34508,-16.85923,-10.65202,-111.0878,-35.1035,0.001067912,-0.1257102,0.09433498,0,0.3,0,0,0,0,
6.38223E+17,20.00241,15.47637,14.1251,-27.60722,-4.565799,-34.85849,-4.570632,-0.4675641,0.1400836,-35.22471,-8.447793,45.05199,0,0,0,55.09127,-70.38496,-17.00776,-10.65202,-111.0878,-35.1035,0.001067912,-0.1257102,0.09433498,0,0.3,0,0,0,0,
6.38223E+17,20.00241,15.19583,13.65815,-27.75371,-4.492554,-35.29796,-4.570632,-0.4675641,0.1400836,-35.15147,-8.447793,45.12524,0,0,0,54.78947,-71.27554,-17.83683,-10.65202,-111.0878,-35.1035,0.001067912,-0.1257102,0.09433498,0,0.3,0,0,0,0,
6.38223E+17,20.00241,15.07894,13.51807,-27.82695,-4.419309,-35.51769,-4.570632,-0.4675641,0.1400836,-35.22471,-8.521038,45.05199,0,0,0,54.70538,-71.61475,-18.06786,-10.65202,-111.0878,-35.1035,0.001067912,-0.1257102,0.09433498,0,0.3,0,0,0,0,
6.38223E+17,20.00241,14.93867,13.26125,-27.97344,-4.272818,-35.88392,-4.570632,-0.4675641,0.1400836,-35.22471,-8.447793,45.05199,0,0,0,54.5354,-72.0685,-18.53481,-10.65202,-111.0878,-35.1035,0.001067912,-0.1257102,0.09433498,0,0.3,0,0,0,0,
6.38223E+17,20.02597,14.93867,13.02777,-28.11993,-4.053083,-36.03041,-4.570632,-0.4675641,0.1400836,-35.22471,-8.447793,45.05199,0,0,0,54.41579,-72.19206,-19.05441,-10.65202,-111.0878,-35.1035,0.001067912,-0.1257102,0.09433498,0,0.3,0,0,0,0,
6.38223E+17,20.02597,14.89192,12.7943,-28.33967,-3.833347,-36.25014,-4.570632,-0.4675641,0.1400836,-35.22471,-8.447793,45.05199,0,0,0,54.24401,-72.41863,-19.52571,-10.65202,-111.0878,-35.1035,0.001067912,-0.1257102,0.09433498,0,0.3,0,0,0,0,
6.38223E+17,20.02597,14.89192,12.7943,-28.41291,-3.686857,-36.39664,-4.570632,-0.4675641,0.1400836,-35.22471,-8.447793,45.12524,0,0,0,54.24401,-72.41863,-19.52571,-10.65202,-111.0878,-35.1035,0.001067912,-0.1257102,0.09433498,0,0.3,0,0,0,0,
6.38223E+17,20.12021,14.86854,12.7943,-28.5594,-3.467122,-36.46988,-4.570632,-0.4675641,0.1400836,-35.22471,-8.447793,45.05199,0,0,0,54.49353,-72.47121,-19.60201,-10.65202,-111.0878,-35.1035,0.001067912,-0.1257102,0.09433498,0,0.3,0,0,0,0,
6.38223E+17,20.12021,14.75165,12.7943,-28.48616,-3.320631,-36.39664,-4.570632,-0.4675641,0.1400836,-35.22471,-8.521038,45.05199,0,0,0,54.51745,-72.73423,-19.53671,-10.65202,-111.0878,-35.1035,0.001067912,-0.1257102,0.09433498,0,0.3,0,0,0,0,
6.38223E+17,20.12021,14.61138,12.74761,-28.11993,-3.247386,-36.39664,-4.570632,-0.4675641,0.1400836,-35.22471,-8.521038,45.05199,0,0,0,54.50945,-73.07406,-19.55854,-10.65202,-111.0878,-35.1035,0.001067912,-0.1257102,0.09433498,0,0.3,0,0,0,0,
6.38223E+17,20.12021,14.54124,12.74761,-28.04669,-3.174141,-36.32339,-4.570632,-0.4675641,0.1400836,-35.22471,-8.447793,45.12524,0,0,0,54.52358,-73.23203,-19.51997,-10.65202,-111.0878,-35.1035,0.001067912,-0.1257102,0.09433498,0,0.3,0,0,0,0,
6.38223E+17,20.12021,14.51786,12.77096,-27.68046,-2.954405,-36.32339,-4.570632,-0.4675641,0.1400836,-35.22471,-8.447793,45.12524,0,0,0,54.54651,-73.27271,-19.45739,-10.65202,-111.0878,-35.1035,0.001067912,-0.1257102,0.09433498,0,0.3,0,0,0,0,
6.38223E+17,20.02597,14.30746,12.77096,-27.16775,-2.661425,-36.39664,-4.570632,-0.4675641,0.1400836,-35.22471,-8.521038,45.05199,0,0,0,54.34328,-73.74699,-19.25336,-10.65202,-111.0878,-35.1035,0.001067912,-0.1257102,0.09433498,0,0.3,0,0,0,0,
6.38223E+17,20.02597,13.95679,12.88769,-26.50854,-2.221954,-36.46988,-4.570632,-0.4675641,0.1400836,-35.15147,-8.447793,45.12524,0,0,0,54.50223,-74.47811,-18.81724,-10.65202,-111.0878,-35.1035,0.001067912,-0.1257102,0.09433498,0,0.3,0,0,0,0,
6.38223E+17,20.09665,13.95679,13.12116,-26.06907,-1.928973,-36.39664,-4.570632,-0.4675641,0.1400836,-35.22471,-8.521038,45.12524,0,0,0,54.86857,-74.35583,-18.38738,-10.65202,-111.0878,-35.1035,0.001067912,-0.1257102,0.09433498,0,0.3,0,0,0,0,
6.38223E+17,20.07309,13.95679,13.07447,-25.6296,-1.635992,-35.73743,-4.570632,-0.4675641,0.1400836,-35.15147,-8.447793,45.05199,0,0,0,54.77058,-74.38046,-18.46425,-10.65202,-111.0878,-35.1035,0.001067912,-0.1257102,0.09433498,0,0.3,0,0,0,0,
6.38223E+17,20.02597,14.02692,13.02777,-25.48311,-1.196521,-35.44445,-4.570632,-0.4675641,0.1400836,-35.15147,-8.447793,45.05199,0,0,0,54.59752,-74.24661,-18.55581,-10.65202,-111.0878,-35.1035,0.001067912,-0.1257102,0.09433498,0,0.3,0,0,0,0,
6.38223E+17,19.74325,14.2607,13.54141,-25.48311,-0.6838052,-35.29796,-4.570632,-0.4675641,0.1400836,-35.22471,-8.521038,45.05199,0,0,0,54.20583,-73.44431,-17.31831,-10.65202,-111.0878,-35.1035,0.001067912,-0.1257102,0.09433498,0,0.3,0,0,0,0,
6.38223E+17,19.53121,14.40097,14.28853,-25.6296,-0.61056,-35.29796,-4.570632,-0.4675641,0.1400836,-35.22471,-8.447793,45.05199,0,0,0,54.18377,-72.70985,-15.60422,-10.65202,-111.0878,-35.1035,0.001067912,-0.1257102,0.09433498,0,0.3,0,0,0,0,
6.38223E+17,19.01289,14.42435,15.75941,-25.77609,-1.123276,-35.29796,-4.570632,-0.4675641,0.1400836,-35.22471,-8.521038,45.12524,0,0,0,53.87246,-71.76978,-12.00728,-10.65202,-111.0878,-35.1035,0.001067912,-0.1257102,0.09433498,0,0.3,0,0,0,0,
6.38223E+17,18.56525,14.40097,16.6466,-25.77609,-1.416257,-35.22471,-4.570632,-0.4675641,0.1400836,-35.22471,-8.447793,45.05199,0,0,0,53.28497,-71.2463,-9.698687,-10.65202,-111.0878,-35.1035,0.001067912,-0.1257102,0.09433498,0,0.3,0,0,0,0,
6.38223E+17,17.36369,14.33084,18.56108,-26.50854,-2.58818,-34.05279,-4.570632,-0.4675641,0.1400836,-35.22471,-8.447793,45.12524,0,0,0,51.2259,-70.05692,-4.524199,-10.65202,-111.0878,-35.1035,0.001067912,-0.1257102,0.09433498,0,0.3,0,0,0,0,
6.38223E+17,16.63333,14.30746,20.52225,-27.46073,-3.686857,-32.14842,-4.570632,-0.4675641,0.1400836,-35.22471,-8.521038,45.05199,0,0,0,50.36856,-68.58295,0.249664,-10.65202,-111.0878,-35.1035,0.001067912,-0.1257102,0.09433498,0,0.3,0,0,0,0,
6.38223E+17,16.39773,14.30746,22.29664,-28.41291,-4.712289,-29.3651,-4.570632,-0.4675641,0.1400836,-35.22471,-8.447793,45.05199,0,0,0,50.7602,-67.07554,4.143567,-10.65202,-111.0878,-35.1035,0.001067912,-0.1257102,0.09433498,0,0.3,0,0,0,0,
6.38223E+17,16.56265,14.51786,23.39396,-28.99888,-5.078516,-27.02126,-4.570632,-0.4675641,0.1400836,-35.22471,-8.447793,45.05199,0,0,0,51.89265,-65.60973,6.135794,-10.65202,-111.0878,-35.1035,0.001067912,-0.1257102,0.09433498,0,0.3,0,0,0,0,
6.38223E+17,17.24589,15.47637,24.7481,-28.85239,-5.15176,-25.26337,-4.570632,-0.4675641,0.1400836,-35.22471,-8.447793,45.12524,0,0,0,54.65157,-62.1695,7.701408,-10.65202,-111.0878,-35.1035,0.001067912,-0.1257102,0.09433498,0,0.3,0,0,0,0,
6.38223E+17,17.88201,16.15434,25.61195,-28.48616,-5.664476,-24.60417,-4.570632,-0.4675641,0.1400836,-35.22471,-8.447793,45.05199,0,0,0,57.02938,-59.79595,8.406104,-10.65202,-111.0878,-35.1035,0.001067912,-0.1257102,0.09433498,0,0.3,0,0,0,0,
6.38223E+17,19.13069,16.90244,26.40576,-27.97344,-6.250438,-24.0182,-4.570632,-0.4675641,0.1400836,-35.15147,-8.447793,45.05199,0,0,0,61.2495,-57.31663,8.22207,-10.65202,-111.0878,-35.1035,0.001067912,-0.1257102,0.09433498,0,0.3,0,0,0,0,
6.38223E+17,20.00241,17.18298,26.66258,-27.53397,-6.470173,-23.87171,-4.570632,-0.4675641,0.1400836,-35.15147,-8.447793,45.12524,0,0,0,64.0462,-56.42536,7.592484,-10.65202,-111.0878,-35.1035,0.001067912,-0.1257102,0.09433498,0,0.3,0,0,0,0,
6.38223E+17,23.74844,17.83757,27.29295,-24.75066,-6.689909,-23.65198,-4.570632,-0.4675641,0.1400836,-35.22471,-8.447793,45.05199,0,0,0,75.74635,-54.30692,3.809375,-10.65202,-111.0878,-35.1035,0.001067912,-0.1257102,0.09433498,0,0.3,0,0,0,0,
6.38223E+17,25.1856,18.07135,27.52643,-23.28575,-6.763155,-23.65198,-4.570632,-0.4675641,0.1400836,-35.15147,-8.447793,45.12524,0,0,0,80.17426,-53.53917,2.140206,-10.65202,-111.0878,-35.1035,0.001067912,-0.1257102,0.09433498,0,0.3,0,0,0,0,
6.38223E+17,28.10703,18.4454,27.68986,-20.2827,-6.763155,-24.53092,-4.570632,-0.4675641,0.1400836,-35.15147,-8.447793,45.12524,0,0,0,88.78967,-52.53616,-2.110852,-10.65202,-111.0878,-35.1035,0.001067912,-0.1257102,0.09433498,0,0.3,0,0,0,0,
6.38223E+17,31.47611,18.72594,27.78325,-17.13316,-6.616664,-26.65503,-4.570632,-0.4675641,0.1400836,-35.22471,-8.521038,45.05199,0,0,0,98.39747,-51.81613,-7.629526,-10.65202,-111.0878,-35.1035,0.001067912,-0.1257102,0.09433498,0,0.3,0,0,0,0,
6.38223E+17,36.16454,18.81945,28.01672,-12.44547,-6.396928,-30.75676,-4.570632,-0.4675641,0.1400836,-35.22471,-8.447793,45.05199,0,0,0,111.4471,-51.3558,-15.8789,-10.65202,-111.0878,-35.1035,0.001067912,-0.1257102,0.09433498,0,0.3,0,0,0,0,
6.38223E+17,38.80325,18.81945,28.06341,-9.66215,-6.177193,-33.9063,-4.570632,-0.4675641,0.1400836,-35.22471,-8.447793,45.05199,0,0,0,118.4085,-51.30471,-21.09662,-10.65202,-111.0878,-35.1035,0.001067912,-0.1257102,0.09433498,0,0.3,0,0,0,0,
6.38223E+17,42.17233,18.81945,28.06341,-6.146383,-5.810967,-38.88697,-4.570632,-0.4675641,0.1400836,-35.15147,-8.447793,45.12524,0,0,0,126.8576,-51.30471,-28.3097,-10.65202,-111.0878,-35.1035,0.001067912,-0.1257102,0.09433498,0,0.3,0,0,0,0,
6.38223E+17,45.21157,18.84283,28.08676,-2.410879,-5.298251,-43.57467,-4.570632,-0.4675641,0.1400836,-35.15147,-8.447793,45.05199,0,0,0,134.1256,-51.22764,-35.21123,-10.65202,-111.0878,-35.1035,0.001067912,-0.1257102,0.09433498,0,0.3,0,0,0,0,
6.38223E+17,48.67488,18.84283,28.08676,1.69085,-4.785534,-48.18911,-4.570632,-0.4675641,0.1400836,-35.22471,-8.521038,45.05199,0,0,0,141.9235,-51.22764,-43.55684,-10.65202,-111.0878,-35.1035,0.001067912,-0.1257102,0.09433498,0,0.3,0,0,0,0,
6.38223E+17,50.9602,18.84283,28.08676,4.327676,-4.419309,-51.4119,-4.570632,-0.4675641,0.1400836,-35.22471,-8.521038,45.12524,0,0,0,146.7869,-51.22764,-49.3154,-10.65202,-111.0878,-35.1035,0.001067912,-0.1257102,0.09433498,0,0.3,0,0,0,0,
6.38223E+17,52.27955,18.84283,28.08676,5.79258,-4.126328,-53.31627,-4.570632,-0.4675641,0.1400836,-35.22471,-8.521038,45.12524,0,0,0,149.4887,-51.22764,-52.72674,-10.65202,-111.0878,-35.1035,0.001067912,-0.1257102,0.09433498,0,0.3,0,0,0,0,
6.38223E+17,54.82403,18.9831,28.1568,8.50265,-3.393876,-57.05178,-4.570632,-0.4675641,0.1400836,-35.22471,-8.447793,45.12524,0,0,0,154.5054,-50.84197,-59.45541,-10.65202,-111.0878,-35.1035,0.001067912,-0.1257102,0.09433498,0,0.3,0,0,0,0,
6.38223E+17,55.31879,19.28702,27.87663,10.8465,-2.514934,-60.20132,-4.570632,-0.4675641,0.1400836,-35.22471,-8.447793,45.05199,0,0,0,154.776,-50.48001,-61.25311,-10.65202,-111.0878,-35.1035,0.001067912,-0.1257102,0.09433498,0,0.3,0,0,0,0,
6.38223E+17,55.34235,19.66107,27.92333,10.70001,-1.050031,-64.30305,-4.570632,-0.4675641,0.1400836,-35.22471,-8.447793,45.05199,0,0,0,154.6603,-49.60839,-61.42719,-10.65202,-111.0878,-35.1035,0.001067912,-0.1257102,0.09433498,0,0.3,0,0,0,0,
6.38223E+17,55.34235,20.08188,27.47973,10.11404,1.66004,-68.03855,-4.570632,-0.4675641,0.1400836,-35.15147,-8.447793,45.05199,0,0,0,153.6345,-49.16726,-62.13632,-10.65202,-111.0878,-35.1035,0.001067912,-0.1257102,0.09433498,0,0.3,0,0,0,0,
6.38223E+17,55.27167,21.20403,26.54584,10.0408,4.516602,-69.43021,-4.570632,-0.4675641,0.1400836,-35.22471,-8.521038,45.05199,0,0,0,151.1552,-47.71047,-63.57454,-10.65202,-111.0878,-35.1035,0.001067912,-0.1257102,0.09433498,0,0.3,0,0,0,0,
6.38223E+17,55.24811,24.07955,25.56526,10.62676,6.713957,-68.771,-4.570632,-0.4675641,0.1400836,-35.22471,-8.447793,45.05199,0,0,0,147.311,-42.53687,-66.14953,-10.65202,-111.0878,-35.1035,0.001067912,-0.1257102,0.09433498,0,0.3,0,0,0,0,
6.38223E+17,55.24811,26.18359,25.33178,10.8465,6.787202,-68.47802,-4.570632,-0.4675641,0.1400836,-35.22471,-8.521038,45.05199,0,0,0,145.1992,-38.33725,-67.61464,-10.65202,-111.0878,-35.1035,0.001067912,-0.1257102,0.09433498,0,0.3,0,0,0,0,
6.38223E+17,55.24811,27.30574,25.40182,10.99299,6.567466,-68.40478,-4.570632,-0.4675641,0.1400836,-35.15147,-8.447793,45.05199,0,0,0,144.3546,-35.93515,-68.20061,-10.65202,-111.0878,-35.1035,0.001067912,-0.1257102,0.09433498,0,0.3,0,0,0,0,
6.38223E+17,55.22455,29.05911,25.89212,11.21272,5.835015,-68.33153,-4.570632,-0.4675641,0.1400836,-35.22471,-8.447793,45.12524,0,0,0,143.5753,-31.8444,-68.65374,-10.65202,-111.0878,-35.1035,0.001067912,-0.1257102,0.09433498,0,0.3,0,0,0,0,
6.38223E+17,55.22455,31.86449,26.63923,11.79868,4.516602,-68.33153,-4.570632,-0.4675641,0.1400836,-35.15147,-8.447793,45.05199,0,0,0,142.1375,-25.44748,-69.65215,-10.65202,-111.0878,-35.1035,0.001067912,-0.1257102,0.09433498,0,0.3,0,0,0,0,
6.38223E+17,55.22455,33.15029,26.8727,12.01842,4.077131,-68.40478,-4.570632,-0.4675641,0.1400836,-35.15147,-8.447793,45.12524,0,0,0,141.2151,-22.67921,-70.29266,-10.65202,-111.0878,-35.1035,0.001067912,-0.1257102,0.09433498,0,0.3,0,0,0,0,
6.38223E+17,55.22455,35.51149,27.363,12.60438,3.417924,-68.33153,-4.570632,-0.4675641,0.1400836,-35.22471,-8.521038,45.05199,0,0,0,139.5038,-17.62128,-71.48095,-10.65202,-111.0878,-35.1035,0.001067912,-0.1257102,0.09433498,0,0.3,0,0,0,0,
6.38223E+17,55.20099,37.94283,27.89998,13.19034,2.246002,-68.40478,-4.570632,-0.4675641,0.1400836,-35.15147,-8.521038,45.05199,0,0,0,137.5947,-12.50661,-72.72275,-10.65202,-111.0878,-35.1035,0.001067912,-0.1257102,0.09433498,0,0.3,0,0,0,0,
6.38223E+17,55.20099,41.28591,28.85722,13.84955,0.6346079,-68.40478,-4.570632,-0.4675641,0.1400836,-35.22471,-8.447793,45.05199,0,0,0,135.131,-5.454702,-74.435,-10.65202,-111.0878,-35.1035,0.001067912,-0.1257102,0.09433498,0,0.3,0,0,0,0,
6.38223E+17,55.20099,43.27305,29.32417,13.99604,-0.3908245,-68.40478,-4.570632,-0.4675641,0.1400836,-35.22471,-8.447793,45.05199,0,0,0,133.356,-1.504677,-75.66859,-10.65202,-111.0878,-35.1035,0.001067912,-0.1257102,0.09433498,0,0.3,0,0,0,0,
6.38223E+17,55.20099,45.93817,30.30475,14.28902,-1.855728,-68.40478,-4.570632,-0.4675641,0.1400836,-35.22471,-8.521038,45.05199,0,0,0,131.4055,4.045724,-77.02414,-10.65202,-111.0878,-35.1035,0.001067912,-0.1257102,0.09433498,0,0.3,0,0,0,0,
6.38223E+17,55.20099,47.27073,30.95848,14.43551,-2.661425,-68.40478,-4.570632,-0.4675641,0.1400836,-35.15147,-8.447793,45.12524,0,0,0,130.6301,6.951639,-77.56307,-10.65202,-111.0878,-35.1035,0.001067912,-0.1257102,0.09433498,0,0.3,0,0,0,0,
6.38223E+17,55.15387,51.22165,32.66283,15.02147,-5.15176,-68.55127,-4.570632,-0.4675641,0.1400836,-35.22471,-8.447793,45.05199,0,0,0,127.6062,15.04409,-79.50893,-10.65202,-111.0878,-35.1035,0.001067912,-0.1257102,0.09433498,0,0.3,0,0,0,0,
6.38223E+17,55.08319,52.57758,33.01303,15.16796,-6.177193,-68.62451,-4.570632,-0.4675641,0.1400836,-35.22471,-8.447793,45.05199,0,0,0,126.0218,17.43329,-80.38103,-10.65202,-111.0878,-35.1035,0.001067912,-0.1257102,0.09433498,0,0.3,0,0,0,0,
6.38223E+17,54.94183,54.705,33.6901,15.31445,-7.715342,-68.99074,-4.570632,-0.4675641,0.1400836,-35.22471,-8.447793,45.05199,0,0,0,123.618,21.23481,-81.60456,-10.65202,-111.0878,-35.1035,0.001067912,-0.1257102,0.09433498,0,0.3,0,0,0,0,
6.38223E+17,54.80047,56.71552,34.67069,15.31445,-9.180244,-69.43021,-4.570632,-0.4675641,0.1400836,-35.22471,-8.447793,45.05199,0,0,0,121.7874,25.15301,-82.43991,-10.65202,-111.0878,-35.1035,0.001067912,-0.1257102,0.09433498,0,0.3,0,0,0,0,
6.38223E+17,54.39995,59.45077,36.04818,15.3877,-10.71839,-69.79643,-4.570632,-0.4675641,0.1400836,-35.22471,-8.447793,45.12524,0,0,0,118.9165,30.37358,-83.21395,-10.65202,-111.0878,-35.1035,0.001067912,-0.1257102,0.09433498,0,0.3,0,0,0,0,
6.38223E+17,54.02299,60.90022,36.91203,15.46094,-11.67058,-70.01617,-4.570632,-0.4675641,0.1400836,-35.22471,-8.521038,45.05199,0,0,0,117.2937,33.24664,-83.203,-10.65202,-111.0878,-35.1035,0.001067912,-0.1257102,0.09433498,0,0.3,0,0,0,0,
6.38223E+17,53.36331,63.05101,38.19613,15.31445,-13.28197,-70.30915,-4.570632,-0.4675641,0.1400836,-35.22471,-8.521038,45.12524,0,0,0,114.6612,37.41998,-83.0811,-10.65202,-111.0878,-35.1035,0.001067912,-0.1257102,0.09433498,0,0.3,0,0,0,0,
6.38223E+17,52.60939,65.36546,39.62031,15.02147,-14.74688,-70.45564,-4.570632,-0.4675641,0.1400836,-35.22471,-8.447793,45.05199,0,0,0,111.7254,41.84534,-82.9585,-10.65202,-111.0878,-35.1035,0.001067912,-0.1257102,0.09433498,0,0.3,0,0,0,0,
6.38223E+17,51.61988,67.86693,41.04449,14.65524,-16.94423,-70.52889,-4.570632,-0.4675641,0.1400836,-35.22471,-8.447793,45.05199,0,0,0,108.0261,46.30106,-82.79056,-10.65202,-111.0878,-35.1035,0.001067912,-0.1257102,0.09433498,0,0.3,0,0,0,0,
6.38223E+17,50.51255,69.78394,41.79161,13.99604,-18.55563,-70.52889,-4.570632,-0.4675641,0.1400836,-35.15147,-8.447793,45.05199,0,0,0,104.1481,49.06289,-82.53525,-10.65202,-111.0878,-35.1035,0.001067912,-0.1257102,0.09433498,0,0.3,0,0,0,0,
6.38223E+17,49.7822,70.71906,42.04842,13.48332,-19.21483,-70.52889,-4.570632,-0.4675641,0.1400836,-35.22471,-8.447793,45.05199,0,0,0,101.8213,50.1976,-82.25012,-10.65202,-111.0878,-35.1035,0.001067912,-0.1257102,0.09433498,0,0.3,0,0,0,0,
6.38223E+17,47.92096,72.37891,42.37529,12.01842,-20.38675,-70.45564,-4.570632,-0.4675641,0.1400836,-35.22471,-8.521038,45.05199,0,0,0,96.66949,51.93134,-81.06663,-10.65202,-111.0878,-35.1035,0.001067912,-0.1257102,0.09433498,0,0.3,0,0,0,0,
6.38223E+17,45.5414,73.99201,42.84223,10.0408,-21.33894,-69.43021,-4.570632,-0.4675641,0.1400836,-35.22471,-8.521038,45.12524,0,0,0,90.96809,53.75306,-79.08504,-10.65202,-111.0878,-35.1035,0.001067912,-0.1257102,0.09433498,0,0.3,0,0,0,0,
6.38223E+17,42.90269,75.27782,43.16909,7.623709,-22.07139,-67.15961,-4.570632,-0.4675641,0.1400836,-35.22471,-8.447793,45.05199,0,0,0,85.17642,55.06485,-76.69788,-10.65202,-111.0878,-35.1035,0.001067912,-0.1257102,0.09433498,0,0.3,0,0,0,0,
6.38223E+17,40.24041,76.16618,43.30918,4.620657,-22.43762,-64.37629,-4.570632,-0.4675641,0.1400836,-35.22471,-8.447793,45.12524,0,0,0,79.6864,55.79811,-74.18867,-10.65202,-111.0878,-35.1035,0.001067912,-0.1257102,0.09433498,0,0.3,0,0,0,0,
6.38223E+17,37.53102,76.63375,43.40257,1.178134,-22.65736,-62.17894,-4.570632,-0.4675641,0.1400836,-35.22471,-8.521038,45.12524,0,0,0,74.59824,56.20322,-71.24059,-10.65202,-111.0878,-35.1035,0.001067912,-0.1257102,0.09433498,0,0.3,0,0,0,0,
6.38223E+17,33.73786,77.19482,43.75277,-3.289821,-22.80385,-58.44344,-4.570632,-0.4675641,0.1400836,-35.22471,-8.447793,45.05199,0,0,0,67.6321,57.06073,-67.08498,-10.65202,-111.0878,-35.1035,0.001067912,-0.1257102,0.09433498,0,0.3,0,0,0,0,
6.38223E+17,31.28763,77.52213,43.79947,-6.585854,-22.87709,-56.02634,-4.570632,-0.4675641,0.1400836,-35.22471,-8.447793,45.12524,0,0,0,62.89576,57.30263,-64.85431,-10.65202,-111.0878,-35.1035,0.001067912,-0.1257102,0.09433498,0,0.3,0,0,0,0,
6.38223E+17,28.38975,77.70914,43.79947,-10.32136,-22.7306,-53.02329,-4.570632,-0.4675641,0.1400836,-35.22471,-8.521038,45.05199,0,0,0,57.38087,57.39598,-62.18093,-10.65202,-111.0878,-35.1035,0.001067912,-0.1257102,0.09433498,0,0.3,0,0,0,0,
6.38223E+17,27.21176,77.73253,43.79947,-11.85951,-22.58411,-51.77813,-4.570632,-0.4675641,0.1400836,-35.22471,-8.447793,45.12524,0,0,0,55.16175,57.40755,-61.07098,-10.65202,-111.0878,-35.1035,0.001067912,-0.1257102,0.09433498,0,0.3,0,0,0,0,
6.38223E+17,24.80864,77.73253,43.79947,-15.44852,-22.21789,-49.28778,-4.570632,-0.4675641,0.1400836,-35.22471,-8.447793,45.05199,0,0,0,50.61503,57.40755,-58.8524,-10.65202,-111.0878,-35.1035,0.001067912,-0.1257102,0.09433498,0,0.3,0,0,0,0,
6.38223E+17,22.45264,77.73253,43.79947,-18.96429,-21.77841,-46.79745,-4.570632,-0.4675641,0.1400836,-35.22471,-8.521038,45.05199,0,0,0,46.07098,57.40755,-56.86426,-10.65202,-111.0878,-35.1035,0.001067912,-0.1257102,0.09433498,0,0.3,0,0,0,0,
6.38223E+17,20.16733,77.73253,43.79947,-21.96734,-21.33894,-44.38036,-4.570632,-0.4675641,0.1400836,-35.15147,-8.447793,45.05199,0,0,0,41.58877,57.40755,-55.11582,-10.65202,-111.0878,-35.1035,0.001067912,-0.1257102,0.09433498,0,0.3,0,0,0,0,
6.38223E+17,17.66997,77.73253,43.77612,-24.8239,-20.89947,-42.03651,-4.570632,-0.4675641,0.1400836,-35.22471,-8.447793,45.05199,0,0,0,36.60338,57.36995,-53.44858,-10.65202,-111.0878,-35.1035,0.001067912,-0.1257102,0.09433498,0,0.3,0,0,0,0,
6.38223E+17,14.1831,77.66239,43.72943,-28.41291,-20.24026,-39.17995,-4.570632,-0.4675641,0.1400836,-35.22471,-8.447793,45.12524,0,0,0,29.56717,57.26002,-51.35656,-10.65202,-111.0878,-35.1035,0.001067912,-0.1257102,0.09433498,0,0.3,0,0,0,0,
6.38223E+17,12.25118,77.52213,43.63604,-30.61027,-19.6543,-37.27558,-4.570632,-0.4675641,0.1400836,-35.22471,-8.447793,45.05199,0,0,0,25.64059,57.03975,-50.26833,-10.65202,-111.0878,-35.1035,0.001067912,-0.1257102,0.09433498,0,0.3,0,0,0,0,
6.38223E+17,9.659584,77.17145,43.26248,-32.95412,-18.48238,-34.712,-4.570632,-0.4675641,0.1400836,-35.22471,-8.447793,45.05199,0,0,0,20.30284,56.26307,-49.06691,-10.65202,-111.0878,-35.1035,0.001067912,-0.1257102,0.09433498,0,0.3,0,0,0,0,
6.38223E+17,8.175306,76.84415,42.91228,-34.19928,-17.67669,-33.39359,-4.570632,-0.4675641,0.1400836,-35.22471,-8.447793,45.05199,0,0,0,17.22719,55.53503,-48.43554,-10.65202,-111.0878,-35.1035,0.001067912,-0.1257102,0.09433498,0,0.3,0,0,0,0,
6.38223E+17,4.052313,75.23106,41.13788,-37.7883,-15.55258,-30.9765,-4.570632,-0.4675641,0.1400836,-35.22471,-8.521038,45.05199,0,0,0,8.601705,51.86465,-46.9331,-10.65202,-111.0878,-35.1035,0.001067912,-0.1257102,0.09433498,0,0.3,0,0,0,0,
6.38223E+17,2.921435,74.45957,40.43747,-38.96022,-14.60039,-30.39053,-4.570632,-0.4675641,0.1400836,-35.15147,-8.447793,45.05199,0,0,0,6.229137,50.33035,-46.28878,-10.65202,-111.0878,-35.1035,0.001067912,-0.1257102,0.09433498,0,0.3,0,0,0,0,
6.38223E+17,0.6361189,72.58932,38.77981,-40.86459,-12.8425,-29.07212,-4.570632,-0.4675641,0.1400836,-35.15147,-8.447793,45.12524,0,0,0,1.370246,46.63636,-44.93581,-10.65202,-111.0878,-35.1035,0.001067912,-0.1257102,0.09433498,0,0.3,0,0,0,0,
6.38223E+17,-2.026157,69.92421,36.37504,-42.62248,-10.64515,-28.11993,-4.570632,-0.4675641,0.1400836,-35.22471,-8.447793,45.12524,0,0,0,-4.414508,41.23052,-43.56831,-10.65202,-111.0878,-35.1035,0.001067912,-0.1257102,0.09433498,0,0.3,0,0,0,0,
6.38223E+17,-4.876912,65.80965,32.70952,-44.81983,-6.689909,-27.53397,-4.570632,-0.4675641,0.1400836,-35.22471,-8.447793,45.05199,0,0,0,-10.77166,32.78692,-42.10625,-10.65202,-111.0878,-35.1035,0.001067912,-0.1257102,0.09433498,0,0.3,0,0,0,0,
6.38223E+17,-6.431869,63.12115,30.56157,-45.84526,-4.419309,-27.31424,-4.570632,-0.4675641,0.1400836,-35.22471,-8.447793,45.12524,0,0,0,-14.34907,27.46801,-41.0643,-10.65202,-111.0878,-35.1035,0.001067912,-0.1257102,0.09433498,0,0.3,0,0,0,0,
6.38223E+17,-8.340226,59.12348,27.54977,-47.01719,-1.343012,-27.16775,-4.570632,-0.4675641,0.1400836,-35.22471,-8.447793,45.12524,0,0,0,-18.87268,19.57164,-39.61528,-10.65202,-111.0878,-35.1035,0.001067912,-0.1257102,0.09433498,0,0.3,0,0,0,0,
6.38223E+17,-9.141265,56.92593,25.84542,-47.6764,0.268382,-27.16775,-4.570632,-0.4675641,0.1400836,-35.22471,-8.447793,45.12524,0,0,0,-20.79683,15.08127,-39.10717,-10.65202,-111.0878,-35.1035,0.001067912,-0.1257102,0.09433498,0,0.3,0,0,0,0,
6.38223E+17,-10.6491,49.53841,20.35881,-49.8005,5.90826,-27.82695,-4.570632,-0.4675641,0.1400836,-35.15147,-8.447793,45.12524,0,0,0,-24.56427,-0.2117585,-37.71125,-10.65202,-111.0878,-35.1035,0.001067912,-0.1257102,0.09433498,0,0.3,0,0,0,0,
6.38223E+17,-10.79046,47.48113,18.84124,-50.23997,7.519653,-28.33967,-4.570632,-0.4675641,0.1400836,-35.15147,-8.521038,45.05199,0,0,0,-24.93504,-4.568454,-37.51765,-10.65202,-111.0878,-35.1035,0.001067912,-0.1257102,0.09433498,0,0.3,0,0,0,0,
6.38223E+17,-10.79046,42.92238,15.8061,-50.97242,10.81569,-29.95106,-4.570632,-0.4675641,0.1400836,-35.15147,-8.447793,45.05199,0,0,0,-25.08182,-14.14563,-36.74747,-10.65202,-111.0878,-35.1035,0.001067912,-0.1257102,0.09433498,0,0.3,0,0,0,0,
6.38223E+17,-10.38994,39.46241,13.84493,-51.55839,13.81874,-31.92868,-4.570632,-0.4675641,0.1400836,-35.15147,-8.447793,45.12524,0,0,0,-24.32184,-21.37227,-35.69957,-10.65202,-111.0878,-35.1035,0.001067912,-0.1257102,0.09433498,0,0.3,0,0,0,0,
6.38223E+17,-9.282625,37.14796,12.25731,-52.14435,16.01609,-34.27253,-4.570632,-0.4675641,0.1400836,-35.22471,-8.447793,45.12524,0,0,0,-21.71175,-26.43336,-35.51167,-10.65202,-111.0878,-35.1035,0.001067912,-0.1257102,0.09433498,0,0.3,0,0,0,0,
6.38223E+17,-7.256468,35.16082,10.73974,-51.63163,17.33451,-36.46988,-4.570632,-0.4675641,0.1400836,-35.22471,-8.447793,45.05199,0,0,0,-16.90904,-30.8715,-35.55385,-10.65202,-111.0878,-35.1035,0.001067912,-0.1257102,0.09433498,0,0.3,0,0,0,0,
6.38223E+17,-4.971152,33.47759,9.035392,-50.23997,18.28669,-38.00803,-4.570632,-0.4675641,0.1400836,-35.22471,-8.521038,45.05199,0,0,0,-11.45302,-34.78804,-36.67781,-10.65202,-111.0878,-35.1035,0.001067912,-0.1257102,0.09433498,0,0.3,0,0,0,0,
6.38223E+17,-2.662276,31.7476,7.074222,-48.26236,19.09239,-39.69267,-4.570632,-0.4675641,0.1400836,-35.22471,-8.447793,45.05199,0,0,0,-6.029984,-38.81899,-38.66999,-10.65202,-111.0878,-35.1035,0.001067912,-0.1257102,0.09433498,0,0.3,0,0,0,0,
6.38223E+17,0.2120396,29.97086,5.276482,-45.69878,20.4108,-41.96327,-4.570632,-0.4675641,0.1400836,-35.15147,-8.447793,45.05199,0,0,0,0.4728914,-42.81868,-40.56937,-10.65202,-111.0878,-35.1035,0.001067912,-0.1257102,0.09433498,0,0.3,0,0,0,0,
6.38223E+17,2.497356,29.3864,4.459328,-43.50142,21.28975,-43.13519,-4.570632,-0.4675641,0.1400836,-35.22471,-8.521038,45.05199,0,0,0,5.514637,-44.16188,-41.91016,-10.65202,-111.0878,-35.1035,0.001067912,-0.1257102,0.09433498,0,0.3,0,0,0,0,
6.38223E+17,5.513031,29.24613,3.595479,-40.27863,22.0222,-43.7944,-4.570632,-0.4675641,0.1400836,-35.15147,-8.521038,45.12524,0,0,0,11.98157,-44.58774,-44.21253,-10.65202,-111.0878,-35.1035,0.001067912,-0.1257102,0.09433498,0,0.3,0,0,0,0,
6.38223E+17,7.232908,29.19938,3.24527,-38.59399,22.24193,-43.94089,-4.570632,-0.4675641,0.1400836,-35.15147,-8.521038,45.05199,0,0,0,15.60617,-44.73133,-45.3825,-10.65202,-111.0878,-35.1035,0.001067912,-0.1257102,0.09433498,0,0.3,0,0,0,0,
6.38223E+17,10.69622,29.22275,2.73163,-34.78524,22.46167,-44.08738,-4.570632,-0.4675641,0.1400836,-35.22471,-8.521038,45.12524,0,0,0,22.77956,-44.74617,-47.749,-10.65202,-111.0878,-35.1035,0.001067912,-0.1257102,0.09433498,0,0.3,0,0,0,0,
6.38223E+17,14.86634,29.31627,2.334727,-30.39053,22.6814,-44.16063,-4.570632,-0.4675641,0.1400836,-35.22471,-8.521038,45.05199,0,0,0,31.22504,-44.59714,-50.71957,-10.65202,-111.0878,-35.1035,0.001067912,-0.1257102,0.09433498,0,0.3,0,0,0,0,
6.38223E+17,19.27205,29.66694,2.264685,-25.92258,23.04763,-44.23387,-4.570632,-0.4675641,0.1400836,-35.22471,-8.447793,45.12524,0,0,0,39.98259,-43.89328,-53.99884,-10.65202,-111.0878,-35.1035,0.001067912,-0.1257102,0.09433498,0,0.3,0,0,0,0,
6.38223E+17,24.0076,30.1345,2.498158,-20.72217,23.26737,-44.23387,-4.570632,-0.4675641,0.1400836,-35.22471,-8.447793,45.12524,0,0,0,49.28676,-42.92735,-57.68963,-10.65202,-111.0878,-35.1035,0.001067912,-0.1257102,0.09433498,0,0.3,0,0,0,0,
6.38223E+17,30.10963,30.32153,2.965103,-13.91037,23.26737,-44.23387,-4.570632,-0.4675641,0.1400836,-35.22471,-8.447793,45.05199,0,0,0,61.20526,-42.49946,-62.80628,-10.65202,-111.0878,-35.1035,0.001067912,-0.1257102,0.09433498,0,0.3,0,0,0,0,
6.38223E+17,33.45514,30.32153,3.362006,-10.02838,23.12087,-44.23387,-4.570632,-0.4675641,0.1400836,-35.22471,-8.521038,45.05199,0,0,0,67.76865,-42.44848,-65.78838,-10.65202,-111.0878,-35.1035,0.001067912,-0.1257102,0.09433498,0,0.3,0,0,0,0,
6.38223E+17,38.0729,30.32153,4.249202,-4.388499,22.6814,-44.38036,-4.570632,-0.4675641,0.1400836,-35.22471,-8.447793,45.05199,0,0,0,77.07618,-42.31143,-69.95529,-10.65202,-111.0878,-35.1035,0.001067912,-0.1257102,0.09433498,0,0.3,0,0,0,0,
6.38223E+17,40.09905,30.32153,4.832884,-1.824918,22.38842,-44.89308,-4.570632,-0.4675641,0.1400836,-35.15147,-8.447793,45.05199,0,0,0,81.37905,-42.20388,-71.70603,-10.65202,-111.0878,-35.1035,0.001067912,-0.1257102,0.09433498,0,0.3,0,0,0,0,
6.38223E+17,44.81104,30.32153,6.467193,4.547412,20.99677,-46.50447,-4.570632,-0.4675641,0.1400836,-35.22471,-8.447793,45.12524,0,0,0,91.71064,-41.82941,-76.03246,-10.65202,-111.0878,-35.1035,0.001067912,-0.1257102,0.09433498,0,0.3,0,0,0,0,
6.38223E+17,46.17752,30.29815,7.027527,6.451786,20.63054,-46.94394,-4.570632,-0.4675641,0.1400836,-35.22471,-8.521038,45.05199,0,0,0,94.84029,-41.72316,-77.32999,-10.65202,-111.0878,-35.1035,0.001067912,-0.1257102,0.09433498,0,0.3,0,0,0,0,
6.38223E+17,48.50996,30.2514,8.124848,9.821064,19.82484,-47.74964,-4.570632,-0.4675641,0.1400836,-35.22471,-8.447793,45.12524,0,0,0,100.4034,-41.48043,-79.55167,-10.65202,-111.0878,-35.1035,0.001067912,-0.1257102,0.09433498,0,0.3,0,0,0,0,
6.38223E+17,50.30051,30.11112,9.362254,12.89736,18.9459,-48.40885,-4.570632,-0.4675641,0.1400836,-35.22471,-8.521038,45.12524,0,0,0,105.4453,-41.32486,-80.80923,-10.65202,-111.0878,-35.1035,0.001067912,-0.1257102,0.09433498,0,0.3,0,0,0,0,
6.38223E+17,52.63295,30.08775,11.72033,16.55962,17.84722,-48.9948,-4.570632,-0.4675641,0.1400836,-35.22471,-8.447793,45.05199,0,0,0,113.2302,-40.36798,-81.88212,-10.65202,-111.0878,-35.1035,0.001067912,-0.1257102,0.09433498,0,0.3,0,0,0,0,
6.38223E+17,53.48111,29.99424,12.67757,18.02452,17.26126,-49.06805,-4.570632,-0.4675641,0.1400836,-35.22471,-8.447793,45.05199,0,0,0,116.3353,-40.08562,-82.20703,-10.65202,-111.0878,-35.1035,0.001067912,-0.1257102,0.09433498,0,0.3,0,0,0,0,
6.38223E+17,54.37639,29.47991,14.0784,19.85565,16.60205,-49.43428,-4.570632,-0.4675641,0.1400836,-35.15147,-8.447793,45.05199,0,0,0,120.7279,-40.37068,-81.84203,-10.65202,-111.0878,-35.1035,0.001067912,-0.1257102,0.09433498,0,0.3,0,0,0,0,
6.38223E+17,54.61199,28.52141,14.84886,21.02757,16.52881,-50.45971,-4.570632,-0.4675641,0.1400836,-35.22471,-8.521038,45.12524,0,0,0,123.3799,-41.8739,-80.70734,-10.65202,-111.0878,-35.1035,0.001067912,-0.1257102,0.09433498,0,0.3,0,0,0,0,
6.38223E+17,54.61199,26.95507,15.08233,21.46704,16.60205,-52.51057,-4.570632,-0.4675641,0.1400836,-35.22471,-8.521038,45.12524,0,0,0,125.1911,-44.96004,-79.42077,-10.65202,-111.0878,-35.1035,0.001067912,-0.1257102,0.09433498,0,0.3,0,0,0,0,
6.38223E+17,54.49419,25.27184,15.10568,21.54029,16.96828,-53.82899,-4.570632,-0.4675641,0.1400836,-35.22471,-8.521038,45.05199,0,0,0,126.4543,-48.46342,-78.13168,-10.65202,-111.0878,-35.1035,0.001067912,-0.1257102,0.09433498,0,0.3,0,0,0,0,
6.38223E+17,54.37639,24.14968,15.03564,21.68678,17.26126,-54.26846,-4.570632,-0.4675641,0.1400836,-35.15147,-8.447793,45.05199,0,0,0,127.028,-50.87831,-77.32766,-10.65202,-111.0878,-35.1035,0.001067912,-0.1257102,0.09433498,0,0.3,0,0,0,0,
6.38223E+17,53.97587,21.25079,14.54535,22.1995,18.06696,-54.78117,-4.570632,-0.4675641,0.1400836,-35.22471,-8.521038,45.12524,0,0,0,127.6019,-57.3932,-75.55965,-10.65202,-111.0878,-35.1035,0.001067912,-0.1257102,0.09433498,0,0.3,0,0,0,0,
6.38223E+17,52.98635,17.51027,14.00836,22.71221,19.38537,-55.00091,-4.570632,-0.4675641,0.1400836,-35.22471,-8.447793,45.12524,0,0,0,127.3197,-65.91231,-72.36019,-10.65202,-111.0878,-35.1035,0.001067912,-0.1257102,0.09433498,0,0.3,0,0,0,0,
6.38223E+17,51.47852,14.09706,13.75154,22.93195,20.92352,-54.85442,-4.570632,-0.4675641,0.1400836,-35.22471,-8.447793,45.05199,0,0,0,125.9881,-73.6982,-68.05735,-10.65202,-111.0878,-35.1035,0.001067912,-0.1257102,0.09433498,0,0.3,0,0,0,0,
6.38223E+17,49.311,11.71248,13.49472,22.49248,22.46167,-53.90223,-4.570632,-0.4675641,0.1400836,-35.15147,-8.447793,45.05199,0,0,0,122.6041,-79.24827,-62.93479,-10.65202,-111.0878,-35.1035,0.001067912,-0.1257102,0.09433498,0,0.3,0,0,0,0,
6.38223E+17,46.6016,10.49681,12.88769,21.54029,23.63359,-52.43733,-4.570632,-0.4675641,0.1400836,-35.22471,-8.521038,45.05199,0,0,0,116.8805,-82.34698,-57.82777,-10.65202,-111.0878,-35.1035,0.001067912,-0.1257102,0.09433498,0,0.3,0,0,0,0,
6.38223E+17,42.64353,9.88898,11.39347,19.70916,24.58578,-49.36103,-4.570632,-0.4675641,0.1400836,-35.15147,-8.447793,45.12524,0,0,0,106.8392,-84.47069,-52.34021,-10.65202,-111.0878,-35.1035,0.001067912,-0.1257102,0.09433498,0,0.3,0,0,0,0,
6.38223E+17,39.65141,9.23439,10.24945,18.09777,25.02525,-46.43123,-4.570632,-0.4675641,0.1400836,-35.22471,-8.521038,45.12524,0,0,0,99.13075,-86.47289,-48.7402,-10.65202,-111.0878,-35.1035,0.001067912,-0.1257102,0.09433498,0,0.3,0,0,0,0,
6.38223E+17,35.57554,7.831698,9.058739,15.31445,25.53797,-42.9887,-4.570632,-0.4675641,0.1400836,-35.15147,-8.447793,45.05199,0,0,0,89.07089,-90.16602,-43.82482,-10.65202,-111.0878,-35.1035,0.001067912,-0.1257102,0.09433498,0,0.3,0,0,0,0,
6.38223E+17,33.47871,7.15373,8.475058,13.7763,26.05068,-41.59705,-4.570632,-0.4675641,0.1400836,-35.22471,-8.447793,45.05199,0,0,0,83.82796,-91.93749,-41.59744,-10.65202,-111.0878,-35.1035,0.001067912,-0.1257102,0.09433498,0,0.3,0,0,0,0,
6.38223E+17,28.95519,5.867929,7.261,9.894309,26.70989,-38.81373,-4.570632,-0.4675641,0.1400836,-35.22471,-8.447793,45.12524,0,0,0,72.37933,-95.29749,-37.53307,-10.65202,-111.0878,-35.1035,0.001067912,-0.1257102,0.09433498,0,0.3,0,0,0,0,
6.38223E+17,24.10184,4.979557,6.373804,5.572844,27.2226,-35.59094,-4.570632,-0.4675641,0.1400836,-35.22471,-8.447793,45.05199,0,0,0,60.29452,-97.60091,-33.57152,-10.65202,-111.0878,-35.1035,0.001067912,-0.1257102,0.09433498,0,0.3,0,0,0,0,
6.38223E+17,19.27205,4.769154,5.906858,0.8119082,27.51558,-32.80762,-4.570632,-0.4675641,0.1400836,-35.22471,-8.447793,45.05199,0,0,0,48.38972,-98.20508,-29.95424,-10.65202,-111.0878,-35.1035,0.001067912,-0.1257102,0.09433498,0,0.3,0,0,0,0,
6.38223E+17,14.72498,4.792531,5.906858,-4.168763,27.73532,-30.83001,-4.570632,-0.4675641,0.1400836,-35.22471,-8.447793,45.05199,0,0,0,37.26451,-98.15086,-26.55797,-10.65202,-111.0878,-35.1035,0.001067912,-0.1257102,0.09433498,0,0.3,0,0,0,0,
6.38223E+17,9.117705,5.166583,6.467193,-10.90732,27.66208,-29.58484,-4.570632,-0.4675641,0.1400836,-35.22471,-8.521038,45.12524,0,0,0,23.42529,-97.14303,-22.38983,-10.65202,-111.0878,-35.1035,0.001067912,-0.1257102,0.09433498,0,0.3,0,0,0,0,
6.38223E+17,6.172709,5.447122,6.887444,-14.78931,27.36909,-29.21861,-4.570632,-0.4675641,0.1400836,-35.15147,-8.447793,45.05199,0,0,0,15.99329,-96.37917,-20.47329,-10.65202,-111.0878,-35.1035,0.001067912,-0.1257102,0.09433498,0,0.3,0,0,0,0,
6.38223E+17,2.568036,5.72766,7.354388,-19.25727,27.00287,-28.33967,-4.570632,-0.4675641,0.1400836,-35.22471,-8.447793,45.12524,0,0,0,6.709823,-95.59464,-18.74653,-10.65202,-111.0878,-35.1035,0.001067912,-0.1257102,0.09433498,0,0.3,0,0,0,0,
6.38223E+17,-1.060198,6.148468,7.727945,-23.43224,26.78313,-27.46073,-4.570632,-0.4675641,0.1400836,-35.22471,-8.447793,45.05199,0,0,0,-2.784953,-94.50641,-17.86133,-10.65202,-111.0878,-35.1035,0.001067912,-0.1257102,0.09433498,0,0.3,0,0,0,0,
6.38223E+17,-4.452833,7.644672,8.078154,-27.75371,26.70989,-26.36205,-4.570632,-0.4675641,0.1400836,-35.22471,-8.521038,45.05199,0,0,0,-11.71591,-90.93737,-17.90185,-10.65202,-111.0878,-35.1035,0.001067912,-0.1257102,0.09433498,0,0.3,0,0,0,0,
6.38223E+17,-5.536591,8.649935,8.264932,-29.21861,26.70989,-25.84933,-4.570632,-0.4675641,0.1400836,-35.22471,-8.447793,45.12524,0,0,0,-14.56892,-88.55958,-18.05209,-10.65202,-111.0878,-35.1035,0.001067912,-0.1257102,0.09433498,0,0.3,0,0,0,0,
6.38223E+17,-7.680547,11.92288,8.755224,-32.22166,26.27042,-24.31118,-4.570632,-0.4675641,0.1400836,-35.22471,-8.447793,45.05199,0,0,0,-20.15048,-80.89671,-18.93177,-10.65202,-111.0878,-35.1035,0.001067912,-0.1257102,0.09433498,0,0.3,0,0,0,0,
6.38223E+17,-9.423985,16.13096,9.689116,-34.41902,25.39147,-22.69979,-4.570632,-0.4675641,0.1400836,-35.22471,-8.447793,45.05199,0,0,0,-24.64975,-71.04869,-19.83879,-10.65202,-111.0878,-35.1035,0.001067912,-0.1257102,0.09433498,0,0.3,0,0,0,0,
6.38223E+17,-10.74334,21.11052,11.08995,-36.46988,24.07306,-21.23489,-4.570632,-0.4675641,0.1400836,-35.15147,-8.447793,45.05199,0,0,0,-27.97087,-59.48147,-20.92968,-10.65202,-111.0878,-35.1035,0.001067912,-0.1257102,0.09433498,0,0.3,0,0,0,0,
6.38223E+17,-11.1203,26.65115,12.63087,-38.22777,22.24193,-19.91648,-4.570632,-0.4675641,0.1400836,-35.15147,-8.447793,45.05199,0,0,0,-28.6106,-46.95771,-22.79358,-10.65202,-111.0878,-35.1035,0.001067912,-0.1257102,0.09433498,0,0.3,0,0,0,0,
6.38223E+17,-10.71978,33.47759,14.45196,-38.66724,19.60511,-18.30508,-4.570632,-0.4675641,0.1400836,-35.22471,-8.521038,45.05199,0,0,0,-26.87922,-32.22314,-26.36448,-10.65202,-111.0878,-35.1035,0.001067912,-0.1257102,0.09433498,0,0.3,0,0,0,0,
6.38223E+17,-9.989424,39.29876,16.08627,-38.52075,16.89503,-17.2064,-4.570632,-0.4675641,0.1400836,-35.22471,-8.447793,45.12524,0,0,0,-24.31003,-20.31966,-30.33197,-10.65202,-111.0878,-35.1035,0.001067912,-0.1257102,0.09433498,0,0.3,0,0,0,0,
6.38223E+17,-8.316667,44.86277,17.27698,-38.22777,14.03847,-16.62044,-4.570632,-0.4675641,0.1400836,-35.15147,-8.447793,45.12524,0,0,0,-19.39995,-9.916697,-35.63843,-10.65202,-111.0878,-35.1035,0.001067912,-0.1257102,0.09433498,0,0.3,0,0,0,0,
6.38223E+17,-6.573229,47.97207,17.5338,-37.42207,12.42708,-16.5472,-4.570632,-0.4675641,0.1400836,-35.22471,-8.521038,45.12524,0,0,0,-14.81864,-4.749621,-39.74998,-10.65202,-111.0878,-35.1035,0.001067912,-0.1257102,0.09433498,0,0.3,0,0,0,0,
6.38223E+17,-3.698914,51.36191,17.55714,-35.88392,10.74244,-17.27965,-4.570632,-0.4675641,0.1400836,-35.22471,-8.447793,45.05199,0,0,0,-7.966729,0.3723286,-45.11771,-10.65202,-111.0878,-35.1035,0.001067912,-0.1257102,0.09433498,0,0.3,0,0,0,0,
6.38223E+17,-1.814117,53.13866,17.58049,-34.49226,10.00999,-18.0121,-4.570632,-0.4675641,0.1400836,-35.22471,-8.447793,45.05199,0,0,0,-3.807448,2.920246,-48.13847,-10.65202,-111.0878,-35.1035,0.001067912,-0.1257102,0.09433498,0,0.3,0,0,0,0,
6.38223E+17,1.578517,55.71026,17.60384,-31.78219,8.764822,-19.76999,-4.570632,-0.4675641,0.1400836,-35.15147,-8.521038,45.12524,0,0,0,3.180449,6.418386,-52.9378,-10.65202,-111.0878,-35.1035,0.001067912,-0.1257102,0.09433498,0,0.3,0,0,0,0,
6.38223E+17,5.136071,57.81429,17.60384,-28.85239,7.812634,-21.96734,-4.570632,-0.4675641,0.1400836,-35.15147,-8.447793,45.12524,0,0,0,9.969136,9.102311,-57.43669,-10.65202,-111.0878,-35.1035,0.001067912,-0.1257102,0.09433498,0,0.3,0,0,0,0,
6.38223E+17,9.188385,59.5209,17.67388,-25.84933,6.933692,-24.31118,-4.570632,-0.4675641,0.1400836,-35.15147,-8.521038,45.05199,0,0,0,17.26523,11.21706,-61.61416,-10.65202,-111.0878,-35.1035,0.001067912,-0.1257102,0.09433498,0,0.3,0,0,0,0,
6.38223E+17,13.99462,60.80671,17.79062,-22.11383,5.981505,-26.80152,-4.570632,-0.4675641,0.1400836,-35.22471,-8.521038,45.05199,0,0,0,25.58234,12.78864,-65.70376,-10.65202,-111.0878,-35.1035,0.001067912,-0.1257102,0.09433498,0,0.3,0,0,0,0,
6.38223E+17,20.07309,61.46129,17.79062,-16.69369,5.395544,-29.95106,-4.570632,-0.4675641,0.1400836,-35.22471,-8.447793,45.12524,0,0,0,35.84984,13.52412,-70.24293,-10.65202,-111.0878,-35.1035,0.001067912,-0.1257102,0.09433498,0,0.3,0,0,0,0,
6.38223E+17,23.5364,61.50805,17.79062,-13.32441,5.175808,-32.22166,-4.570632,-0.4675641,0.1400836,-35.22471,-8.447793,45.12524,0,0,0,41.67278,13.57607,-72.67544,-10.65202,-111.0878,-35.1035,0.001067912,-0.1257102,0.09433498,0,0.3,0,0,0,0,
6.38223E+17,28.01279,61.41454,17.79062,-8.709964,4.809582,-35.44445,-4.570632,-0.4675641,0.1400836,-35.22471,-8.447793,45.05199,0,0,0,49.1027,13.4721,-76.05098,-10.65202,-111.0878,-35.1035,0.001067912,-0.1257102,0.09433498,0,0.3,0,0,0,0,
6.38223E+17,30.10963,61.22752,17.79062,-6.366118,4.516602,-37.12909,-4.570632,-0.4675641,0.1400836,-35.22471,-8.447793,45.05199,0,0,0,52.63848,13.2632,-77.57903,-10.65202,-111.0878,-35.1035,0.001067912,-0.1257102,0.09433498,0,0.3,0,0,0,0,
6.38223E+17,35.08078,60.12874,17.74392,-0.9459759,3.93064,-40.64486,-4.570632,-0.4675641,0.1400836,-35.15147,-8.447793,45.12524,0,0,0,61.52811,11.97772,-80.74191,-10.65202,-111.0878,-35.1035,0.001067912,-0.1257102,0.09433498,0,0.3,0,0,0,0,
6.38223E+17,36.61218,59.47415,17.65053,1.031644,3.857395,-41.74353,-4.570632,-0.4675641,0.1400836,-35.22471,-8.447793,45.12524,0,0,0,64.50923,11.14534,-81.52681,-10.65202,-111.0878,-35.1035,0.001067912,-0.1257102,0.09433498,0,0.3,0,0,0,0,
6.38223E+17,38.94461,58.00132,17.34702,4.547412,3.93064,-43.42817,-4.570632,-0.4675641,0.1400836,-35.22471,-8.447793,45.12524,0,0,0,69.40754,9.154076,-82.46922,-10.65202,-111.0878,-35.1035,0.001067912,-0.1257102,0.09433498,0,0.3,0,0,0,0,
6.38223E+17,40.28753,56.43498,16.66995,7.257483,4.150376,-44.96632,-4.570632,-0.4675641,0.1400836,-35.15147,-8.447793,45.05199,0,0,0,72.40858,6.719371,-82.93105,-10.65202,-111.0878,-35.1035,0.001067912,-0.1257102,0.09433498,0,0.3,0,0,0,0,
6.38223E+17,41.22993,54.1673,15.38585,9.381593,5.029318,-46.50447,-4.570632,-0.4675641,0.1400836,-35.22471,-8.521038,45.05199,0,0,0,74.77025,2.889955,-83.0306,-10.65202,-111.0878,-35.1035,0.001067912,-0.1257102,0.09433498,0,0.3,0,0,0,0,
6.38223E+17,41.46553,52.99839,14.87221,10.11404,5.76177,-46.87069,-4.570632,-0.4675641,0.1400836,-35.22471,-8.447793,45.12524,0,0,0,75.80593,0.9629182,-82.56305,-10.65202,-111.0878,-35.1035,0.001067912,-0.1257102,0.09433498,0,0.3,0,0,0,0,
6.38223E+17,41.53621,51.01124,13.98501,11.13948,6.713957,-47.16368,-4.570632,-0.4675641,0.1400836,-35.22471,-8.521038,45.05199,0,0,0,77.00236,-2.398496,-81.42543,-10.65202,-111.0878,-35.1035,0.001067912,-0.1257102,0.09433498,0,0.3,0,0,0,0,
6.38223E+17,41.53621,49.67868,13.35464,11.57895,7.446409,-47.23692,-4.570632,-0.4675641,0.1400836,-35.22471,-8.447793,45.05199,0,0,0,77.64034,-4.724367,-80.70524,-10.65202,-111.0878,-35.1035,0.001067912,-0.1257102,0.09433498,0,0.3,0,0,0,0,
6.38223E+17,41.53621,45.7979,11.39347,12.45789,9.790254,-47.31017,-4.570632,-0.4675641,0.1400836,-35.15147,-8.447793,45.05199,0,0,0,79.11576,-11.77554,-79.0397,-10.65202,-111.0878,-35.1035,0.001067912,-0.1257102,0.09433498,0,0.3,0,0,0,0,
6.38223E+17,41.53621,43.41333,9.945935,12.97061,11.47489,-47.31017,-4.570632,-0.4675641,0.1400836,-35.22471,-8.447793,45.05199,0,0,0,79.50454,-16.35026,-78.60083,-10.65202,-111.0878,-35.1035,0.001067912,-0.1257102,0.09433498,0,0.3,0,0,0,0,
6.38223E+17,41.53621,42.1509,9.105433,13.1171,12.28059,-47.16368,-4.570632,-0.4675641,0.1400836,-35.15147,-8.447793,45.05199,0,0,0,79.54857,-18.83038,-78.55112,-10.65202,-111.0878,-35.1035,0.001067912,-0.1257102,0.09433498,0,0.3,0,0,0,0,
6.38223E+17,41.48909,39.13511,7.284348,13.41008,13.89198,-46.94394,-4.570632,-0.4675641,0.1400836,-35.22471,-8.447793,45.05199,0,0,0,79.72397,-24.75973,-78.20387,-10.65202,-111.0878,-35.1035,0.001067912,-0.1257102,0.09433498,0,0.3,0,0,0,0,
6.38223E+17,41.48909,35.95568,5.766775,13.7763,16.08934,-46.21149,-4.570632,-0.4675641,0.1400836,-35.15147,-8.447793,45.12524,0,0,0,80.3863,-31.02745,-77.45496,-10.65202,-111.0878,-35.1035,0.001067912,-0.1257102,0.09433498,0,0.3,0,0,0,0,
6.38223E+17,41.48909,32.7061,4.365939,14.14253,18.43318,-44.89308,-4.570632,-0.4675641,0.1400836,-35.15147,-8.447793,45.12524,0,0,0,81.06023,-37.56004,-76.69292,-10.65202,-111.0878,-35.1035,0.001067912,-0.1257102,0.09433498,0,0.3,0,0,0,0,
6.38223E+17,41.48909,29.3864,3.268617,14.65524,20.63054,-43.50142,-4.570632,-0.4675641,0.1400836,-35.22471,-8.447793,45.05199,0,0,0,82.01148,-44.34863,-75.61731,-10.65202,-111.0878,-35.1035,0.001067912,-0.1257102,0.09433498,0,0.3,0,0,0,0,
6.38223E+17,41.34773,25.83291,2.241338,15.16796,23.12087,-42.10976,-4.570632,-0.4675641,0.1400836,-35.22471,-8.447793,45.05199,0,0,0,82.7365,-51.79095,-74.3311,-10.65202,-111.0878,-35.1035,0.001067912,-0.1257102,0.09433498,0,0.3,0,0,0,0,
6.38223E+17,40.80585,22.11578,1.214058,15.60743,25.90419,-40.79135,-4.570632,-0.4675641,0.1400836,-35.22471,-8.447793,45.05199,0,0,0,82.57871,-59.76653,-72.70139,-10.65202,-111.0878,-35.1035,0.001067912,-0.1257102,0.09433498,0,0.3,0,0,0,0,
6.38223E+17,40.24041,19.59093,0.3735563,15.75392,27.80857,-40.0589,-4.570632,-0.4675641,0.1400836,-35.22471,-8.521038,45.05199,0,0,0,81.71843,-65.28458,-71.78754,-10.65202,-111.0878,-35.1035,0.001067912,-0.1257102,0.09433498,0,0.3,0,0,0,0,
6.38223E+17,39.22733,16.6219,-0.5836816,15.75392,29.78619,-39.17995,-4.570632,-0.4675641,0.1400836,-35.15147,-8.447793,45.05199,0,0,0,79.94743,-71.84769,-70.42018,-10.65202,-111.0878,-35.1035,0.001067912,-0.1257102,0.09433498,0,0.3,0,0,0,0,
6.38223E+17,38.5441,15.17245,-1.073974,15.68068,30.51864,-38.74048,-4.570632,-0.4675641,0.1400836,-35.22471,-8.521038,45.12524,0,0,0,78.63879,-75.07552,-69.64352,-10.65202,-111.0878,-35.1035,0.001067912,-0.1257102,0.09433498,0,0.3,0,0,0,0,
6.38223E+17,35.90538,11.12803,-2.311379,14.72849,32.86248,-37.05584,-4.570632,-0.4675641,0.1400836,-35.22471,-8.521038,45.12524,0,0,0,73.57861,-84.1547,-66.72523,-10.65202,-111.0878,-35.1035,0.001067912,-0.1257102,0.09433498,0,0.3,0,0,0,0,
6.38223E+17,34.8923,9.982493,-2.614894,14.06928,33.59494,-36.39664,-4.570632,-0.4675641,0.1400836,-35.22471,-8.447793,45.05199,0,0,0,71.64598,-86.74529,-65.61848,-10.65202,-111.0878,-35.1035,0.001067912,-0.1257102,0.09433498,0,0.3,0,0,0,0,
6.38223E+17,32.51274,8.158993,-3.198575,12.60438,35.13308,-35.22471,-4.570632,-0.4675641,0.1400836,-35.22471,-8.447793,45.12524,0,0,0,66.94927,-90.86716,-63.31226,-10.65202,-111.0878,-35.1035,0.001067912,-0.1257102,0.09433498,0,0.3,0,0,0,0,
6.38223E+17,29.56775,7.060217,-3.712215,10.40703,36.305,-33.9063,-4.570632,-0.4675641,0.1400836,-35.22471,-8.447793,45.12524,0,0,0,61.04259,-93.32983,-60.75465,-10.65202,-111.0878,-35.1035,0.001067912,-0.1257102,0.09433498,0,0.3,0,0,0,0,
6.38223E+17,25.51544,6.686166,-4.109118,6.744767,37.03746,-33.24709,-4.570632,-0.4675641,0.1400836,-35.22471,-8.447793,45.05199,0,0,0,52.93441,-94.13114,-57.44762,-10.65202,-111.0878,-35.1035,0.001067912,-0.1257102,0.09433498,0,0.3,0,0,0,0,
6.38223E+17,22.85316,6.686166,-4.109118,3.96145,37.33044,-33.02736,-4.570632,-0.4675641,0.1400836,-35.15147,-8.447793,45.05199,0,0,0,47.72599,-94.13114,-55.10859,-10.65202,-111.0878,-35.1035,0.001067912,-0.1257102,0.09433498,0,0.3,0,0,0,0,
6.38223E+17,19.17781,6.732923,-4.062424,-0.2867693,37.47693,-32.66114,-4.570632,-0.4675641,0.1400836,-35.22471,-8.521038,45.05199,0,0,0,40.40015,-94.03082,-52.19173,-10.65202,-111.0878,-35.1035,0.001067912,-0.1257102,0.09433498,0,0.3,0,0,0,0,
6.38223E+17,15.64381,6.756301,-4.01573,-4.754725,37.33044,-32.22166,-4.570632,-0.4675641,0.1400836,-35.22471,-8.521038,45.12524,0,0,0,33.19075,-93.98444,-49.82409,-10.65202,-111.0878,-35.1035,0.001067912,-0.1257102,0.09433498,0,0.3,0,0,0,0,
6.38223E+17,12.0627,6.756301,-4.01573,-9.22268,36.89096,-31.48921,-4.570632,-0.4675641,0.1400836,-35.22471,-8.447793,45.05199,0,0,0,25.72263,-93.98444,-47.98238,-10.65202,-111.0878,-35.1035,0.001067912,-0.1257102,0.09433498,0,0.3,0,0,0,0,
6.38223E+17,9.423985,6.732923,-3.898993,-12.44547,36.45149,-31.19623,-4.570632,-0.4675641,0.1400836,-35.22471,-8.447793,45.05199,0,0,0,20.1993,-94.05722,-46.6521,-10.65202,-111.0878,-35.1035,0.001067912,-0.1257102,0.09433498,0,0.3,0,0,0,0,
6.38223E+17,8.010387,6.709544,-3.75891,-14.2766,36.01203,-31.12299,-4.570632,-0.4675641,0.1400836,-35.22471,-8.447793,45.12524,0,0,0,17.23715,-94.13303,-45.8624,-10.65202,-111.0878,-35.1035,0.001067912,-0.1257102,0.09433498,0,0.3,0,0,0,0,
6.38223E+17,5.277431,6.709544,-3.408701,-17.86561,35.35282,-31.04974,-4.570632,-0.4675641,0.1400836,-35.22471,-8.521038,45.05199,0,0,0,11.45204,-94.18398,-44.3698,-10.65202,-111.0878,-35.1035,0.001067912,-0.1257102,0.09433498,0,0.3,0,0,0,0,
6.38223E+17,2.756516,6.709544,-3.011797,-21.60111,34.8401,-31.04974,-4.570632,-0.4675641,0.1400836,-35.22471,-8.447793,45.05199,0,0,0,6.032158,-94.2357,-43.06484,-10.65202,-111.0878,-35.1035,0.001067912,-0.1257102,0.09433498,0,0.3,0,0,0,0,
6.38223E+17,0.4711992,6.709544,-2.848366,-25.04364,34.40063,-31.04974,-4.570632,-0.4675641,0.1400836,-35.22471,-8.447793,45.05199,0,0,0,1.034648,-94.25515,-42.54409,-10.65202,-111.0878,-35.1035,0.001067912,-0.1257102,0.09433498,0,0.3,0,0,0,0,
6.38223E+17,-1.484278,6.732923,-2.591547,-27.82695,33.96116,-31.04974,-4.570632,-0.4675641,0.1400836,-35.22471,-8.447793,45.05199,0,0,0,-3.274115,-94.22948,-41.99157,-10.65202,-111.0878,-35.1035,0.001067912,-0.1257102,0.09433498,0,0.3,0,0,0,0,
6.38223E+17,-3.698914,6.709544,-2.007865,-30.53703,33.3752,-31.04974,-4.570632,-0.4675641,0.1400836,-35.22471,-8.447793,45.05199,0,0,0,-8.242526,-94.33802,-40.85158,-10.65202,-111.0878,-35.1035,0.001067912,-0.1257102,0.09433498,0,0.3,0,0,0,0,
6.38223E+17,-6.29051,6.662788,-1.330794,-33.68657,32.49626,-31.04974,-4.570632,-0.4675641,0.1400836,-35.22471,-8.521038,45.05199,0,0,0,-14.1731,-94.492,-39.77644,-10.65202,-111.0878,-35.1035,0.001067912,-0.1257102,0.09433498,0,0.3,0,0,0,0,
6.38223E+17,-8.081067,6.429006,-0.7704598,-36.1769,31.83705,-31.26948,-4.570632,-0.4675641,0.1400836,-35.22471,-8.521038,45.05199,0,0,0,-18.3756,-95.05647,-38.92971,-10.65202,-111.0878,-35.1035,0.001067912,-0.1257102,0.09433498,0,0.3,0,0,0,0,
6.38223E+17,-9.023465,6.148468,-0.3969035,-37.7883,31.25109,-31.6357,-4.570632,-0.4675641,0.1400836,-35.22471,-8.447793,45.12524,0,0,0,-20.64929,-95.71432,-38.3202,-10.65202,-111.0878,-35.1035,0.001067912,-0.1257102,0.09433498,0,0.3,0,0,0,0,
6.38223E+17,-10.48418,5.002935,0.350209,-41.01108,30.22566,-32.51464,-4.570632,-0.4675641,0.1400836,-35.22471,-8.447793,45.12524,0,0,0,-24.32078,-98.36848,-36.92434,-10.65202,-111.0878,-35.1035,0.001067912,-0.1257102,0.09433498,0,0.3,0,0,0,0,
6.38223E+17,-10.6491,3.109301,0.8871961,-43.13519,29.56645,-33.10061,-4.570632,-0.4675641,0.1400836,-35.22471,-8.447793,45.12524,0,0,0,-24.98751,-102.751,-35.46035,-10.65202,-111.0878,-35.1035,0.001067912,-0.1257102,0.09433498,0,0.3,0,0,0,0,
6.38223E+17,-10.60198,0.6312115,1.984518,-43.94089,29.4932,-33.24709,-4.570632,-0.4675641,0.1400836,-35.22471,-8.447793,45.05199,0,0,0,-25.38257,-108.451,-32.74537,-10.65202,-111.0878,-35.1035,0.001067912,-0.1257102,0.09433498,0,0.3,0,0,0,0,
6.38223E+17,-10.60198,-1.075397,3.362006,-44.30712,29.78619,-33.32034,-4.570632,-0.4675641,0.1400836,-35.22471,-8.521038,45.05199,0,0,0,-25.96894,-112.2732,-29.61277,-10.65202,-111.0878,-35.1035,0.001067912,-0.1257102,0.09433498,0,0.3,0,0,0,0,
6.38223E+17,-10.5313,-1.028641,3.712215,-44.52685,28.98049,-33.32034,-4.570632,-0.4675641,0.1400836,-35.22471,-8.521038,45.05199,0,0,0,-25.94682,-112.1141,-28.77906,-10.65202,-111.0878,-35.1035,0.001067912,-0.1257102,0.09433498,0,0.3,0,0,0,0,
6.38223E+17,-9.612464,-1.028641,4.109118,-44.67334,27.66208,-33.24709,-4.570632,-0.4675641,0.1400836,-35.22471,-8.447793,45.05199,0,0,0,-23.85921,-112.0511,-27.47227,-10.65202,-111.0878,-35.1035,0.001067912,-0.1257102,0.09433498,0,0.3,0,0,0,0,
6.38223E+17,-8.316667,-1.028641,4.132466,-44.38036,27.00287,-33.24709,-4.570632,-0.4675641,0.1400836,-35.22471,-8.447793,45.12524,0,0,0,-20.67514,-112.0472,-26.91511,-10.65202,-111.0878,-35.1035,0.001067912,-0.1257102,0.09433498,0,0.3,0,0,0,0,
6.38223E+17,-6.21983,-0.9818845,3.385354,-43.35493,26.92962,-33.24709,-4.570632,-0.4675641,0.1400836,-35.22471,-8.447793,45.12524,0,0,0,-15.29862,-112.0524,-27.9763,-10.65202,-111.0878,-35.1035,0.001067912,-0.1257102,0.09433498,0,0.3,0,0,0,0,
6.38223E+17,-4.876912,-0.9818845,2.848366,-42.40274,27.14936,-33.24709,-4.570632,-0.4675641,0.1400836,-35.22471,-8.447793,45.05199,0,0,0,-11.8985,-112.1204,-28.89973,-10.65202,-111.0878,-35.1035,0.001067912,-0.1257102,0.09433498,0,0.3,0,0,0,0,
6.38223E+17,-0.6832389,-0.9585064,1.424183,-38.15452,28.54102,-33.24709,-4.570632,-0.4675641,0.1400836,-35.15147,-8.447793,45.12524,0,0,0,-1.629429,-112.1895,-31.71408,-10.65202,-111.0878,-35.1035,0.001067912,-0.1257102,0.09433498,0,0.3,0,0,0,0,
6.38223E+17,0.6596789,-0.9585064,1.144016,-36.54313,29.12698,-33.24709,-4.570632,-0.4675641,0.1400836,-35.15147,-8.447793,45.05199,0,0,0,1.565739,-112.2041,-32.36527,-10.65202,-111.0878,-35.1035,0.001067912,-0.1257102,0.09433498,0,0.3,0,0,0,0,
6.38223E+17,3.039235,-0.8649935,0.7471125,-33.46683,30.15241,-33.39359,-4.570632,-0.4675641,0.1400836,-35.15147,-8.521038,45.05199,0,0,0,7.161572,-112.0018,-33.4664,-10.65202,-111.0878,-35.1035,0.001067912,-0.1257102,0.09433498,0,0.3,0,0,0,0,
6.38223E+17,5.560151,-0.7247244,0.6303762,-30.61027,30.95811,-34.05279,-4.570632,-0.4675641,0.1400836,-35.22471,-8.521038,45.05199,0,0,0,13.06149,-111.6786,-34.17782,-10.65202,-111.0878,-35.1035,0.001067912,-0.1257102,0.09433498,0,0.3,0,0,0,0,
6.38223E+17,8.976345,-0.4909423,0.6303762,-26.94801,31.61732,-34.712,-4.570632,-0.4675641,0.1400836,-35.22471,-8.447793,45.05199,0,0,0,21.0343,-111.1345,-35.18885,-10.65202,-111.0878,-35.1035,0.001067912,-0.1257102,0.09433498,0,0.3,0,0,0,0,
6.38223E+17,10.95538,-0.4208077,0.6070289,-24.8239,31.76381,-34.93173,-4.570632,-0.4675641,0.1400836,-35.15147,-8.447793,45.12524,0,0,0,25.61024,-110.9719,-36.04675,-10.65202,-111.0878,-35.1035,0.001067912,-0.1257102,0.09433498,0,0.3,0,0,0,0,
6.38223E+17,13.87682,-0.3272949,0.5836816,-21.60111,31.98354,-35.07822,-4.570632,-0.4675641,0.1400836,-35.22471,-8.447793,45.12524,0,0,0,32.30731,-110.7548,-37.57533,-10.65202,-111.0878,-35.1035,0.001067912,-0.1257102,0.09433498,0,0.3,0,0,0,0,
6.38223E+17,16.93961,-0.07013461,0.4435981,-18.23184,32.05679,-35.15147,-4.570632,-0.4675641,0.1400836,-35.15147,-8.447793,45.12524,0,0,0,39.15412,-110.1592,-39.79821,-10.65202,-111.0878,-35.1035,0.001067912,-0.1257102,0.09433498,0,0.3,0,0,0,0,
6.38223E+17,20.77989,0.5143204,0.2568199,-14.49633,32.13003,-35.22471,-4.570632,-0.4675641,0.1400836,-35.22471,-8.521038,45.05199,0,0,0,47.5199,-108.8017,-43.12056,-10.65202,-111.0878,-35.1035,0.001067912,-0.1257102,0.09433498,0,0.3,0,0,0,0,
6.38223E+17,24.29032,1.16891,0.2568199,-10.90732,32.13003,-35.29796,-4.570632,-0.4675641,0.1400836,-35.22471,-8.447793,45.05199,0,0,0,55.08937,-107.2783,-46.28559,-10.65202,-111.0878,-35.1035,0.001067912,-0.1257102,0.09433498,0,0.3,0,0,0,0,
6.38223E+17,26.31648,1.683231,0.2568199,-8.783209,32.20328,-35.29796,-4.570632,-0.4675641,0.1400836,-35.22471,-8.447793,45.05199,0,0,0,59.3574,-106.0817,-48.33633,-10.65202,-111.0878,-35.1035,0.001067912,-0.1257102,0.09433498,0,0.3,0,0,0,0,
6.38223E+17,30.29811,2.922275,0.3035145,-4.242009,32.34977,-35.29796,-4.570632,-0.4675641,0.1400836,-35.15147,-8.447793,45.05199,0,0,0,67.54385,-103.1998,-52.7538,-10.65202,-111.0878,-35.1035,0.001067912,-0.1257102,0.09433498,0,0.3,0,0,0,0,
6.38223E+17,35.66978,5.283474,0.8638488,2.276812,32.27652,-35.3712,-4.570632,-0.4675641,0.1400836,-35.15147,-8.447793,45.05199,0,0,0,78.60004,-97.70553,-58.84464,-10.65202,-111.0878,-35.1035,0.001067912,-0.1257102,0.09433498,0,0.3,0,0,0,0,
6.38223E+17,37.8373,6.849813,1.214058,5.060128,32.05679,-35.51769,-4.570632,-0.4675641,0.1400836,-35.22471,-8.521038,45.05199,0,0,0,82.94901,-94.06578,-61.5564,-10.65202,-111.0878,-35.1035,0.001067912,-0.1257102,0.09433498,0,0.3,0,0,0,0,
6.38223E+17,40.75874,9.585063,1.657656,8.868877,31.17784,-36.03041,-4.570632,-0.4675641,0.1400836,-35.15147,-8.447793,45.05199,0,0,0,88.36395,-87.73986,-65.83019,-10.65202,-111.0878,-35.1035,0.001067912,-0.1257102,0.09433498,0,0.3,0,0,0,0,
6.38223E+17,43.02049,12.39045,1.914476,12.01842,30.15241,-36.61637,-4.570632,-0.4675641,0.1400836,-35.22471,-8.521038,45.05199,0,0,0,91.89967,-81.31232,-69.87029,-10.65202,-111.0878,-35.1035,0.001067912,-0.1257102,0.09433498,0,0.3,0,0,0,0,
6.38223E+17,45.42361,16.48163,2.381421,15.02147,28.90724,-37.05584,-4.570632,-0.4675641,0.1400836,-35.22471,-8.447793,45.05199,0,0,0,95.03116,-72.05238,-74.71374,-10.65202,-111.0878,-35.1035,0.001067912,-0.1257102,0.09433498,0,0.3,0,0,0,0,
6.38223E+17,46.79008,19.75458,2.708283,16.77936,27.66208,-37.27558,-4.570632,-0.4675641,0.1400836,-35.22471,-8.447793,45.05199,0,0,0,96.06472,-64.77982,-78.10793,-10.65202,-111.0878,-35.1035,0.001067912,-0.1257102,0.09433498,0,0.3,0,0,0,0,
6.38223E+17,47.47332,21.90538,2.918408,17.6583,26.70989,-37.49532,-4.570632,-0.4675641,0.1400836,-35.22471,-8.447793,45.05199,0,0,0,96.18222,-60.07752,-80.13281,-10.65202,-111.0878,-35.1035,0.001067912,-0.1257102,0.09433498,0,0.3,0,0,0,0,
6.38223E+17,48.18012,25.76278,3.198575,18.83022,25.02525,-38.08128,-4.570632,-0.4675641,0.1400836,-35.15147,-8.447793,45.05199,0,0,0,95.04528,-51.8322,-83.31035,-10.65202,-111.0878,-35.1035,0.001067912,-0.1257102,0.09433498,0,0.3,0,0,0,0,
6.38223E+17,48.20368,29.26951,3.362006,19.41618,23.63359,-38.59399,-4.570632,-0.4675641,0.1400836,-35.22471,-8.521038,45.05199,0,0,0,92.55272,-44.57324,-85.60902,-10.65202,-111.0878,-35.1035,0.001067912,-0.1257102,0.09433498,0,0.3,0,0,0,0,
6.38223E+17,48.06232,32.51908,3.665521,19.63592,22.31518,-38.88697,-4.570632,-0.4675641,0.1400836,-35.15147,-8.447793,45.05199,0,0,0,89.9845,-38.04085,-87.50465,-10.65202,-111.0878,-35.1035,0.001067912,-0.1257102,0.09433498,0,0.3,0,0,0,0,
6.38223E+17,47.61468,35.74527,4.202508,19.70916,21.2165,-39.03346,-4.570632,-0.4675641,0.1400836,-35.15147,-8.447793,45.12524,0,0,0,87.15956,-31.74069,-88.80333,-10.65202,-111.0878,-35.1035,0.001067912,-0.1257102,0.09433498,0,0.3,0,0,0,0,
6.38223E+17,46.74296,38.73769,4.762842,19.41618,20.11782,-39.10671,-4.570632,-0.4675641,0.1400836,-35.22471,-8.447793,45.12524,0,0,0,83.81693,-26.095,-89.48351,-10.65202,-111.0878,-35.1035,0.001067912,-0.1257102,0.09433498,0,0.3,0,0,0,0,
6.38223E+17,45.49429,42.03401,5.416566,18.53724,18.50643,-39.10671,-4.570632,-0.4675641,0.1400836,-35.22471,-8.521038,45.05199,0,0,0,79.61456,-20.11718,-90.09738,-10.65202,-111.0878,-35.1035,0.001067912,-0.1257102,0.09433498,0,0.3,0,0,0,0,
6.38223E+17,44.78749,44.16143,6.023595,17.80479,17.62749,-39.10671,-4.570632,-0.4675641,0.1400836,-35.22471,-8.447793,45.12524,0,0,0,77.25043,-16.36116,-90.52438,-10.65202,-111.0878,-35.1035,0.001067912,-0.1257102,0.09433498,0,0.3,0,0,0,0,
6.38223E+17,43.98645,47.01357,7.144264,17.07234,16.45556,-39.03346,-4.570632,-0.4675641,0.1400836,-35.22471,-8.447793,45.12524,0,0,0,74.66155,-11.41714,-90.99909,-10.65202,-111.0878,-35.1035,0.001067912,-0.1257102,0.09433498,0,0.3,0,0,0,0,
6.38223E+17,43.58593,48.48639,7.751292,16.63286,15.8696,-39.03346,-4.570632,-0.4675641,0.1400836,-35.22471,-8.447793,45.05199,0,0,0,73.33553,-8.929303,-91.30222,-10.65202,-111.0878,-35.1035,0.001067912,-0.1257102,0.09433498,0,0.3,0,0,0,0,
6.38223E+17,42.21945,52.76461,9.525684,15.09472,13.89198,-39.10671,-4.570632,-0.4675641,0.1400836,-35.15147,-8.447793,45.05199,0,0,0,69.0498,-1.993868,-92.25062,-10.65202,-111.0878,-35.1035,0.001067912,-0.1257102,0.09433498,0,0.3,0,0,0,0,
6.38223E+17,41.70113,54.12054,10.17941,14.582,13.15953,-39.17995,-4.570632,-0.4675641,0.1400836,-35.15147,-8.521038,45.12524,0,0,0,67.66946,0.1461147,-92.40247,-10.65202,-111.0878,-35.1035,0.001067912,-0.1257102,0.09433498,0,0.3,0,0,0,0,
6.38223E+17,40.49957,56.97268,11.76702,13.33683,11.62138,-39.32644,-4.570632,-0.4675641,0.1400836,-35.15147,-8.447793,45.05199,0,0,0,64.86328,4.604438,-92.40371,-10.65202,-111.0878,-35.1035,0.001067912,-0.1257102,0.09433498,0,0.3,0,0,0,0,
6.38223E+17,38.8975,59.45077,13.2379,12.09166,9.936745,-39.61942,-4.570632,-0.4675641,0.1400836,-35.22471,-8.521038,45.05199,0,0,0,61.73509,8.383478,-91.83401,-10.65202,-111.0878,-35.1035,0.001067912,-0.1257102,0.09433498,0,0.3,0,0,0,0,
6.38223E+17,35.57554,62.77048,15.85279,9.747819,7.739389,-39.83916,-4.570632,-0.4675641,0.1400836,-35.22471,-8.521038,45.05199,0,0,0,56.68934,13.64399,-89.09571,-10.65202,-111.0878,-35.1035,0.001067912,-0.1257102,0.09433498,0,0.3,0,0,0,0,
6.38223E+17,33.40803,64.89789,17.72057,8.06318,6.347731,-39.83916,-4.570632,-0.4675641,0.1400836,-35.22471,-8.447793,45.05199,0,0,0,53.49599,17.08268,-87.24379,-10.65202,-111.0878,-35.1035,0.001067912,-0.1257102,0.09433498,0,0.3,0,0,0,0,
6.38223E+17,30.39235,67.77341,20.63898,5.353109,3.857395,-39.83916,-4.570632,-0.4675641,0.1400836,-35.22471,-8.447793,45.12524,0,0,0,49.29942,21.99986,-84.29546,-10.65202,-111.0878,-35.1035,0.001067912,-0.1257102,0.09433498,0,0.3,0,0,0,0,
6.38223E+17,27.07039,70.5788,23.86091,2.276812,0.9275885,-39.76591,-4.570632,-0.4675641,0.1400836,-35.15147,-8.447793,45.05199,0,0,0,44.72696,27.15974,-80.83439,-10.65202,-111.0878,-35.1035,0.001067912,-0.1257102,0.09433498,0,0.3,0,0,0,0,
6.38223E+17,23.15944,73.22053,27.26961,-1.312202,-2.661425,-38.81373,-4.570632,-0.4675641,0.1400836,-35.22471,-8.521038,45.05199,0,0,0,39.16971,32.49282,-76.78125,-10.65202,-111.0878,-35.1035,0.001067912,-0.1257102,0.09433498,0,0.3,0,0,0,0,
6.38223E+17,19.67257,74.78687,29.58099,-4.901215,-5.810967,-37.27558,-4.570632,-0.4675641,0.1400836,-35.15147,-8.447793,45.05199,0,0,0,33.94086,36.05793,-73.41367,-10.65202,-111.0878,-35.1035,0.001067912,-0.1257102,0.09433498,0,0.3,0,0,0,0,
6.38223E+17,17.85845,75.25444,30.44483,-6.878834,-7.12938,-36.1769,-4.570632,-0.4675641,0.1400836,-35.15147,-8.447793,45.05199,0,0,0,31.12995,37.34484,-71.73032,-10.65202,-111.0878,-35.1035,0.001067912,-0.1257102,0.09433498,0,0.3,0,0,0,0,
6.38223E+17,14.11242,75.62849,31.91571,-10.98056,-9.473226,-33.75981,-4.570632,-0.4675641,0.1400836,-35.22471,-8.521038,45.12524,0,0,0,25.25953,39.33599,-67.87977,-10.65202,-111.0878,-35.1035,0.001067912,-0.1257102,0.09433498,0,0.3,0,0,0,0,
6.38223E+17,9.329745,75.53497,33.92358,-17.27965,-11.74383,-30.02431,-4.570632,-0.4675641,0.1400836,-35.22471,-8.447793,45.12524,0,0,0,17.4648,41.82132,-62.04488,-10.65202,-111.0878,-35.1035,0.001067912,-0.1257102,0.09433498,0,0.3,0,0,0,0,
6.38223E+17,6.950189,75.11417,34.60065,-20.42919,-12.54952,-28.19318,-4.570632,-0.4675641,0.1400836,-35.22471,-8.447793,45.12524,0,0,0,13.30828,42.46035,-59.17817,-10.65202,-111.0878,-35.1035,0.001067912,-0.1257102,0.09433498,0,0.3,0,0,0,0,
6.38223E+17,3.675354,73.59459,34.83412,-25.04364,-13.20873,-25.77609,-4.570632,-0.4675641,0.1400836,-35.15147,-8.447793,45.12524,0,0,0,7.296989,41.81605,-54.75195,-10.65202,-111.0878,-35.1035,0.001067912,-0.1257102,0.09433498,0,0.3,0,0,0,0,
6.38223E+17,0.588999,71.44379,34.71738,-29.73133,-12.91575,-23.50549,-4.570632,-0.4675641,0.1400836,-35.22471,-8.447793,45.05199,0,0,0,1.216956,40.15752,-49.97295,-10.65202,-111.0878,-35.1035,0.001067912,-0.1257102,0.09433498,0,0.3,0,0,0,0,
6.38223E+17,-2.685836,68.14746,33.78349,-35.00498,-11.89032,-21.0884,-4.570632,-0.4675641,0.1400836,-35.22471,-8.447793,45.05199,0,0,0,-5.800528,36.28498,-44.70047,-10.65202,-111.0878,-35.1035,0.001067912,-0.1257102,0.09433498,0,0.3,0,0,0,0,
6.38223E+17,-4.688432,65.24857,32.66283,-38.52075,-10.64515,-19.69674,-4.570632,-0.4675641,0.1400836,-35.22471,-8.521038,45.05199,0,0,0,-10.44599,32.18731,-40.9781,-10.65202,-111.0878,-35.1035,0.001067912,-0.1257102,0.09433498,0,0.3,0,0,0,0,
6.38223E+17,-5.465911,63.65885,31.98576,-40.13214,-9.619716,-19.18402,-4.570632,-0.4675641,0.1400836,-35.15147,-8.521038,45.05199,0,0,0,-12.36448,29.74922,-39.13422,-10.65202,-111.0878,-35.1035,0.001067912,-0.1257102,0.09433498,0,0.3,0,0,0,0,
6.38223E+17,-6.526109,60.68982,30.70166,-42.54923,-7.715342,-18.30508,-4.570632,-0.4675641,0.1400836,-35.22471,-8.447793,45.05199,0,0,0,-15.15762,24.9695,-35.85015,-10.65202,-111.0878,-35.1035,0.001067912,-0.1257102,0.09433498,0,0.3,0,0,0,0,
6.38223E+17,-7.374268,57.62727,29.20743,-44.38036,-5.884212,-17.79236,-4.570632,-0.4675641,0.1400836,-35.22471,-8.521038,45.05199,0,0,0,-17.51596,19.5794,-33.00867,-10.65202,-111.0878,-35.1035,0.001067912,-0.1257102,0.09433498,0,0.3,0,0,0,0,
6.38223E+17,-7.774787,54.47121,27.15287,-45.84526,-3.979838,-17.64587,-4.570632,-0.4675641,0.1400836,-35.22471,-8.521038,45.12524,0,0,0,-18.71562,13.21961,-31.27407,-10.65202,-111.0878,-35.1035,0.001067912,-0.1257102,0.09433498,0,0.3,0,0,0,0,
6.38223E+17,-7.821907,51.22165,24.58467,-46.72421,-2.075463,-17.49938,-4.570632,-0.4675641,0.1400836,-35.22471,-8.447793,45.12524,0,0,0,-18.9167,6.044791,-30.64629,-10.65202,-111.0878,-35.1035,0.001067912,-0.1257102,0.09433498,0,0.3,0,0,0,0,
6.38223E+17,-7.727668,48.01883,21.94643,-46.87069,-0.02459868,-18.08535,-4.570632,-0.4675641,0.1400836,-35.22471,-8.447793,45.12524,0,0,0,-18.69519,-1.208938,-30.57849,-10.65202,-111.0878,-35.1035,0.001067912,-0.1257102,0.09433498,0,0.3,0,0,0,0,
6.38223E+17,-6.926629,44.62899,19.09806,-46.57772,2.099511,-19.91648,-4.570632,-0.4675641,0.1400836,-35.15147,-8.447793,45.05199,0,0,0,-16.70666,-8.980274,-30.82955,-10.65202,-111.0878,-35.1035,0.001067912,-0.1257102,0.09433498,0,0.3,0,0,0,0,
6.38223E+17,-5.93711,42.96914,17.58049,-45.77202,3.491169,-21.0884,-4.570632,-0.4675641,0.1400836,-35.15147,-8.447793,45.05199,0,0,0,-14.25904,-12.87976,-31.23671,-10.65202,-111.0878,-35.1035,0.001067912,-0.1257102,0.09433498,0,0.3,0,0,0,0,
6.38223E+17,-4.052313,40.81834,15.4092,-44.16063,5.322299,-22.84628,-4.570632,-0.4675641,0.1400836,-35.22471,-8.447793,45.05199,0,0,0,-9.635476,-18.04049,-32.34095,-10.65202,-111.0878,-35.1035,0.001067912,-0.1257102,0.09433498,0,0.3,0,0,0,0,
6.38223E+17,-3.251275,39.95335,14.54535,-43.20844,6.127995,-23.57873,-4.570632,-0.4675641,0.1400836,-35.15147,-8.447793,45.05199,0,0,0,-7.696913,-20.0935,-32.85632,-10.65202,-111.0878,-35.1035,0.001067912,-0.1257102,0.09433498,0,0.3,0,0,0,0,
6.38223E+17,-0.7067988,37.52202,12.16393,-40.13214,8.398596,-25.77609,-4.570632,-0.4675641,0.1400836,-35.22471,-8.521038,45.05199,0,0,0,-1.651258,-25.78714,-34.49963,-10.65202,-111.0878,-35.1035,0.001067912,-0.1257102,0.09433498,0,0.3,0,0,0,0,
6.38223E+17,0.1884797,36.72716,11.46351,-39.10671,8.984557,-26.50854,-4.570632,-0.4675641,0.1400836,-35.22471,-8.447793,45.12524,0,0,0,0.4387697,-27.59588,-34.96924,-10.65202,-111.0878,-35.1035,0.001067912,-0.1257102,0.09433498,0,0.3,0,0,0,0,
6.38223E+17,1.861237,35.30109,10.20275,-37.20233,10.22972,-27.75371,-4.570632,-0.4675641,0.1400836,-35.22471,-8.447793,45.12524,0,0,0,4.301877,-30.83197,-35.96883,-10.65202,-111.0878,-35.1035,0.001067912,-0.1257102,0.09433498,0,0.3,0,0,0,0,
6.38223E+17,3.533994,34.36596,9.058739,-35.3712,11.54814,-28.85239,-4.570632,-0.4675641,0.1400836,-35.22471,-8.447793,45.12524,0,0,0,8.0792,-33.06382,-37.53006,-10.65202,-111.0878,-35.1035,0.001067912,-0.1257102,0.09433498,0,0.3,0,0,0,0,
6.38223E+17,6.21983,33.87502,8.008113,-32.58789,12.72006,-29.80457,-4.570632,-0.4675641,0.1400836,-35.15147,-8.447793,45.12524,0,0,0,14.00794,-34.37258,-39.81908,-10.65202,-111.0878,-35.1035,0.001067912,-0.1257102,0.09433498,0,0.3,0,0,0,0,
6.38223E+17,7.869027,33.85164,7.681251,-31.04974,13.15953,-30.09755,-4.570632,-0.4675641,0.1400836,-35.22471,-8.447793,45.05199,0,0,0,17.60222,-34.52159,-40.99196,-10.65202,-111.0878,-35.1035,0.001067912,-0.1257102,0.09433498,0,0.3,0,0,0,0,
6.38223E+17,10.90826,33.85164,7.120916,-28.41291,13.52576,-30.53703,-4.570632,-0.4675641,0.1400836,-35.15147,-8.447793,45.12524,0,0,0,24.08523,-34.68958,-43.37424,-10.65202,-111.0878,-35.1035,0.001067912,-0.1257102,0.09433498,0,0.3,0,0,0,0,
6.38223E+17,12.62814,33.85164,6.91079,-26.72828,13.67225,-30.61027,-4.570632,-0.4675641,0.1400836,-35.22471,-8.521038,45.05199,0,0,0,27.71916,-34.74931,-44.62706,-10.65202,-111.0878,-35.1035,0.001067912,-0.1257102,0.09433498,0,0.3,0,0,0,0,
6.38223E+17,16.72757,33.85164,6.653971,-22.18707,13.96523,-30.68352,-4.570632,-0.4675641,0.1400836,-35.22471,-8.521038,45.05199,0,0,0,36.32206,-34.8199,-47.4936,-10.65202,-111.0878,-35.1035,0.001067912,-0.1257102,0.09433498,0,0.3,0,0,0,0,
6.38223E+17,20.26157,33.92177,6.560582,-17.71912,14.25821,-30.61027,-4.570632,-0.4675641,0.1400836,-35.22471,-8.521038,45.05199,0,0,0,43.59638,-34.70941,-50.25027,-10.65202,-111.0878,-35.1035,0.001067912,-0.1257102,0.09433498,0,0.3,0,0,0,0,
6.38223E+17,23.55996,34.20231,6.724013,-12.81169,14.62444,-30.68352,-4.570632,-0.4675641,0.1400836,-35.22471,-8.447793,45.12524,0,0,0,50.32399,-34.12451,-52.94316,-10.65202,-111.0878,-35.1035,0.001067912,-0.1257102,0.09433498,0,0.3,0,0,0,0,
6.38223E+17,25.11492,34.50623,6.840749,-10.46785,14.77092,-30.61027,-4.570632,-0.4675641,0.1400836,-35.22471,-8.447793,45.05199,0,0,0,53.38221,-33.50847,-54.46838,-10.65202,-111.0878,-35.1035,0.001067912,-0.1257102,0.09433498,0,0.3,0,0,0,0,
6.38223E+17,27.98923,35.23095,7.097569,-6.146383,14.62444,-30.68352,-4.570632,-0.4675641,0.1400836,-35.22471,-8.447793,45.05199,0,0,0,58.85157,-32.05206,-57.6161,-10.65202,-111.0878,-35.1035,0.001067912,-0.1257102,0.09433498,0,0.3,0,0,0,0,
6.38223E+17,30.69863,36.11932,7.611208,-2.044653,14.03847,-30.68352,-4.570632,-0.4675641,0.1400836,-35.22471,-8.447793,45.12524,0,0,0,64.0099,-30.21947,-60.53917,-10.65202,-111.0878,-35.1035,0.001067912,-0.1257102,0.09433498,0,0.3,0,0,0,0,
6.38223E+17,33.26667,37.47526,8.568447,1.837341,13.52576,-30.68352,-4.570632,-0.4675641,0.1400836,-35.22471,-8.447793,45.05199,0,0,0,68.94919,-27.37898,-63.25169,-10.65202,-111.0878,-35.1035,0.001067912,-0.1257102,0.09433498,0,0.3,0,0,0,0,
6.38223E+17,35.08078,39.64943,10.55296,5.060128,12.86655,-30.68352,-4.570632,-0.4675641,0.1400836,-35.15147,-8.447793,45.05199,0,0,0,73.04649,-22.65542,-64.34122,-10.65202,-111.0878,-35.1035,0.001067912,-0.1257102,0.09433498,0,0.3,0,0,0,0,
6.38223E+17,35.69334,41.09888,11.79037,6.525032,12.20734,-30.68352,-4.570632,-0.4675641,0.1400836,-35.22471,-8.521038,45.05199,0,0,0,74.52775,-19.52752,-64.60822,-10.65202,-111.0878,-35.1035,0.001067912,-0.1257102,0.09433498,0,0.3,0,0,0,0,
6.38223E+17,36.49438,44.37183,14.45196,9.015368,9.936745,-31.04974,-4.570632,-0.4675641,0.1400836,-35.22471,-8.521038,45.05199,0,0,0,76.48449,-12.52719,-64.96594,-10.65202,-111.0878,-35.1035,0.001067912,-0.1257102,0.09433498,0,0.3,0,0,0,0,
6.38223E+17,36.61218,46.56938,16.27304,10.0408,7.959125,-31.6357,-4.570632,-0.4675641,0.1400836,-35.15147,-8.447793,45.05199,0,0,0,76.95982,-7.817875,-64.76953,-10.65202,-111.0878,-35.1035,0.001067912,-0.1257102,0.09433498,0,0.3,0,0,0,0,
6.38223E+17,36.7771,49.63192,18.8179,11.06623,5.615279,-32.14842,-4.570632,-0.4675641,0.1400836,-35.15147,-8.521038,45.12524,0,0,0,77.4625,-1.272975,-64.71741,-10.65202,-111.0878,-35.1035,0.001067912,-0.1257102,0.09433498,0,0.3,0,0,0,0,
6.38223E+17,36.80066,51.31516,20.14869,11.57895,4.370111,-32.29491,-4.570632,-0.4675641,0.1400836,-35.22471,-8.447793,45.12524,0,0,0,77.44416,2.253217,-64.83073,-10.65202,-111.0878,-35.1035,0.001067912,-0.1257102,0.09433498,0,0.3,0,0,0,0,
6.38223E+17,36.7771,56.34147,23.79086,12.53114,0.268382,-32.95412,-4.570632,-0.4675641,0.1400836,-35.15147,-8.447793,45.12524,0,0,0,76.45533,12.32615,-66.06483,-10.65202,-111.0878,-35.1035,0.001067912,-0.1257102,0.09433498,0,0.3,0,0,0,0,
6.38223E+17,36.70642,58.16497,25.23839,12.67763,-1.123276,-33.54007,-4.570632,-0.4675641,0.1400836,-35.22471,-8.447793,45.05199,0,0,0,76.02776,16.01959,-66.37479,-10.65202,-111.0878,-35.1035,0.001067912,-0.1257102,0.09433498,0,0.3,0,0,0,0,
6.38223E+17,36.58862,62.56007,28.55371,13.1171,-4.346064,-34.712,-4.570632,-0.4675641,0.1400836,-35.22471,-8.521038,45.12524,0,0,0,74.62087,24.56682,-67.8312,-10.65202,-111.0878,-35.1035,0.001067912,-0.1257102,0.09433498,0,0.3,0,0,0,0,
6.38223E+17,36.4237,66.74477,31.63554,13.33683,-7.422361,-35.95716,-4.570632,-0.4675641,0.1400836,-35.15147,-8.447793,45.12524,0,0,0,72.79055,32.33158,-69.70475,-10.65202,-111.0878,-35.1035,0.001067912,-0.1257102,0.09433498,0,0.3,0,0,0,0,
6.38223E+17,36.4237,71.88798,36.23495,13.48332,-11.59733,-37.86154,-4.570632,-0.4675641,0.1400836,-35.22471,-8.447793,45.05199,0,0,0,71.4154,42.53249,-71.56835,-10.65202,-111.0878,-35.1035,0.001067912,-0.1257102,0.09433498,0,0.3,0,0,0,0,
6.38223E+17,36.4237,75.04404,39.10667,13.55657,-14.67363,-39.32644,-4.570632,-0.4675641,0.1400836,-35.22471,-8.521038,45.12524,0,0,0,70.37572,48.7067,-72.9773,-10.65202,-111.0878,-35.1035,0.001067912,-0.1257102,0.09433498,0,0.3,0,0,0,0,
6.38223E+17,36.14098,78.4105,42.46867,13.41008,-18.40914,-41.45055,-4.570632,-0.4675641,0.1400836,-35.22471,-8.447793,45.05199,0,0,0,68.90096,55.6161,-74.00502,-10.65202,-111.0878,-35.1035,0.001067912,-0.1257102,0.09433498,0,0.3,0,0,0,0,
6.38223E+17,35.69334,80.09372,44.0096,13.04385,-20.31351,-42.62248,-4.570632,-0.4675641,0.1400836,-35.22471,-8.521038,45.05199,0,0,0,67.44055,58.80337,-74.47351,-10.65202,-111.0878,-35.1035,0.001067912,-0.1257102,0.09433498,0,0.3,0,0,0,0,
6.38223E+17,32.84259,84.69923,47.79185,9.747819,-26.02663,-45.11281,-4.570632,-0.4675641,0.1400836,-35.22471,-8.447793,45.12524,0,0,0,60.24936,66.54173,-75.01373,-10.65202,-111.0878,-35.1035,0.001067912,-0.1257102,0.09433498,0,0.3,0,0,0,0,
6.38223E+17,30.72219,86.61625,49.12265,6.232051,-28.80995,-45.62553,-4.570632,-0.4675641,0.1400836,-35.22471,-8.447793,45.12524,0,0,0,55.53136,69.19768,-74.90699,-10.65202,-111.0878,-35.1035,0.001067912,-0.1257102,0.09433498,0,0.3,0,0,0,0,
6.38223E+17,29.54419,87.38773,49.4962,3.96145,-29.90863,-45.2593,-4.570632,-0.4675641,0.1400836,-35.22471,-8.521038,45.12524,0,0,0,52.99392,69.95081,-74.8519,-10.65202,-111.0878,-35.1035,0.001067912,-0.1257102,0.09433498,0,0.3,0,0,0,0,
6.38223E+17,27.54159,88.39299,49.58959,-0.2867693,-31.22704,-43.50142,-4.570632,-0.4675641,0.1400836,-35.22471,-8.447793,45.05199,0,0,0,48.67841,70.20232,-75.00516,-10.65202,-111.0878,-35.1035,0.001067912,-0.1257102,0.09433498,0,0.3,0,0,0,0,
6.38223E+17,25.39764,89.25798,49.16934,-6.073137,-32.10598,-40.27863,-4.570632,-0.4675641,0.1400836,-35.22471,-8.447793,45.05199,0,0,0,44.0159,69.50117,-75.64288,-10.65202,-111.0878,-35.1035,0.001067912,-0.1257102,0.09433498,0,0.3,0,0,0,0,
6.38223E+17,24.95,89.5619,48.91252,-7.538041,-32.25247,-39.39969,-4.570632,-0.4675641,0.1400836,-35.22471,-8.447793,45.12524,0,0,0,42.82662,69.05708,-76.29836,-10.65202,-111.0878,-35.1035,0.001067912,-0.1257102,0.09433498,0,0.3,0,0,0,0,
6.38223E+17,24.69084,90.12297,48.00198,-9.955132,-32.32572,-38.22777,-4.570632,-0.4675641,0.1400836,-35.22471,-8.447793,45.05199,0,0,0,41.27728,67.47455,-78.56895,-10.65202,-111.0878,-35.1035,0.001067912,-0.1257102,0.09433498,0,0.3,0,0,0,0,
6.38223E+17,24.87932,90.49702,46.90466,-11.49328,-32.03274,-37.6418,-4.570632,-0.4675641,0.1400836,-35.22471,-8.447793,45.12524,0,0,0,40.47963,65.58834,-81.06161,-10.65202,-111.0878,-35.1035,0.001067912,-0.1257102,0.09433498,0,0.3,0,0,0,0,
6.38223E+17,25.23272,91.03472,45.83068,-12.44547,-31.30029,-37.42207,-4.570632,-0.4675641,0.1400836,-35.22471,-8.447793,45.12524,0,0,0,39.74857,63.7625,-84.00505,-10.65202,-111.0878,-35.1035,0.001067912,-0.1257102,0.09433498,0,0.3,0,0,0,0,
6.38223E+17,25.39764,91.61918,45.03687,-12.73845,-30.64108,-37.34882,-4.570632,-0.4675641,0.1400836,-35.22471,-8.447793,45.12524,0,0,0,38.85188,62.41477,-86.51942,-10.65202,-111.0878,-35.1035,0.001067912,-0.1257102,0.09433498,0,0.3,0,0,0,0,
6.38223E+17,25.49188,91.94647,44.4065,-12.73845,-30.27485,-37.34882,-4.570632,-0.4675641,0.1400836,-35.22471,-8.447793,45.05199,0,0,0,38.21009,61.35871,-88.21165,-10.65202,-111.0878,-35.1035,0.001067912,-0.1257102,0.09433498,0,0.3,0,0,0,0,
6.38223E+17,25.6568,92.2504,43.40257,-12.51871,-29.39591,-37.27558,-4.570632,-0.4675641,0.1400836,-35.22471,-8.447793,45.05199,0,0,0,37.40565,59.71253,-90.47659,-10.65202,-111.0878,-35.1035,0.001067912,-0.1257102,0.09433498,0,0.3,0,0,0,0,
6.38223E+17,25.7746,92.36728,43.49596,-12.29898,-28.88319,-37.27558,-4.570632,-0.4675641,0.1400836,-35.22471,-8.521038,45.12524,0,0,0,37.51609,59.85104,-90.65636,-10.65202,-111.0878,-35.1035,0.001067912,-0.1257102,0.09433498,0,0.3,0,0,0,0,
6.38223E+17,26.2458,92.50755,43.61269,-12.22573,-28.66346,-36.9826,-4.570632,-0.4675641,0.1400836,-35.15147,-8.447793,45.05199,0,0,0,38.0966,60.02437,-91.08345,-10.65202,-111.0878,-35.1035,0.001067912,-0.1257102,0.09433498,0,0.3,0,0,0,0,
6.38223E+17,27.87143,92.53093,43.63604,-11.49328,-28.66346,-36.83611,-4.570632,-0.4675641,0.1400836,-35.15147,-8.447793,45.05199,0,0,0,40.26621,60.05947,-92.20859,-10.65202,-111.0878,-35.1035,0.001067912,-0.1257102,0.09433498,0,0.3,0,0,0,0,
6.38223E+17,30.10963,92.4608,43.63604,-9.588906,-28.59021,-36.90935,-4.570632,-0.4675641,0.1400836,-35.22471,-8.447793,45.05199,0,0,0,43.29092,60.06657,-93.69816,-10.65202,-111.0878,-35.1035,0.001067912,-0.1257102,0.09433498,0,0.3,0,0,0,0,
6.38223E+17,32.51274,92.20364,43.42591,-6.439363,-28.51697,-38.52075,-4.570632,-0.4675641,0.1400836,-35.22471,-8.521038,45.05199,0,0,0,46.51386,59.7541,-95.3737,-10.65202,-111.0878,-35.1035,0.001067912,-0.1257102,0.09433498,0,0.3,0,0,0,0,
6.38223E+17,34.02058,91.99323,43.28583,-4.388499,-28.37048,-40.35188,-4.570632,-0.4675641,0.1400836,-35.22471,-8.447793,45.05199,0,0,0,48.55919,59.54821,-96.4138,-10.65202,-111.0878,-35.1035,0.001067912,-0.1257102,0.09433498,0,0.3,0,0,0,0,
6.38223E+17,35.43418,91.54904,43.05236,-2.044653,-28.29723,-42.69572,-4.570632,-0.4675641,0.1400836,-35.22471,-8.447793,45.05199,0,0,0,50.68834,59.2084,-97.11461,-10.65202,-111.0878,-35.1035,0.001067912,-0.1257102,0.09433498,0,0.3,0,0,0,0,
6.38223E+17,35.99962,91.29189,42.91228,-1.019221,-28.22399,-43.72115,-4.570632,-0.4675641,0.1400836,-35.22471,-8.447793,45.05199,0,0,0,51.60036,59.00096,-97.3272,-10.65202,-111.0878,-35.1035,0.001067912,-0.1257102,0.09433498,0,0.3,0,0,0,0,
6.38223E+17,37.93154,90.26324,42.51537,1.617605,-28.15074,-46.35798,-4.570632,-0.4675641,0.1400836,-35.22471,-8.447793,45.05199,0,0,0,55.01964,58.40683,-97.75436,-10.65202,-111.0878,-35.1035,0.001067912,-0.1257102,0.09433498,0,0.3,0,0,0,0,
6.38223E+17,38.85038,89.6554,42.2352,2.643037,-28.0775,-47.01719,-4.570632,-0.4675641,0.1400836,-35.22471,-8.521038,45.05199,0,0,0,56.72987,57.96635,-97.91917,-10.65202,-111.0878,-35.1035,0.001067912,-0.1257102,0.09433498,0,0.3,0,0,0,0,
6.38223E+17,40.82941,88.41636,41.69822,4.693902,-27.85776,-48.3356,-4.570632,-0.4675641,0.1400836,-35.22471,-8.521038,45.12524,0,0,0,60.40585,57.0821,-98.44173,-10.65202,-111.0878,-35.1035,0.001067912,-0.1257102,0.09433498,0,0.3,0,0,0,0,
6.38223E+17,43.44457,87.29421,41.37135,7.110993,-27.41829,-50.09349,-4.570632,-0.4675641,0.1400836,-35.15147,-8.447793,45.12524,0,0,0,64.93572,56.47994,-99.7893,-10.65202,-111.0878,-35.1035,0.001067912,-0.1257102,0.09433498,0,0.3,0,0,0,0,
6.38223E+17,47.16704,85.49409,40.74098,11.06623,-26.75908,-53.24303,-4.570632,-0.4675641,0.1400836,-35.22471,-8.447793,45.12524,0,0,0,71.50483,55.25285,-102.0594,-10.65202,-111.0878,-35.1035,0.001067912,-0.1257102,0.09433498,0,0.3,0,0,0,0,
6.38223E+17,49.05184,84.06802,40.32073,13.70306,-26.02663,-55.51363,-4.570632,-0.4675641,0.1400836,-35.22471,-8.447793,45.05199,0,0,0,75.58136,54.31533,-102.7681,-10.65202,-111.0878,-35.1035,0.001067912,-0.1257102,0.09433498,0,0.3,0,0,0,0,
6.38223E+17,50.98376,82.36141,40.1106,16.8526,-24.92796,-57.93071,-4.570632,-0.4675641,0.1400836,-35.22471,-8.447793,45.12524,0,0,0,80.52349,53.53031,-103.1056,-10.65202,-111.0878,-35.1035,0.001067912,-0.1257102,0.09433498,0,0.3,0,0,0,0,
6.38223E+17,51.73767,81.54317,40.04056,18.24426,-24.41524,-59.02939,-4.570632,-0.4675641,0.1400836,-35.22471,-8.447793,45.05199,0,0,0,82.7576,53.15876,-103.0803,-10.65202,-111.0878,-35.1035,0.001067912,-0.1257102,0.09433498,0,0.3,0,0,0,0,
6.38223E+17,53.43399,78.10658,39.50357,22.05301,-23.17007,-61.22675,-4.570632,-0.4675641,0.1400836,-35.22471,-8.521038,45.05199,0,0,0,90.20398,50.94648,-101.4416,-10.65202,-111.0878,-35.1035,0.001067912,-0.1257102,0.09433498,0,0.3,0,0,0,0,
6.38223E+17,54.18791,76.00254,39.03663,23.73765,-22.43762,-61.73947,-4.570632,-0.4675641,0.1400836,-35.22471,-8.447793,45.05199,0,0,0,94.26424,49.16162,-100.3342,-10.65202,-111.0878,-35.1035,0.001067912,-0.1257102,0.09433498,0,0.3,0,0,0,0,
6.38223E+17,54.65911,74.38944,38.77981,24.90957,-21.77841,-61.9592,-4.570632,-0.4675641,0.1400836,-35.15147,-8.447793,45.05199,0,0,0,97.40173,47.82696,-99.28131,-10.65202,-111.0878,-35.1035,0.001067912,-0.1257102,0.09433498,0,0.3,0,0,0,0,
6.38223E+17,55.27167,71.42041,38.33621,26.7407,-20.53325,-62.10569,-4.570632,-0.4675641,0.1400836,-35.15147,-8.447793,45.12524,0,0,0,102.8987,45.15239,-97.02426,-10.65202,-111.0878,-35.1035,0.001067912,-0.1257102,0.09433498,0,0.3,0,0,0,0,
6.38223E+17,55.24811,67.53963,37.37897,28.42534,-18.04291,-62.17894,-4.570632,-0.4675641,0.1400836,-35.22471,-8.521038,45.05199,0,0,0,108.373,40.61969,-93.16368,-10.65202,-111.0878,-35.1035,0.001067912,-0.1257102,0.09433498,0,0.3,0,0,0,0,
6.38223E+17,55.24811,65.62261,36.81864,29.0113,-16.94423,-62.17894,-4.570632,-0.4675641,0.1400836,-35.22471,-8.447793,45.05199,0,0,0,110.882,38.05986,-91.42296,-10.65202,-111.0878,-35.1035,0.001067912,-0.1257102,0.09433498,0,0.3,0,0,0,0,
6.38223E+17,55.22455,62.9575,36.09487,29.59726,-15.1131,-62.10569,-4.570632,-0.4675641,0.1400836,-35.22471,-8.447793,45.12524,0,0,0,114.3277,34.3683,-88.96281,-10.65202,-111.0878,-35.1035,0.001067912,-0.1257102,0.09433498,0,0.3,0,0,0,0,
6.38223E+17,55.22455,60.26901,35.27772,30.03673,-13.35522,-62.03245,-4.570632,-0.4675641,0.1400836,-35.22471,-8.447793,45.05199,0,0,0,117.5801,30.28435,-86.70441,-10.65202,-111.0878,-35.1035,0.001067912,-0.1257102,0.09433498,0,0.3,0,0,0,0,
6.38223E+17,55.22455,57.01944,34.25044,30.10997,-11.67058,-62.03245,-4.570632,-0.4675641,0.1400836,-35.22471,-8.447793,45.05199,0,0,0,121.271,24.98618,-84.14149,-10.65202,-111.0878,-35.1035,0.001067912,-0.1257102,0.09433498,0,0.3,0,0,0,0,
6.38223E+17,55.22455,54.49459,33.6901,29.96349,-10.20568,-62.03245,-4.570632,-0.4675641,0.1400836,-35.22471,-8.447793,45.12524,0,0,0,124.3724,20.95114,-81.98792,-10.65202,-111.0878,-35.1035,0.001067912,-0.1257102,0.09433498,0,0.3,0,0,0,0,
6.38223E+17,55.22455,53.06852,33.3399,29.96349,-9.25349,-62.10569,-4.570632,-0.4675641,0.1400836,-35.22471,-8.521038,45.05199,0,0,0,126.0136,18.54004,-80.8483,-10.65202,-111.0878,-35.1035,0.001067912,-0.1257102,0.09433498,0,0.3,0,0,0,0,
6.38223E+17,55.20099,50.23976,32.70952,29.96349,-7.202625,-62.03245,-4.570632,-0.4675641,0.1400836,-35.22471,-8.447793,45.05199,0,0,0,129.2071,13.65632,-78.55205,-10.65202,-111.0878,-35.1035,0.001067912,-0.1257102,0.09433498,0,0.3,0,0,0,0,
6.38223E+17,55.15387,47.0837,31.96241,30.18322,-5.00527,-62.03245,-4.570632,-0.4675641,0.1400836,-35.22471,-8.447793,45.05199,0,0,0,132.4531,7.875215,-76.13448,-10.65202,-111.0878,-35.1035,0.001067912,-0.1257102,0.09433498,0,0.3,0,0,0,0,
6.38223E+17,54.87115,44.46534,31.14525,30.25646,-2.954405,-62.03245,-4.570632,-0.4675641,0.1400836,-35.22471,-8.447793,45.12524,0,0,0,134.2422,2.629922,-73.90198,-10.65202,-111.0878,-35.1035,0.001067912,-0.1257102,0.09433498,0,0.3,0,0,0,0,
6.38223E+17,54.42351,42.01063,30.39814,30.32971,-0.9767859,-61.81271,-4.570632,-0.4675641,0.1400836,-35.22471,-8.447793,45.12524,0,0,0,135.4679,-2.421436,-71.44853,-10.65202,-111.0878,-35.1035,0.001067912,-0.1257102,0.09433498,0,0.3,0,0,0,0,
6.38223E+17,53.74027,39.71957,29.53429,30.10997,0.9275885,-61.1535,-4.570632,-0.4675641,0.1400836,-35.15147,-8.447793,45.05199,0,0,0,135.7113,-7.457889,-68.8069,-10.65202,-111.0878,-35.1035,0.001067912,-0.1257102,0.09433498,0,0.3,0,0,0,0,
6.38223E+17,52.56227,37.17134,28.06341,29.37753,3.63766,-59.46887,-4.570632,-0.4675641,0.1400836,-35.22471,-8.447793,45.05199,0,0,0,134.182,-13.75154,-65.62004,-10.65202,-111.0878,-35.1035,0.001067912,-0.1257102,0.09433498,0,0.3,0,0,0,0,
6.38223E+17,51.73767,35.81541,27.01279,28.71832,5.175808,-58.29694,-4.570632,-0.4675641,0.1400836,-35.22471,-8.521038,45.05199,0,0,0,132.4609,-17.41902,-63.88003,-10.65202,-111.0878,-35.1035,0.001067912,-0.1257102,0.09433498,0,0.3,0,0,0,0,
6.38223E+17,50.30051,33.99191,25.12166,27.54639,7.226673,-56.68555,-4.570632,-0.4675641,0.1400836,-35.15147,-8.447793,45.05199,0,0,0,128.6256,-22.83345,-61.56494,-10.65202,-111.0878,-35.1035,0.001067912,-0.1257102,0.09433498,0,0.3,0,0,0,0,
6.38223E+17,48.4864,31.958,23.04375,25.935,9.424027,-55.00091,-4.570632,-0.4675641,0.1400836,-35.15147,-8.447793,45.05199,0,0,0,123.8038,-28.77768,-58.7652,-10.65202,-111.0878,-35.1035,0.001067912,-0.1257102,0.09433498,0,0.3,0,0,0,0,
6.38223E+17,46.10685,29.52667,20.61563,24.03063,11.54814,-52.80355,-4.570632,-0.4675641,0.1400836,-35.22471,-8.521038,45.05199,0,0,0,117.4514,-35.74203,-55.35097,-10.65202,-111.0878,-35.1035,0.001067912,-0.1257102,0.09433498,0,0.3,0,0,0,0,
6.38223E+17,43.77441,27.51615,18.51438,22.41923,13.37927,-50.53296,-4.570632,-0.4675641,0.1400836,-35.22471,-8.521038,45.12524,0,0,0,111.1132,-41.49083,-52.37855,-10.65202,-111.0878,-35.1035,0.001067912,-0.1257102,0.09433498,0,0.3,0,0,0,0,
6.38223E+17,42.43149,26.41737,17.44041,21.3938,14.55119,-49.50752,-4.570632,-0.4675641,0.1400836,-35.22471,-8.521038,45.12524,0,0,0,107.5431,-44.54148,-50.70521,-10.65202,-111.0878,-35.1035,0.001067912,-0.1257102,0.09433498,0,0.3,0,0,0,0,
6.38223E+17,39.55717,24.50036,15.47924,18.97671,16.89503,-46.94394,-4.570632,-0.4675641,0.1400836,-35.22471,-8.447793,45.05199,0,0,0,99.94224,-49.86293,-47.35657,-10.65202,-111.0878,-35.1035,0.001067912,-0.1257102,0.09433498,0,0.3,0,0,0,0,
6.38223E+17,35.31638,22.44308,12.91104,15.53419,19.31213,-43.35493,-4.570632,-0.4675641,0.1400836,-35.22471,-8.447793,45.05199,0,0,0,88.47417,-55.72026,-43.46917,-10.65202,-111.0878,-35.1035,0.001067912,-0.1257102,0.09433498,0,0.3,0,0,0,0,
6.38223E+17,33.12531,21.74173,11.86041,13.55657,20.33756,-41.74353,-4.570632,-0.4675641,0.1400836,-35.22471,-8.447793,45.05199,0,0,0,82.66537,-57.75719,-41.66391,-10.65202,-111.0878,-35.1035,0.001067912,-0.1257102,0.09433498,0,0.3,0,0,0,0,
6.38223E+17,29.75623,21.15727,10.24945,10.11404,21.65597,-39.69267,-4.570632,-0.4675641,0.1400836,-35.15147,-8.447793,45.05199,0,0,0,73.49809,-59.74214,-39.78746,-10.65202,-111.0878,-35.1035,0.001067912,-0.1257102,0.09433498,0,0.3,0,0,0,0,
6.38223E+17,26.05732,21.06376,8.918655,6.378541,22.60816,-38.15452,-4.570632,-0.4675641,0.1400836,-35.15147,-8.521038,45.05199,0,0,0,63.74389,-60.46085,-37.9868,-10.65202,-111.0878,-35.1035,0.001067912,-0.1257102,0.09433498,0,0.3,0,0,0,0,
6.38223E+17,21.55737,21.06376,8.218237,1.031644,23.34061,-37.20233,-4.570632,-0.4675641,0.1400836,-35.15147,-8.521038,45.12524,0,0,0,52.72704,-60.70372,-34.88662,-10.65202,-111.0878,-35.1035,0.001067912,-0.1257102,0.09433498,0,0.3,0,0,0,0,
6.38223E+17,18.11761,21.08714,7.961418,-3.509557,23.85333,-36.1769,-4.570632,-0.4675641,0.1400836,-35.22471,-8.447793,45.05199,0,0,0,44.43428,-60.73707,-32.54452,-10.65202,-111.0878,-35.1035,0.001067912,-0.1257102,0.09433498,0,0.3,0,0,0,0,
6.38223E+17,16.35061,21.08714,7.844682,-5.780157,24.14631,-35.59094,-4.570632,-0.4675641,0.1400836,-35.22471,-8.447793,45.12524,0,0,0,40.14982,-60.77442,-31.49719,-10.65202,-111.0878,-35.1035,0.001067912,-0.1257102,0.09433498,0,0.3,0,0,0,0,
6.38223E+17,12.48678,21.20403,7.681251,-10.02838,24.65902,-34.19928,-4.570632,-0.4675641,0.1400836,-35.22471,-8.447793,45.12524,0,0,0,30.73396,-60.57207,-29.56653,-10.65202,-111.0878,-35.1035,0.001067912,-0.1257102,0.09433498,0,0.3,0,0,0,0,
6.38223E+17,8.717185,21.43781,7.611208,-14.56958,25.09849,-33.10061,-4.570632,-0.4675641,0.1400836,-35.22471,-8.447793,45.05199,0,0,0,21.48877,-60.08689,-28.20145,-10.65202,-111.0878,-35.1035,0.001067912,-0.1257102,0.09433498,0,0.3,0,0,0,0,
6.38223E+17,4.947592,21.5547,7.541167,-19.25727,25.24498,-32.4414,-4.570632,-0.4675641,0.1400836,-35.15147,-8.447793,45.12524,0,0,0,12.20576,-59.85526,-27.3522,-10.65202,-111.0878,-35.1035,0.001067912,-0.1257102,0.09433498,0,0.3,0,0,0,0,
6.38223E+17,1.955477,21.92875,7.681251,-23.13926,24.95201,-31.34272,-4.570632,-0.4675641,0.1400836,-35.22471,-8.447793,45.05199,0,0,0,4.829268,-59.00344,-26.90662,-10.65202,-111.0878,-35.1035,0.001067912,-0.1257102,0.09433498,0,0.3,0,0,0,0,
6.38223E+17,-1.130878,22.11578,8.054807,-26.28881,24.14631,-29.21861,-4.570632,-0.4675641,0.1400836,-35.15147,-8.447793,45.05199,0,0,0,-2.806967,-58.4809,-26.15389,-10.65202,-111.0878,-35.1035,0.001067912,-0.1257102,0.09433498,0,0.3,0,0,0,0,
6.38223E+17,-4.240793,22.11578,8.778571,-29.43835,23.04763,-26.94801,-4.570632,-0.4675641,0.1400836,-35.22471,-8.447793,45.05199,0,0,0,-10.64042,-58.23434,-24.85381,-10.65202,-111.0878,-35.1035,0.001067912,-0.1257102,0.09433498,0,0.3,0,0,0,0,
6.38223E+17,-6.12559,22.04565,9.385601,-31.92868,21.72922,-25.99582,-4.570632,-0.4675641,0.1400836,-35.22471,-8.447793,45.05199,0,0,0,-15.50967,-58.16259,-23.83329,-10.65202,-111.0878,-35.1035,0.001067912,-0.1257102,0.09433498,0,0.3,0,0,0,0,
6.38223E+17,-7.774787,21.53132,9.852547,-34.93173,20.26431,-25.33662,-4.570632,-0.4675641,0.1400836,-35.22471,-8.447793,45.12524,0,0,0,-19.86748,-59.09251,-22.83766,-10.65202,-111.0878,-35.1035,0.001067912,-0.1257102,0.09433498,0,0.3,0,0,0,0,
6.38223E+17,-8.293106,20.99363,10.01598,-36.32339,19.7516,-25.19013,-4.570632,-0.4675641,0.1400836,-35.22471,-8.521038,45.12524,0,0,0,-21.30251,-60.19313,-22.20351,-10.65202,-111.0878,-35.1035,0.001067912,-0.1257102,0.09433498,0,0.3,0,0,0,0,
6.38223E+17,-8.905665,19.38053,10.38953,-38.81373,19.16564,-25.04364,-4.570632,-0.4675641,0.1400836,-35.22471,-8.447793,45.12524,0,0,0,-23.19676,-63.56271,-20.31436,-10.65202,-111.0878,-35.1035,0.001067912,-0.1257102,0.09433498,0,0.3,0,0,0,0,
6.38223E+17,-9.023465,17.44014,10.45957,-40.57161,19.31213,-24.89715,-4.570632,-0.4675641,0.1400836,-35.22471,-8.521038,45.12524,0,0,0,-23.7499,-67.81793,-18.79548,-10.65202,-111.0878,-35.1035,0.001067912,-0.1257102,0.09433498,0,0.3,0,0,0,0,
6.38223E+17,-8.976345,15.68677,10.55296,-41.5238,19.89809,-24.8239,-4.570632,-0.4675641,0.1400836,-35.22471,-8.447793,45.05199,0,0,0,-23.84175,-71.68958,-17.41586,-10.65202,-111.0878,-35.1035,0.001067912,-0.1257102,0.09433498,0,0.3,0,0,0,0,
6.38223E+17,-8.363786,14.47111,10.76309,-42.10976,20.55729,-24.8239,-4.570632,-0.4675641,0.1400836,-35.15147,-8.447793,45.05199,0,0,0,-22.40372,-74.33101,-15.96589,-10.65202,-111.0878,-35.1035,0.001067912,-0.1257102,0.09433498,0,0.3,0,0,0,0,
6.38223E+17,-6.26695,13.76976,10.92652,-41.30406,21.28975,-24.8239,-4.570632,-0.4675641,0.1400836,-35.22471,-8.447793,45.12524,0,0,0,-16.89746,-75.84242,-14.48103,-10.65202,-111.0878,-35.1035,0.001067912,-0.1257102,0.09433498,0,0.3,0,0,0,0,
6.38223E+17,-4.335033,13.72301,10.94987,-39.69267,21.65597,-24.53092,-4.570632,-0.4675641,0.1400836,-35.22471,-8.521038,45.05199,0,0,0,-11.70662,-75.93781,-13.91986,-10.65202,-111.0878,-35.1035,0.001067912,-0.1257102,0.09433498,0,0.3,0,0,0,0,
6.38223E+17,-1.554958,13.48922,10.90317,-36.76286,21.87571,-23.72522,-4.570632,-0.4675641,0.1400836,-35.22471,-8.447793,45.12524,0,0,0,-4.203186,-76.48725,-13.51253,-10.65202,-111.0878,-35.1035,0.001067912,-0.1257102,0.09433498,0,0.3,0,0,0,0,
6.38223E+17,-0.1884797,13.27882,10.85648,-35.07822,22.0222,-23.43224,-4.570632,-0.4675641,0.1400836,-35.22471,-8.447793,45.05199,0,0,0,-0.5095605,-76.98415,-13.4497,-10.65202,-111.0878,-35.1035,0.001067912,-0.1257102,0.09433498,0,0.3,0,0,0,0,
6.38223E+17,4.193673,12.46058,10.62301,-29.73133,22.0222,-22.40681,-4.570632,-0.4675641,0.1400836,-35.22471,-8.447793,45.05199,0,0,0,11.3196,-78.94192,-13.97301,-10.65202,-111.0878,-35.1035,0.001067912,-0.1257102,0.09433498,0,0.3,0,0,0,0,
6.38223E+17,5.513031,12.10991,10.41288,-28.11993,21.87571,-22.04058,-4.570632,-0.4675641,0.1400836,-35.22471,-8.447793,45.05199,0,0,0,14.84163,-79.82866,-14.58032,-10.65202,-111.0878,-35.1035,0.001067912,-0.1257102,0.09433498,0,0.3,0,0,0,0,
6.38223E+17,9.094145,11.22154,9.969283,-23.87171,21.87571,-21.30813,-4.570632,-0.4675641,0.1400836,-35.22471,-8.447793,45.12524,0,0,0,24.32282,-82.03619,-16.39816,-10.65202,-111.0878,-35.1035,0.001067912,-0.1257102,0.09433498,0,0.3,0,0,0,0,
6.38223E+17,12.10982,11.03451,9.73581,-19.91648,21.87571,-20.94191,-4.570632,-0.4675641,0.1400836,-35.22471,-8.447793,45.05199,0,0,0,32.1885,-82.55627,-18.3295,-10.65202,-111.0878,-35.1035,0.001067912,-0.1257102,0.09433498,0,0.3,0,0,0,0,
6.38223E+17,13.7119,11.05789,9.689116,-17.79236,21.80246,-20.72217,-4.570632,-0.4675641,0.1400836,-35.15147,-8.447793,45.05199,0,0,0,36.34231,-82.5212,-19.40226,-10.65202,-111.0878,-35.1035,0.001067912,-0.1257102,0.09433498,0,0.3,0,0,0,0,
6.38223E+17,16.86893,11.40856,9.712462,-13.39765,21.58273,-19.98972,-4.570632,-0.4675641,0.1400836,-35.22471,-8.447793,45.05199,0,0,0,44.45953,-81.71152,-21.73067,-10.65202,-111.0878,-35.1035,0.001067912,-0.1257102,0.09433498,0,0.3,0,0,0,0,
6.38223E+17,19.93173,12.53072,9.852547,-8.856454,21.43624,-19.11078,-4.570632,-0.4675641,0.1400836,-35.22471,-8.447793,45.05199,0,0,0,52.15483,-79.10126,-24.52275,-10.65202,-111.0878,-35.1035,0.001067912,-0.1257102,0.09433498,0,0.3,0,0,0,0,
6.38223E+17,22.90028,14.61138,10.06267,-4.754725,20.92352,-18.59806,-4.570632,-0.4675641,0.1400836,-35.15147,-8.447793,45.05199,0,0,0,59.27865,-74.30963,-28.01971,-10.65202,-111.0878,-35.1035,0.001067912,-0.1257102,0.09433498,0,0.3,0,0,0,0,
6.38223E+17,26.15156,17.29987,10.62301,-0.5065048,20.26431,-18.37833,-4.570632,-0.4675641,0.1400836,-35.22471,-8.521038,45.12524,0,0,0,66.94947,-68.05992,-31.99981,-10.65202,-111.0878,-35.1035,0.001067912,-0.1257102,0.09433498,0,0.3,0,0,0,0,
6.38223E+17,28.22483,19.17013,11.20669,2.276812,19.7516,-18.37833,-4.570632,-0.4675641,0.1400836,-35.22471,-8.447793,45.12524,0,0,0,71.82516,-63.66864,-34.53593,-10.65202,-111.0878,-35.1035,0.001067912,-0.1257102,0.09433498,0,0.3,0,0,0,0,
6.38223E+17,30.55727,21.62484,12.00049,5.353109,18.9459,-18.30508,-4.570632,-0.4675641,0.1400836,-35.22471,-8.447793,45.05199,0,0,0,77.11938,-57.94259,-37.72602,-10.65202,-111.0878,-35.1035,0.001067912,-0.1257102,0.09433498,0,0.3,0,0,0,0,
6.38223E+17,33.12531,24.64063,12.91104,8.649141,17.70073,-18.37833,-4.570632,-0.4675641,0.1400836,-35.22471,-8.447793,45.12524,0,0,0,82.51872,-51.03167,-41.88866,-10.65202,-111.0878,-35.1035,0.001067912,-0.1257102,0.09433498,0,0.3,0,0,0,0,
6.38223E+17,35.45774,27.63304,14.14844,11.35921,16.30907,-19.11078,-4.570632,-0.4675641,0.1400836,-35.15147,-8.447793,45.05199,0,0,0,87.44173,-44.10627,-45.56977,-10.65202,-111.0878,-35.1035,0.001067912,-0.1257102,0.09433498,0,0.3,0,0,0,0,
6.38223E+17,37.43678,31.11639,15.66602,13.7763,14.77092,-20.42919,-4.570632,-0.4675641,0.1400836,-35.22471,-8.447793,45.05199,0,0,0,91.28736,-36.13395,-49.1098,-10.65202,-111.0878,-35.1035,0.001067912,-0.1257102,0.09433498,0,0.3,0,0,0,0,
6.38223E+17,38.26138,33.17367,16.52986,14.72849,13.81874,-21.16164,-4.570632,-0.4675641,0.1400836,-35.22471,-8.521038,45.05199,0,0,0,92.61263,-31.52258,-50.91941,-10.65202,-111.0878,-35.1035,0.001067912,-0.1257102,0.09433498,0,0.3,0,0,0,0,
6.38223E+17,39.29802,37.56877,18.35095,16.12015,11.25516,-23.06602,-4.570632,-0.4675641,0.1400836,-35.22471,-8.447793,45.05199,0,0,0,93.53349,-21.91334,-54.06633,-10.65202,-111.0878,-35.1035,0.001067912,-0.1257102,0.09433498,0,0.3,0,0,0,0,
6.38223E+17,39.62786,42.19766,20.40551,16.63286,7.812634,-25.84933,-4.570632,-0.4675641,0.1400836,-35.22471,-8.447793,45.12524,0,0,0,92.66196,-12.06218,-56.45174,-10.65202,-111.0878,-35.1035,0.001067912,-0.1257102,0.09433498,0,0.3,0,0,0,0,
6.38223E+17,39.46294,46.96681,22.92702,16.33988,3.63766,-29.21861,-4.570632,-0.4675641,0.1400836,-35.22471,-8.447793,45.12524,0,0,0,90.85509,-1.992276,-57.98859,-10.65202,-111.0878,-35.1035,0.001067912,-0.1257102,0.09433498,0,0.3,0,0,0,0,
6.38223E+17,39.08598,49.25787,24.09438,15.90041,1.000834,-30.83001,-4.570632,-0.4675641,0.1400836,-35.22471,-8.447793,45.12524,0,0,0,89.19518,2.651472,-58.54045,-10.65202,-111.0878,-35.1035,0.001067912,-0.1257102,0.09433498,0,0.3,0,0,0,0,
6.38223E+17,38.26138,51.59569,24.81814,14.87498,-1.928973,-32.88087,-4.570632,-0.4675641,0.1400836,-35.22471,-8.447793,45.05199,0,0,0,85.95818,6.814889,-59.35709,-10.65202,-111.0878,-35.1035,0.001067912,-0.1257102,0.09433498,0,0.3,0,0,0,0,
6.38223E+17,37.81374,52.5542,24.95823,14.21577,-3.027651,-33.75981,-4.570632,-0.4675641,0.1400836,-35.15147,-8.447793,45.12524,0,0,0,84.2065,8.323215,-59.84537,-10.65202,-111.0878,-35.1035,0.001067912,-0.1257102,0.09433498,0,0.3,0,0,0,0,
6.38223E+17,36.02318,55.21932,25.07496,12.09166,-5.15176,-35.29796,-4.570632,-0.4675641,0.1400836,-35.22471,-8.521038,45.05199,0,0,0,77.97311,12.09359,-61.12048,-10.65202,-111.0878,-35.1035,0.001067912,-0.1257102,0.09433498,0,0.3,0,0,0,0,
6.38223E+17,35.29282,55.85053,25.07496,11.5057,-5.517986,-35.44445,-4.570632,-0.4675641,0.1400836,-35.22471,-8.447793,45.05199,0,0,0,75.90015,12.92494,-61.12389,-10.65202,-111.0878,-35.1035,0.001067912,-0.1257102,0.09433498,0,0.3,0,0,0,0,
6.38223E+17,33.21954,57.20647,25.09831,9.747819,-6.103948,-35.51769,-4.570632,-0.4675641,0.1400836,-35.22471,-8.447793,45.05199,0,0,0,70.5561,14.68844,-60.60921,-10.65202,-111.0878,-35.1035,0.001067912,-0.1257102,0.09433498,0,0.3,0,0,0,0,
6.38223E+17,30.74575,58.51564,25.21505,7.550464,-6.470173,-35.51769,-4.570632,-0.4675641,0.1400836,-35.22471,-8.521038,45.05199,0,0,0,64.64674,16.42481,-59.67026,-10.65202,-111.0878,-35.1035,0.001067912,-0.1257102,0.09433498,0,0.3,0,0,0,0,
6.38223E+17,27.40023,59.66118,25.40182,4.913638,-6.836399,-34.49226,-4.570632,-0.4675641,0.1400836,-35.22471,-8.521038,45.12524,0,0,0,57.32253,17.98024,-57.76475,-10.65202,-111.0878,-35.1035,0.001067912,-0.1257102,0.09433498,0,0.3,0,0,0,0,
6.38223E+17,23.46572,60.43266,25.44852,1.471115,-6.98289,-32.80762,-4.570632,-0.4675641,0.1400836,-35.22471,-8.521038,45.05199,0,0,0,49.01908,18.92339,-55.42914,-10.65202,-111.0878,-35.1035,0.001067912,-0.1257102,0.09433498,0,0.3,0,0,0,0,
6.38223E+17,18.54169,60.75995,25.44852,-2.85035,-6.909645,-30.09755,-4.570632,-0.4675641,0.1400836,-35.22471,-8.447793,45.05199,0,0,0,38.9346,19.29737,-52.26752,-10.65202,-111.0878,-35.1035,0.001067912,-0.1257102,0.09433498,0,0.3,0,0,0,0,
6.38223E+17,13.31138,60.57293,25.44852,-7.538041,-6.763155,-27.31424,-4.570632,-0.4675641,0.1400836,-35.22471,-8.447793,45.12524,0,0,0,28.27785,19.08413,-48.83232,-10.65202,-111.0878,-35.1035,0.001067912,-0.1257102,0.09433498,0,0.3,0,0,0,0,
6.38223E+17,6.36119,59.40401,25.42517,-15.44852,-6.323683,-24.09145,-4.570632,-0.4675641,0.1400836,-35.22471,-8.447793,45.05199,0,0,0,13.86321,17.70008,-43.99632,-10.65202,-111.0878,-35.1035,0.001067912,-0.1257102,0.09433498,0,0.3,0,0,0,0,
6.38223E+17,3.510434,58.53902,25.42517,-19.69674,-5.810967,-22.40681,-4.570632,-0.4675641,0.1400836,-35.22471,-8.521038,45.05199,0,0,0,7.767013,16.66237,-41.73886,-10.65202,-111.0878,-35.1035,0.001067912,-0.1257102,0.09433498,0,0.3,0,0,0,0,
6.38223E+17,0.5654391,56.87917,25.1917,-24.75066,-4.932025,-19.69674,-4.570632,-0.4675641,0.1400836,-35.22471,-8.521038,45.05199,0,0,0,1.279204,14.36639,-38.73281,-10.65202,-111.0878,-35.1035,0.001067912,-0.1257102,0.09433498,0,0.3,0,0,0,0,
6.38223E+17,-1.437158,55.00891,25.07496,-28.5594,-3.760103,-17.05991,-4.570632,-0.4675641,0.1400836,-35.15147,-8.521038,45.05199,0,0,0,-3.335297,11.81351,-35.40818,-10.65202,-111.0878,-35.1035,0.001067912,-0.1257102,0.09433498,0,0.3,0,0,0,0,
6.38223E+17,-2.591596,53.39582,25.02827,-31.48921,-2.368444,-15.08229,-4.570632,-0.4675641,0.1400836,-35.15147,-8.447793,45.12524,0,0,0,-6.146281,9.571581,-32.55886,-10.65202,-111.0878,-35.1035,0.001067912,-0.1257102,0.09433498,0,0.3,0,0,0,0,
6.38223E+17,-3.227715,51.64245,24.70141,-33.39359,-1.343012,-14.20335,-4.570632,-0.4675641,0.1400836,-35.22471,-8.447793,45.12524,0,0,0,-7.796937,6.768666,-30.09152,-10.65202,-111.0878,-35.1035,0.001067912,-0.1257102,0.09433498,0,0.3,0,0,0,0,
6.38223E+17,-3.510434,50.21638,24.39789,-34.27253,-0.8302955,-13.91037,-4.570632,-0.4675641,0.1400836,-35.22471,-8.447793,45.05199,0,0,0,-8.597491,4.383315,-28.20112,-10.65202,-111.0878,-35.1035,0.001067912,-0.1257102,0.09433498,0,0.3,0,0,0,0,
6.38223E+17,-3.675354,47.66816,23.67413,-35.3712,0.1218917,-13.61739,-4.570632,-0.4675641,0.1400836,-35.22471,-8.447793,45.05199,0,0,0,-9.18889,-0.1978859,-25.29921,-10.65202,-111.0878,-35.1035,0.001067912,-0.1257102,0.09433498,0,0.3,0,0,0,0,
6.38223E+17,-3.651794,43.57697,22.15656,-36.25014,1.733285,-13.4709,-4.570632,-0.4675641,0.1400836,-35.15147,-8.447793,45.05199,0,0,0,-9.356246,-8.231068,-21.75156,-10.65202,-111.0878,-35.1035,0.001067912,-0.1257102,0.09433498,0,0.3,0,0,0,0,
6.38223E+17,-3.557554,41.47293,21.66626,-36.54313,2.612227,-13.4709,-4.570632,-0.4675641,0.1400836,-35.22471,-8.447793,45.12524,0,0,0,-9.254788,-12.26565,-19.48967,-10.65202,-111.0878,-35.1035,0.001067912,-0.1257102,0.09433498,0,0.3,0,0,0,0,
6.38223E+17,-3.133475,38.34025,20.80241,-36.90935,4.150376,-13.39765,-4.570632,-0.4675641,0.1400836,-35.15147,-8.447793,45.05199,0,0,0,-8.305953,-18.58597,-16.62658,-10.65202,-111.0878,-35.1035,0.001067912,-0.1257102,0.09433498,0,0.3,0,0,0,0,
6.38223E+17,-2.073277,35.58163,19.98526,-36.83611,5.688524,-13.39765,-4.570632,-0.4675641,0.1400836,-35.22471,-8.447793,45.12524,0,0,0,-5.572365,-24.37842,-14.42281,-10.65202,-111.0878,-35.1035,0.001067912,-0.1257102,0.09433498,0,0.3,0,0,0,0,
6.38223E+17,-0.1413598,33.2438,18.93463,-35.73743,7.446409,-13.39765,-4.570632,-0.4675641,0.1400836,-35.22471,-8.521038,45.12524,0,0,0,-0.3819145,-29.68151,-13.55317,-10.65202,-111.0878,-35.1035,0.001067912,-0.1257102,0.09433498,0,0.3,0,0,0,0,
