zeyangz2/DNN_classification_different_people_hand/test/Frank_right_4.csv
Timestamp,Therapist joint angle 0,Therapist joint angle 1,Therapist joint angle 2,Therapist joint angle 3,Therapist joint angle 4,Therapist joint angle 5,Patient joint angle 0,Patient joint angle 1,Patient joint angle 2,Patient joint angle 3,Patient joint angle 4,Patient joint angle 5,Virtual joint angle 0,Virtual joint angle 1,Virtual joint angle 2,Therapist position x,Therapist position y,Therapist position z,Patient position x,Patient position y,Patient position z,Virtual position x,Virtual position y,Virtual position z,Assistive Force, Obstacle Force Magnitude, Therapist Constant Force, Patient Constant Force, Recovery Factor, Assistance Level,label
6.38223E+17,0,0,0,0,0,0,0,0,0,0,0,0,0,0,0,0,0,0,0,0,0,0,0,0,0,0.3,0,0,0,0,1
6.38223E+17,30.86355,-0.1636474,-13.6348,-83.05381,-8.667529,-64.52278,-4.570632,-0.4675641,0.1400836,-35.15147,-8.521038,45.05199,0,0,0,52.28167,-106.6228,-80.86744,-10.65202,-111.0878,-35.1035,0.001067912,-0.1257102,0.09433498,0,0.3,0,0,0,0,
6.38223E+17,30.86355,-0.1636474,-13.6348,-83.05381,-8.594284,-64.52278,-4.570632,-0.4675641,0.1400836,-35.15147,-8.447793,45.05199,0,0,0,52.28167,-106.6228,-80.86744,-10.65202,-111.0878,-35.1035,0.001067912,-0.1257102,0.09433498,0,0.3,0,0,0,0,
6.38223E+17,30.86355,-0.1636474,-13.6348,-83.05381,-8.667529,-64.52278,-4.570632,-0.4675641,0.1400836,-35.15147,-8.447793,45.05199,0,0,0,52.28167,-106.6228,-80.86744,-10.65202,-111.0878,-35.1035,0.001067912,-0.1257102,0.09433498,0,0.3,0,0,0,0,
6.38223E+17,30.86355,-0.1636474,-13.6348,-83.05381,-8.667529,-64.52278,-4.570632,-0.4675641,0.1400836,-35.15147,-8.447793,45.05199,0,0,0,52.28167,-106.6228,-80.86744,-10.65202,-111.0878,-35.1035,0.001067912,-0.1257102,0.09433498,0,0.3,0,0,0,0,
6.38223E+17,30.86355,-0.1636474,-13.6348,-83.05381,-8.667529,-64.52278,-4.570632,-0.4675641,0.1400836,-35.15147,-8.447793,45.05199,0,0,0,52.28167,-106.6228,-80.86744,-10.65202,-111.0878,-35.1035,0.001067912,-0.1257102,0.09433498,0,0.3,0,0,9.79E-08,0,
6.38223E+17,30.86355,-0.1636474,-13.6348,-83.05381,-8.667529,-64.52278,-4.570632,-0.4675641,0.1400836,-35.15147,-8.447793,45.12524,0,0,0,52.28167,-106.6228,-80.86744,-10.65202,-111.0878,-35.1035,0.001067912,-0.1257102,0.09433498,0,0.3,0,0,9.79E-08,0,
6.38223E+17,30.86355,-0.1636474,-13.6348,-83.05381,-8.667529,-64.44954,-4.570632,-0.4675641,0.1400836,-35.15147,-8.447793,45.05199,0,0,0,52.28167,-106.6228,-80.86744,-10.65202,-111.0878,-35.1035,0.001067912,-0.1257102,0.09433498,0,0.3,0,0,9.79E-08,0,
6.38223E+17,30.86355,-0.1636474,-13.6348,-83.05381,-8.594284,-64.44954,-4.570632,-0.4675641,0.1400836,-35.15147,-8.521038,45.12524,0,0,0,52.28167,-106.6228,-80.86744,-10.65202,-111.0878,-35.1035,0.001067912,-0.1257102,0.09433498,0,0.3,0,0,9.79E-08,0,
6.38223E+17,30.86355,-0.1636474,-13.6348,-83.05381,-8.594284,-64.44954,-4.570632,-0.4675641,0.1400836,-35.15147,-8.521038,45.05199,0,0,0,52.28167,-106.6228,-80.86744,-10.65202,-111.0878,-35.1035,0.001067912,-0.1257102,0.09433498,0,0.3,0,0,9.79E-08,0,
6.38223E+17,30.86355,-0.1636474,-13.6348,-83.05381,-8.594284,-64.44954,-4.570632,-0.4675641,0.1400836,-35.15147,-8.447793,45.05199,0,0,0,52.28167,-106.6228,-80.86744,-10.65202,-111.0878,-35.1035,0.001067912,-0.1257102,0.09433498,0,0.3,0,0,9.79E-08,0,
6.38223E+17,30.86355,-0.1636474,-13.6348,-83.05381,-8.594284,-64.52278,-4.570632,-0.4675641,0.1400836,-35.15147,-8.447793,45.12524,0,0,0,52.28167,-106.6228,-80.86744,-10.65202,-111.0878,-35.1035,0.001067912,-0.1257102,0.09433498,0,0.3,0,0,9.79E-08,0,
6.38223E+17,30.86355,-0.1636474,-13.6348,-83.05381,-8.594284,-64.44954,-4.570632,-0.4675641,0.1400836,-35.15147,-8.521038,45.05199,0,0,0,52.28167,-106.6228,-80.86744,-10.65202,-111.0878,-35.1035,0.001067912,-0.1257102,0.09433498,0,0.3,0,0,1.96E-07,0,
6.38223E+17,30.86355,-0.1636474,-13.6348,-83.05381,-8.667529,-64.52278,-4.570632,-0.4675641,0.1400836,-35.15147,-8.447793,45.05199,0,0,0,52.28167,-106.6228,-80.86744,-10.65202,-111.0878,-35.1035,0.001067912,-0.1257102,0.09433498,0,0.3,0,0,1.96E-07,0,
6.38223E+17,30.86355,-0.1636474,-13.6348,-83.05381,-8.667529,-64.52278,-4.570632,-0.4675641,0.1400836,-35.15147,-8.447793,45.05199,0,0,0,52.28167,-106.6228,-80.86744,-10.65202,-111.0878,-35.1035,0.001067912,-0.1257102,0.09433498,0,0.3,0,0,9.79E-08,0,
6.38223E+17,30.86355,-0.1636474,-13.6348,-83.05381,-8.667529,-64.52278,-4.570632,-0.4675641,0.1400836,-35.15147,-8.521038,45.05199,0,0,0,52.28167,-106.6228,-80.86744,-10.65202,-111.0878,-35.1035,0.001067912,-0.1257102,0.09433498,0,0.3,0,0,0,0,
6.38223E+17,30.86355,-0.1636474,-13.6348,-83.05381,-8.667529,-64.52278,-4.570632,-0.4675641,0.1400836,-35.15147,-8.521038,45.05199,0,0,0,52.28167,-106.6228,-80.86744,-10.65202,-111.0878,-35.1035,0.001067912,-0.1257102,0.09433498,0,0.3,0,0,0,0,
6.38223E+17,30.86355,-0.1636474,-13.6348,-83.05381,-8.594284,-64.44954,-4.570632,-0.4675641,0.1400836,-35.15147,-8.521038,45.05199,0,0,0,52.28167,-106.6228,-80.86744,-10.65202,-111.0878,-35.1035,0.001067912,-0.1257102,0.09433498,0,0.3,0,0,0,0,
6.38223E+17,30.86355,-0.1636474,-13.6348,-83.05381,-8.667529,-64.52278,-4.570632,-0.4675641,0.1400836,-35.15147,-8.447793,45.05199,0,0,0,52.28167,-106.6228,-80.86744,-10.65202,-111.0878,-35.1035,0.001067912,-0.1257102,0.09433498,0,0.3,0,0,0,0,
6.38223E+17,30.86355,-0.1636474,-13.6348,-83.05381,-8.594284,-64.44954,-4.570632,-0.4675641,0.1400836,-35.15147,-8.447793,45.05199,0,0,0,52.28167,-106.6228,-80.86744,-10.65202,-111.0878,-35.1035,0.001067912,-0.1257102,0.09433498,0,0.3,0,0,0,0,
6.38223E+17,30.86355,-0.1636474,-13.6348,-83.05381,-8.667529,-64.44954,-4.570632,-0.4675641,0.1400836,-35.15147,-8.447793,45.12524,0,0,0,52.28167,-106.6228,-80.86744,-10.65202,-111.0878,-35.1035,0.001067912,-0.1257102,0.09433498,0,0.3,0,0,0,0,
6.38223E+17,30.86355,-0.1636474,-13.6348,-83.05381,-8.594284,-64.44954,-4.570632,-0.4675641,0.1400836,-35.15147,-8.447793,45.12524,0,0,0,52.28167,-106.6228,-80.86744,-10.65202,-111.0878,-35.1035,0.001067912,-0.1257102,0.09433498,0,0.3,0,0,0,0,
6.38223E+17,30.86355,-0.1636474,-13.6348,-83.05381,-8.667529,-64.52278,-4.570632,-0.4675641,0.1400836,-35.15147,-8.447793,45.05199,0,0,0,52.28167,-106.6228,-80.86744,-10.65202,-111.0878,-35.1035,0.001067912,-0.1257102,0.09433498,0,0.3,0,0,0,0,
6.38223E+17,30.86355,-0.1636474,-13.6348,-83.05381,-8.667529,-64.52278,-4.570632,-0.4675641,0.1400836,-35.15147,-8.447793,45.12524,0,0,0,52.28167,-106.6228,-80.86744,-10.65202,-111.0878,-35.1035,0.001067912,-0.1257102,0.09433498,0,0.3,0,0,0,0,
6.38223E+17,30.86355,-0.1636474,-13.6348,-83.05381,-8.594284,-64.44954,-4.570632,-0.4675641,0.1400836,-35.15147,-8.447793,45.05199,0,0,0,52.28167,-106.6228,-80.86744,-10.65202,-111.0878,-35.1035,0.001067912,-0.1257102,0.09433498,0,0.3,0,0,0,0,
6.38223E+17,30.86355,-0.1636474,-13.6348,-83.05381,-8.594284,-64.44954,-4.570632,-0.4675641,0.1400836,-35.15147,-8.447793,45.05199,0,0,0,52.28167,-106.6228,-80.86744,-10.65202,-111.0878,-35.1035,0.001067912,-0.1257102,0.09433498,0,0.3,0,0,0,0,
6.38223E+17,30.86355,-0.1636474,-13.6348,-83.05381,-8.667529,-64.44954,-4.570632,-0.4675641,0.1400836,-35.15147,-8.447793,45.05199,0,0,0,52.28167,-106.6228,-80.86744,-10.65202,-111.0878,-35.1035,0.001067912,-0.1257102,0.09433498,0,0.3,0,0,0,0,
6.38223E+17,30.86355,-0.1636474,-13.6348,-83.05381,-8.667529,-64.52278,-4.570632,-0.4675641,0.1400836,-35.15147,-8.447793,45.12524,0,0,0,52.28167,-106.6228,-80.86744,-10.65202,-111.0878,-35.1035,0.001067912,-0.1257102,0.09433498,0,0.3,0,0,0,0,
6.38223E+17,30.86355,-0.1636474,-13.6348,-83.05381,-8.667529,-64.52278,-4.570632,-0.4675641,0.1400836,-35.15147,-8.447793,45.05199,0,0,0,52.28167,-106.6228,-80.86744,-10.65202,-111.0878,-35.1035,0.001067912,-0.1257102,0.09433498,0,0.3,0,0,0,0,
6.38223E+17,30.86355,-0.1636474,-13.6348,-83.05381,-8.667529,-64.52278,-4.570632,-0.4675641,0.1400836,-35.15147,-8.521038,45.05199,0,0,0,52.28167,-106.6228,-80.86744,-10.65202,-111.0878,-35.1035,0.001067912,-0.1257102,0.09433498,0,0.3,0,0,0,0,
6.38223E+17,30.86355,-0.1636474,-13.6348,-83.05381,-8.594284,-64.44954,-4.570632,-0.4675641,0.1400836,-35.15147,-8.447793,45.12524,0,0,0,52.28167,-106.6228,-80.86744,-10.65202,-111.0878,-35.1035,0.001067912,-0.1257102,0.09433498,0,0.3,0,0,0,0,
6.38223E+17,30.86355,-0.1636474,-13.6348,-83.05381,-8.667529,-64.52278,-4.570632,-0.4675641,0.1400836,-35.15147,-8.447793,45.05199,0,0,0,52.28167,-106.6228,-80.86744,-10.65202,-111.0878,-35.1035,0.001067912,-0.1257102,0.09433498,0,0.3,0,0,0,0,
6.38223E+17,30.86355,-0.1636474,-13.6348,-83.05381,-8.667529,-64.52278,-4.570632,-0.4675641,0.1400836,-35.15147,-8.447793,45.05199,0,0,0,52.28167,-106.6228,-80.86744,-10.65202,-111.0878,-35.1035,0.001067912,-0.1257102,0.09433498,0,0.3,0,0,0,0,
6.38223E+17,30.86355,-0.1636474,-13.6348,-83.05381,-8.667529,-64.44954,-4.570632,-0.4675641,0.1400836,-35.15147,-8.447793,45.05199,0,0,0,52.28167,-106.6228,-80.86744,-10.65202,-111.0878,-35.1035,0.001067912,-0.1257102,0.09433498,0,0.3,0,0,0,0,
6.38223E+17,30.86355,-0.1636474,-13.6348,-83.05381,-8.667529,-64.44954,-4.570632,-0.4675641,0.1400836,-35.15147,-8.447793,45.05199,0,0,0,52.28167,-106.6228,-80.86744,-10.65202,-111.0878,-35.1035,0.001067912,-0.1257102,0.09433498,0,0.3,0,0,0,0,
6.38223E+17,30.86355,-0.1636474,-13.6348,-83.05381,-8.667529,-64.52278,-4.570632,-0.4675641,0.1400836,-35.15147,-8.447793,45.05199,0,0,0,52.28167,-106.6228,-80.86744,-10.65202,-111.0878,-35.1035,0.001067912,-0.1257102,0.09433498,0,0.3,0,0,0,0,
6.38223E+17,30.86355,-0.1636474,-13.6348,-83.05381,-8.594284,-64.52278,-4.570632,-0.4675641,0.1400836,-35.15147,-8.447793,45.05199,0,0,0,52.28167,-106.6228,-80.86744,-10.65202,-111.0878,-35.1035,0.001067912,-0.1257102,0.09433498,0,0.3,0,0,0,0,
6.38223E+17,30.86355,-0.1636474,-13.6348,-83.05381,-8.667529,-64.74252,-4.570632,-0.4675641,0.1400836,-35.22471,-8.521038,45.05199,0,0,0,52.28167,-106.6228,-80.86744,-10.65202,-111.0878,-35.1035,0.001067912,-0.1257102,0.09433498,0,0.3,0,0,0,0,
6.38223E+17,30.86355,-0.1870256,-13.6348,-83.05381,-8.740773,-66.13418,-4.570632,-0.4675641,0.1400836,-35.15147,-8.447793,45.05199,0,0,0,52.28159,-106.6772,-80.86758,-10.65202,-111.0878,-35.1035,0.001067912,-0.1257102,0.09433498,0,0.3,0,0,0,0,
6.38223E+17,30.86355,-0.2104038,-13.6348,-83.20029,-8.814018,-72.21353,-4.570632,-0.4675641,0.1400836,-35.15147,-8.447793,45.05199,0,0,0,52.28149,-106.7316,-80.86774,-10.65202,-111.0878,-35.1035,0.001067912,-0.1257102,0.09433498,0,0.3,0,0,2.15E-06,0,
6.38223E+17,30.86355,-0.2104038,-13.56476,-83.34679,-8.667529,-76.90121,-4.570632,-0.4675641,0.1400836,-35.15147,-8.521038,45.05199,0,0,0,52.36277,-106.77,-80.73174,-10.65202,-111.0878,-35.1035,0.001067912,-0.1257102,0.09433498,0,0.3,0,0,7.05E-06,0,
6.38223E+17,30.69863,-0.2104038,-13.28459,-83.49328,-8.447793,-78.58585,-4.570632,-0.4675641,0.1400836,-35.15147,-8.521038,45.05199,0,0,0,52.43415,-106.9213,-80.03602,-10.65202,-111.0878,-35.1035,0.001067912,-0.1257102,0.09433498,0,0.3,0,0,9.20E-05,0,
6.38223E+17,30.13319,-0.2104038,-13.12116,-83.56653,-8.447793,-79.09857,-4.570632,-0.4675641,0.1400836,-35.15147,-8.447793,45.05199,0,0,0,51.74596,-107.0082,-79.20259,-10.65202,-111.0878,-35.1035,0.001067912,-0.1257102,0.09433498,0,0.3,0,0,0.000458693,0,
6.38223E+17,29.19079,-0.2104038,-12.91104,-83.56653,-8.374548,-77.70691,-4.570632,-0.4675641,0.1400836,-35.15147,-8.521038,45.05199,0,0,0,50.50512,-107.1184,-77.94761,-10.65202,-111.0878,-35.1035,0.001067912,-0.1257102,0.09433498,0,0.3,0,0,0.001295029,0,
6.38223E+17,27.68295,-0.1870256,-12.88769,-83.05381,-8.301303,-74.55737,-4.570632,-0.4675641,0.1400836,-35.15147,-8.521038,45.05199,0,0,0,48.13351,-107.0761,-76.60287,-10.65202,-111.0878,-35.1035,0.001067912,-0.1257102,0.09433498,0,0.3,0,0,0.002870207,0,
6.38223E+17,26.45784,0.07013461,-12.51413,-82.76083,-8.447793,-71.62756,-4.570632,-0.4675641,0.1400836,-35.15147,-8.447793,45.12524,0,0,0,46.53904,-106.6687,-74.83485,-10.65202,-111.0878,-35.1035,0.001067912,-0.1257102,0.09433498,0,0.3,0,0,0.005084482,0,
6.38223E+17,25.16204,0.7948589,-11.81372,-82.90732,-9.106999,-68.11179,-4.570632,-0.4675641,0.1400836,-35.15147,-8.447793,45.05199,0,0,0,45.08451,-105.3255,-72.37553,-10.65202,-111.0878,-35.1035,0.001067912,-0.1257102,0.09433498,0,0.3,0,0,0.007960563,0,
6.38223E+17,24.57304,1.145532,-11.53355,-83.27354,-9.473226,-66.42715,-4.570632,-0.4675641,0.1400836,-35.15147,-8.447793,45.12524,0,0,0,44.35534,-104.6414,-71.34897,-10.65202,-111.0878,-35.1035,0.001067912,-0.1257102,0.09433498,0,0.3,0,0,0.009602107,0,
6.38223E+17,23.5364,1.753365,-10.99656,-84.22573,-9.912696,-64.2298,-4.570632,-0.4675641,0.1400836,-35.15147,-8.447793,45.05199,0,0,0,43.06833,-103.4714,-69.47146,-10.65202,-111.0878,-35.1035,0.001067912,-0.1257102,0.09433498,0,0.3,0,0,0.01320489,0,
6.38223E+17,22.40552,2.47809,-10.41288,-85.61739,-10.5719,-63.05788,-4.570632,-0.4675641,0.1400836,-35.22471,-8.447793,45.05199,0,0,0,41.59349,-102.0381,-67.46423,-10.65202,-111.0878,-35.1035,0.001067912,-0.1257102,0.09433498,0,0.3,0,0,0.01722809,0,
6.38223E+17,21.1804,3.226192,-9.712462,-87.15554,-11.15786,-62.69165,-4.570632,-0.4675641,0.1400836,-35.15147,-8.521038,45.05199,0,0,0,39.97559,-100.584,-65.18214,-10.65202,-111.0878,-35.1035,0.001067912,-0.1257102,0.09433498,0,0.3,0,0,0.02169257,0,
6.38223E+17,19.81393,4.021051,-8.871961,-88.62045,-11.74383,-62.54516,-4.570632,-0.4675641,0.1400836,-35.15147,-8.521038,45.05199,0,0,0,38.11869,-99.05363,-62.55197,-10.65202,-111.0878,-35.1035,0.001067912,-0.1257102,0.09433498,0,0.3,0,0,0.02671871,0,
6.38223E+17,17.76421,5.423743,-7.331042,-91.47701,-12.25654,-62.32543,-4.570632,-0.4675641,0.1400836,-35.15147,-8.521038,45.05199,0,0,0,35.31149,-96.30556,-58.13108,-10.65202,-111.0878,-35.1035,0.001067912,-0.1257102,0.09433498,0,0.3,0,0,0.03233716,0,
6.38223E+17,16.63333,6.358871,-6.350456,-92.94191,-12.25654,-61.88596,-4.570632,-0.4675641,0.1400836,-35.15147,-8.447793,45.12524,0,0,0,33.71398,-94.41251,-55.49855,-10.65202,-111.0878,-35.1035,0.001067912,-0.1257102,0.09433498,0,0.3,0,0,0.03835077,0,
6.38223E+17,15.03126,7.691429,-4.94962,-94.69979,-12.25654,-60.56754,-4.570632,-0.4675641,0.1400836,-35.15147,-8.521038,45.05199,0,0,0,31.28876,-91.65544,-51.83305,-10.65202,-111.0878,-35.1035,0.001067912,-0.1257102,0.09433498,0,0.3,0,0,0.04474536,0,
6.38223E+17,13.3585,9.094121,-3.432048,-96.45767,-12.40303,-58.8829,-4.570632,-0.4675641,0.1400836,-35.15147,-8.447793,45.05199,0,0,0,28.57793,-88.68397,-48.00581,-10.65202,-111.0878,-35.1035,0.001067912,-0.1257102,0.09433498,0,0.3,0,0,0.05146297,0,
6.38223E+17,11.52082,10.68384,-1.751045,-98.4353,-12.40303,-56.75879,-4.570632,-0.4675641,0.1400836,-35.22471,-8.447793,45.05199,0,0,0,25.35769,-85.21605,-43.94439,-10.65202,-111.0878,-35.1035,0.001067912,-0.1257102,0.09433498,0,0.3,0,0,0.05837292,0,
6.38223E+17,10.08366,11.99302,-0.3735563,-100.4862,-12.1833,-54.85442,-4.570632,-0.4675641,0.1400836,-35.15147,-8.447793,45.05199,0,0,0,22.68589,-82.28804,-40.78149,-10.65202,-111.0878,-35.1035,0.001067912,-0.1257102,0.09433498,0,0.3,0,0,0.06527945,0,
6.38223E+17,9.211945,12.78788,0.4669453,-101.5848,-12.03681,-53.75574,-4.570632,-0.4675641,0.1400836,-35.22471,-8.521038,45.05199,0,0,0,20.99207,-80.47959,-38.91201,-10.65202,-111.0878,-35.1035,0.001067912,-0.1257102,0.09433498,0,0.3,0,0,0.0686847,0,
6.38223E+17,7.798347,14.19057,2.054559,-102.9033,-11.52409,-51.70488,-4.570632,-0.4675641,0.1400836,-35.15147,-8.447793,45.05199,0,0,0,18.19042,-77.22382,-35.52816,-10.65202,-111.0878,-35.1035,0.001067912,-0.1257102,0.09433498,0,0.3,0,0,0.07527134,0,
6.38223E+17,6.00779,16.31799,4.27255,-103.8554,-10.64515,-48.92156,-4.570632,-0.4675641,0.1400836,-35.15147,-8.447793,45.12524,0,0,0,14.43448,-72.16233,-31.19448,-10.65202,-111.0878,-35.1035,0.001067912,-0.1257102,0.09433498,0,0.3,0,0,0.08130923,0,
6.38223E+17,5.324551,17.37,5.393219,-104.1484,-10.35217,-47.16368,-4.570632,-0.4675641,0.1400836,-35.15147,-8.447793,45.05199,0,0,0,12.97328,-69.59921,-29.15081,-10.65202,-111.0878,-35.1035,0.001067912,-0.1257102,0.09433498,0,0.3,0,0,0.08674385,0,
6.38223E+17,4.429273,19.05324,7.214305,-104.5146,-9.912696,-44.01414,-4.570632,-0.4675641,0.1400836,-35.15147,-8.521038,45.05199,0,0,0,11.0275,-65.41267,-25.98573,-10.65202,-111.0878,-35.1035,0.001067912,-0.1257102,0.09433498,0,0.3,0,0,0.09131707,0,
6.38223E+17,3.816714,20.78322,8.871961,-104.7344,-9.25349,-41.15757,-4.570632,-0.4675641,0.1400836,-35.15147,-8.447793,45.12524,0,0,0,9.66783,-61.08752,-23.43311,-10.65202,-111.0878,-35.1035,0.001067912,-0.1257102,0.09433498,0,0.3,0,0,0.09491809,0,
6.38223E+17,3.369075,22.8405,10.69305,-104.8809,-8.081567,-38.30101,-4.570632,-0.4675641,0.1400836,-35.15147,-8.447793,45.05199,0,0,0,8.676245,-55.92233,-20.96853,-10.65202,-111.0878,-35.1035,0.001067912,-0.1257102,0.09433498,0,0.3,0,0,0.09740948,0,
6.38223E+17,3.109915,24.47698,12.11723,-104.8809,-7.27587,-35.88392,-4.570632,-0.4675641,0.1400836,-35.15147,-8.447793,45.05199,0,0,0,8.102879,-51.7784,-19.21257,-10.65202,-111.0878,-35.1035,0.001067912,-0.1257102,0.09433498,0,0.3,0,0,0.09897272,0,
6.38223E+17,3.015675,25.36535,12.86434,-104.8809,-6.98289,-34.78524,-4.570632,-0.4675641,0.1400836,-35.15147,-8.447793,45.05199,0,0,0,7.901045,-49.52726,-18.37414,-10.65202,-111.0878,-35.1035,0.001067912,-0.1257102,0.09433498,0,0.3,0,0,0.09936818,0,
6.38223E+17,2.921435,27.18885,14.54535,-104.6611,-6.470173,-32.22166,-4.570632,-0.4675641,0.1400836,-35.15147,-8.447793,45.05199,0,0,0,7.752315,-44.79509,-16.44181,-10.65202,-111.0878,-35.1035,0.001067912,-0.1257102,0.09433498,0,0.3,0,0,0.09935193,0,
6.38223E+17,2.897875,29.03573,16.41313,-104.5146,-6.177193,-29.51159,-4.570632,-0.4675641,0.1400836,-35.15147,-8.447793,45.05199,0,0,0,7.799246,-39.84381,-14.27753,-10.65202,-111.0878,-35.1035,0.001067912,-0.1257102,0.09433498,0,0.3,0,0,0.09835722,0,
6.38223E+17,2.921435,30.97612,18.14083,-104.2949,-5.664476,-26.58179,-4.570632,-0.4675641,0.1400836,-35.15147,-8.521038,45.05199,0,0,0,7.943185,-34.73904,-12.70167,-10.65202,-111.0878,-35.1035,0.001067912,-0.1257102,0.09433498,0,0.3,0,0,0.0963486,0,
6.38223E+17,2.921435,33.22043,20.31212,-103.6357,-5.298251,-22.99277,-4.570632,-0.4675641,0.1400836,-35.15147,-8.447793,45.05199,0,0,0,8.04491,-28.65037,-10.70833,-10.65202,-111.0878,-35.1035,0.001067912,-0.1257102,0.09433498,0,0.3,0,0,0.09320323,0,
6.38223E+17,2.992115,35.37122,22.43672,-103.0497,-5.078516,-19.55025,-4.570632,-0.4675641,0.1400836,-35.15147,-8.447793,45.05199,0,0,0,8.332494,-22.71308,-8.9368,-10.65202,-111.0878,-35.1035,0.001067912,-0.1257102,0.09433498,0,0.3,0,0,0.08897173,0,
6.38223E+17,3.204155,37.82593,24.88819,-102.0243,-5.298251,-15.44852,-4.570632,-0.4675641,0.1400836,-35.15147,-8.447793,45.05199,0,0,0,9.024091,-15.83706,-7.152042,-10.65202,-111.0878,-35.1035,0.001067912,-0.1257102,0.09433498,0,0.3,0,0,0.08361336,0,
6.38223E+17,3.439754,39.5793,26.68592,-101.2186,-5.298251,-12.6652,-4.570632,-0.4675641,0.1400836,-35.15147,-8.447793,45.05199,0,0,0,9.759798,-10.83243,-5.976985,-10.65202,-111.0878,-35.1035,0.001067912,-0.1257102,0.09433498,0,0.3,0,0,0.07736335,0,
6.38223E+17,3.604674,40.58456,27.66651,-100.8524,-5.298251,-11.27355,-4.570632,-0.4675641,0.1400836,-35.15147,-8.447793,45.05199,0,0,0,10.26006,-7.999997,-5.48298,-10.65202,-111.0878,-35.1035,0.001067912,-0.1257102,0.09433498,0,0.3,0,0,0.07388929,0,
6.38223E+17,4.028753,42.52495,29.46425,-100.0467,-5.591231,-8.929699,-4.570632,-0.4675641,0.1400836,-35.15147,-8.521038,45.05199,0,0,0,11.51295,-2.620121,-4.885993,-10.65202,-111.0878,-35.1035,0.001067912,-0.1257102,0.09433498,0,0.3,0,0,0.06633084,0,
6.38223E+17,4.947592,45.40047,32.21923,-99.02126,-6.103948,-5.413931,-4.570632,-0.4675641,0.1400836,-35.15147,-8.447793,45.05199,0,0,0,14.2069,5.483435,-4.235534,-10.65202,-111.0878,-35.1035,0.001067912,-0.1257102,0.09433498,0,0.3,0,0,0.05351044,0,
6.38223E+17,5.277431,46.24208,33.03638,-98.80152,-6.250438,-4.168763,-4.570632,-0.4675641,0.1400836,-35.15147,-8.521038,45.05199,0,0,0,15.16955,7.873914,-4.123933,-10.65202,-111.0878,-35.1035,0.001067912,-0.1257102,0.09433498,0,0.3,0,0,0.04889151,0,
6.38223E+17,6.03135,48.08897,34.95086,-98.36205,-6.763155,-1.458692,-4.570632,-0.4675641,0.1400836,-35.15147,-8.447793,45.05199,0,0,0,17.38608,13.2873,-3.79865,-10.65202,-111.0878,-35.1035,0.001067912,-0.1257102,0.09433498,0,0.3,0,0,0.03911654,0,
6.38223E+17,6.761709,49.72544,36.67855,-97.99583,-7.495606,0.3724372,-4.570632,-0.4675641,0.1400836,-35.15147,-8.447793,45.12524,0,0,0,19.52812,18.1435,-3.646092,-10.65202,-111.0878,-35.1035,0.001067912,-0.1257102,0.09433498,0,0.3,0,0,0.02866742,0,
6.38223E+17,7.798347,51.59569,38.52299,-97.04363,-8.667529,2.936018,-4.570632,-0.4675641,0.1400836,-35.15147,-8.521038,45.05199,0,0,0,22.5094,23.52181,-3.992109,-10.65202,-111.0878,-35.1035,0.001067912,-0.1257102,0.09433498,0,0.3,0,0,0.0176078,0,
6.38223E+17,8.434465,52.71785,39.667,-96.1647,-9.180244,4.693902,-4.570632,-0.4675641,0.1400836,-35.15147,-8.447793,45.05199,0,0,0,24.33332,26.80309,-4.248191,-10.65202,-111.0878,-35.1035,0.001067912,-0.1257102,0.09433498,0,0.3,0,0,0.006154569,0,
6.38223E+17,9.400424,54.23743,41.25462,-94.99277,-9.985942,6.818012,-4.570632,-0.4675641,0.1400836,-35.15147,-8.447793,45.05199,0,0,0,27.09132,31.30555,-4.712136,-10.65202,-111.0878,-35.1035,0.001067912,-0.1257102,0.09433498,0,0.3,0,0,0,0,
6.38223E+17,9.965863,54.96216,42.04842,-94.48006,-10.49866,7.696954,-4.570632,-0.4675641,0.1400836,-35.15147,-8.447793,45.05199,0,0,0,28.70584,33.51047,-4.981977,-10.65202,-111.0878,-35.1035,0.001067912,-0.1257102,0.09433498,0,0.3,0,0,0,0,
6.38223E+17,11.87422,57.11295,44.47654,-93.45463,-12.62277,10.18729,-4.570632,-0.4675641,0.1400836,-35.15147,-8.447793,45.05199,0,0,0,34.12271,40.17947,-6.064273,-10.65202,-111.0878,-35.1035,0.001067912,-0.1257102,0.09433498,0,0.3,0,0,0,0,
6.38223E+17,12.5339,57.81429,45.2937,-93.01515,-13.35522,10.99299,-4.570632,-0.4675641,0.1400836,-35.15147,-8.447793,45.05199,0,0,0,35.98269,42.39947,-6.495836,-10.65202,-111.0878,-35.1035,0.001067912,-0.1257102,0.09433498,0,0.3,0,0,0,0,
6.38223E+17,13.99462,59.21699,46.64783,-92.42919,-14.82012,12.45789,-4.570632,-0.4675641,0.1400836,-35.15147,-8.521038,45.05199,0,0,0,39.95337,46.37035,-8.041606,-10.65202,-111.0878,-35.1035,0.001067912,-0.1257102,0.09433498,0,0.3,0,0,0,0,
6.38223E+17,15.52601,60.85346,48.07202,-91.84323,-17.09072,14.50875,-4.570632,-0.4675641,0.1400836,-35.15147,-8.447793,45.05199,0,0,0,43.9411,50.71088,-10.1824,-10.65202,-111.0878,-35.1035,0.001067912,-0.1257102,0.09433498,0,0.3,0,0,0,0,
6.38223E+17,16.58621,63.37831,50.17327,-91.62349,-20.31351,19.04996,-4.570632,-0.4675641,0.1400836,-35.15147,-8.521038,45.12524,0,0,0,46.29114,57.15644,-12.93287,-10.65202,-111.0878,-35.1035,0.001067912,-0.1257102,0.09433498,0,0.3,0,0,0,0,
6.38223E+17,16.91605,64.64073,51.10716,-91.98972,-22.14464,22.63897,-4.570632,-0.4675641,0.1400836,-35.15147,-8.521038,45.05199,0,0,0,46.81771,60.1245,-14.40985,-10.65202,-111.0878,-35.1035,0.001067912,-0.1257102,0.09433498,0,0.3,0,0,0,0,
6.38223E+17,17.62285,66.25382,52.36792,-92.42919,-25.0012,29.23104,-4.570632,-0.4675641,0.1400836,-35.15147,-8.447793,45.05199,0,0,0,48.2294,63.98837,-16.52179,-10.65202,-111.0878,-35.1035,0.001067912,-0.1257102,0.09433498,0,0.3,0,0,0,0,
6.38223E+17,18.98933,67.75003,53.69871,-92.35595,-28.66346,39.63185,-4.570632,-0.4675641,0.1400836,-35.15147,-8.447793,45.05199,0,0,0,51.39941,67.82348,-18.98491,-10.65202,-111.0878,-35.1035,0.001067912,-0.1257102,0.09433498,0,0.3,0,0,0,0,
6.38223E+17,20.75632,69.1761,54.58591,-92.86866,-31.52002,49.30021,-4.570632,-0.4675641,0.1400836,-35.15147,-8.447793,45.05199,0,0,0,55.3152,70.71536,-22.39666,-10.65202,-111.0878,-35.1035,0.001067912,-0.1257102,0.09433498,0,0.3,0,0,0,0,
6.38223E+17,22.52332,70.29826,55.37971,-92.79542,-33.49764,53.84141,-4.570632,-0.4675641,0.1400836,-35.15147,-8.447793,45.05199,0,0,0,59.25696,73.1329,-25.45559,-10.65202,-111.0878,-35.1035,0.001067912,-0.1257102,0.09433498,0,0.3,0,0,0,0,
6.38223E+17,23.55996,70.88271,55.77662,-92.79542,-34.52307,55.30631,-4.570632,-0.4675641,0.1400836,-35.15147,-8.447793,45.05199,0,0,0,61.52839,74.34695,-27.24839,-10.65202,-111.0878,-35.1035,0.001067912,-0.1257102,0.09433498,0,0.3,0,0,0,0,
6.38223E+17,25.91596,72.02824,56.71051,-93.01515,-36.64718,57.35718,-4.570632,-0.4675641,0.1400836,-35.15147,-8.447793,45.12524,0,0,0,66.69997,77.00193,-31.08415,-10.65202,-111.0878,-35.1035,0.001067912,-0.1257102,0.09433498,0,0.3,0,0,0,0,
6.38223E+17,28.36619,73.05688,57.69109,-93.60111,-39.13752,59.40804,-4.570632,-0.4675641,0.1400836,-35.15147,-8.447793,45.05199,0,0,0,72.00965,79.63848,-34.98291,-10.65202,-111.0878,-35.1035,0.001067912,-0.1257102,0.09433498,0,0.3,0,0,0,0,
6.38223E+17,31.24051,74.13229,58.76507,-96.09145,-42.36031,63.21679,-4.570632,-0.4675641,0.1400836,-35.15147,-8.447793,45.12524,0,0,0,78.04414,82.47034,-39.68917,-10.65202,-111.0878,-35.1035,0.001067912,-0.1257102,0.09433498,0,0.3,0,0,0,0,
6.38223E+17,33.90279,74.83363,59.51218,-99.31424,-45.50985,68.78342,-4.570632,-0.4675641,0.1400836,-35.15147,-8.447793,45.12524,0,0,0,83.55627,84.39964,-44.0182,-10.65202,-111.0878,-35.1035,0.001067912,-0.1257102,0.09433498,0,0.3,0,0,0,0,
6.38223E+17,36.02318,75.25444,59.95578,-103.416,-48.14668,75.96145,-4.570632,-0.4675641,0.1400836,-35.15147,-8.447793,45.05199,0,0,0,87.84882,85.54409,-47.53928,-10.65202,-111.0878,-35.1035,0.001067912,-0.1257102,0.09433498,0,0.3,0,0,0,0,
6.38223E+17,38.14358,75.41808,60.23594,-107.6642,-50.12429,84.38464,-4.570632,-0.4675641,0.1400836,-35.15147,-8.447793,45.05199,0,0,0,92.2318,86.20575,-50.90648,-10.65202,-111.0878,-35.1035,0.001067912,-0.1257102,0.09433498,0,0.3,0,0,0,0,
6.38223E+17,39.62786,75.53497,60.6095,-111.2532,-51.36946,89.95128,-4.570632,-0.4675641,0.1400836,-35.15147,-8.521038,45.05199,0,0,0,95.34869,87.0301,-53.20725,-10.65202,-111.0878,-35.1035,0.001067912,-0.1257102,0.09433498,0,0.3,0,0,0,0,
6.38223E+17,40.33466,75.55836,60.74959,-114.3295,-51.95542,92.95433,-4.570632,-0.4675641,0.1400836,-35.15147,-8.447793,45.05199,0,0,0,96.83103,87.32794,-54.31066,-10.65202,-111.0878,-35.1035,0.001067912,-0.1257102,0.09433498,0,0.3,0,0,0,0,
6.38223E+17,41.67757,75.55836,61.0064,-122.3132,-52.76112,99.03368,-4.570632,-0.4675641,0.1400836,-35.15147,-8.447793,45.05199,0,0,0,99.67051,87.8501,-56.39407,-10.65202,-111.0878,-35.1035,0.001067912,-0.1257102,0.09433498,0,0.3,0,0,0,0,
6.38223E+17,43.18541,75.5116,61.07645,-133.7395,-53.27384,106.5779,-4.570632,-0.4675641,0.1400836,-35.15147,-8.447793,45.12524,0,0,0,102.7081,87.96555,-58.92115,-10.65202,-111.0878,-35.1035,0.001067912,-0.1257102,0.09433498,0,0.3,0,0,0,0,
6.38223E+17,44.57545,75.39471,61.07645,-152.2705,-53.8598,114.7082,-4.570632,-0.4675641,0.1400836,-35.15147,-8.447793,45.05199,0,0,0,105.5173,87.89722,-61.25731,-10.65202,-111.0878,-35.1035,0.001067912,-0.1257102,0.09433498,0,0.3,0,0,0,0,
6.38223E+17,44.97597,75.23106,60.98306,-157.1779,-54.44576,118.4436,-4.570632,-0.4675641,0.1400836,-35.22471,-8.447793,45.05199,0,0,0,106.4493,87.6105,-61.81137,-10.65202,-111.0878,-35.1035,0.001067912,-0.1257102,0.09433498,0,0.3,0,0,0,0,
6.38223E+17,45.18801,75.11417,60.95971,-157.4709,-54.95848,119.1761,-4.570632,-0.4675641,0.1400836,-35.15147,-8.447793,45.12524,0,0,0,107.0107,87.49336,-62.03927,-10.65202,-111.0878,-35.1035,0.001067912,-0.1257102,0.09433498,0,0.3,0,0,0,0,
6.38223E+17,45.32936,74.99728,60.95971,-157.4709,-55.47119,118.2972,-4.570632,-0.4675641,0.1400836,-35.15147,-8.447793,45.05199,0,0,0,107.4596,87.42321,-62.11882,-10.65202,-111.0878,-35.1035,0.001067912,-0.1257102,0.09433498,0,0.3,0,0,0,0,
6.38223E+17,45.40005,74.83363,60.86632,-157.4709,-55.83742,117.7112,-4.570632,-0.4675641,0.1400836,-35.15147,-8.447793,45.05199,0,0,0,107.7772,87.13415,-62.06744,-10.65202,-111.0878,-35.1035,0.001067912,-0.1257102,0.09433498,0,0.3,0,0,0,0,
6.38223E+17,45.47073,74.64661,60.72623,-157.4709,-55.98391,117.6379,-4.570632,-0.4675641,0.1400836,-35.15147,-8.521038,45.05199,0,0,0,108.0942,86.73499,-62.01754,-10.65202,-111.0878,-35.1035,0.001067912,-0.1257102,0.09433498,0,0.3,0,0,0,0,
6.38223E+17,45.68277,74.29593,60.42272,-157.5441,-56.56987,117.4915,-4.570632,-0.4675641,0.1400836,-35.15147,-8.447793,45.05199,0,0,0,108.8013,85.90122,-62.11138,-10.65202,-111.0878,-35.1035,0.001067912,-0.1257102,0.09433498,0,0.3,0,0,0,0,
6.38223E+17,45.82413,74.06215,60.23594,-157.3977,-57.30232,117.4182,-4.570632,-0.4675641,0.1400836,-35.15147,-8.447793,45.05199,0,0,0,109.2842,85.37518,-62.16529,-10.65202,-111.0878,-35.1035,0.001067912,-0.1257102,0.09433498,0,0.3,0,0,0,0,
6.38223E+17,45.82413,73.78161,60.2126,-153.4424,-58.03477,115.7336,-4.570632,-0.4675641,0.1400836,-35.15147,-8.447793,45.05199,0,0,0,109.7148,85.14718,-61.74689,-10.65202,-111.0878,-35.1035,0.001067912,-0.1257102,0.09433498,0,0.3,0,0,0,0,
6.38223E+17,45.82413,73.45432,60.1659,-146.7039,-58.54749,113.0968,-4.570632,-0.4675641,0.1400836,-35.15147,-8.521038,45.05199,0,0,0,110.2002,84.83804,-61.27526,-10.65202,-111.0878,-35.1035,0.001067912,-0.1257102,0.09433498,0,0.3,0,0,0,0,
6.38223E+17,45.87124,73.03351,59.97913,-139.3793,-58.76722,110.7529,-4.570632,-0.4675641,0.1400836,-35.15147,-8.447793,45.12524,0,0,0,110.8056,84.17895,-60.86397,-10.65202,-111.0878,-35.1035,0.001067912,-0.1257102,0.09433498,0,0.3,0,0,0,0,
6.38223E+17,45.96548,72.4958,59.69896,-131.3224,-58.91372,108.0428,-4.570632,-0.4675641,0.1400836,-35.15147,-8.447793,45.05199,0,0,0,111.606,83.24437,-60.44329,-10.65202,-111.0878,-35.1035,0.001067912,-0.1257102,0.09433498,0,0.3,0,0,0,0,
6.38223E+17,46.13041,72.14513,59.58222,-126.4149,-58.84047,106.6512,-4.570632,-0.4675641,0.1400836,-35.15147,-8.447793,45.05199,0,0,0,112.3778,82.76208,-60.32125,-10.65202,-111.0878,-35.1035,0.001067912,-0.1257102,0.09433498,0,0.3,0,0,0,0,
6.38223E+17,46.67228,71.60744,59.32541,-120.4088,-58.47424,105.992,-4.570632,-0.4675641,0.1400836,-35.15147,-8.447793,45.05199,0,0,0,114.0386,81.85802,-60.78124,-10.65202,-111.0878,-35.1035,0.001067912,-0.1257102,0.09433498,0,0.3,0,0,0,0,
6.38223E+17,47.00212,71.16325,59.16197,-116.7466,-58.10802,105.7722,-4.570632,-0.4675641,0.1400836,-35.15147,-8.447793,45.12524,0,0,0,115.2303,81.20116,-60.90403,-10.65202,-111.0878,-35.1035,0.001067912,-0.1257102,0.09433498,0,0.3,0,0,0,0,
6.38223E+17,47.7796,69.22286,58.57829,-104.1484,-56.05715,103.2819,-4.570632,-0.4675641,0.1400836,-35.15147,-8.447793,45.12524,0,0,0,119.3039,78.50813,-60.09438,-10.65202,-111.0878,-35.1035,0.001067912,-0.1257102,0.09433498,0,0.3,0,0,0,0,
6.38223E+17,48.0152,68.54489,58.36817,-100.2664,-54.88523,102.5494,-4.570632,-0.4675641,0.1400836,-35.15147,-8.521038,45.05199,0,0,0,120.6521,77.52282,-59.7723,-10.65202,-111.0878,-35.1035,0.001067912,-0.1257102,0.09433498,0,0.3,0,0,0,0,
6.38223E+17,48.34504,67.63314,58.06465,-94.48006,-52.46814,100.938,-4.570632,-0.4675641,0.1400836,-35.15147,-8.447793,45.12524,0,0,0,122.4681,76.1305,-59.40747,-10.65202,-111.0878,-35.1035,0.001067912,-0.1257102,0.09433498,0,0.3,0,0,0,0,
6.38223E+17,48.34504,67.37598,57.87787,-90.52482,-49.3186,98.44772,-4.570632,-0.4675641,0.1400836,-35.15147,-8.447793,45.05199,0,0,0,122.709,75.53297,-59.19317,-10.65202,-111.0878,-35.1035,0.001067912,-0.1257102,0.09433498,0,0.3,0,0,0,0,
6.38223E+17,48.34504,67.35261,57.83118,-88.76694,-45.4366,96.32361,-4.570632,-0.4675641,0.1400836,-35.15147,-8.447793,45.12524,0,0,0,122.7033,75.42001,-59.19823,-10.65202,-111.0878,-35.1035,0.001067912,-0.1257102,0.09433498,0,0.3,0,0,0,0,
6.38223E+17,48.43928,67.32922,57.83118,-88.62045,-43.166,95.0052,-4.570632,-0.4675641,0.1400836,-35.15147,-8.447793,45.05199,0,0,0,122.9203,75.39905,-59.36689,-10.65202,-111.0878,-35.1035,0.001067912,-0.1257102,0.09433498,0,0.3,0,0,0,0,
6.38223E+17,49.00472,67.23571,57.83118,-89.79237,-41.04189,94.1995,-4.570632,-0.4675641,0.1400836,-35.15147,-8.447793,45.05199,0,0,0,124.1413,75.31499,-60.45355,-10.65202,-111.0878,-35.1035,0.001067912,-0.1257102,0.09433498,0,0.3,0,0,0,0,
6.38223E+17,50.08848,67.00193,57.85452,-90.96429,-39.79673,93.54029,-4.570632,-0.4675641,0.1400836,-35.15147,-8.447793,45.05199,0,0,0,126.5666,75.14944,-62.48068,-10.65202,-111.0878,-35.1035,0.001067912,-0.1257102,0.09433498,0,0.3,0,0,0,0,
6.38223E+17,51.14867,65.94991,57.52766,-87.44852,-38.69805,91.56267,-4.570632,-0.4675641,0.1400836,-35.15147,-8.521038,45.05199,0,0,0,129.9354,73.52923,-63.68745,-10.65202,-111.0878,-35.1035,0.001067912,-0.1257102,0.09433498,0,0.3,0,0,0,0,
6.38223E+17,51.50208,65.41221,57.43428,-85.39766,-38.33182,90.39075,-4.570632,-0.4675641,0.1400836,-35.15147,-8.447793,45.12524,0,0,0,131.3796,72.8306,-63.85373,-10.65202,-111.0878,-35.1035,0.001067912,-0.1257102,0.09433498,0,0.3,0,0,0,0,
6.38223E+17,51.76123,64.92127,57.43428,-82.32136,-37.81911,88.55962,-4.570632,-0.4675641,0.1400836,-35.15147,-8.447793,45.05199,0,0,0,132.6654,72.35072,-63.80724,-10.65202,-111.0878,-35.1035,0.001067912,-0.1257102,0.09433498,0,0.3,0,0,0,0,
6.38223E+17,51.76123,64.781,57.43428,-80.9297,-37.45288,87.02148,-4.570632,-0.4675641,0.1400836,-35.15147,-8.447793,45.05199,0,0,0,132.8975,72.21198,-63.62433,-10.65202,-111.0878,-35.1035,0.001067912,-0.1257102,0.09433498,0,0.3,0,0,0,0,
6.38223E+17,51.78479,64.19655,57.08406,-80.78321,-37.59937,84.3114,-4.570632,-0.4675641,0.1400836,-35.15147,-8.447793,45.05199,0,0,0,133.5587,70.94056,-63.19226,-10.65202,-111.0878,-35.1035,0.001067912,-0.1257102,0.09433498,0,0.3,0,0,0,0,
6.38223E+17,51.78479,63.75236,56.78055,-81.00294,-37.89235,83.13947,-4.570632,-0.4675641,0.1400836,-35.15147,-8.447793,45.05199,0,0,0,133.9857,69.89498,-62.85602,-10.65202,-111.0878,-35.1035,0.001067912,-0.1257102,0.09433498,0,0.3,0,0,0,0,
6.38223E+17,51.78479,62.81723,55.30967,-79.68453,-37.30639,80.64914,-4.570632,-0.4675641,0.1400836,-35.15147,-8.447793,45.05199,0,0,0,134.0109,66.07709,-62.83619,-10.65202,-111.0878,-35.1035,0.001067912,-0.1257102,0.09433498,0,0.3,0,0,0,0,
6.38223E+17,51.76123,61.85873,52.92825,-75.43631,-35.62175,77.64609,-4.570632,-0.4675641,0.1400836,-35.15147,-8.447793,45.05199,0,0,0,132.9681,60.55101,-63.56865,-10.65202,-111.0878,-35.1035,0.001067912,-0.1257102,0.09433498,0,0.3,0,0,0,0,
6.38223E+17,51.76123,60.22225,49.75303,-67.37935,-32.76519,73.10489,-4.570632,-0.4675641,0.1400836,-35.15147,-8.447793,45.05199,0,0,0,131.96,52.93699,-64.36305,-10.65202,-111.0878,-35.1035,0.001067912,-0.1257102,0.09433498,0,0.3,0,0,0,0,
6.38223E+17,51.76123,58.09484,47.11478,-59.54211,-28.66346,69.51588,-4.570632,-0.4675641,0.1400836,-35.15147,-8.447793,45.05199,0,0,0,132.0993,45.8051,-64.2533,-10.65202,-111.0878,-35.1035,0.001067912,-0.1257102,0.09433498,0,0.3,0,0,0,0,
6.38223E+17,51.76123,56.85579,45.94742,-55.87985,-26.24637,68.34396,-4.570632,-0.4675641,0.1400836,-35.15147,-8.447793,45.05199,0,0,0,132.541,42.28288,-63.90525,-10.65202,-111.0878,-35.1035,0.001067912,-0.1257102,0.09433498,0,0.3,0,0,0,0,
6.38223E+17,51.76123,54.09716,43.91621,-49.8005,-20.60649,66.80581,-4.570632,-0.4675641,0.1400836,-35.15147,-8.521038,45.05199,0,0,0,134.0668,35.30585,-62.70288,-10.65202,-111.0878,-35.1035,0.001067912,-0.1257102,0.09433498,0,0.3,0,0,0,0,
6.38223E+17,51.76123,50.26314,42.09512,-44.08738,-12.32979,66.00011,-4.570632,-0.4675641,0.1400836,-35.15147,-8.447793,45.05199,0,0,0,137.1679,26.94451,-60.25917,-10.65202,-111.0878,-35.1035,0.001067912,-0.1257102,0.09433498,0,0.3,0,0,0,0,
6.38223E+17,51.76123,48.60329,41.60483,-42.47599,-8.667529,65.78037,-4.570632,-0.4675641,0.1400836,-35.15147,-8.447793,45.05199,0,0,0,138.8051,23.67095,-58.96897,-10.65202,-111.0878,-35.1035,0.001067912,-0.1257102,0.09433498,0,0.3,0,0,0,0,
6.38223E+17,51.76123,46.45249,41.09119,-41.15757,-3.906592,65.63388,-4.570632,-0.4675641,0.1400836,-35.15147,-8.447793,45.05199,0,0,0,141.0002,19.50136,-57.23927,-10.65202,-111.0878,-35.1035,0.001067912,-0.1257102,0.09433498,0,0.3,0,0,0,0,
6.38223E+17,51.76123,44.76926,40.74098,-40.93784,-0.171089,65.63388,-4.570632,-0.4675641,0.1400836,-35.15147,-8.447793,45.05199,0,0,0,142.7151,16.2272,-55.88783,-10.65202,-111.0878,-35.1035,0.001067912,-0.1257102,0.09433498,0,0.3,0,0,0,0,
6.38223E+17,51.76123,43.53021,40.41412,-41.23082,3.198189,65.78037,-4.570632,-0.4675641,0.1400836,-35.15147,-8.447793,45.05199,0,0,0,143.8389,13.66324,-55.00225,-10.65202,-111.0878,-35.1035,0.001067912,-0.1257102,0.09433498,0,0.3,0,0,0,0,
6.38223E+17,51.76123,43.06265,40.32073,-41.5238,4.809582,66.29308,-4.570632,-0.4675641,0.1400836,-35.15147,-8.447793,45.12524,0,0,0,144.295,12.73045,-54.64286,-10.65202,-111.0878,-35.1035,0.001067912,-0.1257102,0.09433498,0,0.3,0,0,0,0,
6.38223E+17,51.76123,42.75873,40.25069,-41.89003,5.90826,67.09879,-4.570632,-0.4675641,0.1400836,-35.15147,-8.447793,45.12524,0,0,0,144.5756,12.10699,-54.42175,-10.65202,-111.0878,-35.1035,0.001067912,-0.1257102,0.09433498,0,0.3,0,0,0,0,
6.38223E+17,51.76123,42.6886,40.25069,-41.96327,6.347731,67.46501,-4.570632,-0.4675641,0.1400836,-35.15147,-8.447793,45.12524,0,0,0,144.6626,11.98707,-54.3532,-10.65202,-111.0878,-35.1035,0.001067912,-0.1257102,0.09433498,0,0.3,0,0,0,0,
6.38223E+17,51.76123,42.64184,40.25069,-41.59705,6.933692,67.97772,-4.570632,-0.4675641,0.1400836,-35.15147,-8.447793,45.05199,0,0,0,144.7205,11.90705,-54.30756,-10.65202,-111.0878,-35.1035,0.001067912,-0.1257102,0.09433498,0,0.3,0,0,0,0,
6.38223E+17,51.76123,42.61847,40.22734,-41.08433,7.373164,68.49045,-4.570632,-0.4675641,0.1400836,-35.15147,-8.447793,45.05199,0,0,0,144.7169,11.83192,-54.31042,-10.65202,-111.0878,-35.1035,0.001067912,-0.1257102,0.09433498,0,0.3,0,0,0,0,
6.38223E+17,51.76123,42.57171,40.20399,-40.49837,7.88588,69.29614,-4.570632,-0.4675641,0.1400836,-35.15147,-8.447793,45.05199,0,0,0,144.7421,11.71673,-54.29052,-10.65202,-111.0878,-35.1035,0.001067912,-0.1257102,0.09433498,0,0.3,0,0,0,0,
6.38223E+17,51.76123,42.4782,40.06391,-39.39969,8.325351,69.80886,-4.570632,-0.4675641,0.1400836,-35.15147,-8.447793,45.05199,0,0,0,144.6619,11.34618,-54.35374,-10.65202,-111.0878,-35.1035,0.001067912,-0.1257102,0.09433498,0,0.3,0,0,0,0,
6.38223E+17,51.76123,42.10415,40.01722,-37.12909,9.204292,70.39482,-4.570632,-0.4675641,0.1400836,-35.15147,-8.447793,45.05199,0,0,0,145.0567,10.63227,-54.04267,-10.65202,-111.0878,-35.1035,0.001067912,-0.1257102,0.09433498,0,0.3,0,0,0,0,
6.38223E+17,51.78479,41.80023,40.01722,-35.95716,9.717009,71.12727,-4.570632,-0.4675641,0.1400836,-35.15147,-8.521038,45.05199,0,0,0,145.4752,10.10623,-53.80981,-10.65202,-111.0878,-35.1035,0.001067912,-0.1257102,0.09433498,0,0.3,0,0,0,0,
6.38223E+17,51.78479,41.33266,39.99387,-34.41902,10.44946,72.37244,-4.570632,-0.4675641,0.1400836,-35.15147,-8.447793,45.05199,0,0,0,146.0097,9.257116,-53.3889,-10.65202,-111.0878,-35.1035,0.001067912,-0.1257102,0.09433498,0,0.3,0,0,0,0,
6.38223E+17,51.78479,40.74821,39.97052,-33.10061,11.25516,73.69085,-4.570632,-0.4675641,0.1400836,-35.15147,-8.447793,45.12524,0,0,0,146.6788,8.196236,-52.86216,-10.65202,-111.0878,-35.1035,0.001067912,-0.1257102,0.09433498,0,0.3,0,0,0,0,
6.38223E+17,51.9026,40.09362,39.73705,-31.48921,12.28059,74.86278,-4.570632,-0.4675641,0.1400836,-35.15147,-8.521038,45.05199,0,0,0,147.365,6.68819,-52.81186,-10.65202,-111.0878,-35.1035,0.001067912,-0.1257102,0.09433498,0,0.3,0,0,0,0,
6.38223E+17,51.97327,39.5793,39.38684,-30.39053,13.01304,76.40092,-4.570632,-0.4675641,0.1400836,-35.15147,-8.521038,45.05199,0,0,0,147.6165,5.249894,-52.90845,-10.65202,-111.0878,-35.1035,0.001067912,-0.1257102,0.09433498,0,0.3,0,0,0,0,
6.38223E+17,51.99683,39.20525,39.01328,-29.65808,13.45251,77.57285,-4.570632,-0.4675641,0.1400836,-35.15147,-8.447793,45.05199,0,0,0,147.5684,4.027611,-53.04383,-10.65202,-111.0878,-35.1035,0.001067912,-0.1257102,0.09433498,0,0.3,0,0,0,0,
6.38223E+17,51.99683,38.36363,38.14943,-28.33967,14.55119,79.25748,-4.570632,-0.4675641,0.1400836,-35.15147,-8.447793,45.05199,0,0,0,147.2967,1.246947,-53.25607,-10.65202,-111.0878,-35.1035,0.001067912,-0.1257102,0.09433498,0,0.3,0,0,0,0,
6.38223E+17,51.99683,37.03107,36.84199,-26.21556,16.60205,80.5759,-4.570632,-0.4675641,0.1400836,-35.15147,-8.447793,45.05199,0,0,0,146.8887,-3.059186,-53.57487,-10.65202,-111.0878,-35.1035,0.001067912,-0.1257102,0.09433498,0,0.3,0,0,0,0,
6.38223E+17,51.99683,36.23622,35.93144,-25.11688,17.70073,80.79563,-4.570632,-0.4675641,0.1400836,-35.15147,-8.447793,45.05199,0,0,0,146.4142,-5.800861,-53.94562,-10.65202,-111.0878,-35.1035,0.001067912,-0.1257102,0.09433498,0,0.3,0,0,0,0,
6.38223E+17,51.99683,34.8569,34.39052,-23.43224,19.38537,81.08862,-4.570632,-0.4675641,0.1400836,-35.15147,-8.521038,45.05199,0,0,0,145.5746,-10.47798,-54.60172,-10.65202,-111.0878,-35.1035,0.001067912,-0.1257102,0.09433498,0,0.3,0,0,0,0,
6.38223E+17,51.99683,33.36069,32.52274,-21.52787,21.36299,81.16187,-4.570632,-0.4675641,0.1400836,-35.15147,-8.447793,45.05199,0,0,0,144.2556,-15.75758,-55.63237,-10.65202,-111.0878,-35.1035,0.001067912,-0.1257102,0.09433498,0,0.3,0,0,0,0,
6.38223E+17,51.97327,31.44369,30.18801,-19.477,24.2928,81.08862,-4.570632,-0.4675641,0.1400836,-35.15147,-8.447793,45.05199,0,0,0,142.4374,-22.35168,-56.95866,-10.65202,-111.0878,-35.1035,0.001067912,-0.1257102,0.09433498,0,0.3,0,0,0,0,
6.38223E+17,51.9026,29.80721,28.53036,-17.93885,26.70989,81.08862,-4.570632,-0.4675641,0.1400836,-35.15147,-8.447793,45.12524,0,0,0,141.1807,-27.52049,-57.66053,-10.65202,-111.0878,-35.1035,0.001067912,-0.1257102,0.09433498,0,0.3,0,0,0,0,
6.38223E+17,51.80835,28.96559,27.59647,-17.27965,28.0283,81.16187,-4.570632,-0.4675641,0.1400836,-35.15147,-8.447793,45.12524,0,0,0,140.2464,-30.24974,-58.02006,-10.65202,-111.0878,-35.1035,0.001067912,-0.1257102,0.09433498,0,0.3,0,0,0,0,
6.38223E+17,51.59631,27.3525,25.77538,-16.25422,30.22566,81.3816,-4.570632,-0.4675641,0.1400836,-35.15147,-8.447793,45.05199,0,0,0,138.258,-35.46297,-58.75356,-10.65202,-111.0878,-35.1035,0.001067912,-0.1257102,0.09433498,0,0.3,0,0,0,0,
6.38223E+17,51.29004,25.78616,24.16442,-15.7415,32.20328,81.3816,-4.570632,-0.4675641,0.1400836,-35.15147,-8.447793,45.05199,0,0,0,136.2904,-40.30608,-59.1219,-10.65202,-111.0878,-35.1035,0.001067912,-0.1257102,0.09433498,0,0.3,0,0,0,0,
6.38223E+17,50.9602,24.14968,22.24994,-15.59501,34.25414,81.52808,-4.570632,-0.4675641,0.1400836,-35.15147,-8.447793,45.05199,0,0,0,133.7274,-45.51447,-59.90582,-10.65202,-111.0878,-35.1035,0.001067912,-0.1257102,0.09433498,0,0.3,0,0,0,0,
6.38223E+17,50.65392,22.46645,20.26543,-15.59501,36.01203,81.45483,-4.570632,-0.4675641,0.1400836,-35.15147,-8.447793,45.05199,0,0,0,131.0158,-50.78669,-60.93873,-10.65202,-111.0878,-35.1035,0.001067912,-0.1257102,0.09433498,0,0.3,0,0,0,0,
6.38223E+17,50.41832,20.50268,18.30426,-15.66825,37.69667,81.74782,-4.570632,-0.4675641,0.1400836,-35.15147,-8.521038,45.12524,0,0,0,128.5428,-56.54677,-62.07938,-10.65202,-111.0878,-35.1035,0.001067912,-0.1257102,0.09433498,0,0.3,0,0,0,0,
6.38223E+17,50.27696,18.0246,15.87614,-15.15554,39.52779,83.94518,-4.570632,-0.4675641,0.1400836,-35.15147,-8.447793,45.12524,0,0,0,125.5892,-63.65155,-63.99844,-10.65202,-111.0878,-35.1035,0.001067912,-0.1257102,0.09433498,0,0.3,0,0,0,0,
6.38223E+17,50.18272,16.31799,14.42861,-14.13011,40.69971,86.72849,-4.570632,-0.4675641,0.1400836,-35.22471,-8.521038,45.05199,0,0,0,123.8204,-68.3269,-65.1234,-10.65202,-111.0878,-35.1035,0.001067912,-0.1257102,0.09433498,0,0.3,0,0,0,0,
6.38223E+17,50.0178,14.63475,12.81765,-12.22573,41.94488,91.56267,-4.570632,-0.4675641,0.1400836,-35.15147,-8.447793,45.05199,0,0,0,121.5318,-72.98534,-66.43703,-10.65202,-111.0878,-35.1035,0.001067912,-0.1257102,0.09433498,0,0.3,0,0,0,0,
6.38223E+17,49.85288,14.00354,12.16393,-10.98056,42.67733,94.27274,-4.570632,-0.4675641,0.1400836,-35.15147,-8.447793,45.05199,0,0,0,120.3802,-74.73784,-66.81113,-10.65202,-111.0878,-35.1035,0.001067912,-0.1257102,0.09433498,0,0.3,0,0,0,0,
6.38223E+17,48.93404,12.62423,10.80978,-8.050756,44.36197,99.61964,-4.570632,-0.4675641,0.1400836,-35.15147,-8.447793,45.05199,0,0,0,116.9653,-78.4893,-66.437,-10.65202,-111.0878,-35.1035,0.001067912,-0.1257102,0.09433498,0,0.3,0,0,0,0,
6.38223E+17,48.41572,12.27356,10.45957,-7.391551,44.7282,100.6451,-4.570632,-0.4675641,0.1400836,-35.15147,-8.447793,45.05199,0,0,0,115.571,-79.43668,-65.79799,-10.65202,-111.0878,-35.1035,0.001067912,-0.1257102,0.09433498,0,0.3,0,0,0,0,
6.38223E+17,46.93144,11.75924,9.89924,-6.732344,45.31416,102.1832,-4.570632,-0.4675641,0.1400836,-35.15147,-8.521038,45.05199,0,0,0,112.1202,-80.83796,-63.54515,-10.65202,-111.0878,-35.1035,0.001067912,-0.1257102,0.09433498,0,0.3,0,0,0,0,
6.38223E+17,45.11733,11.36181,9.22217,-7.464796,45.97337,102.7692,-4.570632,-0.4675641,0.1400836,-35.15147,-8.447793,45.05199,0,0,0,107.7765,-82.0059,-61.01402,-10.65202,-111.0878,-35.1035,0.001067912,-0.1257102,0.09433498,0,0.3,0,0,0,0,
6.38223E+17,42.19589,10.66046,7.751292,-9.442415,46.92556,103.0622,-4.570632,-0.4675641,0.1400836,-35.15147,-8.521038,45.05199,0,0,0,100.1012,-84.11335,-57.93788,-10.65202,-111.0878,-35.1035,0.001067912,-0.1257102,0.09433498,0,0.3,0,0,0,0,
6.38223E+17,40.19329,10.1929,7.027527,-11.2003,47.51152,103.0622,-4.570632,-0.4675641,0.1400836,-35.15147,-8.447793,45.05199,0,0,0,95.23072,-85.40023,-55.6329,-10.65202,-111.0878,-35.1035,0.001067912,-0.1257102,0.09433498,0,0.3,0,0,0,0,
6.38223E+17,36.98914,9.37466,6.163678,-14.56958,48.31721,102.9157,-4.570632,-0.4675641,0.1400836,-35.15147,-8.447793,45.05199,0,0,0,87.77471,-87.5078,-51.82307,-10.65202,-111.0878,-35.1035,0.001067912,-0.1257102,0.09433498,0,0.3,0,0,0,0,
6.38223E+17,34.58602,8.673313,5.416566,-17.42614,49.04966,102.7692,-4.570632,-0.4675641,0.1400836,-35.15147,-8.447793,45.05199,0,0,0,81.97488,-89.29532,-49.4586,-10.65202,-111.0878,-35.1035,0.001067912,-0.1257102,0.09433498,0,0.3,0,0,0,0,
6.38223E+17,29.61487,7.130352,4.085772,-23.359,50.36808,102.2565,-4.570632,-0.4675641,0.1400836,-35.15147,-8.447793,45.05199,0,0,0,70.08277,-93.10874,-45.05653,-10.65202,-111.0878,-35.1035,0.001067912,-0.1257102,0.09433498,0,0.3,0,0,0,0,
6.38223E+17,28.03635,6.756301,3.782257,-25.19013,50.80755,101.9635,-4.570632,-0.4675641,0.1400836,-35.15147,-8.447793,45.05199,0,0,0,66.37805,-94.02139,-43.7019,-10.65202,-111.0878,-35.1035,0.001067912,-0.1257102,0.09433498,0,0.3,0,0,0,0,
6.38223E+17,24.10184,6.171845,3.105186,-29.80457,51.54,101.3043,-4.570632,-0.4675641,0.1400836,-35.15147,-8.447793,45.05199,0,0,0,57.08892,-95.46764,-40.73711,-10.65202,-111.0878,-35.1035,0.001067912,-0.1257102,0.09433498,0,0.3,0,0,0,0,
6.38223E+17,20.42649,5.774416,2.288032,-33.83306,52.56543,101.5973,-4.570632,-0.4675641,0.1400836,-35.15147,-8.447793,45.05199,0,0,0,48.16171,-96.47707,-39.03006,-10.65202,-111.0878,-35.1035,0.001067912,-0.1257102,0.09433498,0,0.3,0,0,0,0,
6.38223E+17,15.43177,5.189961,0.9572379,-38.00803,54.25007,107.8231,-4.570632,-0.4675641,0.1400836,-35.15147,-8.447793,45.05199,0,0,0,35.93052,-97.9188,-38.18707,-10.65202,-111.0878,-35.1035,0.001067912,-0.1257102,0.09433498,0,0.3,0,0,0,0,
6.38223E+17,12.69882,5.002935,0.5836816,-39.83916,54.90928,111.4854,-4.570632,-0.4675641,0.1400836,-35.15147,-8.521038,45.05199,0,0,0,29.50075,-98.36406,-37.43226,-10.65202,-111.0878,-35.1035,0.001067912,-0.1257102,0.09433498,0,0.3,0,0,0,0,
6.38223E+17,8.693625,4.979557,0.5369871,-43.13519,55.49524,115.5138,-4.570632,-0.4675641,0.1400836,-35.15147,-8.447793,45.05199,0,0,0,20.26879,-98.41933,-35.79421,-10.65202,-111.0878,-35.1035,0.001067912,-0.1257102,0.09433498,0,0.3,0,0,0,0,
6.38223E+17,5.348111,5.096448,0.6537234,-45.84526,55.49524,119.3226,-4.570632,-0.4675641,0.1400836,-35.15147,-8.447793,45.05199,0,0,0,12.52178,-98.1455,-34.59058,-10.65202,-111.0878,-35.1035,0.001067912,-0.1257102,0.09433498,0,0.3,0,0,0,0,
6.38223E+17,3.109915,6.008198,0.9105434,-47.6764,54.83603,122.9849,-4.570632,-0.4675641,0.1400836,-35.15147,-8.447793,45.05199,0,0,0,7.309677,-96.02531,-33.81182,-10.65202,-111.0878,-35.1035,0.001067912,-0.1257102,0.09433498,0,0.3,0,0,0,0,
6.38223E+17,2.520916,6.522519,0.9105434,-47.74964,54.46981,124.9625,-4.570632,-0.4675641,0.1400836,-35.15147,-8.447793,45.05199,0,0,0,5.920521,-94.83544,-33.8743,-10.65202,-111.0878,-35.1035,0.001067912,-0.1257102,0.09433498,0,0.3,0,0,0,0,
6.38223E+17,1.201558,7.481025,0.8871961,-47.01719,53.8106,130.4559,-4.570632,-0.4675641,0.1400836,-35.15147,-8.447793,45.05199,0,0,0,2.815793,-92.62213,-34.09982,-10.65202,-111.0878,-35.1035,0.001067912,-0.1257102,0.09433498,0,0.3,0,0,0,0,
6.38223E+17,-0.3533994,8.088859,0.8871961,-45.84526,53.00491,134.9971,-4.570632,-0.4675641,0.1400836,-35.15147,-8.447793,45.05199,0,0,0,-0.8270478,-91.2205,-34.26447,-10.65202,-111.0878,-35.1035,0.001067912,-0.1257102,0.09433498,0,0.3,0,0,0,0,
6.38223E+17,-2.238196,8.439531,0.8871961,-45.33255,52.12596,137.7804,-4.570632,-0.4675641,0.1400836,-35.15147,-8.447793,45.05199,0,0,0,-5.232089,-90.41283,-34.48144,-10.65202,-111.0878,-35.1035,0.001067912,-0.1257102,0.09433498,0,0.3,0,0,0,0,
6.38223E+17,-4.264353,8.673313,0.8638488,-45.62553,51.17377,139.3185,-4.570632,-0.4675641,0.1400836,-35.15147,-8.521038,45.12524,0,0,0,-9.951779,-89.87561,-34.88503,-10.65202,-111.0878,-35.1035,0.001067912,-0.1257102,0.09433498,0,0.3,0,0,0,0,
6.38223E+17,-6.19627,8.907095,0.8638488,-46.43123,50.0751,140.4904,-4.570632,-0.4675641,0.1400836,-35.15147,-8.521038,45.12524,0,0,0,-14.43651,-89.3379,-35.37905,-10.65202,-111.0878,-35.1035,0.001067912,-0.1257102,0.09433498,0,0.3,0,0,0,0,
6.38223E+17,-7.939706,9.047364,0.8871961,-47.09043,48.97642,143.1273,-4.570632,-0.4675641,0.1400836,-35.15147,-8.521038,45.05199,0,0,0,-18.47581,-89.0146,-35.87646,-10.65202,-111.0878,-35.1035,0.001067912,-0.1257102,0.09433498,0,0.3,0,0,0,0,
6.38223E+17,-9.777385,9.164255,1.02728,-47.45666,48.09748,144.8119,-4.570632,-0.4675641,0.1400836,-35.15147,-8.447793,45.12524,0,0,0,-22.76251,-88.74054,-36.25826,-10.65202,-111.0878,-35.1035,0.001067912,-0.1257102,0.09433498,0,0.3,0,0,0,0,
6.38223E+17,-11.09674,9.538307,1.377489,-47.45666,47.51152,144.8852,-4.570632,-0.4675641,0.1400836,-35.15147,-8.447793,45.05199,0,0,0,-25.92752,-87.86444,-36.15654,-10.65202,-111.0878,-35.1035,0.001067912,-0.1257102,0.09433498,0,0.3,0,0,0,0,
6.38223E+17,-11.8271,9.88898,1.634309,-47.38342,47.14529,144.8852,-4.570632,-0.4675641,0.1400836,-35.15147,-8.447793,45.05199,0,0,0,-27.7047,-87.04427,-36.04772,-10.65202,-111.0878,-35.1035,0.001067912,-0.1257102,0.09433498,0,0.3,0,0,0,0,
6.38223E+17,-13.2407,10.75397,2.147949,-47.31017,46.33959,144.9584,-4.570632,-0.4675641,0.1400836,-35.15147,-8.521038,45.05199,0,0,0,-31.15113,-85.02424,-35.95953,-10.65202,-111.0878,-35.1035,0.001067912,-0.1257102,0.09433498,0,0.3,0,0,0,0,
6.38223E+17,-15.95009,11.87613,2.404768,-47.6764,44.7282,144.8852,-4.570632,-0.4675641,0.1400836,-35.15147,-8.447793,45.05199,0,0,0,-37.39775,-82.43961,-37.49848,-10.65202,-111.0878,-35.1035,0.001067912,-0.1257102,0.09433498,0,0.3,0,0,0,0,
6.38223E+17,-16.93961,12.0164,2.544852,-47.89613,44.21548,144.7387,-4.570632,-0.4675641,0.1400836,-35.15147,-8.447793,45.05199,0,0,0,-39.72713,-82.10613,-37.91688,-10.65202,-111.0878,-35.1035,0.001067912,-0.1257102,0.09433498,0,0.3,0,0,0,0,
6.38223E+17,-18.65949,12.36707,3.198575,-48.77507,43.33654,144.8119,-4.570632,-0.4675641,0.1400836,-35.22471,-8.521038,45.05199,0,0,0,-44.05495,-81.23216,-37.89159,-10.65202,-111.0878,-35.1035,0.001067912,-0.1257102,0.09433498,0,0.3,0,0,0,0,
6.38223E+17,-20.14377,13.11517,4.039077,-49.50752,42.75058,144.8852,-4.570632,-0.4675641,0.1400836,-35.15147,-8.447793,45.12524,0,0,0,-47.95946,-79.41045,-37.60416,-10.65202,-111.0878,-35.1035,0.001067912,-0.1257102,0.09433498,0,0.3,0,0,0,0,
6.38223E+17,-21.0626,13.44247,4.529369,-49.8005,42.38435,144.8852,-4.570632,-0.4675641,0.1400836,-35.22471,-8.447793,45.05199,0,0,0,-50.39602,-78.58382,-37.49145,-10.65202,-111.0878,-35.1035,0.001067912,-0.1257102,0.09433498,0,0.3,0,0,0,0,
6.38223E+17,-23.60708,13.8399,5.579997,-50.75269,41.79839,144.8852,-4.570632,-0.4675641,0.1400836,-35.15147,-8.447793,45.12524,0,0,0,-57.04382,-77.46951,-37.82583,-10.65202,-111.0878,-35.1035,0.001067912,-0.1257102,0.09433498,0,0.3,0,0,0,0,
6.38223E+17,-26.9526,13.86327,7.027527,-52.43733,40.77296,144.8852,-4.570632,-0.4675641,0.1400836,-35.15147,-8.447793,45.05199,0,0,0,-66.07543,-77.04678,-38.40399,-10.65202,-111.0878,-35.1035,0.001067912,-0.1257102,0.09433498,0,0.3,0,0,0,0,
6.38223E+17,-29.61487,13.86327,8.685184,-54.63469,39.52779,144.9584,-4.570632,-0.4675641,0.1400836,-35.15147,-8.447793,45.05199,0,0,0,-73.9285,-76.51944,-38.29092,-10.65202,-111.0878,-35.1035,0.001067912,-0.1257102,0.09433498,0,0.3,0,0,0,0,
6.38223E+17,-31.52323,13.86327,10.10937,-56.6123,38.35587,144.8852,-4.570632,-0.4675641,0.1400836,-35.15147,-8.447793,45.05199,0,0,0,-79.92832,-75.97824,-38.03745,-10.65202,-111.0878,-35.1035,0.001067912,-0.1257102,0.09433498,0,0.3,0,0,0,0,
6.38223E+17,-32.34783,13.86327,10.69305,-57.34475,37.84315,144.8119,-4.570632,-0.4675641,0.1400836,-35.15147,-8.447793,45.05199,0,0,0,-82.51034,-75.73299,-38.07244,-10.65202,-111.0878,-35.1035,0.001067912,-0.1257102,0.09433498,0,0.3,0,0,0,0,
6.38223E+17,-33.62006,13.86327,11.76702,-58.15046,37.18394,144.9584,-4.570632,-0.4675641,0.1400836,-35.15147,-8.447793,45.12524,0,0,0,-86.73999,-75.24621,-37.89496,-10.65202,-111.0878,-35.1035,0.001067912,-0.1257102,0.09433498,0,0.3,0,0,0,0,
6.38223E+17,-35.08078,13.86327,13.30794,-58.51668,36.59798,144.9584,-4.570632,-0.4675641,0.1400836,-35.15147,-8.521038,45.05199,0,0,0,-92.04927,-74.46772,-37.28371,-10.65202,-111.0878,-35.1035,0.001067912,-0.1257102,0.09433498,0,0.3,0,0,0,0,
6.38223E+17,-36.61218,13.86327,14.77882,-59.02939,35.86554,144.8852,-4.570632,-0.4675641,0.1400836,-35.15147,-8.521038,45.05199,0,0,0,-97.49968,-73.63705,-37.12486,-10.65202,-111.0878,-35.1035,0.001067912,-0.1257102,0.09433498,0,0.3,0,0,0,0,
6.38223E+17,-38.23782,13.81652,16.03957,-59.32237,35.05984,144.8852,-4.570632,-0.4675641,0.1400836,-35.15147,-8.447793,45.05199,0,0,0,-102.95,-72.96306,-37.70136,-10.65202,-111.0878,-35.1035,0.001067912,-0.1257102,0.09433498,0,0.3,0,0,0,0,
6.38223E+17,-39.03886,13.74638,16.66995,-59.10264,34.62037,144.8852,-4.570632,-0.4675641,0.1400836,-35.15147,-8.447793,45.12524,0,0,0,-105.6777,-72.70847,-38.02976,-10.65202,-111.0878,-35.1035,0.001067912,-0.1257102,0.09433498,0,0.3,0,0,0,0,
6.38223E+17,-40.42889,13.62949,17.95405,-58.22369,33.52169,144.8119,-4.570632,-0.4675641,0.1400836,-35.15147,-8.447793,45.05199,0,0,0,-110.7,-72.08348,-38.41082,-10.65202,-111.0878,-35.1035,0.001067912,-0.1257102,0.09433498,0,0.3,0,0,0,0,
6.38223E+17,-41.74825,13.44247,19.2148,-57.05178,31.83705,144.8852,-4.570632,-0.4675641,0.1400836,-35.15147,-8.447793,45.05199,0,0,0,-115.5822,-71.57153,-38.84313,-10.65202,-111.0878,-35.1035,0.001067912,-0.1257102,0.09433498,0,0.3,0,0,0,0,
6.38223E+17,-42.87913,13.23206,20.33547,-55.73336,30.00592,144.9584,-4.570632,-0.4675641,0.1400836,-35.15147,-8.447793,45.05199,0,0,0,-119.8626,-71.16559,-39.26819,-10.65202,-111.0878,-35.1035,0.001067912,-0.1257102,0.09433498,0,0.3,0,0,0,0,
6.38223E+17,-43.53881,13.09179,20.91915,-54.85442,28.68751,144.8852,-4.570632,-0.4675641,0.1400836,-35.15147,-8.447793,45.05199,0,0,0,-122.2678,-71.00491,-39.68125,-10.65202,-111.0878,-35.1035,0.001067912,-0.1257102,0.09433498,0,0.3,0,0,0,0,
6.38223E+17,-44.05713,13.02166,21.3861,-53.6825,27.14936,144.8852,-4.570632,-0.4675641,0.1400836,-35.15147,-8.521038,45.05199,0,0,0,-124.1572,-70.77176,-40.0377,-10.65202,-111.0878,-35.1035,0.001067912,-0.1257102,0.09433498,0,0.3,0,0,0,0,
6.38223E+17,-44.19849,13.02166,21.50283,-52.8768,26.49015,144.8119,-4.570632,-0.4675641,0.1400836,-35.15147,-8.521038,45.05199,0,0,0,-124.6497,-70.67243,-40.16311,-10.65202,-111.0878,-35.1035,0.001067912,-0.1257102,0.09433498,0,0.3,0,0,0,0,
6.38223E+17,-44.41053,13.02166,21.82969,-49.58077,24.58578,144.8852,-4.570632,-0.4675641,0.1400836,-35.15147,-8.447793,45.12524,0,0,0,-125.618,-70.39156,-40.12026,-10.65202,-111.0878,-35.1035,0.001067912,-0.1257102,0.09433498,0,0.3,0,0,0,0,
6.38223E+17,-44.45765,13.02166,21.87639,-48.26236,24.14631,144.8852,-4.570632,-0.4675641,0.1400836,-35.15147,-8.521038,45.05199,0,0,0,-125.7941,-70.35111,-40.15162,-10.65202,-111.0878,-35.1035,0.001067912,-0.1257102,0.09433498,0,0.3,0,0,0,0,
6.38223E+17,-44.57545,13.02166,22.2266,-45.03957,22.97438,144.8852,-4.570632,-0.4675641,0.1400836,-35.15147,-8.447793,45.05199,0,0,0,-126.5876,-70.0451,-39.87239,-10.65202,-111.0878,-35.1035,0.001067912,-0.1257102,0.09433498,0,0.3,0,0,0,0,
6.38223E+17,-44.78749,13.02166,22.69354,-42.10976,21.65597,144.8852,-4.570632,-0.4675641,0.1400836,-35.15147,-8.447793,45.05199,0,0,0,-127.7697,-69.62991,-39.62894,-10.65202,-111.0878,-35.1035,0.001067912,-0.1257102,0.09433498,0,0.3,0,0,0,0,
6.38223E+17,-44.97597,13.04504,23.27722,-38.81373,19.45862,144.8852,-4.570632,-0.4675641,0.1400836,-35.15147,-8.521038,45.05199,0,0,0,-129.0677,-69.04643,-39.17395,-10.65202,-111.0878,-35.1035,0.001067912,-0.1257102,0.09433498,0,0.3,0,0,0,0,
6.38223E+17,-44.99953,13.11517,23.86091,-37.05584,18.06696,144.8852,-4.570632,-0.4675641,0.1400836,-35.15147,-8.521038,45.05199,0,0,0,-129.9751,-68.34425,-38.37271,-10.65202,-111.0878,-35.1035,0.001067912,-0.1257102,0.09433498,0,0.3,0,0,0,0,
6.38223E+17,-45.04665,13.32558,25.21505,-35.07822,16.38232,144.9584,-4.570632,-0.4675641,0.1400836,-35.15147,-8.521038,45.05199,0,0,0,-132.0316,-66.55872,-36.5332,-10.65202,-111.0878,-35.1035,0.001067912,-0.1257102,0.09433498,0,0.3,0,0,0,0,
6.38223E+17,-45.09377,13.53598,26.0322,-34.49226,15.64987,144.8852,-4.570632,-0.4675641,0.1400836,-35.15147,-8.521038,45.12524,0,0,0,-133.2739,-65.25996,-35.51157,-10.65202,-111.0878,-35.1035,0.001067912,-0.1257102,0.09433498,0,0.3,0,0,0,0,
6.38223E+17,-45.16444,14.89192,28.06341,-33.97955,13.89198,144.8852,-4.570632,-0.4675641,0.1400836,-35.15147,-8.447793,45.12524,0,0,0,-135.8738,-60.05123,-33.25394,-10.65202,-111.0878,-35.1035,0.001067912,-0.1257102,0.09433498,0,0.3,0,0,0,0,
6.38223E+17,-45.16444,15.68677,28.55371,-34.05279,13.37927,144.8852,-4.570632,-0.4675641,0.1400836,-35.15147,-8.447793,45.05199,0,0,0,-136.2403,-57.72563,-32.88955,-10.65202,-111.0878,-35.1035,0.001067912,-0.1257102,0.09433498,0,0.3,0,0,0,0,
6.38223E+17,-45.09377,17.53365,29.41755,-34.56551,12.50033,144.8852,-4.570632,-0.4675641,0.1400836,-35.15147,-8.447793,45.05199,0,0,0,-136.4484,-52.63249,-32.34745,-10.65202,-111.0878,-35.1035,0.001067912,-0.1257102,0.09433498,0,0.3,0,0,0,0,
6.38223E+17,-44.88173,19.3104,30.70166,-35.3712,11.84112,144.8852,-4.570632,-0.4675641,0.1400836,-35.15147,-8.447793,45.05199,0,0,0,-136.8473,-47.21241,-30.93654,-10.65202,-111.0878,-35.1035,0.001067912,-0.1257102,0.09433498,0,0.3,0,0,0,0,
6.38223E+17,-44.43409,21.67159,32.31261,-36.9826,11.3284,144.8119,-4.570632,-0.4675641,0.1400836,-35.15147,-8.521038,45.05199,0,0,0,-136.6607,-40.10567,-28.96267,-10.65202,-111.0878,-35.1035,0.001067912,-0.1257102,0.09433498,0,0.3,0,0,0,0,
6.38223E+17,-44.08069,23.14442,32.75621,-38.08128,11.3284,144.8852,-4.570632,-0.4675641,0.1400836,-35.15147,-8.447793,45.05199,0,0,0,-135.4949,-36.38149,-28.43579,-10.65202,-111.0878,-35.1035,0.001067912,-0.1257102,0.09433498,0,0.3,0,0,0,0,
6.38223E+17,-43.30321,25.64589,32.91964,-39.69267,11.40165,144.8852,-4.570632,-0.4675641,0.1400836,-35.15147,-8.521038,45.05199,0,0,0,-132.154,-30.87354,-28.12732,-10.65202,-111.0878,-35.1035,0.001067912,-0.1257102,0.09433498,0,0.3,0,0,0,0,
6.38223E+17,-42.40793,27.42263,32.87295,-41.23082,11.76787,144.9584,-4.570632,-0.4675641,0.1400836,-35.15147,-8.447793,45.05199,0,0,0,-128.6396,-27.23309,-27.51086,-10.65202,-111.0878,-35.1035,0.001067912,-0.1257102,0.09433498,0,0.3,0,0,0,0,
6.38223E+17,-41.13569,28.49803,32.61613,-42.54923,12.72006,144.8119,-4.570632,-0.4675641,0.1400836,-35.15147,-8.447793,45.05199,0,0,0,-124.3781,-25.34571,-25.95186,-10.65202,-111.0878,-35.1035,0.001067912,-0.1257102,0.09433498,0,0.3,0,0,0,0,
6.38223E+17,-39.93414,28.68506,32.10249,-42.62248,13.45251,144.8119,-4.570632,-0.4675641,0.1400836,-35.22471,-8.521038,45.05199,0,0,0,-120.5828,-25.60334,-24.30903,-10.65202,-111.0878,-35.1035,0.001067912,-0.1257102,0.09433498,0,0.3,0,0,0,0,
6.38223E+17,-39.27446,28.66168,31.68224,-42.47599,14.03847,144.8119,-4.570632,-0.4675641,0.1400836,-35.15147,-8.447793,45.05199,0,0,0,-118.4073,-26.16782,-23.55292,-10.65202,-111.0878,-35.1035,0.001067912,-0.1257102,0.09433498,0,0.3,0,0,0,0,
6.38223E+17,-38.09645,28.56816,30.53822,-42.03651,14.99066,144.8852,-4.570632,-0.4675641,0.1400836,-35.22471,-8.447793,45.05199,0,0,0,-114.0633,-27.73458,-22.8612,-10.65202,-111.0878,-35.1035,0.001067912,-0.1257102,0.09433498,0,0.3,0,0,0,0,
6.38223E+17,-37.1305,28.40452,29.51094,-41.74353,15.94285,144.9584,-4.570632,-0.4675641,0.1400836,-35.22471,-8.447793,45.05199,0,0,0,-110.4545,-29.26565,-22.46449,-10.65202,-111.0878,-35.1035,0.001067912,-0.1257102,0.09433498,0,0.3,0,0,0,0,
6.38223E+17,-36.40014,28.38114,28.6004,-41.81678,16.60205,144.8119,-4.570632,-0.4675641,0.1400836,-35.15147,-8.447793,45.05199,0,0,0,-107.502,-30.34271,-22.53861,-10.65202,-111.0878,-35.1035,0.001067912,-0.1257102,0.09433498,0,0.3,0,0,0,0,
6.38223E+17,-35.64622,28.35776,27.45638,-42.18301,16.74854,144.8119,-4.570632,-0.4675641,0.1400836,-35.15147,-8.521038,45.05199,0,0,0,-104.2195,-31.64174,-23.02561,-10.65202,-111.0878,-35.1035,0.001067912,-0.1257102,0.09433498,0,0.3,0,0,0,0,
6.38223E+17,-34.32687,28.35776,25.86877,-42.76897,16.89503,144.8852,-4.570632,-0.4675641,0.1400836,-35.15147,-8.447793,45.05199,0,0,0,-98.9837,-33.29977,-23.39137,-10.65202,-111.0878,-35.1035,0.001067912,-0.1257102,0.09433498,0,0.3,0,0,0,0,
6.38223E+17,-32.51274,28.12398,23.53404,-43.13519,17.11477,144.9584,-4.570632,-0.4675641,0.1400836,-35.15147,-8.521038,45.12524,0,0,0,-91.83031,-36.04969,-24.27602,-10.65202,-111.0878,-35.1035,0.001067912,-0.1257102,0.09433498,0,0.3,0,0,0,0,
6.38223E+17,-31.12271,27.72655,21.59622,-43.06195,17.62749,144.4457,-4.570632,-0.4675641,0.1400836,-35.15147,-8.521038,45.12524,0,0,0,-86.37962,-38.59754,-25.2851,-10.65202,-111.0878,-35.1035,0.001067912,-0.1257102,0.09433498,0,0.3,0,0,0,0,
6.38223E+17,-29.28503,27.18885,19.58836,-42.69572,18.57967,141.2229,-4.570632,-0.4675641,0.1400836,-35.15147,-8.447793,45.12524,0,0,0,-79.88994,-41.35152,-25.90062,-10.65202,-111.0878,-35.1035,0.001067912,-0.1257102,0.09433498,0,0.3,0,0,0,0,
6.38223E+17,-28.36619,27.00183,18.67781,-42.54923,19.16564,139.758,-4.570632,-0.4675641,0.1400836,-35.15147,-8.447793,45.12524,0,0,0,-76.73832,-42.43362,-26.22507,-10.65202,-111.0878,-35.1035,0.001067912,-0.1257102,0.09433498,0,0.3,0,0,0,0,
6.38223E+17,-25.539,26.88494,16.13296,-42.47599,21.07001,134.7041,-4.570632,-0.4675641,0.1400836,-35.15147,-8.447793,45.05199,0,0,0,-67.25153,-44.44771,-27.60086,-10.65202,-111.0878,-35.1035,0.001067912,-0.1257102,0.09433498,0,0.3,0,0,0,0,
6.38223E+17,-24.43168,26.88494,15.43254,-42.40274,21.58273,133.3124,-4.570632,-0.4675641,0.1400836,-35.15147,-8.447793,45.05199,0,0,0,-63.87015,-44.89109,-27.75572,-10.65202,-111.0878,-35.1035,0.001067912,-0.1257102,0.09433498,0,0.3,0,0,0,0,
6.38223E+17,-22.1228,26.88494,14.19514,-42.3295,22.53491,130.1629,-4.570632,-0.4675641,0.1400836,-35.15147,-8.447793,45.05199,0,0,0,-57.10574,-45.62742,-27.87593,-10.65202,-111.0878,-35.1035,0.001067912,-0.1257102,0.09433498,0,0.3,0,0,0,0,
6.38223E+17,-19.83749,26.88494,13.2379,-42.03651,23.34061,127.3796,-4.570632,-0.4675641,0.1400836,-35.15147,-8.447793,45.05199,0,0,0,-50.72435,-46.15568,-27.7464,-10.65202,-111.0878,-35.1035,0.001067912,-0.1257102,0.09433498,0,0.3,0,0,0,0,
6.38223E+17,-18.70661,26.88494,12.77096,-41.81678,23.70683,126.1344,-4.570632,-0.4675641,0.1400836,-35.15147,-8.447793,45.05199,0,0,0,-47.59987,-46.40023,-27.77563,-10.65202,-111.0878,-35.1035,0.001067912,-0.1257102,0.09433498,0,0.3,0,0,0,0,
6.38223E+17,-16.44485,26.88494,12.14058,-41.45055,24.36604,122.9116,-4.570632,-0.4675641,0.1400836,-35.15147,-8.447793,45.05199,0,0,0,-41.60949,-46.71667,-27.38061,-10.65202,-111.0878,-35.1035,0.001067912,-0.1257102,0.09433498,0,0.3,0,0,0,0,
6.38223E+17,-13.9475,26.88494,11.83706,-41.30406,24.95201,119.5423,-4.570632,-0.4675641,0.1400836,-35.15147,-8.447793,45.05199,0,0,0,-35.26092,-46.8634,-26.37206,-10.65202,-111.0878,-35.1035,0.001067912,-0.1257102,0.09433498,0,0.3,0,0,0,0,
6.38223E+17,-10.97894,26.88494,11.62694,-40.93784,25.39147,115.8068,-4.570632,-0.4675641,0.1400836,-35.15147,-8.447793,45.05199,0,0,0,-27.76967,-46.96284,-25.20655,-10.65202,-111.0878,-35.1035,0.001067912,-0.1257102,0.09433498,0,0.3,0,0,0,0,
6.38223E+17,-8.010387,26.88494,11.37012,-40.35188,25.61121,112.4375,-4.570632,-0.4675641,0.1400836,-35.15147,-8.447793,45.05199,0,0,0,-20.23769,-47.08199,-24.54051,-10.65202,-111.0878,-35.1035,0.001067912,-0.1257102,0.09433498,0,0.3,0,0,0,0,
6.38223E+17,-6.14915,26.88494,11.32342,-39.69267,25.83095,110.3134,-4.570632,-0.4675641,0.1400836,-35.22471,-8.447793,45.05199,0,0,0,-15.54481,-47.10338,-24.06502,-10.65202,-111.0878,-35.1035,0.001067912,-0.1257102,0.09433498,0,0.3,0,0,0,0,
6.38223E+17,-3.039235,26.88494,11.20669,-38.37426,26.27042,107.2371,-4.570632,-0.4675641,0.1400836,-35.15147,-8.447793,45.05199,0,0,0,-7.6801,-47.15645,-23.70026,-10.65202,-111.0878,-35.1035,0.001067912,-0.1257102,0.09433498,0,0.3,0,0,0,0,
6.38223E+17,0.3062795,26.88494,11.0666,-36.61637,26.78313,104.3806,-4.570632,-0.4675641,0.1400836,-35.15147,-8.521038,45.05199,0,0,0,0.772613,-47.21943,-23.81848,-10.65202,-111.0878,-35.1035,0.001067912,-0.1257102,0.09433498,0,0.3,0,0,0,0,
6.38223E+17,3.439754,26.88494,11.04326,-34.56551,27.2226,101.6705,-4.570632,-0.4675641,0.1400836,-35.15147,-8.447793,45.05199,0,0,0,8.668669,-47.22984,-24.13003,-10.65202,-111.0878,-35.1035,0.001067912,-0.1257102,0.09433498,0,0.3,0,0,0,0,
6.38223E+17,5.65439,26.86156,11.04326,-33.02736,27.51558,99.32666,-4.570632,-0.4675641,0.1400836,-35.15147,-8.447793,45.05199,0,0,0,14.23772,-47.27838,-24.54826,-10.65202,-111.0878,-35.1035,0.001067912,-0.1257102,0.09433498,0,0.3,0,0,0,0,
6.38223E+17,7.232908,26.86156,11.04326,-32.00193,27.80857,97.49553,-4.570632,-0.4675641,0.1400836,-35.15147,-8.447793,45.05199,0,0,0,18.1936,-47.27838,-24.99504,-10.65202,-111.0878,-35.1035,0.001067912,-0.1257102,0.09433498,0,0.3,0,0,0,0,
6.38223E+17,9.636024,26.86156,11.04326,-30.75676,28.0283,94.78546,-4.570632,-0.4675641,0.1400836,-35.15147,-8.447793,45.05199,0,0,0,24.18847,-47.27838,-25.88397,-10.65202,-111.0878,-35.1035,0.001067912,-0.1257102,0.09433498,0,0.3,0,0,0,0,
6.38223E+17,12.22762,26.86156,11.04326,-29.73133,28.32128,92.44161,-4.570632,-0.4675641,0.1400836,-35.15147,-8.447793,45.12524,0,0,0,30.60554,-47.27838,-27.1234,-10.65202,-111.0878,-35.1035,0.001067912,-0.1257102,0.09433498,0,0.3,0,0,0,0,
6.38223E+17,15.69093,26.86156,11.04326,-28.48616,28.61426,89.80479,-4.570632,-0.4675641,0.1400836,-35.15147,-8.447793,45.05199,0,0,0,39.08107,-47.27838,-29.23018,-10.65202,-111.0878,-35.1035,0.001067912,-0.1257102,0.09433498,0,0.3,0,0,0,0,
6.38223E+17,18.51813,26.86156,11.1133,-27.16775,28.76075,87.97366,-4.570632,-0.4675641,0.1400836,-35.15147,-8.447793,45.05199,0,0,0,45.94623,-47.24706,-31.17545,-10.65202,-111.0878,-35.1035,0.001067912,-0.1257102,0.09433498,0,0.3,0,0,0,0,
6.38223E+17,20.02597,26.86156,11.15999,-26.28881,28.834,86.94823,-4.570632,-0.4675641,0.1400836,-35.15147,-8.521038,45.05199,0,0,0,49.5764,-47.22606,-32.33178,-10.65202,-111.0878,-35.1035,0.001067912,-0.1257102,0.09433498,0,0.3,0,0,0,0,
6.38223E+17,22.80604,26.83818,11.20669,-24.38443,28.90724,85.41007,-4.570632,-0.4675641,0.1400836,-35.15147,-8.521038,45.05199,0,0,0,56.16612,-47.25353,-34.77551,-10.65202,-111.0878,-35.1035,0.001067912,-0.1257102,0.09433498,0,0.3,0,0,0,0,
6.38223E+17,25.20916,26.79142,11.23003,-22.5533,28.98049,83.79868,-4.570632,-0.4675641,0.1400836,-35.15147,-8.447793,45.05199,0,0,0,61.76111,-47.34008,-37.15539,-10.65202,-111.0878,-35.1035,0.001067912,-0.1257102,0.09433498,0,0.3,0,0,0,0,
6.38223E+17,27.04683,26.72129,11.23003,-21.16164,29.05373,82.40703,-4.570632,-0.4675641,0.1400836,-35.15147,-8.521038,45.05199,0,0,0,65.96992,-47.48583,-39.13797,-10.65202,-111.0878,-35.1035,0.001067912,-0.1257102,0.09433498,0,0.3,0,0,0,0,
6.38223E+17,28.88451,26.69791,11.23003,-20.2827,28.98049,80.50266,-4.570632,-0.4675641,0.1400836,-35.15147,-8.521038,45.05199,0,0,0,70.09137,-47.53444,-41.29853,-10.65202,-111.0878,-35.1035,0.001067912,-0.1257102,0.09433498,0,0.3,0,0,0,0,
6.38223E+17,31.02847,26.69791,11.32342,-19.477,28.98049,78.67152,-4.570632,-0.4675641,0.1400836,-35.15147,-8.447793,45.05199,0,0,0,74.90523,-47.49193,-43.82696,-10.65202,-111.0878,-35.1035,0.001067912,-0.1257102,0.09433498,0,0.3,0,0,0,0,
6.38223E+17,34.25618,26.69791,11.88376,-17.93885,29.05373,76.54742,-4.570632,-0.4675641,0.1400836,-35.15147,-8.447793,45.05199,0,0,0,82.51668,-47.22963,-47.18614,-10.65202,-111.0878,-35.1035,0.001067912,-0.1257102,0.09433498,0,0.3,0,0,0,0,
6.38223E+17,36.4237,26.69791,12.58418,-16.5472,29.12698,75.59522,-4.570632,-0.4675641,0.1400836,-35.15147,-8.447793,45.05199,0,0,0,87.98613,-46.88419,-49.11181,-10.65202,-111.0878,-35.1035,0.001067912,-0.1257102,0.09433498,0,0.3,0,0,0,0,
6.38223E+17,39.15665,26.69791,13.86828,-14.34984,29.34671,74.93602,-4.570632,-0.4675641,0.1400836,-35.15147,-8.447793,45.05199,0,0,0,95.40849,-46.20042,-51.18678,-10.65202,-111.0878,-35.1035,0.001067912,-0.1257102,0.09433498,0,0.3,0,0,0,0,
6.38223E+17,40.42889,26.69791,14.66208,-13.17792,29.34671,74.71628,-4.570632,-0.4675641,0.1400836,-35.15147,-8.447793,45.05199,0,0,0,99.14749,-45.74518,-51.97104,-10.65202,-111.0878,-35.1035,0.001067912,-0.1257102,0.09433498,0,0.3,0,0,0,0,
6.38223E+17,43.58593,26.69791,17.27698,-9.588906,29.41996,74.42331,-4.570632,-0.4675641,0.1400836,-35.15147,-8.447793,45.12524,0,0,0,109.4399,-44.07094,-53.37022,-10.65202,-111.0878,-35.1035,0.001067912,-0.1257102,0.09433498,0,0.3,0,0,0,0,
6.38223E+17,44.38697,26.69791,18.04744,-8.416983,29.34671,74.35006,-4.570632,-0.4675641,0.1400836,-35.15147,-8.447793,45.05199,0,0,0,112.2319,-43.52689,-53.69042,-10.65202,-111.0878,-35.1035,0.001067912,-0.1257102,0.09433498,0,0.3,0,0,0,0,
6.38223E+17,45.63565,26.69791,19.23815,-6.659099,29.56645,74.20357,-4.570632,-0.4675641,0.1400836,-35.15147,-8.447793,45.12524,0,0,0,116.5811,-42.64103,-54.32738,-10.65202,-111.0878,-35.1035,0.001067912,-0.1257102,0.09433498,0,0.3,0,0,0,0,
6.38223E+17,46.67228,26.69791,20.28877,-5.267441,30.22566,73.39787,-4.570632,-0.4675641,0.1400836,-35.15147,-8.447793,45.05199,0,0,0,120.2988,-41.81421,-54.87621,-10.65202,-111.0878,-35.1035,0.001067912,-0.1257102,0.09433498,0,0.3,0,0,0,0,
6.38223E+17,47.92096,26.72129,21.96978,-3.436311,31.25109,72.37244,-4.570632,-0.4675641,0.1400836,-35.15147,-8.447793,45.12524,0,0,0,125.4334,-40.35536,-55.09554,-10.65202,-111.0878,-35.1035,0.001067912,-0.1257102,0.09433498,0,0.3,0,0,0,0,
6.38223E+17,48.4864,26.74467,22.97371,-2.117898,31.61732,72.07946,-4.570632,-0.4675641,0.1400836,-35.15147,-8.447793,45.05199,0,0,0,128.1434,-39.41368,-54.92409,-10.65202,-111.0878,-35.1035,0.001067912,-0.1257102,0.09433498,0,0.3,0,0,0,0,
6.38223E+17,48.9576,26.83818,23.95429,-0.4332596,32.05679,71.93297,-4.570632,-0.4675641,0.1400836,-35.15147,-8.447793,45.05199,0,0,0,130.5768,-38.3107,-54.67157,-10.65202,-111.0878,-35.1035,0.001067912,-0.1257102,0.09433498,0,0.3,0,0,0,0,
6.38223E+17,49.09896,26.86156,24.3045,0.3724372,32.20328,71.85973,-4.570632,-0.4675641,0.1400836,-35.15147,-8.447793,45.05199,0,0,0,131.4005,-37.92895,-54.52312,-10.65202,-111.0878,-35.1035,0.001067912,-0.1257102,0.09433498,0,0.3,0,0,0,0,
6.38223E+17,49.75864,26.86156,25.5886,2.716283,32.86248,71.78648,-4.570632,-0.4675641,0.1400836,-35.15147,-8.447793,45.05199,0,0,0,134.7708,-36.66846,-54.29301,-10.65202,-111.0878,-35.1035,0.001067912,-0.1257102,0.09433498,0,0.3,0,0,0,0,
6.38223E+17,50.30051,26.97845,26.73262,4.620657,33.22871,72.29919,-4.570632,-0.4675641,0.1400836,-35.15147,-8.521038,45.05199,0,0,0,137.5874,-35.25201,-54.12487,-10.65202,-111.0878,-35.1035,0.001067912,-0.1257102,0.09433498,0,0.3,0,0,0,0,
6.38223E+17,50.6068,27.16547,27.52643,5.865825,33.3752,72.88515,-4.570632,-0.4675641,0.1400836,-35.15147,-8.447793,45.05199,0,0,0,139.3136,-34.02196,-53.94422,-10.65202,-111.0878,-35.1035,0.001067912,-0.1257102,0.09433498,0,0.3,0,0,0,0,
6.38223E+17,51.14867,27.82006,29.37086,8.282915,33.22871,74.20357,-4.570632,-0.4675641,0.1400836,-35.15147,-8.447793,45.05199,0,0,0,142.7809,-30.62568,-53.3405,-10.65202,-111.0878,-35.1035,0.001067912,-0.1257102,0.09433498,0,0.3,0,0,0,0,
6.38223E+17,51.83192,28.89546,31.93906,12.09166,32.13003,75.96145,-4.570632,-0.4675641,0.1400836,-35.15147,-8.447793,45.05199,0,0,0,147.2498,-25.37586,-52.60861,-10.65202,-111.0878,-35.1035,0.001067912,-0.1257102,0.09433498,0,0.3,0,0,0,0,
6.38223E+17,51.97327,29.26951,32.75621,13.33683,31.61732,76.47417,-4.570632,-0.4675641,0.1400836,-35.15147,-8.447793,45.12524,0,0,0,148.4672,-23.59747,-52.24316,-10.65202,-111.0878,-35.1035,0.001067912,-0.1257102,0.09433498,0,0.3,0,0,0,0,
6.38223E+17,52.16175,30.15788,34.11036,15.75392,30.37215,77.57285,-4.570632,-0.4675641,0.1400836,-35.15147,-8.447793,45.05199,0,0,0,150.116,-20.06536,-51.74748,-10.65202,-111.0878,-35.1035,0.001067912,-0.1257102,0.09433498,0,0.3,0,0,0,0,
6.38223E+17,52.27955,31.11639,35.23103,17.87803,29.20022,78.59828,-4.570632,-0.4675641,0.1400836,-35.15147,-8.447793,45.05199,0,0,0,151.153,-16.66226,-51.4395,-10.65202,-111.0878,-35.1035,0.001067912,-0.1257102,0.09433498,0,0.3,0,0,0,0,
6.38223E+17,52.42091,32.19178,36.56182,20.22188,27.80857,79.7702,-4.570632,-0.4675641,0.1400836,-35.15147,-8.447793,45.05199,0,0,0,152.3884,-12.7158,-51.08369,-10.65202,-111.0878,-35.1035,0.001067912,-0.1257102,0.09433498,0,0.3,0,0,0,0,
6.38223E+17,52.51515,32.93989,37.37897,21.97976,26.85638,80.64914,-4.570632,-0.4675641,0.1400836,-35.15147,-8.521038,45.05199,0,0,0,153.0432,-10.10467,-50.98015,-10.65202,-111.0878,-35.1035,0.001067912,-0.1257102,0.09433498,0,0.3,0,0,0,0,
6.38223E+17,52.53872,33.75813,37.986,24.17712,25.53797,81.60133,-4.570632,-0.4675641,0.1400836,-35.15147,-8.521038,45.05199,0,0,0,153.1479,-7.650276,-50.99978,-10.65202,-111.0878,-35.1035,0.001067912,-0.1257102,0.09433498,0,0.3,0,0,0,0,
6.38223E+17,52.53872,34.13218,38.28952,25.27579,24.95201,82.11404,-4.570632,-0.4675641,0.1400836,-35.15147,-8.521038,45.12524,0,0,0,153.2031,-6.491841,-50.95752,-10.65202,-111.0878,-35.1035,0.001067912,-0.1257102,0.09433498,0,0.3,0,0,0,0,
6.38223E+17,52.58583,34.83352,38.8732,27.91262,24.07306,83.43246,-4.570632,-0.4675641,0.1400836,-35.15147,-8.447793,45.05199,0,0,0,153.409,-4.299178,-50.99984,-10.65202,-111.0878,-35.1035,0.001067912,-0.1257102,0.09433498,0,0.3,0,0,0,0,
6.38223E+17,52.58583,35.37122,38.9199,30.62269,23.56034,84.60438,-4.570632,-0.4675641,0.1400836,-35.22471,-8.447793,45.05199,0,0,0,152.9046,-3.207108,-51.38567,-10.65202,-111.0878,-35.1035,0.001067912,-0.1257102,0.09433498,0,0.3,0,0,0,0,
6.38223E+17,52.58583,35.69852,38.9199,33.40601,23.26737,86.14253,-4.570632,-0.4675641,0.1400836,-35.15147,-8.447793,45.12524,0,0,0,152.553,-2.587229,-51.65466,-10.65202,-111.0878,-35.1035,0.001067912,-0.1257102,0.09433498,0,0.3,0,0,0,0,
6.38223E+17,52.58583,35.86216,38.8265,36.26257,23.19412,87.82717,-4.570632,-0.4675641,0.1400836,-35.15147,-8.447793,45.05199,0,0,0,152.2417,-2.414652,-51.89277,-10.65202,-111.0878,-35.1035,0.001067912,-0.1257102,0.09433498,0,0.3,0,0,0,0,
6.38223E+17,52.30311,35.88554,38.0327,39.70509,23.19412,90.24426,-4.570632,-0.4675641,0.1400836,-35.15147,-8.447793,45.05199,0,0,0,150.4948,-3.518874,-52.04745,-10.65202,-111.0878,-35.1035,0.001067912,-0.1257102,0.09433498,0,0.3,0,0,0,0,
6.38223E+17,51.80835,35.88554,36.81864,41.24324,23.19412,91.63592,-4.570632,-0.4675641,0.1400836,-35.15147,-8.447793,45.05199,0,0,0,147.7213,-5.236045,-52.13963,-10.65202,-111.0878,-35.1035,0.001067912,-0.1257102,0.09433498,0,0.3,0,0,0,0,
6.38223E+17,50.79528,35.88554,34.39052,41.90245,23.19412,93.46705,-4.570632,-0.4675641,0.1400836,-35.15147,-8.447793,45.12524,0,0,0,142.0834,-8.525852,-52.45007,-10.65202,-111.0878,-35.1035,0.001067912,-0.1257102,0.09433498,0,0.3,0,0,0,0,
6.38223E+17,50.18272,35.88554,33.08308,41.60947,23.26737,94.41924,-4.570632,-0.4675641,0.1400836,-35.15147,-8.447793,45.05199,0,0,0,138.8926,-10.2158,-52.55804,-10.65202,-111.0878,-35.1035,0.001067912,-0.1257102,0.09433498,0,0.3,0,0,0,0,
6.38223E+17,48.46284,35.88554,30.86509,40.21781,23.4871,97.12931,-4.570632,-0.4675641,0.1400836,-35.15147,-8.521038,45.05199,0,0,0,132.0772,-12.94917,-51.34516,-10.65202,-111.0878,-35.1035,0.001067912,-0.1257102,0.09433498,0,0.3,0,0,0,0,
6.38223E+17,47.40264,35.88554,30.3281,39.70509,23.63359,98.81395,-4.570632,-0.4675641,0.1400836,-35.15147,-8.447793,45.12524,0,0,0,129.0978,-13.5853,-49.64951,-10.65202,-111.0878,-35.1035,0.001067912,-0.1257102,0.09433498,0,0.3,0,0,0,0,
6.38223E+17,46.76653,35.88554,29.95454,39.48536,23.63359,99.83938,-4.570632,-0.4675641,0.1400836,-35.15147,-8.447793,45.05199,0,0,0,127.2242,-14.02186,-48.73857,-10.65202,-111.0878,-35.1035,0.001067912,-0.1257102,0.09433498,0,0.3,0,0,0,0,
6.38223E+17,45.09377,35.88554,28.48367,39.33887,23.78008,102.2565,-4.570632,-0.4675641,0.1400836,-35.22471,-8.447793,45.05199,0,0,0,121.5624,-15.69291,-47.18487,-10.65202,-111.0878,-35.1035,0.001067912,-0.1257102,0.09433498,0,0.3,0,0,0,0,
6.38223E+17,42.14877,35.88554,25.28509,38.38668,24.36604,106.4314,-4.570632,-0.4675641,0.1400836,-35.15147,-8.521038,45.05199,0,0,0,110.7216,-19.05874,-46.02147,-10.65202,-111.0878,-35.1035,0.001067912,-0.1257102,0.09433498,0,0.3,0,0,0,0,
6.38223E+17,41.15925,35.88554,24.23446,37.87396,24.65902,107.7499,-4.570632,-0.4675641,0.1400836,-35.15147,-8.447793,45.05199,0,0,0,107.1312,-20.08282,-45.79932,-10.65202,-111.0878,-35.1035,0.001067912,-0.1257102,0.09433498,0,0.3,0,0,0,0,
6.38223E+17,38.7797,35.86216,21.87639,36.84853,25.24498,110.8994,-4.570632,-0.4675641,0.1400836,-35.15147,-8.447793,45.05199,0,0,0,98.80793,-22.27605,-45.3685,-10.65202,-111.0878,-35.1035,0.001067912,-0.1257102,0.09433498,0,0.3,0,0,0,0,
6.38223E+17,36.3059,35.76865,19.96191,35.96959,25.61121,113.9757,-4.570632,-0.4675641,0.1400836,-35.15147,-8.447793,45.12524,0,0,0,91.01886,-24.04338,-44.46958,-10.65202,-111.0878,-35.1035,0.001067912,-0.1257102,0.09433498,0,0.3,0,0,0,0,
6.38223E+17,33.43158,35.67514,18.49104,34.94416,25.97744,117.1252,-4.570632,-0.4675641,0.1400836,-35.15147,-8.447793,45.05199,0,0,0,82.98154,-25.34736,-42.65271,-10.65202,-111.0878,-35.1035,0.001067912,-0.1257102,0.09433498,0,0.3,0,0,0,0,
6.38223E+17,30.79287,35.67514,17.51045,34.06521,26.19717,119.8353,-4.570632,-0.4675641,0.1400836,-35.15147,-8.521038,45.05199,0,0,0,75.99557,-26.05262,-40.83017,-10.65202,-111.0878,-35.1035,0.001067912,-0.1257102,0.09433498,0,0.3,0,0,0,0,
6.38223E+17,29.23791,35.67514,17.02016,33.40601,26.27042,121.3735,-4.570632,-0.4675641,0.1400836,-35.15147,-8.447793,45.12524,0,0,0,71.97498,-26.39129,-39.76579,-10.65202,-111.0878,-35.1035,0.001067912,-0.1257102,0.09433498,0,0.3,0,0,0,0,
6.38223E+17,25.79816,35.67514,16.27304,31.79461,26.34366,124.3765,-4.570632,-0.4675641,0.1400836,-35.15147,-8.447793,45.12524,0,0,0,63.40538,-26.88941,-37.17892,-10.65202,-111.0878,-35.1035,0.001067912,-0.1257102,0.09433498,0,0.3,0,0,0,0,
6.38223E+17,21.67517,35.67514,15.52593,29.45077,26.41691,127.7458,-4.570632,-0.4675641,0.1400836,-35.15147,-8.447793,45.05199,0,0,0,53.19273,-27.36576,-34.51373,-10.65202,-111.0878,-35.1035,0.001067912,-0.1257102,0.09433498,0,0.3,0,0,0,0,
6.38223E+17,19.64901,35.67514,15.19907,28.27885,26.34366,129.5769,-4.570632,-0.4675641,0.1400836,-35.15147,-8.447793,45.05199,0,0,0,48.18093,-27.56729,-33.40758,-10.65202,-111.0878,-35.1035,0.001067912,-0.1257102,0.09433498,0,0.3,0,0,0,0,
6.38223E+17,16.44485,35.67514,14.68543,26.37447,26.19717,132.3602,-4.570632,-0.4675641,0.1400836,-35.15147,-8.447793,45.12524,0,0,0,40.23618,-27.87553,-32.03328,-10.65202,-111.0878,-35.1035,0.001067912,-0.1257102,0.09433498,0,0.3,0,0,0,0,
6.38223E+17,13.28782,35.62838,14.0784,24.39685,26.19717,134.1181,-4.570632,-0.4675641,0.1400836,-35.15147,-8.447793,45.05199,0,0,0,32.36781,-28.31487,-31.2944,-10.65202,-111.0878,-35.1035,0.001067912,-0.1257102,0.09433498,0,0.3,0,0,0,0,
6.38223E+17,9.565345,35.55825,13.56476,21.97976,26.27042,135.9492,-4.570632,-0.4675641,0.1400836,-35.15147,-8.521038,45.12524,0,0,0,23.22425,-28.7332,-30.53312,-10.65202,-111.0878,-35.1035,0.001067912,-0.1257102,0.09433498,0,0.3,0,0,0,0,
6.38223E+17,6.785269,35.51149,13.42468,19.85565,26.27042,137.3409,-4.570632,-0.4675641,0.1400836,-35.15147,-8.521038,45.12524,0,0,0,16.48247,-28.89783,-29.82089,-10.65202,-111.0878,-35.1035,0.001067912,-0.1257102,0.09433498,0,0.3,0,0,0,0,
6.38223E+17,5.324551,35.48811,13.42468,18.61049,26.34366,138.0733,-4.570632,-0.4675641,0.1400836,-35.15147,-8.447793,45.12524,0,0,0,12.94873,-28.94213,-29.41428,-10.65202,-111.0878,-35.1035,0.001067912,-0.1257102,0.09433498,0,0.3,0,0,0,0,
6.38223E+17,2.685836,35.48811,13.42468,16.19339,26.41691,139.5383,-4.570632,-0.4675641,0.1400836,-35.15147,-8.447793,45.12524,0,0,0,6.538673,-28.94213,-28.96546,-10.65202,-111.0878,-35.1035,0.001067912,-0.1257102,0.09433498,0,0.3,0,0,0,0,
6.38223E+17,-0.2591596,35.48811,13.51807,13.70306,26.63664,140.8567,-4.570632,-0.4675641,0.1400836,-35.15147,-8.447793,45.05199,0,0,0,-0.6321097,-28.89149,-28.60224,-10.65202,-111.0878,-35.1035,0.001067912,-0.1257102,0.09433498,0,0.3,0,0,0,0,
6.38223E+17,-3.157035,35.48811,13.51807,11.35921,26.92962,142.3216,-4.570632,-0.4675641,0.1400836,-35.15147,-8.447793,45.05199,0,0,0,-7.696376,-28.89149,-28.8129,-10.65202,-111.0878,-35.1035,0.001067912,-0.1257102,0.09433498,0,0.3,0,0,0,0,
6.38223E+17,-6.03135,35.48811,13.51807,8.795631,27.36909,143.64,-4.570632,-0.4675641,0.1400836,-35.15147,-8.447793,45.05199,0,0,0,-14.68381,-28.89149,-29.37438,-10.65202,-111.0878,-35.1035,0.001067912,-0.1257102,0.09433498,0,0.3,0,0,0,0,
6.38223E+17,-8.740746,35.44136,13.51807,6.525032,27.73532,144.8119,-4.570632,-0.4675641,0.1400836,-35.15147,-8.521038,45.05199,0,0,0,-21.2464,-28.98013,-30.16144,-10.65202,-111.0878,-35.1035,0.001067912,-0.1257102,0.09433498,0,0.3,0,0,0,0,
6.38223E+17,-11.92134,35.32447,13.54141,4.034696,28.10155,144.8852,-4.570632,-0.4675641,0.1400836,-35.15147,-8.447793,45.05199,0,0,0,-28.92429,-29.18922,-31.3473,-10.65202,-111.0878,-35.1035,0.001067912,-0.1257102,0.09433498,0,0.3,0,0,0,0,
6.38223E+17,-13.73546,35.32447,13.6348,2.716283,28.32128,144.9584,-4.570632,-0.4675641,0.1400836,-35.15147,-8.447793,45.12524,0,0,0,-33.29706,-29.13815,-32.1264,-10.65202,-111.0878,-35.1035,0.001067912,-0.1257102,0.09433498,0,0.3,0,0,0,0,
6.38223E+17,-14.93702,35.30109,13.65815,1.910586,28.46777,144.8119,-4.570632,-0.4675641,0.1400836,-35.15147,-8.447793,45.12524,0,0,0,-36.16801,-29.16973,-32.77317,-10.65202,-111.0878,-35.1035,0.001067912,-0.1257102,0.09433498,0,0.3,0,0,0,0,
6.38223E+17,-17.36369,35.1842,13.77489,0.4456824,28.834,144.9584,-4.570632,-0.4675641,0.1400836,-35.15147,-8.447793,45.05199,0,0,0,-42.00163,-29.3275,-34.02439,-10.65202,-111.0878,-35.1035,0.001067912,-0.1257102,0.09433498,0,0.3,0,0,0,0,
6.38223E+17,-20.77989,35.1842,14.42861,-1.898163,29.56645,144.8852,-4.570632,-0.4675641,0.1400836,-35.15147,-8.447793,45.05199,0,0,0,-50.45478,-28.9568,-35.38627,-10.65202,-111.0878,-35.1035,0.001067912,-0.1257102,0.09433498,0,0.3,0,0,0,0,
6.38223E+17,-22.005,35.1842,14.66208,-2.70386,29.85943,144.8852,-4.570632,-0.4675641,0.1400836,-35.15147,-8.447793,45.12524,0,0,0,-53.48317,-28.82033,-36.00777,-10.65202,-111.0878,-35.1035,0.001067912,-0.1257102,0.09433498,0,0.3,0,0,0,0,
6.38223E+17,-24.40812,35.1842,15.29246,-4.901215,30.59188,144.8852,-4.570632,-0.4675641,0.1400836,-35.15147,-8.447793,45.05199,0,0,0,-59.57092,-28.44117,-37.0761,-10.65202,-111.0878,-35.1035,0.001067912,-0.1257102,0.09433498,0,0.3,0,0,0,0,
6.38223E+17,-26.5992,35.1842,16.06292,-7.538041,31.32433,144.9584,-4.570632,-0.4675641,0.1400836,-35.15147,-8.447793,45.05199,0,0,0,-65.31926,-27.95662,-37.90588,-10.65202,-111.0878,-35.1035,0.001067912,-0.1257102,0.09433498,0,0.3,0,0,0,0,
6.38223E+17,-29.52063,35.1842,17.30033,-10.83407,31.98354,144.9584,-4.570632,-0.4675641,0.1400836,-35.15147,-8.521038,45.05199,0,0,0,-73.24196,-27.12994,-39.00397,-10.65202,-111.0878,-35.1035,0.001067912,-0.1257102,0.09433498,0,0.3,0,0,0,0,
6.38223E+17,-31.14627,35.1842,17.97739,-12.51871,32.27652,145.0316,-4.570632,-0.4675641,0.1400836,-35.15147,-8.521038,45.12524,0,0,0,-77.65862,-26.65244,-39.84858,-10.65202,-111.0878,-35.1035,0.001067912,-0.1257102,0.09433498,0,0.3,0,0,0,0,
6.38223E+17,-33.26667,35.16082,18.98133,-15.00905,32.49626,144.9584,-4.570632,-0.4675641,0.1400836,-35.15147,-8.447793,45.05199,0,0,0,-83.5927,-25.95633,-40.93079,-10.65202,-111.0878,-35.1035,0.001067912,-0.1257102,0.09433498,0,0.3,0,0,0,0,
6.38223E+17,-35.10434,35.04393,20.14869,-17.42614,32.20328,144.8852,-4.570632,-0.4675641,0.1400836,-35.15147,-8.447793,45.05199,0,0,0,-89.19792,-25.26909,-41.45464,-10.65202,-111.0878,-35.1035,0.001067912,-0.1257102,0.09433498,0,0.3,0,0,0,0,
6.38223E+17,-36.70642,34.92704,20.84911,-19.55025,31.98354,144.8852,-4.570632,-0.4675641,0.1400836,-35.15147,-8.447793,45.12524,0,0,0,-93.71667,-24.92112,-42.64883,-10.65202,-111.0878,-35.1035,0.001067912,-0.1257102,0.09433498,0,0.3,0,0,0,0,
6.38223E+17,-37.86086,34.83352,21.01254,-20.72217,31.9103,144.8119,-4.570632,-0.4675641,0.1400836,-35.15147,-8.447793,45.05199,0,0,0,-96.52464,-24.96378,-44.18374,-10.65202,-111.0878,-35.1035,0.001067912,-0.1257102,0.09433498,0,0.3,0,0,0,0,
6.38223E+17,-38.4263,34.83352,21.43279,-21.16164,31.83705,144.8852,-4.570632,-0.4675641,0.1400836,-35.15147,-8.447793,45.05199,0,0,0,-98.31194,-24.60972,-44.42807,-10.65202,-111.0878,-35.1035,0.001067912,-0.1257102,0.09433498,0,0.3,0,0,0,0,
6.38223E+17,-39.62786,34.81015,22.60015,-22.04058,31.61732,144.8852,-4.570632,-0.4675641,0.1400836,-35.15147,-8.521038,45.05199,0,0,0,-102.5152,-23.6359,-44.55301,-10.65202,-111.0878,-35.1035,0.001067912,-0.1257102,0.09433498,0,0.3,0,0,0,0,
6.38223E+17,-41.48909,34.81015,24.21111,-23.13926,30.95811,144.9584,-4.570632,-0.4675641,0.1400836,-35.15147,-8.447793,45.05199,0,0,0,-108.7613,-22.14657,-45.37053,-10.65202,-111.0878,-35.1035,0.001067912,-0.1257102,0.09433498,0,0.3,0,0,0,0,
6.38223E+17,-42.57285,34.81015,25.33178,-23.79847,30.51864,144.8852,-4.570632,-0.4675641,0.1400836,-35.15147,-8.447793,45.05199,0,0,0,-112.67,-21.05374,-45.70565,-10.65202,-111.0878,-35.1035,0.001067912,-0.1257102,0.09433498,0,0.3,0,0,0,0,
6.38223E+17,-44.26917,34.81015,27.22291,-25.19013,29.85943,144.9584,-4.570632,-0.4675641,0.1400836,-35.15147,-8.447793,45.12524,0,0,0,-119.0059,-19.10525,-46.26877,-10.65202,-111.0878,-35.1035,0.001067912,-0.1257102,0.09433498,0,0.3,0,0,0,0,
6.38223E+17,-45.98904,34.76339,29.09069,-26.65503,29.12698,144.8119,-4.570632,-0.4675641,0.1400836,-35.15147,-8.447793,45.05199,0,0,0,-125.4173,-17.14339,-47.18958,-10.65202,-111.0878,-35.1035,0.001067912,-0.1257102,0.09433498,0,0.3,0,0,0,0,
6.38223E+17,-48.10944,34.76339,31.68224,-29.14537,28.24804,144.9584,-4.570632,-0.4675641,0.1400836,-35.15147,-8.447793,45.05199,0,0,0,-133.6872,-14.09271,-48.4391,-10.65202,-111.0878,-35.1035,0.001067912,-0.1257102,0.09433498,0,0.3,0,0,0,0,
6.38223E+17,-49.311,34.76339,33.47998,-31.34272,27.80857,144.8119,-4.570632,-0.4675641,0.1400836,-35.15147,-8.447793,45.05199,0,0,0,-138.8455,-11.83972,-48.97039,-10.65202,-111.0878,-35.1035,0.001067912,-0.1257102,0.09433498,0,0.3,0,0,0,0,
6.38223E+17,-49.85288,34.76339,34.39052,-32.80762,27.58883,144.8119,-4.570632,-0.4675641,0.1400836,-35.15147,-8.447793,45.05199,0,0,0,-141.3123,-10.65668,-49.15524,-10.65202,-111.0878,-35.1035,0.001067912,-0.1257102,0.09433498,0,0.3,0,0,0,0,
6.38223E+17,-50.41832,34.76339,35.79136,-35.44445,27.36909,144.9584,-4.570632,-0.4675641,0.1400836,-35.15147,-8.521038,45.05199,0,0,0,-144.5377,-8.782456,-48.85584,-10.65202,-111.0878,-35.1035,0.001067912,-0.1257102,0.09433498,0,0.3,0,0,0,0,
6.38223E+17,-50.55968,34.76339,36.88868,-38.22777,27.29585,144.9584,-4.570632,-0.4675641,0.1400836,-35.15147,-8.447793,45.05199,0,0,0,-146.4208,-7.269098,-47.90594,-10.65202,-111.0878,-35.1035,0.001067912,-0.1257102,0.09433498,0,0.3,0,0,0,0,
6.38223E+17,-50.55968,34.76339,37.1455,-39.03346,27.29585,144.8119,-4.570632,-0.4675641,0.1400836,-35.15147,-8.447793,45.05199,0,0,0,-146.7894,-6.909238,-47.60275,-10.65202,-111.0878,-35.1035,0.001067912,-0.1257102,0.09433498,0,0.3,0,0,0,0,
6.38223E+17,-50.55968,34.78677,37.56575,-40.35188,27.36909,144.8852,-4.570632,-0.4675641,0.1400836,-35.15147,-8.447793,45.05199,0,0,0,-147.3658,-6.27108,-47.12856,-10.65202,-111.0878,-35.1035,0.001067912,-0.1257102,0.09433498,0,0.3,0,0,0,0,
6.38223E+17,-50.55968,34.78677,38.3829,-41.74353,27.51558,144.8119,-4.570632,-0.4675641,0.1400836,-35.15147,-8.447793,45.05199,0,0,0,-148.5236,-5.100871,-46.17617,-10.65202,-111.0878,-35.1035,0.001067912,-0.1257102,0.09433498,0,0.3,0,0,0,0,
6.38223E+17,-50.55968,34.8569,39.94717,-44.16063,27.66208,144.8852,-4.570632,-0.4675641,0.1400836,-35.15147,-8.447793,45.05199,0,0,0,-150.6315,-2.667654,-44.44223,-10.65202,-111.0878,-35.1035,0.001067912,-0.1257102,0.09433498,0,0.3,0,0,0,0,
6.38223E+17,-50.55968,35.02055,41.25462,-45.99176,27.51558,144.7387,-4.570632,-0.4675641,0.1400836,-35.22471,-8.447793,45.05199,0,0,0,-152.2473,-0.3751629,-43.11311,-10.65202,-111.0878,-35.1035,0.001067912,-0.1257102,0.09433498,0,0.3,0,0,0,0,
6.38223E+17,-50.55968,35.20757,42.37529,-48.9948,26.92962,144.9584,-4.570632,-0.4675641,0.1400836,-35.15147,-8.447793,45.05199,0,0,0,-153.5552,1.719859,-42.03725,-10.65202,-111.0878,-35.1035,0.001067912,-0.1257102,0.09433498,0,0.3,0,0,0,0,
6.38223E+17,-50.55968,35.23095,42.56207,-50.53296,26.70989,144.8119,-4.570632,-0.4675641,0.1400836,-35.15147,-8.447793,45.05199,0,0,0,-153.7786,2.057817,-41.85348,-10.65202,-111.0878,-35.1035,0.001067912,-0.1257102,0.09433498,0,0.3,0,0,0,0,
6.38223E+17,-50.44188,35.23095,42.65545,-55.22065,25.97744,144.8852,-4.570632,-0.4675641,0.1400836,-35.15147,-8.521038,45.05199,0,0,0,-153.6415,2.204963,-41.4357,-10.65202,-111.0878,-35.1035,0.001067912,-0.1257102,0.09433498,0,0.3,0,0,0,0,
6.38223E+17,-50.3712,35.23095,42.65545,-56.68555,25.7577,144.8852,-4.570632,-0.4675641,0.1400836,-35.15147,-8.447793,45.05199,0,0,0,-153.4848,2.204963,-41.24627,-10.65202,-111.0878,-35.1035,0.001067912,-0.1257102,0.09433498,0,0.3,0,0,0,0,
6.38223E+17,-50.20628,35.23095,42.65545,-59.76185,25.17174,144.8852,-4.570632,-0.4675641,0.1400836,-35.15147,-8.521038,45.05199,0,0,0,-153.1184,2.204963,-40.80501,-10.65202,-111.0878,-35.1035,0.001067912,-0.1257102,0.09433498,0,0.3,0,0,0,0,
6.38223E+17,-49.94712,35.23095,42.60876,-62.91139,24.65902,144.8852,-4.570632,-0.4675641,0.1400836,-35.15147,-8.447793,45.05199,0,0,0,-152.4787,2.131358,-40.16518,-10.65202,-111.0878,-35.1035,0.001067912,-0.1257102,0.09433498,0,0.3,0,0,0,0,
6.38223E+17,-49.16964,35.23095,42.37529,-67.3061,24.21955,141.5159,-4.570632,-0.4675641,0.1400836,-35.15147,-8.447793,45.12524,0,0,0,-150.4221,1.764309,-38.36995,-10.65202,-111.0878,-35.1035,0.001067912,-0.1257102,0.09433498,0,0.3,0,0,0,0,
6.38223E+17,-48.62776,35.23095,41.97839,-69.86968,24.07306,139.0255,-4.570632,-0.4675641,0.1400836,-35.15147,-8.447793,45.12524,0,0,0,-148.6724,1.144084,-37.40562,-10.65202,-111.0878,-35.1035,0.001067912,-0.1257102,0.09433498,0,0.3,0,0,0,0,
6.38223E+17,-47.8974,35.23095,41.09119,-73.45869,23.92657,134.8506,-4.570632,-0.4675641,0.1400836,-35.15147,-8.447793,45.05199,0,0,0,-145.8444,-0.2250566,-36.55745,-10.65202,-111.0878,-35.1035,0.001067912,-0.1257102,0.09433498,0,0.3,0,0,0,0,
6.38223E+17,-46.955,35.23095,39.97052,-76.97446,23.78008,130.5291,-4.570632,-0.4675641,0.1400836,-35.15147,-8.447793,45.05199,0,0,0,-142.2083,-1.920014,-35.52966,-10.65202,-111.0878,-35.1035,0.001067912,-0.1257102,0.09433498,0,0.3,0,0,0,0,
6.38223E+17,-45.75344,35.23095,38.40625,-80.49023,23.4871,126.2076,-4.570632,-0.4675641,0.1400836,-35.15147,-8.521038,45.05199,0,0,0,-137.3705,-4.22038,-34.54564,-10.65202,-111.0878,-35.1035,0.001067912,-0.1257102,0.09433498,0,0.3,0,0,0,0,
6.38223E+17,-45.32936,35.23095,37.65914,-81.51566,23.41385,124.523,-4.570632,-0.4675641,0.1400836,-35.15147,-8.447793,45.05199,0,0,0,-135.4024,-5.291683,-34.49542,-10.65202,-111.0878,-35.1035,0.001067912,-0.1257102,0.09433498,0,0.3,0,0,0,0,
6.38223E+17,-44.08069,35.23095,35.51119,-83.49328,23.26737,120.4213,-4.570632,-0.4675641,0.1400836,-35.15147,-8.447793,45.12524,0,0,0,-129.661,-8.271074,-34.45999,-10.65202,-111.0878,-35.1035,0.001067912,-0.1257102,0.09433498,0,0.3,0,0,0,0,
6.38223E+17,-42.87913,35.23095,33.17647,-85.03143,23.12087,116.6125,-4.570632,-0.4675641,0.1400836,-35.15147,-8.447793,45.05199,0,0,0,-123.7722,-11.3364,-35.05796,-10.65202,-111.0878,-35.1035,0.001067912,-0.1257102,0.09433498,0,0.3,0,0,0,0,
6.38223E+17,-41.55977,35.27771,30.81839,-85.98362,22.82789,112.6573,-4.570632,-0.4675641,0.1400836,-35.15147,-8.521038,45.05199,0,0,0,-117.5411,-14.15541,-35.77287,-10.65202,-111.0878,-35.1035,0.001067912,-0.1257102,0.09433498,0,0.3,0,0,0,0,
6.38223E+17,-40.12262,35.37122,29.30082,-86.56957,22.53491,109.4345,-4.570632,-0.4675641,0.1400836,-35.15147,-8.521038,45.05199,0,0,0,-112.128,-15.74697,-35.3003,-10.65202,-111.0878,-35.1035,0.001067912,-0.1257102,0.09433498,0,0.3,0,0,0,0,
6.38223E+17,-38.68546,35.53487,27.94668,-86.86256,22.24193,106.8709,-4.570632,-0.4675641,0.1400836,-35.15147,-8.447793,45.05199,0,0,0,-106.8886,-16.94648,-34.86178,-10.65202,-111.0878,-35.1035,0.001067912,-0.1257102,0.09433498,0,0.3,0,0,0,0,
6.38223E+17,-37.20118,35.79203,26.54584,-86.56957,21.72922,104.8933,-4.570632,-0.4675641,0.1400836,-35.15147,-8.521038,45.05199,0,0,0,-101.4316,-17.9528,-34.72451,-10.65202,-111.0878,-35.1035,0.001067912,-0.1257102,0.09433498,0,0.3,0,0,0,0,
6.38223E+17,-35.2457,35.95568,24.37455,-85.54414,21.07001,102.8424,-4.570632,-0.4675641,0.1400836,-35.15147,-8.447793,45.05199,0,0,0,-94.05114,-19.81644,-35.24953,-10.65202,-111.0878,-35.1035,0.001067912,-0.1257102,0.09433498,0,0.3,0,0,0,0,
6.38223E+17,-33.73786,36.02581,22.99706,-84.8117,20.77703,101.4508,-4.570632,-0.4675641,0.1400836,-35.15147,-8.447793,45.05199,0,0,0,-88.83239,-20.97224,-35.34195,-10.65202,-111.0878,-35.1035,0.001067912,-0.1257102,0.09433498,0,0.3,0,0,0,0,
6.38223E+17,-32.70123,36.11932,22.13321,-84.22573,20.55729,100.5718,-4.570632,-0.4675641,0.1400836,-35.15147,-8.447793,45.05199,0,0,0,-85.33923,-21.56783,-35.42674,-10.65202,-111.0878,-35.1035,0.001067912,-0.1257102,0.09433498,0,0.3,0,0,0,0,
6.38223E+17,-30.53371,36.51675,20.54559,-82.83408,20.33756,99.10693,-4.570632,-0.4675641,0.1400836,-35.15147,-8.521038,45.05199,0,0,0,-78.22405,-22.16708,-35.7304,-10.65202,-111.0878,-35.1035,0.001067912,-0.1257102,0.09433498,0,0.3,0,0,0,0,
6.38223E+17,-28.36619,37.2181,19.35488,-80.9297,20.04458,97.71527,-4.570632,-0.4675641,0.1400836,-35.15147,-8.521038,45.05199,0,0,0,-71.44936,-21.80674,-36.02062,-10.65202,-111.0878,-35.1035,0.001067912,-0.1257102,0.09433498,0,0.3,0,0,0,0,
6.38223E+17,-26.3636,38.15323,18.02409,-79.02532,19.53186,96.54334,-4.570632,-0.4675641,0.1400836,-35.15147,-8.447793,45.05199,0,0,0,-64.88783,-21.07686,-37.42552,-10.65202,-111.0878,-35.1035,0.001067912,-0.1257102,0.09433498,0,0.3,0,0,0,0,
6.38223E+17,-25.11492,38.73769,17.18359,-77.8534,19.23888,95.73765,-4.570632,-0.4675641,0.1400836,-35.15147,-8.447793,45.05199,0,0,0,-60.86898,-20.60312,-38.49667,-10.65202,-111.0878,-35.1035,0.001067912,-0.1257102,0.09433498,0,0.3,0,0,0,0,
6.38223E+17,-22.8296,39.74295,16.13296,-75.87578,18.50643,94.05301,-4.570632,-0.4675641,0.1400836,-35.22471,-8.447793,45.05199,0,0,0,-54.15945,-19.49204,-39.69586,-10.65202,-111.0878,-35.1035,0.001067912,-0.1257102,0.09433498,0,0.3,0,0,0,0,
6.38223E+17,-20.45005,40.70145,15.17572,-74.04465,17.77398,92.5881,-4.570632,-0.4675641,0.1400836,-35.15147,-8.447793,45.05199,0,0,0,-47.51831,-18.38987,-40.91791,-10.65202,-111.0878,-35.1035,0.001067912,-0.1257102,0.09433498,0,0.3,0,0,0,0,
6.38223E+17,-17.97625,41.35604,14.19514,-72.21353,17.11477,91.04996,-4.570632,-0.4675641,0.1400836,-35.15147,-8.447793,45.05199,0,0,0,-40.98378,-17.81915,-42.03678,-10.65202,-111.0878,-35.1035,0.001067912,-0.1257102,0.09433498,0,0.3,0,0,0,0,
6.38223E+17,-15.2433,41.70671,13.09782,-70.16266,16.82179,89.58505,-4.570632,-0.4675641,0.1400836,-35.15147,-8.521038,45.05199,0,0,0,-34.11965,-17.81071,-43.14285,-10.65202,-111.0878,-35.1035,0.001067912,-0.1257102,0.09433498,0,0.3,0,0,0,0,
6.38223E+17,-12.4161,41.75347,11.69698,-67.89206,16.74854,88.33988,-4.570632,-0.4675641,0.1400836,-35.15147,-8.521038,45.12524,0,0,0,-27.20221,-18.42944,-44.7928,-10.65202,-111.0878,-35.1035,0.001067912,-0.1257102,0.09433498,0,0.3,0,0,0,0,
6.38223E+17,-11.02606,41.75347,11.04326,-66.64689,16.82179,87.82717,-4.570632,-0.4675641,0.1400836,-35.15147,-8.447793,45.05199,0,0,0,-23.91163,-18.72939,-45.63335,-10.65202,-111.0878,-35.1035,0.001067912,-0.1257102,0.09433498,0,0.3,0,0,0,0,
6.38223E+17,-7.397828,41.75347,9.595726,-63.71709,16.96828,86.21577,-4.570632,-0.4675641,0.1400836,-35.15147,-8.447793,45.05199,0,0,0,-15.67116,-19.33288,-47.65294,-10.65202,-111.0878,-35.1035,0.001067912,-0.1257102,0.09433498,0,0.3,0,0,0,0,
6.38223E+17,-4.759112,41.75347,8.755224,-61.51973,17.11477,85.26359,-4.570632,-0.4675641,0.1400836,-35.15147,-8.447793,45.05199,0,0,0,-9.937672,-19.64481,-48.98392,-10.65202,-111.0878,-35.1035,0.001067912,-0.1257102,0.09433498,0,0.3,0,0,0,0,
6.38223E+17,-1.366478,41.75347,7.727945,-58.58992,17.26126,84.09167,-4.570632,-0.4675641,0.1400836,-35.15147,-8.447793,45.05199,0,0,0,-2.799977,-19.98753,-50.97051,-10.65202,-111.0878,-35.1035,0.001067912,-0.1257102,0.09433498,0,0.3,0,0,0,0,
6.38223E+17,2.120397,41.75347,6.957485,-55.58687,17.33451,83.06623,-4.570632,-0.4675641,0.1400836,-35.15147,-8.447793,45.05199,0,0,0,4.278411,-20.21671,-52.79474,-10.65202,-111.0878,-35.1035,0.001067912,-0.1257102,0.09433498,0,0.3,0,0,0,0,
6.38223E+17,4.382153,41.75347,6.653971,-53.38951,17.62749,82.55352,-4.570632,-0.4675641,0.1400836,-35.15147,-8.447793,45.05199,0,0,0,8.781854,-20.30042,-53.75298,-10.65202,-111.0878,-35.1035,0.001067912,-0.1257102,0.09433498,0,0.3,0,0,0,0,
6.38223E+17,7.492068,41.75347,6.350456,-50.53296,17.92047,82.18729,-4.570632,-0.4675641,0.1400836,-35.15147,-8.447793,45.05199,0,0,0,14.89448,-20.38041,-55.09404,-10.65202,-111.0878,-35.1035,0.001067912,-0.1257102,0.09433498,0,0.3,0,0,0,0,
6.38223E+17,11.07318,41.73009,6.23372,-46.87069,18.28669,81.96756,-4.570632,-0.4675641,0.1400836,-35.15147,-8.447793,45.05199,0,0,0,21.89463,-20.45078,-56.475,-10.65202,-111.0878,-35.1035,0.001067912,-0.1257102,0.09433498,0,0.3,0,0,0,0,
6.38223E+17,14.60718,41.73009,6.23372,-43.20844,18.72616,81.82106,-4.570632,-0.4675641,0.1400836,-35.15147,-8.447793,45.05199,0,0,0,28.74905,-20.45078,-58.03734,-10.65202,-111.0878,-35.1035,0.001067912,-0.1257102,0.09433498,0,0.3,0,0,0,0,
6.38223E+17,19.57833,41.73009,6.257067,-38.00803,19.38537,81.74782,-4.570632,-0.4675641,0.1400836,-35.15147,-8.447793,45.05199,0,0,0,38.21806,-20.44487,-60.89262,-10.65202,-111.0878,-35.1035,0.001067912,-0.1257102,0.09433498,0,0.3,0,0,0,0,
6.38223E+17,22.005,41.73009,6.373804,-35.29796,19.67835,81.74782,-4.570632,-0.4675641,0.1400836,-35.15147,-8.447793,45.05199,0,0,0,42.8348,-20.41499,-62.3568,-10.65202,-111.0878,-35.1035,0.001067912,-0.1257102,0.09433498,0,0.3,0,0,0,0,
6.38223E+17,25.7746,41.73009,6.724013,-31.12299,20.04458,81.74782,-4.570632,-0.4675641,0.1400836,-35.15147,-8.447793,45.05199,0,0,0,50.06269,-20.32203,-64.67307,-10.65202,-111.0878,-35.1035,0.001067912,-0.1257102,0.09433498,0,0.3,0,0,0,0,
6.38223E+17,29.54419,41.73009,7.331042,-26.72828,20.4108,81.74782,-4.570632,-0.4675641,0.1400836,-35.15147,-8.447793,45.05199,0,0,0,57.46196,-20.14918,-66.96885,-10.65202,-111.0878,-35.1035,0.001067912,-0.1257102,0.09433498,0,0.3,0,0,0,0,
6.38223E+17,32.86615,41.73009,8.171543,-22.04058,20.70378,81.82106,-4.570632,-0.4675641,0.1400836,-35.15147,-8.447793,45.05199,0,0,0,64.29196,-19.88534,-68.84088,-10.65202,-111.0878,-35.1035,0.001067912,-0.1257102,0.09433498,0,0.3,0,0,0,0,
6.38223E+17,35.33994,41.73009,8.825266,-18.74455,20.77703,81.89431,-4.570632,-0.4675641,0.1400836,-35.15147,-8.521038,45.05199,0,0,0,69.3975,-19.6605,-70.48113,-10.65202,-111.0878,-35.1035,0.001067912,-0.1257102,0.09433498,0,0.3,0,0,0,0,
6.38223E+17,36.6593,41.73009,9.268865,-17.05991,20.77703,81.89431,-4.570632,-0.4675641,0.1400836,-35.15147,-8.447793,45.05199,0,0,0,72.24129,-19.49815,-71.28705,-10.65202,-111.0878,-35.1035,0.001067912,-0.1257102,0.09433498,0,0.3,0,0,0,0,
6.38223E+17,39.08598,41.73009,10.2728,-13.76388,20.55729,81.96756,-4.570632,-0.4675641,0.1400836,-35.15147,-8.521038,45.05199,0,0,0,77.73801,-19.10163,-72.64555,-10.65202,-111.0878,-35.1035,0.001067912,-0.1257102,0.09433498,0,0.3,0,0,0,0,
6.38223E+17,41.32417,41.73009,11.37012,-10.54109,20.26431,82.40703,-4.570632,-0.4675641,0.1400836,-35.15147,-8.447793,45.05199,0,0,0,83.07272,-18.62214,-73.87074,-10.65202,-111.0878,-35.1035,0.001067912,-0.1257102,0.09433498,0,0.3,0,0,0,0,
