zeyangz2/DNN_classification_different_people_hand/test/Frank_right_5.csv
Timestamp,Therapist joint angle 0,Therapist joint angle 1,Therapist joint angle 2,Therapist joint angle 3,Therapist joint angle 4,Therapist joint angle 5,Patient joint angle 0,Patient joint angle 1,Patient joint angle 2,Patient joint angle 3,Patient joint angle 4,Patient joint angle 5,Virtual joint angle 0,Virtual joint angle 1,Virtual joint angle 2,Therapist position x,Therapist position y,Therapist position z,Patient position x,Patient position y,Patient position z,Virtual position x,Virtual position y,Virtual position z,Assistive Force, Obstacle Force Magnitude, Therapist Constant Force, Patient Constant Force, Recovery Factor, Assistance Level,label
6.38223E+17,0,0,0,0,0,0,0,0,0,0,0,0,0,0,0,0,0,0,0,0,0,0,0,0,0,0.3,0,0,0,0,1
6.38223E+17,29.19079,-0.9818845,16.15631,-27.60722,-6.763155,98.15474,-4.570632,-0.4675641,0.1400836,-35.15147,-8.521038,45.05199,0,0,0,83.12505,-107.0186,-19.5591,-10.65202,-111.0878,-35.1035,0.001067912,-0.1257102,0.09433498,0,0.3,0,0,0,0,
6.38223E+17,29.19079,-0.9818845,16.15631,-27.60722,-6.763155,98.15474,-4.570632,-0.4675641,0.1400836,-35.15147,-8.521038,45.05199,0,0,0,83.12505,-107.0186,-19.5591,-10.65202,-111.0878,-35.1035,0.001067912,-0.1257102,0.09433498,0,0.3,0,0,0,0,
6.38223E+17,29.21435,-0.9818845,16.15631,-27.60722,-6.763155,98.15474,-4.570632,-0.4675641,0.1400836,-35.15147,-8.447793,45.12524,0,0,0,83.18622,-107.0186,-19.59329,-10.65202,-111.0878,-35.1035,0.001067912,-0.1257102,0.09433498,0,0.3,0,0,0,0,
6.38223E+17,29.21435,-0.9818845,16.15631,-27.60722,-6.763155,98.15474,-4.570632,-0.4675641,0.1400836,-35.15147,-8.447793,45.05199,0,0,0,83.18622,-107.0186,-19.59329,-10.65202,-111.0878,-35.1035,0.001067912,-0.1257102,0.09433498,0,0.3,0,0,0,0,
6.38223E+17,29.21435,-0.9818845,16.15631,-27.60722,-6.763155,98.15474,-4.570632,-0.4675641,0.1400836,-35.15147,-8.447793,45.05199,0,0,0,83.18622,-107.0186,-19.59329,-10.65202,-111.0878,-35.1035,0.001067912,-0.1257102,0.09433498,0,0.3,0,0,0,0,
6.38223E+17,29.21435,-0.9818845,16.15631,-27.60722,-6.763155,98.15474,-4.570632,-0.4675641,0.1400836,-35.15147,-8.447793,45.05199,0,0,0,83.18622,-107.0186,-19.59329,-10.65202,-111.0878,-35.1035,0.001067912,-0.1257102,0.09433498,0,0.3,0,0,0,0,
6.38223E+17,29.21435,-0.9818845,16.15631,-27.60722,-6.763155,98.15474,-4.570632,-0.4675641,0.1400836,-35.15147,-8.447793,45.05199,0,0,0,83.18622,-107.0186,-19.59329,-10.65202,-111.0878,-35.1035,0.001067912,-0.1257102,0.09433498,0,0.3,0,0,0,0,
6.38223E+17,29.21435,-0.9818845,16.15631,-27.60722,-6.763155,98.15474,-4.570632,-0.4675641,0.1400836,-35.15147,-8.447793,45.05199,0,0,0,83.18622,-107.0186,-19.59329,-10.65202,-111.0878,-35.1035,0.001067912,-0.1257102,0.09433498,0,0.3,0,0,0,0,
6.38223E+17,29.21435,-0.9818845,16.15631,-27.60722,-6.909645,98.15474,-4.570632,-0.4675641,0.1400836,-35.15147,-8.447793,45.05199,0,0,0,83.18622,-107.0186,-19.59329,-10.65202,-111.0878,-35.1035,0.001067912,-0.1257102,0.09433498,0,0.3,0,0,0,0,
6.38223E+17,29.21435,-0.9818845,16.10961,-27.60722,-7.056135,98.15474,-4.570632,-0.4675641,0.1400836,-35.15147,-8.447793,45.05199,0,0,0,83.13527,-107.0488,-19.68441,-10.65202,-111.0878,-35.1035,0.001067912,-0.1257102,0.09433498,0,0.3,0,0,0,0,
6.38223E+17,29.21435,-0.9818845,16.08627,-27.60722,-7.056135,98.15474,-4.570632,-0.4675641,0.1400836,-35.15147,-8.447793,45.05199,0,0,0,83.10979,-107.0639,-19.72998,-10.65202,-111.0878,-35.1035,0.001067912,-0.1257102,0.09433498,0,0.3,0,0,0,0,
6.38223E+17,29.19079,-0.9818845,16.06292,-27.60722,-7.12938,98.15474,-4.570632,-0.4675641,0.1400836,-35.15147,-8.521038,45.05199,0,0,0,83.0232,-107.0789,-19.7414,-10.65202,-111.0878,-35.1035,0.001067912,-0.1257102,0.09433498,0,0.3,0,0,0,0,
6.38223E+17,29.16723,-0.9818845,16.06292,-27.60722,-7.056135,98.15474,-4.570632,-0.4675641,0.1400836,-35.15147,-8.521038,45.12524,0,0,0,82.96208,-107.0789,-19.70727,-10.65202,-111.0878,-35.1035,0.001067912,-0.1257102,0.09433498,0,0.3,0,0,0,0,
6.38223E+17,29.16723,-0.9818845,16.08627,-27.46073,-6.98289,98.15474,-4.570632,-0.4675641,0.1400836,-35.15147,-8.447793,45.05199,0,0,0,82.98753,-107.0639,-19.66168,-10.65202,-111.0878,-35.1035,0.001067912,-0.1257102,0.09433498,0,0.3,0,0,0,0,
6.38223E+17,29.12011,-0.9818845,16.13296,-27.24099,-6.98289,98.08149,-4.570632,-0.4675641,0.1400836,-35.15147,-8.447793,45.05199,0,0,0,82.91603,-107.0337,-19.50227,-10.65202,-111.0878,-35.1035,0.001067912,-0.1257102,0.09433498,0,0.3,0,0,0,0,
6.38223E+17,29.02587,-0.9818845,16.17966,-26.87477,-6.836399,98.15474,-4.570632,-0.4675641,0.1400836,-35.15147,-8.447793,45.05199,0,0,0,82.72175,-107.0035,-19.27481,-10.65202,-111.0878,-35.1035,0.001067912,-0.1257102,0.09433498,0,0.3,0,0,0,0,
6.38223E+17,28.88451,-0.9818845,16.17966,-26.65503,-6.763155,98.15474,-4.570632,-0.4675641,0.1400836,-35.15147,-8.521038,45.05199,0,0,0,82.3537,-107.0035,-19.07118,-10.65202,-111.0878,-35.1035,0.001067912,-0.1257102,0.09433498,0,0.3,0,0,0.00012998,0,
6.38223E+17,28.43687,-0.9818845,16.36643,-26.21556,-6.616664,98.30123,-4.570632,-0.4675641,0.1400836,-35.15147,-8.521038,45.05199,0,0,0,81.38362,-106.8817,-18.06539,-10.65202,-111.0878,-35.1035,0.001067912,-0.1257102,0.09433498,0,0.3,0,0,0.000896136,0,
6.38223E+17,27.75363,-0.9818845,16.69329,-26.21556,-6.470173,99.32666,-4.570632,-0.4675641,0.1400836,-35.15147,-8.521038,45.05199,0,0,0,79.92538,-106.6652,-16.46022,-10.65202,-111.0878,-35.1035,0.001067912,-0.1257102,0.09433498,0,0.3,0,0,0.002318048,0,
6.38223E+17,27.37668,-0.9818845,16.95012,-26.28881,-6.396928,100.2788,-4.570632,-0.4675641,0.1400836,-35.15147,-8.447793,45.05199,0,0,0,79.18744,-106.4923,-15.4296,-10.65202,-111.0878,-35.1035,0.001067912,-0.1257102,0.09433498,0,0.3,0,0,0.003154971,0,
6.38223E+17,26.43428,-0.9818845,17.37037,-26.36205,-6.396928,103.4284,-4.570632,-0.4675641,0.1400836,-35.15147,-8.521038,45.12524,0,0,0,77.07765,-106.2037,-13.31104,-10.65202,-111.0878,-35.1035,0.001067912,-0.1257102,0.09433498,0,0.3,0,0,0.00532611,0,
6.38223E+17,24.97356,-0.9818845,17.9307,-26.36205,-6.177193,107.0906,-4.570632,-0.4675641,0.1400836,-35.15147,-8.447793,45.05199,0,0,0,73.62509,-105.8083,-10.27006,-10.65202,-111.0878,-35.1035,0.001067912,-0.1257102,0.09433498,0,0.3,0,0,0.00850451,0,
6.38223E+17,23.183,-0.9818845,18.91129,-26.94801,-6.103948,110.3867,-4.570632,-0.4675641,0.1400836,-35.15147,-8.447793,45.12524,0,0,0,69.50216,-105.0871,-6.056346,-10.65202,-111.0878,-35.1035,0.001067912,-0.1257102,0.09433498,0,0.3,0,0,0.01271159,0,
6.38223E+17,22.2406,-0.9818845,19.42492,-27.60722,-6.323683,111.7783,-4.570632,-0.4675641,0.1400836,-35.15147,-8.447793,45.05199,0,0,0,67.25087,-104.6946,-3.890025,-10.65202,-111.0878,-35.1035,0.001067912,-0.1257102,0.09433498,0,0.3,0,0,0.01514381,0,
6.38223E+17,20.68565,-0.9818845,20.19538,-29.3651,-6.543418,114.1222,-4.570632,-0.4675641,0.1400836,-35.22471,-8.447793,45.05199,0,0,0,63.35928,-104.0869,-0.5474046,-10.65202,-111.0878,-35.1035,0.001067912,-0.1257102,0.09433498,0,0.3,0,0,0.02047482,0,
6.38223E+17,19.48409,-0.9818845,21.03589,-31.04974,-6.616664,116.6125,-4.570632,-0.4675641,0.1400836,-35.15147,-8.447793,45.05199,0,0,0,60.43728,-103.3981,2.470366,-10.65202,-111.0878,-35.1035,0.001067912,-0.1257102,0.09433498,0,0.3,0,0,0.0260377,0,
6.38223E+17,18.28253,-0.9818845,22.20325,-32.22166,-6.836399,119.3958,-4.570632,-0.4675641,0.1400836,-35.15147,-8.447793,45.05199,0,0,0,57.63429,-102.3971,6.098395,-10.65202,-111.0878,-35.1035,0.001067912,-0.1257102,0.09433498,0,0.3,0,0,0.03139478,0,
6.38223E+17,17.29301,-0.9818845,22.97371,-32.88087,-7.12938,121.227,-4.570632,-0.4675641,0.1400836,-35.15147,-8.447793,45.05199,0,0,0,55.10519,-101.7083,8.648452,-10.65202,-111.0878,-35.1035,0.001067912,-0.1257102,0.09433498,0,0.3,0,0,0.03658265,0,
6.38223E+17,15.90297,-0.9818845,23.81421,-33.68657,-7.27587,123.1313,-4.570632,-0.4675641,0.1400836,-35.15147,-8.447793,45.05199,0,0,0,51.28723,-100.9316,11.65977,-10.65202,-111.0878,-35.1035,0.001067912,-0.1257102,0.09433498,0,0.3,0,0,0.04183928,0,
6.38223E+17,15.10193,-0.9818845,24.21111,-34.19928,-7.422361,124.0103,-4.570632,-0.4675641,0.1400836,-35.15147,-8.521038,45.05199,0,0,0,48.98547,-100.5557,13.17385,-10.65202,-111.0878,-35.1035,0.001067912,-0.1257102,0.09433498,0,0.3,0,0,0.04455023,0,
6.38223E+17,12.72238,-0.9585064,25.40182,-35.73743,-7.12938,126.5739,-4.570632,-0.4675641,0.1400836,-35.22471,-8.521038,45.05199,0,0,0,41.9607,-99.33866,17.50581,-10.65202,-111.0878,-35.1035,0.001067912,-0.1257102,0.09433498,0,0.3,0,0,0.05292669,0,
6.38223E+17,11.96846,-0.9585064,25.82208,-36.32339,-6.98289,127.7458,-4.570632,-0.4675641,0.1400836,-35.15147,-8.447793,45.05199,0,0,0,39.69448,-98.91586,18.90465,-10.65202,-111.0878,-35.1035,0.001067912,-0.1257102,0.09433498,0,0.3,0,0,0.05573561,0,
6.38223E+17,10.46062,-0.7948589,26.63923,-37.49532,-6.689909,130.0896,-4.570632,-0.4675641,0.1400836,-35.15147,-8.447793,45.05199,0,0,0,35.06417,-97.69445,21.56767,-10.65202,-111.0878,-35.1035,0.001067912,-0.1257102,0.09433498,0,0.3,0,0,0.06128485,0,
6.38223E+17,8.952785,-0.4441859,27.24626,-38.59399,-6.250438,131.7743,-4.570632,-0.4675641,0.1400836,-35.15147,-8.447793,45.05199,0,0,0,30.25196,-96.2382,23.6774,-10.65202,-111.0878,-35.1035,0.001067912,-0.1257102,0.09433498,0,0.3,0,0,0.06676364,0,
6.38223E+17,7.091548,0.0233782,27.7599,-39.91241,-5.371496,132.58,-4.570632,-0.4675641,0.1400836,-35.15147,-8.447793,45.05199,0,0,0,24.13054,-94.59796,25.61483,-10.65202,-111.0878,-35.1035,0.001067912,-0.1257102,0.09433498,0,0.3,0,0,0.07226907,0,
6.38223E+17,6.12559,0.4675641,28.25019,-40.64486,-4.85878,132.7265,-4.570632,-0.4675641,0.1400836,-35.15147,-8.447793,45.05199,0,0,0,20.96422,-93.02837,26.9914,-10.65202,-111.0878,-35.1035,0.001067912,-0.1257102,0.09433498,0,0.3,0,0,0.0775395,0,
6.38223E+17,4.924032,1.192288,28.97396,-41.67029,-4.199574,133.1659,-4.570632,-0.4675641,0.1400836,-35.15147,-8.447793,45.05199,0,0,0,16.98821,-90.53519,28.83703,-10.65202,-111.0878,-35.1035,0.001067912,-0.1257102,0.09433498,0,0.3,0,0,0.08233575,0,
6.38223E+17,4.264353,1.636474,29.39421,-42.25625,-3.906592,133.3857,-4.570632,-0.4675641,0.1400836,-35.15147,-8.447793,45.12524,0,0,0,14.77841,-89.02477,29.84567,-10.65202,-111.0878,-35.1035,0.001067912,-0.1257102,0.09433498,0,0.3,0,0,0.08451684,0,
6.38223E+17,2.026157,3.039166,31.07521,-44.74659,-3.027651,133.8251,-4.570632,-0.4675641,0.1400836,-35.15147,-8.447793,45.05199,0,0,0,7.141603,-83.79298,33.51647,-10.65202,-111.0878,-35.1035,0.001067912,-0.1257102,0.09433498,0,0.3,0,0,0.08995463,0,
6.38223E+17,0.8952785,4.184699,32.47605,-46.21149,-2.58818,135.2168,-4.570632,-0.4675641,0.1400836,-35.15147,-8.521038,45.05199,0,0,0,3.196802,-79.4154,36.22139,-10.65202,-111.0878,-35.1035,0.001067912,-0.1257102,0.09433498,0,0.3,0,0,0.09231737,0,
6.38223E+17,0.2591596,5.002935,33.22316,-46.87069,-2.368444,136.0225,-4.570632,-0.4675641,0.1400836,-35.15147,-8.447793,45.05199,0,0,0,0.9313421,-76.57397,37.55251,-10.65202,-111.0878,-35.1035,0.001067912,-0.1257102,0.09433498,0,0.3,0,0,0.09303426,0,
6.38223E+17,-1.154438,6.943326,34.99755,-48.48209,-2.075463,137.7071,-4.570632,-0.4675641,0.1400836,-35.15147,-8.447793,45.05199,0,0,0,-4.207857,-69.76685,40.4614,-10.65202,-111.0878,-35.1035,0.001067912,-0.1257102,0.09433498,0,0.3,0,0,0.09338569,0,
6.38223E+17,-2.450236,9.047364,37.12215,-50.23997,-1.928973,139.3918,-4.570632,-0.4675641,0.1400836,-35.15147,-8.447793,45.05199,0,0,0,-9.070611,-62.0073,43.62587,-10.65202,-111.0878,-35.1035,0.001067912,-0.1257102,0.09433498,0,0.3,0,0,0.09206832,0,
6.38223E+17,-3.675354,11.43194,39.52692,-52.0711,-2.441689,141.4426,-4.570632,-0.4675641,0.1400836,-35.15147,-8.521038,45.05199,0,0,0,-13.81894,-53.0758,46.78044,-10.65202,-111.0878,-35.1035,0.001067912,-0.1257102,0.09433498,0,0.3,0,0,0.08888832,0,
6.38223E+17,-4.853352,13.88665,42.00173,-53.46276,-2.807915,144.226,-4.570632,-0.4675641,0.1400836,-35.15147,-8.447793,45.05199,0,0,0,-18.50192,-43.74141,49.54997,-10.65202,-111.0878,-35.1035,0.001067912,-0.1257102,0.09433498,0,0.3,0,0,0.08381896,0,
6.38223E+17,-5.79575,16.6219,44.73336,-54.92767,-3.247386,144.8852,-4.570632,-0.4675641,0.1400836,-35.15147,-8.447793,45.05199,0,0,0,-22.38081,-33.23509,52.14767,-10.65202,-111.0878,-35.1035,0.001067912,-0.1257102,0.09433498,0,0.3,0,0,0.07682534,0,
6.38223E+17,-6.738149,19.96499,48.11871,-56.83204,-3.979838,144.9584,-4.570632,-0.4675641,0.1400836,-35.15147,-8.521038,45.05199,0,0,0,-26.35498,-20.14125,54.71739,-10.65202,-111.0878,-35.1035,0.001067912,-0.1257102,0.09433498,0,0.3,0,0,0.06759945,0,
6.38223E+17,-7.185789,22.32619,50.52348,-57.93071,-4.639044,144.9584,-4.570632,-0.4675641,0.1400836,-35.15147,-8.447793,45.05199,0,0,0,-28.30528,-10.77199,56.15718,-10.65202,-111.0878,-35.1035,0.001067912,-0.1257102,0.09433498,0,0.3,0,0,0.05668373,0,
6.38223E+17,-7.444948,23.77563,51.99436,-58.73641,-5.078516,144.8119,-4.570632,-0.4675641,0.1400836,-35.15147,-8.447793,45.12524,0,0,0,-29.42691,-4.99793,56.84135,-10.65202,-111.0878,-35.1035,0.001067912,-0.1257102,0.09433498,0,0.3,0,0,0.05054646,0,
6.38223E+17,-7.821907,26.65115,54.84273,-60.27456,-6.103948,144.8119,-4.570632,-0.4675641,0.1400836,-35.15147,-8.447793,45.05199,0,0,0,-31.05751,6.37913,57.73243,-10.65202,-111.0878,-35.1035,0.001067912,-0.1257102,0.09433498,0,0.3,0,0,0.03702024,0,
6.38223E+17,-7.963267,29.3864,57.03737,-61.81271,-7.27587,144.8119,-4.570632,-0.4675641,0.1400836,-35.15147,-8.447793,45.05199,0,0,0,-31.59723,16.22978,57.52665,-10.65202,-111.0878,-35.1035,0.001067912,-0.1257102,0.09433498,0,0.3,0,0,0.02221349,0,
6.38223E+17,-7.963267,30.57869,57.76114,-62.17894,-7.788587,144.8852,-4.570632,-0.4675641,0.1400836,-35.15147,-8.447793,45.05199,0,0,0,-31.53085,20.0524,57.05212,-10.65202,-111.0878,-35.1035,0.001067912,-0.1257102,0.09433498,0,0.3,0,0,0.01453195,0,
6.38223E+17,-7.963267,33.36069,59.60557,-62.54516,-8.960509,144.8852,-4.570632,-0.4675641,0.1400836,-35.15147,-8.447793,45.05199,0,0,0,-31.36506,29.2118,55.86689,-10.65202,-111.0878,-35.1035,0.001067912,-0.1257102,0.09433498,0,0.3,0,0,0,0,
6.38223E+17,-7.845467,36.00243,61.35661,-62.83814,-9.985942,144.8852,-4.570632,-0.4675641,0.1400836,-35.15147,-8.521038,45.05199,0,0,0,-30.70057,37.81355,54.45456,-10.65202,-111.0878,-35.1035,0.001067912,-0.1257102,0.09433498,0,0.3,0,0,0,0,
6.38223E+17,-7.609867,38.59741,63.01427,-63.13113,-10.93813,144.8852,-4.570632,-0.4675641,0.1400836,-35.15147,-8.447793,45.05199,0,0,0,-29.5379,46.0296,52.73584,-10.65202,-111.0878,-35.1035,0.001067912,-0.1257102,0.09433498,0,0.3,0,0,0,0,
6.38223E+17,-7.327148,40.56118,64.22832,-63.42411,-11.81707,144.8852,-4.570632,-0.4675641,0.1400836,-35.15147,-8.521038,45.05199,0,0,0,-28.23536,52.08342,51.23591,-10.65202,-111.0878,-35.1035,0.001067912,-0.1257102,0.09433498,0,0.3,0,0,0,0,
6.38223E+17,-6.950189,42.50157,65.44238,-63.93682,-12.62277,144.8852,-4.570632,-0.4675641,0.1400836,-35.15147,-8.447793,45.12524,0,0,0,-26.57314,58.02132,49.63744,-10.65202,-111.0878,-35.1035,0.001067912,-0.1257102,0.09433498,0,0.3,0,0,0,0,
6.38223E+17,-6.26695,45.14331,66.77318,-64.52278,-13.86794,144.8852,-4.570632,-0.4675641,0.1400836,-35.15147,-8.447793,45.12524,0,0,0,-23.64411,65.28872,46.95427,-10.65202,-111.0878,-35.1035,0.001067912,-0.1257102,0.09433498,0,0.3,0,0,0,0,
6.38223E+17,-5.465911,47.85518,67.94054,-64.59603,-15.18635,144.8119,-4.570632,-0.4675641,0.1400836,-35.15147,-8.447793,45.05199,0,0,0,-20.29536,72.14045,43.74802,-10.65202,-111.0878,-35.1035,0.001067912,-0.1257102,0.09433498,0,0.3,0,0,0,0,
6.38223E+17,-4.617752,50.66056,69.34138,-64.74252,-16.87099,144.8852,-4.570632,-0.4675641,0.1400836,-35.15147,-8.447793,45.05199,0,0,0,-16.8509,79.43767,40.27839,-10.65202,-111.0878,-35.1035,0.001067912,-0.1257102,0.09433498,0,0.3,0,0,0,0,
6.38223E+17,-4.217233,51.99313,69.92506,-65.10874,-17.60344,144.8852,-4.570632,-0.4675641,0.1400836,-35.15147,-8.447793,45.05199,0,0,0,-15.24882,82.64914,38.44787,-10.65202,-111.0878,-35.1035,0.001067912,-0.1257102,0.09433498,0,0.3,0,0,0,0,
6.38223E+17,-3.133475,54.68162,70.4854,-65.76794,-18.84861,144.8119,-4.570632,-0.4675641,0.1400836,-35.15147,-8.447793,45.05199,0,0,0,-11.08452,87.61203,34.12894,-10.65202,-111.0878,-35.1035,0.001067912,-0.1257102,0.09433498,0,0.3,0,0,0,0,
6.38223E+17,-1.649197,57.487,70.64883,-65.47498,-19.94728,144.8852,-4.570632,-0.4675641,0.1400836,-35.15147,-8.521038,45.05199,0,0,0,-5.683776,91.6135,29.05905,-10.65202,-111.0878,-35.1035,0.001067912,-0.1257102,0.09433498,0,0.3,0,0,0,0,
6.38223E+17,1.060198,61.08725,71.11578,-64.15656,-21.99815,144.8119,-4.570632,-0.4675641,0.1400836,-35.15147,-8.447793,45.12524,0,0,0,3.527467,96.91918,22.26143,-10.65202,-111.0878,-35.1035,0.001067912,-0.1257102,0.09433498,0,0.3,0,0,0,0,
6.38223E+17,2.497356,62.70034,71.27921,-63.13113,-23.46305,144.9584,-4.570632,-0.4675641,0.1400836,-35.15147,-8.447793,45.12524,0,0,0,8.168037,99.04788,18.92714,-10.65202,-111.0878,-35.1035,0.001067912,-0.1257102,0.09433498,0,0.3,0,0,0,0,
6.38223E+17,4.900472,65.13168,71.53602,-61.1535,-25.73365,144.8119,-4.570632,-0.4675641,0.1400836,-35.15147,-8.447793,45.05199,0,0,0,15.59554,102.1023,13.54644,-10.65202,-111.0878,-35.1035,0.001067912,-0.1257102,0.09433498,0,0.3,0,0,0,0,
6.38223E+17,7.539187,67.39936,71.67611,-59.02939,-28.00425,144.8852,-4.570632,-0.4675641,0.1400836,-35.15147,-8.447793,45.12524,0,0,0,23.33278,104.5358,7.948247,-10.65202,-111.0878,-35.1035,0.001067912,-0.1257102,0.09433498,0,0.3,0,0,0,0,
6.38223E+17,10.71978,69.64367,71.7695,-56.24608,-30.64108,142.6878,-4.570632,-0.4675641,0.1400836,-35.15147,-8.521038,45.05199,0,0,0,32.18708,106.6546,1.673549,-10.65202,-111.0878,-35.1035,0.001067912,-0.1257102,0.09433498,0,0.3,0,0,0,0,
6.38223E+17,12.84018,70.83595,71.97962,-54.19521,-32.47221,139.8312,-4.570632,-0.4675641,0.1400836,-35.15147,-8.447793,45.05199,0,0,0,37.90928,108.0576,-2.031615,-10.65202,-111.0878,-35.1035,0.001067912,-0.1257102,0.09433498,0,0.3,0,0,0,0,
6.38223E+17,14.08886,71.44379,72.02631,-53.02329,-33.4244,138.2198,-4.570632,-0.4675641,0.1400836,-35.15147,-8.447793,45.05199,0,0,0,41.20695,108.6182,-4.163096,-10.65202,-111.0878,-35.1035,0.001067912,-0.1257102,0.09433498,0,0.3,0,0,0,0,
6.38223E+17,16.37417,72.54256,72.02631,-50.67944,-35.10904,135.29,-4.570632,-0.4675641,0.1400836,-35.15147,-8.521038,45.05199,0,0,0,47.03565,109.4087,-8.270193,-10.65202,-111.0878,-35.1035,0.001067912,-0.1257102,0.09433498,0,0.3,0,0,0,0,
6.38223E+17,18.61237,73.47769,72.02631,-48.40885,-36.57394,133.6786,-4.570632,-0.4675641,0.1400836,-35.15147,-8.521038,45.05199,0,0,0,52.58721,110.0447,-12.20179,-10.65202,-111.0878,-35.1035,0.001067912,-0.1257102,0.09433498,0,0.3,0,0,0,0,
6.38223E+17,21.10972,74.08553,72.02631,-45.84526,-38.33182,131.6278,-4.570632,-0.4675641,0.1400836,-35.15147,-8.521038,45.05199,0,0,0,58.85193,110.4398,-15.9087,-10.65202,-111.0878,-35.1035,0.001067912,-0.1257102,0.09433498,0,0.3,0,0,0,0,
6.38223E+17,23.58352,74.29593,71.97962,-42.84221,-40.01646,128.991,-4.570632,-0.4675641,0.1400836,-35.15147,-8.447793,45.05199,0,0,0,65.17489,110.4699,-19.05355,-10.65202,-111.0878,-35.1035,0.001067912,-0.1257102,0.09433498,0,0.3,0,0,0,0,
6.38223E+17,26.19868,74.31931,71.86288,-39.17995,-41.84759,125.6217,-4.570632,-0.4675641,0.1400836,-35.15147,-8.447793,45.12524,0,0,0,71.85864,110.2263,-22.30544,-10.65202,-111.0878,-35.1035,0.001067912,-0.1257102,0.09433498,0,0.3,0,0,0,0,
6.38223E+17,29.04943,74.29593,71.65276,-34.12604,-43.75196,120.934,-4.570632,-0.4675641,0.1400836,-35.15147,-8.447793,45.05199,0,0,0,78.98428,109.7471,-26.14807,-10.65202,-111.0878,-35.1035,0.001067912,-0.1257102,0.09433498,0,0.3,0,0,0,0,
6.38223E+17,30.91067,74.2258,71.46598,-30.46378,-44.92389,117.5647,-4.570632,-0.4675641,0.1400836,-35.15147,-8.521038,45.05199,0,0,0,83.57125,109.2905,-28.7716,-10.65202,-111.0878,-35.1035,0.001067912,-0.1257102,0.09433498,0,0.3,0,0,0,0,
6.38223E+17,32.88971,74.06215,71.09243,-25.84933,-46.2423,113.5362,-4.570632,-0.4675641,0.1400836,-35.15147,-8.521038,45.05199,0,0,0,88.38901,108.363,-31.66755,-10.65202,-111.0878,-35.1035,0.001067912,-0.1257102,0.09433498,0,0.3,0,0,0,0,
6.38223E+17,33.92635,73.8985,70.97569,-23.28575,-46.75502,111.5586,-4.570632,-0.4675641,0.1400836,-35.15147,-8.521038,45.05199,0,0,0,91.0024,108.0009,-33.05855,-10.65202,-111.0878,-35.1035,0.001067912,-0.1257102,0.09433498,0,0.3,0,0,0,0,
6.38223E+17,35.92894,73.33743,70.60213,-17.79236,-47.85369,106.8709,-4.570632,-0.4675641,0.1400836,-35.15147,-8.447793,45.05199,0,0,0,96.24183,106.8116,-35.53842,-10.65202,-111.0878,-35.1035,0.001067912,-0.1257102,0.09433498,0,0.3,0,0,0,0,
6.38223E+17,37.53102,72.72959,69.92506,-12.6652,-48.43966,102.7692,-4.570632,-0.4675641,0.1400836,-35.15147,-8.521038,45.05199,0,0,0,100.4174,104.9156,-37.63002,-10.65202,-111.0878,-35.1035,0.001067912,-0.1257102,0.09433498,0,0.3,0,0,0,0,
6.38223E+17,39.06242,71.93473,68.96782,-7.757777,-48.80588,98.7407,-4.570632,-0.4675641,0.1400836,-35.15147,-8.447793,45.12524,0,0,0,104.4929,102.2681,-39.599,-10.65202,-111.0878,-35.1035,0.001067912,-0.1257102,0.09433498,0,0.3,0,0,0,0,
6.38223E+17,40.42889,70.90609,67.45025,-3.070086,-48.95237,95.0052,-4.570632,-0.4675641,0.1400836,-35.15147,-8.447793,45.12524,0,0,0,108.1549,98.22578,-41.39814,-10.65202,-111.0878,-35.1035,0.001067912,-0.1257102,0.09433498,0,0.3,0,0,0,0,
6.38223E+17,41.91317,69.26962,65.349,1.324624,-48.73264,91.63592,-4.570632,-0.4675641,0.1400836,-35.15147,-8.447793,45.05199,0,0,0,112.4913,92.44749,-43.0344,-10.65202,-111.0878,-35.1035,0.001067912,-0.1257102,0.09433498,0,0.3,0,0,0,0,
6.38223E+17,43.02049,68.00719,63.80808,3.66847,-48.07343,89.73154,-4.570632,-0.4675641,0.1400836,-35.15147,-8.447793,45.05199,0,0,0,115.7085,88.1383,-44.35673,-10.65202,-111.0878,-35.1035,0.001067912,-0.1257102,0.09433498,0,0.3,0,0,0,0,
6.38223E+17,44.45765,66.25382,61.91695,6.305296,-47.12124,87.46095,-4.570632,-0.4675641,0.1400836,-35.15147,-8.521038,45.05199,0,0,0,120.0092,82.63573,-46.047,-10.65202,-111.0878,-35.1035,0.001067912,-0.1257102,0.09433498,0,0.3,0,0,0,0,
6.38223E+17,45.25869,65.24857,60.77293,7.550464,-46.53528,86.28902,-4.570632,-0.4675641,0.1400836,-35.15147,-8.447793,45.05199,0,0,0,122.3157,79.33842,-47.13388,-10.65202,-111.0878,-35.1035,0.001067912,-0.1257102,0.09433498,0,0.3,0,0,0,0,
6.38223E+17,47.56756,61.97561,57.52766,10.77325,-43.9717,83.28596,-4.570632,-0.4675641,0.1400836,-35.15147,-8.447793,45.05199,0,0,0,129.2772,69.46981,-50.16938,-10.65202,-111.0878,-35.1035,0.001067912,-0.1257102,0.09433498,0,0.3,0,0,0,0,
6.38223E+17,48.34504,60.90022,56.38364,11.79868,-42.94627,82.33378,-4.570632,-0.4675641,0.1400836,-35.15147,-8.447793,45.05199,0,0,0,131.4266,66.04131,-51.43835,-10.65202,-111.0878,-35.1035,0.001067912,-0.1257102,0.09433498,0,0.3,0,0,0,0,
6.38223E+17,49.71152,58.70267,54.28239,13.55657,-40.74891,80.42941,-4.570632,-0.4675641,0.1400836,-35.15147,-8.447793,45.12524,0,0,0,135.4272,59.44682,-53.54617,-10.65202,-111.0878,-35.1035,0.001067912,-0.1257102,0.09433498,0,0.3,0,0,0,0,
6.38223E+17,50.77172,56.59863,52.32122,15.24121,-38.55156,78.67152,-4.570632,-0.4675641,0.1400836,-35.15147,-8.447793,45.12524,0,0,0,138.6198,53.16716,-55.18047,-10.65202,-111.0878,-35.1035,0.001067912,-0.1257102,0.09433498,0,0.3,0,0,0,0,
6.38223E+17,51.97327,53.67635,49.51955,17.07234,-35.76824,77.35311,-4.570632,-0.4675641,0.1400836,-35.15147,-8.447793,45.12524,0,0,0,142.1203,44.21865,-57.20668,-10.65202,-111.0878,-35.1035,0.001067912,-0.1257102,0.09433498,0,0.3,0,0,0,0,
6.38223E+17,52.53872,52.06326,48.14206,17.95128,-34.44983,76.98688,-4.570632,-0.4675641,0.1400836,-35.15147,-8.447793,45.05199,0,0,0,143.9108,39.53923,-58.07774,-10.65202,-111.0878,-35.1035,0.001067912,-0.1257102,0.09433498,0,0.3,0,0,0,0,
6.38223E+17,53.22195,49.4449,46.15754,19.19645,-32.17923,76.6939,-4.570632,-0.4675641,0.1400836,-35.15147,-8.521038,45.05199,0,0,0,146.4795,32.29822,-58.85687,-10.65202,-111.0878,-35.1035,0.001067912,-0.1257102,0.09433498,0,0.3,0,0,0,0,
6.38223E+17,53.41043,46.92005,44.52324,20.22188,-30.05512,76.47417,-4.570632,-0.4675641,0.1400836,-35.15147,-8.447793,45.05199,0,0,0,148.2083,25.67499,-58.32264,-10.65202,-111.0878,-35.1035,0.001067912,-0.1257102,0.09433498,0,0.3,0,0,0,0,
6.38223E+17,53.41043,44.3017,42.42198,20.80784,-27.78452,76.40092,-4.570632,-0.4675641,0.1400836,-35.15147,-8.447793,45.05199,0,0,0,148.8551,18.04799,-57.84245,-10.65202,-111.0878,-35.1035,0.001067912,-0.1257102,0.09433498,0,0.3,0,0,0,0,
6.38223E+17,53.41043,42.29117,40.97445,21.02757,-26.17312,76.40092,-4.570632,-0.4675641,0.1400836,-35.15147,-8.447793,45.05199,0,0,0,149.4119,12.40149,-57.42916,-10.65202,-111.0878,-35.1035,0.001067912,-0.1257102,0.09433498,0,0.3,0,0,0,0,
6.38223E+17,53.38687,41.00537,40.22734,21.17406,-25.29418,76.40092,-4.570632,-0.4675641,0.1400836,-35.15147,-8.521038,45.05199,0,0,0,149.9028,9.033781,-56.96905,-10.65202,-111.0878,-35.1035,0.001067912,-0.1257102,0.09433498,0,0.3,0,0,0,0,
6.38223E+17,53.36331,38.66755,38.8732,21.61354,-23.90252,76.40092,-4.570632,-0.4675641,0.1400836,-35.15147,-8.521038,45.05199,0,0,0,150.7038,2.849265,-56.27772,-10.65202,-111.0878,-35.1035,0.001067912,-0.1257102,0.09433498,0,0.3,0,0,0,0,
6.38223E+17,53.22195,36.09594,37.49571,21.97976,-22.29113,76.47417,-4.570632,-0.4675641,0.1400836,-35.15147,-8.447793,45.05199,0,0,0,151.3187,-3.888038,-55.23957,-10.65202,-111.0878,-35.1035,0.001067912,-0.1257102,0.09433498,0,0.3,0,0,0,0,
6.38223E+17,53.08059,33.33732,36.09487,22.05301,-20.67974,76.62066,-4.570632,-0.4675641,0.1400836,-35.15147,-8.447793,45.12524,0,0,0,151.875,-11.11771,-54.23858,-10.65202,-111.0878,-35.1035,0.001067912,-0.1257102,0.09433498,0,0.3,0,0,0,0,
6.38223E+17,52.93923,30.83585,35.23103,22.05301,-19.06834,76.84039,-4.570632,-0.4675641,0.1400836,-35.15147,-8.447793,45.05199,0,0,0,152.7572,-17.22206,-52.985,-10.65202,-111.0878,-35.1035,0.001067912,-0.1257102,0.09433498,0,0.3,0,0,0,0,
6.38223E+17,52.68008,28.47465,34.32048,21.97976,-17.60344,76.91364,-4.570632,-0.4675641,0.1400836,-35.15147,-8.447793,45.05199,0,0,0,153.0117,-23.20607,-51.7022,-10.65202,-111.0878,-35.1035,0.001067912,-0.1257102,0.09433498,0,0.3,0,0,0,0,
6.38223E+17,52.27955,25.50562,33.57337,21.90652,-16.21178,76.91364,-4.570632,-0.4675641,0.1400836,-35.15147,-8.521038,45.05199,0,0,0,153.5319,-30.33388,-49.59949,-10.65202,-111.0878,-35.1035,0.001067912,-0.1257102,0.09433498,0,0.3,0,0,0,0,
6.38223E+17,52.04396,23.79901,33.01303,21.83327,-15.47933,76.91364,-4.570632,-0.4675641,0.1400836,-35.15147,-8.447793,45.05199,0,0,0,153.4891,-34.65954,-48.62067,-10.65202,-111.0878,-35.1035,0.001067912,-0.1257102,0.09433498,0,0.3,0,0,0,0,
6.38223E+17,51.83192,21.62484,32.33596,21.46704,-14.52714,76.91364,-4.570632,-0.4675641,0.1400836,-35.15147,-8.447793,45.05199,0,0,0,153.538,-40.17776,-47.66589,-10.65202,-111.0878,-35.1035,0.001067912,-0.1257102,0.09433498,0,0.3,0,0,0,0,
6.38223E+17,51.64344,20.68971,32.07914,21.32055,-14.01443,76.91364,-4.570632,-0.4675641,0.1400836,-35.15147,-8.447793,45.12524,0,0,0,153.3596,-42.52603,-46.98785,-10.65202,-111.0878,-35.1035,0.001067912,-0.1257102,0.09433498,0,0.3,0,0,0,0,
6.38223E+17,50.65392,18.37527,31.30868,20.80784,-12.32979,76.91364,-4.570632,-0.4675641,0.1400836,-35.15147,-8.447793,45.05199,0,0,0,151.4536,-48.54441,-44.18309,-10.65202,-111.0878,-35.1035,0.001067912,-0.1257102,0.09433498,0,0.3,0,0,0,0,
6.38223E+17,50.27696,18.00122,31.14525,20.5881,-11.81707,76.98688,-4.570632,-0.4675641,0.1400836,-35.15147,-8.447793,45.05199,0,0,0,150.5923,-49.56867,-43.22355,-10.65202,-111.0878,-35.1035,0.001067912,-0.1257102,0.09433498,0,0.3,0,0,0,0,
6.38223E+17,49.38168,17.4869,30.35144,20.00214,-10.86488,77.20662,-4.570632,-0.4675641,0.1400836,-35.15147,-8.447793,45.05199,0,0,0,147.6905,-51.65331,-41.682,-10.65202,-111.0878,-35.1035,0.001067912,-0.1257102,0.09433498,0,0.3,0,0,0,0,
6.38223E+17,48.20368,16.76217,29.18408,19.04996,-9.839451,77.42635,-4.570632,-0.4675641,0.1400836,-35.15147,-8.447793,45.05199,0,0,0,143.6672,-54.61413,-39.91328,-10.65202,-111.0878,-35.1035,0.001067912,-0.1257102,0.09433498,0,0.3,0,0,0,0,
6.38223E+17,46.27176,15.6634,27.43304,16.99909,-7.861832,78.08556,-4.570632,-0.4675641,0.1400836,-35.15147,-8.447793,45.05199,0,0,0,137.179,-59.00223,-37.1295,-10.65202,-111.0878,-35.1035,0.001067912,-0.1257102,0.09433498,0,0.3,0,0,0,0,
6.38223E+17,45.37648,15.42961,26.9194,16.19339,-7.056135,78.52503,-4.570632,-0.4675641,0.1400836,-35.15147,-8.447793,45.05199,0,0,0,134.4588,-60.07241,-35.6467,-10.65202,-111.0878,-35.1035,0.001067912,-0.1257102,0.09433498,0,0.3,0,0,0,0,
6.38223E+17,42.90269,15.14908,25.40182,14.06928,-5.371496,79.47723,-4.570632,-0.4675641,0.1400836,-35.15147,-8.521038,45.05199,0,0,0,126.5649,-62.2594,-32.1628,-10.65202,-111.0878,-35.1035,0.001067912,-0.1257102,0.09433498,0,0.3,0,0,0,0,
6.38223E+17,40.21685,15.03218,24.16442,11.43246,-3.906592,80.50266,-4.570632,-0.4675641,0.1400836,-35.15147,-8.447793,45.05199,0,0,0,118.4017,-63.72927,-28.32411,-10.65202,-111.0878,-35.1035,0.001067912,-0.1257102,0.09433498,0,0.3,0,0,0,0,
6.38223E+17,37.1305,14.98543,22.92702,8.35616,-2.295199,82.33378,-4.570632,-0.4675641,0.1400836,-35.15147,-8.521038,45.05199,0,0,0,109.1142,-64.98483,-24.23474,-10.65202,-111.0878,-35.1035,0.001067912,-0.1257102,0.09433498,0,0.3,0,0,0,0,
6.38223E+17,34.4211,14.98543,22.60015,5.499599,-1.123276,84.09167,-4.570632,-0.4675641,0.1400836,-35.15147,-8.447793,45.12524,0,0,0,101.7833,-65.27918,-19.81664,-10.65202,-111.0878,-35.1035,0.001067912,-0.1257102,0.09433498,0,0.3,0,0,0,0,
6.38223E+17,32.79546,15.03218,22.41338,3.521979,-0.5373149,85.33684,-4.570632,-0.4675641,0.1400836,-35.15147,-8.447793,45.12524,0,0,0,97.29581,-65.34048,-17.35022,-10.65202,-111.0878,-35.1035,0.001067912,-0.1257102,0.09433498,0,0.3,0,0,0,0,
6.38223E+17,30.01539,15.21921,22.01647,0.006211365,0.8543434,87.3877,-4.570632,-0.4675641,0.1400836,-35.22471,-8.447793,45.05199,0,0,0,89.37283,-65.26953,-13.64769,-10.65202,-111.0878,-35.1035,0.001067912,-0.1257102,0.09433498,0,0.3,0,0,0,0,
6.38223E+17,27.40023,15.73353,21.87639,-3.582802,2.099511,89.07233,-4.570632,-0.4675641,0.1400836,-35.15147,-8.447793,45.05199,0,0,0,81.93495,-64.23776,-10.28303,-10.65202,-111.0878,-35.1035,0.001067912,-0.1257102,0.09433498,0,0.3,0,0,0,0,
6.38223E+17,24.66728,16.64528,21.71296,-7.24506,3.051698,90.68373,-4.570632,-0.4675641,0.1400836,-35.15147,-8.447793,45.05199,0,0,0,73.91066,-62.34115,-7.414677,-10.65202,-111.0878,-35.1035,0.001067912,-0.1257102,0.09433498,0,0.3,0,0,0,0,
6.38223E+17,22.26416,17.6973,21.22267,-10.61434,3.78415,91.70916,-4.570632,-0.4675641,0.1400836,-35.15147,-8.447793,45.05199,0,0,0,66.42142,-60.41947,-6.108861,-10.65202,-111.0878,-35.1035,0.001067912,-0.1257102,0.09433498,0,0.3,0,0,0,0,
6.38223E+17,21.10972,18.21162,20.68568,-12.37222,4.296866,92.07539,-4.570632,-0.4675641,0.1400836,-35.15147,-8.521038,45.05199,0,0,0,62.58596,-59.72769,-6.236611,-10.65202,-111.0878,-35.1035,0.001067912,-0.1257102,0.09433498,0,0.3,0,0,0,0,
6.38223E+17,17.55217,19.84809,18.46769,-17.93885,6.274486,92.51486,-4.570632,-0.4675641,0.1400836,-35.15147,-8.521038,45.05199,0,0,0,50.56485,-57.8568,-8.486503,-10.65202,-111.0878,-35.1035,0.001067912,-0.1257102,0.09433498,0,0.3,0,0,0,0,
6.38223E+17,15.97365,20.92349,17.0902,-20.2827,7.446409,92.66135,-4.570632,-0.4675641,0.1400836,-35.15147,-8.447793,45.12524,0,0,0,45.06189,-56.48962,-10.92735,-10.65202,-111.0878,-35.1035,0.001067912,-0.1257102,0.09433498,0,0.3,0,0,0,0,
6.38223E+17,13.87682,21.99889,15.38585,-22.77304,8.764822,92.66135,-4.570632,-0.4675641,0.1400836,-35.15147,-8.447793,45.12524,0,0,0,38.13886,-55.26947,-13.97016,-10.65202,-111.0878,-35.1035,0.001067912,-0.1257102,0.09433498,0,0.3,0,0,0,0,
6.38223E+17,12.84018,22.46645,14.70878,-24.0182,9.570518,92.66135,-4.570632,-0.4675641,0.1400836,-35.15147,-8.447793,45.05199,0,0,0,34.90993,-54.67128,-15.1906,-10.65202,-111.0878,-35.1035,0.001067912,-0.1257102,0.09433498,0,0.3,0,0,0,0,
6.38223E+17,10.0601,24.2432,12.67757,-27.31424,11.91436,92.7346,-4.570632,-0.4675641,0.1400836,-35.15147,-8.447793,45.05199,0,0,0,26.35162,-51.99408,-19.81387,-10.65202,-111.0878,-35.1035,0.001067912,-0.1257102,0.09433498,0,0.3,0,0,0,0,
6.38223E+17,8.764306,24.94454,11.79037,-28.41291,12.64682,92.7346,-4.570632,-0.4675641,0.1400836,-35.15147,-8.447793,45.05199,0,0,0,22.57489,-50.94741,-21.92173,-10.65202,-111.0878,-35.1035,0.001067912,-0.1257102,0.09433498,0,0.3,0,0,0,0,
6.38223E+17,6.172709,26.2771,10.36619,-30.75676,13.74549,92.7346,-4.570632,-0.4675641,0.1400836,-35.15147,-8.447793,45.05199,0,0,0,15.43693,-48.78768,-25.61746,-10.65202,-111.0878,-35.1035,0.001067912,-0.1257102,0.09433498,0,0.3,0,0,0,0,
6.38223E+17,3.463314,27.86682,8.895308,-33.24709,14.99066,92.7346,-4.570632,-0.4675641,0.1400836,-35.15147,-8.447793,45.05199,0,0,0,8.367076,-46.06596,-30.09685,-10.65202,-111.0878,-35.1035,0.001067912,-0.1257102,0.09433498,0,0.3,0,0,0,0,
6.38223E+17,-0.8952785,29.05911,5.883511,-36.76286,16.89503,92.80784,-4.570632,-0.4675641,0.1400836,-35.15147,-8.447793,45.05199,0,0,0,-2.03488,-44.52792,-38.1329,-10.65202,-111.0878,-35.1035,0.001067912,-0.1257102,0.09433498,0,0.3,0,0,0,0,
6.38223E+17,-3.439754,29.55005,4.506022,-39.39969,17.99371,92.88109,-4.570632,-0.4675641,0.1400836,-35.15147,-8.447793,45.05199,0,0,0,-7.588732,-43.82179,-42.09684,-10.65202,-111.0878,-35.1035,0.001067912,-0.1257102,0.09433498,0,0.3,0,0,0,0,
6.38223E+17,-6.45543,30.62544,3.058492,-42.84221,19.60511,92.80784,-4.570632,-0.4675641,0.1400836,-35.15147,-8.447793,45.05199,0,0,0,-13.70129,-41.87841,-47.25793,-10.65202,-111.0878,-35.1035,0.001067912,-0.1257102,0.09433498,0,0.3,0,0,0,0,
6.38223E+17,-7.892587,30.97612,2.404768,-44.45361,20.26431,92.80784,-4.570632,-0.4675641,0.1400836,-35.15147,-8.521038,45.05199,0,0,0,-16.46795,-41.24989,-49.55896,-10.65202,-111.0878,-35.1035,0.001067912,-0.1257102,0.09433498,0,0.3,0,0,0,0,
6.38223E+17,-12.5339,31.77098,1.167363,-49.1413,22.09544,92.44161,-4.570632,-0.4675641,0.1400836,-35.15147,-8.447793,45.05199,0,0,0,-25.19255,-39.76019,-55.03107,-10.65202,-111.0878,-35.1035,0.001067912,-0.1257102,0.09433498,0,0.3,0,0,0,0,
6.38223E+17,-15.69093,32.51908,1.073974,-51.63163,23.04763,92.14863,-4.570632,-0.4675641,0.1400836,-35.15147,-8.447793,45.05199,0,0,0,-31.08579,-38.29022,-57.69156,-10.65202,-111.0878,-35.1035,0.001067912,-0.1257102,0.09433498,0,0.3,0,0,0,0,
6.38223E+17,-17.59929,32.63597,0.9805852,-53.16978,23.34061,92.07539,-4.570632,-0.4675641,0.1400836,-35.15147,-8.447793,45.05199,0,0,0,-34.64359,-38.06487,-59.13489,-10.65202,-111.0878,-35.1035,0.001067912,-0.1257102,0.09433498,0,0.3,0,0,0,0,
6.38223E+17,-21.5338,32.63597,0.7704598,-56.90528,23.63359,92.00214,-4.570632,-0.4675641,0.1400836,-35.15147,-8.521038,45.05199,0,0,0,-41.87638,-38.07234,-62.22427,-10.65202,-111.0878,-35.1035,0.001067912,-0.1257102,0.09433498,0,0.3,0,0,0,0,
6.38223E+17,-25.25628,32.61259,0.4902926,-60.71403,23.63359,91.92889,-4.570632,-0.4675641,0.1400836,-35.15147,-8.447793,45.05199,0,0,0,-48.41243,-38.12534,-65.7301,-10.65202,-111.0878,-35.1035,0.001067912,-0.1257102,0.09433498,0,0.3,0,0,0,0,
6.38223E+17,-28.50755,32.58922,0.02334727,-64.30305,23.56034,91.85565,-4.570632,-0.4675641,0.1400836,-35.15147,-8.521038,45.12524,0,0,0,-53.64991,-38.17605,-69.57022,-10.65202,-111.0878,-35.1035,0.001067912,-0.1257102,0.09433498,0,0.3,0,0,0,0,
6.38223E+17,-31.61747,32.58922,-0.2101254,-66.72014,23.63359,91.85565,-4.570632,-0.4675641,0.1400836,-35.15147,-8.447793,45.05199,0,0,0,-58.64499,-38.17517,-73.08901,-10.65202,-111.0878,-35.1035,0.001067912,-0.1257102,0.09433498,0,0.3,0,0,0,0,
6.38223E+17,-34.79806,32.72948,-0.2101254,-69.28372,23.78008,92.00214,-4.570632,-0.4675641,0.1400836,-35.15147,-8.447793,45.12524,0,0,0,-63.73951,-37.90032,-76.63424,-10.65202,-111.0878,-35.1035,0.001067912,-0.1257102,0.09433498,0,0.3,0,0,0,0,
6.38223E+17,-38.40274,32.79962,-0.3035145,-72.21353,24.07306,92.66135,-4.570632,-0.4675641,0.1400836,-35.15147,-8.447793,45.05199,0,0,0,-69.18987,-37.76208,-81.06268,-10.65202,-111.0878,-35.1035,0.001067912,-0.1257102,0.09433498,0,0.3,0,0,0,0,
6.38223E+17,-40.90009,32.61259,-0.4902926,-74.48412,24.14631,93.10082,-4.570632,-0.4675641,0.1400836,-35.15147,-8.447793,45.05199,0,0,0,-72.79693,-38.12534,-84.3112,-10.65202,-111.0878,-35.1035,0.001067912,-0.1257102,0.09433498,0,0.3,0,0,0,0,
6.38223E+17,-42.50217,32.30868,-0.7471125,-75.87578,24.07306,93.24731,-4.570632,-0.4675641,0.1400836,-35.15147,-8.521038,45.05199,0,0,0,-74.9707,-38.71571,-86.54005,-10.65202,-111.0878,-35.1035,0.001067912,-0.1257102,0.09433498,0,0.3,0,0,0,0,
6.38223E+17,-45.49429,31.79436,-0.9572379,-78.73235,24.14631,93.83327,-4.570632,-0.4675641,0.1400836,-35.15147,-8.447793,45.05199,0,0,0,-79.24316,-39.723,-90.46243,-10.65202,-111.0878,-35.1035,0.001067912,-0.1257102,0.09433498,0,0.3,0,0,0,0,
6.38223E+17,-47.8974,31.67747,-1.003932,-81.36917,24.21955,94.8587,-4.570632,-0.4675641,0.1400836,-35.15147,-8.521038,45.05199,0,0,0,-82.46484,-39.95251,-93.8305,-10.65202,-111.0878,-35.1035,0.001067912,-0.1257102,0.09433498,0,0.3,0,0,0,0,
6.38223E+17,-48.9576,31.67747,-1.003932,-82.32136,24.21955,95.37142,-4.570632,-0.4675641,0.1400836,-35.15147,-8.447793,45.12524,0,0,0,-83.82956,-39.95251,-95.36909,-10.65202,-111.0878,-35.1035,0.001067912,-0.1257102,0.09433498,0,0.3,0,0,0,0,
6.38223E+17,-51.26648,31.67747,-1.214058,-84.37222,24.36604,96.39685,-4.570632,-0.4675641,0.1400836,-35.15147,-8.447793,45.05199,0,0,0,-86.32024,-39.94305,-99.11149,-10.65202,-111.0878,-35.1035,0.001067912,-0.1257102,0.09433498,0,0.3,0,0,0,0,
6.38223E+17,-53.31619,31.72422,-1.330794,-85.98362,24.58578,97.05606,-4.570632,-0.4675641,0.1400836,-35.15147,-8.447793,45.12524,0,0,0,-88.47775,-39.84443,-102.4396,-10.65202,-111.0878,-35.1035,0.001067912,-0.1257102,0.09433498,0,0.3,0,0,0,0,
6.38223E+17,-55.38947,31.72422,-1.330794,-87.96124,24.95201,97.64202,-4.570632,-0.4675641,0.1400836,-35.15147,-8.447793,45.12524,0,0,0,-90.80431,-39.84443,-105.6837,-10.65202,-111.0878,-35.1035,0.001067912,-0.1257102,0.09433498,0,0.3,0,0,0,0,
6.38223E+17,-57.43919,31.49044,-1.330794,-90.23183,25.17174,98.22798,-4.570632,-0.4675641,0.1400836,-35.15147,-8.447793,45.05199,0,0,0,-93.22792,-40.30782,-108.8181,-10.65202,-111.0878,-35.1035,0.001067912,-0.1257102,0.09433498,0,0.3,0,0,0,0,
6.38223E+17,-57.41562,31.23328,-1.470878,-91.25727,25.31823,98.44772,-4.570632,-0.4675641,0.1400836,-35.15147,-8.447793,45.05199,0,0,0,-93.19126,-40.81092,-108.7875,-10.65202,-111.0878,-35.1035,0.001067912,-0.1257102,0.09433498,0,0.3,0,0,0,0,
6.38223E+17,-57.41562,30.71896,-1.79774,-91.33051,26.78313,99.83938,-4.570632,-0.4675641,0.1400836,-35.15147,-8.447793,45.05199,0,0,0,-93.06964,-41.81553,-108.8652,-10.65202,-111.0878,-35.1035,0.001067912,-0.1257102,0.09433498,0,0.3,0,0,0,0,
6.38223E+17,-57.39207,30.8826,-1.79774,-89.86562,28.76075,102.1832,-4.570632,-0.4675641,0.1400836,-35.15147,-8.447793,45.05199,0,0,0,-92.88089,-41.48838,-108.9321,-10.65202,-111.0878,-35.1035,0.001067912,-0.1257102,0.09433498,0,0.3,0,0,0,0,
6.38223E+17,-57.36851,32.09827,-1.844434,-88.69369,29.93268,104.6736,-4.570632,-0.4675641,0.1400836,-35.15147,-8.521038,45.05199,0,0,0,-91.52036,-39.07232,-109.7494,-10.65202,-111.0878,-35.1035,0.001067912,-0.1257102,0.09433498,0,0.3,0,0,0,0,
6.38223E+17,-57.36851,34.22569,-2.264685,-88.18098,29.56645,105.8455,-4.570632,-0.4675641,0.1400836,-35.15147,-8.447793,45.05199,0,0,0,-88.4164,-34.89259,-111.7369,-10.65202,-111.0878,-35.1035,0.001067912,-0.1257102,0.09433498,0,0.3,0,0,0,0,
6.38223E+17,-57.36851,35.3946,-2.684936,-88.69369,28.834,105.6257,-4.570632,-0.4675641,0.1400836,-35.15147,-8.521038,45.12524,0,0,0,-86.28559,-32.61671,-113.1012,-10.65202,-111.0878,-35.1035,0.001067912,-0.1257102,0.09433498,0,0.3,0,0,0,0,
6.38223E+17,-57.36851,35.62838,-3.035145,-89.42614,28.46777,104.6003,-4.570632,-0.4675641,0.1400836,-35.15147,-8.447793,45.05199,0,0,0,-85.33386,-32.13314,-113.7106,-10.65202,-111.0878,-35.1035,0.001067912,-0.1257102,0.09433498,0,0.3,0,0,0,0,
6.38223E+17,-57.36851,35.67514,-4.879579,-92.13622,28.0283,100.938,-4.570632,-0.4675641,0.1400836,-35.15147,-8.447793,45.05199,0,0,0,-81.67407,-31.74847,-116.054,-10.65202,-111.0878,-35.1035,0.001067912,-0.1257102,0.09433498,0,0.3,0,0,0,0,
6.38223E+17,-57.36851,35.62838,-5.953553,-92.86866,27.51558,99.47314,-4.570632,-0.4675641,0.1400836,-35.22471,-8.447793,45.05199,0,0,0,-79.6319,-31.60095,-117.3616,-10.65202,-111.0878,-35.1035,0.001067912,-0.1257102,0.09433498,0,0.3,0,0,0,0,
6.38223E+17,-57.36851,35.44136,-6.934138,-93.30813,26.5634,98.00825,-4.570632,-0.4675641,0.1400836,-35.15147,-8.447793,45.05199,0,0,0,-77.93513,-31.69904,-118.448,-10.65202,-111.0878,-35.1035,0.001067912,-0.1257102,0.09433498,0,0.3,0,0,0,0,
6.38223E+17,-57.34494,35.27771,-7.797987,-94.11383,25.46472,96.03063,-4.570632,-0.4675641,0.1400836,-35.15147,-8.447793,45.05199,0,0,0,-76.42144,-31.75189,-119.3729,-10.65202,-111.0878,-35.1035,0.001067912,-0.1257102,0.09433498,0,0.3,0,0,0,0,
6.38223E+17,-57.20359,35.25433,-9.362254,-95.359,24.14631,93.68678,-4.570632,-0.4675641,0.1400836,-35.15147,-8.447793,45.05199,0,0,0,-73.30078,-31.25318,-121.1174,-10.65202,-111.0878,-35.1035,0.001067912,-0.1257102,0.09433498,0,0.3,0,0,0,0,
6.38223E+17,-56.68527,35.25433,-10.73974,-95.94496,23.26737,92.00214,-4.570632,-0.4675641,0.1400836,-35.15147,-8.447793,45.05199,0,0,0,-70.23257,-30.69367,-122.19,-10.65202,-111.0878,-35.1035,0.001067912,-0.1257102,0.09433498,0,0.3,0,0,0,0,
6.38223E+17,-56.40255,35.25433,-11.48686,-96.1647,22.90114,91.19645,-4.570632,-0.4675641,0.1400836,-35.15147,-8.521038,45.05199,0,0,0,-68.58276,-30.35851,-122.7881,-10.65202,-111.0878,-35.1035,0.001067912,-0.1257102,0.09433498,0,0.3,0,0,0,0,
6.38223E+17,-56.16695,35.27771,-12.7943,-96.38443,22.16869,89.29208,-4.570632,-0.4675641,0.1400836,-35.15147,-8.521038,45.12524,0,0,0,-65.89766,-29.67414,-124.1803,-10.65202,-111.0878,-35.1035,0.001067912,-0.1257102,0.09433498,0,0.3,0,0,0,0,
6.38223E+17,-56.14339,35.46473,-12.77096,-97.40987,21.2165,87.46095,-4.570632,-0.4675641,0.1400836,-35.15147,-8.447793,45.12524,0,0,0,-65.71425,-29.33122,-124.2641,-10.65202,-111.0878,-35.1035,0.001067912,-0.1257102,0.09433498,0,0.3,0,0,0,0,
6.38223E+17,-56.07271,35.74527,-12.77096,-98.65503,20.55729,86.50875,-4.570632,-0.4675641,0.1400836,-35.15147,-8.447793,45.12524,0,0,0,-65.34441,-28.80036,-124.3952,-10.65202,-111.0878,-35.1035,0.001067912,-0.1257102,0.09433498,0,0.3,0,0,0,0,
6.38223E+17,-55.38947,35.76865,-12.77096,-98.58179,20.26431,86.21577,-4.570632,-0.4675641,0.1400836,-35.15147,-8.447793,45.05199,0,0,0,-64.78945,-28.75621,-123.6372,-10.65202,-111.0878,-35.1035,0.001067912,-0.1257102,0.09433498,0,0.3,0,0,0,0,
6.38223E+17,-54.51775,35.76865,-12.77096,-98.14231,20.19107,86.72849,-4.570632,-0.4675641,0.1400836,-35.15147,-8.521038,45.05199,0,0,0,-64.1017,-28.75621,-122.6567,-10.65202,-111.0878,-35.1035,0.001067912,-0.1257102,0.09433498,0,0.3,0,0,0,0,
6.38223E+17,-54.37639,35.76865,-12.77096,-98.28881,20.26431,87.16796,-4.570632,-0.4675641,0.1400836,-35.15147,-8.521038,45.05199,0,0,0,-63.98877,-28.75621,-122.4986,-10.65202,-111.0878,-35.1035,0.001067912,-0.1257102,0.09433498,0,0.3,0,0,0,0,
6.38223E+17,-53.85807,35.83878,-12.77096,-98.87477,20.04458,87.24121,-4.570632,-0.4675641,0.1400836,-35.15147,-8.447793,45.05199,0,0,0,-63.49426,-28.62383,-121.978,-10.65202,-111.0878,-35.1035,0.001067912,-0.1257102,0.09433498,0,0.3,0,0,0,0,
6.38223E+17,-52.16175,35.95568,-12.70091,-98.21556,19.97133,87.24121,-4.570632,-0.4675641,0.1400836,-35.15147,-8.447793,45.05199,0,0,0,-62.09333,-28.43938,-120.1191,-10.65202,-111.0878,-35.1035,0.001067912,-0.1257102,0.09433498,0,0.3,0,0,0,0,
6.38223E+17,-51.1958,35.97906,-12.67757,-97.33662,20.04458,87.24121,-4.570632,-0.4675641,0.1400836,-35.15147,-8.447793,45.05199,0,0,0,-61.28782,-28.40728,-119.0659,-10.65202,-111.0878,-35.1035,0.001067912,-0.1257102,0.09433498,0,0.3,0,0,0,0,
6.38223E+17,-49.02828,35.97906,-12.63087,-94.91953,20.63054,87.24121,-4.570632,-0.4675641,0.1400836,-35.15147,-8.447793,45.12524,0,0,0,-59.46004,-28.43109,-116.7137,-10.65202,-111.0878,-35.1035,0.001067912,-0.1257102,0.09433498,0,0.3,0,0,0,0,
6.38223E+17,-48.29792,36.02581,-12.60752,-94.40681,20.85028,87.24121,-4.570632,-0.4675641,0.1400836,-35.15147,-8.447793,45.05199,0,0,0,-58.78884,-28.35493,-115.9672,-10.65202,-111.0878,-35.1035,0.001067912,-0.1257102,0.09433498,0,0.3,0,0,0,0,
6.38223E+17,-46.0126,36.04919,-12.56083,-92.57568,21.07001,87.24121,-4.570632,-0.4675641,0.1400836,-35.15147,-8.521038,45.05199,0,0,0,-56.70657,-28.3346,-113.6132,-10.65202,-111.0878,-35.1035,0.001067912,-0.1257102,0.09433498,0,0.3,0,0,0,0,
6.38223E+17,-43.20897,36.02581,-12.53748,-90.23183,21.28975,87.24121,-4.570632,-0.4675641,0.1400836,-35.15147,-8.447793,45.05199,0,0,0,-54.01957,-28.39041,-110.843,-10.65202,-111.0878,-35.1035,0.001067912,-0.1257102,0.09433498,0,0.3,0,0,0,0,
6.38223E+17,-39.4865,36.02581,-12.51413,-87.15554,21.72922,87.16796,-4.570632,-0.4675641,0.1400836,-35.15147,-8.521038,45.05199,0,0,0,-50.20577,-28.40219,-107.4163,-10.65202,-111.0878,-35.1035,0.001067912,-0.1257102,0.09433498,0,0.3,0,0,0,0,
6.38223E+17,-37.10694,36.02581,-12.51413,-85.10468,22.09544,87.16796,-4.570632,-0.4675641,0.1400836,-35.15147,-8.521038,45.05199,0,0,0,-47.63256,-28.40219,-105.3843,-10.65202,-111.0878,-35.1035,0.001067912,-0.1257102,0.09433498,0,0.3,0,0,0,0,
6.38223E+17,-33.80854,36.02581,-12.51413,-81.88189,22.53491,87.16796,-4.570632,-0.4675641,0.1400836,-35.15147,-8.447793,45.05199,0,0,0,-43.93085,-28.40219,-102.748,-10.65202,-111.0878,-35.1035,0.001067912,-0.1257102,0.09433498,0,0.3,0,0,0,0,
6.38223E+17,-32.18291,36.02581,-12.53748,-80.124,22.75465,87.16796,-4.570632,-0.4675641,0.1400836,-35.15147,-8.521038,45.05199,0,0,0,-42.02386,-28.39041,-101.5731,-10.65202,-111.0878,-35.1035,0.001067912,-0.1257102,0.09433498,0,0.3,0,0,0,0,
6.38223E+17,-27.23532,36.02581,-12.53748,-74.70387,23.4871,87.16796,-4.570632,-0.4675641,0.1400836,-35.15147,-8.447793,45.12524,0,0,0,-36.10814,-28.39041,-98.19755,-10.65202,-111.0878,-35.1035,0.001067912,-0.1257102,0.09433498,0,0.3,0,0,0,0,
6.38223E+17,-26.0102,36.02581,-12.53748,-73.53194,23.70683,87.09471,-4.570632,-0.4675641,0.1400836,-35.15147,-8.447793,45.05199,0,0,0,-34.59998,-28.39041,-97.44157,-10.65202,-111.0878,-35.1035,0.001067912,-0.1257102,0.09433498,0,0.3,0,0,0,0,
6.38223E+17,-22.7118,36.02581,-12.49079,-70.60213,24.2928,86.72849,-4.570632,-0.4675641,0.1400836,-35.15147,-8.447793,45.05199,0,0,0,-30.50383,-28.41396,-95.47041,-10.65202,-111.0878,-35.1035,0.001067912,-0.1257102,0.09433498,0,0.3,0,0,0,0,
6.38223E+17,-18.58881,36.00243,-12.28066,-67.3061,24.80551,86.50875,-4.570632,-0.4675641,0.1400836,-35.15147,-8.447793,45.05199,0,0,0,-25.34748,-28.56286,-92.9828,-10.65202,-111.0878,-35.1035,0.001067912,-0.1257102,0.09433498,0,0.3,0,0,0,0,
6.38223E+17,-13.97106,36.00243,-12.23397,-63.20437,25.46472,86.43551,-4.570632,-0.4675641,0.1400836,-35.15147,-8.447793,45.05199,0,0,0,-19.22319,-28.58594,-91.08372,-10.65202,-111.0878,-35.1035,0.001067912,-0.1257102,0.09433498,0,0.3,0,0,0,0,
6.38223E+17,-11.77998,36.00243,-12.23397,-61.08026,25.97744,86.43551,-4.570632,-0.4675641,0.1400836,-35.15147,-8.447793,45.05199,0,0,0,-16.25508,-28.58594,-90.40527,-10.65202,-111.0878,-35.1035,0.001067912,-0.1257102,0.09433498,0,0.3,0,0,0,0,
6.38223E+17,-8.081067,36.21284,-11.65029,-57.19827,26.85638,86.582,-4.570632,-0.4675641,0.1400836,-35.15147,-8.447793,45.05199,0,0,0,-11.339,-28.4714,-88.48882,-10.65202,-111.0878,-35.1035,0.001067912,-0.1257102,0.09433498,0,0.3,0,0,0,0,
6.38223E+17,-3.981634,36.28297,-10.76309,-53.75574,27.14936,86.65524,-4.570632,-0.4675641,0.1400836,-35.15147,-8.447793,45.05199,0,0,0,-5.734852,-28.74106,-85.95826,-10.65202,-111.0878,-35.1035,0.001067912,-0.1257102,0.09433498,0,0.3,0,0,0,0,
6.38223E+17,-0.07067989,36.25959,-9.572379,-50.02024,27.2226,87.24121,-4.570632,-0.4675641,0.1400836,-35.15147,-8.447793,45.05199,0,0,0,-0.1052886,-29.27413,-82.99911,-10.65202,-111.0878,-35.1035,0.001067912,-0.1257102,0.09433498,0,0.3,0,0,0,0,
6.38223E+17,3.416194,36.25959,-8.381668,-45.99176,27.29585,88.41313,-4.570632,-0.4675641,0.1400836,-35.15147,-8.447793,45.05199,0,0,0,5.249046,-29.70654,-80.41831,-10.65202,-111.0878,-35.1035,0.001067912,-0.1257102,0.09433498,0,0.3,0,0,0,0,
6.38223E+17,5.371671,36.25959,-7.77464,-43.7944,27.29585,89.29208,-4.570632,-0.4675641,0.1400836,-35.15147,-8.447793,45.05199,0,0,0,8.37742,-29.90508,-79.256,-10.65202,-111.0878,-35.1035,0.001067912,-0.1257102,0.09433498,0,0.3,0,0,0,0,
6.38223E+17,9.706704,36.21284,-6.327109,-38.4475,27.36909,92.51486,-4.570632,-0.4675641,0.1400836,-35.15147,-8.447793,45.05199,0,0,0,15.66249,-30.40638,-76.78518,-10.65202,-111.0878,-35.1035,0.001067912,-0.1257102,0.09433498,0,0.3,0,0,0,0,
6.38223E+17,13.09934,36.16608,-4.832884,-32.95412,27.36909,96.10387,-4.570632,-0.4675641,0.1400836,-35.15147,-8.447793,45.05199,0,0,0,21.85265,-30.83235,-74.43893,-10.65202,-111.0878,-35.1035,0.001067912,-0.1257102,0.09433498,0,0.3,0,0,0,0,
6.38223E+17,15.83229,36.16608,-3.432048,-28.63265,26.92962,97.93501,-4.570632,-0.4675641,0.1400836,-35.15147,-8.447793,45.05199,0,0,0,27.19271,-31.06729,-72.45931,-10.65202,-111.0878,-35.1035,0.001067912,-0.1257102,0.09433498,0,0.3,0,0,0,0,
6.38223E+17,17.19877,36.16608,-2.871714,-26.80152,26.5634,98.37447,-4.570632,-0.4675641,0.1400836,-35.15147,-8.447793,45.05199,0,0,0,29.85674,-31.13899,-71.89114,-10.65202,-111.0878,-35.1035,0.001067912,-0.1257102,0.09433498,0,0.3,0,0,0,0,
6.38223E+17,20.16733,36.16608,-1.937823,-23.79847,25.46472,98.7407,-4.570632,-0.4675641,0.1400836,-35.15147,-8.447793,45.05199,0,0,0,35.56076,-31.23019,-71.52834,-10.65202,-111.0878,-35.1035,0.001067912,-0.1257102,0.09433498,0,0.3,0,0,0,0,
6.38223E+17,23.8898,36.16608,-0.8171543,-20.20946,24.2928,98.96043,-4.570632,-0.4675641,0.1400836,-35.15147,-8.521038,45.05199,0,0,0,42.82772,-31.29289,-71.65729,-10.65202,-111.0878,-35.1035,0.001067912,-0.1257102,0.09433498,0,0.3,0,0,0,0,
6.38223E+17,28.93163,36.04919,0.7704598,-15.30203,22.60816,99.03368,-4.570632,-0.4675641,0.1400836,-35.15147,-8.521038,45.05199,0,0,0,53.02468,-31.51419,-72.42117,-10.65202,-111.0878,-35.1035,0.001067912,-0.1257102,0.09433498,0,0.3,0,0,0,0,
6.38223E+17,31.40543,35.9323,1.494225,-12.81169,21.72922,99.10693,-4.570632,-0.4675641,0.1400836,-35.15147,-8.447793,45.05199,0,0,0,58.07669,-31.70102,-73.22537,-10.65202,-111.0878,-35.1035,0.001067912,-0.1257102,0.09433498,0,0.3,0,0,0,0,
6.38223E+17,35.4813,35.83878,3.24527,-8.709964,20.33756,99.10693,-4.570632,-0.4675641,0.1400836,-35.15147,-8.447793,45.05199,0,0,0,67.12845,-31.70885,-74.17439,-10.65202,-111.0878,-35.1035,0.001067912,-0.1257102,0.09433498,0,0.3,0,0,0,0,
6.38223E+17,37.17762,35.81541,4.109118,-6.80559,19.45862,99.10693,-4.570632,-0.4675641,0.1400836,-35.15147,-8.447793,45.05199,0,0,0,71.11848,-31.62402,-74.57882,-10.65202,-111.0878,-35.1035,0.001067912,-0.1257102,0.09433498,0,0.3,0,0,0,0,
6.38223E+17,41.81893,35.27771,6.887444,-1.238957,16.89503,99.10693,-4.570632,-0.4675641,0.1400836,-35.15147,-8.447793,45.05199,0,0,0,83.24943,-32.02273,-75.30247,-10.65202,-111.0878,-35.1035,0.001067912,-0.1257102,0.09433498,0,0.3,0,0,0,0,
6.38223E+17,44.29272,35.06731,8.778571,1.69085,15.57662,99.10693,-4.570632,-0.4675641,0.1400836,-35.15147,-8.447793,45.05199,0,0,0,90.42979,-31.82319,-75.65962,-10.65202,-111.0878,-35.1035,0.001067912,-0.1257102,0.09433498,0,0.3,0,0,0,0,
6.38223E+17,45.47073,35.06731,10.03932,3.228999,14.84417,99.10693,-4.570632,-0.4675641,0.1400836,-35.15147,-8.521038,45.05199,0,0,0,94.37988,-31.34351,-75.50831,-10.65202,-111.0878,-35.1035,0.001067912,-0.1257102,0.09433498,0,0.3,0,0,0,0,
6.38223E+17,47.33196,35.06731,12.72426,6.012315,13.30602,99.10693,-4.570632,-0.4675641,0.1400836,-35.15147,-8.447793,45.05199,0,0,0,101.8495,-30.11043,-74.47112,-10.65202,-111.0878,-35.1035,0.001067912,-0.1257102,0.09433498,0,0.3,0,0,0,0,
6.38223E+17,48.6042,35.06731,15.22242,8.209671,11.47489,99.10693,-4.570632,-0.4675641,0.1400836,-35.15147,-8.447793,45.12524,0,0,0,108.141,-28.70658,-73.02501,-10.65202,-111.0878,-35.1035,0.001067912,-0.1257102,0.09433498,0,0.3,0,0,0,0,
6.38223E+17,49.75864,35.02055,17.9307,10.18729,9.204292,98.52097,-4.570632,-0.4675641,0.1400836,-35.15147,-8.447793,45.12524,0,0,0,114.6983,-26.99755,-71.28039,-10.65202,-111.0878,-35.1035,0.001067912,-0.1257102,0.09433498,0,0.3,0,0,0,0,
6.38223E+17,50.34764,34.95041,20.40551,12.01842,7.153428,97.12931,-4.570632,-0.4675641,0.1400836,-35.15147,-8.447793,45.05199,0,0,0,119.9507,-25.24023,-68.93339,-10.65202,-111.0878,-35.1035,0.001067912,-0.1257102,0.09433498,0,0.3,0,0,0,0,
6.38223E+17,50.41832,34.95041,22.53011,13.55657,5.322299,96.17712,-4.570632,-0.4675641,0.1400836,-35.15147,-8.447793,45.05199,0,0,0,123.6197,-23.43065,-66.14948,-10.65202,-111.0878,-35.1035,0.001067912,-0.1257102,0.09433498,0,0.3,0,0,0,0,
6.38223E+17,50.55968,34.3192,24.28116,14.72849,2.978453,95.66441,-4.570632,-0.4675641,0.1400836,-35.15147,-8.447793,45.05199,0,0,0,127.4045,-23.02055,-63.54851,-10.65202,-111.0878,-35.1035,0.001067912,-0.1257102,0.09433498,0,0.3,0,0,0,0,
6.38223E+17,50.88952,33.05678,25.96216,15.53419,1.51355,95.51791,-4.570632,-0.4675641,0.1400836,-35.15147,-8.447793,45.05199,0,0,0,132.0187,-23.80436,-61.0212,-10.65202,-111.0878,-35.1035,0.001067912,-0.1257102,0.09433498,0,0.3,0,0,0,0,
6.38223E+17,51.17223,32.26192,27.19957,16.12015,0.9275885,95.44467,-4.570632,-0.4675641,0.1400836,-35.15147,-8.447793,45.05199,0,0,0,135.3308,-24.07318,-59.43324,-10.65202,-111.0878,-35.1035,0.001067912,-0.1257102,0.09433498,0,0.3,0,0,0,0,
6.38223E+17,51.66699,30.95274,29.53429,17.73154,-0.09784385,95.22493,-4.570632,-0.4675641,0.1400836,-35.15147,-8.447793,45.05199,0,0,0,141.2692,-24.08659,-56.65012,-10.65202,-111.0878,-35.1035,0.001067912,-0.1257102,0.09433498,0,0.3,0,0,0,0,
6.38223E+17,51.78479,29.80721,31.84567,19.1232,-1.196521,93.97977,-4.570632,-0.4675641,0.1400836,-35.15147,-8.447793,45.05199,0,0,0,146.1923,-23.64111,-53.24515,-10.65202,-111.0878,-35.1035,0.001067912,-0.1257102,0.09433498,0,0.3,0,0,0,0,
6.38223E+17,51.83192,28.38114,34.27379,20.22188,-2.661425,92.7346,-4.570632,-0.4675641,0.1400836,-35.15147,-8.521038,45.12524,0,0,0,151.2791,-23.45871,-49.44146,-10.65202,-111.0878,-35.1035,0.001067912,-0.1257102,0.09433498,0,0.3,0,0,0,0,
6.38223E+17,51.92616,27.44601,35.39445,20.73459,-3.320631,91.92889,-4.570632,-0.4675641,0.1400836,-35.15147,-8.447793,45.05199,0,0,0,153.9618,-23.89207,-47.74194,-10.65202,-111.0878,-35.1035,0.001067912,-0.1257102,0.09433498,0,0.3,0,0,0,0,
6.38223E+17,52.09107,25.529,37.47236,21.76003,-4.346064,89.87803,-4.570632,-0.4675641,0.1400836,-35.15147,-8.447793,45.12524,0,0,0,158.948,-25.01325,-44.57259,-10.65202,-111.0878,-35.1035,0.001067912,-0.1257102,0.09433498,0,0.3,0,0,0,0,
6.38223E+17,52.11464,23.44834,39.43353,23.15168,-5.371496,88.04691,-4.570632,-0.4675641,0.1400836,-35.15147,-8.447793,45.05199,0,0,0,163.404,-26.58157,-41.21045,-10.65202,-111.0878,-35.1035,0.001067912,-0.1257102,0.09433498,0,0.3,0,0,0,0,
6.38223E+17,52.11464,21.882,40.9978,24.25036,-5.884212,86.582,-4.570632,-0.4675641,0.1400836,-35.15147,-8.447793,45.05199,0,0,0,166.7068,-27.59484,-38.64068,-10.65202,-111.0878,-35.1035,0.001067912,-0.1257102,0.09433498,0,0.3,0,0,0,0,
6.38223E+17,52.11464,20.0585,42.98232,25.64202,-6.543418,85.41007,-4.570632,-0.4675641,0.1400836,-35.15147,-8.447793,45.05199,0,0,0,170.6148,-28.46778,-35.6,-10.65202,-111.0878,-35.1035,0.001067912,-0.1257102,0.09433498,0,0.3,0,0,0,0,
6.38223E+17,52.11464,17.51027,45.45713,27.47315,-7.715342,84.01842,-4.570632,-0.4675641,0.1400836,-35.15147,-8.447793,45.05199,0,0,0,175.3796,-30.06547,-31.89267,-10.65202,-111.0878,-35.1035,0.001067912,-0.1257102,0.09433498,0,0.3,0,0,0,0,
6.38223E+17,52.11464,14.54124,48.02533,29.23104,-8.960509,82.18729,-4.570632,-0.4675641,0.1400836,-35.15147,-8.447793,45.05199,0,0,0,180.1176,-32.35366,-28.20616,-10.65202,-111.0878,-35.1035,0.001067912,-0.1257102,0.09433498,0,0.3,0,0,0,0,
6.38223E+17,51.87903,11.43194,50.47679,30.91567,-10.20568,79.98994,-4.570632,-0.4675641,0.1400836,-35.15147,-8.521038,45.12524,0,0,0,183.7487,-35.08223,-24.16402,-10.65202,-111.0878,-35.1035,0.001067912,-0.1257102,0.09433498,0,0.3,0,0,0,0,
6.38223E+17,51.29004,9.023986,52.1111,31.79461,-11.3776,78.01232,-4.570632,-0.4675641,0.1400836,-35.15147,-8.521038,45.05199,0,0,0,184.8892,-37.62888,-20.17302,-10.65202,-111.0878,-35.1035,0.001067912,-0.1257102,0.09433498,0,0.3,0,0,0,0,
6.38223E+17,50.93663,7.925211,52.71812,32.01435,-12.03681,77.06013,-4.570632,-0.4675641,0.1400836,-35.15147,-8.447793,45.05199,0,0,0,184.9334,-39.03864,-18.25492,-10.65202,-111.0878,-35.1035,0.001067912,-0.1257102,0.09433498,0,0.3,0,0,0,0,
6.38223E+17,50.3712,6.101711,52.97495,32.16084,-13.13548,75.81496,-4.570632,-0.4675641,0.1400836,-35.15147,-8.447793,45.05199,0,0,0,184.1203,-42.77432,-15.87644,-10.65202,-111.0878,-35.1035,0.001067912,-0.1257102,0.09433498,0,0.3,0,0,0,0,
6.38223E+17,49.47592,3.857404,52.9049,32.08759,-13.72145,75.229,-4.570632,-0.4675641,0.1400836,-35.15147,-8.447793,45.05199,0,0,0,181.9854,-48.10775,-12.78745,-10.65202,-111.0878,-35.1035,0.001067912,-0.1257102,0.09433498,0,0.3,0,0,0,0,
6.38223E+17,47.61468,1.16891,52.41461,31.2819,-13.79469,75.00926,-4.570632,-0.4675641,0.1400836,-35.15147,-8.447793,45.05199,0,0,0,176.5283,-55.26558,-7.24045,-10.65202,-111.0878,-35.1035,0.001067912,-0.1257102,0.09433498,0,0.3,0,0,0,0,
6.38223E+17,45.75344,-0.07013461,51.10716,29.59726,-13.28197,75.00926,-4.570632,-0.4675641,0.1400836,-35.15147,-8.447793,45.05199,0,0,0,169.8731,-60.53913,-2.886813,-10.65202,-111.0878,-35.1035,0.001067912,-0.1257102,0.09433498,0,0.3,0,0,0,0,
6.38223E+17,43.46813,-0.5844551,48.7024,27.32666,-12.1833,76.47417,-4.570632,-0.4675641,0.1400836,-35.15147,-8.447793,45.05199,0,0,0,160.6557,-66.01727,1.134486,-10.65202,-111.0878,-35.1035,0.001067912,-0.1257102,0.09433498,0,0.3,0,0,0,0,
6.38223E+17,40.61737,-0.6078333,45.85403,24.4701,-10.35217,79.55046,-4.570632,-0.4675641,0.1400836,-35.15147,-8.521038,45.05199,0,0,0,149.0996,-70.94141,5.500822,-10.65202,-111.0878,-35.1035,0.001067912,-0.1257102,0.09433498,0,0.3,0,0,0,0,
6.38223E+17,38.52053,-0.6078333,43.93955,22.27274,-8.814018,82.33378,-4.570632,-0.4675641,0.1400836,-35.15147,-8.521038,45.12524,0,0,0,140.6732,-74.08628,8.370378,-10.65202,-111.0878,-35.1035,0.001067912,-0.1257102,0.09433498,0,0.3,0,0,0,0,
6.38223E+17,35.90538,-0.7714807,41.95504,19.34294,-7.202625,85.62981,-4.570632,-0.4675641,0.1400836,-35.15147,-8.447793,45.05199,0,0,0,130.4781,-77.61385,11.86284,-10.65202,-111.0878,-35.1035,0.001067912,-0.1257102,0.09433498,0,0.3,0,0,0,0,
6.38223E+17,34.63314,-0.8883717,41.25462,17.73154,-6.470173,87.16796,-4.570632,-0.4675641,0.1400836,-35.15147,-8.447793,45.12524,0,0,0,125.7497,-78.96826,13.70923,-10.65202,-111.0878,-35.1035,0.001067912,-0.1257102,0.09433498,0,0.3,0,0,0,0,
6.38223E+17,31.61747,-0.9585064,39.85378,12.97061,-4.85878,91.48943,-4.570632,-0.4675641,0.1400836,-35.22471,-8.521038,45.05199,0,0,0,114.6976,-81.25116,17.96106,-10.65202,-111.0878,-35.1035,0.001067912,-0.1257102,0.09433498,0,0.3,0,0,0,0,
6.38223E+17,30.88711,-0.9585064,39.62031,11.65219,-4.272818,92.88109,-4.570632,-0.4675641,0.1400836,-35.15147,-8.447793,45.05199,0,0,0,112.0989,-81.59853,19.04935,-10.65202,-111.0878,-35.1035,0.001067912,-0.1257102,0.09433498,0,0.3,0,0,0,0,
6.38223E+17,29.70911,-0.9585064,39.29345,9.381593,-3.174141,95.29817,-4.570632,-0.4675641,0.1400836,-35.15147,-8.447793,45.05199,0,0,0,107.9315,-82.08197,20.80417,-10.65202,-111.0878,-35.1035,0.001067912,-0.1257102,0.09433498,0,0.3,0,0,0,0,
6.38223E+17,28.50755,-0.8649935,38.96659,7.184238,-1.928973,97.05606,-4.570632,-0.4675641,0.1400836,-35.15147,-8.447793,45.05199,0,0,0,103.6613,-82.34444,22.51034,-10.65202,-111.0878,-35.1035,0.001067912,-0.1257102,0.09433498,0,0.3,0,0,0,0,
6.38223E+17,26.88192,-0.7948589,37.75253,4.327676,-0.6838052,98.22798,-4.570632,-0.4675641,0.1400836,-35.15147,-8.521038,45.05199,0,0,0,97.20435,-83.93475,23.40021,-10.65202,-111.0878,-35.1035,0.001067912,-0.1257102,0.09433498,0,0.3,0,0,0,0,
6.38223E+17,25.84528,-0.7948589,36.81864,2.643037,0.268382,98.66745,-4.570632,-0.4675641,0.1400836,-35.15147,-8.447793,45.05199,0,0,0,92.96546,-85.25143,23.5711,-10.65202,-111.0878,-35.1035,0.001067912,-0.1257102,0.09433498,0,0.3,0,0,0,0,
6.38223E+17,23.96048,-0.7247244,35.88475,0.07945653,1.586795,99.25342,-4.570632,-0.4675641,0.1400836,-35.15147,-8.521038,45.05199,0,0,0,85.89286,-86.37654,24.92719,-10.65202,-111.0878,-35.1035,0.001067912,-0.1257102,0.09433498,0,0.3,0,0,0,0,
6.38223E+17,23.0652,-0.6078333,35.4178,-1.238957,2.172756,99.61964,-4.570632,-0.4675641,0.1400836,-35.15147,-8.447793,45.12524,0,0,0,82.5177,-86.73793,25.43609,-10.65202,-111.0878,-35.1035,0.001067912,-0.1257102,0.09433498,0,0.3,0,0,0,0,
6.38223E+17,20.30869,0.1402692,33.03638,-5.560421,4.443357,101.7438,-4.570632,-0.4675641,0.1400836,-35.22471,-8.447793,45.05199,0,0,0,71.51477,-88.11412,24.8895,-10.65202,-111.0878,-35.1035,0.001067912,-0.1257102,0.09433498,0,0.3,0,0,0,0,
6.38223E+17,19.15425,0.5844551,32.33596,-6.952079,5.249053,102.403,-4.570632,-0.4675641,0.1400836,-35.15147,-8.447793,45.12524,0,0,0,67.15467,-87.96069,24.9889,-10.65202,-111.0878,-35.1035,0.001067912,-0.1257102,0.09433498,0,0.3,0,0,0,0,
6.38223E+17,16.63333,1.659852,31.07521,-10.24811,6.787202,103.2087,-4.570632,-0.4675641,0.1400836,-35.15147,-8.447793,45.05199,0,0,0,57.85725,-87.00041,25.31671,-10.65202,-111.0878,-35.1035,0.001067912,-0.1257102,0.09433498,0,0.3,0,0,0,0,
6.38223E+17,14.08886,3.062545,30.18801,-14.20335,8.105616,103.6481,-4.570632,-0.4675641,0.1400836,-35.15147,-8.447793,45.05199,0,0,0,48.73716,-84.79071,25.84061,-10.65202,-111.0878,-35.1035,0.001067912,-0.1257102,0.09433498,0,0.3,0,0,0,0,
6.38223E+17,10.7669,5.166583,29.41755,-17.93885,9.570518,108.1893,-4.570632,-0.4675641,0.1400836,-35.15147,-8.447793,45.05199,0,0,0,37.04627,-80.7979,26.46471,-10.65202,-111.0878,-35.1035,0.001067912,-0.1257102,0.09433498,0,0.3,0,0,0,0,
6.38223E+17,8.717185,5.751038,29.51094,-19.25727,10.00999,112.1446,-4.570632,-0.4675641,0.1400836,-35.15147,-8.521038,45.05199,0,0,0,30.06376,-79.33691,27.72423,-10.65202,-111.0878,-35.1035,0.001067912,-0.1257102,0.09433498,0,0.3,0,0,0,0,
6.38223E+17,5.583711,6.358871,30.30475,-21.60111,10.44946,116.6858,-4.570632,-0.4675641,0.1400836,-35.15147,-8.521038,45.05199,0,0,0,19.44227,-77.00896,30.51978,-10.65202,-111.0878,-35.1035,0.001067912,-0.1257102,0.09433498,0,0.3,0,0,0,0,
6.38223E+17,3.345515,7.481025,31.1686,-24.67741,10.6692,118.8099,-4.570632,-0.4675641,0.1400836,-35.15147,-8.447793,45.12524,0,0,0,11.74327,-73.38879,32.53836,-10.65202,-111.0878,-35.1035,0.001067912,-0.1257102,0.09433498,0,0.3,0,0,0,0,
6.38223E+17,1.884797,9.164255,31.65889,-27.75371,10.88893,119.6888,-4.570632,-0.4675641,0.1400836,-35.15147,-8.447793,45.05199,0,0,0,6.631874,-68.91788,33.17903,-10.65202,-111.0878,-35.1035,0.001067912,-0.1257102,0.09433498,0,0.3,0,0,0,0,
6.38223E+17,0.9895183,10.68384,31.68224,-29.51159,11.25516,120.4945,-4.570632,-0.4675641,0.1400836,-35.15147,-8.447793,45.05199,0,0,0,3.472461,-65.40569,32.69488,-10.65202,-111.0878,-35.1035,0.001067912,-0.1257102,0.09433498,0,0.3,0,0,0,0,
6.38223E+17,0.4476392,11.45532,31.68224,-30.31729,11.54814,120.8607,-4.570632,-0.4675641,0.1400836,-35.15147,-8.447793,45.05199,0,0,0,1.568244,-63.64357,32.374,-10.65202,-111.0878,-35.1035,0.001067912,-0.1257102,0.09433498,0,0.3,0,0,0,0,
6.38223E+17,-0.7067988,12.83463,31.68224,-31.78219,12.1341,121.0805,-4.570632,-0.4675641,0.1400836,-35.15147,-8.447793,45.05199,0,0,0,-2.467806,-60.50529,31.68954,-10.65202,-111.0878,-35.1035,0.001067912,-0.1257102,0.09433498,0,0.3,0,0,0,0,
6.38223E+17,-2.120397,14.09706,31.68224,-33.46683,12.72006,121.1537,-4.570632,-0.4675641,0.1400836,-35.15147,-8.447793,45.05199,0,0,0,-7.376602,-57.64796,30.88406,-10.65202,-111.0878,-35.1035,0.001067912,-0.1257102,0.09433498,0,0.3,0,0,0,0,
6.38223E+17,-3.510434,14.98543,31.68224,-35.00498,13.15953,121.4467,-4.570632,-0.4675641,0.1400836,-35.15147,-8.447793,45.05199,0,0,0,-12.17574,-55.64662,30.12834,-10.65202,-111.0878,-35.1035,0.001067912,-0.1257102,0.09433498,0,0.3,0,0,0,0,
6.38223E+17,-4.853352,15.47637,31.79898,-36.61637,13.45251,121.7397,-4.570632,-0.4675641,0.1400836,-35.15147,-8.447793,45.12524,0,0,0,-16.81812,-54.40121,29.7196,-10.65202,-111.0878,-35.1035,0.001067912,-0.1257102,0.09433498,0,0.3,0,0,0,0,
6.38223E+17,-6.00779,15.68677,32.10249,-37.93478,13.74549,122.6186,-4.570632,-0.4675641,0.1400836,-35.22471,-8.521038,45.05199,0,0,0,-20.85426,-53.55569,29.80583,-10.65202,-111.0878,-35.1035,0.001067912,-0.1257102,0.09433498,0,0.3,0,0,0,0,
6.38223E+17,-7.444948,15.68677,32.54609,-38.96022,13.81874,124.5962,-4.570632,-0.4675641,0.1400836,-35.15147,-8.447793,45.12524,0,0,0,-25.93059,-53.00364,30.08555,-10.65202,-111.0878,-35.1035,0.001067912,-0.1257102,0.09433498,0,0.3,0,0,0,0,
6.38223E+17,-8.387346,15.68677,33.05973,-39.39969,13.67225,125.5484,-4.570632,-0.4675641,0.1400836,-35.15147,-8.447793,45.05199,0,0,0,-29.33736,-52.35601,30.62629,-10.65202,-111.0878,-35.1035,0.001067912,-0.1257102,0.09433498,0,0.3,0,0,0,0,
6.38223E+17,-9.706704,15.6634,33.87688,-40.49837,13.30602,126.3541,-4.570632,-0.4675641,0.1400836,-35.15147,-8.447793,45.05199,0,0,0,-34.181,-51.35959,31.4763,-10.65202,-111.0878,-35.1035,0.001067912,-0.1257102,0.09433498,0,0.3,0,0,0,0,
6.38223E+17,-10.24858,15.5465,34.04031,-41.23082,13.15953,126.4274,-4.570632,-0.4675641,0.1400836,-35.15147,-8.447793,45.05199,0,0,0,-36.13847,-51.40914,31.52658,-10.65202,-111.0878,-35.1035,0.001067912,-0.1257102,0.09433498,0,0.3,0,0,0,0,
6.38223E+17,-11.02606,14.44773,33.6901,-43.20844,13.30602,126.5739,-4.570632,-0.4675641,0.1400836,-35.15147,-8.447793,45.05199,0,0,0,-38.84442,-54.33348,31.00303,-10.65202,-111.0878,-35.1035,0.001067912,-0.1257102,0.09433498,0,0.3,0,0,0,0,
6.38223E+17,-11.04962,13.91003,33.50333,-43.50142,13.37927,126.5739,-4.570632,-0.4675641,0.1400836,-35.15147,-8.447793,45.05199,0,0,0,-38.91574,-55.78733,30.93252,-10.65202,-111.0878,-35.1035,0.001067912,-0.1257102,0.09433498,0,0.3,0,0,0,0,
6.38223E+17,-11.19098,13.02166,33.12977,-43.35493,13.67225,127.1598,-4.570632,-0.4675641,0.1400836,-35.15147,-8.447793,45.05199,0,0,0,-39.35973,-58.2756,30.5955,-10.65202,-111.0878,-35.1035,0.001067912,-0.1257102,0.09433498,0,0.3,0,0,0,0,
6.38223E+17,-11.28522,11.80599,32.54609,-43.13519,13.89198,127.5261,-4.570632,-0.4675641,0.1400836,-35.15147,-8.521038,45.05199,0,0,0,-39.58256,-61.77538,30.00763,-10.65202,-111.0878,-35.1035,0.001067912,-0.1257102,0.09433498,0,0.3,0,0,0,0,
6.38223E+17,-11.14386,10.1929,32.0091,-42.76897,14.33146,127.5993,-4.570632,-0.4675641,0.1400836,-35.22471,-8.521038,45.05199,0,0,0,-39.02728,-66.12801,29.77075,-10.65202,-111.0878,-35.1035,0.001067912,-0.1257102,0.09433498,0,0.3,0,0,0,0,
6.38223E+17,-10.81402,9.63182,31.65889,-42.40274,14.69768,127.6725,-4.570632,-0.4675641,0.1400836,-35.15147,-8.521038,45.05199,0,0,0,-37.79835,-67.84428,29.53276,-10.65202,-111.0878,-35.1035,0.001067912,-0.1257102,0.09433498,0,0.3,0,0,0,0,
6.38223E+17,-10.43706,9.164255,31.30868,-41.89003,15.13715,127.5993,-4.570632,-0.4675641,0.1400836,-35.15147,-8.447793,45.05199,0,0,0,-36.40191,-69.34355,29.26833,-10.65202,-111.0878,-35.1035,0.001067912,-0.1257102,0.09433498,0,0.3,0,0,0,0,
6.38223E+17,-10.08366,8.603179,31.28534,-41.59705,15.50338,127.5993,-4.570632,-0.4675641,0.1400836,-35.15147,-8.447793,45.05199,0,0,0,-35.20949,-70.66196,29.64193,-10.65202,-111.0878,-35.1035,0.001067912,-0.1257102,0.09433498,0,0.3,0,0,0,0,
6.38223E+17,-9.400424,7.55116,31.05186,-41.45055,15.79636,127.5261,-4.570632,-0.4675641,0.1400836,-35.15147,-8.447793,45.05199,0,0,0,-32.82629,-73.36733,29.92841,-10.65202,-111.0878,-35.1035,0.001067912,-0.1257102,0.09433498,0,0.3,0,0,0,0,
6.38223E+17,-8.458026,6.569275,30.63161,-40.79135,15.8696,127.5261,-4.570632,-0.4675641,0.1400836,-35.15147,-8.447793,45.05199,0,0,0,-29.47851,-76.13665,29.88868,-10.65202,-111.0878,-35.1035,0.001067912,-0.1257102,0.09433498,0,0.3,0,0,0,0,
6.38223E+17,-8.010387,6.078333,30.37479,-40.35188,15.8696,127.4528,-4.570632,-0.4675641,0.1400836,-35.15147,-8.521038,45.05199,0,0,0,-27.87461,-77.57571,29.72759,-10.65202,-111.0878,-35.1035,0.001067912,-0.1257102,0.09433498,0,0.3,0,0,0,0,
6.38223E+17,-7.374268,4.979557,30.14132,-39.47293,16.08934,127.4528,-4.570632,-0.4675641,0.1400836,-35.15147,-8.447793,45.05199,0,0,0,-25.64519,-80.39486,29.80372,-10.65202,-111.0878,-35.1035,0.001067912,-0.1257102,0.09433498,0,0.3,0,0,0,0,
6.38223E+17,-6.997309,3.576865,30.09463,-38.96022,16.23583,126.3541,-4.570632,-0.4675641,0.1400836,-35.15147,-8.447793,45.05199,0,0,0,-24.35917,-83.70483,30.11657,-10.65202,-111.0878,-35.1035,0.001067912,-0.1257102,0.09433498,0,0.3,0,0,0,0,
6.38223E+17,-6.643909,2.314442,30.11797,-38.66724,16.38232,125.3287,-4.570632,-0.4675641,0.1400836,-35.15147,-8.447793,45.12524,0,0,0,-23.15748,-86.6118,30.45971,-10.65202,-111.0878,-35.1035,0.001067912,-0.1257102,0.09433498,0,0.3,0,0,0,0,
6.38223E+17,-6.408309,1.052019,30.11797,-38.22777,16.60205,125.0357,-4.570632,-0.4675641,0.1400836,-35.15147,-8.447793,45.12524,0,0,0,-22.34942,-89.54863,30.63901,-10.65202,-111.0878,-35.1035,0.001067912,-0.1257102,0.09433498,0,0.3,0,0,0,0,
6.38223E+17,-6.19627,-0.1870256,30.14132,-37.93478,16.52881,124.9625,-4.570632,-0.4675641,0.1400836,-35.15147,-8.447793,45.05199,0,0,0,-21.62027,-92.40497,30.78872,-10.65202,-111.0878,-35.1035,0.001067912,-0.1257102,0.09433498,0,0.3,0,0,0,0,
6.38223E+17,-5.748631,-1.005263,29.93119,-37.71505,16.60205,124.3033,-4.570632,-0.4675641,0.1400836,-35.15147,-8.521038,45.05199,0,0,0,-20.01941,-94.554,30.5106,-10.65202,-111.0878,-35.1035,0.001067912,-0.1257102,0.09433498,0,0.3,0,0,0,0,
6.38223E+17,-5.465911,-1.005263,29.53429,-37.71505,16.6753,123.7173,-4.570632,-0.4675641,0.1400836,-35.15147,-8.447793,45.05199,0,0,0,-18.96151,-95.01214,29.80848,-10.65202,-111.0878,-35.1035,0.001067912,-0.1257102,0.09433498,0,0.3,0,0,0,0,
6.38223E+17,-5.018272,-1.005263,29.20743,-37.6418,16.74854,123.1313,-4.570632,-0.4675641,0.1400836,-35.15147,-8.447793,45.05199,0,0,0,-17.35478,-95.38525,29.29016,-10.65202,-111.0878,-35.1035,0.001067912,-0.1257102,0.09433498,0,0.3,0,0,0,0,
6.38223E+17,-4.641313,-1.005263,29.13739,-37.49532,16.6753,122.7651,-4.570632,-0.4675641,0.1400836,-35.15147,-8.521038,45.05199,0,0,0,-16.04259,-95.46471,29.25819,-10.65202,-111.0878,-35.1035,0.001067912,-0.1257102,0.09433498,0,0.3,0,0,0,0,
6.38223E+17,-3.510434,-1.005263,28.74048,-36.76286,17.11477,122.4721,-4.570632,-0.4675641,0.1400836,-35.15147,-8.447793,45.12524,0,0,0,-12.08992,-95.91169,28.72943,-10.65202,-111.0878,-35.1035,0.001067912,-0.1257102,0.09433498,0,0.3,0,0,0,0,
6.38223E+17,-3.062795,-0.9818845,28.67044,-36.46988,17.33451,122.1791,-4.570632,-0.4675641,0.1400836,-35.15147,-8.447793,45.05199,0,0,0,-10.54224,-95.93559,28.67603,-10.65202,-111.0878,-35.1035,0.001067912,-0.1257102,0.09433498,0,0.3,0,0,0,0,
6.38223E+17,-1.955477,-0.9818845,28.53036,-35.95716,17.62749,121.5199,-4.570632,-0.4675641,0.1400836,-35.15147,-8.447793,45.12524,0,0,0,-6.722946,-96.09165,28.55689,-10.65202,-111.0878,-35.1035,0.001067912,-0.1257102,0.09433498,0,0.3,0,0,0,0,
6.38223E+17,-0.588999,-0.9818845,28.36693,-34.93173,17.92047,120.934,-4.570632,-0.4675641,0.1400836,-35.22471,-8.521038,45.05199,0,0,0,-2.021903,-96.27285,28.3268,-10.65202,-111.0878,-35.1035,0.001067912,-0.1257102,0.09433498,0,0.3,0,0,0,0,
6.38223E+17,1.013078,-0.9818845,28.08676,-33.02736,18.1402,120.7142,-4.570632,-0.4675641,0.1400836,-35.15147,-8.447793,45.05199,0,0,0,3.467396,-96.58125,27.73202,-10.65202,-111.0878,-35.1035,0.001067912,-0.1257102,0.09433498,0,0.3,0,0,0,0,
6.38223E+17,1.672757,-0.9818845,27.99337,-32.07517,17.99371,120.348,-4.570632,-0.4675641,0.1400836,-35.15147,-8.447793,45.05199,0,0,0,5.71912,-96.68343,27.48734,-10.65202,-111.0878,-35.1035,0.001067912,-0.1257102,0.09433498,0,0.3,0,0,0,0,
6.38223E+17,2.591596,-0.9818845,27.94668,-31.19623,17.62749,119.3226,-4.570632,-0.4675641,0.1400836,-35.15147,-8.447793,45.05199,0,0,0,8.854506,-96.7344,27.27456,-10.65202,-111.0878,-35.1035,0.001067912,-0.1257102,0.09433498,0,0.3,0,0,0,0,
6.38223E+17,3.581114,-1.005263,27.94668,-30.39053,17.26126,118.2972,-4.570632,-0.4675641,0.1400836,-35.15147,-8.447793,45.05199,0,0,0,12.23146,-96.7888,27.09153,-10.65202,-111.0878,-35.1035,0.001067912,-0.1257102,0.09433498,0,0.3,0,0,0,0,
6.38223E+17,4.452833,-1.005263,28.11011,-29.65808,16.74854,117.8577,-4.570632,-0.4675641,0.1400836,-35.15147,-8.447793,45.12524,0,0,0,15.22952,-96.61006,27.21757,-10.65202,-111.0878,-35.1035,0.001067912,-0.1257102,0.09433498,0,0.3,0,0,0,0,
6.38223E+17,4.994712,-1.005263,28.22684,-29.07212,16.52881,117.345,-4.570632,-0.4675641,0.1400836,-35.15147,-8.521038,45.05199,0,0,0,17.09926,-96.4818,27.3034,-10.65202,-111.0878,-35.1035,0.001067912,-0.1257102,0.09433498,0,0.3,0,0,0,0,
6.38223E+17,5.136071,-1.005263,28.34358,-28.85239,16.38232,116.9788,-4.570632,-0.4675641,0.1400836,-35.22471,-8.521038,45.05199,0,0,0,17.60334,-96.35306,27.4989,-10.65202,-111.0878,-35.1035,0.001067912,-0.1257102,0.09433498,0,0.3,0,0,0,0,
6.38223E+17,5.159632,-0.9818845,28.46032,-28.92563,16.08934,116.0266,-4.570632,-0.4675641,0.1400836,-35.15147,-8.447793,45.05199,0,0,0,17.70545,-96.16943,27.73061,-10.65202,-111.0878,-35.1035,0.001067912,-0.1257102,0.09433498,0,0.3,0,0,0,0,
6.38223E+17,5.206751,-1.005263,28.43697,-29.3651,15.8696,114.9279,-4.570632,-0.4675641,0.1400836,-35.15147,-8.447793,45.05199,0,0,0,17.86228,-96.24971,27.66746,-10.65202,-111.0878,-35.1035,0.001067912,-0.1257102,0.09433498,0,0.3,0,0,0,0,
6.38223E+17,5.65439,-1.005263,28.39028,-29.80457,15.64987,114.0489,-4.570632,-0.4675641,0.1400836,-35.22471,-8.447793,45.05199,0,0,0,19.38374,-96.30142,27.42681,-10.65202,-111.0878,-35.1035,0.001067912,-0.1257102,0.09433498,0,0.3,0,0,0,0,
6.38223E+17,6.573229,-1.005263,28.29689,-29.43835,15.50338,113.6827,-4.570632,-0.4675641,0.1400836,-35.15147,-8.447793,45.05199,0,0,0,22.49884,-96.40462,26.90075,-10.65202,-111.0878,-35.1035,0.001067912,-0.1257102,0.09433498,0,0.3,0,0,0,0,
6.38223E+17,7.774787,-1.005263,28.29689,-28.63265,15.43013,113.2432,-4.570632,-0.4675641,0.1400836,-35.15147,-8.447793,45.05199,0,0,0,26.58822,-96.40462,26.38603,-10.65202,-111.0878,-35.1035,0.001067912,-0.1257102,0.09433498,0,0.3,0,0,0,0,
6.38223E+17,9.541784,-1.005263,28.01672,-27.31424,15.57662,112.2911,-4.570632,-0.4675641,0.1400836,-35.15147,-8.521038,45.05199,0,0,0,32.48497,-96.71231,24.90664,-10.65202,-111.0878,-35.1035,0.001067912,-0.1257102,0.09433498,0,0.3,0,0,0,0,
6.38223E+17,10.57842,-1.005263,27.68986,-26.50854,15.57662,111.1191,-4.570632,-0.4675641,0.1400836,-35.15147,-8.447793,45.05199,0,0,0,35.85253,-97.06773,23.62613,-10.65202,-111.0878,-35.1035,0.001067912,-0.1257102,0.09433498,0,0.3,0,0,0,0,
6.38223E+17,11.8271,-1.005263,27.19957,-25.6296,15.43013,109.2148,-4.570632,-0.4675641,0.1400836,-35.15147,-8.447793,45.05199,0,0,0,39.81997,-97.59366,21.80807,-10.65202,-111.0878,-35.1035,0.001067912,-0.1257102,0.09433498,0,0.3,0,0,0,0,
6.38223E+17,12.43966,-1.005263,26.96609,-25.33662,15.35689,107.8963,-4.570632,-0.4675641,0.1400836,-35.15147,-8.447793,45.12524,0,0,0,41.74645,-97.84105,20.89905,-10.65202,-111.0878,-35.1035,0.001067912,-0.1257102,0.09433498,0,0.3,0,0,0,0,
6.38223E+17,14.96058,-1.005263,26.17229,-24.75066,15.06391,103.2819,-4.570632,-0.4675641,0.1400836,-35.15147,-8.447793,45.05199,0,0,0,49.60342,-98.6674,17.28334,-10.65202,-111.0878,-35.1035,0.001067912,-0.1257102,0.09433498,0,0.3,0,0,0,0,
6.38223E+17,15.85585,-1.005263,25.91546,-24.38443,14.99066,101.9635,-4.570632,-0.4675641,0.1400836,-35.15147,-8.447793,45.05199,0,0,0,52.35115,-98.92983,15.96904,-10.65202,-111.0878,-35.1035,0.001067912,-0.1257102,0.09433498,0,0.3,0,0,0,0,
6.38223E+17,17.64641,-1.005263,25.47187,-23.28575,14.84417,99.83938,-4.570632,-0.4675641,0.1400836,-35.15147,-8.521038,45.05199,0,0,0,57.8028,-99.37745,13.35671,-10.65202,-111.0878,-35.1035,0.001067912,-0.1257102,0.09433498,0,0.3,0,0,0,0,
6.38223E+17,19.50765,-1.005263,25.00492,-21.96734,14.69768,97.86176,-4.570632,-0.4675641,0.1400836,-35.15147,-8.521038,45.05199,0,0,0,63.3457,-99.84083,10.45687,-10.65202,-111.0878,-35.1035,0.001067912,-0.1257102,0.09433498,0,0.3,0,0,0,0,
6.38223E+17,21.93432,-1.005263,24.49128,-19.98972,14.47795,95.15169,-4.570632,-0.4675641,0.1400836,-35.15147,-8.447793,45.05199,0,0,0,70.45418,-100.3413,6.60735,-10.65202,-111.0878,-35.1035,0.001067912,-0.1257102,0.09433498,0,0.3,0,0,0,0,
6.38223E+17,23.25368,-1.005263,24.25781,-18.96429,14.4047,93.76003,-4.570632,-0.4675641,0.1400836,-35.15147,-8.447793,45.12524,0,0,0,74.26851,-100.5655,4.484009,-10.65202,-111.0878,-35.1035,0.001067912,-0.1257102,0.09433498,0,0.3,0,0,0,0,
6.38223E+17,25.3034,-1.005263,23.74417,-17.42614,14.47795,91.63592,-4.570632,-0.4675641,0.1400836,-35.15147,-8.521038,45.05199,0,0,0,79.93591,-101.0518,0.7297843,-10.65202,-111.0878,-35.1035,0.001067912,-0.1257102,0.09433498,0,0.3,0,0,0,0,
6.38223E+17,27.47091,-1.005263,23.18383,-15.88799,14.4047,89.58505,-4.570632,-0.4675641,0.1400836,-35.15147,-8.447793,45.12524,0,0,0,85.72169,-101.571,-3.475859,-10.65202,-111.0878,-35.1035,0.001067912,-0.1257102,0.09433498,0,0.3,0,0,0,0,
6.38223E+17,29.96827,-1.005263,23.0671,-14.13011,13.96523,87.75392,-4.570632,-0.4675641,0.1400836,-35.15147,-8.447793,45.05199,0,0,0,92.69958,-101.6777,-7.584082,-10.65202,-111.0878,-35.1035,0.001067912,-0.1257102,0.09433498,0,0.3,0,0,0,0,
6.38223E+17,30.86355,-1.005263,23.04375,-13.39765,13.89198,87.24121,-4.570632,-0.4675641,0.1400836,-35.15147,-8.447793,45.05199,0,0,0,95.17457,-101.699,-9.095049,-10.65202,-111.0878,-35.1035,0.001067912,-0.1257102,0.09433498,0,0.3,0,0,0,0,
6.38223E+17,33.14886,-1.005263,22.92702,-11.49328,13.52576,85.77631,-4.570632,-0.4675641,0.1400836,-35.15147,-8.447793,45.05199,0,0,0,101.3125,-101.8051,-13.22628,-10.65202,-111.0878,-35.1035,0.001067912,-0.1257102,0.09433498,0,0.3,0,0,0,0,
6.38223E+17,35.5991,-0.9818845,23.09044,-9.36917,13.30602,84.09167,-4.570632,-0.4675641,0.1400836,-35.15147,-8.521038,45.05199,0,0,0,108.056,-101.602,-17.41394,-10.65202,-111.0878,-35.1035,0.001067912,-0.1257102,0.09433498,0,0.3,0,0,0,0,
6.38223E+17,38.12002,-0.9818845,23.41731,-7.171815,13.01304,82.48027,-4.570632,-0.4675641,0.1400836,-35.15147,-8.447793,45.05199,0,0,0,115.0217,-101.3017,-21.76289,-10.65202,-111.0878,-35.1035,0.001067912,-0.1257102,0.09433498,0,0.3,0,0,0,0,
6.38223E+17,40.38177,-0.9818845,23.65078,-5.120951,12.72006,80.64914,-4.570632,-0.4675641,0.1400836,-35.15147,-8.521038,45.05199,0,0,0,121.0399,-101.0847,-26.03691,-10.65202,-111.0878,-35.1035,0.001067912,-0.1257102,0.09433498,0,0.3,0,0,0,0,
6.38223E+17,42.45505,-0.9818845,24.07103,-3.289821,11.98761,78.08556,-4.570632,-0.4675641,0.1400836,-35.15147,-8.521038,45.12524,0,0,0,126.713,-100.6891,-29.84904,-10.65202,-111.0878,-35.1035,0.001067912,-0.1257102,0.09433498,0,0.3,0,0,0,0,
6.38223E+17,44.52832,-0.9818845,24.81814,-1.751673,10.88893,74.86278,-4.570632,-0.4675641,0.1400836,-35.15147,-8.447793,45.05199,0,0,0,132.7507,-99.96953,-33.39539,-10.65202,-111.0878,-35.1035,0.001067912,-0.1257102,0.09433498,0,0.3,0,0,0,0,
6.38223E+17,47.04924,-0.9818845,25.79873,0.2259469,9.350782,71.27377,-4.570632,-0.4675641,0.1400836,-35.15147,-8.447793,45.05199,0,0,0,140.0682,-98.99392,-37.95916,-10.65202,-111.0878,-35.1035,0.001067912,-0.1257102,0.09433498,0,0.3,0,0,0,0,
6.38223E+17,48.53352,-0.9818845,26.49915,1.69085,8.471841,68.92992,-4.570632,-0.4675641,0.1400836,-35.15147,-8.447793,45.05199,0,0,0,144.4952,-98.27551,-40.66207,-10.65202,-111.0878,-35.1035,0.001067912,-0.1257102,0.09433498,0,0.3,0,0,0,0,
6.38223E+17,49.311,-0.9818845,26.98944,2.496547,7.959125,67.6115,-4.570632,-0.4675641,0.1400836,-35.15147,-8.447793,45.05199,0,0,0,146.9872,-97.762,-41.97014,-10.65202,-111.0878,-35.1035,0.001067912,-0.1257102,0.09433498,0,0.3,0,0,0,0,
6.38223E+17,50.67748,-0.9818845,27.94668,3.888205,6.860447,65.26765,-4.570632,-0.4675641,0.1400836,-35.15147,-8.447793,45.05199,0,0,0,151.4884,-96.7344,-44.25872,-10.65202,-111.0878,-35.1035,0.001067912,-0.1257102,0.09433498,0,0.3,0,0,0,0,
6.38223E+17,52.06751,-0.9818845,29.18408,5.279863,6.05475,63.50977,-4.570632,-0.4675641,0.1400836,-35.15147,-8.447793,45.12524,0,0,0,156.449,-95.35735,-46.41525,-10.65202,-111.0878,-35.1035,0.001067912,-0.1257102,0.09433498,0,0.3,0,0,0,0,
6.38223E+17,53.29263,-0.9585064,30.53822,6.891257,5.468789,62.48434,-4.570632,-0.4675641,0.1400836,-35.15147,-8.447793,45.05199,0,0,0,161.2122,-93.7338,-48.15389,-10.65202,-111.0878,-35.1035,0.001067912,-0.1257102,0.09433498,0,0.3,0,0,0,0,
6.38223E+17,53.83451,-0.9351282,31.37873,7.623709,5.249053,62.19136,-4.570632,-0.4675641,0.1400836,-35.15147,-8.521038,45.05199,0,0,0,163.6967,-92.6731,-48.69347,-10.65202,-111.0878,-35.1035,0.001067912,-0.1257102,0.09433498,0,0.3,0,0,0,0,
6.38223E+17,54.80047,-0.8182371,32.98969,9.088613,4.443357,61.45891,-4.570632,-0.4675641,0.1400836,-35.15147,-8.447793,45.05199,0,0,0,168.287,-90.40409,-49.63867,-10.65202,-111.0878,-35.1035,0.001067912,-0.1257102,0.09433498,0,0.3,0,0,0,0,
6.38223E+17,55.29523,-0.7948589,34.71738,10.11404,3.63766,60.43347,-4.570632,-0.4675641,0.1400836,-35.15147,-8.521038,45.12524,0,0,0,172.0515,-88.10976,-49.19466,-10.65202,-111.0878,-35.1035,0.001067912,-0.1257102,0.09433498,0,0.3,0,0,0,0,
6.38223E+17,55.27167,-0.7948589,36.04818,10.33378,2.465737,58.89533,-4.570632,-0.4675641,0.1400836,-35.22471,-8.521038,45.05199,0,0,0,174.0779,-86.31636,-47.68537,-10.65202,-111.0878,-35.1035,0.001067912,-0.1257102,0.09433498,0,0.3,0,0,0,0,
6.38223E+17,55.27167,-0.7948589,37.28558,10.11404,1.51355,57.43042,-4.570632,-0.4675641,0.1400836,-35.15147,-8.447793,45.05199,0,0,0,175.9764,-84.59661,-46.36939,-10.65202,-111.0878,-35.1035,0.001067912,-0.1257102,0.09433498,0,0.3,0,0,0,0,
6.38223E+17,55.27167,-0.7948589,38.07939,10.11404,1.147324,56.91771,-4.570632,-0.4675641,0.1400836,-35.15147,-8.447793,45.05199,0,0,0,177.1781,-83.46727,-45.53644,-10.65202,-111.0878,-35.1035,0.001067912,-0.1257102,0.09433498,0,0.3,0,0,0,0,
6.38223E+17,55.27167,-0.7481025,39.13002,10.55352,0.707853,56.40499,-4.570632,-0.4675641,0.1400836,-35.15147,-8.447793,45.05199,0,0,0,178.7497,-81.83279,-44.44703,-10.65202,-111.0878,-35.1035,0.001067912,-0.1257102,0.09433498,0,0.3,0,0,0,0,
6.38223E+17,55.22455,-0.7481025,40.27403,11.21272,-0.171089,56.18526,-4.570632,-0.4675641,0.1400836,-35.22471,-8.447793,45.05199,0,0,0,180.3304,-80.13198,-43.13168,-10.65202,-111.0878,-35.1035,0.001067912,-0.1257102,0.09433498,0,0.3,0,0,0,0,
6.38223E+17,55.22455,-0.7481025,41.32466,11.57895,-1.196521,56.03876,-4.570632,-0.4675641,0.1400836,-35.15147,-8.447793,45.05199,0,0,0,181.8508,-78.53426,-42.07593,-10.65202,-111.0878,-35.1035,0.001067912,-0.1257102,0.09433498,0,0.3,0,0,0,0,
6.38223E+17,55.22455,-0.7481025,41.95504,11.72544,-1.928973,55.81903,-4.570632,-0.4675641,0.1400836,-35.15147,-8.447793,45.05199,0,0,0,182.7514,-77.55944,-41.45057,-10.65202,-111.0878,-35.1035,0.001067912,-0.1257102,0.09433498,0,0.3,0,0,0,0,
6.38223E+17,55.22455,-0.7481025,43.42591,11.87193,-3.393876,54.86684,-4.570632,-0.4675641,0.1400836,-35.15147,-8.447793,45.12524,0,0,0,184.8181,-75.23837,-40.01545,-10.65202,-111.0878,-35.1035,0.001067912,-0.1257102,0.09433498,0,0.3,0,0,0,0,
6.38223E+17,55.22455,-0.7481025,44.92014,11.94517,-4.85878,54.13439,-4.570632,-0.4675641,0.1400836,-35.15147,-8.447793,45.12524,0,0,0,186.8669,-72.81511,-38.59283,-10.65202,-111.0878,-35.1035,0.001067912,-0.1257102,0.09433498,0,0.3,0,0,0,0,
6.38223E+17,55.22455,-0.7247244,46.81127,11.94517,-6.250438,53.1822,-4.570632,-0.4675641,0.1400836,-35.15147,-8.447793,45.12524,0,0,0,189.3848,-69.60191,-36.84441,-10.65202,-111.0878,-35.1035,0.001067912,-0.1257102,0.09433498,0,0.3,0,0,0,0,
6.38223E+17,55.22455,-0.5376987,48.84248,12.09166,-7.715342,52.523,-4.570632,-0.4675641,0.1400836,-35.15147,-8.447793,45.05199,0,0,0,191.9956,-65.66325,-35.03152,-10.65202,-111.0878,-35.1035,0.001067912,-0.1257102,0.09433498,0,0.3,0,0,0,0,
6.38223E+17,55.22455,-0.2104038,51.01377,12.3114,-9.033754,52.15677,-4.570632,-0.4675641,0.1400836,-35.15147,-8.447793,45.05199,0,0,0,194.6717,-61.03465,-33.17332,-10.65202,-111.0878,-35.1035,0.001067912,-0.1257102,0.09433498,0,0.3,0,0,0,0,
6.38223E+17,55.22455,0.5143204,53.46524,12.82412,-10.71839,51.57081,-4.570632,-0.4675641,0.1400836,-35.15147,-8.447793,45.05199,0,0,0,197.5376,-54.83763,-31.18326,-10.65202,-111.0878,-35.1035,0.001067912,-0.1257102,0.09433498,0,0.3,0,0,0,0,
6.38223E+17,55.22455,1.192288,55.14624,13.19034,-12.11005,50.98485,-4.570632,-0.4675641,0.1400836,-35.15147,-8.447793,45.05199,0,0,0,199.3932,-50.08263,-29.89474,-10.65202,-111.0878,-35.1035,0.001067912,-0.1257102,0.09433498,0,0.3,0,0,0,0,
6.38223E+17,55.22455,1.659852,56.12683,13.41008,-12.98899,50.61862,-4.570632,-0.4675641,0.1400836,-35.15147,-8.447793,45.05199,0,0,0,200.4291,-47.11089,-29.17548,-10.65202,-111.0878,-35.1035,0.001067912,-0.1257102,0.09433498,0,0.3,0,0,0,0,
6.38223E+17,55.22455,2.852141,58.15804,13.92279,-14.74688,49.73968,-4.570632,-0.4675641,0.1400836,-35.15147,-8.447793,45.05199,0,0,0,202.446,-40.36721,-27.77494,-10.65202,-111.0878,-35.1035,0.001067912,-0.1257102,0.09433498,0,0.3,0,0,0,0,
6.38223E+17,55.22455,3.950917,60.35268,14.582,-16.87099,48.86074,-4.570632,-0.4675641,0.1400836,-35.15147,-8.521038,45.05199,0,0,0,204.4661,-33.42482,-26.37226,-10.65202,-111.0878,-35.1035,0.001067912,-0.1257102,0.09433498,0,0.3,0,0,0,0,
6.38223E+17,55.20099,5.026314,62.57067,15.3877,-19.14159,47.9818,-4.570632,-0.4675641,0.1400836,-35.15147,-8.447793,45.05199,0,0,0,206.2718,-26.39501,-24.99261,-10.65202,-111.0878,-35.1035,0.001067912,-0.1257102,0.09433498,0,0.3,0,0,0,0,
6.38223E+17,55.20099,6.265358,64.812,16.19339,-21.2657,46.80988,-4.570632,-0.4675641,0.1400836,-35.15147,-8.447793,45.05199,0,0,0,207.9373,-18.84945,-23.83516,-10.65202,-111.0878,-35.1035,0.001067912,-0.1257102,0.09433498,0,0.3,0,0,0,0,
6.38223E+17,55.20099,7.574538,66.72649,17.07234,-23.46305,45.63795,-4.570632,-0.4675641,0.1400836,-35.15147,-8.447793,45.05199,0,0,0,209.1374,-11.76172,-23.00107,-10.65202,-111.0878,-35.1035,0.001067912,-0.1257102,0.09433498,0,0.3,0,0,0,0,
6.38223E+17,55.20099,9.211012,68.87444,18.39075,-26.17312,44.02656,-4.570632,-0.4675641,0.1400836,-35.15147,-8.447793,45.05199,0,0,0,210.2319,-3.365628,-22.24043,-10.65202,-111.0878,-35.1035,0.001067912,-0.1257102,0.09433498,0,0.3,0,0,0,0,
6.38223E+17,55.20099,10.05263,70.11184,19.1232,-27.71127,43.14762,-4.570632,-0.4675641,0.1400836,-35.15147,-8.447793,45.05199,0,0,0,210.7912,1.262895,-21.8517,-10.65202,-111.0878,-35.1035,0.001067912,-0.1257102,0.09433498,0,0.3,0,0,0,0,
6.38223E+17,55.20099,11.1514,71.27921,20.00214,-29.46916,42.04893,-4.570632,-0.4675641,0.1400836,-35.15147,-8.521038,45.05199,0,0,0,211.1424,6.340601,-21.60763,-10.65202,-111.0878,-35.1035,0.001067912,-0.1257102,0.09433498,0,0.3,0,0,0,0,
6.38223E+17,55.10675,12.18004,72.30648,20.88108,-30.86081,41.17,-4.570632,-0.4675641,0.1400836,-35.15147,-8.447793,45.12524,0,0,0,211.1164,10.95633,-21.11012,-10.65202,-111.0878,-35.1035,0.001067912,-0.1257102,0.09433498,0,0.3,0,0,0,0,
6.38223E+17,54.87115,13.20868,73.33376,21.54029,-31.88625,40.51079,-4.570632,-0.4675641,0.1400836,-35.15147,-8.521038,45.12524,0,0,0,210.6565,15.57601,-20.13962,-10.65202,-111.0878,-35.1035,0.001067912,-0.1257102,0.09433498,0,0.3,0,0,0,0,
6.38223E+17,54.61199,14.30746,74.24431,21.97976,-32.6187,40.3643,-4.570632,-0.4675641,0.1400836,-35.15147,-8.447793,45.05199,0,0,0,209.9704,20.0948,-19.19789,-10.65202,-111.0878,-35.1035,0.001067912,-0.1257102,0.09433498,0,0.3,0,0,0,0,
6.38223E+17,54.44707,15.07894,74.64121,22.27274,-33.20466,40.29105,-4.570632,-0.4675641,0.1400836,-35.15147,-8.447793,45.12524,0,0,0,209.3713,22.72152,-18.71488,-10.65202,-111.0878,-35.1035,0.001067912,-0.1257102,0.09433498,0,0.3,0,0,0,0,
6.38223E+17,53.90519,16.52839,74.96807,22.63897,-34.01036,40.29105,-4.570632,-0.4675641,0.1400836,-35.15147,-8.447793,45.05199,0,0,0,207.3655,26.7015,-17.16522,-10.65202,-111.0878,-35.1035,0.001067912,-0.1257102,0.09433498,0,0.3,0,0,0,0,
6.38223E+17,52.86855,18.7727,75.01476,22.34599,-35.03579,40.65728,-4.570632,-0.4675641,0.1400836,-35.15147,-8.447793,45.05199,0,0,0,203.3562,31.78364,-14.37735,-10.65202,-111.0878,-35.1035,0.001067912,-0.1257102,0.09433498,0,0.3,0,0,0,0,
6.38223E+17,52.39735,19.75458,75.01476,21.90652,-35.62175,41.24324,-4.570632,-0.4675641,0.1400836,-35.15147,-8.447793,45.05199,0,0,0,201.4858,33.9409,-13.17021,-10.65202,-111.0878,-35.1035,0.001067912,-0.1257102,0.09433498,0,0.3,0,0,0,0,
6.38223E+17,51.64344,21.08714,75.01476,21.17406,-36.57394,42.26867,-4.570632,-0.4675641,0.1400836,-35.15147,-8.521038,45.05199,0,0,0,198.578,36.84732,-11.20399,-10.65202,-111.0878,-35.1035,0.001067912,-0.1257102,0.09433498,0,0.3,0,0,0,0,
6.38223E+17,51.10155,21.85862,74.96807,20.66135,-37.23314,43.14762,-4.570632,-0.4675641,0.1400836,-35.15147,-8.447793,45.05199,0,0,0,196.5495,38.41325,-9.763385,-10.65202,-111.0878,-35.1035,0.001067912,-0.1257102,0.09433498,0,0.3,0,0,0,0,
6.38223E+17,50.15916,22.67686,74.31435,19.56267,-37.81911,45.12524,-4.570632,-0.4675641,0.1400836,-35.15147,-8.521038,45.12524,0,0,0,193.0511,38.70845,-7.27263,-10.65202,-111.0878,-35.1035,0.001067912,-0.1257102,0.09433498,0,0.3,0,0,0,0,
6.38223E+17,49.80576,23.02753,73.9408,18.97671,-37.9656,46.07742,-4.570632,-0.4675641,0.1400836,-35.15147,-8.521038,45.05199,0,0,0,191.6301,38.62428,-6.442984,-10.65202,-111.0878,-35.1035,0.001067912,-0.1257102,0.09433498,0,0.3,0,0,0,0,
6.38223E+17,49.00472,24.33671,72.89016,17.21883,-37.89235,48.86074,-4.570632,-0.4675641,0.1400836,-35.15147,-8.447793,45.05199,0,0,0,187.8974,39.07114,-5.040427,-10.65202,-111.0878,-35.1035,0.001067912,-0.1257102,0.09433498,0,0.3,0,0,0,0,
6.38223E+17,48.20368,26.4875,71.20916,15.16796,-37.74586,51.64405,-4.570632,-0.4675641,0.1400836,-35.15147,-8.447793,45.05199,0,0,0,183.0957,39.8705,-4.664705,-10.65202,-111.0878,-35.1035,0.001067912,-0.1257102,0.09433498,0,0.3,0,0,0,0,
6.38223E+17,47.7796,27.70317,70.27527,14.14253,-37.59937,52.81598,-4.570632,-0.4675641,0.1400836,-35.15147,-8.447793,45.05199,0,0,0,180.394,40.33738,-4.661686,-10.65202,-111.0878,-35.1035,0.001067912,-0.1257102,0.09433498,0,0.3,0,0,0,0,
6.38223E+17,46.955,29.85397,68.59427,12.23815,-37.52613,54.57386,-4.570632,-0.4675641,0.1400836,-35.15147,-8.447793,45.05199,0,0,0,175.2541,41.0617,-4.66537,-10.65202,-111.0878,-35.1035,0.001067912,-0.1257102,0.09433498,0,0.3,0,0,0,0,
6.38223E+17,46.13041,31.93463,66.72649,10.40703,-37.45288,56.33175,-4.570632,-0.4675641,0.1400836,-35.15147,-8.521038,45.05199,0,0,0,169.8968,41.19628,-5.028229,-10.65202,-111.0878,-35.1035,0.001067912,-0.1257102,0.09433498,0,0.3,0,0,0,0,
6.38223E+17,45.30581,33.68799,64.60188,8.35616,-37.08665,58.01638,-4.570632,-0.4675641,0.1400836,-35.15147,-8.521038,45.05199,0,0,0,164.5085,40.12071,-5.588309,-10.65202,-111.0878,-35.1035,0.001067912,-0.1257102,0.09433498,0,0.3,0,0,0,0,
6.38223E+17,44.62257,35.1842,62.3839,6.378541,-36.28096,59.55453,-4.570632,-0.4675641,0.1400836,-35.15147,-8.447793,45.05199,0,0,0,159.5545,38.37345,-6.679425,-10.65202,-111.0878,-35.1035,0.001067912,-0.1257102,0.09433498,0,0.3,0,0,0,0,
6.38223E+17,44.10425,36.30635,60.44607,5.060128,-35.40202,60.65321,-4.570632,-0.4675641,0.1400836,-35.15147,-8.447793,45.05199,0,0,0,155.5219,36.53297,-7.887688,-10.65202,-111.0878,-35.1035,0.001067912,-0.1257102,0.09433498,0,0.3,0,0,0,0,
6.38223E+17,43.46813,37.35837,58.20473,3.741715,-34.23009,61.75189,-4.570632,-0.4675641,0.1400836,-35.15147,-8.447793,45.12524,0,0,0,150.8904,34.00638,-9.167497,-10.65202,-111.0878,-35.1035,0.001067912,-0.1257102,0.09433498,0,0.3,0,0,0,0,
6.38223E+17,42.69065,38.80782,55.05285,1.69085,-32.03274,63.36329,-4.570632,-0.4675641,0.1400836,-35.15147,-8.447793,45.12524,0,0,0,144.5701,30.53617,-11.62957,-10.65202,-111.0878,-35.1035,0.001067912,-0.1257102,0.09433498,0,0.3,0,0,0,0,
6.38223E+17,42.14877,40.09362,52.20449,0.07945653,-29.90863,64.75494,-4.570632,-0.4675641,0.1400836,-35.15147,-8.447793,45.12524,0,0,0,139.1676,27.50962,-14.59344,-10.65202,-111.0878,-35.1035,0.001067912,-0.1257102,0.09433498,0,0.3,0,0,0,0,
6.38223E+17,41.77181,41.28591,49.44951,-1.019221,-27.63803,65.78037,-4.570632,-0.4675641,0.1400836,-35.15147,-8.447793,45.05199,0,0,0,134.25,24.64336,-18.05077,-10.65202,-111.0878,-35.1035,0.001067912,-0.1257102,0.09433498,0,0.3,0,0,0,0,
6.38223E+17,41.70113,41.89374,48.11871,-1.458692,-26.4661,66.1466,-4.570632,-0.4675641,0.1400836,-35.15147,-8.447793,45.12524,0,0,0,132.0822,23.37158,-20.11006,-10.65202,-111.0878,-35.1035,0.001067912,-0.1257102,0.09433498,0,0.3,0,0,0,0,
6.38223E+17,41.70113,43.06265,45.17696,-1.971408,-24.26875,66.73256,-4.570632,-0.4675641,0.1400836,-35.15147,-8.521038,45.05199,0,0,0,127.7337,20.40005,-24.99054,-10.65202,-111.0878,-35.1035,0.001067912,-0.1257102,0.09433498,0,0.3,0,0,0,0,
6.38223E+17,41.58333,43.83413,41.76826,-1.971408,-22.07139,67.02554,-4.570632,-0.4675641,0.1400836,-35.15147,-8.447793,45.05199,0,0,0,122.7985,16.24616,-29.9576,-10.65202,-111.0878,-35.1035,0.001067912,-0.1257102,0.09433498,0,0.3,0,0,0,0,
6.38223E+17,41.53621,44.09129,40.13395,-2.044653,-20.75298,67.02554,-4.570632,-0.4675641,0.1400836,-35.15147,-8.447793,45.05199,0,0,0,120.5043,14.18406,-32.31799,-10.65202,-111.0878,-35.1035,0.001067912,-0.1257102,0.09433498,0,0.3,0,0,0,0,
6.38223E+17,41.53621,44.65237,37.12215,-2.117898,-18.04291,67.17203,-4.570632,-0.4675641,0.1400836,-35.15147,-8.521038,45.05199,0,0,0,116.2681,10.74214,-37.10009,-10.65202,-111.0878,-35.1035,0.001067912,-0.1257102,0.09433498,0,0.3,0,0,0,0,
6.38223E+17,41.63045,45.19007,33.6901,-2.191144,-15.03986,67.17203,-4.570632,-0.4675641,0.1400836,-35.15147,-8.447793,45.12524,0,0,0,111.5723,7.001107,-42.81755,-10.65202,-111.0878,-35.1035,0.001067912,-0.1257102,0.09433498,0,0.3,0,0,0,0,
6.38223E+17,41.84249,45.56412,30.63161,-2.117898,-12.11005,67.24528,-4.570632,-0.4675641,0.1400836,-35.15147,-8.447793,45.12524,0,0,0,107.6033,3.824004,-48.18169,-10.65202,-111.0878,-35.1035,0.001067912,-0.1257102,0.09433498,0,0.3,0,0,0,0,
6.38223E+17,41.96029,45.68101,29.16073,-2.044653,-10.49866,67.39177,-4.570632,-0.4675641,0.1400836,-35.22471,-8.521038,45.05199,0,0,0,105.7359,2.308036,-50.75457,-10.65202,-111.0878,-35.1035,0.001067912,-0.1257102,0.09433498,0,0.3,0,0,0,0,
6.38223E+17,42.17233,45.75114,26.14894,-1.531937,-7.202625,67.75799,-4.570632,-0.4675641,0.1400836,-35.15147,-8.447793,45.05199,0,0,0,101.924,-0.8311046,-55.83433,-10.65202,-111.0878,-35.1035,0.001067912,-0.1257102,0.09433498,0,0.3,0,0,0,0,
6.38223E+17,42.29013,45.75114,23.95429,-1.312202,-4.639044,67.90449,-4.570632,-0.4675641,0.1400836,-35.15147,-8.447793,45.12524,0,0,0,99.04168,-2.993793,-59.46694,-10.65202,-111.0878,-35.1035,0.001067912,-0.1257102,0.09433498,0,0.3,0,0,0,0,
6.38223E+17,42.52573,45.75114,21.96978,-1.165711,-2.441689,68.05097,-4.570632,-0.4675641,0.1400836,-35.15147,-8.447793,45.05199,0,0,0,96.61416,-4.795579,-63.00916,-10.65202,-111.0878,-35.1035,0.001067912,-0.1257102,0.09433498,0,0.3,0,0,0,0,
6.38223E+17,42.69065,45.75114,21.10593,-1.019221,-1.489502,68.05097,-4.570632,-0.4675641,0.1400836,-35.15147,-8.447793,45.05199,0,0,0,95.64896,-5.533665,-64.66227,-10.65202,-111.0878,-35.1035,0.001067912,-0.1257102,0.09433498,0,0.3,0,0,0,0,
6.38223E+17,42.94981,45.70439,19.51831,-0.6529952,0.4148723,68.12422,-4.570632,-0.4675641,0.1400836,-35.15147,-8.521038,45.05199,0,0,0,93.80908,-6.892251,-67.57523,-10.65202,-111.0878,-35.1035,0.001067912,-0.1257102,0.09433498,0,0.3,0,0,0,0,
6.38223E+17,43.02049,45.68101,18.09413,-0.3600145,1.733285,68.12422,-4.570632,-0.4675641,0.1400836,-35.15147,-8.447793,45.05199,0,0,0,91.81923,-7.998765,-69.9565,-10.65202,-111.0878,-35.1035,0.001067912,-0.1257102,0.09433498,0,0.3,0,0,0,0,
6.38223E+17,43.02049,45.56412,17.0435,-0.2135241,2.685472,68.12422,-4.570632,-0.4675641,0.1400836,-35.15147,-8.447793,45.12524,0,0,0,90.36145,-8.927116,-71.51865,-10.65202,-111.0878,-35.1035,0.001067912,-0.1257102,0.09433498,0,0.3,0,0,0,0,
6.38223E+17,42.90269,45.49398,16.08627,0.07945653,3.564415,68.05097,-4.570632,-0.4675641,0.1400836,-35.15147,-8.447793,45.05199,0,0,0,88.7878,-9.676629,-72.81194,-10.65202,-111.0878,-35.1035,0.001067912,-0.1257102,0.09433498,0,0.3,0,0,0,0,
6.38223E+17,42.64353,45.33034,14.75547,0.2259469,4.516602,68.05097,-4.570632,-0.4675641,0.1400836,-35.15147,-8.447793,45.05199,0,0,0,86.51588,-10.76757,-74.40803,-10.65202,-111.0878,-35.1035,0.001067912,-0.1257102,0.09433498,0,0.3,0,0,0,0,
6.38223E+17,42.59641,45.0498,13.61146,0.299192,5.175808,68.05097,-4.570632,-0.4675641,0.1400836,-35.15147,-8.447793,45.05199,0,0,0,85.00497,-11.88012,-75.89616,-10.65202,-111.0878,-35.1035,0.001067912,-0.1257102,0.09433498,0,0.3,0,0,0,0,
6.38223E+17,42.38437,44.39521,12.07054,0.299192,6.05475,67.97772,-4.570632,-0.4675641,0.1400836,-35.15147,-8.447793,45.05199,0,0,0,83.02788,-13.75961,-77.37305,-10.65202,-111.0878,-35.1035,0.001067912,-0.1257102,0.09433498,0,0.3,0,0,0,0,
6.38223E+17,42.14877,44.06791,11.39347,0.3724372,6.567466,68.05097,-4.570632,-0.4675641,0.1400836,-35.15147,-8.447793,45.05199,0,0,0,81.97429,-14.62584,-77.78236,-10.65202,-111.0878,-35.1035,0.001067912,-0.1257102,0.09433498,0,0.3,0,0,0,0,
6.38223E+17,40.75874,43.31981,9.89924,-0.2135241,8.252106,67.97772,-4.570632,-0.4675641,0.1400836,-35.15147,-8.447793,45.05199,0,0,0,78.30708,-16.5272,-77.49817,-10.65202,-111.0878,-35.1035,0.001067912,-0.1257102,0.09433498,0,0.3,0,0,0,0,
6.38223E+17,40.07549,43.15617,9.595726,-0.7262403,8.764822,67.97772,-4.570632,-0.4675641,0.1400836,-35.15147,-8.521038,45.05199,0,0,0,76.93791,-16.92427,-76.90394,-10.65202,-111.0878,-35.1035,0.001067912,-0.1257102,0.09433498,0,0.3,0,0,0,0,
6.38223E+17,38.6619,42.85225,9.128781,-1.898163,9.570518,67.97772,-4.570632,-0.4675641,0.1400836,-35.15147,-8.447793,45.05199,0,0,0,74.29008,-17.61834,-75.49434,-10.65202,-111.0878,-35.1035,0.001067912,-0.1257102,0.09433498,0,0.3,0,0,0,0,
6.38223E+17,36.6593,42.45482,8.942002,-3.143331,10.44946,68.05097,-4.570632,-0.4675641,0.1400836,-35.15147,-8.447793,45.05199,0,0,0,71.11775,-18.36689,-72.79663,-10.65202,-111.0878,-35.1035,0.001067912,-0.1257102,0.09433498,0,0.3,0,0,0,0,
6.38223E+17,33.50227,41.80023,9.315559,-5.194195,11.25516,68.27071,-4.570632,-0.4675641,0.1400836,-35.22471,-8.447793,45.05199,0,0,0,66.78532,-19.35885,-67.45706,-10.65202,-111.0878,-35.1035,0.001067912,-0.1257102,0.09433498,0,0.3,0,0,0,0,
6.38223E+17,31.68815,41.30928,10.01598,-7.025325,11.62138,68.49045,-4.570632,-0.4675641,0.1400836,-35.15147,-8.447793,45.05199,0,0,0,64.80016,-19.9402,-63.38103,-10.65202,-111.0878,-35.1035,0.001067912,-0.1257102,0.09433498,0,0.3,0,0,0,0,
6.38223E+17,29.21435,40.74821,11.44016,-9.36917,11.91436,69.14965,-4.570632,-0.4675641,0.1400836,-35.15147,-8.447793,45.05199,0,0,0,62.21692,-20.3083,-57.09138,-10.65202,-111.0878,-35.1035,0.001067912,-0.1257102,0.09433498,0,0.3,0,0,0,0,
6.38223E+17,27.84787,40.46767,12.3507,-10.54109,11.69463,69.44263,-4.570632,-0.4675641,0.1400836,-35.15147,-8.521038,45.05199,0,0,0,60.71319,-20.36717,-53.43004,-10.65202,-111.0878,-35.1035,0.001067912,-0.1257102,0.09433498,0,0.3,0,0,0,0,
6.38223E+17,23.72488,39.48579,15.92284,-14.42309,10.37621,70.83429,-4.570632,-0.4675641,0.1400836,-35.15147,-8.447793,45.05199,0,0,0,56.12748,-20.08813,-40.63874,-10.65202,-111.0878,-35.1035,0.001067912,-0.1257102,0.09433498,0,0.3,0,0,0,0,
6.38223E+17,22.75892,39.18187,17.02016,-15.59501,9.8635,71.4935,-4.570632,-0.4675641,0.1400836,-35.15147,-8.447793,45.05199,0,0,0,55.08737,-19.91111,-37.03887,-10.65202,-111.0878,-35.1035,0.001067912,-0.1257102,0.09433498,0,0.3,0,0,0,0,
6.38223E+17,20.85056,38.62079,19.82183,-18.0121,8.691576,73.17814,-4.570632,-0.4675641,0.1400836,-35.15147,-8.521038,45.05199,0,0,0,53.17766,-18.86707,-28.73013,-10.65202,-111.0878,-35.1035,0.001067912,-0.1257102,0.09433498,0,0.3,0,0,0,0,
6.38223E+17,19.27205,38.17661,23.04375,-20.13621,7.006938,74.78953,-4.570632,-0.4675641,0.1400836,-35.15147,-8.521038,45.05199,0,0,0,51.82685,-16.93753,-20.12399,-10.65202,-111.0878,-35.1035,0.001067912,-0.1257102,0.09433498,0,0.3,0,0,0,0,
6.38223E+17,17.85845,37.28823,27.47973,-22.5533,4.296866,76.6939,-4.570632,-0.4675641,0.1400836,-35.15147,-8.447793,45.12524,0,0,0,51.40506,-14.1679,-8.801372,-10.65202,-111.0878,-35.1035,0.001067912,-0.1257102,0.09433498,0,0.3,0,0,0,0,
6.38223E+17,17.43437,36.63364,29.67438,-23.43224,2.758718,77.42635,-4.570632,-0.4675641,0.1400836,-35.22471,-8.447793,45.12524,0,0,0,51.84105,-12.94211,-3.272103,-10.65202,-111.0878,-35.1035,0.001067912,-0.1257102,0.09433498,0,0.3,0,0,0,0,
6.38223E+17,16.96317,35.48811,32.91964,-24.38443,0.3416272,78.59828,-4.570632,-0.4675641,0.1400836,-35.15147,-8.447793,45.05199,0,0,0,52.82232,-11.17426,4.822071,-10.65202,-111.0878,-35.1035,0.001067912,-0.1257102,0.09433498,0,0.3,0,0,0,0,
