zeyangz2/DNN_classification_different_people_hand/test/Frank_right_7.csv
Timestamp,Therapist joint angle 0,Therapist joint angle 1,Therapist joint angle 2,Therapist joint angle 3,Therapist joint angle 4,Therapist joint angle 5,Patient joint angle 0,Patient joint angle 1,Patient joint angle 2,Patient joint angle 3,Patient joint angle 4,Patient joint angle 5,Virtual joint angle 0,Virtual joint angle 1,Virtual joint angle 2,Therapist position x,Therapist position y,Therapist position z,Patient position x,Patient position y,Patient position z,Virtual position x,Virtual position y,Virtual position z,Assistive Force, Obstacle Force Magnitude, Therapist Constant Force, Patient Constant Force, Recovery Factor, Assistance Level,label
6.38223E+17,0,0,0,0,0,0,0,0,0,0,0,0,0,0,0,0,0,0,0,0,0,0,0,0,0,0.3,0,0,0,0,1
6.38223E+17,45.58852,-0.3272949,-14.28853,-116.4536,-13.57495,-46.43123,-17.15165,-0.4441859,-4.249202,-61.88596,-7.056135,34.57793,0,0,0,71.74497,-106.6366,-98.06397,-36.4102,-110.6672,-50.37534,0.001067912,-0.1257102,0.09433498,0,0.3,0,0,1.29E-07,0,
6.38223E+17,45.58852,-0.3272949,-14.28853,-116.4536,-13.57495,-46.43123,-17.15165,-0.4441859,-4.249202,-61.88596,-6.98289,34.57793,0,0,0,71.74497,-106.6366,-98.06397,-36.4102,-110.6672,-50.37534,0.001067912,-0.1257102,0.09433498,0,0.3,0,0,1.29E-07,0,
6.38223E+17,45.58852,-0.3272949,-14.28853,-116.4536,-13.57495,-46.43123,-17.15165,-0.4441859,-4.249202,-61.88596,-6.98289,34.57793,0,0,0,71.74497,-106.6366,-98.06397,-36.4102,-110.6672,-50.37534,0.001067912,-0.1257102,0.09433498,0,0.3,0,0,6.45E-08,0,
6.38223E+17,45.58852,-0.3272949,-14.28853,-116.4536,-13.6482,-46.43123,-17.15165,-0.4441859,-4.249202,-61.9592,-6.98289,34.57793,0,0,0,71.74497,-106.6366,-98.06397,-36.4102,-110.6672,-50.37534,0.001067912,-0.1257102,0.09433498,0,0.3,0,0,6.45E-08,0,
6.38223E+17,45.58852,-0.3272949,-14.28853,-116.4536,-13.57495,-46.43123,-17.15165,-0.4441859,-4.249202,-61.88596,-6.98289,34.65118,0,0,0,71.74497,-106.6366,-98.06397,-36.4102,-110.6672,-50.37534,0.001067912,-0.1257102,0.09433498,0,0.3,0,0,0,0,
6.38223E+17,45.58852,-0.3272949,-14.28853,-116.4536,-13.57495,-46.43123,-17.15165,-0.4441859,-4.249202,-61.88596,-6.98289,34.57793,0,0,0,71.74497,-106.6366,-98.06397,-36.4102,-110.6672,-50.37534,0.001067912,-0.1257102,0.09433498,0,0.3,0,0,0,0,
6.38223E+17,45.58852,-0.3272949,-14.28853,-116.4536,-13.50171,-46.43123,-17.15165,-0.4441859,-4.249202,-61.88596,-6.98289,34.57793,0,0,0,71.74497,-106.6366,-98.06397,-36.4102,-110.6672,-50.37534,0.001067912,-0.1257102,0.09433498,0,0.3,0,0,0,0,
6.38223E+17,45.58852,-0.3272949,-14.28853,-116.4536,-13.57495,-46.43123,-17.15165,-0.4441859,-4.249202,-61.88596,-6.98289,34.57793,0,0,0,71.74497,-106.6366,-98.06397,-36.4102,-110.6672,-50.37534,0.001067912,-0.1257102,0.09433498,0,0.3,0,0,0,0,
6.38223E+17,45.58852,-0.3272949,-14.28853,-116.4536,-13.57495,-46.43123,-17.15165,-0.4441859,-4.249202,-61.88596,-6.98289,34.57793,0,0,0,71.74497,-106.6366,-98.06397,-36.4102,-110.6672,-50.37534,0.001067912,-0.1257102,0.09433498,0,0.3,0,0,0,0,
6.38223E+17,45.58852,-0.3272949,-14.28853,-116.4536,-13.57495,-46.43123,-17.15165,-0.4441859,-4.249202,-61.88596,-6.98289,34.57793,0,0,0,71.74497,-106.6366,-98.06397,-36.4102,-110.6672,-50.37534,0.001067912,-0.1257102,0.09433498,0,0.3,0,0,0,0,
6.38223E+17,45.58852,-0.3272949,-14.28853,-116.4536,-13.57495,-46.43123,-17.15165,-0.4441859,-4.249202,-61.88596,-7.056135,34.57793,0,0,0,71.74497,-106.6366,-98.06397,-36.4102,-110.6672,-50.37534,0.001067912,-0.1257102,0.09433498,0,0.3,0,0,0,0,
6.38223E+17,45.58852,-0.3272949,-14.28853,-116.4536,-13.57495,-46.43123,-17.15165,-0.4441859,-4.249202,-61.88596,-6.98289,34.57793,0,0,0,71.74497,-106.6366,-98.06397,-36.4102,-110.6672,-50.37534,0.001067912,-0.1257102,0.09433498,0,0.3,0,0,6.45E-08,0,
6.38223E+17,45.58852,-0.3272949,-14.28853,-116.4536,-13.57495,-46.43123,-17.15165,-0.4441859,-4.249202,-61.88596,-6.98289,34.57793,0,0,0,71.74497,-106.6366,-98.06397,-36.4102,-110.6672,-50.37534,0.001067912,-0.1257102,0.09433498,0,0.3,0,0,1.29E-07,0,
6.38223E+17,45.58852,-0.3272949,-14.28853,-116.4536,-13.57495,-46.43123,-17.15165,-0.4441859,-4.249202,-61.88596,-6.98289,34.57793,0,0,0,71.74497,-106.6366,-98.06397,-36.4102,-110.6672,-50.37534,0.001067912,-0.1257102,0.09433498,0,0.3,0,0,1.94E-07,0,
6.38223E+17,45.58852,-0.3272949,-14.28853,-116.4536,-13.57495,-46.43123,-17.15165,-0.4441859,-4.249202,-61.9592,-6.98289,34.57793,0,0,0,71.74497,-106.6366,-98.06397,-36.4102,-110.6672,-50.37534,0.001067912,-0.1257102,0.09433498,0,0.3,0,0,2.58E-07,0,
6.38223E+17,45.58852,-0.3272949,-14.28853,-116.4536,-13.57495,-46.43123,-17.15165,-0.4441859,-4.249202,-61.88596,-6.98289,34.57793,0,0,0,71.74497,-106.6366,-98.06397,-36.4102,-110.6672,-50.37534,0.001067912,-0.1257102,0.09433498,0,0.3,0,0,3.23E-07,0,
6.38223E+17,45.58852,-0.3272949,-14.28853,-116.4536,-13.57495,-46.43123,-17.15165,-0.4441859,-4.249202,-61.88596,-6.98289,34.57793,0,0,0,71.74497,-106.6366,-98.06397,-36.4102,-110.6672,-50.37534,0.001067912,-0.1257102,0.09433498,0,0.3,0,0,3.23E-07,0,
6.38223E+17,45.58852,-0.3272949,-14.28853,-116.4536,-13.57495,-46.43123,-17.15165,-0.4441859,-4.249202,-61.88596,-6.98289,34.57793,0,0,0,71.74497,-106.6366,-98.06397,-36.4102,-110.6672,-50.37534,0.001067912,-0.1257102,0.09433498,0,0.3,0,0,3.23E-07,0,
6.38223E+17,45.58852,-0.3272949,-14.28853,-116.4536,-13.57495,-46.43123,-17.15165,-0.4441859,-4.249202,-61.88596,-7.056135,34.57793,0,0,0,71.74497,-106.6366,-98.06397,-36.4102,-110.6672,-50.37534,0.001067912,-0.1257102,0.09433498,0,0.3,0,0,3.87E-07,0,
6.38223E+17,45.58852,-0.3272949,-14.28853,-116.4536,-13.57495,-46.43123,-17.15165,-0.4441859,-4.249202,-61.88596,-6.98289,34.57793,0,0,0,71.74497,-106.6366,-98.06397,-36.4102,-110.6672,-50.37534,0.001067912,-0.1257102,0.09433498,0,0.3,0,0,3.87E-07,0,
6.38223E+17,45.58852,-0.3272949,-14.28853,-116.4536,-13.57495,-46.35798,-17.15165,-0.4441859,-4.249202,-61.88596,-7.056135,34.57793,0,0,0,71.74497,-106.6366,-98.06397,-36.4102,-110.6672,-50.37534,0.001067912,-0.1257102,0.09433498,0,0.3,0,0,3.23E-07,0,
6.38223E+17,45.58852,-0.3272949,-14.28853,-116.4536,-13.57495,-46.43123,-17.15165,-0.4441859,-4.249202,-61.88596,-7.056135,34.57793,0,0,0,71.74497,-106.6366,-98.06397,-36.4102,-110.6672,-50.37534,0.001067912,-0.1257102,0.09433498,0,0.3,0,0,2.58E-07,0,
6.38223E+17,45.58852,-0.3272949,-14.28853,-116.4536,-13.57495,-46.43123,-17.15165,-0.4441859,-4.249202,-61.88596,-7.056135,34.57793,0,0,0,71.74497,-106.6366,-98.06397,-36.4102,-110.6672,-50.37534,0.001067912,-0.1257102,0.09433498,0,0.3,0,0,1.94E-07,0,
6.38223E+17,45.58852,-0.3272949,-14.28853,-116.4536,-13.57495,-46.43123,-17.15165,-0.4441859,-4.249202,-61.88596,-6.98289,34.57793,0,0,0,71.74497,-106.6366,-98.06397,-36.4102,-110.6672,-50.37534,0.001067912,-0.1257102,0.09433498,0,0.3,0,0,1.29E-07,0,
6.38223E+17,45.58852,-0.3272949,-14.28853,-116.4536,-13.57495,-46.43123,-17.15165,-0.4441859,-4.249202,-61.88596,-6.98289,34.57793,0,0,0,71.74497,-106.6366,-98.06397,-36.4102,-110.6672,-50.37534,0.001067912,-0.1257102,0.09433498,0,0.3,0,0,6.45E-08,0,
6.38223E+17,45.58852,-0.3272949,-14.28853,-116.4536,-13.57495,-46.43123,-17.15165,-0.4441859,-4.249202,-61.9592,-7.056135,34.57793,0,0,0,71.74497,-106.6366,-98.06397,-36.4102,-110.6672,-50.37534,0.001067912,-0.1257102,0.09433498,0,0.3,0,0,6.45E-08,0,
6.38223E+17,45.58852,-0.3272949,-14.28853,-116.4536,-13.57495,-46.43123,-17.15165,-0.4441859,-4.249202,-61.88596,-6.98289,34.57793,0,0,0,71.74497,-106.6366,-98.06397,-36.4102,-110.6672,-50.37534,0.001067912,-0.1257102,0.09433498,0,0.3,0,0,0,0,
6.38223E+17,45.58852,-0.3272949,-14.28853,-116.4536,-13.57495,-46.43123,-17.15165,-0.4441859,-4.249202,-61.88596,-6.98289,34.57793,0,0,0,71.74497,-106.6366,-98.06397,-36.4102,-110.6672,-50.37534,0.001067912,-0.1257102,0.09433498,0,0.3,0,0,0,0,
6.38223E+17,45.58852,-0.3272949,-14.28853,-116.4536,-13.57495,-46.43123,-17.15165,-0.4441859,-4.249202,-61.9592,-6.98289,34.57793,0,0,0,71.74497,-106.6366,-98.06397,-36.4102,-110.6672,-50.37534,0.001067912,-0.1257102,0.09433498,0,0.3,0,0,0,0,
6.38223E+17,45.14088,-0.5376987,-14.31187,-116.6733,-13.6482,-48.55533,-17.15165,-0.4441859,-4.249202,-61.9592,-6.98289,34.57793,0,0,0,71.15372,-107.1128,-97.54535,-36.4102,-110.6672,-50.37534,0.001067912,-0.1257102,0.09433498,0,0.3,0,0,0.00014682,0,
6.38223E+17,44.08069,-0.6545897,-14.28853,-116.8198,-13.57495,-50.02024,-17.15165,-0.4441859,-4.249202,-61.9592,-7.056135,34.57793,0,0,0,69.8661,-107.3983,-96.20512,-36.4102,-110.6672,-50.37534,0.001067912,-0.1257102,0.09433498,0,0.3,0,0,0.000811702,0,
6.38223E+17,43.58593,-0.6545897,-14.28853,-116.8931,-13.42846,-50.67944,-17.15165,-0.4441859,-4.249202,-61.88596,-6.98289,34.57793,0,0,0,69.24052,-107.3983,-95.60452,-36.4102,-110.6672,-50.37534,0.001067912,-0.1257102,0.09433498,0,0.3,0,0,0.001754935,0,
6.38223E+17,43.58593,-0.6545897,-14.28853,-117.0396,-13.35522,-50.75269,-17.15165,-0.4441859,-4.249202,-61.9592,-6.98289,34.57793,0,0,0,69.24052,-107.3983,-95.60452,-36.4102,-110.6672,-50.37534,0.001067912,-0.1257102,0.09433498,0,0.3,0,0,0.002672172,0,
6.38223E+17,43.58593,-0.6545897,-14.28853,-117.0396,-13.35522,-50.82594,-17.15165,-0.4441859,-4.249202,-61.88596,-6.98289,34.57793,0,0,0,69.24052,-107.3983,-95.60452,-36.4102,-110.6672,-50.37534,0.001067912,-0.1257102,0.09433498,0,0.3,0,0,0.003107019,0,
6.38223E+17,43.53881,-0.6779679,-13.96167,-117.1128,-13.35522,-50.97242,-17.15165,-0.4441859,-4.249202,-61.88596,-6.98289,34.57793,0,0,0,69.68843,-107.6384,-95.01327,-36.4102,-110.6672,-50.37534,0.001067912,-0.1257102,0.09433498,0,0.3,0,0,0.003896272,0,
6.38223E+17,43.25609,-0.6779679,-13.86828,-117.3325,-13.28197,-50.97242,-17.15165,-0.4441859,-4.249202,-61.88596,-6.98289,34.57793,0,0,0,69.47028,-107.6906,-94.51664,-36.4102,-110.6672,-50.37534,0.001067912,-0.1257102,0.09433498,0,0.3,0,0,0.004682558,0,
6.38223E+17,42.76133,-0.6779679,-13.86828,-117.1861,-13.28197,-50.89918,-17.15165,-0.4441859,-4.249202,-61.9592,-7.056135,34.57793,0,0,0,68.83013,-107.6906,-93.91951,-36.4102,-110.6672,-50.37534,0.001067912,-0.1257102,0.09433498,0,0.3,0,0,0.005190557,0,
6.38223E+17,40.59381,-0.6779679,-13.70484,-115.5747,-13.06224,-51.33865,-17.15165,-0.4441859,-4.249202,-61.88596,-6.98289,34.57793,0,0,0,66.20621,-107.7813,-91.08901,-36.4102,-110.6672,-50.37534,0.001067912,-0.1257102,0.09433498,0,0.3,0,0,0.006816024,0,
6.38223E+17,37.9551,-0.7013461,-13.35464,-114.4027,-12.76926,-54.41495,-17.15165,-0.4441859,-4.249202,-61.88596,-6.98289,34.57793,0,0,0,63.06606,-108.0264,-87.4986,-36.4102,-110.6672,-50.37534,0.001067912,-0.1257102,0.09433498,0,0.3,0,0,0.009399692,0,
6.38223E+17,35.88182,-0.7714807,-12.51413,-114.769,-12.40303,-57.93071,-17.15165,-0.4441859,-4.249202,-61.88596,-6.98289,34.57793,0,0,0,61.21598,-108.6274,-83.72693,-36.4102,-110.6672,-50.37534,0.001067912,-0.1257102,0.09433498,0,0.3,0,0,0.01265682,0,
6.38223E+17,34.63314,-0.8416153,-11.5102,-116.0141,-12.1833,-62.54516,-17.15165,-0.4441859,-4.249202,-61.9592,-6.98289,34.57793,0,0,0,60.65486,-109.2769,-80.5345,-36.4102,-110.6672,-50.37534,0.001067912,-0.1257102,0.09433498,0,0.3,0,0,0.01448336,0,
6.38223E+17,33.21954,-0.9351282,-10.62301,-117.772,-11.81707,-70.16266,-17.15165,-0.4441859,-4.249202,-61.88596,-6.98289,34.57793,0,0,0,59.57837,-109.8909,-77.37245,-36.4102,-110.6672,-50.37534,0.001067912,-0.1257102,0.09433498,0,0.3,0,0,0.01827881,0,
6.38223E+17,31.14627,-0.9818845,-9.89924,-119.1637,-11.23111,-77.63367,-17.15165,-0.4441859,-4.249202,-61.88596,-6.98289,34.57793,0,0,0,57.1044,-110.2998,-73.85956,-36.4102,-110.6672,-50.37534,0.001067912,-0.1257102,0.09433498,0,0.3,0,0,0.02258496,0,
6.38223E+17,30.22743,-0.9818845,-9.432296,-119.7496,-10.93813,-79.83102,-17.15165,-0.4441859,-4.249202,-61.9592,-6.98289,34.57793,0,0,0,56.12115,-110.4822,-72.03031,-36.4102,-110.6672,-50.37534,0.001067912,-0.1257102,0.09433498,0,0.3,0,0,0.02490376,0,
6.38223E+17,27.98923,-0.9818845,-7.167611,-122.1667,-10.27892,-86.1301,-17.15165,-0.4441859,-4.249202,-61.88596,-6.98289,34.57793,0,0,0,54.76423,-111.243,-65.30676,-36.4102,-110.6672,-50.37534,0.001067912,-0.1257102,0.09433498,0,0.3,0,0,0.03213025,0,
6.38223E+17,27.21176,-0.9818845,-6.140331,-123.0457,-9.839451,-92.35595,-17.15165,-0.4441859,-4.249202,-61.9592,-6.98289,34.57793,0,0,0,54.4469,-111.5201,-62.46123,-36.4102,-110.6672,-50.37534,0.001067912,-0.1257102,0.09433498,0,0.3,0,0,0.03457148,0,
6.38223E+17,26.0102,-0.9818845,-4.179161,-123.9979,-8.447793,-109.4221,-17.15165,-0.4441859,-4.249202,-61.88596,-6.98289,34.57793,0,0,0,54.20792,-111.9305,-57.25749,-36.4102,-110.6672,-50.37534,0.001067912,-0.1257102,0.09433498,0,0.3,0,0,0.03940886,0,
6.38223E+17,25.09136,-0.9818845,-1.751045,-124.3641,-7.349115,-117.6255,-17.15165,-0.4441859,-4.249202,-61.88596,-6.98289,34.57793,0,0,0,54.81253,-112.2229,-51.29182,-36.4102,-110.6672,-50.37534,0.001067912,-0.1257102,0.09433498,0,0.3,0,0,0.04399168,0,
6.38223E+17,24.66728,-0.9818845,-0.700418,-124.6571,-6.689909,-120.0426,-17.15165,-0.4441859,-4.249202,-61.88596,-7.056135,34.57793,0,0,0,54.96488,-112.2752,-48.66778,-36.4102,-110.6672,-50.37534,0.001067912,-0.1257102,0.09433498,0,0.3,0,0,0.04617218,0,
6.38223E+17,23.6542,-0.9818845,0.9105434,-125.3163,-5.444741,-123.1189,-17.15165,-0.4441859,-4.249202,-61.88596,-6.98289,34.57793,0,0,0,54.34448,-112.2683,-44.28046,-36.4102,-110.6672,-50.37534,0.001067912,-0.1257102,0.09433498,0,0.3,0,0,0.05044692,0,
6.38223E+17,22.40552,-0.9818845,1.774392,-125.6093,-4.712289,-122.8992,-17.15165,-0.4441859,-4.249202,-61.9592,-6.98289,34.57793,0,0,0,52.39398,-112.2212,-41.26744,-36.4102,-110.6672,-50.37534,0.001067912,-0.1257102,0.09433498,0,0.3,0,0,0.05477642,0,
6.38223E+17,21.72228,-0.9818845,2.334727,-125.4628,-4.346064,-121.1413,-17.15165,-0.4441859,-4.249202,-61.9592,-6.98289,34.57793,0,0,0,51.35722,-112.1744,-39.44098,-36.4102,-110.6672,-50.37534,0.001067912,-0.1257102,0.09433498,0,0.3,0,0,0.05699317,0,
6.38223E+17,20.16733,-0.9585064,4.062424,-125.243,-3.833347,-114.476,-17.15165,-0.4441859,-4.249202,-61.9592,-6.98289,34.57793,0,0,0,49.22467,-111.8957,-34.32548,-36.4102,-110.6672,-50.37534,0.001067912,-0.1257102,0.09433498,0,0.3,0,0,0.06146163,0,
6.38223E+17,18.32965,-0.9117499,5.953553,-125.1698,-3.320631,-105.9795,-17.15165,-0.4441859,-4.249202,-61.88596,-6.98289,34.57793,0,0,0,46.28083,-111.4027,-28.65223,-36.4102,-110.6672,-50.37534,0.001067912,-0.1257102,0.09433498,0,0.3,0,0,0.06601891,0,
6.38223E+17,16.53909,-0.9117499,7.564514,-125.6093,-2.73467,-102.9765,-17.15165,-0.4441859,-4.249202,-61.88596,-6.98289,34.57793,0,0,0,42.95311,-110.9614,-23.70523,-36.4102,-110.6672,-50.37534,0.001067912,-0.1257102,0.09433498,0,0.3,0,0,0.07069372,0,
6.38223E+17,15.66737,-0.8649935,8.264932,-125.4628,-2.441689,-102.4638,-17.15165,-0.4441859,-4.249202,-61.88596,-6.98289,34.57793,0,0,0,41.18402,-110.6281,-21.51224,-36.4102,-110.6672,-50.37534,0.001067912,-0.1257102,0.09433498,0,0.3,0,0,0.07308251,0,
6.38223E+17,14.15954,-0.6779679,9.572379,-123.1922,-2.002218,-102.244,-17.15165,-0.4441859,-4.249202,-61.88596,-6.98289,34.57793,0,0,0,38.04271,-109.7211,-17.55894,-36.4102,-110.6672,-50.37534,0.001067912,-0.1257102,0.09433498,0,0.3,0,0,0.07790551,0,
6.38223E+17,12.48678,-0.2805384,11.18334,-118.9439,-2.221954,-101.3651,-17.15165,-0.4441859,-4.249202,-61.88596,-7.056135,34.57793,0,0,0,34.42381,-108.1208,-12.90449,-36.4102,-110.6672,-50.37534,0.001067912,-0.1257102,0.09433498,0,0.3,0,0,0.08274314,0,
6.38223E+17,10.7669,0.1402692,13.19121,-114.769,-2.148709,-99.60722,-17.15165,-0.4441859,-4.249202,-61.88596,-6.98289,34.57793,0,0,0,30.59642,-106.155,-7.453037,-36.4102,-110.6672,-50.37534,0.001067912,-0.1257102,0.09433498,0,0.3,0,0,0.0875024,0,
6.38223E+17,9.400424,0.6779679,15.10568,-111.0335,-1.782483,-97.77609,-17.15165,-0.4441859,-4.249202,-61.9592,-6.98289,34.57793,0,0,0,27.45497,-103.8145,-2.515606,-36.4102,-110.6672,-50.37534,0.001067912,-0.1257102,0.09433498,0,0.3,0,0,0.09206065,0,
6.38223E+17,8.787866,0.9818845,16.31974,-108.9826,-1.416257,-95.28575,-17.15165,-0.4441859,-4.249202,-61.88596,-6.98289,34.57793,0,0,0,26.09445,-102.342,0.4463371,-36.4102,-110.6672,-50.37534,0.001067912,-0.1257102,0.09433498,0,0.3,0,0,0.09418618,0,
6.38223E+17,7.916147,1.16891,18.72451,-104.8076,-0.3908245,-87.22878,-17.15165,-0.4441859,-4.249202,-61.9592,-6.98289,34.57793,0,0,0,24.25727,-100.2219,6.101617,-36.4102,-110.6672,-50.37534,0.001067912,-0.1257102,0.09433498,0,0.3,0,0,0.09801401,0,
6.38223E+17,7.232908,1.16891,20.98919,-101.0721,0.9275885,-76.90121,-17.15165,-0.4441859,-4.249202,-61.88596,-6.98289,34.57793,0,0,0,22.79942,-98.43163,11.29614,-36.4102,-110.6672,-50.37534,0.001067912,-0.1257102,0.09433498,0,0.3,0,0,0.1012569,0,
6.38223E+17,6.855949,1.16891,22.2266,-99.75371,1.440305,-71.55432,-17.15165,-0.4441859,-4.249202,-61.88596,-6.98289,34.57793,0,0,0,21.93663,-97.37111,14.1006,-36.4102,-110.6672,-50.37534,0.001067912,-0.1257102,0.09433498,0,0.3,0,0,0.1026657,0,
6.38223E+17,6.24339,1.16891,24.86484,-97.55635,3.491169,-59.98158,-17.15165,-0.4441859,-4.249202,-61.88596,-7.056135,34.57793,0,0,0,20.59692,-94.91843,19.91982,-36.4102,-110.6672,-50.37534,0.001067912,-0.1257102,0.09433498,0,0.3,0,0,0.1049659,0,
6.38223E+17,5.513031,1.16891,27.17622,-94.91953,5.90826,-45.55228,-17.15165,-0.4441859,-4.249202,-61.88596,-6.98289,34.57793,0,0,0,18.65981,-92.55863,24.9786,-36.4102,-110.6672,-50.37534,0.001067912,-0.1257102,0.09433498,0,0.3,0,0,0.1066653,0,
6.38223E+17,5.230311,1.16891,27.73655,-93.16164,7.226673,-37.49532,-17.15165,-0.4441859,-4.249202,-61.88596,-6.98289,34.57793,0,0,0,17.81112,-91.95734,26.22073,-36.4102,-110.6672,-50.37534,0.001067912,-0.1257102,0.09433498,0,0.3,0,0,0.1073978,0,
6.38223E+17,4.971152,1.098776,27.73655,-86.56957,10.08323,-14.34984,-17.15165,-0.4441859,-4.249202,-61.88596,-6.98289,34.57793,0,0,0,16.93114,-92.12054,26.30252,-36.4102,-110.6672,-50.37534,0.001067912,-0.1257102,0.09433498,0,0.3,0,0,0.108871,0,
6.38223E+17,4.971152,0.7714807,27.19957,-76.242,11.98761,16.63286,-17.15165,-0.4441859,-4.249202,-61.88596,-6.98289,34.57793,0,0,0,16.83612,-93.45865,25.21018,-36.4102,-110.6672,-50.37534,0.001067912,-0.1257102,0.09433498,0,0.3,0,0,0.110446,0,
6.38223E+17,4.876912,0.8649935,28.6004,-67.81882,13.52576,40.3643,-17.15165,-0.4441859,-4.249202,-61.88596,-6.98289,34.57793,0,0,0,16.76242,-91.71548,28.10536,-36.4102,-110.6672,-50.37534,0.001067912,-0.1257102,0.09433498,0,0.3,0,0,0.1117263,0,
6.38223E+17,4.594193,1.192288,29.46425,-61.66622,14.99066,57.94314,-17.15165,-0.4441859,-4.249202,-61.88596,-6.98289,34.57793,0,0,0,15.93254,-89.97816,29.92427,-36.4102,-110.6672,-50.37534,0.001067912,-0.1257102,0.09433498,0,0.3,0,0,0.112715,0,
6.38223E+17,4.476392,1.379314,29.58099,-59.98158,15.43013,61.82513,-17.15165,-0.4441859,-4.249202,-61.9592,-6.98289,34.57793,0,0,0,15.54255,-89.4091,30.18257,-36.4102,-110.6672,-50.37534,0.001067912,-0.1257102,0.09433498,0,0.3,0,0,0.1131755,0,
6.38223E+17,3.934513,1.659852,29.86115,-56.68555,15.94285,67.68475,-17.15165,-0.4441859,-4.249202,-61.88596,-6.98289,34.57793,0,0,0,13.70191,-88.43313,30.86835,-36.4102,-110.6672,-50.37534,0.001067912,-0.1257102,0.09433498,0,0.3,0,0,0.1140836,0,
6.38223E+17,2.850755,2.033904,30.42149,-54.63469,15.8696,70.24833,-17.15165,-0.4441859,-4.249202,-61.88596,-7.056135,34.57793,0,0,0,9.986135,-86.90818,32.19024,-36.4102,-110.6672,-50.37534,0.001067912,-0.1257102,0.09433498,0,0.3,0,0,0.1150263,0,
6.38223E+17,1.884797,2.641737,31.68224,-53.97548,15.28364,71.12727,-17.15165,-0.4441859,-4.249202,-61.88596,-6.98289,34.57793,0,0,0,6.684716,-83.98119,34.7848,-36.4102,-110.6672,-50.37534,0.001067912,-0.1257102,0.09433498,0,0.3,0,0,0.1157986,0,
6.38223E+17,1.578517,2.852141,32.14919,-53.75574,15.06391,71.4935,-17.15165,-0.4441859,-4.249202,-61.88596,-6.98289,34.57793,0,0,0,5.623516,-82.91751,35.71629,-36.4102,-110.6672,-50.37534,0.001067912,-0.1257102,0.09433498,0,0.3,0,0,0.1161105,0,
6.38223E+17,0.6832389,3.156058,33.31655,-52.73031,14.69768,72.88515,-17.15165,-0.4441859,-4.249202,-61.88596,-6.98289,34.57793,0,0,0,2.46112,-80.74208,38.02745,-36.4102,-110.6672,-50.37534,0.001067912,-0.1257102,0.09433498,0,0.3,0,0,0.1165899,0,
6.38223E+17,-0.8717186,3.272949,34.85747,-51.92461,14.47795,74.27681,-17.15165,-0.4441859,-4.249202,-61.88596,-6.98289,34.57793,0,0,0,-3.184957,-78.46056,40.97271,-36.4102,-110.6672,-50.37534,0.001067912,-0.1257102,0.09433498,0,0.3,0,0,0.116891,0,
6.38223E+17,-1.790557,3.272949,35.74466,-51.77813,14.4047,74.86278,-17.15165,-0.4441859,-4.249202,-61.9592,-6.98289,34.57793,0,0,0,-6.593915,-77.26734,42.57906,-36.4102,-110.6672,-50.37534,0.001067912,-0.1257102,0.09433498,0,0.3,0,0,0.1169701,0,
6.38223E+17,-3.816714,3.436596,37.84592,-51.63163,14.62444,77.13338,-17.15165,-0.4441859,-4.249202,-61.9592,-7.056135,34.57793,0,0,0,-14.30653,-73.95811,46.09909,-36.4102,-110.6672,-50.37534,0.001067912,-0.1257102,0.09433498,0,0.3,0,0,0.1169194,0,
6.38223E+17,-5.630831,3.787269,39.99387,-51.11892,15.06391,80.20967,-17.15165,-0.4441859,-4.249202,-61.88596,-6.98289,34.57793,0,0,0,-21.46474,-70.00314,49.35799,-36.4102,-110.6672,-50.37534,0.001067912,-0.1257102,0.09433498,0,0.3,0,0,0.1165218,0,
6.38223E+17,-6.761709,4.044429,41.32466,-50.97242,15.28364,82.18729,-17.15165,-0.4441859,-4.249202,-61.9592,-6.98289,34.57793,0,0,0,-26.02912,-67.38801,51.18456,-36.4102,-110.6672,-50.37534,0.001067912,-0.1257102,0.09433498,0,0.3,0,0,0.1161383,0,
6.38223E+17,-9.164824,4.909423,44.38315,-51.11892,15.72311,86.50875,-17.15165,-0.4441859,-4.249202,-61.88596,-6.98289,34.57793,0,0,0,-36.01734,-60.54016,54.8961,-36.4102,-110.6672,-50.37534,0.001067912,-0.1257102,0.09433498,0,0.3,0,0,0.1148962,0,
6.38223E+17,-11.16742,6.265358,46.83461,-51.55839,16.01609,91.26969,-17.15165,-0.4441859,-4.249202,-61.88596,-6.98289,34.57793,0,0,0,-44.51009,-53.32268,57.11514,-36.4102,-110.6672,-50.37534,0.001067912,-0.1257102,0.09433498,0,0.3,0,0,0.1130141,0,
6.38223E+17,-11.96846,7.130352,47.72181,-51.63163,15.94285,93.61353,-17.15165,-0.4441859,-4.249202,-61.88596,-6.98289,34.57793,0,0,0,-47.89962,-49.80631,57.61155,-36.4102,-110.6672,-50.37534,0.001067912,-0.1257102,0.09433498,0,0.3,0,0,0.11188,0,
6.38223E+17,-13.21714,9.000608,49.65963,-51.26541,15.50338,97.86176,-17.15165,-0.4441859,-4.249202,-61.88596,-6.98289,34.57793,0,0,0,-53.35341,-42.10911,58.81776,-36.4102,-110.6672,-50.37534,0.001067912,-0.1257102,0.09433498,0,0.3,0,0,0.1091862,0,
6.38223E+17,-14.08886,11.57221,52.01771,-50.45971,14.84417,103.0622,-17.15165,-0.4441859,-4.249202,-61.88596,-6.98289,34.57793,0,0,0,-57.38678,-31.9656,60.30457,-36.4102,-110.6672,-50.37534,0.001067912,-0.1257102,0.09433498,0,0.3,0,0,0.1057795,0,
6.38223E+17,-14.72498,14.28408,54.25905,-49.8005,13.96523,108.702,-17.15165,-0.4441859,-4.249202,-61.9592,-6.98289,34.57793,0,0,0,-60.35826,-21.64119,61.31409,-36.4102,-110.6672,-50.37534,0.001067912,-0.1257102,0.09433498,0,0.3,0,0,0.1016526,0,
6.38223E+17,-15.12549,16.73879,56.22021,-49.50752,13.08629,112.9503,-17.15165,-0.4441859,-4.249202,-61.9592,-6.98289,34.57793,0,0,0,-62.24259,-12.38692,61.92385,-36.4102,-110.6672,-50.37534,0.001067912,-0.1257102,0.09433498,0,0.3,0,0,0.09915451,0,
6.38223E+17,-15.38465,19.14675,57.99461,-49.28778,11.98761,116.3928,-17.15165,-0.4441859,-4.249202,-61.88596,-6.98289,34.57793,0,0,0,-63.42049,-3.588072,62.13772,-36.4102,-110.6672,-50.37534,0.001067912,-0.1257102,0.09433498,0,0.3,0,0,0.09380016,0,
6.38223E+17,-15.54957,22.88726,60.95971,-49.21454,9.643764,121.4467,-17.15165,-0.4441859,-4.249202,-61.9592,-6.98289,34.57793,0,0,0,-64.18627,10.48101,62.32301,-36.4102,-110.6672,-50.37534,0.001067912,-0.1257102,0.09433498,0,0.3,0,0,0.08756348,0,
6.38223E+17,-15.57313,24.66401,62.68741,-49.21454,8.325351,123.7905,-17.15165,-0.4441859,-4.249202,-61.88596,-6.98289,34.57793,0,0,0,-64.34328,17.80949,62.51965,-36.4102,-110.6672,-50.37534,0.001067912,-0.1257102,0.09433498,0,0.3,0,0,0.08406465,0,
6.38223E+17,-15.45534,28.59154,66.70313,-49.87375,5.029318,129.9431,-17.15165,-0.4441859,-4.249202,-61.88596,-6.98289,34.57793,0,0,0,-63.84129,34.42699,62.55309,-36.4102,-110.6672,-50.37534,0.001067912,-0.1257102,0.09433498,0,0.3,0,0,0.07620953,0,
6.38223E+17,-14.93702,32.23854,70.62548,-51.04567,1.000834,135.583,-17.15165,-0.4441859,-4.249202,-61.88596,-6.98289,34.57793,0,0,0,-61.49837,50.24719,62.17843,-36.4102,-110.6672,-50.37534,0.001067912,-0.1257102,0.09433498,0,0.3,0,0,0.06727184,0,
6.38223E+17,-13.78258,35.90892,74.36105,-52.43733,-3.906592,142.2483,-17.15165,-0.4441859,-4.249202,-61.9592,-7.056135,34.57793,0,0,0,-56.32431,65.61179,61.26289,-36.4102,-110.6672,-50.37534,0.001067912,-0.1257102,0.09433498,0,0.3,0,0,0.05732293,0,
6.38223E+17,-12.22762,39.15849,77.32614,-53.90223,-9.033754,144.8852,-17.15165,-0.4441859,-4.249202,-61.88596,-6.98289,34.57793,0,0,0,-49.45452,78.29909,59.85356,-36.4102,-110.6672,-50.37534,0.001067912,-0.1257102,0.09433498,0,0.3,0,0,0.04657322,0,
6.38223E+17,-11.3559,40.72483,78.42347,-54.56144,-11.67058,144.9584,-17.15165,-0.4441859,-4.249202,-61.88596,-7.056135,34.57793,0,0,0,-45.62176,83.59088,58.81092,-36.4102,-110.6672,-50.37534,0.001067912,-0.1257102,0.09433498,0,0.3,0,0,0.04099039,0,
6.38223E+17,-9.447544,44.02116,79.73091,-55.87985,-16.50476,144.9584,-17.15165,-0.4441859,-4.249202,-61.9592,-6.98289,34.57793,0,0,0,-37.27783,92.24562,55.6733,-36.4102,-110.6672,-50.37534,0.001067912,-0.1257102,0.09433498,0,0.3,0,0,0.02950007,0,
6.38223E+17,-7.397828,47.36424,80.33794,-56.83204,-20.31351,144.8852,-17.15165,-0.4441859,-4.249202,-61.9592,-6.98289,34.57793,0,0,0,-28.55609,99.07118,51.58497,-36.4102,-110.6672,-50.37534,0.001067912,-0.1257102,0.09433498,0,0.3,0,0,0.01788073,0,
6.38223E+17,-6.21983,49.11761,80.50137,-57.19827,-22.29113,144.8119,-17.15165,-0.4441859,-4.249202,-61.88596,-6.98289,34.57793,0,0,0,-23.70559,102.1639,49.16246,-36.4102,-110.6672,-50.37534,0.001067912,-0.1257102,0.09433498,0,0.3,0,0,0.0120238,0,
6.38223E+17,-3.722474,52.39055,80.61811,-57.85748,-25.8069,144.8119,-17.15165,-0.4441859,-4.249202,-61.9592,-6.98289,34.57793,0,0,0,-13.82528,107.2505,44.14728,-36.4102,-110.6672,-50.37534,0.001067912,-0.1257102,0.09433498,0,0.3,0,0,0.000272159,0,
6.38223E+17,-0.8010387,55.47648,80.61811,-58.07721,-29.02968,144.8119,-17.15165,-0.4441859,-4.249202,-61.88596,-6.98289,34.57793,0,0,0,-2.895904,111.4783,38.77142,-36.4102,-110.6672,-50.37534,0.001067912,-0.1257102,0.09433498,0,0.3,0,0,0,0,
6.38223E+17,2.403116,58.07146,80.57141,-57.34475,-32.25247,144.8852,-17.15165,-0.4441859,-4.249202,-61.88596,-7.056135,34.57793,0,0,0,8.472883,114.6801,33.54445,-36.4102,-110.6672,-50.37534,0.001067912,-0.1257102,0.09433498,0,0.3,0,0,0,0,
6.38223E+17,3.981634,59.07672,80.52472,-56.68555,-33.86386,144.8852,-17.15165,-0.4441859,-4.249202,-61.88596,-6.98289,34.57793,0,0,0,13.89136,115.7928,31.22501,-36.4102,-110.6672,-50.37534,0.001067912,-0.1257102,0.09433498,0,0.3,0,0,0,0,
6.38223E+17,7.562747,60.75995,80.38464,-54.63469,-37.30639,144.8852,-17.15165,-0.4441859,-4.249202,-61.88596,-6.98289,34.57793,0,0,0,25.87675,117.4348,26.55376,-36.4102,-110.6672,-50.37534,0.001067912,-0.1257102,0.09433498,0,0.3,0,0,0,0,
6.38223E+17,11.04962,61.78859,80.08112,-50.97242,-40.60242,141.3694,-17.15165,-0.4441859,-4.249202,-61.9592,-6.98289,34.57793,0,0,0,37.25753,117.8892,22.44104,-36.4102,-110.6672,-50.37534,0.001067912,-0.1257102,0.09433498,0,0.3,0,0,0,0,
6.38223E+17,14.37158,62.4198,79.28732,-45.33255,-43.166,135.583,-17.15165,-0.4441859,-4.249202,-61.9592,-6.98289,34.57793,0,0,0,47.84623,116.7589,18.38328,-36.4102,-110.6672,-50.37534,0.001067912,-0.1257102,0.09433498,0,0.3,0,0,0,0,
6.38223E+17,17.41081,62.70034,78.42347,-38.88697,-44.7774,128.4782,-17.15165,-0.4441859,-4.249202,-61.88596,-6.98289,34.57793,0,0,0,57.38982,115.0872,14.66012,-36.4102,-110.6672,-50.37534,0.001067912,-0.1257102,0.09433498,0,0.3,0,0,0,0,
6.38223E+17,18.94221,62.70034,78.00321,-35.3712,-45.21687,124.9625,-17.15165,-0.4441859,-4.249202,-61.88596,-6.98289,34.57793,0,0,0,62.19537,114.1298,12.87206,-36.4102,-110.6672,-50.37534,0.001067912,-0.1257102,0.09433498,0,0.3,0,0,0,0,
6.38223E+17,21.93432,62.63021,77.02263,-27.82695,-45.87607,117.7844,-17.15165,-0.4441859,-4.249202,-61.88596,-6.98289,34.57793,0,0,0,71.43994,111.8266,9.055272,-36.4102,-110.6672,-50.37534,0.001067912,-0.1257102,0.09433498,0,0.3,0,0,0,0,
6.38223E+17,24.8322,62.39642,75.80857,-19.98972,-46.16905,110.1669,-17.15165,-0.4441859,-4.249202,-61.88596,-6.98289,34.57793,0,0,0,80.24147,108.829,5.052462,-36.4102,-110.6672,-50.37534,0.001067912,-0.1257102,0.09433498,0,0.3,0,0,0,0,
6.38223E+17,26.34004,62.2094,74.96807,-16.03448,-46.09581,106.5047,-17.15165,-0.4441859,-4.249202,-61.88596,-6.98289,34.57793,0,0,0,84.72859,106.7338,2.784121,-36.4102,-110.6672,-50.37534,0.001067912,-0.1257102,0.09433498,0,0.3,0,0,0,0,
6.38223E+17,29.37927,61.50805,72.98355,-8.270493,-45.29012,99.32666,-17.15165,-0.4441859,-4.249202,-61.88596,-7.056135,34.57793,0,0,0,93.76358,101.5248,-1.805596,-36.4102,-110.6672,-50.37534,0.001067912,-0.1257102,0.09433498,0,0.3,0,0,0,0,
6.38223E+17,32.37139,60.31576,70.99904,-0.9459759,-43.53223,92.29513,-17.15165,-0.4441859,-4.249202,-61.88596,-6.98289,34.57793,0,0,0,102.8629,95.78355,-6.084883,-36.4102,-110.6672,-50.37534,0.001067912,-0.1257102,0.09433498,0,0.3,0,0,0,0,
6.38223E+17,34.93942,58.81956,69.06121,5.060128,-41.40812,86.50875,-17.15165,-0.4441859,-4.249202,-61.88596,-6.98289,34.57793,0,0,0,110.8674,89.78106,-9.658051,-36.4102,-110.6672,-50.37534,0.001067912,-0.1257102,0.09433498,0,0.3,0,0,0,0,
6.38223E+17,36.1881,57.93119,67.73042,7.91669,-40.08971,84.01842,-17.15165,-0.4441859,-4.249202,-61.88596,-6.98289,34.57793,0,0,0,114.6655,85.81729,-11.61121,-36.4102,-110.6672,-50.37534,0.001067912,-0.1257102,0.09433498,0,0.3,0,0,0,0,
6.38223E+17,38.16714,56.06093,64.50849,12.23815,-37.23314,80.35616,-17.15165,-0.4441859,-4.249202,-61.9592,-6.98289,34.57793,0,0,0,120.3899,76.59059,-15.18105,-36.4102,-110.6672,-50.37534,0.001067912,-0.1257102,0.09433498,0,0.3,0,0,0,0,
6.38223E+17,39.79277,53.95689,60.81963,15.02147,-34.01036,78.45178,-17.15165,-0.4441859,-4.249202,-61.9592,-6.98289,34.57793,0,0,0,124.7313,66.15721,-18.60446,-36.4102,-110.6672,-50.37534,0.001067912,-0.1257102,0.09433498,0,0.3,0,0,0,0,
6.38223E+17,41.41841,51.29178,56.45369,16.8526,-29.90863,77.42635,-17.15165,-0.4441859,-4.249202,-61.88596,-6.98289,34.57793,0,0,0,128.692,53.71777,-22.4721,-36.4102,-110.6672,-50.37534,0.001067912,-0.1257102,0.09433498,0,0.3,0,0,0,0,
6.38223E+17,41.98385,50.14624,54.72599,17.36532,-28.15074,77.20662,-17.15165,-0.4441859,-4.249202,-61.88596,-6.98289,34.57793,0,0,0,129.9858,48.71254,-23.90426,-36.4102,-110.6672,-50.37534,0.001067912,-0.1257102,0.09433498,0,0.3,0,0,0,0,
6.38223E+17,43.11473,47.27073,50.64022,18.17101,-24.26875,76.91364,-17.15165,-0.4441859,-4.249202,-61.88596,-6.98289,34.57793,0,0,0,132.3086,36.73568,-27.03477,-36.4102,-110.6672,-50.37534,0.001067912,-0.1257102,0.09433498,0,0.3,0,0,0,0,
6.38223E+17,43.96289,43.99778,46.88131,18.53724,-20.02053,76.76715,-17.15165,-0.4441859,-4.249202,-61.88596,-6.98289,34.57793,0,0,0,134.163,24.83266,-29.23989,-36.4102,-110.6672,-50.37534,0.001067912,-0.1257102,0.09433498,0,0.3,0,0,0,0,
6.38223E+17,44.48121,40.60794,43.5193,18.75698,-15.9188,76.6939,-17.15165,-0.4441859,-4.249202,-61.88596,-7.056135,34.57793,0,0,0,135.2734,13.44703,-30.60444,-36.4102,-110.6672,-50.37534,0.001067912,-0.1257102,0.09433498,0,0.3,0,0,0,0,
6.38223E+17,44.59901,38.92471,42.00173,18.68373,-13.79469,76.6939,-17.15165,-0.4441859,-4.249202,-61.9592,-7.056135,34.57793,0,0,0,135.495,8.037952,-30.94502,-36.4102,-110.6672,-50.37534,0.001067912,-0.1257102,0.09433498,0,0.3,0,0,0,0,
6.38223E+17,44.59901,35.72189,39.22341,18.46399,-9.766206,76.6939,-17.15165,-0.4441859,-4.249202,-61.9592,-6.98289,34.57793,0,0,0,135.2217,-2.097813,-31.22218,-36.4102,-110.6672,-50.37534,0.001067912,-0.1257102,0.09433498,0,0.3,0,0,0,0,
6.38223E+17,44.31629,32.72948,36.51513,18.3175,-6.030703,76.62066,-17.15165,-0.4441859,-4.249202,-61.88596,-6.98289,34.57793,0,0,0,133.8038,-11.72459,-31.31406,-36.4102,-110.6672,-50.37534,0.001067912,-0.1257102,0.09433498,0,0.3,0,0,0,0,
6.38223E+17,43.93933,31.23328,35.18433,18.3175,-4.199574,76.62066,-17.15165,-0.4441859,-4.249202,-61.88596,-6.98289,34.57793,0,0,0,132.4371,-16.49215,-30.9164,-36.4102,-110.6672,-50.37534,0.001067912,-0.1257102,0.09433498,0,0.3,0,0,0,0,
6.38223E+17,42.54929,28.49803,32.14919,18.24426,-0.6838052,76.62066,-17.15165,-0.4441859,-4.249202,-61.88596,-6.98289,34.57793,0,0,0,127.2325,-25.92775,-29.73964,-36.4102,-110.6672,-50.37534,0.001067912,-0.1257102,0.09433498,0,0.3,0,0,0,0,
6.38223E+17,40.71161,26.13683,29.51094,18.02452,2.319247,76.6939,-17.15165,-0.4441859,-4.249202,-61.88596,-6.98289,34.57793,0,0,0,120.9282,-33.95653,-27.81557,-36.4102,-110.6672,-50.37534,0.001067912,-0.1257102,0.09433498,0,0.3,0,0,0,0,
6.38223E+17,39.60429,24.92117,28.13346,17.73154,4.003886,77.20662,-17.15165,-0.4441859,-4.249202,-61.88596,-6.98289,34.57793,0,0,0,117.1766,-38.05512,-26.72945,-36.4102,-110.6672,-50.37534,0.001067912,-0.1257102,0.09433498,0,0.3,0,0,0,0,
6.38223E+17,36.82422,22.20929,24.86484,16.99909,7.739389,79.69696,-17.15165,-0.4441859,-4.249202,-61.88596,-7.056135,34.57793,0,0,0,107.602,-47.23366,-24.64213,-36.4102,-110.6672,-50.37534,0.001067912,-0.1257102,0.09433498,0,0.3,0,0,0,0,
6.38223E+17,33.38446,19.12337,21.87639,15.46094,10.88893,82.55352,-17.15165,-0.4441859,-4.249202,-61.88596,-7.056135,34.57793,0,0,0,96.66762,-56.71155,-21.65933,-36.4102,-110.6672,-50.37534,0.001067912,-0.1257102,0.09433498,0,0.3,0,0,0,0,
6.38223E+17,29.49707,15.92056,19.82183,12.75087,14.03847,84.75087,-17.15165,-0.4441859,-4.249202,-61.9592,-7.056135,34.57793,0,0,0,85.40491,-65.52076,-17.37932,-36.4102,-110.6672,-50.37534,0.001067912,-0.1257102,0.09433498,0,0.3,0,0,0,0,
6.38223E+17,25.7746,13.46585,18.7712,9.747819,16.6753,86.80173,-17.15165,-0.4441859,-4.249202,-61.9592,-6.98289,34.57793,0,0,0,75.0497,-71.85462,-12.92643,-36.4102,-110.6672,-50.37534,0.001067912,-0.1257102,0.09433498,0,0.3,0,0,0,0,
6.38223E+17,23.84268,12.46058,18.56108,8.282915,17.70073,87.90041,-17.15165,-0.4441859,-4.249202,-61.88596,-6.98289,34.57793,0,0,0,69.79227,-74.29113,-10.42844,-36.4102,-110.6672,-50.37534,0.001067912,-0.1257102,0.09433498,0,0.3,0,0,0,0,
6.38223E+17,19.53121,10.89424,18.53773,5.279863,19.31213,90.39075,-17.15165,-0.4441859,-4.249202,-61.88596,-6.98289,34.57793,0,0,0,57.95193,-77.87835,-4.981645,-36.4102,-110.6672,-50.37534,0.001067912,-0.1257102,0.09433498,0,0.3,0,0,0,0,
6.38223E+17,14.67786,10.4033,18.91129,1.54436,20.19107,92.5881,-17.15165,-0.4441859,-4.249202,-61.9592,-7.056135,34.57793,0,0,0,44.18438,-78.72219,0.3364396,-36.4102,-110.6672,-50.37534,0.001067912,-0.1257102,0.09433498,0,0.3,0,0,0,0,
6.38223E+17,12.32186,10.37992,19.28484,-0.5065048,20.19107,93.61353,-17.15165,-0.4441859,-4.249202,-61.88596,-6.98289,34.57793,0,0,0,37.39004,-78.49125,2.822416,-36.4102,-110.6672,-50.37534,0.001067912,-0.1257102,0.09433498,0,0.3,0,0,0,0,
6.38223E+17,7.280028,10.37992,20.91915,-5.487176,19.53186,95.51791,-17.15165,-0.4441859,-4.249202,-61.9592,-7.056135,34.57793,0,0,0,22.65484,-77.184,8.989123,-36.4102,-110.6672,-50.37534,0.001067912,-0.1257102,0.09433498,0,0.3,0,0,0,0,
6.38223E+17,3.180595,10.47344,23.53404,-10.17487,18.43318,97.42229,-17.15165,-0.4441859,-4.249202,-61.88596,-6.98289,34.57793,0,0,0,10.22969,-74.66803,15.74013,-36.4102,-110.6672,-50.37534,0.001067912,-0.1257102,0.09433498,0,0.3,0,0,0,0,
6.38223E+17,-0.3533994,11.10465,26.61588,-15.00905,16.96828,100.4253,-17.15165,-0.4441859,-4.249202,-61.88596,-7.056135,34.57793,0,0,0,-1.175579,-70.18549,22.24139,-36.4102,-110.6672,-50.37534,0.001067912,-0.1257102,0.09433498,0,0.3,0,0,0,0,
6.38223E+17,-1.979037,11.66572,28.22684,-17.42614,16.08934,102.11,-17.15165,-0.4441859,-4.249202,-61.88596,-6.98289,34.57793,0,0,0,-6.688004,-67.17872,25.1997,-36.4102,-110.6672,-50.37534,0.001067912,-0.1257102,0.09433498,0,0.3,0,0,0,0,
6.38223E+17,-4.452833,12.88139,31.40207,-21.45462,14.33146,104.7468,-17.15165,-0.4441859,-4.249202,-61.88596,-6.98289,34.57793,0,0,0,-15.4869,-60.7403,30.52272,-36.4102,-110.6672,-50.37534,0.001067912,-0.1257102,0.09433498,0,0.3,0,0,0,0,
6.38223E+17,-6.384749,14.588,35.04425,-24.97039,12.28059,107.5301,-17.15165,-0.4441859,-4.249202,-61.9592,-6.98289,34.57793,0,0,0,-22.86605,-52.23841,35.99645,-36.4102,-110.6672,-50.37534,0.001067912,-0.1257102,0.09433498,0,0.3,0,0,0,0,
6.38223E+17,-8.104627,17.27649,39.10667,-28.11993,9.424027,111.6319,-17.15165,-0.4441859,-4.249202,-61.88596,-6.98289,34.57793,0,0,0,-29.80994,-40.5233,40.98441,-36.4102,-110.6672,-50.37534,0.001067912,-0.1257102,0.09433498,0,0.3,0,0,0,0,
6.38223E+17,-9.164824,19.38053,42.32859,-30.24404,7.080183,114.5617,-17.15165,-0.4441859,-4.249202,-61.88596,-6.98289,34.57793,0,0,0,-34.338,-30.98406,44.48705,-36.4102,-110.6672,-50.37534,0.001067912,-0.1257102,0.09433498,0,0.3,0,0,0,0,
6.38223E+17,-9.683144,20.61958,44.38315,-31.48921,5.688524,116.2463,-17.15165,-0.4441859,-4.249202,-61.88596,-6.98289,34.57793,0,0,0,-36.68085,-24.99164,46.62261,-36.4102,-110.6672,-50.37534,0.001067912,-0.1257102,0.09433498,0,0.3,0,0,0,0,
6.38223E+17,-10.27214,23.28469,48.6557,-33.83306,2.685472,119.3226,-17.15165,-0.4441859,-4.249202,-61.88596,-6.98289,34.57793,0,0,0,-39.69522,-12.02539,50.68401,-36.4102,-110.6672,-50.37534,0.001067912,-0.1257102,0.09433498,0,0.3,0,0,0,0,
6.38223E+17,-10.2957,26.39399,53.20842,-36.25014,-1.123276,123.2778,-17.15165,-0.4441859,-4.249202,-61.9592,-6.98289,34.57793,0,0,0,-40.43528,2.765467,54.24585,-36.4102,-110.6672,-50.37534,0.001067912,-0.1257102,0.09433498,0,0.3,0,0,0,0,
6.38223E+17,-10.08366,27.82006,55.54315,-37.27558,-3.027651,124.8892,-17.15165,-0.4441859,-4.249202,-61.88596,-6.98289,34.57793,0,0,0,-39.90055,10.13646,56.02096,-36.4102,-110.6672,-50.37534,0.001067912,-0.1257102,0.09433498,0,0.3,0,0,0,0,
6.38223E+17,-9.094145,30.83585,60.84298,-39.91241,-7.642097,128.991,-17.15165,-0.4441859,-4.249202,-61.88596,-7.056135,34.57793,0,0,0,-36.50369,26.73381,59.6994,-36.4102,-110.6672,-50.37534,0.001067912,-0.1257102,0.09433498,0,0.3,0,0,0,0,
6.38223E+17,-7.562747,33.66461,65.16222,-42.54923,-12.47628,132.7997,-17.15165,-0.4441859,-4.249202,-61.88596,-6.98289,34.57793,0,0,0,-30.53422,41.25622,61.63387,-36.4102,-110.6672,-50.37534,0.001067912,-0.1257102,0.09433498,0,0.3,0,0,0,0,
6.38223E+17,-5.324551,36.72716,68.52423,-44.81983,-17.16397,135.2168,-17.15165,-0.4441859,-4.249202,-61.88596,-6.98289,34.57793,0,0,0,-21.43346,54.2735,61.6242,-36.4102,-110.6672,-50.37534,0.001067912,-0.1257102,0.09433498,0,0.3,0,0,0,0,
6.38223E+17,-3.533994,38.87795,70.39201,-45.84526,-20.38675,136.2422,-17.15165,-0.4441859,-4.249202,-61.88596,-6.98289,34.57793,0,0,0,-14.14211,62.29894,60.64178,-36.4102,-110.6672,-50.37534,0.001067912,-0.1257102,0.09433498,0,0.3,0,0,0,0,
6.38223E+17,-1.177998,41.14564,72.51661,-46.72421,-24.26875,136.6817,-17.15165,-0.4441859,-4.249202,-61.9592,-6.98289,34.57793,0,0,0,-4.67927,71.02875,59.20949,-36.4102,-110.6672,-50.37534,0.001067912,-0.1257102,0.09433498,0,0.3,0,0,0,0,
6.38223E+17,2.332436,43.74062,75.06145,-47.38342,-29.02968,136.9014,-17.15165,-0.4441859,-4.249202,-61.88596,-6.98289,34.57793,0,0,0,9.164474,81.17216,56.64893,-36.4102,-110.6672,-50.37534,0.001067912,-0.1257102,0.09433498,0,0.3,0,0,0,0,
6.38223E+17,4.099433,44.86277,75.92531,-47.45666,-31.30029,136.9747,-17.15165,-0.4441859,-4.249202,-61.9592,-6.98289,34.57793,0,0,0,16.00357,84.98765,54.94227,-36.4102,-110.6672,-50.37534,0.001067912,-0.1257102,0.09433498,0,0.3,0,0,0,0,
6.38223E+17,8.646505,46.61614,77.2561,-46.28474,-36.20771,136.3155,-17.15165,-0.4441859,-4.249202,-61.88596,-6.98289,34.57793,0,0,0,33.32402,90.84838,50.79161,-36.4102,-110.6672,-50.37534,0.001067912,-0.1257102,0.09433498,0,0.3,0,0,0,0,
6.38223E+17,13.49986,47.6214,77.97987,-42.3295,-40.96865,130.9686,-17.15165,-0.4441859,-4.249202,-61.88596,-7.056135,34.57793,0,0,0,51.42927,94.08574,45.87068,-36.4102,-110.6672,-50.37534,0.001067912,-0.1257102,0.09433498,0,0.3,0,0,0,0,
6.38223E+17,18.23541,47.87856,77.95652,-35.22471,-44.85064,121.8129,-17.15165,-0.4441859,-4.249202,-61.88596,-6.98289,34.57793,0,0,0,68.79693,94.43502,40.46202,-36.4102,-110.6672,-50.37534,0.001067912,-0.1257102,0.09433498,0,0.3,0,0,0,0,
6.38223E+17,23.13588,47.50451,77.34949,-24.45767,-47.41422,110.0937,-17.15165,-0.4441859,-4.249202,-61.88596,-6.98289,34.57793,0,0,0,86.5175,92.46891,34.13597,-36.4102,-110.6672,-50.37534,0.001067912,-0.1257102,0.09433498,0,0.3,0,0,0,0,
6.38223E+17,27.37668,46.45249,75.64514,-12.95818,-48.29316,98.37447,-17.15165,-0.4441859,-4.249202,-61.88596,-6.98289,34.57793,0,0,0,101.6514,86.9415,27.9509,-36.4102,-110.6672,-50.37534,0.001067912,-0.1257102,0.09433498,0,0.3,0,0,0,0,
6.38223E+17,29.73267,45.5875,73.68398,-6.146383,-47.63396,92.22188,-17.15165,-0.4441859,-4.249202,-61.88596,-6.98289,34.57793,0,0,0,109.7548,81.14185,23.816,-36.4102,-110.6672,-50.37534,0.001067912,-0.1257102,0.09433498,0,0.3,0,0,0,0,
6.38223E+17,31.09915,45.07318,71.97962,-2.484124,-46.60852,89.14558,-17.15165,-0.4441859,-4.249202,-61.9592,-6.98289,34.57793,0,0,0,114.1412,76.51051,20.87037,-36.4102,-110.6672,-50.37534,0.001067912,-0.1257102,0.09433498,0,0.3,0,0,0,0,
6.38223E+17,33.3609,44.20818,68.17402,2.276812,-43.89846,84.82411,-17.15165,-0.4441859,-4.249202,-61.88596,-6.98289,34.57793,0,0,0,120.6383,66.75257,14.8795,-36.4102,-110.6672,-50.37534,0.001067912,-0.1257102,0.09433498,0,0.3,0,0,0,0,
6.38223E+17,35.1279,43.17954,63.80808,4.986883,-40.38269,82.18729,-17.15165,-0.4441859,-4.249202,-61.88596,-7.056135,34.57793,0,0,0,124.804,55.7417,9.044493,-36.4102,-110.6672,-50.37534,0.001067912,-0.1257102,0.09433498,0,0.3,0,0,0,0,
6.38223E+17,35.81114,42.57171,61.56674,5.719335,-38.47831,81.45483,-17.15165,-0.4441859,-4.249202,-61.88596,-7.056135,34.57793,0,0,0,126.0733,50.07036,6.383305,-36.4102,-110.6672,-50.37534,0.001067912,-0.1257102,0.09433498,0,0.3,0,0,0,0,
6.38223E+17,36.8949,41.02874,56.54708,6.598277,-34.15685,80.50266,-17.15165,-0.4441859,-4.249202,-61.88596,-7.056135,34.57793,0,0,0,127.1874,37.37655,1.0791,-36.4102,-110.6672,-50.37534,0.001067912,-0.1257102,0.09433498,0,0.3,0,0,0,0,
6.38223E+17,37.20118,39.43903,50.85035,6.08556,-29.24942,80.13642,-17.15165,-0.4441859,-4.249202,-61.88596,-6.98289,34.57793,0,0,0,124.7922,23.87121,-3.949424,-36.4102,-110.6672,-50.37534,0.001067912,-0.1257102,0.09433498,0,0.3,0,0,0,0,
6.38223E+17,37.10694,37.63891,44.99018,4.181186,-24.12226,79.91669,-17.15165,-0.4441859,-4.249202,-61.88596,-6.98289,34.57793,0,0,0,120.5843,10.47573,-8.949047,-36.4102,-110.6672,-50.37534,0.001067912,-0.1257102,0.09433498,0,0.3,0,0,0,0,
6.38223E+17,37.10694,35.46473,40.83437,1.983831,-19.94728,79.47723,-17.15165,-0.4441859,-4.249202,-61.88596,-6.98289,34.57793,0,0,0,118.1295,-0.1731036,-12.19409,-36.4102,-110.6672,-50.37534,0.001067912,-0.1257102,0.09433498,0,0.3,0,0,0,0,
6.38223E+17,37.10694,32.72948,37.72918,0.006211365,-16.06529,78.3053,-17.15165,-0.4441859,-4.249202,-61.88596,-7.056135,34.57793,0,0,0,116.9079,-10.01933,-13.80895,-36.4102,-110.6672,-50.37534,0.001067912,-0.1257102,0.09433498,0,0.3,0,0,0,0,
6.38223E+17,36.8949,28.28763,34.46056,-2.410879,-10.64515,75.96145,-17.15165,-0.4441859,-4.249202,-61.9592,-6.98289,34.57793,0,0,0,115.7953,-23.40488,-14.09658,-36.4102,-110.6672,-50.37534,0.001067912,-0.1257102,0.09433498,0,0.3,0,0,0,0,
6.38223E+17,36.56506,26.04332,33.05973,-3.656047,-8.081567,74.78953,-17.15165,-0.4441859,-4.249202,-61.88596,-6.98289,34.57793,0,0,0,114.7113,-29.86356,-13.69421,-36.4102,-110.6672,-50.37534,0.001067912,-0.1257102,0.09433498,0,0.3,0,0,0,0,
6.38223E+17,35.92894,19.59093,30.39814,-7.684532,-1.489502,69.58913,-17.15165,-0.4441859,-4.249202,-61.9592,-7.056135,34.57793,0,0,0,113.3112,-46.9558,-11.98307,-36.4102,-110.6672,-50.37534,0.001067912,-0.1257102,0.09433498,0,0.3,0,0,0,0,
6.38223E+17,35.81114,17.60379,30.3281,-8.709964,0.3416272,67.90449,-17.15165,-0.4441859,-4.249202,-61.88596,-6.98289,34.57793,0,0,0,113.7701,-51.42136,-10.66845,-36.4102,-110.6672,-50.37534,0.001067912,-0.1257102,0.09433498,0,0.3,0,0,0,0,
6.38223E+17,35.7169,13.72301,31.21529,-10.61434,3.93064,65.19441,-17.15165,-0.4441859,-4.249202,-61.88596,-6.98289,34.57793,0,0,0,115.9696,-59.06,-7.061591,-36.4102,-110.6672,-50.37534,0.001067912,-0.1257102,0.09433498,0,0.3,0,0,0,0,
6.38223E+17,35.97606,11.08127,32.31261,-12.07924,6.494221,63.29004,-17.15165,-0.4441859,-4.249202,-61.88596,-6.98289,34.57793,0,0,0,118.7492,-63.71995,-4.762062,-36.4102,-110.6672,-50.37534,0.001067912,-0.1257102,0.09433498,0,0.3,0,0,0,0,
6.38223E+17,36.23522,10.21628,32.80291,-12.6652,7.519653,62.33785,-17.15165,-0.4441859,-4.249202,-61.88596,-6.98289,34.57793,0,0,0,120.2763,-65.08436,-4.22503,-36.4102,-110.6672,-50.37534,0.001067912,-0.1257102,0.09433498,0,0.3,0,0,0,0,
6.38223E+17,36.98914,8.743448,34.08701,-13.69064,8.398596,60.65321,-17.15165,-0.4441859,-4.249202,-61.9592,-6.98289,34.57793,0,0,0,124.2655,-66.81821,-3.379061,-36.4102,-110.6672,-50.37534,0.001067912,-0.1257102,0.09433498,0,0.3,0,0,0,0,
6.38223E+17,37.90798,7.200486,35.72132,-14.2766,8.471841,58.89533,-17.15165,-0.4441859,-4.249202,-61.88596,-6.98289,34.57793,0,0,0,129.1175,-68.19807,-2.538911,-36.4102,-110.6672,-50.37534,0.001067912,-0.1257102,0.09433498,0,0.3,0,0,0,0,
6.38223E+17,38.47342,6.569275,36.63186,-14.64282,8.325351,57.94314,-17.15165,-0.4441859,-4.249202,-61.9592,-6.98289,34.57793,0,0,0,131.9213,-68.40565,-2.3441,-36.4102,-110.6672,-50.37534,0.001067912,-0.1257102,0.09433498,0,0.3,0,0,0,0,
6.38223E+17,40.14618,6.031577,37.986,-15.00905,7.666144,56.03876,-17.15165,-0.4441859,-4.249202,-61.9592,-6.98289,34.57793,0,0,0,138.4157,-67.73933,-4.244668,-36.4102,-110.6672,-50.37534,0.001067912,-0.1257102,0.09433498,0,0.3,0,0,0,0,
6.38223E+17,42.54929,5.797795,39.43353,-14.56958,6.567466,53.69492,-17.15165,-0.4441859,-4.249202,-61.9592,-7.056135,34.57793,0,0,0,146.9905,-66.17372,-8.21481,-36.4102,-110.6672,-50.37534,0.001067912,-0.1257102,0.09433498,0,0.3,0,0,0,0,
6.38223E+17,44.90529,5.58739,41.11454,-13.4709,5.395544,51.86379,-17.15165,-0.4441859,-4.249202,-61.88596,-6.98289,34.57793,0,0,0,155.5905,-64.13197,-12.24419,-36.4102,-110.6672,-50.37534,0.001067912,-0.1257102,0.09433498,0,0.3,0,0,0,0,
6.38223E+17,46.27176,5.58739,42.04842,-12.44547,4.736337,50.9116,-17.15165,-0.4441859,-4.249202,-61.88596,-6.98289,34.57793,0,0,0,160.4439,-62.68944,-14.87517,-36.4102,-110.6672,-50.37534,0.001067912,-0.1257102,0.09433498,0,0.3,0,0,0,0,
6.38223E+17,48.62776,5.751038,44.17303,-10.3946,4.077131,49.22696,-17.15165,-0.4441859,-4.249202,-61.88596,-7.056135,34.57793,0,0,0,169.2979,-58.9313,-19.23955,-36.4102,-110.6672,-50.37534,0.001067912,-0.1257102,0.09433498,0,0.3,0,0,0,0,
6.38223E+17,51.17223,6.24198,46.29763,-8.050756,3.63766,47.90855,-17.15165,-0.4441859,-4.249202,-61.88596,-6.98289,34.57793,0,0,0,178.3702,-54.28432,-24.79427,-36.4102,-110.6672,-50.37534,0.001067912,-0.1257102,0.09433498,0,0.3,0,0,0,0,
6.38223E+17,53.62247,7.317377,47.95528,-5.560421,3.344679,46.66338,-17.15165,-0.4441859,-4.249202,-61.88596,-7.056135,34.57793,0,0,0,186.2198,-48.9717,-31.16958,-36.4102,-110.6672,-50.37534,0.001067912,-0.1257102,0.09433498,0,0.3,0,0,0,0,
6.38223E+17,55.38947,8.790204,49.9865,-2.191144,2.612227,45.12524,-17.15165,-0.4441859,-4.249202,-61.88596,-6.98289,34.57793,0,0,0,192.52,-42.01167,-35.48712,-36.4102,-110.6672,-50.37534,0.001067912,-0.1257102,0.09433498,0,0.3,0,0,0,0,
6.38223E+17,55.27167,9.187634,50.7803,-0.7994855,2.099511,44.24629,-17.15165,-0.4441859,-4.249202,-61.88596,-6.98289,34.57793,0,0,0,193.0958,-39.67488,-34.5028,-36.4102,-110.6672,-50.37534,0.001067912,-0.1257102,0.09433498,0,0.3,0,0,0,0,
6.38223E+17,55.34235,9.865602,52.64809,-1.165711,2.099511,41.02351,-17.15165,-0.4441859,-4.249202,-61.88596,-6.98289,34.57793,0,0,0,195.2614,-34.70676,-33.35803,-36.4102,-110.6672,-50.37534,0.001067912,-0.1257102,0.09433498,0,0.3,0,0,0,0,
6.38223E+17,55.34235,11.01113,56.38364,-2.337634,2.612227,36.6288,-17.15165,-0.4441859,-4.249202,-61.88596,-6.98289,34.57793,0,0,0,199.0146,-25.00665,-30.76328,-36.4102,-110.6672,-50.37534,0.001067912,-0.1257102,0.09433498,0,0.3,0,0,0,0,
6.38223E+17,55.31879,12.0164,57.5977,-2.70386,2.905208,35.96959,-17.15165,-0.4441859,-4.249202,-61.88596,-6.98289,34.57793,0,0,0,199.8398,-20.34466,-30.07132,-36.4102,-110.6672,-50.37534,0.001067912,-0.1257102,0.09433498,0,0.3,0,0,0,0,
6.38223E+17,55.24811,14.84516,58.32147,-2.484124,3.198189,36.84853,-17.15165,-0.4441859,-4.249202,-61.88596,-6.98289,34.57793,0,0,0,199.147,-12.51383,-30.18708,-36.4102,-110.6672,-50.37534,0.001067912,-0.1257102,0.09433498,0,0.3,0,0,0,0,
6.38223E+17,55.17743,18.14149,57.90122,-1.165711,3.417924,38.24019,-17.15165,-0.4441859,-4.249202,-61.88596,-6.98289,34.57793,0,0,0,196.7644,-5.989131,-31.48016,-36.4102,-110.6672,-50.37534,0.001067912,-0.1257102,0.09433498,0,0.3,0,0,0,0,
6.38223E+17,54.98895,20.71309,58.0413,0.5921727,3.78415,38.89939,-17.15165,-0.4441859,-4.249202,-61.9592,-6.98289,34.57793,0,0,0,194.8244,-0.06883162,-31.87647,-36.4102,-110.6672,-50.37534,0.001067912,-0.1257102,0.09433498,0,0.3,0,0,0,0,
6.38223E+17,54.82403,21.83524,58.29812,1.324624,3.857395,39.11913,-17.15165,-0.4441859,-4.249202,-61.9592,-6.98289,34.57793,0,0,0,193.9139,2.872684,-31.68055,-36.4102,-110.6672,-50.37534,0.001067912,-0.1257102,0.09433498,0,0.3,0,0,0,0,
6.38223E+17,54.63555,23.86915,59.53553,2.569792,3.491169,39.63185,-17.15165,-0.4441859,-4.249202,-61.9592,-6.98289,34.57793,0,0,0,193.1767,9.700987,-31.24679,-36.4102,-110.6672,-50.37534,0.001067912,-0.1257102,0.09433498,0,0.3,0,0,0,0,
6.38223E+17,54.80047,25.29522,61.42666,3.888205,2.612227,40.21781,-17.15165,-0.4441859,-4.249202,-61.9592,-7.056135,34.57793,0,0,0,194.2143,16.54902,-31.34926,-36.4102,-110.6672,-50.37534,0.001067912,-0.1257102,0.09433498,0,0.3,0,0,0,0,
6.38223E+17,54.82403,26.90831,63.20105,5.499599,1.074079,40.73053,-17.15165,-0.4441859,-4.249202,-61.9592,-6.98289,34.57793,0,0,0,194.4888,23.57708,-31.27533,-36.4102,-110.6672,-50.37534,0.001067912,-0.1257102,0.09433498,0,0.3,0,0,0,0,
6.38223E+17,54.82403,28.07722,64.92875,6.451786,-0.171089,41.02351,-17.15165,-0.4441859,-4.249202,-61.88596,-6.98289,34.57793,0,0,0,194.8997,29.60626,-30.98574,-36.4102,-110.6672,-50.37534,0.001067912,-0.1257102,0.09433498,0,0.3,0,0,0,0,
6.38223E+17,54.82403,28.94222,65.93268,7.037747,-0.9767859,41.38973,-17.15165,-0.4441859,-4.249202,-61.88596,-6.98289,34.57793,0,0,0,194.9084,33.50027,-30.97963,-36.4102,-110.6672,-50.37534,0.001067912,-0.1257102,0.09433498,0,0.3,0,0,0,0,
6.38223E+17,54.82403,31.02288,67.49695,8.35616,-2.514934,42.12218,-17.15165,-0.4441859,-4.249202,-61.88596,-6.98289,34.57793,0,0,0,194.1068,41.03855,-31.5446,-36.4102,-110.6672,-50.37534,0.001067912,-0.1257102,0.09433498,0,0.3,0,0,0,0,
6.38223E+17,54.84759,33.38407,69.45811,9.747819,-3.979838,43.07437,-17.15165,-0.4441859,-4.249202,-61.88596,-6.98289,34.57793,0,0,0,193.1377,49.93421,-32.34644,-36.4102,-110.6672,-50.37534,0.001067912,-0.1257102,0.09433498,0,0.3,0,0,0,0,
6.38223E+17,54.84759,34.71663,70.43871,10.70001,-4.785534,43.58709,-17.15165,-0.4441859,-4.249202,-61.9592,-7.056135,34.57793,0,0,0,192.3577,54.64764,-32.89571,-36.4102,-110.6672,-50.37534,0.001067912,-0.1257102,0.09433498,0,0.3,0,0,0,0,
6.38223E+17,54.82403,37.52202,72.68004,12.82412,-6.689909,44.53928,-17.15165,-0.4441859,-4.249202,-61.88596,-6.98289,34.57793,0,0,0,190.505,64.86969,-34.08311,-36.4102,-110.6672,-50.37534,0.001067912,-0.1257102,0.09433498,0,0.3,0,0,0,0,
6.38223E+17,54.77691,40.37416,74.80464,15.09472,-8.447793,45.5647,-17.15165,-0.4441859,-4.249202,-61.88596,-6.98289,34.57793,0,0,0,188.1169,74.77847,-35.53456,-36.4102,-110.6672,-50.37534,0.001067912,-0.1257102,0.09433498,0,0.3,0,0,0,0,
6.38223E+17,54.70623,41.91712,75.69183,16.33988,-9.326735,45.93093,-17.15165,-0.4441859,-4.249202,-61.9592,-6.98289,34.57793,0,0,0,186.4536,79.47939,-36.36396,-36.4102,-110.6672,-50.37534,0.001067912,-0.1257102,0.09433498,0,0.3,0,0,0,0,
6.38223E+17,54.37639,45.89141,78.0966,19.63592,-11.59733,46.66338,-17.15165,-0.4441859,-4.249202,-61.88596,-6.98289,34.57793,0,0,0,181.5093,91.59317,-38.28896,-36.4102,-110.6672,-50.37534,0.001067912,-0.1257102,0.09433498,0,0.3,0,0,0,0,
6.38223E+17,53.88163,48.83707,79.59083,22.34599,-13.20873,47.1761,-17.15165,-0.4441859,-4.249202,-61.88596,-6.98289,34.57793,0,0,0,176.8492,99.64811,-39.30247,-36.4102,-110.6672,-50.37534,0.001067912,-0.1257102,0.09433498,0,0.3,0,0,0,0,
6.38223E+17,52.93923,52.71785,81.03836,25.78851,-15.18635,48.34802,-17.15165,-0.4441859,-4.249202,-61.88596,-6.98289,34.57793,0,0,0,169.5725,108.6792,-40.28578,-36.4102,-110.6672,-50.37534,0.001067912,-0.1257102,0.09433498,0,0.3,0,0,0,0,
6.38223E+17,52.32668,54.9154,81.5053,27.54639,-16.28502,49.22696,-17.15165,-0.4441859,-4.249202,-61.88596,-6.98289,34.57793,0,0,0,165.0569,112.7727,-40.90221,-36.4102,-110.6672,-50.37534,0.001067912,-0.1257102,0.09433498,0,0.3,0,0,0,0,
6.38223E+17,50.88952,59.1001,81.48196,30.84243,-18.33589,51.57081,-17.15165,-0.4441859,-4.249202,-61.88596,-7.056135,34.57793,0,0,0,155.4652,118.0212,-41.95961,-36.4102,-110.6672,-50.37534,0.001067912,-0.1257102,0.09433498,0,0.3,0,0,0,0,
6.38223E+17,49.14608,62.67696,81.17844,33.18628,-20.09377,54.35413,-17.15165,-0.4441859,-4.249202,-61.88596,-6.98289,34.57793,0,0,0,145.967,121.3723,-42.11473,-36.4102,-110.6672,-50.37534,0.001067912,-0.1257102,0.09433498,0,0.3,0,0,0,0,
6.38223E+17,46.69584,66.09018,80.52472,34.87091,-21.85166,58.08963,-17.15165,-0.4441859,-4.249202,-61.88596,-7.056135,34.57793,0,0,0,135.0488,123.3042,-41.06796,-36.4102,-110.6672,-50.37534,0.001067912,-0.1257102,0.09433498,0,0.3,0,0,0,0,
6.38223E+17,44.15137,68.98907,79.66087,35.60336,-23.75603,62.41109,-17.15165,-0.4441859,-4.249202,-61.88596,-6.98289,34.57793,0,0,0,124.6814,123.901,-39.91938,-36.4102,-110.6672,-50.37534,0.001067912,-0.1257102,0.09433498,0,0.3,0,0,0,0,
6.38223E+17,42.73777,70.2515,79.24062,35.67661,-24.85471,64.90143,-17.15165,-0.4441859,-4.249202,-61.9592,-6.98289,34.57793,0,0,0,119.4845,123.9626,-39.03703,-36.4102,-110.6672,-50.37534,0.001067912,-0.1257102,0.09433498,0,0.3,0,0,0,0,
6.38223E+17,39.62786,72.19189,78.37677,35.38363,-27.05207,70.54131,-17.15165,-0.4441859,-4.249202,-61.9592,-6.98289,34.57793,0,0,0,109.3173,123.444,-36.33876,-36.4102,-110.6672,-50.37534,0.001067912,-0.1257102,0.09433498,0,0.3,0,0,0,0,
6.38223E+17,36.87134,73.54783,77.6997,34.79766,-28.73671,75.74171,-17.15165,-0.4441859,-4.249202,-61.9592,-6.98289,34.57793,0,0,0,100.8367,122.8319,-33.90807,-36.4102,-110.6672,-50.37534,0.001067912,-0.1257102,0.09433498,0,0.3,0,0,0,0,
6.38223E+17,33.47871,74.90376,77.09267,33.84548,-30.49459,81.16187,-17.15165,-0.4441859,-4.249202,-61.88596,-6.98289,34.57793,0,0,0,90.85872,122.311,-30.96654,-36.4102,-110.6672,-50.37534,0.001067912,-0.1257102,0.09433498,0,0.3,0,0,0,0,
6.38223E+17,31.59391,75.60511,76.60238,32.96654,-31.37353,84.01842,-17.15165,-0.4441859,-4.249202,-61.88596,-6.98289,34.57793,0,0,0,85.328,121.6153,-29.61827,-36.4102,-110.6672,-50.37534,0.001067912,-0.1257102,0.09433498,0,0.3,0,0,0,0,
6.38223E+17,27.96567,76.84415,75.1782,30.54945,-32.98492,89.73154,-17.15165,-0.4441859,-4.249202,-61.88596,-7.056135,34.57793,0,0,0,74.6854,119.0874,-27.68394,-36.4102,-110.6672,-50.37534,0.001067912,-0.1257102,0.09433498,0,0.3,0,0,0,0,
6.38223E+17,24.45524,77.59225,73.73067,27.47315,-34.30334,95.66441,-17.15165,-0.4441859,-4.249202,-61.88596,-6.98289,34.57793,0,0,0,64.85554,116.227,-25.74239,-36.4102,-110.6672,-50.37534,0.001067912,-0.1257102,0.09433498,0,0.3,0,0,0,0,
6.38223E+17,22.54688,77.70914,72.89016,26.00825,-34.8893,98.88718,-17.15165,-0.4441859,-4.249202,-61.88596,-6.98289,34.57793,0,0,0,59.75328,114.4114,-24.42602,-36.4102,-110.6672,-50.37534,0.001067912,-0.1257102,0.09433498,0,0.3,0,0,0,0,
6.38223E+17,18.63593,77.63902,70.97569,23.15168,-35.62175,106.0652,-17.15165,-0.4441859,-4.249202,-61.88596,-6.98289,34.57793,0,0,0,49.40705,110.1407,-21.84389,-36.4102,-110.6672,-50.37534,0.001067912,-0.1257102,0.09433498,0,0.3,0,0,0,0,
6.38223E+17,12.62814,76.91429,67.94054,16.63286,-36.13447,118.7366,-17.15165,-0.4441859,-4.249202,-61.9592,-6.98289,34.57793,0,0,0,33.61969,103.1552,-18.29038,-36.4102,-110.6672,-50.37534,0.001067912,-0.1257102,0.09433498,0,0.3,0,0,0,0,
6.38223E+17,9.871624,76.28308,66.28289,12.3114,-36.06122,125.6949,-17.15165,-0.4441859,-4.249202,-61.88596,-6.98289,34.57793,0,0,0,26.35192,99.26054,-16.91752,-36.4102,-110.6672,-50.37534,0.001067912,-0.1257102,0.09433498,0,0.3,0,0,0,0,
6.38223E+17,6.47899,74.99728,63.59795,6.232051,-35.47526,134.3379,-17.15165,-0.4441859,-4.249202,-61.88596,-6.98289,34.57793,0,0,0,17.37275,92.8582,-15.37261,-36.4102,-110.6672,-50.37534,0.001067912,-0.1257102,0.09433498,0,0.3,0,0,0,0,
6.38223E+17,4.876912,74.13229,62.31385,3.521979,-34.8893,138.0733,-17.15165,-0.4441859,-4.249202,-61.88596,-6.98289,34.57793,0,0,0,13.13849,89.66063,-14.36708,-36.4102,-110.6672,-50.37534,0.001067912,-0.1257102,0.09433498,0,0.3,0,0,0,0,
6.38223E+17,0.5418791,71.42041,57.55101,-3.509557,-32.32572,144.8119,-17.15165,-0.4441859,-4.249202,-61.88596,-6.98289,34.57793,0,0,0,1.466074,78.20132,-13.33874,-36.4102,-110.6672,-50.37534,0.001067912,-0.1257102,0.09433498,0,0.3,0,0,0,0,
6.38223E+17,-0.612559,70.43852,55.28632,-5.706912,-30.93406,144.8852,-17.15165,-0.4441859,-4.249202,-61.88596,-6.98289,34.57793,0,0,0,-1.649218,73.06382,-14.09604,-36.4102,-110.6672,-50.37534,0.001067912,-0.1257102,0.09433498,0,0.3,0,0,0,0,
6.38223E+17,-2.167516,68.14746,50.40675,-9.295925,-27.12531,144.9584,-17.15165,-0.4441859,-4.249202,-61.88596,-6.98289,34.57793,0,0,0,-5.763711,62.12973,-16.06567,-36.4102,-110.6672,-50.37534,0.001067912,-0.1257102,0.09433498,0,0.3,0,0,0,0,
6.38223E+17,-2.732955,65.45897,45.59721,-11.42003,-22.7306,144.8852,-17.15165,-0.4441859,-4.249202,-61.9592,-6.98289,34.57793,0,0,0,-7.183456,51.34896,-17.86474,-36.4102,-110.6672,-50.37534,0.001067912,-0.1257102,0.09433498,0,0.3,0,0,0,0,
6.38223E+17,-2.897875,63.86925,42.86558,-11.93275,-20.16702,144.8852,-17.15165,-0.4441859,-4.249202,-61.88596,-6.98289,34.57793,0,0,0,-7.555356,45.33136,-19.09553,-36.4102,-110.6672,-50.37534,0.001067912,-0.1257102,0.09433498,0,0.3,0,0,0,0,
6.38223E+17,-3.062795,60.7132,37.68249,-12.15249,-14.74688,144.8852,-17.15165,-0.4441859,-4.249202,-61.9592,-6.98289,34.57793,0,0,0,-7.840764,34.12088,-21.81237,-36.4102,-110.6672,-50.37534,0.001067912,-0.1257102,0.09433498,0,0.3,0,0,0,0,
6.38223E+17,-2.992115,57.46363,32.82626,-11.71302,-8.814018,144.8852,-17.15165,-0.4441859,-4.249202,-61.88596,-6.98289,34.57793,0,0,0,-7.517028,23.71429,-24.53788,-36.4102,-110.6672,-50.37534,0.001067912,-0.1257102,0.09433498,0,0.3,0,0,0,0,
6.38223E+17,-2.921435,56.03755,30.67831,-11.49328,-6.396928,144.8852,-17.15165,-0.4441859,-4.249202,-61.9592,-6.98289,34.57793,0,0,0,-7.264438,19.26394,-26.00186,-36.4102,-110.6672,-50.37534,0.001067912,-0.1257102,0.09433498,0,0.3,0,0,0,0,
6.38223E+17,-2.497356,53.11528,26.38241,-10.68758,-1.782483,144.5922,-17.15165,-0.4441859,-4.249202,-61.88596,-6.98289,34.57793,0,0,0,-6.069455,10.54793,-29.18927,-36.4102,-110.6672,-50.37534,0.001067912,-0.1257102,0.09433498,0,0.3,0,0,0,0,
6.38223E+17,-1.295798,50.70732,22.90367,-9.442415,2.612227,144.5922,-17.15165,-0.4441859,-4.249202,-61.88596,-6.98289,34.57793,0,0,0,-3.083323,3.715633,-32.03918,-36.4102,-110.6672,-50.37534,0.001067912,-0.1257102,0.09433498,0,0.3,0,0,0,0,
6.38223E+17,0.2355996,49.14098,20.31212,-7.538041,5.688524,144.5189,-17.15165,-0.4441859,-4.249202,-61.88596,-6.98289,34.57793,0,0,0,0.5490637,-0.8522135,-34.82323,-36.4102,-110.6672,-50.37534,0.001067912,-0.1257102,0.09433498,0,0.3,0,0,0,0,
6.38223E+17,1.201558,48.62666,19.12141,-6.585854,7.153428,144.5189,-17.15165,-0.4441859,-4.249202,-61.88596,-6.98289,34.57793,0,0,0,2.764234,-2.574286,-36.55801,-36.4102,-110.6672,-50.37534,0.001067912,-0.1257102,0.09433498,0,0.3,0,0,0,0,
6.38223E+17,3.887394,47.87856,16.83338,-4.388499,9.8635,144.4457,-17.15165,-0.4441859,-4.249202,-61.88596,-6.98289,34.57793,0,0,0,8.681599,-5.377062,-40.58947,-36.4102,-110.6672,-50.37534,0.001067912,-0.1257102,0.09433498,0,0.3,0,0,0,0,
6.38223E+17,8.081067,47.06033,14.59204,-1.385447,12.28059,144.0795,-17.15165,-0.4441859,-4.249202,-61.88596,-6.98289,34.57793,0,0,0,17.49265,-8.076975,-45.14837,-36.4102,-110.6672,-50.37534,0.001067912,-0.1257102,0.09433498,0,0.3,0,0,0,0,
6.38223E+17,12.08626,45.98492,13.09782,1.397869,14.25821,143.054,-17.15165,-0.4441859,-4.249202,-61.9592,-6.98289,34.57793,0,0,0,25.72847,-10.63126,-48.19683,-36.4102,-110.6672,-50.37534,0.001067912,-0.1257102,0.09433498,0,0.3,0,0,0,0,
6.38223E+17,17.03385,44.46534,11.81372,4.840393,16.52881,142.3216,-17.15165,-0.4441859,-4.249202,-61.9592,-6.98289,34.57793,0,0,0,35.87574,-13.76673,-51.25323,-36.4102,-110.6672,-50.37534,0.001067912,-0.1257102,0.09433498,0,0.3,0,0,0,0,
6.38223E+17,22.16992,43.10941,11.20669,8.50265,18.43318,142.1751,-17.15165,-0.4441859,-4.249202,-61.88596,-6.98289,34.57793,0,0,0,46.51599,-16.3268,-54.1948,-36.4102,-110.6672,-50.37534,0.001067912,-0.1257102,0.09433498,0,0.3,0,0,0,0,
6.38223E+17,27.4238,41.51969,11.27673,13.26359,20.19107,140.4904,-17.15165,-0.4441859,-4.249202,-61.88596,-6.98289,34.57793,0,0,0,57.9944,-19.03087,-56.58109,-36.4102,-110.6672,-50.37534,0.001067912,-0.1257102,0.09433498,0,0.3,0,0,0,0,
6.38223E+17,28.97875,40.79496,11.27673,14.87498,20.63054,139.172,-17.15165,-0.4441859,-4.249202,-61.88596,-6.98289,34.57793,0,0,0,61.5438,-20.3008,-57.22488,-36.4102,-110.6672,-50.37534,0.001067912,-0.1257102,0.09433498,0,0.3,0,0,0,0,
6.38223E+17,32.81903,38.64417,11.41681,18.68373,21.65597,135.29,-17.15165,-0.4441859,-4.249202,-61.9592,-7.056135,34.57793,0,0,0,70.75511,-24.08676,-58.63958,-36.4102,-110.6672,-50.37534,0.001067912,-0.1257102,0.09433498,0,0.3,0,0,0,0,
6.38223E+17,35.99962,36.32973,11.67363,21.76003,22.82789,132.1405,-17.15165,-0.4441859,-4.249202,-61.88596,-6.98289,34.57793,0,0,0,79.00417,-28.24109,-59.60857,-36.4102,-110.6672,-50.37534,0.001067912,-0.1257102,0.09433498,0,0.3,0,0,0,0,
6.38223E+17,38.52053,33.8984,12.23397,24.17712,23.99982,127.5993,-17.15165,-0.4441859,-4.249202,-61.9592,-6.98289,34.57793,0,0,0,86.53218,-32.59947,-59.64414,-36.4102,-110.6672,-50.37534,0.001067912,-0.1257102,0.09433498,0,0.3,0,0,0,0,
6.38223E+17,39.58073,32.86975,12.7943,25.05606,24.51253,125.109,-17.15165,-0.4441859,-4.249202,-61.9592,-6.98289,34.57793,0,0,0,90.17928,-34.31591,-59.26732,-36.4102,-110.6672,-50.37534,0.001067912,-0.1257102,0.09433498,0,0.3,0,0,0,0,
6.38223E+17,41.34773,30.76572,13.84493,26.15474,25.09849,120.1283,-17.15165,-0.4441859,-4.249202,-61.9592,-6.98289,34.57793,0,0,0,96.77735,-37.91341,-58.37556,-36.4102,-110.6672,-50.37534,0.001067912,-0.1257102,0.09433498,0,0.3,0,0,0,0,
6.38223E+17,42.50217,28.42789,15.24576,26.7407,24.95201,115.0011,-17.15165,-0.4441859,-4.249202,-61.9592,-6.98289,34.57793,0,0,0,102.9209,-41.82539,-56.04006,-36.4102,-110.6672,-50.37534,0.001067912,-0.1257102,0.09433498,0,0.3,0,0,0,0,
6.38223E+17,42.92625,27.09534,16.31974,26.96043,24.80551,112.3643,-17.15165,-0.4441859,-4.249202,-61.88596,-6.98289,34.57793,0,0,0,106.3714,-43.88988,-53.98591,-36.4102,-110.6672,-50.37534,0.001067912,-0.1257102,0.09433498,0,0.3,0,0,0,0,
6.38223E+17,43.60949,23.68212,18.53773,27.47315,24.2928,106.8709,-17.15165,-0.4441859,-4.249202,-61.88596,-6.98289,34.57793,0,0,0,113.4733,-49.51944,-49.23081,-36.4102,-110.6672,-50.37534,0.001067912,-0.1257102,0.09433498,0,0.3,0,0,0,0,
6.38223E+17,44.08069,21.36768,19.19145,27.76613,23.99982,103.7214,-17.15165,-0.4441859,-4.249202,-61.88596,-6.98289,34.57793,0,0,0,116.8861,-54.00286,-47.65152,-36.4102,-110.6672,-50.37534,0.001067912,-0.1257102,0.09433498,0,0.3,0,0,0,0,
6.38223E+17,44.31629,19.96499,19.51831,27.76613,23.85333,102.2565,-17.15165,-0.4441859,-4.249202,-61.88596,-6.98289,34.57793,0,0,0,118.6878,-56.80521,-46.79528,-36.4102,-110.6672,-50.37534,0.001067912,-0.1257102,0.09433498,0,0.3,0,0,0,0,
6.38223E+17,44.17493,17.44014,20.61563,27.83937,23.04763,100.5718,-17.15165,-0.4441859,-4.249202,-61.88596,-6.98289,34.57793,0,0,0,121.3721,-61.49451,-43.43103,-36.4102,-110.6672,-50.37534,0.001067912,-0.1257102,0.09433498,0,0.3,0,0,0,0,
6.38223E+17,43.37389,14.588,22.10986,28.05911,21.94895,99.39991,-17.15165,-0.4441859,-4.249202,-61.88596,-6.98289,34.57793,0,0,0,123.0955,-66.60754,-38.06132,-36.4102,-110.6672,-50.37534,0.001067912,-0.1257102,0.09433498,0,0.3,0,0,0,0,
6.38223E+17,41.96029,11.54883,23.41731,27.98586,21.28975,98.22798,-17.15165,-0.4441859,-4.249202,-61.88596,-6.98289,34.57793,0,0,0,122.7891,-72.3195,-31.78863,-36.4102,-110.6672,-50.37534,0.001067912,-0.1257102,0.09433498,0,0.3,0,0,0,0,
6.38223E+17,41.08857,10.35654,23.93095,27.54639,21.28975,97.34904,-17.15165,-0.4441859,-4.249202,-61.88596,-6.98289,34.57793,0,0,0,121.7634,-74.56382,-28.71381,-36.4102,-110.6672,-50.37534,0.001067912,-0.1257102,0.09433498,0,0.3,0,0,0,0,
6.38223E+17,39.2509,8.930473,23.88425,26.22798,21.50948,96.25037,-17.15165,-0.4441859,-4.249202,-61.88596,-6.98289,34.57793,0,0,0,117.5118,-77.87991,-24.52731,-36.4102,-110.6672,-50.37534,0.001067912,-0.1257102,0.09433498,0,0.3,0,0,0,0,
6.38223E+17,37.10694,8.20575,22.99706,24.83632,21.87571,95.88414,-17.15165,-0.4441859,-4.249202,-61.9592,-6.98289,34.57793,0,0,0,111.0578,-80.36919,-21.54225,-36.4102,-110.6672,-50.37534,0.001067912,-0.1257102,0.09433498,0,0.3,0,0,0,0,
6.38223E+17,34.82162,7.738185,22.55346,23.37142,22.09544,95.81089,-17.15165,-0.4441859,-4.249202,-61.88596,-6.98289,34.57793,0,0,0,104.658,-81.84654,-17.88808,-36.4102,-110.6672,-50.37534,0.001067912,-0.1257102,0.09433498,0,0.3,0,0,0,0,
6.38223E+17,32.46563,7.41089,22.36668,21.46704,22.31518,95.66441,-17.15165,-0.4441859,-4.249202,-61.88596,-6.98289,34.57793,0,0,0,98.22254,-82.76772,-13.96718,-36.4102,-110.6672,-50.37534,0.001067912,-0.1257102,0.09433498,0,0.3,0,0,0,0,
6.38223E+17,29.14367,7.106974,22.29664,18.24426,22.60816,95.66441,-17.15165,-0.4441859,-4.249202,-61.88596,-6.98289,34.65118,0,0,0,89.08163,-83.53132,-8.588576,-36.4102,-110.6672,-50.37534,0.001067912,-0.1257102,0.09433498,0,0.3,0,0,0,0,
6.38223E+17,25.72748,6.779679,22.20325,15.09472,22.75465,95.73765,-17.15165,-0.4441859,-4.249202,-61.88596,-6.98289,34.57793,0,0,0,79.35604,-84.36978,-3.662496,-36.4102,-110.6672,-50.37534,0.001067912,-0.1257102,0.09433498,0,0.3,0,0,0,0,
6.38223E+17,21.5338,6.312115,22.01647,11.87193,22.90114,96.76308,-17.15165,-0.4441859,-4.249202,-61.9592,-7.056135,34.57793,0,0,0,66.99799,-85.6145,1.440483,-36.4102,-110.6672,-50.37534,0.001067912,-0.1257102,0.09433498,0,0.3,0,0,0,0,
6.38223E+17,19.55477,6.148468,21.94643,10.26054,22.90114,97.34904,-17.15165,-0.4441859,-4.249202,-61.88596,-6.98289,34.57793,0,0,0,61.05775,-86.05415,3.54941,-36.4102,-110.6672,-50.37534,0.001067912,-0.1257102,0.09433498,0,0.3,0,0,0,0,
6.38223E+17,14.84277,6.031577,21.87639,5.93907,22.90114,98.00825,-17.15165,-0.4441859,-4.249202,-61.88596,-6.98289,34.57793,0,0,0,46.69901,-86.3855,7.865851,-36.4102,-110.6672,-50.37534,0.001067912,-0.1257102,0.09433498,0,0.3,0,0,0,0,
6.38223E+17,9.965863,6.148468,21.94643,0.4456824,22.97438,98.22798,-17.15165,-0.4441859,-4.249202,-61.88596,-6.98289,34.57793,0,0,0,31.57005,-86.05415,11.31855,-36.4102,-110.6672,-50.37534,0.001067912,-0.1257102,0.09433498,0,0.3,0,0,0,0,
6.38223E+17,7.397828,6.38225,22.15656,-2.630615,22.97438,98.30123,-17.15165,-0.4441859,-4.249202,-61.9592,-6.98289,34.50468,0,0,0,23.53889,-85.32969,12.94324,-36.4102,-110.6672,-50.37534,0.001067912,-0.1257102,0.09433498,0,0.3,0,0,0,0,
6.38223E+17,2.850755,7.013461,22.81028,-8.490229,22.6814,98.37447,-17.15165,-0.4441859,-4.249202,-61.88596,-6.98289,34.57793,0,0,0,9.153615,-83.28881,15.4717,-36.4102,-110.6672,-50.37534,0.001067912,-0.1257102,0.09433498,0,0.3,0,0,0,0,
6.38223E+17,-1.602077,7.971967,23.74417,-14.49633,22.16869,99.25342,-17.15165,-0.4441859,-4.249202,-61.88596,-6.98289,34.57793,0,0,0,-5.193321,-80.21813,17.33255,-36.4102,-110.6672,-50.37534,0.001067912,-0.1257102,0.09433498,0,0.3,0,0,0,0,
6.38223E+17,-5.88999,9.211012,25.07496,-20.20946,21.07001,101.0845,-17.15165,-0.4441859,-4.249202,-61.9592,-6.98289,34.57793,0,0,0,-19.30718,-76.08685,18.80148,-36.4102,-110.6672,-50.37534,0.001067912,-0.1257102,0.09433498,0,0.3,0,0,0,0,
6.38223E+17,-7.869027,9.88898,26.0322,-23.06602,20.4108,102.11,-17.15165,-0.4441859,-4.249202,-61.88596,-6.98289,34.57793,0,0,0,-25.99806,-73.56983,19.75478,-36.4102,-110.6672,-50.37534,0.001067912,-0.1257102,0.09433498,0,0.3,0,0,0,0,
6.38223E+17,-11.04962,11.52545,28.06341,-28.41291,18.65292,104.8933,-17.15165,-0.4441859,-4.249202,-61.88596,-6.98289,34.57793,0,0,0,-37.06599,-67.67794,21.46019,-36.4102,-110.6672,-50.37534,0.001067912,-0.1257102,0.09433498,0,0.3,0,0,0,0,
6.38223E+17,-12.86374,13.37233,29.81446,-32.51464,16.82179,107.3104,-17.15165,-0.4441859,-4.249202,-61.9592,-6.98289,34.57793,0,0,0,-43.64395,-61.50886,22.76521,-36.4102,-110.6672,-50.37534,0.001067912,-0.1257102,0.09433498,0,0.3,0,0,0,0,
6.38223E+17,-13.42918,14.47111,30.56157,-34.34578,16.08934,108.2626,-17.15165,-0.4441859,-4.249202,-61.88596,-6.98289,34.57793,0,0,0,-45.73404,-58.15239,23.18866,-36.4102,-110.6672,-50.37534,0.001067912,-0.1257102,0.09433498,0,0.3,0,0,0,0,
6.38223E+17,-14.01818,16.9492,31.63554,-37.56856,14.4047,110.7529,-17.15165,-0.4441859,-4.249202,-61.88596,-6.98289,34.57793,0,0,0,-47.84079,-51.30974,23.26991,-36.4102,-110.6672,-50.37534,0.001067912,-0.1257102,0.09433498,0,0.3,0,0,0,0,
6.38223E+17,-14.08886,19.61431,32.47605,-39.54618,12.79331,112.877,-17.15165,-0.4441859,-4.249202,-61.88596,-6.98289,34.57793,0,0,0,-48.0071,-44.38235,22.93174,-36.4102,-110.6672,-50.37534,0.001067912,-0.1257102,0.09433498,0,0.3,0,0,0,0,
6.38223E+17,-14.0653,22.70024,33.05973,-40.86459,11.03542,114.5617,-17.15165,-0.4441859,-4.249202,-61.88596,-6.98289,34.57793,0,0,0,-47.57614,-36.94987,21.54527,-36.4102,-110.6672,-50.37534,0.001067912,-0.1257102,0.09433498,0,0.3,0,0,0,0,
6.38223E+17,-13.7119,26.01994,34.08701,-42.03651,9.204292,115.0744,-17.15165,-0.4441859,-4.249202,-61.88596,-6.98289,34.57793,0,0,0,-46.12085,-28.59029,20.67474,-36.4102,-110.6672,-50.37534,0.001067912,-0.1257102,0.09433498,0,0.3,0,0,0,0,
6.38223E+17,-13.42918,27.96033,34.85747,-42.47599,8.178861,115.2941,-17.15165,-0.4441859,-4.249202,-61.88596,-6.98289,34.57793,0,0,0,-45.05492,-23.55136,20.34446,-36.4102,-110.6672,-50.37534,0.001067912,-0.1257102,0.09433498,0,0.3,0,0,0,0,
6.38223E+17,-12.81662,31.65409,36.49178,-43.20844,6.127995,116.2463,-17.15165,-0.4441859,-4.249202,-61.88596,-6.98289,34.57793,0,0,0,-42.77263,-13.87499,19.66201,-36.4102,-110.6672,-50.37534,0.001067912,-0.1257102,0.09433498,0,0.3,0,0,0,0,
6.38223E+17,-11.66218,35.67514,38.54634,-43.72115,3.78415,117.6379,-17.15165,-0.4441859,-4.249202,-61.9592,-7.056135,34.57793,0,0,0,-38.69417,-3.175408,19.12017,-36.4102,-110.6672,-50.37534,0.001067912,-0.1257102,0.09433498,0,0.3,0,0,0,0,
6.38223E+17,-10.93182,37.87269,39.62031,-43.86765,2.465737,118.4436,-17.15165,-0.4441859,-4.249202,-61.9592,-6.98289,34.57793,0,0,0,-36.0887,2.496961,18.49702,-36.4102,-110.6672,-50.37534,0.001067912,-0.1257102,0.09433498,0,0.3,0,0,0,0,
6.38223E+17,-9.070585,42.19766,41.55813,-43.86765,-0.61056,119.9085,-17.15165,-0.4441859,-4.249202,-61.9592,-6.98289,34.57793,0,0,0,-29.52043,13.13636,16.56002,-36.4102,-110.6672,-50.37534,0.001067912,-0.1257102,0.09433498,0,0.3,0,0,0,0,
6.38223E+17,-6.45543,46.26546,43.68274,-42.9887,-4.272818,120.4213,-17.15165,-0.4441859,-4.249202,-61.9592,-6.98289,34.57793,0,0,0,-20.71948,23.26669,14.76892,-36.4102,-110.6672,-50.37534,0.001067912,-0.1257102,0.09433498,0,0.3,0,0,0,0,
6.38223E+17,-4.900472,48.25261,44.73336,-42.10976,-6.177193,120.4945,-17.15165,-0.4441859,-4.249202,-61.9592,-7.056135,34.57793,0,0,0,-15.60236,28.11032,13.62601,-36.4102,-110.6672,-50.37534,0.001067912,-0.1257102,0.09433498,0,0.3,0,0,0,0,
6.38223E+17,-1.672757,51.73597,46.34432,-39.39969,-10.20568,120.4945,-17.15165,-0.4441859,-4.249202,-61.88596,-6.98289,34.57793,0,0,0,-5.226957,35.99722,10.63443,-36.4102,-110.6672,-50.37534,0.001067912,-0.1257102,0.09433498,0,0.3,0,0,0,0,
6.38223E+17,1.884797,54.51797,47.65177,-35.73743,-14.23416,120.4213,-17.15165,-0.4441859,-4.249202,-61.88596,-6.98289,34.57793,0,0,0,5.787219,42.10737,7.511715,-36.4102,-110.6672,-50.37534,0.001067912,-0.1257102,0.09433498,0,0.3,0,0,0,0,
6.38223E+17,5.348111,56.69214,48.32884,-31.41597,-17.5302,118.7366,-17.15165,-0.4441859,-4.249202,-61.88596,-6.98289,34.57793,0,0,0,16.1095,46.13653,3.733923,-36.4102,-110.6672,-50.37534,0.001067912,-0.1257102,0.09433498,0,0.3,0,0,0,0,
6.38223E+17,10.43706,58.65591,48.56231,-25.40986,-20.38675,114.5617,-17.15165,-0.4441859,-4.249202,-61.88596,-6.98289,34.57793,0,0,0,30.67591,48.98703,-1.816917,-36.4102,-110.6672,-50.37534,0.001067912,-0.1257102,0.09433498,0,0.3,0,0,0,0,
6.38223E+17,14.67786,59.54428,48.49227,-20.06297,-21.85166,110.3867,-17.15165,-0.4441859,-4.249202,-61.9592,-6.98289,34.57793,0,0,0,42.42986,49.92667,-6.361952,-36.4102,-110.6672,-50.37534,0.001067912,-0.1257102,0.09433498,0,0.3,0,0,0,0,
6.38223E+17,17.29301,59.80144,48.32884,-16.5472,-22.51087,107.6766,-17.15165,-0.4441859,-4.249202,-61.88596,-6.98289,34.57793,0,0,0,49.54811,49.94439,-9.200944,-36.4102,-110.6672,-50.37534,0.001067912,-0.1257102,0.09433498,0,0.3,0,0,0,0,
6.38223E+17,22.42908,59.77807,48.02533,-9.002944,-23.09683,102.1832,-17.15165,-0.4441859,-4.249202,-61.9592,-6.98289,34.57793,0,0,0,63.43463,49.3906,-14.66751,-36.4102,-110.6672,-50.37534,0.001067912,-0.1257102,0.09433498,0,0.3,0,0,0,0,
6.38223E+17,27.37668,59.21699,47.3716,-0.7994855,-22.80385,96.03063,-17.15165,-0.4441859,-4.249202,-61.88596,-6.98289,34.57793,0,0,0,76.49905,47.60249,-20.62121,-36.4102,-110.6672,-50.37534,0.001067912,-0.1257102,0.09433498,0,0.3,0,0,0,0,
6.38223E+17,29.30859,58.72605,46.90466,2.496547,-22.43762,93.46705,-17.15165,-0.4441859,-4.249202,-61.88596,-6.98289,34.57793,0,0,0,81.5532,46.21692,-23.07495,-36.4102,-110.6672,-50.37534,0.001067912,-0.1257102,0.09433498,0,0.3,0,0,0,0,
6.38223E+17,32.74835,57.39349,45.62056,8.35616,-21.33894,88.70612,-17.15165,-0.4441859,-4.249202,-61.88596,-6.98289,34.57793,0,0,0,90.42861,42.41695,-27.75405,-36.4102,-110.6672,-50.37534,0.001067912,-0.1257102,0.09433498,0,0.3,0,0,0,0,
6.38223E+17,35.57554,55.59337,43.84616,12.45789,-19.43457,84.67763,-17.15165,-0.4441859,-4.249202,-61.9592,-6.98289,34.57793,0,0,0,97.57887,37.19783,-31.93028,-36.4102,-110.6672,-50.37534,0.001067912,-0.1257102,0.09433498,0,0.3,0,0,0,0,
6.38223E+17,37.86086,53.34906,41.62818,15.09472,-17.01748,81.45483,-17.15165,-0.4441859,-4.249202,-61.9592,-6.98289,34.57793,0,0,0,103.2231,30.65965,-35.56709,-36.4102,-110.6672,-50.37534,0.001067912,-0.1257102,0.09433498,0,0.3,0,0,0,0,
6.38223E+17,39.13309,51.64245,39.99387,16.26664,-15.03986,79.47723,-17.15165,-0.4441859,-4.249202,-61.88596,-6.98289,34.57793,0,0,0,106.3175,25.75566,-37.68063,-36.4102,-110.6672,-50.37534,0.001067912,-0.1257102,0.09433498,0,0.3,0,0,0,0,
6.38223E+17,40.28753,49.60855,38.14943,17.14558,-12.62277,77.57285,-17.15165,-0.4441859,-4.249202,-61.88596,-6.98289,34.57793,0,0,0,109.1397,20.04727,-39.60013,-36.4102,-110.6672,-50.37534,0.001067912,-0.1257102,0.09433498,0,0.3,0,0,0,0,
6.38223E+17,41.60689,47.10708,36.16492,17.80479,-9.326735,75.88821,-17.15165,-0.4441859,-4.249202,-61.88596,-6.98289,34.57793,0,0,0,112.5198,13.38945,-41.64659,-36.4102,-110.6672,-50.37534,0.001067912,-0.1257102,0.09433498,0,0.3,0,0,0,0,
6.38223E+17,42.19589,45.86803,35.37111,18.02452,-7.715342,75.229,-17.15165,-0.4441859,-4.249202,-61.88596,-6.98289,34.57793,0,0,0,114.2142,10.32412,-42.37117,-36.4102,-110.6672,-50.37534,0.001067912,-0.1257102,0.09433498,0,0.3,0,0,0,0,
6.38223E+17,43.20897,43.13279,34.15705,18.46399,-4.785534,74.05708,-17.15165,-0.4441859,-4.249202,-61.88596,-6.98289,34.57793,0,0,0,117.8891,4.172905,-42.85018,-36.4102,-110.6672,-50.37534,0.001067912,-0.1257102,0.09433498,0,0.3,0,0,0,0,
6.38223E+17,44.22205,40.49105,33.45663,18.75698,-2.002218,73.10489,-17.15165,-0.4441859,-4.249202,-61.9592,-7.056135,34.57793,0,0,0,122.0035,-1.3163,-42.98757,-36.4102,-110.6672,-50.37534,0.001067912,-0.1257102,0.09433498,0,0.3,0,0,0,0,
6.38223E+17,45.42361,38.43377,33.22316,19.19645,0.3416272,72.51893,-17.15165,-0.4441859,-4.249202,-61.88596,-6.98289,34.57793,0,0,0,126.4497,-5.311368,-43.75634,-36.4102,-110.6672,-50.37534,0.001067912,-0.1257102,0.09433498,0,0.3,0,0,0,0,
6.38223E+17,46.93144,36.93756,33.47998,19.85565,1.879776,71.42025,-17.15165,-0.4441859,-4.249202,-61.88596,-6.98289,34.57793,0,0,0,131.6043,-7.738459,-45.33223,-36.4102,-110.6672,-50.37534,0.001067912,-0.1257102,0.09433498,0,0.3,0,0,0,0,
6.38223E+17,47.68536,36.37648,34.01696,20.36837,2.465737,70.90753,-17.15165,-0.4441859,-4.249202,-61.88596,-6.98289,34.57793,0,0,0,134.5565,-8.091725,-45.85011,-36.4102,-110.6672,-50.37534,0.001067912,-0.1257102,0.09433498,0,0.3,0,0,0,0,
6.38223E+17,49.24032,35.79203,35.8614,21.68678,3.63766,69.80886,-17.15165,-0.4441859,-4.249202,-61.88596,-6.98289,34.57793,0,0,0,141.1033,-6.732648,-46.72604,-36.4102,-110.6672,-50.37534,0.001067912,-0.1257102,0.09433498,0,0.3,0,0,0,0,
6.38223E+17,50.32408,35.76865,37.72918,23.15168,3.78415,68.56369,-17.15165,-0.4441859,-4.249202,-61.9592,-7.056135,34.57793,0,0,0,146.0821,-4.173194,-47.17396,-36.4102,-110.6672,-50.37534,0.001067912,-0.1257102,0.09433498,0,0.3,0,0,0,0,
6.38223E+17,50.70104,35.79203,38.66307,23.73765,3.564415,67.83124,-17.15165,-0.4441859,-4.249202,-61.9592,-6.98289,34.57793,0,0,0,148.1734,-2.785052,-47.07593,-36.4102,-110.6672,-50.37534,0.001067912,-0.1257102,0.09433498,0,0.3,0,0,0,0,
6.38223E+17,51.33715,35.9323,40.34408,24.54334,3.271434,66.43958,-17.15165,-0.4441859,-4.249202,-61.88596,-6.98289,34.57793,0,0,0,151.7184,-0.03181122,-46.9621,-36.4102,-110.6672,-50.37534,0.001067912,-0.1257102,0.09433498,0,0.3,0,0,0,0,
6.38223E+17,51.87903,36.23622,42.11847,25.1293,2.905208,65.19441,-17.15165,-0.4441859,-4.249202,-61.88596,-6.98289,34.57793,0,0,0,154.9751,3.261608,-46.74238,-36.4102,-110.6672,-50.37534,0.001067912,-0.1257102,0.09433498,0,0.3,0,0,0,0,
6.38223E+17,52.06751,36.47,42.95897,25.42229,2.465737,64.68169,-17.15165,-0.4441859,-4.249202,-61.88596,-6.98289,34.57793,0,0,0,156.2568,5.022356,-46.56507,-36.4102,-110.6672,-50.37534,0.001067912,-0.1257102,0.09433498,0,0.3,0,0,0,0,
6.38223E+17,52.30311,37.19472,45.36374,26.30123,1.440305,63.72951,-17.15165,-0.4441859,-4.249202,-61.88596,-6.98289,34.57793,0,0,0,159.1329,10.27132,-45.37194,-36.4102,-110.6672,-50.37534,0.001067912,-0.1257102,0.09433498,0,0.3,0,0,0,0,
6.38223E+17,52.65651,38.27012,49.79972,27.54639,-0.09784385,62.99706,-17.15165,-0.4441859,-4.249202,-61.88596,-6.98289,34.57793,0,0,0,164.2059,19.87066,-43.06158,-36.4102,-110.6672,-50.37534,0.001067912,-0.1257102,0.09433498,0,0.3,0,0,0,0,
6.38223E+17,52.77431,39.88321,55.82331,30.62269,-3.027651,62.04487,-17.15165,-0.4441859,-4.249202,-61.88596,-6.98289,34.57793,0,0,0,169.323,33.94839,-39.70715,-36.4102,-110.6672,-50.37534,0.001067912,-0.1257102,0.09433498,0,0.3,0,0,0,0,
6.38223E+17,52.35023,41.19239,58.46156,32.52707,-5.225006,61.16593,-17.15165,-0.4441859,-4.249202,-61.88596,-6.98289,34.50468,0,0,0,169.4357,41.42146,-37.63234,-36.4102,-110.6672,-50.37534,0.001067912,-0.1257102,0.09433498,0,0.3,0,0,0,0,
6.38223E+17,51.45495,43.41333,60.70289,34.3582,-8.081567,60.28699,-17.15165,-0.4441859,-4.249202,-61.9592,-7.056135,34.50468,0,0,0,166.7173,49.74236,-35.52295,-36.4102,-110.6672,-50.37534,0.001067912,-0.1257102,0.09433498,0,0.3,0,0,0,0,
6.38223E+17,50.88952,44.74588,62.03368,35.0174,-9.766206,59.84751,-17.15165,-0.4441859,-4.249202,-61.9592,-6.98289,34.57793,0,0,0,164.8759,54.68876,-34.3089,-36.4102,-110.6672,-50.37534,0.001067912,-0.1257102,0.09433498,0,0.3,0,0,0,0,
6.38223E+17,49.85288,47.24735,65.06883,36.11608,-13.57495,58.60235,-17.15165,-0.4441859,-4.249202,-61.88596,-6.98289,34.57793,0,0,0,161.6278,65.0568,-32.01942,-36.4102,-110.6672,-50.37534,0.001067912,-0.1257102,0.09433498,0,0.3,0,0,0,0,
6.38223E+17,48.62776,49.18774,67.68372,37.36125,-17.60344,57.13744,-17.15165,-0.4441859,-4.249202,-61.88596,-6.98289,34.57793,0,0,0,157.979,73.64111,-29.20876,-36.4102,-110.6672,-50.37534,0.001067912,-0.1257102,0.09433498,0,0.3,0,0,0,0,
6.38223E+17,47.94452,50.00598,68.61761,37.80072,-19.28808,56.55148,-17.15165,-0.4441859,-4.249202,-61.9592,-6.98289,34.57793,0,0,0,155.8324,76.89281,-27.76437,-36.4102,-110.6672,-50.37534,0.001067912,-0.1257102,0.09433498,0,0.3,0,0,0,0,
6.38223E+17,46.38956,51.78272,70.53209,38.53317,-22.87709,55.74578,-17.15165,-0.4441859,-4.249202,-61.9592,-6.98289,34.57793,0,0,0,150.7627,83.67641,-24.72822,-36.4102,-110.6672,-50.37534,0.001067912,-0.1257102,0.09433498,0,0.3,0,0,0,0,
6.38223E+17,44.62257,53.65298,72.46991,38.89939,-26.24637,55.37956,-17.15165,-0.4441859,-4.249202,-61.88596,-7.056135,34.57793,0,0,0,144.8349,90.58981,-21.59423,-36.4102,-110.6672,-50.37534,0.001067912,-0.1257102,0.09433498,0,0.3,0,0,0,0,
6.38223E+17,43.60949,54.63486,73.31042,39.11913,-27.93101,55.23307,-17.15165,-0.4441859,-4.249202,-61.88596,-6.98289,34.57793,0,0,0,141.337,93.79796,-19.98075,-36.4102,-110.6672,-50.37534,0.001067912,-0.1257102,0.09433498,0,0.3,0,0,0,0,
6.38223E+17,41.20637,56.5285,74.80464,39.33887,-31.37353,55.30631,-17.15165,-0.4441859,-4.249202,-61.88596,-7.056135,34.57793,0,0,0,133.2258,99.63276,-16.20149,-36.4102,-110.6672,-50.37534,0.001067912,-0.1257102,0.09433498,0,0.3,0,0,0,0,
6.38223E+17,38.35562,58.21173,75.80857,39.26562,-34.8893,55.74578,-17.15165,-0.4441859,-4.249202,-61.88596,-6.98289,34.57793,0,0,0,123.8145,104.0052,-11.8862,-36.4102,-110.6672,-50.37534,0.001067912,-0.1257102,0.09433498,0,0.3,0,0,0,0,
6.38223E+17,34.91586,60.10536,76.71912,38.02045,-38.99103,57.65016,-17.15165,-0.4441859,-4.249202,-61.88596,-6.98289,34.57793,0,0,0,112.326,108.3231,-7.429439,-36.4102,-110.6672,-50.37534,0.001067912,-0.1257102,0.09433498,0,0.3,0,0,0,0,
6.38223E+17,31.05203,61.69508,77.58296,35.0174,-43.67872,61.67865,-17.15165,-0.4441859,-4.249202,-61.88596,-6.98289,34.57793,0,0,0,99.79005,112.0825,-2.612553,-36.4102,-110.6672,-50.37534,0.001067912,-0.1257102,0.09433498,0,0.3,0,0,0,0,
6.38223E+17,29.73267,61.99899,77.76974,33.40601,-45.29012,63.876,-17.15165,-0.4441859,-4.249202,-61.88596,-6.98289,34.57793,0,0,0,95.68419,112.841,-0.8197954,-36.4102,-110.6672,-50.37534,0.001067912,-0.1257102,0.09433498,0,0.3,0,0,0,0,
6.38223E+17,26.26936,62.11589,78.26003,27.47315,-48.65939,71.78648,-17.15165,-0.4441859,-4.249202,-61.88596,-6.98289,34.57793,0,0,0,85.38754,114.0847,4.651441,-36.4102,-110.6672,-50.37534,0.001067912,-0.1257102,0.09433498,0,0.3,0,0,0,0,
6.38223E+17,22.52332,62.04575,78.44682,17.95128,-51.22297,84.89736,-17.15165,-0.4441859,-4.249202,-61.88596,-6.98289,34.57793,0,0,0,73.99109,114.434,10.07482,-36.4102,-110.6672,-50.37534,0.001067912,-0.1257102,0.09433498,0,0.3,0,0,0,0,
6.38223E+17,18.98933,61.69508,78.21334,3.81496,-52.61463,104.8933,-17.15165,-0.4441859,-4.249202,-61.88596,-6.98289,34.57793,0,0,0,63.05059,113.5171,14.87305,-36.4102,-110.6672,-50.37534,0.001067912,-0.1257102,0.09433498,0,0.3,0,0,0,0,
6.38223E+17,17.38725,61.22752,77.93317,-3.802537,-52.76112,115.0744,-17.15165,-0.4441859,-4.249202,-61.88596,-6.98289,34.57793,0,0,0,58.14882,112.3592,17.34789,-36.4102,-110.6672,-50.37534,0.001067912,-0.1257102,0.09433498,0,0.3,0,0,0,0,
6.38223E+17,14.58362,59.96509,76.9059,-16.10773,-51.80893,129.0642,-17.15165,-0.4441859,-4.249202,-61.88596,-6.98289,34.57793,0,0,0,49.50952,108.5833,21.94303,-36.4102,-110.6672,-50.37534,0.001067912,-0.1257102,0.09433498,0,0.3,0,0,0,0,
6.38223E+17,11.87422,58.44551,74.87468,-24.60417,-49.39184,134.5576,-17.15165,-0.4441859,-4.249202,-61.9592,-7.056135,34.57793,0,0,0,40.84695,102.1881,25.91584,-36.4102,-110.6672,-50.37534,0.001067912,-0.1257102,0.09433498,0,0.3,0,0,0,0,
6.38223E+17,10.55486,57.58052,73.73067,-27.31424,-47.7072,135.2168,-17.15165,-0.4441859,-4.249202,-61.88596,-7.056135,34.57793,0,0,0,36.54395,98.55843,27.77528,-36.4102,-110.6672,-50.37534,0.001067912,-0.1257102,0.09433498,0,0.3,0,0,0,0,
6.38223E+17,7.303588,55.14918,71.3259,-32.07517,-43.01951,136.6817,-17.15165,-0.4441859,-4.249202,-61.88596,-6.98289,34.57793,0,0,0,25.74717,90.08605,32.5383,-36.4102,-110.6672,-50.37534,0.001067912,-0.1257102,0.09433498,0,0.3,0,0,0,0,
6.38223E+17,5.371671,53.34906,69.43477,-35.07822,-39.65023,137.1212,-17.15165,-0.4441859,-4.249202,-61.88596,-6.98289,34.57793,0,0,0,19.14015,83.49265,35.20584,-36.4102,-110.6672,-50.37534,0.001067912,-0.1257102,0.09433498,0,0.3,0,0,0,0,
6.38223E+17,3.628234,50.87097,66.84322,-38.00803,-35.25552,137.1944,-17.15165,-0.4441859,-4.249202,-61.9592,-7.056135,34.57793,0,0,0,13.08421,74.35349,37.99492,-36.4102,-110.6672,-50.37534,0.001067912,-0.1257102,0.09433498,0,0.3,0,0,0,0,
6.38223E+17,3.086355,49.67868,65.3957,-38.81373,-33.20466,137.1944,-17.15165,-0.4441859,-4.249202,-61.88596,-6.98289,34.57793,0,0,0,11.17361,69.49957,38.87869,-36.4102,-110.6672,-50.37534,0.001067912,-0.1257102,0.09433498,0,0.3,0,0,0,0,
6.38223E+17,2.591596,47.52789,62.10373,-38.88697,-29.32266,137.1212,-17.15165,-0.4441859,-4.249202,-61.88596,-6.98289,34.57793,0,0,0,9.400333,59.31899,39.33366,-36.4102,-110.6672,-50.37534,0.001067912,-0.1257102,0.09433498,0,0.3,0,0,0,0,
6.38223E+17,2.685836,45.42385,58.36817,-37.71505,-25.58716,135.6563,-17.15165,-0.4441859,-4.249202,-61.88596,-6.98289,34.57793,0,0,0,9.706081,48.40102,38.55399,-36.4102,-110.6672,-50.37534,0.001067912,-0.1257102,0.09433498,0,0.3,0,0,0,0,
6.38223E+17,2.874315,43.29643,53.74541,-36.32339,-21.77841,133.3857,-17.15165,-0.4441859,-4.249202,-61.88596,-7.056135,34.57793,0,0,0,10.25907,35.93807,35.97987,-36.4102,-110.6672,-50.37534,0.001067912,-0.1257102,0.09433498,0,0.3,0,0,0,0,
6.38223E+17,3.133475,40.84172,48.32884,-35.29796,-17.67669,129.2107,-17.15165,-0.4441859,-4.249202,-61.88596,-6.98289,34.57793,0,0,0,10.95926,21.89878,31.8409,-36.4102,-110.6672,-50.37534,0.001067912,-0.1257102,0.09433498,0,0.3,0,0,0,0,
6.38223E+17,3.486874,39.25201,45.41043,-34.93173,-15.25959,126.5739,-17.15165,-0.4441859,-4.249202,-61.88596,-7.056135,34.57793,0,0,0,12.0562,14.11004,29.51106,-36.4102,-110.6672,-50.37534,0.001067912,-0.1257102,0.09433498,0,0.3,0,0,0,0,
6.38223E+17,4.617752,36.00243,40.18064,-33.97955,-10.35217,121.5932,-17.15165,-0.4441859,-4.249202,-61.88596,-6.98289,34.57793,0,0,0,15.61178,-0.1455276,24.937,-36.4102,-110.6672,-50.37534,0.001067912,-0.1257102,0.09433498,0,0.3,0,0,0,0,
6.38223E+17,6.29051,32.7061,34.95086,-32.58789,-5.298251,116.6125,-17.15165,-0.4441859,-4.249202,-61.88596,-6.98289,34.57793,0,0,0,20.66489,-13.89648,19.11494,-36.4102,-110.6672,-50.37534,0.001067912,-0.1257102,0.09433498,0,0.3,0,0,0,0,
6.38223E+17,7.374268,31.2099,32.56944,-31.78219,-3.027651,114.3419,-17.15165,-0.4441859,-4.249202,-61.9592,-6.98289,34.57793,0,0,0,23.85209,-19.93073,15.94896,-36.4102,-110.6672,-50.37534,0.001067912,-0.1257102,0.09433498,0,0.3,0,0,0,0,
6.38223E+17,10.22502,28.52141,28.36693,-29.73133,2.099511,109.581,-17.15165,-0.4441859,-4.249202,-61.88596,-6.98289,34.57793,0,0,0,32.04551,-30.31483,9.306211,-36.4102,-110.6672,-50.37534,0.001067912,-0.1257102,0.09433498,0,0.3,0,0,0,0,
6.38223E+17,13.68834,26.93169,25.02827,-27.02126,6.933692,106.0652,-17.15165,-0.4441859,-4.249202,-61.9592,-6.98289,34.57793,0,0,0,41.48391,-37.08039,1.974486,-36.4102,-110.6672,-50.37534,0.001067912,-0.1257102,0.09433498,0,0.3,0,0,0,0,
6.38223E+17,18.40033,26.16021,22.15656,-22.77304,10.96218,103.1354,-17.15165,-0.4441859,-4.249202,-61.88596,-6.98289,34.57793,0,0,0,53.65549,-41.36131,-7.058753,-36.4102,-110.6672,-50.37534,0.001067912,-0.1257102,0.09433498,0,0.3,0,0,0,0,
6.38223E+17,20.94481,26.04332,21.3394,-20.50244,12.50033,101.7438,-17.15165,-0.4441859,-4.249202,-61.88596,-6.98289,34.57793,0,0,0,60.17443,-42.3103,-11.13776,-36.4102,-110.6672,-50.37534,0.001067912,-0.1257102,0.09433498,0,0.3,0,0,0,0,
6.38223E+17,26.99972,26.04332,20.73237,-15.00905,14.99066,99.18017,-17.15165,-0.4441859,-4.249202,-61.88596,-7.056135,34.57793,0,0,0,75.82307,-42.81742,-19.53701,-36.4102,-110.6672,-50.37534,0.001067912,-0.1257102,0.09433498,0,0.3,0,0,0,0,
6.38223E+17,35.52842,25.78616,21.59622,-5.633667,16.60205,95.81089,-17.15165,-0.4441859,-4.249202,-61.88596,-7.056135,34.57793,0,0,0,98.29581,-42.62987,-30.68886,-36.4102,-110.6672,-50.37534,0.001067912,-0.1257102,0.09433498,0,0.3,0,0,0,0,
6.38223E+17,39.93414,25.24846,22.99706,0.3724372,16.30907,93.3938,-17.15165,-0.4441859,-4.249202,-61.9592,-7.056135,34.57793,0,0,0,110.8626,-42.5223,-35.92022,-36.4102,-110.6672,-50.37534,0.001067912,-0.1257102,0.09433498,0,0.3,0,0,0,0,
6.38223E+17,42.59641,24.40685,24.23446,4.840393,16.08934,91.41618,-17.15165,-0.4441859,-4.249202,-61.88596,-6.98289,34.57793,0,0,0,119.2368,-43.14634,-38.6647,-36.4102,-110.6672,-50.37534,0.001067912,-0.1257102,0.09433498,0,0.3,0,0,0,0,
6.38223E+17,46.08328,21.97551,26.80266,12.16491,16.01609,87.90041,-17.15165,-0.4441859,-4.249202,-61.9592,-7.056135,34.57793,0,0,0,132.3939,-45.77259,-40.87011,-36.4102,-110.6672,-50.37534,0.001067912,-0.1257102,0.09433498,0,0.3,0,0,0,0,
6.38223E+17,48.4864,19.42729,28.90392,17.36532,16.60205,84.67763,-17.15165,-0.4441859,-4.249202,-61.9592,-6.98289,34.57793,0,0,0,142.4299,-49.03521,-42.27836,-36.4102,-110.6672,-50.37534,0.001067912,-0.1257102,0.09433498,0,0.3,0,0,0,0,
6.38223E+17,50.11204,17.41676,30.30475,20.36837,17.40775,81.2351,-17.15165,-0.4441859,-4.249202,-61.9592,-6.98289,34.57793,0,0,0,149.2587,-51.8639,-43.60363,-36.4102,-110.6672,-50.37534,0.001067912,-0.1257102,0.09433498,0,0.3,0,0,0,0,
6.38223E+17,50.67748,16.48163,31.1219,21.32055,17.77398,79.47723,-17.15165,-0.4441859,-4.249202,-61.88596,-6.98289,34.57793,0,0,0,152.2382,-52.97441,-43.64452,-36.4102,-110.6672,-50.37534,0.001067912,-0.1257102,0.09433498,0,0.3,0,0,0,0,
6.38223E+17,51.54919,14.47111,33.10642,22.71221,18.35994,75.96145,-17.15165,-0.4441859,-4.249202,-61.88596,-6.98289,34.57793,0,0,0,158.1591,-55.02856,-42.7661,-36.4102,-110.6672,-50.37534,0.001067912,-0.1257102,0.09433498,0,0.3,0,0,0,0,
6.38223E+17,51.73767,12.41383,34.67069,23.51791,18.87265,73.03164,-17.15165,-0.4441859,-4.249202,-61.88596,-6.98289,34.57793,0,0,0,161.8183,-57.65535,-40.72632,-36.4102,-110.6672,-50.37534,0.001067912,-0.1257102,0.09433498,0,0.3,0,0,0,0,
6.38223E+17,51.54919,11.31505,35.27772,23.6644,19.09239,71.78648,-17.15165,-0.4441859,-4.249202,-61.88596,-7.056135,34.57793,0,0,0,162.7159,-59.34814,-39.14788,-36.4102,-110.6672,-50.37534,0.001067912,-0.1257102,0.09433498,0,0.3,0,0,0,0,
6.38223E+17,50.63036,9.211012,36.21161,23.29818,19.45862,69.29614,-17.15165,-0.4441859,-4.249202,-61.88596,-6.98289,34.65118,0,0,0,162.6613,-62.89674,-34.88277,-36.4102,-110.6672,-50.37534,0.001067912,-0.1257102,0.09433498,0,0.3,0,0,0,0,
6.38223E+17,48.9576,7.55116,36.63186,22.05301,19.67835,66.80581,-17.15165,-0.4441859,-4.249202,-61.9592,-7.056135,34.57793,0,0,0,159.7142,-66.13777,-29.30492,-36.4102,-110.6672,-50.37534,0.001067912,-0.1257102,0.09433498,0,0.3,0,0,0,0,
6.38223E+17,46.90788,6.429006,36.63186,20.00214,19.89809,64.82819,-17.15165,-0.4441859,-4.249202,-61.9592,-6.98289,34.57793,0,0,0,154.8709,-68.73002,-23.4643,-36.4102,-110.6672,-50.37534,0.001067912,-0.1257102,0.09433498,0,0.3,0,0,0,0,
6.38223E+17,44.08069,5.680903,36.63186,17.36532,20.11782,63.21679,-17.15165,-0.4441859,-4.249202,-61.9592,-6.98289,34.57793,0,0,0,147.6639,-70.46142,-15.86989,-36.4102,-110.6672,-50.37534,0.001067912,-0.1257102,0.09433498,0,0.3,0,0,0,0,
6.38223E+17,42.85557,5.564013,36.63186,16.33988,20.26431,62.77732,-17.15165,-0.4441859,-4.249202,-61.88596,-6.98289,34.57793,0,0,0,144.3881,-70.73216,-12.72805,-36.4102,-110.6672,-50.37534,0.001067912,-0.1257102,0.09433498,0,0.3,0,0,0,0,
6.38223E+17,39.43937,5.423743,36.60851,13.55657,20.77703,62.33785,-17.15165,-0.4441859,-4.249202,-61.88596,-6.98289,34.57793,0,0,0,134.8504,-71.08954,-4.410252,-36.4102,-110.6672,-50.37534,0.001067912,-0.1257102,0.09433498,0,0.3,0,0,0,0,
6.38223E+17,35.76402,5.236718,36.58516,10.62676,21.36299,62.99706,-17.15165,-0.4441859,-4.249202,-61.88596,-7.056135,34.57793,0,0,0,124.0622,-71.55534,3.894304,-36.4102,-110.6672,-50.37534,0.001067912,-0.1257102,0.09433498,0,0.3,0,0,0,0,
6.38223E+17,31.82951,5.213339,36.63186,7.403974,21.87571,64.53521,-17.15165,-0.4441859,-4.249202,-61.88596,-6.98289,34.57793,0,0,0,111.9996,-71.54471,12.07936,-36.4102,-110.6672,-50.37534,0.001067912,-0.1257102,0.09433498,0,0.3,0,0,0,0,
6.38223E+17,29.92115,5.260096,36.72525,5.719335,21.94895,65.41415,-17.15165,-0.4441859,-4.249202,-61.88596,-7.056135,34.57793,0,0,0,106.011,-71.30651,15.85145,-36.4102,-110.6672,-50.37534,0.001067912,-0.1257102,0.09433498,0,0.3,0,0,0,0,
6.38223E+17,26.17512,5.33023,36.88868,1.983831,21.87571,67.39177,-17.15165,-0.4441859,-4.249202,-61.88596,-6.98289,34.57793,0,0,0,93.8776,-70.91609,22.64382,-36.4102,-110.6672,-50.37534,0.001067912,-0.1257102,0.09433498,0,0.3,0,0,0,0,
6.38223E+17,22.4762,5.33023,36.95872,-1.751673,21.50948,69.95535,-17.15165,-0.4441859,-4.249202,-61.9592,-6.98289,34.57793,0,0,0,81.4102,-70.81816,28.42274,-36.4102,-110.6672,-50.37534,0.001067912,-0.1257102,0.09433498,0,0.3,0,0,0,0,
6.38223E+17,20.77989,5.353609,36.95872,-3.509557,21.28975,71.27377,-17.15165,-0.4441859,-4.249202,-61.88596,-6.98289,34.57793,0,0,0,75.54786,-70.76398,30.74167,-36.4102,-110.6672,-50.37534,0.001067912,-0.1257102,0.09433498,0,0.3,0,0,0,0,
6.38223E+17,16.18569,5.867929,37.28558,-7.464796,20.70378,75.30224,-17.15165,-0.4441859,-4.249202,-61.88596,-6.98289,34.57793,0,0,0,59.49477,-69.11358,36.62335,-36.4102,-110.6672,-50.37534,0.001067912,-0.1257102,0.09433498,0,0.3,0,0,0,0,
6.38223E+17,13.61766,6.522519,37.44902,-9.36917,20.4108,77.93907,-17.15165,-0.4441859,-4.249202,-61.9592,-6.98289,34.57793,0,0,0,50.28351,-67.36814,39.21722,-36.4102,-110.6672,-50.37534,0.001067912,-0.1257102,0.09433498,0,0.3,0,0,0,0,
6.38223E+17,9.753823,7.597916,37.56575,-12.006,19.97133,82.40703,-17.15165,-0.4441859,-4.249202,-61.88596,-6.98289,34.57793,0,0,0,36.16659,-64.71886,42.04303,-36.4102,-110.6672,-50.37534,0.001067912,-0.1257102,0.09433498,0,0.3,0,0,0,0,
6.38223E+17,7.963267,8.042102,37.56575,-13.32441,19.7516,84.60438,-17.15165,-0.4441859,-4.249202,-61.88596,-6.98289,34.57793,0,0,0,29.5555,-63.69468,42.93106,-36.4102,-110.6672,-50.37534,0.001067912,-0.1257102,0.09433498,0,0.3,0,0,0,0,
6.38223E+17,4.193673,8.649935,37.5891,-16.10773,19.01915,89.21883,-17.15165,-0.4441859,-4.249202,-61.88596,-6.98289,34.57793,0,0,0,15.58915,-62.26186,44.25522,-36.4102,-110.6672,-50.37534,0.001067912,-0.1257102,0.09433498,0,0.3,0,0,0,0,
6.38223E+17,1.083758,9.257769,37.56575,-18.30508,18.35994,93.90652,-17.15165,-0.4441859,-4.249202,-61.9592,-7.056135,34.57793,0,0,0,4.027036,-60.89758,44.52466,-36.4102,-110.6672,-50.37534,0.001067912,-0.1257102,0.09433498,0,0.3,0,0,0,0,
6.38223E+17,-0.4005193,9.444795,37.51905,-19.03753,17.99371,96.61659,-17.15165,-0.4441859,-4.249202,-61.88596,-6.98289,34.57793,0,0,0,-1.487232,-60.5343,44.40065,-36.4102,-110.6672,-50.37534,0.001067912,-0.1257102,0.09433498,0,0.3,0,0,0,0,
6.38223E+17,-3.958073,9.468172,37.51905,-19.84323,17.40775,102.9157,-17.15165,-0.4441859,-4.249202,-61.9592,-7.056135,34.57793,0,0,0,-14.68517,-60.48063,43.88947,-36.4102,-110.6672,-50.37534,0.001067912,-0.1257102,0.09433498,0,0.3,0,0,0,0,
6.38223E+17,-8.811425,9.281147,37.49571,-21.67436,17.18801,108.3358,-17.15165,-0.4441859,-4.249202,-61.88596,-6.98289,34.57793,0,0,0,-32.59344,-60.94318,41.91351,-36.4102,-110.6672,-50.37534,0.001067912,-0.1257102,0.09433498,0,0.3,0,0,0,0,
6.38223E+17,-11.14386,9.211012,37.49571,-23.359,17.18801,109.7275,-17.15165,-0.4441859,-4.249202,-61.9592,-6.98289,34.57793,0,0,0,-41.1287,-61.10429,40.43857,-36.4102,-110.6672,-50.37534,0.001067912,-0.1257102,0.09433498,0,0.3,0,0,0,0,
6.38223E+17,-15.36109,9.211012,37.33228,-28.04669,17.26126,111.0459,-17.15165,-0.4441859,-4.249202,-61.88596,-6.98289,34.57793,0,0,0,-56.29124,-61.33539,36.55741,-36.4102,-110.6672,-50.37534,0.001067912,-0.1257102,0.09433498,0,0.3,0,0,0,0,
6.38223E+17,-18.30609,9.23439,36.7486,-32.22166,17.99371,113.0235,-17.15165,-0.4441859,-4.249202,-61.88596,-6.98289,34.57793,0,0,0,-66.40115,-62.09999,32.35696,-36.4102,-110.6672,-50.37534,0.001067912,-0.1257102,0.09433498,0,0.3,0,0,0,0,
6.38223E+17,-20.49717,9.398038,35.4645,-35.29796,19.01915,116.6858,-17.15165,-0.4441859,-4.249202,-61.88596,-6.98289,34.57793,0,0,0,-73.159,-63.48526,27.35216,-36.4102,-110.6672,-50.37534,0.001067912,-0.1257102,0.09433498,0,0.3,0,0,0,0,
6.38223E+17,-22.40552,9.23439,33.83019,-37.6418,20.4108,119.3226,-17.15165,-0.4441859,-4.249202,-61.88596,-7.056135,34.57793,0,0,0,-78.46633,-66.02351,21.97151,-36.4102,-110.6672,-50.37534,0.001067912,-0.1257102,0.09433498,0,0.3,0,0,0,0,
6.38223E+17,-23.04164,8.97723,33.38659,-38.4475,20.85028,119.8353,-17.15165,-0.4441859,-4.249202,-61.88596,-6.98289,34.57793,0,0,0,-80.275,-67.18595,20.38455,-36.4102,-110.6672,-50.37534,0.001067912,-0.1257102,0.09433498,0,0.3,0,0,0,0,
6.38223E+17,-24.0076,7.80832,32.52274,-40.35188,21.65597,120.348,-17.15165,-0.4441859,-4.249202,-61.88596,-6.98289,34.57793,0,0,0,-82.92052,-70.97095,17.82608,-36.4102,-110.6672,-50.37534,0.001067912,-0.1257102,0.09433498,0,0.3,0,0,0,0,
6.38223E+17,-24.1254,5.961442,31.54216,-41.81678,22.38842,120.4213,-17.15165,-0.4441859,-4.249202,-61.88596,-6.98289,34.57793,0,0,0,-82.72294,-76.44865,16.35972,-36.4102,-110.6672,-50.37534,0.001067912,-0.1257102,0.09433498,0,0.3,0,0,0,0,
6.38223E+17,-24.1254,3.787269,30.74835,-42.54923,23.56034,120.348,-17.15165,-0.4441859,-4.249202,-61.9592,-6.98289,34.57793,0,0,0,-82.25239,-82.44575,15.30903,-36.4102,-110.6672,-50.37534,0.001067912,-0.1257102,0.09433498,0,0.3,0,0,0,0,
6.38223E+17,-24.1254,2.501468,30.35144,-42.76897,24.2928,120.2748,-17.15165,-0.4441859,-4.249202,-61.88596,-6.98289,34.57793,0,0,0,-81.99432,-85.90328,14.73281,-36.4102,-110.6672,-50.37534,0.001067912,-0.1257102,0.09433498,0,0.3,0,0,0,0,
6.38223E+17,-23.91336,-0.2571602,29.60433,-43.06195,25.7577,119.2493,-17.15165,-0.4441859,-4.249202,-61.88596,-6.98289,34.57793,0,0,0,-80.75663,-93.19068,13.77303,-36.4102,-110.6672,-50.37534,0.001067912,-0.1257102,0.09433498,0,0.3,0,0,0,0,
6.38223E+17,-23.11232,-1.052019,27.7132,-43.20844,27.00287,117.345,-17.15165,-0.4441859,-4.249202,-61.9592,-6.98289,34.57793,0,0,0,-76.67833,-97.15128,11.31275,-36.4102,-110.6672,-50.37534,0.001067912,-0.1257102,0.09433498,0,0.3,0,0,0,0,
6.38223E+17,-22.49976,-0.9117499,26.4758,-43.06195,27.44234,116.3928,-17.15165,-0.4441859,-4.249202,-61.88596,-6.98289,34.57793,0,0,0,-73.77419,-98.13654,9.758742,-36.4102,-110.6672,-50.37534,0.001067912,-0.1257102,0.09433498,0,0.3,0,0,0,0,
6.38223E+17,-20.40293,-1.005263,25.44852,-42.03651,28.17479,114.4152,-17.15165,-0.4441859,-4.249202,-61.88596,-6.98289,34.57793,0,0,0,-66.45741,-99.4008,10.32064,-36.4102,-110.6672,-50.37534,0.001067912,-0.1257102,0.09433498,0,0.3,0,0,0,0,
6.38223E+17,-18.73017,-1.028641,24.77145,-40.86459,28.68751,113.9757,-17.15165,-0.4441859,-4.249202,-61.88596,-6.98289,34.57793,0,0,0,-60.75501,-100.1239,10.83222,-36.4102,-110.6672,-50.37534,0.001067912,-0.1257102,0.09433498,0,0.3,0,0,0,0,
6.38223E+17,-17.83489,-1.028641,24.25781,-40.13214,28.98049,113.6827,-17.15165,-0.4441859,-4.249202,-61.88596,-6.98289,34.57793,0,0,0,-57.61476,-100.6199,10.72424,-36.4102,-110.6672,-50.37534,0.001067912,-0.1257102,0.09433498,0,0.3,0,0,0,0,
6.38223E+17,-15.59669,-1.028641,23.69748,-38.88697,29.41996,111.4854,-17.15165,-0.4441859,-4.249202,-61.88596,-6.98289,34.57793,0,0,0,-50.25687,-101.1499,11.69001,-36.4102,-110.6672,-50.37534,0.001067912,-0.1257102,0.09433498,0,0.3,0,0,0,0,
6.38223E+17,-12.91086,-1.028641,23.44065,-37.34882,29.71294,108.5555,-17.15165,-0.4441859,-4.249202,-61.88596,-6.98289,34.57793,0,0,0,-41.64267,-101.3889,13.31323,-36.4102,-110.6672,-50.37534,0.001067912,-0.1257102,0.09433498,0,0.3,0,0,0,0,
6.38223E+17,-10.13078,-1.028641,23.44065,-35.51769,29.85943,106.285,-17.15165,-0.4441859,-4.249202,-61.9592,-6.98289,34.57793,0,0,0,-32.78255,-101.3889,15.1192,-36.4102,-110.6672,-50.37534,0.001067912,-0.1257102,0.09433498,0,0.3,0,0,0,0,
6.38223E+17,-7.115108,-1.028641,23.464,-32.73438,29.93268,104.5271,-17.15165,-0.4441859,-4.249202,-61.9592,-6.98289,34.57793,0,0,0,-23.09117,-101.3673,16.63926,-36.4102,-110.6672,-50.37534,0.001067912,-0.1257102,0.09433498,0,0.3,0,0,0,0,
6.38223E+17,-4.028753,-1.028641,23.55739,-30.24404,29.93268,102.403,-17.15165,-0.4441859,-4.249202,-61.88596,-6.98289,34.57793,0,0,0,-13.11167,-101.2806,17.813,-36.4102,-110.6672,-50.37534,0.001067912,-0.1257102,0.09433498,0,0.3,0,0,0,0,
