zeyangz2/DNN_classification_different_people_hand/test/srikar_right_29.csv
Timestamp,Therapist joint angle 0,Therapist joint angle 1,Therapist joint angle 2,Therapist joint angle 3,Therapist joint angle 4,Therapist joint angle 5,Patient joint angle 0,Patient joint angle 1,Patient joint angle 2,Patient joint angle 3,Patient joint angle 4,Patient joint angle 5,Virtual joint angle 0,Virtual joint angle 1,Virtual joint angle 2,Therapist position x,Therapist position y,Therapist position z,Patient position x,Patient position y,Patient position z,Virtual position x,Virtual position y,Virtual position z,Assistive Force, Obstacle Force Magnitude, Therapist Constant Force, Patient Constant Force, Recovery Factor, Assistance Level,label
6.38225E+17,0,0,0,0,0,0,0,0,0,0,0,0,0,0,0,0,0,0,0,0,0,0,0,0,0,0.3,0,0,0,0,2
6.38225E+17,23.55996,6.452384,-13.58811,-96.1647,-18.84861,-17.71912,47.92096,-0.8883717,-9.082087,-78.29288,-7.495606,14.50875,0,0,0,40.44092,-91.28197,-75.6078,83.34011,-110.3957,-93.10179,0.001067912,-0.1257102,0.09433498,0,0.3,0,0,7.61E-08,0,
6.38225E+17,23.55996,6.452384,-13.58811,-96.1647,-18.84861,-17.71912,47.92096,-0.8883717,-9.082087,-78.29288,-7.495606,14.43551,0,0,0,40.44092,-91.28197,-75.6078,83.34011,-110.3957,-93.10179,0.001067912,-0.1257102,0.09433498,0,0.3,0,0,7.61E-08,0,
6.38225E+17,23.55996,6.452384,-13.58811,-96.1647,-18.84861,-17.71912,47.92096,-0.8883717,-9.082087,-78.29288,-7.422361,14.43551,0,0,0,40.44092,-91.28197,-75.6078,83.34011,-110.3957,-93.10179,0.001067912,-0.1257102,0.09433498,0,0.3,0,0,0,0,
6.38225E+17,23.55996,6.452384,-13.58811,-96.1647,-18.84861,-17.71912,47.92096,-0.8883717,-9.082087,-78.29288,-7.422361,14.50875,0,0,0,40.44092,-91.28197,-75.6078,83.34011,-110.3957,-93.10179,0.001067912,-0.1257102,0.09433498,0,0.3,0,0,0,0,
6.38225E+17,23.55996,6.452384,-13.58811,-96.1647,-18.84861,-17.71912,47.92096,-0.8883717,-9.082087,-78.29288,-7.495606,14.43551,0,0,0,40.44092,-91.28197,-75.6078,83.34011,-110.3957,-93.10179,0.001067912,-0.1257102,0.09433498,0,0.3,0,0,0,0,
6.38225E+17,23.55996,6.452384,-13.58811,-96.1647,-18.77536,-17.71912,47.92096,-0.8883717,-9.082087,-78.29288,-7.495606,14.43551,0,0,0,40.44092,-91.28197,-75.6078,83.34011,-110.3957,-93.10179,0.001067912,-0.1257102,0.09433498,0,0.3,0,0,0,0,
6.38225E+17,23.55996,6.452384,-13.58811,-96.1647,-18.77536,-17.71912,47.92096,-0.8883717,-9.082087,-78.29288,-7.422361,14.43551,0,0,0,40.44092,-91.28197,-75.6078,83.34011,-110.3957,-93.10179,0.001067912,-0.1257102,0.09433498,0,0.3,0,0,0,0,
6.38225E+17,23.55996,6.452384,-13.58811,-96.1647,-18.84861,-17.79236,47.92096,-0.8883717,-9.082087,-78.29288,-7.495606,14.43551,0,0,0,40.44092,-91.28197,-75.6078,83.34011,-110.3957,-93.10179,0.001067912,-0.1257102,0.09433498,0,0.3,0,0,7.61E-08,0,
6.38225E+17,23.55996,6.452384,-13.58811,-96.1647,-18.84861,-17.71912,47.92096,-0.8883717,-9.082087,-78.29288,-7.495606,14.50875,0,0,0,40.44092,-91.28197,-75.6078,83.34011,-110.3957,-93.10179,0.001067912,-0.1257102,0.09433498,0,0.3,0,0,1.52E-07,0,
6.38225E+17,23.55996,6.452384,-13.58811,-96.1647,-18.77536,-17.71912,47.92096,-0.8883717,-9.082087,-78.29288,-7.422361,14.50875,0,0,0,40.44092,-91.28197,-75.6078,83.34011,-110.3957,-93.10179,0.001067912,-0.1257102,0.09433498,0,0.3,0,0,2.28E-07,0,
6.38225E+17,23.55996,6.452384,-13.58811,-96.1647,-18.84861,-17.71912,47.92096,-0.8883717,-9.082087,-78.29288,-7.422361,14.50875,0,0,0,40.44092,-91.28197,-75.6078,83.34011,-110.3957,-93.10179,0.001067912,-0.1257102,0.09433498,0,0.3,0,0,2.28E-07,0,
6.38225E+17,23.55996,6.452384,-13.58811,-96.1647,-18.84861,-17.71912,47.92096,-0.8883717,-9.082087,-78.29288,-7.495606,14.43551,0,0,0,40.44092,-91.28197,-75.6078,83.34011,-110.3957,-93.10179,0.001067912,-0.1257102,0.09433498,0,0.3,0,0,2.28E-07,0,
6.38225E+17,23.55996,6.452384,-13.58811,-96.1647,-18.84861,-17.71912,47.92096,-0.8883717,-9.082087,-78.29288,-7.422361,14.43551,0,0,0,40.44092,-91.28197,-75.6078,83.34011,-110.3957,-93.10179,0.001067912,-0.1257102,0.09433498,0,0.3,0,0,1.52E-07,0,
6.38225E+17,23.55996,6.452384,-13.58811,-96.1647,-18.84861,-17.79236,47.92096,-0.8883717,-9.082087,-78.29288,-7.495606,14.50875,0,0,0,40.44092,-91.28197,-75.6078,83.34011,-110.3957,-93.10179,0.001067912,-0.1257102,0.09433498,0,0.3,0,0,7.61E-08,0,
6.38225E+17,23.55996,6.452384,-13.58811,-96.1647,-18.84861,-18.0121,47.92096,-0.8883717,-9.082087,-78.29288,-7.495606,14.50875,0,0,0,40.44092,-91.28197,-75.6078,83.34011,-110.3957,-93.10179,0.001067912,-0.1257102,0.09433498,0,0.3,0,0,7.61E-08,0,
6.38225E+17,23.55996,6.452384,-13.58811,-96.1647,-18.84861,-18.52482,47.92096,-0.8883717,-9.082087,-78.29288,-7.495606,14.50875,0,0,0,40.44092,-91.28197,-75.6078,83.34011,-110.3957,-93.10179,0.001067912,-0.1257102,0.09433498,0,0.3,0,0,0,0,
6.38225E+17,23.55996,6.452384,-13.58811,-96.1647,-18.84861,-19.03753,47.92096,-0.8883717,-9.082087,-78.29288,-7.495606,14.50875,0,0,0,40.44092,-91.28197,-75.6078,83.34011,-110.3957,-93.10179,0.001067912,-0.1257102,0.09433498,0,0.3,0,0,0,0,
6.38225E+17,23.55996,6.452384,-13.58811,-96.1647,-18.84861,-19.33051,47.92096,-0.8883717,-9.082087,-78.29288,-7.495606,14.50875,0,0,0,40.44092,-91.28197,-75.6078,83.34011,-110.3957,-93.10179,0.001067912,-0.1257102,0.09433498,0,0.3,0,0,0,0,
6.38225E+17,23.55996,6.452384,-13.58811,-96.1647,-18.84861,-19.98972,47.92096,-0.8883717,-9.082087,-78.29288,-7.495606,14.50875,0,0,0,40.44092,-91.28197,-75.6078,83.34011,-110.3957,-93.10179,0.001067912,-0.1257102,0.09433498,0,0.3,0,0,0,0,
6.38225E+17,23.5364,6.452384,-13.58811,-96.1647,-18.92185,-20.79542,47.92096,-0.8883717,-9.082087,-78.29288,-7.422361,14.50875,0,0,0,40.40278,-91.28197,-75.59117,83.34011,-110.3957,-93.10179,0.001067912,-0.1257102,0.09433498,0,0.3,0,0,0,0,
6.38225E+17,23.44216,6.452384,-13.58811,-96.23794,-18.92185,-22.84628,47.92096,-0.8883717,-9.082087,-78.29288,-7.495606,14.50875,0,0,0,40.25015,-91.28197,-75.52484,83.34011,-110.3957,-93.10179,0.001067912,-0.1257102,0.09433498,0,0.3,0,0,0,0,
6.38225E+17,23.32436,6.452384,-13.58811,-96.38443,-18.92185,-24.45767,47.92096,-0.8883717,-9.082087,-78.29288,-7.495606,14.50875,0,0,0,40.05922,-91.28197,-75.44228,83.34011,-110.3957,-93.10179,0.001067912,-0.1257102,0.09433498,0,0.3,0,0,0,0,
6.38225E+17,22.92384,6.452384,-13.58811,-96.82391,-18.84861,-28.19318,47.92096,-0.8883717,-9.082087,-78.29288,-7.495606,14.43551,0,0,0,39.40879,-91.28197,-75.16453,83.34011,-110.3957,-93.10179,0.001067912,-0.1257102,0.09433498,0,0.3,0,0,0,0,
6.38225E+17,22.2406,6.452384,-13.58811,-97.33662,-18.84861,-31.26948,47.92096,-0.8883717,-9.082087,-78.29288,-7.422361,14.43551,0,0,0,38.2948,-91.28197,-74.70123,83.34011,-110.3957,-93.10179,0.001067912,-0.1257102,0.09433498,0,0.3,0,0,0,0,
6.38225E+17,21.10972,6.452384,-13.58811,-97.92258,-18.84861,-32.80762,47.92096,-0.8883717,-9.082087,-78.29288,-7.495606,14.50875,0,0,0,36.43906,-91.28197,-73.96367,83.34011,-110.3957,-93.10179,0.001067912,-0.1257102,0.09433498,0,0.3,0,0,0,0,
6.38225E+17,19.46053,6.452384,-13.58811,-99.16775,-19.06834,-33.39359,47.92096,-0.8883717,-9.082087,-78.29288,-7.495606,14.43551,0,0,0,33.70753,-91.28197,-72.95406,83.34011,-110.3957,-93.10179,0.001067912,-0.1257102,0.09433498,0,0.3,0,0,0,0,
6.38225E+17,18.51813,6.452384,-13.56476,-99.9002,-19.21483,-33.39359,47.92096,-0.8883717,-9.082087,-78.29288,-7.495606,14.50875,0,0,0,32.15075,-91.29472,-72.36248,83.34011,-110.3957,-93.10179,0.001067912,-0.1257102,0.09433498,0,0.3,0,0,0,0,
6.38225E+17,16.46841,6.452384,-13.56476,-101.2919,-19.50781,-32.73438,47.92096,-0.8883717,-9.082087,-78.29288,-7.495606,14.50875,0,0,0,28.61718,-91.29472,-71.2504,83.34011,-110.3957,-93.10179,0.001067912,-0.1257102,0.09433498,0,0.3,0,0,0,0,
6.38225E+17,14.48938,6.452384,-13.56476,-102.83,-19.80079,-30.83001,47.92096,-0.8883717,-9.082087,-78.29288,-7.495606,14.50875,0,0,0,25.3275,-91.29472,-70.34085,83.34011,-110.3957,-93.10179,0.001067912,-0.1257102,0.09433498,0,0.3,0,0,0,0,
6.38225E+17,13.73546,6.452384,-13.56476,-103.416,-19.87404,-29.58484,47.92096,-0.8883717,-9.082087,-78.29288,-7.495606,14.50875,0,0,0,24.03571,-91.29472,-70.01608,83.34011,-110.3957,-93.10179,0.001067912,-0.1257102,0.09433498,0,0.3,0,0,0,0,
6.38225E+17,12.91086,6.429006,-13.56476,-104.1484,-20.09377,-26.21556,47.92096,-0.8883717,-9.082087,-78.29288,-7.422361,14.43551,0,0,0,22.61941,-91.34879,-69.6744,83.34011,-110.3957,-93.10179,0.001067912,-0.1257102,0.09433498,0,0.3,0,0,0,0,
6.38225E+17,12.79306,6.429006,-13.56476,-104.5146,-20.24026,-19.62349,47.92096,-0.8883717,-9.082087,-78.29288,-7.495606,14.43551,0,0,0,22.41649,-91.34879,-69.62811,83.34011,-110.3957,-93.10179,0.001067912,-0.1257102,0.09433498,0,0.3,0,0,0,0,
6.38225E+17,12.79306,6.429006,-13.56476,-104.5879,-20.24026,-16.10773,47.92096,-0.8883717,-9.082087,-78.29288,-7.422361,14.50875,0,0,0,22.41649,-91.34879,-69.62811,83.34011,-110.3957,-93.10179,0.001067912,-0.1257102,0.09433498,0,0.3,0,0,0,0,
6.38225E+17,12.7695,6.429006,-13.56476,-104.5879,-20.31351,-6.585854,47.92096,-0.8883717,-9.082087,-78.29288,-7.495606,14.43551,0,0,0,22.37589,-91.34879,-69.6189,83.34011,-110.3957,-93.10179,0.001067912,-0.1257102,0.09433498,0,0.3,0,0,0,0,
6.38225E+17,12.67526,6.429006,-13.56476,-104.5146,-20.31351,5.206618,47.92096,-0.8883717,-9.082087,-78.29288,-7.495606,14.50875,0,0,0,22.21347,-91.34879,-69.58223,83.34011,-110.3957,-93.10179,0.001067912,-0.1257102,0.09433498,0,0.3,0,0,0,0,
6.38225E+17,12.58102,6.429006,-13.56476,-104.5146,-20.24026,24.17712,47.92096,-0.8883717,-9.082087,-78.29288,-7.495606,14.43551,0,0,0,22.05099,-91.34879,-69.54582,83.34011,-110.3957,-93.10179,0.001067912,-0.1257102,0.09433498,0,0.3,0,0,0,0,
6.38225E+17,12.48678,6.429006,-13.56476,-104.5146,-20.09377,35.23714,47.92096,-0.8883717,-9.082087,-78.29288,-7.495606,14.43551,0,0,0,21.88844,-91.34879,-69.50969,83.34011,-110.3957,-93.10179,0.001067912,-0.1257102,0.09433498,0,0.3,0,0,0,0,
6.38225E+17,12.48678,6.429006,-13.56476,-104.5146,-20.02053,44.46603,47.92096,-0.8883717,-9.082087,-78.29288,-7.495606,14.50875,0,0,0,21.88844,-91.34879,-69.50969,83.34011,-110.3957,-93.10179,0.001067912,-0.1257102,0.09433498,0,0.3,0,0,0,0,
6.38225E+17,12.48678,6.429006,-13.56476,-104.5146,-19.6543,59.48129,47.92096,-0.8883717,-9.082087,-78.29288,-7.495606,14.43551,0,0,0,21.88844,-91.34879,-69.50969,83.34011,-110.3957,-93.10179,0.001067912,-0.1257102,0.09433498,0,0.3,0,0,0,0,
6.38225E+17,12.48678,6.429006,-13.56476,-104.5146,-19.36132,67.75799,47.92096,-0.8883717,-9.082087,-78.29288,-7.495606,14.43551,0,0,0,21.88844,-91.34879,-69.50969,83.34011,-110.3957,-93.10179,0.001067912,-0.1257102,0.09433498,0,0.3,0,0,0,0,
6.38225E+17,12.48678,6.429006,-13.56476,-104.5146,-19.28808,70.32157,47.92096,-0.8883717,-9.082087,-78.29288,-7.422361,14.50875,0,0,0,21.88844,-91.34879,-69.50969,83.34011,-110.3957,-93.10179,0.001067912,-0.1257102,0.09433498,0,0.3,0,0,0,0,
6.38225E+17,12.51034,6.405628,-13.56476,-104.5146,-19.36132,69.8821,47.92096,-0.8883717,-9.082087,-78.29288,-7.422361,14.50875,0,0,0,21.9304,-91.40286,-69.51276,83.34011,-110.3957,-93.10179,0.001067912,-0.1257102,0.09433498,0,0.3,0,0,0,0,
6.38225E+17,12.51034,6.405628,-13.56476,-104.5146,-19.50781,67.24528,47.92096,-0.8883717,-9.082087,-78.29288,-7.495606,14.50875,0,0,0,21.9304,-91.40286,-69.51276,83.34011,-110.3957,-93.10179,0.001067912,-0.1257102,0.09433498,0,0.3,0,0,0,0,
6.38225E+17,12.51034,6.38225,-13.56476,-104.5146,-19.58106,64.90143,47.92096,-0.8883717,-9.082087,-78.29288,-7.495606,14.43551,0,0,0,21.93171,-91.45693,-69.50684,83.34011,-110.3957,-93.10179,0.001067912,-0.1257102,0.09433498,0,0.3,0,0,0,0,
6.38225E+17,12.51034,6.38225,-13.56476,-104.5146,-19.58106,64.16898,47.92096,-0.8883717,-9.082087,-78.29288,-7.495606,14.43551,0,0,0,21.93171,-91.45693,-69.50684,83.34011,-110.3957,-93.10179,0.001067912,-0.1257102,0.09433498,0,0.3,0,0,0,0,
6.38225E+17,12.51034,6.38225,-13.56476,-104.5146,-19.6543,63.21679,47.92096,-0.8883717,-9.082087,-78.29288,-7.422361,14.50875,0,0,0,21.93171,-91.45693,-69.50684,83.34011,-110.3957,-93.10179,0.001067912,-0.1257102,0.09433498,0,0.3,0,0,0,0,
6.38225E+17,12.51034,6.38225,-13.56476,-104.5146,-19.58106,62.77732,47.92096,-0.8883717,-9.082087,-78.29288,-7.422361,14.50875,0,0,0,21.93171,-91.45693,-69.50684,83.34011,-110.3957,-93.10179,0.001067912,-0.1257102,0.09433498,0,0.3,0,0,0,0,
6.38225E+17,12.51034,6.38225,-13.56476,-104.5146,-19.58106,62.70407,47.92096,-0.8883717,-9.082087,-78.29288,-7.495606,14.50875,0,0,0,21.93171,-91.45693,-69.50684,83.34011,-110.3957,-93.10179,0.001067912,-0.1257102,0.09433498,0,0.3,0,0,0,0,
6.38225E+17,12.51034,6.358871,-13.56476,-104.5146,-19.58106,62.55759,47.92096,-0.8883717,-9.082087,-78.29288,-7.495606,14.50875,0,0,0,21.93302,-91.51101,-69.50095,83.34011,-110.3957,-93.10179,0.001067912,-0.1257102,0.09433498,0,0.3,0,0,0,0,
6.38225E+17,12.51034,6.358871,-13.56476,-104.5146,-19.58106,62.41109,47.92096,-0.8883717,-9.082087,-78.29288,-7.422361,14.43551,0,0,0,21.93302,-91.51101,-69.50095,83.34011,-110.3957,-93.10179,0.001067912,-0.1257102,0.09433498,0,0.3,0,0,0,0,
6.38225E+17,12.46322,6.171845,-13.19121,-104.5146,-19.58106,61.89838,47.92096,-0.8883717,-9.082087,-78.29288,-7.422361,14.50875,0,0,0,22.04451,-92.14485,-68.61067,83.34011,-110.3957,-93.10179,0.001067912,-0.1257102,0.09433498,0,0.3,0,0,0,0,
6.38225E+17,12.22762,5.751038,-12.16393,-104.5146,-19.43457,61.23917,47.92096,-0.8883717,-9.082087,-78.29288,-7.495606,14.43551,0,0,0,22.14977,-93.64365,-66.14181,83.34011,-110.3957,-93.10179,0.001067912,-0.1257102,0.09433498,0,0.3,0,0,0,0,
6.38225E+17,11.99202,4.605506,-10.69305,-105.9063,-18.62887,60.43347,47.92096,-0.8883717,-9.082087,-78.29288,-7.422361,14.43551,0,0,0,22.47646,-96.97712,-62.5341,83.34011,-110.3957,-93.10179,0.001067912,-0.1257102,0.09433498,0,0.3,0,0,0,0,
6.38225E+17,11.99202,3.553487,-10.52962,-107.3712,-17.45695,60.06725,47.92096,-0.8883717,-9.082087,-78.29288,-7.495606,14.43551,0,0,0,22.59033,-99.48939,-61.99801,83.34011,-110.3957,-93.10179,0.001067912,-0.1257102,0.09433498,0,0.3,0,0,0,0,
6.38225E+17,11.99202,3.132679,-10.52962,-107.7374,-16.94423,59.92076,47.92096,-0.8883717,-9.082087,-78.29288,-7.495606,14.50875,0,0,0,22.6022,-100.4671,-61.94215,83.34011,-110.3957,-93.10179,0.001067912,-0.1257102,0.09433498,0,0.3,0,0,0,0,
6.38225E+17,11.92134,2.618359,-10.52962,-107.298,-16.06529,59.77427,47.92096,-0.8883717,-9.082087,-78.29288,-7.495606,14.43551,0,0,0,22.48332,-101.6626,-61.85559,83.34011,-110.3957,-93.10179,0.001067912,-0.1257102,0.09433498,0,0.3,0,0,0,0,
6.38225E+17,9.518225,2.454711,-10.78644,-104.0019,-15.18635,60.72646,47.92096,-0.8883717,-9.082087,-78.29288,-7.495606,14.50875,0,0,0,17.90389,-101.9326,-61.56922,83.34011,-110.3957,-93.10179,0.001067912,-0.1257102,0.09433498,0,0.3,0,0,0,0,
6.38225E+17,6.526109,2.431333,-8.895308,-100.2664,-14.23416,64.16898,47.92096,-0.8883717,-9.082087,-78.29288,-7.495606,14.43551,0,0,0,12.79881,-102.7392,-56.46958,83.34011,-110.3957,-93.10179,0.001067912,-0.1257102,0.09433498,0,0.3,0,0,0,0,
6.38225E+17,5.748631,2.361199,-7.914723,-99.16775,-13.6482,64.53521,47.92096,-0.8883717,-9.082087,-78.29288,-7.495606,14.43551,0,0,0,11.50633,-103.2358,-54.0531,83.34011,-110.3957,-93.10179,0.001067912,-0.1257102,0.09433498,0,0.3,0,0,0,0,
6.38225E+17,4.382153,2.33782,-4.94962,-98.50854,-11.08462,64.31547,47.92096,-0.8883717,-9.082087,-78.29288,-7.495606,14.43551,0,0,0,9.301476,-104.0632,-46.97227,83.34011,-110.3957,-93.10179,0.001067912,-0.1257102,0.09433498,0,0.3,0,0,0,0,
6.38225E+17,4.099433,2.33782,-2.451463,-98.36205,-5.884212,61.38566,47.92096,-0.8883717,-9.082087,-78.29288,-7.495606,14.43551,0,0,0,9.117185,-104.4384,-41.14108,83.34011,-110.3957,-93.10179,0.001067912,-0.1257102,0.09433498,0,0.3,0,0,0,0,
6.38225E+17,4.570632,2.431333,-0.700418,-93.7476,1.953021,56.55148,47.92096,-0.8883717,-9.082087,-78.29288,-7.422361,14.50875,0,0,0,10.48693,-104.3331,-37.16866,83.34011,-110.3957,-93.10179,0.001067912,-0.1257102,0.09433498,0,0.3,0,0,0,0,
6.38225E+17,5.018272,2.922275,0.1634309,-90.0121,6.420976,54.35413,47.92096,-0.8883717,-9.082087,-78.29288,-7.495606,14.43551,0,0,0,11.68268,-103.2011,-35.30498,83.34011,-110.3957,-93.10179,0.001067912,-0.1257102,0.09433498,0,0.3,0,0,0,0,
6.38225E+17,5.041832,5.540634,2.21799,-82.46785,14.55119,50.39889,47.92096,-0.8883717,-9.082087,-78.29288,-7.422361,14.50875,0,0,0,12.118,-97.02493,-30.99568,83.34011,-110.3957,-93.10179,0.001067912,-0.1257102,0.09433498,0,0.3,0,0,0,0,
6.38225E+17,4.358593,9.351281,5.113051,-76.02227,20.11782,48.05504,47.92096,-0.8883717,-9.082087,-78.29288,-7.495606,14.43551,0,0,0,10.9029,-87.80173,-25.30272,83.34011,-110.3957,-93.10179,0.001067912,-0.1257102,0.09433498,0,0.3,0,0,0,0,
6.38225E+17,4.122993,11.43194,6.91079,-73.23896,22.09544,47.46908,47.92096,-0.8883717,-9.082087,-78.29288,-7.495606,14.50875,0,0,0,10.55096,-82.60069,-21.98016,83.34011,-110.3957,-93.10179,0.001067912,-0.1257102,0.09433498,0,0.3,0,0,0,0,
6.38225E+17,3.887394,16.64528,11.65029,-67.15961,25.61121,48.93398,47.92096,-0.8883717,-9.082087,-78.29288,-7.422361,14.50875,0,0,0,10.48736,-69.05525,-14.01537,83.34011,-110.3957,-93.10179,0.001067912,-0.1257102,0.09433498,0,0.3,0,0,0,0,
6.38225E+17,4.052313,20.71309,16.76334,-61.88596,27.73532,53.10896,47.92096,-0.8883717,-9.082087,-78.29288,-7.422361,14.43551,0,0,0,11.53229,-57.16883,-5.566602,83.34011,-110.3957,-93.10179,0.001067912,-0.1257102,0.09433498,0,0.3,0,0,0,0,
6.38225E+17,4.146553,22.8405,20.47555,-58.44344,28.76075,56.33175,47.92096,-0.8883717,-9.082087,-78.29288,-7.495606,14.43551,0,0,0,12.25913,-49.81306,0.7469463,83.34011,-110.3957,-93.10179,0.001067912,-0.1257102,0.09433498,0,0.3,0,0,0,0,
6.38225E+17,4.217233,26.32386,28.81053,-50.6062,29.93268,64.82819,47.92096,-0.8883717,-9.082087,-78.29288,-7.495606,14.43551,0,0,0,13.51522,-34.36038,14.93756,83.34011,-110.3957,-93.10179,0.001067912,-0.1257102,0.09433498,0,0.3,0,0,0,0,
6.38225E+17,4.429273,29.15262,36.23495,-41.45055,28.90724,75.74171,47.92096,-0.8883717,-9.082087,-78.29288,-7.495606,14.43551,0,0,0,15.08123,-19.25028,26.3476,83.34011,-110.3957,-93.10179,0.001067912,-0.1257102,0.09433498,0,0.3,0,0,0,0,
6.38225E+17,4.405713,30.27477,39.92382,-36.54313,27.36909,81.67458,47.92096,-0.8883717,-9.082087,-78.29288,-7.495606,14.50875,0,0,0,15.42078,-11.68784,31.80007,83.34011,-110.3957,-93.10179,0.001067912,-0.1257102,0.09433498,0,0.3,0,0,0,0,
6.38225E+17,4.005194,31.46706,47.39495,-26.4353,22.60816,92.14863,47.92096,-0.8883717,-9.082087,-78.29288,-7.495606,14.43551,0,0,0,14.79987,2.689744,43.0227,83.34011,-110.3957,-93.10179,0.001067912,-0.1257102,0.09433498,0,0.3,0,0,0,0,
6.38225E+17,2.944995,31.16315,54.53922,-16.91342,16.16258,100.0591,47.92096,-0.8883717,-9.082087,-78.29288,-7.495606,14.43551,0,0,0,11.44287,14.99309,54.07837,83.34011,-110.3957,-93.10179,0.001067912,-0.1257102,0.09433498,0,0.3,0,0,0,0,
6.38225E+17,1.107318,30.55531,60.42272,-8.416983,8.471841,105.6257,47.92096,-0.8883717,-9.082087,-78.29288,-7.495606,14.50875,0,0,0,4.460361,25.31997,62.41302,83.34011,-110.3957,-93.10179,0.001067912,-0.1257102,0.09433498,0,0.3,0,0,0,0,
6.38225E+17,-0.3533994,29.97086,63.24775,-3.656047,3.051698,108.4091,47.92096,-0.8883717,-9.082087,-78.29288,-7.495606,14.50875,0,0,0,-1.446967,29.94093,66.2403,83.34011,-110.3957,-93.10179,0.001067912,-0.1257102,0.09433498,0,0.3,0,0,0,0,
6.38225E+17,-2.073277,29.12924,65.67587,1.324624,-3.100896,111.5586,47.92096,-0.8883717,-9.082087,-78.29288,-7.495606,14.43551,0,0,0,-8.610158,33.33564,69.49111,83.34011,-110.3957,-93.10179,0.001067912,-0.1257102,0.09433498,0,0.3,0,0,0,0,
6.38225E+17,-3.793154,28.35776,66.74983,7.110993,-9.839451,115.0744,47.92096,-0.8883717,-9.082087,-78.29288,-7.495606,14.43551,0,0,0,-15.86842,34.04854,70.99306,83.34011,-110.3957,-93.10179,0.001067912,-0.1257102,0.09433498,0,0.3,0,0,0,0,
6.38225E+17,-4.476392,28.28763,66.56306,10.11404,-12.69601,116.759,47.92096,-0.8883717,-9.082087,-78.29288,-7.422361,14.50875,0,0,0,-18.71394,33.50573,70.6923,83.34011,-110.3957,-93.10179,0.001067912,-0.1257102,0.09433498,0,0.3,0,0,0,0,
6.38225E+17,-5.136071,28.21749,64.9521,16.41313,-16.94423,119.9818,47.92096,-0.8883717,-9.082087,-78.29288,-7.422361,14.43551,0,0,0,-21.33397,29.94334,69.00471,83.34011,-110.3957,-93.10179,0.001067912,-0.1257102,0.09433498,0,0.3,0,0,0,0,
6.38225E+17,-4.947592,28.19411,61.52005,23.59116,-19.28808,121.6664,47.92096,-0.8883717,-9.082087,-78.29288,-7.495606,14.43551,0,0,0,-20.2451,22.76445,65.51616,83.34011,-110.3957,-93.10179,0.001067912,-0.1257102,0.09433498,0,0.3,0,0,0,0,
6.38225E+17,-4.193673,28.19411,56.26691,29.89024,-19.50781,123.1313,47.92096,-0.8883717,-9.082087,-78.29288,-7.495606,14.50875,0,0,0,-16.7044,12.30001,59.46502,83.34011,-110.3957,-93.10179,0.001067912,-0.1257102,0.09433498,0,0.3,0,0,0,0,
6.38225E+17,-2.992115,28.14736,48.77244,33.77223,-17.38371,127.9655,47.92096,-0.8883717,-9.082087,-78.29288,-7.495606,14.50875,0,0,0,-11.37259,-1.627856,49.22491,83.34011,-110.3957,-93.10179,0.001067912,-0.1257102,0.09433498,0,0.3,0,0,0,0,
6.38225E+17,-2.355996,28.00709,44.45319,34.72442,-15.69907,134.1181,47.92096,-0.8883717,-9.082087,-78.29288,-7.495606,14.50875,0,0,0,-8.678861,-9.219674,42.59338,83.34011,-110.3957,-93.10179,0.001067912,-0.1257102,0.09433498,0,0.3,0,0,0,0,
6.38225E+17,-0.8010387,26.97845,32.38266,35.38363,-9.546471,144.6654,47.92096,-0.8883717,-9.082087,-78.29288,-7.495606,14.50875,0,0,0,-2.65985,-28.76782,21.88831,83.34011,-110.3957,-93.10179,0.001067912,-0.1257102,0.09433498,0,0.3,0,0,0,0,
6.38225E+17,0.3769594,25.62251,24.16442,35.16389,-4.639044,144.8852,47.92096,-0.8883717,-9.082087,-78.29288,-7.422361,14.43551,0,0,0,1.150193,-40.64926,6.470631,83.34011,-110.3957,-93.10179,0.001067912,-0.1257102,0.09433498,0,0.3,0,0,0,0,
6.38225E+17,1.177998,24.75752,19.77514,35.16389,-1.709238,144.8119,47.92096,-0.8883717,-9.082087,-78.29288,-7.422361,14.50875,0,0,0,3.417024,-46.29188,-2.175316,83.34011,-110.3957,-93.10179,0.001067912,-0.1257102,0.09433498,0,0.3,0,0,0,0,
6.38225E+17,2.897875,22.91064,12.00049,35.89634,3.857395,144.8852,47.92096,-0.8883717,-9.082087,-78.29288,-7.495606,14.43551,0,0,0,7.611524,-55.17326,-17.98594,83.34011,-110.3957,-93.10179,0.001067912,-0.1257102,0.09433498,0,0.3,0,0,0,0,
6.38225E+17,4.617752,21.36768,6.934138,36.84853,8.178861,144.9584,47.92096,-0.8883717,-9.082087,-78.29288,-7.495606,14.43551,0,0,0,11.29386,-60.43835,-28.52252,83.34011,-110.3957,-93.10179,0.001067912,-0.1257102,0.09433498,0,0.3,0,0,0,0,
6.38225E+17,5.395231,20.8066,5.276482,37.36125,9.790254,144.8852,47.92096,-0.8883717,-9.082087,-78.29288,-7.422361,14.50875,0,0,0,12.87365,-62.06706,-32.03991,83.34011,-110.3957,-93.10179,0.001067912,-0.1257102,0.09433498,0,0.3,0,0,0,0,
6.38225E+17,7.091548,20.22215,3.128534,38.38668,13.45251,144.8852,47.92096,-0.8883717,-9.082087,-78.29288,-7.422361,14.43551,0,0,0,16.34644,-63.70737,-36.95494,83.34011,-110.3957,-93.10179,0.001067912,-0.1257102,0.09433498,0,0.3,0,0,0,0,
6.38225E+17,8.363786,20.31566,2.98845,39.19238,16.96828,144.7387,47.92096,-0.8883717,-9.082087,-78.29288,-7.495606,14.50875,0,0,0,19.20144,-63.52061,-37.74697,83.34011,-110.3957,-93.10179,0.001067912,-0.1257102,0.09433498,0,0.3,0,0,0,0,
6.38225E+17,9.329745,21.90538,4.319244,39.92483,21.2165,144.8119,47.92096,-0.8883717,-9.082087,-78.29288,-7.422361,14.50875,0,0,0,21.68552,-59.87174,-36.35412,83.34011,-110.3957,-93.10179,0.001067912,-0.1257102,0.09433498,0,0.3,0,0,0,0,
6.38225E+17,10.08366,23.98604,6.023595,40.07132,23.56034,144.8852,47.92096,-0.8883717,-9.082087,-78.29288,-7.495606,14.50875,0,0,0,23.78158,-55.0551,-34.62013,83.34011,-110.3957,-93.10179,0.001067912,-0.1257102,0.09433498,0,0.3,0,0,0,0,
6.38225E+17,10.74334,27.00183,8.568447,40.21781,25.53797,144.8119,47.92096,-0.8883717,-9.082087,-78.29288,-7.495606,14.50875,0,0,0,25.85164,-47.96821,-32.09909,83.34011,-110.3957,-93.10179,0.001067912,-0.1257102,0.09433498,0,0.3,0,0,0,0,
6.38225E+17,10.79046,31.09301,11.44016,39.5586,27.00287,140.3439,47.92096,-0.8883717,-9.082087,-78.29288,-7.495606,14.43551,0,0,0,26.33047,-38.48487,-30.19591,83.34011,-110.3957,-93.10179,0.001067912,-0.1257102,0.09433498,0,0.3,0,0,0,0,
6.38225E+17,10.81402,33.47759,13.21455,38.82615,27.44234,137.4874,47.92096,-0.8883717,-9.082087,-78.29288,-7.495606,14.50875,0,0,0,26.58806,-32.91172,-29.15557,83.34011,-110.3957,-93.10179,0.001067912,-0.1257102,0.09433498,0,0.3,0,0,0,0,
6.38225E+17,10.86114,38.01296,17.62719,36.99502,27.36909,131.1883,47.92096,-0.8883717,-9.082087,-78.29288,-7.422361,14.50875,0,0,0,27.40593,-21.61661,-25.51138,83.34011,-110.3957,-93.10179,0.001067912,-0.1257102,0.09433498,0,0.3,0,0,0,0,
6.38225E+17,10.86114,42.40806,22.76358,34.65118,25.90419,123.6441,47.92096,-0.8883717,-9.082087,-78.29288,-7.495606,14.43551,0,0,0,28.27524,-9.681194,-20.98059,83.34011,-110.3957,-93.10179,0.001067912,-0.1257102,0.09433498,0,0.3,0,0,0,0,
6.38225E+17,10.83758,45.82128,27.29295,32.16084,23.70683,117.4915,47.92096,-0.8883717,-9.082087,-78.29288,-7.495606,14.43551,0,0,0,28.97057,0.4799195,-17.02031,83.34011,-110.3957,-93.10179,0.001067912,-0.1257102,0.09433498,0,0.3,0,0,0,0,
6.38225E+17,10.83758,48.32275,31.44877,29.817,20.85028,111.4854,47.92096,-0.8883717,-9.082087,-78.29288,-7.495606,14.43551,0,0,0,29.75362,9.187587,-12.92997,83.34011,-110.3957,-93.10179,0.001067912,-0.1257102,0.09433498,0,0.3,0,0,0,0,
6.38225E+17,10.83758,49.14098,32.91964,28.93805,19.38537,108.9218,47.92096,-0.8883717,-9.082087,-78.29288,-7.495606,14.50875,0,0,0,30.02924,12.26702,-11.49027,83.34011,-110.3957,-93.10179,0.001067912,-0.1257102,0.09433498,0,0.3,0,0,0,0,
6.38225E+17,10.83758,49.79557,33.78349,27.76613,17.04152,104.82,47.92096,-0.8883717,-9.082087,-78.29288,-7.495606,14.43551,0,0,0,30.12729,14.3624,-10.97809,83.34011,-110.3957,-93.10179,0.001067912,-0.1257102,0.09433498,0,0.3,0,0,0,0,
6.38225E+17,10.93182,49.37476,32.0091,27.39991,16.30907,101.6705,47.92096,-0.8883717,-9.082087,-78.29288,-7.495606,14.50875,0,0,0,29.86995,11.48461,-13.70019,83.34011,-110.3957,-93.10179,0.001067912,-0.1257102,0.09433498,0,0.3,0,0,0,0,
6.38225E+17,11.0025,48.83707,30.14132,27.32666,16.74854,100.4253,47.92096,-0.8883717,-9.082087,-78.29288,-7.495606,14.43551,0,0,0,29.53069,8.421648,-16.46318,83.34011,-110.3957,-93.10179,0.001067912,-0.1257102,0.09433498,0,0.3,0,0,0,0,
6.38225E+17,11.0025,47.22397,25.40182,27.25341,19.23888,98.96043,47.92096,-0.8883717,-9.082087,-78.29288,-7.495606,14.43551,0,0,0,28.2012,0.7728345,-23.3012,83.34011,-110.3957,-93.10179,0.001067912,-0.1257102,0.09433498,0,0.3,0,0,0,0,
6.38225E+17,11.0025,45.07318,20.82576,26.81394,22.90114,98.52097,47.92096,-0.8883717,-9.082087,-78.29288,-7.422361,14.43551,0,0,0,27.02114,-6.874662,-29.37069,83.34011,-110.3957,-93.10179,0.001067912,-0.1257102,0.09433498,0,0.3,0,0,0,0,
6.38225E+17,10.8847,42.43144,17.39371,26.00825,27.51558,99.03368,47.92096,-0.8883717,-9.082087,-78.29288,-7.495606,14.43551,0,0,0,26.11314,-13.93008,-32.5511,83.34011,-110.3957,-93.10179,0.001067912,-0.1257102,0.09433498,0,0.3,0,0,0,0,
6.38225E+17,10.83758,41.09888,16.71664,25.49553,30.07917,99.69289,47.92096,-0.8883717,-9.082087,-78.29288,-7.495606,14.50875,0,0,0,26.1066,-16.70547,-31.98043,83.34011,-110.3957,-93.10179,0.001067912,-0.1257102,0.09433498,0,0.3,0,0,0,0,
6.38225E+17,10.83758,38.87795,16.41313,24.4701,34.47387,100.4986,47.92096,-0.8883717,-9.082087,-78.29288,-7.495606,14.50875,0,0,0,26.60383,-20.86696,-29.38312,83.34011,-110.3957,-93.10179,0.001067912,-0.1257102,0.09433498,0,0.3,0,0,0,0,
6.38225E+17,11.21454,38.38701,18.14083,21.76003,39.45455,100.8648,47.92096,-0.8883717,-9.082087,-78.29288,-7.422361,14.50875,0,0,0,28.40298,-20.56536,-25.09527,83.34011,-110.3957,-93.10179,0.001067912,-0.1257102,0.09433498,0,0.3,0,0,0,0,
6.38225E+17,12.13338,39.90659,19.54166,19.70916,41.28568,100.8648,47.92096,-0.8883717,-9.082087,-78.29288,-7.495606,14.50875,0,0,0,30.99343,-16.60822,-24.76314,83.34011,-110.3957,-93.10179,0.001067912,-0.1257102,0.09433498,0,0.3,0,0,0,0,
6.38225E+17,13.26426,41.47293,20.75572,18.61049,41.72515,100.938,47.92096,-0.8883717,-9.082087,-78.29288,-7.422361,14.50875,0,0,0,33.76756,-13.03237,-25.1041,83.34011,-110.3957,-93.10179,0.001067912,-0.1257102,0.09433498,0,0.3,0,0,0,0,
6.38225E+17,16.56265,45.28358,24.42124,17.58505,40.91945,100.938,47.92096,-0.8883717,-9.082087,-78.29288,-7.495606,14.43551,0,0,0,42.46232,-3.311012,-25.57311,83.34011,-110.3957,-93.10179,0.001067912,-0.1257102,0.09433498,0,0.3,0,0,0,0,
6.38225E+17,20.30869,49.18774,29.32417,18.46399,37.98964,100.4253,47.92096,-0.8883717,-9.082087,-78.29288,-7.495606,14.43551,0,0,0,52.91668,8.01374,-25.36426,83.34011,-110.3957,-93.10179,0.001067912,-0.1257102,0.09433498,0,0.3,0,0,0,0,
6.38225E+17,23.51284,52.43731,33.26986,20.44161,34.1809,98.59421,47.92096,-0.8883717,-9.082087,-78.29288,-7.495606,14.43551,0,0,0,61.61757,17.56137,-26.7261,83.34011,-110.3957,-93.10179,0.001067912,-0.1257102,0.09433498,0,0.3,0,0,0,0,
6.38225E+17,25.02068,53.6296,34.55396,21.54029,32.13003,97.42229,47.92096,-0.8883717,-9.082087,-78.29288,-7.495606,14.50875,0,0,0,65.43416,20.8974,-28.15812,83.34011,-110.3957,-93.10179,0.001067912,-0.1257102,0.09433498,0,0.3,0,0,0,0,
6.38225E+17,27.94211,54.75175,35.13763,23.88414,28.98049,95.07844,47.92096,-0.8883717,-9.082087,-78.29288,-7.495606,14.50875,0,0,0,72.02419,23.20163,-32.56143,83.34011,-110.3957,-93.10179,0.001067912,-0.1257102,0.09433498,0,0.3,0,0,0,0,
6.38225E+17,30.79287,54.33094,34.624,26.44772,27.58883,93.54029,47.92096,-0.8883717,-9.082087,-78.29288,-7.495606,14.50875,0,0,0,78.59479,21.94983,-36.4687,83.34011,-110.3957,-93.10179,0.001067912,-0.1257102,0.09433498,0,0.3,0,0,0,0,
6.38225E+17,32.15935,53.98027,34.67069,27.69288,27.58883,92.95433,47.92096,-0.8883717,-9.082087,-78.29288,-7.422361,14.50875,0,0,0,82.11718,21.53369,-37.74471,83.34011,-110.3957,-93.10179,0.001067912,-0.1257102,0.09433498,0,0.3,0,0,0,0,
6.38225E+17,34.60958,53.93351,36.02483,29.96349,27.88181,91.78241,47.92096,-0.8883717,-9.082087,-78.29288,-7.495606,14.50875,0,0,0,89.13571,23.29295,-39.18665,83.34011,-110.3957,-93.10179,0.001067912,-0.1257102,0.09433498,0,0.3,0,0,0,0,
6.38225E+17,36.70642,54.72837,39.05998,32.01435,27.58883,89.73154,47.92096,-0.8883717,-9.082087,-78.29288,-7.495606,14.50875,0,0,0,96.25107,28.67558,-39.24947,83.34011,-110.3957,-93.10179,0.001067912,-0.1257102,0.09433498,0,0.3,0,0,0,0,
6.38225E+17,37.69594,55.4531,40.9511,32.89329,27.07611,87.97366,47.92096,-0.8883717,-9.082087,-78.29288,-7.422361,14.50875,0,0,0,99.68185,32.47021,-39.35786,83.34011,-110.3957,-93.10179,0.001067912,-0.1257102,0.09433498,0,0.3,0,0,0,0,
6.38225E+17,39.81633,57.62727,44.8034,34.87091,25.31823,82.11404,47.92096,-0.8883717,-9.082087,-78.29288,-7.422361,14.50875,0,0,0,105.8896,41.35945,-41.33106,83.34011,-110.3957,-93.10179,0.001067912,-0.1257102,0.09433498,0,0.3,0,0,0,0,
6.38225E+17,42.19589,61.04049,48.63235,37.36125,22.6814,72.51893,47.92096,-0.8883717,-9.082087,-78.29288,-7.422361,14.50875,0,0,0,110.586,51.89676,-46.37302,83.34011,-110.3957,-93.10179,0.001067912,-0.1257102,0.09433498,0,0.3,0,0,0,0,
6.38225E+17,43.46813,63.30818,50.73361,38.67966,20.85028,66.65932,47.92096,-0.8883717,-9.082087,-78.29288,-7.495606,14.43551,0,0,0,112.2329,58.08883,-49.94939,83.34011,-110.3957,-93.10179,0.001067912,-0.1257102,0.09433498,0,0.3,0,0,0,0,
6.38225E+17,45.87124,67.8903,55.02951,41.68271,16.74854,54.94009,47.92096,-0.8883717,-9.082087,-78.29288,-7.422361,14.43551,0,0,0,114.4594,70.46394,-57.3197,83.34011,-110.3957,-93.10179,0.001067912,-0.1257102,0.09433498,0,0.3,0,0,0,0,
6.38225E+17,47.75604,72.4023,59.60557,45.19848,11.91436,44.68576,47.92096,-0.8883717,-9.082087,-78.29288,-7.422361,14.50875,0,0,0,114.9955,82.99117,-63.91755,83.34011,-110.3957,-93.10179,0.001067912,-0.1257102,0.09433498,0,0.3,0,0,0,0,
6.38225E+17,48.32148,74.66998,61.87025,47.02961,9.570518,39.92483,47.92096,-0.8883717,-9.082087,-78.29288,-7.495606,14.50875,0,0,0,114.1646,89.08479,-66.70977,83.34011,-110.3957,-93.10179,0.001067912,-0.1257102,0.09433498,0,0.3,0,0,0,0,
6.38225E+17,48.58064,79.25211,66.93661,50.39889,4.736337,30.32971,47.92096,-0.8883717,-9.082087,-78.29288,-7.495606,14.50875,0,0,0,110.6532,102.1209,-70.72958,83.34011,-110.3957,-93.10179,0.001067912,-0.1257102,0.09433498,0,0.3,0,0,0,0,
6.38225E+17,47.85028,84.39532,73.45049,54.20764,-0.6838052,19.19645,47.92096,-0.8883717,-9.082087,-78.29288,-7.495606,14.50875,0,0,0,104.4249,118.0786,-73.83018,83.34011,-110.3957,-93.10179,0.001067912,-0.1257102,0.09433498,0,0.3,0,0,0,0,
6.38225E+17,45.6592,88.95406,79.17058,58.38261,-6.470173,8.575896,47.92096,-0.8883717,-9.082087,-78.29288,-7.422361,14.50875,0,0,0,95.41372,131.6232,-75.10693,83.34011,-110.3957,-93.10179,0.001067912,-0.1257102,0.09433498,0,0.3,0,0,0,0,
6.38225E+17,41.77181,93.34917,84.42371,63.876,-13.50171,-2.117898,47.92096,-0.8883717,-9.082087,-78.29288,-7.422361,14.50875,0,0,0,83.22311,143.5145,-75.17781,83.34011,-110.3957,-93.10179,0.001067912,-0.1257102,0.09433498,0,0.3,0,0,0,0,
6.38225E+17,40.14618,94.77524,85.91794,66.07335,-16.06529,-5.706912,47.92096,-0.8883717,-9.082087,-78.29288,-7.422361,14.43551,0,0,0,78.60069,146.7446,-75.16121,83.34011,-110.3957,-93.10179,0.001067912,-0.1257102,0.09433498,0,0.3,0,0,0,0,
6.38225E+17,35.33994,98.16508,89.04648,71.85973,-22.43762,-14.13011,47.92096,-0.8883717,-9.082087,-78.29288,-7.495606,14.50875,0,0,0,66.1676,153.1291,-75.03615,83.34011,-110.3957,-93.10179,0.001067912,-0.1257102,0.09433498,0,0.3,0,0,0,0,
6.38225E+17,30.10963,101.1575,91.24112,78.74477,-28.37048,-21.0884,47.92096,-0.8883717,-9.082087,-78.29288,-7.495606,14.50875,0,0,0,53.93538,157.0679,-75.34262,83.34011,-110.3957,-93.10179,0.001067912,-0.1257102,0.09433498,0,0.3,0,0,0,0,
6.38225E+17,25.60968,101.7186,91.75475,86.43551,-33.93711,-28.04669,47.92096,-0.8883717,-9.082087,-78.29288,-7.495606,14.50875,0,0,0,45.90519,158.004,-72.58,83.34011,-110.3957,-93.10179,0.001067912,-0.1257102,0.09433498,0,0.3,0,0,0,0,
6.38225E+17,24.54948,101.6484,91.91819,89.43856,-36.20771,-30.9765,47.92096,-0.8883717,-9.082087,-78.29288,-7.495606,14.43551,0,0,0,44.18665,158.4172,-71.61271,83.34011,-110.3957,-93.10179,0.001067912,-0.1257102,0.09433498,0,0.3,0,0,0,0,
6.38225E+17,22.99452,101.6952,92.03492,93.61353,-39.21077,-35.07822,47.92096,-0.8883717,-9.082087,-78.29288,-7.495606,14.50875,0,0,0,41.50005,158.6667,-70.55602,83.34011,-110.3957,-93.10179,0.001067912,-0.1257102,0.09433498,0,0.3,0,0,0,0,
6.38225E+17,22.78248,101.6718,92.17501,96.54334,-40.96865,-37.34882,47.92096,-0.8883717,-9.082087,-78.29288,-7.495606,14.50875,0,0,0,41.15385,159.0035,-70.36502,83.34011,-110.3957,-93.10179,0.001067912,-0.1257102,0.09433498,0,0.3,0,0,0,0,
6.38225E+17,23.01808,101.6952,92.15166,97.20255,-41.55461,-37.7883,47.92096,-0.8883717,-9.082087,-78.29288,-7.495606,14.50875,0,0,0,41.53638,158.9382,-70.58222,83.34011,-110.3957,-93.10179,0.001067912,-0.1257102,0.09433498,0,0.3,0,0,0,0,
6.38225E+17,24.17252,101.6718,90.0504,95.37142,-42.87302,-35.66418,47.92096,-0.8883717,-9.082087,-78.29288,-7.495606,14.43551,0,0,0,43.55801,154.06,-71.30458,83.34011,-110.3957,-93.10179,0.001067912,-0.1257102,0.09433498,0,0.3,0,0,0,0,
6.38225E+17,24.69084,101.6718,85.47434,88.48637,-44.48441,-31.04974,47.92096,-0.8883717,-9.082087,-78.29288,-7.495606,14.50875,0,0,0,44.26047,143.4206,-72.0803,83.34011,-110.3957,-93.10179,0.001067912,-0.1257102,0.09433498,0,0.3,0,0,0,0,
6.38225E+17,24.99712,101.6718,82.85944,81.82106,-45.5831,-24.16469,47.92096,-0.8883717,-9.082087,-78.29288,-7.495606,14.50875,0,0,0,44.5131,137.3667,-72.87881,83.34011,-110.3957,-93.10179,0.001067912,-0.1257102,0.09433498,0,0.3,0,0,0,0,
6.38225E+17,26.38716,101.6718,79.70757,67.97772,-46.75502,0.2259469,47.92096,-0.8883717,-9.082087,-78.29288,-7.495606,14.50875,0,0,0,46.32197,130.1167,-74.98245,83.34011,-110.3957,-93.10179,0.001067912,-0.1257102,0.09433498,0,0.3,0,0,0,0,
6.38225E+17,27.25887,101.6484,76.78916,56.2585,-46.2423,35.31038,47.92096,-0.8883717,-9.082087,-78.29288,-7.495606,14.43551,0,0,0,47.12795,123.4785,-76.88024,83.34011,-110.3957,-93.10179,0.001067912,-0.1257102,0.09433498,0,0.3,0,0,0,0,
6.38225E+17,27.23532,101.5549,72.75008,46.88312,-44.92389,56.62473,47.92096,-0.8883717,-9.082087,-78.29288,-7.495606,14.43551,0,0,0,46.05796,114.4538,-78.8666,83.34011,-110.3957,-93.10179,0.001067912,-0.1257102,0.09433498,0,0.3,0,0,0,0,
6.38225E+17,27.21176,101.3679,68.45419,37.21476,-41.92084,71.56674,47.92096,-0.8883717,-9.082087,-78.29288,-7.495606,14.50875,0,0,0,44.69812,105.1118,-81.42075,83.34011,-110.3957,-93.10179,0.001067912,-0.1257102,0.09433498,0,0.3,0,0,0,0,
6.38225E+17,26.90548,101.2978,64.97544,28.57183,-37.37963,88.55962,47.92096,-0.8883717,-9.082087,-78.29288,-7.495606,14.43551,0,0,0,42.85711,97.70805,-83.89402,83.34011,-110.3957,-93.10179,0.001067912,-0.1257102,0.09433498,0,0.3,0,0,0,0,
6.38225E+17,26.66988,101.2978,63.64465,24.68983,-34.81605,97.49553,47.92096,-0.8883717,-9.082087,-78.29288,-7.422361,14.50875,0,0,0,41.90683,94.91698,-84.9183,83.34011,-110.3957,-93.10179,0.001067912,-0.1257102,0.09433498,0,0.3,0,0,0,0,
6.38225E+17,26.26936,101.251,62.66406,18.75698,-29.90863,112.5108,47.92096,-0.8883717,-9.082087,-78.29288,-7.422361,14.50875,0,0,0,40.91368,92.90203,-85.45587,83.34011,-110.3957,-93.10179,0.001067912,-0.1257102,0.09433498,0,0.3,0,0,0,0,
6.38225E+17,26.05732,101.2042,62.80414,14.50875,-26.68584,123.5708,47.92096,-0.8883717,-9.082087,-78.29288,-7.495606,14.50875,0,0,0,40.71912,93.21302,-85.07496,83.34011,-110.3957,-93.10179,0.001067912,-0.1257102,0.09433498,0,0.3,0,0,0,0,
6.38225E+17,25.98664,101.1575,62.8275,13.04385,-25.73365,127.9655,47.92096,-0.8883717,-9.082087,-78.29288,-7.495606,14.43551,0,0,0,40.67402,93.28246,-84.90652,83.34011,-110.3957,-93.10179,0.001067912,-0.1257102,0.09433498,0,0.3,0,0,0,0,
6.38225E+17,25.68036,101.1575,62.8275,10.8465,-24.48849,136.8282,47.92096,-0.8883717,-9.082087,-78.29288,-7.422361,14.43551,0,0,0,40.22739,93.28246,-84.69028,83.34011,-110.3957,-93.10179,0.001067912,-0.1257102,0.09433498,0,0.3,0,0,0,0,
6.38225E+17,24.95,101.1341,62.8275,9.235103,-23.82928,144.2992,47.92096,-0.8883717,-9.082087,-78.29288,-7.495606,14.50875,0,0,0,39.18024,93.29298,-84.1359,83.34011,-110.3957,-93.10179,0.001067912,-0.1257102,0.09433498,0,0.3,0,0,0,0,
6.38225E+17,24.33744,101.0874,62.8275,8.429405,-23.60954,144.7387,47.92096,-0.8883717,-9.082087,-78.29288,-7.495606,14.50875,0,0,0,38.32168,93.31395,-83.62455,83.34011,-110.3957,-93.10179,0.001067912,-0.1257102,0.09433498,0,0.3,0,0,0,0,
6.38225E+17,22.594,100.877,62.94423,6.451786,-23.68279,144.7387,47.92096,-0.8883717,-9.082087,-78.29288,-7.422361,14.50875,0,0,0,35.95852,93.64907,-81.93972,83.34011,-110.3957,-93.10179,0.001067912,-0.1257102,0.09433498,0,0.3,0,0,0,0,
6.38225E+17,20.70921,100.6899,62.99092,4.254431,-24.26875,144.7387,47.92096,-0.8883717,-9.082087,-78.29288,-7.495606,14.50875,0,0,0,33.26571,93.82732,-80.35762,83.34011,-110.3957,-93.10179,0.001067912,-0.1257102,0.09433498,0,0.3,0,0,0,0,
6.38225E+17,17.95269,100.386,63.1777,2.057076,-25.29418,144.8852,47.92096,-0.8883717,-9.082087,-78.29288,-7.495606,14.50875,0,0,0,29.27051,94.34429,-78.01089,83.34011,-110.3957,-93.10179,0.001067912,-0.1257102,0.09433498,0,0.3,0,0,0,0,
6.38225E+17,15.97365,99.96519,63.48121,0.5921727,-26.09988,144.8852,47.92096,-0.8883717,-9.082087,-78.29288,-7.495606,14.50875,0,0,0,26.48583,95.14855,-75.82236,83.34011,-110.3957,-93.10179,0.001067912,-0.1257102,0.09433498,0,0.3,0,0,0,0,
6.38225E+17,14.58362,99.49763,63.90147,-0.4332596,-26.68584,144.8119,47.92096,-0.8883717,-9.082087,-78.29288,-7.495606,14.50875,0,0,0,24.61268,96.20927,-73.74957,83.34011,-110.3957,-93.10179,0.001067912,-0.1257102,0.09433498,0,0.3,0,0,0,0,
6.38225E+17,11.87422,98.21183,65.23226,-3.363066,-27.93101,144.9584,47.92096,-0.8883717,-9.082087,-78.29288,-7.495606,14.43551,0,0,0,20.99549,99.46696,-68.49664,83.34011,-110.3957,-93.10179,0.001067912,-0.1257102,0.09433498,0,0.3,0,0,0,0,
6.38225E+17,9.800944,96.55198,66.95996,-7.318305,-29.24942,144.8852,47.92096,-0.8883717,-9.082087,-78.29288,-7.495606,14.43551,0,0,0,18.29876,103.6393,-62.42187,83.34011,-110.3957,-93.10179,0.001067912,-0.1257102,0.09433498,0,0.3,0,0,0,0,
6.38225E+17,8.599386,94.86874,68.94447,-12.15249,-30.71432,144.8119,47.92096,-0.8883717,-9.082087,-78.29288,-7.495606,14.50875,0,0,0,16.91554,108.3099,-56.49309,83.34011,-110.3957,-93.10179,0.001067912,-0.1257102,0.09433498,0,0.3,0,0,0,0,
6.38225E+17,8.128186,94.12065,69.9484,-14.71607,-31.30029,144.8119,47.92096,-0.8883717,-9.082087,-78.29288,-7.495606,14.43551,0,0,0,16.35647,110.6341,-53.82736,83.34011,-110.3957,-93.10179,0.001067912,-0.1257102,0.09433498,0,0.3,0,0,0,0,
6.38225E+17,7.232908,92.74133,71.79285,-19.98972,-32.17923,144.8119,47.92096,-0.8883717,-9.082087,-78.29288,-7.422361,14.43551,0,0,0,15.14561,114.8817,-49.01141,83.34011,-110.3957,-93.10179,0.001067912,-0.1257102,0.09433498,0,0.3,0,0,0,0,
6.38225E+17,6.973749,91.5958,73.56724,-25.33662,-32.83843,144.8119,47.92096,-0.8883717,-9.082087,-78.29288,-7.422361,14.50875,0,0,0,15.0784,118.9249,-45.07938,83.34011,-110.3957,-93.10179,0.001067912,-0.1257102,0.09433498,0,0.3,0,0,0,0,
6.38225E+17,6.973749,90.80094,74.6879,-28.41291,-33.57088,144.9584,47.92096,-0.8883717,-9.082087,-78.29288,-7.495606,14.43551,0,0,0,15.38957,121.4723,-42.53547,83.34011,-110.3957,-93.10179,0.001067912,-0.1257102,0.09433498,0,0.3,0,0,0,0,
6.38225E+17,6.973749,89.91257,75.5284,-31.19623,-34.23009,144.8119,47.92096,-0.8883717,-9.082087,-78.29288,-7.495606,14.43551,0,0,0,15.70164,123.3757,-39.98423,83.34011,-110.3957,-93.10179,0.001067912,-0.1257102,0.09433498,0,0.3,0,0,0,0,
6.38225E+17,7.303588,88.34623,76.04205,-34.34578,-34.81605,144.8852,47.92096,-0.8883717,-9.082087,-78.29288,-7.422361,14.43551,0,0,0,16.94104,124.4791,-36.1702,83.34011,-110.3957,-93.10179,0.001067912,-0.1257102,0.09433498,0,0.3,0,0,0,0,
6.38225E+17,7.492068,87.55138,76.3689,-35.51769,-34.8893,144.8852,47.92096,-0.8883717,-9.082087,-78.29288,-7.495606,14.43551,0,0,0,17.64047,125.1517,-34.21383,83.34011,-110.3957,-93.10179,0.001067912,-0.1257102,0.09433498,0,0.3,0,0,0,0,
6.38225E+17,8.057507,84.95639,77.65301,-37.71505,-35.5485,144.8119,47.92096,-0.8883717,-9.082087,-78.29288,-7.495606,14.43551,0,0,0,19.90217,127.6692,-27.76272,83.34011,-110.3957,-93.10179,0.001067912,-0.1257102,0.09433498,0,0.3,0,0,0,0,
6.38225E+17,8.481586,83.881,77.76974,-38.30101,-35.84149,144.8852,47.92096,-0.8883717,-9.082087,-78.29288,-7.495606,14.43551,0,0,0,21.31811,127.6913,-25.39296,83.34011,-110.3957,-93.10179,0.001067912,-0.1257102,0.09433498,0,0.3,0,0,0,0,
6.38225E+17,9.353305,81.91723,77.7464,-38.00803,-36.13447,144.8852,47.92096,-0.8883717,-9.082087,-78.29288,-7.495606,14.50875,0,0,0,24.22575,127.0732,-21.2703,83.34011,-110.3957,-93.10179,0.001067912,-0.1257102,0.09433498,0,0.3,0,0,0,0,
6.38225E+17,10.24858,79.81319,77.7464,-36.25014,-36.42745,144.8119,47.92096,-0.8883717,-9.082087,-78.29288,-7.422361,14.50875,0,0,0,27.38106,126.2958,-16.90936,83.34011,-110.3957,-93.10179,0.001067912,-0.1257102,0.09433498,0,0.3,0,0,0,0,
6.38225E+17,10.55486,78.78455,77.60631,-35.07822,-36.57394,144.8852,47.92096,-0.8883717,-9.082087,-78.29288,-7.495606,14.50875,0,0,0,28.60836,125.5328,-14.81371,83.34011,-110.3957,-93.10179,0.001067912,-0.1257102,0.09433498,0,0.3,0,0,0,0,
6.38225E+17,10.74334,77.42861,76.83585,-32.58789,-36.57394,144.8119,47.92096,-0.8883717,-9.082087,-78.29288,-7.422361,14.50875,0,0,0,29.61497,123.1337,-12.26447,83.34011,-110.3957,-93.10179,0.001067912,-0.1257102,0.09433498,0,0.3,0,0,0,0,
6.38225E+17,10.74334,77.0078,75.5284,-30.61027,-35.91473,143.054,47.92096,-0.8883717,-9.082087,-78.29288,-7.495606,14.50875,0,0,0,29.65754,119.9622,-12.04011,83.34011,-110.3957,-93.10179,0.001067912,-0.1257102,0.09433498,0,0.3,0,0,0,0,
6.38225E+17,10.74334,77.03118,74.7346,-29.80457,-35.32877,141.5891,47.92096,-0.8883717,-9.082087,-78.29288,-7.422361,14.43551,0,0,0,29.55929,118.1888,-12.55796,83.34011,-110.3957,-93.10179,0.001067912,-0.1257102,0.09433498,0,0.3,0,0,0,0,
6.38225E+17,10.71978,77.24158,72.5633,-28.19318,-34.01036,139.2453,47.92096,-0.8883717,-9.082087,-78.29288,-7.495606,14.43551,0,0,0,29.14182,113.449,-14.41264,83.34011,-110.3957,-93.10179,0.001067912,-0.1257102,0.09433498,0,0.3,0,0,0,0,
6.38225E+17,10.71978,77.3351,69.71494,-26.50854,-32.03274,136.5352,47.92096,-0.8883717,-9.082087,-78.29288,-7.422361,14.43551,0,0,0,28.70374,107.2242,-16.72668,83.34011,-110.3957,-93.10179,0.001067912,-0.1257102,0.09433498,0,0.3,0,0,0,0,
6.38225E+17,10.71978,77.3351,67.00665,-25.04364,-29.61565,134.5576,47.92096,-0.8883717,-9.082087,-78.29288,-7.495606,14.50875,0,0,0,28.27144,101.3657,-19.0103,83.34011,-110.3957,-93.10179,0.001067912,-0.1257102,0.09433498,0,0.3,0,0,0,0,
6.38225E+17,10.71978,77.31172,65.7459,-24.60417,-28.22399,133.8251,47.92096,-0.8883717,-9.082087,-78.29288,-7.495606,14.50875,0,0,0,28.0626,98.66547,-20.11344,83.34011,-110.3957,-93.10179,0.001067912,-0.1257102,0.09433498,0,0.3,0,0,0,0,
6.38225E+17,10.74334,77.28834,63.76138,-24.45767,-25.8069,131.9208,47.92096,-0.8883717,-9.082087,-78.29288,-7.495606,14.43551,0,0,0,27.76625,94.47613,-22.00817,83.34011,-110.3957,-93.10179,0.001067912,-0.1257102,0.09433498,0,0.3,0,0,0,0,
6.38225E+17,10.74334,77.28834,61.77686,-24.8239,-23.97577,130.1629,47.92096,-0.8883717,-9.082087,-78.29288,-7.495606,14.50875,0,0,0,27.3723,90.36947,-24.08446,83.34011,-110.3957,-93.10179,0.001067912,-0.1257102,0.09433498,0,0.3,0,0,0,0,
6.38225E+17,10.74334,77.28834,60.07252,-25.40986,-22.65736,127.9655,47.92096,-0.8883717,-9.082087,-78.29288,-7.422361,14.50875,0,0,0,27.01298,86.90277,-25.97826,83.34011,-110.3957,-93.10179,0.001067912,-0.1257102,0.09433498,0,0.3,0,0,0,0,
6.38225E+17,10.74334,77.28834,58.83511,-25.92258,-21.77841,126.1344,47.92096,-0.8883717,-9.082087,-78.29288,-7.422361,14.43551,0,0,0,26.74014,84.42257,-27.41625,83.34011,-110.3957,-93.10179,0.001067912,-0.1257102,0.09433498,0,0.3,0,0,0,0,
6.38225E+17,10.74334,77.26497,58.32147,-26.06907,-21.63192,125.3287,47.92096,-0.8883717,-9.082087,-78.29288,-7.422361,14.50875,0,0,0,26.63386,83.39045,-27.97641,83.34011,-110.3957,-93.10179,0.001067912,-0.1257102,0.09433498,0,0.3,0,0,0,0,
6.38225E+17,10.74334,77.26497,57.29419,-26.06907,-21.63192,123.2046,47.92096,-0.8883717,-9.082087,-78.29288,-7.422361,14.43551,0,0,0,26.39642,81.36716,-29.22783,83.34011,-110.3957,-93.10179,0.001067912,-0.1257102,0.09433498,0,0.3,0,0,0,0,
6.38225E+17,10.74334,77.19482,55.82331,-25.55635,-21.9249,120.8607,47.92096,-0.8883717,-9.082087,-78.29288,-7.422361,14.43551,0,0,0,26.07444,78.47456,-30.92484,83.34011,-110.3957,-93.10179,0.001067912,-0.1257102,0.09433498,0,0.3,0,0,0,0,
6.38225E+17,10.74334,77.10131,54.91277,-25.04364,-22.14464,119.6156,47.92096,-0.8883717,-9.082087,-78.29288,-7.422361,14.50875,0,0,0,25.88949,76.68246,-31.89959,83.34011,-110.3957,-93.10179,0.001067912,-0.1257102,0.09433498,0,0.3,0,0,0,0,
6.38225E+17,10.74334,76.72726,53.3485,-23.94496,-22.43762,117.4182,47.92096,-0.8883717,-9.082087,-78.29288,-7.495606,14.50875,0,0,0,25.64992,73.53521,-33.16225,83.34011,-110.3957,-93.10179,0.001067912,-0.1257102,0.09433498,0,0.3,0,0,0,0,
6.38225E+17,10.74334,75.81551,51.43402,-22.69979,-22.58411,115.0011,47.92096,-0.8883717,-9.082087,-78.29288,-7.495606,14.50875,0,0,0,25.52732,69.50195,-33.80843,83.34011,-110.3957,-93.10179,0.001067912,-0.1257102,0.09433498,0,0.3,0,0,0,0,
6.38225E+17,10.74334,74.95052,50.45344,-21.96734,-22.43762,113.756,47.92096,-0.8883717,-9.082087,-78.29288,-7.495606,14.50875,0,0,0,25.62239,67.22174,-33.30733,83.34011,-110.3957,-93.10179,0.001067912,-0.1257102,0.09433498,0,0.3,0,0,0,0,
6.38225E+17,10.74334,72.42567,48.67905,-19.98972,-21.70517,111.6319,47.92096,-0.8883717,-9.082087,-78.29288,-7.495606,14.43551,0,0,0,26.17436,62.42818,-30.3982,83.34011,-110.3957,-93.10179,0.001067912,-0.1257102,0.09433498,0,0.3,0,0,0,0,
6.38225E+17,10.74334,69.15273,47.16148,-17.27965,-19.72755,109.7275,47.92096,-0.8883717,-9.082087,-78.29288,-7.422361,14.50875,0,0,0,27.07385,57.30062,-25.65744,83.34011,-110.3957,-93.10179,0.001067912,-0.1257102,0.09433498,0,0.3,0,0,0,0,
6.38225E+17,10.74334,65.45897,46.25093,-14.05686,-16.79774,108.7753,47.92096,-0.8883717,-9.082087,-78.29288,-7.495606,14.43551,0,0,0,28.28117,52.44201,-19.29429,83.34011,-110.3957,-93.10179,0.001067912,-0.1257102,0.09433498,0,0.3,0,0,0,0,
6.38225E+17,10.69622,61.36778,46.01746,-10.02838,-12.8425,108.3358,47.92096,-0.8883717,-9.082087,-78.29288,-7.422361,14.43551,0,0,0,29.66874,47.78966,-11.27585,83.34011,-110.3957,-93.10179,0.001067912,-0.1257102,0.09433498,0,0.3,0,0,0,0,
6.38225E+17,10.62554,59.98847,46.01746,-8.416983,-11.3776,108.1893,47.92096,-0.8883717,-9.082087,-78.29288,-7.495606,14.50875,0,0,0,29.99104,46.21761,-8.4885,83.34011,-110.3957,-93.10179,0.001067912,-0.1257102,0.09433498,0,0.3,0,0,0,0,
6.38225E+17,10.24858,56.99606,46.25093,-5.120951,-7.861832,108.0428,47.92096,-0.8883717,-9.082087,-78.29288,-7.495606,14.43551,0,0,0,30.06195,42.97003,-2.081761,83.34011,-110.3957,-93.10179,0.001067912,-0.1257102,0.09433498,0,0.3,0,0,0,0,
6.38225E+17,9.706704,54.42446,46.76458,-2.117898,-4.785534,107.9696,47.92096,-0.8883717,-9.082087,-78.29288,-7.495606,14.50875,0,0,0,29.46052,40.46567,3.879816,83.34011,-110.3957,-93.10179,0.001067912,-0.1257102,0.09433498,0,0.3,0,0,0,0,
6.38225E+17,9.047026,52.67109,47.30156,0.2259469,-2.514934,108.5555,47.92096,-0.8883717,-9.082087,-78.29288,-7.422361,14.50875,0,0,0,28.1257,38.95568,8.290233,83.34011,-110.3957,-93.10179,0.001067912,-0.1257102,0.09433498,0,0.3,0,0,0,0,
6.38225E+17,8.717185,52.11002,47.65177,1.178134,-1.635992,109.0683,47.92096,-0.8883717,-9.082087,-78.29288,-7.495606,14.50875,0,0,0,27.34863,38.75947,10.01628,83.34011,-110.3957,-93.10179,0.001067912,-0.1257102,0.09433498,0,0.3,0,0,0,0,
6.38225E+17,7.939706,51.54894,48.77244,2.862773,-0.5373149,110.5332,47.92096,-0.8883717,-9.082087,-78.29288,-7.495606,14.50875,0,0,0,25.30772,39.89717,13.10911,83.34011,-110.3957,-93.10179,0.001067912,-0.1257102,0.09433498,0,0.3,0,0,0,0,
6.38225E+17,7.044428,51.52556,50.3834,4.107941,-0.5373149,111.9248,47.92096,-0.8883717,-9.082087,-78.29288,-7.495606,14.50875,0,0,0,22.77271,42.71756,15.93737,83.34011,-110.3957,-93.10179,0.001067912,-0.1257102,0.09433498,0,0.3,0,0,0,0,
6.38225E+17,6.431869,51.52556,51.43402,4.620657,-0.9767859,112.584,47.92096,-0.8883717,-9.082087,-78.29288,-7.422361,14.50875,0,0,0,20.97392,44.61538,17.70243,83.34011,-110.3957,-93.10179,0.001067912,-0.1257102,0.09433498,0,0.3,0,0,0,0,
6.38225E+17,4.405713,51.52556,54.21235,5.426354,-2.954405,114.3419,47.92096,-0.8883717,-9.082087,-78.29288,-7.422361,14.50875,0,0,0,14.68292,49.76703,22.22314,83.34011,-110.3957,-93.10179,0.001067912,-0.1257102,0.09433498,0,0.3,0,0,0,0,
6.38225E+17,2.803635,51.52556,56.05679,5.499599,-4.785534,115.7336,47.92096,-0.8883717,-9.082087,-78.29288,-7.422361,14.43551,0,0,0,9.233539,53.37923,25.08216,83.34011,-110.3957,-93.10179,0.001067912,-0.1257102,0.09433498,0,0.3,0,0,0,0,
6.38225E+17,1.460718,51.57232,57.27084,4.986883,-6.323683,116.8323,47.92096,-0.8883717,-9.082087,-78.29288,-7.495606,14.43551,0,0,0,4.972368,55.71735,26.64594,83.34011,-110.3957,-93.10179,0.001067912,-0.1257102,0.09433498,0,0.3,0,0,0,0,
6.38225E+17,-1.413598,51.73597,59.41879,2.569792,-9.473226,119.7621,47.92096,-0.8883717,-9.082087,-78.29288,-7.422361,14.43551,0,0,0,-4.869352,60.20876,28.97396,83.34011,-110.3957,-93.10179,0.001067912,-0.1257102,0.09433498,0,0.3,0,0,0,0,
6.38225E+17,-4.570632,52.39055,61.8936,-1.971408,-12.91575,125.9147,47.92096,-0.8883717,-9.082087,-78.29288,-7.495606,14.50875,0,0,0,-15.8583,66.16584,30.02201,83.34011,-110.3957,-93.10179,0.001067912,-0.1257102,0.09433498,0,0.3,0,0,0,0,
6.38225E+17,-7.091548,53.34906,65.06883,-7.904267,-16.7245,134.1914,47.92096,-0.8883717,-9.082087,-78.29288,-7.495606,14.50875,0,0,0,-24.75589,74.12406,30.64151,83.34011,-110.3957,-93.10179,0.001067912,-0.1257102,0.09433498,0,0.3,0,0,0,0,
6.38225E+17,-7.963267,53.86338,66.65645,-11.12705,-18.48238,138.2931,47.92096,-0.8883717,-9.082087,-78.29288,-7.495606,14.43551,0,0,0,-27.85627,78.20613,30.78395,83.34011,-110.3957,-93.10179,0.001067912,-0.1257102,0.09433498,0,0.3,0,0,0,0,
6.38225E+17,-8.999906,55.07904,69.90171,-18.08535,-22.29113,144.5189,47.92096,-0.8883717,-9.082087,-78.29288,-7.495606,14.50875,0,0,0,-31.53142,86.86607,30.73368,83.34011,-110.3957,-93.10179,0.001067912,-0.1257102,0.09433498,0,0.3,0,0,0,0,
6.38225E+17,-9.164824,56.50512,72.58665,-25.04364,-26.09988,144.8119,47.92096,-0.8883717,-9.082087,-78.29288,-7.495606,14.43551,0,0,0,-31.98715,94.64851,29.91578,83.34011,-110.3957,-93.10179,0.001067912,-0.1257102,0.09433498,0,0.3,0,0,0,0,
6.38225E+17,-8.811425,57.55714,73.70732,-29.21861,-28.59021,144.8119,47.92096,-0.8883717,-9.082087,-78.29288,-7.495606,14.43551,0,0,0,-30.56482,98.47708,28.82663,83.34011,-110.3957,-93.10179,0.001067912,-0.1257102,0.09433498,0,0.3,0,0,0,0,
6.38225E+17,-8.575826,58.39875,74.26765,-32.29491,-30.42134,144.8852,47.92096,-0.8883717,-9.082087,-78.29288,-7.422361,14.43551,0,0,0,-29.55977,100.7692,27.66421,83.34011,-110.3957,-93.10179,0.001067912,-0.1257102,0.09433498,0,0.3,0,0,0,0,
6.38225E+17,-8.622946,59.28712,74.3377,-35.51769,-32.03274,144.8119,47.92096,-0.8883717,-9.082087,-78.29288,-7.495606,14.50875,0,0,0,-29.4623,101.9959,25.93411,83.34011,-110.3957,-93.10179,0.001067912,-0.1257102,0.09433498,0,0.3,0,0,0,0,
6.38225E+17,-8.764306,59.6378,74.15092,-36.54313,-32.32572,144.8119,47.92096,-0.8883717,-9.082087,-78.29288,-7.422361,14.50875,0,0,0,-29.81645,101.9922,25.04942,83.34011,-110.3957,-93.10179,0.001067912,-0.1257102,0.09433498,0,0.3,0,0,0,0,
6.38225E+17,-10.27214,60.87684,71.30255,-39.2532,-31.44678,144.8852,47.92096,-0.8883717,-9.082087,-78.29288,-7.495606,14.43551,0,0,0,-34.09771,97.09318,19.79753,83.34011,-110.3957,-93.10179,0.001067912,-0.1257102,0.09433498,0,0.3,0,0,0,0,
6.38225E+17,-11.14386,61.18076,69.64489,-39.76591,-30.3481,144.8852,47.92096,-0.8883717,-9.082087,-78.29288,-7.495606,14.50875,0,0,0,-36.58738,93.79977,17.3847,83.34011,-110.3957,-93.10179,0.001067912,-0.1257102,0.09433498,0,0.3,0,0,0,0,
6.38225E+17,-13.4763,61.11063,64.92875,-40.27863,-26.61259,144.8119,47.92096,-0.8883717,-9.082087,-78.29288,-7.495606,14.43551,0,0,0,-43.16191,83.59874,11.76053,83.34011,-110.3957,-93.10179,0.001067912,-0.1257102,0.09433498,0,0.3,0,0,0,0,
6.38225E+17,-15.87941,59.89495,59.27871,-39.61942,-21.11921,144.8119,47.92096,-0.8883717,-9.082087,-78.29288,-7.495606,14.50875,0,0,0,-49.66706,70.58855,6.245644,83.34011,-110.3957,-93.10179,0.001067912,-0.1257102,0.09433498,0,0.3,0,0,0,0,
6.38225E+17,-16.86893,58.86631,56.68716,-38.88697,-17.96966,144.8852,47.92096,-0.8883717,-9.082087,-78.29288,-7.495606,14.50875,0,0,0,-52.34482,64.25553,4.273552,83.34011,-110.3957,-93.10179,0.001067912,-0.1257102,0.09433498,0,0.3,0,0,0,0,
6.38225E+17,-18.47101,56.41161,52.508,-37.20233,-11.30435,143.5667,47.92096,-0.8883717,-9.082087,-78.29288,-7.422361,14.50875,0,0,0,-56.89453,53.27143,1.976181,83.34011,-110.3957,-93.10179,0.001067912,-0.1257102,0.09433498,0,0.3,0,0,0,0,
6.38225E+17,-19.86105,53.51271,49.47286,-34.93173,-4.712289,142.1751,47.92096,-0.8883717,-9.082087,-78.29288,-7.495606,14.43551,0,0,0,-61.37575,43.90997,1.55946,83.34011,-110.3957,-93.10179,0.001067912,-0.1257102,0.09433498,0,0.3,0,0,0,0,
6.38225E+17,-21.62804,50.56705,47.48834,-33.02736,1.220569,144.4457,47.92096,-0.8883717,-9.082087,-78.29288,-7.495606,14.43551,0,0,0,-67.44939,36.23537,1.764381,83.34011,-110.3957,-93.10179,0.001067912,-0.1257102,0.09433498,0,0.3,0,0,0,0,
6.38225E+17,-24.17252,47.50451,46.29763,-32.66114,7.226673,144.8852,47.92096,-0.8883717,-9.082087,-78.29288,-7.495606,14.50875,0,0,0,-76.36334,29.53986,1.784342,83.34011,-110.3957,-93.10179,0.001067912,-0.1257102,0.09433498,0,0.3,0,0,0,0,
6.38225E+17,-25.60968,45.86803,45.73729,-33.17385,10.44946,144.7387,47.92096,-0.8883717,-9.082087,-78.29288,-7.495606,14.50875,0,0,0,-81.41273,25.98882,1.497859,83.34011,-110.3957,-93.10179,0.001067912,-0.1257102,0.09433498,0,0.3,0,0,0,0,
6.38225E+17,-27.84787,43.4367,44.78006,-34.712,15.13715,144.8119,47.92096,-0.8883717,-9.082087,-78.29288,-7.495606,14.43551,0,0,0,-89.1089,20.3812,0.3183155,83.34011,-110.3957,-93.10179,0.001067912,-0.1257102,0.09433498,0,0.3,0,0,0,0,
6.38225E+17,-30.20387,41.14564,44.42985,-36.68962,19.45862,144.8119,47.92096,-0.8883717,-9.082087,-78.29288,-7.495606,14.50875,0,0,0,-97.48026,15.86469,-0.8881757,83.34011,-110.3957,-93.10179,0.001067912,-0.1257102,0.09433498,0,0.3,0,0,0,0,
6.38225E+17,-31.33475,40.16375,44.42985,-37.34882,21.14326,144.8852,47.92096,-0.8883717,-9.082087,-78.29288,-7.495606,14.50875,0,0,0,-101.5406,14.13101,-1.573033,83.34011,-110.3957,-93.10179,0.001067912,-0.1257102,0.09433498,0,0.3,0,0,0,0,
6.38225E+17,-33.40803,38.66755,44.61663,-38.15452,23.92657,144.8119,47.92096,-0.8883717,-9.082087,-78.29288,-7.495606,14.43551,0,0,0,-108.8957,11.74565,-3.251329,83.34011,-110.3957,-93.10179,0.001067912,-0.1257102,0.09433498,0,0.3,0,0,0,0,
6.38225E+17,-34.93942,38.17661,44.96684,-37.42207,25.09849,144.7387,47.92096,-0.8883717,-9.082087,-78.29288,-7.422361,14.50875,0,0,0,-114.007,11.42471,-5.164239,83.34011,-110.3957,-93.10179,0.001067912,-0.1257102,0.09433498,0,0.3,0,0,0,0,
6.38225E+17,-35.62266,38.24674,45.52717,-35.95716,25.09849,144.8119,47.92096,-0.8883717,-9.082087,-78.29288,-7.422361,14.50875,0,0,0,-116.4207,12.47908,-5.871042,83.34011,-110.3957,-93.10179,0.001067912,-0.1257102,0.09433498,0,0.3,0,0,0,0,
6.38225E+17,-35.66978,38.24674,45.78399,-35.00498,24.95201,144.7387,47.92096,-0.8883717,-9.082087,-78.29288,-7.422361,14.43551,0,0,0,-116.7979,12.90654,-5.627432,83.34011,-110.3957,-93.10179,0.001067912,-0.1257102,0.09433498,0,0.3,0,0,0,0,
6.38225E+17,-35.62266,38.2935,46.15754,-33.32034,24.87876,144.8119,47.92096,-0.8883717,-9.082087,-78.29288,-7.495606,14.50875,0,0,0,-116.9768,13.61707,-5.095033,83.34011,-110.3957,-93.10179,0.001067912,-0.1257102,0.09433498,0,0.3,0,0,0,0,
6.38225E+17,-35.62266,38.52728,47.27821,-31.78219,24.87876,144.7387,47.92096,-0.8883717,-9.082087,-78.29288,-7.495606,14.50875,0,0,0,-117.8214,15.94215,-3.916279,83.34011,-110.3957,-93.10179,0.001067912,-0.1257102,0.09433498,0,0.3,0,0,0,0,
6.38225E+17,-35.62266,38.69093,47.69846,-31.56245,24.95201,144.8119,47.92096,-0.8883717,-9.082087,-78.29288,-7.495606,14.50875,0,0,0,-118.0679,16.96076,-3.572217,83.34011,-110.3957,-93.10179,0.001067912,-0.1257102,0.09433498,0,0.3,0,0,0,0,
6.38225E+17,-35.57554,39.13511,47.93193,-31.78219,25.68446,144.6654,47.92096,-0.8883717,-9.082087,-78.29288,-7.495606,14.50875,0,0,0,-117.7669,18.1678,-3.70655,83.34011,-110.3957,-93.10179,0.001067912,-0.1257102,0.09433498,0,0.3,0,0,0,0,
6.38225E+17,-35.57554,38.97147,46.99805,-32.66114,27.36909,144.8119,47.92096,-0.8883717,-9.082087,-78.29288,-7.495606,14.50875,0,0,0,-117.0516,16.27044,-4.706493,83.34011,-110.3957,-93.10179,0.001067912,-0.1257102,0.09433498,0,0.3,0,0,0,0,
6.38225E+17,-35.57554,37.82593,43.566,-33.54007,29.71294,144.8119,47.92096,-0.8883717,-9.082087,-78.29288,-7.422361,14.43551,0,0,0,-114.7457,8.505962,-7.930204,83.34011,-110.3957,-93.10179,0.001067912,-0.1257102,0.09433498,0,0.3,0,0,0,0,
6.38225E+17,-35.57554,36.65702,40.9511,-33.83306,31.17784,144.8119,47.92096,-0.8883717,-9.082087,-78.29288,-7.422361,14.50875,0,0,0,-113.0833,2.247947,-10.25437,83.34011,-110.3957,-93.10179,0.001067912,-0.1257102,0.09433498,0,0.3,0,0,0,0,
6.38225E+17,-35.52842,32.72948,35.32441,-35.22471,35.20633,143.8597,47.92096,-0.8883717,-9.082087,-78.29288,-7.422361,14.43551,0,0,0,-109.9931,-13.35032,-14.30708,83.34011,-110.3957,-93.10179,0.001067912,-0.1257102,0.09433498,0,0.3,0,0,0,0,
6.38225E+17,-34.86874,27.70317,32.35931,-39.2532,38.64885,130.0164,47.92096,-0.8883717,-9.082087,-78.29288,-7.422361,14.50875,0,0,0,-108.3004,-27.29862,-12.92433,83.34011,-110.3957,-93.10179,0.001067912,-0.1257102,0.09433498,0,0.3,0,0,0,0,
6.38225E+17,-32.67767,22.8405,32.17253,-46.94394,40.99269,110.7529,47.92096,-0.8883717,-9.082087,-78.29288,-7.495606,14.43551,0,0,0,-104.6884,-37.76182,-5.141218,83.34011,-110.3957,-93.10179,0.001067912,-0.1257102,0.09433498,0,0.3,0,0,0,0,
6.38225E+17,-29.87403,20.94687,32.0558,-52.73031,41.50541,97.12931,47.92096,-0.8883717,-9.082087,-78.29288,-7.495606,14.50875,0,0,0,-97.28391,-41.99544,1.009482,83.34011,-110.3957,-93.10179,0.001067912,-0.1257102,0.09433498,0,0.3,0,0,0,0,
6.38225E+17,-28.13059,20.31566,31.72893,-55.66012,41.6519,90.24426,47.92096,-0.8883717,-9.082087,-78.21963,-7.422361,14.50875,0,0,0,-92.02579,-43.77221,3.777735,83.34011,-110.3957,-93.10179,0.001067912,-0.1257102,0.09433498,0,0.3,0,0,0,0,
6.38225E+17,-24.2432,19.91823,30.18801,-61.37324,41.6519,77.27986,47.92096,-0.8883717,-9.082087,-78.29288,-7.422361,14.50875,0,0,0,-79.0124,-46.48557,7.106625,83.34011,-110.3957,-93.10179,0.001067912,-0.1257102,0.09433498,0,0.3,0,0,0,0,
6.38225E+17,-19.81393,19.91823,26.26567,-65.98769,41.57866,66.51283,47.92096,-0.8883717,-9.082087,-78.29288,-7.495606,14.50875,0,0,0,-62.50032,-50.80234,5.119007,83.34011,-110.3957,-93.10179,0.001067912,-0.1257102,0.09433498,0,0.3,0,0,0,0,
6.38225E+17,-17.57573,19.91823,23.86091,-67.23285,41.6519,62.48434,47.92096,-0.8883717,-9.082087,-78.29288,-7.422361,14.50875,0,0,0,-54.14717,-53.1731,2.594722,83.34011,-110.3957,-93.10179,0.001067912,-0.1257102,0.09433498,0,0.3,0,0,0,0,
6.38225E+17,-11.89778,19.96499,19.91522,-67.67233,41.87164,55.74578,47.92096,-0.8883717,-9.082087,-78.29288,-7.495606,14.43551,0,0,0,-35.2047,-56.49356,-1.259642,83.34011,-110.3957,-93.10179,0.001067912,-0.1257102,0.09433498,0,0.3,0,0,0,0,
6.38225E+17,-5.442351,19.96499,18.56108,-66.35391,42.09137,51.35107,47.92096,-0.8883717,-9.082087,-78.29288,-7.422361,14.43551,0,0,0,-15.91326,-57.53198,-1.32313,83.34011,-110.3957,-93.10179,0.001067912,-0.1257102,0.09433498,0,0.3,0,0,0,0,
6.38225E+17,2.073277,19.96499,18.51438,-63.13113,42.16462,48.20153,47.92096,-0.8883717,-9.082087,-78.29288,-7.495606,14.43551,0,0,0,6.066267,-57.56654,-0.779591,83.34011,-110.3957,-93.10179,0.001067912,-0.1257102,0.09433498,0,0.3,0,0,0,0,
6.38225E+17,7.633427,19.96499,18.53773,-59.32237,42.23786,46.95637,47.92096,-0.8883717,-9.082087,-78.29288,-7.422361,14.43551,0,0,0,22.28058,-57.54927,-2.104704,83.34011,-110.3957,-93.10179,0.001067912,-0.1257102,0.09433498,0,0.3,0,0,0,0,
6.38225E+17,14.46582,19.96499,18.79455,-52.80355,42.23786,46.44365,47.92096,-0.8883717,-9.082087,-78.29288,-7.495606,14.43551,0,0,0,42.04123,-57.35797,-5.387596,83.34011,-110.3957,-93.10179,0.001067912,-0.1257102,0.09433498,0,0.3,0,0,0,0,
6.38225E+17,22.68824,20.0585,20.33547,-42.18301,42.31111,48.93398,47.92096,-0.8883717,-9.082087,-78.29288,-7.495606,14.43551,0,0,0,66.19002,-55.95253,-10.02642,83.34011,-110.3957,-93.10179,0.001067912,-0.1257102,0.09433498,0,0.3,0,0,0,0,
6.38225E+17,26.52852,20.12863,21.68961,-36.10366,42.23786,51.79055,47.92096,-0.8883717,-9.082087,-78.29288,-7.495606,14.43551,0,0,0,77.93412,-54.66917,-12.23296,83.34011,-110.3957,-93.10179,0.001067912,-0.1257102,0.09433498,0,0.3,0,0,0,0,
6.38225E+17,33.10175,20.38579,25.14501,-22.99277,41.87164,58.67559,47.92096,-0.8883717,-9.082087,-78.29288,-7.495606,14.43551,0,0,0,99.20947,-50.91204,-16.17312,83.34011,-110.3957,-93.10179,0.001067912,-0.1257102,0.09433498,0,0.3,0,0,0,0,
6.38225E+17,37.46034,21.25079,28.76383,-11.27355,40.55322,64.46196,47.92096,-0.8883717,-9.082087,-78.29288,-7.495606,14.43551,0,0,0,114.618,-45.21321,-18.76266,83.34011,-110.3957,-93.10179,0.001067912,-0.1257102,0.09433498,0,0.3,0,0,0,0,
6.38225E+17,39.55717,22.74699,31.77563,-2.70386,38.64885,68.34396,47.92096,-0.8883717,-9.082087,-78.29288,-7.495606,14.50875,0,0,0,123.0387,-38.45162,-19.39518,83.34011,-110.3957,-93.10179,0.001067912,-0.1257102,0.09433498,0,0.3,0,0,0,0,
6.38225E+17,39.9577,24.75752,34.34383,2.350057,36.45149,71.27377,47.92096,-0.8883717,-9.082087,-78.29288,-7.495606,14.43551,0,0,0,126.0836,-30.90853,-17.86395,83.34011,-110.3957,-93.10179,0.001067912,-0.1257102,0.09433498,0,0.3,0,0,0,0,
6.38225E+17,39.88701,25.87967,35.44115,3.66847,35.49931,72.44569,47.92096,-0.8883717,-9.082087,-78.29288,-7.495606,14.43551,0,0,0,126.5249,-27.08683,-16.95819,83.34011,-110.3957,-93.10179,0.001067912,-0.1257102,0.09433498,0,0.3,0,0,0,0,
6.38225E+17,39.81633,28.311,37.86926,4.913638,33.66818,74.93602,47.92096,-0.8883717,-9.082087,-78.29288,-7.495606,14.43551,0,0,0,127.5906,-18.67608,-15.29974,83.34011,-110.3957,-93.10179,0.001067912,-0.1257102,0.09433498,0,0.3,0,0,0,0,
6.38225E+17,39.81633,31.23328,40.76432,5.499599,31.76381,78.08556,47.92096,-0.8883717,-9.082087,-78.29288,-7.422361,14.43551,0,0,0,128.7659,-8.504381,-13.88992,83.34011,-110.3957,-93.10179,0.001067912,-0.1257102,0.09433498,0,0.3,0,0,0,0,
6.38225E+17,39.79277,32.77624,42.18851,6.012315,30.73837,80.13642,47.92096,-0.8883717,-9.082087,-78.29288,-7.495606,14.43551,0,0,0,129.0737,-3.263953,-13.39119,83.34011,-110.3957,-93.10179,0.001067912,-0.1257102,0.09433498,0,0.3,0,0,0,0,
6.38225E+17,39.7221,35.79203,44.8034,7.184238,28.68751,84.09167,47.92096,-0.8883717,-9.082087,-78.29288,-7.495606,14.50875,0,0,0,129.1772,6.723382,-12.87737,83.34011,-110.3957,-93.10179,0.001067912,-0.1257102,0.09433498,0,0.3,0,0,0,0,
6.38225E+17,39.58073,38.5039,47.13813,8.795631,26.34366,87.60744,47.92096,-0.8883717,-9.082087,-78.29288,-7.495606,14.50875,0,0,0,128.7711,15.66033,-12.58587,83.34011,-110.3957,-93.10179,0.001067912,-0.1257102,0.09433498,0,0.3,0,0,0,0,
6.38225E+17,39.43937,39.74295,48.11871,9.528083,25.31823,89.07233,47.92096,-0.8883717,-9.082087,-78.29288,-7.495606,14.50875,0,0,0,128.2076,19.58352,-12.48607,83.34011,-110.3957,-93.10179,0.001067912,-0.1257102,0.09433498,0,0.3,0,0,0,0,
6.38225E+17,38.99174,42.10415,49.68298,11.13948,23.4871,91.34293,47.92096,-0.8883717,-9.082087,-78.29288,-7.422361,14.50875,0,0,0,126.2269,26.47892,-12.42682,83.34011,-110.3957,-93.10179,0.001067912,-0.1257102,0.09433498,0,0.3,0,0,0,0,
6.38225E+17,38.35562,43.95102,51.34064,12.45789,21.80246,93.10082,47.92096,-0.8883717,-9.082087,-78.29288,-7.495606,14.50875,0,0,0,124.1904,32.59838,-11.41113,83.34011,-110.3957,-93.10179,0.001067912,-0.1257102,0.09433498,0,0.3,0,0,0,0,
6.38225E+17,37.3661,45.86803,53.44189,14.06928,20.4108,95.59116,47.92096,-0.8883717,-9.082087,-78.29288,-7.495606,14.43551,0,0,0,121.3612,39.63206,-9.4213,83.34011,-110.3957,-93.10179,0.001067912,-0.1257102,0.09433498,0,0.3,0,0,0,0,
6.38225E+17,36.75354,46.82654,54.60926,14.94823,19.82484,97.20255,47.92096,-0.8883717,-9.082087,-78.29288,-7.422361,14.50875,0,0,0,119.6443,43.37066,-8.147424,83.34011,-110.3957,-93.10179,0.001067912,-0.1257102,0.09433498,0,0.3,0,0,0,0,
6.38225E+17,35.1279,49.00071,57.01402,16.63286,18.50643,100.8648,47.92096,-0.8883717,-9.082087,-78.29288,-7.495606,14.43551,0,0,0,114.7002,51.39137,-5.316928,83.34011,-110.3957,-93.10179,0.001067912,-0.1257102,0.09433498,0,0.3,0,0,0,0,
6.38225E+17,32.84259,51.61907,58.71837,18.46399,17.11477,105.5525,47.92096,-0.8883717,-9.082087,-78.29288,-7.495606,14.43551,0,0,0,106.7092,58.64176,-3.039753,83.34011,-110.3957,-93.10179,0.001067912,-0.1257102,0.09433498,0,0.3,0,0,0,0,
6.38225E+17,31.54679,52.90487,59.09193,19.1232,16.30907,108.4823,47.92096,-0.8883717,-9.082087,-78.29288,-7.495606,14.43551,0,0,0,101.9403,61.21782,-2.303035,83.34011,-110.3957,-93.10179,0.001067912,-0.1257102,0.09433498,0,0.3,0,0,0,0,
6.38225E+17,28.48399,55.54661,59.16197,20.29512,15.06391,115.1476,47.92096,-0.8883717,-9.082087,-78.29288,-7.495606,14.50875,0,0,0,90.58385,64.95171,-1.404096,83.34011,-110.3957,-93.10179,0.001067912,-0.1257102,0.09433498,0,0.3,0,0,0,0,
6.38225E+17,25.25628,57.37011,58.55495,20.88108,14.25821,122.0327,47.92096,-0.8883717,-9.082087,-78.29288,-7.495606,14.50875,0,0,0,79.21942,66.08741,-0.428487,83.34011,-110.3957,-93.10179,0.001067912,-0.1257102,0.09433498,0,0.3,0,0,0,0,
6.38225E+17,23.55996,58.04808,57.90122,20.95433,14.11172,125.6949,47.92096,-0.8883717,-9.082087,-78.29288,-7.495606,14.50875,0,0,0,73.36053,65.63687,-0.1140324,83.34011,-110.3957,-93.10179,0.001067912,-0.1257102,0.09433498,0,0.3,0,0,0,0,
6.38225E+17,19.90817,58.88969,56.03344,20.51486,14.18496,133.4589,47.92096,-0.8883717,-9.082087,-78.29288,-7.495606,14.50875,0,0,0,61.1208,63.01698,0.4191688,83.34011,-110.3957,-93.10179,0.001067912,-0.1257102,0.09433498,0,0.3,0,0,0,0,
6.38225E+17,16.68045,58.81956,53.65202,18.97671,14.99066,140.2707,47.92096,-0.8883717,-9.082087,-78.29288,-7.495606,14.50875,0,0,0,50.64548,58.40147,0.669651,83.34011,-110.3957,-93.10179,0.001067912,-0.1257102,0.09433498,0,0.3,0,0,0,0,
6.38225E+17,14.46582,58.16497,50.59352,16.48637,16.82179,144.5922,47.92096,-0.8883717,-9.082087,-78.29288,-7.495606,14.43551,0,0,0,43.30906,51.98725,-0.4731898,83.34011,-110.3957,-93.10179,0.001067912,-0.1257102,0.09433498,0,0.3,0,0,0,0,
6.38225E+17,13.0051,57.13633,48.39888,13.62981,19.31213,144.8852,47.92096,-0.8883717,-9.082087,-78.29288,-7.422361,14.43551,0,0,0,38.72415,46.8227,-0.6853497,83.34011,-110.3957,-93.10179,0.001067912,-0.1257102,0.09433498,0,0.3,0,0,0,0,
6.38225E+17,12.69882,56.76228,48.14206,12.67763,20.26431,144.9584,47.92096,-0.8883717,-9.082087,-78.29288,-7.495606,14.43551,0,0,0,37.90028,45.90184,-0.1570158,83.34011,-110.3957,-93.10179,0.001067912,-0.1257102,0.09433498,0,0.3,0,0,0,0,
6.38225E+17,12.22762,56.45836,48.77244,11.57895,22.31518,144.8119,47.92096,-0.8883717,-9.082087,-78.29288,-7.495606,14.50875,0,0,0,36.84695,46.61066,1.677067,83.34011,-110.3957,-93.10179,0.001067912,-0.1257102,0.09433498,0,0.3,0,0,0,0,
6.38225E+17,11.16742,56.83241,50.31336,11.94517,22.75465,144.8119,47.92096,-0.8883717,-9.082087,-78.29288,-7.495606,14.43551,0,0,0,34.00451,49.81804,3.899297,83.34011,-110.3957,-93.10179,0.001067912,-0.1257102,0.09433498,0,0.3,0,0,0,0,
6.38225E+17,10.5313,56.94931,50.80365,12.16491,22.53491,144.8119,47.92096,-0.8883717,-9.082087,-78.29288,-7.495606,14.50875,0,0,0,32.18092,50.84789,4.754883,83.34011,-110.3957,-93.10179,0.001067912,-0.1257102,0.09433498,0,0.3,0,0,0,0,
6.38225E+17,9.306185,56.90255,50.94373,12.45789,21.80246,144.8852,47.92096,-0.8883717,-9.082087,-78.29288,-7.495606,14.43551,0,0,0,28.52048,51.04142,5.696379,83.34011,-110.3957,-93.10179,0.001067912,-0.1257102,0.09433498,0,0.3,0,0,0,0,
6.38225E+17,9.423985,56.22458,50.12658,12.16491,21.43624,144.8852,47.92096,-0.8883717,-9.082087,-78.29288,-7.495606,14.50875,0,0,0,28.89593,48.70375,5.743854,83.34011,-110.3957,-93.10179,0.001067912,-0.1257102,0.09433498,0,0.3,0,0,0,0,
6.38225E+17,10.93182,54.33094,47.72181,11.79868,22.31518,144.7387,47.92096,-0.8883717,-9.082087,-78.29288,-7.495606,14.43551,0,0,0,33.45656,41.97468,4.869276,83.34011,-110.3957,-93.10179,0.001067912,-0.1257102,0.09433498,0,0.3,0,0,0,0,
6.38225E+17,11.9449,52.78798,46.01746,11.57895,23.78008,144.8119,47.92096,-0.8883717,-9.082087,-78.29288,-7.495606,14.50875,0,0,0,36.5506,36.9469,4.423901,83.34011,-110.3957,-93.10179,0.001067912,-0.1257102,0.09433498,0,0.3,0,0,0,0,
6.38225E+17,14.08886,48.93058,43.26248,10.55352,28.0283,144.8119,47.92096,-0.8883717,-9.082087,-78.29288,-7.495606,14.43551,0,0,0,43.57275,26.77609,5.263296,83.34011,-110.3957,-93.10179,0.001067912,-0.1257102,0.09433498,0,0.3,0,0,0,0,
6.38225E+17,16.30349,45.51736,42.70215,9.454838,33.22871,140.4904,47.92096,-0.8883717,-9.082087,-78.29288,-7.422361,14.43551,0,0,0,51.61798,20.4928,8.129797,83.34011,-110.3957,-93.10179,0.001067912,-0.1257102,0.09433498,0,0.3,0,0,0,0,
6.38225E+17,17.29301,44.53548,43.07571,9.088613,35.57256,138.7326,47.92096,-0.8883717,-9.082087,-78.29288,-7.495606,14.50875,0,0,0,55.32791,19.46936,9.363818,83.34011,-110.3957,-93.10179,0.001067912,-0.1257102,0.09433498,0,0.3,0,0,0,0,
6.38225E+17,18.89509,44.53548,43.91621,9.015368,38.64885,136.462,47.92096,-0.8883717,-9.082087,-78.29288,-7.495606,14.50875,0,0,0,60.73433,20.81579,9.090076,83.34011,-110.3957,-93.10179,0.001067912,-0.1257102,0.09433498,0,0.3,0,0,0,0,
6.38225E+17,20.37937,45.2602,44.45319,8.868877,39.74753,134.3379,47.92096,-0.8883717,-9.082087,-78.29288,-7.495606,14.50875,0,0,0,65.20761,22.88166,7.181441,83.34011,-110.3957,-93.10179,0.001067912,-0.1257102,0.09433498,0,0.3,0,0,0,0,
6.38225E+17,21.41601,45.33034,44.54658,8.575896,39.74753,132.58,47.92096,-0.8883717,-9.082087,-78.29288,-7.495606,14.43551,0,0,0,68.38686,23.14883,6.00931,83.34011,-110.3957,-93.10179,0.001067912,-0.1257102,0.09433498,0,0.3,0,0,0,0,
6.38225E+17,24.38456,44.65237,44.05629,7.330729,39.30806,127.5993,47.92096,-0.8883717,-9.082087,-78.29288,-7.495606,14.50875,0,0,0,77.4482,21.23594,2.505974,83.34011,-110.3957,-93.10179,0.001067912,-0.1257102,0.09433498,0,0.3,0,0,0,0,
6.38225E+17,27.87143,42.64184,42.79554,5.646089,38.86858,121.7397,47.92096,-0.8883717,-9.082087,-78.29288,-7.495606,14.50875,0,0,0,88.20982,15.83314,-1.549606,83.34011,-110.3957,-93.10179,0.001067912,-0.1257102,0.09433498,0,0.3,0,0,0,0,
6.38225E+17,30.62795,39.81308,42.18851,3.96145,38.64885,116.173,47.92096,-0.8883717,-9.082087,-78.29288,-7.495606,14.43551,0,0,0,97.80904,9.927759,-3.147923,83.34011,-110.3957,-93.10179,0.001067912,-0.1257102,0.09433498,0,0.3,0,0,0,0,
6.38225E+17,32.32427,37.38175,42.53872,3.082508,38.64885,111.8516,47.92096,-0.8883717,-9.082087,-78.29288,-7.422361,14.50875,0,0,0,104.866,6.054784,-2.623881,83.34011,-110.3957,-93.10179,0.001067912,-0.1257102,0.09433498,0,0.3,0,0,0,0,
6.38225E+17,32.79546,36.98432,43.23914,2.936018,38.7221,110.6064,47.92096,-0.8883717,-9.082087,-78.29288,-7.495606,14.50875,0,0,0,107.175,6.427289,-2.017981,83.34011,-110.3957,-93.10179,0.001067912,-0.1257102,0.09433498,0,0.3,0,0,0,0,
6.38225E+17,33.21954,37.7558,45.59721,3.595225,38.86858,109.6542,47.92096,-0.8883717,-9.082087,-78.29288,-7.495606,14.43551,0,0,0,109.9535,11.6951,-0.4484143,83.34011,-110.3957,-93.10179,0.001067912,-0.1257102,0.09433498,0,0.3,0,0,0,0,
6.38225E+17,33.29023,39.36889,47.95528,5.206618,38.35587,110.5332,47.92096,-0.8883717,-9.082087,-78.29288,-7.495606,14.43551,0,0,0,110.9389,18.62948,0.6011875,83.34011,-110.3957,-93.10179,0.001067912,-0.1257102,0.09433498,0,0.3,0,0,0,0,
6.38225E+17,33.33735,40.04686,48.60901,6.08556,37.84315,111.4121,47.92096,-0.8883717,-9.082087,-78.29288,-7.495606,14.50875,0,0,0,111.0803,20.97904,0.5135755,83.34011,-110.3957,-93.10179,0.001067912,-0.1257102,0.09433498,0,0.3,0,0,0,0,
6.38225E+17,33.5965,40.16375,48.53897,7.550464,36.59798,112.2911,47.92096,-0.8883717,-9.082087,-78.29288,-7.495606,14.50875,0,0,0,111.6863,21.06489,-0.2264079,83.34011,-110.3957,-93.10179,0.001067912,-0.1257102,0.09433498,0,0.3,0,0,0,0,
6.38225E+17,34.58602,37.4285,46.20424,6.891257,36.08527,110.8994,47.92096,-0.8883717,-9.082087,-78.29288,-7.495606,14.50875,0,0,0,114.7481,12.10609,-1.926271,83.34011,-110.3957,-93.10179,0.001067912,-0.1257102,0.09433498,0,0.3,0,0,0,0,
6.38225E+17,35.33994,35.06731,44.89679,5.499599,36.305,108.8485,47.92096,-0.8883717,-9.082087,-78.29288,-7.495606,14.50875,0,0,0,117.5748,5.502293,-2.538338,83.34011,-110.3957,-93.10179,0.001067912,-0.1257102,0.09433498,0,0.3,0,0,0,0,
6.38225E+17,36.91846,29.50329,43.77612,1.397869,37.33044,103.5749,47.92096,-0.8883717,-9.082087,-78.29288,-7.422361,14.43551,0,0,0,125.1304,-7.263831,-1.803728,83.34011,-110.3957,-93.10179,0.001067912,-0.1257102,0.09433498,0,0.3,0,0,0,0,
6.38225E+17,38.59122,24.47698,44.82675,-3.289821,38.13613,97.64202,47.92096,-0.8883717,-9.082087,-78.29288,-7.495606,14.50875,0,0,0,134.3408,-15.97679,-0.01124146,83.34011,-110.3957,-93.10179,0.001067912,-0.1257102,0.09433498,0,0.3,0,0,0,0,
6.38225E+17,40.16973,21.69497,46.01746,-6.585854,38.50236,93.17406,47.92096,-0.8883717,-9.082087,-78.29288,-7.495606,14.43551,0,0,0,141.8192,-19.9586,-0.3496598,83.34011,-110.3957,-93.10179,0.001067912,-0.1257102,0.09433498,0,0.3,0,0,0,0,
6.38225E+17,41.55977,21.04038,45.80734,-8.270493,38.5756,90.02452,47.92096,-0.8883717,-9.082087,-78.29288,-7.495606,14.43551,0,0,0,145.9954,-21.72863,-3.678653,83.34011,-110.3957,-93.10179,0.001067912,-0.1257102,0.09433498,0,0.3,0,0,0,0,
6.38225E+17,42.21945,20.5962,45.22365,-8.783209,38.50236,88.70612,47.92096,-0.8883717,-9.082087,-78.29288,-7.495606,14.43551,0,0,0,147.4889,-23.6641,-5.803307,83.34011,-110.3957,-93.10179,0.001067912,-0.1257102,0.09433498,0,0.3,0,0,0,0,
6.38225E+17,42.45505,19.96499,44.63997,-9.149435,38.50236,88.19339,47.92096,-0.8883717,-9.082087,-78.29288,-7.495606,14.50875,0,0,0,147.8506,-26.00153,-6.745015,83.34011,-110.3957,-93.10179,0.001067912,-0.1257102,0.09433498,0,0.3,0,0,0,0,
6.38225E+17,42.73777,17.72068,42.63211,-10.46785,38.5756,86.582,47.92096,-0.8883717,-9.082087,-78.29288,-7.495606,14.43551,0,0,0,147.4959,-34.1693,-8.721466,83.34011,-110.3957,-93.10179,0.001067912,-0.1257102,0.09433498,0,0.3,0,0,0,0,
6.38225E+17,42.92625,13.98017,39.92382,-13.91037,38.7221,83.43246,47.92096,-0.8883717,-9.082087,-78.29288,-7.495606,14.50875,0,0,0,146.4135,-46.70041,-10.93504,83.34011,-110.3957,-93.10179,0.001067912,-0.1257102,0.09433498,0,0.3,0,0,0,0,
6.38225E+17,43.13829,9.959114,37.986,-18.30508,38.13613,79.18424,47.92096,-0.8883717,-9.082087,-78.29288,-7.422361,14.43551,0,0,0,145.9239,-58.68902,-12.62108,83.34011,-110.3957,-93.10179,0.001067912,-0.1257102,0.09433498,0,0.3,0,0,0,0,
6.38225E+17,43.35033,6.054955,37.05211,-22.5533,36.08527,73.83734,47.92096,-0.8883717,-9.082087,-78.29288,-7.495606,14.43551,0,0,0,146.1845,-69.00895,-13.49555,83.34011,-110.3957,-93.10179,0.001067912,-0.1257102,0.09433498,0,0.3,0,0,0,0,
6.38225E+17,43.39745,4.348346,36.91203,-24.23794,34.91335,71.12727,47.92096,-0.8883717,-9.082087,-78.29288,-7.495606,14.43551,0,0,0,146.3802,-73.16053,-13.54342,83.34011,-110.3957,-93.10179,0.001067912,-0.1257102,0.09433498,0,0.3,0,0,0,0,
6.38225E+17,43.39745,1.940391,36.84199,-26.58179,32.42301,66.21985,47.92096,-0.8883717,-9.082087,-78.29288,-7.495606,14.43551,0,0,0,146.5018,-78.85377,-13.41483,83.34011,-110.3957,-93.10179,0.001067912,-0.1257102,0.09433498,0,0.3,0,0,0,0,
6.38225E+17,43.32677,1.309179,36.65521,-27.68046,30.66513,62.48434,47.92096,-0.8883717,-9.082087,-78.29288,-7.495606,14.50875,0,0,0,146.1002,-80.58234,-13.4573,83.34011,-110.3957,-93.10179,0.001067912,-0.1257102,0.09433498,0,0.3,0,0,0,0,
6.38225E+17,43.27965,1.449449,36.67855,-27.82695,30.2989,61.31242,47.92096,-0.8883717,-9.082087,-78.29288,-7.495606,14.50875,0,0,0,145.9972,-80.22352,-13.31119,83.34011,-110.3957,-93.10179,0.001067912,-0.1257102,0.09433498,0,0.3,0,0,0,0,
6.38225E+17,43.27965,2.571602,37.02876,-27.31424,30.66513,60.06725,47.92096,-0.8883717,-9.082087,-78.29288,-7.495606,14.50875,0,0,0,146.3815,-77.12462,-12.90309,83.34011,-110.3957,-93.10179,0.001067912,-0.1257102,0.09433498,0,0.3,0,0,0,0,
6.38225E+17,43.25609,5.143205,37.77588,-25.84933,31.9103,59.99401,47.92096,-0.8883717,-9.082087,-78.29288,-7.495606,14.43551,0,0,0,146.9883,-70.09737,-12.13013,83.34011,-110.3957,-93.10179,0.001067912,-0.1257102,0.09433498,0,0.3,0,0,0,0,
6.38225E+17,43.25609,9.49155,39.48022,-23.359,33.3752,61.89838,47.92096,-0.8883717,-9.082087,-78.29288,-7.495606,14.50875,0,0,0,148.2286,-57.5857,-10.81187,83.34011,-110.3957,-93.10179,0.001067912,-0.1257102,0.09433498,0,0.3,0,0,0,0,
6.38225E+17,43.25609,12.4372,40.69429,-21.45462,34.25414,63.94925,47.92096,-0.8883717,-9.082087,-78.29288,-7.422361,14.43551,0,0,0,148.8165,-49.03637,-10.18705,83.34011,-110.3957,-93.10179,0.001067912,-0.1257102,0.09433498,0,0.3,0,0,0,0,
6.38225E+17,43.25609,18.46878,42.63211,-17.27965,35.42606,68.92992,47.92096,-0.8883717,-9.082087,-78.29288,-7.495606,14.43551,0,0,0,148.5634,-32.51429,-10.45613,83.34011,-110.3957,-93.10179,0.001067912,-0.1257102,0.09433498,0,0.3,0,0,0,0,
6.38225E+17,43.09117,24.31333,43.49596,-12.22573,35.79229,74.35006,47.92096,-0.8883717,-9.082087,-78.29288,-7.495606,14.43551,0,0,0,145.7238,-18.48143,-12.578,83.34011,-110.3957,-93.10179,0.001067912,-0.1257102,0.09433498,0,0.3,0,0,0,0,
6.38225E+17,42.97337,26.11345,43.47261,-10.10162,35.49931,76.40092,47.92096,-0.8883717,-9.082087,-78.29288,-7.422361,14.50875,0,0,0,144.1599,-14.72854,-13.61335,83.34011,-110.3957,-93.10179,0.001067912,-0.1257102,0.09433498,0,0.3,0,0,0,0,
6.38225E+17,42.69065,26.88494,42.56207,-6.439363,34.69361,79.84344,47.92096,-0.8883717,-9.082087,-78.29288,-7.495606,14.50875,0,0,0,141.8008,-14.56739,-14.63162,83.34011,-110.3957,-93.10179,0.001067912,-0.1257102,0.09433498,0,0.3,0,0,0,0,
6.38225E+17,41.91317,24.07955,40.32073,-4.901215,34.91335,81.30835,47.92096,-0.8883717,-9.082087,-78.29288,-7.495606,14.50875,0,0,0,138.9662,-23.9132,-13.54127,83.34011,-110.3957,-93.10179,0.001067912,-0.1257102,0.09433498,0,0.3,0,0,0,0,
6.38225E+17,41.27705,22.67686,39.87713,-4.82797,35.49931,81.60133,47.92096,-0.8883717,-9.082087,-78.29288,-7.422361,14.43551,0,0,0,137.5725,-27.57473,-11.62799,83.34011,-110.3957,-93.10179,0.001067912,-0.1257102,0.09433498,0,0.3,0,0,0,0,
6.38225E+17,39.67498,22.67686,41.67487,-4.608234,37.25719,81.82106,47.92096,-0.8883717,-9.082087,-78.29288,-7.495606,14.50875,0,0,0,135.1598,-24.84222,-5.404432,83.34011,-110.3957,-93.10179,0.001067912,-0.1257102,0.09433498,0,0.3,0,0,0,0,
6.38225E+17,38.35562,26.90831,44.75671,-3.363066,39.16157,84.60438,47.92096,-0.8883717,-9.082087,-78.29288,-7.422361,14.50875,0,0,0,132.0534,-10.99281,-1.474634,83.34011,-110.3957,-93.10179,0.001067912,-0.1257102,0.09433498,0,0.3,0,0,0,0,
6.38225E+17,37.2483,33.47759,46.67118,0.006211365,40.40673,91.63592,47.92096,-0.8883717,-9.082087,-78.29288,-7.422361,14.50875,0,0,0,126.0354,5.404617,-2.594802,83.34011,-110.3957,-93.10179,0.001067912,-0.1257102,0.09433498,0,0.3,0,0,0,0,
6.38225E+17,36.84778,37.12459,47.04474,2.496547,40.04051,95.88414,47.92096,-0.8883717,-9.082087,-78.29288,-7.422361,14.50875,0,0,0,122.2892,12.96512,-5.166545,83.34011,-110.3957,-93.10179,0.001067912,-0.1257102,0.09433498,0,0.3,0,0,0,0,
6.38225E+17,36.7771,42.40806,46.99805,7.257483,37.98964,103.9411,47.92096,-0.8883717,-9.082087,-78.29288,-7.422361,14.50875,0,0,0,117.3359,22.33427,-11.37313,83.34011,-110.3957,-93.10179,0.001067912,-0.1257102,0.09433498,0,0.3,0,0,0,0,
6.38225E+17,36.7771,44.18481,46.15754,11.72544,35.13308,110.0205,47.92096,-0.8883717,-9.082087,-78.29288,-7.495606,14.43551,0,0,0,114.8331,23.92302,-14.72142,83.34011,-110.3957,-93.10179,0.001067912,-0.1257102,0.09433498,0,0.3,0,0,0,0,
6.38225E+17,36.80066,43.13279,45.45713,13.04385,34.0344,111.1924,47.92096,-0.8883717,-9.082087,-78.29288,-7.422361,14.43551,0,0,0,115.2281,20.98286,-14.32507,83.34011,-110.3957,-93.10179,0.001067912,-0.1257102,0.09433498,0,0.3,0,0,0,0,
6.38225E+17,36.84778,41.98725,45.03687,13.1171,33.52169,111.1924,47.92096,-0.8883717,-9.082087,-78.29288,-7.495606,14.50875,0,0,0,116.0232,18.32453,-13.52794,83.34011,-110.3957,-93.10179,0.001067912,-0.1257102,0.09433498,0,0.3,0,0,0,0,
6.38225E+17,37.0127,40.117,45.15361,12.45789,33.3752,109.6542,47.92096,-0.8883717,-9.082087,-78.29288,-7.495606,14.50875,0,0,0,118.3046,15.23459,-11.42682,83.34011,-110.3957,-93.10179,0.001067912,-0.1257102,0.09433498,0,0.3,0,0,0,0,
6.38225E+17,37.17762,40.04686,45.99411,11.94517,33.52169,108.5555,47.92096,-0.8883717,-9.082087,-78.29288,-7.495606,14.43551,0,0,0,119.6468,16.5067,-10.59325,83.34011,-110.3957,-93.10179,0.001067912,-0.1257102,0.09433498,0,0.3,0,0,0,0,
6.38225E+17,37.1305,40.70145,46.5311,12.16491,33.59494,108.3358,47.92096,-0.8883717,-9.082087,-78.29288,-7.495606,14.50875,0,0,0,119.4429,18.57032,-10.59284,83.34011,-110.3957,-93.10179,0.001067912,-0.1257102,0.09433498,0,0.3,0,0,0,0,
6.38225E+17,36.68286,43.01589,48.07202,13.41008,33.15546,109.2148,47.92096,-0.8883717,-9.082087,-78.29288,-7.495606,14.50875,0,0,0,117.5124,25.2176,-10.59657,83.34011,-110.3957,-93.10179,0.001067912,-0.1257102,0.09433498,0,0.3,0,0,0,0,
6.38225E+17,35.45774,46.17195,50.10323,15.60743,31.83705,111.9981,47.92096,-0.8883717,-9.082087,-78.29288,-7.495606,14.50875,0,0,0,112.9173,34.01999,-9.798522,83.34011,-110.3957,-93.10179,0.001067912,-0.1257102,0.09433498,0,0.3,0,0,0,0,
6.38225E+17,33.73786,48.81369,50.36005,17.95128,29.78619,115.4406,47.92096,-0.8883717,-9.082087,-78.29288,-7.422361,14.43551,0,0,0,105.8031,38.6334,-9.931862,83.34011,-110.3957,-93.10179,0.001067912,-0.1257102,0.09433498,0,0.3,0,0,0,0,
6.38225E+17,32.60699,49.42152,48.39888,19.26969,28.54102,117.7844,47.92096,-0.8883717,-9.082087,-78.29288,-7.422361,14.50875,0,0,0,100.4783,36.09491,-11.2787,83.34011,-110.3957,-93.10179,0.001067912,-0.1257102,0.09433498,0,0.3,0,0,0,0,
6.38225E+17,32.32427,48.9072,46.29763,19.41618,28.54102,118.5169,47.92096,-0.8883717,-9.082087,-78.29288,-7.495606,14.43551,0,0,0,98.41461,31.71553,-12.81936,83.34011,-110.3957,-93.10179,0.001067912,-0.1257102,0.09433498,0,0.3,0,0,0,0,
6.38225E+17,32.34783,46.84992,42.84223,18.53724,30.07917,118.8099,47.92096,-0.8883717,-9.082087,-78.29288,-7.495606,14.50875,0,0,0,97.31374,22.86139,-14.69899,83.34011,-110.3957,-93.10179,0.001067912,-0.1257102,0.09433498,0,0.3,0,0,0,0,
6.38225E+17,32.37139,45.21344,41.41805,17.43856,31.25109,117.7844,47.92096,-0.8883717,-9.082087,-78.29288,-7.495606,14.43551,0,0,0,97.52843,17.99378,-14.50001,83.34011,-110.3957,-93.10179,0.001067912,-0.1257102,0.09433498,0,0.3,0,0,0,0,
6.38225E+17,32.39495,40.37416,40.46081,12.67763,35.49931,111.5586,47.92096,-0.8883717,-9.082087,-78.29288,-7.495606,14.43551,0,0,0,100.7882,8.271629,-9.502233,83.34011,-110.3957,-93.10179,0.001067912,-0.1257102,0.09433498,0,0.3,0,0,0,0,
6.38225E+17,32.41851,39.85984,41.23127,11.21272,36.59798,110.3134,47.92096,-0.8883717,-9.082087,-78.29288,-7.495606,14.50875,0,0,0,101.9942,8.529001,-7.747525,83.34011,-110.3957,-93.10179,0.001067912,-0.1257102,0.09433498,0,0.3,0,0,0,0,
6.38225E+17,32.41851,40.74821,43.40257,9.674574,37.84315,109.2148,47.92096,-0.8883717,-9.082087,-78.29288,-7.495606,14.50875,0,0,0,103.2804,13.50773,-5.722332,83.34011,-110.3957,-93.10179,0.001067912,-0.1257102,0.09433498,0,0.3,0,0,0,0,
6.38225E+17,32.37139,43.20292,45.78399,10.11404,37.18394,110.0205,47.92096,-0.8883717,-9.082087,-78.29288,-7.422361,14.50875,0,0,0,103.214,21.64563,-5.531126,83.34011,-110.3957,-93.10179,0.001067912,-0.1257102,0.09433498,0,0.3,0,0,0,0,
6.38225E+17,32.23003,45.77452,47.67512,11.87193,35.13308,112.1446,47.92096,-0.8883717,-9.082087,-78.29288,-7.495606,14.43551,0,0,0,102.1842,29.11963,-6.272674,83.34011,-110.3957,-93.10179,0.001067912,-0.1257102,0.09433498,0,0.3,0,0,0,0,
6.38225E+17,32.13579,46.7564,48.2588,13.04385,33.74142,113.0235,47.92096,-0.8883717,-9.082087,-78.29288,-7.422361,14.50875,0,0,0,101.523,31.70844,-6.732811,83.34011,-110.3957,-93.10179,0.001067912,-0.1257102,0.09433498,0,0.3,0,0,0,0,
6.38225E+17,32.08867,47.22397,48.28215,14.94823,31.32433,113.756,47.92096,-0.8883717,-9.082087,-78.29288,-7.422361,14.43551,0,0,0,100.9865,32.49128,-7.292899,83.34011,-110.3957,-93.10179,0.001067912,-0.1257102,0.09433498,0,0.3,0,0,0,0,
6.38225E+17,32.13579,45.98492,46.69453,15.09472,30.15241,113.6827,47.92096,-0.8883717,-9.082087,-78.29288,-7.495606,14.50875,0,0,0,100.9054,27.78645,-7.715917,83.34011,-110.3957,-93.10179,0.001067912,-0.1257102,0.09433498,0,0.3,0,0,0,0,
6.38225E+17,32.15935,44.76926,45.43378,14.21577,30.37215,112.2911,47.92096,-0.8883717,-9.082087,-78.29288,-7.495606,14.50875,0,0,0,100.9597,23.68608,-7.7762,83.34011,-110.3957,-93.10179,0.001067912,-0.1257102,0.09433498,0,0.3,0,0,0,0,
6.38225E+17,32.23003,42.03401,43.47261,10.62676,31.39758,107.1639,47.92096,-0.8883717,-9.082087,-78.29288,-7.495606,14.50875,0,0,0,101.7527,15.86483,-6.957084,83.34011,-110.3957,-93.10179,0.001067912,-0.1257102,0.09433498,0,0.3,0,0,0,0,
6.38225E+17,32.32427,40.23389,43.09905,6.158805,32.42301,102.2565,47.92096,-0.8883717,-9.082087,-78.29288,-7.495606,14.50875,0,0,0,103.1532,12.11336,-5.330644,83.34011,-110.3957,-93.10179,0.001067912,-0.1257102,0.09433498,0,0.3,0,0,0,0,
6.38225E+17,32.37139,39.85984,43.21579,4.034696,32.86248,100.2788,47.92096,-0.8883717,-9.082087,-78.29288,-7.495606,14.43551,0,0,0,103.6933,11.63277,-4.775054,83.34011,-110.3957,-93.10179,0.001067912,-0.1257102,0.09433498,0,0.3,0,0,0,0,
6.38225E+17,32.44207,40.3274,43.86951,1.178134,33.3752,98.08149,47.92096,-0.8883717,-9.082087,-78.29288,-7.495606,14.50875,0,0,0,104.1106,13.51336,-4.563826,83.34011,-110.3957,-93.10179,0.001067912,-0.1257102,0.09433498,0,0.3,0,0,0,0,
6.38225E+17,32.44207,41.37942,44.94349,0.5921727,33.44844,97.34904,47.92096,-0.8883717,-9.082087,-78.29288,-7.495606,14.43551,0,0,0,104.2094,17.11435,-4.408489,83.34011,-110.3957,-93.10179,0.001067912,-0.1257102,0.09433498,0,0.3,0,0,0,0,
6.38225E+17,32.44207,42.54833,46.01746,2.057076,33.08222,98.15474,47.92096,-0.8883717,-9.082087,-78.29288,-7.495606,14.43551,0,0,0,104.1737,20.9194,-4.464633,83.34011,-110.3957,-93.10179,0.001067912,-0.1257102,0.09433498,0,0.3,0,0,0,0,
6.38225E+17,32.39495,43.62373,46.64783,4.547412,32.5695,99.91262,47.92096,-0.8883717,-9.082087,-78.29288,-7.495606,14.43551,0,0,0,103.6656,23.80855,-4.967267,83.34011,-110.3957,-93.10179,0.001067912,-0.1257102,0.09433498,0,0.3,0,0,0,0,
6.38225E+17,32.32427,43.9744,46.69453,5.865825,32.42301,100.7183,47.92096,-0.8883717,-9.082087,-78.29288,-7.495606,14.43551,0,0,0,103.2018,24.47668,-5.253842,83.34011,-110.3957,-93.10179,0.001067912,-0.1257102,0.09433498,0,0.3,0,0,0,0,
6.38225E+17,31.59391,43.95102,46.67118,8.209671,32.27652,101.7438,47.92096,-0.8883717,-9.082087,-78.29288,-7.422361,14.50875,0,0,0,101.1147,24.39799,-3.951178,83.34011,-110.3957,-93.10179,0.001067912,-0.1257102,0.09433498,0,0.3,0,0,0,0,
6.38225E+17,28.74315,42.38468,46.62449,8.209671,32.64275,98.7407,47.92096,-0.8883717,-9.082087,-78.29288,-7.422361,14.43551,0,0,0,93.97672,21.66019,2.995507,83.34011,-110.3957,-93.10179,0.001067912,-0.1257102,0.09433498,0,0.3,0,0,0,0,
6.38225E+17,27.09396,41.35604,46.62449,6.744767,33.00897,94.71221,47.92096,-0.8883717,-9.082087,-78.29288,-7.495606,14.50875,0,0,0,89.73424,19.87747,7.05171,83.34011,-110.3957,-93.10179,0.001067912,-0.1257102,0.09433498,0,0.3,0,0,0,0,
6.38225E+17,24.80864,39.7897,47.04474,2.057076,33.66818,86.21577,47.92096,-0.8883717,-9.082087,-78.29288,-7.495606,14.50875,0,0,0,83.94421,17.82191,13.24999,83.34011,-110.3957,-93.10179,0.001067912,-0.1257102,0.09433498,0,0.3,0,0,0,0,
6.38225E+17,23.51284,39.18187,47.69846,-2.044653,33.88792,78.01232,47.92096,-0.8883717,-9.082087,-78.29288,-7.422361,14.50875,0,0,0,80.586,17.84954,16.87158,83.34011,-110.3957,-93.10179,0.001067912,-0.1257102,0.09433498,0,0.3,0,0,0,0,
6.38225E+17,23.08876,39.67281,48.39888,-2.99684,33.22871,70.90753,47.92096,-0.8883717,-9.082087,-78.29288,-7.495606,14.50875,0,0,0,79.35564,19.94448,17.79788,83.34011,-110.3957,-93.10179,0.001067912,-0.1257102,0.09433498,0,0.3,0,0,0,0,
6.38225E+17,22.85316,40.14038,48.84248,-2.557369,32.64275,68.56369,47.92096,-0.8883717,-9.082087,-78.29288,-7.422361,14.50875,0,0,0,78.58347,21.55392,18.10819,83.34011,-110.3957,-93.10179,0.001067912,-0.1257102,0.09433498,0,0.3,0,0,0,0,
6.38225E+17,22.005,41.56644,49.4962,-0.5065048,31.17784,65.85361,47.92096,-0.8883717,-9.082087,-78.29288,-7.422361,14.50875,0,0,0,75.37406,25.21553,18.16046,83.34011,-110.3957,-93.10179,0.001067912,-0.1257102,0.09433498,0,0.3,0,0,0,0,
6.38225E+17,20.56785,43.55359,49.146,2.496547,28.76075,64.46196,47.92096,-0.8883717,-9.082087,-78.29288,-7.495606,14.50875,0,0,0,69.38703,28.00377,16.56624,83.34011,-110.3957,-93.10179,0.001067912,-0.1257102,0.09433498,0,0.3,0,0,0,0,
6.38225E+17,18.02337,45.09655,48.04868,5.646089,25.17174,62.04487,47.92096,-0.8883717,-9.082087,-78.29288,-7.422361,14.50875,0,0,0,59.81037,28.6571,15.47224,83.34011,-110.3957,-93.10179,0.001067912,-0.1257102,0.09433498,0,0.3,0,0,0,0,
6.38225E+17,16.35061,45.40047,47.95528,7.330729,22.75465,59.40804,47.92096,-0.8883717,-9.082087,-78.29288,-7.495606,14.43551,0,0,0,54.23658,28.99356,16.51827,83.34011,-110.3957,-93.10179,0.001067912,-0.1257102,0.09433498,0,0.3,0,0,0,0,
6.38225E+17,15.92653,45.28358,47.76851,8.282915,21.58273,57.7234,47.92096,-0.8883717,-9.082087,-78.29288,-7.495606,14.50875,0,0,0,52.83986,28.48,16.82027,83.34011,-110.3957,-93.10179,0.001067912,-0.1257102,0.09433498,0,0.3,0,0,0,0,
6.38225E+17,16.11501,44.60561,46.5311,10.26054,20.63054,54.72035,47.92096,-0.8883717,-9.082087,-78.29288,-7.495606,14.50875,0,0,0,53.21447,25.25184,15.83471,83.34011,-110.3957,-93.10179,0.001067912,-0.1257102,0.09433498,0,0.3,0,0,0,0,
6.38225E+17,16.42129,42.66522,43.65939,11.87193,22.0222,51.49756,47.92096,-0.8883717,-9.082087,-78.29288,-7.422361,14.50875,0,0,0,53.74556,17.25014,14.0115,83.34011,-110.3957,-93.10179,0.001067912,-0.1257102,0.09433498,0,0.3,0,0,0,0,
6.38225E+17,16.42129,41.16902,42.00173,12.16491,23.70683,49.66644,47.92096,-0.8883717,-9.082087,-78.29288,-7.495606,14.43551,0,0,0,53.60337,12.0363,13.52904,83.34011,-110.3957,-93.10179,0.001067912,-0.1257102,0.09433498,0,0.3,0,0,0,0,
6.38225E+17,16.18569,37.07783,39.59696,11.06623,28.76075,44.61252,47.92096,-0.8883717,-9.082087,-78.29288,-7.422361,14.43551,0,0,0,53.34853,0.9941784,15.44815,83.34011,-110.3957,-93.10179,0.001067912,-0.1257102,0.09433498,0,0.3,0,0,0,0,
6.38225E+17,15.31397,35.20757,40.25069,8.722386,33.66818,39.77834,47.92096,-0.8883717,-9.082087,-78.29288,-7.495606,14.43551,0,0,0,51.53227,-1.544365,19.83991,83.34011,-110.3957,-93.10179,0.001067912,-0.1257102,0.09433498,0,0.3,0,0,0,0,
6.38225E+17,14.79566,35.76865,40.5542,7.623709,35.35282,38.02045,47.92096,-0.8883717,-9.082087,-78.29288,-7.422361,14.50875,0,0,0,49.77153,-0.02324761,20.08553,83.34011,-110.3957,-93.10179,0.001067912,-0.1257102,0.09433498,0,0.3,0,0,0,0,
6.38225E+17,13.09934,38.57404,42.07177,6.158805,36.08527,35.60336,47.92096,-0.8883717,-9.082087,-78.29288,-7.495606,14.43551,0,0,0,43.87889,7.510597,20.21818,83.34011,-110.3957,-93.10179,0.001067912,-0.1257102,0.09433498,0,0.3,0,0,0,0,
6.38225E+17,11.3559,40.09362,43.65939,5.93907,34.69361,35.0174,47.92096,-0.8883717,-9.082087,-78.29288,-7.495606,14.50875,0,0,0,38.21345,12.75957,21.92329,83.34011,-110.3957,-93.10179,0.001067912,-0.1257102,0.09433498,0,0.3,0,0,0,0,
6.38225E+17,9.965863,40.79496,44.35981,6.012315,33.44844,35.60336,47.92096,-0.8883717,-9.082087,-78.29288,-7.495606,14.43551,0,0,0,33.60614,15.1344,22.90612,83.34011,-110.3957,-93.10179,0.001067912,-0.1257102,0.09433498,0,0.3,0,0,0,0,
6.38225E+17,6.643909,41.56644,44.61663,5.719335,30.73837,38.82615,47.92096,-0.8883717,-9.082087,-78.29288,-7.495606,14.50875,0,0,0,22.37958,16.90464,23.78136,83.34011,-110.3957,-93.10179,0.001067912,-0.1257102,0.09433498,0,0.3,0,0,0,0,
6.38225E+17,3.958073,41.28591,43.19244,4.254431,29.27347,43.36735,47.92096,-0.8883717,-9.082087,-78.29288,-7.495606,14.50875,0,0,0,13.21679,14.11657,22.66755,83.34011,-110.3957,-93.10179,0.001067912,-0.1257102,0.09433498,0,0.3,0,0,0,0,
6.38225E+17,3.227715,40.74821,42.18851,3.375489,29.20022,45.49146,47.92096,-0.8883717,-9.082087,-78.29288,-7.495606,14.50875,0,0,0,10.7304,11.5881,21.92582,83.34011,-110.3957,-93.10179,0.001067912,-0.1257102,0.09433498,0,0.3,0,0,0,0,
6.38225E+17,2.803635,39.08836,41.3947,2.423302,30.44539,49.08047,47.92096,-0.8883717,-9.082087,-78.29288,-7.495606,14.43551,0,0,0,9.37565,7.39412,23.10013,83.34011,-110.3957,-93.10179,0.001067912,-0.1257102,0.09433498,0,0.3,0,0,0,0,
6.38225E+17,2.756516,39.06498,42.18851,3.155754,31.76381,51.7173,47.92096,-0.8883717,-9.082087,-78.29288,-7.495606,14.43551,0,0,0,9.286092,8.583091,24.51788,83.34011,-110.3957,-93.10179,0.001067912,-0.1257102,0.09433498,0,0.3,0,0,0,0,
6.38225E+17,2.120397,40.58456,44.03294,4.327676,31.1046,53.9879,47.92096,-0.8883717,-9.082087,-78.21963,-7.495606,14.43551,0,0,0,7.176415,14.23277,25.47723,83.34011,-110.3957,-93.10179,0.001067912,-0.1257102,0.09433498,0,0.3,0,0,0,0,
6.38225E+17,1.319358,42.01063,45.62056,4.986883,29.12698,55.67254,47.92096,-0.8883717,-9.082087,-78.29288,-7.422361,14.43551,0,0,0,4.475854,19.33104,25.98867,83.34011,-110.3957,-93.10179,0.001067912,-0.1257102,0.09433498,0,0.3,0,0,0,0,
6.38225E+17,0.4005193,43.41333,46.88131,5.499599,26.05068,57.79665,47.92096,-0.8883717,-9.082087,-78.29288,-7.495606,14.50875,0,0,0,1.357555,23.84933,25.85009,83.34011,-110.3957,-93.10179,0.001067912,-0.1257102,0.09433498,0,0.3,0,0,0,0,
6.38225E+17,-0.5654391,44.37183,47.23152,5.865825,21.94895,60.7997,47.92096,-0.8883717,-9.082087,-78.29288,-7.495606,14.50875,0,0,0,-1.906749,26.05359,24.85409,83.34011,-110.3957,-93.10179,0.001067912,-0.1257102,0.09433498,0,0.3,0,0,0,0,
6.38225E+17,-0.9188384,44.34845,46.71788,6.012315,20.26431,62.26461,47.92096,-0.8883717,-9.082087,-78.29288,-7.495606,14.50875,0,0,0,-3.085915,25.14076,24.06112,83.34011,-110.3957,-93.10179,0.001067912,-0.1257102,0.09433498,0,0.3,0,0,0,0,
6.38225E+17,-1.437158,43.24968,41.60483,6.598277,19.16564,65.78037,47.92096,-0.8883717,-9.082087,-78.29288,-7.422361,14.50875,0,0,0,-4.656741,15.00719,17.26334,83.34011,-110.3957,-93.10179,0.001067912,-0.1257102,0.09433498,0,0.3,0,0,0,0,
6.38225E+17,-1.437158,42.31455,38.9199,7.257483,20.4108,66.65932,47.92096,-0.8883717,-9.082087,-78.29288,-7.495606,14.43551,0,0,0,-4.57423,9.371613,13.97454,83.34011,-110.3957,-93.10179,0.001067912,-0.1257102,0.09433498,0,0.3,0,0,0,0,
6.38225E+17,-1.437158,39.48579,34.99755,9.088613,24.80551,68.12422,47.92096,-0.8883717,-9.082087,-78.29288,-7.495606,14.50875,0,0,0,-4.499415,-1.091694,10.9925,83.34011,-110.3957,-93.10179,0.001067912,-0.1257102,0.09433498,0,0.3,0,0,0,0,
6.38225E+17,-1.437158,37.61553,34.15705,10.91974,29.93268,69.58913,47.92096,-0.8883717,-9.082087,-78.29288,-7.422361,14.50875,0,0,0,-4.527053,-5.605862,12.09411,83.34011,-110.3957,-93.10179,0.001067912,-0.1257102,0.09433498,0,0.3,0,0,0,0,
6.38225E+17,-1.437158,37.77918,34.1804,11.5057,31.98354,70.10184,47.92096,-0.8883717,-9.082087,-78.29288,-7.422361,14.43551,0,0,0,-4.522339,-5.273977,11.90623,83.34011,-110.3957,-93.10179,0.001067912,-0.1257102,0.09433498,0,0.3,0,0,0,0,
6.38225E+17,-1.413598,39.76632,35.06759,11.43246,34.25414,70.46806,47.92096,-0.8883717,-9.082087,-78.29288,-7.495606,14.50875,0,0,0,-4.41869,-0.4952198,10.71148,83.34011,-110.3957,-93.10179,0.001067912,-0.1257102,0.09433498,0,0.3,0,0,0,0,
6.38225E+17,-1.366478,42.33792,36.58516,10.55352,33.52169,69.80886,47.92096,-0.8883717,-9.082087,-78.29288,-7.422361,14.50875,0,0,0,-4.245989,6.085193,9.64861,83.34011,-110.3957,-93.10179,0.001067912,-0.1257102,0.09433498,0,0.3,0,0,0,0,
6.38225E+17,-1.390038,43.41333,37.21554,10.11404,32.34977,69.36938,47.92096,-0.8883717,-9.082087,-78.29288,-7.495606,14.50875,0,0,0,-4.306332,8.800255,9.117285,83.34011,-110.3957,-93.10179,0.001067912,-0.1257102,0.09433498,0,0.3,0,0,0,0,
6.38225E+17,-1.578517,44.65237,37.61245,9.821064,29.41996,68.92992,47.92096,-0.8883717,-9.082087,-78.29288,-7.495606,14.50875,0,0,0,-4.855099,11.4347,7.831974,83.34011,-110.3957,-93.10179,0.001067912,-0.1257102,0.09433498,0,0.3,0,0,0,0,
6.38225E+17,-2.403116,44.58223,36.63186,10.77325,26.27042,68.92992,47.92096,-0.8883717,-9.082087,-78.29288,-7.495606,14.50875,0,0,0,-7.31862,9.941179,6.040304,83.34011,-110.3957,-93.10179,0.001067912,-0.1257102,0.09433498,0,0.3,0,0,0,0,
6.38225E+17,-3.581114,43.88089,33.94693,11.94517,25.17174,69.8821,47.92096,-0.8883717,-9.082087,-78.29288,-7.495606,14.50875,0,0,0,-10.65483,5.161887,1.899178,83.34011,-110.3957,-93.10179,0.001067912,-0.1257102,0.09433498,0,0.3,0,0,0,0,
6.38225E+17,-4.664873,42.96914,31.65889,12.67763,25.24498,71.05402,47.92096,-0.8883717,-9.082087,-78.29288,-7.422361,14.50875,0,0,0,-13.62765,0.736029,-1.339855,83.34011,-110.3957,-93.10179,0.001067912,-0.1257102,0.09433498,0,0.3,0,0,0,0,
6.38225E+17,-6.761709,39.97673,27.61982,13.92279,26.92962,74.35006,47.92096,-0.8883717,-9.082087,-78.29288,-7.422361,14.43551,0,0,0,-19.31038,-9.129646,-5.482546,83.34011,-110.3957,-93.10179,0.001067912,-0.1257102,0.09433498,0,0.3,0,0,0,0,
6.38225E+17,-7.751227,36.98432,26.45245,15.24121,29.78619,78.23206,47.92096,-0.8883717,-9.082087,-78.29288,-7.422361,14.50875,0,0,0,-22.37818,-15.81595,-3.944594,83.34011,-110.3957,-93.10179,0.001067912,-0.1257102,0.09433498,0,0.3,0,0,0,0,
6.38225E+17,-7.798347,36.58689,26.68592,15.97366,31.1046,80.13642,47.92096,-0.8883717,-9.082087,-78.29288,-7.422361,14.43551,0,0,0,-22.65448,-16.31371,-2.932776,83.34011,-110.3957,-93.10179,0.001067912,-0.1257102,0.09433498,0,0.3,0,0,0,0,
6.38225E+17,-7.350708,38.17661,27.99337,16.8526,32.34977,82.11404,47.92096,-0.8883717,-9.082087,-78.29288,-7.495606,14.50875,0,0,0,-21.41987,-11.97634,-2.307819,83.34011,-110.3957,-93.10179,0.001067912,-0.1257102,0.09433498,0,0.3,0,0,0,0,
6.38225E+17,-6.502549,41.21577,30.67831,16.77936,31.61732,82.91974,47.92096,-0.8883717,-9.082087,-78.29288,-7.495606,14.43551,0,0,0,-19.06496,-3.473213,-1.085186,83.34011,-110.3957,-93.10179,0.001067912,-0.1257102,0.09433498,0,0.3,0,0,0,0,
6.38225E+17,-6.03135,44.09129,33.7368,15.90041,28.61426,82.48027,47.92096,-0.8883717,-9.082087,-78.29288,-7.495606,14.50875,0,0,0,-17.84511,5.241875,0.5458702,83.34011,-110.3957,-93.10179,0.001067912,-0.1257102,0.09433498,0,0.3,0,0,0,0,
6.38225E+17,-6.05491,45.65763,35.53454,14.94823,25.7577,81.74782,47.92096,-0.8883717,-9.082087,-78.29288,-7.495606,14.43551,0,0,0,-18.00637,10.20312,1.404068,83.34011,-110.3957,-93.10179,0.001067912,-0.1257102,0.09433498,0,0.3,0,0,0,0,
