zeyangz2/DNN_classification_different_people_hand/test/zeyang_right_20.csv
Timestamp,Therapist joint angle 0,Therapist joint angle 1,Therapist joint angle 2,Therapist joint angle 3,Therapist joint angle 4,Therapist joint angle 5,Patient joint angle 0,Patient joint angle 1,Patient joint angle 2,Patient joint angle 3,Patient joint angle 4,Patient joint angle 5,Virtual joint angle 0,Virtual joint angle 1,Virtual joint angle 2,Therapist position x,Therapist position y,Therapist position z,Patient position x,Patient position y,Patient position z,Virtual position x,Virtual position y,Virtual position z,Assistive Force, Obstacle Force Magnitude, Therapist Constant Force, Patient Constant Force, Recovery Factor, Assistance Level,label
6.38224E+17,0,0,0,0,0,0,0,0,0,0,0,0,0,0,0,0,0,0,0,0,0,0,0,0,0,0.3,0,0,0,0,0
6.38224E+17,-2.073277,-0.9818845,1.120669,21.97976,-63.45492,33.40601,-56.99155,-0.4675641,7.097569,-72.57975,-8.594284,-36.83611,0,0,0,-4.917929,-112.2596,-32.5005,-125.6394,-110.0664,-86.73244,0.001067912,-0.1257102,0.09433498,0,0.3,0,0,0,0,
6.38224E+17,-2.073277,-0.9818845,1.120669,21.97976,-63.38167,33.40601,-56.99155,-0.4675641,7.097569,-72.57975,-8.521038,-36.83611,0,0,0,-4.917929,-112.2596,-32.5005,-125.6394,-110.0664,-86.73244,0.001067912,-0.1257102,0.09433498,0,0.3,0,0,0,0,
6.38224E+17,-2.073277,-0.9818845,1.120669,21.97976,-63.45492,33.40601,-56.99155,-0.4675641,7.097569,-72.57975,-8.594284,-36.83611,0,0,0,-4.917929,-112.2596,-32.5005,-125.6394,-110.0664,-86.73244,0.001067912,-0.1257102,0.09433498,0,0.3,0,0,0,0,
6.38224E+17,-2.073277,-0.9818845,1.120669,21.97976,-63.38167,33.40601,-56.99155,-0.4675641,7.097569,-72.57975,-8.594284,-36.90935,0,0,0,-4.917929,-112.2596,-32.5005,-125.6394,-110.0664,-86.73244,0.001067912,-0.1257102,0.09433498,0,0.3,0,0,0,0,
6.38224E+17,-2.073277,-0.9818845,1.120669,21.90652,-63.45492,33.40601,-56.99155,-0.4675641,7.097569,-72.57975,-8.594284,-36.90935,0,0,0,-4.917929,-112.2596,-32.5005,-125.6394,-110.0664,-86.73244,0.001067912,-0.1257102,0.09433498,0,0.3,0,0,0,0,
6.38224E+17,-2.073277,-0.9818845,1.120669,21.97976,-63.45492,33.40601,-56.99155,-0.4675641,7.097569,-72.57975,-8.594284,-36.90935,0,0,0,-4.917929,-112.2596,-32.5005,-125.6394,-110.0664,-86.73244,0.001067912,-0.1257102,0.09433498,0,0.3,0,0,0,0,
6.38224E+17,-2.073277,-0.9818845,1.120669,21.90652,-63.38167,33.40601,-56.99155,-0.4675641,7.097569,-72.57975,-8.594284,-36.83611,0,0,0,-4.917929,-112.2596,-32.5005,-125.6394,-110.0664,-86.73244,0.001067912,-0.1257102,0.09433498,0,0.3,0,0,0,0,
6.38224E+17,-2.073277,-0.9818845,1.120669,21.90652,-63.45492,33.40601,-56.99155,-0.4675641,7.097569,-72.57975,-8.521038,-36.83611,0,0,0,-4.917929,-112.2596,-32.5005,-125.6394,-110.0664,-86.73244,0.001067912,-0.1257102,0.09433498,0,0.3,0,0,0,0,
6.38224E+17,-2.073277,-0.9818845,1.120669,21.97976,-63.38167,33.40601,-56.99155,-0.4675641,7.097569,-72.57975,-8.594284,-36.83611,0,0,0,-4.917929,-112.2596,-32.5005,-125.6394,-110.0664,-86.73244,0.001067912,-0.1257102,0.09433498,0,0.3,0,0,0,0,
6.38224E+17,-2.073277,-0.9818845,1.120669,21.90652,-63.45492,33.40601,-56.99155,-0.4675641,7.097569,-72.57975,-8.521038,-36.83611,0,0,0,-4.917929,-112.2596,-32.5005,-125.6394,-110.0664,-86.73244,0.001067912,-0.1257102,0.09433498,0,0.3,0,0,0,0,
6.38224E+17,-2.073277,-0.9818845,1.120669,21.97976,-63.38167,33.40601,-56.99155,-0.4675641,7.097569,-72.57975,-8.594284,-36.90935,0,0,0,-4.917929,-112.2596,-32.5005,-125.6394,-110.0664,-86.73244,0.001067912,-0.1257102,0.09433498,0,0.3,0,0,0,0,
6.38224E+17,-2.073277,-0.9818845,1.120669,21.97976,-63.45492,33.40601,-56.99155,-0.4675641,7.097569,-72.57975,-8.594284,-36.90935,0,0,0,-4.917929,-112.2596,-32.5005,-125.6394,-110.0664,-86.73244,0.001067912,-0.1257102,0.09433498,0,0.3,0,0,0,0,
6.38224E+17,-2.073277,-0.9818845,1.120669,21.97976,-63.38167,33.40601,-56.99155,-0.4675641,7.097569,-72.57975,-8.594284,-36.83611,0,0,0,-4.917929,-112.2596,-32.5005,-125.6394,-110.0664,-86.73244,0.001067912,-0.1257102,0.09433498,0,0.3,0,0,0,0,
6.38224E+17,-2.073277,-0.9818845,1.120669,21.97976,-63.45492,33.40601,-56.99155,-0.4675641,7.097569,-72.5065,-8.594284,-36.83611,0,0,0,-4.917929,-112.2596,-32.5005,-125.6394,-110.0664,-86.73244,0.001067912,-0.1257102,0.09433498,0,0.3,0,0,0,0,
6.38224E+17,-2.073277,-0.9818845,1.120669,21.97976,-63.45492,33.40601,-56.99155,-0.4675641,7.097569,-72.57975,-8.594284,-36.90935,0,0,0,-4.917929,-112.2596,-32.5005,-125.6394,-110.0664,-86.73244,0.001067912,-0.1257102,0.09433498,0,0.3,0,0,0,0,
6.38224E+17,-2.073277,-0.9818845,1.120669,21.90652,-63.45492,33.40601,-56.99155,-0.4675641,7.097569,-72.5065,-8.594284,-36.83611,0,0,0,-4.917929,-112.2596,-32.5005,-125.6394,-110.0664,-86.73244,0.001067912,-0.1257102,0.09433498,0,0.3,0,0,0,0,
6.38224E+17,-2.073277,-0.9818845,1.120669,21.90652,-63.45492,33.40601,-56.99155,-0.4675641,7.097569,-72.57975,-8.594284,-36.83611,0,0,0,-4.917929,-112.2596,-32.5005,-125.6394,-110.0664,-86.73244,0.001067912,-0.1257102,0.09433498,0,0.3,0,0,0,0,
6.38224E+17,-2.073277,-0.9818845,1.120669,21.90652,-63.45492,33.40601,-56.99155,-0.4675641,7.097569,-72.57975,-8.594284,-36.83611,0,0,0,-4.917929,-112.2596,-32.5005,-125.6394,-110.0664,-86.73244,0.001067912,-0.1257102,0.09433498,0,0.3,0,0,0,0,
6.38224E+17,-2.073277,-0.9818845,1.120669,21.90652,-63.38167,33.40601,-56.99155,-0.4675641,7.097569,-72.57975,-8.594284,-36.83611,0,0,0,-4.917929,-112.2596,-32.5005,-125.6394,-110.0664,-86.73244,0.001067912,-0.1257102,0.09433498,0,0.3,0,0,0,0,
6.38224E+17,-2.073277,-0.9818845,1.120669,21.90652,-63.38167,33.40601,-56.99155,-0.4675641,7.097569,-72.5065,-8.521038,-36.83611,0,0,0,-4.917929,-112.2596,-32.5005,-125.6394,-110.0664,-86.73244,0.001067912,-0.1257102,0.09433498,0,0.3,0,0,0,0,
6.38224E+17,-2.073277,-0.9818845,1.120669,21.90652,-63.45492,33.40601,-56.99155,-0.4675641,7.097569,-72.57975,-8.594284,-36.90935,0,0,0,-4.917929,-112.2596,-32.5005,-125.6394,-110.0664,-86.73244,0.001067912,-0.1257102,0.09433498,0,0.3,0,0,0,0,
6.38224E+17,-2.073277,-0.9818845,1.120669,21.97976,-63.38167,33.40601,-56.99155,-0.4675641,7.097569,-72.57975,-8.594284,-36.90935,0,0,0,-4.917929,-112.2596,-32.5005,-125.6394,-110.0664,-86.73244,0.001067912,-0.1257102,0.09433498,0,0.3,0,0,0,0,
6.38224E+17,-2.073277,-0.9818845,1.120669,21.97976,-63.45492,33.40601,-56.99155,-0.4675641,7.097569,-72.57975,-8.594284,-36.90935,0,0,0,-4.917929,-112.2596,-32.5005,-125.6394,-110.0664,-86.73244,0.001067912,-0.1257102,0.09433498,0,0.3,0,0,0,0,
6.38224E+17,-2.073277,-0.9818845,1.120669,21.97976,-63.38167,33.40601,-56.99155,-0.4675641,7.097569,-72.57975,-8.594284,-36.83611,0,0,0,-4.917929,-112.2596,-32.5005,-125.6394,-110.0664,-86.73244,0.001067912,-0.1257102,0.09433498,0,0.3,0,0,0,0,
6.38224E+17,-2.073277,-0.9818845,1.120669,21.97976,-63.45492,33.40601,-56.99155,-0.4675641,7.097569,-72.57975,-8.594284,-36.83611,0,0,0,-4.917929,-112.2596,-32.5005,-125.6394,-110.0664,-86.73244,0.001067912,-0.1257102,0.09433498,0,0.3,0,0,0,0,
6.38224E+17,-2.073277,-0.9818845,1.120669,21.90652,-63.38167,33.40601,-56.99155,-0.4675641,7.097569,-72.57975,-8.594284,-36.83611,0,0,0,-4.917929,-112.2596,-32.5005,-125.6394,-110.0664,-86.73244,0.001067912,-0.1257102,0.09433498,0,0.3,0,0,0,0,
6.38224E+17,-2.073277,-0.9818845,1.120669,21.90652,-63.38167,33.40601,-56.99155,-0.4675641,7.097569,-72.57975,-8.521038,-36.83611,0,0,0,-4.917929,-112.2596,-32.5005,-125.6394,-110.0664,-86.73244,0.001067912,-0.1257102,0.09433498,0,0.3,0,0,0,0,
6.38224E+17,-2.073277,-0.9818845,1.120669,21.90652,-63.38167,33.40601,-56.99155,-0.4675641,7.097569,-72.57975,-8.594284,-36.83611,0,0,0,-4.917929,-112.2596,-32.5005,-125.6394,-110.0664,-86.73244,0.001067912,-0.1257102,0.09433498,0,0.3,0,0,0,0,
6.38224E+17,-2.073277,-0.9818845,1.120669,21.97976,-63.38167,33.40601,-56.99155,-0.4675641,7.097569,-72.57975,-8.521038,-36.83611,0,0,0,-4.917929,-112.2596,-32.5005,-125.6394,-110.0664,-86.73244,0.001067912,-0.1257102,0.09433498,0,0.3,0,0,0,0,
6.38224E+17,-2.073277,-0.9818845,1.120669,21.90652,-63.38167,33.40601,-56.99155,-0.4675641,7.097569,-72.57975,-8.594284,-36.90935,0,0,0,-4.917929,-112.2596,-32.5005,-125.6394,-110.0664,-86.73244,0.001067912,-0.1257102,0.09433498,0,0.3,0,0,0,0,
6.38224E+17,-2.073277,-0.9818845,1.120669,21.97976,-63.38167,33.40601,-56.99155,-0.4675641,7.097569,-72.5065,-8.521038,-36.83611,0,0,0,-4.917929,-112.2596,-32.5005,-125.6394,-110.0664,-86.73244,0.001067912,-0.1257102,0.09433498,0,0.3,0,0,0,0,
6.38224E+17,-2.073277,-0.9818845,1.120669,21.90652,-63.45492,33.40601,-56.99155,-0.4675641,7.097569,-72.57975,-8.594284,-36.90935,0,0,0,-4.917929,-112.2596,-32.5005,-125.6394,-110.0664,-86.73244,0.001067912,-0.1257102,0.09433498,0,0.3,0,0,0,0,
6.38224E+17,-2.073277,-0.9818845,1.120669,21.97976,-63.45492,33.40601,-56.99155,-0.4675641,7.097569,-72.57975,-8.521038,-36.90935,0,0,0,-4.917929,-112.2596,-32.5005,-125.6394,-110.0664,-86.73244,0.001067912,-0.1257102,0.09433498,0,0.3,0,0,0,0,
6.38224E+17,-2.073277,-0.9818845,1.120669,21.97976,-63.45492,33.40601,-56.99155,-0.4675641,7.097569,-72.57975,-8.594284,-36.90935,0,0,0,-4.917929,-112.2596,-32.5005,-125.6394,-110.0664,-86.73244,0.001067912,-0.1257102,0.09433498,0,0.3,0,0,0,0,
6.38224E+17,-2.073277,-0.9818845,1.120669,21.97976,-63.45492,33.40601,-56.99155,-0.4675641,7.097569,-72.57975,-8.594284,-36.83611,0,0,0,-4.917929,-112.2596,-32.5005,-125.6394,-110.0664,-86.73244,0.001067912,-0.1257102,0.09433498,0,0.3,0,0,0,0,
6.38224E+17,-2.073277,-0.9818845,1.120669,21.90652,-63.38167,33.40601,-56.99155,-0.4675641,7.097569,-72.57975,-8.594284,-36.83611,0,0,0,-4.917929,-112.2596,-32.5005,-125.6394,-110.0664,-86.73244,0.001067912,-0.1257102,0.09433498,0,0.3,0,0,0,0,
6.38224E+17,-2.073277,-0.9818845,1.120669,21.97976,-63.38167,33.40601,-56.99155,-0.4675641,7.097569,-72.57975,-8.594284,-36.90935,0,0,0,-4.917929,-112.2596,-32.5005,-125.6394,-110.0664,-86.73244,0.001067912,-0.1257102,0.09433498,0,0.3,0,0,0,0,
6.38224E+17,-2.073277,-0.9818845,1.120669,21.90652,-63.38167,33.40601,-56.99155,-0.4675641,7.097569,-72.57975,-8.594284,-36.90935,0,0,0,-4.917929,-112.2596,-32.5005,-125.6394,-110.0664,-86.73244,0.001067912,-0.1257102,0.09433498,0,0.3,0,0,0,0,
6.38224E+17,-2.073277,-0.9818845,1.120669,21.97976,-63.38167,33.40601,-56.99155,-0.4675641,7.097569,-72.57975,-8.521038,-36.90935,0,0,0,-4.917929,-112.2596,-32.5005,-125.6394,-110.0664,-86.73244,0.001067912,-0.1257102,0.09433498,0,0.3,0,0,0,0,
6.38224E+17,-2.073277,-0.9818845,1.120669,21.97976,-63.45492,33.40601,-56.99155,-0.4675641,7.097569,-72.57975,-8.521038,-36.83611,0,0,0,-4.917929,-112.2596,-32.5005,-125.6394,-110.0664,-86.73244,0.001067912,-0.1257102,0.09433498,0,0.3,0,0,0,0,
6.38224E+17,-2.073277,-0.9818845,1.120669,21.97976,-63.38167,33.40601,-56.99155,-0.4675641,7.097569,-72.57975,-8.594284,-36.90935,0,0,0,-4.917929,-112.2596,-32.5005,-125.6394,-110.0664,-86.73244,0.001067912,-0.1257102,0.09433498,0,0.3,0,0,0,0,
6.38224E+17,-2.073277,-0.9818845,1.120669,21.97976,-63.45492,33.40601,-56.99155,-0.4675641,7.097569,-72.57975,-8.594284,-36.90935,0,0,0,-4.917929,-112.2596,-32.5005,-125.6394,-110.0664,-86.73244,0.001067912,-0.1257102,0.09433498,0,0.3,0,0,0,0,
6.38224E+17,-2.073277,-0.9818845,1.120669,21.90652,-63.45492,33.40601,-56.99155,-0.4675641,7.097569,-72.57975,-8.594284,-36.90935,0,0,0,-4.917929,-112.2596,-32.5005,-125.6394,-110.0664,-86.73244,0.001067912,-0.1257102,0.09433498,0,0.3,0,0,0,0,
6.38224E+17,-2.073277,-0.9818845,1.120669,21.97976,-63.45492,33.40601,-56.99155,-0.4675641,7.097569,-72.57975,-8.594284,-36.90935,0,0,0,-4.917929,-112.2596,-32.5005,-125.6394,-110.0664,-86.73244,0.001067912,-0.1257102,0.09433498,0,0.3,0,0,0,0,
6.38224E+17,-1.979037,-0.9818845,1.354141,21.76003,-63.38167,33.11303,-56.99155,-0.4675641,7.097569,-72.57975,-8.594284,-36.83611,0,0,0,-4.713239,-112.2479,-31.94966,-125.6394,-110.0664,-86.73244,0.001067912,-0.1257102,0.09433498,0,0.3,0,0,0,0,
6.38224E+17,-1.437158,-0.9585064,1.424183,13.33683,-63.01544,34.43144,-56.99155,-0.4675641,7.097569,-72.57975,-8.594284,-36.83611,0,0,0,-3.427141,-112.1895,-31.74734,-125.6394,-110.0664,-86.73244,0.001067912,-0.1257102,0.09433498,0,0.3,0,0,0,0,
6.38224E+17,-1.931917,-0.7948589,1.354141,-3.216576,-60.23213,36.84853,-56.99155,-0.4675641,7.097569,-72.57975,-8.521038,-36.83611,0,0,0,-4.601289,-111.8127,-31.93908,-125.6394,-110.0664,-86.73244,0.001067912,-0.1257102,0.09433498,0,0.3,0,0,0,0,
6.38224E+17,-2.403116,-0.4675641,1.190711,-10.90732,-58.10802,37.58098,-56.99155,-0.4675641,7.097569,-72.57975,-8.594284,-36.83611,0,0,0,-5.707368,-111.0594,-32.35309,-125.6394,-110.0664,-86.73244,0.001067912,-0.1257102,0.09433498,0,0.3,0,0,0,0,
6.38224E+17,-3.416194,0.350673,0.2334726,-22.04058,-52.76112,38.67966,-56.99155,-0.4675641,7.097569,-72.57975,-8.521038,-36.90935,0,0,0,-7.978359,-109.1827,-34.69704,-125.6394,-110.0664,-86.73244,0.001067912,-0.1257102,0.09433498,0,0.3,0,0,0.000115166,0,
6.38224E+17,-4.405713,0.4675641,-1.120669,-27.97344,-45.36336,38.97264,-56.99155,-0.4675641,7.097569,-72.57975,-8.594284,-36.83611,0,0,0,-10.04305,-108.8863,-37.99883,-125.6394,-110.0664,-86.73244,0.001067912,-0.1257102,0.09433498,0,0.3,0,0,0.001197771,0,
6.38224E+17,-4.876912,0.3740513,-1.681003,-30.53703,-37.1599,39.19238,-56.99155,-0.4675641,7.097569,-72.57975,-8.521038,-36.83611,0,0,0,-11.004,-109.0721,-39.38324,-125.6394,-110.0664,-86.73244,0.001067912,-0.1257102,0.09433498,0,0.3,0,0,0.002582988,0,
6.38224E+17,-4.876912,0.3740513,-1.681003,-31.04974,-33.2779,39.26562,-56.99155,-0.4675641,7.097569,-72.57975,-8.594284,-36.90935,0,0,0,-11.004,-109.0721,-39.38324,-125.6394,-110.0664,-86.73244,0.001067912,-0.1257102,0.09433498,0,0.3,0,0,0.00326868,0,
6.38224E+17,-4.806232,0.3272949,-1.610961,-31.04974,-25.66041,40.73053,-56.99155,-0.4675641,7.097569,-72.5065,-8.521038,-36.83611,0,0,0,-10.85861,-109.1856,-39.20673,-125.6394,-110.0664,-86.73244,0.001067912,-0.1257102,0.09433498,0,0.3,0,0,0.004573086,0,
6.38224E+17,-4.617752,0.3272949,-1.377489,-30.61027,-19.28808,43.22086,-56.99155,-0.4675641,7.097569,-72.57975,-8.594284,-36.83611,0,0,0,-10.47745,-109.1997,-38.63027,-125.6394,-110.0664,-86.73244,0.001067912,-0.1257102,0.09433498,0,0.3,0,0,0.005736618,0,
6.38224E+17,-4.547072,0.350673,-1.44753,-30.53703,-16.94423,44.0998,-56.99155,-0.4675641,7.097569,-72.57975,-8.594284,-36.83611,0,0,0,-10.30448,-109.1413,-38.78022,-125.6394,-110.0664,-86.73244,0.001067912,-0.1257102,0.09433498,0,0.3,0,0,0.006280283,0,
6.38224E+17,-4.547072,0.350673,-1.79774,-30.61027,-13.06224,44.97874,-56.99155,-0.4675641,7.097569,-72.57975,-8.594284,-36.83611,0,0,0,-10.23989,-109.1182,-39.5924,-125.6394,-110.0664,-86.73244,0.001067912,-0.1257102,0.09433498,0,0.3,0,0,0.007359891,0,
6.38224E+17,-4.547072,0.350673,-2.638241,-30.68352,-9.839451,44.46603,-56.99155,-0.4675641,7.097569,-72.57975,-8.594284,-36.83611,0,0,0,-10.08492,-109.0425,-41.54095,-125.6394,-110.0664,-86.73244,0.001067912,-0.1257102,0.09433498,0,0.3,0,0,0.008474429,0,
6.38224E+17,-4.547072,0.2805384,-3.782257,-30.39053,-7.27587,41.24324,-56.99155,-0.4675641,7.097569,-72.57975,-8.594284,-36.90935,0,0,0,-9.874246,-109.0566,-44.19004,-125.6394,-110.0664,-86.73244,0.001067912,-0.1257102,0.09433498,0,0.3,0,0,0.009652025,0,
6.38224E+17,-4.547072,0.2805384,-4.085772,-30.1708,-6.177193,39.26562,-56.99155,-0.4675641,7.097569,-72.57975,-8.521038,-36.83611,0,0,0,-9.818376,-109.0082,-44.89256,-125.6394,-110.0664,-86.73244,0.001067912,-0.1257102,0.09433498,0,0.3,0,0,0.01025137,0,
6.38224E+17,-4.547072,0.3272949,-4.459328,-29.58484,-3.467122,33.40601,-56.99155,-0.4675641,7.097569,-72.5065,-8.521038,-36.90935,0,0,0,-9.749596,-108.8346,-45.7574,-125.6394,-110.0664,-86.73244,0.001067912,-0.1257102,0.09433498,0,0.3,0,0,0.01144084,0,
6.38224E+17,-4.547072,1.005263,-4.576064,-28.63265,-0.7570504,25.78851,-56.99155,-0.4675641,7.097569,-72.57975,-8.594284,-36.90935,0,0,0,-9.726668,-107.2354,-46.04568,-125.6394,-110.0664,-86.73244,0.001067912,-0.1257102,0.09433498,0,0.3,0,0,0.01259873,0,
6.38224E+17,-4.547072,2.361199,-4.576064,-27.31424,1.66004,17.29207,-56.99155,-0.4675641,7.097569,-72.57975,-8.521038,-36.83611,0,0,0,-9.71932,-104.081,-46.13809,-125.6394,-110.0664,-86.73244,0.001067912,-0.1257102,0.09433498,0,0.3,0,0,0.01370369,0,
6.38224E+17,-4.547072,2.922275,-4.576064,-26.58179,2.978453,13.33683,-56.99155,-0.4675641,7.097569,-72.57975,-8.594284,-36.83611,0,0,0,-9.714548,-102.7766,-46.19809,-125.6394,-110.0664,-86.73244,0.001067912,-0.1257102,0.09433498,0,0.3,0,0,0.01423503,0,
6.38224E+17,-4.405713,3.085923,-4.225855,-25.11688,5.90826,6.964502,-56.99155,-0.4675641,7.097569,-72.57975,-8.594284,-36.90935,0,0,0,-9.474042,-102.4588,-45.38412,-125.6394,-110.0664,-86.73244,0.001067912,-0.1257102,0.09433498,0,0.3,0,0,0.01521987,0,
6.38224E+17,-4.099433,3.109301,-3.595479,-23.65198,9.424027,1.837341,-56.99155,-0.4675641,7.097569,-72.57975,-8.594284,-36.83611,0,0,0,-8.921012,-102.5045,-43.8782,-125.6394,-110.0664,-86.73244,0.001067912,-0.1257102,0.09433498,0,0.3,0,0,0.01604321,0,
6.38224E+17,-3.981634,3.109301,-3.291965,-22.84628,11.03542,0.3724372,-56.99155,-0.4675641,7.097569,-72.57975,-8.594284,-36.83611,0,0,0,-8.714041,-102.5469,-43.1567,-125.6394,-110.0664,-86.73244,0.001067912,-0.1257102,0.09433498,0,0.3,0,0,0.01639608,0,
6.38224E+17,-3.910954,3.085923,-2.521505,-21.60111,14.47795,0.5921727,-56.99155,-0.4675641,7.097569,-72.57975,-8.521038,-36.83611,0,0,0,-8.681944,-102.6922,-41.35644,-125.6394,-110.0664,-86.73244,0.001067912,-0.1257102,0.09433498,0,0.3,0,0,0.01699566,0,
6.38224E+17,-3.910954,3.062545,-2.124601,-20.94191,16.82179,1.69085,-56.99155,-0.4675641,7.097569,-72.57975,-8.521038,-36.90935,0,0,0,-8.745096,-102.784,-40.43269,-125.6394,-110.0664,-86.73244,0.001067912,-0.1257102,0.09433498,0,0.3,0,0,0.01754521,0,
6.38224E+17,-3.910954,3.039166,-2.124601,-20.57568,17.70073,2.130321,-56.99155,-0.4675641,7.097569,-72.57975,-8.521038,-36.90935,0,0,0,-8.745294,-102.8383,-40.4298,-125.6394,-110.0664,-86.73244,0.001067912,-0.1257102,0.09433498,0,0.3,0,0,0.01781001,0,
6.38224E+17,-3.910954,2.688493,-2.428116,-19.69674,18.65292,4.400921,-56.99155,-0.4675641,7.097569,-72.57975,-8.594284,-36.83611,0,0,0,-8.699932,-103.6254,-41.09331,-125.6394,-110.0664,-86.73244,0.001067912,-0.1257102,0.09433498,0,0.3,0,0,0.01834756,0,
6.38224E+17,-3.910954,2.33782,-2.801672,-18.15859,19.23888,11.21272,-56.99155,-0.4675641,7.097569,-72.57975,-8.594284,-36.90935,0,0,0,-8.643136,-104.4011,-41.92409,-125.6394,-110.0664,-86.73244,0.001067912,-0.1257102,0.09433498,0,0.3,0,0,0.01890149,0,
6.38224E+17,-3.910954,1.800122,-4.249202,-16.10773,19.7516,21.90652,-56.99155,-0.4675641,7.097569,-72.57975,-8.594284,-36.83611,0,0,0,-8.416874,-105.4445,-45.2337,-125.6394,-110.0664,-86.73244,0.001067912,-0.1257102,0.09433498,0,0.3,0,0,0.01953162,0,
6.38224E+17,-3.910954,1.472827,-5.159746,-15.00905,20.04458,27.03368,-56.99155,-0.4675641,7.097569,-72.57975,-8.594284,-36.90935,0,0,0,-8.274304,-106.0322,-47.31911,-125.6394,-110.0664,-86.73244,0.001067912,-0.1257102,0.09433498,0,0.3,0,0,0.01989129,0,
6.38224E+17,-3.910954,0.7013461,-6.116984,-12.6652,20.77703,35.16389,-56.99155,-0.4675641,7.097569,-72.57975,-8.594284,-36.83611,0,0,0,-8.12541,-107.6085,-49.49703,-125.6394,-110.0664,-86.73244,0.001067912,-0.1257102,0.09433498,0,0.3,0,0,0.02065019,0,
6.38224E+17,-3.910954,-0.07013461,-7.190958,-11.05381,21.50948,40.29105,-56.99155,-0.4675641,7.097569,-72.57975,-8.594284,-36.90935,0,0,0,-7.95675,-109.1144,-51.96407,-125.6394,-110.0664,-86.73244,0.001067912,-0.1257102,0.09433498,0,0.3,0,0,0.02144897,0,
6.38224E+17,-3.910954,-0.3272949,-7.751292,-10.46785,21.87571,42.34192,-56.99155,-0.4675641,7.097569,-72.57975,-8.521038,-36.83611,0,0,0,-7.868415,-109.5433,-53.25618,-125.6394,-110.0664,-86.73244,0.001067912,-0.1257102,0.09433498,0,0.3,0,0,0.02186387,0,
6.38224E+17,-3.910954,-0.4909423,-8.264932,-10.17487,22.38842,45.27173,-56.99155,-0.4675641,7.097569,-72.57975,-8.594284,-36.90935,0,0,0,-7.787489,-109.7576,-54.43991,-125.6394,-110.0664,-86.73244,0.001067912,-0.1257102,0.09433498,0,0.3,0,0,0.022697,0,
6.38224E+17,-3.910954,-0.6312115,-8.615141,-10.68758,22.38842,46.80988,-56.99155,-0.4675641,7.097569,-72.57975,-8.594284,-36.90935,0,0,0,-7.73228,-109.9644,-55.24747,-125.6394,-110.0664,-86.73244,0.001067912,-0.1257102,0.09433498,0,0.3,0,0,0.02352484,0,
6.38224E+17,-3.934513,-0.9117499,-8.942002,-11.63977,22.24193,47.54232,-56.99155,-0.4675641,7.097569,-72.57975,-8.594284,-36.83611,0,0,0,-7.726596,-110.5012,-56.00949,-125.6394,-110.0664,-86.73244,0.001067912,-0.1257102,0.09433498,0,0.3,0,0,0.02434587,0,
6.38224E+17,-3.934513,-0.9818845,-9.22217,-12.22573,22.24193,47.68882,-56.99155,-0.4675641,7.097569,-72.57975,-8.594284,-36.83611,0,0,0,-7.68223,-110.5615,-56.65454,-125.6394,-110.0664,-86.73244,0.001067912,-0.1257102,0.09433498,0,0.3,0,0,0.02475731,0,
6.38224E+17,-4.099433,-0.9585064,-9.408949,-13.25116,22.0222,45.63795,-56.99155,-0.4675641,7.097569,-72.57975,-8.594284,-36.83611,0,0,0,-7.973101,-110.4367,-57.10408,-125.6394,-110.0664,-86.73244,0.001067912,-0.1257102,0.09433498,0,0.3,0,0,0.02559287,0,
6.38224E+17,-4.217233,-0.8649935,-9.105433,-14.2766,21.87571,42.48841,-56.99155,-0.4675641,7.097569,-72.57975,-8.594284,-36.90935,0,0,0,-8.25333,-110.3327,-56.42194,-125.6394,-110.0664,-86.73244,0.001067912,-0.1257102,0.09433498,0,0.3,0,0,0.02643119,0,
6.38224E+17,-4.217233,-0.7481025,-8.685184,-14.78931,21.65597,41.09675,-56.99155,-0.4675641,7.097569,-72.57975,-8.594284,-36.83611,0,0,0,-8.324674,-110.212,-55.45441,-125.6394,-110.0664,-86.73244,0.001067912,-0.1257102,0.09433498,0,0.3,0,0,0.02683041,0,
6.38224E+17,-4.193673,-0.4441859,-7.517819,-15.30203,20.99677,39.5586,-56.99155,-0.4675641,7.097569,-72.57975,-8.521038,-36.83611,0,0,0,-8.475485,-109.8875,-52.7611,-125.6394,-110.0664,-86.73244,0.001067912,-0.1257102,0.09433498,0,0.3,0,0,0.02756798,0,
6.38224E+17,-4.099433,-0.3974294,-6.327109,-15.52176,20.11782,39.04589,-56.99155,-0.4675641,7.097569,-72.57975,-8.594284,-36.90935,0,0,0,-8.482073,-110.1127,-50.00256,-125.6394,-110.0664,-86.73244,0.001067912,-0.1257102,0.09433498,0,0.3,0,0,0.0282094,0,
6.38224E+17,-3.816714,-0.3974294,-5.393219,-15.7415,18.65292,39.92483,-56.99155,-0.4675641,7.097569,-72.57975,-8.521038,-36.90935,0,0,0,-8.041924,-110.3346,-47.80479,-125.6394,-110.0664,-86.73244,0.001067912,-0.1257102,0.09433498,0,0.3,0,0,0.02872909,0,
6.38224E+17,-3.722474,-0.3974294,-5.019662,-15.7415,17.84722,41.24324,-56.99155,-0.4675641,7.097569,-72.57975,-8.521038,-36.83611,0,0,0,-7.899853,-110.4135,-46.92773,-125.6394,-110.0664,-86.73244,0.001067912,-0.1257102,0.09433498,0,0.3,0,0,0.02894708,0,
6.38224E+17,-3.510434,-0.3974294,-4.109118,-15.00905,16.38232,44.68576,-56.99155,-0.4675641,7.097569,-72.57975,-8.594284,-36.83611,0,0,0,-7.579788,-110.5822,-44.79084,-125.6394,-110.0664,-86.73244,0.001067912,-0.1257102,0.09433498,0,0.3,0,0,0.02930042,0,
6.38224E+17,-3.298395,-0.4208077,-2.684936,-14.05686,15.06391,47.61557,-56.99155,-0.4675641,7.097569,-72.57975,-8.594284,-36.90935,0,0,0,-7.312819,-110.833,-41.46077,-125.6394,-110.0664,-86.73244,0.001067912,-0.1257102,0.09433498,0,0.3,0,0,0.02951461,0,
6.38224E+17,-3.204155,-0.4208077,-1.891129,-13.54414,14.4047,49.00723,-56.99155,-0.4675641,7.097569,-72.57975,-8.521038,-36.90935,0,0,0,-7.207284,-110.9067,-39.60578,-125.6394,-110.0664,-86.73244,0.001067912,-0.1257102,0.09433498,0,0.3,0,0,0.02956338,0,
6.38224E+17,-2.968555,-0.3740513,-0.4902926,-12.59196,13.37927,52.30326,-56.99155,-0.4675641,7.097569,-72.57975,-8.594284,-36.90935,0,0,0,-6.846673,-110.8657,-36.32134,-125.6394,-110.0664,-86.73244,0.001067912,-0.1257102,0.09433498,0,0.3,0,0,0.02954216,0,
6.38224E+17,-2.638716,0.07013461,0.8638488,-11.63977,12.35384,55.89228,-56.99155,-0.4675641,7.097569,-72.57975,-8.594284,-36.83611,0,0,0,-6.231719,-109.8216,-33.13318,-125.6394,-110.0664,-86.73244,0.001067912,-0.1257102,0.09433498,0,0.3,0,0,0.0293523,0,
6.38224E+17,-2.403116,0.3974294,1.424183,-11.27355,11.69463,57.35718,-56.99155,-0.4675641,7.097569,-72.57975,-8.594284,-36.83611,0,0,0,-5.730198,-109.0338,-31.8091,-125.6394,-110.0664,-86.73244,0.001067912,-0.1257102,0.09433498,0,0.3,0,0,0.02918894,0,
6.38224E+17,-1.955477,1.075397,2.21799,-10.54109,10.44946,59.62778,-56.99155,-0.4675641,7.097569,-72.57975,-8.521038,-36.83611,0,0,0,-4.725588,-107.3974,-29.94328,-125.6394,-110.0664,-86.73244,0.001067912,-0.1257102,0.09433498,0,0.3,0,0,0.02874361,0,
6.38224E+17,-1.484278,1.846878,2.778325,-9.955132,9.204292,60.7997,-56.99155,-0.4675641,7.097569,-72.57975,-8.594284,-36.83611,0,0,0,-3.619749,-105.5456,-28.65243,-125.6394,-110.0664,-86.73244,0.001067912,-0.1257102,0.09433498,0,0.3,0,0,0.0281536,0,
6.38224E+17,-0.8952785,2.384577,2.918408,-9.588906,8.398596,61.31242,-56.99155,-0.4675641,7.097569,-72.57975,-8.521038,-36.83611,0,0,0,-2.187862,-104.2788,-28.34321,-125.6394,-110.0664,-86.73244,0.001067912,-0.1257102,0.09433498,0,0.3,0,0,0.02744486,0,
6.38224E+17,-0.4711992,2.571602,2.941756,-9.36917,8.105616,61.45891,-56.99155,-0.4675641,7.097569,-72.57975,-8.594284,-36.90935,0,0,0,-1.151832,-103.8411,-28.2954,-125.6394,-110.0664,-86.73244,0.001067912,-0.1257102,0.09433498,0,0.3,0,0,0.02703584,0,
6.38224E+17,0.5183191,3.015788,2.941756,-8.856454,7.666144,61.38566,-56.99155,-0.4675641,7.097569,-72.57975,-8.594284,-36.83611,0,0,0,1.266556,-102.8086,-28.34678,-125.6394,-110.0664,-86.73244,0.001067912,-0.1257102,0.09433498,0,0.3,0,0,0.02608431,0,
6.38224E+17,1.507838,3.38984,2.895061,-8.270493,7.299919,60.87295,-56.99155,-0.4675641,7.097569,-72.5065,-8.521038,-36.83611,0,0,0,3.680016,-101.9449,-28.54666,-125.6394,-110.0664,-86.73244,0.001067912,-0.1257102,0.09433498,0,0.3,0,0,0.02496066,0,
6.38224E+17,2.002597,3.483352,2.825019,-8.050756,7.299919,60.57997,-56.99155,-0.4675641,7.097569,-72.57975,-8.521038,-36.83611,0,0,0,4.880945,-101.7358,-28.7594,-125.6394,-110.0664,-86.73244,0.001067912,-0.1257102,0.09433498,0,0.3,0,0,0.02433849,0,
6.38224E+17,2.827195,3.553487,2.544852,-7.318305,7.446409,59.62778,-56.99155,-0.4675641,7.097569,-72.57975,-8.594284,-36.83611,0,0,0,6.856732,-101.6034,-29.50465,-125.6394,-110.0664,-86.73244,0.001067912,-0.1257102,0.09433498,0,0.3,0,0,0.02300769,0,
6.38224E+17,3.157035,3.553487,2.311379,-6.659099,7.812634,58.08963,-56.99155,-0.4675641,7.097569,-72.57975,-8.594284,-36.83611,0,0,0,7.626018,-101.6264,-30.0885,-125.6394,-110.0664,-86.73244,0.001067912,-0.1257102,0.09433498,0,0.3,0,0,0.02164506,0,
6.38224E+17,3.133475,3.436596,1.96117,-6.512609,8.178861,56.55148,-56.99155,-0.4675641,7.097569,-72.57975,-8.594284,-36.83611,0,0,0,7.525548,-101.9284,-30.8821,-125.6394,-110.0664,-86.73244,0.001067912,-0.1257102,0.09433498,0,0.3,0,0,0.02033397,0,
6.38224E+17,3.133475,3.296327,1.774392,-6.659099,8.398596,55.81903,-56.99155,-0.4675641,7.097569,-72.57975,-8.594284,-36.90935,0,0,0,7.502847,-102.2684,-31.29679,-125.6394,-110.0664,-86.73244,0.001067912,-0.1257102,0.09433498,0,0.3,0,0,0.01970384,0,
6.38224E+17,3.109915,2.711872,1.377489,-6.878834,8.838067,53.91465,-56.99155,-0.4675641,7.097569,-72.57975,-8.521038,-36.83611,0,0,0,7.400261,-103.6522,-32.14457,-125.6394,-110.0664,-86.73244,0.001067912,-0.1257102,0.09433498,0,0.3,0,0,0.01849501,0,
6.38224E+17,2.921435,2.010525,1.050627,-7.318305,9.350782,51.86379,-56.99155,-0.4675641,7.097569,-72.57975,-8.594284,-36.90935,0,0,0,6.916826,-105.2993,-32.81338,-125.6394,-110.0664,-86.73244,0.001067912,-0.1257102,0.09433498,0,0.3,0,0,0.01737044,0,
6.38224E+17,2.874315,1.706609,0.8871961,-7.611286,9.643764,50.83836,-56.99155,-0.4675641,7.097569,-72.5065,-8.521038,-36.90935,0,0,0,6.787438,-106.0126,-33.16466,-125.6394,-110.0664,-86.73244,0.001067912,-0.1257102,0.09433498,0,0.3,0,0,0.01683727,0,
6.38224E+17,2.827195,1.215667,0.5603344,-8.343738,10.00999,48.56776,-56.99155,-0.4675641,7.097569,-72.57975,-8.521038,-36.90935,0,0,0,6.640178,-107.1645,-33.88977,-125.6394,-110.0664,-86.73244,0.001067912,-0.1257102,0.09433498,0,0.3,0,0,0.01581807,0,
6.38224E+17,2.827195,1.075397,0.4902926,-8.783209,10.59595,46.00418,-56.99155,-0.4675641,7.097569,-72.57975,-8.594284,-36.90935,0,0,0,6.632459,-107.4924,-34.04607,-125.6394,-110.0664,-86.73244,0.001067912,-0.1257102,0.09433498,0,0.3,0,0,0.0148323,0,
6.38224E+17,2.874315,1.098776,0.4902926,-9.22268,11.10867,43.36735,-56.99155,-0.4675641,7.097569,-72.57975,-8.594284,-36.83611,0,0,0,6.742857,-107.438,-34.0526,-125.6394,-110.0664,-86.73244,0.001067912,-0.1257102,0.09433498,0,0.3,0,0,0.0138614,0,
6.38224E+17,2.944995,1.215667,0.5369871,-9.36917,11.40165,42.26867,-56.99155,-0.4675641,7.097569,-72.57975,-8.594284,-36.90935,0,0,0,6.913821,-107.165,-33.95797,-125.6394,-110.0664,-86.73244,0.001067912,-0.1257102,0.09433498,0,0.3,0,0,0.01337468,0,
6.38224E+17,3.109915,1.659852,0.7237652,-9.515661,11.62138,40.58403,-56.99155,-0.4675641,7.097569,-72.57975,-8.594284,-36.83611,0,0,0,7.3228,-106.1268,-33.57029,-125.6394,-110.0664,-86.73244,0.001067912,-0.1257102,0.09433498,0,0.3,0,0,0.01238592,0,
6.38224E+17,3.369075,2.244308,1.2841,-9.66215,11.25516,39.63185,-56.99155,-0.4675641,7.097569,-72.57975,-8.594284,-36.90935,0,0,0,8.006262,-104.7445,-32.34939,-125.6394,-110.0664,-86.73244,0.001067912,-0.1257102,0.09433498,0,0.3,0,0,0.01134527,0,
6.38224E+17,3.510434,2.641737,1.681003,-9.808641,10.96218,39.26562,-56.99155,-0.4675641,7.097569,-72.57975,-8.594284,-36.83611,0,0,0,8.395905,-103.7964,-31.4872,-125.6394,-110.0664,-86.73244,0.001067912,-0.1257102,0.09433498,0,0.3,0,0,0.01079031,0,
6.38224E+17,3.863834,3.553487,2.754977,-10.24811,10.37621,38.24019,-56.99155,-0.4675641,7.097569,-72.57975,-8.594284,-36.90935,0,0,0,9.400487,-101.5808,-29.16402,-125.6394,-110.0664,-86.73244,0.001067912,-0.1257102,0.09433498,0,0.3,0,0,0.009586085,0,
6.38224E+17,4.429273,4.792531,4.225855,-10.24811,8.984557,37.65423,-56.99155,-0.4675641,7.097569,-72.5065,-8.594284,-36.83611,0,0,0,11.02128,-98.49635,-26.06611,-125.6394,-110.0664,-86.73244,0.001067912,-0.1257102,0.09433498,0,0.3,0,0,0.008207322,0,
6.38224E+17,4.782672,5.493878,5.20644,-10.02838,8.105616,37.43449,-56.99155,-0.4675641,7.097569,-72.57975,-8.594284,-36.83611,0,0,0,12.0761,-96.68298,-24.01608,-125.6394,-110.0664,-86.73244,0.001067912,-0.1257102,0.09433498,0,0.3,0,0,0.007423757,0,
6.38224E+17,5.371671,6.873192,6.817402,-9.295925,6.567466,36.99502,-56.99155,-0.4675641,7.097569,-72.57975,-8.594284,-36.90935,0,0,0,13.87587,-93.09885,-20.77987,-125.6394,-110.0664,-86.73244,0.001067912,-0.1257102,0.09433498,0,0.3,0,0,0.005691082,0,
6.38224E+17,6.24339,8.486288,8.405016,-8.270493,5.249053,36.99502,-56.99155,-0.4675641,7.097569,-72.57975,-8.594284,-36.90935,0,0,0,16.46309,-88.88894,-17.86616,-125.6394,-110.0664,-86.73244,0.001067912,-0.1257102,0.09433498,0,0.3,0,0,0.003713665,0,
6.38224E+17,7.609867,10.23965,10.20275,-6.585854,4.077131,38.38668,-56.99155,-0.4675641,7.097569,-72.57975,-8.594284,-36.83611,0,0,0,20.50589,-84.18627,-14.8671,-125.6394,-110.0664,-86.73244,0.001067912,-0.1257102,0.09433498,0,0.3,0,0,0.001393057,0,
6.38224E+17,8.434465,11.10465,11.13665,-5.413931,3.344679,39.77834,-56.99155,-0.4675641,7.097569,-72.57975,-8.594284,-36.83611,0,0,0,22.97123,-81.80551,-13.43406,-125.6394,-110.0664,-86.73244,0.001067912,-0.1257102,0.09433498,0,0.3,0,0,7.57E-05,0,
6.38224E+17,10.20146,12.64761,12.77096,-2.557369,1.733285,43.29411,-56.99155,-0.4675641,7.097569,-72.57975,-8.594284,-36.83611,0,0,0,28.26529,-77.5036,-11.28112,-125.6394,-110.0664,-86.73244,0.001067912,-0.1257102,0.09433498,0,0.3,0,0,0,0,
6.38224E+17,12.36898,14.19057,14.21848,0.6654179,0.1218917,46.3704,-56.99155,-0.4675641,7.097569,-72.57975,-8.521038,-36.83611,0,0,0,34.70882,-73.22452,-10.07671,-125.6394,-110.0664,-86.73244,0.001067912,-0.1257102,0.09433498,0,0.3,0,0,0,0,
6.38224E+17,13.45274,14.7984,14.84886,2.203566,-0.5373149,47.39584,-56.99155,-0.4675641,7.097569,-72.57975,-8.594284,-36.90935,0,0,0,37.94421,-71.4867,-9.724651,-125.6394,-110.0664,-86.73244,0.001067912,-0.1257102,0.09433498,0,0.3,0,0,0,0,
6.38224E+17,16.02077,16.03745,16.2497,5.572844,-2.221954,48.56776,-56.99155,-0.4675641,7.097569,-72.57975,-8.594284,-36.90935,0,0,0,45.66868,-67.83283,-9.302039,-125.6394,-110.0664,-86.73244,0.001067912,-0.1257102,0.09433498,0,0.3,0,0,0,0,
6.38224E+17,18.65949,17.18298,17.69723,8.795631,-3.540367,48.64101,-56.99155,-0.4675641,7.097569,-72.57975,-8.594284,-36.83611,0,0,0,53.72958,-64.29455,-9.24246,-125.6394,-110.0664,-86.73244,0.001067912,-0.1257102,0.09433498,0,0.3,0,0,0,0,
6.38224E+17,21.15685,18.21162,19.2148,12.16491,-4.639044,47.1761,-56.99155,-0.4675641,7.097569,-72.57975,-8.594284,-36.83611,0,0,0,61.55789,-60.89571,-9.289036,-125.6394,-110.0664,-86.73244,0.001067912,-0.1257102,0.09433498,0,0.3,0,0,0,0,
6.38224E+17,22.38196,18.81945,20.0553,13.84955,-5.225006,45.85769,-56.99155,-0.4675641,7.097569,-72.57975,-8.594284,-36.83611,0,0,0,65.47515,-58.89694,-9.353328,-125.6394,-110.0664,-86.73244,0.001067912,-0.1257102,0.09433498,0,0.3,0,0,0,0,
6.38224E+17,24.2432,20.24553,21.7363,16.55962,-6.470173,42.70815,-56.99155,-0.4675641,7.097569,-72.57975,-8.594284,-36.90935,0,0,0,71.64977,-54.37363,-9.242988,-125.6394,-110.0664,-86.73244,0.001067912,-0.1257102,0.09433498,0,0.3,0,0,0,0,
6.38224E+17,25.91596,22.04565,23.69748,18.3175,-8.374548,38.45993,-56.99155,-0.4675641,7.097569,-72.57975,-8.594284,-36.83611,0,0,0,77.44326,-48.7037,-8.974884,-125.6394,-110.0664,-86.73244,0.001067912,-0.1257102,0.09433498,0,0.3,0,0,0,0,
6.38224E+17,26.83479,23.1678,25.02827,19.04996,-9.326735,35.8231,-56.99155,-0.4675641,7.097569,-72.57975,-8.594284,-36.90935,0,0,0,80.80949,-45.01506,-8.615501,-125.6394,-110.0664,-86.73244,0.001067912,-0.1257102,0.09433498,0,0.3,0,0,0,0,
6.38224E+17,28.24839,25.38873,27.78325,20.14863,-11.3776,31.06216,-56.99155,-0.4675641,7.097569,-72.57975,-8.594284,-36.83611,0,0,0,86.43747,-37.45225,-7.471227,-125.6394,-110.0664,-86.73244,0.001067912,-0.1257102,0.09433498,0,0.3,0,0,0,0,
6.38224E+17,29.40283,27.8902,30.84174,21.3938,-14.16092,26.30123,-56.99155,-0.4675641,7.097569,-72.57975,-8.521038,-36.83611,0,0,0,91.42664,-28.76426,-6.112586,-125.6394,-110.0664,-86.73244,0.001067912,-0.1257102,0.09433498,0,0.3,0,0,0,0,
6.38224E+17,29.92115,28.96559,32.4527,21.97976,-15.77231,23.6644,-56.99155,-0.4675641,7.097569,-72.57975,-8.594284,-36.90935,0,0,0,93.88827,-24.59605,-5.212686,-125.6394,-110.0664,-86.73244,0.001067912,-0.1257102,0.09433498,0,0.3,0,0,0,0,
6.38224E+17,30.86355,30.97612,36.09487,23.6644,-19.21483,18.46399,-56.99155,-0.4675641,7.097569,-72.57975,-8.521038,-36.83611,0,0,0,98.95246,-15.7698,-2.773529,-125.6394,-110.0664,-86.73244,0.001067912,-0.1257102,0.09433498,0,0.3,0,0,0,0,
6.38224E+17,31.40543,32.63597,39.48022,25.56878,-22.43762,13.7763,-56.99155,-0.4675641,7.097569,-72.57975,-8.594284,-36.90935,0,0,0,102.6973,-7.659805,-0.1407308,-125.6394,-110.0664,-86.73244,0.001067912,-0.1257102,0.09433498,0,0.3,0,0,0,0,
6.38224E+17,31.80595,34.1088,43.07571,27.69288,-26.09988,8.868877,-56.99155,-0.4675641,7.097569,-72.57975,-8.594284,-36.90935,0,0,0,106.1907,0.7223997,2.878441,-125.6394,-110.0664,-86.73244,0.001067912,-0.1257102,0.09433498,0,0.3,0,0,0,0,
6.38224E+17,31.92375,34.6465,44.8034,28.79156,-27.71127,6.818012,-56.99155,-0.4675641,7.097569,-72.57975,-8.594284,-36.83611,0,0,0,107.6999,4.545339,4.517427,-125.6394,-110.0664,-86.73244,0.001067912,-0.1257102,0.09433498,0,0.3,0,0,0,0,
6.38224E+17,32.08867,35.55825,48.32884,31.35514,-30.93406,2.276812,-56.99155,-0.4675641,7.097569,-72.57975,-8.594284,-36.83611,0,0,0,110.5451,12.23872,7.951475,-125.6394,-110.0664,-86.73244,0.001067912,-0.1257102,0.09433498,0,0.3,0,0,0,0,
6.38224E+17,32.13579,36.21284,51.64415,33.99197,-34.0836,-2.484124,-56.99155,-0.4675641,7.097569,-72.57975,-8.521038,-36.83611,0,0,0,112.8537,19.38187,11.30479,-125.6394,-110.0664,-86.73244,0.001067912,-0.1257102,0.09433498,0,0.3,0,0,0,0,
6.38224E+17,32.13579,36.44662,53.23177,35.38363,-35.62175,-5.120951,-56.99155,-0.4675641,7.097569,-72.57975,-8.521038,-36.83611,0,0,0,113.8804,22.74913,12.93921,-125.6394,-110.0664,-86.73244,0.001067912,-0.1257102,0.09433498,0,0.3,0,0,0,0,
6.38224E+17,32.11223,36.79729,55.94005,38.24019,-38.18533,-10.3946,-56.99155,-0.4675641,7.097569,-72.57975,-8.521038,-36.83611,0,0,0,115.4885,28.54074,15.66715,-125.6394,-110.0664,-86.73244,0.001067912,-0.1257102,0.09433498,0,0.3,0,0,0,0,
6.38224E+17,31.99443,37.12459,58.41486,41.38973,-40.2362,-16.10773,-56.99155,-0.4675641,7.097569,-72.57975,-8.521038,-36.90935,0,0,0,116.5213,33.98935,18.16339,-125.6394,-110.0664,-86.73244,0.001067912,-0.1257102,0.09433498,0,0.3,0,0,0,0,
6.38224E+17,31.82951,37.54539,60.35268,44.46603,-42.21382,-21.89409,-56.99155,-0.4675641,7.097569,-72.57975,-8.594284,-36.90935,0,0,0,116.882,38.64925,19.94478,-125.6394,-110.0664,-86.73244,0.001067912,-0.1257102,0.09433498,0,0.3,0,0,0,0,
6.38224E+17,31.73527,37.70904,61.07645,45.78444,-43.01951,-24.53092,-56.99155,-0.4675641,7.097569,-72.57975,-8.521038,-36.90935,0,0,0,116.8832,40.42009,20.63979,-125.6394,-110.0664,-86.73244,0.001067912,-0.1257102,0.09433498,0,0.3,0,0,0,0,
6.38224E+17,31.61747,38.08309,62.2905,48.05504,-44.33792,-28.92563,-56.99155,-0.4675641,7.097569,-72.57975,-8.594284,-36.83611,0,0,0,116.9167,43.59451,21.56568,-125.6394,-110.0664,-86.73244,0.001067912,-0.1257102,0.09433498,0,0.3,0,0,0,0,
6.38224E+17,31.59391,38.38701,63.1777,50.32565,-45.4366,-33.10061,-56.99155,-0.4675641,7.097569,-72.57975,-8.594284,-36.83611,0,0,0,117.1049,45.98552,22.0466,-125.6394,-110.0664,-86.73244,0.001067912,-0.1257102,0.09433498,0,0.3,0,0,0,0,
6.38224E+17,31.61747,38.45715,63.50457,51.35107,-45.87607,-34.93173,-56.99155,-0.4675641,7.097569,-72.57975,-8.594284,-36.83611,0,0,0,117.3089,46.79327,22.20271,-125.6394,-110.0664,-86.73244,0.001067912,-0.1257102,0.09433498,0,0.3,0,0,0,0,
6.38224E+17,31.80595,38.5039,63.73803,52.96247,-46.53528,-37.6418,-56.99155,-0.4675641,7.097569,-72.57975,-8.594284,-36.83611,0,0,0,118.0267,47.36526,21.96341,-125.6394,-110.0664,-86.73244,0.001067912,-0.1257102,0.09433498,0,0.3,0,0,0,0,
6.38224E+17,32.13579,38.5039,63.41117,54.20764,-46.75502,-39.17995,-56.99155,-0.4675641,7.097569,-72.57975,-8.594284,-36.90935,0,0,0,118.9402,46.68401,20.99412,-125.6394,-110.0664,-86.73244,0.001067912,-0.1257102,0.09433498,0,0.3,0,0,0,0,
6.38224E+17,32.32427,38.5039,62.85084,54.50062,-46.75502,-39.54618,-56.99155,-0.4675641,7.097569,-72.57975,-8.594284,-36.83611,0,0,0,119.2473,45.52068,20.10377,-125.6394,-110.0664,-86.73244,0.001067912,-0.1257102,0.09433498,0,0.3,0,0,0,0,
6.38224E+17,32.88971,38.5039,60.63285,53.9879,-46.16905,-38.88697,-56.99155,-0.4675641,7.097569,-72.57975,-8.594284,-36.90935,0,0,0,119.7742,40.97403,16.86565,-125.6394,-110.0664,-86.73244,0.001067912,-0.1257102,0.09433498,0,0.3,0,0,0,0,
6.38224E+17,33.73786,38.36363,56.85059,51.27783,-44.19143,-34.41902,-56.99155,-0.4675641,7.097569,-72.57975,-8.521038,-36.83611,0,0,0,120.079,33.1947,11.44335,-125.6394,-110.0664,-86.73244,0.001067912,-0.1257102,0.09433498,0,0.3,0,0,0,0,
6.38224E+17,34.53891,37.66228,52.5547,47.39584,-41.11514,-28.11993,-56.99155,-0.4675641,7.097569,-72.5065,-8.594284,-36.90935,0,0,0,119.8761,23.75035,5.817295,-125.6394,-110.0664,-86.73244,0.001067912,-0.1257102,0.09433498,0,0.3,0,0,0,0,
6.38224E+17,34.96298,36.98432,50.21997,45.12524,-39.06427,-24.23794,-56.99155,-0.4675641,7.097569,-72.57975,-8.594284,-36.90935,0,0,0,119.767,18.24996,2.930486,-125.6394,-110.0664,-86.73244,0.001067912,-0.1257102,0.09433498,0,0.3,0,0,0,0,
6.38224E+17,35.7169,35.16082,46.27428,41.17,-34.96254,-17.05991,-56.99155,-0.4675641,7.097569,-72.57975,-8.594284,-36.90935,0,0,0,119.8999,7.970277,-1.59549,-125.6394,-110.0664,-86.73244,0.001067912,-0.1257102,0.09433498,0,0.3,0,0,0,0,
6.38224E+17,36.47082,32.79962,43.00566,38.0937,-30.20161,-10.32136,-56.99155,-0.4675641,7.097569,-72.57975,-8.594284,-36.83611,0,0,0,120.6921,-1.930982,-5.070072,-125.6394,-110.0664,-86.73244,0.001067912,-0.1257102,0.09433498,0,0.3,0,0,0,0,
6.38224E+17,36.84778,31.5372,41.72157,36.99502,-27.93101,-7.318305,-56.99155,-0.4675641,7.097569,-72.57975,-8.594284,-36.90935,0,0,0,121.3776,-6.431827,-6.382936,-125.6394,-110.0664,-86.73244,0.001067912,-0.1257102,0.09433498,0,0.3,0,0,0,0,
6.38224E+17,37.55458,29.22275,39.52692,35.38363,-23.60954,-2.557369,-56.99155,-0.4675641,7.097569,-72.57975,-8.594284,-36.83611,0,0,0,122.6639,-14.40396,-8.806252,-125.6394,-110.0664,-86.73244,0.001067912,-0.1257102,0.09433498,0,0.3,0,0,0,0,
6.38224E+17,38.1907,27.25899,37.56575,34.43144,-19.6543,1.031644,-56.99155,-0.4675641,7.097569,-72.57975,-8.521038,-36.83611,0,0,0,123.5576,-21.27436,-11.28386,-125.6394,-110.0664,-86.73244,0.001067912,-0.1257102,0.09433498,0,0.3,0,0,0,0,
6.38224E+17,38.49697,26.25372,36.60851,33.99197,-17.67669,2.643037,-56.99155,-0.4675641,7.097569,-72.57975,-8.594284,-36.83611,0,0,0,123.9448,-24.70693,-12.51315,-125.6394,-110.0664,-86.73244,0.001067912,-0.1257102,0.09433498,0,0.3,0,0,0,0,
6.38224E+17,39.01529,24.33671,34.88082,33.25952,-14.01443,5.426354,-56.99155,-0.4675641,7.097569,-72.57975,-8.521038,-36.90935,0,0,0,124.4951,-31.0895,-14.69526,-125.6394,-110.0664,-86.73244,0.001067912,-0.1257102,0.09433498,0,0.3,0,0,0,0,
6.38224E+17,39.41582,22.6301,33.26986,32.52707,-10.64515,7.623709,-56.99155,-0.4675641,7.097569,-72.57975,-8.521038,-36.90935,0,0,0,124.5993,-36.83297,-16.74571,-125.6394,-110.0664,-86.73244,0.001067912,-0.1257102,0.09433498,0,0.3,0,0,0,0,
6.38224E+17,39.74566,20.87674,31.91571,32.01435,-7.642097,9.235103,-56.99155,-0.4675641,7.097569,-72.57975,-8.594284,-36.90935,0,0,0,124.7392,-42.32062,-18.34429,-125.6394,-110.0664,-86.73244,0.001067912,-0.1257102,0.09433498,0,0.3,0,0,0,0,
6.38224E+17,39.91058,19.98837,31.35538,31.79461,-6.250438,9.894309,-56.99155,-0.4675641,7.097569,-72.57975,-8.594284,-36.90935,0,0,0,124.9212,-44.94214,-19.00198,-125.6394,-110.0664,-86.73244,0.001067912,-0.1257102,0.09433498,0,0.3,0,0,0,0,
6.38224E+17,40.21685,18.14149,30.37479,31.35514,-3.540367,10.99299,-56.99155,-0.4675641,7.097569,-72.57975,-8.521038,-36.83611,0,0,0,125.3594,-50.17541,-20.09569,-125.6394,-110.0664,-86.73244,0.001067912,-0.1257102,0.09433498,0,0.3,0,0,0,0,
6.38224E+17,40.57025,16.0842,29.32417,30.98892,-1.196521,11.79868,-56.99155,-0.4675641,7.097569,-72.57975,-8.594284,-36.90935,0,0,0,125.8084,-55.96832,-21.41253,-125.6394,-110.0664,-86.73244,0.001067912,-0.1257102,0.09433498,0,0.3,0,0,0,0,
6.38224E+17,40.73517,15.03218,28.85722,30.84243,-0.09784385,12.09166,-56.99155,-0.4675641,7.097569,-72.57975,-8.594284,-36.83611,0,0,0,126.0396,-58.85541,-21.99724,-125.6394,-110.0664,-86.73244,0.001067912,-0.1257102,0.09433498,0,0.3,0,0,0,0,
6.38224E+17,41.04145,12.81126,28.04007,30.62269,1.953021,12.53114,-56.99155,-0.4675641,7.097569,-72.57975,-8.594284,-36.90935,0,0,0,126.5387,-64.77822,-22.99636,-125.6394,-110.0664,-86.73244,0.001067912,-0.1257102,0.09433498,0,0.3,0,0,0,0,
6.38224E+17,41.30061,10.35654,27.52643,30.54945,4.223621,12.97061,-56.99155,-0.4675641,7.097569,-72.57975,-8.521038,-36.83611,0,0,0,127.254,-70.93174,-23.50297,-125.6394,-110.0664,-86.73244,0.001067912,-0.1257102,0.09433498,0,0.3,0,0,0,0,
6.38224E+17,41.55977,7.925211,27.12952,30.54945,6.347731,13.33683,-56.99155,-0.4675641,7.097569,-72.5065,-8.521038,-36.83611,0,0,0,127.9597,-76.94221,-24.02151,-125.6394,-110.0664,-86.73244,0.001067912,-0.1257102,0.09433498,0,0.3,0,0,0,0,
6.38224E+17,41.67757,6.779679,27.03613,30.54945,7.299919,13.41008,-56.99155,-0.4675641,7.097569,-72.57975,-8.594284,-36.90935,0,0,0,128.3544,-79.68531,-24.17461,-125.6394,-110.0664,-86.73244,0.001067912,-0.1257102,0.09433498,0,0.3,0,0,0,0,
6.38224E+17,41.84249,5.049692,26.80266,30.40295,9.424027,13.55657,-56.99155,-0.4675641,7.097569,-72.5065,-8.521038,-36.83611,0,0,0,128.7224,-83.9361,-24.59652,-125.6394,-110.0664,-86.73244,0.001067912,-0.1257102,0.09433498,0,0.3,0,0,0,0,
6.38224E+17,41.88961,3.997673,26.42911,30.32971,11.25516,13.62981,-56.99155,-0.4675641,7.097569,-72.57975,-8.594284,-36.83611,0,0,0,128.4505,-86.7664,-25.13731,-125.6394,-110.0664,-86.73244,0.001067912,-0.1257102,0.09433498,0,0.3,0,0,0,0,
6.38224E+17,41.88961,3.717134,26.24233,30.18322,11.76787,13.55657,-56.99155,-0.4675641,7.097569,-72.57975,-8.594284,-36.83611,0,0,0,128.2197,-87.6107,-25.39463,-125.6394,-110.0664,-86.73244,0.001067912,-0.1257102,0.09433498,0,0.3,0,0,0,0,
6.38224E+17,41.79537,3.623622,25.98551,30.03673,12.72006,13.62981,-56.99155,-0.4675641,7.097569,-72.57975,-8.594284,-36.90935,0,0,0,127.636,-88.09099,-25.57367,-125.6394,-110.0664,-86.73244,0.001067912,-0.1257102,0.09433498,0,0.3,0,0,0,0,
6.38224E+17,41.48909,4.254833,25.96216,30.03673,12.86655,13.70306,-56.99155,-0.4675641,7.097569,-72.57975,-8.521038,-36.83611,0,0,0,126.7718,-86.64919,-25.00562,-125.6394,-110.0664,-86.73244,0.001067912,-0.1257102,0.09433498,0,0.3,0,0,0,0,
6.38224E+17,41.30061,4.909423,25.79873,29.89024,12.64682,13.70306,-56.99155,-0.4675641,7.097569,-72.57975,-8.594284,-36.83611,0,0,0,125.9933,-85.2966,-24.9379,-125.6394,-110.0664,-86.73244,0.001067912,-0.1257102,0.09433498,0,0.3,0,0,0,0,
6.38224E+17,40.82941,7.293999,25.44852,29.52402,11.62138,13.62981,-56.99155,-0.4675641,7.097569,-72.57975,-8.521038,-36.83611,0,0,0,123.9435,-80.13107,-24.909,-125.6394,-110.0664,-86.73244,0.001067912,-0.1257102,0.09433498,0,0.3,0,0,0,0,
6.38224E+17,40.28753,10.59033,25.42517,28.93805,9.570518,13.62981,-56.99155,-0.4675641,7.097569,-72.57975,-8.594284,-36.90935,0,0,0,121.7787,-72.57684,-24.69018,-125.6394,-110.0664,-86.73244,0.001067912,-0.1257102,0.09433498,0,0.3,0,0,0,0,
6.38224E+17,39.53362,14.07368,25.44852,28.49858,6.933692,13.62981,-56.99155,-0.4675641,7.097569,-72.57975,-8.594284,-36.90935,0,0,0,118.8071,-64.63464,-24.39762,-125.6394,-110.0664,-86.73244,0.001067912,-0.1257102,0.09433498,0,0.3,0,0,0,0,
6.38224E+17,39.01529,15.89718,25.49521,28.2056,5.542034,13.48332,-56.99155,-0.4675641,7.097569,-72.57975,-8.521038,-36.83611,0,0,0,116.871,-60.4884,-24.10513,-125.6394,-110.0664,-86.73244,0.001067912,-0.1257102,0.09433498,0,0.3,0,0,0,0,
6.38224E+17,37.74306,19.3104,25.75204,27.10692,2.246002,13.1171,-56.99155,-0.4675641,7.097569,-72.57975,-8.594284,-36.90935,0,0,0,112.499,-52.65913,-23.01917,-125.6394,-110.0664,-86.73244,0.001067912,-0.1257102,0.09433498,0,0.3,0,0,0,0,
6.38224E+17,36.23522,22.20929,26.21898,25.64202,-1.489502,12.82412,-56.99155,-0.4675641,7.097569,-72.57975,-8.521038,-36.90935,0,0,0,107.7999,-45.8748,-21.24999,-125.6394,-110.0664,-86.73244,0.001067912,-0.1257102,0.09433498,0,0.3,0,0,0,0,
6.38224E+17,35.3635,23.68212,26.42911,24.68983,-3.467122,12.82412,-56.99155,-0.4675641,7.097569,-72.57975,-8.594284,-36.83611,0,0,0,105.0297,-42.5014,-20.3593,-125.6394,-110.0664,-86.73244,0.001067912,-0.1257102,0.09433498,0,0.3,0,0,0,0,
6.38224E+17,33.78498,26.11345,26.59254,23.07844,-6.836399,12.82412,-56.99155,-0.4675641,7.097569,-72.57975,-8.594284,-36.83611,0,0,0,99.77779,-37.19924,-19.21919,-125.6394,-110.0664,-86.73244,0.001067912,-0.1257102,0.09433498,0,0.3,0,0,0,0,
6.38224E+17,32.13579,28.03047,26.9194,21.24731,-9.912696,12.60438,-56.99155,-0.4675641,7.097569,-72.57975,-8.594284,-36.83611,0,0,0,94.72576,-32.88414,-17.55351,-125.6394,-110.0664,-86.73244,0.001067912,-0.1257102,0.09433498,0,0.3,0,0,0,0,
6.38224E+17,30.51015,29.76045,27.33965,19.19645,-12.76926,12.45789,-56.99155,-0.4675641,7.097569,-72.57975,-8.521038,-36.90935,0,0,0,89.86391,-28.91317,-15.85313,-125.6394,-110.0664,-86.73244,0.001067912,-0.1257102,0.09433498,0,0.3,0,0,0,0,
6.38224E+17,29.66199,30.64882,27.54977,17.95128,-14.08767,12.38465,-56.99155,-0.4675641,7.097569,-72.57975,-8.594284,-36.90935,0,0,0,87.29673,-26.9009,-15.06635,-125.6394,-110.0664,-86.73244,0.001067912,-0.1257102,0.09433498,0,0.3,0,0,0,0,
6.38224E+17,27.82431,32.47232,27.97002,15.24121,-16.79774,12.09166,-56.99155,-0.4675641,7.097569,-72.57975,-8.521038,-36.83611,0,0,0,81.70354,-22.82923,-13.54471,-125.6394,-110.0664,-86.73244,0.001067912,-0.1257102,0.09433498,0,0.3,0,0,0,0,
6.38224E+17,25.91596,33.99191,28.13346,12.45789,-19.36132,11.65219,-56.99155,-0.4675641,7.097569,-72.57975,-8.594284,-36.83611,0,0,0,75.8027,-19.69217,-12.35108,-125.6394,-110.0664,-86.73244,0.001067912,-0.1257102,0.09433498,0,0.3,0,0,0,0,
6.38224E+17,24.85576,34.71663,28.13346,10.70001,-20.38675,11.13948,-56.99155,-0.4675641,7.097569,-72.57975,-8.521038,-36.83611,0,0,0,72.5032,-18.29968,-11.83888,-125.6394,-110.0664,-86.73244,0.001067912,-0.1257102,0.09433498,0,0.3,0,0,0,0,
6.38224E+17,22.85316,35.74527,28.13346,6.964502,-21.9249,9.528083,-56.99155,-0.4675641,7.097569,-72.57975,-8.594284,-36.90935,0,0,0,66.45332,-16.34416,-10.6735,-125.6394,-110.0664,-86.73244,0.001067912,-0.1257102,0.09433498,0,0.3,0,0,0,0,
6.38224E+17,20.99193,36.04919,27.99337,2.643037,-23.09683,7.477218,-56.99155,-0.4675641,7.097569,-72.5065,-8.594284,-36.83611,0,0,0,61.04545,-15.92455,-9.254159,-125.6394,-110.0664,-86.73244,0.001067912,-0.1257102,0.09433498,0,0.3,0,0,0,0,
6.38224E+17,19.57833,36.02581,27.59647,-1.092466,-23.60954,6.378541,-56.99155,-0.4675641,7.097569,-72.57975,-8.594284,-36.83611,0,0,0,56.83896,-16.3993,-8.536386,-125.6394,-110.0664,-86.73244,0.001067912,-0.1257102,0.09433498,0,0.3,0,0,0,0,
6.38224E+17,19.08357,35.9323,27.33965,-2.777105,-23.75603,6.232051,-56.99155,-0.4675641,7.097569,-72.57975,-8.594284,-36.83611,0,0,0,55.32525,-16.85112,-8.431894,-125.6394,-110.0664,-86.73244,0.001067912,-0.1257102,0.09433498,0,0.3,0,0,0,0,
6.38224E+17,18.65949,35.48811,26.63923,-5.706912,-23.5363,6.08556,-56.99155,-0.4675641,7.097569,-72.57975,-8.521038,-36.83611,0,0,0,53.86841,-18.43034,-8.831339,-125.6394,-110.0664,-86.73244,0.001067912,-0.1257102,0.09433498,0,0.3,0,0,0,0,
6.38224E+17,18.73017,34.99717,25.96216,-7.171815,-23.09683,5.93907,-56.99155,-0.4675641,7.097569,-72.57975,-8.594284,-36.90935,0,0,0,53.82324,-20.06174,-9.61136,-125.6394,-110.0664,-86.73244,0.001067912,-0.1257102,0.09433498,0,0.3,0,0,0,0,
6.38224E+17,18.80085,34.78677,25.6353,-7.538041,-22.7306,5.93907,-56.99155,-0.4675641,7.097569,-72.57975,-8.521038,-36.83611,0,0,0,53.88857,-20.79449,-10.06107,-125.6394,-110.0664,-86.73244,0.001067912,-0.1257102,0.09433498,0,0.3,0,0,0,0,
6.38224E+17,19.13069,34.24907,24.84149,-7.831022,-22.07139,5.865825,-56.99155,-0.4675641,7.097569,-72.57975,-8.594284,-36.90935,0,0,0,54.48363,-22.61335,-11.28278,-125.6394,-110.0664,-86.73244,0.001067912,-0.1257102,0.09433498,0,0.3,0,0,0,0,
6.38224E+17,19.79037,33.31394,23.83756,-7.391551,-21.19245,5.572844,-56.99155,-0.4675641,7.097569,-72.57975,-8.521038,-36.83611,0,0,0,55.97733,-25.38526,-12.78493,-125.6394,-110.0664,-86.73244,0.001067912,-0.1257102,0.09433498,0,0.3,0,0,0,0,
6.38224E+17,20.19089,32.75286,23.30057,-6.952079,-20.67974,5.353109,-56.99155,-0.4675641,7.097569,-72.57975,-8.594284,-36.90935,0,0,0,56.91373,-26.97975,-13.58705,-125.6394,-110.0664,-86.73244,0.001067912,-0.1257102,0.09433498,0,0.3,0,0,0,0,
6.38224E+17,21.1804,31.28004,21.96978,-5.706912,-18.77536,4.547412,-56.99155,-0.4675641,7.097569,-72.5065,-8.594284,-36.83611,0,0,0,59.20166,-31.07813,-15.56403,-125.6394,-110.0664,-86.73244,0.001067912,-0.1257102,0.09433498,0,0.3,0,0,0,0,
6.38224E+17,22.28772,29.62018,20.40551,-4.095518,-16.87099,3.595225,-56.99155,-0.4675641,7.097569,-72.57975,-8.594284,-36.83611,0,0,0,61.59833,-35.72409,-18.06605,-125.6394,-110.0664,-86.73244,0.001067912,-0.1257102,0.09433498,0,0.3,0,0,0,0,
6.38224E+17,23.48928,27.79668,18.67781,-2.117898,-14.4539,2.862773,-56.99155,-0.4675641,7.097569,-72.57975,-8.594284,-36.83611,0,0,0,64.03837,-40.79121,-20.99645,-125.6394,-110.0664,-86.73244,0.001067912,-0.1257102,0.09433498,0,0.3,0,0,0,0,
6.38224E+17,24.17252,26.69791,17.79062,-0.9459759,-13.35522,2.569792,-56.99155,-0.4675641,7.097569,-72.57975,-8.594284,-36.83611,0,0,0,65.46729,-43.71079,-22.49161,-125.6394,-110.0664,-86.73244,0.001067912,-0.1257102,0.09433498,0,0.3,0,0,0,0,
6.38224E+17,25.4212,24.64063,16.36643,1.178134,-10.42541,2.203566,-56.99155,-0.4675641,7.097569,-72.57975,-8.594284,-36.83611,0,0,0,68.16047,-48.99955,-24.94135,-125.6394,-110.0664,-86.73244,0.001067912,-0.1257102,0.09433498,0,0.3,0,0,0,0,
6.38224E+17,26.85836,22.65348,15.29246,3.228999,-7.495606,1.910586,-56.99155,-0.4675641,7.097569,-72.57975,-8.594284,-36.83611,0,0,0,71.4874,-53.91769,-27.18644,-125.6394,-110.0664,-86.73244,0.001067912,-0.1257102,0.09433498,0,0.3,0,0,0,0,
6.38224E+17,27.63584,21.76511,14.9656,4.327676,-6.030703,1.910586,-56.99155,-0.4675641,7.097569,-72.57975,-8.521038,-36.83611,0,0,0,73.41816,-56.03042,-28.12768,-125.6394,-110.0664,-86.73244,0.001067912,-0.1257102,0.09433498,0,0.3,0,0,0,0,
6.38224E+17,29.21435,20.31566,14.63874,6.598277,-3.467122,1.910586,-56.99155,-0.4675641,7.097569,-72.57975,-8.594284,-36.90935,0,0,0,77.48512,-59.37321,-29.7882,-125.6394,-110.0664,-86.73244,0.001067912,-0.1257102,0.09433498,0,0.3,0,0,0,0,
6.38224E+17,30.74575,19.33377,14.63874,8.868877,-1.489502,1.910586,-56.99155,-0.4675641,7.097569,-72.57975,-8.521038,-36.83611,0,0,0,81.55669,-61.52299,-31.24238,-125.6394,-110.0664,-86.73244,0.001067912,-0.1257102,0.09433498,0,0.3,0,0,0,0,
6.38224E+17,32.15935,18.7727,14.9189,10.99299,0.1951368,1.837341,-56.99155,-0.4675641,7.097569,-72.57975,-8.521038,-36.83611,0,0,0,85.47673,-62.59096,-32.40143,-125.6394,-110.0664,-86.73244,0.001067912,-0.1257102,0.09433498,0,0.3,0,0,0,0,
6.38224E+17,32.88971,18.58567,15.19907,12.16491,0.7810982,1.764095,-56.99155,-0.4675641,7.097569,-72.57975,-8.594284,-36.90935,0,0,0,87.62032,-62.8339,-32.85622,-125.6394,-110.0664,-86.73244,0.001067912,-0.1257102,0.09433498,0,0.3,0,0,0,0,
6.38224E+17,34.37398,18.42202,16.03957,14.65524,1.586795,1.69085,-56.99155,-0.4675641,7.097569,-72.57975,-8.594284,-36.83611,0,0,0,92.23247,-62.6684,-33.51658,-125.6394,-110.0664,-86.73244,0.001067912,-0.1257102,0.09433498,0,0.3,0,0,0,0,
6.38224E+17,35.5991,18.39865,17.0902,16.99909,1.440305,1.617605,-56.99155,-0.4675641,7.097569,-72.57975,-8.594284,-36.83611,0,0,0,96.46852,-62.0229,-33.59974,-125.6394,-110.0664,-86.73244,0.001067912,-0.1257102,0.09433498,0,0.3,0,0,0,0,
6.38224E+17,36.14098,18.39865,17.67388,18.09777,1.220569,1.54436,-56.99155,-0.4675641,7.097569,-72.57975,-8.594284,-36.83611,0,0,0,98.50319,-61.61707,-33.47116,-125.6394,-110.0664,-86.73244,0.001067912,-0.1257102,0.09433498,0,0.3,0,0,0,0,
6.38224E+17,37.20118,18.4454,18.95798,20.22188,0.8543434,1.324624,-56.99155,-0.4675641,7.097569,-72.57975,-8.594284,-36.83611,0,0,0,102.6766,-60.57465,-33.0844,-125.6394,-110.0664,-86.73244,0.001067912,-0.1257102,0.09433498,0,0.3,0,0,0,0,
6.38224E+17,38.26138,18.79608,20.4522,22.8587,0.268382,1.324624,-56.99155,-0.4675641,7.097569,-72.57975,-8.594284,-36.83611,0,0,0,107.0278,-58.62867,-32.64134,-125.6394,-110.0664,-86.73244,0.001067912,-0.1257102,0.09433498,0,0.3,0,0,0,0,
6.38224E+17,38.8975,19.80134,22.20325,26.7407,-0.5373149,1.617605,-56.99155,-0.4675641,7.097569,-72.57975,-8.521038,-36.83611,0,0,0,110.426,-54.93835,-31.4853,-125.6394,-110.0664,-86.73244,0.001067912,-0.1257102,0.09433498,0,0.3,0,0,0,0,
6.38224E+17,38.92105,20.38579,22.6235,28.64507,-0.9767859,2.203566,-56.99155,-0.4675641,7.097569,-72.57975,-8.594284,-36.90935,0,0,0,110.7568,-53.28796,-31.19082,-125.6394,-110.0664,-86.73244,0.001067912,-0.1257102,0.09433498,0,0.3,0,0,0,0,
6.38224E+17,38.63834,21.22741,22.85697,31.9411,-2.295199,4.327676,-56.99155,-0.4675641,7.097569,-72.57975,-8.594284,-36.90935,0,0,0,109.9571,-51.2469,-30.79801,-125.6394,-110.0664,-86.73244,0.001067912,-0.1257102,0.09433498,0,0.3,0,0,0,0,
6.38224E+17,38.28493,21.29754,22.78693,33.91872,-2.954405,6.671522,-56.99155,-0.4675641,7.097569,-72.57975,-8.594284,-36.90935,0,0,0,108.9768,-51.15801,-30.28682,-125.6394,-110.0664,-86.73244,0.001067912,-0.1257102,0.09433498,0,0.3,0,0,0,0,
6.38224E+17,38.09645,21.29754,22.60015,34.57793,-3.100896,7.843444,-56.99155,-0.4675641,7.097569,-72.57975,-8.594284,-36.90935,0,0,0,108.2746,-51.32572,-30.2447,-125.6394,-110.0664,-86.73244,0.001067912,-0.1257102,0.09433498,0,0.3,0,0,0,0,
6.38224E+17,37.64882,21.15727,21.85304,35.53012,-3.467122,9.894309,-56.99155,-0.4675641,7.097569,-72.57975,-8.594284,-36.90935,0,0,0,106.2813,-52.28778,-30.58385,-125.6394,-110.0664,-86.73244,0.001067912,-0.1257102,0.09433498,0,0.3,0,0,0,0,
6.38224E+17,37.10694,20.66633,20.73237,35.8231,-3.540367,11.87193,-56.99155,-0.4675641,7.097569,-72.57975,-8.594284,-36.83611,0,0,0,103.7536,-54.30225,-31.19769,-125.6394,-110.0664,-86.73244,0.001067912,-0.1257102,0.09433498,0,0.3,0,0,0,0,
6.38224E+17,36.7771,20.2689,20.00861,35.8231,-3.393876,12.97061,-56.99155,-0.4675641,7.097569,-72.57975,-8.594284,-36.90935,0,0,0,102.2105,-55.75518,-31.60844,-125.6394,-110.0664,-86.73244,0.001067912,-0.1257102,0.09433498,0,0.3,0,0,0,0,
6.38224E+17,36.0703,19.3104,18.51438,35.31038,-2.807915,15.09472,-56.99155,-0.4675641,7.097569,-72.57975,-8.521038,-36.83611,0,0,0,99.02776,-59.00141,-32.40107,-125.6394,-110.0664,-86.73244,0.001067912,-0.1257102,0.09433498,0,0.3,0,0,0,0,
6.38224E+17,35.29282,18.07135,16.90342,34.3582,-1.928973,17.36532,-56.99155,-0.4675641,7.097569,-72.57975,-8.594284,-36.90935,0,0,0,95.64436,-62.87346,-33.23074,-125.6394,-110.0664,-86.73244,0.001067912,-0.1257102,0.09433498,0,0.3,0,0,0,0,
6.38224E+17,34.53891,16.6219,15.4092,33.25952,-0.61056,19.70916,-56.99155,-0.4675641,7.097569,-72.57975,-8.521038,-36.90935,0,0,0,92.53463,-67.06104,-33.90693,-125.6394,-110.0664,-86.73244,0.001067912,-0.1257102,0.09433498,0,0.3,0,0,0,0,
6.38224E+17,34.1855,15.92056,14.68543,32.7468,0.1951368,20.88108,-56.99155,-0.4675641,7.097569,-72.57975,-8.594284,-36.90935,0,0,0,91.04659,-69.06528,-34.30607,-125.6394,-110.0664,-86.73244,0.001067912,-0.1257102,0.09433498,0,0.3,0,0,0,0,
6.38224E+17,33.26667,14.44773,13.14451,32.23409,1.440305,24.17712,-56.99155,-0.4675641,7.097569,-72.57975,-8.594284,-36.83611,0,0,0,87.46838,-73.23579,-35.02314,-125.6394,-110.0664,-86.73244,0.001067912,-0.1257102,0.09433498,0,0.3,0,0,0,0,
6.38224E+17,32.25359,12.7645,11.67363,31.9411,2.758718,27.54639,-56.99155,-0.4675641,7.097569,-72.57975,-8.521038,-36.83611,0,0,0,83.80502,-77.77888,-35.5455,-125.6394,-110.0664,-86.73244,0.001067912,-0.1257102,0.09433498,0,0.3,0,0,0,0,
6.38224E+17,31.64103,11.92288,10.99656,31.72137,3.63766,29.15779,-56.99155,-0.4675641,7.097569,-72.57975,-8.594284,-36.83611,0,0,0,81.78956,-80.00207,-35.61604,-125.6394,-110.0664,-86.73244,0.001067912,-0.1257102,0.09433498,0,0.3,0,0,0,0,
6.38224E+17,30.29811,10.56695,9.689116,30.91567,5.322299,31.86786,-56.99155,-0.4675641,7.097569,-72.57975,-8.521038,-36.83611,0,0,0,77.45658,-83.64352,-35.78891,-125.6394,-110.0664,-86.73244,0.001067912,-0.1257102,0.09433498,0,0.3,0,0,0,0,
6.38224E+17,28.79027,9.561686,8.615141,29.37753,6.787202,33.69899,-56.99155,-0.4675641,7.097569,-72.57975,-8.521038,-36.83611,0,0,0,72.95004,-86.3447,-35.60099,-125.6394,-110.0664,-86.73244,0.001067912,-0.1257102,0.09433498,0,0.3,0,0,0,0,
6.38224E+17,27.25887,8.860339,7.77464,27.61964,8.03237,35.09065,-56.99155,-0.4675641,7.097569,-72.57975,-8.521038,-36.83611,0,0,0,68.60918,-88.23479,-35.18773,-125.6394,-110.0664,-86.73244,0.001067912,-0.1257102,0.09433498,0,0.3,0,0,0,0,
6.38224E+17,26.31648,8.533044,7.307694,26.59421,8.618331,35.53012,-56.99155,-0.4675641,7.097569,-72.57975,-8.594284,-36.90935,0,0,0,65.98318,-89.1304,-34.93978,-125.6394,-110.0664,-86.73244,0.001067912,-0.1257102,0.09433498,0,0.3,0,0,0,0,
6.38224E+17,24.26676,7.948589,6.303762,24.4701,9.424027,36.11608,-56.99155,-0.4675641,7.097569,-72.57975,-8.594284,-36.83611,0,0,0,60.29594,-90.75349,-34.60246,-125.6394,-110.0664,-86.73244,0.001067912,-0.1257102,0.09433498,0,0.3,0,0,0,0,
6.38224E+17,21.6516,7.434268,5.113051,21.54029,10.6692,36.18932,-56.99155,-0.4675641,7.097569,-72.57975,-8.594284,-36.90935,0,0,0,53.17233,-92.21539,-34.40462,-125.6394,-110.0664,-86.73244,0.001067912,-0.1257102,0.09433498,0,0.3,0,0,0,0,
6.38224E+17,20.07309,7.317377,4.646106,19.56267,11.25516,35.67661,-56.99155,-0.4675641,7.097569,-72.57975,-8.521038,-36.90935,0,0,0,49.10272,-92.57764,-33.97497,-125.6394,-110.0664,-86.73244,0.001067912,-0.1257102,0.09433498,0,0.3,0,0,0,0,
6.38224E+17,16.68045,7.293999,4.225855,14.50875,12.20734,33.47925,-56.99155,-0.4675641,7.097569,-72.57975,-8.594284,-36.90935,0,0,0,40.78669,-92.70725,-32.23216,-125.6394,-110.0664,-86.73244,0.001067912,-0.1257102,0.09433498,0,0.3,0,0,0,0,
6.38224E+17,13.7119,7.504403,4.482675,9.088613,12.50033,31.20865,-56.99155,-0.4675641,7.097569,-72.57975,-8.594284,-36.83611,0,0,0,33.80904,-92.17625,-29.78481,-125.6394,-110.0664,-86.73244,0.001067912,-0.1257102,0.09433498,0,0.3,0,0,0,0,
6.38224E+17,12.48678,7.738185,4.78619,6.158805,12.35384,30.25646,-56.99155,-0.4675641,7.097569,-72.57975,-8.594284,-36.83611,0,0,0,30.97532,-91.57989,-28.47665,-125.6394,-110.0664,-86.73244,0.001067912,-0.1257102,0.09433498,0,0.3,0,0,0,0,
6.38224E+17,10.97894,8.392776,5.509954,1.104889,11.69463,28.71832,-56.99155,-0.4675641,7.097569,-72.57975,-8.594284,-36.83611,0,0,0,27.56281,-89.92033,-26.27287,-125.6394,-110.0664,-86.73244,0.001067912,-0.1257102,0.09433498,0,0.3,0,0,0,0,
6.38224E+17,10.62554,8.953853,6.070289,-2.70386,10.74244,27.91262,-56.99155,-0.4675641,7.097569,-72.57975,-8.594284,-36.90935,0,0,0,26.88889,-88.49785,-25.0239,-125.6394,-110.0664,-86.73244,0.001067912,-0.1257102,0.09433498,0,0.3,0,0,0,0,
6.38224E+17,10.8847,9.304525,6.373804,-4.608234,10.15648,27.83937,-56.99155,-0.4675641,7.097569,-72.57975,-8.594284,-36.83611,0,0,0,27.64506,-87.61547,-24.58455,-125.6394,-110.0664,-86.73244,0.001067912,-0.1257102,0.09433498,0,0.3,0,0,0,0,
6.38224E+17,11.09674,9.398038,6.467193,-4.97446,9.936745,27.83937,-56.99155,-0.4675641,7.097569,-72.57975,-8.521038,-36.90935,0,0,0,28.21168,-87.37642,-24.51059,-125.6394,-110.0664,-86.73244,0.001067912,-0.1257102,0.09433498,0,0.3,0,0,0,0,
6.38224E+17,11.73286,9.468172,6.537234,-5.194195,9.790254,27.91262,-56.99155,-0.4675641,7.097569,-72.57975,-8.594284,-36.83611,0,0,0,29.83436,-87.19694,-24.70028,-125.6394,-110.0664,-86.73244,0.001067912,-0.1257102,0.09433498,0,0.3,0,0,0,0,
6.38224E+17,12.60458,9.468172,6.537234,-4.901215,9.8635,27.91262,-56.99155,-0.4675641,7.097569,-72.57975,-8.594284,-36.90935,0,0,0,32.01636,-87.19694,-25.1708,-125.6394,-110.0664,-86.73244,0.001067912,-0.1257102,0.09433498,0,0.3,0,0,0,0,
6.38224E+17,13.09934,9.468172,6.537234,-4.608234,9.8635,27.91262,-56.99155,-0.4675641,7.097569,-72.57975,-8.594284,-36.90935,0,0,0,33.25153,-87.19694,-25.4526,-125.6394,-110.0664,-86.73244,0.001067912,-0.1257102,0.09433498,0,0.3,0,0,0,0,
6.38224E+17,14.27734,9.468172,6.537234,-3.436311,10.08323,27.91262,-56.99155,-0.4675641,7.097569,-72.57975,-8.594284,-36.83611,0,0,0,36.18225,-87.19694,-26.1664,-125.6394,-110.0664,-86.73244,0.001067912,-0.1257102,0.09433498,0,0.3,0,0,0,0,
6.38224E+17,15.40822,9.444795,6.537234,-1.678428,10.15648,28.05911,-56.99155,-0.4675641,7.097569,-72.57975,-8.594284,-36.83611,0,0,0,38.98376,-87.2506,-26.89958,-125.6394,-110.0664,-86.73244,0.001067912,-0.1257102,0.09433498,0,0.3,0,0,0,0,
6.38224E+17,15.92653,9.421416,6.537234,-0.7262403,10.22972,28.27885,-56.99155,-0.4675641,7.097569,-72.57975,-8.594284,-36.83611,0,0,0,40.26421,-87.30428,-27.24945,-125.6394,-110.0664,-86.73244,0.001067912,-0.1257102,0.09433498,0,0.3,0,0,0,0,
6.38224E+17,16.89249,9.281147,6.537234,1.031644,10.22972,28.79156,-56.99155,-0.4675641,7.097569,-72.57975,-8.521038,-36.83611,0,0,0,42.65262,-87.6264,-27.89753,-125.6394,-110.0664,-86.73244,0.001067912,-0.1257102,0.09433498,0,0.3,0,0,0,0,
6.38224E+17,17.85845,9.047364,6.537234,2.716283,10.30297,29.37753,-56.99155,-0.4675641,7.097569,-72.57975,-8.521038,-36.90935,0,0,0,45.04093,-88.16356,-28.55406,-125.6394,-110.0664,-86.73244,0.001067912,-0.1257102,0.09433498,0,0.3,0,0,0,0,
6.38224E+17,18.84797,8.696692,6.537234,4.254431,10.37621,29.817,-56.99155,-0.4675641,7.097569,-72.57975,-8.594284,-36.83611,0,0,0,47.48908,-88.96995,-29.23362,-125.6394,-110.0664,-86.73244,0.001067912,-0.1257102,0.09433498,0,0.3,0,0,0,0,
6.38224E+17,19.34273,8.439531,6.537234,5.060128,10.44946,30.03673,-56.99155,-0.4675641,7.097569,-72.57975,-8.521038,-36.90935,0,0,0,48.71813,-89.56178,-29.56474,-125.6394,-110.0664,-86.73244,0.001067912,-0.1257102,0.09433498,0,0.3,0,0,0,0,
6.38224E+17,20.37937,7.784942,6.537234,6.525032,10.88893,30.62269,-56.99155,-0.4675641,7.097569,-72.57975,-8.594284,-36.90935,0,0,0,51.29589,-91.07002,-30.26733,-125.6394,-110.0664,-86.73244,0.001067912,-0.1257102,0.09433498,0,0.3,0,0,0,0,
6.38224E+17,21.51024,7.036839,6.537234,8.06318,11.54814,31.57488,-56.99155,-0.4675641,7.097569,-72.57975,-8.521038,-36.90935,0,0,0,54.09348,-92.79659,-31.09768,-125.6394,-110.0664,-86.73244,0.001067912,-0.1257102,0.09433498,0,0.3,0,0,0,0,
6.38224E+17,22.05212,6.662788,6.537234,8.795631,11.91436,32.01435,-56.99155,-0.4675641,7.097569,-72.57975,-8.594284,-36.83611,0,0,0,55.4281,-93.66094,-31.51917,-125.6394,-110.0664,-86.73244,0.001067912,-0.1257102,0.09433498,0,0.3,0,0,0,0,
6.38224E+17,23.3008,5.844551,6.537234,10.33378,12.64682,32.7468,-56.99155,-0.4675641,7.097569,-72.57975,-8.521038,-36.83611,0,0,0,58.47878,-95.55396,-32.56902,-125.6394,-110.0664,-86.73244,0.001067912,-0.1257102,0.09433498,0,0.3,0,0,0,0,
6.38224E+17,24.69084,4.909423,6.560582,12.01842,13.23278,33.11303,-56.99155,-0.4675641,7.097569,-72.57975,-8.594284,-36.83611,0,0,0,61.86314,-97.71458,-33.79322,-125.6394,-110.0664,-86.73244,0.001067912,-0.1257102,0.09433498,0,0.3,0,0,0,0,
6.38224E+17,26.10444,3.717134,6.630623,13.7763,13.81874,33.33276,-56.99155,-0.4675641,7.097569,-72.57975,-8.521038,-36.90935,0,0,0,65.32684,-100.4629,-35.02748,-125.6394,-110.0664,-86.73244,0.001067912,-0.1257102,0.09433498,0,0.3,0,0,0,0,
6.38224E+17,26.90548,3.015788,6.724013,14.72849,14.18496,33.40601,-56.99155,-0.4675641,7.097569,-72.57975,-8.594284,-36.90935,0,0,0,67.3254,-102.0671,-35.67581,-125.6394,-110.0664,-86.73244,0.001067912,-0.1257102,0.09433498,0,0.3,0,0,0,0,
6.38224E+17,28.43687,1.659852,7.167611,16.48637,14.69768,33.11303,-56.99155,-0.4675641,7.097569,-72.57975,-8.521038,-36.90935,0,0,0,71.39636,-105.0953,-36.50806,-125.6394,-110.0664,-86.73244,0.001067912,-0.1257102,0.09433498,0,0.3,0,0,0,0,
6.38224E+17,29.80335,0.6312115,7.587861,18.17101,15.35689,32.38057,-56.99155,-0.4675641,7.097569,-72.57975,-8.521038,-36.90935,0,0,0,75.02602,-107.3633,-37.36494,-125.6394,-110.0664,-86.73244,0.001067912,-0.1257102,0.09433498,0,0.3,0,0,0,0,
6.38224E+17,30.43947,0.2104038,7.77464,18.90347,15.64987,31.86786,-56.99155,-0.4675641,7.097569,-72.57975,-8.594284,-36.90935,0,0,0,76.69752,-108.2845,-37.82833,-125.6394,-110.0664,-86.73244,0.001067912,-0.1257102,0.09433498,0,0.3,0,0,0,0,
6.38224E+17,31.57035,-0.3039166,8.241585,20.07539,16.16258,30.62269,-56.99155,-0.4675641,7.097569,-72.57975,-8.594284,-36.83611,0,0,0,79.8215,-109.3302,-38.45142,-125.6394,-110.0664,-86.73244,0.001067912,-0.1257102,0.09433498,0,0.3,0,0,0,0,
6.38224E+17,32.63055,-0.5844551,8.801919,21.02757,16.52881,29.37753,-56.99155,-0.4675641,7.097569,-72.5065,-8.521038,-36.83611,0,0,0,82.90405,-109.7898,-38.86869,-125.6394,-110.0664,-86.73244,0.001067912,-0.1257102,0.09433498,0,0.3,0,0,0,0,
6.38224E+17,33.14886,-0.7013461,9.152128,21.46704,16.6753,28.86481,-56.99155,-0.4675641,7.097569,-72.57975,-8.594284,-36.83611,0,0,0,84.51054,-109.9347,-38.95245,-125.6394,-110.0664,-86.73244,0.001067912,-0.1257102,0.09433498,0,0.3,0,0,0,0,
6.38224E+17,34.16194,-0.9351282,9.969283,22.56572,16.89503,28.05911,-56.99155,-0.4675641,7.097569,-72.57975,-8.594284,-36.83611,0,0,0,87.83391,-110.1628,-38.92149,-125.6394,-110.0664,-86.73244,0.001067912,-0.1257102,0.09433498,0,0.3,0,0,0,0,
6.38224E+17,35.05722,-0.9818845,10.87983,23.73765,16.82179,27.76613,-56.99155,-0.4675641,7.097569,-72.57975,-8.594284,-36.83611,0,0,0,91.0416,-109.8882,-38.60511,-125.6394,-110.0664,-86.73244,0.001067912,-0.1257102,0.09433498,0,0.3,0,0,0,0,
6.38224E+17,35.92894,-0.9818845,11.90711,25.05606,16.38232,27.61964,-56.99155,-0.4675641,7.097569,-72.57975,-8.521038,-36.83611,0,0,0,94.38023,-109.4159,-38.10738,-125.6394,-110.0664,-86.73244,0.001067912,-0.1257102,0.09433498,0,0.3,0,0,0,0,
6.38224E+17,36.44726,-0.9818845,12.53748,25.78851,16.23583,27.54639,-56.99155,-0.4675641,7.097569,-72.57975,-8.594284,-36.90935,0,0,0,96.40642,-109.1053,-37.81308,-125.6394,-110.0664,-86.73244,0.001067912,-0.1257102,0.09433498,0,0.3,0,0,0,0,
6.38224E+17,37.53102,-0.9818845,13.84493,27.25341,15.79636,27.39991,-56.99155,-0.4675641,7.097569,-72.57975,-8.594284,-36.90935,0,0,0,100.6629,-108.4109,-37.31046,-125.6394,-110.0664,-86.73244,0.001067912,-0.1257102,0.09433498,0,0.3,0,0,0,0,
6.38224E+17,38.68546,-0.9818845,15.29246,28.93805,15.13715,27.03368,-56.99155,-0.4675641,7.097569,-72.57975,-8.521038,-36.90935,0,0,0,105.3206,-107.5635,-36.81999,-125.6394,-110.0664,-86.73244,0.001067912,-0.1257102,0.09433498,0,0.3,0,0,0,0,
6.38224E+17,39.32158,-0.9818845,16.15631,29.817,14.84417,26.66745,-56.99155,-0.4675641,7.097569,-72.57975,-8.594284,-36.83611,0,0,0,108.0007,-107.0186,-36.50026,-125.6394,-110.0664,-86.73244,0.001067912,-0.1257102,0.09433498,0,0.3,0,0,0,0,
6.38224E+17,40.57025,-0.9818845,17.74392,31.50163,14.33146,25.64202,-56.99155,-0.4675641,7.097569,-72.57975,-8.594284,-36.90935,0,0,0,113.147,-105.9414,-36.20035,-125.6394,-110.0664,-86.73244,0.001067912,-0.1257102,0.09433498,0,0.3,0,0,0,0,
6.38224E+17,41.84249,-0.9818845,19.33154,33.03978,13.67225,24.61659,-56.99155,-0.4675641,7.097569,-72.57975,-8.594284,-36.83611,0,0,0,118.3901,-104.7667,-36.13532,-125.6394,-110.0664,-86.73244,0.001067912,-0.1257102,0.09433498,0,0.3,0,0,0,0,
6.38224E+17,42.43149,-0.9818845,20.102,33.69899,13.37927,23.88414,-56.99155,-0.4675641,7.097569,-72.57975,-8.521038,-36.90935,0,0,0,120.8819,-104.1617,-36.11343,-125.6394,-110.0664,-86.73244,0.001067912,-0.1257102,0.09433498,0,0.3,0,0,0,0,
6.38224E+17,43.70373,-0.9818845,21.99312,35.09065,12.86655,21.97976,-56.99155,-0.4675641,7.097569,-72.57975,-8.594284,-36.83611,0,0,0,126.6262,-102.5811,-35.8605,-125.6394,-110.0664,-86.73244,0.001067912,-0.1257102,0.09433498,0,0.3,0,0,0,0,
6.38224E+17,44.92884,-0.9585064,23.88425,36.70204,11.98761,20.07539,-56.99155,-0.4675641,7.097569,-72.57975,-8.594284,-36.83611,0,0,0,132.2931,-100.8113,-35.72792,-125.6394,-110.0664,-86.73244,0.001067912,-0.1257102,0.09433498,0,0.3,0,0,0,0,
6.38224E+17,46.08328,-0.9585064,25.75204,38.0937,11.03542,17.6583,-56.99155,-0.4675641,7.097569,-72.57975,-8.521038,-36.90935,0,0,0,137.7803,-98.98677,-35.68361,-125.6394,-110.0664,-86.73244,0.001067912,-0.1257102,0.09433498,0,0.3,0,0,0,0,
6.38224E+17,46.55449,-0.9585064,26.61588,38.60641,10.6692,16.41313,-56.99155,-0.4675641,7.097569,-72.57975,-8.594284,-36.83611,0,0,0,140.1766,-98.09963,-35.58051,-125.6394,-110.0664,-86.73244,0.001067912,-0.1257102,0.09433498,0,0.3,0,0,0,0,
6.38224E+17,47.49688,-0.9117499,28.29689,39.70509,9.8635,14.06928,-56.99155,-0.4675641,7.097569,-72.57975,-8.594284,-36.90935,0,0,0,144.902,-96.187,-35.55729,-125.6394,-110.0664,-86.73244,0.001067912,-0.1257102,0.09433498,0,0.3,0,0,0,0,
6.38224E+17,48.29792,-0.9117499,29.72107,40.87702,8.984557,11.79868,-56.99155,-0.4675641,7.097569,-72.57975,-8.594284,-36.90935,0,0,0,148.9085,-94.57962,-35.66764,-125.6394,-110.0664,-86.73244,0.001067912,-0.1257102,0.09433498,0,0.3,0,0,0,0,
6.38224E+17,48.65132,-0.9117499,30.39814,41.38973,8.691576,10.62676,-56.99155,-0.4675641,7.097569,-72.57975,-8.594284,-36.90935,0,0,0,150.7479,-93.79031,-35.68761,-125.6394,-110.0664,-86.73244,0.001067912,-0.1257102,0.09433498,0,0.3,0,0,0,0,
6.38224E+17,49.26388,-0.7714807,31.58885,42.41516,8.03237,8.429405,-56.99155,-0.4675641,7.097569,-72.57975,-8.594284,-36.83611,0,0,0,153.9612,-92.03687,-35.75347,-125.6394,-110.0664,-86.73244,0.001067912,-0.1257102,0.09433498,0,0.3,0,0,0,0,
6.38224E+17,49.80576,-0.2805384,32.56944,43.14762,7.226673,6.232051,-56.99155,-0.4675641,7.097569,-72.57975,-8.594284,-36.90935,0,0,0,156.6935,-89.68226,-35.96072,-125.6394,-110.0664,-86.73244,0.001067912,-0.1257102,0.09433498,0,0.3,0,0,0,0,
6.38224E+17,50.39476,0.5610769,33.50333,43.88007,6.274486,4.254431,-56.99155,-0.4675641,7.097569,-72.57975,-8.594284,-36.83611,0,0,0,159.4463,-86.53857,-36.41996,-125.6394,-110.0664,-86.73244,0.001067912,-0.1257102,0.09433498,0,0.3,0,0,0,0,
6.38224E+17,50.70104,1.052019,33.99362,44.24629,5.615279,3.228999,-56.99155,-0.4675641,7.097569,-72.57975,-8.594284,-36.83611,0,0,0,160.8711,-84.76214,-36.68342,-125.6394,-110.0664,-86.73244,0.001067912,-0.1257102,0.09433498,0,0.3,0,0,0,0,
6.38224E+17,51.14867,2.08066,35.0209,45.19848,4.516602,0.9583986,-56.99155,-0.4675641,7.097569,-72.57975,-8.594284,-36.83611,0,0,0,163.3782,-81.01456,-36.74942,-125.6394,-110.0664,-86.73244,0.001067912,-0.1257102,0.09433498,0,0.3,0,0,0,0,
6.38224E+17,51.52563,3.24957,35.88475,45.93093,3.198189,-1.605182,-56.99155,-0.4675641,7.097569,-72.57975,-8.521038,-36.90935,0,0,0,165.4236,-77.13088,-36.88692,-125.6394,-110.0664,-86.73244,0.001067912,-0.1257102,0.09433498,0,0.3,0,0,0,0,
6.38224E+17,51.66699,3.880782,36.305,46.44365,2.392492,-2.85035,-56.99155,-0.4675641,7.097569,-72.57975,-8.594284,-36.90935,0,0,0,166.2957,-75.08843,-36.86192,-125.6394,-110.0664,-86.73244,0.001067912,-0.1257102,0.09433498,0,0.3,0,0,0,0,
6.38224E+17,51.9026,5.33023,36.93538,47.24934,0.7810982,-5.120951,-56.99155,-0.4675641,7.097569,-72.57975,-8.594284,-36.90935,0,0,0,167.5485,-70.85082,-36.98742,-125.6394,-110.0664,-86.73244,0.001067912,-0.1257102,0.09433498,0,0.3,0,0,0,0,
6.38224E+17,51.97327,7.060217,37.0988,47.90855,-0.8302955,-6.80559,-56.99155,-0.4675641,7.097569,-72.57975,-8.594284,-36.83611,0,0,0,167.6074,-66.61912,-37.27478,-125.6394,-110.0664,-86.73244,0.001067912,-0.1257102,0.09433498,0,0.3,0,0,0,0,
6.38224E+17,51.97327,7.995345,37.19219,48.20153,-1.855728,-7.611286,-56.99155,-0.4675641,7.097569,-72.57975,-8.521038,-36.83611,0,0,0,167.5193,-64.33024,-37.34369,-125.6394,-110.0664,-86.73244,0.001067912,-0.1257102,0.09433498,0,0.3,0,0,0,0,
6.38224E+17,51.92616,9.701954,37.44902,48.64101,-3.467122,-8.929699,-56.99155,-0.4675641,7.097569,-72.57975,-8.594284,-36.83611,0,0,0,167.3047,-60.04332,-37.2896,-125.6394,-110.0664,-86.73244,0.001067912,-0.1257102,0.09433498,0,0.3,0,0,0,0,
6.38224E+17,51.92616,11.4787,37.42567,49.00723,-4.85878,-10.17487,-56.99155,-0.4675641,7.097569,-72.57975,-8.521038,-36.83611,0,0,0,166.6725,-56.01177,-37.78485,-125.6394,-110.0664,-86.73244,0.001067912,-0.1257102,0.09433498,0,0.3,0,0,0,0,
6.38224E+17,51.92616,13.3022,37.42567,49.22696,-6.177193,-12.59196,-56.99155,-0.4675641,7.097569,-72.57975,-8.594284,-36.83611,0,0,0,165.9557,-51.86679,-38.34641,-125.6394,-110.0664,-86.73244,0.001067912,-0.1257102,0.09433498,0,0.3,0,0,0,0,
6.38224E+17,51.87903,14.19057,37.42567,49.30021,-6.836399,-14.13011,-56.99155,-0.4675641,7.097569,-72.57975,-8.521038,-36.83611,0,0,0,165.4622,-49.85844,-38.51326,-125.6394,-110.0664,-86.73244,0.001067912,-0.1257102,0.09433498,0,0.3,0,0,0,0,
6.38224E+17,51.54919,16.06083,37.42567,49.51994,-8.521038,-16.98667,-56.99155,-0.4675641,7.097569,-72.57975,-8.594284,-36.83611,0,0,0,163.8226,-45.65659,-38.26916,-125.6394,-110.0664,-86.73244,0.001067912,-0.1257102,0.09433498,0,0.3,0,0,0,0,
6.38224E+17,51.078,17.6973,37.42567,49.66644,-9.839451,-18.67131,-56.99155,-0.4675641,7.097569,-72.57975,-8.594284,-36.90935,0,0,0,161.8869,-42.01207,-37.62105,-125.6394,-110.0664,-86.73244,0.001067912,-0.1257102,0.09433498,0,0.3,0,0,0,0,
6.38224E+17,50.79528,18.46878,37.42567,49.59319,-10.64515,-19.25727,-56.99155,-0.4675641,7.097569,-72.57975,-8.594284,-36.83611,0,0,0,160.808,-40.30523,-37.17612,-125.6394,-110.0664,-86.73244,0.001067912,-0.1257102,0.09433498,0,0.3,0,0,0,0,
6.38224E+17,50.20628,19.82472,37.05211,49.4467,-11.96356,-19.69674,-56.99155,-0.4675641,7.097569,-72.57975,-8.594284,-36.83611,0,0,0,158.124,-37.85019,-36.63543,-125.6394,-110.0664,-86.73244,0.001067912,-0.1257102,0.09433498,0,0.3,0,0,0,0,
6.38224E+17,49.61728,20.99363,36.16492,48.78749,-13.13548,-19.84323,-56.99155,-0.4675641,7.097569,-72.5065,-8.521038,-36.83611,0,0,0,154.7764,-36.53185,-36.70543,-125.6394,-110.0664,-86.73244,0.001067912,-0.1257102,0.09433498,0,0.3,0,0,0,0,
6.38224E+17,49.00472,21.85862,34.85747,47.68882,-14.16092,-19.33051,-56.99155,-0.4675641,7.097569,-72.57975,-8.594284,-36.83611,0,0,0,150.9356,-36.42531,-37.16552,-125.6394,-110.0664,-86.73244,0.001067912,-0.1257102,0.09433498,0,0.3,0,0,0,0,
6.38224E+17,48.74556,22.11578,34.1804,47.10286,-14.38065,-18.8178,-56.99155,-0.4675641,7.097569,-72.57975,-8.594284,-36.83611,0,0,0,149.1961,-36.7633,-37.48806,-125.6394,-110.0664,-86.73244,0.001067912,-0.1257102,0.09433498,0,0.3,0,0,0,0,
6.38224E+17,48.133,22.51321,32.49939,45.63795,-14.4539,-17.2064,-56.99155,-0.4675641,7.097569,-72.57975,-8.521038,-36.83611,0,0,0,145.0931,-38.05777,-38.3162,-125.6394,-110.0664,-86.73244,0.001067912,-0.1257102,0.09433498,0,0.3,0,0,0,0,
6.38224E+17,47.52044,22.77037,30.725,43.88007,-14.4539,-14.9358,-56.99155,-0.4675641,7.097569,-72.57975,-8.521038,-36.83611,0,0,0,140.931,-39.66996,-39.30303,-125.6394,-110.0664,-86.73244,0.001067912,-0.1257102,0.09433498,0,0.3,0,0,0,0,
6.38224E+17,46.97857,22.79375,29.09069,42.12218,-14.16092,-12.07924,-56.99155,-0.4675641,7.097569,-72.57975,-8.594284,-36.90935,0,0,0,137.2784,-41.51627,-40.23981,-125.6394,-110.0664,-86.73244,0.001067912,-0.1257102,0.09433498,0,0.3,0,0,0,0,
6.38224E+17,46.69584,22.79375,28.39028,41.46298,-13.86794,-10.54109,-56.99155,-0.4675641,7.097569,-72.57975,-8.521038,-36.83611,0,0,0,135.6044,-42.30011,-40.54431,-125.6394,-110.0664,-86.73244,0.001067912,-0.1257102,0.09433498,0,0.3,0,0,0,0,
6.38224E+17,45.94193,22.74699,27.17622,39.92483,-13.13548,-6.512609,-56.99155,-0.4675641,7.097569,-72.57975,-8.521038,-36.90935,0,0,0,132.1448,-43.71751,-40.48014,-125.6394,-110.0664,-86.73244,0.001067912,-0.1257102,0.09433498,0,0.3,0,0,0,0,
6.38224E+17,45.23512,22.65348,25.98551,38.45993,-12.40303,-2.484124,-56.99155,-0.4675641,7.097569,-72.57975,-8.594284,-36.83611,0,0,0,128.8574,-45.1583,-40.54585,-125.6394,-110.0664,-86.73244,0.001067912,-0.1257102,0.09433498,0,0.3,0,0,0,0,
6.38224E+17,44.90529,22.51321,25.42517,37.72747,-12.11005,-1.019221,-56.99155,-0.4675641,7.097569,-72.57975,-8.594284,-36.90935,0,0,0,127.3785,-46.02538,-40.54963,-125.6394,-110.0664,-86.73244,0.001067912,-0.1257102,0.09433498,0,0.3,0,0,0,0,
6.38224E+17,44.22205,22.02227,24.58467,36.26257,-11.3776,1.617605,-56.99155,-0.4675641,7.097569,-72.57975,-8.594284,-36.83611,0,0,0,124.9111,-47.90965,-39.99998,-125.6394,-110.0664,-86.73244,0.001067912,-0.1257102,0.09433498,0,0.3,0,0,0,0,
6.38224E+17,43.72729,21.36768,23.88425,34.94416,-11.08462,4.400921,-56.99155,-0.4675641,7.097569,-72.57975,-8.521038,-36.83611,0,0,0,123.1599,-49.99434,-39.59336,-125.6394,-110.0664,-86.73244,0.001067912,-0.1257102,0.09433498,0,0.3,0,0,0,0,
6.38224E+17,43.30321,20.5962,22.88032,33.99197,-9.473226,7.037747,-56.99155,-0.4675641,7.097569,-72.57975,-8.594284,-36.90935,0,0,0,121.1736,-52.59809,-39.77816,-125.6394,-110.0664,-86.73244,0.001067912,-0.1257102,0.09433498,0,0.3,0,0,0,0,
6.38224E+17,43.02049,20.15201,22.27329,33.40601,-8.667529,8.209671,-56.99155,-0.4675641,7.097569,-72.57975,-8.594284,-36.83611,0,0,0,119.8932,-54.10961,-39.87243,-125.6394,-110.0664,-86.73244,0.001067912,-0.1257102,0.09433498,0,0.3,0,0,0,0,
6.38224E+17,42.47861,19.56756,21.08258,32.38057,-7.12938,10.11404,-56.99155,-0.4675641,7.097569,-72.57975,-8.521038,-36.90935,0,0,0,117.2458,-56.41262,-40.30277,-125.6394,-110.0664,-86.73244,0.001067912,-0.1257102,0.09433498,0,0.3,0,0,0,0,
6.38224E+17,41.88961,19.33377,19.75179,31.50163,-5.810967,11.43246,-56.99155,-0.4675641,7.097569,-72.57975,-8.521038,-36.90935,0,0,0,114.1062,-58.00614,-41.13021,-125.6394,-110.0664,-86.73244,0.001067912,-0.1257102,0.09433498,0,0.3,0,0,0,0,
6.38224E+17,41.51265,19.3104,18.98133,30.91567,-5.15176,11.79868,-56.99155,-0.4675641,7.097569,-72.57975,-8.594284,-36.83611,0,0,0,112.1574,-58.65211,-41.63552,-125.6394,-110.0664,-86.73244,0.001067912,-0.1257102,0.09433498,0,0.3,0,0,0,0,
6.38224E+17,40.42889,19.3104,17.37037,29.37753,-3.906592,12.3114,-56.99155,-0.4675641,7.097569,-72.57975,-8.594284,-36.90935,0,0,0,107.4306,-59.82163,-42.24839,-125.6394,-110.0664,-86.73244,0.001067912,-0.1257102,0.09433498,0,0.3,0,0,0,0,
6.38224E+17,39.06242,19.3104,15.87614,27.54639,-2.954405,12.75087,-56.99155,-0.4675641,7.097569,-72.57975,-8.594284,-36.83611,0,0,0,102.293,-60.81647,-42.30965,-125.6394,-110.0664,-86.73244,0.001067912,-0.1257102,0.09433498,0,0.3,0,0,0,0,
6.38224E+17,38.33206,19.3104,15.17572,26.59421,-2.58818,13.1171,-56.99155,-0.4675641,7.097569,-72.57975,-8.594284,-36.83611,0,0,0,99.70393,-61.25282,-42.24805,-125.6394,-110.0664,-86.73244,0.001067912,-0.1257102,0.09433498,0,0.3,0,0,0,0,
6.38224E+17,36.68286,19.33377,13.96167,24.54334,-1.928973,14.80174,-56.99155,-0.4675641,7.097569,-72.57975,-8.594284,-36.90935,0,0,0,94.389,-61.91222,-41.63835,-125.6394,-110.0664,-86.73244,0.001067912,-0.1257102,0.09433498,0,0.3,0,0,0,0,
6.38224E+17,35.2457,19.33377,13.00443,22.71221,-1.416257,16.8526,-56.99155,-0.4675641,7.097569,-72.57975,-8.594284,-36.83611,0,0,0,89.93109,-62.43166,-41.08019,-125.6394,-110.0664,-86.73244,0.001067912,-0.1257102,0.09433498,0,0.3,0,0,0,0,
6.38224E+17,33.97346,19.38053,12.32736,21.02757,-1.123276,18.61049,-56.99155,-0.4675641,7.097569,-72.57975,-8.594284,-36.83611,0,0,0,86.20387,-62.67451,-40.41975,-125.6394,-110.0664,-86.73244,0.001067912,-0.1257102,0.09433498,0,0.3,0,0,0,0,
6.38224E+17,33.40803,19.42729,12.07054,20.36837,-0.9767859,19.19645,-56.99155,-0.4675641,7.097569,-72.57975,-8.594284,-36.83611,0,0,0,84.5956,-62.69817,-40.09314,-125.6394,-110.0664,-86.73244,0.001067912,-0.1257102,0.09433498,0,0.3,0,0,0,0,
6.38224E+17,32.41851,19.66107,11.69698,18.97671,-0.7570504,19.9289,-56.99155,-0.4675641,7.097569,-72.57975,-8.521038,-36.83611,0,0,0,81.81436,-62.36445,-39.52318,-125.6394,-110.0664,-86.73244,0.001067912,-0.1257102,0.09433498,0,0.3,0,0,0,0,
6.38224E+17,31.61747,20.17539,11.5102,17.87803,-0.4640697,20.22188,-56.99155,-0.4675641,7.097569,-72.57975,-8.594284,-36.90935,0,0,0,79.56831,-61.32647,-39.10187,-125.6394,-110.0664,-86.73244,0.001067912,-0.1257102,0.09433498,0,0.3,0,0,0,0,
6.38224E+17,30.91067,20.8066,11.58024,16.8526,-1.050031,20.36837,-56.99155,-0.4675641,7.097569,-72.57975,-8.521038,-36.83611,0,0,0,77.78576,-59.91772,-38.43437,-125.6394,-110.0664,-86.73244,0.001067912,-0.1257102,0.09433498,0,0.3,0,0,0,0,
6.38224E+17,30.60439,21.15727,11.79037,16.48637,-1.343012,20.44161,-56.99155,-0.4675641,7.097569,-72.57975,-8.594284,-36.90935,0,0,0,77.18521,-59.05664,-37.85975,-125.6394,-110.0664,-86.73244,0.001067912,-0.1257102,0.09433498,0,0.3,0,0,0,0,
6.38224E+17,30.46303,21.85862,11.83706,16.26664,-1.709238,20.51486,-56.99155,-0.4675641,7.097569,-72.5065,-8.594284,-36.83611,0,0,0,76.61356,-57.51575,-38.09386,-125.6394,-110.0664,-86.73244,0.001067912,-0.1257102,0.09433498,0,0.3,0,0,0,0,
6.38224E+17,30.62795,22.44308,11.93045,17.36532,-1.562747,20.51486,-56.99155,-0.4675641,7.097569,-72.57975,-8.594284,-36.83611,0,0,0,76.83524,-56.21113,-38.57323,-125.6394,-110.0664,-86.73244,0.001067912,-0.1257102,0.09433498,0,0.3,0,0,0,0,
6.38224E+17,30.62795,22.74699,12.14058,18.17101,-1.343012,20.5881,-56.99155,-0.4675641,7.097569,-72.57975,-8.594284,-36.83611,0,0,0,76.94045,-55.45612,-38.39552,-125.6394,-110.0664,-86.73244,0.001067912,-0.1257102,0.09433498,0,0.3,0,0,0,0,
6.38224E+17,30.62795,23.49509,12.53748,19.78241,-0.9767859,20.5881,-56.99155,-0.4675641,7.097569,-72.57975,-8.594284,-36.90935,0,0,0,77.05188,-53.65745,-38.20731,-125.6394,-110.0664,-86.73244,0.001067912,-0.1257102,0.09433498,0,0.3,0,0,0,0,
6.38224E+17,30.62795,24.36009,13.00443,21.24731,-1.343012,20.29512,-56.99155,-0.4675641,7.097569,-72.57975,-8.594284,-36.83611,0,0,0,77.17587,-51.57706,-37.99789,-125.6394,-110.0664,-86.73244,0.001067912,-0.1257102,0.09433498,0,0.3,0,0,0,0,
6.38224E+17,30.60439,24.82765,13.28459,21.83327,-1.635992,20.00214,-56.99155,-0.4675641,7.097569,-72.57975,-8.521038,-36.83611,0,0,0,77.21497,-50.4393,-37.80945,-125.6394,-110.0664,-86.73244,0.001067912,-0.1257102,0.09433498,0,0.3,0,0,0,0,
6.38224E+17,30.48659,25.99656,14.10175,22.8587,-2.58818,19.63592,-56.99155,-0.4675641,7.097569,-72.57975,-8.594284,-36.90935,0,0,0,77.29158,-47.53184,-37.06468,-125.6394,-110.0664,-86.73244,0.001067912,-0.1257102,0.09433498,0,0.3,0,0,0,0,
6.38224E+17,30.25099,27.25899,14.49865,23.51791,-3.979838,19.34294,-56.99155,-0.4675641,7.097569,-72.5065,-8.594284,-36.90935,0,0,0,76.53863,-44.6772,-37.11225,-125.6394,-110.0664,-86.73244,0.001067912,-0.1257102,0.09433498,0,0.3,0,0,0,0,
6.38224E+17,30.03895,28.26425,14.38192,23.29818,-5.078516,18.90347,-56.99155,-0.4675641,7.097569,-72.57975,-8.594284,-36.83611,0,0,0,75.37518,-42.67464,-38.00107,-125.6394,-110.0664,-86.73244,0.001067912,-0.1257102,0.09433498,0,0.3,0,0,0,0,
6.38224E+17,29.96827,28.6383,14.14844,23.00519,-5.517986,18.68373,-56.99155,-0.4675641,7.097569,-72.57975,-8.594284,-36.90935,0,0,0,74.74409,-42.04311,-38.72371,-125.6394,-110.0664,-86.73244,0.001067912,-0.1257102,0.09433498,0,0.3,0,0,0,0,
6.38224E+17,29.89759,29.12924,13.26125,22.41923,-6.030703,18.39075,-56.99155,-0.4675641,7.097569,-72.57975,-8.594284,-36.90935,0,0,0,73.3091,-41.53184,-40.84915,-125.6394,-110.0664,-86.73244,0.001067912,-0.1257102,0.09433498,0,0.3,0,0,0,0,
6.38224E+17,29.73267,29.57343,12.07054,21.68678,-6.030703,17.95128,-56.99155,-0.4675641,7.097569,-72.57975,-8.594284,-36.90935,0,0,0,71.34955,-41.23838,-43.4265,-125.6394,-110.0664,-86.73244,0.001067912,-0.1257102,0.09433498,0,0.3,0,0,0,0,
6.38224E+17,29.61487,29.85397,11.5569,21.17406,-5.884212,17.58505,-56.99155,-0.4675641,7.097569,-72.57975,-8.594284,-36.83611,0,0,0,70.35439,-40.91606,-44.57869,-125.6394,-110.0664,-86.73244,0.001067912,-0.1257102,0.09433498,0,0.3,0,0,0,0,
6.38224E+17,29.21435,30.41504,10.76309,20.00214,-5.737722,16.70611,-56.99155,-0.4675641,7.097569,-72.57975,-8.521038,-36.83611,0,0,0,68.28283,-40.14428,-46.24409,-125.6394,-110.0664,-86.73244,0.001067912,-0.1257102,0.09433498,0,0.3,0,0,0,0,
6.38224E+17,28.50755,31.16315,9.945935,18.46399,-5.664476,15.31445,-56.99155,-0.4675641,7.097569,-72.57975,-8.521038,-36.83611,0,0,0,65.4531,-38.99039,-47.83827,-125.6394,-110.0664,-86.73244,0.001067912,-0.1257102,0.09433498,0,0.3,0,0,0,0,
6.38224E+17,27.44736,31.91125,9.362254,16.55962,-5.591231,13.99604,-56.99155,-0.4675641,7.097569,-72.57975,-8.594284,-36.90935,0,0,0,62.17502,-37.73425,-48.64448,-125.6394,-110.0664,-86.73244,0.001067912,-0.1257102,0.09433498,0,0.3,0,0,0,0,
6.38224E+17,26.66988,32.19178,9.012045,15.31445,-5.737722,13.33683,-56.99155,-0.4675641,7.097569,-72.57975,-8.594284,-36.83611,0,0,0,60.02832,-37.31098,-48.84048,-125.6394,-110.0664,-86.73244,0.001067912,-0.1257102,0.09433498,0,0.3,0,0,0,0,
6.38224E+17,24.76152,32.51908,8.078154,12.89736,-5.884212,12.16491,-56.99155,-0.4675641,7.097569,-72.57975,-8.521038,-36.90935,0,0,0,54.94424,-36.99046,-49.22971,-125.6394,-110.0664,-86.73244,0.001067912,-0.1257102,0.09433498,0,0.3,0,0,0,0,
6.38224E+17,22.42908,32.56584,7.144264,9.967555,-5.884212,10.8465,-56.99155,-0.4675641,7.097569,-72.57975,-8.594284,-36.90935,0,0,0,49.20652,-37.1866,-49.13781,-125.6394,-110.0664,-86.73244,0.001067912,-0.1257102,0.09433498,0,0.3,0,0,0,0,
6.38224E+17,21.03905,32.56584,6.770707,8.209671,-5.957458,10.11404,-56.99155,-0.4675641,7.097569,-72.57975,-8.594284,-36.90935,0,0,0,45.99033,-37.29192,-48.7847,-125.6394,-110.0664,-86.73244,0.001067912,-0.1257102,0.09433498,0,0.3,0,0,0,0,
6.38224E+17,18.14117,32.56584,6.163678,4.400921,-5.664476,8.649141,-56.99155,-0.4675641,7.097569,-72.57975,-8.594284,-36.90935,0,0,0,39.4497,-37.45105,-47.94653,-125.6394,-110.0664,-86.73244,0.001067912,-0.1257102,0.09433498,0,0.3,0,0,0,0,
6.38224E+17,15.33753,32.56584,5.626691,0.1527017,-5.298251,7.403974,-56.99155,-0.4675641,7.097569,-72.57975,-8.594284,-36.90935,0,0,0,33.18435,-37.57941,-47.35993,-125.6394,-110.0664,-86.73244,0.001067912,-0.1257102,0.09433498,0,0.3,0,0,0,0,
6.38224E+17,14.11242,32.58922,5.416566,-2.044653,-5.078516,6.964502,-56.99155,-0.4675641,7.097569,-72.57975,-8.594284,-36.83611,0,0,0,30.46407,-37.58062,-47.17858,-125.6394,-110.0664,-86.73244,0.001067912,-0.1257102,0.09433498,0,0.3,0,0,0,0,
6.38224E+17,12.4161,32.77624,4.996315,-5.706912,-4.712289,6.744767,-56.99155,-0.4675641,7.097569,-72.57975,-8.594284,-36.83611,0,0,0,26.60384,-37.30301,-47.51071,-125.6394,-110.0664,-86.73244,0.001067912,-0.1257102,0.09433498,0,0.3,0,0,0,0,
6.38224E+17,11.68574,33.43083,4.78619,-8.563474,-4.419309,6.598277,-56.99155,-0.4675641,7.097569,-72.57975,-8.594284,-36.83611,0,0,0,24.79414,-36.06851,-48.47338,-125.6394,-110.0664,-86.73244,0.001067912,-0.1257102,0.09433498,0,0.3,0,0,0,0,
6.38224E+17,11.63862,34.57636,4.972968,-10.24811,-4.492554,6.525032,-56.99155,-0.4675641,7.097569,-72.57975,-8.594284,-36.90935,0,0,0,24.48214,-33.82136,-49.48914,-125.6394,-110.0664,-86.73244,0.001067912,-0.1257102,0.09433498,0,0.3,0,0,0,0,
6.38224E+17,11.63862,35.1842,5.253135,-10.68758,-4.932025,6.378541,-56.99155,-0.4675641,7.097569,-72.57975,-8.521038,-36.83611,0,0,0,24.44995,-32.60273,-49.64539,-125.6394,-110.0664,-86.73244,0.001067912,-0.1257102,0.09433498,0,0.3,0,0,0,0,
6.38224E+17,11.80354,36.51675,6.140331,-11.42003,-5.737722,6.158805,-56.99155,-0.4675641,7.097569,-72.57975,-8.594284,-36.90935,0,0,0,24.84027,-29.884,-49.48301,-125.6394,-110.0664,-86.73244,0.001067912,-0.1257102,0.09433498,0,0.3,0,0,0,0,
6.38224E+17,12.32186,38.03634,7.587861,-11.93275,-6.836399,6.158805,-56.99155,-0.4675641,7.097569,-72.57975,-8.594284,-36.90935,0,0,0,26.17123,-26.66724,-48.53752,-125.6394,-110.0664,-86.73244,0.001067912,-0.1257102,0.09433498,0,0.3,0,0,0,0,
6.38224E+17,12.79306,38.97147,8.521752,-12.07924,-7.861832,6.305296,-56.99155,-0.4675641,7.097569,-72.57975,-8.594284,-36.83611,0,0,0,27.33218,-24.65952,-47.97947,-125.6394,-110.0664,-86.73244,0.001067912,-0.1257102,0.09433498,0,0.3,0,0,0,0,
6.38224E+17,13.80614,40.44429,10.10937,-11.78626,-9.326735,6.451786,-56.99155,-0.4675641,7.097569,-72.57975,-8.594284,-36.83611,0,0,0,29.80365,-21.42441,-47.06735,-125.6394,-110.0664,-86.73244,0.001067912,-0.1257102,0.09433498,0,0.3,0,0,0,0,
6.38224E+17,15.12549,42.1509,12.14058,-10.98056,-11.30435,6.158805,-56.99155,-0.4675641,7.097569,-72.57975,-8.594284,-36.83611,0,0,0,33.11462,-17.52831,-45.83853,-125.6394,-110.0664,-86.73244,0.001067912,-0.1257102,0.09433498,0,0.3,0,0,0,0,
6.38224E+17,16.16213,43.74062,14.10175,-9.955132,-13.42846,5.79258,-56.99155,-0.4675641,7.097569,-72.57975,-8.594284,-36.83611,0,0,0,35.86131,-13.78395,-44.60939,-125.6394,-110.0664,-86.73244,0.001067912,-0.1257102,0.09433498,0,0.3,0,0,0,0,
6.38224E+17,16.60977,44.44196,15.10568,-9.36917,-14.4539,5.572844,-56.99155,-0.4675641,7.097569,-72.57975,-8.594284,-36.83611,0,0,0,37.14862,-12.02247,-43.81502,-125.6394,-110.0664,-86.73244,0.001067912,-0.1257102,0.09433498,0,0.3,0,0,0,0,
6.38224E+17,17.45793,45.72776,17.18359,-8.050756,-16.87099,5.206618,-56.99155,-0.4675641,7.097569,-72.57975,-8.594284,-36.90935,0,0,0,39.7458,-8.564913,-41.96893,-125.6394,-110.0664,-86.73244,0.001067912,-0.1257102,0.09433498,0,0.3,0,0,0,0,
6.38224E+17,18.09405,46.73303,19.09806,-6.659099,-19.21483,5.133373,-56.99155,-0.4675641,7.097569,-72.57975,-8.594284,-36.83611,0,0,0,41.93674,-5.559213,-39.99925,-125.6394,-110.0664,-86.73244,0.001067912,-0.1257102,0.09433498,0,0.3,0,0,0,0,
6.38224E+17,18.37677,47.20059,20.14869,-5.999893,-20.31351,5.133373,-56.99155,-0.4675641,7.097569,-72.57975,-8.521038,-36.90935,0,0,0,43.0449,-3.995415,-38.77689,-125.6394,-110.0664,-86.73244,0.001067912,-0.1257102,0.09433498,0,0.3,0,0,0,0,
6.38224E+17,18.77729,48.08897,22.24994,-4.97446,-22.21789,5.279863,-56.99155,-0.4675641,7.097569,-72.5065,-8.521038,-36.83611,0,0,0,44.92537,-0.8340862,-36.21094,-125.6394,-110.0664,-86.73244,0.001067912,-0.1257102,0.09433498,0,0.3,0,0,0,0,
6.38224E+17,19.10713,48.93058,24.51463,-4.095518,-24.342,5.353109,-56.99155,-0.4675641,7.097569,-72.57975,-8.521038,-36.83611,0,0,0,46.78857,2.555237,-33.28703,-125.6394,-110.0664,-86.73244,0.001067912,-0.1257102,0.09433498,0,0.3,0,0,0,0,
6.38224E+17,19.50765,49.79557,27.19957,-3.070086,-26.4661,5.426354,-56.99155,-0.4675641,7.097569,-72.57975,-8.594284,-36.83611,0,0,0,49.09904,6.591413,-29.75737,-125.6394,-110.0664,-86.73244,0.001067912,-0.1257102,0.09433498,0,0.3,0,0,0,0,
6.38224E+17,19.76681,50.16962,28.55371,-2.410879,-27.78452,5.426354,-56.99155,-0.4675641,7.097569,-72.57975,-8.594284,-36.90935,0,0,0,50.44209,8.624771,-27.98663,-125.6394,-110.0664,-86.73244,0.001067912,-0.1257102,0.09433498,0,0.3,0,0,0,0,
6.38224E+17,20.40293,50.66056,31.1686,-0.7262403,-30.12836,5.353109,-56.99155,-0.4675641,7.097569,-72.57975,-8.521038,-36.83611,0,0,0,53.53014,12.38277,-24.43428,-125.6394,-110.0664,-86.73244,0.001067912,-0.1257102,0.09433498,0,0.3,0,0,0,0,
6.38224E+17,21.10972,50.77746,33.31655,1.178134,-32.03274,4.913638,-56.99155,-0.4675641,7.097569,-72.57975,-8.521038,-36.83611,0,0,0,56.74826,15.22192,-21.35774,-125.6394,-110.0664,-86.73244,0.001067912,-0.1257102,0.09433498,0,0.3,0,0,0,0,
6.38224E+17,21.55737,50.77746,34.48391,2.496547,-33.05817,4.547412,-56.99155,-0.4675641,7.097569,-72.57975,-8.521038,-36.83611,0,0,0,58.7235,16.73725,-19.7083,-125.6394,-110.0664,-86.73244,0.001067912,-0.1257102,0.09433498,0,0.3,0,0,0,0,
6.38224E+17,22.38196,50.75408,36.72525,5.426354,-34.8893,3.521979,-56.99155,-0.4675641,7.097569,-72.57975,-8.594284,-36.90935,0,0,0,62.48753,19.73961,-16.60832,-125.6394,-110.0664,-86.73244,0.001067912,-0.1257102,0.09433498,0,0.3,0,0,0,0,
6.38224E+17,23.15944,50.66056,39.05998,8.429405,-36.64718,2.350057,-56.99155,-0.4675641,7.097569,-72.57975,-8.594284,-36.83611,0,0,0,66.29342,22.93892,-13.37298,-125.6394,-110.0664,-86.73244,0.001067912,-0.1257102,0.09433498,0,0.3,0,0,0,0,
6.38224E+17,23.60708,50.54368,40.34408,10.11404,-37.52613,1.397869,-56.99155,-0.4675641,7.097569,-72.57975,-8.594284,-36.90935,0,0,0,68.50716,24.67532,-11.59611,-125.6394,-110.0664,-86.73244,0.001067912,-0.1257102,0.09433498,0,0.3,0,0,0,0,
6.38224E+17,24.76152,50.02935,42.86558,14.14253,-39.28401,-0.8727306,-56.99155,-0.4675641,7.097569,-72.57975,-8.594284,-36.83611,0,0,0,73.87491,27.80682,-8.187638,-125.6394,-110.0664,-86.73244,0.001067912,-0.1257102,0.09433498,0,0.3,0,0,0,0,
6.38224E+17,26.10444,49.2345,45.59721,19.34294,-40.60242,-3.875783,-56.99155,-0.4675641,7.097569,-72.57975,-8.594284,-36.83611,0,0,0,80.23261,31.04299,-4.60696,-125.6394,-110.0664,-86.73244,0.001067912,-0.1257102,0.09433498,0,0.3,0,0,0,0,
6.38224E+17,27.09396,48.41626,47.95528,25.64202,-41.33487,-8.416983,-56.99155,-0.4675641,7.097569,-72.57975,-8.594284,-36.83611,0,0,0,85.41298,33.78811,-1.39497,-125.6394,-110.0664,-86.73244,0.001067912,-0.1257102,0.09433498,0,0.3,0,0,0,0,
6.38224E+17,27.47091,48.04221,48.98256,28.49858,-41.55461,-10.76083,-56.99155,-0.4675641,7.097569,-72.57975,-8.594284,-36.83611,0,0,0,87.54031,34.99797,0.02200436,-125.6394,-110.0664,-86.73244,0.001067912,-0.1257102,0.09433498,0,0.3,0,0,0,0,
6.38224E+17,28.22483,47.22397,50.94373,34.13846,-41.84759,-15.52176,-56.99155,-0.4675641,7.097569,-72.57975,-8.521038,-36.90935,0,0,0,91.80215,37.20917,2.682251,-125.6394,-110.0664,-86.73244,0.001067912,-0.1257102,0.09433498,0,0.3,0,0,0,0,
6.38224E+17,28.86095,46.40574,52.39126,39.04589,-41.84759,-19.11078,-56.99155,-0.4675641,7.097569,-72.57975,-8.521038,-36.83611,0,0,0,95.37411,38.54855,4.69853,-125.6394,-110.0664,-86.73244,0.001067912,-0.1257102,0.09433498,0,0.3,0,0,0,0,
6.38224E+17,29.21435,45.96155,53.16172,41.31649,-41.77435,-20.79542,-56.99155,-0.4675641,7.097569,-72.57975,-8.594284,-36.90935,0,0,0,97.33315,39.26066,5.704785,-125.6394,-110.0664,-86.73244,0.001067912,-0.1257102,0.09433498,0,0.3,0,0,0,0,
6.38224E+17,29.82691,45.07318,54.37578,45.27173,-41.33487,-23.43224,-56.99155,-0.4675641,7.097569,-72.57975,-8.594284,-36.83611,0,0,0,100.7528,40.09112,7.38278,-125.6394,-110.0664,-86.73244,0.001067912,-0.1257102,0.09433498,0,0.3,0,0,0,0,
6.38224E+17,30.36879,44.11467,55.40306,48.42127,-40.45593,-25.55635,-56.99155,-0.4675641,7.097569,-72.57975,-8.521038,-36.90935,0,0,0,103.8972,40.45839,8.959787,-125.6394,-110.0664,-86.73244,0.001067912,-0.1257102,0.09433498,0,0.3,0,0,0,0,
6.38224E+17,30.76931,43.17954,56.24356,50.83836,-39.50375,-27.16775,-56.99155,-0.4675641,7.097569,-72.5065,-8.594284,-36.90935,0,0,0,106.4648,40.50189,10.46409,-125.6394,-110.0664,-86.73244,0.001067912,-0.1257102,0.09433498,0,0.3,0,0,0,0,
6.38224E+17,30.93423,42.75873,56.54708,51.7173,-39.13752,-27.68046,-56.99155,-0.4675641,7.097569,-72.57975,-8.594284,-36.83611,0,0,0,107.5232,40.3736,11.06485,-125.6394,-110.0664,-86.73244,0.001067912,-0.1257102,0.09433498,0,0.3,0,0,0,0,
6.38224E+17,31.24051,41.63658,57.17745,53.32869,-38.18533,-28.26642,-56.99155,-0.4675641,7.097569,-72.57975,-8.594284,-36.83611,0,0,0,109.8065,39.66731,12.67309,-125.6394,-110.0664,-86.73244,0.001067912,-0.1257102,0.09433498,0,0.3,0,0,0,0,
6.38224E+17,31.68815,40.04686,57.71444,54.50062,-37.30639,-28.26642,-56.99155,-0.4675641,7.097569,-72.57975,-8.594284,-36.83611,0,0,0,112.8417,37.92177,14.44077,-125.6394,-110.0664,-86.73244,0.001067912,-0.1257102,0.09433498,0,0.3,0,0,0,0,
6.38224E+17,31.99443,39.15849,57.94791,55.01333,-36.64718,-28.19318,-56.99155,-0.4675641,7.097569,-72.57975,-8.594284,-36.83611,0,0,0,114.6688,36.78871,15.1981,-125.6394,-110.0664,-86.73244,0.001067912,-0.1257102,0.09433498,0,0.3,0,0,0,0,
6.38224E+17,32.60699,37.54539,58.41486,55.89228,-35.10904,-28.19318,-56.99155,-0.4675641,7.097569,-72.57975,-8.521038,-36.83611,0,0,0,118.1886,34.76807,16.40665,-125.6394,-110.0664,-86.73244,0.001067912,-0.1257102,0.09433498,0,0.3,0,0,0,0,
6.38224E+17,33.14886,36.11932,58.64833,56.62473,-33.49764,-28.19318,-56.99155,-0.4675641,7.097569,-72.57975,-8.594284,-36.83611,0,0,0,121.1737,32.57507,17.18394,-125.6394,-110.0664,-86.73244,0.001067912,-0.1257102,0.09433498,0,0.3,0,0,0,0,
6.38224E+17,33.73786,34.6465,58.74172,57.0642,-31.52002,-28.19318,-56.99155,-0.4675641,7.097569,-72.57975,-8.594284,-36.83611,0,0,0,124.2396,29.96613,17.67295,-125.6394,-110.0664,-86.73244,0.001067912,-0.1257102,0.09433498,0,0.3,0,0,0,0,
6.38224E+17,33.99702,33.99191,58.74172,57.13744,-30.71432,-28.19318,-56.99155,-0.4675641,7.097569,-72.57975,-8.594284,-36.83611,0,0,0,125.56,28.70787,17.82121,-125.6394,-110.0664,-86.73244,0.001067912,-0.1257102,0.09433498,0,0.3,0,0,0,0,
6.38224E+17,34.56246,32.63597,58.74172,57.21069,-28.88319,-27.68046,-56.99155,-0.4675641,7.097569,-72.57975,-8.521038,-36.90935,0,0,0,128.3744,26.07071,18.00035,-125.6394,-110.0664,-86.73244,0.001067912,-0.1257102,0.09433498,0,0.3,0,0,0,0,
6.38224E+17,35.17502,31.06963,58.69503,57.28393,-26.97882,-27.02126,-56.99155,-0.4675641,7.097569,-72.57975,-8.594284,-36.90935,0,0,0,131.4351,22.88142,18.14365,-125.6394,-110.0664,-86.73244,0.001067912,-0.1257102,0.09433498,0,0.3,0,0,0,0,
6.38224E+17,35.50486,30.11112,58.64833,57.28393,-25.88014,-26.65503,-56.99155,-0.4675641,7.097569,-72.57975,-8.594284,-36.83611,0,0,0,133.133,20.86826,18.26208,-125.6394,-110.0664,-86.73244,0.001067912,-0.1257102,0.09433498,0,0.3,0,0,0,0,
6.38224E+17,36.09386,28.311,58.4849,57.0642,-23.82928,-25.77609,-56.99155,-0.4675641,7.097569,-72.57975,-8.594284,-36.83611,0,0,0,136.1319,16.88707,18.37547,-125.6394,-110.0664,-86.73244,0.001067912,-0.1257102,0.09433498,0,0.3,0,0,0,0,
6.38224E+17,36.70642,26.23034,58.25143,56.47824,-21.9249,-24.89715,-56.99155,-0.4675641,7.097569,-72.57975,-8.594284,-36.83611,0,0,0,139.2762,12.12036,18.45969,-125.6394,-110.0664,-86.73244,0.001067912,-0.1257102,0.09433498,0,0.3,0,0,0,0,
6.38224E+17,37.34254,24.10293,58.15804,55.67254,-19.6543,-23.79847,-56.99155,-0.4675641,7.097569,-72.57975,-8.594284,-36.83611,0,0,0,142.5493,7.454549,18.48475,-125.6394,-110.0664,-86.73244,0.001067912,-0.1257102,0.09433498,0,0.3,0,0,0,0,
6.38224E+17,37.67238,22.9574,58.15804,55.23307,-18.55563,-23.21251,-56.99155,-0.4675641,7.097569,-72.57975,-8.594284,-36.83611,0,0,0,144.273,5.010169,18.5035,-125.6394,-110.0664,-86.73244,0.001067912,-0.1257102,0.09433498,0,0.3,0,0,0,0,
6.38224E+17,38.35562,20.64295,58.15804,53.9879,-16.50476,-22.48005,-56.99155,-0.4675641,7.097569,-72.57975,-8.594284,-36.90935,0,0,0,147.7321,0.009110475,18.33842,-125.6394,-110.0664,-86.73244,0.001067912,-0.1257102,0.09433498,0,0.3,0,0,0,0,
6.38224E+17,39.06242,18.42202,58.15804,52.523,-14.60039,-21.96734,-56.99155,-0.4675641,7.097569,-72.57975,-8.594284,-36.90935,0,0,0,151.1128,-4.862103,17.84364,-125.6394,-110.0664,-86.73244,0.001067912,-0.1257102,0.09433498,0,0.3,0,0,0,0,
6.38224E+17,39.39226,17.44014,58.15804,51.7173,-13.79469,-21.89409,-56.99155,-0.4675641,7.097569,-72.57975,-8.594284,-36.83611,0,0,0,152.6286,-7.036312,17.51435,-125.6394,-110.0664,-86.73244,0.001067912,-0.1257102,0.09433498,0,0.3,0,0,0,0,
6.38224E+17,40.12262,15.64002,58.15804,49.88617,-12.40303,-21.7476,-56.99155,-0.4675641,7.097569,-72.57975,-8.594284,-36.90935,0,0,0,155.754,-11.05238,16.46572,-125.6394,-110.0664,-86.73244,0.001067912,-0.1257102,0.09433498,0,0.3,0,0,0,0,
