zeyangz2/DNN_classification_different_people_hand/data_by_names/Srikar/srikar_right_3.csv
Timestamp,Therapist joint angle 0,Therapist joint angle 1,Therapist joint angle 2,Therapist joint angle 3,Therapist joint angle 4,Therapist joint angle 5,Patient joint angle 0,Patient joint angle 1,Patient joint angle 2,Patient joint angle 3,Patient joint angle 4,Patient joint angle 5,Virtual joint angle 0,Virtual joint angle 1,Virtual joint angle 2,Therapist position x,Therapist position y,Therapist position z,Patient position x,Patient position y,Patient position z,Virtual position x,Virtual position y,Virtual position z,Assistive Force, Obstacle Force Magnitude, Therapist Constant Force, Patient Constant Force, Recovery Factor, Assistance Level
638224433645035153,0,0,0,0,0,0,0,0,0,0,0,0,0,0,0,0,0,0,0,0,0,0,0,0,0,0.3,0,0,0,0
638224433645105130,-18.82441,-1.075397,-3.782257,22.78546,-60.96458,99.69289,-56.82663,-0.4675641,5.486608,-70.08942,-8.447793,-36.83611,0,0,0,-40.182,-112.2123,-50.48079,-122.2847,-110.4773,-88.41026,0.001067912,-0.1257102,0.09433498,0,0.3,0,0,0,0
638224433645415033,-18.82441,-1.075397,-3.782257,22.78546,-60.96458,99.69289,-56.82663,-0.4675641,5.486608,-70.08942,-8.447793,-36.90935,0,0,0,-40.182,-112.2123,-50.48079,-122.2847,-110.4773,-88.41026,0.001067912,-0.1257102,0.09433498,0,0.3,0,0,0,0
638224433645754925,-18.82441,-1.075397,-3.782257,22.78546,-60.89133,99.69289,-56.82663,-0.4675641,5.486608,-70.01617,-8.447793,-36.90935,0,0,0,-40.182,-112.2123,-50.48079,-122.2847,-110.4773,-88.41026,0.001067912,-0.1257102,0.09433498,0,0.3,0,0,0,0
638224433646134803,-18.82441,-1.075397,-3.782257,22.78546,-60.96458,99.69289,-56.82663,-0.4675641,5.486608,-70.08942,-8.447793,-36.83611,0,0,0,-40.182,-112.2123,-50.48079,-122.2847,-110.4773,-88.41026,0.001067912,-0.1257102,0.09433498,0,0.3,0,0,0,0
638224433646424713,-18.82441,-1.075397,-3.782257,22.78546,-60.96458,99.69289,-56.82663,-0.4675641,5.486608,-70.08942,-8.447793,-36.90935,0,0,0,-40.182,-112.2123,-50.48079,-122.2847,-110.4773,-88.41026,0.001067912,-0.1257102,0.09433498,0,0.3,0,0,0,0
638224433646774600,-18.82441,-1.075397,-3.782257,22.78546,-60.96458,99.69289,-56.82663,-0.4675641,5.486608,-70.01617,-8.447793,-36.90935,0,0,0,-40.182,-112.2123,-50.48079,-122.2847,-110.4773,-88.41026,0.001067912,-0.1257102,0.09433498,0,0.3,0,0,0,0
638224433647104495,-18.82441,-1.075397,-3.782257,22.78546,-60.96458,99.69289,-56.82663,-0.4675641,5.486608,-70.01617,-8.374548,-36.90935,0,0,0,-40.182,-112.2123,-50.48079,-122.2847,-110.4773,-88.41026,0.001067912,-0.1257102,0.09433498,0,0.3,0,0,8.434256E-08,0
638224433647544358,-18.82441,-1.075397,-3.782257,22.78546,-60.89133,99.69289,-56.82663,-0.4675641,5.486608,-70.08942,-8.447793,-36.90935,0,0,0,-40.182,-112.2123,-50.48079,-122.2847,-110.4773,-88.41026,0.001067912,-0.1257102,0.09433498,0,0.3,0,0,0,0
638224433647884249,-18.82441,-1.075397,-3.782257,22.78546,-60.89133,99.76613,-56.82663,-0.4675641,5.486608,-70.01617,-8.447793,-36.90935,0,0,0,-40.182,-112.2123,-50.48079,-122.2847,-110.4773,-88.41026,0.001067912,-0.1257102,0.09433498,0,0.3,0,0,0,0
638224433648234133,-18.82441,-1.075397,-3.782257,22.71221,-60.96458,99.69289,-56.82663,-0.4675641,5.486608,-70.01617,-8.447793,-36.83611,0,0,0,-40.182,-112.2123,-50.48079,-122.2847,-110.4773,-88.41026,0.001067912,-0.1257102,0.09433498,0,0.3,0,0,0,0
638224433648574029,-18.82441,-1.075397,-3.782257,22.78546,-60.96458,99.69289,-56.82663,-0.4675641,5.486608,-70.01617,-8.447793,-36.83611,0,0,0,-40.182,-112.2123,-50.48079,-122.2847,-110.4773,-88.41026,0.001067912,-0.1257102,0.09433498,0,0.3,0,0,0,0
638224433648903922,-18.82441,-1.075397,-3.782257,22.78546,-60.96458,99.69289,-56.82663,-0.4675641,5.486608,-70.01617,-8.447793,-36.83611,0,0,0,-40.182,-112.2123,-50.48079,-122.2847,-110.4773,-88.41026,0.001067912,-0.1257102,0.09433498,0,0.3,0,0,0,0
638224433649243812,-18.82441,-1.075397,-3.782257,22.78546,-60.96458,99.69289,-56.82663,-0.4675641,5.486608,-70.01617,-8.447793,-36.83611,0,0,0,-40.182,-112.2123,-50.48079,-122.2847,-110.4773,-88.41026,0.001067912,-0.1257102,0.09433498,0,0.3,0,0,0,0
638224433649583705,-18.82441,-1.075397,-3.782257,22.78546,-60.96458,99.76613,-56.82663,-0.4675641,5.486608,-70.08942,-8.447793,-36.83611,0,0,0,-40.182,-112.2123,-50.48079,-122.2847,-110.4773,-88.41026,0.001067912,-0.1257102,0.09433498,0,0.3,0,0,0,0
638224433649923597,-18.82441,-1.075397,-3.782257,22.78546,-60.89133,99.76613,-56.82663,-0.4675641,5.486608,-70.01617,-8.447793,-36.83611,0,0,0,-40.182,-112.2123,-50.48079,-122.2847,-110.4773,-88.41026,0.001067912,-0.1257102,0.09433498,0,0.3,0,0,0,0
638224433650263491,-18.82441,-1.075397,-3.782257,22.78546,-60.89133,99.69289,-56.82663,-0.4675641,5.486608,-70.08942,-8.447793,-36.90935,0,0,0,-40.182,-112.2123,-50.48079,-122.2847,-110.4773,-88.41026,0.001067912,-0.1257102,0.09433498,0,0.3,0,0,0,0
638224433650603379,-18.82441,-1.075397,-3.782257,22.78546,-60.89133,99.69289,-56.82663,-0.4675641,5.486608,-70.08942,-8.447793,-36.83611,0,0,0,-40.182,-112.2123,-50.48079,-122.2847,-110.4773,-88.41026,0.001067912,-0.1257102,0.09433498,0,0.3,0,0,0,0
638224433650943276,-18.82441,-1.075397,-3.782257,22.78546,-60.96458,99.69289,-56.82663,-0.4675641,5.486608,-70.08942,-8.447793,-36.90935,0,0,0,-40.182,-112.2123,-50.48079,-122.2847,-110.4773,-88.41026,0.001067912,-0.1257102,0.09433498,0,0.3,0,0,0,0
638224433651283164,-18.82441,-1.075397,-3.782257,22.78546,-60.89133,99.69289,-56.82663,-0.4675641,5.486608,-70.01617,-8.447793,-36.83611,0,0,0,-40.182,-112.2123,-50.48079,-122.2847,-110.4773,-88.41026,0.001067912,-0.1257102,0.09433498,0,0.3,0,0,0,0
638224433651623056,-18.82441,-1.075397,-3.782257,22.78546,-60.89133,99.76613,-56.82663,-0.4675641,5.486608,-70.08942,-8.447793,-36.83611,0,0,0,-40.182,-112.2123,-50.48079,-122.2847,-110.4773,-88.41026,0.001067912,-0.1257102,0.09433498,0,0.3,0,0,0,0
638224433652102898,-18.82441,-1.075397,-3.782257,22.78546,-60.96458,99.76613,-56.82663,-0.4675641,5.486608,-70.08942,-8.447793,-36.83611,0,0,0,-40.182,-112.2123,-50.48079,-122.2847,-110.4773,-88.41026,0.001067912,-0.1257102,0.09433498,0,0.3,0,0,0,0
638224433652432795,-18.82441,-1.075397,-3.782257,22.78546,-60.96458,99.69289,-56.82663,-0.4675641,5.486608,-70.01617,-8.447793,-36.83611,0,0,0,-40.182,-112.2123,-50.48079,-122.2847,-110.4773,-88.41026,0.001067912,-0.1257102,0.09433498,0,0.3,0,0,0,0
638224433652772697,-18.84797,-1.075397,-3.969035,22.27274,-60.96458,99.69289,-56.82663,-0.4675641,5.486608,-70.08942,-8.374548,-36.83611,0,0,0,-40.09034,-112.1829,-50.90778,-122.2847,-110.4773,-88.41026,0.001067912,-0.1257102,0.09433498,0,0.3,0,0,2.606185E-05,0
638224433653112580,-18.82441,-1.075397,-3.969035,19.85565,-60.96458,99.76613,-56.82663,-0.4675641,5.486608,-70.01617,-8.374548,-36.83611,0,0,0,-40.04205,-112.1829,-50.8913,-122.2847,-110.4773,-88.41026,0.001067912,-0.1257102,0.09433498,0,0.3,0,0,4.832829E-05,0
638224433653562438,-18.42389,-1.145532,-4.902926,17.14558,-60.96458,99.61964,-56.82663,-0.4675641,5.486608,-70.08942,-8.447793,-36.90935,0,0,0,-38.53413,-112.178,-52.67319,-122.2847,-110.4773,-88.41026,0.001067912,-0.1257102,0.09433498,0,0.3,0,0,0,0
638224433653912326,-15.52601,-1.028641,-6.420498,10.18729,-60.96458,100.5718,-56.82663,-0.4675641,5.486608,-70.08942,-8.447793,-36.90935,0,0,0,-31.6973,-111.5576,-54.25442,-122.2847,-110.4773,-88.41026,0.001067912,-0.1257102,0.09433498,0,0.3,0,0,0,0
638224433654242216,-11.42658,-1.052019,-6.280415,-9.881886,-59.8659,139.8312,-56.82663,-0.4675641,5.486608,-70.08942,-8.447793,-36.83611,0,0,0,-23.52378,-111.648,-51.96374,-122.2847,-110.4773,-88.41026,0.001067912,-0.1257102,0.09433498,0,0.3,0,0,0,0
638224433654582107,-9.918744,-1.052019,-6.303762,-18.8178,-57.81504,143.4935,-56.82663,-0.4675641,5.486608,-70.08942,-8.447793,-36.83611,0,0,0,-20.44378,-111.6421,-51.43824,-122.2847,-110.4773,-88.41026,0.001067912,-0.1257102,0.09433498,0,0.3,0,0,0,0
638224433654961988,-7.986827,-1.052019,-6.070289,-28.48616,-52.90761,140.6369,-56.82663,-0.4675641,5.486608,-70.01617,-8.447793,-36.83611,0,0,0,-16.5659,-111.7006,-50.28052,-122.2847,-110.4773,-88.41026,0.001067912,-0.1257102,0.09433498,0,0.3,0,0,0,0
638224433655301877,-7.091548,-1.075397,-5.673386,-31.12299,-48.36641,137.4141,-56.82663,-0.4675641,5.486608,-70.08942,-8.447793,-36.90935,0,0,0,-14.83237,-111.8495,-49.12522,-122.2847,-110.4773,-88.41026,0.001067912,-0.1257102,0.09433498,0,0.3,0,0,0,0
638224433655631772,-6.19627,-1.075397,-5.46326,-32.4414,-44.04494,136.462,-56.82663,-0.4675641,5.486608,-70.08942,-8.447793,-36.83611,0,0,0,-13.02022,-111.897,-48.42413,-122.2847,-110.4773,-88.41026,0.001067912,-0.1257102,0.09433498,0,0.3,0,0,0,0
638224433655971669,-5.513031,-1.075397,-5.46326,-33.83306,-41.48137,136.462,-56.82663,-0.4675641,5.486608,-70.08942,-8.447793,-36.83611,0,0,0,-11.58924,-111.897,-48.27739,-122.2847,-110.4773,-88.41026,0.001067912,-0.1257102,0.09433498,0,0.3,0,0,0,0
638224433656311559,-3.439754,-1.075397,-5.533302,-36.9826,-36.06122,136.3887,-56.82663,-0.4675641,5.486608,-70.01617,-8.447793,-36.83611,0,0,0,-7.227977,-111.8814,-48.0987,-122.2847,-110.4773,-88.41026,0.001067912,-0.1257102,0.09433498,0,0.3,0,0,0,0
638224433656661445,0.2355996,-1.052019,-6.210372,-38.74048,-29.98187,134.5576,-56.82663,-0.4675641,5.486608,-70.08942,-8.447793,-36.90935,0,0,0,0.4889216,-111.6657,-49.4492,-122.2847,-110.4773,-88.41026,0.001067912,-0.1257102,0.09433498,0,0.3,0,0,0,0
638224433657011334,5.418791,-1.052019,-6.864096,-36.46988,-24.56173,128.5515,-56.82663,-0.4675641,5.486608,-70.08942,-8.447793,-36.83611,0,0,0,11.08573,-111.4925,-51.48438,-122.2847,-110.4773,-88.41026,0.001067912,-0.1257102,0.09433498,0,0.3,0,0,0,0
638224433657351233,8.458026,-1.075397,-6.864096,-33.83306,-22.14464,125.6949,-56.82663,-0.4675641,5.486608,-70.08942,-8.447793,-36.90935,0,0,0,17.26617,-111.5469,-52.23751,-122.2847,-110.4773,-88.41026,0.001067912,-0.1257102,0.09433498,0,0.3,0,0,0,0
638224433657691118,14.51294,-0.5376987,-6.653971,-26.58179,-17.96966,121.0805,-56.82663,-0.4675641,5.486608,-70.08942,-8.447793,-36.83611,0,0,0,29.54369,-110.3532,-54.21933,-122.2847,-110.4773,-88.41026,0.001067912,-0.1257102,0.09433498,0,0.3,0,0,0,0
638224433658090992,19.55477,1.706609,-6.163678,-17.05991,-15.69907,119.8353,-56.82663,-0.4675641,5.486608,-70.08942,-8.447793,-36.83611,0,0,0,39.82125,-105.2578,-56.23896,-122.2847,-110.4773,-88.41026,0.001067912,-0.1257102,0.09433498,0,0.3,0,0,0,0
638224433658430881,21.62804,3.039166,-5.673386,-11.42003,-15.9188,119.6156,-56.82663,-0.4675641,5.486608,-70.08942,-8.447793,-36.90935,0,0,0,44.2221,-102.2768,-56.81724,-122.2847,-110.4773,-88.41026,0.001067912,-0.1257102,0.09433498,0,0.3,0,0,0,0
638224433658770773,22.4762,4.067808,-5.46326,-8.270493,-16.43152,119.5423,-56.82663,-0.4675641,5.486608,-70.08942,-8.374548,-36.83611,0,0,0,45.99759,-99.9348,-57.17141,-122.2847,-110.4773,-88.41026,0.001067912,-0.1257102,0.09433498,0,0.3,0,0,0,0
638224433659110665,23.70132,6.686166,-5.579997,-3.802537,-17.31046,118.8099,-56.82663,-0.4675641,5.486608,-70.08942,-8.447793,-36.83611,0,0,0,48.02592,-93.84204,-58.95075,-122.2847,-110.4773,-88.41026,0.001067912,-0.1257102,0.09433498,0,0.3,0,0,0,0
638224433659450555,24.78508,10.4033,-5.136398,-0.7994855,-18.33589,118.2972,-56.82663,-0.4675641,5.486608,-70.08942,-8.447793,-36.83611,0,0,0,49.97866,-85.38474,-60.11226,-122.2847,-110.4773,-88.41026,0.001067912,-0.1257102,0.09433498,0,0.3,0,0,0,0
638224433659790448,25.23272,11.82937,-5.159746,0.1527017,-18.70212,117.6379,-56.82663,-0.4675641,5.486608,-70.08942,-8.447793,-36.90935,0,0,0,50.5269,-82.12318,-61.13383,-122.2847,-110.4773,-88.41026,0.001067912,-0.1257102,0.09433498,0,0.3,0,0,0,0
638224433660140334,26.62276,13.93341,-5.556649,1.910586,-16.57801,111.6319,-56.82663,-0.4675641,5.486608,-70.08942,-8.447793,-36.83611,0,0,0,52.21161,-77.2635,-64.18917,-122.2847,-110.4773,-88.41026,0.001067912,-0.1257102,0.09433498,0,0.3,0,0,0,0
638224433660480225,28.46043,17.11284,-4.43598,4.400921,-12.47628,103.2819,-56.82663,-0.4675641,5.486608,-70.08942,-8.447793,-36.90935,0,0,0,55.81957,-70.36169,-65.37362,-122.2847,-110.4773,-88.41026,0.001067912,-0.1257102,0.09433498,0,0.3,0,0,0,0
638224433660820116,30.27455,20.85336,-2.544852,9.088613,-10.05919,94.63897,-56.82663,-0.4675641,5.486608,-70.01617,-8.447793,-36.83611,0,0,0,59.83883,-62.3989,-65.84361,-122.2847,-110.4773,-88.41026,0.001067912,-0.1257102,0.09433498,0,0.3,0,0,0,0
638224433661160008,31.21695,23.05091,-0.7237652,13.41008,-9.326735,88.48637,-56.82663,-0.4675641,5.486608,-70.08942,-8.447793,-36.83611,0,0,0,62.72149,-57.77632,-64.85362,-122.2847,-110.4773,-88.41026,0.001067912,-0.1257102,0.09433498,0,0.3,0,0,0,0
638224433661499915,31.92375,24.80427,1.377489,17.80479,-8.667529,81.89431,-56.82663,-0.4675641,5.486608,-70.08942,-8.447793,-36.83611,0,0,0,65.70409,-54.0185,-62.88943,-122.2847,-110.4773,-88.41026,0.001067912,-0.1257102,0.09433498,0,0.3,0,0,0,0
638224433661839795,32.79546,27.1421,4.646106,23.73765,-7.935077,71.85973,-56.82663,-0.4675641,5.486608,-70.08942,-8.447793,-36.90935,0,0,0,70.12457,-48.7277,-59.51907,-122.2847,-110.4773,-88.41026,0.001067912,-0.1257102,0.09433498,0,0.3,0,0,0,0
638224433662179687,33.17242,28.19411,6.210372,26.37447,-7.422361,66.58607,-56.82663,-0.4675641,5.486608,-70.08942,-8.447793,-36.83611,0,0,0,72.20001,-46.21485,-57.90084,-122.2847,-110.4773,-88.41026,0.001067912,-0.1257102,0.09433498,0,0.3,0,0,0,0
638224433662619543,33.57294,32.93989,11.5102,34.06521,-5.078516,48.86074,-56.82663,-0.4675641,5.486608,-70.08942,-8.447793,-36.90935,0,0,0,76.60233,-34.80798,-52.93604,-122.2847,-110.4773,-88.41026,0.001067912,-0.1257102,0.09433498,0,0.3,0,0,0,0
638224433662959440,33.45514,35.11406,13.6815,35.67661,-5.15176,44.39278,-56.82663,-0.4675641,5.486608,-70.08942,-8.447793,-36.90935,0,0,0,77.52264,-29.51254,-51.0266,-122.2847,-110.4773,-88.41026,0.001067912,-0.1257102,0.09433498,0,0.3,0,0,0,0
638224433663299329,33.40803,39.83646,18.3276,38.16694,-6.470173,36.55555,-56.82663,-0.4675641,5.486608,-70.08942,-8.447793,-36.83611,0,0,0,79.46674,-17.8119,-47.86908,-122.2847,-110.4773,-88.41026,0.001067912,-0.1257102,0.09433498,0,0.3,0,0,0,0
638224433663649214,33.40803,45.21344,22.71689,40.14456,-8.447793,28.86481,-56.82663,-0.4675641,5.486608,-70.01617,-8.447793,-36.90935,0,0,0,80.0776,-5.011975,-46.94295,-122.2847,-110.4773,-88.41026,0.001067912,-0.1257102,0.09433498,0,0.3,0,0,0,0
638224433663989105,33.43158,48.34613,24.70141,40.95026,-9.692961,24.76308,-56.82663,-0.4675641,5.486608,-70.01617,-8.447793,-36.83611,0,0,0,79.53043,1.837384,-47.88033,-122.2847,-110.4773,-88.41026,0.001067912,-0.1257102,0.09433498,0,0.3,0,0,0,0
638224433664329000,33.43158,54.09716,27.78325,41.31649,-11.08462,17.07234,-56.82663,-0.4675641,5.486608,-70.08942,-8.447793,-36.83611,0,0,0,77.328,13.38813,-51.21648,-122.2847,-110.4773,-88.41026,0.001067912,-0.1257102,0.09433498,0,0.3,0,0,0,0
638224433664668887,32.67767,58.30524,32.26592,41.02351,-12.40303,10.70001,-56.82663,-0.4675641,5.486608,-70.08942,-8.447793,-36.83611,0,0,0,76.26266,24.05404,-49.45678,-122.2847,-110.4773,-88.41026,0.001067912,-0.1257102,0.09433498,0,0.3,0,0,0,0
638224433665018778,32.39495,62.81723,38.40625,42.26867,-15.1131,4.840393,-56.82663,-0.4675641,5.486608,-70.08942,-8.447793,-36.83611,0,0,0,77.01965,37.47552,-46.9628,-122.2847,-110.4773,-88.41026,0.001067912,-0.1257102,0.09433498,0,0.3,0,0,0,0
638224433665358670,32.20647,64.94465,41.3947,43.51384,-16.7245,1.617605,-56.82663,-0.4675641,5.486608,-70.01617,-8.447793,-36.83611,0,0,0,77.09413,44.11618,-45.95723,-122.2847,-110.4773,-88.41026,0.001067912,-0.1257102,0.09433498,0,0.3,0,0,0,0
638224433665708558,31.78239,69.29299,48.49227,47.32259,-20.02053,-5.853402,-56.82663,-0.4675641,5.486608,-70.08942,-8.447793,-36.83611,0,0,0,77.43065,59.71184,-43.38139,-122.2847,-110.4773,-88.41026,0.001067912,-0.1257102,0.09433498,0,0.3,0,0,0,0
638224433666048451,30.83999,72.8231,55.40306,52.74273,-22.80385,-17.27965,-56.82663,-0.4675641,5.486608,-70.08942,-8.447793,-36.90935,0,0,0,76.46089,75.03616,-40.28897,-122.2847,-110.4773,-88.41026,0.001067912,-0.1257102,0.09433498,0,0.3,0,0,0,0
638224433666388340,29.75623,74.57647,58.90515,56.33175,-24.12226,-25.33662,-56.82663,-0.4675641,5.486608,-70.08942,-8.374548,-36.83611,0,0,0,74.27497,83.02811,-38.42855,-122.2847,-110.4773,-88.41026,0.001067912,-0.1257102,0.09433498,0,0.3,0,0,0,0
638224433666728235,26.3636,77.61563,64.9054,65.56064,-27.2718,-45.62553,-56.82663,-0.4675641,5.486608,-70.08942,-8.447793,-36.90935,0,0,0,66.32674,97.04144,-34.52222,-122.2847,-110.4773,-88.41026,0.001067912,-0.1257102,0.09433498,0,0.3,0,0,0,0
638224433667138102,22.07568,79.67291,68.64096,74.42331,-30.49459,-66.35391,-56.82663,-0.4675641,5.486608,-70.08942,-8.447793,-36.83611,0,0,0,55.65919,105.9722,-31.11087,-122.2847,-110.4773,-88.41026,0.001067912,-0.1257102,0.09433498,0,0.3,0,0,0,0
638224433667477991,17.19877,81.42628,70.88229,83.5057,-34.37658,-88.47395,-56.82663,-0.4675641,5.486608,-70.01617,-8.447793,-36.90935,0,0,0,43.13358,111.5364,-28.99736,-122.2847,-110.4773,-88.41026,0.001067912,-0.1257102,0.09433498,0,0.3,0,0,0,0
638224433667827886,12.4161,82.96925,72.14305,93.83327,-38.47831,-105.3936,-56.82663,-0.4675641,5.486608,-70.08942,-8.447793,-36.90935,0,0,0,30.79976,114.8066,-28.4521,-122.2847,-110.4773,-88.41026,0.001067912,-0.1257102,0.09433498,0,0.3,0,0,0,0
638224433668167778,9.565345,83.74072,72.46991,101.7438,-40.67567,-116.4536,-56.82663,-0.4675641,5.486608,-70.08942,-8.447793,-36.83611,0,0,0,23.54594,115.7392,-28.6241,-122.2847,-110.4773,-88.41026,0.001067912,-0.1257102,0.09433498,0,0.3,0,0,0,0
638224433668507670,5.418791,85.00314,70.95234,113.6827,-44.92389,-139.8921,-56.82663,-0.4675641,5.486608,-70.08942,-8.447793,-36.90935,0,0,0,13.00024,112.6738,-31.30154,-122.2847,-110.4773,-88.41026,0.001067912,-0.1257102,0.09433498,0,0.3,0,0,0,0
638224433668857555,2.355996,85.63436,68.50088,114.0489,-49.24535,-141.6499,-56.82663,-0.4675641,5.486608,-70.01617,-8.447793,-36.90935,0,0,0,5.517666,107.4421,-34.24078,-122.2847,-110.4773,-88.41026,0.001067912,-0.1257102,0.09433498,0,0.3,0,0,0,0
638224433669197445,0.9659585,85.65774,67.21678,114.0489,-51.22297,-141.7964,-56.82663,-0.4675641,5.486608,-70.08942,-8.447793,-36.83611,0,0,0,2.242871,104.678,-35.32683,-122.2847,-110.4773,-88.41026,0.001067912,-0.1257102,0.09433498,0,0.3,0,0,0,0
638224433669537338,-1.908357,85.56422,64.34506,113.6827,-55.54444,-141.7964,-56.82663,-0.4675641,5.486608,-70.01617,-8.374548,-36.83611,0,0,0,-4.346359,98.56666,-37.90482,-122.2847,-110.4773,-88.41026,0.001067912,-0.1257102,0.09433498,0,0.3,0,0,0,0
638224433669877232,-4.122993,85.54085,62.99092,110.0937,-58.84047,-141.7964,-56.82663,-0.4675641,5.486608,-70.08942,-8.447793,-36.90935,0,0,0,-9.287307,95.73789,-39.51043,-122.2847,-110.4773,-88.41026,0.001067912,-0.1257102,0.09433498,0,0.3,0,0,0,0
638224433670227121,-6.12559,85.47071,62.36055,106.1385,-60.15888,-141.2837,-56.82663,-0.4675641,5.486608,-70.08942,-8.447793,-36.83611,0,0,0,-13.72941,94.42168,-40.42146,-122.2847,-110.4773,-88.41026,0.001067912,-0.1257102,0.09433498,0,0.3,0,0,0,0
638224433670567012,-7.115108,85.49409,62.3839,103.0622,-60.59835,-141.2105,-56.82663,-0.4675641,5.486608,-70.01617,-8.447793,-36.83611,0,0,0,-15.93302,94.47411,-40.70646,-122.2847,-110.4773,-88.41026,0.001067912,-0.1257102,0.09433498,0,0.3,0,0,0,0
638224433670906904,-8.905665,85.12004,61.63678,91.19645,-60.96458,-131.3224,-56.82663,-0.4675641,5.486608,-70.01617,-8.447793,-36.83611,0,0,0,-19.92159,92.86745,-41.21565,-122.2847,-110.4773,-88.41026,0.001067912,-0.1257102,0.09433498,0,0.3,0,0,0,0
638224433671246795,-9.423985,83.67059,59.8157,73.10489,-61.18431,-110.1545,-56.82663,-0.4675641,5.486608,-70.08942,-8.447793,-36.83611,0,0,0,-21.28123,88.84103,-40.1336,-122.2847,-110.4773,-88.41026,0.001067912,-0.1257102,0.09433498,0,0.3,0,0,0,0
638224433671666659,-9.471104,81.58993,56.03344,49.66644,-59.8659,-75.07008,-56.82663,-0.4675641,5.486608,-70.08942,-8.447793,-36.83611,0,0,0,-21.40782,80.7622,-40.0244,-122.2847,-110.4773,-88.41026,0.001067912,-0.1257102,0.09433498,0,0.3,0,0,0,0
638224433672006551,-9.494664,79.55603,52.83487,33.18628,-56.7896,-50.31322,-56.82663,-0.4675641,5.486608,-70.08942,-8.447793,-36.83611,0,0,0,-21.5167,73.93209,-39.6977,-122.2847,-110.4773,-88.41026,0.001067912,-0.1257102,0.09433498,0,0.3,0,0,0,0
638224433672346442,-9.494664,78.43387,51.57411,25.71527,-54.66549,-40.0589,-56.82663,-0.4675641,5.486608,-70.08942,-8.374548,-36.90935,0,0,0,-21.64295,71.11491,-38.94278,-122.2847,-110.4773,-88.41026,0.001067912,-0.1257102,0.09433498,0,0.3,0,0,0,0
638224433672676338,-9.471104,77.17145,50.3834,16.63286,-50.92999,-29.07212,-56.82663,-0.4675641,5.486608,-70.01617,-8.374548,-36.90935,0,0,0,-21.77519,68.34117,-37.82225,-122.2847,-110.4773,-88.41026,0.001067912,-0.1257102,0.09433498,0,0.3,0,0,0,0
638224433673026224,-9.471104,76.44672,50.00984,12.01842,-48.43966,-26.36205,-56.82663,-0.4675641,5.486608,-70.01617,-8.447793,-36.83611,0,0,0,-21.95383,67.28835,-36.7514,-122.2847,-110.4773,-88.41026,0.001067912,-0.1257102,0.09433498,0,0.3,0,0,0,0
638224433673366116,-9.471104,76.09605,49.63629,10.70001,-47.48747,-26.80152,-56.82663,-0.4675641,5.486608,-70.01617,-8.447793,-36.83611,0,0,0,-21.992,66.43037,-36.52263,-122.2847,-110.4773,-88.41026,0.001067912,-0.1257102,0.09433498,0,0.3,0,0,0,0
638224433673706008,-9.376864,75.06741,48.11871,8.575896,-45.65634,-28.99888,-56.82663,-0.4675641,5.486608,-70.01617,-8.447793,-36.83611,0,0,0,-21.77445,63.17368,-36.49078,-122.2847,-110.4773,-88.41026,0.001067912,-0.1257102,0.09433498,0,0.3,0,0,0,0
638224433674045899,-9.259066,73.24391,45.2937,6.744767,-42.72653,-33.39359,-56.82663,-0.4675641,5.486608,-70.08942,-8.447793,-36.83611,0,0,0,-21.43482,57.22994,-36.86639,-122.2847,-110.4773,-88.41026,0.001067912,-0.1257102,0.09433498,0,0.3,0,0,0,0
638224433674385790,-9.235504,71.93473,43.47261,5.719335,-40.67567,-37.34882,-56.82663,-0.4675641,5.486608,-70.08942,-8.447793,-36.90935,0,0,0,-21.36123,53.35382,-36.97765,-122.2847,-110.4773,-88.41026,0.001067912,-0.1257102,0.09433498,0,0.3,0,0,0,0
638224433674725684,-9.235504,67.75003,40.08725,3.888205,-34.8893,-50.02024,-56.82663,-0.4675641,5.486608,-70.08942,-8.447793,-36.90935,0,0,0,-21.88544,44.74948,-33.75377,-122.2847,-110.4773,-88.41026,0.001067912,-0.1257102,0.09433498,0,0.3,0,0,0,0
638224433675065574,-9.235504,64.1498,38.28952,3.448734,-30.42134,-60.27456,-56.82663,-0.4675641,5.486608,-70.01617,-8.447793,-36.83611,0,0,0,-22.59284,38.69155,-29.40318,-122.2847,-110.4773,-88.41026,0.001067912,-0.1257102,0.09433498,0,0.3,0,0,0,0
638224433675405471,-9.235504,59.82482,36.7019,3.741715,-25.14769,-72.57975,-56.82663,-0.4675641,5.486608,-70.08942,-8.447793,-36.90935,0,0,0,-23.54826,31.71596,-23.52736,-122.2847,-110.4773,-88.41026,0.001067912,-0.1257102,0.09433498,0,0.3,0,0,0,0
638224433675735362,-9.235504,57.67403,36.2583,4.107941,-22.51087,-77.63367,-56.82663,-0.4675641,5.486608,-70.01617,-8.447793,-36.90935,0,0,0,-24.10181,28.50539,-20.123,-122.2847,-110.4773,-88.41026,0.001067912,-0.1257102,0.09433498,0,0.3,0,0,0,0
638224433676175219,-9.235504,53.13866,36.09487,4.840393,-17.01748,-83.71302,-56.82663,-0.4675641,5.486608,-70.08942,-8.447793,-36.90935,0,0,0,-25.44675,22.28946,-11.85157,-122.2847,-110.4773,-88.41026,0.001067912,-0.1257102,0.09433498,0,0.3,0,0,0,0
638224433676515110,-9.329745,49.04747,36.98207,6.012315,-11.52409,-85.25117,-56.82663,-0.4675641,5.486608,-70.08942,-8.447793,-36.83611,0,0,0,-27.17403,17.53981,-2.94658,-122.2847,-110.4773,-88.41026,0.001067912,-0.1257102,0.09433498,0,0.3,0,0,0,0
638224433676865004,-9.848064,46.89668,38.24282,6.744767,-6.909645,-83.78626,-56.82663,-0.4675641,5.486608,-70.01617,-8.447793,-36.90935,0,0,0,-29.70268,15.9795,2.754295,-122.2847,-110.4773,-88.41026,0.001067912,-0.1257102,0.09433498,0,0.3,0,0,0,0
638224433677204892,-11.1203,47.27073,39.36349,7.037747,-3.613612,-82.17487,-56.82663,-0.4675641,5.486608,-70.08942,-8.447793,-36.90935,0,0,0,-33.76343,18.20671,3.421458,-122.2847,-110.4773,-88.41026,0.001067912,-0.1257102,0.09433498,0,0.3,0,0,0,0
638224433677534788,-12.08626,48.13572,39.64366,6.818012,-2.807915,-81.80864,-56.82663,-0.4675641,5.486608,-70.08942,-8.447793,-36.83611,0,0,0,-36.44798,19.9763,1.863751,-122.2847,-110.4773,-88.41026,0.001067912,-0.1257102,0.09433498,0,0.3,0,0,0,0
638224433677874677,-14.39514,50.35665,40.18064,5.206618,-2.441689,-82.83408,-56.82663,-0.4675641,5.486608,-70.08942,-8.447793,-36.90935,0,0,0,-42.54064,24.15233,-2.606724,-122.2847,-110.4773,-88.41026,0.001067912,-0.1257102,0.09433498,0,0.3,0,0,0,0
638224433678224566,-16.70401,52.95163,41.23127,2.423302,-3.100896,-83.56653,-56.82663,-0.4675641,5.486608,-70.01617,-8.447793,-36.83611,0,0,0,-48.35478,29.49368,-7.216131,-122.2847,-110.4773,-88.41026,0.001067912,-0.1257102,0.09433498,0,0.3,0,0,0,0
638224433678554463,-17.95269,54.40108,42.16516,0.6654179,-3.979838,-83.27354,-56.82663,-0.4675641,5.486608,-70.08942,-8.447793,-36.90935,0,0,0,-51.51719,32.93771,-9.349805,-122.2847,-110.4773,-88.41026,0.001067912,-0.1257102,0.09433498,0,0.3,0,0,0,0
638224433678894355,-20.30869,56.92593,44.4065,-2.85035,-6.323683,-80.27049,-56.82663,-0.4675641,5.486608,-70.01617,-8.374548,-36.90935,0,0,0,-57.64375,39.82838,-12.59128,-122.2847,-110.4773,-88.41026,0.001067912,-0.1257102,0.09433498,0,0.3,0,0,0,0
638224433679234244,-23.08876,59.00658,46.71788,-6.80559,-9.619716,-75.36307,-56.82663,-0.4675641,5.486608,-70.08942,-8.447793,-36.83611,0,0,0,-64.9977,46.23756,-15.88215,-122.2847,-110.4773,-88.41026,0.001067912,-0.1257102,0.09433498,0,0.3,0,0,0,0
638224433679574133,-24.52592,59.70793,47.62842,-9.002944,-11.23111,-72.87273,-56.82663,-0.4675641,5.486608,-70.01617,-8.447793,-36.90935,0,0,0,-68.81626,48.62374,-17.52734,-122.2847,-110.4773,-88.41026,0.001067912,-0.1257102,0.09433498,0,0.3,0,0,0,0
638224433679904028,-27.61227,60.45603,49.16934,-13.98362,-14.38065,-67.23285,-56.82663,-0.4675641,5.486608,-70.01617,-8.447793,-36.83611,0,0,0,-77.24102,52.17387,-20.67861,-122.2847,-110.4773,-88.41026,0.001067912,-0.1257102,0.09433498,0,0.3,0,0,0,0
638224433680243922,-31.09915,60.40928,50.03319,-19.98972,-16.35827,-61.81271,-56.82663,-0.4675641,5.486608,-70.01617,-8.447793,-36.83611,0,0,0,-86.80131,53.65127,-24.453,-122.2847,-110.4773,-88.41026,0.001067912,-0.1257102,0.09433498,0,0.3,0,0,0,0
638224433680703774,-35.50486,59.68455,50.75696,-28.63265,-17.31046,-55.58687,-56.82663,-0.4675641,5.486608,-70.08942,-8.447793,-36.90935,0,0,0,-99.07117,54.10693,-29.48227,-122.2847,-110.4773,-88.41026,0.001067912,-0.1257102,0.09433498,0,0.3,0,0,0,0
638224433681033672,-37.88441,58.91307,50.87369,-33.9063,-17.23721,-52.65706,-56.82663,-0.4675641,5.486608,-70.08942,-8.447793,-36.90935,0,0,0,-105.8049,53.4008,-32.36138,-122.2847,-110.4773,-88.41026,0.001067912,-0.1257102,0.09433498,0,0.3,0,0,0,0
638224433681373575,-39.36869,58.21173,50.87369,-37.42207,-16.7245,-51.26541,-56.82663,-0.4675641,5.486608,-70.08942,-8.447793,-36.83611,0,0,0,-110.1752,52.54944,-34.07097,-122.2847,-110.4773,-88.41026,0.001067912,-0.1257102,0.09433498,0,0.3,0,0,0,0
638224433681723449,-42.33725,56.34147,50.80365,-44.08738,-15.18635,-49.43428,-56.82663,-0.4675641,5.486608,-70.08942,-8.447793,-36.90935,0,0,0,-119.3783,50.07008,-37.32619,-122.2847,-110.4773,-88.41026,0.001067912,-0.1257102,0.09433498,0,0.3,0,0,0,0
638224433682063342,-44.83461,53.93351,49.9865,-50.02024,-12.8425,-48.26236,-56.82663,-0.4675641,5.486608,-70.08942,-8.374548,-36.90935,0,0,0,-127.3612,45.40159,-40.25138,-122.2847,-110.4773,-88.41026,0.001067912,-0.1257102,0.09433498,0,0.3,0,0,0,0
638224433682413231,-46.97857,50.9411,48.07202,-54.26846,-9.985942,-47.6764,-56.82663,-0.4675641,5.486608,-70.08942,-8.447793,-36.90935,0,0,0,-133.9641,37.79216,-43.33267,-122.2847,-110.4773,-88.41026,0.001067912,-0.1257102,0.09433498,0,0.3,0,0,0,0
638224433682743127,-47.87384,49.11761,46.92801,-55.87985,-8.301303,-47.5299,-56.82663,-0.4675641,5.486608,-70.01617,-8.374548,-36.90935,0,0,0,-136.9792,33.10292,-44.4661,-122.2847,-110.4773,-88.41026,0.001067912,-0.1257102,0.09433498,0,0.3,0,0,0,0
638224433683083017,-49.47592,45.0498,44.61663,-58.07721,-4.565799,-47.38342,-56.82663,-0.4675641,5.486608,-70.08942,-8.447793,-36.90935,0,0,0,-142.8064,22.8031,-46.27793,-122.2847,-110.4773,-88.41026,0.001067912,-0.1257102,0.09433498,0,0.3,0,0,0,0
638224433683422908,-50.81884,40.77158,43.09905,-59.32237,-0.7570504,-47.31017,-56.82663,-0.4675641,5.486608,-70.01617,-8.447793,-36.83611,0,0,0,-148.9079,13.06492,-46.98521,-122.2847,-110.4773,-88.41026,0.001067912,-0.1257102,0.09433498,0,0.3,0,0,0,0
638224433683772796,-51.71412,37.91945,42.39864,-59.83509,1.586795,-47.23692,-56.82663,-0.4675641,5.486608,-70.01617,-8.447793,-36.90935,0,0,0,-153.1494,6.825476,-47.46113,-122.2847,-110.4773,-88.41026,0.001067912,-0.1257102,0.09433498,0,0.3,0,0,0,0
638224433684112689,-52.42091,35.48811,41.79161,-60.20132,3.491169,-46.79745,-56.82663,-0.4675641,5.486608,-70.08942,-8.447793,-36.83611,0,0,0,-156.4783,1.341967,-47.93644,-122.2847,-110.4773,-88.41026,0.001067912,-0.1257102,0.09433498,0,0.3,0,0,0,0
638224433684452579,-53.08059,32.44894,41.20792,-60.42105,5.835015,-45.33255,-56.82663,-0.4675641,5.486608,-70.08942,-8.447793,-36.83611,0,0,0,-160.2002,-5.42372,-47.98343,-122.2847,-110.4773,-88.41026,0.001067912,-0.1257102,0.09433498,0,0.3,0,0,0,0
638224433684792469,-53.31619,31.16315,40.90441,-60.20132,6.274486,-44.01414,-56.82663,-0.4675641,5.486608,-70.08942,-8.447793,-36.83611,0,0,0,-161.5314,-8.430823,-48.01919,-122.2847,-110.4773,-88.41026,0.001067912,-0.1257102,0.09433498,0,0.3,0,0,0,0
638224433685222335,-53.57535,28.96559,39.69035,-58.37019,5.688524,-37.7883,-56.82663,-0.4675641,5.486608,-70.01617,-8.447793,-36.90935,0,0,0,-162.4016,-14.68446,-48.50935,-122.2847,-110.4773,-88.41026,0.001067912,-0.1257102,0.09433498,0,0.3,0,0,0,0
638224433685552225,-53.55179,28.77857,39.15337,-57.63773,4.736337,-35.3712,-56.82663,-0.4675641,5.486608,-70.08942,-8.447793,-36.83611,0,0,0,-161.7448,-15.85928,-48.89128,-122.2847,-110.4773,-88.41026,0.001067912,-0.1257102,0.09433498,0,0.3,0,0,0,0
638224433685892123,-53.08059,28.52141,38.73312,-56.24608,1.879776,-30.24404,-56.82663,-0.4675641,5.486608,-70.01617,-8.447793,-36.83611,0,0,0,-160.3781,-16.99929,-47.84974,-122.2847,-110.4773,-88.41026,0.001067912,-0.1257102,0.09433498,0,0.3,0,0,0,0
638224433686232009,-52.42091,28.40452,38.66307,-55.9531,-1.928973,-24.67741,-56.82663,-0.4675641,5.486608,-70.08942,-8.447793,-36.90935,0,0,0,-158.9821,-17.34038,-46.00976,-122.2847,-110.4773,-88.41026,0.001067912,-0.1257102,0.09433498,0,0.3,0,0,0,0
638224433686571902,-52.23243,28.38114,38.3829,-56.24608,-4.199574,-20.72217,-56.82663,-0.4675641,5.486608,-70.01617,-8.447793,-36.90935,0,0,0,-158.1959,-17.79436,-45.78403,-122.2847,-110.4773,-88.41026,0.001067912,-0.1257102,0.09433498,0,0.3,0,0,0,0
638224433686901799,-52.18531,27.93695,35.62793,-57.27151,-8.521038,-11.63977,-56.82663,-0.4675641,5.486608,-70.08942,-8.447793,-36.83611,0,0,0,-154.4357,-22.5647,-48.49393,-122.2847,-110.4773,-88.41026,0.001067912,-0.1257102,0.09433498,0,0.3,0,0,0,0
638224433687241690,-52.11464,26.4875,29.18408,-56.46581,-10.71839,-2.117898,-56.82663,-0.4675641,5.486608,-70.08942,-8.447793,-36.83611,0,0,0,-145.5173,-33.59778,-55.12758,-122.2847,-110.4773,-88.41026,0.001067912,-0.1257102,0.09433498,0,0.3,0,0,0,0
638224433687581582,-52.04396,25.41211,25.61195,-55.00091,-10.71839,1.178134,-56.82663,-0.4675641,5.486608,-70.08942,-8.447793,-36.90935,0,0,0,-140.422,-39.67339,-58.81368,-122.2847,-110.4773,-88.41026,0.001067912,-0.1257102,0.09433498,0,0.3,0,0,0,0
638224433687921476,-51.87903,22.67686,18.14083,-50.09349,-8.740773,5.646089,-56.82663,-0.4675641,5.486608,-70.01617,-8.447793,-36.83611,0,0,0,-129.461,-51.96085,-66.76305,-122.2847,-110.4773,-88.41026,0.001067912,-0.1257102,0.09433498,0,0.3,0,0,0,0
638224433688271365,-51.87903,20.03512,12.91104,-45.47904,-4.492554,8.06318,-56.82663,-0.4675641,5.486608,-70.08942,-8.447793,-36.83611,0,0,0,-121.9993,-60.94348,-72.61822,-122.2847,-110.4773,-88.41026,0.001067912,-0.1257102,0.09433498,0,0.3,0,0,0,0
638224433688611255,-51.9026,17.88433,9.89924,-42.91546,0.1218917,9.235103,-56.82663,-0.4675641,5.486608,-70.08942,-8.447793,-36.83611,0,0,0,-117.9117,-67.06335,-75.90404,-122.2847,-110.4773,-88.41026,0.001067912,-0.1257102,0.09433498,0,0.3,0,0,0,0
638224433688951147,-51.99683,16.92582,8.615141,-42.25625,2.831963,9.235103,-56.82663,-0.4675641,5.486608,-70.01617,-8.447793,-36.90935,0,0,0,-116.2652,-69.67276,-77.50335,-122.2847,-110.4773,-88.41026,0.001067912,-0.1257102,0.09433498,0,0.3,0,0,0,0
638224433689291036,-52.32668,15.68677,6.443846,-41.96327,8.178861,7.989935,-56.82663,-0.4675641,5.486608,-70.08942,-8.447793,-36.83611,0,0,0,-113.4619,-73.1026,-80.74099,-122.2847,-110.4773,-88.41026,0.001067912,-0.1257102,0.09433498,0,0.3,0,0,0,0
638224433689730895,-52.89211,14.89192,3.922341,-42.84221,13.45251,6.08556,-56.82663,-0.4675641,5.486608,-70.08942,-8.374548,-36.83611,0,0,0,-110.0494,-75.41718,-85.09649,-122.2847,-110.4773,-88.41026,0.001067912,-0.1257102,0.09433498,0,0.3,0,0,0,0
638224433690080786,-53.15127,14.51786,1.937823,-44.45361,18.06696,4.327676,-56.82663,-0.4675641,5.486608,-70.08942,-8.447793,-36.90935,0,0,0,-106.9106,-76.49532,-88.22872,-122.2847,-110.4773,-88.41026,0.001067912,-0.1257102,0.09433498,0,0.3,0,0,0,0
638224433690420674,-52.77431,14.54124,0.8405016,-46.28474,22.0222,-2.410879,-56.82663,-0.4675641,5.486608,-70.08942,-8.447793,-36.83611,0,0,0,-104.3374,-76.50455,-89.07985,-122.2847,-110.4773,-88.41026,0.001067912,-0.1257102,0.09433498,0,0.3,0,0,0,0
638224433690770566,-52.20887,14.75165,0.9572379,-47.45666,23.92657,-7.391551,-56.82663,-0.4675641,5.486608,-70.08942,-8.447793,-36.90935,0,0,0,-103.6669,-76.02651,-87.96346,-122.2847,-110.4773,-88.41026,0.001067912,-0.1257102,0.09433498,0,0.3,0,0,0,0
638224433691110452,-50.34764,15.52313,1.214058,-49.72726,27.2226,-16.40071,-56.82663,-0.4675641,5.486608,-70.08942,-8.374548,-36.83611,0,0,0,-101.1004,-74.28196,-84.55672,-122.2847,-110.4773,-88.41026,0.001067912,-0.1257102,0.09433498,0,0.3,0,0,0,0
638224433691450350,-47.7796,16.76217,1.02728,-50.23997,30.44539,-22.26032,-56.82663,-0.4675641,5.486608,-70.01617,-8.447793,-36.83611,0,0,0,-96.32885,-71.52047,-80.94182,-122.2847,-110.4773,-88.41026,0.001067912,-0.1257102,0.09433498,0,0.3,0,0,0,0
638224433691800235,-46.6016,17.51027,0.8405016,-49.50752,31.61732,-23.94496,-56.82663,-0.4675641,5.486608,-70.01617,-8.447793,-36.83611,0,0,0,-93.82294,-69.86373,-79.63103,-122.2847,-110.4773,-88.41026,0.001067912,-0.1257102,0.09433498,0,0.3,0,0,0,0
638224433692140129,-44.38697,19.38053,0.5836816,-47.09043,33.22871,-25.77609,-56.82663,-0.4675641,5.486608,-70.01617,-8.447793,-36.83611,0,0,0,-88.94308,-65.74213,-77.48298,-122.2847,-110.4773,-88.41026,0.001067912,-0.1257102,0.09433498,0,0.3,0,0,0,0
638224433692480017,-41.88961,21.71835,0.3969035,-44.23387,34.25414,-26.06907,-56.82663,-0.4675641,5.486608,-70.08942,-8.447793,-36.83611,0,0,0,-83.33385,-60.65139,-75.43902,-122.2847,-110.4773,-88.41026,0.001067912,-0.1257102,0.09433498,0,0.3,0,0,0,0
638224433692829909,-38.73257,24.21982,0.6537234,-41.59705,34.76685,-25.84933,-56.82663,-0.4675641,5.486608,-70.01617,-8.447793,-36.83611,0,0,0,-77.04309,-55.28601,-72.29647,-122.2847,-110.4773,-88.41026,0.001067912,-0.1257102,0.09433498,0,0.3,0,0,0,0
638224433693169798,-36.98914,25.57575,0.8171543,-40.13214,34.8401,-25.77609,-56.82663,-0.4675641,5.486608,-70.08942,-8.447793,-36.90935,0,0,0,-73.51458,-52.4187,-70.75437,-122.2847,-110.4773,-88.41026,0.001067912,-0.1257102,0.09433498,0,0.3,0,0,0,0
638224433693509694,-32.86615,28.94222,1.44753,-36.46988,35.13308,-25.77609,-56.82663,-0.4675641,5.486608,-70.08942,-8.447793,-36.83611,0,0,0,-65.15628,-45.42574,-67.50311,-122.2847,-110.4773,-88.41026,0.001067912,-0.1257102,0.09433498,0,0.3,0,0,0,0
638224433693859578,-28.62535,33.08016,2.47481,-32.29491,35.13308,-25.77609,-56.82663,-0.4675641,5.486608,-70.08942,-8.447793,-36.83611,0,0,0,-56.28862,-37.09162,-65.21797,-122.2847,-110.4773,-88.41026,0.001067912,-0.1257102,0.09433498,0,0.3,0,0,0,0
638224433694259453,-23.44216,39.0416,4.646106,-26.36205,33.96116,-25.77609,-56.82663,-0.4675641,5.486608,-70.08942,-8.447793,-36.83611,0,0,0,-45.5002,-25.56672,-63.41716,-122.2847,-110.4773,-88.41026,0.001067912,-0.1257102,0.09433498,0,0.3,0,0,0,0
638224433694589344,-21.72228,41.16902,5.72008,-24.38443,33.15546,-25.77609,-56.82663,-0.4675641,5.486608,-70.08942,-8.447793,-36.83611,0,0,0,-42.07122,-21.55404,-62.74925,-122.2847,-110.4773,-88.41026,0.001067912,-0.1257102,0.09433498,0,0.3,0,0,0,0
638224433694929237,-16.98673,47.01357,9.408949,-18.96429,30.15241,-25.77609,-56.82663,-0.4675641,5.486608,-70.08942,-8.447793,-36.83611,0,0,0,-32.9316,-10.65845,-60.54631,-122.2847,-110.4773,-88.41026,0.001067912,-0.1257102,0.09433498,0,0.3,0,0,0,0
638224433695259144,-12.79306,52.48407,13.82158,-13.83713,26.34366,-26.06907,-56.82663,-0.4675641,5.486608,-70.08942,-8.374548,-36.90935,0,0,0,-25.03602,-0.3676778,-58.09174,-122.2847,-110.4773,-88.41026,0.001067912,-0.1257102,0.09433498,0,0.3,0,0,0,0
638224433695609016,-9.211945,57.93119,19.05137,-8.929699,21.72922,-27.0945,-56.82663,-0.4675641,5.486608,-70.08942,-8.447793,-36.90935,0,0,0,-18.30243,10.30634,-55.49646,-122.2847,-110.4773,-88.41026,0.001067912,-0.1257102,0.09433498,0,0.3,0,0,0,0
638224433695948910,-7.751227,60.59631,21.80634,-6.732344,19.16564,-27.82695,-56.82663,-0.4675641,5.486608,-70.08942,-8.447793,-36.90935,0,0,0,-15.51099,15.71404,-54.39568,-122.2847,-110.4773,-88.41026,0.001067912,-0.1257102,0.09433498,0,0.3,0,0,0,0
638224433696278806,-5.65439,65.76289,27.57312,-3.363066,13.30602,-29.87782,-56.82663,-0.4675641,5.486608,-70.08942,-8.447793,-36.83611,0,0,0,-11.47523,26.74157,-52.4496,-122.2847,-110.4773,-88.41026,0.001067912,-0.1257102,0.09433498,0,0.3,0,0,0,0
638224433696628697,-4.523513,70.53204,33.47998,-1.092466,6.933692,-32.14842,-56.82663,-0.4675641,5.486608,-70.08942,-8.447793,-36.83611,0,0,0,-9.306825,37.85173,-50.7128,-122.2847,-110.4773,-88.41026,0.001067912,-0.1257102,0.09433498,0,0.3,0,0,0,0
638224433696978580,-4.146553,72.70621,36.3517,-0.3600145,3.417924,-33.24709,-56.82663,-0.4675641,5.486608,-70.08942,-8.447793,-36.90935,0,0,0,-8.581714,43.27238,-49.97765,-122.2847,-110.4773,-88.41026,0.001067912,-0.1257102,0.09433498,0,0.3,0,0,0,0
638224433697318477,-3.533994,76.93767,42.46867,0.5189275,-4.565799,-35.81068,-56.82663,-0.4675641,5.486608,-70.08942,-8.447793,-36.83611,0,0,0,-7.40766,54.88437,-48.40377,-122.2847,-110.4773,-88.41026,0.001067912,-0.1257102,0.09433498,0,0.3,0,0,0,0
638224433697668361,-3.321954,79.46251,46.46106,0.3724372,-10.27892,-38.4475,-56.82663,-0.4675641,5.486608,-70.08942,-8.447793,-36.83611,0,0,0,-7.014615,62.59331,-47.50026,-122.2847,-110.4773,-88.41026,0.001067912,-0.1257102,0.09433498,0,0.3,0,0,0,0
638224433698008259,-2.968555,82.05749,50.50013,-0.6529952,-16.43152,-42.47599,-56.82663,-0.4675641,5.486608,-70.08942,-8.447793,-36.83611,0,0,0,-6.283038,70.60001,-47.19025,-122.2847,-110.4773,-88.41026,0.001067912,-0.1257102,0.09433498,0,0.3,0,0,0,0
638224433698348148,-2.638716,83.10951,52.43796,-1.458692,-19.28808,-44.38036,-56.82663,-0.4675641,5.486608,-70.01617,-8.447793,-36.90935,0,0,0,-5.603007,74.44401,-46.77507,-122.2847,-110.4773,-88.41026,0.001067912,-0.1257102,0.09433498,0,0.3,0,0,0,0
638224433698807998,-1.154438,85.19017,57.97126,-3.656047,-26.97882,-50.09349,-56.82663,-0.4675641,5.486608,-70.08942,-8.447793,-36.90935,0,0,0,-2.50297,85.50896,-44.14223,-122.2847,-110.4773,-88.41026,0.001067912,-0.1257102,0.09433498,0,0.3,0,0,0,0
638224433699137892,-0.3769594,85.68111,59.53553,-4.168763,-29.46916,-51.70488,-56.82663,-0.4675641,5.486608,-70.08942,-8.374548,-36.83611,0,0,0,-0.8222763,88.71235,-43.37027,-122.2847,-110.4773,-88.41026,0.001067912,-0.1257102,0.09433498,0,0.3,0,0,0,0
638224433699467791,1.814117,86.21881,61.4967,-4.534989,-33.4244,-54.19521,-56.82663,-0.4675641,5.486608,-70.08942,-8.447793,-36.90935,0,0,0,3.988169,92.77384,-42.43261,-122.2847,-110.4773,-88.41026,0.001067912,-0.1257102,0.09433498,0,0.3,0,0,0,0
638224433699817678,5.088952,86.42921,62.7808,-3.070086,-36.28096,-57.85748,-56.82663,-0.4675641,5.486608,-70.08942,-8.447793,-36.83611,0,0,0,11.25529,95.44736,-41.96168,-122.2847,-110.4773,-88.41026,0.001067912,-0.1257102,0.09433498,0,0.3,0,0,0,0
638224433700277531,10.69622,86.26557,63.5746,1.837341,-38.33182,-66.93987,-56.82663,-0.4675641,5.486608,-70.01617,-8.447793,-36.83611,0,0,0,23.77601,97.07182,-42.47355,-122.2847,-110.4773,-88.41026,0.001067912,-0.1257102,0.09433498,0,0.3,0,0,0,0
638224433700617427,14.81922,85.70449,63.24775,6.818012,-38.6248,-75.87578,-56.82663,-0.4675641,5.486608,-70.08942,-8.447793,-36.83611,0,0,0,33.01079,96.3001,-43.57862,-122.2847,-110.4773,-88.41026,0.001067912,-0.1257102,0.09433498,0,0.3,0,0,0,0
638224433700967312,17.34013,85.09666,62.92088,9.894309,-38.11209,-81.58891,-56.82663,-0.4675641,5.486608,-70.08942,-8.447793,-36.83611,0,0,0,38.78444,95.50833,-44.13401,-122.2847,-110.4773,-88.41026,0.001067912,-0.1257102,0.09433498,0,0.3,0,0,0,0
638224433701307202,21.91076,83.46019,62.52398,16.19339,-36.3542,-92.42919,-56.82663,-0.4675641,5.486608,-70.08942,-8.447793,-36.90935,0,0,0,49.81578,94.30761,-44.49659,-122.2847,-110.4773,-88.41026,0.001067912,-0.1257102,0.09433498,0,0.3,0,0,0,0
638224433701647094,26.03376,81.66006,62.31385,22.1995,-33.93711,-100.4862,-56.82663,-0.4675641,5.486608,-70.01617,-8.447793,-36.83611,0,0,0,60.31552,93.33167,-44.86956,-122.2847,-110.4773,-88.41026,0.001067912,-0.1257102,0.09433498,0,0.3,0,0,0,0
638224433701996980,27.87143,80.77169,62.24381,24.68983,-32.76519,-103.4892,-56.82663,-0.4675641,5.486608,-70.08942,-8.447793,-36.83611,0,0,0,65.16405,92.87163,-45.12801,-122.2847,-110.4773,-88.41026,0.001067912,-0.1257102,0.09433498,0,0.3,0,0,0,0
638224433702336871,31.61747,78.78455,62.47728,29.30428,-30.20161,-110.9602,-56.82663,-0.4675641,5.486608,-70.08942,-8.447793,-36.83611,0,0,0,75.59354,92.53231,-45.55835,-122.2847,-110.4773,-88.41026,0.001067912,-0.1257102,0.09433498,0,0.3,0,0,0,0
638224433702676766,35.17502,76.98442,63.38783,33.33276,-27.93101,-117.772,-56.82663,-0.4675641,5.486608,-70.08942,-8.447793,-36.90935,0,0,0,85.98241,93.54008,-46.34928,-122.2847,-110.4773,-88.41026,0.001067912,-0.1257102,0.09433498,0,0.3,0,0,0,0
638224433703016657,38.56766,75.11417,64.39176,37.288,-25.95339,-125.0965,-56.82663,-0.4675641,5.486608,-70.08942,-8.447793,-36.90935,0,0,0,96.32613,94.58879,-47.54454,-122.2847,-110.4773,-88.41026,0.001067912,-0.1257102,0.09433498,0,0.3,0,0,0,0
638224433703356548,40.80585,73.47769,64.64858,39.85158,-24.56173,-129.5645,-56.82663,-0.4675641,5.486608,-70.08942,-8.447793,-36.90935,0,0,0,103.5346,94.09751,-48.42876,-122.2847,-110.4773,-88.41026,0.001067912,-0.1257102,0.09433498,0,0.3,0,0,0,0
638224433703696442,43.25609,71.25676,64.60188,42.26867,-22.80385,-133.1535,-56.82663,-0.4675641,5.486608,-70.08942,-8.447793,-36.90935,0,0,0,111.9103,92.43365,-49.41113,-122.2847,-110.4773,-88.41026,0.001067912,-0.1257102,0.09433498,0,0.3,0,0,0,0
638224433704036331,46.03617,67.82017,64.39176,44.61252,-20.24026,-136.6693,-56.82663,-0.4675641,5.486608,-70.08942,-8.447793,-36.90935,0,0,0,122.7889,89.19664,-49.92384,-122.2847,-110.4773,-88.41026,0.001067912,-0.1257102,0.09433498,0,0.3,0,0,0,0
638224433704386222,47.21416,65.87978,64.0649,45.49146,-18.62887,-137.2552,-56.82663,-0.4675641,5.486608,-70.08942,-8.447793,-36.90935,0,0,0,128.0022,86.73621,-49.87746,-122.2847,-110.4773,-88.41026,0.001067912,-0.1257102,0.09433498,0,0.3,0,0,0,0
638224433704776098,49.05184,61.78859,62.99092,46.73663,-15.18635,-137.475,-56.82663,-0.4675641,5.486608,-70.01617,-8.447793,-36.90935,0,0,0,137.3474,80.30081,-49.17371,-122.2847,-110.4773,-88.41026,0.001067912,-0.1257102,0.09433498,0,0.3,0,0,0,0
638224433705125984,50.34764,57.44025,61.96364,47.10286,-11.30435,-137.475,-56.82663,-0.4675641,5.486608,-70.08942,-8.447793,-36.90935,0,0,0,145.8768,73.06273,-47.44552,-122.2847,-110.4773,-88.41026,0.001067912,-0.1257102,0.09433498,0,0.3,0,0,0,0
638224433705465874,51.21936,52.92825,60.84298,47.02961,-6.98289,-136.3763,-56.82663,-0.4675641,5.486608,-70.01617,-8.447793,-36.83611,0,0,0,153.4452,64.77871,-45.06223,-122.2847,-110.4773,-88.41026,0.001067912,-0.1257102,0.09433498,0,0.3,0,0,0,0
638224433705805768,51.83192,48.57991,59.02188,46.44365,-2.954405,-133.0803,-56.82663,-0.4675641,5.486608,-70.01617,-8.447793,-36.90935,0,0,0,159.2455,54.70972,-43.17975,-122.2847,-110.4773,-88.41026,0.001067912,-0.1257102,0.09433498,0,0.3,0,0,0,0
638224433706145658,52.04396,46.52262,58.01796,46.00418,-0.9767859,-132.2746,-56.82663,-0.4675641,5.486608,-70.01617,-8.447793,-36.83611,0,0,0,161.5311,49.48562,-42.34748,-122.2847,-110.4773,-88.41026,0.001067912,-0.1257102,0.09433498,0,0.3,0,0,0,0
638224433706485553,52.46804,42.82887,55.96339,44.83226,2.685472,-131.1759,-56.82663,-0.4675641,5.486608,-70.08942,-8.447793,-36.90935,0,0,0,165.1861,39.3638,-41.45177,-122.2847,-110.4773,-88.41026,0.001067912,-0.1257102,0.09433498,0,0.3,0,0,0,0
638224433706825442,52.77431,39.20525,53.27846,43.58709,6.494221,-129.9307,-56.82663,-0.4675641,5.486608,-70.08942,-8.447793,-36.90935,0,0,0,167.3879,27.90707,-41.17736,-122.2847,-110.4773,-88.41026,0.001067912,-0.1257102,0.09433498,0,0.3,0,0,0,0
638224433707155339,52.82143,37.35837,51.73754,42.92788,8.178861,-129.125,-56.82663,-0.4675641,5.486608,-70.08942,-8.447793,-36.90935,0,0,0,167.875,21.68763,-41.02492,-122.2847,-110.4773,-88.41026,0.001067912,-0.1257102,0.09433498,0,0.3,0,0,0,0
638224433707495231,52.75076,33.38407,48.53897,41.38973,11.69463,-128.0263,-56.82663,-0.4675641,5.486608,-70.08942,-8.447793,-36.83611,0,0,0,168.1815,8.433217,-40.46529,-122.2847,-110.4773,-88.41026,0.001067912,-0.1257102,0.09433498,0,0.3,0,0,0,0
638224433707835119,52.58583,29.29289,46.01746,39.77834,14.77092,-127.9531,-56.82663,-0.4675641,5.486608,-70.08942,-8.447793,-36.90935,0,0,0,168.5832,-4.008741,-39.39235,-122.2847,-110.4773,-88.41026,0.001067912,-0.1257102,0.09433498,0,0.3,0,0,0,0
638224433708175015,52.44447,27.21223,45.01353,38.97264,16.30907,-128.0263,-56.82663,-0.4675641,5.486608,-70.01617,-8.374548,-36.83611,0,0,0,168.7837,-9.941103,-38.57764,-122.2847,-110.4773,-88.41026,0.001067912,-0.1257102,0.09433498,0,0.3,0,0,0,0
638224433708514903,51.94971,22.88726,43.61269,37.50774,19.38537,-128.0996,-56.82663,-0.4675641,5.486608,-70.01617,-8.374548,-36.83611,0,0,0,169.1752,-21.33558,-35.9366,-122.2847,-110.4773,-88.41026,0.001067912,-0.1257102,0.09433498,0,0.3,0,0,0,0
638224433708854800,51.17223,18.95972,42.77219,36.18932,22.09544,-128.1728,-56.82663,-0.4675641,5.486608,-70.01617,-8.447793,-36.83611,0,0,0,168.7944,-31.21097,-32.50107,-122.2847,-110.4773,-88.41026,0.001067912,-0.1257102,0.09433498,0,0.3,0,0,0,0
638224433709194683,50.70104,17.41676,42.39864,35.60336,23.41385,-128.1728,-56.82663,-0.4675641,5.486608,-70.01617,-8.447793,-36.90935,0,0,0,168.0435,-35.21085,-30.81302,-122.2847,-110.4773,-88.41026,0.001067912,-0.1257102,0.09433498,0,0.3,0,0,0,0
638224433709534581,49.4288,15.00881,41.16123,34.13846,26.12393,-128.1728,-56.82663,-0.4675641,5.486608,-70.08942,-8.447793,-36.90935,0,0,0,164.5056,-42.51062,-27.495,-122.2847,-110.4773,-88.41026,0.001067912,-0.1257102,0.09433498,0,0.3,0,0,0,0
638224433709864472,47.96808,13.91003,39.41019,32.89329,28.46777,-127.2206,-56.82663,-0.4675641,5.486608,-70.08942,-8.447793,-36.83611,0,0,0,159.0268,-47.6219,-25.00115,-122.2847,-110.4773,-88.41026,0.001067912,-0.1257102,0.09433498,0,0.3,0,0,0,0
638224433710214360,46.08328,13.27882,37.70583,31.9411,30.59188,-123.9979,-56.82663,-0.4675641,5.486608,-70.08942,-8.447793,-36.83611,0,0,0,152.2404,-51.5222,-21.76023,-122.2847,-110.4773,-88.41026,0.001067912,-0.1257102,0.09433498,0,0.3,0,0,0,0
638224433710544258,44.9524,13.11517,36.91203,31.57488,31.61732,-121.947,-56.82663,-0.4675641,5.486608,-70.01617,-8.447793,-36.83611,0,0,0,148.3408,-53.0128,-19.76251,-122.2847,-110.4773,-88.41026,0.001067912,-0.1257102,0.09433498,0,0.3,0,0,0,0
638224433710894145,42.50217,13.13855,35.25437,30.76918,33.30195,-116.3071,-56.82663,-0.4675641,5.486608,-70.08942,-8.447793,-36.90935,0,0,0,139.7381,-55.23195,-15.86426,-122.2847,-110.4773,-88.41026,0.001067912,-0.1257102,0.09433498,0,0.3,0,0,0,0
638224433711234033,40.05193,13.53598,33.7368,30.25646,34.69361,-109.4221,-56.82663,-0.4675641,5.486608,-70.08942,-8.447793,-36.90935,0,0,0,131.0809,-56.33218,-12.42113,-122.2847,-110.4773,-88.41026,0.001067912,-0.1257102,0.09433498,0,0.3,0,0,0,0
638224433711563930,38.75614,13.98017,32.84961,29.96349,35.35282,-106.419,-56.82663,-0.4675641,5.486608,-70.01617,-8.447793,-36.90935,0,0,0,126.2868,-56.46149,-11.03439,-122.2847,-110.4773,-88.41026,0.001067912,-0.1257102,0.09433498,0,0.3,0,0,0,0
638224433711913820,36.35302,15.73353,30.86509,29.15779,36.67123,-101.2919,-56.82663,-0.4675641,5.486608,-70.01617,-8.447793,-36.90935,0,0,0,116.634,-54.95498,-9.879552,-122.2847,-110.4773,-88.41026,0.001067912,-0.1257102,0.09433498,0,0.3,0,0,0,0
638224433712333685,34.16194,18.72594,28.6471,28.35209,37.55017,-96.45767,-56.82663,-0.4675641,5.486608,-70.08942,-8.447793,-36.83611,0,0,0,106.8155,-50.8656,-10.95101,-122.2847,-110.4773,-88.41026,0.001067912,-0.1257102,0.09433498,0,0.3,0,0,0,0
638224433712673578,32.23003,22.25605,26.82601,27.83937,37.69667,-92.2827,-56.82663,-0.4675641,5.486608,-70.08942,-8.447793,-36.83611,0,0,0,97.91431,-45.14319,-13.04527,-122.2847,-110.4773,-88.41026,0.001067912,-0.1257102,0.09433498,0,0.3,0,0,0,0
638224433713023466,30.41591,25.97318,25.65865,27.39991,37.03746,-89.13316,-56.82663,-0.4675641,5.486608,-70.01617,-8.447793,-36.83611,0,0,0,89.92589,-38.44964,-15.1725,-122.2847,-110.4773,-88.41026,0.001067912,-0.1257102,0.09433498,0,0.3,0,0,0,0
638224433713363360,29.35571,27.96033,25.28509,27.18017,36.45149,-87.37527,-56.82663,-0.4675641,5.486608,-70.08942,-8.447793,-36.83611,0,0,0,85.66339,-34.70174,-16.04682,-122.2847,-110.4773,-88.41026,0.001067912,-0.1257102,0.09433498,0,0.3,0,0,0,0
638224433713703250,27.21176,31.46706,25.02827,26.59421,34.91335,-84.07924,-56.82663,-0.4675641,5.486608,-70.01617,-8.447793,-36.83611,0,0,0,77.80872,-27.86852,-17.02699,-122.2847,-110.4773,-88.41026,0.001067912,-0.1257102,0.09433498,0,0.3,0,0,0,0
638224433714053135,24.87932,34.88028,25.02827,25.56878,32.78923,-81.88189,-56.82663,-0.4675641,5.486608,-70.08942,-8.447793,-36.83611,0,0,0,69.75735,-21.22032,-17.9285,-122.2847,-110.4773,-88.41026,0.001067912,-0.1257102,0.09433498,0,0.3,0,0,0,0
638224433714383031,23.32436,37.05445,25.02827,24.83632,31.32433,-80.78321,-56.82663,-0.4675641,5.486608,-70.08942,-8.447793,-36.90935,0,0,0,64.47322,-17.12511,-18.81989,-122.2847,-110.4773,-88.41026,0.001067912,-0.1257102,0.09433498,0,0.3,0,0,0,0
638224433714722924,20.77989,40.3274,25.02827,23.44467,29.05373,-79.24506,-56.82663,-0.4675641,5.486608,-70.01617,-8.447793,-36.83611,0,0,0,56.08212,-11.18028,-20.55649,-122.2847,-110.4773,-88.41026,0.001067912,-0.1257102,0.09433498,0,0.3,0,0,0,0
638224433715072813,17.29301,44.44196,25.16835,21.32055,26.12393,-77.12095,-56.82663,-0.4675641,5.486608,-70.08942,-8.447793,-36.83611,0,0,0,45.15878,-3.970169,-23.29954,-122.2847,-110.4773,-88.41026,0.001067912,-0.1257102,0.09433498,0,0.3,0,0,0,0
638224433715412703,13.38206,48.48639,25.68199,18.83022,23.04763,-75.07008,-56.82663,-0.4675641,5.486608,-70.01617,-8.447793,-36.83611,0,0,0,33.83117,3.025468,-26.14411,-122.2847,-110.4773,-88.41026,0.001067912,-0.1257102,0.09433498,0,0.3,0,0,0,0
638224433715752591,11.16742,50.42678,26.17229,17.21883,21.28975,-74.04465,-56.82663,-0.4675641,5.486608,-70.01617,-8.447793,-36.83611,0,0,0,27.84476,6.459796,-27.30284,-122.2847,-110.4773,-88.41026,0.001067912,-0.1257102,0.09433498,0,0.3,0,0,0,0
638224433716092485,6.408309,54.1673,27.66651,13.26359,17.55424,-71.8473,-56.82663,-0.4675641,5.486608,-70.08942,-8.447793,-36.83611,0,0,0,15.62398,13.35737,-29.24116,-122.2847,-110.4773,-88.41026,0.001067912,-0.1257102,0.09433498,0,0.3,0,0,0,0
638224433716432377,2.355996,57.60389,29.76777,8.942122,13.67225,-69.86968,-56.82663,-0.4675641,5.486608,-70.08942,-8.447793,-36.83611,0,0,0,5.658608,20.19219,-30.81514,-122.2847,-110.4773,-88.41026,0.001067912,-0.1257102,0.09433498,0,0.3,0,0,0,0
638224433716862239,-1.554958,61.60157,32.96634,4.034696,8.984557,-67.81882,-56.82663,-0.4675641,5.486608,-70.08942,-8.374548,-36.83611,0,0,0,-3.690012,28.7735,-32.41689,-122.2847,-110.4773,-88.41026,0.001067912,-0.1257102,0.09433498,0,0.3,0,0,0,0
638224433717192138,-2.732955,63.05101,34.1804,2.350057,7.153428,-66.72014,-56.82663,-0.4675641,5.486608,-70.01617,-8.374548,-36.83611,0,0,0,-6.453617,31.90274,-33.15405,-122.2847,-110.4773,-88.41026,0.001067912,-0.1257102,0.09433498,0,0.3,0,0,0,0
638224433717542023,-5.277431,66.25382,37.02876,-1.458692,2.465737,-64.01007,-56.82663,-0.4675641,5.486608,-70.01617,-8.447793,-36.90935,0,0,0,-12.32543,38.95263,-34.91444,-122.2847,-110.4773,-88.41026,0.001067912,-0.1257102,0.09433498,0,0.3,0,0,0,0
638224433717891914,-7.751227,69.01246,39.667,-4.681479,-2.514934,-60.86052,-56.82663,-0.4675641,5.486608,-70.01617,-8.447793,-36.90935,0,0,0,-17.92207,45.20487,-36.68225,-122.2847,-110.4773,-88.41026,0.001067912,-0.1257102,0.09433498,0,0.3,0,0,0,0
638224433718231807,-11.14386,71.3269,42.04842,-8.124002,-7.422361,-56.6123,-56.82663,-0.4675641,5.486608,-70.01617,-8.447793,-36.83611,0,0,0,-25.51335,50.65763,-38.83226,-122.2847,-110.4773,-88.41026,0.001067912,-0.1257102,0.09433498,0,0.3,0,0,0,0
638224433718571695,-12.7695,71.98148,42.81889,-9.66215,-9.25349,-54.70793,-56.82663,-0.4675641,5.486608,-70.08942,-8.447793,-36.90935,0,0,0,-29.15026,52.34706,-39.72773,-122.2847,-110.4773,-88.41026,0.001067912,-0.1257102,0.09433498,0,0.3,0,0,0,0
638224433718911585,-16.89249,72.8231,44.21972,-14.20335,-12.98899,-49.87375,-56.82663,-0.4675641,5.486608,-70.01617,-8.447793,-36.83611,0,0,0,-38.4669,55.18423,-41.68086,-122.2847,-110.4773,-88.41026,0.001067912,-0.1257102,0.09433498,0,0.3,0,0,0,0
638224433719241484,-21.10972,72.84648,45.34039,-20.06297,-15.55258,-43.7944,-56.82663,-0.4675641,5.486608,-70.01617,-8.447793,-36.83611,0,0,0,-48.32581,57.03748,-43.17401,-122.2847,-110.4773,-88.41026,0.001067912,-0.1257102,0.09433498,0,0.3,0,0,0,0
638224433719581373,-23.32436,72.70621,45.97077,-23.359,-16.43152,-40.42512,-56.82663,-0.4675641,5.486608,-70.08942,-8.447793,-36.83611,0,0,0,-53.65638,57.99002,-43.90695,-122.2847,-110.4773,-88.41026,0.001067912,-0.1257102,0.09433498,0,0.3,0,0,0,0
638224433719921267,-27.70651,72.075,47.44164,-31.19623,-17.74993,-32.95412,-56.82663,-0.4675641,5.486608,-70.01617,-8.447793,-36.83611,0,0,0,-64.75047,60.03717,-45.05258,-122.2847,-110.4773,-88.41026,0.001067912,-0.1257102,0.09433498,0,0.3,0,0,0,0
638224433720271152,-30.41591,71.23338,48.02533,-36.61637,-18.1894,-28.19318,-56.82663,-0.4675641,5.486608,-70.08942,-8.447793,-36.83611,0,0,0,-71.91022,60.42594,-45.85994,-122.2847,-110.4773,-88.41026,0.001067912,-0.1257102,0.09433498,0,0.3,0,0,0,0
638224433720621043,-33.54939,69.45664,48.11871,-42.62248,-18.1894,-23.13926,-56.82663,-0.4675641,5.486608,-70.08942,-8.447793,-36.83611,0,0,0,-80.73064,59.19681,-46.60742,-122.2847,-110.4773,-88.41026,0.001067912,-0.1257102,0.09433498,0,0.3,0,0,0,0
638224433720950938,-35.17502,68.28773,48.11871,-45.55228,-17.89642,-20.86866,-56.82663,-0.4675641,5.486608,-70.08942,-8.447793,-36.83611,0,0,0,-85.6137,58.21622,-46.87244,-122.2847,-110.4773,-88.41026,0.001067912,-0.1257102,0.09433498,0,0.3,0,0,0,0
638224433721380800,-38.30849,65.41221,48.00198,-51.04567,-16.57801,-16.76693,-56.82663,-0.4675641,5.486608,-70.01617,-8.447793,-36.83611,0,0,0,-95.82755,55.38332,-47.04826,-122.2847,-110.4773,-88.41026,0.001067912,-0.1257102,0.09433498,0,0.3,0,0,0,0
638224433721730689,-40.99433,62.02237,47.53503,-55.73336,-14.82012,-13.25116,-56.82663,-0.4675641,5.486608,-70.01617,-8.447793,-36.90935,0,0,0,-105.5669,51.08567,-46.88486,-122.2847,-110.4773,-88.41026,0.001067912,-0.1257102,0.09433498,0,0.3,0,0,0,0
638224433722070576,-43.25609,58.11822,46.83461,-59.6886,-12.62277,-10.90732,-56.82663,-0.4675641,5.486608,-70.08942,-8.447793,-36.90935,0,0,0,-114.9143,45.35715,-46.21851,-122.2847,-110.4773,-88.41026,0.001067912,-0.1257102,0.09433498,0,0.3,0,0,0,0
638224433722410467,-45.18801,53.69973,45.87738,-62.7649,-10.27892,-9.588906,-56.82663,-0.4675641,5.486608,-70.08942,-8.447793,-36.83611,0,0,0,-123.9156,37.98239,-45.24493,-122.2847,-110.4773,-88.41026,0.001067912,-0.1257102,0.09433498,0,0.3,0,0,0,0
638224433722750362,-45.96548,51.47881,45.36374,-63.93682,-8.887264,-9.295925,-56.82663,-0.4675641,5.486608,-70.08942,-8.447793,-36.83611,0,0,0,-127.9251,33.9879,-44.66518,-122.2847,-110.4773,-88.41026,0.001067912,-0.1257102,0.09433498,0,0.3,0,0,0,0
638224433723090255,-47.47332,46.84992,44.4065,-65.62146,-5.884212,-8.856454,-56.82663,-0.4675641,5.486608,-70.01617,-8.374548,-36.83611,0,0,0,-135.9774,25.37311,-43.63316,-122.2847,-110.4773,-88.41026,0.001067912,-0.1257102,0.09433498,0,0.3,0,0,0,0
638224433723430142,-48.69844,42.43144,43.63604,-66.64689,-2.88116,-8.636719,-56.82663,-0.4675641,5.486608,-70.08942,-8.447793,-36.83611,0,0,0,-143.0712,16.81179,-42.65198,-122.2847,-110.4773,-88.41026,0.001067912,-0.1257102,0.09433498,0,0.3,0,0,0,0
638224433723770036,-49.21676,40.37416,43.33253,-66.93987,-1.562747,-8.490229,-56.82663,-0.4675641,5.486608,-70.01617,-8.374548,-36.90935,0,0,0,-146.2119,12.73441,-42.21786,-122.2847,-110.4773,-88.41026,0.001067912,-0.1257102,0.09433498,0,0.3,0,0,0,0
638224433724109930,-50.22984,36.25959,42.53872,-67.45258,1.000834,-8.490229,-56.82663,-0.4675641,5.486608,-70.01617,-8.447793,-36.83611,0,0,0,-151.9421,3.964114,-41.89059,-122.2847,-110.4773,-88.41026,0.001067912,-0.1257102,0.09433498,0,0.3,0,0,0,0
638224433724449816,-51.05444,31.65409,40.74098,-67.81882,3.710905,-8.856454,-56.82663,-0.4675641,5.486608,-70.01617,-8.447793,-36.90935,0,0,0,-155.9698,-7.704288,-42.29335,-122.2847,-110.4773,-88.41026,0.001067912,-0.1257102,0.09433498,0,0.3,0,0,0,0
638224433724799704,-51.36071,29.83059,39.97052,-67.74557,4.882828,-9.295925,-56.82663,-0.4675641,5.486608,-70.08942,-8.447793,-36.90935,0,0,0,-157.2685,-12.51287,-42.62755,-122.2847,-110.4773,-88.41026,0.001067912,-0.1257102,0.09433498,0,0.3,0,0,0,0
638224433725139597,-52.04396,25.87967,38.56968,-67.37935,7.519653,-10.61434,-56.82663,-0.4675641,5.486608,-70.01617,-8.447793,-36.83611,0,0,0,-160.1534,-22.70481,-43.4222,-122.2847,-110.4773,-88.41026,0.001067912,-0.1257102,0.09433498,0,0.3,0,0,0,0
638224433725479492,-52.60939,21.57808,37.07546,-66.93987,10.08323,-11.85951,-56.82663,-0.4675641,5.486608,-70.08942,-8.447793,-36.90935,0,0,0,-162.3961,-34.00029,-44.23101,-122.2847,-110.4773,-88.41026,0.001067912,-0.1257102,0.09433498,0,0.3,0,0,0,0
638224433725899362,-52.77431,16.50501,34.29713,-65.84119,13.08629,-13.17792,-56.82663,-0.4675641,5.486608,-70.08942,-8.447793,-36.83611,0,0,0,-161.6373,-48.92934,-45.54633,-122.2847,-110.4773,-88.41026,0.001067912,-0.1257102,0.09433498,0,0.3,0,0,0,0
638224433726229248,-52.75076,13.3022,32.42935,-64.52278,15.13715,-14.78931,-56.82663,-0.4675641,5.486608,-70.01617,-8.447793,-36.83611,0,0,0,-160.2228,-58.5224,-46.51708,-122.2847,-110.4773,-88.41026,0.001067912,-0.1257102,0.09433498,0,0.3,0,0,0,0
638224433726569148,-52.72719,11.54883,31.40207,-63.71709,16.45556,-16.03448,-56.82663,-0.4675641,5.486608,-70.08942,-8.447793,-36.90935,0,0,0,-159.2564,-63.77141,-47.1485,-122.2847,-110.4773,-88.41026,0.001067912,-0.1257102,0.09433498,0,0.3,0,0,0,0
638224433726909035,-52.39735,7.948589,28.90392,-62.25218,19.31213,-19.40376,-56.82663,-0.4675641,5.486608,-70.08942,-8.447793,-36.90935,0,0,0,-155.6972,-74.94855,-48.43554,-122.2847,-110.4773,-88.41026,0.001067912,-0.1257102,0.09433498,0,0.3,0,0,0,0
638224433727248927,-51.38427,5.002935,25.98551,-60.64079,21.87571,-23.28575,-56.82663,-0.4675641,5.486608,-70.08942,-8.447793,-36.83611,0,0,0,-149.4474,-84.88995,-48.9805,-122.2847,-110.4773,-88.41026,0.001067912,-0.1257102,0.09433498,0,0.3,0,0,0,0
638224433727598814,-50.65392,3.763891,24.53798,-59.6886,23.26737,-25.33662,-56.82663,-0.4675641,5.486608,-70.01617,-8.447793,-36.90935,0,0,0,-145.728,-89.20289,-48.87711,-122.2847,-110.4773,-88.41026,0.001067912,-0.1257102,0.09433498,0,0.3,0,0,0,0
638224433727938703,-48.9576,1.917013,21.94643,-57.71098,26.34366,-29.80457,-56.82663,-0.4675641,5.486608,-70.08942,-8.447793,-36.90935,0,0,0,-138.1086,-95.8758,-48.11448,-122.2847,-110.4773,-88.41026,0.001067912,-0.1257102,0.09433498,0,0.3,0,0,0,0
638224433728278598,-46.955,1.542961,19.37823,-55.51363,29.34671,-34.19928,-56.82663,-0.4675641,5.486608,-70.01617,-8.447793,-36.83611,0,0,0,-129.7549,-98.85491,-47.16092,-122.2847,-110.4773,-88.41026,0.001067912,-0.1257102,0.09433498,0,0.3,0,0,0,0
638224433728618492,-44.55189,2.150795,16.76334,-53.09653,31.76381,-38.37426,-56.82663,-0.4675641,5.486608,-70.08942,-8.447793,-36.83611,0,0,0,-120.4687,-99.32861,-45.98199,-122.2847,-110.4773,-88.41026,0.001067912,-0.1257102,0.09433498,0,0.3,0,0,0,0
638224433728958379,-42.52573,3.132679,14.9656,-50.75269,33.44844,-41.23082,-56.82663,-0.4675641,5.486608,-70.08942,-8.447793,-36.83611,0,0,0,-113.2755,-98.18955,-44.84283,-122.2847,-110.4773,-88.41026,0.001067912,-0.1257102,0.09433498,0,0.3,0,0,0,0
638224433729298274,-40.75874,4.41848,13.54141,-48.62858,34.8401,-43.35493,-56.82663,-0.4675641,5.486608,-70.01617,-8.447793,-36.83611,0,0,0,-107.1873,-96.01963,-43.99134,-122.2847,-110.4773,-88.41026,0.001067912,-0.1257102,0.09433498,0,0.3,0,0,0,0
638224433729638160,-38.49697,7.106974,11.53355,-45.69878,36.74448,-45.84526,-56.82663,-0.4675641,5.486608,-70.08942,-8.447793,-36.83611,0,0,0,-98.96559,-90.80901,-43.91972,-122.2847,-110.4773,-88.41026,0.001067912,-0.1257102,0.09433498,0,0.3,0,0,0,0
638224433729978060,-37.50746,8.673313,10.69305,-44.38036,37.40368,-46.65096,-56.82663,-0.4675641,5.486608,-70.08942,-8.447793,-36.83611,0,0,0,-95.3286,-87.57519,-44.14883,-122.2847,-110.4773,-88.41026,0.001067912,-0.1257102,0.09433498,0,0.3,0,0,0,0
638224433730427914,-34.49178,15.80367,7.938071,-40.49837,38.50236,-49.21454,-56.82663,-0.4675641,5.486608,-70.08942,-8.447793,-36.90935,0,0,0,-83.08886,-72.40545,-47.41781,-122.2847,-110.4773,-88.41026,0.001067912,-0.1257102,0.09433498,0,0.3,0,0,0,0
638224433730757811,-33.54939,18.30513,7.237653,-39.32644,38.28262,-49.65401,-56.82663,-0.4675641,5.486608,-70.01617,-8.447793,-36.83611,0,0,0,-79.25205,-67.05524,-48.83715,-122.2847,-110.4773,-88.41026,0.001067912,-0.1257102,0.09433498,0,0.3,0,0,0,0
638224433731097699,-30.91067,24.94454,6.583929,-35.95716,36.96421,-50.23997,-56.82663,-0.4675641,5.486608,-70.01617,-8.447793,-36.90935,0,0,0,-69.96626,-52.88141,-51.49429,-122.2847,-110.4773,-88.41026,0.001067912,-0.1257102,0.09433498,0,0.3,0,0,0,0
638224433731447585,-28.41331,31.84111,7.634556,-32.14842,34.47387,-50.45971,-56.82663,-0.4675641,5.486608,-70.08942,-8.447793,-36.83611,0,0,0,-62.333,-38.46707,-53.13153,-122.2847,-110.4773,-88.41026,0.001067912,-0.1257102,0.09433498,0,0.3,0,0,0,0
638224433731787479,-27.35312,35.90892,9.035392,-30.09755,32.64275,-50.53296,-56.82663,-0.4675641,5.486608,-70.08942,-8.447793,-36.83611,0,0,0,-59.24849,-30.13576,-53.81878,-122.2847,-110.4773,-88.41026,0.001067912,-0.1257102,0.09433498,0,0.3,0,0,0,0
638224433732127368,-26.34004,44.18481,13.26125,-26.65503,28.0283,-50.38646,-56.82663,-0.4675641,5.486608,-70.08942,-8.447793,-36.83611,0,0,0,-56.00085,-13.50251,-55.23994,-122.2847,-110.4773,-88.41026,0.001067912,-0.1257102,0.09433498,0,0.3,0,0,0,0
638224433732457261,-26.29292,52.57758,19.19145,-24.8239,21.94895,-49.28778,-56.82663,-0.4675641,5.486608,-70.08942,-8.447793,-36.83611,0,0,0,-55.31273,3.314357,-56.39837,-122.2847,-110.4773,-88.41026,0.001067912,-0.1257102,0.09433498,0,0.3,0,0,0,0
638224433732807151,-26.29292,60.15212,26.0789,-24.60417,14.33146,-47.96938,-56.82663,-0.4675641,5.486608,-70.08942,-8.447793,-36.83611,0,0,0,-55.36559,19.23752,-56.29137,-122.2847,-110.4773,-88.41026,0.001067912,-0.1257102,0.09433498,0,0.3,0,0,0,0
638224433733137050,-26.29292,63.23804,29.32417,-24.8239,10.22972,-46.87069,-56.82663,-0.4675641,5.486608,-70.08942,-8.447793,-36.83611,0,0,0,-55.52671,26.15331,-55.96526,-122.2847,-110.4773,-88.41026,0.001067912,-0.1257102,0.09433498,0,0.3,0,0,0,0
638224433733486934,-26.2458,68.24097,35.32441,-26.06907,1.367059,-43.7944,-56.82663,-0.4675641,5.486608,-70.01617,-8.374548,-36.83611,0,0,0,-55.95757,38.39986,-54.85829,-122.2847,-110.4773,-88.41026,0.001067912,-0.1257102,0.09433498,0,0.3,0,0,0,0
638224433733826830,-25.70392,70.64893,37.91596,-27.60722,-5.298251,-41.30406,-56.82663,-0.4675641,5.486608,-70.08942,-8.447793,-36.83611,0,0,0,-54.70541,43.96498,-54.70045,-122.2847,-110.4773,-88.41026,0.001067912,-0.1257102,0.09433498,0,0.3,0,0,0,0
638224433734166723,-25.1856,71.04636,38.07939,-28.26642,-7.935077,-40.57161,-56.82663,-0.4675641,5.486608,-70.08942,-8.447793,-36.83611,0,0,0,-53.43078,44.50261,-54.72968,-122.2847,-110.4773,-88.41026,0.001067912,-0.1257102,0.09433498,0,0.3,0,0,0,0
638224433734506614,-23.96048,70.83595,36.7486,-28.7059,-11.08462,-39.69267,-56.82663,-0.4675641,5.486608,-70.01617,-8.447793,-36.83611,0,0,0,-50.17823,42.46093,-55.43833,-122.2847,-110.4773,-88.41026,0.001067912,-0.1257102,0.09433498,0,0.3,0,0,0,0
638224433734936477,-22.54688,69.1761,33.2932,-27.75371,-11.81707,-39.91241,-56.82663,-0.4675641,5.486608,-70.08942,-8.447793,-36.90935,0,0,0,-46.24449,36.52564,-56.9638,-122.2847,-110.4773,-88.41026,0.001067912,-0.1257102,0.09433498,0,0.3,0,0,0,0
638224433735276371,-21.15685,65.69276,28.71714,-25.92258,-10.42541,-41.96327,-56.82663,-0.4675641,5.486608,-70.08942,-8.447793,-36.83611,0,0,0,-42.93661,27.9304,-57.40503,-122.2847,-110.4773,-88.41026,0.001067912,-0.1257102,0.09433498,0,0.3,0,0,0,0
638224433735616255,-19.67257,61.11063,23.9076,-23.43224,-6.616664,-44.81983,-56.82663,-0.4675641,5.486608,-70.08942,-8.447793,-36.83611,0,0,0,-39.88087,18.19654,-56.79877,-122.2847,-110.4773,-88.41026,0.001067912,-0.1257102,0.09433498,0,0.3,0,0,0,0
638224433735956147,-18.75373,58.91307,21.87639,-22.26032,-4.346064,-45.91851,-56.82663,-0.4675641,5.486608,-70.08942,-8.447793,-36.83611,0,0,0,-38.11093,13.80148,-56.10282,-122.2847,-110.4773,-88.41026,0.001067912,-0.1257102,0.09433498,0,0.3,0,0,0,0
638224433736286046,-16.39773,55.26608,19.26149,-19.76999,1.000834,-48.77507,-56.82663,-0.4675641,5.486608,-70.08942,-8.447793,-36.83611,0,0,0,-33.86734,7.052488,-53.26184,-122.2847,-110.4773,-88.41026,0.001067912,-0.1257102,0.09433498,0,0.3,0,0,0,0
638224433736635932,-13.90038,55.26608,19.63505,-17.2064,5.76177,-51.92461,-56.82663,-0.4675641,5.486608,-70.08942,-8.447793,-36.90935,0,0,0,-29.01735,7.341963,-51.09964,-122.2847,-110.4773,-88.41026,0.001067912,-0.1257102,0.09433498,0,0.3,0,0,0,0
638224433736965825,-12.46322,56.83241,21.03589,-15.96124,7.153428,-53.53601,-56.82663,-0.4675641,5.486608,-70.01617,-8.447793,-36.83611,0,0,0,-26.07467,10.51081,-50.37642,-122.2847,-110.4773,-88.41026,0.001067912,-0.1257102,0.09433498,0,0.3,0,0,0,0
638224433737305717,-9.636024,62.63021,26.24233,-13.10467,7.373164,-56.53906,-56.82663,-0.4675641,5.486608,-70.08942,-8.447793,-36.90935,0,0,0,-20.13157,22.16664,-49.77847,-122.2847,-110.4773,-88.41026,0.001067912,-0.1257102,0.09433498,0,0.3,0,0,0,0
638224433737645612,-7.115108,70.5788,34.48391,-10.54109,3.344679,-59.10264,-56.82663,-0.4675641,5.486608,-70.01617,-8.447793,-36.90935,0,0,0,-14.84371,39.19391,-49.4332,-122.2847,-110.4773,-88.41026,0.001067912,-0.1257102,0.09433498,0,0.3,0,0,0,0
638224433737975503,-6.24339,74.24918,38.8265,-9.295925,0.04864649,-59.98158,-56.82663,-0.4675641,5.486608,-70.08942,-8.447793,-36.90935,0,0,0,-13.02896,47.80683,-49.25645,-122.2847,-110.4773,-88.41026,0.001067912,-0.1257102,0.09433498,0,0.3,0,0,0,0
638224433738325393,-5.065392,80.02359,47.04474,-7.025325,-8.887264,-61.51973,-56.82663,-0.4675641,5.486608,-70.08942,-8.447793,-36.83611,0,0,0,-10.65683,63.81534,-48.12246,-122.2847,-110.4773,-88.41026,0.001067912,-0.1257102,0.09433498,0,0.3,0,0,0,0
638224433738665283,-4.335033,82.96925,51.6208,-5.413931,-18.26265,-62.32543,-56.82663,-0.4675641,5.486608,-70.08942,-8.447793,-36.83611,0,0,0,-9.13546,72.90518,-47.83784,-122.2847,-110.4773,-88.41026,0.001067912,-0.1257102,0.09433498,0,0.3,0,0,0,0
638224433739015172,-2.874315,83.83424,51.69085,-4.754725,-24.48849,-62.61841,-56.82663,-0.4675641,5.486608,-70.08942,-8.447793,-36.83611,0,0,0,-5.965237,73.26436,-49.54044,-122.2847,-110.4773,-88.41026,0.001067912,-0.1257102,0.09433498,0,0.3,0,0,0,0
638224433739455032,0.612559,84.06802,49.07595,-3.875783,-27.19856,-63.57059,-56.82663,-0.4675641,5.486608,-70.08942,-8.447793,-36.83611,0,0,0,1.22452,68.63396,-53.81872,-122.2847,-110.4773,-88.41026,0.001067912,-0.1257102,0.09433498,0,0.3,0,0,0,0
638224433739794923,2.261756,83.90437,47.88524,-3.143331,-27.19856,-64.81577,-56.82663,-0.4675641,5.486608,-70.08942,-8.447793,-36.83611,0,0,0,4.46267,66.51917,-55.35845,-122.2847,-110.4773,-88.41026,0.001067912,-0.1257102,0.09433498,0,0.3,0,0,0,0
638224433740124822,7.397828,82.68871,44.54658,-0.140279,-25.66041,-69.21047,-56.82663,-0.4675641,5.486608,-70.01617,-8.447793,-36.90935,0,0,0,14.22952,60.57986,-58.75622,-122.2847,-110.4773,-88.41026,0.001067912,-0.1257102,0.09433498,0,0.3,0,0,0,0
638224433740464712,12.5339,80.32751,41.3947,4.107941,-22.51087,-74.70387,-56.82663,-0.4675641,5.486608,-70.08942,-8.447793,-36.83611,0,0,0,23.99812,54.76886,-60.40376,-122.2847,-110.4773,-88.41026,0.001067912,-0.1257102,0.09433498,0,0.3,0,0,0,0
638224433740814598,16.63333,77.91955,39.45688,8.575896,-18.48238,-79.61128,-56.82663,-0.4675641,5.486608,-70.08942,-8.447793,-36.83611,0,0,0,32.24608,50.78698,-60.41207,-122.2847,-110.4773,-88.41026,0.001067912,-0.1257102,0.09433498,0,0.3,0,0,0,0
638224433741154490,18.32965,76.93767,38.89655,10.70001,-16.43152,-81.88189,-56.82663,-0.4675641,5.486608,-70.08942,-8.447793,-36.90935,0,0,0,35.81063,49.46576,-60.25632,-122.2847,-110.4773,-88.41026,0.001067912,-0.1257102,0.09433498,0,0.3,0,0,0,0
638224433741494384,20.96836,75.97916,39.24675,13.92279,-13.13548,-86.20335,-56.82663,-0.4675641,5.486608,-70.08942,-8.447793,-36.83611,0,0,0,41.75163,49.45715,-59.40354,-122.2847,-110.4773,-88.41026,0.001067912,-0.1257102,0.09433498,0,0.3,0,0,0,0
638224433741834277,23.25368,76.75064,41.76826,16.63286,-11.30435,-91.47701,-56.82663,-0.4675641,5.486608,-70.08942,-8.447793,-36.83611,0,0,0,47.1353,53.69202,-58.65906,-122.2847,-110.4773,-88.41026,0.001067912,-0.1257102,0.09433498,0,0.3,0,0,0,0
638224433742174167,24.52592,77.70914,43.77612,17.80479,-11.23111,-93.96734,-56.82663,-0.4675641,5.486608,-70.01617,-8.374548,-36.83611,0,0,0,50.0799,57.35838,-58.5913,-122.2847,-110.4773,-88.41026,0.001067912,-0.1257102,0.09433498,0,0.3,0,0,0,0
638224433742504059,28.74315,81.05223,51.43402,21.90652,-13.20873,-102.83,-56.82663,-0.4675641,5.486608,-70.01617,-8.447793,-36.83611,0,0,0,60.11319,71.94476,-58.74706,-122.2847,-110.4773,-88.41026,0.001067912,-0.1257102,0.09433498,0,0.3,0,0,0,0
638224433742853949,31.87663,83.06276,58.01796,27.18017,-16.43152,-114.9887,-56.82663,-0.4675641,5.486608,-70.08942,-8.374548,-36.90935,0,0,0,68.23775,85.09446,-58.62172,-122.2847,-110.4773,-88.41026,0.001067912,-0.1257102,0.09433498,0,0.3,0,0,0,0
638224433743183846,33.40803,83.50694,60.98306,30.98892,-18.40914,-122.9724,-56.82663,-0.4675641,5.486608,-70.08942,-8.447793,-36.90935,0,0,0,72.50877,91.16079,-58.41819,-122.2847,-110.4773,-88.41026,0.001067912,-0.1257102,0.09433498,0,0.3,0,0,0,0
638224433743523733,36.16454,83.34329,64.67193,38.38668,-21.85166,-136.2298,-56.82663,-0.4675641,5.486608,-70.08942,-8.447793,-36.90935,0,0,0,80.2482,98.75378,-58.56224,-122.2847,-110.4773,-88.41026,0.001067912,-0.1257102,0.09433498,0,0.3,0,0,0,0
638224433743973595,39.34513,82.45493,65.79259,44.61252,-23.82928,-141.4302,-56.82663,-0.4675641,5.486608,-70.08942,-8.447793,-36.90935,0,0,0,88.2095,100.8665,-60.7521,-122.2847,-110.4773,-88.41026,0.001067912,-0.1257102,0.09433498,0,0.3,0,0,0,0
638224433744313482,43.02049,80.77169,64.0182,48.27478,-23.97577,-141.8697,-56.82663,-0.4675641,5.486608,-70.08942,-8.447793,-36.83611,0,0,0,96.37462,96.55536,-65.07494,-122.2847,-110.4773,-88.41026,0.001067912,-0.1257102,0.09433498,0,0.3,0,0,0,0
638224433744653375,46.55449,77.24158,59.51218,49.4467,-22.21789,-141.8697,-56.82663,-0.4675641,5.486608,-70.08942,-8.447793,-36.83611,0,0,0,104.8108,85.75176,-69.07755,-122.2847,-110.4773,-88.41026,0.001067912,-0.1257102,0.09433498,0,0.3,0,0,0,0
638224433744993266,48.03876,74.81025,57.01402,49.15372,-20.53325,-141.5034,-56.82663,-0.4675641,5.486608,-70.01617,-8.447793,-36.83611,0,0,0,109.1559,79.44096,-70.1992,-122.2847,-110.4773,-88.41026,0.001067912,-0.1257102,0.09433498,0,0.3,0,0,0,0
638224433745333156,50.30051,69.52678,52.85821,48.12829,-15.99205,-137.4017,-56.82663,-0.4675641,5.486608,-70.08942,-8.447793,-36.83611,0,0,0,117.6735,67.76171,-70.65734,-122.2847,-110.4773,-88.41026,0.001067912,-0.1257102,0.09433498,0,0.3,0,0,0,0
638224433745673052,51.83192,64.21992,50.12658,47.1761,-10.71839,-135.2044,-56.82663,-0.4675641,5.486608,-70.08942,-8.447793,-36.83611,0,0,0,126.0575,57.93784,-69.26617,-122.2847,-110.4773,-88.41026,0.001067912,-0.1257102,0.09433498,0,0.3,0,0,0,0
638224433746012940,52.79787,58.81956,49.56625,46.44365,-5.517986,-135.2776,-56.82663,-0.4675641,5.486608,-70.08942,-8.447793,-36.90935,0,0,0,135.8365,50.9498,-65.23653,-122.2847,-110.4773,-88.41026,0.001067912,-0.1257102,0.09433498,0,0.3,0,0,0,0
638224433746352834,52.93923,56.34147,49.61294,46.44365,-3.320631,-135.2776,-56.82663,-0.4675641,5.486608,-70.08942,-8.447793,-36.90935,0,0,0,140.0315,47.94075,-62.59562,-122.2847,-110.4773,-88.41026,0.001067912,-0.1257102,0.09433498,0,0.3,0,0,0,0
638224433746692725,52.60939,51.12813,49.70633,46.3704,0.8543434,-136.8158,-56.82663,-0.4675641,5.486608,-70.08942,-8.447793,-36.83611,0,0,0,147.3023,40.93164,-55.76712,-122.2847,-110.4773,-88.41026,0.001067912,-0.1257102,0.09433498,0,0.3,0,0,0,0
638224433747042611,51.33715,47.43437,49.61294,46.07742,4.736337,-137.4017,-56.82663,-0.4675641,5.486608,-70.01617,-8.447793,-36.83611,0,0,0,149.7433,35.15883,-48.54232,-122.2847,-110.4773,-88.41026,0.001067912,-0.1257102,0.09433498,0,0.3,0,0,0,0
638224433747382503,50.46544,46.19533,49.37947,45.85769,6.274486,-137.475,-56.82663,-0.4675641,5.486608,-70.08942,-8.447793,-36.90935,0,0,0,149.2527,32.77218,-45.16426,-122.2847,-110.4773,-88.41026,0.001067912,-0.1257102,0.09433498,0,0.3,0,0,0,0
638224433747722399,47.82672,45.0498,48.51562,45.05199,8.984557,-137.475,-56.82663,-0.4675641,5.486608,-70.01617,-8.447793,-36.90935,0,0,0,143.8569,29.39145,-38.03072,-122.2847,-110.4773,-88.41026,0.001067912,-0.1257102,0.09433498,0,0.3,0,0,0,0
638224433748062288,44.55189,46.05506,47.60507,43.66033,10.74244,-135.0579,-56.82663,-0.4675641,5.486608,-70.08942,-8.447793,-36.83611,0,0,0,134.012,29.45343,-32.22517,-122.2847,-110.4773,-88.41026,0.001067912,-0.1257102,0.09433498,0,0.3,0,0,0,0
638224433748502148,40.52313,49.6553,46.85796,41.75596,10.74244,-129.8575,-56.82663,-0.4675641,5.486608,-70.01617,-8.374548,-36.83611,0,0,0,119.3139,33.79853,-28.76558,-122.2847,-110.4773,-88.41026,0.001067912,-0.1257102,0.09433498,0,0.3,0,0,0,0
638224433748832040,37.81374,53.0919,46.60114,40.29105,9.643764,-126.7079,-56.82663,-0.4675641,5.486608,-70.08942,-8.447793,-36.83611,0,0,0,108.5007,38.35544,-28.54096,-122.2847,-110.4773,-88.41026,0.001067912,-0.1257102,0.09433498,0,0.3,0,0,0,0
638224433749161937,35.92894,55.52323,46.5311,39.11913,8.545086,-124.8768,-56.82663,-0.4675641,5.486608,-70.08942,-8.447793,-36.90935,0,0,0,101.0814,41.53828,-28.85987,-122.2847,-110.4773,-88.41026,0.001067912,-0.1257102,0.09433498,0,0.3,0,0,0,0
638224433749511827,31.73527,60.1755,46.50775,36.55555,5.322299,-121.1413,-56.82663,-0.4675641,5.486608,-70.08942,-8.447793,-36.83611,0,0,0,85.76987,47.25917,-29.66776,-122.2847,-110.4773,-88.41026,0.001067912,-0.1257102,0.09433498,0,0.3,0,0,0,0
638224433749851720,27.07039,64.19655,46.50775,33.33276,1.293814,-117.1861,-56.82663,-0.4675641,5.486608,-70.08942,-8.447793,-36.90935,0,0,0,70.44095,51.62502,-30.52075,-122.2847,-110.4773,-88.41026,0.001067912,-0.1257102,0.09433498,0,0.3,0,0,0,0
638224433750191609,24.7144,65.76289,46.46106,31.57488,-0.6838052,-114.9155,-56.82663,-0.4675641,5.486608,-70.01617,-8.447793,-36.90935,0,0,0,63.3031,53.08798,-30.81025,-122.2847,-110.4773,-88.41026,0.001067912,-0.1257102,0.09433498,0,0.3,0,0,0,0
638224433750531498,18.94221,68.56827,46.01746,26.81394,-4.785534,-108.3966,-56.82663,-0.4675641,5.486608,-70.01617,-8.447793,-36.83611,0,0,0,46.96431,54.87587,-31.50753,-122.2847,-110.4773,-88.41026,0.001067912,-0.1257102,0.09433498,0,0.3,0,0,0,0
638224433750871390,11.99202,70.01772,45.06022,21.24731,-8.154812,-100.5594,-56.82663,-0.4675641,5.486608,-70.01617,-8.374548,-36.83611,0,0,0,29.08054,54.47858,-31.44306,-122.2847,-110.4773,-88.41026,0.001067912,-0.1257102,0.09433498,0,0.3,0,0,0,0
638224433751211286,4.240793,70.36839,44.59328,13.33683,-10.49866,-91.33051,-56.82663,-0.4675641,5.486608,-70.08942,-8.447793,-36.83611,0,0,0,10.23612,53.98901,-30.30626,-122.2847,-110.4773,-88.41026,0.001067912,-0.1257102,0.09433498,0,0.3,0,0,0,0
638224433751551174,-1.531397,70.01772,44.66332,5.79258,-11.74383,-83.34679,-56.82663,-0.4675641,5.486608,-70.01617,-8.447793,-36.83611,0,0,0,-3.722934,53.82697,-29.09314,-122.2847,-110.4773,-88.41026,0.001067912,-0.1257102,0.09433498,0,0.3,0,0,0,0
638224433751881068,-5.395231,69.36313,44.87344,-0.140279,-12.32979,-77.78016,-56.82663,-0.4675641,5.486608,-70.08942,-8.447793,-36.83611,0,0,0,-13.26535,53.64259,-27.89244,-122.2847,-110.4773,-88.41026,0.001067912,-0.1257102,0.09433498,0,0.3,0,0,0,0
638224433752220958,-10.34282,68.59165,45.66725,-8.563474,-12.54952,-70.01617,-56.82663,-0.4675641,5.486608,-70.08942,-8.447793,-36.90935,0,0,0,-25.86396,54.31099,-26.632,-122.2847,-110.4773,-88.41026,0.001067912,-0.1257102,0.09433498,0,0.3,0,0,0,0
638224433752560854,-12.55746,68.45138,46.27428,-12.73845,-12.62277,-66.42715,-56.82663,-0.4675641,5.486608,-70.08942,-8.374548,-36.90935,0,0,0,-31.6006,55.20723,-26.48235,-122.2847,-110.4773,-88.41026,0.001067912,-0.1257102,0.09433498,0,0.3,0,0,0,0
638224433752900743,-16.16213,68.49814,47.60507,-20.42919,-12.91575,-59.90833,-56.82663,-0.4675641,5.486608,-70.08942,-8.374548,-36.83611,0,0,0,-41.01803,57.51009,-26.81594,-122.2847,-110.4773,-88.41026,0.001067912,-0.1257102,0.09433498,0,0.3,0,0,0,0
638224433753240634,-18.80085,69.5034,49.40281,-26.72828,-13.50171,-54.3417,-56.82663,-0.4675641,5.486608,-70.08942,-8.447793,-36.90935,0,0,0,-47.67994,61.48223,-28.29789,-122.2847,-110.4773,-88.41026,0.001067912,-0.1257102,0.09433498,0,0.3,0,0,0,0
638224433753580525,-19.81393,70.71906,50.89704,-29.65808,-14.23416,-52.0711,-56.82663,-0.4675641,5.486608,-70.01617,-8.447793,-36.83611,0,0,0,-50.0022,65.11455,-29.56939,-122.2847,-110.4773,-88.41026,0.001067912,-0.1257102,0.09433498,0,0.3,0,0,0,0
638224433753930413,-21.08616,74.29593,54.95946,-35.15147,-16.7245,-47.09043,-56.82663,-0.4675641,5.486608,-70.08942,-8.447793,-36.90935,0,0,0,-52.26526,75.1587,-32.80397,-122.2847,-110.4773,-88.41026,0.001067912,-0.1257102,0.09433498,0,0.3,0,0,0,0
638224433754270307,-21.27464,78.2936,59.41879,-40.7181,-20.97272,-41.37731,-56.82663,-0.4675641,5.486608,-70.08942,-8.447793,-36.83611,0,0,0,-51.47177,86.08331,-36.15892,-122.2847,-110.4773,-88.41026,0.001067912,-0.1257102,0.09433498,0,0.3,0,0,0,0
638224433754620193,-21.41601,80.72494,62.24381,-45.91851,-25.95339,-35.59094,-56.82663,-0.4675641,5.486608,-70.08942,-8.447793,-36.83611,0,0,0,-50.93622,92.85413,-38.48288,-122.2847,-110.4773,-88.41026,0.001067912,-0.1257102,0.09433498,0,0.3,0,0,0,0
638224433754950092,-21.91076,81.23926,62.75745,-48.62858,-28.44372,-32.4414,-56.82663,-0.4675641,5.486608,-70.08942,-8.447793,-36.90935,0,0,0,-51.82055,94.10213,-39.51228,-122.2847,-110.4773,-88.41026,0.001067912,-0.1257102,0.09433498,0,0.3,0,0,0,0
638224433755289981,-24.07828,81.21588,62.99092,-53.46276,-31.44678,-27.16775,-56.82663,-0.4675641,5.486608,-70.08942,-8.447793,-36.90935,0,0,0,-56.7793,94.57745,-41.28909,-122.2847,-110.4773,-88.41026,0.001067912,-0.1257102,0.09433498,0,0.3,0,0,0,0
638224433755619875,-26.66988,80.53791,63.31779,-57.93071,-32.25247,-22.99277,-56.82663,-0.4675641,5.486608,-70.08942,-8.447793,-36.90935,0,0,0,-63.31994,95.00601,-42.28724,-122.2847,-110.4773,-88.41026,0.001067912,-0.1257102,0.09433498,0,0.3,0,0,0,0
638224433756039741,-30.29811,78.50401,63.45787,-63.79033,-31.59327,-18.15859,-56.82663,-0.4675641,5.486608,-70.01617,-8.374548,-36.90935,0,0,0,-73.59245,94.4366,-42.40209,-122.2847,-110.4773,-88.41026,0.001067912,-0.1257102,0.09433498,0,0.3,0,0,0,0
638224433756369637,-31.92375,77.24158,63.45787,-66.06093,-30.93406,-16.40071,-56.82663,-0.4675641,5.486608,-70.08942,-8.447793,-36.83611,0,0,0,-78.6548,93.81936,-42.10245,-122.2847,-110.4773,-88.41026,0.001067912,-0.1257102,0.09433498,0,0.3,0,0,0,0
638224433756709530,-35.4813,73.33743,63.45787,-71.33459,-28.29723,-12.81169,-56.82663,-0.4675641,5.486608,-70.01617,-8.374548,-36.83611,0,0,0,-91.43732,91.51241,-40.07107,-122.2847,-110.4773,-88.41026,0.001067912,-0.1257102,0.09433498,0,0.3,0,0,0,0
638224433757044486,-38.40274,69.19948,63.45787,-75.72929,-24.85471,-10.3946,-56.82663,-0.4675641,5.486608,-70.01617,-8.447793,-36.83611,0,0,0,-103.5207,88.42036,-37.75215,-122.2847,-110.4773,-88.41026,0.001067912,-0.1257102,0.09433498,0,0.3,0,0,0,0
638224433757384377,-39.81633,67.00193,63.41117,-77.70691,-23.09683,-9.295925,-56.82663,-0.4675641,5.486608,-70.08942,-8.447793,-36.83611,0,0,0,-109.7184,86.41566,-36.73822,-122.2847,-110.4773,-88.41026,0.001067912,-0.1257102,0.09433498,0,0.3,0,0,0,0
638224433757724283,-42.24301,62.67696,62.61737,-80.56348,-19.58106,-7.684532,-56.82663,-0.4675641,5.486608,-70.01617,-8.374548,-36.83611,0,0,0,-120.7525,80.49075,-35.37926,-122.2847,-110.4773,-88.41026,0.001067912,-0.1257102,0.09433498,0,0.3,0,0,0,0
638224433758064163,-44.31629,58.18835,60.74959,-81.95513,-16.06529,-6.878834,-56.82663,-0.4675641,5.486608,-70.08942,-8.447793,-36.83611,0,0,0,-130.3898,71.51041,-34.81054,-122.2847,-110.4773,-88.41026,0.001067912,-0.1257102,0.09433498,0,0.3,0,0,0,0
638224433758404052,-46.13041,53.67635,58.55495,-81.58891,-12.62277,-6.878834,-56.82663,-0.4675641,5.486608,-70.01617,-8.374548,-36.83611,0,0,0,-138.9612,61.22182,-34.76661,-122.2847,-110.4773,-88.41026,0.001067912,-0.1257102,0.09433498,0,0.3,0,0,0,0
638224433758733946,-46.97857,51.40867,57.36423,-81.00294,-10.86488,-7.24506,-56.82663,-0.4675641,5.486608,-70.08942,-8.447793,-36.90935,0,0,0,-142.9113,55.66314,-34.98307,-122.2847,-110.4773,-88.41026,0.001067912,-0.1257102,0.09433498,0,0.3,0,0,0,0
638224433759083837,-48.67488,46.05506,53.90884,-79.31831,-6.763155,-8.709964,-56.82663,-0.4675641,5.486608,-70.08942,-8.447793,-36.83611,0,0,0,-150.4188,40.81022,-36.087,-122.2847,-110.4773,-88.41026,0.001067912,-0.1257102,0.09433498,0,0.3,0,0,0,0
638224433759423742,-49.61728,42.10415,50.50013,-77.56042,-3.613612,-10.90732,-56.82663,-0.4675641,5.486608,-70.01617,-8.374548,-36.83611,0,0,0,-153.7425,27.93776,-37.58479,-122.2847,-110.4773,-88.41026,0.001067912,-0.1257102,0.09433498,0,0.3,0,0,0,0
638224433759753625,-50.0178,39.76632,48.11871,-76.16876,-1.782483,-12.37222,-56.82663,-0.4675641,5.486608,-70.01617,-8.447793,-36.83611,0,0,0,-154.6156,19.62535,-38.6939,-122.2847,-110.4773,-88.41026,0.001067912,-0.1257102,0.09433498,0,0.3,0,0,0,0
638224433760103506,-50.70104,35.09068,43.65939,-73.16571,1.51355,-15.37527,-56.82663,-0.4675641,5.486608,-70.08942,-8.447793,-36.90935,0,0,0,-155.6785,3.536259,-40.93334,-122.2847,-110.4773,-88.41026,0.001067912,-0.1257102,0.09433498,0,0.3,0,0,0,0
638224433760443403,-51.17223,29.52667,39.73705,-69.86968,5.322299,-18.67131,-56.82663,-0.4675641,5.486608,-70.01617,-8.447793,-36.83611,0,0,0,-156.802,-13.47563,-42.15284,-122.2847,-110.4773,-88.41026,0.001067912,-0.1257102,0.09433498,0,0.3,0,0,0,0
638224433760793290,-51.33715,26.60439,38.12609,-68.40478,7.226673,-20.06297,-56.82663,-0.4675641,5.486608,-70.08942,-8.447793,-36.90935,0,0,0,-157.3855,-21.83249,-42.42788,-122.2847,-110.4773,-88.41026,0.001067912,-0.1257102,0.09433498,0,0.3,0,0,0,0
638224433761133183,-51.50208,20.36242,35.09094,-65.62146,11.10867,-22.18707,-56.82663,-0.4675641,5.486608,-70.08942,-8.447793,-36.83611,0,0,0,-157.8384,-39.3623,-42.80901,-122.2847,-110.4773,-88.41026,0.001067912,-0.1257102,0.09433498,0,0.3,0,0,0,0
638224433761483070,-51.47852,14.28408,32.70952,-62.7649,15.13715,-24.45767,-56.82663,-0.4675641,5.486608,-70.08942,-8.447793,-36.90935,0,0,0,-157.4819,-55.95208,-42.98678,-122.2847,-110.4773,-88.41026,0.001067912,-0.1257102,0.09433498,0,0.3,0,0,0,0
638224433761822963,-51.47852,8.953853,31.21529,-60.34781,19.01915,-26.50854,-56.82663,-0.4675641,5.486608,-70.08942,-8.447793,-36.90935,0,0,0,-157.1277,-69.93993,-43.26875,-122.2847,-110.4773,-88.41026,0.001067912,-0.1257102,0.09433498,0,0.3,0,0,0,0
638224433762172866,-51.45495,5.774416,30.25806,-59.02939,21.14326,-27.60722,-56.82663,-0.4675641,5.486608,-70.08942,-8.447793,-36.90935,0,0,0,-156.3203,-78.4164,-43.80643,-122.2847,-110.4773,-88.41026,0.001067912,-0.1257102,0.09433498,0,0.3,0,0,0,0
638224433762502745,-51.26648,2.73525,29.25412,-57.63773,23.41385,-28.63265,-56.82663,-0.4675641,5.486608,-70.08942,-8.447793,-36.90935,0,0,0,-154.7368,-86.62906,-44.23375,-122.2847,-110.4773,-88.41026,0.001067912,-0.1257102,0.09433498,0,0.3,0,0,0,0
638224433762842735,-51.05444,-0.3039166,27.87663,-55.87985,25.90419,-29.65808,-56.82663,-0.4675641,5.486608,-70.01617,-8.447793,-36.90935,0,0,0,-152.2032,-95.23291,-45.33749,-122.2847,-110.4773,-88.41026,0.001067912,-0.1257102,0.09433498,0,0.3,0,0,0,0
638224433763192529,-50.9602,-1.16891,26.96609,-55.07415,27.00287,-30.09755,-56.82663,-0.4675641,5.486608,-70.08942,-8.447793,-36.83611,0,0,0,-150.5196,-98.22186,-46.28843,-122.2847,-110.4773,-88.41026,0.001067912,-0.1257102,0.09433498,0,0.3,0,0,0,0
638224433763592397,-50.6068,-1.052019,22.85697,-53.60925,28.834,-31.12299,-56.82663,-0.4675641,5.486608,-70.08942,-8.447793,-36.83611,0,0,0,-143.0662,-101.9773,-50.86252,-122.2847,-110.4773,-88.41026,0.001067912,-0.1257102,0.09433498,0,0.3,0,0,0,0
638224433763942283,-49.71152,-1.145532,20.19538,-52.43733,30.15241,-33.02736,-56.82663,-0.4675641,5.486608,-70.08942,-8.447793,-36.83611,0,0,0,-136.8146,-104.4677,-52.37007,-122.2847,-110.4773,-88.41026,0.001067912,-0.1257102,0.09433498,0,0.3,0,0,0,0
638224433764277252,-48.55708,-1.098776,18.09413,-50.97242,31.98354,-35.3712,-56.82663,-0.4675641,5.486608,-70.08942,-8.447793,-36.83611,0,0,0,-130.9887,-105.9626,-52.69342,-122.2847,-110.4773,-88.41026,0.001067912,-0.1257102,0.09433498,0,0.3,0,0,0,0
638224433764617137,-47.14348,-1.098776,16.55321,-49.65401,33.3752,-37.7883,-56.82663,-0.4675641,5.486608,-70.08942,-8.447793,-36.90935,0,0,0,-125.586,-107.0305,-51.82577,-122.2847,-110.4773,-88.41026,0.001067912,-0.1257102,0.09433498,0,0.3,0,0,0,0
638224433764957028,-46.29532,-1.098776,15.89949,-48.9948,34.10765,-39.10671,-56.82663,-0.4675641,5.486608,-70.08942,-8.447793,-36.90935,0,0,0,-122.7913,-107.4557,-50.9889,-122.2847,-110.4773,-88.41026,0.001067912,-0.1257102,0.09433498,0,0.3,0,0,0,0
638224433765296918,-44.41053,-1.075397,14.70878,-47.23692,35.86554,-41.67029,-56.82663,-0.4675641,5.486608,-70.08942,-8.447793,-36.90935,0,0,0,-116.9951,-108.1327,-48.92245,-122.2847,-110.4773,-88.41026,0.001067912,-0.1257102,0.09433498,0,0.3,0,0,0,0
638224433765636816,-42.61997,-1.005263,14.00836,-45.2593,37.47693,-43.86765,-56.82663,-0.4675641,5.486608,-70.08942,-8.447793,-36.90935,0,0,0,-112.139,-108.3737,-46.48504,-122.2847,-110.4773,-88.41026,0.001067912,-0.1257102,0.09433498,0,0.3,0,0,0,0
638224433765976705,-41.79537,-0.8649935,13.72819,-44.23387,38.13613,-44.89308,-56.82663,-0.4675641,5.486608,-70.01617,-8.374548,-36.90935,0,0,0,-109.9552,-108.2036,-45.3518,-122.2847,-110.4773,-88.41026,0.001067912,-0.1257102,0.09433498,0,0.3,0,0,0,0
638224433766316596,-40.31109,0.3039166,12.98108,-42.10976,39.60104,-46.65096,-56.82663,-0.4675641,5.486608,-70.08942,-8.447793,-36.83611,0,0,0,-105.6465,-105.8848,-43.82485,-122.2847,-110.4773,-88.41026,0.001067912,-0.1257102,0.09433498,0,0.3,0,0,0,0
638224433766686478,-39.39226,2.805384,11.81372,-40.64486,40.55322,-48.3356,-56.82663,-0.4675641,5.486608,-70.08942,-8.447793,-36.90935,0,0,0,-101.8518,-100.6488,-44.31946,-122.2847,-110.4773,-88.41026,0.001067912,-0.1257102,0.09433498,0,0.3,0,0,0,0
638224433767036366,-38.70901,6.849813,10.34284,-39.76591,41.13919,-50.31322,-56.82663,-0.4675641,5.486608,-70.08942,-8.447793,-36.83611,0,0,0,-97.76935,-91.92892,-46.35325,-122.2847,-110.4773,-88.41026,0.001067912,-0.1257102,0.09433498,0,0.3,0,0,0,0
638224433767376255,-38.37918,9.304525,9.642421,-39.47293,41.13919,-51.11892,-56.82663,-0.4675641,5.486608,-70.08942,-8.447793,-36.83611,0,0,0,-95.57034,-86.55581,-47.68018,-122.2847,-110.4773,-88.41026,0.001067912,-0.1257102,0.09433498,0,0.3,0,0,0,0
638224433767706149,-37.6017,14.47111,8.755224,-38.81373,40.33349,-52.29084,-56.82663,-0.4675641,5.486608,-70.08942,-8.447793,-36.90935,0,0,0,-91.16956,-75.12309,-49.97118,-122.2847,-110.4773,-88.41026,0.001067912,-0.1257102,0.09433498,0,0.3,0,0,0,0
638224433768106023,-36.47082,21.15727,8.70853,-37.56856,38.13613,-53.09653,-56.82663,-0.4675641,5.486608,-70.01617,-8.374548,-36.90935,0,0,0,-85.92337,-60.33274,-52.10746,-122.2847,-110.4773,-88.41026,0.001067912,-0.1257102,0.09433498,0,0.3,0,0,0,0
638224433768445912,-35.76402,24.87441,8.988697,-36.61637,36.52474,-53.24303,-56.82663,-0.4675641,5.486608,-70.08942,-8.447793,-36.90935,0,0,0,-82.8829,-52.27126,-53.27777,-122.2847,-110.4773,-88.41026,0.001067912,-0.1257102,0.09433498,0,0.3,0,0,0,0
638224433768785807,-35.22214,27.0252,9.175476,-35.95716,35.35282,-53.31627,-56.82663,-0.4675641,5.486608,-70.08942,-8.447793,-36.90935,0,0,0,-80.77523,-47.70184,-53.9377,-122.2847,-110.4773,-88.41026,0.001067912,-0.1257102,0.09433498,0,0.3,0,0,0,0
638224433769125697,-33.73786,30.78909,9.665768,-34.56551,32.93573,-53.31627,-56.82663,-0.4675641,5.486608,-70.08942,-8.447793,-36.90935,0,0,0,-76.05834,-39.84785,-54.46843,-122.2847,-110.4773,-88.41026,0.001067912,-0.1257102,0.09433498,0,0.3,0,0,0,0
638224433769465586,-31.82951,34.34258,10.03932,-32.88087,30.44539,-53.46276,-56.82663,-0.4675641,5.486608,-70.08942,-8.447793,-36.90935,0,0,0,-70.32815,-32.73014,-55.05264,-122.2847,-110.4773,-88.41026,0.001067912,-0.1257102,0.09433498,0,0.3,0,0,0,0
638224433769805480,-29.63843,36.77391,10.10937,-30.9765,28.39453,-53.97548,-56.82663,-0.4675641,5.486608,-70.01617,-8.447793,-36.90935,0,0,0,-64.39729,-28.0985,-55.16711,-122.2847,-110.4773,-88.41026,0.001067912,-0.1257102,0.09433498,0,0.3,0,0,0,0
638224433770145375,-28.43687,37.4285,10.03932,-30.02431,27.73532,-54.41495,-56.82663,-0.4675641,5.486608,-70.08942,-8.447793,-36.90935,0,0,0,-61.49568,-26.91193,-54.79086,-122.2847,-110.4773,-88.41026,0.001067912,-0.1257102,0.09433498,0,0.3,0,0,0,0
638224433770485263,-25.1856,37.91945,9.338906,-27.60722,27.00287,-55.51363,-56.82663,-0.4675641,5.486608,-70.08942,-8.447793,-36.83611,0,0,0,-53.9752,-26.28191,-53.57198,-122.2847,-110.4773,-88.41026,0.001067912,-0.1257102,0.09433498,0,0.3,0,0,0,0
638224433770825157,-21.39244,37.38175,8.498405,-24.38443,27.36909,-56.97853,-56.82663,-0.4675641,5.486608,-70.08942,-8.447793,-36.90935,0,0,0,-45.8378,-27.576,-51.34031,-122.2847,-110.4773,-88.41026,0.001067912,-0.1257102,0.09433498,0,0.3,0,0,0,0
638224433771175044,-19.36629,36.82067,8.078154,-22.5533,27.80857,-57.78423,-56.82663,-0.4675641,5.486608,-70.08942,-8.447793,-36.83611,0,0,0,-41.61243,-28.7585,-49.9628,-122.2847,-110.4773,-88.41026,0.001067912,-0.1257102,0.09433498,0,0.3,0,0,0,0
638224433771504941,-15.33753,35.25433,7.42443,-18.52482,29.27347,-59.10264,-56.82663,-0.4675641,5.486608,-70.08942,-8.447793,-36.83611,0,0,0,-33.36058,-31.91147,-46.7174,-122.2847,-110.4773,-88.41026,0.001067912,-0.1257102,0.09433498,0,0.3,0,0,0,0
638224433771844831,-11.5915,33.33732,7.050874,-14.05686,31.17784,-59.98158,-56.82663,-0.4675641,5.486608,-70.08942,-8.447793,-36.90935,0,0,0,-25.67436,-35.70678,-43.17999,-122.2847,-110.4773,-88.41026,0.001067912,-0.1257102,0.09433498,0,0.3,0,0,0,0
638224433772184724,-9.800944,32.21516,6.91079,-11.78626,32.05679,-60.34781,-56.82663,-0.4675641,5.486608,-70.08942,-8.447793,-36.83611,0,0,0,-21.93635,-37.94226,-41.36456,-122.2847,-110.4773,-88.41026,0.001067912,-0.1257102,0.09433498,0,0.3,0,0,0,0
638224433772634576,-4.759112,27.96033,6.443846,-4.608234,35.27958,-60.93377,-56.82663,-0.4675641,5.486608,-70.01617,-8.447793,-36.83611,0,0,0,-11.01384,-46.63504,-36.05751,-122.2847,-110.4773,-88.41026,0.001067912,-0.1257102,0.09433498,0,0.3,0,0,0,0
638224433772964472,-3.510434,26.74467,6.327109,-2.70386,36.37825,-61.08026,-56.82663,-0.4675641,5.486608,-70.01617,-8.447793,-36.90935,0,0,0,-8.191398,-49.17822,-34.8209,-122.2847,-110.4773,-88.41026,0.001067912,-0.1257102,0.09433498,0,0.3,0,0,0,0
638224433773304366,-0.7303588,25.22508,5.9769,0.738663,39.08832,-62.39867,-56.82663,-0.4675641,5.486608,-70.08942,-8.447793,-36.90935,0,0,0,-1.714692,-52.44462,-33.84171,-122.2847,-110.4773,-88.41026,0.001067912,-0.1257102,0.09433498,0,0.3,0,0,0,0
638224433773644255,1.884797,25.59913,5.486608,3.521979,41.35892,-64.37629,-56.82663,-0.4675641,5.486608,-70.08942,-8.447793,-36.83611,0,0,0,4.374704,-51.77225,-35.41172,-122.2847,-110.4773,-88.41026,0.001067912,-0.1257102,0.09433498,0,0.3,0,0,0,0
638224433773984147,3.204155,26.32386,5.276482,4.840393,42.23786,-65.62146,-56.82663,-0.4675641,5.486608,-70.08942,-8.447793,-36.83611,0,0,0,7.365976,-50.30162,-36.77105,-122.2847,-110.4773,-88.41026,0.001067912,-0.1257102,0.09433498,0,0.3,0,0,0,0
638224433774324043,5.513031,28.35776,5.159746,6.964502,43.40979,-67.74557,-56.82663,-0.4675641,5.486608,-70.08942,-8.447793,-36.83611,0,0,0,12.42601,-46.12165,-39.60787,-122.2847,-110.4773,-88.41026,0.001067912,-0.1257102,0.09433498,0,0.3,0,0,0,0
638224433774733905,7.656987,31.32679,5.509954,8.722386,43.55628,-70.30915,-56.82663,-0.4675641,5.486608,-70.08942,-8.447793,-36.83611,0,0,0,16.88362,-40.05272,-42.76607,-122.2847,-110.4773,-88.41026,0.001067912,-0.1257102,0.09433498,0,0.3,0,0,0,0
638224433775043809,9.282625,35.25433,6.607276,9.894309,42.38435,-72.94598,-56.82663,-0.4675641,5.486608,-70.08942,-8.447793,-36.90935,0,0,0,20.04,-32.14377,-45.7399,-122.2847,-110.4773,-88.41026,0.001067912,-0.1257102,0.09433498,0,0.3,0,0,0,0
638224433775373701,9.871624,37.49864,7.331042,10.33378,41.43217,-74.26439,-56.82663,-0.4675641,5.486608,-70.08942,-8.447793,-36.83611,0,0,0,21.05492,-27.7341,-47.35698,-122.2847,-110.4773,-88.41026,0.001067912,-0.1257102,0.09433498,0,0.3,0,0,0,0
638224433775723593,10.6491,43.08603,9.502337,10.70001,38.42912,-77.26745,-56.82663,-0.4675641,5.486608,-70.08942,-8.447793,-36.90935,0,0,0,22.06507,-17.07948,-51.00263,-122.2847,-110.4773,-88.41026,0.001067912,-0.1257102,0.09433498,0,0.3,0,0,0,0
638224433776063491,10.90826,48.08897,11.67363,10.33378,35.27958,-79.24506,-56.82663,-0.4675641,5.486608,-70.01617,-8.447793,-36.83611,0,0,0,21.96213,-8.005003,-54.39079,-122.2847,-110.4773,-88.41026,0.001067912,-0.1257102,0.09433498,0,0.3,0,0,0,0
638224433776413378,11.09674,54.12054,14.84886,9.454838,30.73837,-81.88189,-56.82663,-0.4675641,5.486608,-70.08942,-8.447793,-36.90935,0,0,0,21.61927,2.500274,-58.12247,-122.2847,-110.4773,-88.41026,0.001067912,-0.1257102,0.09433498,0,0.3,0,0,0,0
638224433776743266,11.16742,56.87917,16.48317,9.088613,28.39453,-82.90732,-56.82663,-0.4675641,5.486608,-70.08942,-8.447793,-36.83611,0,0,0,21.43984,7.163575,-59.74685,-122.2847,-110.4773,-88.41026,0.001067912,-0.1257102,0.09433498,0,0.3,0,0,0,0
638224433777153137,11.33234,62.53669,19.98526,8.429405,23.26737,-84.22573,-56.82663,-0.4675641,5.486608,-70.08942,-8.447793,-36.83611,0,0,0,21.04011,16.35256,-63.36298,-122.2847,-110.4773,-88.41026,0.001067912,-0.1257102,0.09433498,0,0.3,0,0,0,0
638224433777493027,11.33234,67.65652,22.97371,8.06318,17.70073,-84.6652,-56.82663,-0.4675641,5.486608,-70.08942,-8.447793,-36.83611,0,0,0,20.18872,23.91506,-67.61131,-122.2847,-110.4773,-88.41026,0.001067912,-0.1257102,0.09433498,0,0.3,0,0,0,0
638224433777842914,11.1203,70.83595,24.63136,7.91669,12.64682,-84.8117,-56.82663,-0.4675641,5.486608,-70.01617,-8.447793,-36.90935,0,0,0,19.16213,28.09385,-70.86267,-122.2847,-110.4773,-88.41026,0.001067912,-0.1257102,0.09433498,0,0.3,0,0,0,0
638224433778182808,10.71978,71.58406,24.81814,7.91669,10.6692,-84.88493,-56.82663,-0.4675641,5.486608,-70.08942,-8.374548,-36.90935,0,0,0,18.24704,28.83649,-71.9627,-122.2847,-110.4773,-88.41026,0.001067912,-0.1257102,0.09433498,0,0.3,0,0,0,0
638224433778512703,9.047026,71.70095,24.04768,7.843444,7.666144,-84.6652,-56.82663,-0.4675641,5.486608,-70.08942,-8.447793,-36.83611,0,0,0,15.12831,28.18048,-73.33838,-122.2847,-110.4773,-88.41026,0.001067912,-0.1257102,0.09433498,0,0.3,0,0,0,0
638224433778862596,6.00779,70.55542,22.29664,7.110993,6.420976,-82.98056,-56.82663,-0.4675641,5.486608,-70.08942,-8.447793,-36.90935,0,0,0,9.941457,25.71455,-73.8869,-122.2847,-110.4773,-88.41026,0.001067912,-0.1257102,0.09433498,0,0.3,0,0,0,0
638224433779202481,1.837677,68.19422,19.84518,5.133373,6.347731,-80.34374,-56.82663,-0.4675641,5.486608,-70.08942,-8.447793,-36.83611,0,0,0,3.040176,21.72779,-73.59475,-122.2847,-110.4773,-88.41026,0.001067912,-0.1257102,0.09433498,0,0.3,0,0,0,0
638224433779542371,-0.8952785,66.48761,18.25756,3.595225,6.933692,-78.58585,-56.82663,-0.4675641,5.486608,-70.08942,-8.447793,-36.83611,0,0,0,-1.484004,18.99159,-73.38486,-122.2847,-110.4773,-88.41026,0.001067912,-0.1257102,0.09433498,0,0.3,0,0,0,0
638224433779882268,-5.88999,63.00426,15.45589,-0.4332596,8.764822,-75.50956,-56.82663,-0.4675641,5.486608,-70.08942,-8.447793,-36.83611,0,0,0,-9.858389,13.6427,-72.78906,-122.2847,-110.4773,-88.41026,0.001067912,-0.1257102,0.09433498,0,0.3,0,0,0,0
638224433780222163,-10.57842,59.6378,13.16786,-5.340686,11.69463,-73.3122,-56.82663,-0.4675641,5.486608,-70.08942,-8.447793,-36.83611,0,0,0,-17.95084,8.566878,-72.23037,-122.2847,-110.4773,-88.41026,0.001067912,-0.1257102,0.09433498,0,0.3,0,0,0,0
638224433780562045,-12.72238,58.51564,12.51413,-7.831022,13.08629,-72.5065,-56.82663,-0.4675641,5.486608,-70.08942,-8.447793,-36.83611,0,0,0,-21.70086,6.886635,-72.23078,-122.2847,-110.4773,-88.41026,0.001067912,-0.1257102,0.09433498,0,0.3,0,0,0,0
638224433780891945,-17.50505,57.39349,12.25731,-13.25116,15.64987,-70.60213,-56.82663,-0.4675641,5.486608,-70.08942,-8.447793,-36.90935,0,0,0,-30.12963,5.372707,-72.82037,-122.2847,-110.4773,-88.41026,0.001067912,-0.1257102,0.09433498,0,0.3,0,0,0,0
638224433781226904,-22.09924,57.51038,13.58811,-18.67131,17.04152,-67.74557,-56.82663,-0.4675641,5.486608,-70.08942,-8.374548,-36.90935,0,0,0,-38.73397,6.211723,-72.95612,-122.2847,-110.4773,-88.41026,0.001067912,-0.1257102,0.09433498,0,0.3,0,0,0,0
638224433781686770,-27.09396,58.63254,16.88007,-25.33662,17.11477,-63.86357,-56.82663,-0.4675641,5.486608,-70.01617,-8.447793,-36.83611,0,0,0,-49.24917,9.605865,-72.08364,-122.2847,-110.4773,-88.41026,0.001067912,-0.1257102,0.09433498,0,0.3,0,0,0,0
638224433782026649,-29.80335,60.45603,20.42886,-29.73133,16.16258,-60.4943,-56.82663,-0.4675641,5.486608,-70.08942,-8.447793,-36.90935,0,0,0,-55.81525,14.39838,-70.90429,-122.2847,-110.4773,-88.41026,0.001067912,-0.1257102,0.09433498,0,0.3,0,0,0,0
638224433782366538,-30.95779,61.76521,22.69354,-32.22166,15.2104,-58.37019,-56.82663,-0.4675641,5.486608,-70.01617,-8.447793,-36.83611,0,0,0,-58.91636,17.80728,-70.13289,-122.2847,-110.4773,-88.41026,0.001067912,-0.1257102,0.09433498,0,0.3,0,0,0,0
638224433782706428,-32.34783,64.94465,28.34358,-36.76286,11.98761,-53.75574,-56.82663,-0.4675641,5.486608,-70.08942,-8.521038,-36.83611,0,0,0,-64.09019,26.78811,-67.15646,-122.2847,-110.4773,-88.41026,0.001067912,-0.1257102,0.09433498,0,0.3,0,0,0,0
638224433783056316,-32.53631,68.31111,34.50726,-40.27863,7.812634,-48.77507,-56.82663,-0.4675641,5.486608,-70.08942,-8.447793,-36.90935,0,0,0,-67.1356,37.37173,-63.11543,-122.2847,-110.4773,-88.41026,0.001067912,-0.1257102,0.09433498,0,0.3,0,0,0,0
638224433783396208,-32.53631,70.15799,38.3829,-42.10976,4.809582,-45.47904,-56.82663,-0.4675641,5.486608,-70.08942,-8.447793,-36.90935,0,0,0,-68.87585,44.25306,-60.3876,-122.2847,-110.4773,-88.41026,0.001067912,-0.1257102,0.09433498,0,0.3,0,0,0,0
638224433783736106,-32.53631,72.33216,44.21972,-44.89308,-0.3175794,-39.91241,-56.82663,-0.4675641,5.486608,-70.08942,-8.447793,-36.90935,0,0,0,-71.78542,54.84212,-55.82686,-122.2847,-110.4773,-88.41026,0.001067912,-0.1257102,0.09433498,0,0.3,0,0,0,0
