zeyangz2/DNN_classification_different_people_hand/data_by_names/Srikar/srikar_right_25.csv
Timestamp,Therapist joint angle 0,Therapist joint angle 1,Therapist joint angle 2,Therapist joint angle 3,Therapist joint angle 4,Therapist joint angle 5,Patient joint angle 0,Patient joint angle 1,Patient joint angle 2,Patient joint angle 3,Patient joint angle 4,Patient joint angle 5,Virtual joint angle 0,Virtual joint angle 1,Virtual joint angle 2,Therapist position x,Therapist position y,Therapist position z,Patient position x,Patient position y,Patient position z,Virtual position x,Virtual position y,Virtual position z,Assistive Force, Obstacle Force Magnitude, Therapist Constant Force, Patient Constant Force, Recovery Factor, Assistance Level
638225083812521443,0,0,0,0,0,0,0,0,0,0,0,0,0,0,0,0,0,0,0,0,0,0,0,0,0,0.3,0,0,0,0
638225083812601407,7.633427,11.6891,-3.642174,66.1466,-64.11412,6.012315,47.94452,-0.8883717,-9.105433,-78.29288,-7.642097,14.50875,0,0,0,16.2209,-82.71382,-47.31871,83.33121,-110.3871,-93.172,0.001067912,-0.1257102,0.09433498,0,0.3,0,0,0.02829383,0
638225083812891323,7.633427,11.73586,-3.688868,66.58607,-64.11412,6.012315,47.94452,-0.8883717,-9.105433,-78.21963,-7.642097,14.50875,0,0,0,16.20355,-82.60031,-47.4481,83.33121,-110.3871,-93.172,0.001067912,-0.1257102,0.09433498,0,0.3,0,0,0.02837361,0
638225083813241212,7.633427,11.80599,-3.688868,67.53825,-64.11412,6.012315,47.94452,-0.8883717,-9.105433,-78.21963,-7.642097,14.50875,0,0,0,16.19913,-82.44051,-47.48111,83.33121,-110.3871,-93.172,0.001067912,-0.1257102,0.09433498,0,0.3,0,0,0.02831472,0
638225083813581095,7.633427,11.82937,-3.688868,69.58913,-64.04088,6.012315,47.94452,-0.8883717,-9.105433,-78.21963,-7.642097,14.50875,0,0,0,16.19765,-82.38726,-47.49215,83.33121,-110.3871,-93.172,0.001067912,-0.1257102,0.09433498,0,0.3,0,0,0.02820662,0
638225083813920997,7.633427,11.85275,-3.688868,72.22594,-63.6014,6.08556,47.94452,-0.8883717,-9.105433,-78.29288,-7.642097,14.50875,0,0,0,16.19617,-82.33401,-47.50322,83.33121,-110.3871,-93.172,0.001067912,-0.1257102,0.09433498,0,0.3,0,0,0.02811484,0
638225083814277027,7.633427,11.85275,-3.688868,74.20357,-63.01544,6.012315,47.94452,-0.8883717,-9.105433,-78.29288,-7.642097,14.50875,0,0,0,16.19617,-82.33401,-47.50322,83.33121,-110.3871,-93.172,0.001067912,-0.1257102,0.09433498,0,0.3,0,0,0.02805638,0
638225083814606922,7.633427,11.85275,-3.688868,75.00926,-62.72246,6.012315,47.94452,-0.8883717,-9.105433,-78.21963,-7.715342,14.50875,0,0,0,16.19617,-82.33401,-47.50322,83.33121,-110.3871,-93.172,0.001067912,-0.1257102,0.09433498,0,0.3,0,0,0.02803445,0
638225083814946813,7.633427,11.85275,-3.688868,76.62066,-61.91676,6.012315,47.94452,-0.8883717,-9.105433,-78.29288,-7.642097,14.50875,0,0,0,16.19617,-82.33401,-47.50322,83.33121,-110.3871,-93.172,0.001067912,-0.1257102,0.09433498,0,0.3,0,0,0.02799992,0
638225083815286704,7.633427,11.85275,-3.688868,78.15881,-60.81809,6.012315,47.94452,-0.8883717,-9.105433,-78.29288,-7.642097,14.50875,0,0,0,16.19617,-82.33401,-47.50322,83.33121,-110.3871,-93.172,0.001067912,-0.1257102,0.09433498,0,0.3,0,0,0.02797401,0
638225083815626596,7.633427,11.85275,-3.688868,78.74477,-60.15888,6.012315,47.94452,-0.8883717,-9.105433,-78.29288,-7.642097,14.50875,0,0,0,16.19617,-82.33401,-47.50322,83.33121,-110.3871,-93.172,0.001067912,-0.1257102,0.09433498,0,0.3,0,0,0.0279633,0
638225083815966482,7.633427,11.85275,-3.688868,79.33073,-58.84047,6.08556,47.94452,-0.8883717,-9.105433,-78.21963,-7.642097,14.50875,0,0,0,16.19617,-82.33401,-47.50322,83.33121,-110.3871,-93.172,0.001067912,-0.1257102,0.09433498,0,0.3,0,0,0.02794535,0
638225083816306376,7.633427,11.82937,-3.688868,79.55046,-57.88828,6.08556,47.94452,-0.8883717,-9.105433,-78.29288,-7.642097,14.50875,0,0,0,16.19765,-82.38726,-47.49215,83.33121,-110.3871,-93.172,0.001067912,-0.1257102,0.09433498,0,0.3,0,0,0.02794448,0
638225083816656252,7.633427,11.75924,-3.688868,79.55046,-57.52206,6.012315,47.94452,-0.8883717,-9.105433,-78.21963,-7.642097,14.50875,0,0,0,16.20208,-82.54704,-47.45908,83.33121,-110.3871,-93.172,0.001067912,-0.1257102,0.09433498,0,0.3,0,0,0.02796866,0
638225083816986156,7.633427,11.66572,-3.688868,79.62371,-57.37556,6.08556,47.94452,-0.8883717,-9.105433,-78.21963,-7.642097,14.50875,0,0,0,16.20795,-82.76015,-47.41529,83.33121,-110.3871,-93.172,0.001067912,-0.1257102,0.09433498,0,0.3,0,0,0.02800881,0
638225083817316052,7.633427,11.36181,-3.688868,79.62371,-57.44881,6.08556,47.94452,-0.8883717,-9.105433,-78.21963,-7.642097,14.50875,0,0,0,16.22671,-83.45325,-47.27536,83.33121,-110.3871,-93.172,0.001067912,-0.1257102,0.09433498,0,0.3,0,0,0.0281821,0
638225083817655933,7.633427,11.29167,-3.688868,79.62371,-58.03477,6.08556,47.94452,-0.8883717,-9.105433,-78.29288,-7.642097,14.50875,0,0,0,16.23096,-83.6133,-47.24358,83.33121,-110.3871,-93.172,0.001067912,-0.1257102,0.09433498,0,0.3,0,0,0.02838993,0
638225083817995843,7.633427,11.29167,-3.688868,79.62371,-58.54749,6.08556,47.94452,-0.8883717,-9.105433,-78.21963,-7.642097,14.50875,0,0,0,16.23096,-83.6133,-47.24358,83.33121,-110.3871,-93.172,0.001067912,-0.1257102,0.09433498,0,0.3,0,0,0.02848542,0
638225083818335719,7.656987,11.33843,-3.688868,80.28292,-59.79266,6.012315,47.94452,-0.8883717,-9.105433,-78.29288,-7.642097,14.50875,0,0,0,16.27792,-83.5066,-47.27143,83.33121,-110.3871,-93.172,0.001067912,-0.1257102,0.09433498,0,0.3,0,0,0.02868021,0
638225083818675608,7.680547,11.6891,-3.688868,82.18729,-60.81809,6.08556,47.94452,-0.8883717,-9.105433,-78.21963,-7.642097,14.50875,0,0,0,16.30593,-82.70687,-47.43958,83.33121,-110.3871,-93.172,0.001067912,-0.1257102,0.09433498,0,0.3,0,0,0.02877312,0
638225083819105482,7.798347,12.78788,-3.688868,84.45789,-61.55054,6.012315,47.94452,-0.8883717,-9.105433,-78.21963,-7.642097,14.50875,0,0,0,16.48093,-80.20774,-48.01043,83.33121,-110.3871,-93.172,0.001067912,-0.1257102,0.09433498,0,0.3,0,0,0.02865483,0
638225083819435369,7.892587,13.5126,-3.665521,85.26359,-61.69703,6.08556,47.94452,-0.8883717,-9.105433,-78.29288,-7.642097,14.50875,0,0,0,16.6336,-78.56875,-48.36409,83.33121,-110.3871,-93.172,0.001067912,-0.1257102,0.09433498,0,0.3,0,0,0.02846859,0
638225083819775273,8.363786,17.32325,-3.291965,87.3877,-61.40405,6.012315,47.94452,-0.8883717,-9.105433,-78.21963,-7.642097,14.43551,0,0,0,17.40311,-70.07336,-49.97871,83.33121,-110.3871,-93.172,0.001067912,-0.1257102,0.09433498,0,0.3,0,0,0.02725494,0
638225083820115161,9.141265,22.98077,-2.334727,89.58505,-60.30537,6.08556,47.94452,-0.8883717,-9.105433,-78.29288,-7.642097,14.50875,0,0,0,18.64083,-57.8265,-52.50572,83.33121,-110.3871,-93.172,0.001067912,-0.1257102,0.09433498,0,0.3,0,0,0.02404531,0
638225083820465049,9.753823,28.14736,-1.517572,90.53724,-59.2067,6.08556,47.94452,-0.8883717,-9.105433,-78.21963,-7.642097,14.50875,0,0,0,19.32149,-47.04659,-55.95051,83.33121,-110.3871,-93.172,0.001067912,-0.1257102,0.09433498,0,0.3,0,0,0.01861673,0
638225083820804928,9.871624,30.20464,-1.330794,90.39075,-58.76722,6.012315,47.94452,-0.8883717,-9.105433,-78.29288,-7.715342,14.50875,0,0,0,19.22689,-42.87699,-57.86182,83.33121,-110.3871,-93.172,0.001067912,-0.1257102,0.09433498,0,0.3,0,0,0.01523423,0
638225083821144832,9.848064,32.23854,-1.400836,88.26664,-58.401,6.012315,47.94452,-0.8883717,-9.105433,-78.29288,-7.642097,14.50875,0,0,0,18.73393,-38.82521,-60.43192,83.33121,-110.3871,-93.172,0.001067912,-0.1257102,0.09433498,0,0.3,0,0,0.00797501,0
638225083821474722,9.824504,31.81774,-1.44753,85.99604,-58.76722,6.012315,47.94452,-0.8883717,-9.105433,-78.29288,-7.642097,14.50875,0,0,0,18.75964,-39.65281,-60.01949,83.33121,-110.3871,-93.172,0.001067912,-0.1257102,0.09433498,0,0.3,0,0,0.001265102,0
638225083821814618,9.824504,31.09301,-1.54092,85.48332,-59.0602,6.012315,47.94452,-0.8883717,-9.105433,-78.29288,-7.642097,14.50875,0,0,0,18.87276,-41.08599,-59.36631,83.33121,-110.3871,-93.172,0.001067912,-0.1257102,0.09433498,0,0.3,0,0,0,0
638225083822144513,9.824504,28.94222,-2.031212,85.26359,-60.23213,6.012315,47.94452,-0.8883717,-9.105433,-78.29288,-7.642097,14.50875,0,0,0,19.10541,-45.38451,-58.02279,83.33121,-110.3871,-93.172,0.001067912,-0.1257102,0.09433498,0,0.3,0,0,0,0
638225083822484408,9.824504,27.1421,-2.428116,85.41007,-61.03782,6.08556,47.94452,-0.8883717,-9.105433,-78.21963,-7.642097,14.50875,0,0,0,19.28398,-49.04616,-56.99165,83.33121,-110.3871,-93.172,0.001067912,-0.1257102,0.09433498,0,0.3,0,0,0,0
638225083822824283,9.824504,26.09007,-2.568199,85.41007,-61.62378,6.305296,47.94452,-0.8883717,-9.105433,-78.29288,-7.642097,14.50875,0,0,0,19.41557,-51.22092,-56.23176,83.33121,-110.3871,-93.172,0.001067912,-0.1257102,0.09433498,0,0.3,0,0,0,0
638225083823164184,9.824504,24.14968,-2.825019,85.62981,-62.64922,6.818012,47.94452,-0.8883717,-9.105433,-78.21963,-7.715342,14.50875,0,0,0,19.64079,-55.28154,-54.93114,83.33121,-110.3871,-93.172,0.001067912,-0.1257102,0.09433498,0,0.3,0,0,0,0
638225083823604049,9.824504,22.91064,-2.918408,86.14253,-63.08869,7.477218,47.94452,-0.8883717,-9.105433,-78.29288,-7.715342,14.50875,0,0,0,19.8002,-57.91457,-54.01066,83.33121,-110.3871,-93.172,0.001067912,-0.1257102,0.09433498,0,0.3,0,0,0,0
638225083823943939,9.824504,22.32619,-2.941756,86.43551,-63.30842,7.989935,47.94452,-0.8883717,-9.105433,-78.21963,-7.642097,14.50875,0,0,0,19.8802,-59.16742,-53.54866,83.33121,-110.3871,-93.172,0.001067912,-0.1257102,0.09433498,0,0.3,0,0,0,0
638225083824283832,9.824504,22.30281,-2.941756,86.80173,-63.30842,8.282915,47.94452,-0.8883717,-9.105433,-78.29288,-7.642097,14.50875,0,0,0,19.88372,-59.21775,-53.52831,83.33121,-110.3871,-93.172,0.001067912,-0.1257102,0.09433498,0,0.3,0,0,0,0
638225083824623723,9.824504,22.30281,-2.941756,87.09471,-63.16194,8.429405,47.94452,-0.8883717,-9.105433,-78.29288,-7.715342,14.50875,0,0,0,19.88372,-59.21775,-53.52831,83.33121,-110.3871,-93.172,0.001067912,-0.1257102,0.09433498,0,0.3,0,0,0,0
638225083824963612,9.848064,22.88726,-2.871714,88.12015,-62.79571,8.50265,47.94452,-0.8883717,-9.105433,-78.29288,-7.642097,14.50875,0,0,0,19.86939,-57.97018,-53.89101,83.33121,-110.3871,-93.172,0.001067912,-0.1257102,0.09433498,0,0.3,0,0,0,0
638225083825303507,10.01298,25.29522,-2.311379,89.29208,-61.84352,8.575896,47.94452,-0.8883717,-9.105433,-78.29288,-7.642097,14.50875,0,0,0,20.02757,-52.9134,-54.91834,83.33121,-110.3871,-93.172,0.001067912,-0.1257102,0.09433498,0,0.3,0,0,0,0
638225083825653392,10.43706,29.66694,-1.144016,90.17101,-60.45186,8.575896,47.94452,-0.8883717,-9.105433,-78.21963,-7.642097,14.50875,0,0,0,20.50818,-43.97085,-57.01537,83.33121,-110.3871,-93.172,0.001067912,-0.1257102,0.09433498,0,0.3,0,0,0,0
638225083825983282,10.69622,32.30868,-0.5136398,90.68373,-59.8659,8.575896,47.94452,-0.8883717,-9.105433,-78.29288,-7.642097,14.43551,0,0,0,20.69636,-38.72169,-58.77803,83.33121,-110.3871,-93.172,0.001067912,-0.1257102,0.09433498,0,0.3,0,0,0,0
638225083826333159,10.93182,36.6804,0.0700418,90.46399,-59.27994,8.50265,47.94452,-0.8883717,-9.105433,-78.21963,-7.642097,14.50875,0,0,0,20.31187,-30.34316,-63.18656,83.33121,-110.3871,-93.172,0.001067912,-0.1257102,0.09433498,0,0.3,0,0,0,0
638225083826673065,10.90826,39.18187,-0.04669453,87.02148,-59.42643,8.50265,47.94452,-0.8883717,-9.105433,-78.21963,-7.642097,14.50875,0,0,0,19.54002,-25.75155,-66.95886,83.33121,-110.3871,-93.172,0.001067912,-0.1257102,0.09433498,0,0.3,0,0,0,0
638225083827013089,10.90826,39.48579,-0.1400836,84.82411,-59.93914,8.429405,47.94452,-0.8883717,-9.105433,-78.21963,-7.642097,14.50875,0,0,0,19.41405,-25.2041,-67.61253,83.33121,-110.3871,-93.172,0.001067912,-0.1257102,0.09433498,0,0.3,0,0,0,0
638225083827362844,10.90826,38.73769,-0.3735563,81.30835,-61.3308,8.429405,47.94452,-0.8883717,-9.105433,-78.29288,-7.642097,14.50875,0,0,0,19.51907,-26.55263,-67.06757,83.33121,-110.3871,-93.172,0.001067912,-0.1257102,0.09433498,0,0.3,0,0,0,0
638225083827692738,10.8847,37.10121,-0.8405016,80.06318,-62.50273,8.429405,47.94452,-0.8883717,-9.105433,-78.21963,-7.642097,14.50875,0,0,0,19.71419,-29.54562,-65.82823,83.33121,-110.3871,-93.172,0.001067912,-0.1257102,0.09433498,0,0.3,0,0,0,0
638225083828122775,10.8847,34.81015,-1.494225,79.62371,-63.6014,8.429405,47.94452,-0.8883717,-9.105433,-78.21963,-7.642097,14.50875,0,0,0,20.01812,-33.83062,-64.24769,83.33121,-110.3871,-93.172,0.001067912,-0.1257102,0.09433498,0,0.3,0,0,0,0
638225083828462647,10.8847,33.73475,-1.751045,79.84344,-63.96763,8.575896,47.94452,-0.8883717,-9.105433,-78.21963,-7.642097,14.50875,0,0,0,20.17144,-35.88196,-63.45036,83.33121,-110.3871,-93.172,0.001067912,-0.1257102,0.09433498,0,0.3,0,0,0,0
638225083828802384,10.8847,33.45421,-1.774392,80.06318,-64.11412,8.575896,47.94452,-0.8883717,-9.105433,-78.29288,-7.642097,14.50875,0,0,0,20.22941,-36.42416,-63.14892,83.33121,-110.3871,-93.172,0.001067912,-0.1257102,0.09433498,0,0.3,0,0,0,0
638225083829142271,10.8847,33.43083,-1.774392,80.94212,-64.04088,8.649141,47.94452,-0.8883717,-9.105433,-78.29288,-7.642097,14.50875,0,0,0,20.23507,-36.46956,-63.11948,83.33121,-110.3871,-93.172,0.001067912,-0.1257102,0.09433498,0,0.3,0,0,0,0
638225083829482163,10.8847,33.43083,-1.774392,81.30835,-63.16194,8.649141,47.94452,-0.8883717,-9.105433,-78.21963,-7.642097,14.43551,0,0,0,20.23507,-36.46956,-63.11948,83.33121,-110.3871,-93.172,0.001067912,-0.1257102,0.09433498,0,0.3,0,0,0,0
638225083829822054,10.8847,33.43083,-1.774392,81.2351,-62.28299,8.649141,47.94452,-0.8883717,-9.105433,-78.21963,-7.715342,14.43551,0,0,0,20.23507,-36.46956,-63.11948,83.33121,-110.3871,-93.172,0.001067912,-0.1257102,0.09433498,0,0.3,0,0,0,0
638225083830161935,10.8847,33.40745,-1.774392,80.94212,-59.8659,8.575896,47.94452,-0.8883717,-9.105433,-78.21963,-7.642097,14.50875,0,0,0,20.24073,-36.51497,-63.09005,83.33121,-110.3871,-93.172,0.001067912,-0.1257102,0.09433498,0,0.3,0,0,0,0
638225083830501832,10.8847,33.26719,-1.774392,80.20967,-56.9361,8.50265,47.94452,-0.8883717,-9.105433,-78.29288,-7.642097,14.50875,0,0,0,20.2746,-36.78772,-62.91386,83.33121,-110.3871,-93.172,0.001067912,-0.1257102,0.09433498,0,0.3,0,0,0,0
638225083830831731,10.8847,33.08016,-1.774392,79.98994,-55.25146,8.50265,47.94452,-0.8883717,-9.105433,-78.29288,-7.642097,14.50875,0,0,0,20.31958,-37.15205,-62.67997,83.33121,-110.3871,-93.172,0.001067912,-0.1257102,0.09433498,0,0.3,0,0,0,0
638225083831171620,10.8847,32.4957,-1.774392,79.7702,-52.02867,8.50265,47.94452,-0.8883717,-9.105433,-78.29288,-7.642097,14.50875,0,0,0,20.45868,-38.29559,-61.9566,83.33121,-110.3871,-93.172,0.001067912,-0.1257102,0.09433498,0,0.3,0,0,0,0
638225083831511514,10.8847,31.98138,-1.774392,79.69696,-49.39184,8.50265,47.94452,-0.8883717,-9.105433,-78.29288,-7.642097,14.50875,0,0,0,20.57926,-39.30807,-61.32954,83.33121,-110.3871,-93.172,0.001067912,-0.1257102,0.09433498,0,0.3,0,0,0,0
638225083831851394,10.8847,31.49044,-1.774392,79.7702,-45.80283,8.50265,47.94452,-0.8883717,-9.105433,-78.21963,-7.642097,14.50875,0,0,0,20.69275,-40.27985,-60.73934,83.33121,-110.3871,-93.172,0.001067912,-0.1257102,0.09433498,0,0.3,0,0,0,0
638225083832181297,10.8847,31.37355,-1.774392,79.7702,-43.75196,8.50265,47.94452,-0.8883717,-9.105433,-78.29288,-7.642097,14.50875,0,0,0,20.71954,-40.51198,-60.60002,83.33121,-110.3871,-93.172,0.001067912,-0.1257102,0.09433498,0,0.3,0,0,0,0
638225083832631159,11.0025,31.32679,-1.751045,79.69696,-39.94322,8.50265,47.94452,-0.8883717,-9.105433,-78.29288,-7.642097,14.50875,0,0,0,20.9622,-40.60658,-60.53395,83.33121,-110.3871,-93.172,0.001067912,-0.1257102,0.09433498,0,0.3,0,0,0,0
638225083832971046,11.80354,31.35017,-1.751045,79.55046,-36.72043,8.50265,47.94452,-0.8883717,-9.105433,-78.21963,-7.715342,14.43551,0,0,0,22.46167,-40.56011,-60.86525,83.33121,-110.3871,-93.172,0.001067912,-0.1257102,0.09433498,0,0.3,0,0,0,0
638225083833320936,13.9475,31.35017,-1.727698,79.47723,-34.15685,8.50265,47.94452,-0.8883717,-9.105433,-78.21963,-7.642097,14.50875,0,0,0,26.48008,-40.56176,-61.72808,83.33121,-110.3871,-93.172,0.001067912,-0.1257102,0.09433498,0,0.3,0,0,0,0
638225083833670813,17.55217,31.35017,-1.634309,80.50266,-32.17923,8.50265,47.94452,-0.8883717,-9.105433,-78.29288,-7.642097,14.50875,0,0,0,33.19674,-40.56814,-63.39673,83.33121,-110.3871,-93.172,0.001067912,-0.1257102,0.09433498,0,0.3,0,0,0,0
638225083833996477,19.95529,31.35017,-1.494225,81.60133,-31.44678,8.50265,47.94452,-0.8883717,-9.105433,-78.21963,-7.642097,14.50875,0,0,0,37.67946,-40.57704,-64.57463,83.33121,-110.3871,-93.172,0.001067912,-0.1257102,0.09433498,0,0.3,0,0,0,0
638225083834346366,25.93952,31.35017,-0.793807,84.45789,-30.49459,8.50265,47.94452,-0.8883717,-9.105433,-78.29288,-7.642097,14.50875,0,0,0,49.00612,-40.60958,-67.60278,83.33121,-110.3871,-93.172,0.001067912,-0.1257102,0.09433498,0,0.3,0,0,0,0
638225083834676259,33.17242,31.35017,0.6070289,88.92585,-29.76214,8.575896,47.94452,-0.8883717,-9.105433,-78.29288,-7.642097,14.50875,0,0,0,63.0844,-40.6149,-71.8456,83.33121,-110.3871,-93.172,0.001067912,-0.1257102,0.09433498,0,0.3,0,0,0,0
638225083835026266,37.15406,31.35017,1.774392,91.85565,-29.10293,8.575896,47.94452,-0.8883717,-9.105433,-78.21963,-7.642097,14.50875,0,0,0,71.27361,-40.55844,-74.29398,83.33121,-110.3871,-93.172,0.001067912,-0.1257102,0.09433498,0,0.3,0,0,0,0
638225083835366045,45.42361,31.25666,5.323177,99.18017,-26.4661,8.649141,47.94452,-0.8883717,-9.105433,-78.29288,-7.642097,14.50875,0,0,0,90.01228,-40.23323,-79.65895,83.33121,-110.3871,-93.172,0.001067912,-0.1257102,0.09433498,0,0.3,0,0,0,0
638225083835715933,52.51515,30.69558,9.385601,105.992,-22.43762,8.575896,47.94452,-0.8883717,-9.105433,-78.21963,-7.642097,14.50875,0,0,0,108.2457,-40.14281,-85.33565,83.33121,-110.3871,-93.172,0.001067912,-0.1257102,0.09433498,0,0.3,0,0,0,0
638225083836045815,54.16435,29.64356,13.77489,111.0459,-17.67669,8.429405,47.94452,-0.8883717,-9.105433,-78.21963,-7.642097,14.50875,0,0,0,119.6988,-40.2094,-81.90726,83.33121,-110.3871,-93.172,0.001067912,-0.1257102,0.09433498,0,0.3,0,0,0,0
638225083836385712,52.91567,28.68506,16.38978,114.4884,-15.55258,7.770199,47.94452,-0.8883717,-9.105433,-78.29288,-7.642097,14.50875,0,0,0,123.3412,-40.57394,-75.12081,83.33121,-110.3871,-93.172,0.001067912,-0.1257102,0.09433498,0,0.3,0,0,0,0
638225083836725603,52.16175,27.11872,20.17204,120.2748,-13.13548,7.257483,47.92096,-0.8883717,-9.105433,-78.21963,-7.642097,14.50875,0,0,0,130.0509,-41.03482,-67.33302,83.30029,-110.3871,-93.13775,0.001067912,-0.1257102,0.09433498,0,0.3,0,0,0,0
638225083837145472,52.56227,25.29522,19.89187,120.7142,-12.11005,62.77732,47.94452,-0.8883717,-9.105433,-78.29288,-7.642097,14.50875,0,0,0,131.7556,-45.06576,-67.47771,83.33121,-110.3871,-93.172,0.001067912,-0.1257102,0.09433498,0,0.3,0,0,0,0
638225083837485363,53.00991,24.52374,17.60384,120.7142,-13.28197,83.79868,47.94452,-0.8883717,-9.105433,-78.21963,-7.642097,14.50875,0,0,0,129.1162,-48.40567,-71.08897,83.33121,-110.3871,-93.172,0.001067912,-0.1257102,0.09433498,0,0.3,0,0,0,0
638225083837825254,53.24551,24.17306,15.96953,120.641,-15.18635,85.19034,47.94452,-0.8883717,-9.105433,-78.29288,-7.642097,14.50875,0,0,0,126.8671,-50.24773,-73.59837,83.33121,-110.3871,-93.172,0.001067912,-0.1257102,0.09433498,0,0.3,0,0,0,0
638225083838155146,53.19839,23.79901,15.54928,120.348,-18.9951,82.8465,47.94452,-0.8883717,-9.105433,-78.21963,-7.642097,14.50875,0,0,0,126.3188,-51.30877,-73.84596,83.33121,-110.3871,-93.172,0.001067912,-0.1257102,0.09433498,0,0.3,0,0,0,0
638225083838495041,53.19839,23.82239,16.36643,120.4213,-23.82928,83.94518,47.94452,-0.8883717,-9.105433,-78.29288,-7.642097,14.50875,0,0,0,127.7653,-50.73611,-72.76374,83.33121,-110.3871,-93.172,0.001067912,-0.1257102,0.09433498,0,0.3,0,0,0,0
638225083838834922,53.22195,23.84577,16.73999,120.4945,-26.4661,83.06623,47.94452,-0.8883717,-9.105433,-78.21963,-7.642097,14.50875,0,0,0,128.4545,-50.43864,-72.33049,83.33121,-110.3871,-93.172,0.001067912,-0.1257102,0.09433498,0,0.3,0,0,0,0
638225083839174814,53.15127,23.84577,16.83338,119.3958,-30.49459,80.42941,47.94452,-0.8883717,-9.105433,-78.29288,-7.715342,14.43551,0,0,0,128.5025,-50.37587,-72.04731,83.33121,-110.3871,-93.172,0.001067912,-0.1257102,0.09433498,0,0.3,0,0,0,0
638225083839504712,53.15127,23.89252,16.88007,117.1252,-33.86386,78.89126,47.94452,-0.8883717,-9.105433,-78.21963,-7.715342,14.50875,0,0,0,128.5505,-50.24484,-72.01134,83.33121,-110.3871,-93.172,0.001067912,-0.1257102,0.09433498,0,0.3,0,0,0,0
638225083839854606,53.15127,24.12631,17.0435,115.2209,-37.23314,78.23206,47.94452,-0.8883717,-9.105433,-78.21963,-7.715342,14.50875,0,0,0,128.6644,-49.63685,-71.92593,83.33121,-110.3871,-93.172,0.001067912,-0.1257102,0.09433498,0,0.3,0,0,0,0
638225083840194499,53.15127,24.19644,16.90342,112.584,-40.60242,77.27986,47.94452,-0.8883717,-9.105433,-78.29288,-7.715342,14.50875,0,0,0,128.3615,-49.5831,-72.153,83.33121,-110.3871,-93.172,0.001067912,-0.1257102,0.09433498,0,0.3,0,0,0,0
638225083840524394,53.08059,24.05617,16.34309,107.6034,-45.07038,73.25138,47.94452,-0.8883717,-9.105433,-78.21963,-7.642097,14.50875,0,0,0,127.3503,-50.25412,-72.6652,83.33121,-110.3871,-93.172,0.001067912,-0.1257102,0.09433498,0,0.3,0,0,0,0
638225083840864279,52.89211,24.00941,16.29639,96.32361,-51.73569,71.20052,47.94452,-0.8883717,-9.105433,-78.29288,-7.715342,14.50875,0,0,0,126.987,-50.38404,-72.28297,83.33121,-110.3871,-93.172,0.001067912,-0.1257102,0.09433498,0,0.3,0,0,0,0
638225083841204177,52.70363,23.96266,16.57656,88.04691,-54.66549,77.71934,47.94452,-0.8883717,-9.105433,-78.29288,-7.715342,14.50875,0,0,0,127.203,-50.29897,-71.45999,83.33121,-110.3871,-93.172,0.001067912,-0.1257102,0.09433498,0,0.3,0,0,0,0
638225083841664032,52.58583,23.68212,16.15631,51.86379,-58.54749,144.0795,47.94452,-0.8883717,-9.105433,-78.29288,-7.642097,14.50875,0,0,0,126.4677,-51.17187,-71.60862,83.33121,-110.3871,-93.172,0.001067912,-0.1257102,0.09433498,0,0.3,0,0,0,0
638225083841993921,52.49159,23.33145,15.64267,40.43755,-57.5953,144.7387,47.94452,-0.8883717,-9.105433,-78.29288,-7.642097,14.43551,0,0,0,125.6546,-52.24778,-71.90257,83.33121,-110.3871,-93.172,0.001067912,-0.1257102,0.09433498,0,0.3,0,0,0,0
638225083842333816,52.39735,22.4197,14.66208,22.63897,-53.42033,144.8852,47.94452,-0.8883717,-9.105433,-78.29288,-7.715342,14.43551,0,0,0,124.4041,-54.7994,-72.53683,83.33121,-110.3871,-93.172,0.001067912,-0.1257102,0.09433498,0,0.3,0,0,0,0
638225083842673707,52.16175,21.67159,13.30794,11.5057,-48.95237,144.8852,47.94452,-0.8883717,-9.105433,-78.21963,-7.642097,14.50875,0,0,0,122.11,-57.17485,-73.50116,83.33121,-110.3871,-93.172,0.001067912,-0.1257102,0.09433498,0,0.3,0,0,0,0
638225083843013600,52.04396,21.62484,12.09388,7.696954,-46.9015,144.7387,47.94452,-0.8883717,-9.105433,-78.29288,-7.715342,14.50875,0,0,0,119.773,-57.89722,-74.92096,83.33121,-110.3871,-93.172,0.001067912,-0.1257102,0.09433498,0,0.3,0,0,0,0
638225083843353491,51.85547,21.5547,9.292212,2.496547,-42.65329,143.2005,47.94452,-0.8883717,-9.105433,-78.29288,-7.642097,14.50875,0,0,0,114.4736,-59.25877,-78.44746,83.33121,-110.3871,-93.172,0.001067912,-0.1257102,0.09433498,0,0.3,0,0,0,0
638225083843693383,51.71412,21.57808,5.486608,-0.2867693,-37.81911,142.3216,47.94452,-0.8883717,-9.105433,-78.21963,-7.715342,14.50875,0,0,0,107.3426,-60.34709,-83.61889,83.33121,-110.3871,-93.172,0.001067912,-0.1257102,0.09433498,0,0.3,0,0,0,0
638225083844043271,51.54919,21.67159,2.614894,-1.165711,-34.59632,140.9299,47.94452,-0.8883717,-9.105433,-78.21963,-7.715342,14.50875,0,0,0,101.8148,-60.61685,-87.50548,83.33121,-110.3871,-93.172,0.001067912,-0.1257102,0.09433498,0,0.3,0,0,0,0
638225083844373166,50.86596,21.83524,-3.221923,-2.484124,-26.24637,140.3439,47.94452,-0.8883717,-9.105433,-78.29288,-7.715342,14.50875,0,0,0,90.20157,-60.19117,-94.95613,83.33121,-110.3871,-93.172,0.001067912,-0.1257102,0.09433498,0,0.3,0,0,0.0045281,0
638225083844713060,49.45236,22.51321,-8.078154,-4.022273,-16.43152,140.1975,47.94452,-0.8883717,-9.105433,-78.29288,-7.642097,14.50875,0,0,0,79.367,-57.61757,-100.45,83.33121,-110.3871,-93.172,0.001067912,-0.1257102,0.09433498,0,0.3,0,0,0.009463396,0
638225083845052948,47.56756,25.29522,-8.054807,-5.926647,-9.473226,136.9014,47.94452,-0.8883717,-9.105433,-78.21963,-7.715342,14.50875,0,0,0,75.19428,-51.70633,-99.61008,83.33121,-110.3871,-93.172,0.001067912,-0.1257102,0.09433498,0,0.3,0,0,0.0135375,0
638225083845392834,46.41312,27.09534,-8.19489,-7.09857,-7.056135,136.5352,47.94452,-0.8883717,-9.105433,-78.29288,-7.715342,14.50875,0,0,0,72.22076,-47.9011,-99.60663,83.33121,-110.3871,-93.172,0.001067912,-0.1257102,0.09433498,0,0.3,0,0,0.01513105,0
638225083845732735,43.89221,30.27477,-8.358321,-9.66215,-4.053083,136.3155,47.94452,-0.8883717,-9.105433,-78.29288,-7.715342,14.50875,0,0,0,66.40409,-41.35554,-99.32716,83.33121,-110.3871,-93.172,0.001067912,-0.1257102,0.09433498,0,0.3,0,0,0.0174644,0
638225083846182588,40.82941,33.08016,-8.358321,-13.03143,-1.855728,136.0225,47.94452,-0.8883717,-9.105433,-78.29288,-7.715342,14.50875,0,0,0,60.3798,-35.79959,-98.47189,83.33121,-110.3871,-93.172,0.001067912,-0.1257102,0.09433498,0,0.3,0,0,0.01882689,0
638225083846522473,37.3661,35.09068,-8.358321,-16.91342,0.3416272,132.5067,47.94452,-0.8883717,-9.105433,-78.21963,-7.715342,14.50875,0,0,0,54.45675,-31.92439,-97.03611,83.33121,-110.3871,-93.172,0.001067912,-0.1257102,0.09433498,0,0.3,0,0,0.01940125,0
638225083846872355,32.84259,36.70378,-8.334974,-21.30813,3.198189,130.3094,47.94452,-0.8883717,-9.105433,-78.29288,-7.715342,14.50875,0,0,0,47.4981,-28.89112,-94.76755,83.33121,-110.3871,-93.172,0.001067912,-0.1257102,0.09433498,0,0.3,0,0,0.01926698,0
638225083847212258,30.15675,37.45188,-8.264932,-23.72522,4.809582,130.0896,47.94452,-0.8883717,-9.105433,-78.29288,-7.715342,14.50875,0,0,0,43.55157,-27.52556,-93.39081,83.33121,-110.3871,-93.172,0.001067912,-0.1257102,0.09433498,0,0.3,0,0,0.01892705,0
638225083847562146,23.70132,38.78444,-7.821334,-29.51159,7.666144,129.9431,47.94452,-0.8883717,-9.105433,-78.29288,-7.715342,14.50875,0,0,0,34.48915,-25.23009,-89.78645,83.33121,-110.3871,-93.172,0.001067912,-0.1257102,0.09433498,0,0.3,0,0,0.01765901,0
638225083847902023,15.33753,40.00011,-6.630623,-37.49532,10.00999,129.8699,47.94452,-0.8883717,-9.105433,-78.29288,-7.642097,14.50875,0,0,0,22.94691,-23.39213,-84.68561,83.33121,-110.3871,-93.172,0.001067912,-0.1257102,0.09433498,0,0.3,0,0,0.01544103,0
638225083848231932,11.26166,40.46767,-5.766775,-41.67029,10.59595,129.9431,47.94452,-0.8883717,-9.105433,-78.29288,-7.715342,14.50875,0,0,0,17.19529,-22.77847,-81.99529,83.33121,-110.3871,-93.172,0.001067912,-0.1257102,0.09433498,0,0.3,0,0,0.01397354,0
638225083848571811,1.814117,41.16902,-2.498158,-52.73031,11.18191,132.58,47.94452,-0.8883717,-9.105433,-78.29288,-7.715342,14.50875,0,0,0,2.993794,-22.0913,-73.82774,83.33121,-110.3871,-93.172,0.001067912,-0.1257102,0.09433498,0,0.3,0,0,0.01011788,0
638225083848911718,-6.14915,41.14564,2.521505,-65.69471,11.25516,139.0255,47.94452,-0.8883717,-9.105433,-78.21963,-7.715342,14.43551,0,0,0,-11.38487,-22.12989,-62.67705,83.33121,-110.3871,-93.172,0.001067912,-0.1257102,0.09433498,0,0.3,0,0,0.004898427,0
638225083849251670,-12.2983,41.0755,8.731878,-80.56348,11.47489,144.6654,47.94452,-0.8883717,-9.105433,-78.21963,-7.715342,14.50875,0,0,0,-25.72399,-20.8364,-50.35231,83.33121,-110.3871,-93.172,0.001067912,-0.1257102,0.09433498,0,0.3,0,0,0,0
638225083849591502,-14.6543,41.00537,11.23003,-87.37527,11.76787,144.6654,47.94452,-0.8883717,-9.105433,-78.21963,-7.715342,14.50875,0,0,0,-32.02858,-19.95187,-45.86634,83.33121,-110.3871,-93.172,0.001067912,-0.1257102,0.09433498,0,0.3,0,0,0,0
638225083849931388,-18.82441,40.91186,14.40526,-98.65503,12.9398,144.8119,47.94452,-0.8883717,-9.105433,-78.29288,-7.715342,14.50875,0,0,0,-43.22139,-18.47698,-41.56506,83.33121,-110.3871,-93.172,0.001067912,-0.1257102,0.09433498,0,0.3,0,0,0,0
638225083850271280,-23.60708,40.88848,16.01623,-106.5655,14.62444,144.8852,47.94452,-0.8883717,-9.105433,-78.29288,-7.715342,14.50875,0,0,0,-55.10487,-17.53442,-42.26241,83.33121,-110.3871,-93.172,0.001067912,-0.1257102,0.09433498,0,0.3,0,0,0,0
638225083850691149,-29.19079,40.88848,17.51045,-111.6194,16.6753,144.8852,47.94452,-0.8883717,-9.105433,-78.29288,-7.715342,14.50875,0,0,0,-68.73572,-16.53143,-45.31549,83.33121,-110.3871,-93.172,0.001067912,-0.1257102,0.09433498,0,0.3,0,0,0,0
638225083851031041,-31.40543,40.88848,18.28091,-112.8646,17.55424,144.8119,47.94452,-0.8883717,-9.105433,-78.29288,-7.642097,14.50875,0,0,0,-74.328,-15.98042,-46.60713,83.33121,-110.3871,-93.172,0.001067912,-0.1257102,0.09433498,0,0.3,0,0,0,0
638225083851370932,-35.15146,40.88848,20.21873,-113.1576,19.38537,144.8119,47.94452,-0.8883717,-9.105433,-78.29288,-7.715342,14.50875,0,0,0,-84.57449,-14.49357,-48.24214,83.33121,-110.3871,-93.172,0.001067912,-0.1257102,0.09433498,0,0.3,0,0,0,0
638225083851710823,-38.02578,40.98199,23.0204,-111.2532,22.0222,144.8852,47.94452,-0.8883717,-9.105433,-78.21963,-7.715342,14.50875,0,0,0,-94.13692,-11.92693,-47.9719,83.33121,-110.3871,-93.172,0.001067912,-0.1257102,0.09433498,0,0.3,0,0,0,0
638225083852061981,-39.93414,41.05212,26.40576,-109.3488,24.80551,144.8852,47.94452,-0.8883717,-9.105433,-78.21963,-7.715342,14.50875,0,0,0,-102.6184,-8.510212,-45.76826,83.33121,-110.3871,-93.172,0.001067912,-0.1257102,0.09433498,0,0.3,0,0,0,0
638225083852401869,-40.82941,41.0755,28.34358,-108.3966,26.34366,144.8852,47.94452,-0.8883717,-9.105433,-78.29288,-7.715342,14.50875,0,0,0,-107.1162,-6.395518,-44.38337,83.33121,-110.3871,-93.172,0.001067912,-0.1257102,0.09433498,0,0.3,0,0,0,0
638225083852741754,-42.71421,41.12226,31.21529,-106.8585,28.834,144.7387,47.94452,-0.8883717,-9.105433,-78.21963,-7.715342,14.50875,0,0,0,-115.0217,-2.994359,-43.76423,83.33121,-110.3871,-93.172,0.001067912,-0.1257102,0.09433498,0,0.3,0,0,0,0
638225083853081652,-45.02308,41.02874,33.47998,-105.2471,30.44539,144.8852,47.94452,-0.8883717,-9.105433,-78.29288,-7.715342,14.50875,0,0,0,-123.1983,-0.3384323,-45.25093,83.33121,-110.3871,-93.172,0.001067912,-0.1257102,0.09433498,0,0.3,0,0,0,0
638225083853411550,-46.97857,40.95861,35.27772,-103.123,31.39758,144.7387,47.94452,-0.8883717,-9.105433,-78.29288,-7.715342,14.50875,0,0,0,-129.9299,1.900844,-47.09753,83.33121,-110.3871,-93.172,0.001067912,-0.1257102,0.09433498,0,0.3,0,0,0,0
638225083853761438,-48.58064,40.95861,37.23889,-100.4129,31.98354,144.8119,47.94452,-0.8883717,-9.105433,-78.29288,-7.715342,14.50875,0,0,0,-136.0289,4.600232,-48.34268,83.33121,-110.3871,-93.172,0.001067912,-0.1257102,0.09433498,0,0.3,0,0,0,0
638225083854101329,-49.80576,40.95861,39.45688,-97.6296,32.34977,144.8119,47.94452,-0.8883717,-9.105433,-78.29288,-7.715342,14.50875,0,0,0,-141.6559,7.802804,-48.66587,83.33121,-110.3871,-93.172,0.001067912,-0.1257102,0.09433498,0,0.3,0,0,0,0
638225083854441213,-50.51255,40.98199,41.32466,-95.65198,32.49626,144.8119,47.94452,-0.8883717,-9.105433,-78.29288,-7.715342,14.50875,0,0,0,-145.6491,10.66065,-48.33974,83.33121,-110.3871,-93.172,0.001067912,-0.1257102,0.09433498,0,0.3,0,0,0,0
638225083854771105,-51.36071,40.98199,44.8501,-92.72218,32.27652,144.8119,47.94452,-0.8883717,-9.105433,-78.29288,-7.715342,14.50875,0,0,0,-152.0894,16.26477,-46.7678,83.33121,-110.3871,-93.172,0.001067912,-0.1257102,0.09433498,0,0.3,0,0,0,0
638225083855201115,-51.73767,40.98199,48.56231,-90.67131,31.69056,144.8852,47.94452,-0.8883717,-9.105433,-78.29288,-7.715342,14.50875,0,0,0,-157.5371,22.55212,-44.10277,83.33121,-110.3871,-93.172,0.001067912,-0.1257102,0.09433498,0,0.3,0,0,0,0
638225083855540869,-51.78479,40.98199,52.0644,-89.3529,30.66513,144.8852,47.94452,-0.8883717,-9.105433,-78.29288,-7.715342,14.50875,0,0,0,-161.7281,28.82354,-41.01299,83.33121,-110.3871,-93.172,0.001067912,-0.1257102,0.09433498,0,0.3,0,0,0,0
638225083855880743,-51.71412,41.09888,55.82331,-88.69369,29.41996,144.8119,47.94452,-0.8883717,-9.105433,-78.21963,-7.715342,14.50875,0,0,0,-165.4717,36.10009,-37.73447,83.33121,-110.3871,-93.172,0.001067912,-0.1257102,0.09433498,0,0.3,0,0,0,0
638225083856216533,-51.54919,41.30928,57.85452,-88.5472,28.76075,144.8119,47.94452,-0.8883717,-9.105433,-78.29288,-7.715342,14.50875,0,0,0,-166.8675,40.42582,-35.85139,83.33121,-110.3871,-93.172,0.001067912,-0.1257102,0.09433498,0,0.3,0,0,0,0
638225083856566407,-51.17223,42.01063,62.59402,-88.91342,27.29585,144.8852,47.94452,-0.8883717,-9.105433,-78.29288,-7.715342,14.50875,0,0,0,-169.4131,51.21695,-32.00313,83.33121,-110.3871,-93.172,0.001067912,-0.1257102,0.09433498,0,0.3,0,0,0,0
638225083856906290,-50.3712,43.10941,68.92113,-90.52482,25.68446,144.8119,47.94452,-0.8883717,-9.105433,-78.29288,-7.715342,14.50875,0,0,0,-170.8127,66.52084,-26.89671,83.33121,-110.3871,-93.172,0.001067912,-0.1257102,0.09433498,0,0.3,0,0,0,0
638225083857256180,-48.74556,44.74588,76.18213,-94.11383,24.07306,144.8119,47.94452,-0.8883717,-9.105433,-78.21963,-7.715342,14.50875,0,0,0,-168.5516,85.37473,-20.51108,83.33121,-110.3871,-93.172,0.001067912,-0.1257102,0.09433498,0,0.3,0,0,0,0
638225083857586076,-47.68536,45.70439,79.75426,-96.89715,23.26737,144.8119,47.94452,-0.8883717,-9.105433,-78.29288,-7.715342,14.50875,0,0,0,-165.8976,95.07574,-17.31728,83.33121,-110.3871,-93.172,0.001067912,-0.1257102,0.09433498,0,0.3,0,0,0,0
638225083857935965,-45.35292,47.57465,85.63777,-103.416,21.72922,144.8119,47.94452,-0.8883717,-9.105433,-78.21963,-7.715342,14.50875,0,0,0,-158.6001,111.6404,-11.69182,83.33121,-110.3871,-93.172,0.001067912,-0.1257102,0.09433498,0,0.3,0,0,0,0
638225083858265869,-42.69065,49.77219,88.62622,-109.5686,20.26431,144.8852,47.94452,-0.8883717,-9.105433,-78.21963,-7.715342,14.50875,0,0,0,-148.7842,121.9634,-7.061296,83.33121,-110.3871,-93.172,0.001067912,-0.1257102,0.09433498,0,0.3,0,0,0,0
638225083858605751,-41.51265,50.75408,89.13986,-111.7659,19.60511,144.8852,47.94452,-0.8883717,-9.105433,-78.29288,-7.715342,14.50875,0,0,0,-144.2876,124.6195,-5.335036,83.33121,-110.3871,-93.172,0.001067912,-0.1257102,0.09433498,0,0.3,0,0,0,0
638225083858955627,-39.53362,52.48407,89.32664,-114.3295,18.1402,144.8119,47.94452,-0.8883717,-9.105433,-78.29288,-7.715342,14.50875,0,0,0,-136.5668,127.5539,-2.879161,83.33121,-110.3871,-93.172,0.001067912,-0.1257102,0.09433498,0,0.3,0,0,0,0
638225083859285528,-38.28493,53.32568,89.32664,-115.1352,16.89503,144.8119,47.94452,-0.8883717,-9.105433,-78.21963,-7.715342,14.50875,0,0,0,-131.9604,128.7354,-1.168784,83.33121,-110.3871,-93.172,0.001067912,-0.1257102,0.09433498,0,0.3,0,0,0,0
638225083859735389,-37.67238,53.46595,89.2566,-115.3549,15.8696,144.8119,47.94452,-0.8883717,-9.105433,-78.21963,-7.715342,14.50875,0,0,0,-130.0042,128.767,0.02341313,83.33121,-110.3871,-93.172,0.001067912,-0.1257102,0.09433498,0,0.3,0,0,0,0
638225083860065280,-37.81374,53.23217,88.71961,-115.2084,15.35689,144.8852,47.94452,-0.8883717,-9.105433,-78.29288,-7.715342,14.50875,0,0,0,-130.6733,127.1926,0.02957905,83.33121,-110.3871,-93.172,0.001067912,-0.1257102,0.09433498,0,0.3,0,0,0,0
638225083860405177,-38.09645,52.95163,88.20597,-115.1352,15.2104,144.9584,47.94452,-0.8883717,-9.105433,-78.21963,-7.715342,14.50875,0,0,0,-131.8048,125.6055,-0.2316371,83.33121,-110.3871,-93.172,0.001067912,-0.1257102,0.09433498,0,0.3,0,0,0,0
638225083860745085,-39.06242,52.20353,85.87125,-115.4282,14.99066,144.8119,47.94452,-0.8883717,-9.105433,-78.29288,-7.715342,14.50875,0,0,0,-135.3148,119.1213,-1.621846,83.33121,-110.3871,-93.172,0.001067912,-0.1257102,0.09433498,0,0.3,0,0,0,0
638225083861074947,-39.83989,51.40867,81.15509,-116.4536,14.84417,144.8852,47.94452,-0.8883717,-9.105433,-78.29288,-7.715342,14.50875,0,0,0,-137.7019,107.0744,-3.308826,83.33121,-110.3871,-93.172,0.001067912,-0.1257102,0.09433498,0,0.3,0,0,0,0
638225083861414852,-40.14618,50.82421,77.44288,-116.7466,14.33146,144.8852,47.94452,-0.8883717,-9.105433,-78.29288,-7.715342,14.50875,0,0,0,-138.2307,97.73246,-4.463984,83.33121,-110.3871,-93.172,0.001067912,-0.1257102,0.09433498,0,0.3,0,0,0,0
638225083861754746,-40.33466,49.30463,68.7577,-114.4027,12.50033,144.9584,47.94452,-0.8883717,-9.105433,-78.29288,-7.715342,14.50875,0,0,0,-136.7246,76.13982,-7.327449,83.33121,-110.3871,-93.172,0.001067912,-0.1257102,0.09433498,0,0.3,0,0,0,0
638225083862094638,-40.64093,47.15384,59.53553,-106.1993,10.00999,144.8852,47.94452,-0.8883717,-9.105433,-78.21963,-7.715342,14.50875,0,0,0,-133.9253,53.51086,-12.32238,83.33121,-110.3871,-93.172,0.001067912,-0.1257102,0.09433498,0,0.3,0,0,0,0
638225083862434513,-41.15925,46.1252,56.22021,-101.2186,9.350782,144.8852,47.94452,-0.8883717,-9.105433,-78.29288,-7.715342,14.50875,0,0,0,-133.777,45.33322,-15.31835,83.33121,-110.3871,-93.172,0.001067912,-0.1257102,0.09433498,0,0.3,0,0,0,0
638225083862774412,-42.64353,43.81075,49.96315,-90.96429,9.717009,144.8119,47.94452,-0.8883717,-9.105433,-78.29288,-7.715342,14.50875,0,0,0,-134.4293,29.63908,-22.6227,83.33121,-110.3871,-93.172,0.001067912,-0.1257102,0.09433498,0,0.3,0,0,0,0
638225083863114296,-43.79797,42.52495,46.76458,-87.15554,10.52271,144.0795,47.94452,-0.8883717,-9.105433,-78.29288,-7.715342,14.50875,0,0,0,-135.2593,22.13832,-27.2929,83.33121,-110.3871,-93.172,0.001067912,-0.1257102,0.09433498,0,0.3,0,0,0,0
638225083863464198,-44.92884,41.23915,43.70608,-85.61739,11.3284,137.5606,47.94452,-0.8883717,-9.105433,-78.29288,-7.715342,14.50875,0,0,0,-135.8881,14.85689,-32.12397,83.33121,-110.3871,-93.172,0.001067912,-0.1257102,0.09433498,0,0.3,0,0,0,0
638225083863804089,-45.25869,40.70145,42.51537,-85.76388,11.69463,134.5576,47.94452,-0.8883717,-9.105433,-78.29288,-7.715342,14.50875,0,0,0,-135.8159,12.01812,-33.75499,83.33121,-110.3871,-93.172,0.001067912,-0.1257102,0.09433498,0,0.3,0,0,0,0
638225083864233955,-45.32936,40.16375,41.02114,-86.86256,12.28059,130.7488,47.94452,-0.8883717,-9.105433,-78.21963,-7.715342,14.50875,0,0,0,-134.7145,8.749103,-35.1755,83.33121,-110.3871,-93.172,0.001067912,-0.1257102,0.09433498,0,0.3,0,0,0,0
638225083864573844,-45.09377,40.18713,40.62424,-88.40071,12.9398,130.0896,47.94452,-0.8883717,-9.105433,-78.29288,-7.715342,14.50875,0,0,0,-133.6458,8.186802,-35.14095,83.33121,-110.3871,-93.172,0.001067912,-0.1257102,0.09433498,0,0.3,0,0,0,0
638225083864913723,-44.64613,40.42091,40.76432,-90.30508,13.67225,129.9431,47.94452,-0.8883717,-9.105433,-78.21963,-7.715342,14.50875,0,0,0,-132.5273,8.814326,-34.17541,83.33121,-110.3871,-93.172,0.001067912,-0.1257102,0.09433498,0,0.3,0,0,0,0
638225083865253613,-44.22205,41.63658,41.65152,-92.64893,13.52576,128.405,47.94452,-0.8883717,-9.105433,-78.21963,-7.715342,14.50875,0,0,0,-131.3187,12.30898,-33.41591,83.33121,-110.3871,-93.172,0.001067912,-0.1257102,0.09433498,0,0.3,0,0,0,0
638225083865593518,-44.12781,42.71198,42.56207,-94.26032,13.01304,127.1598,47.94452,-0.8883717,-9.105433,-78.21963,-7.788587,14.50875,0,0,0,-131.0213,15.58479,-33.27774,83.33121,-110.3871,-93.172,0.001067912,-0.1257102,0.09433498,0,0.3,0,0,0,0
638225083865933404,-43.93933,46.17195,45.73729,-99.02126,10.74244,123.8638,47.94452,-0.8883717,-9.105433,-78.29288,-7.715342,14.50875,0,0,0,-130.3433,26.47999,-33.08922,83.33121,-110.3871,-93.172,0.001067912,-0.1257102,0.09433498,0,0.3,0,0,0,0
638225083866273296,-42.76133,50.82421,50.10323,-106.0528,6.933692,121.5932,47.94452,-0.8883717,-9.105433,-78.29288,-7.715342,14.43551,0,0,0,-126.6531,41.19292,-31.39178,83.33121,-110.3871,-93.172,0.001067912,-0.1257102,0.09433498,0,0.3,0,0,0,0
638225083866613192,-41.77181,53.06852,52.1111,-109.715,4.882828,121.227,47.94452,-0.8883717,-9.105433,-78.21963,-7.715342,14.50875,0,0,0,-123.4837,48.04939,-30.10419,83.33121,-110.3871,-93.172,0.001067912,-0.1257102,0.09433498,0,0.3,0,0,0,0
638225083866953084,-38.94461,57.39349,55.68323,-118.4312,0.04864649,121.6664,47.94452,-0.8883717,-9.105433,-78.29288,-7.715342,14.50875,0,0,0,-114.3971,60.50442,-26.80185,83.33121,-110.3871,-93.172,0.001067912,-0.1257102,0.09433498,0,0.3,0,0,0,0
638225083867302970,-35.74046,60.7132,58.43821,-126.3417,-4.712289,125.3287,47.94452,-0.8883717,-9.105433,-78.29288,-7.715342,14.50875,0,0,0,-104.4728,69.85769,-23.17714,83.33121,-110.3871,-93.172,0.001067912,-0.1257102,0.09433498,0,0.3,0,0,0,0
638225083867642857,-34.13838,61.99899,59.53553,-130.5167,-6.689909,128.1853,47.94452,-0.8883717,-9.105433,-78.29288,-7.715342,14.43551,0,0,0,-99.63784,73.48098,-21.39767,83.33121,-110.3871,-93.172,0.001067912,-0.1257102,0.09433498,0,0.3,0,0,0,0
638225083867982739,-30.95779,63.86925,60.91301,-139.7456,-10.49866,135.9492,47.94452,-0.8883717,-9.105433,-78.29288,-7.715342,14.50875,0,0,0,-90.15611,78.24413,-18.05434,83.33121,-110.3871,-93.172,0.001067912,-0.1257102,0.09433498,0,0.3,0,0,0,0
638225083868322644,-29.00231,64.61736,60.91301,-146.8504,-13.13548,141.6624,47.94452,-0.8883717,-9.105433,-78.21963,-7.715342,14.50875,0,0,0,-84.21478,79.00072,-16.43697,83.33121,-110.3871,-93.172,0.001067912,-0.1257102,0.09433498,0,0.3,0,0,0,0
638225083868762498,-28.03635,64.40695,59.93243,-151.3916,-15.03986,144.8119,47.94452,-0.8883717,-9.105433,-78.21963,-7.715342,14.50875,0,0,0,-81.3201,76.80521,-15.64296,83.33121,-110.3871,-93.172,0.001067912,-0.1257102,0.09433498,0,0.3,0,0,0,0
638225083869102391,-27.89499,64.07965,58.67168,-153.0762,-15.69907,144.7387,47.94452,-0.8883717,-9.105433,-78.29288,-7.715342,14.50875,0,0,0,-80.56325,73.95115,-16.16034,83.33121,-110.3871,-93.172,0.001067912,-0.1257102,0.09433498,0,0.3,0,0,0,0
638225083869442282,-27.89499,63.8225,57.52766,-153.9551,-16.21178,144.8852,47.94452,-0.8883717,-9.105433,-78.29288,-7.788587,14.50875,0,0,0,-80.15656,71.42791,-16.92862,83.33121,-110.3871,-93.172,0.001067912,-0.1257102,0.09433498,0,0.3,0,0,0,0
638225083869782171,-27.89499,63.23804,54.46917,-154.5411,-17.74993,143.7865,47.94452,-0.8883717,-9.105433,-78.21963,-7.715342,14.50875,0,0,0,-78.86409,64.92107,-19.37018,83.33121,-110.3871,-93.172,0.001067912,-0.1257102,0.09433498,0,0.3,0,0,0,0
638225083870122066,-27.89499,62.53669,50.96708,-151.7578,-20.09377,138.7326,47.94452,-0.8883717,-9.105433,-78.29288,-7.715342,14.50875,0,0,0,-77.23432,57.6929,-22.44893,83.33121,-110.3871,-93.172,0.001067912,-0.1257102,0.09433498,0,0.3,0,0,0,0
638225083870461959,-27.89499,61.71846,48.00198,-148.1688,-22.65736,133.6054,47.94452,-0.8883717,-9.105433,-78.29288,-7.715342,14.50875,0,0,0,-75.92465,51.55687,-24.92298,83.33121,-110.3871,-93.172,0.001067912,-0.1257102,0.09433498,0,0.3,0,0,0,0
638225083870801848,-27.89499,61.13401,46.46106,-146.1179,-24.04902,130.6756,47.94452,-0.8883717,-9.105433,-78.29288,-7.715342,14.43551,0,0,0,-75.34424,48.27361,-26.01943,83.33121,-110.3871,-93.172,0.001067912,-0.1257102,0.09433498,0,0.3,0,0,0,0
638225083871141738,-27.89499,59.35726,43.14575,-141.8697,-26.68584,124.6695,47.94452,-0.8883717,-9.105433,-78.21963,-7.715342,14.50875,0,0,0,-74.46274,40.78492,-27.68464,83.33121,-110.3871,-93.172,0.001067912,-0.1257102,0.09433498,0,0.3,0,0,0,0
638225083871481633,-27.87143,56.62201,38.98993,-137.4017,-29.76214,117.7112,47.94452,-0.8883717,-9.105433,-78.21963,-7.715342,14.50875,0,0,0,-73.51991,31.05799,-29.32748,83.33121,-110.3871,-93.172,0.001067912,-0.1257102,0.09433498,0,0.3,0,0,0,0
638225083871811526,-27.87143,54.82188,36.77194,-134.8381,-31.30029,113.8292,47.94452,-0.8883717,-9.105433,-78.21963,-7.715342,14.50875,0,0,0,-73.23363,25.529,-29.86883,83.33121,-110.3871,-93.172,0.001067912,-0.1257102,0.09433498,0,0.3,0,0,0,0
638225083872151423,-27.87143,50.84759,32.96634,-128.832,-34.37658,105.406,47.94452,-0.8883717,-9.105433,-78.21963,-7.715342,14.50875,0,0,0,-73.28226,14.87945,-29.77687,83.33121,-110.3871,-93.172,0.001067912,-0.1257102,0.09433498,0,0.3,0,0,0,0
638225083872491307,-27.87143,46.40574,29.76777,-123.3387,-36.86692,97.86176,47.94452,-0.8883717,-9.105433,-78.29288,-7.715342,14.50875,0,0,0,-73.9369,4.173728,-28.53899,83.33121,-110.3871,-93.172,0.001067912,-0.1257102,0.09433498,0,0.3,0,0,0,0
638225083872831203,-27.87143,43.99778,28.27354,-120.3356,-37.89235,93.97977,47.94452,-0.8883717,-9.105433,-78.29288,-7.715342,14.50875,0,0,0,-74.37424,-1.461866,-27.71199,83.33121,-110.3871,-93.172,0.001067912,-0.1257102,0.09433498,0,0.3,0,0,0,0
638225083873171094,-27.82431,38.87795,25.72869,-114.3295,-39.21077,86.21577,47.94452,-0.8883717,-9.105433,-78.29288,-7.715342,14.50875,0,0,0,-75.4752,-13.08072,-25.34569,83.33121,-110.3871,-93.172,0.001067912,-0.1257102,0.09433498,0,0.3,0,0,0,0
638225083873510980,-27.35312,33.73475,24.07103,-109.8615,-39.86997,79.55046,47.94452,-0.8883717,-9.105433,-78.29288,-7.715342,14.50875,0,0,0,-75.94425,-24.34818,-21.54479,83.33121,-110.3871,-93.172,0.001067912,-0.1257102,0.09433498,0,0.3,0,0,0,0
638225083873860874,-25.63324,29.40978,23.5107,-107.5177,-39.94322,75.66847,47.94452,-0.8883717,-9.105433,-78.29288,-7.715342,14.50875,0,0,0,-73.26715,-33.44819,-15.65703,83.33121,-110.3871,-93.172,0.001067912,-0.1257102,0.09433498,0,0.3,0,0,0,0
638225083874192073,-24.33744,27.91357,23.5107,-107.1515,-40.16295,75.00926,47.94452,-0.8883717,-9.105433,-78.21963,-7.715342,14.50875,0,0,0,-70.48371,-36.50367,-12.51747,83.33121,-110.3871,-93.172,0.001067912,-0.1257102,0.09433498,0,0.3,0,0,0,0
638225083874541960,-21.32176,25.78616,23.32392,-107.1515,-41.11514,76.18118,47.94452,-0.8883717,-9.105433,-78.29288,-7.715342,14.50875,0,0,0,-62.85592,-41.09373,-7.313668,83.33121,-110.3871,-93.172,0.001067912,-0.1257102,0.09433498,0,0.3,0,0,0,0
638225083874871990,-18.09405,23.63536,22.46007,-105.1739,-43.166,78.23206,47.94452,-0.8883717,-9.105433,-78.29288,-7.715342,14.50875,0,0,0,-53.76379,-46.42292,-3.801626,83.33121,-110.3871,-93.172,0.001067912,-0.1257102,0.09433498,0,0.3,0,0,0,0
638225083875221747,-16.60977,22.27943,21.66626,-102.9033,-44.33792,79.11099,47.94452,-0.8883717,-9.105433,-78.29288,-7.715342,14.50875,0,0,0,-49.34592,-50.02266,-2.925448,83.33121,-110.3871,-93.172,0.001067912,-0.1257102,0.09433498,0,0.3,0,0,0,0
638225083875561633,-14.04174,19.02986,19.56501,-95.65198,-46.9015,80.13642,47.94452,-0.8883717,-9.105433,-78.29288,-7.715342,14.50875,0,0,0,-41.42107,-58.82045,-2.733184,83.33121,-110.3871,-93.172,0.001067912,-0.1257102,0.09433498,0,0.3,0,0,0,0
638225083875901529,-12.10982,15.05556,16.88007,-84.51871,-48.73264,79.62371,47.94452,-0.8883717,-9.105433,-78.29288,-7.715342,14.50875,0,0,0,-35.1378,-69.61615,-4.583743,83.33121,-110.3871,-93.172,0.001067912,-0.1257102,0.09433498,0,0.3,0,0,0,0
638225083876311385,-10.81402,11.38519,14.03171,-69.72319,-49.17211,73.17814,47.94452,-0.8883717,-9.105433,-78.29288,-7.715342,14.50875,0,0,0,-30.59319,-79.69726,-8.187831,83.33121,-110.3871,-93.172,0.001067912,-0.1257102,0.09433498,0,0.3,0,0,0,0
638225083876651289,-10.34282,9.701954,12.21062,-59.54211,-47.92694,66.87905,47.94452,-0.8883717,-9.105433,-78.29288,-7.715342,14.50875,0,0,0,-28.66265,-84.51064,-11.29698,83.33121,-110.3871,-93.172,0.001067912,-0.1257102,0.09433498,0,0.3,0,0,0,0
638225083876981184,-10.24858,9.327903,11.44016,-54.56144,-46.75502,63.36329,47.94452,-0.8883717,-9.105433,-78.29288,-7.715342,14.50875,0,0,0,-28.11763,-85.7367,-12.83552,83.33121,-110.3871,-93.172,0.001067912,-0.1257102,0.09433498,0,0.3,0,0,0,0
638225083877321210,-10.20146,9.842223,10.99656,-47.45666,-44.11819,57.35718,47.94452,-0.8883717,-9.105433,-78.29288,-7.715342,14.50875,0,0,0,-27.77506,-84.75724,-14.00531,83.33121,-110.3871,-93.172,0.001067912,-0.1257102,0.09433498,0,0.3,0,0,0,0
638225083877670957,-10.13078,11.64235,11.20669,-44.6001,-42.28706,53.62167,47.94452,-0.8883717,-9.105433,-78.29288,-7.715342,14.43551,0,0,0,-27.5317,-80.54707,-14.26745,83.33121,-110.3871,-93.172,0.001067912,-0.1257102,0.09433498,0,0.3,0,0,0,0
638225083878010860,-10.13078,13.16193,11.41681,-44.01414,-41.62786,52.30326,47.94452,-0.8883717,-9.105433,-78.29288,-7.642097,14.50875,0,0,0,-27.48245,-76.99711,-14.5431,83.33121,-110.3871,-93.172,0.001067912,-0.1257102,0.09433498,0,0.3,0,0,0,0
638225083878350736,-10.15434,16.71542,11.90711,-44.16063,-41.04189,50.83836,47.94452,-0.8883717,-9.105433,-78.21963,-7.715342,14.50875,0,0,0,-27.36691,-68.77687,-15.55262,83.33121,-110.3871,-93.172,0.001067912,-0.1257102,0.09433498,0,0.3,0,0,0,0
638225083878690639,-10.31926,20.36242,12.32736,-45.03957,-41.11514,49.81293,47.94452,-0.8883717,-9.105433,-78.21963,-7.715342,14.50875,0,0,0,-27.49455,-60.52536,-17.34585,83.33121,-110.3871,-93.172,0.001067912,-0.1257102,0.09433498,0,0.3,0,0,0,0
638225083879031865,-10.5313,22.02227,12.3974,-45.47904,-41.33487,49.30021,47.94452,-0.8883717,-9.105433,-78.29288,-7.715342,14.50875,0,0,0,-27.82706,-56.88871,-18.66503,83.33121,-110.3871,-93.172,0.001067912,-0.1257102,0.09433498,0,0.3,0,0,0,0
638225083879371753,-11.2381,25.22508,12.44409,-46.43123,-41.77435,47.02961,47.94452,-0.8883717,-9.105433,-78.21963,-7.715342,14.50875,0,0,0,-29.11002,-50.03669,-21.84504,83.33121,-110.3871,-93.172,0.001067912,-0.1257102,0.09433498,0,0.3,0,0,0,0
638225083879711648,-11.63862,26.44075,12.46744,-47.16368,-42.14057,45.05199,47.94452,-0.8883717,-9.105433,-78.29288,-7.642097,14.50875,0,0,0,-29.89542,-47.47842,-23.20765,83.33121,-110.3871,-93.172,0.001067912,-0.1257102,0.09433498,0,0.3,0,0,0,0
638225083880061535,-11.87422,26.83818,12.37405,-48.62858,-42.50679,43.66033,47.94452,-0.8883717,-9.105433,-78.29288,-7.715342,14.50875,0,0,0,-30.36297,-46.69839,-23.94539,83.33121,-110.3871,-93.172,0.001067912,-0.1257102,0.09433498,0,0.3,0,0,0,0
638225083880391440,-11.89778,26.83818,12.21062,-49.58077,-42.79977,43.29411,47.94452,-0.8883717,-9.105433,-78.21963,-7.642097,14.50875,0,0,0,-30.34573,-46.77937,-24.32155,83.33121,-110.3871,-93.172,0.001067912,-0.1257102,0.09433498,0,0.3,0,0,0,0
638225083880831291,-11.9449,26.88494,11.65029,-50.89918,-43.45898,42.92788,47.94452,-0.8883717,-9.105433,-78.21963,-7.715342,14.50875,0,0,0,-30.18991,-46.95188,-25.64297,83.33121,-110.3871,-93.172,0.001067912,-0.1257102,0.09433498,0,0.3,0,0,0,0
638225083881171179,-12.15694,26.97845,10.83313,-51.70488,-44.26468,42.70815,47.94452,-0.8883717,-9.105433,-78.21963,-7.715342,14.50875,0,0,0,-30.30425,-47.1286,-27.67555,83.33121,-110.3871,-93.172,0.001067912,-0.1257102,0.09433498,0,0.3,0,0,0,0
638225083881511074,-12.46322,27.09534,9.712462,-52.0711,-44.70415,42.48841,47.94452,-0.8883717,-9.105433,-78.21963,-7.715342,14.43551,0,0,0,-30.47525,-47.35141,-30.46622,83.33121,-110.3871,-93.172,0.001067912,-0.1257102,0.09433498,0,0.3,0,0,0,0
638225083881850966,-12.46322,27.1421,8.28828,-52.29084,-44.41117,42.70815,47.94452,-0.8883717,-9.105433,-78.29288,-7.715342,14.50875,0,0,0,-29.75803,-47.77309,-33.71125,83.33121,-110.3871,-93.172,0.001067912,-0.1257102,0.09433498,0,0.3,0,0,0,0
638225083882180860,-12.43966,27.1421,7.704598,-52.43733,-43.82521,43.66033,47.94452,-0.8883717,-9.105433,-78.29288,-7.715342,14.50875,0,0,0,-29.41288,-47.96207,-35.01268,83.33121,-110.3871,-93.172,0.001067912,-0.1257102,0.09433498,0,0.3,0,0,0,0
638225083882530744,-12.39254,27.1421,7.284348,-53.60925,-42.50679,46.88312,47.94452,-0.8883717,-9.105433,-78.29288,-7.715342,14.50875,0,0,0,-29.0951,-48.08964,-35.93568,83.33121,-110.3871,-93.172,0.001067912,-0.1257102,0.09433498,0,0.3,0,0,0,0
638225083882870640,-11.92134,27.11872,7.284348,-57.19827,-41.40812,52.88922,47.94452,-0.8883717,-9.105433,-78.21963,-7.642097,14.50875,0,0,0,-28.01028,-48.13806,-35.67661,83.33121,-110.3871,-93.172,0.001067912,-0.1257102,0.09433498,0,0.3,0,0,0,0
638225083883208164,-11.37946,27.09534,7.284348,-59.32237,-40.96865,56.47824,47.94452,-0.8883717,-9.105433,-78.29288,-7.642097,14.43551,0,0,0,-26.75917,-48.1865,-35.39333,83.33121,-110.3871,-93.172,0.001067912,-0.1257102,0.09433498,0,0.3,0,0,0,0
638225083883538069,-9.800944,27.09534,7.284348,-63.35086,-40.38269,63.876,47.94452,-0.8883717,-9.105433,-78.21963,-7.642097,14.50875,0,0,0,-23.08648,-48.1865,-34.70665,83.33121,-110.3871,-93.172,0.001067912,-0.1257102,0.09433498,0,0.3,0,0,0,0
638225083883887947,-7.727668,27.04858,7.284348,-66.42715,-40.16295,70.61456,47.94452,-0.8883717,-9.105433,-78.29288,-7.715342,14.43551,0,0,0,-18.24313,-48.28339,-33.90985,83.33121,-110.3871,-93.172,0.001067912,-0.1257102,0.09433498,0,0.3,0,0,0,0
638225083884227826,-6.596789,26.97845,7.284348,-67.45258,-40.38269,73.32462,47.94452,-0.8883717,-9.105433,-78.21963,-7.715342,14.50875,0,0,0,-15.59475,-48.42881,-33.50233,83.33121,-110.3871,-93.172,0.001067912,-0.1257102,0.09433498,0,0.3,0,0,0,0
638225083884567729,-4.028753,26.88494,7.284348,-68.91749,-41.26163,78.01232,47.94452,-0.8883717,-9.105433,-78.29288,-7.715342,14.50875,0,0,0,-9.544073,-48.62285,-32.84069,83.33121,-110.3871,-93.172,0.001067912,-0.1257102,0.09433498,0,0.3,0,0,0,0
638225083884917606,-1.083758,26.86156,7.284348,-69.21047,-42.58004,81.82106,47.94452,-0.8883717,-9.105433,-78.21963,-7.715342,14.50875,0,0,0,-2.56984,-48.67139,-32.50472,83.33121,-110.3871,-93.172,0.001067912,-0.1257102,0.09433498,0,0.3,0,0,0,0
638225083885347486,2.732955,26.83818,7.284348,-67.3061,-44.7774,84.75087,47.94452,-0.8883717,-9.105433,-78.29288,-7.715342,14.50875,0,0,0,6.479568,-48.71993,-32.6104,83.33121,-110.3871,-93.172,0.001067912,-0.1257102,0.09433498,0,0.3,0,0,0,0
638225083885677380,5.206751,26.83818,7.307694,-64.74252,-46.53528,85.62981,47.94452,-0.8883717,-9.105433,-78.21963,-7.715342,14.50875,0,0,0,12.33728,-48.71303,-32.9629,83.33121,-110.3871,-93.172,0.001067912,-0.1257102,0.09433498,0,0.3,0,0,0,0
638225083886017269,6.808829,26.8148,7.354388,-62.54516,-47.85369,85.9228,47.94452,-0.8883717,-9.105433,-78.29288,-7.715342,14.50875,0,0,0,16.13328,-48.74772,-33.22934,83.33121,-110.3871,-93.172,0.001067912,-0.1257102,0.09433498,0,0.3,0,0,0,0
638225083886357147,9.706704,26.55764,7.564514,-57.27151,-50.56377,85.48332,47.94452,-0.8883717,-9.105433,-78.29288,-7.715342,14.50875,0,0,0,23.07087,-49.21899,-33.47485,83.33121,-110.3871,-93.172,0.001067912,-0.1257102,0.09433498,0,0.3,0,0,0,0
638225083886687055,12.08626,26.13683,7.797987,-51.04567,-53.34708,83.6522,47.94452,-0.8883717,-9.105433,-78.29288,-7.715342,14.50875,0,0,0,28.85465,-50.02401,-33.59744,83.33121,-110.3871,-93.172,0.001067912,-0.1257102,0.09433498,0,0.3,0,0,0,0
638225083887026950,13.14646,25.99656,8.03146,-47.74964,-54.59225,82.55352,47.94452,-0.8883717,-9.105433,-78.21963,-7.715342,14.50875,0,0,0,31.49806,-50.24244,-33.49061,83.33121,-110.3871,-93.172,0.001067912,-0.1257102,0.09433498,0,0.3,0,0,0,0
638225083887366840,14.81922,25.92643,8.615141,-42.47599,-56.64312,81.08862,47.94452,-0.8883717,-9.105433,-78.21963,-7.715342,14.50875,0,0,0,35.78338,-50.19255,-33.09902,83.33121,-110.3871,-93.172,0.001067912,-0.1257102,0.09433498,0,0.3,0,0,0,0
638225083887716726,16.18569,26.01994,9.362254,-38.66724,-58.18126,80.42941,47.94452,-0.8883717,-9.105433,-78.29288,-7.715342,14.50875,0,0,0,39.45074,-49.72522,-32.43297,83.33121,-110.3871,-93.172,0.001067912,-0.1257102,0.09433498,0,0.3,0,0,0,0
638225083888056608,17.55217,26.53426,10.59966,-36.90935,-59.49968,80.64914,47.94452,-0.8883717,-9.105433,-78.29288,-7.715342,14.50875,0,0,0,43.37631,-48.15275,-31.21344,83.33121,-110.3871,-93.172,0.001067912,-0.1257102,0.09433498,0,0.3,0,0,0,0
638225083888386511,18.35321,27.09534,11.65029,-36.83611,-60.30537,81.45483,47.94452,-0.8883717,-9.105433,-78.29288,-7.715342,14.50875,0,0,0,45.85926,-46.51552,-30.11517,83.33121,-110.3871,-93.172,0.001067912,-0.1257102,0.09433498,0,0.3,0,0,0,0
638225083888726401,19.93173,29.24613,13.91497,-39.98565,-62.35624,85.99604,47.94452,-0.8883717,-9.105433,-78.21963,-7.715342,14.50875,0,0,0,50.59639,-40.93688,-28.82046,83.33121,-110.3871,-93.172,0.001067912,-0.1257102,0.09433498,0,0.3,0,0,0,0
638225083889056283,20.00241,32.37881,16.15631,-49.36103,-63.52816,95.22493,47.94452,-0.8883717,-9.105433,-78.29288,-7.715342,14.50875,0,0,0,51.21431,-33.32264,-27.65823,83.33121,-110.3871,-93.172,0.001067912,-0.1257102,0.09433498,0,0.3,0,0,0,0
638225083889386191,19.93173,34.08542,17.44041,-58.44344,-63.82114,104.3073,47.94452,-0.8883717,-9.105433,-78.29288,-7.715342,14.50875,0,0,0,51.27401,-29.13668,-26.95181,83.33121,-110.3871,-93.172,0.001067912,-0.1257102,0.09433498,0,0.3,0,0,0,0
638225083889736077,19.20137,36.79729,20.102,-102.1708,-64.04088,142.2483,47.94452,-0.8883717,-9.105433,-78.21963,-7.715342,14.50875,0,0,0,50.19267,-22.00187,-24.22738,83.33121,-110.3871,-93.172,0.001067912,-0.1257102,0.09433498,0,0.3,0,0,0,0
638225083890065961,17.38725,38.31688,21.40944,-134.7649,-63.45492,144.8119,47.94452,-0.8883717,-9.105433,-78.29288,-7.715342,14.43551,0,0,0,45.81111,-18.11992,-22.05251,83.33121,-110.3871,-93.172,0.001067912,-0.1257102,0.09433498,0,0.3,0,0,0,0
638225083890405865,16.32705,38.66755,22.13321,-141.5034,-62.86895,144.8852,47.94452,-0.8883717,-9.105433,-78.21963,-7.715342,14.50875,0,0,0,43.3933,-16.85634,-20.21617,83.33121,-110.3871,-93.172,0.001067912,-0.1257102,0.09433498,0,0.3,0,0,0,0
638225083890745744,14.15954,38.8312,22.2266,-153.3692,-61.4773,144.8119,47.94452,-0.8883717,-9.105433,-78.29288,-7.715342,14.50875,0,0,0,37.75056,-16.47725,-18.71696,83.33121,-110.3871,-93.172,0.001067912,-0.1257102,0.09433498,0,0.3,0,0,0,0
638225083891085643,11.14386,38.57404,21.17597,-155.4933,-60.6716,144.9584,47.94452,-0.8883717,-9.105433,-78.21963,-7.715342,14.50875,0,0,0,29.45945,-17.84848,-18.80002,83.33121,-110.3871,-93.172,0.001067912,-0.1257102,0.09433498,0,0.3,0,0,0,0
638225083891435532,9.400424,38.41039,20.75572,-155.5665,-60.45186,143.5667,47.94452,-0.8883717,-9.105433,-78.29288,-7.715342,14.50875,0,0,0,24.78544,-18.49656,-18.64017,83.33121,-110.3871,-93.172,0.001067912,-0.1257102,0.09433498,0,0.3,0,0,0,0
638225083891765431,5.701511,38.10647,20.31212,-155.6398,-60.23213,136.6085,47.94452,-0.8883717,-9.105433,-78.29288,-7.642097,14.50875,0,0,0,15.02298,-19.41411,-17.87927,83.33121,-110.3871,-93.172,0.001067912,-0.1257102,0.09433498,0,0.3,0,0,0,0
638225083892105317,2.026157,37.19472,19.56501,-155.5665,-60.08564,129.8699,47.94452,-0.8883717,-9.105433,-78.29288,-7.715342,14.50875,0,0,0,5.334488,-21.68715,-17.5639,83.33121,-110.3871,-93.172,0.001067912,-0.1257102,0.09433498,0,0.3,0,0,0,0
638225083892445210,0.4947592,36.63364,19.2148,-155.1271,-60.08564,126.6471,47.94452,-0.8883717,-9.105433,-78.21963,-7.642097,14.50875,0,0,0,1.302997,-23.00182,-17.45973,83.33121,-110.3871,-93.172,0.001067912,-0.1257102,0.09433498,0,0.3,0,0,0,0
638225083892785108,-2.120397,35.62838,18.84124,-150.8056,-60.08564,118.8099,47.94452,-0.8883717,-9.105433,-78.29288,-7.715342,14.50875,0,0,0,-5.603697,-25.17491,-17.00019,83.33121,-110.3871,-93.172,0.001067912,-0.1257102,0.09433498,0,0.3,0,0,0,0
638225083893124996,-4.028753,34.15556,18.16417,-144.7262,-60.15888,110.6797,47.94452,-0.8883717,-9.105433,-78.21963,-7.642097,14.50875,0,0,0,-10.67345,-28.48655,-16.80546,83.33121,-110.3871,-93.172,0.001067912,-0.1257102,0.09433498,0,0.3,0,0,0,0
638225083893474871,-5.277431,32.61259,17.55714,-134.9114,-60.15888,103.5016,47.94452,-0.8883717,-9.105433,-78.21963,-7.715342,14.50875,0,0,0,-14.03141,-31.91833,-16.44549,83.33121,-110.3871,-93.172,0.001067912,-0.1257102,0.09433498,0,0.3,0,0,0,0
638225083893814771,-5.772191,32.09827,17.37037,-129.5645,-60.15888,100.4253,47.94452,-0.8883717,-9.105433,-78.21963,-7.715342,14.50875,0,0,0,-15.36531,-33.05996,-16.34752,83.33121,-110.3871,-93.172,0.001067912,-0.1257102,0.09433498,0,0.3,0,0,0,0
638225083894144670,-6.549669,31.5372,17.18359,-118.7242,-60.15888,95.22493,47.94452,-0.8883717,-9.105433,-78.29288,-7.715342,14.50875,0,0,0,-17.45763,-34.29868,-16.29842,83.33121,-110.3871,-93.172,0.001067912,-0.1257102,0.09433498,0,0.3,0,0,0,0
638225083894484556,-7.256468,31.58395,17.20694,-108.3966,-60.30537,92.44161,47.94452,-0.8883717,-9.105433,-78.29288,-7.642097,14.50875,0,0,0,-19.33132,-34.18989,-16.53035,83.33121,-110.3871,-93.172,0.001067912,-0.1257102,0.09433498,0,0.3,0,0,0,0
638225083894824449,-7.751227,31.58395,17.20694,-102.244,-60.37862,90.46399,47.94452,-0.8883717,-9.105433,-78.29288,-7.715342,14.50875,0,0,0,-20.64157,-34.18989,-16.70294,83.33121,-110.3871,-93.172,0.001067912,-0.1257102,0.09433498,0,0.3,0,0,0,0
638225083895174330,-9.094145,31.49044,17.06685,-89.13316,-60.45186,84.3114,47.94452,-0.8883717,-9.105433,-78.29288,-7.715342,14.50875,0,0,0,-24.15868,-34.47145,-17.42358,83.33121,-110.3871,-93.172,0.001067912,-0.1257102,0.09433498,0,0.3,0,0,0,0
638225083895504230,-11.30878,31.25666,17.0435,-77.56042,-59.71941,76.84039,47.94452,-0.8883717,-9.105433,-78.29288,-7.715342,14.50875,0,0,0,-30.01825,-34.95194,-18.24305,83.33121,-110.3871,-93.172,0.001067912,-0.1257102,0.09433498,0,0.3,0,0,0,0
638225083895904104,-14.98414,30.20464,16.78668,-68.771,-57.30232,71.27377,47.94452,-0.8883717,-9.105433,-78.21963,-7.715342,14.50875,0,0,0,-39.75446,-37.23047,-19.81984,83.33121,-110.3871,-93.172,0.001067912,-0.1257102,0.09433498,0,0.3,0,0,0,0
638225083896243995,-16.44485,29.55005,16.66995,-66.93987,-56.1304,70.24833,47.94452,-0.8883717,-9.105433,-78.21963,-7.642097,14.50875,0,0,0,-43.66899,-38.62967,-20.40319,83.33121,-110.3871,-93.172,0.001067912,-0.1257102,0.09433498,0,0.3,0,0,0,0
638225083896574014,-20.68565,27.28236,16.50652,-63.93682,-51.95542,68.63693,47.94452,-0.8883717,-9.105433,-78.29288,-7.715342,14.50875,0,0,0,-55.2482,-43.37986,-22.02904,83.33121,-110.3871,-93.172,0.001067912,-0.1257102,0.09433498,0,0.3,0,0,0,0
638225083896913781,-24.92644,24.07955,16.50652,-62.25218,-46.9015,68.05097,47.94452,-0.8883717,-9.105433,-78.21963,-7.715342,14.50875,0,0,0,-67.27837,-50.09689,-23.5861,83.33121,-110.3871,-93.172,0.001067912,-0.1257102,0.09433498,0,0.3,0,0,0,0
638225083897253665,-28.34263,20.50268,16.81003,-59.61535,-41.7011,67.97772,47.94452,-0.8883717,-9.105433,-78.21963,-7.715342,14.50875,0,0,0,-77.60522,-57.5958,-24.47802,83.33121,-110.3871,-93.172,0.001067912,-0.1257102,0.09433498,0,0.3,0,0,0,0
638225083897593563,-29.52063,18.81945,17.41706,-57.63773,-39.4305,66.87905,47.94452,-0.8883717,-9.105433,-78.21963,-7.715342,14.50875,0,0,0,-81.86137,-60.86908,-23.782,83.33121,-110.3871,-93.172,0.001067912,-0.1257102,0.09433498,0,0.3,0,0,0,0
638225083897933476,-32.39495,15.5465,19.68175,-56.83204,-36.06122,65.04792,47.94452,-0.8883717,-9.105433,-78.29288,-7.715342,14.50875,0,0,0,-92.89024,-66.46889,-21.94986,83.33121,-110.3871,-93.172,0.001067912,-0.1257102,0.09433498,0,0.3,0,0,0,0
638225083898273341,-34.58602,12.60085,22.43672,-60.78728,-33.20466,67.6115,47.94452,-0.8883717,-9.105433,-78.21963,-7.715342,14.50875,0,0,0,-102.762,-70.81429,-19.31024,83.33121,-110.3871,-93.172,0.001067912,-0.1257102,0.09433498,0,0.3,0,0,0,0
638225083898613379,-35.26926,11.4787,23.53404,-63.64384,-31.88625,70.39482,47.94452,-0.8883717,-9.105433,-78.29288,-7.642097,14.50875,0,0,0,-106.204,-72.37122,-18.1819,83.33121,-110.3871,-93.172,0.001067912,-0.1257102,0.09433498,0,0.3,0,0,0,0
638225083898963125,-35.50486,9.865602,22.97371,-69.50346,-28.88319,77.79259,47.94452,-0.8883717,-9.105433,-78.29288,-7.642097,14.50875,0,0,0,-106.5285,-76.57534,-19.0293,83.33121,-110.3871,-93.172,0.001067912,-0.1257102,0.09433498,0,0.3,0,0,0,0
638225083899303149,-34.7745,8.97723,20.56894,-70.60213,-27.2718,80.94212,47.94452,-0.8883717,-9.105433,-78.21963,-7.642097,14.50875,0,0,0,-101.8453,-80.69077,-21.67457,83.33121,-110.3871,-93.172,0.001067912,-0.1257102,0.09433498,0,0.3,0,0,0,0
638225083899662893,-32.84259,7.714807,16.34309,-68.18504,-25.29418,82.77325,47.94452,-0.8883717,-9.105433,-78.21963,-7.642097,14.50875,0,0,0,-92.01551,-86.71065,-25.80267,83.33121,-110.3871,-93.172,0.001067912,-0.1257102,0.09433498,0,0.3,0,0,0,0
638225083899992798,-31.66459,7.270621,14.47531,-65.98769,-24.41524,82.7,47.94452,-0.8883717,-9.105433,-78.21963,-7.642097,14.50875,0,0,0,-86.93642,-88.89063,-27.39314,83.33121,-110.3871,-93.172,0.001067912,-0.1257102,0.09433498,0,0.3,0,0,0,0
638225083900442783,-28.62535,7.036839,10.73974,-60.64079,-22.65736,81.30835,47.94452,-0.8883717,-9.105433,-78.21963,-7.715342,14.50875,0,0,0,-75.30907,-91.32784,-30.36871,83.33121,-110.3871,-93.172,0.001067912,-0.1257102,0.09433498,0,0.3,0,0,0,0
638225083900782534,-24.33744,7.15373,6.794055,-54.3417,-20.97272,78.81802,47.94452,-0.8883717,-9.105433,-78.21963,-7.715342,14.50875,0,0,0,-61.02826,-92.45724,-33.42253,83.33121,-110.3871,-93.172,0.001067912,-0.1257102,0.09433498,0,0.3,0,0,0,0
638225083901122447,-18.96577,7.340756,3.432048,-46.57772,-19.14159,75.52198,47.94452,-0.8883717,-9.105433,-78.29288,-7.642097,14.50875,0,0,0,-45.57845,-92.72269,-35.72322,83.33121,-110.3871,-93.172,0.001067912,-0.1257102,0.09433498,0,0.3,0,0,0,0
638225083901462318,-12.34542,7.761563,0.9805852,-37.12909,-17.45695,71.78648,47.94452,-0.8883717,-9.105433,-78.29288,-7.715342,14.50875,0,0,0,-28.7376,-91.97144,-37.04762,83.33121,-110.3871,-93.172,0.001067912,-0.1257102,0.09433498,0,0.3,0,0,0,0
638225083901792346,-9.047026,8.112236,0.350209,-32.36815,-16.7245,70.02859,47.94452,-0.8883717,-9.105433,-78.29288,-7.715342,14.50875,0,0,0,-20.88697,-91.18014,-37.17176,83.33121,-110.3871,-93.172,0.001067912,-0.1257102,0.09433498,0,0.3,0,0,0,0
638225083902132112,-2.850755,8.860339,0.1167363,-21.23489,-15.47933,66.29308,47.94452,-0.8883717,-9.105433,-78.29288,-7.715342,14.50875,0,0,0,-6.566471,-89.4603,-36.483,83.33121,-110.3871,-93.172,0.001067912,-0.1257102,0.09433498,0,0.3,0,0,0,0
638225083902472140,-0.5418791,9.000608,0.700418,-10.10162,-14.89337,62.26461,47.94452,-0.8883717,-9.105433,-78.21963,-7.642097,14.50875,0,0,0,-1.261037,-89.12811,-35.01783,83.33121,-110.3871,-93.172,0.001067912,-0.1257102,0.09433498,0,0.3,0,0,0,0
638225083902821887,-1.319358,9.000608,1.120669,-5.853402,-14.82012,60.28699,47.94452,-0.8883717,-9.105433,-78.29288,-7.642097,14.50875,0,0,0,-3.092642,-89.11256,-34.06952,83.33121,-110.3871,-93.172,0.001067912,-0.1257102,0.09433498,0,0.3,0,0,0,0
638225083903161780,-5.772191,9.023986,2.311379,-1.605182,-15.03986,57.28393,47.94452,-0.8883717,-9.105433,-78.21963,-7.642097,14.50875,0,0,0,-13.78635,-88.97584,-31.9675,83.33121,-110.3871,-93.172,0.001067912,-0.1257102,0.09433498,0,0.3,0,0,0,0
638225083903501675,-12.58102,9.070744,4.832884,-4.022273,-15.77231,56.11201,47.94452,-0.8883717,-9.105433,-78.29288,-7.715342,14.50875,0,0,0,-31.13019,-88.50275,-28.8645,83.33121,-110.3871,-93.172,0.001067912,-0.1257102,0.09433498,0,0.3,0,0,0,0
638225083903851566,-18.82441,9.070744,8.615141,-10.68758,-17.45695,57.35718,47.94452,-0.8883717,-9.105433,-78.21963,-7.715342,14.50875,0,0,0,-48.93525,-87.47225,-24.80412,83.33121,-110.3871,-93.172,0.001067912,-0.1257102,0.09433498,0,0.3,0,0,0,0
638225083904181458,-21.69872,9.070744,10.97322,-15.44852,-18.48238,58.82208,47.94452,-0.8883717,-9.105433,-78.21963,-7.715342,14.50875,0,0,0,-58.07123,-86.53873,-22.41397,83.33121,-110.3871,-93.172,0.001067912,-0.1257102,0.09433498,0,0.3,0,0,0,0
638225083904521346,-25.72748,9.070744,15.61932,-26.65503,-20.82623,63.36329,47.94452,-0.8883717,-9.105433,-78.21963,-7.642097,14.50875,0,0,0,-72.74767,-84.05249,-17.37684,83.33121,-110.3871,-93.172,0.001067912,-0.1257102,0.09433498,0,0.3,0,0,0,0
638225083904981206,-26.85836,9.070744,17.81396,-37.34882,-22.80385,68.63693,47.94452,-0.8883717,-9.105433,-78.29288,-7.642097,14.50875,0,0,0,-77.92312,-82.58337,-14.47805,83.33121,-110.3871,-93.172,0.001067912,-0.1257102,0.09433498,0,0.3,0,0,0,0
638225083905321095,-25.75104,9.117499,17.13689,-43.94089,-23.90252,72.00621,47.94452,-0.8883717,-9.105433,-78.29288,-7.715342,14.50875,0,0,0,-74.27448,-82.94913,-14.37021,83.33121,-110.3871,-93.172,0.001067912,-0.1257102,0.09433498,0,0.3,0,0,0,0
638225083905670983,-22.97096,9.608441,14.9189,-45.84526,-23.97577,73.61761,47.94452,-0.8883717,-9.105433,-78.21963,-7.642097,14.50875,0,0,0,-64.70995,-83.24695,-15.68785,83.33121,-110.3871,-93.172,0.001067912,-0.1257102,0.09433498,0,0.3,0,0,0,0
638225083906010875,-20.61497,10.21628,13.21455,-45.03957,-23.82928,74.13033,47.94452,-0.8883717,-9.105433,-78.21963,-7.715342,14.50875,0,0,0,-56.93914,-82.81748,-16.98594,83.33121,-110.3871,-93.172,0.001067912,-0.1257102,0.09433498,0,0.3,0,0,0,0
638225083906350764,-14.81922,12.48396,10.03932,-40.49837,-23.38981,73.61761,47.94452,-0.8883717,-9.105433,-78.21963,-7.642097,14.50875,0,0,0,-39.24618,-79.13242,-20.01062,83.33121,-110.3871,-93.172,0.001067912,-0.1257102,0.09433498,0,0.3,0,0,0,0
638225083906690799,-8.128186,16.22447,8.685184,-32.51464,-23.24332,70.54131,47.94452,-0.8883717,-9.105433,-78.21963,-7.715342,14.50875,0,0,0,-20.95032,-71.21272,-21.66274,83.33121,-110.3871,-93.172,0.001067912,-0.1257102,0.09433498,0,0.3,0,0,0,0
638225083907036647,-5.112512,18.4454,8.848614,-27.38748,-23.60954,68.19746,47.94452,-0.8883717,-9.105433,-78.21963,-7.642097,14.50875,0,0,0,-13.10048,-66.22085,-21.92318,83.33121,-110.3871,-93.172,0.001067912,-0.1257102,0.09433498,0,0.3,0,0,0,0
638225083907366542,-1.107318,22.60672,10.36619,-17.05991,-25.36743,62.55759,47.94452,-0.8883717,-9.105433,-78.21963,-7.715342,14.50875,0,0,0,-2.842707,-56.56321,-21.27858,83.33121,-110.3871,-93.172,0.001067912,-0.1257102,0.09433498,0,0.3,0,0,0,0
638225083907706426,-1.437158,25.97318,12.72426,-9.002944,-27.85776,56.84446,47.94452,-0.8883717,-9.105433,-78.21963,-7.715342,14.50875,0,0,0,-3.743343,-48.32442,-19.14385,83.33121,-110.3871,-93.172,0.001067912,-0.1257102,0.09433498,0,0.3,0,0,0,0
638225083908046324,-4.499953,27.96033,15.15238,-6.585854,-30.78757,53.91465,47.94452,-0.8883717,-9.105433,-78.29288,-7.642097,14.50875,0,0,0,-11.9759,-42.84147,-16.1802,83.33121,-110.3871,-93.172,0.001067912,-0.1257102,0.09433498,0,0.3,0,0,0,0
638225083908386207,-6.738149,28.24087,16.203,-7.464796,-32.39896,53.62167,47.94452,-0.8883717,-9.105433,-78.21963,-7.642097,14.50875,0,0,0,-18.14973,-41.60476,-14.73145,83.33121,-110.3871,-93.172,0.001067912,-0.1257102,0.09433498,0,0.3,0,0,0,0
638225083908716110,-11.89778,27.8902,18.53773,-13.03143,-35.10904,55.67254,47.94452,-0.8883717,-9.105433,-78.21963,-7.715342,14.50875,0,0,0,-33.03952,-40.70279,-11.53614,83.33121,-110.3871,-93.172,0.001067912,-0.1257102,0.09433498,0,0.3,0,0,0,0
638225083909065985,-16.70401,26.88494,21.3861,-22.77304,-36.86692,60.57997,47.94452,-0.8883717,-9.105433,-78.29288,-7.715342,14.50875,0,0,0,-48.1623,-40.5172,-7.857523,83.33121,-110.3871,-93.172,0.001067912,-0.1257102,0.09433498,0,0.3,0,0,0,0
638225083909505858,-19.55477,26.16021,23.81421,-36.1769,-37.89235,67.6115,47.94452,-0.8883717,-9.105433,-78.29288,-7.715342,14.50875,0,0,0,-58.08294,-39.85482,-4.825768,83.33121,-110.3871,-93.172,0.001067912,-0.1257102,0.09433498,0,0.3,0,0,0,0
638225083909845753,-19.41341,26.39399,23.65078,-44.01414,-38.18533,71.56674,47.94452,-0.8883717,-9.105433,-78.21963,-7.715342,14.43551,0,0,0,-57.48351,-39.52003,-5.238556,83.33121,-110.3871,-93.172,0.001067912,-0.1257102,0.09433498,0,0.3,0,0,0,0
638225083910185641,-18.70661,26.74467,22.92702,-46.57772,-38.33182,72.88515,47.94452,-0.8883717,-9.105433,-78.21963,-7.715342,14.50875,0,0,0,-54.85374,-39.45605,-6.353131,83.33121,-110.3871,-93.172,0.001067912,-0.1257102,0.09433498,0,0.3,0,0,0,0
638225083910525532,-16.23281,27.79668,20.75572,-48.04262,-38.47831,74.27681,47.94452,-0.8883717,-9.105433,-78.21963,-7.715342,14.50875,0,0,0,-46.18567,-39.15973,-9.717057,83.33121,-110.3871,-93.172,0.001067912,-0.1257102,0.09433498,0,0.3,0,0,0,0
638225083910865423,-11.96846,28.84871,17.4871,-44.96632,-38.47831,73.25138,47.94452,-0.8883717,-9.105433,-78.29288,-7.715342,14.50875,0,0,0,-32.53091,-39.49602,-14.88875,83.33121,-110.3871,-93.172,0.001067912,-0.1257102,0.09433498,0,0.3,0,0,0,0
638225083911205314,-8.976345,29.33965,15.57263,-41.67029,-38.40507,71.56674,47.94452,-0.8883717,-9.105433,-78.29288,-7.715342,14.50875,0,0,0,-23.72297,-39.76525,-18.16776,83.33121,-110.3871,-93.172,0.001067912,-0.1257102,0.09433498,0,0.3,0,0,0,0
638225083911545206,-2.238196,29.66694,12.37405,-33.02736,-37.74586,67.02554,47.94452,-0.8883717,-9.105433,-78.29288,-7.642097,14.50875,0,0,0,-5.641191,-40.89964,-24.01411,83.33121,-110.3871,-93.172,0.001067912,-0.1257102,0.09433498,0,0.3,0,0,0,0
638225083911875100,5.748631,29.59681,10.50627,-21.89409,-36.57394,62.11811,47.94452,-0.8883717,-9.105433,-78.21963,-7.642097,14.50875,0,0,0,14.04967,-41.9037,-28.78913,83.33121,-110.3871,-93.172,0.001067912,-0.1257102,0.09433498,0,0.3,0,0,0,0
638225083912234980,10.22502,29.62018,10.31949,-15.30203,-36.06122,59.48129,47.94452,-0.8883717,-9.105433,-78.29288,-7.715342,14.50875,0,0,0,24.81864,-41.93496,-30.75862,83.33121,-110.3871,-93.172,0.001067912,-0.1257102,0.09433498,0,0.3,0,0,0,0
638225083912574879,19.81393,29.62018,11.25338,1.324624,-35.10904,52.30326,47.94452,-0.8883717,-9.105433,-78.21963,-7.642097,14.50875,0,0,0,48.11528,-41.52819,-34.80653,83.33121,-110.3871,-93.172,0.001067912,-0.1257102,0.09433498,0,0.3,0,0,0,0
638225083912914765,23.86624,29.99424,12.63087,10.99299,-34.81605,47.61557,47.94452,-0.8883717,-9.105433,-78.21963,-7.715342,14.43551,0,0,0,58.52608,-40.10943,-36.06801,83.33121,-110.3871,-93.172,0.001067912,-0.1257102,0.09433498,0,0.3,0,0,0,0
638225083913254663,26.74056,31.77098,14.84886,23.37142,-34.59632,40.14456,47.94452,-0.8883717,-9.105433,-78.21963,-7.642097,14.50875,0,0,0,66.38689,-35.33466,-36.5868,83.33121,-110.3871,-93.172,0.001067912,-0.1257102,0.09433498,0,0.3,0,0,0,0
638225083913594551,26.88192,33.22043,15.89949,27.98586,-34.81605,36.6288,47.94452,-0.8883717,-9.105433,-78.29288,-7.715342,14.50875,0,0,0,66.95837,-31.8412,-36.26453,83.33121,-110.3871,-93.172,0.001067912,-0.1257102,0.09433498,0,0.3,0,0,0,0
638225083913934442,25.27984,37.40512,18.28091,34.79766,-36.28096,29.89024,47.94452,-0.8883717,-9.105433,-78.21963,-7.715342,14.50875,0,0,0,63.09795,-22.26679,-34.74358,83.33121,-110.3871,-93.172,0.001067912,-0.1257102,0.09433498,0,0.3,0,0,0,0
638225083914284333,20.94481,42.12752,20.33547,37.87396,-39.06427,24.76308,47.94452,-0.8883717,-9.105433,-78.21963,-7.715342,14.50875,0,0,0,51.919,-12.23992,-32.70595,83.33121,-110.3871,-93.172,0.001067912,-0.1257102,0.09433498,0,0.3,0,0,0,0
638225083914624215,17.83489,44.39521,21.43279,37.72747,-40.96865,23.29818,47.94452,-0.8883717,-9.105433,-78.21963,-7.715342,14.50875,0,0,0,44.1067,-7.48629,-31.26058,83.33121,-110.3871,-93.172,0.001067912,-0.1257102,0.09433498,0,0.3,0,0,0,0
638225083914964113,10.1779,47.80843,23.55739,32.7468,-45.65634,23.88414,47.94452,-0.8883717,-9.105433,-78.29288,-7.642097,14.50875,0,0,0,25.24323,-0.08717424,-27.74292,83.33121,-110.3871,-93.172,0.001067912,-0.1257102,0.09433498,0,0.3,0,0,0,0
638225083915304000,2.921435,48.93058,24.42124,19.85565,-49.9778,32.82005,47.94452,-0.8883717,-9.105433,-78.29288,-7.642097,14.50875,0,0,0,7.27496,2.465213,-25.79568,83.33121,-110.3871,-93.172,0.001067912,-0.1257102,0.09433498,0,0.3,0,0,0,0
638225083915653893,-3.274835,48.81369,24.23446,-0.7994855,-51.88218,48.71425,47.94452,-0.8883717,-9.105433,-78.21963,-7.642097,14.50875,0,0,0,-8.143167,2.107192,-26.03413,83.33121,-110.3871,-93.172,0.001067912,-0.1257102,0.09433498,0,0.3,0,0,0,0
638225083915983787,-5.701511,48.6968,24.14107,-11.56653,-51.73569,56.84446,47.94452,-0.8883717,-9.105433,-78.29288,-7.715342,14.43551,0,0,0,-14.16226,1.838779,-26.50029,83.33121,-110.3871,-93.172,0.001067912,-0.1257102,0.09433498,0,0.3,0,0,0,0
638225083916323677,-8.999906,48.95396,24.09438,-30.24404,-50.19754,69.58913,47.94452,-0.8883717,-9.105433,-78.21963,-7.715342,14.50875,0,0,0,-22.21428,2.188407,-28.09304,83.33121,-110.3871,-93.172,0.001067912,-0.1257102,0.09433498,0,0.3,0,0,0,0
638225083916673566,-10.6491,50.47354,24.23446,-42.76897,-48.00018,77.06013,47.94452,-0.8883717,-9.105433,-78.21963,-7.715342,14.50875,0,0,0,-25.7981,4.608639,-31.14944,83.33121,-110.3871,-93.172,0.001067912,-0.1257102,0.09433498,0,0.3,0,0,0,0
638225083917093431,-10.8847,53.86338,24.91153,-50.38646,-46.02256,81.30835,47.94452,-0.8883717,-9.105433,-78.29288,-7.715342,14.50875,0,0,0,-25.45617,10.1022,-35.96765,83.33121,-110.3871,-93.172,0.001067912,-0.1257102,0.09433498,0,0.3,0,0,0,0
638225083917423334,-10.69622,55.47648,25.51856,-51.99786,-45.5831,82.26054,47.94452,-0.8883717,-9.105433,-78.29288,-7.715342,14.50875,0,0,0,-24.68932,12.87506,-37.63824,83.33121,-110.3871,-93.172,0.001067912,-0.1257102,0.09433498,0,0.3,0,0,0,0
638225083917763218,-9.282625,60.15212,28.36693,-55.73336,-44.85064,85.99604,47.94452,-0.8883717,-9.105433,-78.21963,-7.715342,14.50875,0,0,0,-20.92522,21.67337,-40.32386,83.33121,-110.3871,-93.172,0.001067912,-0.1257102,0.09433498,0,0.3,0,0,0,0
638225083918103107,-5.677951,65.43559,31.54216,-58.95615,-45.36336,91.92889,47.94452,-0.8883717,-9.105433,-78.29288,-7.642097,14.50875,0,0,0,-12.38635,30.98282,-43.7697,83.33121,-110.3871,-93.172,0.001067912,-0.1257102,0.09433498,0,0.3,0,0,0,0
638225083918452996,0.9423984,71.21001,35.88475,-60.27456,-47.56071,97.71527,47.94452,-0.8883717,-9.105433,-78.21963,-7.642097,14.50875,0,0,0,1.992022,41.55332,-47.25031,83.33121,-110.3871,-93.172,0.001067912,-0.1257102,0.09433498,0,0.3,0,0,0,0
638225083918792874,5.159632,73.80499,38.54634,-60.42105,-49.75807,100.4986,47.94452,-0.8883717,-9.105433,-78.29288,-7.642097,14.50875,0,0,0,10.8177,47.11477,-48.5484,83.33121,-110.3871,-93.172,0.001067912,-0.1257102,0.09433498,0,0.3,0,0,0,0
638225083919132779,14.48938,77.19482,43.16909,-60.56754,-56.1304,106.5047,47.94452,-0.8883717,-9.105433,-78.29288,-7.715342,14.50875,0,0,0,30.221,56.1263,-51.40461,83.33121,-110.3871,-93.172,0.001067912,-0.1257102,0.09433498,0,0.3,0,0,0,0
638225083919472657,17.01029,78.17671,44.52324,-59.32237,-61.03782,113.463,47.94452,-0.8883717,-9.105433,-78.21963,-7.715342,14.50875,0,0,0,35.34727,58.79684,-52.80851,83.33121,-110.3871,-93.172,0.001067912,-0.1257102,0.09433498,0,0.3,0,0,0,0
638225083919812562,17.88201,78.24685,44.8034,-58.22369,-62.1365,115.5871,47.94452,-0.8883717,-9.105433,-78.21963,-7.715342,14.50875,0,0,0,37.19435,59.28854,-53.07035,83.33121,-110.3871,-93.172,0.001067912,-0.1257102,0.09433498,0,0.3,0,0,0,0
638225083920162450,18.75373,77.07793,44.4065,-58.51668,-63.67465,121.3735,47.94452,-0.8883717,-9.105433,-78.29288,-7.642097,14.50875,0,0,0,39.58687,58.05858,-51.75577,83.33121,-110.3871,-93.172,0.001067912,-0.1257102,0.09433498,0,0.3,0,0,0,0
638225083920502340,18.68305,75.30119,43.05236,-59.61535,-64.11412,123.4243,47.94452,-0.8883717,-9.105433,-78.29288,-7.715342,14.50875,0,0,0,39.99979,54.89299,-50.06049,83.33121,-110.3871,-93.172,0.001067912,-0.1257102,0.09433498,0,0.3,0,0,0,0
638225083920852246,18.28253,72.86986,40.90441,-58.44344,-64.4071,122.2524,47.94452,-0.8883717,-9.105433,-78.29288,-7.715342,14.50875,0,0,0,39.71315,49.99801,-48.14559,83.33121,-110.3871,-93.172,0.001067912,-0.1257102,0.09433498,0,0.3,0,0,0,0
638225083921192119,17.90557,71.37366,39.52692,-56.39257,-64.5536,118.8099,47.94452,-0.8883717,-9.105433,-78.29288,-7.715342,14.50875,0,0,0,39.18768,46.85907,-47.06292,83.33121,-110.3871,-93.172,0.001067912,-0.1257102,0.09433498,0,0.3,0,0,0,0
638225083921611985,17.01029,68.35786,36.7019,-48.04262,-64.62684,107.0174,47.94452,-0.8883717,-9.105433,-78.21963,-7.715342,14.50875,0,0,0,37.70225,40.38543,-45.11067,83.33121,-110.3871,-93.172,0.001067912,-0.1257102,0.09433498,0,0.3,0,0,0,0
638225083921951874,15.64381,65.29533,33.52667,-34.85849,-64.62684,90.90347,47.94452,-0.8883717,-9.105433,-78.29288,-7.715342,14.50875,0,0,0,34.88948,33.33062,-43.75783,83.33121,-110.3871,-93.172,0.001067912,-0.1257102,0.09433498,0,0.3,0,0,0,0
638225083922301767,13.49986,62.48994,29.74442,-21.67436,-63.82114,76.40092,47.94452,-0.8883717,-9.105433,-78.29288,-7.715342,14.50875,0,0,0,29.8233,25.84132,-44.12564,83.33121,-110.3871,-93.172,0.001067912,-0.1257102,0.09433498,0,0.3,0,0,0,0
638225083922641654,11.68574,60.80671,27.29295,-16.5472,-62.28299,70.39482,47.94452,-0.8883717,-9.105433,-78.29288,-7.642097,14.43551,0,0,0,25.55873,21.25714,-44.77668,83.33121,-110.3871,-93.172,0.001067912,-0.1257102,0.09433498,0,0.3,0,0,0,0
638225083922981554,8.269547,58.95983,25.54191,-14.78931,-59.49968,66.95229,47.94452,-0.8883717,-9.105433,-78.29288,-7.715342,14.50875,0,0,0,18.15959,17.28735,-43.40565,83.33121,-110.3871,-93.172,0.001067912,-0.1257102,0.09433498,0,0.3,0,0,0,0
638225083923321446,3.227715,56.80903,23.83756,-20.2827,-56.9361,70.32157,47.94452,-0.8883717,-9.105433,-78.21963,-7.715342,14.50875,0,0,0,7.144624,12.96946,-41.6586,83.33121,-110.3871,-93.172,0.001067912,-0.1257102,0.09433498,0,0.3,0,0,0,0
638225083923661332,-1.248678,53.60622,20.98919,-29.29186,-53.71331,76.40092,47.94452,-0.8883717,-9.105433,-78.29288,-7.715342,14.50875,0,0,0,-2.765069,6.189215,-41.4945,83.33121,-110.3871,-93.172,0.001067912,-0.1257102,0.09433498,0,0.3,0,0,0,0
638225083924001216,-2.191077,52.32042,20.0553,-32.95412,-51.95542,78.45178,47.94452,-0.8883717,-9.105433,-78.21963,-7.715342,14.50875,0,0,0,-4.864618,3.62478,-41.20419,83.33121,-110.3871,-93.172,0.001067912,-0.1257102,0.09433498,0,0.3,0,0,0,0
638225083924331117,-0.8717186,50.68394,18.70116,-37.20233,-49.02562,81.45483,47.94452,-0.8883717,-9.105433,-78.29288,-7.715342,14.50875,0,0,0,-1.9359,0.2082948,-41.11818,83.33121,-110.3871,-93.172,0.001067912,-0.1257102,0.09433498,0,0.3,0,0,0,0
638225083924671004,3.133475,49.28125,17.06685,-34.93173,-47.63396,81.52808,47.94452,-0.8883717,-9.105433,-78.29288,-7.715342,14.50875,0,0,0,6.894375,-3.058908,-42.41164,83.33121,-110.3871,-93.172,0.001067912,-0.1257102,0.09433498,0,0.3,0,0,0,0
638225083925020896,6.14915,48.79031,16.50652,-31.12299,-47.19449,79.25748,47.94452,-0.8883717,-9.105433,-78.29288,-7.642097,14.50875,0,0,0,13.46902,-4.184632,-43.33227,83.33121,-110.3871,-93.172,0.001067912,-0.1257102,0.09433498,0,0.3,0,0,0,0
638225083925360789,12.51034,48.25261,16.43647,-19.69674,-46.68177,71.93297,47.94452,-0.8883717,-9.105433,-78.21963,-7.715342,14.50875,0,0,0,27.40676,-5.059726,-44.83158,83.33121,-110.3871,-93.172,0.001067912,-0.1257102,0.09433498,0,0.3,0,0,0,0
638225083925700677,17.74065,47.45775,16.48317,-4.754725,-46.02256,62.19136,47.94452,-0.8883717,-9.105433,-78.21963,-7.642097,14.50875,0,0,0,39.00222,-6.270254,-46.43858,83.33121,-110.3871,-93.172,0.001067912,-0.1257102,0.09433498,0,0.3,0,0,0,0
638225083926126849,19.67257,46.63952,16.57656,10.8465,-44.48441,50.69187,47.94452,-0.8883717,-9.105433,-78.21963,-7.715342,14.50875,0,0,0,43.6293,-7.505992,-46.31401,83.33121,-110.3871,-93.172,0.001067912,-0.1257102,0.09433498,0,0.3,0,0,0,0
638225083926466740,18.30609,46.42911,16.57656,17.51181,-43.60548,45.34497,47.94452,-0.8883717,-9.105433,-78.29288,-7.715342,14.50875,0,0,0,40.8183,-7.842862,-44.97085,83.33121,-110.3871,-93.172,0.001067912,-0.1257102,0.09433498,0,0.3,0,0,0,0
638225083926806630,16.89249,46.28884,16.55321,19.56267,-43.45898,43.4406,47.94452,-0.8883717,-9.105433,-78.29288,-7.715342,14.50875,0,0,0,37.8157,-8.083657,-43.82521,83.33121,-110.3871,-93.172,0.001067912,-0.1257102,0.09433498,0,0.3,0,0,0,0
638225083927146515,13.4763,45.84466,16.36643,19.63592,-43.60548,42.12218,47.94452,-0.8883717,-9.105433,-78.29288,-7.715342,14.50875,0,0,0,30.4046,-8.924095,-41.47453,83.33121,-110.3871,-93.172,0.001067912,-0.1257102,0.09433498,0,0.3,0,0,0,0
638225083927496408,11.66218,45.14331,16.22635,15.75392,-44.04494,44.24629,47.94452,-0.8883717,-9.105433,-78.21963,-7.715342,14.50875,0,0,0,26.54492,-10.1598,-39.74199,83.33121,-110.3871,-93.172,0.001067912,-0.1257102,0.09433498,0,0.3,0,0,0,0
638225083927826300,11.92134,44.7225,16.22635,13.62981,-44.26468,45.78444,47.94452,-0.8883717,-9.105433,-78.21963,-7.642097,14.50875,0,0,0,27.26925,-10.85314,-39.18657,83.33121,-110.3871,-93.172,0.001067912,-0.1257102,0.09433498,0,0.3,0,0,0,0
638225083928166190,14.5365,43.71724,16.22635,11.65219,-44.41117,48.71425,47.94452,-0.8883717,-9.105433,-78.29288,-7.715342,14.50875,0,0,0,33.54377,-12.52987,-38.98587,83.33121,-110.3871,-93.172,0.001067912,-0.1257102,0.09433498,0,0.3,0,0,0,0
638225083928496087,19.20137,42.24441,16.22635,14.21577,-44.33792,49.81293,47.94452,-0.8883717,-9.105433,-78.29288,-7.642097,14.50875,0,0,0,44.72208,-15.03755,-39.93554,83.33121,-110.3871,-93.172,0.001067912,-0.1257102,0.09433498,0,0.3,0,0,0,0
638225083928845973,21.69872,41.16902,16.22635,17.29207,-43.9717,48.86074,47.94452,-0.8883717,-9.105433,-78.29288,-7.715342,14.50875,0,0,0,50.89071,-16.90607,-40.459,83.33121,-110.3871,-93.172,0.001067912,-0.1257102,0.09433498,0,0.3,0,0,0,0
638225083929185870,25.51544,38.03634,15.75941,28.35209,-41.18839,41.31649,47.94452,-0.8883717,-9.105433,-78.29288,-7.715342,14.50875,0,0,0,60.84266,-22.82238,-40.87911,83.33121,-110.3871,-93.172,0.001067912,-0.1257102,0.09433498,0,0.3,0,0,0,0
638225083929525755,25.04424,37.10121,14.82551,32.89329,-39.4305,36.18932,47.94452,-0.8883717,-9.105433,-78.29288,-7.715342,14.43551,0,0,0,59.46652,-25.12069,-41.08028,83.33121,-110.3871,-93.172,0.001067912,-0.1257102,0.09433498,0,0.3,0,0,0,0
638225083929875645,21.60448,36.82067,12.93439,35.60336,-37.23314,30.4762,47.94452,-0.8883717,-9.105433,-78.29288,-7.715342,14.43551,0,0,0,50.29469,-26.6982,-41.34916,83.33121,-110.3871,-93.172,0.001067912,-0.1257102,0.09433498,0,0.3,0,0,0,0
638225083930205540,18.94221,36.86742,11.76702,34.94416,-36.57394,29.15779,47.94452,-0.8883717,-9.105433,-78.29288,-7.715342,14.50875,0,0,0,43.45867,-27.19224,-41.7221,83.33121,-110.3871,-93.172,0.001067912,-0.1257102,0.09433498,0,0.3,0,0,0,0
638225083930645402,11.80354,36.72716,9.22217,29.30428,-35.62175,31.06216,47.94452,-0.8883717,-9.105433,-78.21963,-7.715342,14.50875,0,0,0,26.23439,-28.53238,-42.81179,83.33121,-110.3871,-93.172,0.001067912,-0.1257102,0.09433498,0,0.3,0,0,0,0
638225083930985289,5.86643,35.97906,7.984766,20.14863,-34.81605,36.33582,47.94452,-0.8883717,-9.105433,-78.21963,-7.715342,14.50875,0,0,0,12.92285,-30.36546,-42.57747,83.33121,-110.3871,-93.172,0.001067912,-0.1257102,0.09433498,0,0.3,0,0,0,0
638225083931315185,4.052313,35.48811,7.751292,9.967555,-34.0836,43.00113,47.94452,-0.8883717,-9.105433,-78.29288,-7.715342,14.50875,0,0,0,8.943912,-31.36735,-42.1027,83.33121,-110.3871,-93.172,0.001067912,-0.1257102,0.09433498,0,0.3,0,0,0,0
638225083931665078,6.973749,34.81015,7.190958,4.693902,-33.64413,47.8353,47.94452,-0.8883717,-9.105433,-78.21963,-7.715342,14.43551,0,0,0,15.31998,-32.82709,-43.10441,83.33121,-110.3871,-93.172,0.001067912,-0.1257102,0.09433498,0,0.3,0,0,0,0
638225083932014966,9.518225,34.3192,6.934138,4.474167,-33.35115,49.08047,47.94452,-0.8883717,-9.105433,-78.29288,-7.715342,14.50875,0,0,0,20.87424,-33.84151,-43.85372,83.33121,-110.3871,-93.172,0.001067912,-0.1257102,0.09433498,0,0.3,0,0,0,0
638225083932354856,14.67786,32.65935,6.467193,8.06318,-32.25247,48.20153,47.94452,-0.8883717,-9.105433,-78.21963,-7.715342,14.50875,0,0,0,32.25233,-37.19001,-45.21757,83.33121,-110.3871,-93.172,0.001067912,-0.1257102,0.09433498,0,0.3,0,0,0,0
638225083932694746,16.70401,30.22802,4.622759,14.36226,-30.42134,43.51384,47.94452,-0.8883717,-9.105433,-78.21963,-7.715342,14.50875,0,0,0,36.20597,-42.43215,-47.69989,83.33121,-110.3871,-93.172,0.001067912,-0.1257102,0.09433498,0,0.3,0,0,0,0
638225083933034641,15.78517,29.15262,3.081839,16.77936,-29.10293,41.38973,47.94452,-0.8883717,-9.105433,-78.29288,-7.715342,14.50875,0,0,0,33.63044,-44.84734,-49.38505,83.33121,-110.3871,-93.172,0.001067912,-0.1257102,0.09433498,0,0.3,0,0,0,0
638225083933374532,10.6491,27.42263,-0.0700418,17.87803,-26.24637,39.26562,47.94452,-0.8883717,-9.105433,-78.29288,-7.715342,14.50875,0,0,0,21.84315,-48.5855,-52.18285,83.33121,-110.3871,-93.172,0.001067912,-0.1257102,0.09433498,0,0.3,0,0,0,0
638225083933714421,3.557554,25.92643,-1.844434,13.41008,-23.82928,40.07132,47.94452,-0.8883717,-9.105433,-78.29288,-7.715342,14.50875,0,0,0,7.175418,-51.62807,-52.93567,83.33121,-110.3871,-93.172,0.001067912,-0.1257102,0.09433498,0,0.3,0,0,0,0
638225083934054312,-0.4240793,25.38873,-1.984518,5.426354,-22.14464,43.22086,47.94452,-0.8883717,-9.105433,-78.29288,-7.715342,14.50875,0,0,0,-0.8574887,-52.74522,-52.5,83.33121,-110.3871,-93.172,0.001067912,-0.1257102,0.09433498,0,0.3,0,0,0,0
638225083934384206,-0.2827196,25.38873,-1.984518,1.764095,-21.63192,45.27173,47.94452,-0.8883717,-9.105433,-78.29288,-7.715342,14.50875,0,0,0,-0.5716621,-52.74522,-52.49823,83.33121,-110.3871,-93.172,0.001067912,-0.1257102,0.09433498,0,0.3,0,0,0,0
638225083934724085,3.321954,25.36535,-1.984518,-1.092466,-20.97272,47.90855,47.94452,-0.8883717,-9.105433,-78.21963,-7.715342,14.50875,0,0,0,6.714645,-52.79438,-52.66821,83.33121,-110.3871,-93.172,0.001067912,-0.1257102,0.09433498,0,0.3,0,0,0,0
638225083935173959,7.939706,24.94454,-1.984518,1.764095,-20.24026,46.73663,47.94452,-0.8883717,-9.105433,-78.29288,-7.715342,14.50875,0,0,0,16.06363,-53.68088,-53.17199,83.33121,-110.3871,-93.172,0.001067912,-0.1257102,0.09433498,0,0.3,0,0,0,0
638225083935513834,8.316667,24.33671,-2.381421,6.598277,-18.70212,41.68271,47.94452,-0.8883717,-9.105433,-78.21963,-7.642097,14.50875,0,0,0,16.77285,-54.93154,-53.60993,83.33121,-110.3871,-93.172,0.001067912,-0.1257102,0.09433498,0,0.3,0,0,0,0
638225083935863723,2.968555,23.86915,-2.825019,7.989935,-17.45695,38.67966,47.94452,-0.8883717,-9.105433,-78.21963,-7.715342,14.50875,0,0,0,5.974901,-55.87797,-53.13225,83.33121,-110.3871,-93.172,0.001067912,-0.1257102,0.09433498,0,0.3,0,0,0,0
638225083936203627,-0.5183191,23.35482,-2.871714,6.671522,-17.01748,38.24019,47.94452,-0.8883717,-9.105433,-78.21963,-7.715342,14.50875,0,0,0,-1.047045,-56.96938,-52.61126,83.33121,-110.3871,-93.172,0.001067912,-0.1257102,0.09433498,0,0.3,0,0,0,0
638225083936533527,-5.206751,21.64822,-3.081839,0.738663,-16.35827,40.21781,47.94452,-0.8883717,-9.105433,-78.29288,-7.642097,14.50875,0,0,0,-10.59733,-60.61341,-52.05671,83.33121,-110.3871,-93.172,0.001067912,-0.1257102,0.09433498,0,0.3,0,0,0,0
638225083936873405,-3.981634,19.84809,-4.202508,-3.656047,-15.55258,44.24629,47.94452,-0.8883717,-9.105433,-78.21963,-7.715342,14.50875,0,0,0,-8.030795,-64.36546,-52.9728,83.33121,-110.3871,-93.172,0.001067912,-0.1257102,0.09433498,0,0.3,0,0,0,0
638225083937213303,-2.049716,18.58567,-4.809536,-4.168763,-14.89337,46.00418,47.94452,-0.8883717,-9.105433,-78.21963,-7.642097,14.50875,0,0,0,-4.120857,-67.02885,-53.20872,83.33121,-110.3871,-93.172,0.001067912,-0.1257102,0.09433498,0,0.3,0,0,0,0
638225083937543194,2.308876,16.10758,-5.323177,-1.751673,-12.69601,47.68882,47.94452,-0.8883717,-9.105433,-78.29288,-7.642097,14.50875,0,0,0,4.662918,-72.42803,-52.70029,83.33121,-110.3871,-93.172,0.001067912,-0.1257102,0.09433498,0,0.3,0,0,0,0
638225083937883085,4.947592,15.28934,-4.762842,3.521979,-10.27892,46.3704,47.94452,-0.8883717,-9.105433,-78.21963,-7.642097,14.50875,0,0,0,10.13873,-74.37598,-51.23001,83.33121,-110.3871,-93.172,0.001067912,-0.1257102,0.09433498,0,0.3,0,0,0,0
638225083938222981,5.183192,15.24259,-4.319244,5.93907,-9.546471,45.41821,47.94452,-0.8883717,-9.105433,-78.29288,-7.642097,14.50875,0,0,0,10.71581,-74.5627,-50.21918,83.33121,-110.3871,-93.172,0.001067912,-0.1257102,0.09433498,0,0.3,0,0,0,0
638225083938562868,3.604674,15.3361,-3.642174,10.11404,-8.960509,42.56165,47.94452,-0.8883717,-9.105433,-78.21963,-7.642097,14.50875,0,0,0,7.552835,-74.46216,-48.4572,83.33121,-110.3871,-93.172,0.001067912,-0.1257102,0.09433498,0,0.3,0,0,0,0
638225083938902763,0.4005193,15.35948,-3.572132,11.57895,-9.180244,38.97264,47.94452,-0.8883717,-9.105433,-78.21963,-7.642097,14.50875,0,0,0,0.8407875,-74.41994,-48.07419,83.33121,-110.3871,-93.172,0.001067912,-0.1257102,0.09433498,0,0.3,0,0,0,0
638225083939242650,-1.578517,15.3361,-3.548784,11.21272,-9.473226,37.65423,47.94452,-0.8883717,-9.105433,-78.21963,-7.642097,14.50875,0,0,0,-3.31519,-74.47578,-48.04828,83.33121,-110.3871,-93.172,0.001067912,-0.1257102,0.09433498,0,0.3,0,0,0,0
638225083939692511,-3.533994,15.1257,-3.362006,5.865825,-10.64515,37.87396,47.94452,-0.8883717,-9.105433,-78.29288,-7.715342,14.43551,0,0,0,-7.452978,-74.97448,-47.66997,83.33121,-110.3871,-93.172,0.001067912,-0.1257102,0.09433498,0,0.3,0,0,0,0
638225083940022402,-2.520916,15.00881,-3.362006,4.620657,-10.86488,38.89939,47.94452,-0.8883717,-9.105433,-78.21963,-7.715342,14.50875,0,0,0,-5.321224,-75.23718,-47.48641,83.33121,-110.3871,-93.172,0.001067912,-0.1257102,0.09433498,0,0.3,0,0,0,0
638225083940362293,1.672757,14.0503,-2.98845,4.254431,-11.01137,41.68271,47.94452,-0.8883717,-9.105433,-78.21963,-7.642097,14.50875,0,0,0,3.573221,-77.44479,-45.99376,83.33121,-110.3871,-93.172,0.001067912,-0.1257102,0.09433498,0,0.3,0,0,0,0
638225083940702228,5.324551,12.71774,-1.867781,7.623709,-10.35217,43.07437,47.94452,-0.8883717,-9.105433,-78.29288,-7.642097,14.50875,0,0,0,11.6676,-80.57238,-43.16038,83.33121,-110.3871,-93.172,0.001067912,-0.1257102,0.09433498,0,0.3,0,0,0,0
638225083941052076,4.947592,12.29694,-1.073974,11.87193,-9.546471,42.19543,47.94452,-0.8883717,-9.105433,-78.21963,-7.642097,14.50875,0,0,0,11.02128,-81.57594,-41.03502,83.33121,-110.3871,-93.172,0.001067912,-0.1257102,0.09433498,0,0.3,0,0,0,0
638225083941392099,3.227715,12.32031,-0.8638488,12.82412,-9.25349,41.75596,47.94452,-0.8883717,-9.105433,-78.29288,-7.642097,14.50875,0,0,0,7.222088,-81.53105,-40.28497,83.33121,-110.3871,-93.172,0.001067912,-0.1257102,0.09433498,0,0.3,0,0,0,0
638225083941731855,-1.649197,12.34369,-0.3735563,11.57895,-9.25349,41.38973,47.94452,-0.8883717,-9.105433,-78.29288,-7.715342,14.50875,0,0,0,-3.724065,-81.49022,-39.00568,83.33121,-110.3871,-93.172,0.001067912,-0.1257102,0.09433498,0,0.3,0,0,0,0
638225083942071736,-5.65439,12.27356,0.8871961,6.818012,-9.985942,42.92788,47.94452,-0.8883717,-9.105433,-78.21963,-7.715342,14.50875,0,0,0,-13.0418,-81.63654,-36.62716,83.33121,-110.3871,-93.172,0.001067912,-0.1257102,0.09433498,0,0.3,0,0,0,0
638225083942401648,-6.12559,12.08653,1.470878,4.034696,-10.5719,44.39278,47.94452,-0.8883717,-9.105433,-78.21963,-7.642097,14.50875,0,0,0,-14.27936,-82.03408,-35.29714,83.33121,-110.3871,-93.172,0.001067912,-0.1257102,0.09433498,0,0.3,0,0,0,0
638225083942741535,-3.887394,11.01113,2.054559,0.8851534,-11.52409,46.88312,47.94452,-0.8883717,-9.105433,-78.21963,-7.715342,14.50875,0,0,0,-9.198245,-84.44446,-32.98637,83.33121,-110.3871,-93.172,0.001067912,-0.1257102,0.09433498,0,0.3,0,0,0,0
638225083943071435,-0.8481586,9.912358,2.801672,1.837341,-11.74383,47.76206,47.94452,-0.8883717,-9.105433,-78.29288,-7.642097,14.50875,0,0,0,-2.040946,-86.88553,-30.48772,83.33121,-110.3871,-93.172,0.001067912,-0.1257102,0.09433498,0,0.3,0,0,0,0
638225083943421516,0.4005193,9.37466,3.432048,3.521979,-11.67058,47.24934,47.94452,-0.8883717,-9.105433,-78.21963,-7.642097,14.50875,0,0,0,0.9755136,-88.03951,-28.80143,83.33121,-110.3871,-93.172,0.001067912,-0.1257102,0.09433498,0,0.3,0,0,0,0
638225083943821325,0.02355996,9.281147,4.646106,7.184238,-11.30435,43.80682,47.94452,-0.8883717,-9.105433,-78.21963,-7.642097,14.50875,0,0,0,0.0585571,-88.05525,-25.94423,83.33121,-110.3871,-93.172,0.001067912,-0.1257102,0.09433498,0,0.3,0,0,0,0
638225083944211063,-3.769594,10.12276,5.673386,8.06318,-11.23111,40.80377,47.94452,-0.8883717,-9.105433,-78.21963,-7.642097,14.50875,0,0,0,-9.497225,-85.90949,-24.20568,83.33121,-110.3871,-93.172,0.001067912,-0.1257102,0.09433498,0,0.3,0,0,0,0
638225083944540956,-9.117705,10.82411,6.957485,5.060128,-11.89032,39.5586,47.94452,-0.8883717,-9.105433,-78.29288,-7.642097,14.50875,0,0,0,-23.31477,-83.97564,-23.07847,83.33121,-110.3871,-93.172,0.001067912,-0.1257102,0.09433498,0,0.3,0,0,0,0
638225083944880856,-12.91086,10.45006,8.171543,-1.092466,-13.13548,39.99807,47.94452,-0.8883717,-9.105433,-78.29288,-7.642097,14.50875,0,0,0,-33.53582,-84.45928,-22.05231,83.33121,-110.3871,-93.172,0.001067912,-0.1257102,0.09433498,0,0.3,0,0,0,0
638225083945216490,-13.2407,9.935737,8.28828,-4.242009,-13.86794,41.24324,47.94452,-0.8883717,-9.105433,-78.29288,-7.715342,14.50875,0,0,0,-34.48758,-85.59853,-21.77985,83.33121,-110.3871,-93.172,0.001067912,-0.1257102,0.09433498,0,0.3,0,0,0,0
638225083945556377,-10.90826,8.766827,7.77464,-7.977511,-14.60039,43.88007,47.94452,-0.8883717,-9.105433,-78.29288,-7.715342,14.50875,0,0,0,-28.35362,-88.44987,-21.226,83.33121,-110.3871,-93.172,0.001067912,-0.1257102,0.09433498,0,0.3,0,0,0,0
638225083945896256,-6.879509,7.714807,7.541167,-6.952079,-14.4539,45.05199,47.94452,-0.8883717,-9.105433,-78.21963,-7.642097,14.50875,0,0,0,-17.92458,-90.94543,-19.78375,83.33121,-110.3871,-93.172,0.001067912,-0.1257102,0.09433498,0,0.3,0,0,0,0
638225083946236148,-5.230311,7.223865,7.681251,-4.901215,-14.16092,44.75901,47.94452,-0.8883717,-9.105433,-78.21963,-7.642097,14.50875,0,0,0,-13.68443,-92.03516,-18.8597,83.33121,-110.3871,-93.172,0.001067912,-0.1257102,0.09433498,0,0.3,0,0,0,0
638225083946586038,-4.028753,6.803057,8.241585,0.1527017,-13.35522,43.07437,47.94452,-0.8883717,-9.105433,-78.21963,-7.642097,14.50875,0,0,0,-10.64581,-92.82658,-17.19797,83.33121,-110.3871,-93.172,0.001067912,-0.1257102,0.09433498,0,0.3,0,0,0,0
638225083946925939,-5.772191,6.89657,8.568447,3.521979,-12.8425,41.46298,47.94452,-0.8883717,-9.105433,-78.29288,-7.642097,14.50875,0,0,0,-15.31261,-92.49931,-16.8689,83.33121,-110.3871,-93.172,0.001067912,-0.1257102,0.09433498,0,0.3,0,0,0,0
638225083947255839,-9.306185,6.966705,8.755224,3.448734,-12.54952,40.65728,47.94452,-0.8883717,-9.105433,-78.29288,-7.642097,14.50875,0,0,0,-24.68721,-92.2718,-17.69619,83.33121,-110.3871,-93.172,0.001067912,-0.1257102,0.09433498,0,0.3,0,0,0,0
638225083947595726,-11.2381,6.966705,8.918655,2.130321,-12.54952,40.43755,47.94452,-0.8883717,-9.105433,-78.29288,-7.642097,14.50875,0,0,0,-29.82525,-92.21336,-18.24543,83.33121,-110.3871,-93.172,0.001067912,-0.1257102,0.09433498,0,0.3,0,0,0,0
638225083947925755,-14.70142,6.966705,9.338906,-2.044653,-12.76926,40.29105,47.94452,-0.8883717,-9.105433,-78.21963,-7.642097,14.50875,0,0,0,-39.08359,-92.05819,-19.38721,83.33121,-110.3871,-93.172,0.001067912,-0.1257102,0.09433498,0,0.3,0,0,0,0
638225083948265512,-17.01029,6.966705,9.408949,-6.878834,-13.13548,40.29105,47.94452,-0.8883717,-9.105433,-78.21963,-7.715342,14.50875,0,0,0,-45.10012,-92.03163,-20.92888,83.33121,-110.3871,-93.172,0.001067912,-0.1257102,0.09433498,0,0.3,0,0,0,0
638225083948605405,-17.62285,6.966705,9.315559,-9.22268,-13.13548,39.85158,47.94452,-0.8883717,-9.105433,-78.21963,-7.642097,14.50875,0,0,0,-46.60868,-92.06699,-21.62387,83.33121,-110.3871,-93.172,0.001067912,-0.1257102,0.09433498,0,0.3,0,0,0,0
638225083948935295,-17.97625,7.083596,8.475058,-13.03143,-12.91575,37.06827,47.94452,-0.8883717,-9.105433,-78.21963,-7.715342,14.50875,0,0,0,-46.90607,-92.09946,-23.78408,83.33121,-110.3871,-93.172,0.001067912,-0.1257102,0.09433498,0,0.3,0,0,0,0
638225083949275191,-17.92913,7.364134,7.284348,-15.08229,-12.32979,32.38057,47.94452,-0.8883717,-9.105433,-78.29288,-7.642097,14.50875,0,0,0,-45.91686,-91.83163,-26.43541,83.33121,-110.3871,-93.172,0.001067912,-0.1257102,0.09433498,0,0.3,0,0,0,0
638225083949625079,-17.92913,7.574538,6.864096,-15.44852,-11.96356,29.74375,47.94452,-0.8883717,-9.105433,-78.29288,-7.642097,14.50875,0,0,0,-45.59846,-91.46656,-27.41948,83.33121,-110.3871,-93.172,0.001067912,-0.1257102,0.09433498,0,0.3,0,0,0,0
638225083949964970,-17.92913,8.06548,6.116984,-15.81474,-11.45084,24.32361,47.94452,-0.8883717,-9.105433,-78.29288,-7.642097,14.50875,0,0,0,-45.01875,-90.53112,-29.21116,83.33121,-110.3871,-93.172,0.001067912,-0.1257102,0.09433498,0,0.3,0,0,0,0
638225083950304861,-17.99981,8.158993,5.696733,-15.37527,-11.3776,18.97671,47.94452,-0.8883717,-9.105433,-78.29288,-7.642097,14.50875,0,0,0,-44.88023,-90.41631,-30.22129,83.33121,-110.3871,-93.172,0.001067912,-0.1257102,0.09433498,0,0.3,0,0,0,0
638225083950654735,-18.49457,8.158993,5.650038,-14.71607,-11.45084,13.19034,47.94452,-0.8883717,-9.105433,-78.29288,-7.642097,14.50875,0,0,0,-46.037,-90.42706,-30.71655,83.33121,-110.3871,-93.172,0.001067912,-0.1257102,0.09433498,0,0.3,0,0,0,0
638225083950984639,-18.98933,8.158993,5.743428,-14.56958,-11.59733,10.70001,47.94452,-0.8883717,-9.105433,-78.29288,-7.642097,14.43551,0,0,0,-47.29414,-90.40549,-30.9147,83.33121,-110.3871,-93.172,0.001067912,-0.1257102,0.09433498,0,0.3,0,0,0,0
638225083951324654,-20.56785,8.182371,6.397151,-15.22878,-11.81707,7.403974,47.94452,-0.8883717,-9.105433,-78.21963,-7.715342,14.50875,0,0,0,-51.5909,-90.19073,-30.8604,83.33121,-110.3871,-93.172,0.001067912,-0.1257102,0.09433498,0,0.3,0,0,0,0
638225083951744391,-23.4186,8.20575,8.171543,-17.86561,-12.32979,5.93907,47.94452,-0.8883717,-9.105433,-78.21963,-7.642097,14.50875,0,0,0,-59.98998,-89.61328,-29.84472,83.33121,-110.3871,-93.172,0.001067912,-0.1257102,0.09433498,0,0.3,0,0,0,0
638225083952084292,-25.6568,8.20575,9.875894,-20.64893,-12.91575,6.598277,47.94452,-0.8883717,-9.105433,-78.29288,-7.715342,14.50875,0,0,0,-67.04958,-88.99115,-28.76202,83.33121,-110.3871,-93.172,0.001067912,-0.1257102,0.09433498,0,0.3,0,0,0,0
638225083952424184,-27.18819,8.20575,11.32342,-22.91953,-13.57495,7.843444,47.94452,-0.8883717,-9.105433,-78.21963,-7.715342,14.50875,0,0,0,-72.26911,-88.37146,-27.65823,83.33121,-110.3871,-93.172,0.001067912,-0.1257102,0.09433498,0,0.3,0,0,0,0
