zeyangz2/DNN_classification_different_people_hand/data_by_names/Srikar/srikar_right_5.csv
Timestamp,Therapist joint angle 0,Therapist joint angle 1,Therapist joint angle 2,Therapist joint angle 3,Therapist joint angle 4,Therapist joint angle 5,Patient joint angle 0,Patient joint angle 1,Patient joint angle 2,Patient joint angle 3,Patient joint angle 4,Patient joint angle 5,Virtual joint angle 0,Virtual joint angle 1,Virtual joint angle 2,Therapist position x,Therapist position y,Therapist position z,Patient position x,Patient position y,Patient position z,Virtual position x,Virtual position y,Virtual position z,Assistive Force, Obstacle Force Magnitude, Therapist Constant Force, Patient Constant Force, Recovery Factor, Assistance Level
638224436005907348,0,0,0,0,0,0,0,0,0,0,0,0,0,0,0,0,0,0,0,0,0,0,0,0,0,0.3,0,0,0,0
638224436006017312,-15.05481,0.6078333,-5.019662,5.79258,-8.594284,69.80886,-56.82663,-0.4675641,5.369871,-69.64995,-8.374548,-36.90935,0,0,0,-31.60415,-108.0739,-50.85146,-122.0583,-110.503,-88.55826,0.001067912,-0.1257102,0.09433498,0,0.3,0,0,0.002074228,0
638224436006357204,-15.05481,0.5844551,-5.019662,5.646089,-7.056135,71.05402,-56.82663,-0.4675641,5.369871,-69.64995,-8.447793,-36.90935,0,0,0,-31.6043,-108.1283,-50.85091,-122.0583,-110.503,-88.55826,0.001067912,-0.1257102,0.09433498,0,0.3,0,0,0.002080675,0
638224436006707103,-15.05481,0.5376987,-5.019662,5.646089,-4.126328,75.00926,-56.82663,-0.4675641,5.369871,-69.64995,-8.447793,-36.90935,0,0,0,-31.60458,-108.2371,-50.84988,-122.0583,-110.503,-88.55826,0.001067912,-0.1257102,0.09433498,0,0.3,0,0,0.002093334,0
638224436007046988,-15.05481,0.5376987,-5.019662,5.719335,-1.196521,78.37854,-56.82663,-0.4675641,5.369871,-69.64995,-8.447793,-36.90935,0,0,0,-31.60458,-108.2371,-50.84988,-122.0583,-110.503,-88.55826,0.001067912,-0.1257102,0.09433498,0,0.3,0,0,0.002100402,0
638224436007386865,-15.05481,0.5143204,-5.019662,5.572844,0.6346079,79.69696,-56.82663,-0.4675641,5.369871,-69.5767,-8.447793,-36.83611,0,0,0,-31.60471,-108.2916,-50.8494,-122.0583,-110.503,-88.55826,0.001067912,-0.1257102,0.09433498,0,0.3,0,0,0.002104207,0
638224436007726767,-15.05481,0.5143204,-5.019662,5.279863,2.319247,80.28292,-56.82663,-0.4675641,5.369871,-69.64995,-8.374548,-36.90935,0,0,0,-31.60471,-108.2916,-50.8494,-122.0583,-110.503,-88.55826,0.001067912,-0.1257102,0.09433498,0,0.3,0,0,0.002109488,0
638224436008066662,-15.05481,0.4909423,-4.972968,4.767147,4.296866,80.64914,-56.82663,-0.4675641,5.369871,-69.5767,-8.374548,-36.90935,0,0,0,-31.63295,-108.3554,-50.74439,-122.0583,-110.503,-88.55826,0.001067912,-0.1257102,0.09433498,0,0.3,0,0,0.002101955,0
638224436008396545,-15.05481,0.4909423,-4.94962,4.474167,5.395544,80.79563,-56.82663,-0.4675641,5.369871,-69.64995,-8.374548,-36.83611,0,0,0,-31.64701,-108.3601,-50.69211,-122.0583,-110.503,-88.55826,0.001067912,-0.1257102,0.09433498,0,0.3,0,0,0.002088441,0
638224436008826407,-15.05481,0.4675641,-4.94962,3.009263,8.618331,80.94212,-56.82663,-0.4675641,5.369871,-69.64995,-8.374548,-36.83611,0,0,0,-31.64713,-108.4145,-50.69167,-122.0583,-110.503,-88.55826,0.001067912,-0.1257102,0.09433498,0,0.3,0,0,0.002059394,0
638224436009156315,-15.05481,0.4675641,-4.94962,2.350057,9.8635,81.16187,-56.82663,-0.4675641,5.369871,-69.64995,-8.447793,-36.90935,0,0,0,-31.64713,-108.4145,-50.69167,-122.0583,-110.503,-88.55826,0.001067912,-0.1257102,0.09433498,0,0.3,0,0,0.002052249,0
638224436009496197,-15.05481,0.3740513,-4.94962,0.299192,12.79331,82.04079,-56.82663,-0.4675641,5.369871,-69.64995,-8.374548,-36.90935,0,0,0,-31.64755,-108.6322,-50.69013,-122.0583,-110.503,-88.55826,0.001067912,-0.1257102,0.09433498,0,0.3,0,0,0.002043472,0
638224436009846084,-15.05481,0.3039166,-5.019662,-2.85035,16.08934,83.57895,-56.82663,-0.4675641,5.369871,-69.64995,-8.447793,-36.90935,0,0,0,-31.60562,-108.7812,-50.84602,-122.0583,-110.503,-88.55826,0.001067912,-0.1257102,0.09433498,0,0.3,0,0,0.002057064,0
638224436010185981,-14.96058,0.3039166,-5.066357,-4.388499,17.77398,84.09167,-56.82663,-0.4675641,5.369871,-69.64995,-8.447793,-36.83611,0,0,0,-31.38436,-108.7717,-50.89878,-122.0583,-110.503,-88.55826,0.001067912,-0.1257102,0.09433498,0,0.3,0,0,0.001979553,0
638224436010525865,-14.63074,0.350673,-4.879579,-7.611286,21.07001,84.67763,-56.82663,-0.4675641,5.369871,-69.64995,-8.447793,-36.90935,0,0,0,-30.81693,-108.7005,-50.30163,-122.0583,-110.503,-88.55826,0.001067912,-0.1257102,0.09433498,0,0.3,0,0,0.001279704,0
638224436010865756,-13.97106,0.5844551,-4.249202,-10.98056,24.58578,84.23816,-56.82663,-0.4675641,5.369871,-69.64995,-8.447793,-36.90935,0,0,0,-29.80777,-108.2732,-48.53975,-122.0583,-110.503,-88.55826,0.001067912,-0.1257102,0.09433498,0,0.3,0,0,0,0
638224436011215650,-13.38206,0.9117499,-4.062424,-12.37222,26.12393,84.01842,-56.82663,-0.4675641,5.369871,-69.64995,-8.447793,-36.90935,0,0,0,-28.67262,-107.543,-47.82754,-122.0583,-110.503,-88.55826,0.001067912,-0.1257102,0.09433498,0,0.3,0,0,0,0
638224436011555538,-11.56794,2.174173,-3.268617,-14.56958,29.20022,84.3114,-56.82663,-0.4675641,5.369871,-69.64995,-8.447793,-36.90935,0,0,0,-25.19672,-104.7241,-45.25151,-122.0583,-110.503,-88.55826,0.001067912,-0.1257102,0.09433498,0,0.3,0,0,0,0
638224436011905429,-9.094145,3.693756,-2.007865,-16.03448,31.61732,85.99604,-56.82663,-0.4675641,5.369871,-69.64995,-8.447793,-36.90935,0,0,0,-20.29467,-101.3272,-41.56316,-122.0583,-110.503,-88.55826,0.001067912,-0.1257102,0.09433498,0,0.3,0,0,0,0
638224436012235322,-6.36119,5.143205,-1.844434,-16.76693,33.00897,86.582,-56.82663,-0.4675641,5.369871,-69.64995,-8.447793,-36.90935,0,0,0,-14.23959,-97.97671,-40.62017,-122.0583,-110.503,-88.55826,0.001067912,-0.1257102,0.09433498,0,0.3,0,0,0,0
638224436012585209,-4.806232,6.054955,-1.44753,-16.76693,33.59494,85.9228,-56.82663,-0.4675641,5.369871,-69.64995,-8.447793,-36.83611,0,0,0,-10.82832,-95.89138,-39.56699,-122.0583,-110.503,-88.55826,0.001067912,-0.1257102,0.09433498,0,0.3,0,0,0,0
638224436012925107,-1.602077,8.20575,0.2801672,-16.5472,34.25414,84.01842,-56.82663,-0.4675641,5.369871,-69.64995,-8.447793,-36.90935,0,0,0,-3.708244,-90.96559,-35.76504,-122.0583,-110.503,-88.55826,0.001067912,-0.1257102,0.09433498,0,0.3,0,0,0,0
638224436013334971,2.167516,10.84749,3.011797,-17.05991,35.05984,82.77325,-56.82663,-0.4675641,5.369871,-69.64995,-8.447793,-36.83611,0,0,0,5.21834,-84.71996,-30.47505,-122.0583,-110.503,-88.55826,0.001067912,-0.1257102,0.09433498,0,0.3,0,0,0,0
638224436013674860,4.099433,12.29694,3.945688,-17.2064,35.79229,82.48027,-56.82663,-0.4675641,5.369871,-69.64995,-8.447793,-36.90935,0,0,0,9.97012,-81.28329,-29.24036,-122.0583,-110.503,-88.55826,0.001067912,-0.1257102,0.09433498,0,0.3,0,0,0,0
638224436014004764,5.513031,13.41909,4.482675,-17.05991,36.37825,82.33378,-56.82663,-0.4675641,5.369871,-69.5767,-8.447793,-36.90935,0,0,0,13.46275,-78.64529,-28.86651,-122.0583,-110.503,-88.55826,0.001067912,-0.1257102,0.09433498,0,0.3,0,0,0,0
638224436014354643,8.622946,16.06083,5.299829,-15.7415,37.33044,82.40703,-56.82663,-0.4675641,5.369871,-69.64995,-8.447793,-36.90935,0,0,0,21.05971,-72.53762,-29.47535,-122.0583,-110.503,-88.55826,0.001067912,-0.1257102,0.09433498,0,0.3,0,0,0,0
638224436014694538,11.63862,19.14675,5.696733,-13.32441,37.69667,83.87193,-56.82663,-0.4675641,5.369871,-69.64995,-8.447793,-36.83611,0,0,0,28.08397,-65.60411,-32.00221,-122.0583,-110.503,-88.55826,0.001067912,-0.1257102,0.09433498,0,0.3,0,0,0,0
638224436015034439,14.23022,22.53659,6.653971,-10.76083,37.40368,86.21577,-56.82663,-0.4675641,5.369871,-69.64995,-8.447793,-36.83611,0,0,0,34.07497,-57.99226,-33.98502,-122.0583,-110.503,-88.55826,0.001067912,-0.1257102,0.09433498,0,0.3,0,0,0,0
638224436015374318,15.50245,24.43022,7.331042,-9.588906,37.1107,87.3877,-56.82663,-0.4675641,5.369871,-69.64995,-8.447793,-36.83611,0,0,0,36.99854,-53.7584,-34.95977,-122.0583,-110.503,-88.55826,0.001067912,-0.1257102,0.09433498,0,0.3,0,0,0,0
638224436015714219,17.74065,28.311,8.70853,-8.197248,36.01203,89.73154,-56.82663,-0.4675641,5.369871,-69.64995,-8.447793,-36.83611,0,0,0,41.92482,-45.22044,-37.30324,-122.0583,-110.503,-88.55826,0.001067912,-0.1257102,0.09433498,0,0.3,0,0,0,0
638224436016054103,19.95529,32.96326,11.27673,-8.270493,34.47387,91.92889,-56.82663,-0.4675641,5.369871,-69.64995,-8.447793,-36.83611,0,0,0,47.08377,-34.86967,-38.67363,-122.0583,-110.503,-88.55826,0.001067912,-0.1257102,0.09433498,0,0.3,0,0,0,0
638224436016403992,20.99193,35.23095,12.81765,-8.856454,33.59494,92.66135,-56.82663,-0.4675641,5.369871,-69.64995,-8.447793,-36.90935,0,0,0,49.6187,-29.75096,-39.03439,-122.0583,-110.503,-88.55826,0.001067912,-0.1257102,0.09433498,0,0.3,0,0,0,0
638224436016733884,23.34792,39.29876,16.27304,-10.83407,32.34977,93.97977,-56.82663,-0.4675641,5.369871,-69.64995,-8.374548,-36.83611,0,0,0,55.70587,-20.19852,-39.29963,-122.0583,-110.503,-88.55826,0.001067912,-0.1257102,0.09433498,0,0.3,0,0,0,0
638224436017083774,26.0102,42.24441,19.58836,-12.15249,31.39758,95.95738,-56.82663,-0.4675641,5.369871,-69.64995,-8.447793,-36.90935,0,0,0,62.89578,-12.63196,-39.45277,-122.0583,-110.503,-88.55826,0.001067912,-0.1257102,0.09433498,0,0.3,0,0,0,0
638224436017433668,29.68555,45.14331,23.11379,-11.05381,29.93268,97.42229,-56.82663,-0.4675641,5.369871,-69.64995,-8.447793,-36.90935,0,0,0,72.50517,-4.767356,-41.16039,-122.0583,-110.503,-88.55826,0.001067912,-0.1257102,0.09433498,0,0.3,0,0,0,0
638224436017853530,33.9499,48.04221,26.82601,-6.073137,27.80857,97.71527,-56.82663,-0.4675641,5.369871,-69.5767,-8.374548,-36.83611,0,0,0,83.39828,3.515052,-44.47347,-122.0583,-110.503,-88.55826,0.001067912,-0.1257102,0.09433498,0,0.3,0,0,0,0
638224436018193419,35.74046,49.2345,28.55371,-2.85035,26.85638,97.12931,-56.82663,-0.4675641,5.369871,-69.64995,-8.447793,-36.90935,0,0,0,88.09135,7.217165,-45.94041,-122.0583,-110.503,-88.55826,0.001067912,-0.1257102,0.09433498,0,0.3,0,0,0,0
638224436018533312,39.53362,51.99313,33.71345,6.305296,24.80551,94.63897,-56.82663,-0.4675641,5.369871,-69.64995,-8.447793,-36.83611,0,0,0,99.37877,17.49767,-47.93792,-122.0583,-110.503,-88.55826,0.001067912,-0.1257102,0.09433498,0,0.3,0,0,0,0
638224436018883202,42.26657,54.26081,39.94717,16.12015,22.6814,91.41618,-56.82663,-0.4675641,5.369871,-69.64995,-8.447793,-36.83611,0,0,0,109.9742,29.35707,-47.34816,-122.0583,-110.503,-88.55826,0.001067912,-0.1257102,0.09433498,0,0.3,0,0,0,0
638224436019263087,43.98645,56.43498,45.97077,24.4701,20.70378,86.21577,-56.82663,-0.4675641,5.369871,-69.64995,-8.447793,-36.90935,0,0,0,117.7877,41.78346,-46.3195,-122.0583,-110.503,-88.55826,0.001067912,-0.1257102,0.09433498,0,0.3,0,0,0,0
638224436019572988,44.59901,57.86105,49.12265,28.05911,19.23888,82.8465,-56.82663,-0.4675641,5.369871,-69.64995,-8.374548,-36.83611,0,0,0,120.6041,48.99567,-46.0458,-122.0583,-110.503,-88.55826,0.001067912,-0.1257102,0.09433498,0,0.3,0,0,0,0
638224436019912871,45.35292,60.9236,55.02951,33.91872,15.57662,76.0347,-56.82663,-0.4675641,5.369871,-69.64995,-8.447793,-36.83611,0,0,0,123.8477,63.46407,-46.01871,-122.0583,-110.503,-88.55826,0.001067912,-0.1257102,0.09433498,0,0.3,0,0,0,0
638224436020252764,45.14088,64.61736,60.42272,38.97264,11.3284,69.07641,-56.82663,-0.4675641,5.369871,-69.64995,-8.447793,-36.83611,0,0,0,122.7258,78.00592,-46.22628,-122.0583,-110.503,-88.55826,0.001067912,-0.1257102,0.09433498,0,0.3,0,0,0,0
638224436020592654,44.69325,66.74477,63.10766,41.31649,8.984557,65.41415,-56.82663,-0.4675641,5.369871,-69.64995,-8.447793,-36.90935,0,0,0,120.6738,85.54973,-46.37712,-122.0583,-110.503,-88.55826,0.001067912,-0.1257102,0.09433498,0,0.3,0,0,0,0
638224436020932558,42.92625,71.56068,68.78104,46.5169,3.124943,55.37956,-56.82663,-0.4675641,5.369871,-69.64995,-8.447793,-36.90935,0,0,0,113.3877,101.5899,-46.4423,-122.0583,-110.503,-88.55826,0.001067912,-0.1257102,0.09433498,0,0.3,0,0,0,0
638224436021282434,40.28753,75.39471,72.91351,50.83836,-2.295199,45.93093,-56.82663,-0.4675641,5.369871,-69.64995,-8.447793,-36.90935,0,0,0,104.1644,113.2107,-45.46938,-122.0583,-110.503,-88.55826,0.001067912,-0.1257102,0.09433498,0,0.3,0,0,0,0
638224436021622335,36.28234,79.0417,76.25217,55.67254,-8.521038,35.0174,-56.82663,-0.4675641,5.369871,-69.64995,-8.447793,-36.90935,0,0,0,91.65179,122.578,-43.50057,-122.0583,-110.503,-88.55826,0.001067912,-0.1257102,0.09433498,0,0.3,0,0,0,0
638224436021972222,33.97346,80.53791,77.39619,57.94314,-11.74383,29.37753,-56.82663,-0.4675641,5.369871,-69.64995,-8.447793,-36.90935,0,0,0,84.97172,125.7877,-42.24831,-122.0583,-110.503,-88.55826,0.001067912,-0.1257102,0.09433498,0,0.3,0,0,0,0
638224436022412073,29.07299,82.8056,78.9371,61.6054,-17.60344,20.73459,-56.82663,-0.4675641,5.369871,-69.64995,-8.447793,-36.83611,0,0,0,71.70881,130.0621,-39.37166,-122.0583,-110.503,-88.55826,0.001067912,-0.1257102,0.09433498,0,0.3,0,0,0,0
638224436022741969,23.6542,84.58234,79.84765,64.16898,-23.31656,15.46094,-56.82663,-0.4675641,5.369871,-69.64995,-8.447793,-36.83611,0,0,0,57.71582,132.5992,-36.58361,-122.0583,-110.503,-88.55826,0.001067912,-0.1257102,0.09433498,0,0.3,0,0,0,0
638224436023081869,17.62285,86.05517,80.22121,66.1466,-29.17617,12.82412,-56.82663,-0.4675641,5.369871,-69.64995,-8.447793,-36.90935,0,0,0,42.56256,133.7353,-34.36125,-122.0583,-110.503,-88.55826,0.001067912,-0.1257102,0.09433498,0,0.3,0,0,0,0
638224436023431748,11.04962,87.2007,80.24455,67.09879,-35.5485,11.57895,-56.82663,-0.4675641,5.369871,-69.64995,-8.374548,-36.83611,0,0,0,26.43635,133.9456,-32.97284,-122.0583,-110.503,-88.55826,0.001067912,-0.1257102,0.09433498,0,0.3,0,0,0,0
638224436023881604,2.662276,87.78515,79.89434,67.90449,-44.19143,10.70001,-56.82663,-0.4675641,5.369871,-69.64995,-8.447793,-36.90935,0,0,0,6.337224,133.2023,-32.06252,-122.0583,-110.503,-88.55826,0.001067912,-0.1257102,0.09433498,0,0.3,0,0,0,0
638224436024211508,-0.04711992,87.64488,79.73091,68.05097,-47.26773,10.48027,-56.82663,-0.4675641,5.369871,-69.64995,-8.374548,-36.83611,0,0,0,-0.1124166,132.8149,-31.65639,-122.0583,-110.503,-88.55826,0.001067912,-0.1257102,0.09433498,0,0.3,0,0,0,0
638224436024561394,-3.345515,85.91489,79.24062,67.09879,-55.03172,9.454838,-56.82663,-0.4675641,5.369871,-69.5767,-8.447793,-36.90935,0,0,0,-8.199477,131.4668,-28.08416,-122.0583,-110.503,-88.55826,0.001067912,-0.1257102,0.09433498,0,0.3,0,0,0,0
638224436024891283,-5.79575,83.34329,78.72698,62.99706,-58.62074,12.97061,-56.82663,-0.4675641,5.369871,-69.64995,-8.447793,-36.90935,0,0,0,-14.7672,129.7332,-22.86231,-122.0583,-110.503,-88.55826,0.001067912,-0.1257102,0.09433498,0,0.3,0,0,0,0
638224436025241179,-7.798347,81.28601,77.76974,53.76817,-60.15888,24.83632,-56.82663,-0.4675641,5.369871,-69.64995,-8.374548,-36.83611,0,0,0,-20.42446,126.9117,-19.21578,-122.0583,-110.503,-88.55826,0.001067912,-0.1257102,0.09433498,0,0.3,0,0,0,0
638224436025581063,-8.811425,80.53791,77.18607,46.3704,-60.52511,35.16389,-56.82663,-0.4675641,5.369871,-69.64995,-8.447793,-36.90935,0,0,0,-23.2763,125.3106,-18.1923,-122.0583,-110.503,-88.55826,0.001067912,-0.1257102,0.09433498,0,0.3,0,0,0,0
638224436025910958,-11.4737,79.34563,75.59845,23.59116,-60.30537,70.32157,-56.82663,-0.4675641,5.369871,-69.64995,-8.447793,-36.83611,0,0,0,-30.59639,121.2348,-17.60983,-122.0583,-110.503,-88.55826,0.001067912,-0.1257102,0.09433498,0,0.3,0,0,0,0
638224436026250849,-14.01818,78.43387,74.43108,0.3724372,-58.69398,105.2595,-56.82663,-0.4675641,5.369871,-69.64995,-8.374548,-36.90935,0,0,0,-37.59252,118.2014,-17.77816,-122.0583,-110.503,-88.55826,0.001067912,-0.1257102,0.09433498,0,0.3,0,0,0,0
638224436026590746,-14.91346,77.84942,73.8007,-8.490229,-57.74179,116.2463,-56.82663,-0.4675641,5.369871,-69.64995,-8.447793,-36.90935,0,0,0,-40.17987,116.5108,-17.48555,-122.0583,-110.503,-88.55826,0.001067912,-0.1257102,0.09433498,0,0.3,0,0,0,0
638224436026920634,-17.08097,76.16618,72.51661,-21.45462,-55.54444,125.2555,-56.82663,-0.4675641,5.369871,-69.64995,-8.447793,-36.90935,0,0,0,-46.72386,112.7697,-16.29205,-122.0583,-110.503,-88.55826,0.001067912,-0.1257102,0.09433498,0,0.3,0,0,0,0
638224436027270524,-19.41341,74.64661,72.28313,-27.97344,-53.8598,131.4813,-56.82663,-0.4675641,5.369871,-69.64995,-8.447793,-36.83611,0,0,0,-53.95647,111.3607,-15.24665,-122.0583,-110.503,-88.55826,0.001067912,-0.1257102,0.09433498,0,0.3,0,0,0,0
638224436027620414,-23.23012,72.4023,72.23644,-38.59399,-51.29622,144.0062,-56.82663,-0.4675641,5.369871,-69.5767,-8.374548,-36.83611,0,0,0,-65.99059,109.7759,-14.60571,-122.0583,-110.503,-88.55826,0.001067912,-0.1257102,0.09433498,0,0.3,0,0,0,0
638224436027960312,-25.20916,70.92947,72.07301,-44.45361,-49.46509,144.6654,-56.82663,-0.4675641,5.369871,-69.64995,-8.447793,-36.83611,0,0,0,-72.59681,108.3356,-14.13792,-122.0583,-110.503,-88.55826,0.001067912,-0.1257102,0.09433498,0,0.3,0,0,0,0
638224436028390183,-29.28503,67.11882,71.41929,-54.70793,-44.41117,144.8119,-56.82663,-0.4675641,5.369871,-69.64995,-8.374548,-36.90935,0,0,0,-87.1911,103.7164,-12.88213,-122.0583,-110.503,-88.55826,0.001067912,-0.1257102,0.09433498,0,0.3,0,0,0,0
638224436028730058,-32.98395,63.00426,71.37259,-62.39867,-37.9656,144.8119,-56.82663,-0.4675641,5.369871,-69.64995,-8.447793,-36.90935,0,0,0,-101.7466,99.57654,-11.57785,-122.0583,-110.503,-88.55826,0.001067912,-0.1257102,0.09433498,0,0.3,0,0,0,0
638224436029099942,-35.4813,59.49752,71.39594,-68.62451,-31.1538,144.8119,-56.82663,-0.4675641,5.369871,-69.64995,-8.374548,-36.83611,0,0,0,-112.6438,95.70314,-10.32019,-122.0583,-110.503,-88.55826,0.001067912,-0.1257102,0.09433498,0,0.3,0,0,0,0
638224436029439833,-37.6017,56.2012,71.46598,-72.43327,-25.22094,144.9584,-56.82663,-0.4675641,5.369871,-69.64995,-8.374548,-36.90935,0,0,0,-122.4081,91.77568,-9.409618,-122.0583,-110.503,-88.55826,0.001067912,-0.1257102,0.09433498,0,0.3,0,0,0,0
638224436029899683,-40.02837,52.71785,72.04967,-75.94903,-18.40914,144.8119,-56.82663,-0.4675641,5.369871,-69.64995,-8.374548,-36.90935,0,0,0,-133.5437,88.35408,-9.358811,-122.0583,-110.503,-88.55826,0.001067912,-0.1257102,0.09433498,0,0.3,0,0,0,0
638224436030239585,-41.46553,51.12813,72.44656,-78.51261,-14.08767,144.226,-56.82663,-0.4675641,5.369871,-69.5767,-8.374548,-36.90935,0,0,0,-139.6042,86.95212,-10.36469,-122.0583,-110.503,-88.55826,0.001067912,-0.1257102,0.09433498,0,0.3,0,0,0,0
638224436030579663,-42.21945,50.38003,72.63335,-79.97752,-11.74383,142.3948,-56.82663,-0.4675641,5.369871,-69.64995,-8.447793,-36.83611,0,0,0,-142.6647,86.26527,-11.1201,-122.0583,-110.503,-88.55826,0.001067912,-0.1257102,0.09433498,0,0.3,0,0,0,0
638224436030919363,-43.84509,48.83707,73.49719,-83.63977,-7.642097,136.9014,-56.82663,-0.4675641,5.369871,-69.64995,-8.447793,-36.83611,0,0,0,-149.3679,85.86162,-12.83573,-122.0583,-110.503,-88.55826,0.001067912,-0.1257102,0.09433498,0,0.3,0,0,0,0
638224436031249263,-45.40005,47.57465,74.291,-87.0823,-4.199574,130.3826,-56.82663,-0.4675641,5.369871,-69.64995,-8.447793,-36.90935,0,0,0,-155.4575,85.67848,-15.0483,-122.0583,-110.503,-88.55826,0.001067912,-0.1257102,0.09433498,0,0.3,0,0,0,0
638224436031589156,-46.15396,47.06033,74.47778,-89.05991,-2.58818,126.3541,-56.82663,-0.4675641,5.369871,-69.64995,-8.374548,-36.90935,0,0,0,-158.1802,85.28564,-16.41645,-122.0583,-110.503,-88.55826,0.001067912,-0.1257102,0.09433498,0,0.3,0,0,0,0
638224436031939038,-47.6618,46.35898,74.71125,-92.64893,-0.02459868,116.6858,-56.82663,-0.4675641,5.369871,-69.64995,-8.447793,-36.83611,0,0,0,-163.1083,84.69023,-19.73393,-122.0583,-110.503,-88.55826,0.001067912,-0.1257102,0.09433498,0,0.3,0,0,0,0
638224436032278942,-48.79268,46.21871,74.82799,-95.65198,2.246002,103.4284,-56.82663,-0.4675641,5.369871,-69.64995,-8.447793,-36.90935,0,0,0,-166.2409,84.72679,-22.77955,-122.0583,-110.503,-88.55826,0.001067912,-0.1257102,0.09433498,0,0.3,0,0,0,0
638224436032618826,-49.21676,46.52262,75.01476,-98.28881,4.003886,91.19645,-56.82663,-0.4675641,5.369871,-69.64995,-8.374548,-36.90935,0,0,0,-167.0118,85.63458,-24.27453,-122.0583,-110.503,-88.55826,0.001067912,-0.1257102,0.09433498,0,0.3,0,0,0,0
638224436032958718,-49.1932,47.15384,75.6218,-99.68047,4.882828,85.70306,-56.82663,-0.4675641,5.369871,-69.64995,-8.447793,-36.83611,0,0,0,-166.4124,88.00618,-24.67215,-122.0583,-110.503,-88.55826,0.001067912,-0.1257102,0.09433498,0,0.3,0,0,0,0
638224436033288612,-48.74556,48.46302,76.55569,-100.8524,5.542034,82.04079,-56.82663,-0.4675641,5.369871,-69.64995,-8.447793,-36.83611,0,0,0,-163.9806,92.16228,-24.52041,-122.0583,-110.503,-88.55826,0.001067912,-0.1257102,0.09433498,0,0.3,0,0,0,0
638224436033638501,-47.44976,51.22165,78.26003,-102.3173,5.615279,80.06318,-56.82663,-0.4675641,5.369871,-69.64995,-8.374548,-36.90935,0,0,0,-157.7086,100.1735,-23.5821,-122.0583,-110.503,-88.55826,0.001067912,-0.1257102,0.09433498,0,0.3,0,0,0,0
638224436033978386,-46.55449,53.11528,79.14723,-102.9765,5.322299,80.64914,-56.82663,-0.4675641,5.369871,-69.64995,-8.447793,-36.90935,0,0,0,-153.1939,104.9014,-23.25105,-122.0583,-110.503,-88.55826,0.001067912,-0.1257102,0.09433498,0,0.3,0,0,0,0
638224436034418244,-43.58593,58.70267,81.62204,-104.5879,3.051698,86.14253,-56.82663,-0.4675641,5.369871,-69.64995,-8.447793,-36.90935,0,0,0,-138.7153,117.8659,-22.6129,-122.0583,-110.503,-88.55826,0.001067912,-0.1257102,0.09433498,0,0.3,0,0,0,0
638224436034748141,-42.36081,60.47941,82.74271,-105.3203,1.953021,88.70612,-56.82663,-0.4675641,5.369871,-69.64995,-8.447793,-36.83611,0,0,0,-133.4038,122.5429,-22.05335,-122.0583,-110.503,-88.55826,0.001067912,-0.1257102,0.09433498,0,0.3,0,0,0,0
638224436035098028,-39.60429,63.44844,85.38095,-107.1515,-0.5373149,94.49248,-56.82663,-0.4675641,5.369871,-69.64995,-8.447793,-36.83611,0,0,0,-122.731,131.8972,-20.01634,-122.0583,-110.503,-88.55826,0.001067912,-0.1257102,0.09433498,0,0.3,0,0,0,0
638224436035437920,-36.70642,65.8564,88.06589,-109.5686,-3.393876,100.8648,-56.82663,-0.4675641,5.369871,-69.64995,-8.447793,-36.83611,0,0,0,-112.2613,140.5344,-17.77507,-122.0583,-110.503,-88.55826,0.001067912,-0.1257102,0.09433498,0,0.3,0,0,0,0
638224436035767821,-35.26926,66.9318,89.30329,-110.887,-4.85878,104.0876,-56.82663,-0.4675641,5.369871,-69.64995,-8.447793,-36.83611,0,0,0,-107.1634,144.4157,-16.82533,-122.0583,-110.503,-88.55826,0.001067912,-0.1257102,0.09433498,0,0.3,0,0,0,0
638224436036107714,-32.18291,68.91895,91.80145,-113.597,-7.861832,110.8261,-56.82663,-0.4675641,5.369871,-69.64995,-8.374548,-36.90935,0,0,0,-96.53728,151.9672,-14.94992,-122.0583,-110.503,-88.55826,0.001067912,-0.1257102,0.09433498,0,0.3,0,0,0,0
638224436036447765,-29.14367,70.39178,94.3463,-117.1861,-10.5719,118.1507,-56.82663,-0.4675641,5.369871,-69.64995,-8.447793,-36.90935,0,0,0,-86.54842,159.0728,-13.13172,-122.0583,-110.503,-88.55826,0.001067912,-0.1257102,0.09433498,0,0.3,0,0,0,0
638224436036787500,-27.6594,71.04636,95.56036,-119.3102,-11.89032,121.9594,-56.82663,-0.4675641,5.369871,-69.5767,-8.374548,-36.90935,0,0,0,-81.718,162.3908,-12.43176,-122.0583,-110.503,-88.55826,0.001067912,-0.1257102,0.09433498,0,0.3,0,0,0,0
638224436037127388,-24.54948,72.47243,97.73165,-124.7303,-14.67363,130.4559,-56.82663,-0.4675641,5.369871,-69.64995,-8.374548,-36.90935,0,0,0,-71.5862,168.4489,-11.62723,-122.0583,-110.503,-88.55826,0.001067912,-0.1257102,0.09433498,0,0.3,0,0,0,0
638224436037457284,-21.0626,74.27255,99.22588,-130.2969,-17.01748,140.6369,-56.82663,-0.4675641,5.369871,-69.64995,-8.374548,-36.83611,0,0,0,-60.29487,173.0872,-11.78803,-122.0583,-110.503,-88.55826,0.001067912,-0.1257102,0.09433498,0,0.3,0,0,0,0
638224436037807161,-19.10713,75.16093,100.0197,-133.3732,-18.26265,144.226,-56.82663,-0.4675641,5.369871,-69.64995,-8.447793,-36.90935,0,0,0,-54.16347,175.4537,-11.99815,-122.0583,-110.503,-88.55826,0.001067912,-0.1257102,0.09433498,0,0.3,0,0,0,0
638224436038147127,-14.96058,77.12469,101.9342,-142.5289,-20.82623,144.8119,-56.82663,-0.4675641,5.369871,-69.64995,-8.447793,-36.83611,0,0,0,-41.35172,180.9223,-13.59745,-122.0583,-110.503,-88.55826,0.001067912,-0.1257102,0.09433498,0,0.3,0,0,0,0
638224436038486950,-10.46062,79.50927,102.8914,-154.1749,-23.31656,144.8852,-56.82663,-0.4675641,5.369871,-69.64995,-8.374548,-36.83611,0,0,0,-28.009,184.2219,-16.64519,-122.0583,-110.503,-88.55826,0.001067912,-0.1257102,0.09433498,0,0.3,0,0,0,0
638224436038946811,-6.573229,82.19776,102.191,-161.4994,-26.09988,144.8852,-56.82663,-0.4675641,5.369871,-69.64995,-8.447793,-36.83611,0,0,0,-16.99302,183.6252,-20.88015,-122.0583,-110.503,-88.55826,0.001067912,-0.1257102,0.09433498,0,0.3,0,0,0,0
638224436039286699,-3.251275,84.46545,101.0003,-162.1586,-29.90863,144.9584,-56.82663,-0.4675641,5.369871,-69.64995,-8.447793,-36.90935,0,0,0,-8.153401,181.5233,-24.82046,-122.0583,-110.503,-88.55826,0.001067912,-0.1257102,0.09433498,0,0.3,0,0,0,0
638224436039626590,-0.09423985,85.68111,100.6501,-162.2318,-33.05817,144.8119,-56.82663,-0.4675641,5.369871,-69.64995,-8.374548,-36.90935,0,0,0,-0.2320726,180.9658,-27.255,-122.0583,-110.503,-88.55826,0.001067912,-0.1257102,0.09433498,0,0.3,0,0,0,0
638224436039956484,1.319358,86.05517,100.5333,-162.2318,-34.30334,144.8852,-56.82663,-0.4675641,5.369871,-69.5767,-8.447793,-36.83611,0,0,0,3.229888,180.7614,-28.11036,-122.0583,-110.503,-88.55826,0.001067912,-0.1257102,0.09433498,0,0.3,0,0,0,0
638224436040296378,4.429273,86.56949,99.9263,-162.2318,-36.57394,144.8852,-56.82663,-0.4675641,5.369871,-69.64995,-8.447793,-36.90935,0,0,0,10.76048,179.4481,-29.43294,-122.0583,-110.503,-88.55826,0.001067912,-0.1257102,0.09433498,0,0.3,0,0,0,0
638224436040636269,7.939706,87.08381,98.68889,-162.2318,-39.06427,143.8597,-56.82663,-0.4675641,5.369871,-69.64995,-8.447793,-36.90935,0,0,0,19.14547,176.6724,-31.07488,-122.0583,-110.503,-88.55826,0.001067912,-0.1257102,0.09433498,0,0.3,0,0,0,0
638224436040986168,9.518225,87.27083,98.1519,-162.2318,-40.30944,141.6624,-56.82663,-0.4675641,5.369871,-69.64995,-8.374548,-36.90935,0,0,0,22.87807,175.4575,-31.90265,-122.0583,-110.503,-88.55826,0.001067912,-0.1257102,0.09433498,0,0.3,0,0,0,0
638224436041316050,12.51034,87.64488,96.89115,-162.2318,-43.53223,138.0733,-56.82663,-0.4675641,5.369871,-69.64995,-8.447793,-36.83611,0,0,0,29.86404,172.5872,-33.75696,-122.0583,-110.503,-88.55826,0.001067912,-0.1257102,0.09433498,0,0.3,0,0,0,0
638224436041665939,15.26685,87.87867,95.53701,-162.2318,-46.97475,135.8027,-56.82663,-0.4675641,5.369871,-69.64995,-8.447793,-36.83611,0,0,0,36.24896,169.4754,-35.54431,-122.0583,-110.503,-88.55826,0.001067912,-0.1257102,0.09433498,0,0.3,0,0,0,0
638224436042005832,16.72757,87.92542,94.83659,-162.2318,-48.73264,135.1435,-56.82663,-0.4675641,5.369871,-69.64995,-8.447793,-36.83611,0,0,0,39.63372,167.8559,-36.47453,-122.0583,-110.503,-88.55826,0.001067912,-0.1257102,0.09433498,0,0.3,0,0,0,0
638224436042355720,19.60189,87.90205,93.41241,-162.3051,-52.10191,134.1181,-56.82663,-0.4675641,5.369871,-69.64995,-8.374548,-36.90935,0,0,0,46.29501,164.548,-38.35207,-122.0583,-110.503,-88.55826,0.001067912,-0.1257102,0.09433498,0,0.3,0,0,0,0
638224436042695611,22.42908,87.90205,91.66136,-162.2318,-55.83742,133.4589,-56.82663,-0.4675641,5.369871,-69.64995,-8.374548,-36.90935,0,0,0,52.71948,160.4767,-40.62701,-122.0583,-110.503,-88.55826,0.001067912,-0.1257102,0.09433498,0,0.3,0,0,0,0
638224436043035503,23.79556,87.9488,91.59132,-162.2318,-58.84047,131.2616,-56.82663,-0.4675641,5.369871,-69.64995,-8.374548,-36.83611,0,0,0,55.70832,160.3177,-42.01582,-122.0583,-110.503,-88.55826,0.001067912,-0.1257102,0.09433498,0,0.3,0,0,0,0
638224436043475363,24.8322,87.87867,91.59132,-162.2318,-60.30537,129.2107,-56.82663,-0.4675641,5.369871,-69.64995,-8.447793,-36.90935,0,0,0,58.05331,160.3118,-42.89632,-122.0583,-110.503,-88.55826,0.001067912,-0.1257102,0.09433498,0,0.3,0,0,0,0
638224436043805258,25.11492,87.83191,91.59132,-162.3051,-60.52511,128.8445,-56.82663,-0.4675641,5.369871,-69.64995,-8.447793,-36.83611,0,0,0,58.7178,160.3077,-43.08584,-122.0583,-110.503,-88.55826,0.001067912,-0.1257102,0.09433498,0,0.3,0,0,0,0
638224436044135153,25.68036,87.62151,91.66136,-162.3051,-60.96458,128.2585,-56.82663,-0.4675641,5.369871,-69.64995,-8.374548,-36.90935,0,0,0,60.16116,160.4512,-43.2346,-122.0583,-110.503,-88.55826,0.001067912,-0.1257102,0.09433498,0,0.3,0,0,0,0
638224436044475042,26.0102,87.45786,91.80145,-162.3051,-61.11107,128.1853,-56.82663,-0.4675641,5.369871,-69.64995,-8.447793,-36.83611,0,0,0,61.04297,160.7608,-43.24987,-122.0583,-110.503,-88.55826,0.001067912,-0.1257102,0.09433498,0,0.3,0,0,0,0
638224436044814937,26.38716,87.36434,91.80145,-162.2318,-61.18431,128.1853,-56.82663,-0.4675641,5.369871,-69.64995,-8.447793,-36.83611,0,0,0,61.96133,160.7509,-43.45943,-122.0583,-110.503,-88.55826,0.001067912,-0.1257102,0.09433498,0,0.3,0,0,0,0
638224436045154826,26.50496,87.34097,91.7781,-162.3051,-61.25756,128.1853,-56.82663,-0.4675641,5.369871,-69.64995,-8.447793,-36.83611,0,0,0,62.24298,160.6941,-43.53692,-122.0583,-110.503,-88.55826,0.001067912,-0.1257102,0.09433498,0,0.3,0,0,0,0
638224436045494721,26.45784,87.27083,91.24112,-162.3051,-61.25756,132.4335,-56.82663,-0.4675641,5.369871,-69.64995,-8.374548,-36.83611,0,0,0,62.22763,159.4371,-43.31033,-122.0583,-110.503,-88.55826,0.001067912,-0.1257102,0.09433498,0,0.3,0,0,0,0
638224436045834605,25.46832,87.2007,90.19049,-160.3275,-61.25756,144.5189,-56.82663,-0.4675641,5.369871,-69.64995,-8.374548,-36.90935,0,0,0,60.14223,156.9842,-42.07956,-122.0583,-110.503,-88.55826,0.001067912,-0.1257102,0.09433498,0,0.3,0,0,0,0
638224436046174502,24.7144,87.24746,89.6068,-153.7354,-61.25756,144.8852,-56.82663,-0.4675641,5.369871,-69.64995,-8.447793,-36.90935,0,0,0,58.42911,155.631,-41.40006,-122.0583,-110.503,-88.55826,0.001067912,-0.1257102,0.09433498,0,0.3,0,0,0,0
638224436046524385,22.2406,87.7384,88.11259,-128.2461,-61.25756,138.7326,-56.82663,-0.4675641,5.369871,-69.64995,-8.447793,-36.90935,0,0,0,52.43692,152.2041,-40.11708,-122.0583,-110.503,-88.55826,0.001067912,-0.1257102,0.09433498,0,0.3,0,0,0,0
638224436046874286,20.12021,87.80853,86.22145,-106.4923,-60.96458,122.8384,-56.82663,-0.4675641,5.369871,-69.64995,-8.447793,-36.83611,0,0,0,47.52554,147.8147,-38.62215,-122.0583,-110.503,-88.55826,0.001067912,-0.1257102,0.09433498,0,0.3,0,0,0,0
638224436047224159,17.24589,87.36434,80.33794,-75.94903,-57.5953,100.6451,-56.82663,-0.4675641,5.369871,-69.64995,-8.447793,-36.90935,0,0,0,40.79187,134.1779,-36.94544,-122.0583,-110.503,-88.55826,0.001067912,-0.1257102,0.09433498,0,0.3,0,0,0,0
638224436047554051,15.90297,87.13057,77.13937,-64.01007,-54.44576,92.7346,-56.82663,-0.4675641,5.369871,-69.64995,-8.447793,-36.83611,0,0,0,37.45166,126.8517,-36.9008,-122.0583,-110.503,-88.55826,0.001067912,-0.1257102,0.09433498,0,0.3,0,0,0,0
638224436048013907,13.5941,87.01367,70.81226,-47.82288,-46.68177,82.8465,-56.82663,-0.4675641,5.369871,-69.5767,-8.374548,-36.83611,0,0,0,31.23454,112.6915,-39.18367,-122.0583,-110.503,-88.55826,0.001067912,-0.1257102,0.09433498,0,0.3,0,0,0,0
638224436048343803,12.01558,86.82665,64.83536,-38.66724,-38.69805,76.91364,-56.82663,-0.4675641,5.369871,-69.64995,-8.447793,-36.90935,0,0,0,26.66248,99.79232,-43.08043,-122.0583,-110.503,-88.55826,0.001067912,-0.1257102,0.09433498,0,0.3,0,0,0,0
638224436048693690,11.92134,86.75651,60.09586,-33.54007,-31.30029,72.51893,-56.82663,-0.4675641,5.369871,-69.64995,-8.374548,-36.90935,0,0,0,25.43701,90.0047,-47.86515,-122.0583,-110.503,-88.55826,0.001067912,-0.1257102,0.09433498,0,0.3,0,0,0,0
638224436049033583,13.99462,87.08381,56.59377,-29.73133,-25.29418,68.71018,-56.82663,-0.4675641,5.369871,-69.64995,-8.447793,-36.90935,0,0,0,28.56098,83.1086,-53.7523,-122.0583,-110.503,-88.55826,0.001067912,-0.1257102,0.09433498,0,0.3,0,0,0,0
638224436049363476,15.80873,87.17731,55.19294,-27.53397,-22.80385,66.65932,-56.82663,-0.4675641,5.369871,-69.64995,-8.374548,-36.83611,0,0,0,31.61724,80.42005,-56.68201,-122.0583,-110.503,-88.55826,0.001067912,-0.1257102,0.09433498,0,0.3,0,0,0,0
638224436049703376,20.54428,87.17731,53.58197,-22.84628,-18.9951,62.26461,-56.82663,-0.4675641,5.369871,-69.64995,-8.374548,-36.90935,0,0,0,39.96213,77.37204,-61.71775,-122.0583,-110.503,-88.55826,0.001067912,-0.1257102,0.09433498,0,0.3,0,0,0,0
638224436050043268,26.64632,86.89678,53.37185,-16.84018,-16.65125,56.55148,-56.82663,-0.4675641,5.369871,-69.64995,-8.447793,-36.83611,0,0,0,51.23255,76.94528,-66.2472,-122.0583,-110.503,-88.55826,0.001067912,-0.1257102,0.09433498,0,0.3,0,0,0,0
638224436050393156,29.89759,86.28895,53.48859,-13.03143,-16.06529,53.10896,-56.82663,-0.4675641,5.369871,-69.64995,-8.447793,-36.90935,0,0,0,57.72543,77.07941,-67.95264,-122.0583,-110.503,-88.55826,0.001067912,-0.1257102,0.09433498,0,0.3,0,0,0,0
638224436050733037,35.52842,84.25504,54.00222,-5.560421,-15.25959,46.3704,-56.82663,-0.4675641,5.369871,-69.64995,-8.447793,-36.90935,0,0,0,70.44981,77.65325,-69.68657,-122.0583,-110.503,-88.55826,0.001067912,-0.1257102,0.09433498,0,0.3,0,0,0,0
638224436051072930,40.78229,81.61331,55.54315,2.423302,-14.30741,39.26562,-56.82663,-0.4675641,5.369871,-69.64995,-8.447793,-36.83611,0,0,0,84.5247,79.82649,-70.36598,-122.0583,-110.503,-88.55826,0.001067912,-0.1257102,0.09433498,0,0.3,0,0,0,0
638224436051412824,43.04405,80.35088,56.92064,6.378541,-13.94118,35.45687,-56.82663,-0.4675641,5.369871,-69.64995,-8.447793,-36.83611,0,0,0,91.5227,82.031,-70.35507,-122.0583,-110.503,-88.55826,0.001067912,-0.1257102,0.09433498,0,0.3,0,0,0,0
638224436051752714,46.79008,77.8728,61.23988,14.65524,-13.28197,27.25341,-56.82663,-0.4675641,5.369871,-69.64995,-8.374548,-36.83611,0,0,0,105.6211,89.5636,-69.13076,-122.0583,-110.503,-88.55826,0.001067912,-0.1257102,0.09433498,0,0.3,0,0,0,0
638224436052092606,49.05184,75.86227,66.44632,22.71221,-13.13548,19.04996,-56.82663,-0.4675641,5.369871,-69.64995,-8.447793,-36.90935,0,0,0,116.9294,99.37327,-66.89039,-122.0583,-110.503,-88.55826,0.001067912,-0.1257102,0.09433498,0,0.3,0,0,0,0
638224436052532466,50.3712,73.01012,75.22489,33.03978,-13.79469,8.136425,-56.82663,-0.4675641,5.369871,-69.64995,-8.447793,-36.90935,0,0,0,129.3199,116.8724,-61.25772,-122.0583,-110.503,-88.55826,0.001067912,-0.1257102,0.09433498,0,0.3,0,0,0,0
638224436052862365,50.44188,71.18663,80.82823,39.11913,-14.38065,1.54436,-56.82663,-0.4675641,5.369871,-69.5767,-8.447793,-36.90935,0,0,0,134.6505,128.3204,-57.12311,-122.0583,-110.503,-88.55826,0.001067912,-0.1257102,0.09433498,0,0.3,0,0,0,0
638224436053192254,50.15916,69.80731,84.51711,43.4406,-14.82012,-3.363066,-56.82663,-0.4675641,5.369871,-69.64995,-8.447793,-36.83611,0,0,0,137.264,135.7625,-53.82008,-122.0583,-110.503,-88.55826,0.001067912,-0.1257102,0.09433498,0,0.3,0,0,0,0
638224436053542156,48.86336,67.11882,91.63802,51.86379,-15.25959,-13.69064,-56.82663,-0.4675641,5.369871,-69.64995,-8.447793,-36.83611,0,0,0,139.4405,150.0189,-46.55117,-122.0583,-110.503,-88.55826,0.001067912,-0.1257102,0.09433498,0,0.3,0,0,0,0
638224436053872038,46.955,64.89789,98.31534,59.77427,-14.96661,-23.43224,-56.82663,-0.4675641,5.369871,-69.64995,-8.374548,-36.90935,0,0,0,137.7735,163.3907,-39.67174,-122.0583,-110.503,-88.55826,0.001067912,-0.1257102,0.09433498,0,0.3,0,0,0,0
638224436054211932,45.70633,64.19655,101.2804,63.65627,-14.67363,-28.26642,-56.82663,-0.4675641,5.369871,-69.64995,-8.447793,-36.90935,0,0,0,135.1511,169.4888,-36.49072,-122.0583,-110.503,-88.55826,0.001067912,-0.1257102,0.09433498,0,0.3,0,0,0,0
638224436054551822,43.23253,64.10303,104.1288,70.54131,-14.4539,-36.39664,-56.82663,-0.4675641,5.369871,-69.64995,-8.374548,-36.83611,0,0,0,128.4694,175.8602,-31.69956,-122.0583,-110.503,-88.55826,0.001067912,-0.1257102,0.09433498,0,0.3,0,0,0,0
638224436054891719,41.20637,65.90316,104.0821,74.35006,-15.55258,-41.30406,-56.82663,-0.4675641,5.369871,-69.64995,-8.374548,-36.83611,0,0,0,121.0738,177.5251,-30.07958,-122.0583,-110.503,-88.55826,0.001067912,-0.1257102,0.09433498,0,0.3,0,0,0,0
638224436055231605,39.58073,68.56827,104.0821,76.32768,-17.01748,-43.57467,-56.82663,-0.4675641,5.369871,-69.64995,-8.447793,-36.90935,0,0,0,113.4584,179.925,-31.10837,-122.0583,-110.503,-88.55826,0.001067912,-0.1257102,0.09433498,0,0.3,0,0,0,0
638224436055581492,38.33206,70.74244,104.0588,77.57285,-18.26265,-44.52685,-56.82663,-0.4675641,5.369871,-69.64995,-8.447793,-36.83611,0,0,0,107.5065,181.6314,-32.37963,-122.0583,-110.503,-88.55826,0.001067912,-0.1257102,0.09433498,0,0.3,0,0,0,0
638224436055921386,37.17762,72.4023,103.7319,78.67152,-19.28808,-44.6001,-56.82663,-0.4675641,5.369871,-69.64995,-8.447793,-36.90935,0,0,0,102.641,182.1141,-33.01578,-122.0583,-110.503,-88.55826,0.001067912,-0.1257102,0.09433498,0,0.3,0,0,0,0
638224436056261284,35.4813,74.59985,101.6073,78.9645,-21.11921,-41.5238,-56.82663,-0.4675641,5.369871,-69.64995,-8.447793,-36.83611,0,0,0,96.37301,178.7424,-33.14671,-122.0583,-110.503,-88.55826,0.001067912,-0.1257102,0.09433498,0,0.3,0,0,0,0
638224436056601175,34.79806,75.67525,100.1131,78.15881,-22.36438,-38.66724,-56.82663,-0.4675641,5.369871,-69.64995,-8.447793,-36.90935,0,0,0,93.7473,175.9691,-33.45557,-122.0583,-110.503,-88.55826,0.001067912,-0.1257102,0.09433498,0,0.3,0,0,0,0
638224436057051024,34.04414,78.55077,95.46697,73.10489,-26.4661,-28.19318,-56.82663,-0.4675641,5.369871,-69.64995,-8.447793,-36.90935,0,0,0,89.13265,166.751,-36.42477,-122.0583,-110.503,-88.55826,0.001067912,-0.1257102,0.09433498,0,0.3,0,0,0,0
638224436057380927,34.04414,79.11184,94.08949,71.27377,-27.41829,-25.19013,-56.82663,-0.4675641,5.369871,-69.64995,-8.447793,-36.83611,0,0,0,88.56494,163.8092,-37.26504,-122.0583,-110.503,-88.55826,0.001067912,-0.1257102,0.09433498,0,0.3,0,0,0,0
638224436057720818,34.16194,79.97683,90.02706,66.1466,-28.95644,-16.76693,-56.82663,-0.4675641,5.369871,-69.64995,-8.447793,-36.90935,0,0,0,87.91322,154.7277,-38.80462,-122.0583,-110.503,-88.55826,0.001067912,-0.1257102,0.09433498,0,0.3,0,0,0,0
638224436058060707,34.16194,80.63142,84.89066,59.11506,-29.68889,-6.146383,-56.82663,-0.4675641,5.369871,-69.64995,-8.447793,-36.90935,0,0,0,86.77243,143.0456,-40.48564,-122.0583,-110.503,-88.55826,0.001067912,-0.1257102,0.09433498,0,0.3,0,0,0,0
638224436058400613,34.16194,80.8652,82.57928,55.59929,-29.61565,-0.7262403,-56.82663,-0.4675641,5.369871,-69.64995,-8.447793,-36.90935,0,0,0,86.14124,137.7861,-41.41573,-122.0583,-110.503,-88.55826,0.001067912,-0.1257102,0.09433498,0,0.3,0,0,0,0
638224436058740485,34.09126,81.1925,78.02657,48.27478,-28.73671,10.0408,-56.82663,-0.4675641,5.369871,-69.64995,-8.374548,-36.83611,0,0,0,84.56272,127.463,-43.41035,-122.0583,-110.503,-88.55826,0.001067912,-0.1257102,0.09433498,0,0.3,0,0,0,0
638224436059080384,34.0677,81.66006,74.17426,41.60947,-26.97882,19.48943,-56.82663,-0.4675641,5.369871,-69.64995,-8.374548,-36.90935,0,0,0,82.70231,118.9236,-46.05076,-122.0583,-110.503,-88.55826,0.001067912,-0.1257102,0.09433498,0,0.3,0,0,0,0
638224436059420276,34.16194,82.43155,70.04179,36.40906,-24.26875,26.37447,-56.82663,-0.4675641,5.369871,-69.64995,-8.447793,-36.83611,0,0,0,80.24593,110.0213,-50.10284,-122.0583,-110.503,-88.55826,0.001067912,-0.1257102,0.09433498,0,0.3,0,0,0,0
638224436059750170,34.1855,82.8056,67.61369,34.28495,-22.80385,29.0113,-56.82663,-0.4675641,5.369871,-69.64995,-8.447793,-36.90935,0,0,0,78.66272,104.8638,-52.53831,-122.0583,-110.503,-88.55826,0.001067912,-0.1257102,0.09433498,0,0.3,0,0,0,0
638224436060100058,34.16194,83.10951,61.19318,29.67051,-18.1894,34.28495,-56.82663,-0.4675641,5.369871,-69.64995,-8.447793,-36.90935,0,0,0,74.5976,91.48109,-58.42598,-122.0583,-110.503,-88.55826,0.001067912,-0.1257102,0.09433498,0,0.3,0,0,0,0
638224436060439951,34.16194,83.016,56.7572,27.10692,-14.30741,36.92178,-56.82663,-0.4675641,5.369871,-69.64995,-8.447793,-36.90935,0,0,0,71.73161,82.60968,-62.64919,-122.0583,-110.503,-88.55826,0.001067912,-0.1257102,0.09433498,0,0.3,0,0,0,0
638224436060789830,34.16194,82.92249,53.93219,25.71527,-11.59733,38.0937,-56.82663,-0.4675641,5.369871,-69.64995,-8.374548,-36.83611,0,0,0,69.75368,77.17513,-65.56379,-122.0583,-110.503,-88.55826,0.001067912,-0.1257102,0.09433498,0,0.3,0,0,0,0
638224436061129738,34.11483,82.61857,48.44558,23.22493,-6.396928,39.85158,-56.82663,-0.4675641,5.369871,-69.64995,-8.447793,-36.83611,0,0,0,65.57568,67.1397,-71.54907,-122.0583,-110.503,-88.55826,0.001067912,-0.1257102,0.09433498,0,0.3,0,0,0,0
638224436061469618,33.87922,81.94061,43.93955,21.24731,-1.489502,40.73053,-56.82663,-0.4675641,5.369871,-69.64995,-8.374548,-36.83611,0,0,0,62.00287,59.3613,-76.00768,-122.0583,-110.503,-88.55826,0.001067912,-0.1257102,0.09433498,0,0.3,0,0,0,0
638224436061819511,33.45514,81.09899,40.92776,19.85565,2.465737,41.31649,-56.82663,-0.4675641,5.369871,-69.64995,-8.374548,-36.90935,0,0,0,59.53397,54.34333,-78.25081,-122.0583,-110.503,-88.55826,0.001067912,-0.1257102,0.09433498,0,0.3,0,0,0,0
638224436062159403,33.19599,80.67818,39.87713,19.26969,4.370111,41.53622,-56.82663,-0.4675641,5.369871,-69.64995,-8.447793,-36.90935,0,0,0,58.6358,52.60339,-78.7314,-122.0583,-110.503,-88.55826,0.001067912,-0.1257102,0.09433498,0,0.3,0,0,0,0
638224436062499285,32.84259,79.97683,38.59303,18.39075,7.666144,41.90245,-56.82663,-0.4675641,5.369871,-69.64995,-8.374548,-36.90935,0,0,0,57.6992,50.43887,-78.96435,-122.0583,-110.503,-88.55826,0.001067912,-0.1257102,0.09433498,0,0.3,0,0,0,0
638224436062839177,32.72478,79.64954,38.31286,18.02452,9.424027,42.04893,-56.82663,-0.4675641,5.369871,-69.64995,-8.447793,-36.90935,0,0,0,57.64455,49.89865,-78.64477,-122.0583,-110.503,-88.55826,0.001067912,-0.1257102,0.09433498,0,0.3,0,0,0,0
638224436063169071,32.53631,79.53265,38.26617,17.95128,10.44946,42.04893,-56.82663,-0.4675641,5.369871,-69.64995,-8.447793,-36.90935,0,0,0,57.44718,49.78215,-78.30196,-122.0583,-110.503,-88.55826,0.001067912,-0.1257102,0.09433498,0,0.3,0,0,0,0
638224436063508973,32.20647,79.50927,38.26617,17.95128,10.74244,42.04893,-56.82663,-0.4675641,5.369871,-69.64995,-8.374548,-36.90935,0,0,0,56.95636,49.77226,-77.92747,-122.0583,-110.503,-88.55826,0.001067912,-0.1257102,0.09433498,0,0.3,0,0,0,0
638224436063848857,31.66459,79.50927,38.26617,17.87803,10.6692,41.97569,-56.82663,-0.4675641,5.369871,-69.64995,-8.447793,-36.90935,0,0,0,56.09865,49.77226,-77.39285,-122.0583,-110.503,-88.55826,0.001067912,-0.1257102,0.09433498,0,0.3,0,0,0,0
638224436064198742,31.45255,79.50927,38.28952,17.73154,10.59595,42.04893,-56.82663,-0.4675641,5.369871,-69.64995,-8.447793,-36.90935,0,0,0,55.78391,49.80592,-77.14948,-122.0583,-110.503,-88.55826,0.001067912,-0.1257102,0.09433498,0,0.3,0,0,0,0
638224436064628606,31.40543,79.85995,38.52299,17.58505,10.52271,41.90245,-56.82663,-0.4675641,5.369871,-69.64995,-8.447793,-36.83611,0,0,0,55.51236,50.28963,-77.42553,-122.0583,-110.503,-88.55826,0.001067912,-0.1257102,0.09433498,0,0.3,0,0,0,0
638224436064978493,31.61747,80.25737,38.73312,17.58505,10.52271,41.60947,-56.82663,-0.4675641,5.369871,-69.64995,-8.374548,-36.90935,0,0,0,55.57112,50.75462,-78.0821,-122.0583,-110.503,-88.55826,0.001067912,-0.1257102,0.09433498,0,0.3,0,0,0,0
638224436065308390,32.18291,81.80033,39.2701,18.24426,10.22972,40.51079,-56.82663,-0.4675641,5.369871,-69.64995,-8.374548,-36.90935,0,0,0,55.0873,52.10112,-80.81495,-122.0583,-110.503,-88.55826,0.001067912,-0.1257102,0.09433498,0,0.3,0,0,0,0
638224436065648282,32.27715,83.41343,39.64366,19.26969,9.277537,38.89939,-56.82663,-0.4675641,5.369871,-69.64995,-8.447793,-36.90935,0,0,0,53.60154,53.1367,-83.48582,-122.0583,-110.503,-88.55826,0.001067912,-0.1257102,0.09433498,0,0.3,0,0,0,0
638224436065988171,32.04155,83.74072,39.78374,19.85565,8.691576,38.02045,-56.82663,-0.4675641,5.369871,-69.5767,-8.374548,-36.90935,0,0,0,52.98359,53.43023,-83.69518,-122.0583,-110.503,-88.55826,0.001067912,-0.1257102,0.09433498,0,0.3,0,0,0,0
638224436066328067,30.43947,83.20303,39.80709,20.73459,7.812634,37.06827,-56.82663,-0.4675641,5.369871,-69.64995,-8.447793,-36.83611,0,0,0,51.24717,53.32273,-81.13902,-122.0583,-110.503,-88.55826,0.001067912,-0.1257102,0.09433498,0,0.3,0,0,0,0
638224436066657958,27.18819,82.45493,39.80709,21.17406,7.592898,37.36125,-56.82663,-0.4675641,5.369871,-69.64995,-8.447793,-36.83611,0,0,0,47.00783,53.10539,-76.83629,-122.0583,-110.503,-88.55826,0.001067912,-0.1257102,0.09433498,0,0.3,0,0,0,0
638224436067007846,24.87932,82.45493,39.80709,21.10082,7.666144,38.0937,-56.82663,-0.4675641,5.369871,-69.64995,-8.374548,-36.83611,0,0,0,43.28289,53.10539,-75.01679,-122.0583,-110.503,-88.55826,0.001067912,-0.1257102,0.09433498,0,0.3,0,0,0,0
638224436067347737,19.53121,83.29654,39.92382,19.85565,7.373164,40.73053,-56.82663,-0.4675641,5.369871,-69.64995,-8.447793,-36.90935,0,0,0,33.81512,53.52247,-73.02409,-122.0583,-110.503,-88.55826,0.001067912,-0.1257102,0.09433498,0,0.3,0,0,0,0
638224436067687638,13.05222,85.58761,40.92776,17.43856,6.274486,44.61252,-56.82663,-0.4675641,5.369871,-69.64995,-8.374548,-36.83611,0,0,0,22.04589,55.55402,-73.25423,-122.0583,-110.503,-88.55826,0.001067912,-0.1257102,0.09433498,0,0.3,0,0,0,0
638224436068037521,6.973749,90.09959,44.19638,14.14253,4.077131,48.56776,-56.82663,-0.4675641,5.369871,-69.64995,-8.447793,-36.90935,0,0,0,11.25867,61.09389,-76.3069,-122.0583,-110.503,-88.55826,0.001067912,-0.1257102,0.09433498,0,0.3,0,0,0,0
638224436068377419,3.958073,93.76997,47.18483,12.01842,1.953021,50.83836,-56.82663,-0.4675641,5.369871,-69.64995,-8.374548,-36.90935,0,0,0,6.146876,65.78203,-79.51142,-122.0583,-110.503,-88.55826,0.001067912,-0.1257102,0.09433498,0,0.3,0,0,0,0
638224436068717302,-1.766997,101.8588,55.72992,7.110993,-4.932025,55.89228,-56.82663,-0.4675641,5.369871,-69.64995,-8.374548,-36.90935,0,0,0,-2.553013,78.76524,-85.5935,-122.0583,-110.503,-88.55826,0.001067912,-0.1257102,0.09433498,0,0.3,0,0,0,0
638224436069157161,-6.10203,101.6952,54.49252,0.8119082,-12.03681,62.92381,-56.82663,-0.4675641,5.369871,-69.64995,-8.447793,-36.90935,0,0,0,-8.665676,76.48072,-87.29041,-122.0583,-110.503,-88.55826,0.001067912,-0.1257102,0.09433498,0,0.3,0,0,0,0
638224436069497052,-7.562747,101.625,52.04106,-5.120951,-13.86794,70.17509,-56.80307,-0.4675641,5.369871,-69.64995,-8.374548,-36.83611,0,0,0,-10.30116,71.94148,-90.76165,-122.0255,-110.503,-88.50807,0.001067912,-0.1257102,0.09433498,0,0.3,0,0,0,0
638224436069836953,-6.172709,101.5783,51.6675,-9.076189,-13.50171,74.20357,-56.80307,-0.4675641,5.346524,-69.64995,-8.447793,-36.83611,0,0,0,-8.369679,71.27962,-90.96251,-121.9802,-110.508,-88.5377,0.001067912,-0.1257102,0.09433498,0,0.3,0,0,0,0
638224436070186833,-4.570632,101.5783,52.22783,-9.881886,-13.50171,75.44874,-56.80307,-0.4675641,5.346524,-69.64995,-8.447793,-36.83611,0,0,0,-6.266873,72.30655,-89.95748,-121.9802,-110.508,-88.5377,0.001067912,-0.1257102,0.09433498,0,0.3,0,0,0,0
638224436070516728,-0.6596789,100.4795,54.91277,-9.36917,-14.4539,76.91364,-56.80307,-0.4675641,5.346524,-69.5767,-8.521038,-36.83611,0,0,0,-0.9770558,77.82309,-83.49251,-121.9802,-110.508,-88.5377,0.001067912,-0.1257102,0.09433498,0,0.3,0,0,0,0
638224436070856618,1.672757,97.95467,57.69109,-6.659099,-16.43152,77.42635,-56.80307,-0.4675641,5.346524,-69.50346,-8.521038,-36.90935,0,0,0,2.751259,84.14348,-74.13983,-121.9802,-110.508,-88.5377,0.001067912,-0.1257102,0.09433498,0,0.3,0,0,0,0
638224436071196510,1.884797,96.17793,58.85846,-5.047705,-17.60344,77.57285,-56.80307,-0.4675641,5.346524,-69.50346,-8.447793,-36.90935,0,0,0,3.281848,86.96307,-68.62138,-121.9802,-110.508,-88.5377,0.001067912,-0.1257102,0.09433498,0,0.3,0,0,0,0
638224436071526414,1.814117,92.4608,60.49277,-2.630615,-19.28808,78.15881,-56.80307,-0.4675641,5.346524,-69.43021,-8.521038,-36.90935,0,0,0,3.492661,90.89769,-58.07714,-121.9802,-110.508,-88.5377,0.001067912,-0.1257102,0.09433498,0,0.3,0,0,0,0
638224436071876295,1.602077,89.18784,62.7808,-1.092466,-20.60649,80.20967,-56.80307,-0.4675641,5.346524,-69.43021,-8.447793,-36.83611,0,0,0,3.368181,95.69285,-47.92371,-121.9802,-110.508,-88.5377,0.001067912,-0.1257102,0.09433498,0,0.3,0,0,0,0
638224436072206190,1.460718,87.76178,64.13494,-0.5065048,-21.41219,81.67458,-56.80307,-0.4675641,5.346524,-69.43021,-8.447793,-36.90935,0,0,0,3.19153,98.4239,-43.19125,-121.9802,-110.508,-88.5377,0.001067912,-0.1257102,0.09433498,0,0.3,0,0,0,0
638224436072546080,1.437158,85.72787,65.69921,0.5189275,-23.38981,84.53114,-56.80307,-0.4675641,5.346524,-69.43021,-8.447793,-36.90935,0,0,0,3.297298,101.4524,-36.92276,-121.9802,-110.508,-88.5377,0.001067912,-0.1257102,0.09433498,0,0.3,0,0,0,0
638224436072895969,1.413598,84.97977,64.74197,1.764095,-24.70822,86.87498,-56.80307,-0.4675641,5.346524,-69.43021,-8.447793,-36.83611,0,0,0,3.263031,99.2886,-36.12001,-121.9802,-110.508,-88.5377,0.001067912,-0.1257102,0.09433498,0,0.3,0,0,0,0
638224436073245856,0.9895183,84.93301,62.03368,2.496547,-24.56173,90.3175,-56.80307,-0.4675641,5.346524,-69.43021,-8.521038,-36.83611,0,0,0,2.237356,93.64408,-38.81395,-121.9802,-110.508,-88.5377,0.001067912,-0.1257102,0.09433498,0,0.3,0,0,0,0
638224436073675722,-0.6832389,84.18491,58.29812,2.057076,-22.29113,96.61659,-56.80307,-0.4675641,5.346524,-69.43021,-8.447793,-36.83611,0,0,0,-1.513982,85.93842,-41.39486,-121.9802,-110.508,-88.5377,0.001067912,-0.1257102,0.09433498,0,0.3,0,0,0,0
638224436074025612,-2.874315,82.54844,55.84666,1.178134,-19.6543,102.5494,-56.80307,-0.4675641,5.346524,-69.43021,-8.447793,-36.90935,0,0,0,-6.400842,80.70986,-40.86449,-121.9802,-110.508,-88.5377,0.001067912,-0.1257102,0.09433498,0,0.3,0,0,0,0
638224436074355502,-4.476392,81.23926,54.77269,0.5189275,-17.89642,105.9187,-56.80307,-0.4675641,5.346524,-69.43021,-8.447793,-36.83611,0,0,0,-10.08696,78.22501,-39.50425,-121.9802,-110.508,-88.5377,0.001067912,-0.1257102,0.09433498,0,0.3,0,0,0,0
638224436074685396,-7.539187,78.48063,53.32516,-0.57975,-15.03986,111.9248,-56.80307,-0.4675641,5.346524,-69.43021,-8.447793,-36.83611,0,0,0,-17.52648,74.3676,-35.92311,-121.9802,-110.508,-88.5377,0.001067912,-0.1257102,0.09433498,0,0.3,0,0,0,0
638224436075025292,-11.28522,75.23106,51.48072,-1.019221,-12.1833,118.5901,-56.80307,-0.4675641,5.346524,-69.43021,-8.447793,-36.83611,0,0,0,-27.06959,69.2469,-32.69786,-121.9802,-110.508,-88.5377,0.001067912,-0.1257102,0.09433498,0,0.3,0,0,0,0
638224436075365190,-13.14646,73.54783,50.00984,-1.165711,-10.71839,121.8862,-56.80307,-0.4675641,5.346524,-69.43021,-8.447793,-36.83611,0,0,0,-31.8266,65.54201,-32.08394,-121.9802,-110.508,-88.5377,0.001067912,-0.1257102,0.09433498,0,0.3,0,0,0,0
638224436075695075,-17.19877,69.52678,45.66725,-1.605182,-6.470173,130.2361,-56.80307,-0.4675641,5.346524,-69.43021,-8.447793,-36.83611,0,0,0,-41.99537,55.08884,-32.67459,-121.9802,-110.508,-88.5377,0.001067912,-0.1257102,0.09433498,0,0.3,0,0,0,0
638224436076034980,-20.85056,64.68748,40.78767,-3.582802,-0.2443342,138.6593,-56.80307,-0.4675641,5.346524,-69.43021,-8.521038,-36.83611,0,0,0,-51.29918,42.93293,-33.66215,-121.9802,-110.508,-88.5377,0.001067912,-0.1257102,0.09433498,0,0.3,0,0,0,0
638224436076374873,-22.05212,62.25616,37.986,-4.681479,3.78415,142.6878,-56.80307,-0.4675641,5.346524,-69.43021,-8.447793,-36.90935,0,0,0,-54.12103,36.26848,-34.74581,-121.9802,-110.508,-88.5377,0.001067912,-0.1257102,0.09433498,0,0.3,0,0,0,0
638224436076714752,-23.46572,57.20647,32.12584,-6.073137,15.2104,144.8852,-56.80307,-0.4675641,5.346524,-69.43021,-8.447793,-36.90935,0,0,0,-56.99723,22.51596,-37.05058,-121.9802,-110.508,-88.5377,0.001067912,-0.1257102,0.09433498,0,0.3,0,0,0,0
638224436077044653,-24.0076,55.17256,29.044,-6.146383,23.04763,144.8119,-56.80307,-0.4675641,5.346524,-69.43021,-8.447793,-36.83611,0,0,0,-57.32464,16.23293,-39.64271,-121.9802,-110.508,-88.5377,0.001067912,-0.1257102,0.09433498,0,0.3,0,0,0,0
638224436077384544,-24.33744,54.56472,27.45638,-6.219628,27.58883,144.8852,-56.80307,-0.4675641,5.346524,-69.43021,-8.447793,-36.83611,0,0,0,-57.20009,13.66998,-41.88625,-121.9802,-110.508,-88.5377,0.001067912,-0.1257102,0.09433498,0,0.3,0,0,0,0
638224436077724572,-24.69084,54.77513,25.26174,-6.659099,35.13308,144.8852,-56.80307,-0.4675641,5.346524,-69.43021,-8.447793,-36.90935,0,0,0,-55.90045,11.68546,-46.7625,-121.9802,-110.508,-88.5377,0.001067912,-0.1257102,0.09433498,0,0.3,0,0,0,0
638224436078054330,-24.87932,55.75702,24.86484,-7.391551,39.60104,144.8119,-56.80307,-0.4675641,5.346524,-69.43021,-8.447793,-36.90935,0,0,0,-55.15799,12.59618,-49.40987,-121.9802,-110.508,-88.5377,0.001067912,-0.1257102,0.09433498,0,0.3,0,0,0,0
638224436078394223,-25.02068,56.34147,25.07496,-7.904267,41.06594,144.8852,-56.80307,-0.4675641,5.346524,-69.43021,-8.447793,-36.83611,0,0,0,-55.16155,13.5623,-50.16706,-121.9802,-110.508,-88.5377,0.001067912,-0.1257102,0.09433498,0,0.3,0,0,0,0
638224436078734250,-25.25628,57.60389,26.26567,-9.36917,42.4576,144.8119,-56.80307,-0.4675641,5.346524,-69.43021,-8.447793,-36.90935,0,0,0,-55.66171,16.36414,-50.3638,-121.9802,-110.508,-88.5377,0.001067912,-0.1257102,0.09433498,0,0.3,0,0,0,0
638224436079074005,-25.3034,59.05334,27.87663,-11.05381,42.16462,144.8852,-56.80307,-0.4675641,5.346524,-69.43021,-8.447793,-36.90935,0,0,0,-55.95853,19.84157,-49.98698,-121.9802,-110.508,-88.5377,0.001067912,-0.1257102,0.09433498,0,0.3,0,0,0,0
638224436079413891,-25.3034,59.91833,28.81053,-11.85951,41.57866,144.8852,-56.80307,-0.4675641,5.346524,-69.43021,-8.447793,-36.90935,0,0,0,-56.03487,21.89565,-49.82552,-121.9802,-110.508,-88.5377,0.001067912,-0.1257102,0.09433498,0,0.3,0,0,0,0
638224436079753782,-25.3034,62.48994,31.26199,-13.76388,38.86858,144.8119,-56.80307,-0.4675641,5.346524,-69.43021,-8.447793,-36.83611,0,0,0,-55.90423,27.63406,-50.10183,-121.9802,-110.508,-88.5377,0.001067912,-0.1257102,0.09433498,0,0.3,0,0,0,0
638224436080083683,-25.3034,64.29005,32.80291,-15.00905,36.67123,144.8119,-56.80307,-0.4675641,5.346524,-69.43021,-8.447793,-36.83611,0,0,0,-55.60271,31.41269,-50.7396,-121.9802,-110.508,-88.5377,0.001067912,-0.1257102,0.09433498,0,0.3,0,0,0,0
638224436080443560,-25.11492,66.46423,34.29713,-16.47395,33.52169,144.8852,-56.80307,-0.4675641,5.346524,-69.50346,-8.447793,-36.83611,0,0,0,-54.49332,35.44278,-52.09802,-121.9802,-110.508,-88.5377,0.001067912,-0.1257102,0.09433498,0,0.3,0,0,0,0
638224436080783458,-24.92644,67.39936,34.69404,-17.05991,32.20328,144.8119,-56.80307,-0.4675641,5.346524,-69.43021,-8.447793,-36.83611,0,0,0,-53.58757,36.8187,-53.04482,-121.9802,-110.508,-88.5377,0.001067912,-0.1257102,0.09433498,0,0.3,0,0,0,0
638224436081223320,-23.27724,70.88271,35.09094,-18.52482,28.0283,141.6624,-56.80307,-0.4675641,5.346524,-69.43021,-8.447793,-36.83611,0,0,0,-47.55297,40.23338,-57.81241,-121.9802,-110.508,-88.5377,0.001067912,-0.1257102,0.09433498,0,0.3,0,0,0,0
638224436081553214,-22.4762,72.02824,35.06759,-18.67131,26.92962,139.465,-56.80307,-0.4675641,5.346524,-69.43021,-8.447793,-36.90935,0,0,0,-45.01966,41.05007,-59.53513,-121.9802,-110.508,-88.5377,0.001067912,-0.1257102,0.09433498,0,0.3,0,0,0,0
638224436081893108,-21.27464,73.94525,35.09094,-18.74455,24.95201,136.0225,-56.80307,-0.4675641,5.346524,-69.43021,-8.447793,-36.83611,0,0,0,-41.19615,42.38668,-62.54903,-121.9802,-110.508,-88.5377,0.001067912,-0.1257102,0.09433498,0,0.3,0,0,0,0
638224436082242995,-20.07309,75.48822,35.11428,-18.89104,23.4871,133.4589,-56.80307,-0.4675641,5.346524,-69.43021,-8.447793,-36.83611,0,0,0,-37.79484,43.36448,-64.92023,-121.9802,-110.508,-88.5377,0.001067912,-0.1257102,0.09433498,0,0.3,0,0,0,0
638224436082582886,-19.31917,76.18957,35.11428,-19.03753,22.97438,132.0673,-56.80307,-0.4675641,5.346524,-69.50346,-8.521038,-36.90935,0,0,0,-35.90704,43.76382,-65.92546,-121.9802,-110.508,-88.5377,0.001067912,-0.1257102,0.09433498,0,0.3,0,0,0,0
638224436082922778,-17.43437,77.75591,35.23103,-18.96429,21.94895,129.0642,-56.80307,-0.4675641,5.346524,-69.43021,-8.447793,-36.83611,0,0,0,-31.52131,44.74205,-67.97641,-121.9802,-110.508,-88.5377,0.001067912,-0.1257102,0.09433498,0,0.3,0,0,0,0
638224436083262661,-15.69093,79.32224,35.27772,-18.37833,20.99677,126.7936,-56.80307,-0.4675641,5.346524,-69.50346,-8.447793,-36.83611,0,0,0,-27.51073,45.52911,-70.41798,-121.9802,-110.508,-88.5377,0.001067912,-0.1257102,0.09433498,0,0.3,0,0,0,0
638224436083602559,-14.7721,80.09372,35.25437,-17.93885,20.63054,125.9147,-56.80307,-0.4675641,5.346524,-69.50346,-8.447793,-36.83611,0,0,0,-25.47499,45.81854,-71.74056,-121.9802,-110.508,-88.5377,0.001067912,-0.1257102,0.09433498,0,0.3,0,0,0,0
638224436083942452,-12.79306,81.44966,35.25437,-17.05991,19.97133,123.8638,-56.80307,-0.4675641,5.346524,-69.43021,-8.447793,-36.90935,0,0,0,-21.43377,46.32462,-73.95599,-121.9802,-110.508,-88.5377,0.001067912,-0.1257102,0.09433498,0,0.3,0,0,0,0
638224436084282345,-11.09674,82.33804,35.25437,-15.81474,19.45862,121.8862,-56.80307,-0.4675641,5.346524,-69.50346,-8.447793,-36.90935,0,0,0,-18.23616,46.61616,-75.37153,-121.9802,-110.508,-88.5377,0.001067912,-0.1257102,0.09433498,0,0.3,0,0,0,0
638224436084622255,-9.683144,82.75884,35.30106,-14.71607,19.38537,120.5678,-56.80307,-0.4675641,5.346524,-69.43021,-8.447793,-36.83611,0,0,0,-15.78847,46.80594,-75.81977,-121.9802,-110.508,-88.5377,0.001067912,-0.1257102,0.09433498,0,0.3,0,0,0,0
638224436084952131,-8.952785,82.87573,35.37111,-14.2766,19.38537,119.8353,-56.80307,-0.4675641,5.346524,-69.43021,-8.447793,-36.90935,0,0,0,-14.58641,46.93424,-75.7613,-121.9802,-110.508,-88.5377,0.001067912,-0.1257102,0.09433498,0,0.3,0,0,0,0
638224436085292026,-7.515628,83.06276,35.4645,-13.10467,19.45862,118.5901,-56.80307,-0.4675641,5.346524,-69.43021,-8.447793,-36.83611,0,0,0,-12.22631,47.11348,-75.67728,-121.9802,-110.508,-88.5377,0.001067912,-0.1257102,0.09433498,0,0.3,0,0,0,0
638224436085741877,-5.98423,83.27316,35.51119,-11.93275,19.82484,117.345,-56.80307,-0.4675641,5.346524,-69.43021,-8.447793,-36.83611,0,0,0,-9.703824,47.23483,-75.77919,-121.9802,-110.508,-88.5377,0.001067912,-0.1257102,0.09433498,0,0.3,0,0,0,0
638224436086071766,-3.722474,83.41343,35.53454,-10.68758,20.55729,116.0266,-56.80307,-0.4675641,5.346524,-69.43021,-8.447793,-36.90935,0,0,0,-6.024791,47.30424,-75.7478,-121.9802,-110.508,-88.5377,0.001067912,-0.1257102,0.09433498,0,0.3,0,0,0,0
638224436086421668,-0.612559,83.41343,35.55789,-9.36917,21.43624,114.0489,-56.80307,-0.4675641,5.346524,-69.43021,-8.447793,-36.83611,0,0,0,-0.992573,47.33583,-75.51311,-121.9802,-110.508,-88.5377,0.001067912,-0.1257102,0.09433498,0,0.3,0,0,0,0
638224436086761553,1.272238,83.39005,35.55789,-8.490229,21.87571,113.0235,-56.80307,-0.4675641,5.346524,-69.50346,-8.447793,-36.90935,0,0,0,2.062568,47.32958,-75.47665,-121.9802,-110.508,-88.5377,0.001067912,-0.1257102,0.09433498,0,0.3,0,0,0,0
638224436087101444,5.536591,83.29654,35.8147,-6.366118,22.90114,110.2402,-56.80307,-0.4675641,5.346524,-69.43021,-8.447793,-36.83611,0,0,0,9.030459,47.65303,-75.18874,-121.9802,-110.508,-88.5377,0.001067912,-0.1257102,0.09433498,0,0.3,0,0,0,0
638224436087441331,9.918744,83.10951,37.16885,-4.315253,23.26737,106.9442,-56.80307,-0.4675641,5.346524,-69.43021,-8.447793,-36.90935,0,0,0,16.63325,49.47577,-73.22954,-121.9802,-110.508,-88.5377,0.001067912,-0.1257102,0.09433498,0,0.3,0,0,0,0
638224436087781228,12.39254,83.08614,38.33621,-3.070086,23.04763,104.9665,-56.80307,-0.4675641,5.346524,-69.43021,-8.447793,-36.83611,0,0,0,21.19598,51.13263,-71.88528,-121.9802,-110.508,-88.5377,0.001067912,-0.1257102,0.09433498,0,0.3,0,0,0,0
638224436088121125,16.89249,83.10951,41.16123,-0.4332596,21.80246,101.1578,-56.80307,-0.4675641,5.346524,-69.43021,-8.447793,-36.90935,0,0,0,30.15217,55.34291,-69.06076,-121.9802,-110.508,-88.5377,0.001067912,-0.1257102,0.09433498,0,0.3,0,0,0,0
638224436088461011,20.54428,83.13289,44.8034,2.716283,19.45862,97.12931,-56.80307,-0.4675641,5.346524,-69.43021,-8.447793,-36.90935,0,0,0,38.57185,61.12769,-65.42748,-121.9802,-110.508,-88.5377,0.001067912,-0.1257102,0.09433498,0,0.3,0,0,0,0
638224436088800903,21.72228,83.13289,46.43771,4.107941,18.06696,95.51791,-56.80307,-0.4675641,5.346524,-69.50346,-8.447793,-36.90935,0,0,0,41.66421,63.84618,-63.77089,-121.9802,-110.508,-88.5377,0.001067912,-0.1257102,0.09433498,0,0.3,0,0,0,0
638224436089140785,23.08876,83.10951,49.72968,6.671522,14.69768,92.5881,-56.80307,-0.4675641,5.346524,-69.43021,-8.447793,-36.83611,0,0,0,46.17439,69.54012,-60.03679,-121.9802,-110.508,-88.5377,0.001067912,-0.1257102,0.09433498,0,0.3,0,0,0,0
638224436089480686,23.55996,82.99262,53.13838,8.50265,10.59595,90.68373,-56.80307,-0.4675641,5.346524,-69.50346,-8.447793,-36.90935,0,0,0,49.14812,75.70934,-55.63978,-121.9802,-110.508,-88.5377,0.001067912,-0.1257102,0.09433498,0,0.3,0,0,0,0
638224436089820580,23.63064,82.64195,56.29026,9.894309,6.201241,89.65829,-56.80307,-0.4675641,5.346524,-69.50346,-8.447793,-36.90935,0,0,0,51.31003,81.59452,-51.07697,-121.9802,-110.508,-88.5377,0.001067912,-0.1257102,0.09433498,0,0.3,0,0,0,0
638224436090250440,23.63064,82.17439,59.769,11.5057,1.367059,88.55962,-56.80307,-0.4675641,5.346524,-69.50346,-8.447793,-36.90935,0,0,0,53.46049,88.31806,-46.16193,-121.9802,-110.508,-88.5377,0.001067912,-0.1257102,0.09433498,0,0.3,0,0,0,0
638224436090590324,23.63064,82.01073,61.26323,12.23815,-0.8302955,88.12015,-56.80307,-0.4675641,5.346524,-69.50346,-8.447793,-36.90935,0,0,0,54.29778,91.29285,-44.24825,-121.9802,-110.508,-88.5377,0.001067912,-0.1257102,0.09433498,0,0.3,0,0,0,0
638224436090920223,23.48928,81.68344,64.15829,13.99604,-5.444741,86.80173,-56.80307,-0.4675641,5.346524,-69.43021,-8.447793,-36.83611,0,0,0,55.52314,97.17223,-40.59016,-121.9802,-110.508,-88.5377,0.001067912,-0.1257102,0.09433498,0,0.3,0,0,0,0
638224436091260110,23.23012,81.5198,66.16615,15.68068,-9.839451,85.62981,-56.80307,-0.4675641,5.346524,-69.43021,-8.447793,-36.90935,0,0,0,55.8675,101.3572,-38.19038,-121.9802,-110.508,-88.5377,0.001067912,-0.1257102,0.09433498,0,0.3,0,0,0,0
638224436091610001,23.183,81.5198,66.67979,16.41313,-11.74383,85.33684,-56.80307,-0.4675641,5.346524,-69.43021,-8.447793,-36.90935,0,0,0,55.94867,102.4529,-37.70493,-121.9802,-110.508,-88.5377,0.001067912,-0.1257102,0.09433498,0,0.3,0,0,0,0
638224436091959886,23.13588,81.61331,66.93661,17.43856,-14.74688,84.82411,-56.80307,-0.4675641,5.346524,-69.43021,-8.447793,-36.90935,0,0,0,55.84911,103.0342,-37.64048,-121.9802,-110.508,-88.5377,0.001067912,-0.1257102,0.09433498,0,0.3,0,0,0,0
638224436092289780,23.183,82.10425,66.91327,18.02452,-16.21178,84.38464,-56.80307,-0.4675641,5.346524,-69.43021,-8.447793,-36.90935,0,0,0,55.50293,103.146,-38.7458,-121.9802,-110.508,-88.5377,0.001067912,-0.1257102,0.09433498,0,0.3,0,0,0,0
638224436092639670,23.08876,83.08614,66.91327,18.53724,-17.16397,83.94518,-56.80307,-0.4675641,5.346524,-69.43021,-8.447793,-36.83611,0,0,0,54.40099,103.4406,-40.73931,-121.9802,-110.508,-88.5377,0.001067912,-0.1257102,0.09433498,0,0.3,0,0,0,0
638224436092979563,22.75892,83.60046,66.91327,18.75698,-17.60344,83.87193,-56.80307,-0.4675641,5.346524,-69.50346,-8.447793,-36.90935,0,0,0,53.20551,103.5793,-41.52463,-121.9802,-110.508,-88.5377,0.001067912,-0.1257102,0.09433498,0,0.3,0,0,0,0
638224436093319454,20.63853,84.39532,66.67979,18.83022,-18.26265,83.87193,-56.80307,-0.4675641,5.346524,-69.50346,-8.447793,-36.90935,0,0,0,47.75268,103.2733,-41.56497,-121.9802,-110.508,-88.5377,0.001067912,-0.1257102,0.09433498,0,0.3,0,0,0,0
638224436093669342,17.57573,84.65248,66.32958,18.09777,-18.92185,85.55657,-56.80307,-0.4675641,5.346524,-69.50346,-8.447793,-36.90935,0,0,0,40.63226,102.5829,-40.07238,-121.9802,-110.508,-88.5377,0.001067912,-0.1257102,0.09433498,0,0.3,0,0,0,0
638224436094009234,15.03126,84.81612,66.09611,17.14558,-19.36132,87.75392,-56.80307,-0.4675641,5.346524,-69.50346,-8.447793,-36.83611,0,0,0,34.74213,102.1207,-38.97295,-121.9802,-110.508,-88.5377,0.001067912,-0.1257102,0.09433498,0,0.3,0,0,0,0
638224436094359127,9.471104,85.35382,65.53577,13.84955,-20.38675,94.05301,-56.80307,-0.4675641,5.346524,-69.50346,-8.447793,-36.90935,0,0,0,21.75016,101.0382,-37.97228,-121.9802,-110.508,-88.5377,0.001067912,-0.1257102,0.09433498,0,0.3,0,0,0,0
638224436094788987,3.369075,85.77463,64.20498,8.575896,-21.63192,104.7468,-56.80307,-0.4675641,5.346524,-69.50346,-8.447793,-36.83611,0,0,0,7.633187,98.30991,-38.68673,-121.9802,-110.508,-88.5377,0.001067912,-0.1257102,0.09433498,0,0.3,0,0,0,0
638224436095128876,-1.437158,85.77463,62.10373,2.643037,-21.9249,116.2463,-56.80307,-0.4675641,5.346524,-69.43021,-8.447793,-36.90935,0,0,0,-3.202264,93.94677,-40.71075,-121.9802,-110.508,-88.5377,0.001067912,-0.1257102,0.09433498,0,0.3,0,0,0,0
638224436095468766,-5.277431,85.77463,59.44214,-3.070086,-20.82623,126.4274,-56.80307,-0.4675641,5.346524,-69.50346,-8.447793,-36.90935,0,0,0,-11.46557,88.54131,-44.22337,-121.9802,-110.508,-88.5377,0.001067912,-0.1257102,0.09433498,0,0.3,0,0,0,0
638224436095818654,-7.798347,85.93828,56.64047,-7.757777,-18.70212,133.5322,-56.80307,-0.4675641,5.346524,-69.43021,-8.447793,-36.83611,0,0,0,-16.39426,83.03711,-48.6433,-121.9802,-110.508,-88.5377,0.001067912,-0.1257102,0.09433498,0,0.3,0,0,0,0
638224436096168545,-8.670066,86.14868,55.33302,-9.515661,-17.23721,135.5098,-56.80307,-0.4675641,5.346524,-69.50346,-8.447793,-36.90935,0,0,0,-17.88332,80.54862,-51.07221,-121.9802,-110.508,-88.5377,0.001067912,-0.1257102,0.09433498,0,0.3,0,0,0,0
638224436096498439,-9.824504,86.73314,53.23177,-12.15249,-14.30741,138.0001,-56.80307,-0.4675641,5.346524,-69.50346,-8.447793,-36.83611,0,0,0,-19.52376,76.66271,-55.60701,-121.9802,-110.508,-88.5377,0.001067912,-0.1257102,0.09433498,0,0.3,0,0,0,0
638224436096838332,-10.2957,87.55138,51.92432,-14.05686,-11.30435,138.7326,-56.80307,-0.4675641,5.346524,-69.50346,-8.447793,-36.90935,0,0,0,-19.77986,74.34106,-59.46206,-121.9802,-110.508,-88.5377,0.001067912,-0.1257102,0.09433498,0,0.3,0,0,0,0
638224436097178222,-10.31926,87.87867,51.6208,-14.64282,-10.05919,138.9523,-56.80307,-0.4675641,5.346524,-69.50346,-8.447793,-36.83611,0,0,0,-19.60998,73.81651,-60.64907,-121.9802,-110.508,-88.5377,0.001067912,-0.1257102,0.09433498,0,0.3,0,0,0,0
638224436097528120,-10.31926,88.36961,51.31729,-15.22878,-7.788587,139.0255,-56.80307,-0.4675641,5.346524,-69.50346,-8.447793,-36.83611,0,0,0,-19.32659,73.30132,-62.20552,-121.9802,-110.508,-88.5377,0.001067912,-0.1257102,0.09433498,0,0.3,0,0,0,0
638224436097868011,-10.2957,88.79042,51.24725,-15.37527,-6.030703,139.0255,-56.80307,-0.4675641,5.346524,-69.50346,-8.447793,-36.90935,0,0,0,-19.08973,73.19839,-63.26122,-121.9802,-110.508,-88.5377,0.001067912,-0.1257102,0.09433498,0,0.3,0,0,0,0
638224436098217898,-10.1779,89.39825,51.24725,-15.44852,-5.00527,139.0255,-56.80307,-0.4675641,5.346524,-69.50346,-8.447793,-36.90935,0,0,0,-18.62368,73.22076,-64.61443,-121.9802,-110.508,-88.5377,0.001067912,-0.1257102,0.09433498,0,0.3,0,0,0,0
638224436098557788,-9.989424,89.81906,51.24725,-15.52176,-4.492554,139.0988,-56.80307,-0.4675641,5.346524,-69.50346,-8.447793,-36.83611,0,0,0,-18.11244,73.22745,-65.51823,-121.9802,-110.508,-88.5377,0.001067912,-0.1257102,0.09433498,0,0.3,0,0,0,0
638224436098897826,-9.471104,90.70743,51.24725,-15.88799,-3.833347,139.0988,-56.80307,-0.4675641,5.346524,-69.50346,-8.447793,-36.90935,0,0,0,-16.84124,73.21795,-67.39796,-121.9802,-110.508,-88.5377,0.001067912,-0.1257102,0.09433498,0,0.3,0,0,0,0
638224436099307540,-8.905665,91.54904,51.24725,-16.32746,-3.393876,139.172,-56.80307,-0.4675641,5.346524,-69.50346,-8.447793,-36.83611,0,0,0,-15.54099,73.17937,-69.17144,-121.9802,-110.508,-88.5377,0.001067912,-0.1257102,0.09433498,0,0.3,0,0,0,0
638224436099647434,-8.811425,92.08675,51.2239,-16.62044,-3.174141,139.172,-56.80307,-0.4675641,5.346524,-69.50346,-8.447793,-36.83611,0,0,0,-15.18103,73.09731,-70.41568,-121.9802,-110.508,-88.5377,0.001067912,-0.1257102,0.09433498,0,0.3,0,0,0,0
638224436099987331,-8.811425,92.3439,51.15386,-16.76693,-3.027651,139.172,-56.80307,-0.4675641,5.346524,-69.50346,-8.447793,-36.90935,0,0,0,-15.07377,72.94715,-71.10765,-121.9802,-110.508,-88.5377,0.001067912,-0.1257102,0.09433498,0,0.3,0,0,0,0
638224436100327226,-8.834986,92.57768,50.80365,-16.98667,-2.88116,139.0255,-56.80307,-0.4675641,5.346524,-69.43021,-8.447793,-36.90935,0,0,0,-14.95144,72.29055,-72.1581,-121.9802,-110.508,-88.5377,0.001067912,-0.1257102,0.09433498,0,0.3,0,0,0,0
638224436100667117,-8.929225,92.57768,50.66357,-16.76693,-2.58818,138.7326,-56.80307,-0.4675641,5.346524,-69.50346,-8.374548,-36.83611,0,0,0,-15.07761,72.03813,-72.38667,-121.9802,-110.508,-88.5377,0.001067912,-0.1257102,0.09433498,0,0.3,0,0,0,0
638224436101007002,-8.952785,92.57768,50.68691,-16.62044,-2.441689,138.0001,-56.80307,-0.4675641,5.346524,-69.50346,-8.447793,-36.90935,0,0,0,-15.12243,72.08016,-72.35886,-121.9802,-110.508,-88.5377,0.001067912,-0.1257102,0.09433498,0,0.3,0,0,0,0
638224436101356896,-8.952785,92.57768,50.66357,-16.18097,-2.221954,136.462,-56.80307,-0.4675641,5.346524,-69.50346,-8.447793,-36.90935,0,0,0,-15.11707,72.03813,-72.39288,-121.9802,-110.508,-88.5377,0.001067912,-0.1257102,0.09433498,0,0.3,0,0,0,0
638224436101696782,-8.952785,92.74133,50.66357,-15.66825,-1.782483,134.8506,-56.80307,-0.4675641,5.346524,-69.50346,-8.447793,-36.83611,0,0,0,-15.05786,72.02046,-72.76871,-121.9802,-110.508,-88.5377,0.001067912,-0.1257102,0.09433498,0,0.3,0,0,0,0
638224436102046676,-8.952785,92.90498,50.96708,-15.22878,-1.343012,134.0449,-56.80307,-0.4675641,5.346524,-69.50346,-8.447793,-36.83611,0,0,0,-15.06812,72.54924,-72.7036,-121.9802,-110.508,-88.5377,0.001067912,-0.1257102,0.09433498,0,0.3,0,0,0,0
638224436102376572,-8.952785,93.04525,51.36399,-14.86256,-1.269767,133.6786,-56.80307,-0.4675641,5.346524,-69.50346,-8.447793,-36.83611,0,0,0,-15.10753,73.25186,-72.45345,-121.9802,-110.508,-88.5377,0.001067912,-0.1257102,0.09433498,0,0.3,0,0,0,0
638224436102716464,-8.999906,93.18552,51.92432,-14.49633,-1.635992,133.3857,-56.80307,-0.4675641,5.346524,-69.50346,-8.374548,-36.90935,0,0,0,-15.26199,74.25677,-71.98858,-121.9802,-110.508,-88.5377,0.001067912,-0.1257102,0.09433498,0,0.3,0,0,0,0
638224436103056355,-9.565345,93.18552,52.41461,-13.91037,-2.368444,133.2392,-56.80307,-0.4675641,5.346524,-69.50346,-8.447793,-36.90935,0,0,0,-16.3285,75.15804,-71.45374,-121.9802,-110.508,-88.5377,0.001067912,-0.1257102,0.09433498,0,0.3,0,0,0,0
638224436103386249,-10.38994,93.13876,52.46131,-13.61739,-2.807915,133.2392,-56.80307,-0.4675641,5.346524,-69.50346,-8.447793,-36.83611,0,0,0,-17.75283,75.25019,-71.52673,-121.9802,-110.508,-88.5377,0.001067912,-0.1257102,0.09433498,0,0.3,0,0,0,0
638224436103826128,-14.81922,92.76472,52.9516,-13.4709,-4.492554,135.9492,-56.80307,-0.4675641,5.346524,-69.50346,-8.447793,-36.90935,0,0,0,-25.57652,76.20281,-71.67804,-121.9802,-110.508,-88.5377,0.001067912,-0.1257102,0.09433498,0,0.3,0,0,0,0
638224436104156003,-16.13857,92.71796,53.32516,-13.76388,-5.225006,138.8791,-56.80307,-0.4675641,5.346524,-69.50346,-8.447793,-36.90935,0,0,0,-27.97081,76.90363,-71.68716,-121.9802,-110.508,-88.5377,0.001067912,-0.1257102,0.09433498,0,0.3,0,0,0,0
638224436104505886,-18.04693,92.76472,54.28239,-14.9358,-6.98289,144.3724,-56.80307,-0.4675641,5.346524,-69.50346,-8.447793,-36.90935,0,0,0,-31.54817,78.69629,-71.52464,-121.9802,-110.508,-88.5377,0.001067912,-0.1257102,0.09433498,0,0.3,0,0,0,0
638224436104845780,-19.15425,92.99849,55.16959,-16.10773,-8.960509,144.8119,-56.80307,-0.4675641,5.346524,-69.50346,-8.447793,-36.83611,0,0,0,-33.62639,80.35467,-71.53933,-121.9802,-110.508,-88.5377,0.001067912,-0.1257102,0.09433498,0,0.3,0,0,0,0
638224436105195663,-19.71969,93.25565,55.5198,-16.62044,-9.985942,144.8852,-56.80307,-0.4675641,5.346524,-69.50346,-8.447793,-36.90935,0,0,0,-34.53487,80.99249,-72.00216,-121.9802,-110.508,-88.5377,0.001067912,-0.1257102,0.09433498,0,0.3,0,0,0,0
638224436105535556,-21.48668,93.67646,55.70658,-17.42614,-12.03681,144.8119,-56.80307,-0.4675641,5.346524,-69.50346,-8.447793,-36.83611,0,0,0,-37.22119,81.29202,-73.79406,-121.9802,-110.508,-88.5377,0.001067912,-0.1257102,0.09433498,0,0.3,0,0,0,0
638224436105865452,-24.17252,93.8401,55.23963,-18.37833,-14.23416,144.8119,-56.80307,-0.4675641,5.346524,-69.50346,-8.447793,-36.83611,0,0,0,-41.20329,80.37171,-76.55079,-121.9802,-110.508,-88.5377,0.001067912,-0.1257102,0.09433498,0,0.3,0,0,0,0
638224436106215339,-26.9526,93.72321,54.04892,-19.40376,-15.9188,144.8852,-56.80307,-0.4675641,5.346524,-69.50346,-8.447793,-36.83611,0,0,0,-45.00351,78.12952,-79.8447,-121.9802,-110.508,-88.5377,0.001067912,-0.1257102,0.09433498,0,0.3,0,0,0,0
638224436106555240,-28.36619,93.6297,53.30181,-19.98972,-16.43152,144.9584,-56.80307,-0.4675641,5.346524,-69.50346,-8.447793,-36.90935,0,0,0,-46.78701,76.74256,-81.69706,-121.9802,-110.508,-88.5377,0.001067912,-0.1257102,0.09433498,0,0.3,0,0,0,0
638224436106895131,-31.57035,93.16214,51.2706,-21.67436,-16.65125,144.8119,-56.80307,-0.4675641,5.346524,-69.50346,-8.447793,-36.90935,0,0,0,-50.61203,73.06746,-85.98584,-121.9802,-110.508,-88.5377,0.001067912,-0.1257102,0.09433498,0,0.3,0,0,0,0
638224436107235014,-34.49178,92.3439,48.79579,-23.57873,-15.69907,144.8852,-56.80307,-0.4675641,5.346524,-69.50346,-8.374548,-36.83611,0,0,0,-53.72624,68.74481,-90.15382,-121.9802,-110.508,-88.5377,0.001067912,-0.1257102,0.09433498,0,0.3,0,0,0,0
638224436107574914,-35.81114,91.87634,47.30156,-24.60417,-14.89337,144.8852,-56.80307,-0.4675641,5.346524,-69.50346,-8.447793,-36.90935,0,0,0,-54.78852,66.19858,-92.41497,-121.9802,-110.508,-88.5377,0.001067912,-0.1257102,0.09433498,0,0.3,0,0,0,0
638224436107904808,-38.52053,90.8477,43.9629,-26.4353,-12.47628,144.8119,-56.80307,-0.4675641,5.346524,-69.50346,-8.447793,-36.90935,0,0,0,-56.42381,60.70148,-97.46771,-121.9802,-110.508,-88.5377,0.001067912,-0.1257102,0.09433498,0,0.3,0,0,0,0
638224436108364653,-41.48909,89.49176,40.88106,-27.75371,-8.960509,144.9584,-56.80307,-0.4675641,5.346524,-69.50346,-8.447793,-36.83611,0,0,0,-58.60224,55.87284,-102.0868,-121.9802,-110.508,-88.5377,0.001067912,-0.1257102,0.09433498,0,0.3,0,0,0,0
638224436108704554,-44.33985,87.71502,38.84985,-29.07212,-5.078516,144.8119,-56.80307,-0.4675641,5.346524,-69.50346,-8.447793,-36.83611,0,0,0,-62.17854,52.74199,-104.7219,-121.9802,-110.508,-88.5377,0.001067912,-0.1257102,0.09433498,0,0.3,0,0,0,0
638224436109054434,-46.6016,85.68111,37.77588,-31.41597,-0.8302955,144.8852,-56.80307,-0.4675641,5.346524,-69.43021,-8.447793,-36.83611,0,0,0,-66.64975,50.91976,-105.326,-121.9802,-110.508,-88.5377,0.001067912,-0.1257102,0.09433498,0,0.3,0,0,0,0
638224436109394325,-47.16704,84.76936,37.33228,-32.88087,1.000834,144.7387,-56.80307,-0.4675641,5.346524,-69.50346,-8.447793,-36.83611,0,0,0,-68.21897,50.11385,-105.1056,-121.9802,-110.508,-88.5377,0.001067912,-0.1257102,0.09433498,0,0.3,0,0,0,0
638224436109734224,-47.35552,82.92249,36.11822,-35.95716,4.882828,144.8852,-56.80307,-0.4675641,5.346524,-69.50346,-8.374548,-36.83611,0,0,0,-69.90423,47.96346,-103.9695,-121.9802,-110.508,-88.5377,0.001067912,-0.1257102,0.09433498,0,0.3,0,0,0,0
638224436110084113,-47.35552,80.93534,34.32048,-38.81373,8.691576,144.8119,-56.80307,-0.4675641,5.346524,-69.50346,-8.447793,-36.90935,0,0,0,-70.75809,44.90128,-103.1832,-121.9802,-110.508,-88.5377,0.001067912,-0.1257102,0.09433498,0,0.3,0,0,0,0
638224436110424010,-47.49688,78.38712,31.77563,-41.96327,12.28059,144.8852,-56.80307,-0.4675641,5.346524,-69.50346,-8.374548,-36.83611,0,0,0,-71.55985,40.60725,-102.7703,-121.9802,-110.508,-88.5377,0.001067912,-0.1257102,0.09433498,0,0.3,0,0,0,0
638224436110753899,-47.544,76.77402,30.25806,-43.7944,14.18496,144.8119,-56.80307,-0.4675641,5.346524,-69.50346,-8.447793,-36.90935,0,0,0,-72.08555,37.97991,-102.3975,-121.9802,-110.508,-88.5377,0.001067912,-0.1257102,0.09433498,0,0.3,0,0,0,0
638224436111093782,-47.59112,72.91661,27.10618,-47.6764,18.28669,144.8119,-56.80307,-0.4675641,5.346524,-69.50346,-8.447793,-36.83611,0,0,0,-73.78563,32.11303,-100.9535,-121.9802,-110.508,-88.5377,0.001067912,-0.1257102,0.09433498,0,0.3,0,0,0,0
638224436111433676,-47.59112,69.12935,24.37455,-51.55839,22.75465,144.9584,-56.80307,-0.4675641,5.346524,-69.50346,-8.447793,-36.90935,0,0,0,-75.71102,26.48639,-99.19482,-121.9802,-110.508,-88.5377,0.001067912,-0.1257102,0.09433498,0,0.3,0,0,0,0
638224436111773566,-47.59112,67.44612,23.53404,-53.46276,25.02525,144.8119,-56.80307,-0.4675641,5.346524,-69.50346,-8.447793,-36.83611,0,0,0,-77.0783,24.24294,-97.94593,-121.9802,-110.508,-88.5377,0.001067912,-0.1257102,0.09433498,0,0.3,0,0,0,0
638224436112123894,-47.59112,64.5706,22.43672,-57.5645,28.834,144.0062,-56.80307,-0.4675641,5.346524,-69.50346,-8.447793,-36.90935,0,0,0,-79.85638,20.52477,-95.40842,-121.9802,-110.508,-88.5377,0.001067912,-0.1257102,0.09433498,0,0.3,0,0,0,0
638224436112453772,-47.82672,62.04575,21.54953,-61.44649,31.54407,140.5637,-56.80307,-0.4675641,5.346524,-69.50346,-8.447793,-36.90935,0,0,0,-82.62734,17.11212,-93.49829,-121.9802,-110.508,-88.5377,0.001067912,-0.1257102,0.09433498,0,0.3,0,0,0,0
638224436112883634,-48.76912,59.00658,21.05923,-64.30305,32.71599,137.2677,-56.80307,-0.4675641,5.346524,-69.50346,-8.447793,-36.90935,0,0,0,-87.67831,13.21767,-91.50993,-121.9802,-110.508,-88.5377,0.001067912,-0.1257102,0.09433498,0,0.3,0,0,0,0
638224436113213534,-49.12252,57.97795,21.03589,-65.0355,32.71599,136.6085,-56.80307,-0.4675641,5.346524,-69.50346,-8.447793,-36.90935,0,0,0,-89.65553,11.94701,-90.7496,-121.9802,-110.508,-88.5377,0.001067912,-0.1257102,0.09433498,0,0.3,0,0,0,0
638224436113553438,-49.59372,54.98553,20.98919,-67.23285,32.27652,135.5098,-56.80307,-0.4675641,5.346524,-69.50346,-8.374548,-36.90935,0,0,0,-94.63429,8.062648,-87.79201,-121.9802,-110.508,-88.5377,0.001067912,-0.1257102,0.09433498,0,0.3,0,0,0,0
638224436113893321,-49.92356,52.11002,20.70902,-68.91749,31.54407,133.7519,-56.80307,-0.4675641,5.346524,-69.50346,-8.447793,-36.90935,0,0,0,-98.74885,3.854643,-85.26511,-121.9802,-110.508,-88.5377,0.001067912,-0.1257102,0.09433498,0,0.3,0,0,0,0
638224436114243210,-50.8424,48.39288,20.40551,-70.45564,30.73837,128.9177,-56.80307,-0.4675641,5.346524,-69.43021,-8.374548,-36.83611,0,0,0,-104.7124,-1.924209,-83.07755,-121.9802,-110.508,-88.5377,0.001067912,-0.1257102,0.09433498,0,0.3,0,0,0,0
638224436114573093,-51.1958,46.40574,20.40551,-71.40782,30.44539,126.8668,-56.80307,-0.4675641,5.346524,-69.50346,-8.447793,-36.90935,0,0,0,-107.8892,-5.054564,-81.59179,-121.9802,-110.508,-88.5377,0.001067912,-0.1257102,0.09433498,0,0.3,0,0,0,0
638224436114912987,-51.59631,41.89374,20.102,-74.04465,29.93268,122.6919,-56.80307,-0.4675641,5.346524,-69.50346,-8.447793,-36.83611,0,0,0,-113.7042,-12.832,-78.21722,-121.9802,-110.508,-88.5377,0.001067912,-0.1257102,0.09433498,0,0.3,0,0,0,0
638224436115252887,-51.78479,36.70378,19.49497,-77.12095,29.78619,117.8577,-56.80307,-0.4675641,5.346524,-69.50346,-8.374548,-36.83611,0,0,0,-118.9646,-22.65479,-74.68297,-121.9802,-110.508,-88.5377,0.001067912,-0.1257102,0.09433498,0,0.3,0,0,0,0
638224436115592770,-51.76123,33.96853,19.30819,-78.43936,29.93268,115.4406,-56.80307,-0.4675641,5.346524,-69.50346,-8.447793,-36.83611,0,0,0,-121.4957,-27.99192,-72.60916,-121.9802,-110.508,-88.5377,0.001067912,-0.1257102,0.09433498,0,0.3,0,0,0,0
638224436115932663,-51.38427,27.96033,19.00467,-81.29592,30.51864,110.8994,-56.80307,-0.4675641,5.346524,-69.50346,-8.447793,-36.83611,0,0,0,-125.9607,-40.20886,-67.74031,-121.9802,-110.508,-88.5377,0.001067912,-0.1257102,0.09433498,0,0.3,0,0,0,0
638224436116262556,-50.58324,23.47172,18.74786,-82.90732,31.32433,107.1639,-56.80307,-0.4675641,5.346524,-69.50346,-8.447793,-36.83611,0,0,0,-127.6059,-49.81192,-63.47078,-121.9802,-110.508,-88.5377,0.001067912,-0.1257102,0.09433498,0,0.3,0,0,0,0
638224436116602452,-49.97068,20.78322,18.53773,-83.49328,31.98354,104.9665,-56.80307,-0.4675641,5.346524,-69.50346,-8.447793,-36.90935,0,0,0,-127.9271,-55.76406,-60.89482,-121.9802,-110.508,-88.5377,0.001067912,-0.1257102,0.09433498,0,0.3,0,0,0,0
638224436116942339,-48.15656,15.99069,18.51438,-83.12706,33.3752,101.8902,-56.80307,-0.4675641,5.346524,-69.50346,-8.447793,-36.90935,0,0,0,-127.0432,-66.36292,-54.58684,-121.9802,-110.508,-88.5377,0.001067912,-0.1257102,0.09433498,0,0.3,0,0,0,0
638224436117392196,-46.24821,12.36707,17.95405,-81.29592,35.20633,100.2788,-56.80307,-0.4675641,5.346524,-69.50346,-8.447793,-36.90935,0,0,0,-123.7816,-74.9463,-49.84749,-121.9802,-110.508,-88.5377,0.001067912,-0.1257102,0.09433498,0,0.3,0,0,0,0
638224436117732089,-44.85817,9.935737,16.31974,-78.73235,37.1107,99.25342,-56.80307,-0.4675641,5.346524,-69.50346,-8.447793,-36.90935,0,0,0,-119.0786,-81.61846,-48.68038,-121.9802,-110.508,-88.5377,0.001067912,-0.1257102,0.09433498,0,0.3,0,0,0,0
638224436118071982,-43.56237,7.925211,14.49865,-76.16876,38.86858,97.64202,-56.80307,-0.4675641,5.346524,-69.50346,-8.447793,-36.83611,0,0,0,-114.0268,-87.36693,-48.45252,-121.9802,-110.508,-88.5377,0.001067912,-0.1257102,0.09433498,0,0.3,0,0,0,0
638224436118411871,-42.87913,7.036839,13.58811,-75.14333,39.74753,96.83633,-56.80307,-0.4675641,5.346524,-69.50346,-8.447793,-36.90935,0,0,0,-111.3732,-89.93113,-48.41057,-121.9802,-110.508,-88.5377,0.001067912,-0.1257102,0.09433498,0,0.3,0,0,0,0
638224436118751772,-41.06501,5.634147,11.20669,-73.53194,41.72515,94.78546,-56.80307,-0.4675641,5.346524,-69.50346,-8.447793,-36.90935,0,0,0,-104.2013,-94.36558,-48.75445,-121.9802,-110.508,-88.5377,0.001067912,-0.1257102,0.09433498,0,0.3,0,0,0,0
638224436119101657,-38.63834,4.886045,8.124848,-71.8473,43.99575,92.14863,-56.80307,-0.4675641,5.346524,-69.50346,-8.447793,-36.83611,0,0,0,-94.72924,-97.3035,-49.84744,-121.9802,-110.508,-88.5377,0.001067912,-0.1257102,0.09433498,0,0.3,0,0,0,0
638224436119441548,-35.17502,4.979557,3.898993,-68.62451,46.63258,90.39075,-56.80307,-0.4675641,5.346524,-69.50346,-8.447793,-36.90935,0,0,0,-81.75337,-98.11654,-52.34988,-121.9802,-110.508,-88.5377,0.001067912,-0.1257102,0.09433498,0,0.3,0,0,0,0
638224436119781435,-32.98395,5.493878,1.610961,-66.20742,48.02423,89.87803,-56.80307,-0.4675641,5.346524,-69.50346,-8.447793,-36.90935,0,0,0,-74.30369,-97.18044,-53.86213,-121.9802,-110.508,-88.5377,0.001067912,-0.1257102,0.09433498,0,0.3,0,0,0,0
638224436120111330,-28.79027,7.761563,-3.105186,-60.4943,50.51457,89.21883,-56.80307,-0.4675641,5.346524,-69.50346,-8.447793,-36.90935,0,0,0,-60.1548,-91.79517,-58.88481,-121.9802,-110.508,-88.5377,0.001067912,-0.1257102,0.09433498,0,0.3,0,0,0,0
638224436120461217,-24.64372,11.26829,-8.054807,-53.24303,52.05272,88.99909,-56.80307,-0.4675641,5.346524,-69.50346,-8.447793,-36.90935,0,0,0,-46.74049,-82.62738,-66.46539,-121.9802,-110.508,-88.5377,0.001067912,-0.1257102,0.09433498,0,0.3,0,0,0,0
638224436120801116,-22.42908,12.95152,-9.805852,-49.21454,52.56543,89.29208,-56.80307,-0.4675641,5.346524,-69.50346,-8.447793,-36.83611,0,0,0,-40.91887,-78.16454,-69.21622,-121.9802,-110.508,-88.5377,0.001067912,-0.1257102,0.09433498,0,0.3,0,0,0,0
638224436121141000,-17.50505,16.31799,-10.94987,-40.7181,53.07815,91.63592,-56.80307,-0.4675641,5.346524,-69.50346,-8.447793,-36.83611,0,0,0,-30.87561,-70.10512,-70.45516,-121.9802,-110.508,-88.5377,0.001067912,-0.1257102,0.09433498,0,0.3,0,0,0,0
638224436121470894,-11.73286,20.36242,-10.73974,-30.02431,53.37113,95.66441,-56.80307,-0.4675641,5.346524,-69.50346,-8.447793,-36.90935,0,0,0,-20.36895,-61.26413,-70.27538,-121.9802,-110.508,-88.5377,0.001067912,-0.1257102,0.09433498,0,0.3,0,0,0,0
638224436121920757,-4.358593,26.39399,-8.942002,-14.86256,52.05272,99.83938,-56.80307,-0.4675641,5.346524,-69.50346,-8.447793,-36.83611,0,0,0,-7.502732,-49.09971,-69.91334,-121.9802,-110.508,-88.5377,0.001067912,-0.1257102,0.09433498,0,0.3,0,0,0,0
638224436122260643,-0.3533994,30.11112,-7.074222,-6.512609,50.36808,101.0113,-56.80307,-0.4675641,5.346524,-69.50346,-8.447793,-36.83611,0,0,0,-0.6102085,-42.08601,-69.41965,-121.9802,-110.508,-88.5377,0.001067912,-0.1257102,0.09433498,0,0.3,0,0,0,0
638224436122600550,2.167516,32.7061,-5.509954,-1.605182,48.90318,101.4508,-56.80307,-0.4675641,5.346524,-69.50346,-8.447793,-36.90935,0,0,0,3.759574,-37.33086,-69.01743,-121.9802,-110.508,-88.5377,0.001067912,-0.1257102,0.09433498,0,0.3,0,0,0,0
638224436122950423,6.761709,38.2935,-1.424183,6.451786,45.82688,101.231,-56.80307,-0.4675641,5.346524,-69.50346,-8.447793,-36.90935,0,0,0,11.9324,-27.32315,-67.7099,-121.9802,-110.508,-88.5377,0.001067912,-0.1257102,0.09433498,0,0.3,0,0,0,0
638224436123280316,10.86114,44.5121,4.085772,12.3114,42.09137,98.88718,-56.80307,-0.4675641,5.346524,-69.50346,-8.447793,-36.83611,0,0,0,19.70847,-16.17476,-65.63025,-121.9802,-110.508,-88.5377,0.001067912,-0.1257102,0.09433498,0,0.3,0,0,0,0
638224436123630237,13.99462,50.9411,10.50627,16.48637,37.84315,95.29817,-56.80307,-0.4675641,5.346524,-69.43021,-8.447793,-36.83611,0,0,0,26.20038,-4.218286,-63.22394,-121.9802,-110.508,-88.5377,0.001067912,-0.1257102,0.09433498,0,0.3,0,0,0,0
638224436123970108,15.12549,54.21405,13.91497,18.17101,35.42606,93.3938,-56.80307,-0.4675641,5.346524,-69.50346,-8.447793,-36.90935,0,0,0,28.7147,2.087821,-62.11655,-121.9802,-110.508,-88.5377,0.001067912,-0.1257102,0.09433498,0,0.3,0,0,0,0
638224436124309989,16.72757,60.66644,21.01254,20.73459,30.15241,89.43856,-56.80307,-0.4675641,5.346524,-69.50346,-8.447793,-36.83611,0,0,0,32.56494,15.1197,-59.99487,-121.9802,-110.508,-88.5377,0.001067912,-0.1257102,0.09433498,0,0.3,0,0,0,0
638224436124639885,17.76421,66.72139,28.18015,22.63897,24.43929,85.70306,-56.80307,-0.4675641,5.346524,-69.50346,-8.447793,-36.90935,0,0,0,35.29225,28.30087,-58.19114,-121.9802,-110.508,-88.5377,0.001067912,-0.1257102,0.09433498,0,0.3,0,0,0,0
638224436124979782,18.11761,70.83595,33.24651,23.81089,19.89809,82.99299,-56.80307,-0.4675641,5.346524,-69.50346,-8.447793,-36.90935,0,0,0,36.34707,37.78687,-57.26162,-121.9802,-110.508,-88.5377,0.001067912,-0.1257102,0.09433498,0,0.3,0,0,0,0
638224436125319668,18.18829,74.13229,37.26224,24.54334,15.94285,80.72239,-56.80307,-0.4675641,5.346524,-69.50346,-8.447793,-36.90935,0,0,0,36.58253,45.48914,-57.00692,-121.9802,-110.508,-88.5377,0.001067912,-0.1257102,0.09433498,0,0.3,0,0,0,0
638224436125649561,18.18829,78.34035,42.51537,24.98281,10.96218,78.08556,-56.80307,-0.4675641,5.346524,-69.50346,-8.374548,-36.83611,0,0,0,36.54108,55.65662,-57.13308,-121.9802,-110.508,-88.5377,0.001067912,-0.1257102,0.09433498,0,0.3,0,0,0,0
638224436125989457,18.18829,80.09372,44.94349,24.98281,8.911312,77.27986,-56.80307,-0.4675641,5.346524,-69.50346,-8.447793,-36.83611,0,0,0,36.56441,60.32617,-57.06207,-121.9802,-110.508,-88.5377,0.001067912,-0.1257102,0.09433498,0,0.3,0,0,0,0
638224436126439311,18.14117,84.37193,51.48072,24.68983,3.344679,75.88821,-56.80307,-0.4675641,5.346524,-69.50346,-8.447793,-36.83611,0,0,0,36.55687,73.00974,-56.77567,-121.9802,-110.508,-88.5377,0.001067912,-0.1257102,0.09433498,0,0.3,0,0,0,0
638224436126779202,18.04693,85.19017,52.71812,24.39685,2.099511,75.74171,-56.80307,-0.4675641,5.346524,-69.50346,-8.447793,-36.90935,0,0,0,36.33385,75.45541,-56.83679,-121.9802,-110.508,-88.5377,0.001067912,-0.1257102,0.09433498,0,0.3,0,0,0,0
638224436127119095,17.90557,86.45259,54.77269,23.81089,0.6346079,75.81496,-56.80307,-0.4675641,5.346524,-69.50346,-8.447793,-36.83611,0,0,0,36.02706,79.52531,-56.84514,-121.9802,-110.508,-88.5377,0.001067912,-0.1257102,0.09433498,0,0.3,0,0,0,0
638224436127458985,18.11761,88.0657,56.3603,23.29818,-0.02459868,76.0347,-56.80307,-0.4675641,5.346524,-69.50346,-8.447793,-36.83611,0,0,0,35.92307,82.75231,-58.55752,-121.9802,-110.508,-88.5377,0.001067912,-0.1257102,0.09433498,0,0.3,0,0,0,0
638224436127808874,18.32965,89.2346,56.87394,23.22493,-0.171089,76.10795,-56.80307,-0.4675641,5.346524,-69.50346,-8.447793,-36.90935,0,0,0,35.68069,83.8146,-60.64854,-121.9802,-110.508,-88.5377,0.001067912,-0.1257102,0.09433498,0,0.3,0,0,0,0
638224436128148767,19.15425,92.22701,57.87787,23.37142,-0.5373149,76.0347,-56.80307,-0.4675641,5.346524,-69.50346,-8.447793,-36.83611,0,0,0,35.35559,85.69366,-66.56094,-121.9802,-110.508,-88.5377,0.001067912,-0.1257102,0.09433498,0,0.3,0,0,0,0
638224436128478662,19.74325,94.82199,59.04524,24.25036,-1.416257,75.66847,-56.80307,-0.4675641,5.346524,-69.50346,-8.447793,-36.83611,0,0,0,34.84399,87.63796,-71.26546,-121.9802,-110.508,-88.5377,0.001067912,-0.1257102,0.09433498,0,0.3,0,0,0,0
638224436128828555,19.74325,95.92077,59.69896,25.1293,-2.368444,75.30224,-56.80307,-0.4675641,5.346524,-69.50346,-8.374548,-36.90935,0,0,0,34.24578,88.70779,-72.93226,-121.9802,-110.508,-88.5377,0.001067912,-0.1257102,0.09433498,0,0.3,0,0,0,0
638224436129158445,19.71969,96.01428,59.88574,25.42229,-2.73467,75.229,-56.80307,-0.4675641,5.346524,-69.50346,-8.447793,-36.90935,0,0,0,34.2073,89.06084,-72.91606,-121.9802,-110.508,-88.5377,0.001067912,-0.1257102,0.09433498,0,0.3,0,0,0,0
638224436129498335,19.36629,96.08442,60.30599,26.00825,-3.100896,75.00926,-56.80307,-0.4675641,5.346524,-69.50346,-8.447793,-36.90935,0,0,0,33.72589,89.8915,-72.39999,-121.9802,-110.508,-88.5377,0.001067912,-0.1257102,0.09433498,0,0.3,0,0,0,0
638224436129848221,19.01289,96.64549,60.49277,26.44772,-3.467122,74.78953,-56.80307,-0.4675641,5.346524,-69.50346,-8.447793,-36.90935,0,0,0,32.78059,90.12471,-73.21778,-121.9802,-110.508,-88.5377,0.001067912,-0.1257102,0.09433498,0,0.3,0,0,0,0
638224436130198113,18.91865,97.30008,60.49277,26.7407,-3.686857,74.56979,-56.80307,-0.4675641,5.346524,-69.50346,-8.447793,-36.83611,0,0,0,32.13377,89.93977,-74.59451,-121.9802,-110.508,-88.5377,0.001067912,-0.1257102,0.09433498,0,0.3,0,0,0,0
638224436130528006,18.89509,99.84831,60.49277,27.76613,-4.346064,74.13033,-56.80307,-0.4675641,5.346524,-69.50346,-8.447793,-36.90935,0,0,0,30.19625,89.05563,-80.12928,-121.9802,-110.508,-88.5377,0.001067912,-0.1257102,0.09433498,0,0.3,0,0,0,0
638224436130967863,18.89509,101.6952,58.88181,29.0113,-5.371496,73.61761,-56.80307,-0.4675641,5.346524,-69.50346,-8.447793,-36.83611,0,0,0,28.21606,85.01566,-85.91457,-121.9802,-110.508,-88.5377,0.001067912,-0.1257102,0.09433498,0,0.3,0,0,0,0
638224436131307759,18.94221,101.4614,55.23963,29.817,-4.126328,73.69085,-56.80307,-0.4675641,5.346524,-69.50346,-8.447793,-36.83611,0,0,0,26.9609,78.01194,-89.79255,-121.9802,-110.508,-88.5377,0.001067912,-0.1257102,0.09433498,0,0.3,0,0,0,0
638224436131707630,18.25897,101.5783,52.64809,30.32971,-1.782483,75.44874,-56.80307,-0.4675641,5.346524,-69.50346,-8.447793,-36.83611,0,0,0,24.82653,73.08187,-93.10079,-121.9802,-110.508,-88.5377,0.001067912,-0.1257102,0.09433498,0,0.3,0,0,0,0
638224436132027528,16.25637,101.6017,51.78423,30.25646,0.1218917,78.67152,-56.80307,-0.4675641,5.346524,-69.50346,-8.447793,-36.90935,0,0,0,21.82205,71.48199,-93.51292,-121.9802,-110.508,-88.5377,0.001067912,-0.1257102,0.09433498,0,0.3,0,0,0,0
638224436132477384,12.4161,101.5082,51.57411,28.93805,0.04864649,81.60133,-56.80307,-0.4675641,5.346524,-69.50346,-8.447793,-36.90935,0,0,0,16.74147,71.1419,-92.30732,-121.9802,-110.508,-88.5377,0.001067912,-0.1257102,0.09433498,0,0.3,0,0,0,0
638224436132827273,7.633427,101.0874,51.2239,26.59421,-2.002218,84.16491,-56.80307,-0.4675641,5.346524,-69.43021,-8.447793,-36.90935,0,0,0,10.40303,70.69678,-90.72836,-121.9802,-110.508,-88.5377,0.001067912,-0.1257102,0.09433498,0,0.3,0,0,0,0
638224436133167164,4.052313,100.386,50.59352,24.39685,-3.760103,86.06928,-56.80307,-0.4675641,5.346524,-69.43021,-8.447793,-36.90935,0,0,0,5.582308,69.86217,-89.55322,-121.9802,-110.508,-88.5377,0.001067912,-0.1257102,0.09433498,0,0.3,0,0,0,0
638224436133507056,-4.240793,97.69751,48.84248,18.02452,-7.495606,91.48943,-56.80307,-0.4675641,5.346524,-69.43021,-8.447793,-36.83611,0,0,0,-6.103562,67.73656,-86.03767,-121.9802,-110.508,-88.5377,0.001067912,-0.1257102,0.09433498,0,0.3,0,0,0,0
638224436133846948,-11.8271,93.81673,46.46106,8.429405,-10.13243,98.08149,-56.80307,-0.4675641,5.346524,-69.43021,-8.447793,-36.83611,0,0,0,-17.99331,64.54643,-82.42394,-121.9802,-110.508,-88.5377,0.001067912,-0.1257102,0.09433498,0,0.3,0,0,0,0
638224436134176844,-14.63074,91.50229,44.68667,3.082508,-10.79164,101.1578,-56.80307,-0.4675641,5.346524,-69.43021,-8.447793,-36.90935,0,0,0,-22.80359,61.84723,-80.99782,-121.9802,-110.508,-88.5377,0.001067912,-0.1257102,0.09433498,0,0.3,0,0,0,0
638224436134516735,-17.69353,86.31233,40.34408,-6.585854,-10.64515,104.5271,-56.80307,-0.4675641,5.346524,-69.43021,-8.447793,-36.83611,0,0,0,-28.84386,54.78845,-77.935,-121.9802,-110.508,-88.5377,0.001067912,-0.1257102,0.09433498,0,0.3,0,0,0,0
638224436134846634,-18.02337,80.16386,36.28165,-13.54414,-8.814018,103.8679,-56.80307,-0.4675641,5.346524,-69.43021,-8.374548,-36.83611,0,0,0,-31.46365,47.24399,-71.64907,-121.9802,-110.508,-88.5377,0.001067912,-0.1257102,0.09433498,0,0.3,0,0,0,0
638224436135196517,-17.99981,76.72726,34.69404,-16.40071,-7.349115,102.11,-56.80307,-0.4675641,5.346524,-69.43021,-8.447793,-36.90935,0,0,0,-32.91535,43.49718,-67.04583,-121.9802,-110.508,-88.5377,0.001067912,-0.1257102,0.09433498,0,0.3,0,0,0,0
638224436135536408,-17.88201,69.10597,31.96241,-21.38138,-4.053083,97.42229,-56.80307,-0.4675641,5.346524,-69.43021,-8.374548,-36.83611,0,0,0,-36.27844,34.79757,-55.9091,-121.9802,-110.508,-88.5377,0.001067912,-0.1257102,0.09433498,0,0.3,0,0,0,0
638224436135876300,-17.88201,63.7056,30.79504,-23.72522,-1.709238,93.76003,-56.80307,-0.4675641,5.346524,-69.43021,-8.447793,-36.90935,0,0,0,-39.10162,28.35403,-47.15897,-121.9802,-110.508,-88.5377,0.001067912,-0.1257102,0.09433498,0,0.3,0,0,0,0
638224436136216192,-17.88201,57.67403,30.00124,-24.8239,1.367059,90.97672,-56.80307,-0.4675641,5.346524,-69.43021,-8.374548,-36.83611,0,0,0,-42.36921,20.5503,-37.03144,-121.9802,-110.508,-88.5377,0.001067912,-0.1257102,0.09433498,0,0.3,0,0,0,0
638224436136546085,-17.88201,54.56472,29.23078,-24.8239,2.758718,89.95128,-56.80307,-0.4675641,5.346524,-69.43021,-8.447793,-36.90935,0,0,0,-43.73506,15.63052,-32.79815,-121.9802,-110.508,-88.5377,0.001067912,-0.1257102,0.09433498,0,0.3,0,0,0,0
638224436136995943,-17.81133,47.64478,26.8727,-24.09145,5.835015,88.19339,-56.80307,-0.4675641,5.346524,-69.43021,-8.447793,-36.90935,0,0,0,-45.91825,2.943332,-25.42852,-121.9802,-110.508,-88.5377,0.001067912,-0.1257102,0.09433498,0,0.3,0,0,0,0
638224436137335834,-16.96317,39.29876,24.60802,-22.62654,10.08323,86.06928,-56.80307,-0.4675641,5.346524,-69.43021,-8.447793,-36.90935,0,0,0,-46.30808,-13.42976,-16.53414,-121.9802,-110.508,-88.5377,0.001067912,-0.1257102,0.09433498,0,0.3,0,0,0,0
638224436137675733,-15.43177,30.76572,22.88032,-20.86866,14.69768,83.6522,-56.80307,-0.4675641,5.346524,-69.43021,-8.447793,-36.83611,0,0,0,-44.28565,-31.29552,-7.919536,-121.9802,-110.508,-88.5377,0.001067912,-0.1257102,0.09433498,0,0.3,0,0,0,0
638224436138025613,-13.19358,22.20929,22.43672,-18.45157,19.09239,80.94212,-56.80307,-0.4675641,5.346524,-69.43021,-8.374548,-36.83611,0,0,0,-39.79427,-49.50053,1.399317,-121.9802,-110.508,-88.5377,0.001067912,-0.1257102,0.09433498,0,0.3,0,0,0,0
638224436138365709,-12.08626,18.30513,22.69354,-16.91342,21.07001,79.55046,-56.80307,-0.4675641,5.346524,-69.43021,-8.374548,-36.83611,0,0,0,-37.28059,-57.79402,5.752117,-121.9802,-110.508,-88.5377,0.001067912,-0.1257102,0.09433498,0,0.3,0,0,0,0
638224436138705409,-10.24858,10.35654,23.93095,-13.03143,24.58578,76.18118,-56.80307,-0.4675641,5.346524,-69.43021,-8.374548,-36.90935,0,0,0,-32.96291,-74.56382,13.963,-121.9802,-110.508,-88.5377,0.001067912,-0.1257102,0.09433498,0,0.3,0,0,0,0
638224436139035293,-9.141265,4.114563,26.33572,-9.66215,26.92962,72.88515,-56.80307,-0.4675641,5.346524,-69.50346,-8.447793,-36.83611,0,0,0,-30.52899,-86.59162,21.3738,-121.9802,-110.508,-88.5377,0.001067912,-0.1257102,0.09433498,0,0.3,0,0,0,0
638224436139385181,-9.047026,1.940391,27.50308,-8.197248,27.44234,71.71323,-56.80307,-0.4675641,5.346524,-69.43021,-8.374548,-36.90935,0,0,0,-30.63984,-90.41439,24.08001,-121.9802,-110.508,-88.5377,0.001067912,-0.1257102,0.09433498,0,0.3,0,0,0,0
638224436139725080,-9.659584,-0.2571602,28.95061,-6.585854,27.29585,70.17509,-56.80307,-0.4675641,5.346524,-69.43021,-8.447793,-36.90935,0,0,0,-33.20601,-93.93474,26.74168,-121.9802,-110.508,-88.5377,0.001067912,-0.1257102,0.09433498,0,0.3,0,0,0,0
638224436140064972,-10.46062,-0.350673,29.55764,-6.952079,25.90419,67.83124,-56.80307,-0.4675641,5.346524,-69.43021,-8.374548,-36.83611,0,0,0,-36.15379,-93.46197,27.46937,-121.9802,-110.508,-88.5377,0.001067912,-0.1257102,0.09433498,0,0.3,0,0,0,0
638224436140404862,-10.7669,-0.1402692,30.00124,-7.464796,24.95201,66.43958,-56.80307,-0.4675641,5.346524,-69.43021,-8.447793,-36.90935,0,0,0,-37.36783,-92.45951,28.15568,-121.9802,-110.508,-88.5377,0.001067912,-0.1257102,0.09433498,0,0.3,0,0,0,0
638224436140744753,-11.9449,0.350673,31.40207,-9.36917,22.38842,62.92381,-56.80307,-0.4675641,5.346524,-69.50346,-8.447793,-36.83611,0,0,0,-41.97955,-89.65234,30.08643,-121.9802,-110.508,-88.5377,0.001067912,-0.1257102,0.09433498,0,0.3,0,0,0,0
638224436141084644,-13.97106,1.496205,33.03638,-12.29898,19.67835,59.11506,-56.80307,-0.4675641,5.346524,-69.50346,-8.374548,-36.83611,0,0,0,-49.73569,-84.95872,31.55912,-121.9802,-110.508,-88.5377,0.001067912,-0.1257102,0.09433498,0,0.3,0,0,0,0
638224436141524522,-16.89249,3.997673,34.95086,-18.67131,16.23583,53.03571,-56.80307,-0.4675641,5.346524,-69.50346,-8.447793,-36.83611,0,0,0,-60.85209,-76.65286,32.0322,-121.9802,-110.508,-88.5377,0.001067912,-0.1257102,0.09433498,0,0.3,0,0,0,0
638224436141854394,-17.95269,6.38225,35.27772,-23.72522,14.25821,47.8353,-56.80307,-0.4675641,5.346524,-69.50346,-8.374548,-36.83611,0,0,0,-64.5864,-70.68858,30.98639,-121.9802,-110.508,-88.5377,0.001067912,-0.1257102,0.09433498,0,0.3,0,0,0,0
638224436142204282,-18.14117,8.439531,35.16098,-27.24099,13.15953,43.58709,-56.80307,-0.4675641,5.346524,-69.50346,-8.374548,-36.90935,0,0,0,-64.98039,-66.0974,29.97506,-121.9802,-110.508,-88.5377,0.001067912,-0.1257102,0.09433498,0,0.3,0,0,0,0
638224436142544181,-17.57573,13.53598,34.34383,-33.46683,11.18191,33.62574,-56.80307,-0.4675641,5.346524,-69.43021,-8.374548,-36.90935,0,0,0,-61.86573,-55.54134,26.96249,-121.9802,-110.508,-88.5377,0.001067912,-0.1257102,0.09433498,0,0.3,0,0,0,0
638224436142874075,-15.92653,19.94161,33.80684,-38.59399,8.545086,23.44467,-56.80307,-0.4675641,5.346524,-69.50346,-8.447793,-36.83611,0,0,0,-54.75734,-41.97227,23.53983,-121.9802,-110.508,-88.5377,0.001067912,-0.1257102,0.09433498,0,0.3,0,0,0,0
638224436143233958,-13.3585,26.62777,34.01696,-42.47599,4.443357,14.94823,-56.80307,-0.4675641,5.346524,-69.43021,-8.374548,-36.90935,0,0,0,-44.77794,-27.41361,20.21386,-121.9802,-110.508,-88.5377,0.001067912,-0.1257102,0.09433498,0,0.3,0,0,0,0
638224436143563853,-12.10982,29.29289,34.53061,-43.57467,2.246002,11.94517,-56.80307,-0.4675641,5.346524,-69.43021,-8.447793,-36.90935,0,0,0,-40.25534,-21.26215,19.26749,-121.9802,-110.508,-88.5377,0.001067912,-0.1257102,0.09433498,0,0.3,0,0,0,0
638224436143903747,-9.565345,33.78151,36.23495,-45.33255,-2.88116,7.403974,-56.80307,-0.4675641,5.346524,-69.50346,-8.374548,-36.83611,0,0,0,-31.51601,-10.06384,18.67175,-121.9802,-110.508,-88.5377,0.001067912,-0.1257102,0.09433498,0,0.3,0,0,0,0
638224436144243640,-7.421387,37.14796,38.49964,-46.79745,-8.447793,4.181186,-56.80307,-0.4675641,5.346524,-69.50346,-8.447793,-36.83611,0,0,0,-24.45135,-0.4845241,19.36633,-121.9802,-110.508,-88.5377,0.001067912,-0.1257102,0.09433498,0,0.3,0,0,0,0
638224436144573528,-6.314069,38.78444,40.32073,-48.3356,-12.54952,2.423302,-56.80307,-0.4675641,5.346524,-69.50346,-8.447793,-36.90935,0,0,0,-20.92159,5.208777,20.72965,-121.9802,-110.508,-88.5377,0.001067912,-0.1257102,0.09433498,0,0.3,0,0,0,0
638224436144913424,-5.65439,39.85984,42.00173,-50.16673,-16.06529,1.471115,-56.80307,-0.4675641,5.346524,-69.43021,-8.447793,-36.90935,0,0,0,-18.8772,9.719909,22.31074,-121.9802,-110.508,-88.5377,0.001067912,-0.1257102,0.09433498,0,0.3,0,0,0,0
638224436145243320,-5.324551,40.84172,43.70608,-53.38951,-20.09377,0.8851534,-56.80307,-0.4675641,5.346524,-69.50346,-8.374548,-36.90935,0,0,0,-17.91184,14.15923,23.83834,-121.9802,-110.508,-88.5377,0.001067912,-0.1257102,0.09433498,0,0.3,0,0,0,0
638224436145583211,-5.348111,41.19239,44.10299,-55.29389,-21.9249,0.6654179,-56.80307,-0.4675641,5.346524,-69.50346,-8.447793,-36.90935,0,0,0,-18.00297,15.41561,23.96032,-121.9802,-110.508,-88.5377,0.001067912,-0.1257102,0.09433498,0,0.3,0,0,0,0
638224436146033059,-6.33763,43.41333,44.14968,-60.34781,-24.92796,0.4456824,-56.80307,-0.4675641,5.346524,-69.50346,-8.447793,-36.90935,0,0,0,-20.94599,19.314,20.24077,-121.9802,-110.508,-88.5377,0.001067912,-0.1257102,0.09433498,0,0.3,0,0,0,0
638224436146372960,-6.785269,44.58223,44.19638,-61.88596,-25.44067,0.3724372,-56.80307,-0.4675641,5.346524,-69.43021,-8.447793,-36.83611,0,0,0,-22.2047,21.34675,18.27228,-121.9802,-110.508,-88.5377,0.001067912,-0.1257102,0.09433498,0,0.3,0,0,0,0
