zeyangz2/DNN_classification_different_people_hand/data_by_names/Srikar/srikar_right_17.csv
Timestamp,Therapist joint angle 0,Therapist joint angle 1,Therapist joint angle 2,Therapist joint angle 3,Therapist joint angle 4,Therapist joint angle 5,Patient joint angle 0,Patient joint angle 1,Patient joint angle 2,Patient joint angle 3,Patient joint angle 4,Patient joint angle 5,Virtual joint angle 0,Virtual joint angle 1,Virtual joint angle 2,Therapist position x,Therapist position y,Therapist position z,Patient position x,Patient position y,Patient position z,Virtual position x,Virtual position y,Virtual position z,Assistive Force, Obstacle Force Magnitude, Therapist Constant Force, Patient Constant Force, Recovery Factor, Assistance Level
638225075002536578,0,0,0,0,0,0,0,0,0,0,0,0,0,0,0,0,0,0,0,0,0,0,0,0,0,0.3,0,0,0,0
638225075002756492,-1.130878,-1.005263,0.6303762,76.25443,-64.04088,43.22086,-0.02355996,-0.7013461,-10.64635,-5.706912,-1.196521,50.61862,0,0,0,-2.660381,-112.3315,-33.57967,-0.04469899,-109.3368,-59.64595,0.001067912,-0.1257102,0.09433498,0,0.3,0,0,0,0
638225075003086389,-1.130878,-1.005263,0.6303762,76.32768,-64.04088,43.22086,-0.02355996,-0.7013461,-10.64635,-5.780157,-1.196521,50.61862,0,0,0,-2.660381,-112.3315,-33.57967,-0.04469899,-109.3368,-59.64595,0.001067912,-0.1257102,0.09433498,0,0.3,0,0,0,0
638225075003426293,-1.130878,-1.005263,0.6303762,76.25443,-64.04088,43.22086,-0.02355996,-0.7013461,-10.64635,-5.706912,-1.196521,50.61862,0,0,0,-2.660381,-112.3315,-33.57967,-0.04469899,-109.3368,-59.64595,0.001067912,-0.1257102,0.09433498,0,0.3,0,0,0,0
638225075003766170,-1.130878,-1.005263,0.6303762,76.25443,-64.04088,43.22086,-0.02355996,-0.7013461,-10.64635,-5.706912,-1.196521,50.61862,0,0,0,-2.660381,-112.3315,-33.57967,-0.04469899,-109.3368,-59.64595,0.001067912,-0.1257102,0.09433498,0,0.3,0,0,0,0
638225075004196048,-1.130878,-1.005263,0.6303762,76.25443,-64.04088,43.22086,-0.02355996,-0.7013461,-10.64635,-5.706912,-1.196521,50.61862,0,0,0,-2.660381,-112.3315,-33.57967,-0.04469899,-109.3368,-59.64595,0.001067912,-0.1257102,0.09433498,0,0.3,0,0,0,0
638225075004535935,-1.130878,-1.005263,0.6303762,76.25443,-64.04088,43.22086,-0.02355996,-0.7013461,-10.64635,-5.706912,-1.196521,50.61862,0,0,0,-2.660381,-112.3315,-33.57967,-0.04469899,-109.3368,-59.64595,0.001067912,-0.1257102,0.09433498,0,0.3,0,0,0,0
638225075004875827,-1.130878,-1.005263,0.6303762,76.25443,-63.96763,43.22086,-0.02355996,-0.7013461,-10.64635,-5.706912,-1.196521,50.61862,0,0,0,-2.660381,-112.3315,-33.57967,-0.04469899,-109.3368,-59.64595,0.001067912,-0.1257102,0.09433498,0,0.3,0,0,0,0
638225075005215715,-1.130878,-1.005263,0.6303762,76.32768,-63.96763,43.22086,-0.02355996,-0.7013461,-10.64635,-5.706912,-1.196521,50.61862,0,0,0,-2.660381,-112.3315,-33.57967,-0.04469899,-109.3368,-59.64595,0.001067912,-0.1257102,0.09433498,0,0.3,0,0,0,0
638225075005555604,-1.130878,-1.005263,0.6303762,76.25443,-64.04088,43.22086,-0.02355996,-0.7013461,-10.64635,-5.706912,-1.269767,50.61862,0,0,0,-2.660381,-112.3315,-33.57967,-0.04469899,-109.3368,-59.64595,0.001067912,-0.1257102,0.09433498,0,0.3,0,0,0,0
638225075005895499,-1.130878,-1.005263,0.6303762,76.32768,-64.04088,43.22086,-0.02355996,-0.7013461,-10.64635,-5.780157,-1.196521,50.61862,0,0,0,-2.660381,-112.3315,-33.57967,-0.04469899,-109.3368,-59.64595,0.001067912,-0.1257102,0.09433498,0,0.3,0,0,0,0
638225075006235389,-1.130878,-1.005263,0.6303762,76.32768,-64.04088,43.22086,-0.02355996,-0.7013461,-10.64635,-5.706912,-1.196521,50.61862,0,0,0,-2.660381,-112.3315,-33.57967,-0.04469899,-109.3368,-59.64595,0.001067912,-0.1257102,0.09433498,0,0.3,0,0,0,0
638225075006575281,-1.130878,-1.005263,0.6303762,76.32768,-64.04088,43.22086,-0.02355996,-0.7013461,-10.64635,-5.706912,-1.196521,50.61862,0,0,0,-2.660381,-112.3315,-33.57967,-0.04469899,-109.3368,-59.64595,0.001067912,-0.1257102,0.09433498,0,0.3,0,0,0,0
638225075006915172,-1.130878,-1.005263,0.6303762,76.25443,-64.04088,43.22086,-0.02355996,-0.7013461,-10.64635,-5.706912,-1.269767,50.61862,0,0,0,-2.660381,-112.3315,-33.57967,-0.04469899,-109.3368,-59.64595,0.001067912,-0.1257102,0.09433498,0,0.3,0,0,0,0
638225075007245070,-1.130878,-1.005263,0.6303762,76.25443,-63.96763,43.22086,-0.02355996,-0.7013461,-10.64635,-5.706912,-1.196521,50.61862,0,0,0,-2.660381,-112.3315,-33.57967,-0.04469899,-109.3368,-59.64595,0.001067912,-0.1257102,0.09433498,0,0.3,0,0,0,0
638225075007584967,-1.130878,-1.005263,0.6303762,76.25443,-63.96763,43.22086,-0.02355996,-0.7013461,-10.64635,-5.706912,-1.196521,50.61862,0,0,0,-2.660381,-112.3315,-33.57967,-0.04469899,-109.3368,-59.64595,0.001067912,-0.1257102,0.09433498,0,0.3,0,0,0,0
638225075007924843,-1.130878,-1.005263,0.6303762,76.25443,-63.96763,43.22086,-0.02355996,-0.7013461,-10.64635,-5.706912,-1.196521,50.61862,0,0,0,-2.660381,-112.3315,-33.57967,-0.04469899,-109.3368,-59.64595,0.001067912,-0.1257102,0.09433498,0,0.3,0,0,0,0
638225075008274740,-1.130878,-1.005263,0.6303762,76.25443,-63.96763,43.22086,-0.02355996,-0.7013461,-10.64635,-5.706912,-1.196521,50.61862,0,0,0,-2.660381,-112.3315,-33.57967,-0.04469899,-109.3368,-59.64595,0.001067912,-0.1257102,0.09433498,0,0.3,0,0,0,0
638225075008754594,-1.130878,-1.005263,0.6303762,76.25443,-64.04088,43.22086,-0.02355996,-0.7013461,-10.64635,-5.706912,-1.196521,50.61862,0,0,0,-2.660381,-112.3315,-33.57967,-0.04469899,-109.3368,-59.64595,0.001067912,-0.1257102,0.09433498,0,0.3,0,0,0,0
638225075009104475,-1.130878,-1.005263,0.6303762,76.32768,-64.04088,43.22086,-0.02355996,-0.7013461,-10.64635,-5.706912,-1.196521,50.61862,0,0,0,-2.660381,-112.3315,-33.57967,-0.04469899,-109.3368,-59.64595,0.001067912,-0.1257102,0.09433498,0,0.3,0,0,0,0
638225075009444372,-1.130878,-1.005263,0.6303762,76.25443,-64.04088,43.22086,-0.02355996,-0.7013461,-10.64635,-5.706912,-1.196521,50.61862,0,0,0,-2.660381,-112.3315,-33.57967,-0.04469899,-109.3368,-59.64595,0.001067912,-0.1257102,0.09433498,0,0.3,0,0,0,0
638225075009784267,-1.130878,-1.005263,0.6303762,76.25443,-64.04088,43.22086,-0.02355996,-0.7013461,-10.64635,-5.706912,-1.196521,50.61862,0,0,0,-2.660381,-112.3315,-33.57967,-0.04469899,-109.3368,-59.64595,0.001067912,-0.1257102,0.09433498,0,0.3,0,0,0,0
638225075010214122,-1.130878,-1.005263,0.6303762,76.25443,-64.04088,43.22086,-0.02355996,-0.7013461,-10.64635,-5.706912,-1.196521,50.61862,0,0,0,-2.660381,-112.3315,-33.57967,-0.04469899,-109.3368,-59.64595,0.001067912,-0.1257102,0.09433498,0,0.3,0,0,0,0
638225075010554021,-1.130878,-1.005263,0.6303762,76.25443,-64.04088,43.22086,-0.02355996,-0.7013461,-10.64635,-5.706912,-1.196521,50.61862,0,0,0,-2.660381,-112.3315,-33.57967,-0.04469899,-109.3368,-59.64595,0.001067912,-0.1257102,0.09433498,0,0.3,0,0,0,0
638225075010889452,-1.130878,-1.005263,0.6303762,76.25443,-64.04088,43.22086,-0.02355996,-0.7013461,-10.64635,-5.706912,-1.196521,50.61862,0,0,0,-2.660381,-112.3315,-33.57967,-0.04469899,-109.3368,-59.64595,0.001067912,-0.1257102,0.09433498,0,0.3,0,0,0,0
638225075011239291,-1.130878,-1.005263,0.6303762,76.25443,-64.04088,43.22086,-0.02355996,-0.7013461,-10.64635,-5.706912,-1.196521,50.61862,0,0,0,-2.660381,-112.3315,-33.57967,-0.04469899,-109.3368,-59.64595,0.001067912,-0.1257102,0.09433498,0,0.3,0,0,0,0
638225075011589168,-1.130878,-1.005263,0.6303762,76.25443,-64.04088,43.22086,-0.02355996,-0.7013461,-10.64635,-5.706912,-1.196521,50.61862,0,0,0,-2.660381,-112.3315,-33.57967,-0.04469899,-109.3368,-59.64595,0.001067912,-0.1257102,0.09433498,0,0.3,0,0,0,0
638225075011919064,-1.130878,-1.005263,0.6303762,76.25443,-64.04088,43.22086,-0.02355996,-0.7013461,-10.64635,-5.706912,-1.196521,50.61862,0,0,0,-2.660381,-112.3315,-33.57967,-0.04469899,-109.3368,-59.64595,0.001067912,-0.1257102,0.09433498,0,0.3,0,0,0,0
638225075012258944,-1.130878,-1.005263,0.6303762,76.25443,-64.04088,43.22086,-0.02355996,-0.7013461,-10.64635,-5.706912,-1.196521,50.61862,0,0,0,-2.660381,-112.3315,-33.57967,-0.04469899,-109.3368,-59.64595,0.001067912,-0.1257102,0.09433498,0,0.3,0,0,0,0
638225075012628836,-1.130878,-1.005263,0.6303762,76.32768,-64.04088,43.22086,-0.02355996,-0.7013461,-10.64635,-5.706912,-1.196521,50.61862,0,0,0,-2.660381,-112.3315,-33.57967,-0.04469899,-109.3368,-59.64595,0.001067912,-0.1257102,0.09433498,0,0.3,0,0,0,0
638225075012968725,-1.130878,-1.005263,0.6303762,76.25443,-64.04088,43.22086,-0.02355996,-0.7013461,-10.64635,-5.706912,-1.196521,50.61862,0,0,0,-2.660381,-112.3315,-33.57967,-0.04469899,-109.3368,-59.64595,0.001067912,-0.1257102,0.09433498,0,0.3,0,0,0,0
638225075013308687,-1.130878,-1.005263,0.6303762,76.25443,-64.04088,43.22086,-0.02355996,-0.7013461,-10.64635,-5.706912,-1.196521,50.61862,0,0,0,-2.660381,-112.3315,-33.57967,-0.04469899,-109.3368,-59.64595,0.001067912,-0.1257102,0.09433498,0,0.3,0,0,0,0
638225075013648500,-1.130878,-1.005263,0.6303762,76.25443,-63.96763,43.22086,-0.02355996,-0.7013461,-10.64635,-5.706912,-1.196521,50.61862,0,0,0,-2.660381,-112.3315,-33.57967,-0.04469899,-109.3368,-59.64595,0.001067912,-0.1257102,0.09433498,0,0.3,0,0,0,0
638225075013998404,-1.130878,-1.005263,0.6303762,76.25443,-63.96763,43.22086,-0.02355996,-0.7013461,-10.64635,-5.780157,-1.196521,50.61862,0,0,0,-2.660381,-112.3315,-33.57967,-0.04469899,-109.3368,-59.64595,0.001067912,-0.1257102,0.09433498,0,0.3,0,0,0,0
638225075014338280,-1.130878,-1.005263,0.6303762,76.25443,-64.04088,43.22086,-0.02355996,-0.7013461,-10.64635,-5.706912,-1.196521,50.61862,0,0,0,-2.660381,-112.3315,-33.57967,-0.04469899,-109.3368,-59.64595,0.001067912,-0.1257102,0.09433498,0,0.3,0,0,0,0
638225075014738165,-1.130878,-1.005263,0.6303762,76.25443,-64.04088,43.22086,-0.02355996,-0.7013461,-10.64635,-5.706912,-1.196521,50.61862,0,0,0,-2.660381,-112.3315,-33.57967,-0.04469899,-109.3368,-59.64595,0.001067912,-0.1257102,0.09433498,0,0.3,0,0,0,0
638225075015088163,-1.130878,-1.005263,0.6303762,76.25443,-64.04088,43.22086,-0.02355996,-0.7013461,-10.64635,-5.706912,-1.196521,50.61862,0,0,0,-2.660381,-112.3315,-33.57967,-0.04469899,-109.3368,-59.64595,0.001067912,-0.1257102,0.09433498,0,0.3,0,0,0,0
638225075015417936,-1.130878,-1.005263,0.6303762,76.25443,-64.04088,43.22086,-0.02355996,-0.7013461,-10.64635,-5.706912,-1.196521,50.61862,0,0,0,-2.660381,-112.3315,-33.57967,-0.04469899,-109.3368,-59.64595,0.001067912,-0.1257102,0.09433498,0,0.3,0,0,0,0
638225075015767838,-1.130878,-1.005263,0.6303762,76.25443,-64.04088,43.22086,-0.02355996,-0.7013461,-10.64635,-5.706912,-1.196521,50.61862,0,0,0,-2.660381,-112.3315,-33.57967,-0.04469899,-109.3368,-59.64595,0.001067912,-0.1257102,0.09433498,0,0.3,0,0,0,0
638225075016107724,-1.130878,-1.005263,0.6303762,76.25443,-64.04088,43.22086,-0.02355996,-0.7013461,-10.64635,-5.706912,-1.269767,50.61862,0,0,0,-2.660381,-112.3315,-33.57967,-0.04469899,-109.3368,-59.64595,0.001067912,-0.1257102,0.09433498,0,0.3,0,0,0,0
638225075016457624,-1.130878,-1.005263,0.6303762,76.25443,-63.96763,43.22086,-0.02355996,-0.7013461,-10.64635,-5.706912,-1.196521,50.61862,0,0,0,-2.660381,-112.3315,-33.57967,-0.04469899,-109.3368,-59.64595,0.001067912,-0.1257102,0.09433498,0,0.3,0,0,0,0
638225075016797510,-1.130878,-1.005263,0.6303762,76.25443,-64.04088,43.22086,-0.02355996,-0.7013461,-10.64635,-5.706912,-1.196521,50.69187,0,0,0,-2.660381,-112.3315,-33.57967,-0.04469899,-109.3368,-59.64595,0.001067912,-0.1257102,0.09433498,0,0.3,0,0,0,0
638225075017147396,-1.130878,-1.005263,0.6303762,76.25443,-64.04088,43.22086,-0.02355996,-0.7013461,-10.64635,-5.706912,-1.196521,50.61862,0,0,0,-2.660381,-112.3315,-33.57967,-0.04469899,-109.3368,-59.64595,0.001067912,-0.1257102,0.09433498,0,0.3,0,0,0,0
638225075017477289,-1.130878,-1.005263,0.6303762,76.25443,-63.96763,43.22086,-0.02355996,-0.7013461,-10.64635,-5.706912,-1.196521,50.61862,0,0,0,-2.660381,-112.3315,-33.57967,-0.04469899,-109.3368,-59.64595,0.001067912,-0.1257102,0.09433498,0,0.3,0,0,0,0
638225075017817178,-1.861237,-1.005263,0.6303762,76.32768,-63.89439,43.22086,-0.02355996,-0.7013461,-10.64635,-5.706912,-1.196521,50.61862,0,0,0,-4.378058,-112.3315,-33.62453,-0.04469899,-109.3368,-59.64595,0.001067912,-0.1257102,0.09433498,0,0.3,0,0,0,0
638225075018167066,-2.591596,-1.005263,0.6537234,76.25443,-62.9422,43.29411,-0.02355996,-0.7013461,-10.64635,-5.706912,-1.269767,50.61862,0,0,0,-6.09748,-112.3308,-33.63701,-0.04469899,-109.3368,-59.64595,0.001067912,-0.1257102,0.09433498,0,0.3,0,0,0,0
638225075018516946,-4.052313,-1.005263,0.7237652,75.66847,-58.69398,44.39278,-0.02355996,-0.7013461,-10.64635,-5.706912,-1.269767,50.61862,0,0,0,-9.541063,-112.3289,-33.67362,-0.04469899,-109.3368,-59.64595,0.001067912,-0.1257102,0.09433498,0,0.3,0,0,0,0
638225075018856845,-6.761709,-1.005263,0.7237652,71.42025,-54.07953,51.49756,-0.02355996,-0.7013461,-10.64635,-5.706912,-1.269767,50.61862,0,0,0,-15.89658,-112.3289,-34.27518,-0.04469899,-109.3368,-59.64595,0.001067912,-0.1257102,0.09433498,0,0.3,0,0,0,0
638225075019306701,-12.0627,-0.9818845,0.9338906,61.38566,-49.90456,66.51283,-0.02355996,-0.7013461,-10.64635,-5.706912,-1.196521,50.61862,0,0,0,-28.31786,-112.2674,-35.83814,-0.04469899,-109.3368,-59.64595,0.001067912,-0.1257102,0.09433498,0,0.3,0,0,0,0
638225075019646587,-15.19618,-0.9818845,0.9805852,54.72035,-47.26773,76.25443,-0.02355996,-0.7013461,-10.64635,-5.706912,-1.269767,50.61862,0,0,0,-35.5474,-112.2656,-37.47931,-0.04469899,-109.3368,-59.64595,0.001067912,-0.1257102,0.09433498,0,0.3,0,0,0,0
638225075019986485,-20.09665,-0.9351282,2.241338,44.97874,-42.79977,90.09777,-0.02355996,-0.7013461,-10.64635,-5.706912,-1.269767,50.61862,0,0,0,-47.60554,-112.0743,-38.23816,-0.04469899,-109.3368,-59.64595,0.001067912,-0.1257102,0.09433498,0,0.3,0,0,0,0
638225075020326378,-22.7118,-0.9117499,3.735562,40.14456,-41.04189,95.95738,-0.02355996,-0.7013461,-10.64635,-5.706912,-1.196521,50.61862,0,0,0,-54.83379,-111.8386,-37.34142,-0.04469899,-109.3368,-59.64595,0.001067912,-0.1257102,0.09433498,0,0.3,0,0,0,0
638225075020776234,-27.91855,-0.5844551,7.587861,31.06216,-39.13752,105.8455,-0.02355996,-0.7013461,-10.64635,-5.706912,-1.269767,50.61862,0,0,0,-70.67788,-110.1926,-34.96718,-0.04469899,-109.3368,-59.64595,0.001067912,-0.1257102,0.09433498,0,0.3,0,0,0,0
638225075021116124,-33.31378,0.116891,12.25731,21.17406,-39.4305,118.7366,-0.02355996,-0.7013461,-10.64635,-5.780157,-1.269767,50.61862,0,0,0,-88.78767,-106.6881,-33.25453,-0.04469899,-109.3368,-59.64595,0.001067912,-0.1257102,0.09433498,0,0.3,0,0,0,0
638225075021446019,-38.47342,0.7247244,17.25363,7.330729,-40.96865,143.4935,-0.02355996,-0.7013461,-10.64635,-5.706912,-1.196521,50.61862,0,0,0,-107.5645,-102.3127,-32.994,-0.04469899,-109.3368,-59.64595,0.001067912,-0.1257102,0.09433498,0,0.3,0,0,0,0
638225075021785912,-41.67757,1.239045,21.59622,-9.66215,-41.26163,144.8119,-0.02355996,-0.7013461,-10.64635,-5.706912,-1.196521,50.61862,0,0,0,-121.2847,-97.75541,-32.11567,-0.04469899,-109.3368,-59.64595,0.001067912,-0.1257102,0.09433498,0,0.3,0,0,0,0
638225075022125798,-42.66709,1.683231,23.39396,-17.35289,-40.8954,144.9584,-0.02355996,-0.7013461,-10.64635,-5.706912,-1.196521,50.61862,0,0,0,-126.2213,-95.12118,-31.40755,-0.04469899,-109.3368,-59.64595,0.001067912,-0.1257102,0.09433498,0,0.3,0,0,0,0
638225075022465684,-43.84509,3.109301,25.93881,-29.65808,-39.79673,144.8119,-0.02355996,-0.7013461,-10.64635,-5.706912,-1.196521,50.61862,0,0,0,-132.642,-89.33352,-30.24992,-0.04469899,-109.3368,-59.64595,0.001067912,-0.1257102,0.09433498,0,0.3,0,0,0,0
638225075022795586,-44.66969,5.306852,27.73655,-38.74048,-38.03884,144.9584,-0.02355996,-0.7013461,-10.64635,-5.780157,-1.196521,50.61862,0,0,0,-136.9764,-82.34418,-29.78505,-0.04469899,-109.3368,-59.64595,0.001067912,-0.1257102,0.09433498,0,0.3,0,0,0,0
638225075023135484,-44.97597,6.943326,28.71714,-42.69572,-37.1599,144.9584,-0.02355996,-0.7013461,-10.64635,-5.780157,-1.196521,50.61862,0,0,0,-138.8492,-77.47794,-29.38428,-0.04469899,-109.3368,-59.64595,0.001067912,-0.1257102,0.09433498,0,0.3,0,0,0,0
638225075023475376,-45.18801,10.59033,30.63161,-49.50752,-35.91473,144.8119,-0.02355996,-0.7013461,-10.64635,-5.706912,-1.196521,50.61862,0,0,0,-141.1912,-66.8847,-28.08233,-0.04469899,-109.3368,-59.64595,0.001067912,-0.1257102,0.09433498,0,0.3,0,0,0,0
638225075023815279,-45.18801,14.49449,32.49939,-55.58687,-35.76824,144.8119,-0.02355996,-0.7013461,-10.64635,-5.706912,-1.196521,50.61862,0,0,0,-142.4191,-55.74126,-26.86246,-0.04469899,-109.3368,-59.64595,0.001067912,-0.1257102,0.09433498,0,0.3,0,0,0,0
638225075024145156,-45.18801,16.50501,33.47998,-58.73641,-35.91473,144.8852,-0.02355996,-0.7013461,-10.64635,-5.706912,-1.196521,50.61862,0,0,0,-142.8901,-49.98976,-26.39461,-0.04469899,-109.3368,-59.64595,0.001067912,-0.1257102,0.09433498,0,0.3,0,0,0,0
638225075024485052,-45.18801,20.61958,35.4178,-64.59603,-36.06122,144.9584,-0.02355996,-0.7013461,-10.64635,-5.706912,-1.269767,50.61862,0,0,0,-143.3662,-38.36256,-25.92157,-0.04469899,-109.3368,-59.64595,0.001067912,-0.1257102,0.09433498,0,0.3,0,0,0,0
638225075024814933,-45.18801,25.08481,37.23889,-70.16266,-35.98798,144.8852,-0.02355996,-0.7013461,-10.64635,-5.780157,-1.269767,50.61862,0,0,0,-142.926,-26.27754,-26.35886,-0.04469899,-109.3368,-59.64595,0.001067912,-0.1257102,0.09433498,0,0.3,0,0,0,0
638225075025154834,-45.18801,27.28236,38.0327,-72.72624,-35.91473,144.8852,-0.02355996,-0.7013461,-10.64635,-5.706912,-1.269767,50.61862,0,0,0,-142.363,-20.55993,-26.91819,-0.04469899,-109.3368,-59.64595,0.001067912,-0.1257102,0.09433498,0,0.3,0,0,0,0
638225075025494726,-45.09377,31.81774,40.20399,-77.92664,-35.32877,144.8852,-0.02355996,-0.7013461,-10.64635,-5.706912,-1.196521,50.61862,0,0,0,-141.2208,-8.191573,-27.59068,-0.04469899,-109.3368,-59.64595,0.001067912,-0.1257102,0.09433498,0,0.3,0,0,0,0
638225075025834615,-44.97597,35.97906,43.33253,-82.54109,-34.37658,144.8119,-0.02355996,-0.7013461,-10.64635,-5.706912,-1.196521,50.61862,0,0,0,-140.9521,4.695154,-27.27962,-0.04469899,-109.3368,-59.64595,0.001067912,-0.1257102,0.09433498,0,0.3,0,0,0,0
638225075026164509,-44.85817,37.94283,45.27035,-85.17792,-33.86386,144.8852,-0.02355996,-0.7013461,-10.64635,-5.706912,-1.196521,50.61862,0,0,0,-141.0001,11.49683,-26.65012,-0.04469899,-109.3368,-59.64595,0.001067912,-0.1257102,0.09433498,0,0.3,0,0,0,0
638225075026514411,-44.62257,41.77685,49.19269,-90.89104,-32.25247,144.8852,-0.02355996,-0.7013461,-10.64635,-5.706912,-1.196521,50.61862,0,0,0,-140.7531,25.04541,-25.73014,-0.04469899,-109.3368,-59.64595,0.001067912,-0.1257102,0.09433498,0,0.3,0,0,0,0
638225075026844284,-44.41053,45.23682,52.5547,-95.43224,-30.12836,144.8852,-0.02355996,-0.7013461,-10.64635,-5.706912,-1.196521,50.61862,0,0,0,-139.8002,36.95432,-25.64315,-0.04469899,-109.3368,-59.64595,0.001067912,-0.1257102,0.09433498,0,0.3,0,0,0,0
638225075027184187,-44.24561,47.64478,53.83879,-94.04059,-27.19856,144.9584,-0.02355996,-0.7013461,-10.64635,-5.706912,-1.196521,50.54538,0,0,0,-137.8046,43.20888,-26.86787,-0.04469899,-109.3368,-59.64595,0.001067912,-0.1257102,0.09433498,0,0.3,0,0,0,0
638225075027524078,-44.03357,48.88382,55.09955,-91.76999,-25.8069,144.8852,-0.02355996,-0.7013461,-10.64635,-5.706912,-1.196521,50.61862,0,0,0,-136.9696,47.51641,-26.67999,-0.04469899,-109.3368,-59.64595,0.001067912,-0.1257102,0.09433498,0,0.3,0,0,0,0
638225075027863971,-43.23253,51.78272,58.9285,-90.30508,-23.68279,144.8852,-0.02355996,-0.7013461,-10.64635,-5.706912,-1.196521,50.61862,0,0,0,-134.7413,59.29622,-25.02827,-0.04469899,-109.3368,-59.64595,0.001067912,-0.1257102,0.09433498,0,0.3,0,0,0,0
638225075028296843,-41.41841,55.80377,63.38783,-92.79542,-22.36438,144.8852,-0.02355996,-0.7013461,-10.64635,-5.780157,-1.269767,50.61862,0,0,0,-128.4533,73.91212,-22.7427,-0.04469899,-109.3368,-59.64595,0.001067912,-0.1257102,0.09433498,0,0.3,0,0,0,0
638225075028636736,-40.16973,58.16497,65.349,-94.5533,-22.14464,144.9584,-0.02355996,-0.7013461,-10.64635,-5.706912,-1.269767,50.61862,0,0,0,-123.5511,81.02126,-21.99027,-0.04469899,-109.3368,-59.64595,0.001067912,-0.1257102,0.09433498,0,0.3,0,0,0,0
638225075028976628,-38.94461,60.05861,66.93661,-95.94496,-22.29113,144.9584,-0.02355996,-0.7013461,-10.64635,-5.706912,-1.196521,50.61862,0,0,0,-118.9557,86.66286,-21.16128,-0.04469899,-109.3368,-59.64595,0.001067912,-0.1257102,0.09433498,0,0.3,0,0,0,0
638225075029316532,-35.88182,64.07965,70.97569,-100.1199,-23.24332,144.8852,-0.02355996,-0.7013461,-10.64635,-5.780157,-1.269767,50.61862,0,0,0,-108.0542,99.81733,-18.9792,-0.04469899,-109.3368,-59.64595,0.001067912,-0.1257102,0.09433498,0,0.3,0,0,0,0
638225075029656408,-32.81903,68.2176,75.50506,-107.8839,-24.92796,144.8852,-0.02355996,-0.7013461,-10.64635,-5.706912,-1.196521,50.61862,0,0,0,-96.79314,113.802,-18.26593,-0.04469899,-109.3368,-59.64595,0.001067912,-0.1257102,0.09433498,0,0.3,0,0,0,0
638225075029996314,-30.53371,71.39703,78.30673,-116.3071,-26.53935,144.8119,-0.02355996,-0.7013461,-10.64635,-5.706912,-1.269767,50.61862,0,0,0,-87.95396,122.7064,-19.23449,-0.04469899,-109.3368,-59.64595,0.001067912,-0.1257102,0.09433498,0,0.3,0,0,0,0
638225075030336207,-29.75623,72.84648,79.56748,-119.3834,-26.97882,144.8119,-0.02355996,-0.7013461,-10.64635,-5.706912,-1.196521,50.61862,0,0,0,-84.60854,126.6217,-20.35311,-0.04469899,-109.3368,-59.64595,0.001067912,-0.1257102,0.09433498,0,0.3,0,0,0,0
638225075030676093,-28.46043,75.16093,81.9956,-122.4597,-26.97882,144.8852,-0.02355996,-0.7013461,-10.64635,-5.706912,-1.269767,50.61862,0,0,0,-79.20406,133.6838,-22.23372,-0.04469899,-109.3368,-59.64595,0.001067912,-0.1257102,0.09433498,0,0.3,0,0,0,0
638225075031006110,-27.51804,77.17145,84.30698,-123.7781,-25.8069,144.9584,-0.02355996,-0.7013461,-10.64635,-5.706912,-1.269767,50.61862,0,0,0,-74.98737,140.1433,-24.41124,-0.04469899,-109.3368,-59.64595,0.001067912,-0.1257102,0.09433498,0,0.3,0,0,0,0
638225075031355878,-27.11752,78.05982,84.9607,-123.5584,-24.92796,144.8852,-0.02355996,-0.7013461,-10.64635,-5.706912,-1.269767,50.61862,0,0,0,-73.12371,142.1015,-25.5614,-0.04469899,-109.3368,-59.64595,0.001067912,-0.1257102,0.09433498,0,0.3,0,0,0,0
638225075031695775,-26.17512,79.6963,85.89459,-121.4343,-23.17007,144.8852,-0.02355996,-0.7013461,-10.64635,-5.706912,-1.196521,50.69187,0,0,0,-69.1933,145.0028,-27.57636,-0.04469899,-109.3368,-59.64595,0.001067912,-0.1257102,0.09433498,0,0.3,0,0,0,0
638225075032045657,-25.23272,81.37952,85.96463,-116.5269,-21.04596,144.9584,-0.02355996,-0.7013461,-10.64635,-5.706912,-1.196521,50.61862,0,0,0,-65.22628,145.8094,-29.9423,-0.04469899,-109.3368,-59.64595,0.001067912,-0.1257102,0.09433498,0,0.3,0,0,0,0
638225075032385535,-23.60708,82.64195,85.56773,-109.8615,-18.55563,144.8852,-0.02355996,-0.7013461,-10.64635,-5.780157,-1.196521,50.61862,0,0,0,-60.08107,145.2965,-30.87619,-0.04469899,-109.3368,-59.64595,0.001067912,-0.1257102,0.09433498,0,0.3,0,0,0,0
638225075032815410,-20.09665,83.74072,85.49769,-102.6835,-16.43152,144.9584,-0.02355996,-0.7013461,-10.64635,-5.706912,-1.196521,50.61862,0,0,0,-50.67392,145.4372,-29.85189,-0.04469899,-109.3368,-59.64595,0.001067912,-0.1257102,0.09433498,0,0.3,0,0,0,0
638225075033145301,-18.21185,84.48882,85.8479,-100.7059,-15.99205,144.8852,-0.02355996,-0.7013461,-10.64635,-5.706912,-1.196521,50.61862,0,0,0,-45.56924,146.4285,-29.84692,-0.04469899,-109.3368,-59.64595,0.001067912,-0.1257102,0.09433498,0,0.3,0,0,0,0
638225075033485187,-14.1831,86.5461,86.71175,-98.80152,-15.99205,144.9584,-0.02355996,-0.7013461,-10.64635,-5.706912,-1.196521,50.61862,0,0,0,-34.58823,148.8089,-31.48885,-0.04469899,-109.3368,-59.64595,0.001067912,-0.1257102,0.09433498,0,0.3,0,0,0,0
638225075033815091,-9.164824,89.14109,86.94521,-98.50854,-17.38371,144.8852,-0.02355996,-0.7013461,-10.64635,-5.706912,-1.269767,50.61862,0,0,0,-21.52754,149.5787,-34.91595,-0.04469899,-109.3368,-59.64595,0.001067912,-0.1257102,0.09433498,0,0.3,0,0,0,0
638225075034154980,-6.620349,90.31,86.92187,-98.50854,-18.55563,144.9584,-0.02355996,-0.7013461,-10.64635,-5.706912,-1.196521,50.61862,0,0,0,-15.26855,149.5375,-36.79698,-0.04469899,-109.3368,-59.64595,0.001067912,-0.1257102,0.09433498,0,0.3,0,0,0,0
638225075034504860,-0.7774788,92.08675,86.89852,-97.70284,-21.55868,144.8852,-0.02355996,-0.7013461,-10.64635,-5.706912,-1.269767,50.61862,0,0,0,-1.740909,149.3967,-40.06274,-0.04469899,-109.3368,-59.64595,0.001067912,-0.1257102,0.09433498,0,0.3,0,0,0,0
638225075034844763,5.277431,92.62444,86.89852,-96.60417,-25.44067,144.8119,-0.02355996,-0.7013461,-10.64635,-5.706912,-1.196521,50.61862,0,0,0,11.68573,149.3453,-41.83986,-0.04469899,-109.3368,-59.64595,0.001067912,-0.1257102,0.09433498,0,0.3,0,0,0,0
638225075035184708,10.83758,92.64782,86.87518,-94.40681,-29.39591,144.8852,-0.02355996,-0.7013461,-10.64635,-5.706912,-1.196521,50.61862,0,0,0,23.87763,149.2885,-43.6236,-0.04469899,-109.3368,-59.64595,0.001067912,-0.1257102,0.09433498,0,0.3,0,0,0,0
638225075035514545,13.68834,92.64782,86.87518,-93.23489,-31.52002,144.8852,-0.02355996,-0.7013461,-10.64635,-5.706912,-1.196521,50.69187,0,0,0,30.05129,149.2885,-44.9655,-0.04469899,-109.3368,-59.64595,0.001067912,-0.1257102,0.09433498,0,0.3,0,0,0,0
638225075035864434,19.95529,92.64782,86.87518,-92.20946,-36.79367,144.8852,-0.02355996,-0.7013461,-10.64635,-5.706912,-1.196521,50.61862,0,0,0,43.34048,149.2885,-48.98326,-0.04469899,-109.3368,-59.64595,0.001067912,-0.1257102,0.09433498,0,0.3,0,0,0,0
638225075036204329,24.66728,92.62444,86.87518,-93.52787,-41.18839,144.8852,-0.02355996,-0.7013461,-10.64635,-5.706912,-1.196521,50.61862,0,0,0,53.02231,149.291,-52.8976,-0.04469899,-109.3368,-59.64595,0.001067912,-0.1257102,0.09433498,0,0.3,0,0,0,0
638225075036564214,27.09396,92.55431,86.73509,-95.28575,-43.67872,144.8852,-0.02355996,-0.7013461,-10.64635,-5.706912,-1.196521,50.61862,0,0,0,57.9291,148.9729,-55.11715,-0.04469899,-109.3368,-59.64595,0.001067912,-0.1257102,0.09433498,0,0.3,0,0,0,0
638225075036910209,31.16983,92.22701,86.10472,-100.3397,-48.58614,144.9584,-0.02355996,-0.7013461,-10.64635,-5.706912,-1.196521,50.61862,0,0,0,66.17739,147.5404,-58.94817,-0.04469899,-109.3368,-59.64595,0.001067912,-0.1257102,0.09433498,0,0.3,0,0,0,0
638225075037340070,33.9499,91.78283,85.59107,-103.2695,-53.20059,144.8852,-0.02355996,-0.7013461,-10.64635,-5.706912,-1.196521,50.61862,0,0,0,71.93441,146.3843,-61.50146,-0.04469899,-109.3368,-59.64595,0.001067912,-0.1257102,0.09433498,0,0.3,0,0,0,0
638225075037679962,35.45774,90.8477,85.54439,-103.6357,-56.71636,144.8852,-0.02355996,-0.7013461,-10.64635,-5.706912,-1.196521,50.61862,0,0,0,75.9784,146.3259,-61.66586,-0.04469899,-109.3368,-59.64595,0.001067912,-0.1257102,0.09433498,0,0.3,0,0,0,0
638225075038029851,36.3059,89.79568,85.56773,-100.9256,-58.84047,144.8852,-0.02355996,-0.7013461,-10.64635,-5.706912,-1.196521,50.61862,0,0,0,79.00146,146.3938,-60.82575,-0.04469899,-109.3368,-59.64595,0.001067912,-0.1257102,0.09433498,0,0.3,0,0,0,0
638225075038359735,36.63574,89.32812,85.59107,-97.48311,-59.57292,144.226,-0.02355996,-0.7013461,-10.64635,-5.706912,-1.196521,50.61862,0,0,0,80.27098,146.4396,-60.40577,-0.04469899,-109.3368,-59.64595,0.001067912,-0.1257102,0.09433498,0,0.3,0,0,0,0
638225075038699640,37.03626,88.58002,85.56773,-88.47395,-60.37862,136.9747,-0.02355996,-0.7013461,-10.64635,-5.706912,-1.196521,50.61862,0,0,0,82.0696,146.3537,-59.58324,-0.04469899,-109.3368,-59.64595,0.001067912,-0.1257102,0.09433498,0,0.3,0,0,0,0
638225075039039520,37.27186,88.11245,85.56773,-78.95209,-60.81809,130.0164,-0.02355996,-0.7013461,-10.64635,-5.780157,-1.196521,50.61862,0,0,0,83.17489,146.3223,-59.05603,-0.04469899,-109.3368,-59.64595,0.001067912,-0.1257102,0.09433498,0,0.3,0,0,0,0
638225075039389417,37.34254,87.76178,85.54439,-70.16266,-60.81809,123.1313,-0.02355996,-0.7013461,-10.64635,-5.706912,-1.196521,50.61862,0,0,0,83.80184,146.2387,-58.51362,-0.04469899,-109.3368,-59.64595,0.001067912,-0.1257102,0.09433498,0,0.3,0,0,0,0
638225075039729303,37.3661,87.57475,85.47434,-66.13418,-60.74484,120.641,-0.02355996,-0.7013461,-10.64635,-5.706912,-1.196521,50.61862,0,0,0,84.1032,146.0585,-58.21257,-0.04469899,-109.3368,-59.64595,0.001067912,-0.1257102,0.09433498,0,0.3,0,0,0,0
638225075040069203,37.41322,87.2007,85.03074,-58.73641,-60.23213,117.052,-0.02355996,-0.7013461,-10.64635,-5.706912,-1.196521,50.61862,0,0,0,84.67021,144.9899,-57.6589,-0.04469899,-109.3368,-59.64595,0.001067912,-0.1257102,0.09433498,0,0.3,0,0,0,0
638225075040439089,37.41322,86.663,83.58321,-48.92156,-59.35318,111.7783,-0.02355996,-0.7013461,-10.64635,-5.706912,-1.269767,50.61862,0,0,0,85.2264,141.5707,-56.93178,-0.04469899,-109.3368,-59.64595,0.001067912,-0.1257102,0.09433498,0,0.3,0,0,0,0
638225075040788968,37.41322,85.63436,80.29124,-37.86154,-57.37556,107.2371,-0.02355996,-0.7013461,-10.64635,-5.706912,-1.196521,50.61862,0,0,0,86.02483,133.825,-55.88798,-0.04469899,-109.3368,-59.64595,0.001067912,-0.1257102,0.09433498,0,0.3,0,0,0,0
638225075041118875,37.38966,84.65248,77.88648,-31.85544,-55.47119,105.2595,-0.02355996,-0.7013461,-10.64635,-5.706912,-1.196521,50.69187,0,0,0,86.71798,128.1362,-54.88515,-0.04469899,-109.3368,-59.64595,0.001067912,-0.1257102,0.09433498,0,0.3,0,0,0,0
638225075041458747,37.31898,81.44966,71.3259,-20.57568,-48.95237,103.0622,-0.02355996,-0.7013461,-10.64635,-5.780157,-1.196521,50.61862,0,0,0,88.60738,112.5212,-52.11608,-0.04469899,-109.3368,-59.64595,0.001067912,-0.1257102,0.09433498,0,0.3,0,0,0,0
638225075041848636,37.03626,76.4701,64.43845,-11.34679,-38.55156,102.8424,-0.02355996,-0.7013461,-10.64635,-5.780157,-1.196521,50.61862,0,0,0,91.24888,95.46136,-47.41795,-0.04469899,-109.3368,-59.64595,0.001067912,-0.1257102,0.09433498,0,0.3,0,0,0,0
638225075042188522,36.7771,72.6127,60.6562,-6.732344,-30.20161,105.1863,-0.02355996,-0.7013461,-10.64635,-5.706912,-1.196521,50.61862,0,0,0,93.45127,85.25874,-43.32696,-0.04469899,-109.3368,-59.64595,0.001067912,-0.1257102,0.09433498,0,0.3,0,0,0,0
638225075042528402,36.63574,70.39178,58.85846,-4.388499,-25.0012,108.1161,-0.02355996,-0.7013461,-10.64635,-5.706912,-1.196521,50.61862,0,0,0,94.80999,80.00444,-40.85446,-0.04469899,-109.3368,-59.64595,0.001067912,-0.1257102,0.09433498,0,0.3,0,0,0,0
638225075042868295,36.3059,66.53437,56.03344,-0.5065048,-14.82012,113.0968,-0.02355996,-0.7013461,-10.64635,-5.706912,-1.196521,50.61862,0,0,0,96.92347,71.16799,-36.43316,-0.04469899,-109.3368,-59.64595,0.001067912,-0.1257102,0.09433498,0,0.3,0,0,0,0
638225075043238175,35.81114,63.26142,53.76875,2.423302,-5.15176,115.8068,-0.02355996,-0.7013461,-10.64635,-5.706912,-1.196521,50.61862,0,0,0,98.04315,63.62476,-32.46552,-0.04469899,-109.3368,-59.64595,0.001067912,-0.1257102,0.09433498,0,0.3,0,0,0,0
638225075043578093,35.55198,62.30291,53.20842,3.228999,-1.855728,116.2463,-0.02355996,-0.7013461,-10.64635,-5.706912,-1.196521,50.61862,0,0,0,98.12982,61.55628,-31.04074,-0.04469899,-109.3368,-59.64595,0.001067912,-0.1257102,0.09433498,0,0.3,0,0,0,0
638225075043917973,35.03366,60.73657,52.67143,4.400921,4.589847,116.759,-0.02355996,-0.7013461,-10.64635,-5.706912,-1.196521,50.61862,0,0,0,98.29071,58.82063,-28.1517,-0.04469899,-109.3368,-59.64595,0.001067912,-0.1257102,0.09433498,0,0.3,0,0,0,0
638225075044257850,34.93942,59.89495,52.78817,5.060128,8.618331,116.9055,-0.02355996,-0.7013461,-10.64635,-5.706912,-1.196521,50.69187,0,0,0,99.12879,58.06683,-26.46036,-0.04469899,-109.3368,-59.64595,0.001067912,-0.1257102,0.09433498,0,0.3,0,0,0,0
638225075044597742,34.93942,59.59104,52.81152,5.93907,11.10867,116.9055,-0.02355996,-0.7013461,-10.64635,-5.706912,-1.196521,50.61862,0,0,0,99.49752,57.7537,-25.93258,-0.04469899,-109.3368,-59.64595,0.001067912,-0.1257102,0.09433498,0,0.3,0,0,0,0
638225075044947637,34.93942,59.49752,52.81152,6.891257,12.57357,116.9055,-0.02355996,-0.7013461,-10.64635,-5.706912,-1.196521,50.61862,0,0,0,99.60497,57.64338,-25.77878,-0.04469899,-109.3368,-59.64595,0.001067912,-0.1257102,0.09433498,0,0.3,0,0,0,0
638225075045277525,34.93942,59.38063,52.74147,7.989935,13.74549,116.9055,-0.02355996,-0.7013461,-10.64635,-5.780157,-1.196521,50.61862,0,0,0,99.68266,57.37525,-25.66758,-0.04469899,-109.3368,-59.64595,0.001067912,-0.1257102,0.09433498,0,0.3,0,0,0,0
638225075045617432,34.91586,59.19361,52.67143,9.967555,15.28364,116.8323,-0.02355996,-0.7013461,-10.64635,-5.706912,-1.196521,50.61862,0,0,0,99.78164,57.02325,-25.40073,-0.04469899,-109.3368,-59.64595,0.001067912,-0.1257102,0.09433498,0,0.3,0,0,0,0
638225075045957315,34.79806,59.17023,52.67143,11.35921,16.16258,116.759,-0.02355996,-0.7013461,-10.64635,-5.780157,-1.196521,50.61862,0,0,0,99.51419,56.99538,-25.15751,-0.04469899,-109.3368,-59.64595,0.001067912,-0.1257102,0.09433498,0,0.3,0,0,0,0
638225075046377185,34.3033,59.17023,52.67143,14.36226,17.62749,116.6858,-0.02355996,-0.7013461,-10.64635,-5.706912,-1.196521,50.61862,0,0,0,98.274,56.99538,-24.30354,-0.04469899,-109.3368,-59.64595,0.001067912,-0.1257102,0.09433498,0,0.3,0,0,0,0
638225075046717062,33.43158,59.12348,52.53135,17.36532,18.9459,116.6858,-0.02355996,-0.7013461,-10.64635,-5.706912,-1.196521,50.61862,0,0,0,96.01351,56.68056,-22.91238,-0.04469899,-109.3368,-59.64595,0.001067912,-0.1257102,0.09433498,0,0.3,0,0,0,0
638225075047046990,32.60699,58.7728,51.92432,20.22188,20.33756,116.6858,-0.02355996,-0.7013461,-10.64635,-5.706912,-1.269767,50.61862,0,0,0,93.82097,55.14283,-21.68564,-0.04469899,-109.3368,-59.64595,0.001067912,-0.1257102,0.09433498,0,0.3,0,0,0,0
638225075047396869,32.25359,57.74416,50.7803,22.56572,22.0222,116.6858,-0.02355996,-0.7013461,-10.64635,-5.706912,-1.269767,50.69187,0,0,0,93.11369,51.80392,-20.79421,-0.04469899,-109.3368,-59.64595,0.001067912,-0.1257102,0.09433498,0,0.3,0,0,0,0
638225075047736750,32.27715,56.87917,50.21997,23.37142,22.90114,116.6858,-0.02355996,-0.7013461,-10.64635,-5.706912,-1.196521,50.61862,0,0,0,93.63617,49.71039,-20.10134,-0.04469899,-109.3368,-59.64595,0.001067912,-0.1257102,0.09433498,0,0.3,0,0,0,0
638225075048076645,32.46563,54.33094,49.28608,24.10387,24.43929,116.6858,-0.02355996,-0.7013461,-10.64635,-5.706912,-1.196521,50.61862,0,0,0,95.99629,44.70146,-17.46632,-0.04469899,-109.3368,-59.64595,0.001067912,-0.1257102,0.09433498,0,0.3,0,0,0,0
638225075048416520,32.96038,50.63719,49.02925,23.22493,25.90419,116.6858,-0.02355996,-0.7013461,-10.64635,-5.706912,-1.269767,50.61862,0,0,0,100.7922,39.01487,-12.9085,-0.04469899,-109.3368,-59.64595,0.001067912,-0.1257102,0.09433498,0,0.3,0,0,0,0
638225075048756412,33.29023,48.43964,49.07595,22.1995,26.5634,116.759,-0.02355996,-0.7013461,-10.64635,-5.706912,-1.196521,50.61862,0,0,0,103.8602,35.77811,-10.17917,-0.04469899,-109.3368,-59.64595,0.001067912,-0.1257102,0.09433498,0,0.3,0,0,0,0
638225075049096320,33.90279,43.55359,49.26273,18.83022,27.58883,117.052,-0.02355996,-0.7013461,-10.64635,-5.706912,-1.196521,50.61862,0,0,0,110.2649,28.20945,-4.275707,-0.04469899,-109.3368,-59.64595,0.001067912,-0.1257102,0.09433498,0,0.3,0,0,0,0
638225075049436194,34.1855,38.8312,49.4962,14.582,28.10155,119.6888,-0.02355996,-0.7013461,-10.64635,-5.706912,-1.196521,50.61862,0,0,0,115.3379,20.35357,1.456998,-0.04469899,-109.3368,-59.64595,0.001067912,-0.1257102,0.09433498,0,0.3,0,0,0,0
638225075049786097,34.3033,34.27245,49.82306,9.601329,27.95506,121.8862,-0.02355996,-0.7013461,-10.64635,-5.706912,-1.196521,50.61862,0,0,0,119.5245,12.41244,6.844658,-0.04469899,-109.3368,-59.64595,0.001067912,-0.1257102,0.09433498,0,0.3,0,0,0,0
638225075050125984,34.39754,32.40219,49.84641,7.257483,27.88181,122.1791,-0.02355996,-0.7013461,-10.64635,-5.706912,-1.196521,50.61862,0,0,0,121.1836,8.817556,8.650531,-0.04469899,-109.3368,-59.64595,0.001067912,-0.1257102,0.09433498,0,0.3,0,0,0,0
638225075050455869,34.6567,29.10587,49.84641,2.643037,27.00287,122.8384,-0.02355996,-0.7013461,-10.64635,-5.706912,-1.196521,50.61862,0,0,0,124.2136,2.225496,11.32712,-0.04469899,-109.3368,-59.64595,0.001067912,-0.1257102,0.09433498,0,0.3,0,0,0,0
638225075050905740,35.03366,25.22508,49.70633,-2.777105,24.36604,126.5739,-0.02355996,-0.7013461,-10.64635,-5.706912,-1.196521,50.61862,0,0,0,127.6389,-6.057702,13.70954,-0.04469899,-109.3368,-59.64595,0.001067912,-0.1257102,0.09433498,0,0.3,0,0,0,0
638225075051245615,35.17502,23.21456,49.4962,-5.267441,22.60816,129.7234,-0.02355996,-0.7013461,-10.64635,-5.706912,-1.269767,50.61862,0,0,0,129.0109,-10.69733,14.70402,-0.04469899,-109.3368,-59.64595,0.001067912,-0.1257102,0.09433498,0,0.3,0,0,0,0
638225075051595570,35.22214,20.8066,49.00591,-7.977511,20.11782,137.6339,-0.02355996,-0.7013461,-10.64635,-5.780157,-1.196521,50.61862,0,0,0,129.9431,-16.75722,15.70507,-0.04469899,-109.3368,-59.64595,0.001067912,-0.1257102,0.09433498,0,0.3,0,0,0,0
638225075051925402,35.22214,19.82472,48.6557,-8.929699,19.09239,142.0286,-0.02355996,-0.7013461,-10.64635,-5.706912,-1.196521,50.61862,0,0,0,130.0913,-19.51383,15.9149,-0.04469899,-109.3368,-59.64595,0.001067912,-0.1257102,0.09433498,0,0.3,0,0,0,0
638225075052255293,35.22214,18.39865,47.69846,-10.32136,17.55424,144.8119,-0.02355996,-0.7013461,-10.64635,-5.706912,-1.196521,50.61862,0,0,0,129.8612,-24.31005,15.589,-0.04469899,-109.3368,-59.64595,0.001067912,-0.1257102,0.09433498,0,0.3,0,0,0,0
638225075052605200,35.17502,17.37,46.29763,-10.90732,16.6753,144.8852,-0.02355996,-0.7013461,-10.64635,-5.706912,-1.269767,50.61862,0,0,0,128.8525,-28.97269,14.47917,-0.04469899,-109.3368,-59.64595,0.001067912,-0.1257102,0.09433498,0,0.3,0,0,0,0
638225075052945081,35.1279,16.76217,45.41043,-10.90732,16.52881,144.8852,-0.02355996,-0.7013461,-10.64635,-5.706912,-1.269767,50.61862,0,0,0,128.1134,-31.80672,13.74842,-0.04469899,-109.3368,-59.64595,0.001067912,-0.1257102,0.09433498,0,0.3,0,0,0,0
638225075053284966,34.93942,15.35948,43.566,-10.76083,16.38232,144.8852,-0.02355996,-0.7013461,-10.64635,-5.706912,-1.196521,50.61862,0,0,0,126.2772,-37.9519,12.39892,-0.04469899,-109.3368,-59.64595,0.001067912,-0.1257102,0.09433498,0,0.3,0,0,0,0
638225075053624866,34.63314,13.86327,41.34801,-10.32136,16.82179,144.8852,-0.02355996,-0.7013461,-10.64635,-5.706912,-1.196521,50.61862,0,0,0,123.644,-44.80586,10.66062,-0.04469899,-109.3368,-59.64595,0.001067912,-0.1257102,0.09433498,0,0.3,0,0,0,0
638225075053964751,34.49178,13.02166,40.18064,-9.881886,17.40775,144.8852,-0.02355996,-0.7013461,-10.64635,-5.706912,-1.196521,50.61862,0,0,0,122.2946,-48.48493,9.644406,-0.04469899,-109.3368,-59.64595,0.001067912,-0.1257102,0.09433498,0,0.3,0,0,0,0
638225075054314636,34.16194,11.19816,38.00935,-8.856454,19.09239,144.9584,-0.02355996,-0.7013461,-10.64635,-5.706912,-1.196521,50.61862,0,0,0,119.5656,-55.82089,7.837079,-0.04469899,-109.3368,-59.64595,0.001067912,-0.1257102,0.09433498,0,0.3,0,0,0,0
638225075054667580,33.80854,9.421416,35.79136,-7.24506,21.80246,144.8852,-0.02355996,-0.7013461,-10.64635,-5.706912,-1.196521,50.61862,0,0,0,116.5916,-62.98843,5.756304,-0.04469899,-109.3368,-59.64595,0.001067912,-0.1257102,0.09433498,0,0.3,0,0,0,0
638225075055005301,33.43158,7.644672,33.87688,-4.97446,25.46472,143.64,-0.02355996,-0.7013461,-10.64635,-5.706912,-1.196521,50.61862,0,0,0,113.7668,-69.6227,3.979595,-0.04469899,-109.3368,-59.64595,0.001067912,-0.1257102,0.09433498,0,0.3,0,0,0,0
638225075055420510,33.05463,6.358871,32.49939,-1.898163,29.63969,137.6339,-0.02355996,-0.7013461,-10.64635,-5.706912,-1.196521,50.61862,0,0,0,111.3661,-74.34776,2.781395,-0.04469899,-109.3368,-59.64595,0.001067912,-0.1257102,0.09433498,0,0.3,0,0,0,0
638225075055757315,32.93682,6.148468,32.17253,-0.3600145,31.39758,136.0225,-0.02355996,-0.7013461,-10.64635,-5.706912,-1.196521,50.61862,0,0,0,110.6936,-75.24144,2.515316,-0.04469899,-109.3368,-59.64595,0.001067912,-0.1257102,0.09433498,0,0.3,0,0,0,0
638225075056097533,32.67767,6.078333,31.84567,3.375489,35.57256,133.6786,-0.02355996,-0.7013461,-10.64635,-5.706912,-1.269767,50.61862,0,0,0,109.5807,-75.80698,2.485912,-0.04469899,-109.3368,-59.64595,0.001067912,-0.1257102,0.09433498,0,0.3,0,0,0,0
638225075056443322,32.46563,6.475762,31.89237,7.403974,39.74753,131.7743,-0.02355996,-0.7013461,-10.64635,-5.706912,-1.269767,50.61862,0,0,0,108.943,-74.83016,2.882819,-0.04469899,-109.3368,-59.64595,0.001067912,-0.1257102,0.09433498,0,0.3,0,0,0,0
638225075056793234,32.18291,7.41089,31.89237,11.5057,43.19005,131.7743,-0.02355996,-0.7013461,-10.64635,-5.706912,-1.269767,50.61862,0,0,0,107.9566,-72.66974,3.195625,-0.04469899,-109.3368,-59.64595,0.001067912,-0.1257102,0.09433498,0,0.3,0,0,0,0
638225075057125231,32.01799,8.018724,31.91571,13.41008,44.50846,132.8729,-0.02355996,-0.7013461,-10.64635,-5.706912,-1.269767,50.61862,0,0,0,107.3861,-71.23916,3.383749,-0.04469899,-109.3368,-59.64595,0.001067912,-0.1257102,0.09433498,0,0.3,0,0,0,0
638225075057468928,31.64103,9.468172,32.0091,16.70611,46.55933,135.4365,-0.02355996,-0.7013461,-10.64635,-5.706912,-1.196521,50.61862,0,0,0,106.0817,-67.78996,3.806971,-0.04469899,-109.3368,-59.64595,0.001067912,-0.1257102,0.09433498,0,0.3,0,0,0,0
638225075057811184,31.19339,11.19816,32.21923,19.56267,48.4637,142.3948,-0.02355996,-0.7013461,-10.64635,-5.780157,-1.269767,50.61862,0,0,0,104.5739,-63.56906,4.367054,-0.04469899,-109.3368,-59.64595,0.001067912,-0.1257102,0.09433498,0,0.3,0,0,0,0
638225075058146397,30.91067,12.27356,32.28927,21.32055,49.41589,144.5922,-0.02355996,-0.7013461,-10.64635,-5.706912,-1.196521,50.61862,0,0,0,103.5297,-61.03154,4.562464,-0.04469899,-109.3368,-59.64595,0.001067912,-0.1257102,0.09433498,0,0.3,0,0,0,0
638225075058486283,29.89759,15.28934,32.28927,26.44772,51.75974,144.8119,-0.02355996,-0.7013461,-10.64635,-5.706912,-1.196521,50.61862,0,0,0,99.62299,-54.21546,4.916548,-0.04469899,-109.3368,-59.64595,0.001067912,-0.1257102,0.09433498,0,0.3,0,0,0,0
638225075058826331,28.86095,17.53365,32.28927,30.18322,53.07815,144.9584,-0.02355996,-0.7013461,-10.64635,-5.706912,-1.269767,50.69187,0,0,0,95.75969,-49.2052,5.398144,-0.04469899,-109.3368,-59.64595,0.001067912,-0.1257102,0.09433498,0,0.3,0,0,0,0
638225075059166224,28.05991,18.9831,32.28927,32.60031,53.88385,144.9584,-0.02355996,-0.7013461,-10.64635,-5.706912,-1.196521,50.61862,0,0,0,92.82413,-46.00169,5.787263,-0.04469899,-109.3368,-59.64595,0.001067912,-0.1257102,0.09433498,0,0.3,0,0,0,0
638225075059506110,26.15156,21.43781,32.28927,37.36125,55.05577,144.8852,-0.02355996,-0.7013461,-10.64635,-5.706912,-1.269767,50.61862,0,0,0,86.10387,-40.64077,7.010296,-0.04469899,-109.3368,-59.64595,0.001067912,-0.1257102,0.09433498,0,0.3,0,0,0,0
638225075059945972,23.63064,23.61198,32.24257,41.90245,55.78822,144.8119,-0.02355996,-0.7013461,-10.64635,-5.706912,-1.196521,50.61862,0,0,0,77.49368,-36.02493,8.767777,-0.04469899,-109.3368,-59.64595,0.001067912,-0.1257102,0.09433498,0,0.3,0,0,0,0
638225075060275864,20.63853,25.13157,32.0558,45.27173,56.30094,144.8852,-0.02355996,-0.7013461,-10.64635,-5.706912,-1.269767,50.61862,0,0,0,67.49863,-33.03483,10.86122,-0.04469899,-109.3368,-59.64595,0.001067912,-0.1257102,0.09433498,0,0.3,0,0,0,0
638225075060615756,17.45793,25.78616,31.70559,47.46908,56.59392,144.8852,-0.02355996,-0.7013461,-10.64635,-5.706912,-1.269767,50.61862,0,0,0,57.04731,-32.08977,13.04525,-0.04469899,-109.3368,-59.64595,0.001067912,-0.1257102,0.09433498,0,0.3,0,0,0,0
638225075060945650,15.57313,25.80954,31.42542,48.34802,56.81365,144.9584,-0.02355996,-0.7013461,-10.64635,-5.706912,-1.196521,50.61862,0,0,0,50.89484,-32.38211,14.2654,-0.04469899,-109.3368,-59.64595,0.001067912,-0.1257102,0.09433498,0,0.3,0,0,0,0
638225075061295537,11.87422,25.76278,30.42149,49.22696,57.25312,144.9584,-0.02355996,-0.7013461,-10.64635,-5.706912,-1.196521,50.61862,0,0,0,38.60499,-33.68082,15.25321,-0.04469899,-109.3368,-59.64595,0.001067912,-0.1257102,0.09433498,0,0.3,0,0,0,0
638225075061635444,7.916147,25.76278,28.57705,48.64101,57.76584,144.8852,-0.02355996,-0.7013461,-10.64635,-5.706912,-1.196521,50.61862,0,0,0,25.32488,-35.79452,13.77958,-0.04469899,-109.3368,-59.64595,0.001067912,-0.1257102,0.09433498,0,0.3,0,0,0,0
638225075061975320,6.620349,25.80954,27.82994,48.12829,57.83909,144.8119,-0.02355996,-0.7013461,-10.64635,-5.706912,-1.196521,50.61862,0,0,0,21.0176,-36.51831,12.73653,-0.04469899,-109.3368,-59.64595,0.001067912,-0.1257102,0.09433498,0,0.3,0,0,0,0
638225075062315224,3.651794,25.92643,26.75597,47.02961,58.13207,144.9584,-0.02355996,-0.7013461,-10.64635,-5.706912,-1.269767,50.61862,0,0,0,11.46227,-37.41965,11.24678,-0.04469899,-109.3368,-59.64595,0.001067912,-0.1257102,0.09433498,0,0.3,0,0,0,0
638225075062655118,0.9659585,26.01994,26.66258,45.5647,58.20531,144.8119,-0.02355996,-0.7013461,-10.64635,-5.706912,-1.269767,50.61862,0,0,0,3.028986,-37.32168,11.29717,-0.04469899,-109.3368,-59.64595,0.001067912,-0.1257102,0.09433498,0,0.3,0,0,0,0
638225075062994995,-1.931917,26.09007,26.12559,43.14762,58.20531,144.8852,-0.02355996,-0.7013461,-10.64635,-5.706912,-1.196521,50.61862,0,0,0,-6.016954,-37.73062,10.03006,-0.04469899,-109.3368,-59.64595,0.001067912,-0.1257102,0.09433498,0,0.3,0,0,0,0
638225075063344895,-3.581114,26.25372,25.6353,41.60947,58.27856,144.8119,-0.02355996,-0.7013461,-10.64635,-5.706912,-1.196521,50.61862,0,0,0,-11.07361,-37.88688,8.590684,-0.04469899,-109.3368,-59.64595,0.001067912,-0.1257102,0.09433498,0,0.3,0,0,0,0
638225075063684785,-6.973749,26.86156,24.88819,37.58098,58.3518,144.9584,-0.02355996,-0.7013461,-10.64635,-5.706912,-1.196521,50.61862,0,0,0,-21.25749,-37.36353,5.436563,-0.04469899,-109.3368,-59.64595,0.001067912,-0.1257102,0.09433498,0,0.3,0,0,0,0
638225075064024675,-10.46062,27.74993,24.81814,32.23409,58.3518,144.8852,-0.02355996,-0.7013461,-10.64635,-5.706912,-1.269767,50.61862,0,0,0,-31.58875,-35.59486,2.743793,-0.04469899,-109.3368,-59.64595,0.001067912,-0.1257102,0.09433498,0,0.3,0,0,0,0
638225075064454554,-14.91346,29.9241,25.56526,24.10387,58.42504,144.8852,-0.02355996,-0.7013461,-10.64635,-5.706912,-1.196521,50.61862,0,0,0,-44.55371,-30.42233,-1.062968,-0.04469899,-109.3368,-59.64595,0.001067912,-0.1257102,0.09433498,0,0.3,0,0,0,0
638225075064784438,-18.04693,33.22043,28.13346,16.0469,57.69259,144.9584,-0.02355996,-0.7013461,-10.64635,-5.706912,-1.196521,50.61862,0,0,0,-54.03912,-21.18759,-2.497052,-0.04469899,-109.3368,-59.64595,0.001067912,-0.1257102,0.09433498,0,0.3,0,0,0,0
638225075065124315,-19.62545,35.88554,30.46818,9.747819,56.44743,144.8119,-0.02355996,-0.7013461,-10.64635,-5.706912,-1.196521,50.61862,0,0,0,-58.9973,-13.42032,-2.898893,-0.04469899,-109.3368,-59.64595,0.001067912,-0.1257102,0.09433498,0,0.3,0,0,0,0
638225075065454225,-20.77989,41.51969,35.32441,-2.70386,52.27245,144.8119,-0.02355996,-0.7013461,-10.64635,-5.706912,-1.196521,50.61862,0,0,0,-62.77688,2.945593,-2.913768,-0.04469899,-109.3368,-59.64595,0.001067912,-0.1257102,0.09433498,0,0.3,0,0,0,0
638225075065804098,-19.74325,46.82654,39.7137,-12.15249,46.77906,144.8119,-0.02355996,-0.7013461,-10.64635,-5.706912,-1.269767,50.61862,0,0,0,-59.60365,18.02118,-2.278552,-0.04469899,-109.3368,-59.64595,0.001067912,-0.1257102,0.09433498,0,0.3,0,0,0,0
638225075066143999,-18.70661,49.11761,42.02508,-15.52176,43.62952,144.8119,-0.02355996,-0.7013461,-10.64635,-5.706912,-1.269767,50.61862,0,0,0,-56.62372,25.11058,-1.125944,-0.04469899,-109.3368,-59.64595,0.001067912,-0.1257102,0.09433498,0,0.3,0,0,0,0
638225075066493877,-15.97365,52.64771,46.5778,-19.76999,37.40368,144.8852,-0.02355996,-0.7013461,-10.64635,-5.706912,-1.269767,50.61862,0,0,0,-48.91832,37.69194,2.544986,-0.04469899,-109.3368,-59.64595,0.001067912,-0.1257102,0.09433498,0,0.3,0,0,0,0
638225075066833765,-12.6517,54.86864,50.45344,-21.30813,31.25109,144.8852,-0.02355996,-0.7013461,-10.64635,-5.706912,-1.196521,50.61862,0,0,0,-39.32874,47.50367,6.853932,-0.04469899,-109.3368,-59.64595,0.001067912,-0.1257102,0.09433498,0,0.3,0,0,0,0
638225075067170941,-10.81402,55.56999,52.18114,-21.38138,28.24804,144.8852,-0.02355996,-0.7013461,-10.64635,-5.706912,-1.196521,50.61862,0,0,0,-33.91004,51.57357,9.176603,-0.04469899,-109.3368,-59.64595,0.001067912,-0.1257102,0.09433498,0,0.3,0,0,0,0
638225075067500834,-6.691029,56.27134,55.23963,-20.64893,22.46167,144.9584,-0.02355996,-0.7013461,-10.64635,-5.706912,-1.196521,50.61862,0,0,0,-21.39183,58.22515,13.99636,-0.04469899,-109.3368,-59.64595,0.001067912,-0.1257102,0.09433498,0,0.3,0,0,0,0
638225075067840714,-3.581114,56.34147,56.57042,-19.69674,19.16564,144.4457,-0.02355996,-0.7013461,-10.64635,-5.706912,-1.196521,50.61862,0,0,0,-11.56771,60.88054,16.48562,-0.04469899,-109.3368,-59.64595,0.001067912,-0.1257102,0.09433498,0,0.3,0,0,0,0
638225075068180609,0.4947592,56.24796,56.99068,-18.15859,16.38232,138.9523,-0.02355996,-0.7013461,-10.64635,-5.706912,-1.196521,50.61862,0,0,0,1.605381,61.57801,17.55721,-0.04469899,-109.3368,-59.64595,0.001067912,-0.1257102,0.09433498,0,0.3,0,0,0,0
638225075068520497,2.568036,56.03755,56.85059,-17.27965,15.35689,135.6563,-0.02355996,-0.7013461,-10.64635,-5.706912,-1.196521,50.61862,0,0,0,8.340256,61.03201,17.60591,-0.04469899,-109.3368,-59.64595,0.001067912,-0.1257102,0.09433498,0,0.3,0,0,0,0
638225075068960361,6.879509,55.00891,56.45369,-15.96124,14.11172,128.112,-0.02355996,-0.7013461,-10.64635,-5.706912,-1.196521,50.61862,0,0,0,22.47209,58.90517,17.90784,-0.04469899,-109.3368,-59.64595,0.001067912,-0.1257102,0.09433498,0,0.3,0,0,0,0
638225075069300240,11.02606,53.32568,55.82331,-15.30203,13.30602,119.8353,-0.02355996,-0.7013461,-10.64635,-5.706912,-1.196521,50.61862,0,0,0,36.33224,55.39355,18.11033,-0.04469899,-109.3368,-59.64595,0.001067912,-0.1257102,0.09433498,0,0.3,0,0,0,0
638225075069640271,14.81922,50.9411,54.81938,-15.30203,12.57357,111.3389,-0.02355996,-0.7013461,-10.64635,-5.780157,-1.269767,50.61862,0,0,0,49.36837,50.06571,18.24837,-0.04469899,-109.3368,-59.64595,0.001067912,-0.1257102,0.09433498,0,0.3,0,0,0,0
638225075069980023,18.11761,47.85518,54.189,-15.59501,11.91436,103.9411,-0.02355996,-0.7013461,-10.64635,-5.706912,-1.196521,50.61862,0,0,0,61.45334,44.19765,19.47123,-0.04469899,-109.3368,-59.64595,0.001067912,-0.1257102,0.09433498,0,0.3,0,0,0,0
638225075070319923,19.48409,46.24208,54.09562,-15.66825,11.84112,100.6451,-0.02355996,-0.7013461,-10.64635,-5.706912,-1.196521,50.69187,0,0,0,66.78894,41.46347,20.42275,-0.04469899,-109.3368,-59.64595,0.001067912,-0.1257102,0.09433498,0,0.3,0,0,0,0
638225075070659807,21.67517,43.06265,54.02557,-15.7415,11.98761,94.78546,-0.02355996,-0.7013461,-10.64635,-5.706912,-1.196521,50.61862,0,0,0,75.84253,36.06806,22.4746,-0.04469899,-109.3368,-59.64595,0.001067912,-0.1257102,0.09433498,0,0.3,0,0,0,0
638225075070999705,23.23012,40.42091,53.51193,-15.66825,12.79331,90.17101,-0.02355996,-0.7013461,-10.64635,-5.780157,-1.196521,50.61862,0,0,0,82.32851,30.51656,23.45824,-0.04469899,-109.3368,-59.64595,0.001067912,-0.1257102,0.09433498,0,0.3,0,0,0,0
638225075071335744,23.81912,39.32214,53.02164,-15.7415,13.37927,88.19339,-0.02355996,-0.7013461,-10.64635,-5.706912,-1.196521,50.61862,0,0,0,84.68234,27.6394,23.47717,-0.04469899,-109.3368,-59.64595,0.001067912,-0.1257102,0.09433498,0,0.3,0,0,0,0
638225075071675647,24.66728,37.70904,51.41068,-16.76693,14.69768,84.23816,-0.02355996,-0.7013461,-10.64635,-5.706912,-1.196521,50.61862,0,0,0,87.52962,21.73886,22.23966,-0.04469899,-109.3368,-59.64595,0.001067912,-0.1257102,0.09433498,0,0.3,0,0,0,0
638225075072022158,25.1856,36.39986,50.00984,-18.59806,15.72311,80.42941,-0.02355996,-0.7013461,-10.64635,-5.706912,-1.196521,50.61862,0,0,0,89.15291,16.78397,21.23326,-0.04469899,-109.3368,-59.64595,0.001067912,-0.1257102,0.09433498,0,0.3,0,0,0,0
638225075072362047,25.39764,35.74527,49.42616,-19.76999,16.16258,78.45178,-0.02355996,-0.7013461,-10.64635,-5.706912,-1.196521,50.61862,0,0,0,89.86194,14.51626,20.91895,-0.04469899,-109.3368,-59.64595,0.001067912,-0.1257102,0.09433498,0,0.3,0,0,0,0
638225075072701935,25.8924,34.6465,48.42223,-22.18707,16.30907,74.49654,-0.02355996,-0.7013461,-10.64635,-5.706912,-1.196521,50.61862,0,0,0,91.46617,10.66515,20.08078,-0.04469899,-109.3368,-59.64595,0.001067912,-0.1257102,0.09433498,0,0.3,0,0,0,0
638225075073041829,26.52852,33.66461,47.4183,-24.89715,16.08934,69.95535,-0.02355996,-0.7013461,-10.64635,-5.706912,-1.196521,50.61862,0,0,0,93.42619,7.039909,18.80064,-0.04469899,-109.3368,-59.64595,0.001067912,-0.1257102,0.09433498,0,0.3,0,0,0,0
638225075073481682,27.51804,32.12165,46.1342,-28.11993,15.50338,64.75494,-0.02355996,-0.7013461,-10.64635,-5.706912,-1.196521,50.61862,0,0,0,96.59966,1.846914,17.07368,-0.04469899,-109.3368,-59.64595,0.001067912,-0.1257102,0.09433498,0,0.3,0,0,0,0
638225075073821579,28.29551,30.78909,45.50382,-29.95106,15.06391,62.11811,-0.02355996,-0.7013461,-10.64635,-5.706912,-1.196521,50.61862,0,0,0,99.38927,-1.850797,16.27053,-0.04469899,-109.3368,-59.64595,0.001067912,-0.1257102,0.09433498,0,0.3,0,0,0,0
638225075074171454,28.86095,29.83059,45.247,-30.9765,14.69768,60.50672,-0.02355996,-0.7013461,-10.64635,-5.706912,-1.196521,50.61862,0,0,0,101.5471,-4.202077,15.89898,-0.04469899,-109.3368,-59.64595,0.001067912,-0.1257102,0.09433498,0,0.3,0,0,0,0
638225075074501349,30.15675,27.7733,45.08357,-32.66114,13.599,57.86989,-0.02355996,-0.7013461,-10.64635,-5.706912,-1.196521,50.61862,0,0,0,106.7119,-8.667363,15.31809,-0.04469899,-109.3368,-59.64595,0.001067912,-0.1257102,0.09433498,0,0.3,0,0,0,0
638225075074841421,31.75883,25.55238,45.20031,-33.68657,12.06085,55.67254,-0.02355996,-0.7013461,-10.64635,-5.780157,-1.196521,50.61862,0,0,0,113.1268,-13.09381,14.39791,-0.04469899,-109.3368,-59.64595,0.001067912,-0.1257102,0.09433498,0,0.3,0,0,0,0
638225075075191129,33.57294,23.3782,45.41043,-33.54007,10.08323,54.06115,-0.02355996,-0.7013461,-10.64635,-5.706912,-1.196521,50.61862,0,0,0,120.2043,-17.35171,12.75757,-0.04469899,-109.3368,-59.64595,0.001067912,-0.1257102,0.09433498,0,0.3,0,0,0,0
638225075075521034,34.32687,22.39632,45.6906,-33.17385,9.057802,53.62167,-0.02355996,-0.7013461,-10.64635,-5.706912,-1.269767,50.61862,0,0,0,123.3356,-18.99152,12.27131,-0.04469899,-109.3368,-59.64595,0.001067912,-0.1257102,0.09433498,0,0.3,0,0,0,0
638225075075860924,35.78758,20.19877,46.67118,-32.14842,6.860447,53.1822,-0.02355996,-0.7013461,-10.64635,-5.706912,-1.196521,50.61862,0,0,0,129.9102,-22.10985,11.85723,-0.04469899,-109.3368,-59.64595,0.001067912,-0.1257102,0.09433498,0,0.3,0,0,0,0
638225075076190813,37.29542,17.44014,47.97863,-31.12299,4.589847,53.1822,-0.02355996,-0.7013461,-10.64635,-5.706912,-1.196521,50.61862,0,0,0,137.1117,-25.9493,11.66473,-0.04469899,-109.3368,-59.64595,0.001067912,-0.1257102,0.09433498,0,0.3,0,0,0,0
638225075076530709,38.1907,15.71015,48.74909,-30.53703,3.417924,53.69492,-0.02355996,-0.7013461,-10.64635,-5.706912,-1.196521,50.61862,0,0,0,141.3544,-28.46804,11.33948,-0.04469899,-109.3368,-59.64595,0.001067912,-0.1257102,0.09433498,0,0.3,0,0,0,0
638225075076880600,40.26397,11.4787,50.64022,-29.3651,0.8543434,55.59929,-0.02355996,-0.7013461,-10.64635,-5.706912,-1.196521,50.61862,0,0,0,151.0984,-34.68183,10.04641,-0.04469899,-109.3368,-59.64595,0.001067912,-0.1257102,0.09433498,0,0.3,0,0,0,0
638225075077220492,42.71421,6.686166,52.69478,-27.75371,-2.002218,57.57691,-0.02355996,-0.7013461,-10.64635,-5.780157,-1.269767,50.61862,0,0,0,161.7927,-41.94215,6.895892,-0.04469899,-109.3368,-59.64595,0.001067912,-0.1257102,0.09433498,0,0.3,0,0,0,0
638225075077560381,43.91577,4.511993,53.60532,-26.72828,-3.467122,58.30937,-0.02355996,-0.7013461,-10.64635,-5.780157,-1.196521,50.61862,0,0,0,166.6559,-45.28209,4.735767,-0.04469899,-109.3368,-59.64595,0.001067912,-0.1257102,0.09433498,0,0.3,0,0,0,0
638225075078000370,47.35552,-0.3039166,55.49645,-22.18707,-9.619716,59.99401,-0.02355996,-0.7013461,-10.64635,-5.706912,-1.196521,50.61862,0,0,0,178.9209,-52.89441,-3.567289,-0.04469899,-109.3368,-59.64595,0.001067912,-0.1257102,0.09433498,0,0.3,0,0,0,0
638225075078340142,48.08588,-0.5844551,55.37971,-20.72217,-11.23111,60.28699,-0.02355996,-0.7013461,-10.64635,-5.706912,-1.196521,50.61862,0,0,0,180.8883,-53.77106,-5.967691,-0.04469899,-109.3368,-59.64595,0.001067912,-0.1257102,0.09433498,0,0.3,0,0,0,0
638225075078680023,49.00472,-0.9117499,54.72599,-17.79236,-14.52714,60.65321,-0.02355996,-0.7013461,-10.64635,-5.706912,-1.196521,50.61862,0,0,0,182.8038,-55.77985,-9.467553,-0.04469899,-109.3368,-59.64595,0.001067912,-0.1257102,0.09433498,0,0.3,0,0,0,0
638225075079019923,49.0754,-1.005263,53.04499,-16.10773,-16.79774,60.7997,-0.02355996,-0.7013461,-10.64635,-5.706912,-1.196521,50.61862,0,0,0,181.2546,-59.15791,-11.20606,-0.04469899,-109.3368,-59.64595,0.001067912,-0.1257102,0.09433498,0,0.3,0,0,0,0
638225075079369816,49.0754,-1.005263,51.7142,-15.81474,-17.31046,60.7997,-0.02355996,-0.7247244,-10.64635,-5.780157,-1.196521,50.61862,0,0,0,179.8261,-61.61113,-12.44454,-0.04469871,-109.3912,-59.64662,0.001067912,-0.1257102,0.09433498,0,0.3,0,0,0,0
638225075079699698,49.00472,-1.028641,48.39888,-15.66825,-16.87099,61.23917,-0.02355996,-0.7247244,-10.64635,-5.706912,-1.196521,50.61862,0,0,0,175.8944,-67.58044,-15.47278,-0.04469871,-109.3912,-59.64662,0.001067912,-0.1257102,0.09433498,0,0.3,0,0,0,0
638225075080039578,48.6042,-1.028641,44.8501,-15.81474,-15.62582,61.53215,-0.02355996,-0.7247244,-10.64635,-5.780157,-1.196521,50.61862,0,0,0,170.5669,-73.58299,-17.99726,-0.04469871,-109.3912,-59.64662,0.001067912,-0.1257102,0.09433498,0,0.3,0,0,0,0
638225075080379472,48.18012,-1.028641,42.86558,-16.32746,-14.67363,61.6054,-0.02355996,-0.7247244,-10.64635,-5.706912,-1.196521,50.61862,0,0,0,166.9676,-76.78304,-18.9595,-0.04469871,-109.3912,-59.64662,0.001067912,-0.1257102,0.09433498,0,0.3,0,0,0,0
638225075080719374,46.955,-1.028641,39.52692,-18.0121,-13.06224,61.16593,-0.02355996,-0.7247244,-10.64635,-5.706912,-1.196521,50.61862,0,0,0,159.4629,-81.9002,-19.41412,-0.04469871,-109.3912,-59.64662,0.001067912,-0.1257102,0.09433498,0,0.3,0,0,0,0
638225075081059273,45.5414,-1.052019,35.83805,-21.01515,-11.59733,60.14049,-0.02355996,-0.7247244,-10.64635,-5.706912,-1.196521,50.61862,0,0,0,150.8906,-87.20186,-20.28437,-0.04469871,-109.3912,-59.64662,0.001067912,-0.1257102,0.09433498,0,0.3,0,0,0,0
638225075081399164,44.36341,-1.028641,33.43328,-23.13926,-10.27892,59.48129,-0.02355996,-0.7247244,-10.64635,-5.706912,-1.196521,50.61862,0,0,0,144.5958,-90.32822,-20.50483,-0.04469871,-109.3912,-59.64662,0.001067912,-0.1257102,0.09433498,0,0.3,0,0,0,0
638225075081739051,43.60949,-1.028641,32.24257,-24.45767,-9.546471,58.82208,-0.02355996,-0.7247244,-10.64635,-5.706912,-1.196521,50.61862,0,0,0,141.032,-91.83096,-20.30093,-0.04469871,-109.3912,-59.64662,0.001067912,-0.1257102,0.09433498,0,0.3,0,0,0,0
638225075082078938,42.00741,-1.028641,30.18801,-27.02126,-8.154812,57.21069,-0.02355996,-0.7247244,-10.64635,-5.706912,-1.196521,50.61862,0,0,0,134.1011,-94.309,-19.45441,-0.04469871,-109.3912,-59.64662,0.001067912,-0.1257102,0.09433498,0,0.3,0,0,0,0
638225075082528941,40.28753,-1.028641,28.43697,-29.73133,-6.689909,54.94009,-0.02355996,-0.7247244,-10.64635,-5.706912,-1.196521,50.61862,0,0,0,127.2741,-96.30412,-18.20731,-0.04469871,-109.3912,-59.64662,0.001067912,-0.1257102,0.09433498,0,0.3,0,0,0,0
638225075082858701,38.44986,-1.028641,26.42911,-32.36815,-5.078516,52.88922,-0.02355996,-0.7247244,-10.64635,-5.706912,-1.196521,50.61862,0,0,0,119.8149,-98.45695,-17.45114,-0.04469871,-109.3912,-59.64662,0.001067912,-0.1257102,0.09433498,0,0.3,0,0,0,0
638225075083198584,36.3059,-1.005263,24.3045,-34.93173,-3.027651,51.64405,-0.02355996,-0.7247244,-10.64635,-5.706912,-1.196521,50.61862,0,0,0,111.4411,-100.5208,-16.67411,-0.04469871,-109.3912,-59.64662,0.001067912,-0.1257102,0.09433498,0,0.3,0,0,0,0
638225075083538472,35.03366,-1.005263,23.09044,-36.39664,-1.782483,51.20458,-0.02355996,-0.7247244,-10.64635,-5.706912,-1.196521,50.61862,0,0,0,106.5607,-101.6564,-16.3557,-0.04469871,-109.3912,-59.64662,0.001067912,-0.1257102,0.09433498,0,0.3,0,0,0,0
638225075083888350,32.20647,-1.005263,20.21873,-39.17995,0.7810982,51.7173,-0.02355996,-0.7247244,-10.64635,-5.706912,-1.196521,50.61862,0,0,0,95.62361,-104.1225,-16.54028,-0.04469871,-109.3912,-59.64662,0.001067912,-0.1257102,0.09433498,0,0.3,0,0,0,0
638225075084228263,29.09655,-0.9818845,16.48317,-40.79135,4.663092,55.81903,-0.02355996,-0.7247244,-10.64635,-5.706912,-1.196521,50.61862,0,0,0,83.23523,-106.8049,-18.78463,-0.04469871,-109.3912,-59.64662,0.001067912,-0.1257102,0.09433498,0,0.3,0,0,0,0
638225075084568132,27.44736,-0.9818845,14.84886,-41.08433,6.713957,57.94314,-0.02355996,-0.7247244,-10.64635,-5.706912,-1.196521,50.61862,0,0,0,77.20821,-107.8319,-19.70109,-0.04469871,-109.3912,-59.64662,0.001067912,-0.1257102,0.09433498,0,0.3,0,0,0,0
638225075084908043,23.13588,-0.9818845,12.44409,-41.89003,10.88893,60.87295,-0.02355996,-0.7247244,-10.64635,-5.706912,-1.196521,50.61862,0,0,0,63.67769,-109.1523,-19.31843,-0.04469871,-109.3912,-59.64662,0.001067912,-0.1257102,0.09433498,0,0.3,0,0,0,0
638225075085247928,18.11761,-0.9818845,12.09388,-44.30712,14.62444,61.31242,-0.02355996,-0.7247244,-10.64635,-5.706912,-1.196521,50.61862,0,0,0,50.14963,-109.3255,-15.07656,-0.04469871,-109.3912,-59.64662,0.001067912,-0.1257102,0.09433498,0,0.3,0,0,0,0
638225075085597805,13.02866,-0.9818845,12.11723,-47.96938,17.84722,59.3348,-0.02355996,-0.7247244,-10.64635,-5.706912,-1.269767,50.61862,0,0,0,36.36823,-109.3141,-11.18058,-0.04469871,-109.3912,-59.64662,0.001067912,-0.1257102,0.09433498,0,0.3,0,0,0,0
638225075085937709,10.38994,-1.005263,12.11723,-49.72726,19.45862,57.94314,-0.02355996,-0.7247244,-10.64635,-5.706912,-1.269767,50.61862,0,0,0,29.09373,-109.3685,-9.673841,-0.04469871,-109.3912,-59.64662,0.001067912,-0.1257102,0.09433498,0,0.3,0,0,0,0
638225075086267747,4.547072,-1.005263,12.16393,-53.24303,22.16869,55.23307,-0.02355996,-0.7247244,-10.64635,-5.780157,-1.196521,50.61862,0,0,0,12.79767,-109.3456,-7.430519,-0.04469871,-109.3912,-59.64662,0.001067912,-0.1257102,0.09433498,0,0.3,0,0,0,0
638225075086607492,-0.8010387,-1.005263,12.28066,-56.31932,23.56034,53.76817,-0.02355996,-0.7247244,-10.64635,-5.706912,-1.196521,50.61862,0,0,0,-2.260519,-109.2881,-6.672701,-0.04469871,-109.3912,-59.64662,0.001067912,-0.1257102,0.09433498,0,0.3,0,0,0,0
638225075087047352,-6.997309,-1.052019,13.30794,-58.80966,24.80551,54.13439,-0.02355996,-0.7247244,-10.64635,-5.706912,-1.196521,50.61862,0,0,0,-19.98168,-108.8675,-5.549019,-0.04469871,-109.3912,-59.64662,0.001067912,-0.1257102,0.09433498,0,0.3,0,0,0,0
638225075087387245,-11.07318,-1.028641,15.01229,-60.12807,25.97744,56.40499,-0.02355996,-0.7247244,-10.64635,-5.706912,-1.196521,50.61862,0,0,0,-32.24149,-107.8427,-3.605623,-0.04469871,-109.3912,-59.64662,0.001067912,-0.1257102,0.09433498,0,0.3,0,0,0,0
638225075087727131,-12.84018,-1.028641,16.01623,-60.78728,26.63664,58.08963,-0.02355996,-0.7247244,-10.64635,-5.706912,-1.196521,50.61862,0,0,0,-37.80639,-107.2178,-2.483041,-0.04469871,-109.3912,-59.64662,0.001067912,-0.1257102,0.09433498,0,0.3,0,0,0,0
638225075088067022,-15.99721,-1.028641,17.60384,-60.64079,28.54102,62.77732,-0.02355996,-0.7247244,-10.64635,-5.706912,-1.196521,50.61862,0,0,0,-47.85853,-106.1492,-1.416841,-0.04469871,-109.3912,-59.64662,0.001067912,-0.1257102,0.09433498,0,0.3,0,0,0,0
638225075088406914,-18.30609,-1.028641,18.23421,-58.44344,30.00592,68.12422,-0.02355996,-0.7247244,-10.64635,-5.706912,-1.196521,50.61862,0,0,0,-54.9833,-105.6978,-2.155105,-0.04469871,-109.3912,-59.64662,0.001067912,-0.1257102,0.09433498,0,0.3,0,0,0,0
638225075088746798,-19.50765,-1.028641,18.46769,-56.24608,30.66513,72.07946,-0.02355996,-0.7247244,-10.64635,-5.706912,-1.196521,50.61862,0,0,0,-58.62848,-105.5267,-2.858483,-0.04469871,-109.3912,-59.64662,0.001067912,-0.1257102,0.09433498,0,0.3,0,0,0,0
638225075089086688,-20.96836,-1.052019,18.51438,-52.43733,31.39758,78.3053,-0.02355996,-0.7247244,-10.64635,-5.706912,-1.196521,50.61862,0,0,0,-62.8646,-105.5467,-4.311475,-0.04469871,-109.3912,-59.64662,0.001067912,-0.1257102,0.09433498,0,0.3,0,0,0,0
638225075089426583,-22.52332,-1.075397,18.30426,-47.23692,31.9103,85.55657,-0.02355996,-0.7247244,-10.64635,-5.706912,-1.196521,50.69187,0,0,0,-67.11463,-105.7555,-6.507319,-0.04469871,-109.3912,-59.64662,0.001067912,-0.1257102,0.09433498,0,0.3,0,0,0,0
638225075089766471,-23.25368,-1.098776,17.86066,-44.52685,32.13003,88.70612,-0.02355996,-0.7247244,-10.64635,-5.706912,-1.196521,50.61862,0,0,0,-68.78427,-106.1304,-8.278624,-0.04469871,-109.3912,-59.64662,0.001067912,-0.1257102,0.09433498,0,0.3,0,0,0,0
638225075090106363,-24.19608,-1.122154,15.45589,-38.4475,32.64275,94.8587,-0.02355996,-0.7247244,-10.64635,-5.780157,-1.196521,50.61862,0,0,0,-69.20977,-107.789,-14.32309,-0.04469871,-109.3912,-59.64662,0.001067912,-0.1257102,0.09433498,0,0.3,0,0,0,0
638225075090436262,-24.10184,-1.145532,12.56083,-33.39359,32.86248,99.25342,-0.02355996,-0.7247244,-10.64635,-5.706912,-1.196521,50.61862,0,0,0,-66.2865,-109.4743,-20.17744,-0.04469871,-109.3912,-59.64662,0.001067912,-0.1257102,0.09433498,0,0.3,0,0,0,0
638225075090776150,-23.772,-1.145532,11.08995,-29.80457,33.00897,102.4762,-0.02355996,-0.7247244,-10.64635,-5.706912,-1.196521,50.61862,0,0,0,-64.0818,-110.1758,-22.8646,-0.04469871,-109.3912,-59.64662,0.001067912,-0.1257102,0.09433498,0,0.3,0,0,0,0
638225075091116047,-22.73536,-1.122154,9.315559,-21.30813,32.5695,110.8261,-0.02355996,-0.7247244,-10.64635,-5.780157,-1.196521,50.61862,0,0,0,-59.86891,-110.8529,-25.47652,-0.04469871,-109.3912,-59.64662,0.001067912,-0.1257102,0.09433498,0,0.3,0,0,0,0
638225075091565894,-21.51024,-1.052019,8.405016,-11.2003,30.22566,122.9849,-0.02355996,-0.7247244,-10.64635,-5.706912,-1.196521,50.61862,0,0,0,-56.03386,-111.0161,-26.17431,-0.04469871,-109.3912,-59.64662,0.001067912,-0.1257102,0.09433498,0,0.3,0,0,0,0
638225075091905807,-20.14377,-1.005263,8.241585,-0.8727306,25.46472,135.8027,-0.02355996,-0.7247244,-10.64635,-5.706912,-1.269767,50.61862,0,0,0,-52.49849,-110.9623,-25.22999,-0.04469871,-109.3912,-59.64662,0.001067912,-0.1257102,0.09433498,0,0.3,0,0,0,0
638225075092245701,-19.01289,-1.005263,8.521752,8.50265,18.65292,144.226,-0.02355996,-0.7247244,-10.64635,-5.706912,-1.196521,50.61862,0,0,0,-49.87376,-110.8673,-23.61184,-0.04469871,-109.3912,-59.64662,0.001067912,-0.1257102,0.09433498,0,0.3,0,0,0,0
638225075092605572,-18.16473,-1.005263,8.591794,15.82717,11.10867,144.8852,-0.02355996,-0.7247244,-10.64635,-5.706912,-1.196521,50.61862,0,0,0,-47.77605,-110.843,-22.73627,-0.04469871,-109.3912,-59.64662,0.001067912,-0.1257102,0.09433498,0,0.3,0,0,0,0
638225075092935468,-17.64641,-1.005263,8.591794,18.75698,7.666144,144.9584,-0.02355996,-0.7247244,-10.64635,-5.706912,-1.196521,50.61862,0,0,0,-46.45684,-110.843,-22.31004,-0.04469871,-109.3912,-59.64662,0.001067912,-0.1257102,0.09433498,0,0.3,0,0,0,0
638225075093285364,-15.92653,-0.9818845,8.591794,23.95738,2.026266,144.8852,-0.02355996,-0.7247244,-10.64635,-5.706912,-1.196521,50.61862,0,0,0,-42.05307,-110.7886,-20.98061,-0.04469871,-109.3912,-59.64662,0.001067912,-0.1257102,0.09433498,0,0.3,0,0,0,0
638225075093625250,-13.09934,-0.8649935,8.591794,29.67051,-1.635992,144.8852,-0.02355996,-0.7247244,-10.64635,-5.780157,-1.196521,50.61862,0,0,0,-34.73405,-110.5166,-19.08149,-0.04469871,-109.3912,-59.64662,0.001067912,-0.1257102,0.09433498,0,0.3,0,0,0,0
638225075093965139,-11.4737,-0.5844551,8.591794,32.89329,-2.661425,142.8343,-0.02355996,-0.7247244,-10.64635,-5.706912,-1.196521,50.61862,0,0,0,-30.48713,-109.8638,-18.14811,-0.04469871,-109.3912,-59.64662,0.001067912,-0.1257102,0.09433498,0,0.3,0,0,0,0
638225075094305028,-8.528707,0.116891,9.035392,39.63185,-3.174141,134.7773,-0.02355996,-0.7247244,-10.64635,-5.706912,-1.196521,50.61862,0,0,0,-22.8822,-108.0733,-15.76459,-0.04469871,-109.3912,-59.64662,0.001067912,-0.1257102,0.09433498,0,0.3,0,0,0,0
638225075094644922,-5.96067,0.6078333,9.99263,46.66338,-2.368444,125.7682,-0.02355996,-0.7247244,-10.64635,-5.706912,-1.196521,50.61862,0,0,0,-16.24995,-106.5624,-12.71444,-0.04469871,-109.3912,-59.64662,0.001067912,-0.1257102,0.09433498,0,0.3,0,0,0,0
638225075094994808,-4.358593,0.7013461,10.24945,52.88922,-0.09784385,118.0774,-0.02355996,-0.7247244,-10.64635,-5.706912,-1.269767,50.61862,0,0,0,-11.93689,-106.2398,-11.73673,-0.04469871,-109.3912,-59.64662,0.001067912,-0.1257102,0.09433498,0,0.3,0,0,0,0
638225075095334708,-3.698914,0.7013461,10.24945,55.23307,1.586795,115.0011,-0.02355996,-0.7247244,-10.64635,-5.706912,-1.196521,50.61862,0,0,0,-10.13296,-106.2398,-11.60968,-0.04469871,-109.3912,-59.64662,0.001067912,-0.1257102,0.09433498,0,0.3,0,0,0,0
638225075095674582,-2.756516,0.9818845,10.34284,59.3348,5.90826,110.7529,-0.02355996,-0.7247244,-10.64635,-5.706912,-1.196521,50.61862,0,0,0,-7.563469,-105.5481,-11.26019,-0.04469871,-109.3912,-59.64662,0.001067912,-0.1257102,0.09433498,0,0.3,0,0,0,0
638225075096104458,-1.366478,2.127417,11.5569,64.02249,12.50033,106.9442,-0.02355996,-0.7247244,-10.64635,-5.706912,-1.196521,50.61862,0,0,0,-3.814933,-102.3463,-8.421944,-0.04469871,-109.3912,-59.64662,0.001067912,-0.1257102,0.09433498,0,0.3,0,0,0,0
638225075096444357,-0.6596789,2.407955,12.77096,66.51283,16.52881,105.8455,-0.02355996,-0.7247244,-10.64635,-5.706912,-1.196521,50.61862,0,0,0,-1.873329,-101.0985,-5.650964,-0.04469871,-109.3912,-59.64662,0.001067912,-0.1257102,0.09433498,0,0.3,0,0,0,0
638225075096794240,-0.2120396,2.174173,14.68543,69.14965,23.12087,105.1863,-0.02355996,-0.7247244,-10.64635,-5.780157,-1.196521,50.61862,0,0,0,-0.6182519,-100.5848,-1.291319,-0.04469871,-109.3912,-59.64662,0.001067912,-0.1257102,0.09433498,0,0.3,0,0,0,0
638225075097124132,-0.3533994,2.174173,15.17572,69.80886,27.44234,105.113,-0.02355996,-0.7247244,-10.64635,-5.780157,-1.196521,50.61862,0,0,0,-1.037216,-100.2908,-0.1907974,-0.04469871,-109.3912,-59.64662,0.001067912,-0.1257102,0.09433498,0,0.3,0,0,0,0
638225075097464029,-1.390038,2.501468,15.10568,69.36938,35.71904,105.0398,-0.02355996,-0.7247244,-10.64635,-5.706912,-1.196521,50.61862,0,0,0,-4.074772,-99.57227,-0.4254584,-0.04469871,-109.3912,-59.64662,0.001067912,-0.1257102,0.09433498,0,0.3,0,0,0,0
638225075097813902,-2.897875,3.810647,14.522,67.17203,45.24092,105.4793,-0.02355996,-0.7247244,-10.64635,-5.706912,-1.196521,50.61862,0,0,0,-8.4172,-96.87731,-2.069983,-0.04469871,-109.3912,-59.64662,0.001067912,-0.1257102,0.09433498,0,0.3,0,0,0,0
638225075098155521,-2.497356,5.540634,13.72819,66.1466,48.82993,106.6512,-0.02355996,-0.7247244,-10.64635,-5.706912,-1.196521,50.61862,0,0,0,-7.162275,-93.31535,-4.13302,-0.04469871,-109.3912,-59.64662,0.001067912,-0.1257102,0.09433498,0,0.3,0,0,0,0
638225075098495421,-1.719877,10.77735,11.5569,63.80275,53.73735,110.9726,-0.02355996,-0.7247244,-10.64635,-5.706912,-1.196521,50.61862,0,0,0,-4.733452,-82.36098,-10.70771,-0.04469871,-109.3912,-59.64662,0.001067912,-0.1257102,0.09433498,0,0.3,0,0,0,0
638225075098845312,-1.484278,15.49975,10.29614,60.06725,56.00795,113.2432,-0.02355996,-0.7247244,-10.64635,-5.706912,-1.196521,50.61862,0,0,0,-3.94587,-72.217,-16.06639,-0.04469871,-109.3912,-59.64662,0.001067912,-0.1257102,0.09433498,0,0.3,0,0,0,0
638225075099185192,-2.026157,20.68971,10.80978,53.40194,57.17988,114.1222,-0.02355996,-0.7247244,-10.64635,-5.706912,-1.196521,50.61862,0,0,0,-5.29486,-60.52027,-18.68404,-0.04469871,-109.3912,-59.64662,0.001067912,-0.1257102,0.09433498,0,0.3,0,0,0,0
638225075099525073,-2.568036,23.05091,11.5102,48.86074,57.54611,114.1222,-0.02355996,-0.7247244,-10.64635,-5.706912,-1.196521,50.61862,0,0,0,-6.690023,-55.10518,-19.18799,-0.04469871,-109.3912,-59.64662,0.001067912,-0.1257102,0.09433498,0,0.3,0,0,0,0
638225075099854981,-4.217233,27.28236,13.84493,38.02045,57.91233,111.2656,-0.02355996,-0.7247244,-10.64635,-5.706912,-1.196521,50.61862,0,0,0,-11.06204,-45.00134,-18.33139,-0.04469871,-109.3912,-59.64662,0.001067912,-0.1257102,0.09433498,0,0.3,0,0,0,0
638225075100204872,-7.209348,30.90598,16.6466,24.83632,57.39961,104.3806,-0.02355996,-0.7247244,-10.64635,-5.706912,-1.196521,50.61862,0,0,0,-19.15259,-35.91861,-16.94028,-0.04469871,-109.3912,-59.64662,0.001067912,-0.1257102,0.09433498,0,0.3,0,0,0,0
638225075100624749,-9.989424,34.6465,19.98526,8.795631,55.05577,96.54334,-0.02355996,-0.7247244,-10.64635,-5.706912,-1.196521,50.61862,0,0,0,-26.93584,-26.15872,-15.42418,-0.04469871,-109.3912,-59.64662,0.001067912,-0.1257102,0.09433498,0,0.3,0,0,0,0
638225075100964626,-10.60198,36.09594,21.52618,3.375489,53.59086,94.56573,-0.02355996,-0.7247244,-10.64635,-5.706912,-1.196521,50.61862,0,0,0,-28.82694,-22.13713,-14.34406,-0.04469871,-109.3912,-59.64662,0.001067912,-0.1257102,0.09433498,0,0.3,0,0,0,0
638225075101304524,-12.69882,40.09362,26.80266,-9.588906,48.09748,92.00214,-0.02355996,-0.7247244,-10.64635,-5.706912,-1.269767,50.61862,0,0,0,-35.64302,-9.791002,-10.17426,-0.04469871,-109.3912,-59.64662,0.001067912,-0.1257102,0.09433498,0,0.3,0,0,0,0
638225075101644403,-14.93702,43.29643,33.24651,-21.30813,42.31111,92.29513,-0.02355996,-0.7247244,-10.64635,-5.706912,-1.196521,50.61862,0,0,0,-43.86053,3.274617,-3.937531,-0.04469871,-109.3912,-59.64662,0.001067912,-0.1257102,0.09433498,0,0.3,0,0,0,0
638225075101984296,-14.98414,45.54074,39.94717,-35.22471,36.52474,92.29513,-0.02355996,-0.7247244,-10.64635,-5.780157,-1.196521,50.61862,0,0,0,-46.28593,16.29737,4.582963,-0.04469871,-109.3912,-59.64662,0.001067912,-0.1257102,0.09433498,0,0.3,0,0,0,0
638225075102314202,-13.97106,46.31222,41.95504,-42.03651,34.25414,91.04996,-0.02355996,-0.7247244,-10.64635,-5.706912,-1.196521,50.61862,0,0,0,-43.76176,20.60896,7.547326,-0.04469871,-109.3912,-59.64662,0.001067912,-0.1257102,0.09433498,0,0.3,0,0,0,0
638225075102654103,-11.04962,47.17721,42.18851,-54.70793,31.47083,84.45789,-0.02355996,-0.7247244,-10.64635,-5.780157,-1.196521,50.61862,0,0,0,-34.5363,22.35258,8.505967,-0.04469871,-109.3912,-59.64662,0.001067912,-0.1257102,0.09433498,0,0.3,0,0,0,0
638225075102999482,-8.387346,46.26546,38.9199,-65.0355,31.17784,72.8119,-0.02355996,-0.7247244,-10.64635,-5.706912,-1.196521,50.61862,0,0,0,-25.66664,15.95247,5.730172,-0.04469871,-109.3912,-59.64662,0.001067912,-0.1257102,0.09433498,0,0.3,0,0,0,0
638225075103339358,-7.185789,44.67575,36.77194,-70.08942,31.39758,65.48739,-0.02355996,-0.7247244,-10.64635,-5.706912,-1.196521,50.61862,0,0,0,-21.84676,10.29092,4.930546,-0.04469871,-109.3912,-59.64662,0.001067912,-0.1257102,0.09433498,0,0.3,0,0,0,0
638225075103669269,-4.170113,37.63891,34.22709,-82.68758,32.13003,45.19848,-0.02355996,-0.7247244,-10.64635,-5.780157,-1.196521,50.61862,0,0,0,-13.13305,-5.471159,11.77437,-0.04469871,-109.3912,-59.64662,0.001067912,-0.1257102,0.09433498,0,0.3,0,0,0,0
638225075104019163,-1.625637,30.55531,34.88082,-96.0182,32.78923,27.39991,-0.02355996,-0.7247244,-10.64635,-5.706912,-1.196521,50.61862,0,0,0,-5.42107,-18.25167,22.66498,-0.04469871,-109.3912,-59.64662,0.001067912,-0.1257102,0.09433498,0,0.3,0,0,0,0
638225075104369051,-0.5418791,27.18885,34.9742,-103.5625,32.86248,18.24426,-0.02355996,-0.7247244,-10.64635,-5.706912,-1.196521,50.61862,0,0,0,-1.844699,-24.98742,26.69404,-0.04469871,-109.3912,-59.64662,0.001067912,-0.1257102,0.09433498,0,0.3,0,0,0,0
638225075104708924,0.7774788,20.82998,34.36718,-116.8198,31.9103,-0.0670338,-0.02355996,-0.7247244,-10.64635,-5.780157,-1.196521,50.61862,0,0,0,2.712601,-39.3033,31.54111,-0.04469871,-109.3912,-59.64662,0.001067912,-0.1257102,0.09433498,0,0.3,0,0,0,0
638225075105148798,1.625637,16.83231,34.34383,-123.5584,29.27347,-15.30203,-0.02355996,-0.7247244,-10.64635,-5.706912,-1.196521,50.61862,0,0,0,5.755124,-48.13833,34.4356,-0.04469871,-109.3912,-59.64662,0.001067912,-0.1257102,0.09433498,0,0.3,0,0,0,0
638225075105478689,2.615156,15.59326,34.11036,-126.8544,25.97744,-26.50854,-0.02355996,-0.7247244,-10.64635,-5.706912,-1.196521,50.61862,0,0,0,9.272508,-51.21298,34.66146,-0.04469871,-109.3912,-59.64662,0.001067912,-0.1257102,0.09433498,0,0.3,0,0,0,0
638225075105818580,3.958073,15.1257,32.33596,-127.6601,21.72922,-38.37426,-0.02355996,-0.7247244,-10.64635,-5.780157,-1.196521,50.69187,0,0,0,13.80922,-54.5249,31.22963,-0.04469871,-109.3912,-59.64662,0.001067912,-0.1257102,0.09433498,0,0.3,0,0,0,0
638225075106148476,4.499953,14.19057,31.26199,-126.3417,19.7516,-44.38036,-0.02355996,-0.7247244,-10.64635,-5.706912,-1.196521,50.61862,0,0,0,15.57265,-57.94756,29.52134,-0.04469871,-109.3912,-59.64662,0.001067912,-0.1257102,0.09433498,0,0.3,0,0,0,0
638225075106498346,5.772191,10.68384,28.74048,-120.5553,17.26126,-55.66012,-0.02355996,-0.7247244,-10.64635,-5.780157,-1.269767,50.61862,0,0,0,19.62779,-68.85048,25.8193,-0.04469871,-109.3912,-59.64662,0.001067912,-0.1257102,0.09433498,0,0.3,0,0,0,0
638225075106838255,8.528707,6.008198,27.3163,-111.4729,17.26126,-65.69471,-0.02355996,-0.7247244,-10.64635,-5.706912,-1.269767,50.61862,0,0,0,28.74329,-81.17186,23.31889,-0.04469871,-109.3912,-59.64662,0.001067912,-0.1257102,0.09433498,0,0.3,0,0,0,0
638225075107168147,10.55486,3.343083,27.33965,-105.8331,18.50643,-70.82186,-0.02355996,-0.7247244,-10.64635,-5.706912,-1.269767,50.61862,0,0,0,35.60336,-87.32849,22.72729,-0.04469871,-109.3912,-59.64662,0.001067912,-0.1257102,0.09433498,0,0.3,0,0,0,0
638225075107518023,15.0077,-0.233782,27.61982,-94.26032,22.97438,-78.29288,-0.02355996,-0.7247244,-10.64635,-5.706912,-1.269767,50.61862,0,0,0,50.5391,-95.34798,20.16323,-0.04469871,-109.3912,-59.64662,0.001067912,-0.1257102,0.09433498,0,0.3,0,0,0,0
638225075107847922,19.76681,-0.9818845,28.04007,-81.58891,28.54102,-82.02838,-0.02355996,-0.7247244,-10.64635,-5.706912,-1.269767,50.61862,0,0,0,66.29146,-96.63238,16.11685,-0.04469871,-109.3912,-59.64662,0.001067912,-0.1257102,0.09433498,0,0.3,0,0,0,0
638225075108197806,23.11232,-0.5143204,29.69772,-68.69775,34.10765,-83.20029,-0.02355996,-0.7247244,-10.64635,-5.706912,-1.269767,50.61862,0,0,0,78.27517,-93.68165,15.05426,-0.04469871,-109.3912,-59.64662,0.001067912,-0.1257102,0.09433498,0,0.3,0,0,0,0
638225075108547832,24.17252,0.4441859,30.60827,-62.98463,36.23176,-83.34679,-0.02355996,-0.7247244,-10.64635,-5.706912,-1.269767,50.61862,0,0,0,82.40618,-90.38637,15.24754,-0.04469871,-109.3912,-59.64662,0.001067912,-0.1257102,0.09433498,0,0.3,0,0,0,0
638225075108897582,27.02328,2.407955,32.47605,-51.48514,39.74753,-82.46785,-0.02355996,-0.7247244,-10.64635,-5.706912,-1.269767,50.61862,0,0,0,93.06688,-83.54358,14.12076,-0.04469871,-109.3912,-59.64662,0.001067912,-0.1257102,0.09433498,0,0.3,0,0,0,0
638225075109227554,30.83999,3.343083,36.37504,-39.47293,42.16462,-78.14638,-0.02355996,-0.7247244,-10.64635,-5.706912,-1.196521,50.61862,0,0,0,108.7871,-76.24078,13.85289,-0.04469871,-109.3912,-59.64662,0.001067912,-0.1257102,0.09433498,0,0.3,0,0,0,0
638225075109667343,33.90279,3.670378,43.61269,-23.13926,44.28873,-70.01617,-0.02355996,-0.7247244,-10.64635,-5.706912,-1.196521,50.61862,0,0,0,125.5344,-64.66136,18.44533,-0.04469871,-109.3912,-59.64662,0.001067912,-0.1257102,0.09433498,0,0.3,0,0,0,0
638225075110007239,34.98654,4.792531,47.39495,-13.10467,45.16767,-65.0355,-0.02355996,-0.7247244,-10.64635,-5.780157,-1.196521,50.61862,0,0,0,132.4714,-55.77894,20.93339,-0.04469871,-109.3912,-59.64662,0.001067912,-0.1257102,0.09433498,0,0.3,0,0,0,0
638225075110347147,35.57554,5.961442,49.19269,-7.171815,45.60714,-61.9592,-0.02355996,-0.7247244,-10.64635,-5.780157,-1.269767,50.61862,0,0,0,135.8813,-49.9469,21.61829,-0.04469871,-109.3912,-59.64662,0.001067912,-0.1257102,0.09433498,0,0.3,0,0,0,0
638225075110687017,36.0703,8.579801,53.04499,3.96145,46.11986,-55.80661,-0.02355996,-0.7247244,-10.64635,-5.706912,-1.196521,50.61862,0,0,0,140.3756,-36.92434,24.3627,-0.04469871,-109.3912,-59.64662,0.001067912,-0.1257102,0.09433498,0,0.3,0,0,0,0
638225075111036916,36.11742,10.80073,58.71837,14.06928,46.04661,-50.53296,-0.02355996,-0.7247244,-10.64635,-5.706912,-1.269767,50.61862,0,0,0,144.385,-20.90236,29.52483,-0.04469871,-109.3912,-59.64662,0.001067912,-0.1257102,0.09433498,0,0.3,0,0,0,0
638225075111386789,35.90538,14.23733,63.92481,24.4701,45.46065,-44.6001,-0.02355996,-0.7247244,-10.64635,-5.706912,-1.269767,50.61862,0,0,0,146.0442,-2.468071,33.36223,-0.04469871,-109.3912,-59.64662,0.001067912,-0.1257102,0.09433498,0,0.3,0,0,0,0
638225075111716689,35.52842,16.45825,66.09611,29.817,45.02118,-41.59705,-0.02355996,-0.7247244,-10.64635,-5.706912,-1.196521,50.61862,0,0,0,145.1595,7.09637,34.94267,-0.04469871,-109.3912,-59.64662,0.001067912,-0.1257102,0.09433498,0,0.3,0,0,0,0
638225075112066583,34.3033,21.69497,69.52816,40.58403,43.84926,-34.93173,-0.02355996,-0.7247244,-10.64635,-5.706912,-1.269767,50.61862,0,0,0,140.2354,26.00609,37.20187,-0.04469871,-109.3912,-59.64662,0.001067912,-0.1257102,0.09433498,0,0.3,0,0,0,0
638225075112406461,32.77191,27.84344,70.29861,51.57081,42.53085,-25.99582,-0.02355996,-0.7247244,-10.64635,-5.706912,-1.196521,50.61862,0,0,0,131.7816,40.67739,36.35537,-0.04469871,-109.3912,-59.64662,0.001067912,-0.1257102,0.09433498,0,0.3,0,0,0,0
638225075112746351,31.64103,32.47232,69.17795,58.82208,40.99269,-18.74455,-0.02355996,-0.7247244,-10.64635,-5.706912,-1.269767,50.61862,0,0,0,124.4035,47.54308,33.54087,-0.04469871,-109.3912,-59.64662,0.001067912,-0.1257102,0.09433498,0,0.3,0,0,0,0
638225075113076259,30.46303,37.87269,67.59034,66.1466,38.13613,-9.735395,-0.02355996,-0.7247244,-10.64635,-5.706912,-1.196521,50.61862,0,0,0,115.8673,54.37823,28.64415,-0.04469871,-109.3912,-59.64662,0.001067912,-0.1257102,0.09433498,0,0.3,0,0,0,0
638225075113416160,28.57823,43.9744,65.20892,72.8119,33.15546,1.324624,-0.02355996,-0.7247244,-10.64635,-5.706912,-1.196521,50.61862,0,0,0,103.8163,60.02472,22.23474,-0.04469871,-109.3912,-59.64662,0.001067912,-0.1257102,0.09433498,0,0.3,0,0,0,0
638225075113756047,27.47091,46.56938,63.94816,74.86278,30.22566,6.378541,-0.02355996,-0.7247244,-10.64635,-5.706912,-1.196521,50.61862,0,0,0,97.55357,61.62455,19.28117,-0.04469871,-109.3912,-59.64662,0.001067912,-0.1257102,0.09433498,0,0.3,0,0,0,0
638225075114175923,24.33744,51.71259,60.6562,77.06013,23.04763,16.77936,-0.02355996,-0.7247244,-10.64635,-5.706912,-1.196521,50.61862,0,0,0,81.95425,62.67004,12.84275,-0.04469871,-109.3912,-59.64662,0.001067912,-0.1257102,0.09433498,0,0.3,0,0,0,0
638225075114515786,20.80345,55.47648,58.46156,76.6939,15.79636,25.1293,-0.02355996,-0.7247244,-10.64635,-5.706912,-1.196521,50.61862,0,0,0,67.20688,63.46474,8.541313,-0.04469871,-109.3912,-59.64662,0.001067912,-0.1257102,0.09433498,0,0.3,0,0,0,0
638225075114845689,16.93961,57.76754,56.40699,74.78953,8.471841,31.9411,-0.02355996,-0.7247244,-10.64635,-5.706912,-1.196521,50.61862,0,0,0,53.08704,62.36838,5.946709,-0.04469871,-109.3912,-59.64662,0.001067912,-0.1257102,0.09433498,0,0.3,0,0,0,0
638225075115195583,13.05222,58.88969,52.88156,70.46806,1.66004,37.94721,-0.02355996,-0.7247244,-10.64635,-5.706912,-1.196521,50.61862,0,0,0,39.57426,57.04881,2.35499,-0.04469871,-109.3912,-59.64662,0.001067912,-0.1257102,0.09433498,0,0.3,0,0,0,0
638225075115535479,11.16742,58.9832,51.41068,67.39177,-1.343012,40.87702,-0.02355996,-0.7247244,-10.64635,-5.706912,-1.196521,50.61862,0,0,0,33.49541,54.45821,1.320447,-0.04469871,-109.3912,-59.64662,0.001067912,-0.1257102,0.09433498,0,0.3,0,0,0,0
638225075115865366,7.609867,58.04808,48.28215,60.7997,-6.103948,46.80988,-0.02355996,-0.7247244,-10.64635,-5.706912,-1.196521,50.61862,0,0,0,22.52669,47.75698,0.2581983,-0.04469871,-109.3912,-59.64662,0.001067912,-0.1257102,0.09433498,0,0.3,0,0,0,0
638225075116205255,3.651794,55.56999,44.45319,52.74273,-8.447793,53.03571,-0.02355996,-0.7247244,-10.64635,-5.706912,-1.196521,50.61862,0,0,0,10.75034,38.15114,0.09178522,-0.04469871,-109.3912,-59.64662,0.001067912,-0.1257102,0.09433498,0,0.3,0,0,0,0
638225075116545147,1.649197,53.55946,42.46867,48.05504,-8.447793,55.96552,-0.02355996,-0.7247244,-10.64635,-5.706912,-1.269767,50.61862,0,0,0,4.870848,32.26141,0.8244114,-0.04469871,-109.3912,-59.64662,0.001067912,-0.1257102,0.09433498,0,0.3,0,0,0,0
638225075116885037,-2.756516,48.65004,39.41019,37.06827,-5.444741,60.43347,-0.02355996,-0.7247244,-10.64635,-5.706912,-1.196521,50.61862,0,0,0,-8.308236,20.42532,4.208277,-0.04469871,-109.3912,-59.64662,0.001067912,-0.1257102,0.09433498,0,0.3,0,0,0,0
638225075117224929,-6.667469,44.60561,37.84592,26.00825,-0.171089,62.48434,-0.02355996,-0.7247244,-10.64635,-5.706912,-1.269767,50.61862,0,0,0,-20.52247,11.68977,7.209632,-0.04469871,-109.3912,-59.64662,0.001067912,-0.1257102,0.09433498,0,0.3,0,0,0,0
638225075117564814,-8.104627,42.73536,37.51905,21.02757,2.758718,62.77732,-0.02355996,-0.7247244,-10.64635,-5.706912,-1.196521,50.61862,0,0,0,-25.25798,8.076385,9.019172,-0.04469871,-109.3912,-59.64662,0.001067912,-0.1257102,0.09433498,0,0.3,0,0,0,0
638225075117914699,-10.55486,38.5039,37.44902,9.308348,10.08323,61.45891,-0.02355996,-0.7247244,-10.64635,-5.706912,-1.196521,50.61862,0,0,0,-33.9682,0.5035668,13.95167,-0.04469871,-109.3912,-59.64662,0.001067912,-0.1257102,0.09433498,0,0.3,0,0,0,0
638225075118244614,-13.17002,35.23095,38.24282,-1.605182,17.18801,58.5291,-0.02355996,-0.7247244,-10.64635,-5.780157,-1.196521,50.61862,0,0,0,-43.62429,-4.456253,18.08185,-0.04469871,-109.3912,-59.64662,0.001067912,-0.1257102,0.09433498,0,0.3,0,0,0,0
638225075118704447,-17.90557,32.19178,43.19244,-19.69674,25.24498,54.20764,-0.02355996,-0.7247244,-10.64635,-5.706912,-1.196521,50.61862,0,0,0,-62.757,-2.827135,25.88485,-0.04469871,-109.3912,-59.64662,0.001067912,-0.1257102,0.09433498,0,0.3,0,0,0,0
638225075119044340,-19.53121,31.04625,47.48834,-32.88087,28.68751,51.13134,-0.02355996,-0.7247244,-10.64635,-5.780157,-1.196521,50.61862,0,0,0,-71.05822,2.012617,31.96541,-0.04469871,-109.3912,-59.64662,0.001067912,-0.1257102,0.09433498,0,0.3,0,0,0,0
638225075119394239,-20.14377,29.85397,51.73754,-52.58382,32.86248,46.73663,-0.02355996,-0.7247244,-10.64635,-5.780157,-1.196521,50.61862,0,0,0,-75.88625,7.15149,38.52913,-0.04469871,-109.3912,-59.64662,0.001067912,-0.1257102,0.09433498,0,0.3,0,0,0,0
638225075119724137,-20.02597,29.31627,51.50407,-62.17894,34.76685,44.24629,-0.02355996,-0.7247244,-10.64635,-5.706912,-1.196521,50.61862,0,0,0,-75.5568,5.637246,38.94824,-0.04469871,-109.3912,-59.64662,0.001067912,-0.1257102,0.09433498,0,0.3,0,0,0,0
638225075120059324,-19.71969,27.39925,49.23938,-77.99989,37.98964,37.50774,-0.02355996,-0.7247244,-10.64635,-5.706912,-1.196521,50.61862,0,0,0,-74.02837,-2.34813,38.17958,-0.04469871,-109.3912,-59.64662,0.001067912,-0.1257102,0.09433498,0,0.3,0,0,0,0
638225075120399209,-19.29561,24.10293,48.49227,-90.37833,40.91945,29.08454,-0.02355996,-0.7247244,-10.64635,-5.706912,-1.196521,50.61862,0,0,0,-73.22099,-10.56677,40.78773,-0.04469871,-109.3912,-59.64662,0.001067912,-0.1257102,0.09433498,0,0.3,0,0,0,0
638225075120729092,-18.96577,21.81186,48.44558,-97.40987,42.4576,23.51791,-0.02355996,-0.7247244,-10.64635,-5.706912,-1.196521,50.61862,0,0,0,-72.66831,-15.55767,43.10441,-0.04469871,-109.3912,-59.64662,0.001067912,-0.1257102,0.09433498,0,0.3,0,0,0,0
638225075121068982,-18.30609,17.79081,48.04868,-109.4221,44.65495,13.1171,-0.02355996,-0.7247244,-10.64635,-5.706912,-1.196521,50.61862,0,0,0,-71.03131,-25.05024,46.35228,-0.04469871,-109.3912,-59.64662,0.001067912,-0.1257102,0.09433498,0,0.3,0,0,0,0
638225075121418872,-18.47101,14.54124,46.01746,-119.7496,46.1931,2.057076,-0.02355996,-0.7247244,-10.64635,-5.706912,-1.196521,50.61862,0,0,0,-71.29527,-35.77236,45.08795,-0.04469871,-109.3912,-59.64662,0.001067912,-0.1257102,0.09433498,0,0.3,0,0,0,0
638225075121748763,-18.51813,13.48922,44.49989,-123.1922,46.41284,-3.289821,-0.02355996,-0.7247244,-10.64635,-5.780157,-1.196521,50.61862,0,0,0,-70.8695,-40.65658,43.2341,-0.04469871,-109.3912,-59.64662,0.001067912,-0.1257102,0.09433498,0,0.3,0,0,0,0
638225075122098666,-17.92913,12.34369,41.53479,-126.7079,45.68039,-12.81169,-0.02355996,-0.7247244,-10.64635,-5.780157,-1.196521,50.61862,0,0,0,-67.3211,-47.96264,39.71839,-0.04469871,-109.3912,-59.64662,0.001067912,-0.1257102,0.09433498,0,0.3,0,0,0,0
638225075122438554,-15.83229,10.52019,37.986,-128.0263,44.06899,-22.77304,-0.02355996,-0.7247244,-10.64635,-5.706912,-1.196521,50.61862,0,0,0,-58.16065,-57.40398,36.74409,-0.04469871,-109.3912,-59.64662,0.001067912,-0.1257102,0.09433498,0,0.3,0,0,0,0
638225075122778450,-13.26426,8.229127,32.03245,-123.9979,43.48303,-31.12299,-0.02355996,-0.7247244,-10.64635,-5.706912,-1.196521,50.61862,0,0,0,-46.50933,-70.61051,28.948,-0.04469871,-109.3912,-59.64662,0.001067912,-0.1257102,0.09433498,0,0.3,0,0,0,0
638225075123128338,-11.52082,7.574538,28.97396,-120.0426,43.62952,-34.78524,-0.02355996,-0.7247244,-10.64635,-5.706912,-1.196521,50.61862,0,0,0,-39.30224,-75.73226,24.46802,-0.04469871,-109.3912,-59.64662,0.001067912,-0.1257102,0.09433498,0,0.3,0,0,0,0
638225075123468216,-7.421387,7.364134,23.39396,-110.5207,44.43522,-41.5238,-0.02355996,-0.7247244,-10.64635,-5.706912,-1.196521,50.61862,0,0,0,-23.92109,-81.94605,15.29545,-0.04469871,-109.3912,-59.64662,0.001067912,-0.1257102,0.09433498,0,0.3,0,0,0,0
638225075123798127,-3.204155,9.37466,18.93463,-100.0467,45.60714,-46.65096,-0.02355996,-0.7247244,-10.64635,-5.706912,-1.196521,50.61862,0,0,0,-9.772471,-81.06302,6.216331,-0.04469871,-109.3912,-59.64662,0.001067912,-0.1257102,0.09433498,0,0.3,0,0,0,0
638225075124138008,-1.248678,10.941,17.37037,-94.77303,46.1931,-48.18911,-0.02355996,-0.7247244,-10.64635,-5.706912,-1.196521,50.61862,0,0,0,-3.720678,-78.60899,2.346842,-0.04469871,-109.3912,-59.64662,0.001067912,-0.1257102,0.09433498,0,0.3,0,0,0,0
638225075124477912,2.049716,14.49449,16.27304,-84.59196,47.07204,-49.8005,-0.02355996,-0.7247244,-10.64635,-5.780157,-1.269767,50.61862,0,0,0,5.954164,-71.28188,-1.984128,-0.04469871,-109.3912,-59.64662,0.001067912,-0.1257102,0.09433498,0,0.3,0,0,0,0
638225075124807800,4.594193,18.07135,16.22635,-75.72929,47.43827,-48.92156,-0.02355996,-0.7247244,-10.64635,-5.706912,-1.196521,50.61862,0,0,0,13.1388,-63.32272,-4.842719,-0.04469871,-109.3912,-59.64662,0.001067912,-0.1257102,0.09433498,0,0.3,0,0,0,0
638225075125157675,5.96067,19.96499,16.45982,-71.11485,47.36503,-47.23692,-0.02355996,-0.7247244,-10.64635,-5.706912,-1.196521,50.61862,0,0,0,16.93928,-59.00334,-6.112283,-0.04469871,-109.3912,-59.64662,0.001067912,-0.1257102,0.09433498,0,0.3,0,0,0,0
638225075125497573,8.434465,23.61198,17.44041,-62.32543,46.85231,-41.30406,-0.02355996,-0.7247244,-10.64635,-5.706912,-1.196521,50.61862,0,0,0,23.78424,-50.45769,-7.951177,-0.04469871,-109.3912,-59.64662,0.001067912,-0.1257102,0.09433498,0,0.3,0,0,0,0
638225075125837467,11.8271,27.25899,19.40158,-52.8768,46.1931,-32.00193,-0.02355996,-0.7247244,-10.64635,-5.706912,-1.196521,50.61862,0,0,0,33.37512,-41.35144,-8.96895,-0.04469871,-109.3912,-59.64662,0.001067912,-0.1257102,0.09433498,0,0.3,0,0,0,0
638225075126297332,17.19877,32.98664,23.79086,-36.76286,43.99575,-17.2064,-0.02355996,-0.7247244,-10.64635,-5.706912,-1.196521,50.61862,0,0,0,48.97974,-26.06691,-10.11,-0.04469871,-109.3912,-59.64662,0.001067912,-0.1257102,0.09433498,0,0.3,0,0,0,0
638225075126637212,19.46053,37.10121,26.84936,-26.87477,41.43217,-9.515661,-0.02355996,-0.7247244,-10.64635,-5.706912,-1.196521,50.61862,0,0,0,55.49841,-15.18445,-11.28354,-0.04469871,-109.3912,-59.64662,0.001067912,-0.1257102,0.09433498,0,0.3,0,0,0,0
638225075126977105,21.20397,43.74062,30.86509,-14.49633,36.08527,0.07945653,-0.02355996,-0.7247244,-10.64635,-5.706912,-1.196521,50.61862,0,0,0,59.58948,1.082827,-14.75068,-0.04469871,-109.3912,-59.64662,0.001067912,-0.1257102,0.09433498,0,0.3,0,0,0,0
638225075127316993,21.39244,47.15384,33.03638,-8.709964,32.27652,4.693902,-0.02355996,-0.7247244,-10.64635,-5.706912,-1.196521,50.61862,0,0,0,59.59384,9.329263,-16.22539,-0.04469871,-109.3912,-59.64662,0.001067912,-0.1257102,0.09433498,0,0.3,0,0,0,0
638225075127766862,20.73277,52.62434,37.5891,0.1527017,24.43929,12.89736,-0.02355996,-0.7247244,-10.64635,-5.706912,-1.196521,50.61862,0,0,0,57.45271,23.65228,-16.56838,-0.04469871,-109.3912,-59.64662,0.001067912,-0.1257102,0.09433498,0,0.3,0,0,0,0
638225075128096755,19.53121,57.2766,41.97839,6.598277,16.30907,21.10082,-0.02355996,-0.7247244,-10.64635,-5.706912,-1.196521,50.61862,0,0,0,53.91851,36.40401,-16.35197,-0.04469871,-109.3912,-59.64662,0.001067912,-0.1257102,0.09433498,0,0.3,0,0,0,0
638225075128436645,16.79825,61.60157,46.06416,11.72544,8.398596,29.67051,-0.02355996,-0.7247244,-10.64635,-5.780157,-1.196521,50.61862,0,0,0,46.08115,48.12764,-15.70505,-0.04469871,-109.3912,-59.64662,0.001067912,-0.1257102,0.09433498,0,0.3,0,0,0,0
638225075128776519,14.20666,63.33155,47.62842,13.7763,4.003886,34.13846,-0.02355996,-0.7247244,-10.64635,-5.706912,-1.196521,50.61862,0,0,0,38.86684,52.64469,-14.82473,-0.04469871,-109.3912,-59.64662,0.001067912,-0.1257102,0.09433498,0,0.3,0,0,0,0
638225075129116409,9.047026,63.98614,49.19269,15.16796,-3.760103,42.92788,-0.02355996,-0.7247244,-10.64635,-5.706912,-1.196521,50.61862,0,0,0,25.068,56.04353,-10.91329,-0.04469871,-109.3912,-59.64662,0.001067912,-0.1257102,0.09433498,0,0.3,0,0,0,0
638225075129456301,4.335033,63.12115,50.21997,14.06928,-9.180244,52.08353,-0.02355996,-0.7247244,-10.64635,-5.706912,-1.196521,50.61862,0,0,0,12.30342,56.97054,-6.047045,-0.04469871,-109.3912,-59.64662,0.001067912,-0.1257102,0.09433498,0,0.3,0,0,0,0
638225075129796192,0.2827196,62.4198,51.31729,11.57895,-13.35522,61.01944,-0.02355996,-0.7247244,-10.64635,-5.706912,-1.269767,50.61862,0,0,0,0.8182918,58.20189,-2.516789,-0.04469871,-109.3912,-59.64662,0.001067912,-0.1257102,0.09433498,0,0.3,0,0,0,0
638225075130136083,-1.602077,62.09251,52.01771,10.0408,-15.33284,65.48739,-0.02355996,-0.7247244,-10.64635,-5.706912,-1.196521,50.61862,0,0,0,-4.683517,59.12601,-0.8950298,-0.04469871,-109.3912,-59.64662,0.001067912,-0.1257102,0.09433498,0,0.3,0,0,0,0
638225075130485990,-5.206751,61.22752,53.23177,6.232051,-18.1894,73.39787,-0.02355996,-0.7247244,-10.64635,-5.706912,-1.269767,50.61862,0,0,0,-15.51892,60.41574,1.951902,-0.04469871,-109.3912,-59.64662,0.001067912,-0.1257102,0.09433498,0,0.3,0,0,0,0
638225075130855862,-9.164824,59.94172,54.58591,0.07945653,-20.38675,82.33378,-0.02355996,-0.7247244,-10.64635,-5.780157,-1.269767,50.61862,0,0,0,-27.94812,61.49272,4.880718,-0.04469871,-109.3912,-59.64662,0.001067912,-0.1257102,0.09433498,0,0.3,0,0,0,0
638225075131195769,-11.16742,59.35726,55.37971,-4.82797,-21.2657,88.92585,-0.02355996,-0.7247244,-10.64635,-5.706912,-1.196521,50.61862,0,0,0,-34.41723,62.31846,5.989936,-0.04469871,-109.3912,-59.64662,0.001067912,-0.1257102,0.09433498,0,0.3,0,0,0,0
638225075131535638,-11.85066,59.28712,55.75327,-7.24506,-21.55868,92.36837,-0.02355996,-0.7247244,-10.64635,-5.706912,-1.196521,50.61862,0,0,0,-36.62349,62.95225,6.185658,-0.04469871,-109.3912,-59.64662,0.001067912,-0.1257102,0.09433498,0,0.3,0,0,0,0
638225075131875526,-13.75902,58.93645,56.40699,-11.56653,-21.99815,101.0113,-0.02355996,-0.7247244,-10.64635,-5.706912,-1.196521,50.61862,0,0,0,-42.78389,63.79581,6.374224,-0.04469871,-109.3912,-59.64662,0.001067912,-0.1257102,0.09433498,0,0.3,0,0,0,0
638225075132315385,-16.37417,58.11822,57.31754,-16.91342,-22.14464,114.4152,-0.02355996,-0.7247244,-10.64635,-5.706912,-1.196521,50.61862,0,0,0,-51.49597,64.57607,6.909934,-0.04469871,-109.3912,-59.64662,0.001067912,-0.1257102,0.09433498,0,0.3,0,0,0,0
638225075132645283,-17.59929,57.69741,57.92457,-19.477,-21.99815,121.3002,-0.02355996,-0.7247244,-10.64635,-5.706912,-1.196521,50.61862,0,0,0,-55.71101,65.24888,7.280903,-0.04469871,-109.3912,-59.64662,0.001067912,-0.1257102,0.09433498,0,0.3,0,0,0,0
638225075132995169,-19.43697,57.62727,59.39544,-22.99277,-21.70517,132.8729,-0.02355996,-0.7247244,-10.64635,-5.706912,-1.196521,50.61862,0,0,0,-61.95287,68.08533,7.213087,-0.04469871,-109.3912,-59.64662,0.001067912,-0.1257102,0.09433498,0,0.3,0,0,0,0
638225075133335060,-20.49717,57.76754,60.37603,-24.8239,-21.77841,140.9299,-0.02355996,-0.7247244,-10.64635,-5.706912,-1.196521,50.61862,0,0,0,-65.49502,70.23393,6.850794,-0.04469871,-109.3912,-59.64662,0.001067912,-0.1257102,0.09433498,0,0.3,0,0,0,0
638225075133884890,-21.91076,59.5209,62.26716,-29.43835,-22.95034,144.9584,-0.02355996,-0.7247244,-10.64635,-5.706912,-1.196521,50.61862,0,0,0,-69.285,76.21858,3.908347,-0.04469871,-109.3912,-59.64662,0.001067912,-0.1257102,0.09433498,0,0.3,0,0,0,0
638225075134234779,-21.32176,62.16264,63.55126,-28.99888,-24.41524,144.9584,-0.02355996,-0.7247244,-10.64635,-5.706912,-1.196521,50.61862,0,0,0,-66.05332,81.8746,0.8780319,-0.04469871,-109.3912,-59.64662,0.001067912,-0.1257102,0.09433498,0,0.3,0,0,0,0
638225075134564666,-20.56785,64.31344,64.92875,-28.26642,-26.24637,144.9584,-0.02355996,-0.7247244,-10.64635,-5.706912,-1.196521,50.61862,0,0,0,-62.74025,87.01578,-1.147428,-0.04469871,-109.3912,-59.64662,0.001067912,-0.1257102,0.09433498,0,0.3,0,0,0,0
638225075134914554,-19.15425,67.28246,66.1428,-25.77609,-30.78757,144.8852,-0.02355996,-0.7247244,-10.64635,-5.706912,-1.196521,50.61862,0,0,0,-56.91251,92.42017,-4.498358,-0.04469871,-109.3912,-59.64662,0.001067912,-0.1257102,0.09433498,0,0.3,0,0,0,0
638225075135344416,-18.04693,70.95284,66.98331,-20.57568,-35.5485,144.8852,-0.02355996,-0.7247244,-10.64635,-5.706912,-1.196521,50.61862,0,0,0,-51.50431,97.25937,-10.27671,-0.04469871,-109.3912,-59.64662,0.001067912,-0.1257102,0.09433498,0,0.3,0,0,0,0
638225075135684311,-17.36369,72.6127,67.45025,-18.59806,-36.94016,144.8852,-0.02355996,-0.7247244,-10.64635,-5.706912,-1.196521,50.61862,0,0,0,-48.64622,99.46899,-12.77428,-0.04469871,-109.3912,-59.64662,0.001067912,-0.1257102,0.09433498,0,0.3,0,0,0,0
638225075136024203,-15.62025,75.95578,68.96782,-15.66825,-39.21077,144.8852,-0.02355996,-0.7247244,-10.64635,-5.706912,-1.196521,50.61862,0,0,0,-42.22707,104.8557,-17.31577,-0.04469871,-109.3912,-59.64662,0.001067912,-0.1257102,0.09433498,0,0.3,0,0,0,0
638225075136364092,-14.1831,77.82603,70.25192,-13.76388,-40.60242,144.8119,-0.02355996,-0.7247244,-10.64635,-5.706912,-1.196521,50.61862,0,0,0,-37.64221,108.6442,-19.40469,-0.04469871,-109.3912,-59.64662,0.001067912,-0.1257102,0.09433498,0,0.3,0,0,0,0
638225075136853938,-7.609867,83.46019,74.43108,-1.824918,-46.16905,139.172,-0.02355996,-0.7247244,-10.64635,-5.706912,-1.196521,50.61862,0,0,0,-19.02247,120.0415,-25.97024,-0.04469871,-109.3912,-59.64662,0.001067912,-0.1257102,0.09433498,0,0.3,0,0,0,0
638225075137193826,-2.450236,85.58761,76.81251,11.57895,-48.21992,125.8414,-0.02355996,-0.7247244,-10.64635,-5.780157,-1.269767,50.61862,0,0,0,-5.989192,125.8825,-28.38544,-0.04469871,-109.3912,-59.64662,0.001067912,-0.1257102,0.09433498,0,0.3,0,0,0,0
638225075137533722,0.8717186,86.38246,77.7464,21.76003,-48.36641,117.4915,-0.02355996,-0.7247244,-10.64635,-5.706912,-1.269767,50.61862,0,0,0,2.110543,128.1322,-29.64021,-0.04469871,-109.3912,-59.64662,0.001067912,-0.1257102,0.09433498,0,0.3,0,0,0,0
638225075137883607,8.222426,87.10719,79.40405,43.29411,-44.48441,102.1832,-0.02355996,-0.7247244,-10.64635,-5.780157,-1.269767,50.61862,0,0,0,19.70851,132.0094,-31.96057,-0.04469871,-109.3912,-59.64662,0.001067912,-0.1257102,0.09433498,0,0.3,0,0,0,0
638225075138413440,16.13857,86.14868,81.01501,68.63693,-29.98187,92.14863,-0.02355996,-0.7247244,-10.64635,-5.706912,-1.196521,50.61862,0,0,0,39.10097,135.5728,-33.223,-0.04469871,-109.3912,-59.64662,0.001067912,-0.1257102,0.09433498,0,0.3,0,0,0,0
638225075138743331,17.17521,86.17206,80.99167,73.54436,-25.07445,92.44161,-0.02355996,-0.7247244,-10.64635,-5.706912,-1.269767,50.61862,0,0,0,41.52072,135.5228,-34.01251,-0.04469871,-109.3912,-59.64662,0.001067912,-0.1257102,0.09433498,0,0.3,0,0,0,0
638225075139083222,18.30609,86.94354,81.06171,81.67458,-14.60039,100.7916,-0.02355996,-0.7247244,-10.64635,-5.706912,-1.269767,50.61862,0,0,0,43.60899,135.7916,-36.53559,-0.04469871,-109.3912,-59.64662,0.001067912,-0.1257102,0.09433498,0,0.3,0,0,0,0
638225075139413118,19.53121,88.46312,81.62204,87.02148,-6.616664,114.6349,-0.02355996,-0.7247244,-10.64635,-5.706912,-1.196521,50.61862,0,0,0,45.30154,137.2226,-40.64348,-0.04469871,-109.3912,-59.64662,0.001067912,-0.1257102,0.09433498,0,0.3,0,0,0,0
638225075139852978,20.89769,90.5204,82.13568,91.1232,-0.5373149,130.2361,-0.02355996,-0.7247244,-10.64635,-5.706912,-1.196521,50.61862,0,0,0,46.68659,138.4485,-46.07508,-0.04469871,-109.3912,-59.64662,0.001067912,-0.1257102,0.09433498,0,0.3,0,0,0,0
638225075140182871,22.005,92.48417,82.04229,92.29513,2.099511,137.7804,-0.02355996,-0.7247244,-10.64635,-5.780157,-1.269767,50.61862,0,0,0,47.31782,138.1134,-51.26373,-0.04469871,-109.3912,-59.64662,0.001067912,-0.1257102,0.09433498,0,0.3,0,0,0,0
638225075140522766,22.21704,94.19078,81.45861,92.22188,2.831963,143.1273,-0.02355996,-0.7247244,-10.64635,-5.780157,-1.269767,50.61862,0,0,0,46.17785,136.5378,-55.29079,-0.04469871,-109.3912,-59.64662,0.001067912,-0.1257102,0.09433498,0,0.3,0,0,0,0
