zeyangz2/DNN_classification_different_people_hand/data_by_names/Srikar/srikar_right_23.csv
Timestamp,Therapist joint angle 0,Therapist joint angle 1,Therapist joint angle 2,Therapist joint angle 3,Therapist joint angle 4,Therapist joint angle 5,Patient joint angle 0,Patient joint angle 1,Patient joint angle 2,Patient joint angle 3,Patient joint angle 4,Patient joint angle 5,Virtual joint angle 0,Virtual joint angle 1,Virtual joint angle 2,Therapist position x,Therapist position y,Therapist position z,Patient position x,Patient position y,Patient position z,Virtual position x,Virtual position y,Virtual position z,Assistive Force, Obstacle Force Magnitude, Therapist Constant Force, Patient Constant Force, Recovery Factor, Assistance Level
638225081765554441,0,0,0,0,0,0,0,0,0,0,0,0,0,0,0,0,0,0,0,0,0,0,0,0,0,0.3,0,0,0,0
638225081765644415,24.92644,-0.9818845,3.595479,-62.47192,-64.33386,-134.9114,43.25609,-0.8649935,-2.848366,-128.7588,-7.27587,26.00825,0,0,0,59.71714,-112.0226,-39.85572,86.82815,-111.8484,-76.06861,0.001067912,-0.1257102,0.09433498,0,0.3,0,0,8.432642E-08,0
638225081765994299,24.92644,-0.9818845,3.595479,-62.39867,-64.33386,-134.8381,43.25609,-0.8649935,-2.848366,-128.7588,-7.27587,26.00825,0,0,0,59.71714,-112.0226,-39.85572,86.82815,-111.8484,-76.06861,0.001067912,-0.1257102,0.09433498,0,0.3,0,0,8.432642E-08,0
638225081766434163,24.92644,-0.9818845,3.595479,-62.47192,-64.33386,-134.9114,43.25609,-0.8649935,-2.848366,-128.7588,-7.27587,26.00825,0,0,0,59.71714,-112.0226,-39.85572,86.82815,-111.8484,-76.06861,0.001067912,-0.1257102,0.09433498,0,0.3,0,0,0,0
638225081766784049,24.92644,-0.9818845,3.595479,-62.47192,-64.33386,-134.9114,43.25609,-0.8649935,-2.848366,-128.7588,-7.27587,26.08149,0,0,0,59.71714,-112.0226,-39.85572,86.82815,-111.8484,-76.06861,0.001067912,-0.1257102,0.09433498,0,0.3,0,0,0,0
638225081767113944,24.92644,-0.9818845,3.595479,-62.47192,-64.4071,-134.9114,43.25609,-0.8649935,-2.848366,-128.7588,-7.27587,26.00825,0,0,0,59.71714,-112.0226,-39.85572,86.82815,-111.8484,-76.06861,0.001067912,-0.1257102,0.09433498,0,0.3,0,0,0,0
638225081767463832,24.92644,-0.9818845,3.595479,-62.47192,-64.33386,-134.9114,43.25609,-0.8649935,-2.848366,-128.7588,-7.27587,26.00825,0,0,0,59.71714,-112.0226,-39.85572,86.82815,-111.8484,-76.06861,0.001067912,-0.1257102,0.09433498,0,0.3,0,0,0,0
638225081767803723,24.92644,-0.9818845,3.595479,-62.47192,-64.4071,-134.9114,43.25609,-0.8649935,-2.848366,-128.6855,-7.27587,26.08149,0,0,0,59.71714,-112.0226,-39.85572,86.82815,-111.8484,-76.06861,0.001067912,-0.1257102,0.09433498,0,0.3,0,0,8.432642E-08,0
638225081768153613,24.92644,-0.9818845,3.595479,-62.39867,-64.33386,-134.9114,43.25609,-0.8649935,-2.848366,-128.7588,-7.27587,26.00825,0,0,0,59.71714,-112.0226,-39.85572,86.82815,-111.8484,-76.06861,0.001067912,-0.1257102,0.09433498,0,0.3,0,0,8.432642E-08,0
638225081768493503,24.92644,-0.9818845,3.595479,-62.47192,-64.33386,-134.9114,43.25609,-0.8649935,-2.848366,-128.6855,-7.27587,26.08149,0,0,0,59.71714,-112.0226,-39.85572,86.82815,-111.8484,-76.06861,0.001067912,-0.1257102,0.09433498,0,0.3,0,0,1.686528E-07,0
638225081768833391,24.92644,-0.9818845,3.595479,-62.47192,-64.4071,-134.9114,43.25609,-0.8649935,-2.848366,-128.7588,-7.27587,26.00825,0,0,0,59.71714,-112.0226,-39.85572,86.82815,-111.8484,-76.06861,0.001067912,-0.1257102,0.09433498,0,0.3,0,0,2.529793E-07,0
638225081769163290,24.92644,-0.9818845,3.595479,-62.39867,-64.33386,-134.9114,43.25609,-0.8649935,-2.848366,-128.6855,-7.27587,26.00825,0,0,0,59.71714,-112.0226,-39.85572,86.82815,-111.8484,-76.06861,0.001067912,-0.1257102,0.09433498,0,0.3,0,0,2.529793E-07,0
638225081769513176,24.92644,-0.9818845,3.595479,-62.47192,-64.4071,-134.9114,43.25609,-0.8649935,-2.848366,-128.6855,-7.27587,26.00825,0,0,0,59.71714,-112.0226,-39.85572,86.82815,-111.8484,-76.06861,0.001067912,-0.1257102,0.09433498,0,0.3,0,0,2.529793E-07,0
638225081769863066,24.92644,-0.9818845,3.595479,-62.39867,-64.33386,-134.8381,43.25609,-0.8649935,-2.848366,-128.7588,-7.27587,26.00825,0,0,0,59.71714,-112.0226,-39.85572,86.82815,-111.8484,-76.06861,0.001067912,-0.1257102,0.09433498,0,0.3,0,0,3.373057E-07,0
638225081770202959,24.92644,-0.9818845,3.595479,-62.47192,-64.4071,-134.9114,43.25609,-0.8649935,-2.848366,-128.7588,-7.27587,26.00825,0,0,0,59.71714,-112.0226,-39.85572,86.82815,-111.8484,-76.06861,0.001067912,-0.1257102,0.09433498,0,0.3,0,0,2.529793E-07,0
638225081770542852,24.92644,-0.9818845,3.595479,-62.39867,-64.33386,-134.8381,43.25609,-0.8649935,-2.848366,-128.7588,-7.27587,26.08149,0,0,0,59.71714,-112.0226,-39.85572,86.82815,-111.8484,-76.06861,0.001067912,-0.1257102,0.09433498,0,0.3,0,0,1.686528E-07,0
638225081770952719,24.92644,-0.9818845,3.595479,-62.47192,-64.33386,-134.9114,43.25609,-0.8649935,-2.848366,-128.7588,-7.27587,26.08149,0,0,0,59.71714,-112.0226,-39.85572,86.82815,-111.8484,-76.06861,0.001067912,-0.1257102,0.09433498,0,0.3,0,0,8.432642E-08,0
638225081771302609,23.67776,-1.005263,4.459328,-71.33459,-64.18736,-121.2878,43.25609,-0.8649935,-2.848366,-128.7588,-7.202625,26.00825,0,0,0,57.70786,-111.9358,-36.74905,86.82815,-111.8484,-76.06861,0.001067912,-0.1257102,0.09433498,0,0.3,0,0,0,0
638225081771642500,18.16473,-0.9585064,5.04301,-85.4709,-61.4773,-126.6347,43.25609,-0.8883717,-2.848366,-128.6855,-7.202625,26.00825,0,0,0,45.22037,-111.7145,-30.52558,86.82758,-111.9028,-76.06921,0.001067912,-0.1257102,0.09433498,0,0.3,0,0,0,0
638225081771992384,13.33494,-0.9818845,4.832884,-90.08535,-57.08258,-128.9053,43.25609,-0.8883717,-2.848366,-128.7588,-7.202625,26.00825,0,0,0,33.34295,-111.811,-27.68258,86.82758,-111.9028,-76.06921,0.001067912,-0.1257102,0.09433498,0,0.3,0,0,0,0
638225081772322283,11.02606,-1.005263,4.692801,-91.03754,-54.88523,-127.9531,43.25609,-0.8883717,-2.848366,-128.6855,-7.27587,26.00825,0,0,0,27.58655,-111.8925,-26.77334,86.82758,-111.9028,-76.06921,0.001067912,-0.1257102,0.09433498,0,0.3,0,0,0,0
638225081772662169,7.020868,-1.005263,5.136398,-92.06297,-52.98085,-110.2278,43.25609,-0.8883717,-2.848366,-128.7588,-7.27587,26.00825,0,0,0,17.75622,-111.804,-24.17136,86.82758,-111.9028,-76.06921,0.001067912,-0.1257102,0.09433498,0,0.3,0,0,0,0
638225081773002059,2.709396,-1.005263,6.093637,-102.244,-54.00629,-93.38138,43.25609,-0.8883717,-2.848366,-128.7588,-7.27587,26.00825,0,0,0,6.971656,-111.5861,-21.02981,86.82758,-111.9028,-76.06921,0.001067912,-0.1257102,0.09433498,0,0.3,0,0,0,0
638225081773351948,0.2591596,-1.005263,6.957485,-112.9378,-54.73874,-89.05991,43.25609,-0.8883717,-2.848366,-128.7588,-7.27587,26.00825,0,0,0,0.6761353,-111.3576,-18.86899,86.82758,-111.9028,-76.06921,0.001067912,-0.1257102,0.09433498,0,0.3,0,0,0,0
638225081773681846,-4.782672,-1.005263,9.642421,-140.6245,-55.69093,-85.17792,43.25609,-0.8883717,-2.848366,-128.7588,-7.349115,26.00825,0,0,0,-12.97883,-110.4556,-13.22658,86.82758,-111.9028,-76.06921,0.001067912,-0.1257102,0.09433498,0,0.3,0,0,0,0
638225081774031733,-8.811425,-0.9818845,12.09388,-153.7354,-55.98391,-84.8117,43.25609,-0.8883717,-2.848366,-128.7588,-7.27587,26.00825,0,0,0,-24.70367,-109.3255,-8.984186,86.82758,-111.9028,-76.06921,0.001067912,-0.1257102,0.09433498,0,0.3,0,0,0,0
638225081774361629,-10.71978,-0.9818845,13.6348,-154.3946,-56.1304,-84.88493,43.25609,-0.8883717,-2.848366,-128.7588,-7.27587,26.00825,0,0,0,-30.64732,-108.5271,-6.460037,86.82758,-111.9028,-76.06921,0.001067912,-0.1257102,0.09433498,0,0.3,0,0,0,0
638225081774711515,-13.87682,-0.9818845,16.85673,-154.6876,-56.49662,-84.95818,43.25609,-0.8883717,-2.848366,-128.7588,-7.27587,26.00825,0,0,0,-41.25146,-106.5555,-1.370857,86.82758,-111.9028,-76.06921,0.001067912,-0.1257102,0.09433498,0,0.3,0,0,0,0
638225081775051405,-16.84537,-0.8416153,20.87246,-154.6876,-56.64312,-84.95818,43.25609,-0.8883717,-2.848366,-128.7588,-7.27587,26.00825,0,0,0,-52.40754,-103.2077,4.736656,86.82758,-111.9028,-76.06921,0.001067912,-0.1257102,0.09433498,0,0.3,0,0,0,0
638225081775481268,-20.12021,-0.04675641,28.04007,-154.7608,-55.10497,-84.95818,43.25609,-0.8883717,-2.848366,-128.7588,-7.27587,26.00825,0,0,0,-67.4347,-94.45608,15.7228,86.82758,-111.9028,-76.06921,0.001067912,-0.1257102,0.09433498,0,0.3,0,0,0,0
638225081775821159,-21.51024,0.8649935,32.28927,-154.8341,-53.27384,-84.95818,43.25609,-0.8883717,-2.848366,-128.7588,-7.349115,26.00825,0,0,0,-75.00903,-87.36591,21.97172,86.82758,-111.9028,-76.06921,0.001067912,-0.1257102,0.09433498,0,0.3,0,0,0,0
638225081776151057,-22.3584,1.846878,35.48784,-154.8341,-51.88218,-84.95818,43.25609,-0.8883717,-2.848366,-128.7588,-7.349115,26.00825,0,0,0,-80.14796,-80.93106,26.50494,86.82758,-111.9028,-76.06921,0.001067912,-0.1257102,0.09433498,0,0.3,0,0,0,0
638225081776490946,-23.5364,4.488615,41.48809,-154.8341,-49.3186,-84.95818,43.25609,-0.8883717,-2.848366,-128.7588,-7.349115,26.00825,0,0,0,-88.36435,-66.10551,34.52153,86.82758,-111.9028,-76.06921,0.001067912,-0.1257102,0.09433498,0,0.3,0,0,0,0
638225081776830836,-24.03116,8.369397,47.69846,-154.8341,-46.9015,-84.95818,43.25609,-0.8883717,-2.848366,-128.7588,-7.349115,26.00825,0,0,0,-93.89062,-46.98915,42.2235,86.82758,-111.9028,-76.06921,0.001067912,-0.1257102,0.09433498,0,0.3,0,0,0,0
638225081777180726,-23.72488,13.5126,53.93219,-154.8341,-44.99713,-84.95818,43.25609,-0.8883717,-2.848366,-128.7588,-7.349115,26.08149,0,0,0,-95.5362,-24.00034,49.03101,86.82758,-111.9028,-76.06921,0.001067912,-0.1257102,0.09433498,0,0.3,0,0,0,0
638225081777510622,-23.25368,16.01407,56.73386,-154.8341,-44.41117,-84.95818,43.25609,-0.8883717,-2.848366,-128.7588,-7.349115,26.00825,0,0,0,-94.62374,-13.00861,51.85371,86.82758,-111.9028,-76.06921,0.001067912,-0.1257102,0.09433498,0,0.3,0,0,0,0
638225081777850513,-21.72228,20.87674,62.50063,-154.8341,-43.67872,-84.95818,43.25609,-0.8883717,-2.848366,-128.7588,-7.349115,26.00825,0,0,0,-89.8915,9.297548,57.28189,86.82758,-111.9028,-76.06921,0.001067912,-0.1257102,0.09433498,0,0.3,0,0,0,0
638225081778190402,-19.76681,25.08481,68.54758,-154.8341,-43.166,-84.95818,43.25609,-0.8883717,-2.848366,-128.7588,-7.349115,26.00825,0,0,0,-82.81811,31.11507,62.10495,86.82758,-111.9028,-76.06921,0.001067912,-0.1257102,0.09433498,0,0.3,0,0,0,0
638225081778530296,-17.95269,28.26425,73.31042,-154.8341,-42.28706,-84.95818,43.25609,-0.8883717,-2.848366,-128.7588,-7.349115,26.00825,0,0,0,-75.57336,48.20008,64.89601,86.82758,-111.9028,-76.06921,0.001067912,-0.1257102,0.09433498,0,0.3,0,0,0,0
638225081778870186,-16.25637,31.06963,77.27945,-154.8341,-40.8954,-84.95818,43.25609,-0.8883717,-2.848366,-128.7588,-7.422361,26.00825,0,0,0,-68.3874,62.80604,66.17942,86.82758,-111.9028,-76.06921,0.001067912,-0.1257102,0.09433498,0,0.3,0,0,0,0
638225081779210075,-13.54698,35.62838,83.51317,-154.9073,-37.67262,-84.95818,43.25609,-0.8883717,-2.848366,-128.7588,-7.349115,26.00825,0,0,0,-56.42547,85.9646,65.83294,86.82758,-111.9028,-76.06921,0.001067912,-0.1257102,0.09433498,0,0.3,0,0,0,0
638225081779539974,-12.08626,37.70904,86.43158,-154.9073,-35.62175,-84.95818,43.25609,-0.8883717,-2.848366,-128.7588,-7.422361,26.00825,0,0,0,-49.95658,96.61401,64.94958,86.82758,-111.9028,-76.06921,0.001067912,-0.1257102,0.09433498,0,0.3,0,0,0,0
638225081780019819,-6.549669,45.11993,94.53307,-154.9073,-26.61259,-84.95818,43.25609,-0.8883717,-2.848366,-128.7588,-7.349115,26.08149,0,0,0,-25.89583,128.3791,57.19624,86.82758,-111.9028,-76.06921,0.001067912,-0.1257102,0.09433498,0,0.3,0,0,0,0
638225081780359713,-4.971152,46.7564,96.93785,-154.9073,-23.68279,-84.95818,43.25609,-0.8883717,-2.848366,-128.7588,-7.422361,26.00825,0,0,0,-19.38729,136.5962,54.54029,86.82758,-111.9028,-76.06921,0.001067912,-0.1257102,0.09433498,0,0.3,0,0,0,0
638225081780699599,-0.7774788,49.35139,102.9147,-154.9073,-15.25959,-84.95818,43.25609,-0.8883717,-2.848366,-128.7588,-7.422361,26.08149,0,0,0,-2.942379,154.329,48.47339,86.82758,-111.9028,-76.06921,0.001067912,-0.1257102,0.09433498,0,0.3,0,0,0,0
638225081781029497,3.887394,51.24502,106.09,-155.0538,-8.447793,-96.82391,43.25609,-0.8883717,-2.848366,-128.7588,-7.349115,26.08149,0,0,0,14.34574,164.2978,42.76545,86.82758,-111.9028,-76.06921,0.001067912,-0.1257102,0.09433498,0,0.3,0,0,0,0
638225081781379383,8.717185,56.59863,106.0199,-155.8595,-8.154812,-113.5238,43.25609,-0.8883717,-2.848366,-128.7588,-7.422361,26.00825,0,0,0,30.55103,171.476,30.90215,86.82758,-111.9028,-76.06921,0.001067912,-0.1257102,0.09433498,0,0.3,0,0,0,0
638225081781719278,11.2381,58.84294,105.9966,-155.8595,-9.766206,-115.6479,43.25609,-0.8883717,-2.848366,-128.7588,-7.349115,26.08149,0,0,0,38.42772,174.2132,25.04907,86.82758,-111.9028,-76.06921,0.001067912,-0.1257102,0.09433498,0,0.3,0,0,0,0
638225081782059166,16.35061,60.47941,105.9966,-155.9328,-14.01443,-132.7873,43.25609,-0.8883717,-2.848366,-128.7588,-7.422361,26.00825,0,0,0,54.58363,176.1369,17.70121,86.82758,-111.9028,-76.06921,0.001067912,-0.1257102,0.09433498,0,0.3,0,0,0,0
638225081782399060,20.75632,59.80144,105.9732,-155.9328,-19.21483,-141.4302,43.25609,-0.8883717,-2.848366,-128.7588,-7.422361,26.08149,0,0,0,69.20477,175.2991,14.25202,86.82758,-111.9028,-76.06921,0.001067912,-0.1257102,0.09433498,0,0.3,0,0,0,0
638225081782738949,22.594,58.95983,105.9732,-155.9328,-21.77841,-141.7964,43.25609,-0.8883717,-2.848366,-128.7588,-7.422361,26.00825,0,0,0,75.67249,174.3014,13.49512,86.82758,-111.9028,-76.06921,0.001067912,-0.1257102,0.09433498,0,0.3,0,0,0,0
638225081783078853,27.23532,56.22458,105.9732,-155.9328,-24.78147,-127.2206,43.25609,-0.8883717,-2.848366,-128.7588,-7.422361,26.08149,0,0,0,92.59821,170.89,11.5538,86.82758,-111.9028,-76.06921,0.001067912,-0.1257102,0.09433498,0,0.3,0,0,0,0
638225081783418728,31.02847,53.06852,105.9966,-156.006,-22.29113,-117.8453,43.25609,-0.8883717,-2.848366,-128.7588,-7.422361,26.00825,0,0,0,107.3768,166.6926,10.15409,86.82758,-111.9028,-76.06921,0.001067912,-0.1257102,0.09433498,0,0.3,0,0,0,0
638225081783758626,33.33735,51.36191,105.9732,-156.006,-19.72755,-117.1861,43.25609,-0.8883717,-2.848366,-128.7588,-7.422361,26.00825,0,0,0,116.2143,164.2068,8.318298,86.82758,-111.9028,-76.06921,0.001067912,-0.1257102,0.09433498,0,0.3,0,0,0,0
638225081784108515,36.58862,47.97207,105.5763,-155.7863,-14.4539,-129.1983,43.25609,-0.8883717,-2.848366,-128.7588,-7.422361,26.00825,0,0,0,129.781,158.2123,6.472739,86.82758,-111.9028,-76.06921,0.001067912,-0.1257102,0.09433498,0,0.3,0,0,0,0
638225081784518381,38.28493,45.49398,104.1988,-155.1271,-11.74383,-122.7527,43.25609,-0.8883717,-2.848366,-128.7588,-7.422361,26.00825,0,0,0,138.0113,151.1613,6.497137,86.82758,-111.9028,-76.06921,0.001067912,-0.1257102,0.09433498,0,0.3,0,0,0,0
638225081784858274,39.69854,43.88089,102.7747,-155.2735,-14.23416,-113.0111,43.25609,-0.8883717,-2.848366,-128.6855,-7.349115,26.00825,0,0,0,144.4628,145.2691,5.665368,86.82758,-111.9028,-76.06921,0.001067912,-0.1257102,0.09433498,0,0.3,0,0,0,0
638225081785198161,40.73517,41.91712,99.85625,-154.6143,-22.95034,-106.712,43.25609,-0.8883717,-2.848366,-128.7588,-7.422361,26.00825,0,0,0,150.4871,135.2616,6.390351,86.82758,-111.9028,-76.06921,0.001067912,-0.1257102,0.09433498,0,0.3,0,0,0,0
638225081785538057,40.94721,40.91186,97.89509,-153.1494,-28.80995,-104.5879,43.25609,-0.8883717,-2.848366,-128.6855,-7.422361,26.00825,0,0,0,152.6086,128.9974,7.533104,86.82758,-111.9028,-76.06921,0.001067912,-0.1257102,0.09433498,0,0.3,0,0,0,0
638225081785877949,41.06501,38.52728,93.66923,-146.7771,-42.43355,-102.9033,43.25609,-0.8883717,-2.848366,-128.7588,-7.422361,26.00825,0,0,0,155.9502,114.9459,10.63964,86.82758,-111.9028,-76.06921,0.001067912,-0.1257102,0.09433498,0,0.3,0,0,0,0
638225081786217834,42.05453,35.51149,93.57584,-130.2969,-54.22602,-106.2725,43.25609,-0.8883717,-2.848366,-128.7588,-7.422361,26.08149,0,0,0,161.8577,109.1255,11.06744,86.82758,-111.9028,-76.06921,0.001067912,-0.1257102,0.09433498,0,0.3,0,0,0,0
638225081786557732,42.61997,33.40745,93.50581,-123.7049,-57.66854,-116.2339,43.25609,-0.8883717,-2.848366,-128.7588,-7.422361,26.00825,0,0,0,165.5033,104.9254,11.50761,86.82758,-111.9028,-76.06921,0.001067912,-0.1257102,0.09433498,0,0.3,0,0,0,0
638225081786907613,43.49169,28.59154,94.64982,-123.7781,-61.3308,-118.2115,43.25609,-0.8883717,-2.848366,-128.7588,-7.422361,26.00825,0,0,0,172.062,97.97636,13.01824,86.82758,-111.9028,-76.06921,0.001067912,-0.1257102,0.09433498,0,0.3,0,0,0,0
638225081787247507,44.08069,24.4536,95.49032,-130.5899,-63.01544,-115.2817,43.25609,-0.8883717,-2.848366,-128.7588,-7.422361,26.00825,0,0,0,176.7882,91.30965,14.20439,86.82758,-111.9028,-76.06921,0.001067912,-0.1257102,0.09433498,0,0.3,0,0,0,0
638225081787597396,44.33985,22.60672,95.2335,-136.1566,-63.7479,-114.4027,43.25609,-0.8883717,-2.848366,-128.7588,-7.422361,26.00825,0,0,0,178.8505,86.77372,14.67012,86.82758,-111.9028,-76.06921,0.001067912,-0.1257102,0.09433498,0,0.3,0,0,0,0
638225081787927291,44.36341,22.27943,94.95333,-138.8666,-63.96763,-114.4027,43.25609,-0.8883717,-2.848366,-128.7588,-7.422361,26.00825,0,0,0,179.1696,85.42018,14.84585,86.82758,-111.9028,-76.06921,0.001067912,-0.1257102,0.09433498,0,0.3,0,0,0,0
638225081788277181,44.12781,22.04565,94.69651,-145.3122,-64.26061,-114.3295,43.25609,-0.8883717,-2.848366,-128.7588,-7.422361,26.00825,0,0,0,178.5927,84.32068,15.76446,86.82758,-111.9028,-76.06921,0.001067912,-0.1257102,0.09433498,0,0.3,0,0,0,0
638225081788617068,43.58593,22.0924,94.74321,-150.5126,-64.33386,-114.9155,43.25609,-0.8883717,-2.848366,-128.7588,-7.422361,26.00825,0,0,0,176.8091,84.52983,17.40916,86.82758,-111.9028,-76.06921,0.001067912,-0.1257102,0.09433498,0,0.3,0,0,0,0
638225081789056930,42.73777,22.60672,95.25684,-150.8788,-64.4071,-124.8768,43.25609,-0.8883717,-2.848366,-128.7588,-7.422361,26.00825,0,0,0,173.6604,86.82783,19.59521,86.82758,-111.9028,-76.06921,0.001067912,-0.1257102,0.09433498,0,0.3,0,0,0,0
638225081789396821,42.00741,22.8405,95.46697,-148.9012,-64.4071,-137.0355,43.25609,-0.8883717,-2.848366,-128.7588,-7.422361,26.08149,0,0,0,171.0793,87.8166,21.60343,86.82758,-111.9028,-76.06921,0.001067912,-0.1257102,0.09433498,0,0.3,0,0,0,0
638225081789736714,41.44197,22.8405,95.46697,-148.535,-64.4071,-141.064,43.25609,-0.8883717,-2.848366,-128.7588,-7.422361,26.00825,0,0,0,169.1964,87.8166,23.28249,86.82758,-111.9028,-76.06921,0.001067912,-0.1257102,0.09433498,0,0.3,0,0,0,0
638225081790076602,39.93414,22.77037,95.39693,-150.0731,-64.4071,-142.1627,43.25609,-0.8883717,-2.848366,-128.7588,-7.422361,26.08149,0,0,0,164.1458,87.50385,27.72866,86.82758,-111.9028,-76.06921,0.001067912,-0.1257102,0.09433498,0,0.3,0,0,0,0
638225081790416493,38.23782,23.05091,95.67709,-154.2481,-64.4071,-142.2359,43.25609,-0.8883717,-2.848366,-128.7588,-7.422361,26.08149,0,0,0,158.0733,88.75428,32.25272,86.82758,-111.9028,-76.06921,0.001067912,-0.1257102,0.09433498,0,0.3,0,0,0,0
638225081790766386,37.29542,23.56523,96.21408,-155.1271,-64.4071,-142.2359,43.25609,-0.8883717,-2.848366,-128.7588,-7.349115,26.08149,0,0,0,154.3871,91.09667,34.34568,86.82758,-111.9028,-76.06921,0.001067912,-0.1257102,0.09433498,0,0.3,0,0,0,0
638225081791106273,35.08078,25.36535,98.01183,-151.0253,-64.4071,-142.3092,43.25609,-0.8883717,-2.848366,-128.7588,-7.349115,26.00825,0,0,0,145.1441,99.06162,38.31647,86.82758,-111.9028,-76.06921,0.001067912,-0.1257102,0.09433498,0,0.3,0,0,0,0
638225081791446168,32.37139,27.67979,100.3232,-142.2359,-64.48035,-142.3092,43.25609,-0.8883717,-2.848366,-128.7588,-7.422361,26.00825,0,0,0,133.466,109.1914,42.19117,86.82758,-111.9028,-76.06921,0.001067912,-0.1257102,0.09433498,0,0.3,0,0,0,0
638225081791786055,28.93163,30.41504,103.1716,-131.5421,-64.48035,-142.3092,43.25609,-0.8883717,-2.848366,-128.6855,-7.422361,26.00825,0,0,0,118.4453,121.246,45.93365,86.82758,-111.9028,-76.06921,0.001067912,-0.1257102,0.09433498,0,0.3,0,0,0,0
638225081792115950,26.2458,32.23854,104.9693,-123.7049,-64.48035,-142.3092,43.25609,-0.8883717,-2.848366,-128.7588,-7.422361,26.00825,0,0,0,106.8484,128.9295,48.35728,86.82758,-111.9028,-76.06921,0.001067912,-0.1257102,0.09433498,0,0.3,0,0,0,0
638225081792455842,22.594,34.27245,106.0433,-113.597,-64.48035,-142.2359,43.25609,-0.8883717,-2.848366,-128.6855,-7.349115,26.00825,0,0,0,91.57482,135.2963,51.70931,86.82758,-111.9028,-76.06921,0.001067912,-0.1257102,0.09433498,0,0.3,0,0,0,0
638225081792795732,17.62285,38.94809,105.9966,-98.58179,-64.48035,-142.3092,43.25609,-0.8883717,-2.848366,-128.7588,-7.422361,26.08149,0,0,0,70.20617,143.9245,52.66202,86.82758,-111.9028,-76.06921,0.001067912,-0.1257102,0.09433498,0,0.3,0,0,0,0
638225081793135625,15.31397,40.56118,105.9966,-91.91647,-64.48035,-142.3092,43.25609,-0.8883717,-2.848366,-128.7588,-7.422361,26.08149,0,0,0,60.61128,146.8107,52.9954,86.82758,-111.9028,-76.06921,0.001067912,-0.1257102,0.09433498,0,0.3,0,0,0,0
638225081793565490,10.08366,42.1509,105.9966,-79.83102,-64.4071,-142.3092,43.25609,-0.8883717,-2.848366,-128.7588,-7.422361,26.00825,0,0,0,39.75318,149.5879,55.19225,86.82758,-111.9028,-76.06921,0.001067912,-0.1257102,0.09433498,0,0.3,0,0,0,0
638225081793905382,4.287913,42.1509,105.9499,-68.11179,-64.26061,-142.2359,43.25609,-0.8883717,-2.848366,-128.7588,-7.422361,26.00825,0,0,0,16.97835,149.4834,58.09375,86.82758,-111.9028,-76.06921,0.001067912,-0.1257102,0.09433498,0,0.3,0,0,0,0
638225081794255270,-1.390038,41.56644,104.5724,-57.5645,-64.18736,-142.3092,43.25609,-0.8883717,-2.848366,-128.6855,-7.349115,26.00825,0,0,0,-5.551061,145.3774,60.41356,86.82758,-111.9028,-76.06921,0.001067912,-0.1257102,0.09433498,0,0.3,0,0,0,0
638225081794595157,-7.515628,40.46767,101.6073,-47.09043,-64.33386,-142.3092,43.25609,-0.8883717,-2.848366,-128.7588,-7.422361,26.00825,0,0,0,-30.35422,136.7271,61.72825,86.82758,-111.9028,-76.06921,0.001067912,-0.1257102,0.09433498,0,0.3,0,0,0,0
638225081794935053,-10.2957,39.92997,99.87961,-42.25625,-64.33386,-142.3092,43.25609,-0.8883717,-2.848366,-128.6855,-7.422361,26.00825,0,0,0,-41.75618,131.8208,61.5174,86.82758,-111.9028,-76.06921,0.001067912,-0.1257102,0.09433498,0,0.3,0,0,0,0
638225081795264947,-15.62025,39.08836,96.00396,-32.88087,-64.4071,-142.3092,43.25609,-0.8883717,-2.848366,-128.7588,-7.422361,26.08149,0,0,0,-63.57812,121.3776,59.05084,86.82758,-111.9028,-76.06921,0.001067912,-0.1257102,0.09433498,0,0.3,0,0,0,0
638225081795604835,-20.52073,38.57404,91.84814,-24.16469,-64.33386,-142.3092,43.25609,-0.8883717,-2.848366,-128.7588,-7.349115,26.00825,0,0,0,-83.26666,110.7977,54.11146,86.82758,-111.9028,-76.06921,0.001067912,-0.1257102,0.09433498,0,0.3,0,0,0,0
638225081795934732,-22.78248,38.34025,89.56011,-20.2827,-64.33386,-142.3092,43.25609,-0.8883717,-2.848366,-128.7588,-7.422361,26.00825,0,0,0,-92.13758,105.0472,51.02437,86.82758,-111.9028,-76.06921,0.001067912,-0.1257102,0.09433498,0,0.3,0,0,0,0
638225081796274621,-26.78768,37.80256,84.68053,-13.69064,-64.26061,-142.3092,43.25609,-0.8883717,-2.848366,-128.7588,-7.349115,26.08149,0,0,0,-107.3259,92.72312,44.23278,86.82758,-111.9028,-76.06921,0.001067912,-0.1257102,0.09433498,0,0.3,0,0,0,0
638225081796614515,-30.36879,36.98432,78.33008,-7.171815,-62.86895,-142.3092,43.25609,-0.8883717,-2.848366,-128.7588,-7.349115,26.00825,0,0,0,-119.876,76.59975,36.229,86.82758,-111.9028,-76.06921,0.001067912,-0.1257102,0.09433498,0,0.3,0,0,0,0
638225081796954407,-31.73527,36.63364,75.08481,-4.242009,-61.62378,-142.3092,43.25609,-0.8883717,-2.848366,-128.7588,-7.349115,26.00825,0,0,0,-124.0645,68.59661,32.25122,86.82758,-111.9028,-76.06921,0.001067912,-0.1257102,0.09433498,0,0.3,0,0,0,0
638225081797294300,-34.3033,35.9323,67.80046,1.251379,-57.37556,-142.1627,43.25609,-0.8883717,-2.848366,-128.7588,-7.422361,26.00825,0,0,0,-130.4336,51.21955,22.83484,86.82758,-111.9028,-76.06921,0.001067912,-0.1257102,0.09433498,0,0.3,0,0,0,0
638225081797624192,-36.37658,34.62312,59.55888,6.525032,-50.56377,-140.9907,43.25609,-0.8883717,-2.848366,-128.7588,-7.349115,26.00825,0,0,0,-133.2687,31.55411,12.56606,86.82758,-111.9028,-76.06921,0.001067912,-0.1257102,0.09433498,0,0.3,0,0,0,0
638225081797964084,-37.10694,33.82826,55.77662,9.161857,-47.048,-137.9144,43.25609,-0.8883717,-2.848366,-128.7588,-7.422361,26.00825,0,0,0,-133.3519,22.58784,7.928433,86.82758,-111.9028,-76.06921,0.001067912,-0.1257102,0.09433498,0,0.3,0,0,0,0
638225081798303971,-38.47342,31.958,48.16541,15.09472,-39.57699,-131.9816,43.25609,-0.8883717,-2.848366,-128.7588,-7.422361,26.00825,0,0,0,-132.2038,4.98972,-1.988695,86.82758,-111.9028,-76.06921,0.001067912,-0.1257102,0.09433498,0,0.3,0,0,0,0
638225081798673857,-39.91058,30.1345,41.23127,21.24731,-33.86386,-122.0935,43.25609,-0.8883717,-2.848366,-128.7588,-7.422361,26.00825,0,0,0,-130.3833,-9.990654,-12.4718,86.82758,-111.9028,-76.06921,0.001067912,-0.1257102,0.09433498,0,0.3,0,0,0,0
638225081799013746,-40.99433,27.91357,34.85747,28.2056,-29.98187,-101.5848,43.25609,-0.8883717,-2.848366,-128.7588,-7.422361,26.00825,0,0,0,-127.2936,-23.6475,-21.88616,86.82758,-111.9028,-76.06921,0.001067912,-0.1257102,0.09433498,0,0.3,0,0,0,0
638225081799353640,-41.32417,26.72129,31.98576,31.50163,-28.51697,-90.89104,43.25609,-0.8883717,-2.848366,-128.7588,-7.422361,26.00825,0,0,0,-125.2924,-29.79384,-25.85392,86.82758,-111.9028,-76.06921,0.001067912,-0.1257102,0.09433498,0,0.3,0,0,0,0
638225081799693529,-41.55977,25.15495,25.1917,38.53317,-25.44067,-68.25829,43.25609,-0.8883717,-2.848366,-128.7588,-7.422361,26.00825,0,0,0,-117.7295,-40.63414,-35.56045,86.82758,-111.9028,-76.06921,0.001067912,-0.1257102,0.09433498,0,0.3,0,0,0,0
638225081800033420,-41.37129,25.08481,18.84124,42.19543,-23.09683,-53.90223,43.25609,-0.8883717,-2.848366,-128.7588,-7.422361,26.08149,0,0,0,-108.2861,-46.31973,-45.39935,86.82758,-111.9028,-76.06921,0.001067912,-0.1257102,0.09433498,0,0.3,0,0,0,0
638225081800373312,-40.09905,25.17833,13.21455,43.36735,-20.02053,-43.7944,43.25609,-0.8883717,-2.848366,-128.6855,-7.349115,26.00825,0,0,0,-97.36621,-49.73699,-52.72003,86.82758,-111.9028,-76.06921,0.001067912,-0.1257102,0.09433498,0,0.3,0,0,0,0
638225081800713206,-38.87394,25.7394,10.97322,43.73357,-17.89642,-39.2532,43.25609,-0.8883717,-2.848366,-128.7588,-7.422361,26.00825,0,0,0,-91.31837,-49.65081,-55.07251,86.82758,-111.9028,-76.06921,0.001067912,-0.1257102,0.09433498,0,0.3,0,0,0,0
638225081801113078,-36.0703,28.28763,8.054807,44.68576,-13.6482,-32.66114,43.25609,-0.8883717,-2.848366,-128.7588,-7.422361,26.00825,0,0,0,-80.1387,-45.49013,-58.33266,86.82758,-111.9028,-76.06921,0.001067912,-0.1257102,0.09433498,0,0.3,0,0,0,0
638225081801452967,-32.67767,31.958,7.00418,45.85769,-9.546471,-28.77914,43.25609,-0.8883717,-2.848366,-128.7588,-7.422361,26.00825,0,0,0,-69.8646,-38.42302,-59.43134,86.82758,-111.9028,-76.06921,0.001067912,-0.1257102,0.09433498,0,0.3,0,0,0,0
638225081801792858,-29.04943,36.6804,7.727945,46.66338,-4.785534,-26.87477,43.25609,-0.8883717,-2.848366,-128.7588,-7.422361,26.00825,0,0,0,-60.63507,-29.13214,-59.18366,86.82758,-111.9028,-76.06921,0.001067912,-0.1257102,0.09433498,0,0.3,0,0,0,0
638225081802132752,-27.35312,39.46241,8.96535,46.88312,-1.928973,-26.4353,43.25609,-0.8883717,-2.848366,-128.7588,-7.422361,26.00825,0,0,0,-56.85183,-23.61733,-58.45169,86.82758,-111.9028,-76.06921,0.001067912,-0.1257102,0.09433498,0,0.3,0,0,0,0
638225081802462646,-23.79556,45.72776,13.14451,46.3704,4.296866,-27.38748,43.25609,-0.8883717,-2.848366,-128.7588,-7.422361,26.00825,0,0,0,-49.79369,-11.02343,-55.4289,86.82758,-111.9028,-76.06921,0.001067912,-0.1257102,0.09433498,0,0.3,0,0,0,0
638225081802812532,-20.02597,51.94637,19.05137,44.9055,10.22972,-31.56245,43.25609,-0.8883717,-2.848366,-128.7588,-7.349115,26.00825,0,0,0,-43.05379,2.30841,-50.22728,86.82758,-111.9028,-76.06921,0.001067912,-0.1257102,0.09433498,0,0.3,0,0,0,0
638225081803142429,-18.23541,54.93878,22.48342,43.73357,12.86655,-34.93173,43.25609,-0.8883717,-2.848366,-128.7588,-7.349115,26.00825,0,0,0,-39.9283,9.288033,-47.15986,86.82758,-111.9028,-76.06921,0.001067912,-0.1257102,0.09433498,0,0.3,0,0,0,0
638225081803482318,-14.96058,60.43266,29.79111,40.43755,16.96828,-44.45361,43.25609,-0.8883717,-2.848366,-128.7588,-7.349115,26.00825,0,0,0,-34.09046,23.60787,-40.77158,86.82758,-111.9028,-76.06921,0.001067912,-0.1257102,0.09433498,0,0.3,0,0,0,0
638225081803822208,-12.55746,64.43033,35.72132,36.4823,18.21345,-55.22065,43.25609,-0.8883717,-2.848366,-128.7588,-7.349115,26.00825,0,0,0,-29.44075,35.37747,-36.17875,86.82758,-111.9028,-76.06921,0.001067912,-0.1257102,0.09433498,0,0.3,0,0,0,0
638225081804162100,-11.73286,65.92653,38.17278,34.3582,17.77398,-60.78728,43.25609,-0.8883717,-2.848366,-128.7588,-7.349115,26.00825,0,0,0,-27.82005,40.26846,-34.39899,86.82758,-111.9028,-76.06921,0.001067912,-0.1257102,0.09433498,0,0.3,0,0,0,0
638225081804501991,-11.19098,67.91368,42.21186,30.40295,15.28364,-69.43021,43.25609,-0.8883717,-2.848366,-128.7588,-7.349115,26.00825,0,0,0,-27.11964,48.14681,-31.27256,86.82758,-111.9028,-76.06921,0.001067912,-0.1257102,0.09433498,0,0.3,0,0,0,0
638225081804841884,-11.26166,68.94232,46.20424,26.7407,12.50033,-74.55737,43.25609,-0.8883717,-2.848366,-128.7588,-7.422361,26.00825,0,0,0,-28.15441,55.50461,-26.95864,86.82758,-111.9028,-76.06921,0.001067912,-0.1257102,0.09433498,0,0.3,0,0,0,0
638225081805181774,-11.2381,69.5034,50.3367,23.51791,9.570518,-79.09857,43.25609,-0.8883717,-2.848366,-128.7588,-7.422361,26.00825,0,0,0,-29.10568,63.14406,-21.86688,86.82758,-111.9028,-76.06921,0.001067912,-0.1257102,0.09433498,0,0.3,0,0,0,0
638225081805511673,-11.1203,69.85407,52.46131,22.05301,8.03237,-82.02838,43.25609,-0.8883717,-2.848366,-128.7588,-7.422361,26.00825,0,0,0,-29.25181,67.29168,-19.53142,86.82758,-111.9028,-76.06921,0.001067912,-0.1257102,0.09433498,0,0.3,0,0,0,0
638225081805851561,-10.67266,70.22812,55.68323,19.78241,5.615279,-86.20335,43.25609,-0.8883717,-2.848366,-128.7588,-7.422361,26.08149,0,0,0,-28.75146,73.66016,-15.78826,86.82758,-111.9028,-76.06921,0.001067912,-0.1257102,0.09433498,0,0.3,0,0,0,0
638225081806191451,-9.471104,70.48528,59.04524,17.14558,3.344679,-90.30508,43.25609,-0.8883717,-2.848366,-128.7588,-7.349115,26.00825,0,0,0,-26.1475,80.44974,-11.61317,86.82758,-111.9028,-76.06921,0.001067912,-0.1257102,0.09433498,0,0.3,0,0,0,0
638225081806521349,-8.622946,70.71906,60.67955,16.19339,2.392492,-92.35595,43.25609,-0.8883717,-2.848366,-128.7588,-7.349115,26.00825,0,0,0,-24.03389,83.91985,-9.862612,86.82758,-111.9028,-76.06921,0.001067912,-0.1257102,0.09433498,0,0.3,0,0,0,0
638225081806861241,-6.408309,71.1165,63.73803,14.36226,0.3416272,-96.89715,43.25609,-0.8883717,-2.848366,-128.7588,-7.349115,26.00825,0,0,0,-18.16432,90.51874,-6.623136,86.82758,-111.9028,-76.06921,0.001067912,-0.1257102,0.09433498,0,0.3,0,0,0,0
638225081807211130,-3.392634,71.23338,66.39962,12.60438,-1.050031,-101.9511,43.25609,-0.8883717,-2.848366,-128.7588,-7.349115,26.00825,0,0,0,-9.770129,96.22335,-3.542154,86.82758,-111.9028,-76.06921,0.001067912,-0.1257102,0.09433498,0,0.3,0,0,0,0
638225081807541021,-1.625637,71.23338,67.47359,11.72544,-1.489502,-105.3203,43.25609,-0.8883717,-2.848366,-128.6855,-7.349115,26.00825,0,0,0,-4.711407,98.52309,-2.340466,86.82758,-111.9028,-76.06921,0.001067912,-0.1257102,0.09433498,0,0.3,0,0,0,0
638225081807880911,2.497356,71.23338,69.48147,10.0408,-2.295199,-115.7212,43.25609,-0.8883717,-2.848366,-128.7588,-7.422361,26.00825,0,0,0,7.311191,102.8701,-0.7186729,86.82758,-111.9028,-76.06921,0.001067912,-0.1257102,0.09433498,0,0.3,0,0,0,0
638225081808220806,7.515628,70.76582,70.69552,8.209671,-2.88116,-125.536,43.25609,-0.8883717,-2.848366,-128.7588,-7.422361,26.00825,0,0,0,22.2069,105.1725,-0.02666461,86.82758,-111.9028,-76.06921,0.001067912,-0.1257102,0.09433498,0,0.3,0,0,0,0
638225081808650669,13.49986,69.1761,70.99904,5.279863,-2.514934,-140.4048,43.25609,-0.8883717,-2.848366,-128.7588,-7.422361,26.00825,0,0,0,40.49994,104.5726,0.34624,86.82758,-111.9028,-76.06921,0.001067912,-0.1257102,0.09433498,0,0.3,0,0,0,0
638225081808990556,17.38725,67.65652,70.92899,2.936018,-2.002218,-142.0162,43.25609,-0.8883717,-2.848366,-128.7588,-7.422361,26.00825,0,0,0,52.81049,103.1175,0.2999656,86.82758,-111.9028,-76.06921,0.001067912,-0.1257102,0.09433498,0,0.3,0,0,0,0
638225081809330452,19.71969,66.53437,70.50874,1.324624,-1.635992,-142.0894,43.25609,-0.8883717,-2.848366,-128.7588,-7.422361,26.00825,0,0,0,60.33312,101.1779,-0.02838552,86.82758,-111.9028,-76.06921,0.001067912,-0.1257102,0.09433498,0,0.3,0,0,0,0
638225081809670341,23.91336,63.19128,69.36472,-2.264389,-0.9035407,-142.1627,43.25609,-0.8883717,-2.848366,-128.7588,-7.349115,26.00825,0,0,0,74.9652,95.37225,0.7121441,86.82758,-111.9028,-76.06921,0.001067912,-0.1257102,0.09433498,0,0.3,0,0,0,0
638225081810010234,26.99972,57.29997,68.52423,-5.926647,-0.09784385,-142.1627,43.25609,-0.8883717,-2.848366,-128.7588,-7.349115,26.00825,0,0,0,89.04162,86.74496,6.406162,86.82758,-111.9028,-76.06921,0.001067912,-0.1257102,0.09433498,0,0.3,0,0,0,0
638225081810360120,28.43687,53.88676,68.01058,-7.904267,0.6346079,-142.1627,43.25609,-0.8883717,-2.848366,-128.7588,-7.349115,26.08149,0,0,0,96.30634,81.14634,9.4912,86.82758,-111.9028,-76.06921,0.001067912,-0.1257102,0.09433498,0,0.3,0,0,0,0
638225081810700008,31.16983,47.52789,66.77318,-11.49328,3.051698,-142.1627,43.25609,-0.8883717,-2.848366,-128.7588,-7.349115,26.00825,0,0,0,110.0286,69.12025,13.54488,86.82758,-111.9028,-76.06921,0.001067912,-0.1257102,0.09433498,0,0.3,0,0,0,0
638225081811039901,33.0075,43.2263,65.349,-14.78931,5.468789,-142.1627,43.25609,-0.8883717,-2.848366,-128.7588,-7.422361,26.00825,0,0,0,118.9531,59.06001,14.76923,86.82758,-111.9028,-76.06921,0.001067912,-0.1257102,0.09433498,0,0.3,0,0,0,0
638225081811379792,34.44466,40.25727,63.36448,-18.45157,6.787202,-142.1627,43.25609,-0.8883717,-2.848366,-128.7588,-7.422361,26.08149,0,0,0,124.9798,49.74096,13.87346,86.82758,-111.9028,-76.06921,0.001067912,-0.1257102,0.09433498,0,0.3,0,0,0,0
638225081811709688,35.08078,38.66755,61.8936,-20.94191,6.787202,-142.1627,43.25609,-0.8883717,-2.848366,-128.7588,-7.349115,26.08149,0,0,0,127.4421,43.84458,13.11108,86.82758,-111.9028,-76.06921,0.001067912,-0.1257102,0.09433498,0,0.3,0,0,0,0
638225081812049582,35.50486,36.77391,59.95578,-23.94496,6.420976,-142.1627,43.25609,-0.8883717,-2.848366,-128.7588,-7.349115,26.08149,0,0,0,129.0748,36.41706,12.57368,86.82758,-111.9028,-76.06921,0.001067912,-0.1257102,0.09433498,0,0.3,0,0,0,0
638225081812419458,35.55198,33.78151,56.73386,-28.7059,6.05475,-142.1627,43.25609,-0.8883717,-2.848366,-128.7588,-7.349115,26.00825,0,0,0,129.2741,24.34992,12.53825,86.82758,-111.9028,-76.06921,0.001067912,-0.1257102,0.09433498,0,0.3,0,0,0,0
638225081812719363,35.55198,32.54246,55.05285,-30.68352,5.90826,-142.1627,43.25609,-0.8883717,-2.848366,-128.7588,-7.349115,26.00825,0,0,0,128.9157,18.6966,12.03682,86.82758,-111.9028,-76.06921,0.001067912,-0.1257102,0.09433498,0,0.3,0,0,0,0
638225081813059258,35.55198,28.80194,50.827,-35.66418,5.615279,-142.1627,43.25609,-0.8883717,-2.848366,-128.7588,-7.349115,26.08149,0,0,0,128.0519,3.363416,10.82808,86.82758,-111.9028,-76.06921,0.001067912,-0.1257102,0.09433498,0,0.3,0,0,0,0
638225081813399150,35.66978,24.61725,47.4183,-39.83916,5.688524,-142.1627,43.25609,-0.8883717,-2.848366,-128.7588,-7.349115,26.00825,0,0,0,127.945,-11.33252,9.902668,86.82758,-111.9028,-76.06921,0.001067912,-0.1257102,0.09433498,0,0.3,0,0,0,0
638225081813739040,35.76402,22.58335,46.06416,-41.67029,5.90826,-142.1627,43.25609,-0.8883717,-2.848366,-128.7588,-7.349115,26.00825,0,0,0,128.0834,-17.96524,9.47721,86.82758,-111.9028,-76.06921,0.001067912,-0.1257102,0.09433498,0,0.3,0,0,0,0
638225081814078930,36.23522,19.02986,44.07964,-44.96632,6.933692,-142.1627,43.25609,-0.8883717,-2.848366,-128.7588,-7.349115,26.08149,0,0,0,129.3497,-28.9649,8.156189,86.82758,-111.9028,-76.06921,0.001067912,-0.1257102,0.09433498,0,0.3,0,0,0,0
638225081814428831,37.3661,16.90244,42.30524,-47.6764,8.252106,-142.2359,43.25609,-0.8883717,-2.848366,-128.7588,-7.349115,26.00825,0,0,0,131.9077,-36.50102,4.389878,86.82758,-111.9028,-76.06921,0.001067912,-0.1257102,0.09433498,0,0.3,0,0,0,0
638225081814768711,38.94461,15.64002,40.83437,-49.21454,8.911312,-142.1627,43.25609,-0.8883717,-2.848366,-128.7588,-7.349115,26.00825,0,0,0,135.5237,-41.59285,-0.6609476,86.82758,-111.9028,-76.06921,0.001067912,-0.1257102,0.09433498,0,0.3,0,0,0,0
638225081815108601,39.7221,15.07894,40.32073,-49.58077,8.838067,-142.1627,43.25609,-0.8883717,-2.848366,-128.7588,-7.349115,26.08149,0,0,0,137.4274,-43.62966,-2.947656,86.82758,-111.9028,-76.06921,0.001067912,-0.1257102,0.09433498,0,0.3,0,0,0,0
638225081815438499,40.90009,13.88665,39.17671,-50.02024,8.105616,-142.1627,43.25609,-0.8883717,-2.848366,-128.7588,-7.349115,26.08149,0,0,0,139.9129,-48.01884,-6.830688,86.82758,-111.9028,-76.06921,0.001067912,-0.1257102,0.09433498,0,0.3,0,0,0,0
638225081815788387,41.77181,12.29694,37.86926,-50.82594,7.153428,-142.2359,43.25609,-0.8883717,-2.848366,-128.7588,-7.349115,26.08149,0,0,0,141.3264,-53.51766,-10.12845,86.82758,-111.9028,-76.06921,0.001067912,-0.1257102,0.09433498,0,0.3,0,0,0,0
638225081816198256,42.45505,10.02925,36.11822,-51.70488,6.347731,-142.2359,43.25609,-0.8883717,-2.848366,-128.7588,-7.349115,26.00825,0,0,0,141.6956,-61.14744,-13.47258,86.82758,-111.9028,-76.06921,0.001067912,-0.1257102,0.09433498,0,0.3,0,0,0,0
638225081816528149,42.76133,9.000608,35.06759,-52.0711,6.127995,-142.2359,43.25609,-0.8883717,-2.848366,-128.6855,-7.349115,26.00825,0,0,0,141.4402,-64.93168,-15.40151,86.82758,-111.9028,-76.06921,0.001067912,-0.1257102,0.09433498,0,0.3,0,0,0,0
638225081816878033,43.51525,6.499141,32.56944,-52.58382,5.542034,-142.2359,43.25609,-0.8883717,-2.848366,-128.7588,-7.349115,26.00825,0,0,0,140.6552,-73.93568,-20.20927,86.82758,-111.9028,-76.06921,0.001067912,-0.1257102,0.09433498,0,0.3,0,0,0,0
638225081817217930,44.24561,3.927538,30.25806,-52.21759,5.102563,-142.2359,43.25609,-0.8883717,-2.848366,-128.7588,-7.349115,26.00825,0,0,0,139.7085,-82.69923,-24.91323,86.82758,-111.9028,-76.06921,0.001067912,-0.1257102,0.09433498,0,0.3,0,0,0,0
638225081817557818,44.59901,2.47809,29.11404,-51.70488,5.029318,-142.2359,43.25609,-0.8883717,-2.848366,-128.7588,-7.422361,26.00825,0,0,0,139.0988,-87.38593,-27.29048,86.82758,-111.9028,-76.06921,0.001067912,-0.1257102,0.09433498,0,0.3,0,0,0,0
638225081817897710,45.35292,0.0233782,27.12952,-50.31322,5.029318,-142.1627,43.25609,-0.8883717,-2.848366,-128.7588,-7.422361,26.08149,0,0,0,138.1335,-95.27415,-31.90779,86.82758,-111.9028,-76.06921,0.001067912,-0.1257102,0.09433498,0,0.3,0,0,0,0
638225081818237604,45.87124,-1.052019,25.42517,-48.40885,5.249053,-142.2359,43.25609,-0.8883717,-2.848366,-128.7588,-7.349115,26.08149,0,0,0,136.7932,-99.53295,-35.65501,86.82758,-111.9028,-76.06921,0.001067912,-0.1257102,0.09433498,0,0.3,0,0,0,0
638225081818577492,46.0126,-1.028641,23.30057,-46.72421,4.809582,-141.9429,43.25609,-0.8883717,-2.848366,-128.7588,-7.349115,26.00825,0,0,0,133.8801,-101.5182,-39.12039,86.82758,-111.9028,-76.06921,0.001067912,-0.1257102,0.09433498,0,0.3,0,0,0,0
638225081818917386,46.0126,-1.052019,22.36668,-45.99176,4.663092,-141.7964,43.25609,-0.8883717,-2.848366,-128.7588,-7.349115,26.00825,0,0,0,132.4381,-102.4161,-40.51229,86.82758,-111.9028,-76.06921,0.001067912,-0.1257102,0.09433498,0,0.3,0,0,0,0
638225081819257275,45.98904,-1.028641,20.42886,-44.16063,4.443357,-140.478,43.25609,-0.8883717,-2.848366,-128.7588,-7.349115,26.08149,0,0,0,129.3663,-104.007,-43.3746,86.82758,-111.9028,-76.06921,0.001067912,-0.1257102,0.09433498,0,0.3,0,0,0,0
638225081819597166,45.87124,-1.005263,19.47162,-42.47599,4.882828,-137.9877,43.25609,-0.8883717,-2.848366,-128.7588,-7.349115,26.00825,0,0,0,127.6066,-104.7128,-44.56632,86.82758,-111.9028,-76.06921,0.001067912,-0.1257102,0.09433498,0,0.3,0,0,0,0
638225081819937061,45.777,-1.005263,19.35488,-41.37731,5.468789,-135.9368,43.25609,-0.8883717,-2.848366,-128.7588,-7.422361,26.00825,0,0,0,127.2192,-104.8031,-44.53532,86.82758,-111.9028,-76.06921,0.001067912,-0.1257102,0.09433498,0,0.3,0,0,0,0
638225081820276952,45.51785,-0.9818845,19.47162,-39.17995,7.519653,-131.5421,43.25609,-0.8883717,-2.848366,-128.7588,-7.422361,26.00825,0,0,0,126.8414,-104.6584,-43.78094,86.82758,-111.9028,-76.06921,0.001067912,-0.1257102,0.09433498,0,0.3,0,0,0,0
638225081820726808,45.44716,-0.7714807,19.68175,-36.39664,11.10867,-125.9755,43.25609,-0.8883717,-2.848366,-128.7588,-7.349115,26.00825,0,0,0,127.0213,-104.0049,-43.29604,86.82758,-111.9028,-76.06921,0.001067912,-0.1257102,0.09433498,0,0.3,0,0,0,0
638225081821066698,45.44716,0.04675641,20.54559,-32.88087,16.08934,-117.9918,43.25609,-0.8883717,-2.848366,-128.7588,-7.422361,26.00825,0,0,0,128.3752,-101.4092,-41.96312,86.82758,-111.9028,-76.06921,0.001067912,-0.1257102,0.09433498,0,0.3,0,0,0,0
638225081821406590,45.44716,1.776743,22.2266,-29.07212,22.31518,-109.3488,43.25609,-0.8883717,-2.848366,-128.7588,-7.349115,26.08149,0,0,0,130.9255,-95.95692,-39.45237,86.82758,-111.9028,-76.06921,0.001067912,-0.1257102,0.09433498,0,0.3,0,0,0,0
638225081821756477,45.42361,2.922275,23.27722,-27.16775,25.09849,-106.0528,43.25609,-0.8883717,-2.848366,-128.7588,-7.422361,26.08149,0,0,0,132.4008,-92.34743,-37.89261,86.82758,-111.9028,-76.06921,0.001067912,-0.1257102,0.09433498,0,0.3,0,0,0,0
638225081822096367,45.40005,6.709544,25.86877,-22.62654,30.81162,-100.1199,43.25609,-0.8883717,-2.848366,-128.7588,-7.349115,26.00825,0,0,0,135.7257,-81.05766,-34.50651,86.82758,-111.9028,-76.06921,0.001067912,-0.1257102,0.09433498,0,0.3,0,0,0,0
638225081822436263,45.25869,11.99302,27.73655,-17.64587,34.91335,-94.84628,43.25609,-0.8883717,-2.848366,-128.7588,-7.349115,26.00825,0,0,0,136.7322,-66.96854,-32.84694,86.82758,-111.9028,-76.06921,0.001067912,-0.1257102,0.09433498,0,0.3,0,0,0,0
638225081822786145,45.16444,18.46878,28.95061,-12.07924,37.55017,-88.98667,43.25609,-0.8883717,-2.848366,-128.7588,-7.349115,26.08149,0,0,0,135.4663,-51.09256,-33.65908,86.82758,-111.9028,-76.06921,0.001067912,-0.1257102,0.09433498,0,0.3,0,0,0,0
638225081823126039,45.16444,21.95213,29.67438,-8.856454,38.35587,-85.83713,43.25609,-0.8883717,-2.848366,-128.7588,-7.422361,26.00825,0,0,0,134.5221,-42.66107,-34.59791,86.82758,-111.9028,-76.06921,0.001067912,-0.1257102,0.09433498,0,0.3,0,0,0,0
638225081823465929,45.21157,28.73181,31.89237,-2.484124,38.64885,-81.88189,43.25609,-0.8883717,-2.848366,-128.6855,-7.422361,26.00825,0,0,0,132.9889,-25.76703,-36.33964,86.82758,-111.9028,-76.06921,0.001067912,-0.1257102,0.09433498,0,0.3,0,0,0,0
638225081823805824,45.49429,36.16608,34.99755,3.66847,37.84315,-80.19725,43.25609,-0.8883717,-2.848366,-128.6855,-7.349115,26.08149,0,0,0,131.3226,-7.193647,-39.27391,86.82758,-111.9028,-76.06921,0.001067912,-0.1257102,0.09433498,0,0.3,0,0,0,0
638225081824145722,45.75344,40.14038,36.7486,6.671522,36.81772,-79.39155,43.25609,-0.8883717,-2.848366,-128.7588,-7.422361,26.00825,0,0,0,130.1781,2.466592,-41.55138,86.82758,-111.9028,-76.06921,0.001067912,-0.1257102,0.09433498,0,0.3,0,0,0,0
638225081824485603,46.34245,48.88382,41.62818,13.04385,32.86248,-76.46174,43.25609,-0.8883717,-2.848366,-128.7588,-7.349115,26.00825,0,0,0,127.5297,24.1376,-46.66056,86.82758,-111.9028,-76.06921,0.001067912,-0.1257102,0.09433498,0,0.3,0,0,0,0
638225081824815501,46.53092,57.11295,48.2588,18.90347,26.85638,-73.23896,43.25609,-0.8883717,-2.848366,-128.7588,-7.422361,26.00825,0,0,0,124.7611,46.54964,-50.08408,86.82758,-111.9028,-76.06921,0.001067912,-0.1257102,0.09433498,0,0.3,0,0,0,0
638225081825255356,46.53092,65.24857,56.99068,25.42229,18.35994,-69.94292,43.25609,-0.8883717,-2.848366,-128.7588,-7.349115,26.08149,0,0,0,121.6758,71.80368,-53.00874,86.82758,-111.9028,-76.06921,0.001067912,-0.1257102,0.09433498,0,0.3,0,0,0,0
638225081825595252,46.31889,70.15799,63.10766,30.10997,11.76787,-68.62451,43.25609,-0.8883717,-2.848366,-128.7588,-7.349115,26.08149,0,0,0,118.7428,88.46703,-54.9518,86.82758,-111.9028,-76.06921,0.001067912,-0.1257102,0.09433498,0,0.3,0,0,0,0
638225081825945140,46.03617,72.68284,66.53971,32.82005,7.739389,-68.47802,43.25609,-0.8883717,-2.848366,-128.7588,-7.349115,26.00825,0,0,0,116.6184,97.56704,-55.87513,86.82758,-111.9028,-76.06921,0.001067912,-0.1257102,0.09433498,0,0.3,0,0,0,0
638225081826285031,44.88173,76.6805,72.25979,38.38668,-0.2443342,-70.30915,43.25609,-0.8883717,-2.848366,-128.7588,-7.349115,26.00825,0,0,0,111.3016,112.481,-56.58791,86.82758,-111.9028,-76.06921,0.001067912,-0.1257102,0.09433498,0,0.3,0,0,0,0
638225081826624924,43.11473,79.60278,76.25217,42.92788,-6.98289,-73.75167,43.25609,-0.8883717,-2.848366,-128.7588,-7.349115,26.00825,0,0,0,104.9766,122.8199,-56.22732,86.82758,-111.9028,-76.06921,0.001067912,-0.1257102,0.09433498,0,0.3,0,0,0,0
638225081826954817,41.86605,81.00548,77.79309,44.83226,-10.05919,-75.43631,43.25609,-0.8883717,-2.848366,-128.7588,-7.349115,26.00825,0,0,0,100.8982,126.8643,-55.76297,86.82758,-111.9028,-76.06921,0.001067912,-0.1257102,0.09433498,0,0.3,0,0,0,0
638225081827294705,38.75614,83.62383,80.54807,47.90855,-15.62582,-77.63367,43.25609,-0.8883717,-2.848366,-128.6855,-7.349115,26.00825,0,0,0,91.61541,133.9764,-54.22461,86.82758,-111.9028,-76.06921,0.001067912,-0.1257102,0.09433498,0,0.3,0,0,0,0
638225081827634596,35.03366,85.93828,82.97619,50.10591,-20.46,-78.43936,43.25609,-0.8883717,-2.848366,-128.7588,-7.349115,26.00825,0,0,0,81.39826,140.0588,-52.24647,86.82758,-111.9028,-76.06921,0.001067912,-0.1257102,0.09433498,0,0.3,0,0,0,0
638225081827964495,32.86615,87.01367,84.05016,51.13134,-22.65736,-78.51261,43.25609,-0.8883717,-2.848366,-128.7588,-7.422361,26.00825,0,0,0,75.74641,142.6961,-51.11203,86.82758,-111.9028,-76.06921,0.001067912,-0.1257102,0.09433498,0,0.3,0,0,0,0
638225081828304380,26.43428,89.49176,85.98798,53.1822,-27.63803,-76.16876,43.25609,-0.8883717,-2.848366,-128.7588,-7.422361,26.00825,0,0,0,59.74464,147.3648,-48.17577,86.82758,-111.9028,-76.06921,0.001067912,-0.1257102,0.09433498,0,0.3,0,0,0,0
638225081828644275,21.76941,90.82432,86.40823,53.9879,-30.12836,-72.94598,43.25609,-0.8883717,-2.848366,-128.7588,-7.349115,26.08149,0,0,0,48.64713,148.3322,-46.53488,86.82758,-111.9028,-76.06921,0.001067912,-0.1257102,0.09433498,0,0.3,0,0,0,0
638225081828994162,14.60718,92.60106,86.26814,54.50062,-33.2779,-65.32848,43.25609,-0.8883717,-2.848366,-128.7588,-7.349115,26.00825,0,0,0,32.03214,147.8833,-45.43983,86.82758,-111.9028,-76.06921,0.001067912,-0.1257102,0.09433498,0,0.3,0,0,0,0
638225081829334052,10.71978,93.39593,86.01133,54.57386,-35.03579,-61.1535,43.25609,-0.8883717,-2.848366,-128.7588,-7.349115,26.00825,0,0,0,23.27454,147.1901,-45.40568,86.82758,-111.9028,-76.06921,0.001067912,-0.1257102,0.09433498,0,0.3,0,0,0,0
638225081829783915,-1.083758,94.37781,84.30698,51.57081,-42.06733,-46.57772,43.25609,-0.8883717,-2.848366,-128.7588,-7.422361,26.00825,0,0,0,-2.317219,143.0828,-45.85862,86.82758,-111.9028,-76.06921,0.001067912,-0.1257102,0.09433498,0,0.3,0,0,0,0
638225081830123803,-4.358593,94.30767,83.79333,48.42127,-44.70415,-39.98565,43.25609,-0.8883717,-2.848366,-128.7588,-7.422361,26.00825,0,0,0,-9.313772,141.9062,-46.15229,86.82758,-111.9028,-76.06921,0.001067912,-0.1257102,0.09433498,0,0.3,0,0,0,0
638225081830453699,-9.141265,93.69984,82.85944,39.04589,-49.02562,-24.0182,43.25609,-0.8883717,-2.848366,-128.7588,-7.349115,26.00825,0,0,0,-19.65383,139.8462,-46.21041,86.82758,-111.9028,-76.06921,0.001067912,-0.1257102,0.09433498,0,0.3,0,0,0,0
638225081830793591,-11.28522,92.85822,81.90221,28.27885,-51.51595,-7.391551,43.25609,-0.8883717,-2.848366,-128.7588,-7.422361,26.08149,0,0,0,-24.53424,137.75,-45.40311,86.82758,-111.9028,-76.06921,0.001067912,-0.1257102,0.09433498,0,0.3,0,0,0,0
638225081831133476,-11.45014,92.57768,81.66874,23.73765,-52.02867,-0.3600145,43.25609,-0.8883717,-2.848366,-128.7588,-7.422361,26.08149,0,0,0,-25.00208,137.2432,-44.91112,86.82758,-111.9028,-76.06921,0.001067912,-0.1257102,0.09433498,0,0.3,0,0,0,0
638225081831473371,-11.3559,92.50755,81.52865,18.17101,-52.32165,9.235103,43.25609,-0.8883717,-2.848366,-128.7588,-7.422361,26.00825,0,0,0,-24.82174,136.9279,-44.75699,86.82758,-111.9028,-76.06921,0.001067912,-0.1257102,0.09433498,0,0.3,0,0,0,0
638225081831803267,-11.16742,92.69457,81.5053,15.09472,-52.2484,15.16796,43.25609,-0.8883717,-2.848366,-128.7588,-7.422361,26.00825,0,0,0,-24.32927,136.8544,-45.11047,86.82758,-111.9028,-76.06921,0.001067912,-0.1257102,0.09433498,0,0.3,0,0,0,0
638225081832153154,-11.1203,92.83485,81.5053,13.99604,-52.2484,17.29207,43.25609,-0.8883717,-2.848366,-128.7588,-7.422361,26.00825,0,0,0,-24.16502,136.8386,-45.41046,86.82758,-111.9028,-76.06921,0.001067912,-0.1257102,0.09433498,0,0.3,0,0,0,0
638225081832483049,-11.0025,93.02187,81.41192,12.01842,-52.17516,20.5881,43.25609,-0.8883717,-2.848366,-128.7588,-7.349115,26.00825,0,0,0,-23.82308,136.6015,-45.81945,86.82758,-111.9028,-76.06921,0.001067912,-0.1257102,0.09433498,0,0.3,0,0,0,0
638225081832822938,-10.90826,93.20889,81.31853,10.18729,-52.02867,23.81089,43.25609,-0.8883717,-2.848366,-128.6855,-7.349115,26.00825,0,0,0,-23.53308,136.3629,-46.23926,86.82758,-111.9028,-76.06921,0.001067912,-0.1257102,0.09433498,0,0.3,0,0,0,0
638225081833152837,-10.90826,93.25565,81.31853,9.601329,-51.88218,24.90957,43.25609,-0.8883717,-2.848366,-128.7588,-7.422361,26.00825,0,0,0,-23.51252,136.3568,-46.34594,86.82758,-111.9028,-76.06921,0.001067912,-0.1257102,0.09433498,0,0.3,0,0,0,0
638225081833502724,-10.86114,93.27904,81.31853,8.575896,-51.80893,26.7407,43.25609,-0.8883717,-2.848366,-128.7588,-7.349115,26.00825,0,0,0,-23.40194,136.3537,-46.38,86.82758,-111.9028,-76.06921,0.001067912,-0.1257102,0.09433498,0,0.3,0,0,0,0
638225081833842613,-10.86114,93.39593,81.31853,7.91669,-51.80893,27.91262,43.25609,-0.8883717,-2.848366,-128.7588,-7.422361,26.00825,0,0,0,-23.35077,136.3378,-46.64672,86.82758,-111.9028,-76.06921,0.001067912,-0.1257102,0.09433498,0,0.3,0,0,0,0
638225081834182507,-10.83758,93.51281,81.31853,7.330729,-51.80893,28.93805,43.25609,-0.8883717,-2.848366,-128.7588,-7.349115,26.00825,0,0,0,-23.24966,136.3214,-46.90385,86.82758,-111.9028,-76.06921,0.001067912,-0.1257102,0.09433498,0,0.3,0,0,0,0
638225081834512399,-10.83758,93.51281,81.31853,7.037747,-51.80893,29.37753,43.25609,-0.8883717,-2.848366,-128.7588,-7.422361,26.00825,0,0,0,-23.24966,136.3214,-46.90385,86.82758,-111.9028,-76.06921,0.001067912,-0.1257102,0.09433498,0,0.3,0,0,0,0
638225081834862289,-10.83758,93.51281,81.31853,6.525032,-51.80893,30.25646,43.25609,-0.8883717,-2.848366,-128.7588,-7.422361,26.00825,0,0,0,-23.24966,136.3214,-46.90385,86.82758,-111.9028,-76.06921,0.001067912,-0.1257102,0.09433498,0,0.3,0,0,0,0
638225081835202180,-10.83758,93.51281,81.31853,6.08556,-51.80893,30.98892,43.25609,-0.8883717,-2.848366,-128.7588,-7.422361,26.08149,0,0,0,-23.24966,136.3214,-46.90385,86.82758,-111.9028,-76.06921,0.001067912,-0.1257102,0.09433498,0,0.3,0,0,0,0
638225081835542073,-10.83758,93.51281,81.31853,5.865825,-51.73569,31.42839,43.25609,-0.8883717,-2.848366,-128.7588,-7.349115,26.00825,0,0,0,-23.24966,136.3214,-46.90385,86.82758,-111.9028,-76.06921,0.001067912,-0.1257102,0.09433498,0,0.3,0,0,0,0
638225081835871968,-10.83758,93.55957,81.31853,5.206618,-51.73569,32.30733,43.25609,-0.8883717,-2.848366,-128.7588,-7.422361,26.00825,0,0,0,-23.22924,136.3147,-47.01052,86.82758,-111.9028,-76.06921,0.001067912,-0.1257102,0.09433498,0,0.3,0,0,0,0
638225081836221850,-10.83758,93.6297,81.31853,4.840393,-51.80893,32.89329,43.25609,-0.8883717,-2.848366,-128.7588,-7.422361,26.00825,0,0,0,-23.19861,136.3045,-47.17052,86.82758,-111.9028,-76.06921,0.001067912,-0.1257102,0.09433498,0,0.3,0,0,0,0
638225081836551747,-10.81402,93.72321,81.31853,4.693902,-51.80893,33.33276,43.25609,-0.8883717,-2.848366,-128.7588,-7.349115,26.00825,0,0,0,-23.10803,136.2905,-47.37433,86.82758,-111.9028,-76.06921,0.001067912,-0.1257102,0.09433498,0,0.3,0,0,0,0
638225081836901638,-10.81402,93.957,81.29518,4.547412,-51.73569,34.13846,43.25609,-0.8883717,-2.848366,-128.7588,-7.422361,26.00825,0,0,0,-23.00463,136.2004,-47.91564,86.82758,-111.9028,-76.06921,0.001067912,-0.1257102,0.09433498,0,0.3,0,0,0,0
638225081837311508,-10.79046,94.12065,81.24848,4.547412,-51.80893,34.87091,43.25609,-0.8883717,-2.848366,-128.7588,-7.422361,26.08149,0,0,0,-22.88089,136.0661,-48.2956,86.82758,-111.9028,-76.06921,0.001067912,-0.1257102,0.09433498,0,0.3,0,0,0,0
638225081837641401,-10.79046,94.21416,81.22514,4.620657,-51.80893,35.31038,43.25609,-0.8883717,-2.848366,-128.7588,-7.422361,26.00825,0,0,0,-22.8387,135.9966,-48.51696,86.82758,-111.9028,-76.06921,0.001067912,-0.1257102,0.09433498,0,0.3,0,0,0,0
638225081837991287,-10.79046,94.28429,81.22514,4.693902,-51.80893,35.67661,43.25609,-0.8883717,-2.848366,-128.7588,-7.349115,26.00825,0,0,0,-22.80823,135.9845,-48.67686,86.82758,-111.9028,-76.06921,0.001067912,-0.1257102,0.09433498,0,0.3,0,0,0,0
638225081838331178,-10.79046,94.33105,81.22514,4.620657,-51.80893,35.8231,43.25609,-0.8883717,-2.848366,-128.7588,-7.349115,26.00825,0,0,0,-22.78791,135.9763,-48.78346,86.82758,-111.9028,-76.06921,0.001067912,-0.1257102,0.09433498,0,0.3,0,0,0,0
638225081838671069,-10.79046,94.37781,81.20179,4.620657,-51.73569,35.96959,43.25609,-0.8883717,-2.848366,-128.7588,-7.349115,26.00825,0,0,0,-22.76604,135.9144,-48.8982,86.82758,-111.9028,-76.06921,0.001067912,-0.1257102,0.09433498,0,0.3,0,0,0,0
638225081839020957,-10.79046,94.37781,81.17844,4.620657,-51.73569,36.11608,43.25609,-0.8883717,-2.848366,-128.7588,-7.349115,26.00825,0,0,0,-22.76448,135.8607,-48.90638,86.82758,-111.9028,-76.06921,0.001067912,-0.1257102,0.09433498,0,0.3,0,0,0,0
638225081839360853,-10.79046,94.37781,81.15509,4.693902,-51.73569,36.11608,43.25609,-0.8883717,-2.848366,-128.7588,-7.349115,26.00825,0,0,0,-22.76292,135.807,-48.91457,86.82758,-111.9028,-76.06921,0.001067912,-0.1257102,0.09433498,0,0.3,0,0,0,0
638225081839700739,-10.79046,94.37781,81.08505,4.693902,-51.73569,36.18932,43.25609,-0.8883717,-2.848366,-128.7588,-7.349115,26.00825,0,0,0,-22.75821,135.6459,-48.93929,86.82758,-111.9028,-76.06921,0.001067912,-0.1257102,0.09433498,0,0.3,0,0,0,0
638225081840040632,-10.79046,94.37781,81.06171,4.693902,-51.5892,36.18932,43.25609,-0.8883717,-2.848366,-128.7588,-7.422361,26.00825,0,0,0,-22.75663,135.5923,-48.94757,86.82758,-111.9028,-76.06921,0.001067912,-0.1257102,0.09433498,0,0.3,0,0,0,0
638225081840380523,-10.79046,94.37781,81.06171,4.620657,-51.51595,36.26257,43.25609,-0.8883717,-2.848366,-128.7588,-7.349115,26.00825,0,0,0,-22.75663,135.5923,-48.94757,86.82758,-111.9028,-76.06921,0.001067912,-0.1257102,0.09433498,0,0.3,0,0,0,0
638225081840710419,-10.79046,94.37781,81.03836,4.547412,-51.44271,36.26257,43.25609,-0.8883717,-2.848366,-128.7588,-7.422361,26.00825,0,0,0,-22.75505,135.5386,-48.95588,86.82758,-111.9028,-76.06921,0.001067912,-0.1257102,0.09433498,0,0.3,0,0,0,0
638225081841050311,-10.79046,94.37781,81.03836,4.327676,-51.44271,36.33582,43.25609,-0.8883717,-2.848366,-128.7588,-7.422361,26.00825,0,0,0,-22.75505,135.5386,-48.95588,86.82758,-111.9028,-76.06921,0.001067912,-0.1257102,0.09433498,0,0.3,0,0,0,0
638225081841390203,-10.79046,94.37781,81.03836,4.107941,-51.36946,36.4823,43.25609,-0.8883717,-2.848366,-128.7588,-7.349115,26.00825,0,0,0,-22.75505,135.5386,-48.95588,86.82758,-111.9028,-76.06921,0.001067912,-0.1257102,0.09433498,0,0.3,0,0,0,0
638225081841830056,-10.79046,94.40118,81.01501,3.888205,-51.36946,36.6288,43.25609,-0.8883717,-2.848366,-128.7588,-7.349115,26.08149,0,0,0,-22.74331,135.4807,-49.01749,86.82758,-111.9028,-76.06921,0.001067912,-0.1257102,0.09433498,0,0.3,0,0,0,0
638225081842169954,-10.79046,94.40118,81.01501,3.81496,-51.36946,36.6288,43.25609,-0.8883717,-2.848366,-128.7588,-7.422361,26.00825,0,0,0,-22.74331,135.4807,-49.01749,86.82758,-111.9028,-76.06921,0.001067912,-0.1257102,0.09433498,0,0.3,0,0,0,0
638225081842499849,-10.79046,94.40118,80.96832,3.741715,-51.29622,36.77529,43.25609,-0.8883717,-2.848366,-128.7588,-7.349115,26.00825,0,0,0,-22.74012,135.3734,-49.03421,86.82758,-111.9028,-76.06921,0.001067912,-0.1257102,0.09433498,0,0.3,0,0,0,0
638225081842839738,-10.79046,94.42457,80.92162,3.66847,-51.14973,36.84853,43.25609,-0.8883717,-2.848366,-128.7588,-7.349115,26.00825,0,0,0,-22.72676,135.2619,-49.1043,86.82758,-111.9028,-76.06921,0.001067912,-0.1257102,0.09433498,0,0.3,0,0,0,0
638225081843189630,-10.79046,94.4947,80.85158,3.595225,-51.07648,36.92178,43.25609,-0.8883717,-2.848366,-128.7588,-7.349115,26.00825,0,0,0,-22.69146,135.0883,-49.28952,86.82758,-111.9028,-76.06921,0.001067912,-0.1257102,0.09433498,0,0.3,0,0,0,0
638225081843529517,-10.79046,94.51808,80.78154,3.595225,-51.07648,36.92178,43.25609,-0.8883717,-2.848366,-128.7588,-7.349115,26.08149,0,0,0,-22.67643,134.923,-49.36836,86.82758,-111.9028,-76.06921,0.001067912,-0.1257102,0.09433498,0,0.3,0,0,0,0
638225081843859412,-10.79046,94.61159,80.57141,3.741715,-50.7835,36.92178,43.25609,-0.8883717,-2.848366,-128.7588,-7.422361,26.00825,0,0,0,-22.62098,134.4231,-49.65931,86.82758,-111.9028,-76.06921,0.001067912,-0.1257102,0.09433498,0,0.3,0,0,0,0
638225081844199302,-10.79046,94.65834,80.47802,4.034696,-50.63701,36.92178,43.25609,-0.8883717,-2.848366,-128.7588,-7.349115,26.00825,0,0,0,-22.59398,134.2,-49.801,86.82758,-111.9028,-76.06921,0.001067912,-0.1257102,0.09433498,0,0.3,0,0,0,0
638225081844539199,-10.79046,94.68172,80.43134,4.107941,-50.56377,36.92178,43.25609,-0.8883717,-2.848366,-128.7588,-7.349115,26.00825,0,0,0,-22.58045,134.0884,-49.87197,86.82758,-111.9028,-76.06921,0.001067912,-0.1257102,0.09433498,0,0.3,0,0,0,0
638225081844879088,-10.79046,94.77524,80.3146,4.254431,-50.41727,36.92178,43.25609,-0.8883717,-2.848366,-128.7588,-7.349115,26.08149,0,0,0,-22.53134,133.8026,-50.12967,86.82758,-111.9028,-76.06921,0.001067912,-0.1257102,0.09433498,0,0.3,0,0,0,0
638225081845208983,-10.79046,94.77524,80.2679,4.327676,-50.27078,36.92178,43.25609,-0.8883717,-2.848366,-128.7588,-7.349115,26.00825,0,0,0,-22.52791,133.6954,-50.14768,86.82758,-111.9028,-76.06921,0.001067912,-0.1257102,0.09433498,0,0.3,0,0,0,0
638225081845548870,-10.79046,94.77524,80.24455,4.327676,-50.27078,36.84853,43.25609,-0.8883717,-2.848366,-128.6855,-7.349115,26.00825,0,0,0,-22.52618,133.6419,-50.15671,86.82758,-111.9028,-76.06921,0.001067912,-0.1257102,0.09433498,0,0.3,0,0,0,0
638225081845878769,-10.79046,94.79861,80.24455,4.181186,-50.19754,36.84853,43.25609,-0.8883717,-2.848366,-128.7588,-7.349115,26.00825,0,0,0,-22.51603,133.6373,-50.20997,86.82758,-111.9028,-76.06921,0.001067912,-0.1257102,0.09433498,0,0.3,0,0,0,0
638225081846228658,-10.79046,94.79861,80.24455,4.107941,-50.12429,36.92178,43.25609,-0.8883717,-2.848366,-128.7588,-7.422361,26.00825,0,0,0,-22.51603,133.6373,-50.20997,86.82758,-111.9028,-76.06921,0.001067912,-0.1257102,0.09433498,0,0.3,0,0,0,0
638225081846578541,-10.79046,94.79861,80.19785,4.034696,-50.12429,36.84853,43.25609,-0.8883717,-2.848366,-128.6855,-7.349115,26.08149,0,0,0,-22.51258,133.5302,-50.2281,86.82758,-111.9028,-76.06921,0.001067912,-0.1257102,0.09433498,0,0.3,0,0,0,0
638225081846908439,-10.79046,94.79861,80.19785,4.034696,-50.12429,36.92178,43.25609,-0.8883717,-2.848366,-128.7588,-7.349115,26.08149,0,0,0,-22.51258,133.5302,-50.2281,86.82758,-111.9028,-76.06921,0.001067912,-0.1257102,0.09433498,0,0.3,0,0,0,0
638225081847248328,-10.79046,94.79861,80.19785,3.96145,-50.05105,36.92178,43.25609,-0.8883717,-2.848366,-128.7588,-7.349115,26.00825,0,0,0,-22.51258,133.5302,-50.2281,86.82758,-111.9028,-76.06921,0.001067912,-0.1257102,0.09433498,0,0.3,0,0,0,0
638225081847588223,-10.79046,94.79861,80.17451,3.96145,-50.05105,36.92178,43.25609,-0.8883717,-2.848366,-128.7588,-7.422361,26.00825,0,0,0,-22.51084,133.4767,-50.2372,86.82758,-111.9028,-76.06921,0.001067912,-0.1257102,0.09433498,0,0.3,0,0,0,0
638225081847938123,-10.79046,94.79861,80.12782,4.034696,-50.05105,36.92178,43.25609,-0.8883717,-2.848366,-128.7588,-7.349115,26.00825,0,0,0,-22.50736,133.3696,-50.25546,86.82758,-111.9028,-76.06921,0.001067912,-0.1257102,0.09433498,0,0.3,0,0,0,0
638225081848268004,-10.79046,94.82199,80.10447,4.254431,-50.05105,36.92178,43.25609,-0.8883717,-2.848366,-128.7588,-7.349115,26.00825,0,0,0,-22.49547,133.3115,-50.31789,86.82758,-111.9028,-76.06921,0.001067912,-0.1257102,0.09433498,0,0.3,0,0,0,0
638225081848607896,-10.79046,94.82199,80.08112,4.474167,-50.05105,36.84853,43.25609,-0.8883717,-2.848366,-128.7588,-7.349115,26.00825,0,0,0,-22.49372,133.258,-50.32707,86.82758,-111.9028,-76.06921,0.001067912,-0.1257102,0.09433498,0,0.3,0,0,0,0
638225081848947786,-10.79046,94.82199,80.08112,4.474167,-49.9778,36.92178,43.25609,-0.8883717,-2.848366,-128.7588,-7.349115,26.00825,0,0,0,-22.49372,133.258,-50.32707,86.82758,-111.9028,-76.06921,0.001067912,-0.1257102,0.09433498,0,0.3,0,0,0,0
638225081849357652,-10.79046,94.82199,80.08112,4.620657,-49.9778,36.84853,43.25609,-0.8883717,-2.848366,-128.7588,-7.349115,26.00825,0,0,0,-22.49372,133.258,-50.32707,86.82758,-111.9028,-76.06921,0.001067912,-0.1257102,0.09433498,0,0.3,0,0,0,0
638225081849697548,-10.79046,94.82199,80.08112,4.620657,-49.9778,36.84853,43.25609,-0.8883717,-2.848366,-128.7588,-7.349115,26.00825,0,0,0,-22.49372,133.258,-50.32707,86.82758,-111.9028,-76.06921,0.001067912,-0.1257102,0.09433498,0,0.3,0,0,0,0
638225081850037436,-10.79046,94.82199,80.08112,4.620657,-49.9778,36.92178,43.25609,-0.8883717,-2.848366,-128.7588,-7.422361,26.08149,0,0,0,-22.49372,133.258,-50.32707,86.82758,-111.9028,-76.06921,0.001067912,-0.1257102,0.09433498,0,0.3,0,0,0,0
638225081850377330,-10.79046,94.82199,80.05778,4.620657,-49.9778,36.92178,43.25609,-0.8883717,-2.848366,-128.7588,-7.349115,26.08149,0,0,0,-22.49196,133.2045,-50.33628,86.82758,-111.9028,-76.06921,0.001067912,-0.1257102,0.09433498,0,0.3,0,0,0,0
638225081850747211,-10.79046,94.82199,80.05778,4.620657,-49.90456,36.84853,43.25609,-0.8883717,-2.848366,-128.7588,-7.422361,26.08149,0,0,0,-22.49196,133.2045,-50.33628,86.82758,-111.9028,-76.06921,0.001067912,-0.1257102,0.09433498,0,0.3,0,0,0,0
638225081851087103,-10.79046,94.84538,80.03443,4.547412,-49.90456,36.92178,43.25609,-0.8883717,-2.848366,-128.7588,-7.422361,26.00825,0,0,0,-22.48005,133.1464,-50.39876,86.82758,-111.9028,-76.06921,0.001067912,-0.1257102,0.09433498,0,0.3,0,0,0,0
638225081851416996,-10.79046,94.86874,79.96439,4.620657,-49.83131,36.92178,43.25609,-0.8883717,-2.848366,-128.7588,-7.349115,26.00825,0,0,0,-22.4646,132.9812,-50.47982,86.82758,-111.9028,-76.06921,0.001067912,-0.1257102,0.09433498,0,0.3,0,0,0,0
638225081851756887,-10.79046,94.9155,79.89434,4.620657,-49.83131,36.84853,43.25609,-0.8883717,-2.848366,-128.6855,-7.349115,26.00825,0,0,0,-22.43897,132.8114,-50.61433,86.82758,-111.9028,-76.06921,0.001067912,-0.1257102,0.09433498,0,0.3,0,0,0,0
638225081852096780,-10.79046,94.98564,79.80096,4.693902,-49.68482,36.84853,43.25609,-0.8883717,-2.848366,-128.7588,-7.349115,26.00825,0,0,0,-22.40135,132.5834,-50.81171,86.82758,-111.9028,-76.06921,0.001067912,-0.1257102,0.09433498,0,0.3,0,0,0,0
638225081852436669,-10.79046,95.03239,79.70757,4.986883,-49.61158,36.84853,43.25609,-0.8883717,-2.848366,-128.7588,-7.349115,26.00825,0,0,0,-22.37382,132.36,-50.95618,86.82758,-111.9028,-76.06921,0.001067912,-0.1257102,0.09433498,0,0.3,0,0,0,0
638225081852776558,-10.79046,95.05578,79.66087,5.133373,-49.46509,36.84853,43.25609,-0.8883717,-2.848366,-128.7588,-7.422361,26.00825,0,0,0,-22.36003,132.2483,-51.02854,86.82758,-111.9028,-76.06921,0.001067912,-0.1257102,0.09433498,0,0.3,0,0,0,0
638225081853116450,-10.79046,95.05578,79.66087,5.133373,-49.46509,36.84853,43.25609,-0.8883717,-2.848366,-128.7588,-7.349115,26.00825,0,0,0,-22.36003,132.2483,-51.02854,86.82758,-111.9028,-76.06921,0.001067912,-0.1257102,0.09433498,0,0.3,0,0,0,0
638225081853446346,-10.79046,95.05578,79.66087,5.206618,-49.39184,36.84853,43.25609,-0.8883717,-2.848366,-128.7588,-7.422361,26.00825,0,0,0,-22.36003,132.2483,-51.02854,86.82758,-111.9028,-76.06921,0.001067912,-0.1257102,0.09433498,0,0.3,0,0,0,0
638225081853886210,-10.79046,95.05578,79.63753,5.279863,-49.24535,36.92178,43.25609,-0.8883717,-2.848366,-128.7588,-7.422361,26.00825,0,0,0,-22.3582,132.1949,-51.03813,86.82758,-111.9028,-76.06921,0.001067912,-0.1257102,0.09433498,0,0.3,0,0,0,0
638225081854216100,-10.79046,95.05578,79.63753,5.206618,-49.24535,36.92178,43.25609,-0.8883717,-2.848366,-128.7588,-7.349115,26.08149,0,0,0,-22.3582,132.1949,-51.03813,86.82758,-111.9028,-76.06921,0.001067912,-0.1257102,0.09433498,0,0.3,0,0,0,0
638225081854555995,-10.79046,95.05578,79.63753,5.279863,-49.24535,36.92178,43.25609,-0.8883717,-2.848366,-128.7588,-7.349115,26.00825,0,0,0,-22.3582,132.1949,-51.03813,86.82758,-111.9028,-76.06921,0.001067912,-0.1257102,0.09433498,0,0.3,0,0,0,0
638225081854895883,-10.79046,95.05578,79.63753,5.279863,-49.24535,36.84853,43.25609,-0.8883717,-2.848366,-128.7588,-7.349115,26.00825,0,0,0,-22.3582,132.1949,-51.03813,86.82758,-111.9028,-76.06921,0.001067912,-0.1257102,0.09433498,0,0.3,0,0,0,0
638225081855235775,-10.79046,95.05578,79.63753,5.206618,-49.24535,36.84853,43.25609,-0.8883717,-2.848366,-128.7588,-7.422361,26.00825,0,0,0,-22.3582,132.1949,-51.03813,86.82758,-111.9028,-76.06921,0.001067912,-0.1257102,0.09433498,0,0.3,0,0,0,0
638225081855585664,-10.79046,95.05578,79.63753,5.279863,-49.17211,36.92178,43.25609,-0.8883717,-2.848366,-128.7588,-7.349115,26.00825,0,0,0,-22.3582,132.1949,-51.03813,86.82758,-111.9028,-76.06921,0.001067912,-0.1257102,0.09433498,0,0.3,0,0,0,0
638225081855905564,-10.79046,95.05578,79.61417,5.279863,-49.24535,36.84853,43.25609,-0.8883717,-2.848366,-128.7588,-7.349115,26.00825,0,0,0,-22.35637,132.1414,-51.04774,86.82758,-111.9028,-76.06921,0.001067912,-0.1257102,0.09433498,0,0.3,0,0,0,0
638225081856245451,-10.79046,95.05578,79.61417,5.279863,-49.24535,36.84853,43.25609,-0.8883717,-2.848366,-128.7588,-7.349115,26.08149,0,0,0,-22.35637,132.1414,-51.04774,86.82758,-111.9028,-76.06921,0.001067912,-0.1257102,0.09433498,0,0.3,0,0,0,0
638225081856595338,-10.79046,95.05578,79.61417,5.279863,-49.17211,36.84853,43.25609,-0.8883717,-2.848366,-128.7588,-7.422361,26.00825,0,0,0,-22.35637,132.1414,-51.04774,86.82758,-111.9028,-76.06921,0.001067912,-0.1257102,0.09433498,0,0.3,0,0,0,0
638225081856935234,-10.79046,95.05578,79.61417,5.279863,-49.24535,36.92178,43.25609,-0.8883717,-2.848366,-128.7588,-7.349115,26.08149,0,0,0,-22.35637,132.1414,-51.04774,86.82758,-111.9028,-76.06921,0.001067912,-0.1257102,0.09433498,0,0.3,0,0,0,0
638225081857265128,-10.79046,95.05578,79.61417,5.206618,-49.24535,36.84853,43.25609,-0.8883717,-2.848366,-128.7588,-7.349115,26.00825,0,0,0,-22.35637,132.1414,-51.04774,86.82758,-111.9028,-76.06921,0.001067912,-0.1257102,0.09433498,0,0.3,0,0,0,0
638225081857605017,-10.79046,95.05578,79.61417,5.206618,-49.17211,36.84853,43.25609,-0.8883717,-2.848366,-128.7588,-7.349115,26.00825,0,0,0,-22.35637,132.1414,-51.04774,86.82758,-111.9028,-76.06921,0.001067912,-0.1257102,0.09433498,0,0.3,0,0,0,0
638225081857944912,-10.79046,95.05578,79.61417,5.279863,-49.17211,36.84853,43.25609,-0.8883717,-2.848366,-128.7588,-7.349115,26.08149,0,0,0,-22.35637,132.1414,-51.04774,86.82758,-111.9028,-76.06921,0.001067912,-0.1257102,0.09433498,0,0.3,0,0,0,0
638225081858394767,-10.79046,95.05578,79.61417,5.206618,-49.17211,36.84853,43.25609,-0.8883717,-2.848366,-128.7588,-7.349115,26.00825,0,0,0,-22.35637,132.1414,-51.04774,86.82758,-111.9028,-76.06921,0.001067912,-0.1257102,0.09433498,0,0.3,0,0,0,0
638225081858734655,-10.79046,95.05578,79.61417,5.206618,-49.24535,36.84853,43.25609,-0.8883717,-2.848366,-128.7588,-7.349115,26.00825,0,0,0,-22.35637,132.1414,-51.04774,86.82758,-111.9028,-76.06921,0.001067912,-0.1257102,0.09433498,0,0.3,0,0,0,0
638225081859074547,-10.79046,95.05578,79.61417,4.986883,-49.24535,36.84853,43.25609,-0.8883717,-2.848366,-128.7588,-7.422361,26.00825,0,0,0,-22.35637,132.1414,-51.04774,86.82758,-111.9028,-76.06921,0.001067912,-0.1257102,0.09433498,0,0.3,0,0,0,0
638225081859414439,-10.79046,95.05578,79.61417,4.840393,-49.17211,36.92178,43.25609,-0.8883717,-2.848366,-128.7588,-7.422361,26.00825,0,0,0,-22.35637,132.1414,-51.04774,86.82758,-111.9028,-76.06921,0.001067912,-0.1257102,0.09433498,0,0.3,0,0,0,0
638225081859744335,-10.79046,95.05578,79.61417,4.767147,-49.24535,36.84853,43.25609,-0.8883717,-2.848366,-128.7588,-7.422361,26.00825,0,0,0,-22.35637,132.1414,-51.04774,86.82758,-111.9028,-76.06921,0.001067912,-0.1257102,0.09433498,0,0.3,0,0,0,0
638225081860094224,-10.79046,95.05578,79.61417,4.693902,-49.24535,36.84853,43.25609,-0.8883717,-2.848366,-128.7588,-7.349115,26.00825,0,0,0,-22.35637,132.1414,-51.04774,86.82758,-111.9028,-76.06921,0.001067912,-0.1257102,0.09433498,0,0.3,0,0,0,0
638225081860424118,-10.79046,95.05578,79.61417,4.620657,-49.24535,36.92178,43.25609,-0.8883717,-2.848366,-128.7588,-7.349115,26.00825,0,0,0,-22.35637,132.1414,-51.04774,86.82758,-111.9028,-76.06921,0.001067912,-0.1257102,0.09433498,0,0.3,0,0,0,0
638225081860764007,-10.79046,95.05578,79.61417,4.620657,-49.24535,36.92178,43.25609,-0.8883717,-2.848366,-128.7588,-7.349115,26.08149,0,0,0,-22.35637,132.1414,-51.04774,86.82758,-111.9028,-76.06921,0.001067912,-0.1257102,0.09433498,0,0.3,0,0,0,0
638225081861093904,-10.79046,95.05578,79.61417,4.620657,-49.24535,36.84853,43.25609,-0.8883717,-2.848366,-128.6855,-7.349115,26.08149,0,0,0,-22.35637,132.1414,-51.04774,86.82758,-111.9028,-76.06921,0.001067912,-0.1257102,0.09433498,0,0.3,0,0,0,0
638225081861433791,-10.79046,95.05578,79.61417,4.620657,-49.24535,36.84853,43.25609,-0.8883717,-2.848366,-128.7588,-7.349115,26.00825,0,0,0,-22.35637,132.1414,-51.04774,86.82758,-111.9028,-76.06921,0.001067912,-0.1257102,0.09433498,0,0.3,0,0,0,0
638225081861773686,-10.79046,95.05578,79.61417,4.620657,-49.17211,36.84853,43.25609,-0.8883717,-2.848366,-128.7588,-7.349115,26.00825,0,0,0,-22.35637,132.1414,-51.04774,86.82758,-111.9028,-76.06921,0.001067912,-0.1257102,0.09433498,0,0.3,0,0,0,0
638225081862103582,-10.79046,95.05578,79.61417,4.620657,-49.17211,36.84853,43.25609,-0.8883717,-2.848366,-128.7588,-7.349115,26.00825,0,0,0,-22.35637,132.1414,-51.04774,86.82758,-111.9028,-76.06921,0.001067912,-0.1257102,0.09433498,0,0.3,0,0,0,0
638225081862443472,-10.79046,95.05578,79.61417,4.547412,-49.17211,36.84853,43.25609,-0.8883717,-2.848366,-128.6855,-7.349115,26.00825,0,0,0,-22.35637,132.1414,-51.04774,86.82758,-111.9028,-76.06921,0.001067912,-0.1257102,0.09433498,0,0.3,0,0,0,0
638225081862783361,-10.79046,95.05578,79.61417,4.547412,-49.24535,36.84853,43.25609,-0.8883717,-2.848366,-128.7588,-7.349115,26.00825,0,0,0,-22.35637,132.1414,-51.04774,86.82758,-111.9028,-76.06921,0.001067912,-0.1257102,0.09433498,0,0.3,0,0,0,0
638225081863123256,-10.79046,95.05578,79.61417,4.474167,-49.24535,36.84853,43.25609,-0.8883717,-2.848366,-128.6855,-7.349115,26.00825,0,0,0,-22.35637,132.1414,-51.04774,86.82758,-111.9028,-76.06921,0.001067912,-0.1257102,0.09433498,0,0.3,0,0,0,0
638225081863463143,-10.79046,95.05578,79.61417,4.474167,-49.24535,36.84853,43.25609,-0.8883717,-2.848366,-128.7588,-7.349115,26.00825,0,0,0,-22.35637,132.1414,-51.04774,86.82758,-111.9028,-76.06921,0.001067912,-0.1257102,0.09433498,0,0.3,0,0,0,0
638225081863803035,-10.79046,95.05578,79.59083,4.400921,-49.17211,36.84853,43.25609,-0.8883717,-2.848366,-128.7588,-7.349115,26.08149,0,0,0,-22.35453,132.088,-51.05737,86.82758,-111.9028,-76.06921,0.001067912,-0.1257102,0.09433498,0,0.3,0,0,0,0
638225081864142930,-10.79046,95.05578,79.59083,4.327676,-49.17211,36.92178,43.25609,-0.8883717,-2.848366,-128.7588,-7.349115,26.00825,0,0,0,-22.35453,132.088,-51.05737,86.82758,-111.9028,-76.06921,0.001067912,-0.1257102,0.09433498,0,0.3,0,0,0,0
638225081864492817,-10.79046,95.05578,79.59083,4.254431,-49.17211,36.84853,43.25609,-0.8883717,-2.848366,-128.7588,-7.349115,26.00825,0,0,0,-22.35453,132.088,-51.05737,86.82758,-111.9028,-76.06921,0.001067912,-0.1257102,0.09433498,0,0.3,0,0,0,0
638225081864832710,-10.79046,95.05578,79.56748,4.254431,-49.24535,36.84853,43.25609,-0.8883717,-2.848366,-128.7588,-7.349115,26.00825,0,0,0,-22.35269,132.0345,-51.06703,86.82758,-111.9028,-76.06921,0.001067912,-0.1257102,0.09433498,0,0.3,0,0,0,0
638225081865172601,-10.79046,95.05578,79.54414,4.254431,-49.17211,36.92178,43.25609,-0.8883717,-2.848366,-128.7588,-7.349115,26.00825,0,0,0,-22.35085,131.9811,-51.07671,86.82758,-111.9028,-76.06921,0.001067912,-0.1257102,0.09433498,0,0.3,0,0,0,0
638225081865512489,-10.79046,95.05578,79.54414,4.327676,-49.24535,36.84853,43.25609,-0.8883717,-2.848366,-128.7588,-7.349115,26.00825,0,0,0,-22.35085,131.9811,-51.07671,86.82758,-111.9028,-76.06921,0.001067912,-0.1257102,0.09433498,0,0.3,0,0,0,0
638225081865912364,-10.81402,95.05578,79.52078,4.620657,-49.24535,36.84853,43.25609,-0.8883717,-2.848366,-128.7588,-7.422361,26.00825,0,0,0,-22.39721,131.9276,-51.0956,86.82758,-111.9028,-76.06921,0.001067912,-0.1257102,0.09433498,0,0.3,0,0,0,0
638225081866252255,-10.90826,95.05578,79.45075,5.279863,-49.24535,36.33582,43.25609,-0.8883717,-2.848366,-128.7588,-7.349115,26.00825,0,0,0,-22.58441,131.7674,-51.16181,86.82758,-111.9028,-76.06921,0.001067912,-0.1257102,0.09433498,0,0.3,0,0,0,0
638225081866592157,-11.16742,95.05578,79.33401,6.158805,-49.24535,35.60336,43.25609,-0.8883717,-2.848366,-128.7588,-7.349115,26.00825,0,0,0,-23.10456,131.5003,-51.31423,86.82758,-111.9028,-76.06921,0.001067912,-0.1257102,0.09433498,0,0.3,0,0,0,0
638225081866932035,-11.40302,95.05578,79.26397,6.744767,-49.17211,35.16389,43.25609,-0.8883717,-2.848366,-128.7588,-7.349115,26.08149,0,0,0,-23.57963,131.3401,-51.4399,86.82758,-111.9028,-76.06921,0.001067912,-0.1257102,0.09433498,0,0.3,0,0,0,0
638225081867271930,-12.0627,95.03239,79.14723,8.209671,-49.17211,34.28495,43.25609,-0.8883717,-2.848366,-128.7588,-7.349115,26.00825,0,0,0,-24.92478,131.078,-51.71588,86.82758,-111.9028,-76.06921,0.001067912,-0.1257102,0.09433498,0,0.3,0,0,0,0
638225081867611823,-13.26426,94.82199,78.84372,9.747819,-49.17211,33.25952,43.25609,-0.8883717,-2.848366,-128.7588,-7.349115,26.00825,0,0,0,-27.44607,130.4267,-51.92057,86.82758,-111.9028,-76.06921,0.001067912,-0.1257102,0.09433498,0,0.3,0,0,0,0
638225081867951707,-14.11242,94.61159,78.56355,10.33378,-49.24535,33.03978,43.25609,-0.8883717,-2.848366,-128.7588,-7.349115,26.00825,0,0,0,-29.25438,129.8275,-51.99017,86.82758,-111.9028,-76.06921,0.001067912,-0.1257102,0.09433498,0,0.3,0,0,0,0
638225081868291603,-16.13857,94.09727,77.65301,10.62676,-49.3186,32.96654,43.25609,-0.8883717,-2.848366,-128.7588,-7.422361,26.00825,0,0,0,-33.56046,127.8447,-52.37017,86.82758,-111.9028,-76.06921,0.001067912,-0.1257102,0.09433498,0,0.3,0,0,0,0
638225081868631496,-17.76421,93.58295,76.43895,9.821064,-49.17211,33.47925,43.25609,-0.8883717,-2.848366,-128.6855,-7.349115,26.00825,0,0,0,-37.00832,125.1713,-52.83473,86.82758,-111.9028,-76.06921,0.001067912,-0.1257102,0.09433498,0,0.3,0,0,0,0
638225081868971388,-19.74325,92.71796,74.92138,8.35616,-48.5129,34.79766,43.25609,-0.8883717,-2.848366,-128.7588,-7.422361,26.00825,0,0,0,-41.35937,121.8597,-53.11192,86.82758,-111.9028,-76.06921,0.001067912,-0.1257102,0.09433498,0,0.3,0,0,0,0
638225081869301281,-20.85056,92.22701,74.38438,7.403974,-48.00018,36.04284,43.25609,-0.8883717,-2.848366,-128.7588,-7.422361,26.00825,0,0,0,-43.86722,120.7038,-53.17503,86.82758,-111.9028,-76.06921,0.001067912,-0.1257102,0.09433498,0,0.3,0,0,0,0
638225081869641171,-23.34792,91.22175,73.45049,4.986883,-47.26773,38.89939,43.25609,-0.8883717,-2.848366,-128.7588,-7.349115,26.00825,0,0,0,-49.53228,118.6858,-53.6016,86.82758,-111.9028,-76.06921,0.001067912,-0.1257102,0.09433498,0,0.3,0,0,0,0
638225081869981063,-26.17512,90.07622,72.35318,1.54436,-46.82826,42.78139,43.25609,-0.8883717,-2.848366,-128.6855,-7.349115,26.08149,0,0,0,-55.97658,116.275,-54.46575,86.82758,-111.9028,-76.06921,0.001067912,-0.1257102,0.09433498,0,0.3,0,0,0,0
638225081870420921,-29.42639,88.58002,70.78891,-3.509557,-46.02256,48.34802,43.25609,-0.8883717,-2.848366,-128.7588,-7.349115,26.00825,0,0,0,-63.49067,112.7803,-55.79346,86.82758,-111.9028,-76.06921,0.001067912,-0.1257102,0.09433498,0,0.3,0,0,0,0
638225081870760814,-30.65151,88.01894,70.20523,-5.413931,-45.5831,50.47213,43.25609,-0.8883717,-2.848366,-128.7588,-7.349115,26.00825,0,0,0,-66.31693,111.461,-56.44393,86.82758,-111.9028,-76.06921,0.001067912,-0.1257102,0.09433498,0,0.3,0,0,0,0
638225081871100701,-33.76143,86.47598,68.66431,-10.32136,-44.33792,55.81903,43.25609,-0.8883717,-2.848366,-128.7588,-7.349115,26.00825,0,0,0,-73.5836,107.9309,-58.27189,86.82758,-111.9028,-76.06921,0.001067912,-0.1257102,0.09433498,0,0.3,0,0,0,0
638225081871430601,-36.56506,84.65248,66.74983,-15.22878,-42.79977,60.87295,43.25609,-0.8883717,-2.848366,-128.7588,-7.349115,26.08149,0,0,0,-80.39352,103.4802,-59.96201,86.82758,-111.9028,-76.06921,0.001067912,-0.1257102,0.09433498,0,0.3,0,0,0,0
638225081871780484,-39.32158,82.71208,64.71862,-19.55025,-40.67567,65.26765,43.25609,-0.8883717,-2.848366,-128.7588,-7.349115,26.00825,0,0,0,-87.12619,98.67371,-61.98434,86.82758,-111.9028,-76.06921,0.001067912,-0.1257102,0.09433498,0,0.3,0,0,0,0
638225081872110381,-40.75874,81.77695,63.87812,-21.30813,-39.57699,67.31852,43.25609,-0.8883717,-2.848366,-128.7588,-7.349115,26.00825,0,0,0,-90.62053,96.61739,-63.21211,86.82758,-111.9028,-76.06921,0.001067912,-0.1257102,0.09433498,0,0.3,0,0,0,0
638225081872450273,-43.42101,79.64954,61.87025,-24.67741,-37.81911,71.05402,43.25609,-0.8883717,-2.848366,-128.7588,-7.349115,26.00825,0,0,0,-97.30031,91.65952,-65.53335,86.82758,-111.9028,-76.06921,0.001067912,-0.1257102,0.09433498,0,0.3,0,0,0,0
638225081872800163,-46.15396,76.96104,59.16197,-27.60722,-35.695,74.35006,43.25609,-0.8883717,-2.848366,-128.7588,-7.349115,26.00825,0,0,0,-104.2735,84.9049,-68.19438,86.82758,-111.9028,-76.06921,0.001067912,-0.1257102,0.09433498,0,0.3,0,0,0,0
638225081873130057,-47.35552,75.722,57.87787,-28.7059,-34.74281,75.66847,43.25609,-0.8883717,-2.848366,-128.7588,-7.349115,26.00825,0,0,0,-107.264,81.67526,-69.56192,86.82758,-111.9028,-76.06921,0.001067912,-0.1257102,0.09433498,0,0.3,0,0,0,0
638225081873469945,-49.97068,72.42567,54.49252,-30.90325,-32.25247,78.52503,43.25609,-0.8883717,-2.848366,-128.7588,-7.349115,26.00825,0,0,0,-113.9509,73.02512,-72.63442,86.82758,-111.9028,-76.06921,0.001067912,-0.1257102,0.09433498,0,0.3,0,0,0,0
638225081873809841,-51.33715,70.2515,51.83093,-31.70894,-30.49459,79.91669,43.25609,-0.8883717,-2.848366,-128.7588,-7.349115,26.08149,0,0,0,-117.0445,66.44882,-74.70424,86.82758,-111.9028,-76.06921,0.001067912,-0.1257102,0.09433498,0,0.3,0,0,0,0
638225081874149729,-51.9026,69.08259,50.03319,-31.78219,-29.46916,80.50266,43.25609,-0.8883717,-2.848366,-128.7588,-7.349115,26.00825,0,0,0,-117.8953,62.25517,-75.91687,86.82758,-111.9028,-76.06921,0.001067912,-0.1257102,0.09433498,0,0.3,0,0,0,0
638225081874489620,-52.30311,67.35261,46.11085,-30.39053,-27.78452,81.01537,43.25609,-0.8883717,-2.848366,-128.7588,-7.349115,26.08149,0,0,0,-116.6713,53.97071,-78.18631,86.82758,-111.9028,-76.06921,0.001067912,-0.1257102,0.09433498,0,0.3,0,0,0,0
638225081874939475,-51.80835,66.13693,40.83437,-27.0945,-26.02663,77.71934,43.25609,-0.8883717,-2.848366,-128.7588,-7.349115,26.00825,0,0,0,-110.9295,44.40756,-81.08327,86.82758,-111.9028,-76.06921,0.001067912,-0.1257102,0.09433498,0,0.3,0,0,0,0
638225081875269371,-49.9,65.03816,34.64734,-22.62654,-23.09683,70.98078,43.25609,-0.8883717,-2.848366,-128.7588,-7.349115,26.00825,0,0,0,-101.0371,34.54102,-83.26881,86.82758,-111.9028,-76.06921,0.001067912,-0.1257102,0.09433498,0,0.3,0,0,0,0
638225081875619259,-45.75344,63.91601,28.76383,-16.98667,-17.16397,63.876,43.25609,-0.8883717,-2.848366,-128.7588,-7.349115,26.00825,0,0,0,-87.96739,26.22234,-82.66627,86.82758,-111.9028,-76.06921,0.001067912,-0.1257102,0.09433498,0,0.3,0,0,0,0
638225081875949156,-43.11473,63.86925,26.89605,-13.98362,-13.20873,60.65321,43.25609,-0.8883717,-2.848366,-128.7588,-7.349115,26.00825,0,0,0,-81.3689,24.14512,-81.44209,86.82758,-111.9028,-76.06921,0.001067912,-0.1257102,0.09433498,0,0.3,0,0,0,0
638225081876289048,-36.87134,65.01479,25.72869,-8.490229,-4.492554,54.35413,43.25609,-0.8883717,-2.848366,-128.7588,-7.349115,26.08149,0,0,0,-68.53043,24.09103,-76.98088,86.82758,-111.9028,-76.06921,0.001067912,-0.1257102,0.09433498,0,0.3,0,0,0,0
638225081876638935,-29.80335,66.88504,27.05948,-4.168763,4.663092,46.88312,43.25609,-0.8883717,-2.848366,-128.7588,-7.349115,26.00825,0,0,0,-56.17032,27.24172,-70.28439,86.82758,-111.9028,-76.06921,0.001067912,-0.1257102,0.09433498,0,0.3,0,0,0,0
638225081876978824,-22.2406,68.68517,29.67438,-1.605182,13.08629,38.31343,43.25609,-0.8883717,-2.848366,-128.7588,-7.349115,26.00825,0,0,0,-43.33385,31.71692,-62.37838,86.82758,-111.9028,-76.06921,0.001067912,-0.1257102,0.09433498,0,0.3,0,0,0,0
638225081877308724,-18.30609,69.64367,31.07521,-1.165711,16.89503,33.62574,43.25609,-0.8883717,-2.848366,-128.7588,-7.349115,26.00825,0,0,0,-36.18893,34.15894,-58.96377,86.82758,-111.9028,-76.06921,0.001067912,-0.1257102,0.09433498,0,0.3,0,0,0,0
638225081877638614,-9.800944,71.72433,33.66676,-1.312202,22.60816,23.88414,43.25609,-0.8883717,-2.848366,-128.6855,-7.349115,26.00825,0,0,0,-19.70214,38.98966,-54.29797,86.82758,-111.9028,-76.06921,0.001067912,-0.1257102,0.09433498,0,0.3,0,0,0,0
638225081877988506,-0.4947592,73.1504,35.04425,-1.971408,25.90419,14.28902,43.25609,-0.8883717,-2.848366,-128.7588,-7.349115,26.00825,0,0,0,-0.9949641,41.80031,-53.13065,86.82758,-111.9028,-76.06921,0.001067912,-0.1257102,0.09433498,0,0.3,0,0,0,0
638225081878328393,4.122993,73.24391,35.18433,-2.557369,26.70989,9.821064,43.25609,-0.8883717,-2.848366,-128.7588,-7.349115,26.00825,0,0,0,8.288512,42.05076,-53.36636,86.82758,-111.9028,-76.06921,0.001067912,-0.1257102,0.09433498,0,0.3,0,0,0,0
638225081878678280,13.73546,72.89324,35.72132,-5.267441,27.00287,1.471115,43.25609,-0.8883717,-2.848366,-128.7588,-7.422361,26.00825,0,0,0,27.79959,42.53799,-54.61741,86.82758,-111.9028,-76.06921,0.001067912,-0.1257102,0.09433498,0,0.3,0,0,0,0
638225081879028171,24.05472,71.93473,36.65521,-8.636719,24.80551,-8.416983,43.25609,-0.8883717,-2.848366,-128.7588,-7.422361,26.00825,0,0,0,49.30502,43.14731,-57.89315,86.82758,-111.9028,-76.06921,0.001067912,-0.1257102,0.09433498,0,0.3,0,0,0,0
638225081879468030,36.0703,68.84881,36.3517,-10.76083,19.31213,-25.26337,43.25609,-0.8883717,-2.848366,-128.7588,-7.422361,26.00825,0,0,0,74.86811,40.31715,-65.56832,86.82758,-111.9028,-76.06921,0.001067912,-0.1257102,0.09433498,0,0.3,0,0,0,0
638225081879807920,41.46553,65.87978,35.23103,-10.32136,15.50338,-38.96022,43.25609,-0.8883717,-2.848366,-128.7588,-7.349115,26.00825,0,0,0,87.02235,36.13258,-69.86982,86.82758,-111.9028,-76.06921,0.001067912,-0.1257102,0.09433498,0,0.3,0,0,0,0
638225081880147814,43.84509,63.61209,33.90023,-9.808641,13.23278,-49.06805,43.25609,-0.8883717,-2.848366,-128.7588,-7.349115,26.00825,0,0,0,92.57572,32.12383,-71.96487,86.82758,-111.9028,-76.06921,0.001067912,-0.1257102,0.09433498,0,0.3,0,0,0,0
638225081880477710,46.29532,58.49226,30.7717,-9.36917,9.350782,-68.55127,43.25609,-0.8883717,-2.848366,-128.7588,-7.349115,26.00825,0,0,0,99.70013,22.46414,-73.05891,86.82758,-111.9028,-76.06921,0.001067912,-0.1257102,0.09433498,0,0.3,0,0,0,0
638225081880827596,46.38956,52.71785,27.59647,-10.83407,6.713957,-83.20029,43.25609,-0.8883717,-2.848366,-128.7588,-7.349115,26.00825,0,0,0,103.2119,11.2725,-70.02679,86.82758,-111.9028,-76.06921,0.001067912,-0.1257102,0.09433498,0,0.3,0,0,0,0
638225081881157491,46.29532,49.18774,25.77538,-13.03143,5.542034,-89.42614,43.25609,-0.8883717,-2.848366,-128.7588,-7.349115,26.00825,0,0,0,104.9245,4.194208,-68.06558,86.82758,-111.9028,-76.06921,0.001067912,-0.1257102,0.09433498,0,0.3,0,0,0,0
638225081881507380,46.74296,43.88089,23.11379,-17.35289,3.93064,-95.87171,43.25609,-0.8883717,-2.848366,-128.7588,-7.349115,26.00825,0,0,0,108.1244,-6.862522,-66.6117,86.82758,-111.9028,-76.06921,0.001067912,-0.1257102,0.09433498,0,0.3,0,0,0,0
638225081881857266,47.75604,38.2935,20.38216,-21.60111,1.586795,-100.1199,43.25609,-0.8883717,-2.848366,-128.6855,-7.349115,26.00825,0,0,0,111.8595,-19.01536,-66.7655,86.82758,-111.9028,-76.06921,0.001067912,-0.1257102,0.09433498,0,0.3,0,0,0,0
638225081882197162,48.133,32.23854,17.60384,-24.89715,-0.6838052,-104.5879,43.25609,-0.8883717,-2.848366,-128.7588,-7.422361,26.00825,0,0,0,114.029,-32.62033,-66.15609,86.82758,-111.9028,-76.06921,0.001067912,-0.1257102,0.09433498,0,0.3,0,0,0,0
638225081882537051,48.08588,28.80194,16.45982,-26.36205,-1.928973,-109.2023,43.25609,-0.8883717,-2.848366,-128.7588,-7.422361,26.00825,0,0,0,115.0727,-40.28932,-65.04996,86.82758,-111.9028,-76.06921,0.001067912,-0.1257102,0.09433498,0,0.3,0,0,0,0
638225081882876961,47.7796,22.02227,14.26518,-28.77914,-4.053083,-118.065,43.25609,-0.8883717,-2.848366,-128.7588,-7.422361,26.00825,0,0,0,115.8832,-55.88641,-63.19835,86.82758,-111.9028,-76.06921,0.001067912,-0.1257102,0.09433498,0,0.3,0,0,0,0
638225081883216830,47.37908,14.84516,12.77096,-30.31729,-5.00527,-126.9277,43.25609,-0.8883717,-2.848366,-128.7588,-7.349115,26.08149,0,0,0,116.5414,-72.53583,-61.10614,86.82758,-111.9028,-76.06921,0.001067912,-0.1257102,0.09433498,0,0.3,0,0,0,0
638225081883556722,47.23772,11.4787,12.23397,-30.83001,-4.932025,-130.9561,43.25609,-0.8883717,-2.848366,-128.7588,-7.349115,26.00825,0,0,0,116.6903,-80.43456,-60.43622,86.82758,-111.9028,-76.06921,0.001067912,-0.1257102,0.09433498,0,0.3,0,0,0,0
638225081883896616,46.76653,5.657525,11.27673,-31.41597,-3.979838,-134.7649,43.25609,-0.8883717,-2.848366,-128.7588,-7.349115,26.00825,0,0,0,115.6797,-94.27965,-59.59223,86.82758,-111.9028,-76.06921,0.001067912,-0.1257102,0.09433498,0,0.3,0,0,0,0
638225081884246504,45.96548,1.309179,10.41288,-31.6357,-1.855728,-134.5452,43.25609,-0.8883717,-2.848366,-128.7588,-7.349115,26.00825,0,0,0,113.1703,-104.7571,-58.93084,86.82758,-111.9028,-76.06921,0.001067912,-0.1257102,0.09433498,0,0.3,0,0,0,0
638225081884586392,44.85817,-0.3974294,9.502337,-32.22166,0.6346079,-133.7395,43.25609,-0.8883717,-2.848366,-128.7588,-7.349115,26.00825,0,0,0,109.5847,-109.0953,-58.22139,86.82758,-111.9028,-76.06921,0.001067912,-0.1257102,0.09433498,0,0.3,0,0,0,0
638225081884926285,44.08069,-0.4208077,8.918655,-32.80762,2.099511,-133.3732,43.25609,-0.8883717,-2.848366,-128.7588,-7.349115,26.00825,0,0,0,107.1471,-109.3671,-57.70811,86.82758,-111.9028,-76.06921,0.001067912,-0.1257102,0.09433498,0,0.3,0,0,0,0
638225081885256180,42.03097,0.0233782,7.844682,-34.78524,4.956073,-132.1281,43.25609,-0.8883717,-2.848366,-128.7588,-7.349115,26.00825,0,0,0,101.4681,-108.6977,-55.78072,86.82758,-111.9028,-76.06921,0.001067912,-0.1257102,0.09433498,0,0.3,0,0,0,0
638225081885606068,39.36869,0.3272949,7.284348,-38.00803,8.325351,-131.7619,43.25609,-0.8883717,-2.848366,-128.7588,-7.349115,26.00825,0,0,0,95.30846,-108.162,-52.19024,86.82758,-111.9028,-76.06921,0.001067912,-0.1257102,0.09433498,0,0.3,0,0,0,0
638225081885945956,37.88441,0.4909423,7.261,-39.83916,10.30297,-131.7619,43.25609,-0.8883717,-2.848366,-128.7588,-7.349115,26.08149,0,0,0,92.23286,-107.788,-49.80516,86.82758,-111.9028,-76.06921,0.001067912,-0.1257102,0.09433498,0,0.3,0,0,0,0
638225081886285851,34.7745,1.145532,7.261,-44.08738,14.91741,-130.4434,43.25609,-0.8883717,-2.848366,-128.7588,-7.349115,26.08149,0,0,0,85.65338,-106.2647,-44.99384,86.82758,-111.9028,-76.06921,0.001067912,-0.1257102,0.09433498,0,0.3,0,0,0,0
638225081886625745,31.94731,2.59498,7.354388,-47.89613,19.82484,-125.6093,43.25609,-0.8883717,-2.848366,-128.7588,-7.349115,26.00825,0,0,0,79.52055,-102.8655,-40.82971,86.82758,-111.9028,-76.06921,0.001067912,-0.1257102,0.09433498,0,0.3,0,0,0,0
638225081887055600,28.67247,5.540634,7.517819,-51.55839,26.12393,-120.2624,43.25609,-0.8883717,-2.848366,-128.6855,-7.349115,26.00825,0,0,0,72.05368,-95.97859,-36.59102,86.82758,-111.9028,-76.06921,0.001067912,-0.1257102,0.09433498,0,0.3,0,0,0,0
638225081887395501,26.22224,8.579801,8.124848,-53.31627,30.51864,-116.8931,43.25609,-0.8883717,-2.848366,-128.7588,-7.349115,26.00825,0,0,0,66.58923,-88.76744,-33.1553,86.82758,-111.9028,-76.06921,0.001067912,-0.1257102,0.09433498,0,0.3,0,0,0,0
638225081887735387,24.54948,10.7306,8.638489,-54.12197,32.93573,-114.9155,43.25609,-0.8883717,-2.848366,-128.7588,-7.422361,26.08149,0,0,0,62.75696,-83.65863,-30.95697,86.82758,-111.9028,-76.06921,0.001067912,-0.1257102,0.09433498,0,0.3,0,0,0,0
638225081888075276,20.77989,15.47637,9.759157,-55.44038,37.33044,-109.7883,43.25609,-0.8883717,-2.848366,-128.7588,-7.422361,26.00825,0,0,0,53.61366,-72.48705,-27.06165,86.82758,-111.9028,-76.06921,0.001067912,-0.1257102,0.09433498,0,0.3,0,0,0,0
638225081888405171,16.23281,20.66633,11.27673,-56.09959,41.28568,-102.6103,43.25609,-0.8883717,-2.848366,-128.7588,-7.349115,26.00825,0,0,0,42.16749,-60.36301,-23.5182,86.82758,-111.9028,-76.06921,0.001067912,-0.1257102,0.09433498,0,0.3,0,0,0,0
638225081888755061,13.73546,23.1678,12.32736,-56.31932,42.89707,-98.72827,43.25609,-0.8883717,-2.848366,-128.7588,-7.422361,26.00825,0,0,0,35.86901,-54.46219,-21.60412,86.82758,-111.9028,-76.06921,0.001067912,-0.1257102,0.09433498,0,0.3,0,0,0,0
638225081889094956,8.458026,28.61492,15.15238,-56.02634,45.31416,-89.20641,43.25609,-0.8883717,-2.848366,-128.7588,-7.349115,26.08149,0,0,0,22.34488,-41.49992,-18.08393,86.82758,-111.9028,-76.06921,0.001067912,-0.1257102,0.09433498,0,0.3,0,0,0,0
638225081889434842,3.863834,34.41272,17.97739,-54.26846,46.77906,-77.26745,43.25609,-0.8883717,-2.848366,-128.7588,-7.349115,26.00825,0,0,0,10.18664,-28.12687,-17.52407,86.82758,-111.9028,-76.06921,0.001067912,-0.1257102,0.09433498,0,0.3,0,0,0,0
638225081889774738,0.9188384,40.3274,20.38216,-50.23997,47.65801,-64.81577,43.25609,-0.8883717,-2.848366,-128.7588,-7.422361,26.00825,0,0,0,2.375002,-15.35297,-20.26531,86.82758,-111.9028,-76.06921,0.001067912,-0.1257102,0.09433498,0,0.3,0,0,0,0
638225081890104631,-0.02355996,44.90953,21.66626,-45.03957,47.95099,-55.9531,43.25609,-0.8883717,-2.848366,-128.7588,-7.422361,26.00825,0,0,0,-0.05907868,-6.435159,-24.67578,86.82758,-111.9028,-76.06921,0.001067912,-0.1257102,0.09433498,0,0.3,0,0,0,0
638225081890444521,0.09423985,49.79557,22.90367,-36.83611,48.17072,-48.04262,43.25609,-0.8883717,-2.848366,-128.7588,-7.349115,26.08149,0,0,0,0.2269442,2.358797,-30.37299,86.82758,-111.9028,-76.06921,0.001067912,-0.1257102,0.09433498,0,0.3,0,0,0,0
638225081890784413,1.177998,56.48174,26.8727,-22.33356,47.07204,-38.66724,43.25609,-0.8883717,-2.848366,-128.7588,-7.349115,26.00825,0,0,0,2.753024,15.57528,-34.46656,86.82758,-111.9028,-76.06921,0.001067912,-0.1257102,0.09433498,0,0.3,0,0,0,0
638225081891124305,1.766997,60.29239,30.49153,-14.05686,44.94794,-33.17385,43.25609,-0.8883717,-2.848366,-128.7588,-7.349115,26.00825,0,0,0,4.124125,24.26498,-34.66554,86.82758,-111.9028,-76.06921,0.001067912,-0.1257102,0.09433498,0,0.3,0,0,0,0
638225081891574188,2.827195,69.36313,37.65914,6.744767,33.88792,-20.79542,43.25609,-0.8883717,-2.848366,-128.7588,-7.349115,26.08149,0,0,0,6.336648,42.57553,-40.0361,86.82758,-111.9028,-76.06921,0.001067912,-0.1257102,0.09433498,0,0.3,0,0,0,0
638225081891914053,2.615156,71.63082,39.15337,12.67763,29.27347,-18.45157,43.25609,-0.8883717,-2.848366,-128.7588,-7.422361,26.00825,0,0,0,5.759101,46.49782,-42.26075,86.82758,-111.9028,-76.06921,0.001067912,-0.1257102,0.09433498,0,0.3,0,0,0,0
638225081892253941,1.696317,74.99728,42.37529,21.68678,21.2165,-15.81474,43.25609,-0.8883717,-2.848366,-128.7588,-7.349115,26.00825,0,0,0,3.682352,53.64277,-44.00913,86.82758,-111.9028,-76.06921,0.001067912,-0.1257102,0.09433498,0,0.3,0,0,0,0
638225081892593836,0.2591596,78.05982,46.81127,29.30428,13.599,-14.42309,43.25609,-0.8883717,-2.848366,-128.7588,-7.349115,26.08149,0,0,0,0.5645586,62.54962,-43.53653,86.82758,-111.9028,-76.06921,0.001067912,-0.1257102,0.09433498,0,0.3,0,0,0,0
638225081892933726,-0.8481586,79.60278,49.35612,32.7468,9.643764,-14.56958,43.25609,-0.8883717,-2.848366,-128.7588,-7.349115,26.08149,0,0,0,-1.854001,67.65217,-43.11552,86.82758,-111.9028,-76.06921,0.001067912,-0.1257102,0.09433498,0,0.3,0,0,0,0
638225081893263621,-3.887394,82.54844,54.67929,39.77834,1.220569,-17.13316,43.25609,-0.8883717,-2.848366,-128.7588,-7.349115,26.00825,0,0,0,-8.548911,78.4772,-42.54213,86.82758,-111.9028,-76.06921,0.001067912,-0.1257102,0.09433498,0,0.3,0,0,0,0
638225081893603511,-8.151747,84.65248,60.09586,46.88312,-7.715342,-21.52787,43.25609,-0.8883717,-2.848366,-128.7588,-7.349115,26.00825,0,0,0,-18.15315,89.63794,-41.61992,86.82758,-111.9028,-76.06921,0.001067912,-0.1257102,0.09433498,0,0.3,0,0,0,0
638225081893933407,-10.79046,85.1668,62.80414,50.83836,-12.40303,-24.45767,43.25609,-0.8883717,-2.848366,-128.7588,-7.349115,26.00825,0,0,0,-24.30902,95.2804,-40.8023,86.82758,-111.9028,-76.06921,0.001067912,-0.1257102,0.09433498,0,0.3,0,0,0,0
638225081894273297,-17.48149,84.65248,67.63703,61.82513,-21.70517,-34.41902,43.25609,-0.8883717,-2.848366,-128.7588,-7.349115,26.00825,0,0,0,-40.77862,105.3836,-38.87091,86.82758,-111.9028,-76.06921,0.001067912,-0.1257102,0.09433498,0,0.3,0,0,0,0
638225081894613194,-25.70392,82.05749,69.55151,81.3816,-30.3481,-56.90528,43.25609,-0.8883717,-2.848366,-128.7588,-7.349115,26.00825,0,0,0,-62.184,108.8329,-39.16379,86.82758,-111.9028,-76.06921,0.001067912,-0.1257102,0.09433498,0,0.3,0,0,0,0
638225081894953082,-29.07299,80.72494,69.41142,94.1995,-33.64413,-73.45869,43.25609,-0.8883717,-2.848366,-128.7588,-7.422361,26.08149,0,0,0,-71.10298,108.0634,-40.46133,86.82758,-111.9028,-76.06921,0.001067912,-0.1257102,0.09433498,0,0.3,0,0,0,0
638225081895292970,-33.92635,78.57414,67.10004,119.3958,-38.33182,-118.5045,43.25609,-0.8883717,-2.848366,-128.7588,-7.349115,26.08149,0,0,0,-83.30415,102.1677,-44.50338,86.82758,-111.9028,-76.06921,0.001067912,-0.1257102,0.09433498,0,0.3,0,0,0,0
638225081895622863,-34.8923,77.96631,64.0649,120.1283,-40.96865,-141.5767,43.25609,-0.8883717,-2.848366,-128.7588,-7.349115,26.00825,0,0,0,-84.50228,95.44865,-47.18414,86.82758,-111.9028,-76.06921,0.001067912,-0.1257102,0.09433498,0,0.3,0,0,0,0
638225081895962759,-35.2457,77.73253,63.15435,120.1283,-41.84759,-142.0894,43.25609,-0.8883717,-2.848366,-128.7588,-7.349115,26.08149,0,0,0,-85.0114,93.43581,-48.04251,86.82758,-111.9028,-76.06921,0.001067912,-0.1257102,0.09433498,0,0.3,0,0,0,0
638225081896292654,-35.31638,77.80266,61.91695,120.8607,-42.36031,-142.1627,43.25609,-0.8883717,-2.848366,-128.7588,-7.422361,26.00825,0,0,0,-84.29971,90.91508,-49.3614,86.82758,-111.9028,-76.06921,0.001067912,-0.1257102,0.09433498,0,0.3,0,0,0,0
638225081896642539,-35.31638,78.50401,60.93637,120.934,-41.77435,-142.2359,43.25609,-0.8883717,-2.848366,-128.7588,-7.349115,26.00825,0,0,0,-82.74519,89.24596,-51.5556,86.82758,-111.9028,-76.06921,0.001067912,-0.1257102,0.09433498,0,0.3,0,0,0,0
638225081896992427,-35.08078,80.18723,59.83904,120.348,-40.60242,-142.2359,43.25609,-0.8883717,-2.848366,-128.7588,-7.349115,26.00825,0,0,0,-79.32632,87.74992,-55.39955,86.82758,-111.9028,-76.06921,0.001067912,-0.1257102,0.09433498,0,0.3,0,0,0,0
638225081897322322,-34.96298,81.26263,59.18532,120.055,-39.94322,-142.2359,43.25609,-0.8883717,-2.848366,-128.6855,-7.349115,26.00825,0,0,0,-77.23608,86.84222,-57.89362,86.82758,-111.9028,-76.06921,0.001067912,-0.1257102,0.09433498,0,0.3,0,0,0,0
638225081897662213,-34.58602,84.6291,57.50431,119.4691,-38.84454,-142.2359,43.25609,-0.8883717,-2.848366,-128.7588,-7.349115,26.00825,0,0,0,-70.92901,84.47411,-65.47887,86.82758,-111.9028,-76.06921,0.001067912,-0.1257102,0.09433498,0,0.3,0,0,0,0
638225081897992111,-34.27974,88.55663,56.12683,118.8099,-38.6248,-142.0894,43.25609,-0.8883717,-2.848366,-128.7588,-7.349115,26.00825,0,0,0,-64.25141,82.33421,-74.08939,86.82758,-111.9028,-76.06921,0.001067912,-0.1257102,0.09433498,0,0.3,0,0,0,0
638225081898331999,-34.25618,90.68405,55.35637,118.2239,-38.91778,-140.3315,43.25609,-0.8883717,-2.848366,-128.7588,-7.349115,26.00825,0,0,0,-60.85759,80.88496,-78.98939,86.82758,-111.9028,-76.06921,0.001067912,-0.1257102,0.09433498,0,0.3,0,0,0,0
638225081898671892,-34.25618,95.31293,53.37185,115.7336,-40.16295,-124.9501,43.25609,-0.8883717,-2.848366,-128.7588,-7.349115,26.00825,0,0,0,-53.28865,76.56792,-90.10329,86.82758,-111.9028,-76.06921,0.001067912,-0.1257102,0.09433498,0,0.3,0,0,0,0
638225081899121747,-34.25618,99.94183,51.34064,111.1191,-42.43355,-111.1067,43.25609,-0.8883717,-2.848366,-128.7588,-7.349115,26.00825,0,0,0,-45.65459,71.39529,-101.3128,86.82758,-111.9028,-76.06921,0.001067912,-0.1257102,0.09433498,0,0.3,0,0,0,0
638225081899461638,-34.16194,101.6484,55.09955,112.8038,-44.41117,-93.45463,43.25609,-0.8883717,-2.848366,-128.7588,-7.349115,26.00825,0,0,0,-46.29427,77.65714,-100.1326,86.82758,-111.9028,-76.06921,0.001067912,-0.1257102,0.09433498,0,0.3,0,0,0,0
638225081899811527,-33.97346,101.625,55.58984,116.0266,-44.41117,-77.78016,43.25609,-0.8883717,-2.848366,-128.7588,-7.349115,26.00825,0,0,0,-46.46198,78.60677,-99.39841,86.82758,-111.9028,-76.06921,0.001067912,-0.1257102,0.09433498,0,0.3,0,0,0,0
638225081900141420,-33.97346,101.6718,55.56649,114.9279,-44.55766,-72.06703,43.25609,-0.8883717,-2.848366,-128.7588,-7.349115,26.00825,0,0,0,-46.38526,78.53997,-99.51228,86.82758,-111.9028,-76.06921,0.001067912,-0.1257102,0.09433498,0,0.3,0,0,0,0
638225081900481312,-33.97346,101.6484,55.63654,112.1446,-45.21687,-61.9592,43.25609,-0.8883717,-2.848366,-128.7588,-7.349115,26.00825,0,0,0,-46.4665,78.68547,-99.39171,86.82758,-111.9028,-76.06921,0.001067912,-0.1257102,0.09433498,0,0.3,0,0,0,0
638225081900831198,-33.97346,101.6718,55.63654,107.6766,-46.02256,-49.87375,43.25609,-0.8883717,-2.848366,-128.7588,-7.349115,26.00825,0,0,0,-46.43673,78.67448,-99.4359,86.82758,-111.9028,-76.06921,0.001067912,-0.1257102,0.09433498,0,0.3,0,0,0,0
638225081901171094,-33.97346,101.6718,55.63654,103.9411,-46.9015,-36.83611,43.25609,-0.8883717,-2.848366,-128.7588,-7.422361,26.00825,0,0,0,-46.43673,78.67448,-99.4359,86.82758,-111.9028,-76.06921,0.001067912,-0.1257102,0.09433498,0,0.3,0,0,0,0
638225081901510984,-33.97346,101.6718,55.63654,101.8902,-47.48747,-30.02431,43.25609,-0.8883717,-2.848366,-128.7588,-7.422361,26.00825,0,0,0,-46.43673,78.67448,-99.4359,86.82758,-111.9028,-76.06921,0.001067912,-0.1257102,0.09433498,0,0.3,0,0,0,0
638225081901850878,-33.97346,101.6718,55.61319,97.34904,-48.65939,-18.0121,43.25609,-0.8883717,-2.848366,-128.7588,-7.422361,26.08149,0,0,0,-46.41958,78.62963,-99.46134,86.82758,-111.9028,-76.06921,0.001067912,-0.1257102,0.09433498,0,0.3,0,0,0,0
638225081902190766,-33.97346,101.6718,55.61319,91.70916,-49.90456,-5.706912,43.25609,-0.8883717,-2.848366,-128.7588,-7.422361,26.08149,0,0,0,-46.41958,78.62963,-99.46134,86.82758,-111.9028,-76.06921,0.001067912,-0.1257102,0.09433498,0,0.3,0,0,0,0
638225081902530654,-33.97346,101.6718,55.61319,88.26664,-50.56377,1.910586,43.25609,-0.8883717,-2.848366,-128.7588,-7.422361,26.00825,0,0,0,-46.41958,78.62963,-99.46134,86.82758,-111.9028,-76.06921,0.001067912,-0.1257102,0.09433498,0,0.3,0,0,0,0
638225081902870550,-33.97346,101.6484,55.61319,78.45178,-51.66244,21.76003,43.25609,-0.8883717,-2.848366,-128.7588,-7.349115,26.00825,0,0,0,-46.44936,78.64063,-99.41715,86.82758,-111.9028,-76.06921,0.001067912,-0.1257102,0.09433498,0,0.3,0,0,0,0
638225081903210439,-33.97346,101.5783,55.63654,66.65932,-51.88218,43.73357,43.25609,-0.8883717,-2.848366,-128.7588,-7.422361,26.00825,0,0,0,-46.55585,78.71833,-99.25911,86.82758,-111.9028,-76.06921,0.001067912,-0.1257102,0.09433498,0,0.3,0,0,0,0
638225081903630305,-33.97346,100.7133,55.68323,53.9879,-50.56377,66.51283,43.25609,-0.8883717,-2.848366,-128.7588,-7.422361,26.00825,0,0,0,-47.69386,79.19723,-97.57025,86.82758,-111.9028,-76.06921,0.001067912,-0.1257102,0.09433498,0,0.3,0,0,0,0
638225081903960200,-33.97346,100.2224,55.75327,50.32565,-49.83131,72.8119,43.25609,-0.8883717,-2.848366,-128.7588,-7.422361,26.00825,0,0,0,-48.37305,79.53951,-96.56231,86.82758,-111.9028,-76.06921,0.001067912,-0.1257102,0.09433498,0,0.3,0,0,0,0
638225081904300177,-33.97346,98.79629,55.89336,41.90245,-47.92694,87.82717,43.25609,-0.8883717,-2.848366,-128.7588,-7.422361,26.00825,0,0,0,-50.30457,80.35756,-93.69586,86.82758,-111.9028,-76.06921,0.001067912,-0.1257102,0.09433498,0,0.3,0,0,0,0
638225081904639985,-33.97346,97.69751,56.08013,34.13846,-45.65634,103.2087,43.25609,-0.8883717,-2.848366,-128.7588,-7.422361,26.00825,0,0,0,-51.85468,81.0847,-91.39542,86.82758,-111.9028,-76.06921,0.001067912,-0.1257102,0.09433498,0,0.3,0,0,0,0
