zeyangz2/DNN_classification_different_people_hand/data_by_names/Srikar/srikar_right_18.csv
Timestamp,Therapist joint angle 0,Therapist joint angle 1,Therapist joint angle 2,Therapist joint angle 3,Therapist joint angle 4,Therapist joint angle 5,Patient joint angle 0,Patient joint angle 1,Patient joint angle 2,Patient joint angle 3,Patient joint angle 4,Patient joint angle 5,Virtual joint angle 0,Virtual joint angle 1,Virtual joint angle 2,Therapist position x,Therapist position y,Therapist position z,Patient position x,Patient position y,Patient position z,Virtual position x,Virtual position y,Virtual position z,Assistive Force, Obstacle Force Magnitude, Therapist Constant Force, Patient Constant Force, Recovery Factor, Assistance Level
638225075937348173,0,0,0,0,0,0,0,0,0,0,0,0,0,0,0,0,0,0,0,0,0,0,0,0,0,0.3,0,0,0,0
638225075937418144,-4.924032,-0.9818845,-1.120669,36.92178,-22.36438,-8.416983,0,-0.8883717,-10.62301,-5.706912,-0.61056,50.61862,0,0,0,-11.22053,-112.2596,-38.1101,0,-109.7821,-59.59857,0.001067912,-0.1257102,0.09433498,0,0.3,0,0,0,0
638225075937718066,-4.924032,-0.9818845,-1.120669,36.92178,-22.21789,-8.563474,0,-0.8883717,-10.62301,-5.780157,-0.61056,50.54538,0,0,0,-11.22053,-112.2596,-38.1101,0,-109.7821,-59.59857,0.001067912,-0.1257102,0.09433498,0,0.3,0,0,0,0
638225075938048079,-4.924032,-0.9818845,-1.144016,36.92178,-22.07139,-8.783209,0,-0.8883717,-10.62301,-5.706912,-0.6838052,50.54538,0,0,0,-11.21587,-112.2585,-38.16423,0,-109.7821,-59.59857,0.001067912,-0.1257102,0.09433498,0,0.3,0,0,0,0
638225075938397840,-4.900472,-0.9818845,-1.237405,36.92178,-21.85166,-8.856454,0,-0.8883717,-10.62301,-5.706912,-0.61056,50.61862,0,0,0,-11.14377,-112.254,-38.37614,0,-109.7821,-59.59857,0.001067912,-0.1257102,0.09433498,0,0.3,0,0,0,0
638225075938737739,-4.876912,-0.9818845,-1.330794,36.92178,-21.77841,-8.929699,0,-0.8883717,-10.62301,-5.706912,-0.6838052,50.61862,0,0,0,-11.07185,-112.2492,-38.58808,0,-109.7821,-59.59857,0.001067912,-0.1257102,0.09433498,0,0.3,0,0,0,0
638225075939067799,-4.829792,-0.9818845,-1.354141,36.92178,-21.63192,-8.929699,0,-0.8883717,-10.62301,-5.706912,-0.6838052,50.61862,0,0,0,-10.96056,-112.2479,-38.63315,0,-109.7821,-59.59857,0.001067912,-0.1257102,0.09433498,0,0.3,0,0,0,0
638225075939407516,-4.829792,-0.9818845,-1.354141,36.84853,-21.63192,-9.002944,0,-0.8883717,-10.62301,-5.706912,-0.6838052,50.61862,0,0,0,-10.96056,-112.2479,-38.63315,0,-109.7821,-59.59857,0.001067912,-0.1257102,0.09433498,0,0.3,0,0,0,0
638225075939757406,-4.829792,-0.9818845,-1.354141,36.70204,-21.77841,-9.002944,0,-0.8883717,-10.62301,-5.706912,-0.61056,50.61862,0,0,0,-10.96056,-112.2479,-38.63315,0,-109.7821,-59.59857,0.001067912,-0.1257102,0.09433498,0,0.3,0,0,0,0
638225075940097883,-4.829792,-0.9818845,-1.354141,36.33582,-22.14464,-8.856454,0,-0.8883717,-10.62301,-5.780157,-0.61056,50.61862,0,0,0,-10.96056,-112.2479,-38.63315,0,-109.7821,-59.59857,0.001067912,-0.1257102,0.09433498,0,0.3,0,0,0,0
638225075940527761,-4.829792,-0.9818845,-1.354141,35.45687,-22.80385,-8.783209,0,-0.8883717,-10.62301,-5.706912,-0.61056,50.61862,0,0,0,-10.96056,-112.2479,-38.63315,0,-109.7821,-59.59857,0.001067912,-0.1257102,0.09433498,0,0.3,0,0,0,0
638225075940867645,-4.829792,-0.9818845,-1.354141,34.2117,-23.5363,-8.709964,0,-0.8883717,-10.62301,-5.706912,-0.61056,50.61862,0,0,0,-10.96056,-112.2479,-38.63315,0,-109.7821,-59.59857,0.001067912,-0.1257102,0.09433498,0,0.3,0,0,0.00091423,0
638225075941207583,-4.806232,-0.9818845,-1.354141,32.30733,-24.70822,-8.709964,0,-0.8883717,-10.62301,-5.706912,-0.61056,50.61862,0,0,0,-10.90722,-112.2479,-38.62865,0,-109.7821,-59.59857,0.001067912,-0.1257102,0.09433498,0,0.3,0,0,0.001737164,0
638225075941547429,-4.782672,-0.9818845,-1.354141,31.2819,-25.29418,-8.563474,0,-0.8883717,-10.62301,-5.706912,-0.61056,50.61862,0,0,0,-10.85387,-112.2479,-38.62418,0,-109.7821,-59.59857,0.001067912,-0.1257102,0.09433498,0,0.3,0,0,0.002150816,0
638225075941887449,-4.735552,-0.9818845,-1.354141,28.35209,-26.4661,-7.391551,0,-0.8883717,-10.62301,-5.706912,-0.6838052,50.61862,0,0,0,-10.74718,-112.2479,-38.6153,0,-109.7821,-59.59857,0.001067912,-0.1257102,0.09433498,0,0.3,0,0,0.003016022,0
638225075942337175,-4.641313,-0.9818845,-1.354141,23.81089,-27.63803,-3.509557,0,-0.8883717,-10.62301,-5.706912,-0.6838052,50.61862,0,0,0,-10.53378,-112.2479,-38.5978,0,-109.7821,-59.59857,0.001067912,-0.1257102,0.09433498,0,0.3,0,0,0.003941614,0
638225075942677070,-4.452833,-0.9818845,-1.330794,18.83022,-28.22399,0.4456824,0,-0.8883717,-10.62301,-5.706912,-0.61056,50.61862,0,0,0,-10.11111,-112.2492,-38.50969,0,-109.7821,-59.59857,0.001067912,-0.1257102,0.09433498,0,0.3,0,0,0.005041137,0
638225075943007089,-4.217233,-0.9818845,-1.330794,13.41008,-28.59021,4.327676,0,-0.8883717,-10.62301,-5.706912,-0.61056,50.61862,0,0,0,-9.577126,-112.2492,-38.46921,0,-109.7821,-59.59857,0.001067912,-0.1257102,0.09433498,0,0.3,0,0,0.006452052,0
638225075943356847,-4.122993,-0.9818845,-1.330794,11.57895,-28.66346,4.693902,0,-0.8883717,-10.62301,-5.780157,-0.61056,50.61862,0,0,0,-9.363485,-112.2492,-38.45363,0,-109.7821,-59.59857,0.001067912,-0.1257102,0.09433498,0,0.3,0,0,0.00724948,0
638225075943696734,-4.099433,-0.9818845,-1.237405,8.06318,-28.95644,-4.315253,0,-0.8883717,-10.62301,-5.706912,-0.6838052,50.61862,0,0,0,-9.325605,-112.254,-38.23305,0,-109.7821,-59.59857,0.001067912,-0.1257102,0.09433498,0,0.3,0,0,0.008358061,0
638225075944036631,-4.099433,-0.9818845,-1.237405,5.060128,-29.02968,-29.43835,0,-0.8883717,-10.62301,-5.706912,-0.61056,50.61862,0,0,0,-9.325605,-112.254,-38.23305,0,-109.7821,-59.59857,0.001067912,-0.1257102,0.09433498,0,0.3,0,0,0.009218499,0
638225075944366518,-4.099433,-0.9818845,-1.214058,2.789528,-29.02968,-64.88901,0,-0.8883717,-10.62301,-5.706912,-0.61056,50.61862,0,0,0,-9.329489,-112.2552,-38.17886,0,-109.7821,-59.59857,0.001067912,-0.1257102,0.09433498,0,0.3,0,0,0.009870919,0
638225075944706412,-4.099433,-0.9818845,-1.237405,1.837341,-29.02968,-89.27965,0,-0.8883717,-10.62301,-5.706912,-0.61056,50.61862,0,0,0,-9.325605,-112.254,-38.23305,0,-109.7821,-59.59857,0.001067912,-0.1257102,0.09433498,0,0.3,0,0,0.01022736,0
638225075945056303,-4.099433,-0.9818845,-1.237405,0.299192,-29.17617,-138.4272,0,-0.8883717,-10.62301,-5.706912,-0.6838052,50.61862,0,0,0,-9.325605,-112.254,-38.23305,0,-109.7821,-59.59857,0.001067912,-0.1257102,0.09433498,0,0.3,0,0,0.01088685,0
638225075945396216,-4.099433,-0.9818845,-1.237405,-0.6529952,-29.24942,-142.0162,0,-0.8883717,-10.62301,-5.706912,-0.61056,50.61862,0,0,0,-9.325605,-112.254,-38.23305,0,-109.7821,-59.59857,0.001067912,-0.1257102,0.09433498,0,0.3,0,0,0.01148342,0
638225075945736084,-4.099433,-0.9818845,-1.237405,-1.238957,-29.39591,-141.9429,0,-0.8883717,-10.62301,-5.706912,-0.6838052,50.61862,0,0,0,-9.325605,-112.254,-38.23305,0,-109.7821,-59.59857,0.001067912,-0.1257102,0.09433498,0,0.3,0,0,0.01176096,0
638225075946065987,-4.099433,-0.9818845,-1.237405,-2.85035,-29.76214,-126.0487,0,-0.8883717,-10.62301,-5.706912,-0.61056,50.61862,0,0,0,-9.325605,-112.254,-38.23305,0,-109.7821,-59.59857,0.001067912,-0.1257102,0.09433498,0,0.3,0,0,0.01227894,0
638225075946405874,-4.099433,-0.9818845,-1.237405,-4.534989,-30.56783,-98.80152,0,-0.8883717,-10.62301,-5.706912,-0.61056,50.61862,0,0,0,-9.325605,-112.254,-38.23305,0,-109.7821,-59.59857,0.001067912,-0.1257102,0.09433498,0,0.3,0,0,0.0127529,0
638225075946755756,-4.099433,-0.9818845,-1.237405,-5.267441,-31.22704,-83.93275,0,-0.8883717,-10.62301,-5.706912,-0.61056,50.61862,0,0,0,-9.325605,-112.254,-38.23305,0,-109.7821,-59.59857,0.001067912,-0.1257102,0.09433498,0,0.3,0,0,0.01297506,0
638225075947095657,-4.099433,-0.9818845,-1.237405,-6.146383,-32.47221,-54.12197,0,-0.8883717,-10.62301,-5.706912,-0.61056,50.61862,0,0,0,-9.325605,-112.254,-38.23305,0,-109.7821,-59.59857,0.001067912,-0.1257102,0.09433498,0,0.3,0,0,0.01339268,0
638225075947435541,-4.099433,-0.9818845,-1.237405,-6.512609,-33.71738,-28.11993,0,-0.8883717,-10.62301,-5.706912,-0.6838052,50.61862,0,0,0,-9.325605,-112.254,-38.23305,0,-109.7821,-59.59857,0.001067912,-0.1257102,0.09433498,0,0.3,0,0,0.01377821,0
638225075947775437,-4.099433,-0.9818845,-1.214058,-6.146383,-34.74281,-10.02838,0,-0.8883717,-10.62301,-5.706912,-0.61056,50.61862,0,0,0,-9.329489,-112.2552,-38.17886,0,-109.7821,-59.59857,0.001067912,-0.1257102,0.09433498,0,0.3,0,0,0.0140958,0
638225075948115332,-4.122993,-0.9818845,-1.214058,-5.780157,-35.03579,-2.923595,0,-0.8883717,-10.62301,-5.706912,-0.61056,50.61862,0,0,0,-9.383015,-112.2552,-38.18271,0,-109.7821,-59.59857,0.001067912,-0.1257102,0.09433498,0,0.3,0,0,0.01421307,0
638225075948455221,-4.122993,-0.9818845,-1.144016,-5.780157,-35.03579,-4.608234,0,-0.8883717,-10.62301,-5.706912,-0.6838052,50.54538,0,0,0,-9.394732,-112.2585,-38.02015,0,-109.7821,-59.59857,0.001067912,-0.1257102,0.09433498,0,0.3,0,0,0.0142861,0
638225075948795112,-4.122993,-0.9818845,-1.144016,-6.512609,-34.0836,-28.33967,0,-0.8883717,-10.62301,-5.706912,-0.6838052,50.61862,0,0,0,-9.394732,-112.2585,-38.02015,0,-109.7821,-59.59857,0.001067912,-0.1257102,0.09433498,0,0.3,0,0,0.01428204,0
638225075949133863,-4.122993,-0.9818845,-1.097321,-6.878834,-33.49764,-46.79745,0,-0.8883717,-10.62301,-5.706912,-0.61056,50.61862,0,0,0,-9.402544,-112.2607,-37.91177,0,-109.7821,-59.59857,0.001067912,-0.1257102,0.09433498,0,0.3,0,0,0.01420918,0
638225075949553721,-4.122993,-0.9818845,-1.02728,-7.464796,-32.47221,-87.88799,0,-0.8883717,-10.62301,-5.706912,-0.6838052,50.61862,0,0,0,-9.414263,-112.2637,-37.74921,0,-109.7821,-59.59857,0.001067912,-0.1257102,0.09433498,0,0.3,0,0,0.01386442,0
638225075949893611,-4.122993,-0.9818845,-1.02728,-8.050756,-31.30029,-122.3865,0,-0.8883717,-10.62301,-5.706912,-0.61056,50.61862,0,0,0,-9.414263,-112.2637,-37.74921,0,-109.7821,-59.59857,0.001067912,-0.1257102,0.09433498,0,0.3,0,0,0.01354127,0
638225075950233512,-4.122993,-0.9818845,-1.02728,-8.709964,-30.42134,-125.9022,0,-0.8883717,-10.62301,-5.706912,-0.61056,50.61862,0,0,0,-9.414263,-112.2637,-37.74921,0,-109.7821,-59.59857,0.001067912,-0.1257102,0.09433498,0,0.3,0,0,0.01323766,0
638225075950583412,-4.122993,-0.9818845,-1.02728,-9.002944,-30.71432,-103.6357,0,-0.8883717,-10.62301,-5.706912,-0.61056,50.61862,0,0,0,-9.414263,-112.2637,-37.74921,0,-109.7821,-59.59857,0.001067912,-0.1257102,0.09433498,0,0.3,0,0,0.01295194,0
638225075950923294,-4.122993,-0.9818845,-1.050627,-8.856454,-31.30029,-91.03754,0,-0.8883717,-10.62301,-5.706912,-0.6838052,50.61862,0,0,0,-9.410357,-112.2627,-37.8034,0,-109.7821,-59.59857,0.001067912,-0.1257102,0.09433498,0,0.3,0,0,0.01284618,0
638225075951263328,-4.146553,-0.9818845,-1.330794,-8.709964,-32.69194,-65.40173,0,-0.8883717,-10.62301,-5.706912,-0.6838052,50.61862,0,0,0,-9.416898,-112.2492,-38.45749,0,-109.7821,-59.59857,0.001067912,-0.1257102,0.09433498,0,0.3,0,0,0.0132321,0
638225075951603073,-4.146553,-0.9818845,-1.681003,-9.002944,-33.64413,-44.16063,0,-0.8883717,-10.62301,-5.706912,-0.61056,50.61862,0,0,0,-9.357982,-112.2277,-39.27015,0,-109.7821,-59.59857,0.001067912,-0.1257102,0.09433498,0,0.3,0,0,0.01434132,0
638225075951942970,-4.146553,-0.9818845,-1.914476,-9.442415,-33.93711,-34.85849,0,-0.8883717,-10.62301,-5.706912,-0.6838052,50.61862,0,0,0,-9.31871,-112.2107,-39.81184,0,-109.7821,-59.59857,0.001067912,-0.1257102,0.09433498,0,0.3,0,0,0.01527287,0
638225075952292843,-4.146553,-0.9585064,-2.591547,-10.3946,-34.15685,-19.62349,0,-0.8883717,-10.62301,-5.706912,-0.61056,50.61862,0,0,0,-9.204922,-112.0943,-41.38139,0,-109.7821,-59.59857,0.001067912,-0.1257102,0.09433498,0,0.3,0,0,0.01822485,0
638225075952632736,-4.146553,-0.9585064,-3.268617,-11.93275,-33.86386,-8.563474,0,-0.8883717,-10.62301,-5.706912,-0.61056,50.61862,0,0,0,-9.091128,-112.0138,-42.95101,0,-109.7821,-59.59857,0.001067912,-0.1257102,0.09433498,0,0.3,0,0,0.02262723,0
638225075952982634,-4.146553,-0.9585064,-3.432048,-14.49633,-32.83843,0.1527017,0,-0.8883717,-10.62301,-5.706912,-0.61056,50.61862,0,0,0,-9.063671,-111.9916,-43.32974,0,-109.7821,-59.59857,0.001067912,-0.1257102,0.09433498,0,0.3,0,0,0.02750461,0
638225075953322524,-4.146553,-0.9818845,-3.432048,-16.32746,-32.10598,3.595225,0,-0.8883717,-10.62301,-5.706912,-0.6838052,50.61862,0,0,0,-9.063604,-112.046,-43.33065,0,-109.7821,-59.59857,0.001067912,-0.1257102,0.09433498,0,0.3,0,0,0.02986273,0
638225075953662417,-4.146553,-0.9818845,-3.432048,-20.13621,-30.78757,9.161857,0,-0.8883717,-10.62301,-5.780157,-0.61056,50.61862,0,0,0,-9.063604,-112.046,-43.33065,0,-109.7821,-59.59857,0.001067912,-0.1257102,0.09433498,0,0.3,0,0,0.03440845,0
638225075954092276,-4.122993,-1.005263,-3.081839,-25.70284,-29.68889,16.0469,0,-0.8883717,-10.62301,-5.706912,-0.61056,50.61862,0,0,0,-9.070636,-112.1467,-42.51623,0,-109.7821,-59.59857,0.001067912,-0.1257102,0.09433498,0,0.3,0,0,0.03838463,0
638225075954422175,-4.028753,-1.005263,-2.264685,-28.85239,-29.98187,18.68373,0,-0.8883717,-10.62301,-5.706912,-0.6838052,50.61862,0,0,0,-8.997124,-112.2354,-40.60642,0,-109.7821,-59.59857,0.001067912,-0.1257102,0.09433498,0,0.3,0,0,0.04080107,0
638225075954772055,-3.910954,-1.005263,-1.400836,-33.75981,-31.44678,21.17406,0,-0.8883717,-10.62301,-5.706912,-0.61056,50.61862,0,0,0,-8.871523,-112.2997,-38.5834,0,-109.7821,-59.59857,0.001067912,-0.1257102,0.09433498,0,0.3,0,0,0.04114274,0
638225075955101965,-3.863834,-1.005263,-1.307447,-36.10366,-32.10598,22.56572,0,-0.8883717,-10.62301,-5.706912,-0.6838052,50.61862,0,0,0,-8.779443,-112.3048,-38.35935,0,-109.7821,-59.59857,0.001067912,-0.1257102,0.09433498,0,0.3,0,0,0.04109498,0
638225075955441846,-3.863834,-0.9818845,-1.44753,-39.61942,-33.64413,25.935,0,-0.8883717,-10.62301,-5.706912,-0.61056,50.61862,0,0,0,-8.757543,-112.2426,-38.6836,0,-109.7821,-59.59857,0.001067912,-0.1257102,0.09433498,0,0.3,0,0,0.04126263,0
638225075955791734,-3.863834,-0.9818845,-1.774392,-41.96327,-35.47526,28.35209,0,-0.8883717,-10.62301,-5.706912,-0.61056,50.61862,0,0,0,-8.706301,-112.2212,-39.44231,0,-109.7821,-59.59857,0.001067912,-0.1257102,0.09433498,0,0.3,0,0,0.04183147,0
638225075956121634,-3.863834,-0.9585064,-2.054559,-42.62248,-36.3542,29.96349,0,-0.8883717,-10.62301,-5.706912,-0.61056,50.61862,0,0,0,-8.662448,-112.145,-40.0916,0,-109.7821,-59.59857,0.001067912,-0.1257102,0.09433498,0,0.3,0,0,0.04250089,0
638225075956461511,-3.863834,-0.6312115,-2.848366,-43.28168,-37.89235,35.74985,0,-0.8883717,-10.62301,-5.706912,-0.61056,50.61862,0,0,0,-8.53878,-111.3043,-41.92266,0,-109.7821,-59.59857,0.001067912,-0.1257102,0.09433498,0,0.3,0,0,0.04494816,0
638225075956801543,-3.840273,-0.4208077,-3.011797,-43.13519,-38.77129,42.04893,0,-0.8883717,-10.62301,-5.706912,-0.61056,50.61862,0,0,0,-8.461652,-110.7952,-42.29369,0,-109.7821,-59.59857,0.001067912,-0.1257102,0.09433498,0,0.3,0,0,0.04800248,0
638225075957141308,-3.840273,-0.2805384,-2.98845,-42.9887,-39.06427,46.3704,0,-0.8883717,-10.62301,-5.706912,-0.61056,50.61862,0,0,0,-8.46542,-110.4716,-42.23756,0,-109.7821,-59.59857,0.001067912,-0.1257102,0.09433498,0,0.3,0,0,0.04947108,0
638225075957471209,-3.840273,-0.04675641,-2.754977,-41.74353,-39.35725,60.72646,0,-0.8883717,-10.62301,-5.706912,-0.61056,50.61862,0,0,0,-8.501871,-109.9547,-41.69453,0,-109.7821,-59.59857,0.001067912,-0.1257102,0.09433498,0,0.3,0,0,0.05208195,0
638225075957821084,-3.887394,0.6779679,-1.634309,-38.96022,-39.4305,99.61964,0,-0.8883717,-10.62301,-5.706912,-0.6838052,50.61862,0,0,0,-8.782095,-108.3679,-39.11054,0,-109.7821,-59.59857,0.001067912,-0.1257102,0.09433498,0,0.3,0,0,0.05303814,0
638225075958160976,-4.075873,1.122154,-1.144016,-37.42207,-39.50375,136.169,0,-0.8883717,-10.62301,-5.706912,-0.6838052,50.61862,0,0,0,-9.28712,-107.3619,-38.01845,0,-109.7821,-59.59857,0.001067912,-0.1257102,0.09433498,0,0.3,0,0,0.05268654,0
638225075958600977,-4.193673,1.706609,-0.2801672,-29.51159,-38.11209,144.8852,0,-0.8883717,-10.62301,-5.706912,-0.61056,50.61862,0,0,0,-9.699618,-106.027,-36.06634,0,-109.7821,-59.59857,0.001067912,-0.1257102,0.09433498,0,0.3,0,0,0.0500972,0
638225075958940746,-4.264353,2.127417,-0.3268617,-27.31424,-37.74586,144.8119,0,-0.8883717,-10.62301,-5.780157,-0.6838052,50.61862,0,0,0,-9.852279,-105.0476,-36.21945,0,-109.7821,-59.59857,0.001067912,-0.1257102,0.09433498,0,0.3,0,0,0.04894833,0
638225075959280749,-4.523513,3.763891,-0.3035145,-20.79542,-37.81911,144.9584,0,-0.8883717,-10.62301,-5.706912,-0.61056,50.61862,0,0,0,-10.43868,-101.2444,-36.40631,0,-109.7821,-59.59857,0.001067912,-0.1257102,0.09433498,0,0.3,0,0,0.04618991,0
638225075959630513,-4.947592,5.166583,-0.2801672,-15.52176,-38.55156,144.8852,0,-0.8883717,-10.62301,-5.706912,-0.61056,50.61862,0,0,0,-11.39774,-97.99001,-36.68626,0,-109.7821,-59.59857,0.001067912,-0.1257102,0.09433498,0,0.3,0,0,0.04253736,0
638225075959970398,-5.93711,5.914686,-0.5836816,-13.54414,-39.35725,142.8343,0,-0.8883717,-10.62301,-5.706912,-0.61056,50.61862,0,0,0,-13.57935,-96.2517,-37.77252,0,-109.7821,-59.59857,0.001067912,-0.1257102,0.09433498,0,0.3,0,0,0.03827951,0
638225075960310295,-6.431869,5.891307,-0.700418,-13.98362,-39.65023,135.0703,0,-0.8883717,-10.62301,-5.706912,-0.61056,50.61862,0,0,0,-14.67659,-96.30277,-38.15905,0,-109.7821,-59.59857,0.001067912,-0.1257102,0.09433498,0,0.3,0,0,0.03605861,0
638225075960650187,-6.596789,5.306852,-1.681003,-16.98667,-40.52918,112.7305,0,-0.8883717,-10.62301,-5.706912,-0.6838052,50.61862,0,0,0,-14.80439,-97.60912,-40.33659,0,-109.7821,-59.59857,0.001067912,-0.1257102,0.09433498,0,0.3,0,0,0.03268408,0
638225075961000083,-5.88999,4.067808,-3.969035,-18.8178,-40.74891,81.30835,0,-0.8883717,-10.62301,-5.706912,-0.61056,50.61862,0,0,0,-12.70255,-100.2207,-45.21955,0,-109.7821,-59.59857,0.001067912,-0.1257102,0.09433498,0,0.3,0,0,0.03286858,0
638225075961330104,-5.159632,3.506731,-5.089704,-18.67131,-40.30944,59.55453,0,-0.8883717,-10.62301,-5.706912,-0.6838052,50.61862,0,0,0,-10.90593,-101.3177,-47.57125,0,-109.7821,-59.59857,0.001067912,-0.1257102,0.09433498,0,0.3,0,0,0.03455775,0
638225075961669855,-3.015675,2.805384,-7.00418,-15.96124,-38.77129,-18.59806,0,-0.8883717,-10.62301,-5.706912,-0.6838052,50.61862,0,0,0,-6.15155,-102.4782,-51.58267,0,-109.7821,-59.59857,0.001067912,-0.1257102,0.09433498,0,0.3,0,0,0.04080782,0
638225075962009759,-0.8952785,2.641737,-7.751292,-13.4709,-37.59937,-131.8351,0,-0.8883717,-10.62301,-5.706912,-0.6838052,50.61862,0,0,0,-1.800349,-102.6354,-53.14113,0,-109.7821,-59.59857,0.001067912,-0.1257102,0.09433498,0,0.3,0,0,0.04926616,0
638225075962349631,0.1177998,2.665115,-7.751292,-12.15249,-37.1599,-140.4048,0,-0.8883717,-10.62301,-5.706912,-0.6838052,50.61862,0,0,0,0.2368924,-102.581,-53.12983,0,-109.7821,-59.59857,0.001067912,-0.1257102,0.09433498,0,0.3,0,0,0.0536103,0
638225075962689522,0.7303588,2.47809,-8.101501,-8.416983,-37.89235,-141.6499,0,-0.8883717,-10.62301,-5.780157,-0.61056,50.61862,0,0,0,1.458652,-102.9035,-53.92664,0,-109.7821,-59.59857,0.001067912,-0.1257102,0.09433498,0,0.3,0,0,0.06237256,0
638225075963139385,0.5418791,1.8235,-8.498405,-4.022273,-39.21077,-141.7232,0,-0.8883717,-10.62301,-5.706912,-0.61056,50.61862,0,0,0,1.074135,-104.2925,-54.77932,0,-109.7821,-59.59857,0.001067912,-0.1257102,0.09433498,0,0.3,0,0,0.07173814,0
638225075963479269,0.4005193,0.9585064,-9.385601,-0.140279,-40.01646,-141.7964,0,-0.8883717,-10.62301,-5.706912,-0.61056,50.61862,0,0,0,0.7800145,-105.9841,-56.76784,0,-109.7821,-59.59857,0.001067912,-0.1257102,0.09433498,0,0.3,0,0,0.08236127,0
638225075963819170,0.4240793,0.5376987,-10.48292,2.569792,-39.65023,-141.7964,0,-0.8883717,-10.62301,-5.706912,-0.6838052,50.61862,0,0,0,0.8073726,-106.5229,-59.27089,0,-109.7821,-59.59857,0.001067912,-0.1257102,0.09433498,0,0.3,0,0,0.09387004,0
638225075964159066,0.4240793,0.5376987,-10.90317,3.66847,-39.06427,-141.7964,0,-0.8883717,-10.62301,-5.706912,-0.6838052,50.61862,0,0,0,0.8002589,-106.3414,-60.23196,0,-109.7821,-59.59857,0.001067912,-0.1257102,0.09433498,0,0.3,0,0,0.09947468,0
638225075964498953,0.4240793,0.5376987,-11.67363,5.279863,-37.30639,-127.2939,0,-0.8883717,-10.62301,-5.706912,-0.6838052,50.61862,0,0,0,0.7872437,-105.9904,-61.99038,0,-109.7821,-59.59857,0.001067912,-0.1257102,0.09433498,0,0.3,0,0,0.1099742,0
638225075964828836,0.4240793,0.5376987,-11.39347,7.037747,-35.18228,-103.123,0,-0.8883717,-10.62301,-5.706912,-0.6838052,50.61862,0,0,0,0.7919724,-106.1207,-61.3515,0,-109.7821,-59.59857,0.001067912,-0.1257102,0.09433498,0,0.3,0,0,0.1202412,0
638225075965168737,0.4005193,0.5376987,-11.23003,8.942122,-33.64413,-75.14333,0,-0.8883717,-10.62301,-5.706912,-0.61056,50.61862,0,0,0,0.7505819,-106.1954,-60.97821,0,-109.7821,-59.59857,0.001067912,-0.1257102,0.09433498,0,0.3,0,0,0.1304038,0
638225075965508628,0.4005193,0.5376987,-11.23003,9.894309,-32.6187,-59.17588,0,-0.8883717,-10.62301,-5.706912,-0.61056,50.61862,0,0,0,0.7505819,-106.1954,-60.97821,0,-109.7821,-59.59857,0.001067912,-0.1257102,0.09433498,0,0.3,0,0,0.135379,0
638225075965848520,0.3769594,0.5376987,-10.83313,11.72544,-30.78757,-26.80152,0,-0.8883717,-10.62301,-5.780157,-0.6838052,50.61862,0,0,0,0.7123959,-106.3721,-60.07125,0,-109.7821,-59.59857,0.001067912,-0.1257102,0.09433498,0,0.3,0,0,0.1452694,0
638225075966198420,0.3533994,0.7948589,-9.665768,13.84955,-29.90863,12.60438,0,-0.8883717,-10.62301,-5.706912,-0.61056,50.61862,0,0,0,0.6843189,-106.2571,-57.40446,0,-109.7821,-59.59857,0.001067912,-0.1257102,0.09433498,0,0.3,0,0,0.1547626,0
638225075966528305,0.2591596,0.9585064,-8.942002,14.80174,-29.83538,35.0174,0,-0.8883717,-10.62301,-5.706912,-0.6838052,50.61862,0,0,0,0.5093279,-106.1486,-55.74702,0,-109.7821,-59.59857,0.001067912,-0.1257102,0.09433498,0,0.3,0,0,0.1590051,0
638225075966860366,-0.02355996,1.122154,-7.77464,16.92585,-29.5424,117.4182,0,-0.8883717,-10.62301,-5.706912,-0.61056,50.61862,0,0,0,-0.04740516,-106.1627,-53.06478,0,-109.7821,-59.59857,0.001067912,-0.1257102,0.09433498,0,0.3,0,0,0.166388,0
638225075967210241,-0.09423985,1.309179,-7.027527,18.53724,-28.66346,144.5922,0,-0.8883717,-10.62301,-5.706912,-0.6838052,50.61862,0,0,0,-0.1924415,-105.9515,-51.34983,0,-109.7821,-59.59857,0.001067912,-0.1257102,0.09433498,0,0.3,0,0,0.1726421,0
638225075967650123,-0.04711992,1.355936,-6.140331,18.46399,-27.49154,144.8852,0,-0.8883717,-10.62301,-5.706912,-0.61056,50.61862,0,0,0,-0.09790564,-106.0795,-49.30103,0,-109.7821,-59.59857,0.001067912,-0.1257102,0.09433498,0,0.3,0,0,0.1777137,0
638225075967990004,-0.04711992,1.402692,-6.303762,17.87803,-27.05207,144.9584,0,-0.8883717,-10.62301,-5.706912,-0.61056,50.61862,0,0,0,-0.09759251,-105.9294,-49.68177,0,-109.7821,-59.59857,0.001067912,-0.1257102,0.09433498,0,0.3,0,0,0.1825186,0
638225075968339891,-0.04711992,1.42607,-6.513887,17.43856,-26.97882,144.8119,0,-0.8883717,-10.62301,-5.706912,-0.6838052,50.61862,0,0,0,-0.09719173,-105.8205,-50.16911,0,-109.7821,-59.59857,0.001067912,-0.1257102,0.09433498,0,0.3,0,0,0.1850275,0
638225075968679782,0.09423985,1.519583,-7.261,15.90041,-27.05207,132.8729,0,-0.8883717,-10.62301,-5.706912,-0.61056,50.61862,0,0,0,0.1915348,-105.3944,-51.90108,0,-109.7821,-59.59857,0.001067912,-0.1257102,0.09433498,0,0.3,0,0,0.1904654,0
638225075969019673,0.5183191,1.519583,-8.451711,13.19034,-27.34505,114.1222,0,-0.8883717,-10.62301,-5.706912,-0.6838052,50.61862,0,0,0,1.028594,-105.0156,-54.65077,0,-109.7821,-59.59857,0.001067912,-0.1257102,0.09433498,0,0.3,0,0,0.1967145,0
638225075969359565,0.7774788,1.519583,-8.942002,11.79868,-27.41829,105.2595,0,-0.8883717,-10.62301,-5.706912,-0.6838052,50.61862,0,0,0,1.527559,-104.843,-55.78447,0,-109.7821,-59.59857,0.001067912,-0.1257102,0.09433498,0,0.3,0,0,0.2000415,0
638225075969699454,1.413598,1.496205,-9.73581,8.50265,-27.49154,83.6522,0,-0.8883717,-10.62301,-5.780157,-0.61056,50.61862,0,0,0,2.732246,-104.5976,-57.62938,0,-109.7821,-59.59857,0.001067912,-0.1257102,0.09433498,0,0.3,0,0,0.2067078,0
638225075970039347,2.143956,1.496205,-10.17941,5.060128,-27.34505,56.99095,0,-0.8883717,-10.62301,-5.780157,-0.61056,50.61862,0,0,0,4.105319,-104.4191,-58.68936,0,-109.7821,-59.59857,0.001067912,-0.1257102,0.09433498,0,0.3,0,0,0.2129736,0
638225075970389235,3.133475,1.542961,-10.45957,2.130321,-26.97882,20.44161,0,-0.8883717,-10.62301,-5.706912,-0.61056,50.61862,0,0,0,5.963266,-104.1935,-59.42005,0,-109.7821,-59.59857,0.001067912,-0.1257102,0.09433498,0,0.3,0,0,0.2185167,0
638225075970719135,4.005194,1.56634,-10.94987,0.4456824,-26.61259,-12.44547,0,-0.8883717,-10.62301,-5.706912,-0.61056,50.61862,0,0,0,7.541393,-103.9272,-60.64336,0,-109.7821,-59.59857,0.001067912,-0.1257102,0.09433498,0,0.3,0,0,0.2207868,0
638225075971069018,4.924032,1.589718,-11.46351,-0.7262403,-25.95339,-47.09043,0,-0.8883717,-10.62301,-5.706912,-0.6838052,50.61862,0,0,0,9.166832,-103.6404,-61.94795,0,-109.7821,-59.59857,0.001067912,-0.1257102,0.09433498,0,0.3,0,0,0.2246921,0
638225075971408909,6.33763,1.589718,-12.11723,-1.019221,-24.85471,-80.63672,0,-0.8883717,-10.62301,-5.706912,-0.61056,50.61862,0,0,0,11.62451,-103.3296,-63.68674,0,-109.7821,-59.59857,0.001067912,-0.1257102,0.09433498,0,0.3,0,0,0.2272954,0
638225075971738794,7.020868,1.589718,-12.42074,-0.5065048,-24.26875,-86.56957,0,-0.8883717,-10.62301,-5.706912,-0.61056,50.61862,0,0,0,12.78737,-103.1794,-64.51788,0,-109.7821,-59.59857,0.001067912,-0.1257102,0.09433498,0,0.3,0,0,0.2280996,0
638225075972178654,8.151747,1.402692,-12.56083,3.009263,-22.14464,-70.30915,0,-0.8883717,-10.62301,-5.780157,-0.61056,50.61862,0,0,0,14.79061,-103.5441,-65.09433,0,-109.7821,-59.59857,0.001067912,-0.1257102,0.09433498,0,0.3,0,0,0.229377,0
638225075972508558,8.033947,1.285801,-12.37405,4.547412,-21.33894,-58.58992,0,-0.8883717,-10.62301,-5.706912,-0.61056,50.61862,0,0,0,14.6385,-103.9099,-64.63753,0,-109.7821,-59.59857,0.001067912,-0.1257102,0.09433498,0,0.3,0,0,0.2298338,0
638225075972848450,7.656987,1.262423,-11.76702,7.403974,-19.43457,-31.78219,0,-0.8883717,-10.62301,-5.706912,-0.61056,50.61862,0,0,0,14.14009,-104.2597,-63.17303,0,-109.7821,-59.59857,0.001067912,-0.1257102,0.09433498,0,0.3,0,0,0.2311402,0
638225075973188345,7.044428,1.262423,-11.04326,9.821064,-17.60344,-0.9459759,0,-0.8883717,-10.62301,-5.706912,-0.61056,50.61862,0,0,0,13.21734,-104.5928,-61.38912,0,-109.7821,-59.59857,0.001067912,-0.1257102,0.09433498,0,0.3,0,0,0.232894,0
638225075973528231,6.714589,1.285801,-10.6697,10.77325,-16.57801,14.72849,0,-0.8883717,-10.62301,-5.706912,-0.6838052,50.61862,0,0,0,12.70107,-104.7022,-60.46801,0,-109.7821,-59.59857,0.001067912,-0.1257102,0.09433498,0,0.3,0,0,0.2339715,0
638225075973868129,5.86643,1.449449,-10.06267,12.01842,-14.4539,47.46908,0,-0.8883717,-10.62301,-5.706912,-0.6838052,50.61862,0,0,0,11.24386,-104.5756,-58.91841,0,-109.7821,-59.59857,0.001067912,-0.1257102,0.09433498,0,0.3,0,0,0.2365251,0
638225075974218006,4.735552,1.870256,-9.47899,12.67763,-12.25654,87.60744,0,-0.8883717,-10.62301,-5.706912,-0.61056,50.61862,0,0,0,9.190078,-103.8272,-57.41191,0,-109.7821,-59.59857,0.001067912,-0.1257102,0.09433498,0,0.3,0,0,0.2396115,0
638225075974547912,4.264353,2.127417,-9.22217,12.67763,-11.23111,108.1161,0,-0.8883717,-10.62301,-5.706912,-0.61056,50.61862,0,0,0,8.319728,-103.3262,-56.77275,0,-109.7821,-59.59857,0.001067912,-0.1257102,0.09433498,0,0.3,0,0,0.2412487,0
638225075974897934,3.769594,2.407955,-8.895308,12.23815,-9.326735,142.3948,0,-0.8883717,-10.62301,-5.706912,-0.6838052,50.61862,0,0,0,7.403632,-102.7935,-55.98123,0,-109.7821,-59.59857,0.001067912,-0.1257102,0.09433498,0,0.3,0,0,0.2445108,0
638225075975267669,3.793154,2.407955,-8.661836,11.35921,-7.27587,144.8852,0,-0.8883717,-10.62301,-5.706912,-0.6838052,50.61862,0,0,0,7.485363,-102.8764,-55.44844,0,-109.7821,-59.59857,0.001067912,-0.1257102,0.09433498,0,0.3,0,0,0.2476562,0
638225075975607558,3.793154,2.33782,-8.521752,9.967555,-4.712289,144.8852,0,-0.8883717,-10.62301,-5.706912,-0.61056,50.61862,0,0,0,7.507137,-103.0882,-55.12003,0,-109.7821,-59.59857,0.001067912,-0.1257102,0.09433498,0,0.3,0,0,0.2506978,0
638225075975937468,3.793154,2.291064,-8.498405,9.381593,-2.954405,144.8852,0,-0.8883717,-10.62301,-5.780157,-0.61056,50.61862,0,0,0,7.510983,-103.205,-55.06202,0,-109.7821,-59.59857,0.001067912,-0.1257102,0.09433498,0,0.3,0,0,0.2522054,0
638225075976287352,3.793154,2.267686,-8.28828,9.015368,2.831963,144.8119,0,-0.8883717,-10.62301,-5.706912,-0.61056,50.61862,0,0,0,7.543132,-103.3308,-54.57712,0,-109.7821,-59.59857,0.001067912,-0.1257102,0.09433498,0,0.3,0,0,0.2551238,0
638225075976697218,3.793154,2.267686,-8.28828,9.674574,8.984557,144.8852,0,-0.8883717,-10.62301,-5.706912,-0.61056,50.54538,0,0,0,7.543132,-103.3308,-54.57712,0,-109.7821,-59.59857,0.001067912,-0.1257102,0.09433498,0,0.3,0,0,0.2579671,0
638225075977037120,3.793154,2.291064,-8.28828,10.48027,13.81874,144.8119,0,-0.8883717,-10.62301,-5.706912,-0.61056,50.61862,0,0,0,7.542989,-103.2764,-54.57928,0,-109.7821,-59.59857,0.001067912,-0.1257102,0.09433498,0,0.3,0,0,0.2607408,0
638225075977377011,3.793154,2.548224,-8.218237,11.13948,17.77398,144.8119,0,-0.8883717,-10.62301,-5.706912,-0.61056,50.61862,0,0,0,7.55199,-102.7018,-54.44352,0,-109.7821,-59.59857,0.001067912,-0.1257102,0.09433498,0,0.3,0,0,0.2633515,0
638225075977706889,3.793154,2.758628,-8.101501,11.21272,19.53186,144.8119,0,-0.8883717,-10.62301,-5.706912,-0.61056,50.61862,0,0,0,7.568282,-102.2512,-54.19778,0,-109.7821,-59.59857,0.001067912,-0.1257102,0.09433498,0,0.3,0,0,0.2645249,0
638225075978046788,3.793154,2.898897,-7.891376,11.35921,22.97438,144.8852,0,-0.8883717,-10.62301,-5.706912,-0.61056,50.61862,0,0,0,7.599254,-101.9932,-53.73063,0,-109.7821,-59.59857,0.001067912,-0.1257102,0.09433498,0,0.3,0,0,0.2667006,0
638225075978416666,3.793154,2.898897,-7.517819,11.28597,26.34366,144.8119,0,-0.8883717,-10.62301,-5.706912,-0.6838052,50.61862,0,0,0,7.65625,-102.1097,-52.87096,0,-109.7821,-59.59857,0.001067912,-0.1257102,0.09433498,0,0.3,0,0,0.2686819,0
638225075978756551,3.793154,2.898897,-7.401083,11.28597,27.95506,144.8119,0,-0.8883717,-10.62301,-5.706912,-0.61056,50.61862,0,0,0,7.674072,-102.145,-52.60215,0,-109.7821,-59.59857,0.001067912,-0.1257102,0.09433498,0,0.3,0,0,0.2696162,0
638225075979096465,3.793154,2.898897,-7.354388,11.35921,31.03135,144.8852,0,-0.8883717,-10.62301,-5.706912,-0.6838052,50.61862,0,0,0,7.681202,-102.159,-52.49461,0,-109.7821,-59.59857,0.001067912,-0.1257102,0.09433498,0,0.3,0,0,0.2714362,0
638225075979436344,3.793154,2.898897,-7.354388,11.5057,33.88792,144.8852,0,-0.8883717,-10.62301,-5.780157,-0.61056,50.61862,0,0,0,7.681202,-102.159,-52.49461,0,-109.7821,-59.59857,0.001067912,-0.1257102,0.09433498,0,0.3,0,0,0.2732219,0
638225075979786231,3.793154,2.852141,-7.354388,11.43246,36.01203,144.8852,0,-0.8883717,-10.62301,-5.706912,-0.61056,50.61862,0,0,0,7.681563,-102.2677,-52.48917,0,-109.7821,-59.59857,0.001067912,-0.1257102,0.09433498,0,0.3,0,0,0.274992,0
638225075980126131,3.793154,2.828763,-7.354388,11.35921,37.03746,144.9584,0,-0.8883717,-10.62301,-5.706912,-0.61056,50.61862,0,0,0,7.681741,-102.322,-52.48647,0,-109.7821,-59.59857,0.001067912,-0.1257102,0.09433498,0,0.3,0,0,0.2758734,0
638225075980466015,3.793154,2.758628,-7.354388,11.65219,38.86858,144.9584,0,-0.8883717,-10.62301,-5.706912,-0.61056,50.61862,0,0,0,7.682268,-102.485,-52.47853,0,-109.7821,-59.59857,0.001067912,-0.1257102,0.09433498,0,0.3,0,0,0.2776404,0
638225075980805897,3.793154,2.641737,-7.354388,12.82412,40.62647,144.8852,0,-0.8883717,-10.62301,-5.706912,-0.6838052,50.61862,0,0,0,7.683115,-102.7568,-52.46575,0,-109.7821,-59.59857,0.001067912,-0.1257102,0.09433498,0,0.3,0,0,0.2794196,0
638225075981225787,3.793154,2.641737,-7.167611,15.90041,42.60409,144.8119,0,-0.8883717,-10.62301,-5.706912,-0.61056,50.61862,0,0,0,7.711643,-102.8117,-52.03547,0,-109.7821,-59.59857,0.001067912,-0.1257102,0.09433498,0,0.3,0,0,0.2811387,0
638225075981565662,3.793154,2.641737,-6.163678,18.17101,43.9225,144.8119,0,-0.8883717,-10.62301,-5.780157,-0.61056,50.61862,0,0,0,7.86517,-103.0829,-49.71983,0,-109.7821,-59.59857,0.001067912,-0.1257102,0.09433498,0,0.3,0,0,0.2824383,0
638225075981905545,3.816714,2.571602,-5.416566,19.04996,44.65495,144.9584,0,-0.8883717,-10.62301,-5.706912,-0.61056,50.61862,0,0,0,8.029597,-103.4214,-47.98956,0,-109.7821,-59.59857,0.001067912,-0.1257102,0.09433498,0,0.3,0,0,0.2827624,0
638225075982245443,3.816714,2.524846,-4.179161,19.85565,46.11986,144.9584,0,-0.8883717,-10.62301,-5.706912,-0.61056,50.61862,0,0,0,8.220946,-103.771,-45.12132,0,-109.7821,-59.59857,0.001067912,-0.1257102,0.09433498,0,0.3,0,0,0.2827823,0
638225075982595339,3.816714,2.524846,-3.035145,20.36837,47.58476,144.8119,0,-0.8883717,-10.62301,-5.706912,-0.61056,50.61862,0,0,0,8.397827,-103.9385,-42.46995,0,-109.7821,-59.59857,0.001067912,-0.1257102,0.09433498,0,0.3,0,0,0.2819789,0
638225075982925229,3.816714,2.524846,-2.568199,20.51486,48.39046,144.8852,0,-0.8883717,-10.62301,-5.706912,-0.61056,50.61862,0,0,0,8.47008,-103.9916,-41.38689,0,-109.7821,-59.59857,0.001067912,-0.1257102,0.09433498,0,0.3,0,0,0.2813118,0
638225075983265127,3.816714,2.524846,-2.077907,20.73459,50.22158,144.8852,0,-0.8883717,-10.62301,-5.706912,-0.61056,50.61862,0,0,0,8.545976,-104.0379,-40.24926,0,-109.7821,-59.59857,0.001067912,-0.1257102,0.09433498,0,0.3,0,0,0.27969,0
638225075983605027,3.345515,2.150795,-0.350209,20.95433,52.19921,144.8852,0,-0.8883717,-10.62301,-5.706912,-0.61056,50.61862,0,0,0,7.728868,-104.9929,-36.13472,0,-109.7821,-59.59857,0.001067912,-0.1257102,0.09433498,0,0.3,0,0,0.277246,0
638225075983944907,3.086355,1.753365,0.8405016,21.46704,53.51762,144.8852,0,-0.8883717,-10.62301,-5.706912,-0.6838052,50.61862,0,0,0,7.281656,-105.9055,-33.30249,0,-109.7821,-59.59857,0.001067912,-0.1257102,0.09433498,0,0.3,0,0,0.2754284,0
638225075984294788,2.968555,1.262423,4.039077,25.05606,56.37418,144.8852,0,-0.8883717,-10.62301,-5.706912,-0.61056,50.61862,0,0,0,7.390668,-106.7309,-25.83112,0,-109.7821,-59.59857,0.001067912,-0.1257102,0.09433498,0,0.3,0,0,0.2701041,0
638225075984634672,3.015675,1.192288,6.187026,31.42839,57.76584,144.8119,0,-0.8883717,-10.62301,-5.706912,-0.61056,50.61862,0,0,0,7.769995,-106.4486,-20.86171,0,-109.7821,-59.59857,0.001067912,-0.1257102,0.09433498,0,0.3,0,0,0.2628566,0
638225075984974566,3.015675,0.8883717,8.521752,41.75596,58.71803,144.8852,0,-0.8883717,-10.62301,-5.706912,-0.61056,50.61862,0,0,0,8.054169,-106.4603,-15.46758,0,-109.7821,-59.59857,0.001067912,-0.1257102,0.09433498,0,0.3,0,0,0.2537442,0
638225075985314473,3.015675,0.7013461,10.06267,47.10286,58.93776,144.9584,0,-0.8883717,-10.62301,-5.780157,-0.6838052,50.61862,0,0,0,8.240679,-106.3164,-11.92729,0,-109.7821,-59.59857,0.001067912,-0.1257102,0.09433498,0,0.3,0,0,0.2484567,0
638225075985754338,2.874315,0.6078333,13.19121,58.30937,58.86452,144.9584,0,-0.8883717,-10.62301,-5.706912,-0.61056,50.61862,0,0,0,8.212441,-105.0668,-4.782881,0,-109.7821,-59.59857,0.001067912,-0.1257102,0.09433498,0,0.3,0,0,0.2361143,0
638225075986094219,2.520916,0.9585064,16.06292,70.46806,57.61935,144.8852,0,-0.8883717,-10.62301,-5.706912,-0.6838052,50.61862,0,0,0,7.487338,-102.5631,1.713582,0,-109.7821,-59.59857,0.001067912,-0.1257102,0.09433498,0,0.3,0,0,0.2217121,0
638225075986434103,1.908357,1.542961,17.884,83.28596,55.12901,144.7387,0,-0.8883717,-10.62301,-5.706912,-0.61056,50.61862,0,0,0,5.802765,-99.9659,5.805583,0,-109.7821,-59.59857,0.001067912,-0.1257102,0.09433498,0,0.3,0,0,0.2059392,0
638225075986774000,1.060198,2.220929,19.26149,98.00825,51.54,144.8852,0,-0.8883717,-10.62301,-5.706912,-0.61056,50.69187,0,0,0,3.279441,-97.36776,8.858992,0,-109.7821,-59.59857,0.001067912,-0.1257102,0.09433498,0,0.3,0,0,0.1892713,0
638225075987103894,0.5183191,2.454711,19.82183,106.5047,49.41589,144.8852,0,-0.8883717,-10.62301,-5.706912,-0.61056,50.61862,0,0,0,1.614269,-96.38789,10.08883,0,-109.7821,-59.59857,0.001067912,-0.1257102,0.09433498,0,0.3,0,0,0.1806864,0
638225075987443785,0.02355996,2.454711,20.24208,119.5423,45.02118,141.9554,0,-0.8883717,-10.62301,-5.780157,-0.61056,50.61862,0,0,0,0.07375471,-96.05286,11.01504,0,-109.7821,-59.59857,0.001067912,-0.1257102,0.09433498,0,0.3,0,0,0.1634039,0
638225075987783685,-0.2120396,2.407955,20.66233,120.5678,42.4576,129.8699,0,-0.8883717,-10.62301,-5.706912,-0.6838052,50.61862,0,0,0,-0.6671995,-95.81981,11.93486,0,-109.7821,-59.59857,0.001067912,-0.1257102,0.09433498,0,0.3,0,0,0.1461775,0
638225075988123567,-0.2120396,2.361199,21.15262,120.5678,41.43217,122.0327,0,-0.8883717,-10.62301,-5.706912,-0.61056,50.61862,0,0,0,-0.6711612,-95.52132,13.00535,0,-109.7821,-59.59857,0.001067912,-0.1257102,0.09433498,0,0.3,0,0,0.1374377,0
638225075988453456,0.07067989,2.384577,22.13321,121.227,39.89402,107.0906,0,-0.8883717,-10.62301,-5.780157,-0.61056,50.61862,0,0,0,0.2263349,-94.62524,15.12549,0,-109.7821,-59.59857,0.001067912,-0.1257102,0.09433498,0,0.3,0,0,0.1195892,0
638225075988803352,0.1884797,2.501468,22.95036,121.3002,38.94183,98.81395,0,-0.8883717,-10.62301,-5.780157,-0.61056,50.61862,0,0,0,0.6092988,-93.62436,16.86956,0,-109.7821,-59.59857,0.001067912,-0.1257102,0.09433498,0,0.3,0,0,0.1014184,0
638225075989143252,0.2120396,2.524846,23.464,121.3002,38.5756,96.83633,0,-0.8883717,-10.62301,-5.706912,-0.61056,50.61862,0,0,0,0.6895181,-93.09893,17.96561,0,-109.7821,-59.59857,0.001067912,-0.1257102,0.09433498,0,0.3,0,0,0.09216211,0
638225075989483131,0.2120396,2.548224,24.49128,121.3002,37.69667,94.78546,0,-0.8883717,-10.62301,-5.706912,-0.6838052,50.61862,0,0,0,0.6975937,-92.07298,20.14773,0,-109.7821,-59.59857,0.001067912,-0.1257102,0.09433498,0,0.3,0,0,0.07330995,0
638225075989823032,0.1884797,2.59498,25.42517,121.3002,36.81772,94.78546,0,-0.8883717,-10.62301,-5.706912,-0.6838052,50.61862,0,0,0,0.6265498,-91.04713,22.11364,0,-109.7821,-59.59857,0.001067912,-0.1257102,0.09433498,0,0.3,0,0,0.05403182,0
638225075990272870,0.1884797,2.59498,26.49915,121.3735,35.57256,96.03063,0,-0.8883717,-10.62301,-5.706912,-0.6838052,50.61862,0,0,0,0.6339424,-89.9529,24.36091,0,-109.7821,-59.59857,0.001067912,-0.1257102,0.09433498,0,0.3,0,0,0.03436285,0
638225075990612775,0.1649197,2.59498,27.3163,121.3002,34.76685,96.54334,0,-0.8883717,-10.62301,-5.706912,-0.61056,50.61862,0,0,0,0.5595813,-89.09222,26.05708,0,-109.7821,-59.59857,0.001067912,-0.1257102,0.09433498,0,0.3,0,0,0.01437096,0
638225075990958574,0.1649197,2.59498,27.89998,121.3735,34.32739,96.68983,0,-0.8883717,-10.62301,-5.706912,-0.61056,50.61862,0,0,0,0.5630463,-88.46268,27.26085,0,-109.7821,-59.59857,0.001067912,-0.1257102,0.09433498,0,0.3,0,0,0.004184116,0
638225075991308333,0.2591596,2.618359,28.83387,121.3735,33.15546,97.78851,0,-0.8883717,-10.62301,-5.706912,-0.6838052,50.61862,0,0,0,0.8934247,-87.37566,29.16969,0,-109.7821,-59.59857,0.001067912,-0.1257102,0.09433498,0,0.3,0,0,0,0
638225075991648222,0.4476392,2.73525,29.37086,121.3735,30.51864,102.2565,0,-0.8883717,-10.62301,-5.780157,-0.6838052,50.61862,0,0,0,1.55161,-86.49605,30.24494,0,-109.7821,-59.59857,0.001067912,-0.1257102,0.09433498,0,0.3,0,0,0,0
638225075991998117,0.7774788,3.156058,29.65103,121.3735,25.97744,113.6827,0,-0.8883717,-10.62301,-5.706912,-0.61056,50.61862,0,0,0,2.701863,-85.19676,30.7498,0,-109.7821,-59.59857,0.001067912,-0.1257102,0.09433498,0,0.3,0,0,0,0
638225075992337998,0.8952785,3.343083,29.67438,121.3002,23.78008,117.4182,0,-0.8883717,-10.62301,-5.780157,-0.6838052,50.61862,0,0,0,3.111557,-84.73528,30.76636,0,-109.7821,-59.59857,0.001067912,-0.1257102,0.09433498,0,0.3,0,0,0,0
638225075992677903,0.9659585,3.600243,29.90785,121.3735,17.62749,120.8607,0,-0.8883717,-10.62301,-5.706912,-0.61056,50.61862,0,0,0,3.364523,-83.8679,31.19764,0,-109.7821,-59.59857,0.001067912,-0.1257102,0.09433498,0,0.3,0,0,0,0
638225075993017785,1.060198,4.184699,30.23471,121.3735,9.643764,119.8353,0,-0.8883717,-10.62301,-5.706912,-0.61056,50.61862,0,0,0,3.703206,-82.12959,31.75774,0,-109.7821,-59.59857,0.001067912,-0.1257102,0.09433498,0,0.3,0,0,0,0
638225075993357687,1.319358,4.722397,30.21136,121.3735,3.491169,116.2463,0,-0.8883717,-10.62301,-5.706912,-0.6838052,50.61862,0,0,0,4.604972,-80.90929,31.59485,0,-109.7821,-59.59857,0.001067912,-0.1257102,0.09433498,0,0.3,0,0,0,0
638225075993697576,1.578517,5.119827,30.16467,121.3735,-2.661425,112.8038,0,-0.8883717,-10.62301,-5.706912,-0.6838052,50.61862,0,0,0,5.504536,-80.04237,31.39876,0,-109.7821,-59.59857,0.001067912,-0.1257102,0.09433498,0,0.3,0,0,0,0
638225075994037455,1.884797,5.58739,30.16467,121.3735,-9.25349,109.7275,0,-0.8883717,-10.62301,-5.706912,-0.61056,50.61862,0,0,0,6.568887,-78.95892,31.26501,0,-109.7821,-59.59857,0.001067912,-0.1257102,0.09433498,0,0.3,0,0,0,0
638225075994377360,3.039235,5.938064,30.04793,121.3002,-15.1131,110.9726,0,-0.8883717,-10.62301,-5.706912,-0.61056,50.61862,0,0,0,10.57247,-78.28316,30.7756,0,-109.7821,-59.59857,0.001067912,-0.1257102,0.09433498,0,0.3,0,0,0,0
638225075994777229,4.240793,6.265358,30.11797,121.3735,-19.94728,116.9788,0,-0.8883717,-10.62301,-5.706912,-0.61056,50.61862,0,0,0,14.75017,-77.44403,30.57004,0,-109.7821,-59.59857,0.001067912,-0.1257102,0.09433498,0,0.3,0,0,0,0
638225075995117125,4.829792,6.522519,30.11797,121.3002,-22.21789,120.4945,0,-0.8883717,-10.62301,-5.780157,-0.61056,50.61862,0,0,0,16.78864,-76.84924,30.34148,0,-109.7821,-59.59857,0.001067912,-0.1257102,0.09433498,0,0.3,0,0,0,0
638225075995497139,6.667469,7.177108,30.09463,121.227,-26.68584,129.0642,0,-0.8883717,-10.62301,-5.706912,-0.6838052,50.61862,0,0,0,23.12509,-75.36388,29.47375,0,-109.7821,-59.59857,0.001067912,-0.1257102,0.09433498,0,0.3,0,0,0,0
638225075995806901,8.811425,7.761563,29.97789,120.934,-31.08055,138.1466,0,-0.8883717,-10.62301,-5.706912,-0.61056,50.61862,0,0,0,30.44644,-74.15117,28.06298,0,-109.7821,-59.59857,0.001067912,-0.1257102,0.09433498,0,0.3,0,0,0,0
638225075996146794,9.800944,8.158993,29.74442,120.7142,-33.13141,141.8821,0,-0.8883717,-10.62301,-5.706912,-0.6838052,50.61862,0,0,0,33.73183,-73.50566,26.91731,0,-109.7821,-59.59857,0.001067912,-0.1257102,0.09433498,0,0.3,0,0,0,0
638225075996496761,11.19098,9.468172,28.6471,120.641,-38.33182,144.8852,0,-0.8883717,-10.62301,-5.706912,-0.61056,50.61862,0,0,0,37.93548,-71.74049,23.39657,0,-109.7821,-59.59857,0.001067912,-0.1257102,0.09433498,0,0.3,0,0,0,0
638225075996846578,12.2983,10.68384,27.7132,120.348,-45.5831,144.8852,0,-0.8883717,-10.62301,-5.780157,-0.6838052,50.61862,0,0,0,41.12041,-69.98127,20.27211,0,-109.7821,-59.59857,0.001067912,-0.1257102,0.09433498,0,0.3,0,0,0,0
638225075997186465,13.3585,11.36181,27.73655,119.6888,-53.49357,144.8119,0,-0.8883717,-10.62301,-5.706912,-0.61056,50.61862,0,0,0,44.54483,-68.40721,19.23224,0,-109.7821,-59.59857,0.001067912,-0.1257102,0.09433498,0,0.3,0,0,0,0
638225075997526352,14.34802,11.73586,28.6471,119.5423,-57.22908,144.8119,0,-0.8883717,-10.62301,-5.780157,-0.6838052,50.61862,0,0,0,48.1973,-66.55312,20.07566,0,-109.7821,-59.59857,0.001067912,-0.1257102,0.09433498,0,0.3,0,0,0,0
638225075997866234,16.20925,12.83463,29.02065,119.4691,-61.40405,144.8852,0,-0.8883717,-10.62301,-5.706912,-0.61056,50.61862,0,0,0,54.35247,-63.63514,18.6197,0,-109.7821,-59.59857,0.001067912,-0.1257102,0.09433498,0,0.3,0,0,0,0
638225075998206133,17.74065,14.12043,29.02065,119.4691,-63.01544,144.9584,0,-0.8883717,-10.62301,-5.706912,-0.61056,50.61862,0,0,0,59.11725,-60.72504,16.43609,0,-109.7821,-59.59857,0.001067912,-0.1257102,0.09433498,0,0.3,0,0,0,0
638225075998546024,18.54169,14.75165,29.06735,119.4691,-63.45492,144.8852,0,-0.8883717,-10.62301,-5.706912,-0.61056,50.61862,0,0,0,61.60859,-59.24959,15.3344,0,-109.7821,-59.59857,0.001067912,-0.1257102,0.09433498,0,0.3,0,0,0,0
638225075998885914,19.90817,15.35948,29.81446,119.4691,-63.96763,144.8852,0,-0.8883717,-10.62301,-5.706912,-0.61056,50.61862,0,0,0,66.36195,-57.02882,14.89124,0,-109.7821,-59.59857,0.001067912,-0.1257102,0.09433498,0,0.3,0,0,0,0
638225075999305780,21.10972,15.56988,31.5655,119.4691,-64.18736,144.8119,0,-0.8883717,-10.62301,-5.706912,-0.61056,50.54538,0,0,0,71.40497,-54.47689,16.60682,0,-109.7821,-59.59857,0.001067912,-0.1257102,0.09433498,0,0.3,0,0,0,0
638225075999645672,21.84008,15.6634,34.32048,119.4691,-64.26061,144.8119,0,-0.8883717,-10.62301,-5.706912,-0.61056,50.61862,0,0,0,75.7366,-50.78079,20.62149,0,-109.7821,-59.59857,0.001067912,-0.1257102,0.09433498,0,0.3,0,0,0,0
638225075999985563,22.26416,15.64002,37.72918,119.5423,-64.33386,144.8119,0,-0.8883717,-10.62301,-5.706912,-0.61056,50.69187,0,0,0,79.56937,-46.16796,26.00634,0,-109.7821,-59.59857,0.001067912,-0.1257102,0.09433498,0,0.3,0,0,0,0
638225076000325455,22.38196,15.6634,39.64366,119.4691,-64.4071,144.8852,0,-0.8883717,-10.62301,-5.780157,-0.6838052,50.61862,0,0,0,81.28752,-43.3306,29.04466,0,-109.7821,-59.59857,0.001067912,-0.1257102,0.09433498,0,0.3,0,0,0,0
638225076000665336,22.68824,15.73353,43.05236,119.5423,-64.4071,144.8119,0,-0.8883717,-10.62301,-5.706912,-0.61056,50.61862,0,0,0,84.62138,-37.93318,34.06057,0,-109.7821,-59.59857,0.001067912,-0.1257102,0.09433498,0,0.3,0,0,0,0
638225076000995242,22.8296,15.80367,45.99411,119.4691,-64.4071,144.8119,0,-0.8883717,-10.62301,-5.780157,-0.6838052,50.61862,0,0,0,86.99703,-32.97577,38.30882,0,-109.7821,-59.59857,0.001067912,-0.1257102,0.09433498,0,0.3,0,0,0,0
638225076001335131,22.85316,15.80367,47.34826,119.4691,-64.4071,144.8852,0,-0.8883717,-10.62301,-5.706912,-0.61056,50.61862,0,0,0,87.92188,-30.68324,40.26582,0,-109.7821,-59.59857,0.001067912,-0.1257102,0.09433498,0,0.3,0,0,0,0
638225076001675028,22.85316,15.85042,49.77637,119.4691,-64.48035,144.8119,0,-0.8883717,-10.62301,-5.780157,-0.61056,50.61862,0,0,0,89.36274,-26.34231,43.68462,0,-109.7821,-59.59857,0.001067912,-0.1257102,0.09433498,0,0.3,0,0,0,0
638225076002014913,23.04164,16.4115,52.04106,119.4691,-64.48035,144.8852,0,-0.8883717,-10.62301,-5.706912,-0.6838052,50.61862,0,0,0,91.21851,-20.99724,46.11385,0,-109.7821,-59.59857,0.001067912,-0.1257102,0.09433498,0,0.3,0,0,0,0
638225076002354809,23.27724,17.06609,52.99829,119.4691,-64.48035,144.8119,0,-0.8883717,-10.62301,-5.780157,-0.6838052,50.61862,0,0,0,92.46194,-17.77037,46.57917,0,-109.7821,-59.59857,0.001067912,-0.1257102,0.09433498,0,0.3,0,0,0,0
638225076002754678,23.84268,18.74932,54.70264,119.5423,-64.48035,144.9584,0,-0.8883717,-10.62301,-5.706912,-0.6838052,50.61862,0,0,0,95.03741,-10.83984,46.69465,0,-109.7821,-59.59857,0.001067912,-0.1257102,0.09433498,0,0.3,0,0,0,0
638225076003054583,24.50236,20.29228,56.12683,119.4691,-64.48035,144.8852,0,-0.8883717,-10.62301,-5.706912,-0.6838052,50.61862,0,0,0,97.78963,-4.726461,46.20635,0,-109.7821,-59.59857,0.001067912,-0.1257102,0.09433498,0,0.3,0,0,0,0
638225076003384472,25.56256,21.5547,57.08406,119.5423,-64.48035,144.8119,0,-0.8883717,-10.62301,-5.780157,-0.6838052,50.61862,0,0,0,101.8192,-0.1220767,44.51986,0,-109.7821,-59.59857,0.001067912,-0.1257102,0.09433498,0,0.3,0,0,0,0
638225076003824351,27.21176,22.88726,57.03737,119.5423,-64.48035,144.8852,0,-0.8883717,-10.62301,-5.706912,-0.61056,50.61862,0,0,0,107.34,2.657708,40.40574,0,-109.7821,-59.59857,0.001067912,-0.1257102,0.09433498,0,0.3,0,0,0,0
638225076004164238,27.77719,23.12104,56.8039,119.5423,-64.48035,144.8852,0,-0.8883717,-10.62301,-5.706912,-0.61056,50.61862,0,0,0,109.1576,2.703233,38.88574,0,-109.7821,-59.59857,0.001067912,-0.1257102,0.09433498,0,0.3,0,0,0,0
638225076004504109,29.61487,23.44834,55.42641,119.6156,-64.48035,142.8343,0,-0.8883717,-10.62301,-5.706912,-0.6838052,50.61862,0,0,0,114.715,0.741538,33.46303,0,-109.7821,-59.59857,0.001067912,-0.1257102,0.09433498,0,0.3,0,0,0,0
638225076004844012,31.59391,23.44834,52.97495,119.6156,-64.48035,136.2422,0,-0.8883717,-10.62301,-5.706912,-0.61056,50.61862,0,0,0,119.8677,-3.885695,26.53855,0,-109.7821,-59.59857,0.001067912,-0.1257102,0.09433498,0,0.3,0,0,0,0
638225076005193891,33.47871,23.42496,50.64022,119.6888,-64.48035,134.1914,0,-0.8883717,-10.62301,-5.706912,-0.61056,50.61862,0,0,0,124.3714,-8.205981,19.70656,0,-109.7821,-59.59857,0.001067912,-0.1257102,0.09433498,0,0.3,0,0,0,0
638225076005533780,34.32687,23.42496,49.65963,119.6156,-64.48035,133.9716,0,-0.8883717,-10.62301,-5.706912,-0.6838052,50.61862,0,0,0,126.3169,-9.958068,16.63725,0,-109.7821,-59.59857,0.001067912,-0.1257102,0.09433498,0,0.3,0,0,0,0
638225076005873693,35.92894,23.42496,47.58173,119.6888,-64.48035,133.3857,0,-0.8883717,-10.62301,-5.706912,-0.61056,50.61862,0,0,0,129.5636,-13.58664,10.44488,0,-109.7821,-59.59857,0.001067912,-0.1257102,0.09433498,0,0.3,0,0,0,0
638225076006213566,37.15406,23.42496,45.85403,119.6156,-64.48035,129.1375,0,-0.8883717,-10.62301,-5.706912,-0.6838052,50.61862,0,0,0,131.6918,-16.5138,5.43673,0,-109.7821,-59.59857,0.001067912,-0.1257102,0.09433498,0,0.3,0,0,0,0
638225076006553472,37.57814,23.42496,45.247,119.5423,-64.48035,126.5739,0,-0.8883717,-10.62301,-5.706912,-0.61056,50.61862,0,0,0,132.3711,-17.52234,3.67317,0,-109.7821,-59.59857,0.001067912,-0.1257102,0.09433498,0,0.3,0,0,0,0
638225076006883359,37.97866,23.42496,44.12633,119.6156,-64.48035,120.934,0,-0.8883717,-10.62301,-5.706912,-0.61056,50.61862,0,0,0,132.4293,-19.3565,1.28199,0,-109.7821,-59.59857,0.001067912,-0.1257102,0.09433498,0,0.3,0,0,0,0
638225076007223253,38.14358,23.42496,43.02901,119.6156,-64.48035,118.6634,0,-0.8883717,-10.62301,-5.706912,-0.61056,50.61862,0,0,0,131.7743,-21.11698,-0.5549526,0,-109.7821,-59.59857,0.001067912,-0.1257102,0.09433498,0,0.3,0,0,0,0
638225076007563140,38.1907,23.42496,42.35194,119.6156,-64.48035,117.1985,0,-0.8883717,-10.62301,-5.706912,-0.61056,50.61862,0,0,0,131.1962,-22.18543,-1.573722,0,-109.7821,-59.59857,0.001067912,-0.1257102,0.09433498,0,0.3,0,0,0,0
638225076007903040,38.28493,23.23793,42.11847,118.1507,-64.48035,113.9757,0,-0.8883717,-10.62301,-5.706912,-0.61056,50.61862,0,0,0,131.3278,-22.95037,-1.970214,0,-109.7821,-59.59857,0.001067912,-0.1257102,0.09433498,0,0.3,0,0,0,0
638225076008372872,38.75614,23.21456,42.2352,117.052,-64.48035,111.5586,0,-0.8883717,-10.62301,-5.706912,-0.61056,50.61862,0,0,0,132.8311,-22.81795,-2.88212,0,-109.7821,-59.59857,0.001067912,-0.1257102,0.09433498,0,0.3,0,0,0,0
638225076008712767,38.80325,23.21456,42.18851,117.052,-64.48035,110.2402,0,-0.8883717,-10.62301,-5.706912,-0.61056,50.61862,0,0,0,132.9167,-22.89097,-3.054145,0,-109.7821,-59.59857,0.001067912,-0.1257102,0.09433498,0,0.3,0,0,0,0
638225076009059817,38.85038,23.26131,42.11847,119.7621,-64.11412,106.2117,0,-0.8883717,-10.62301,-5.706912,-0.61056,50.61862,0,0,0,132.9499,-22.90038,-3.291066,0,-109.7821,-59.59857,0.001067912,-0.1257102,0.09433498,0,0.3,0,0,0,0
638225076009389848,39.27446,23.26131,41.30132,119.8353,-62.35624,104.3806,0,-0.8883717,-10.62301,-5.706912,-0.61056,50.61862,0,0,0,133.2692,-24.16577,-5.378684,0,-109.7821,-59.59857,0.001067912,-0.1257102,0.09433498,0,0.3,0,0,0,0
638225076009849555,39.36869,22.88726,39.34014,119.9085,-59.93914,104.0876,0,-0.8883717,-10.62301,-5.706912,-0.6838052,50.61862,0,0,0,131.5462,-27.92003,-8.024576,0,-109.7821,-59.59857,0.001067912,-0.1257102,0.09433498,0,0.3,0,0,0,0
638225076010189666,39.34513,22.65348,37.6358,119.9818,-58.62074,108.702,0,-0.8883717,-10.62301,-5.706912,-0.61056,50.61862,0,0,0,129.6453,-30.89031,-10.20869,0,-109.7821,-59.59857,0.001067912,-0.1257102,0.09433498,0,0.3,0,0,0,0
638225076010539354,39.36869,22.65348,36.84199,119.9085,-57.96152,112.8038,0,-0.8883717,-10.62301,-5.706912,-0.61056,50.61862,0,0,0,128.7774,-32.0083,-11.39908,0,-109.7821,-59.59857,0.001067912,-0.1257102,0.09433498,0,0.3,0,0,0,0
638225076010869423,39.67498,22.79375,36.65521,119.9818,-56.27689,118.3704,0,-0.8883717,-10.62301,-5.706912,-0.61056,50.61862,0,0,0,129.3117,-31.96726,-12.45486,0,-109.7821,-59.59857,0.001067912,-0.1257102,0.09433498,0,0.3,0,0,0,0
638225076011209126,40.31109,22.8405,37.42567,119.9818,-52.68787,119.6888,0,-0.8883717,-10.62301,-5.706912,-0.61056,50.61862,0,0,0,131.9331,-30.7868,-12.84085,0,-109.7821,-59.59857,0.001067912,-0.1257102,0.09433498,0,0.3,0,0,0,0
638225076011549198,40.78229,22.8405,37.56575,120.055,-50.41727,119.7621,0,-0.8883717,-10.62301,-5.706912,-0.61056,50.61862,0,0,0,133.3765,-30.58835,-13.73524,0,-109.7821,-59.59857,0.001067912,-0.1257102,0.09433498,0,0.3,0,0,0,0
638225076011889079,41.55977,22.74699,37.40232,120.055,-45.36336,117.052,0,-0.8883717,-10.62301,-5.706912,-0.6838052,50.61862,0,0,0,135.3179,-31.02046,-15.72204,0,-109.7821,-59.59857,0.001067912,-0.1257102,0.09433498,0,0.3,0,0,0,0
638225076012238798,41.91317,21.99889,36.60851,120.055,-40.74891,114.7082,0,-0.8883717,-10.62301,-5.706912,-0.61056,50.61862,0,0,0,135.7139,-33.7425,-17.16431,0,-109.7821,-59.59857,0.001067912,-0.1257102,0.09433498,0,0.3,0,0,0,0
638225076012578689,41.72469,21.08714,35.93144,120.1283,-36.3542,111.4121,0,-0.8883717,-10.62301,-5.706912,-0.6838052,50.61862,0,0,0,134.8889,-36.64848,-17.08535,0,-109.7821,-59.59857,0.001067912,-0.1257102,0.09433498,0,0.3,0,0,0,0
638225076012908583,41.51265,20.90011,35.8614,120.2015,-33.71738,108.0428,0,-0.8883717,-10.62301,-5.706912,-0.61056,50.61862,0,0,0,134.344,-37.15045,-16.5693,0,-109.7821,-59.59857,0.001067912,-0.1257102,0.09433498,0,0.3,0,0,0,0
638225076013238478,41.63045,20.64295,35.8614,120.2748,-30.3481,103.5749,0,-0.8883717,-10.62301,-5.706912,-0.6838052,50.61862,0,0,0,134.7968,-37.71006,-16.68718,0,-109.7821,-59.59857,0.001067912,-0.1257102,0.09433498,0,0.3,0,0,0,0
638225076013588365,41.84249,20.66633,36.305,120.348,-25.66041,97.20255,0,-0.8883717,-10.62301,-5.706912,-0.61056,50.61862,0,0,0,135.9009,-37.05109,-16.57978,0,-109.7821,-59.59857,0.001067912,-0.1257102,0.09433498,0,0.3,0,0,0,0
638225076013928269,41.81893,20.66633,36.88868,120.7875,-23.17007,94.05301,0,-0.8883717,-10.62301,-5.706912,-0.61056,50.61862,0,0,0,136.5657,-36.24121,-15.71111,0,-109.7821,-59.59857,0.001067912,-0.1257102,0.09433498,0,0.3,0,0,0,0
638225076014348125,41.46553,20.68971,38.52299,121.5199,-18.11616,88.19339,0,-0.8883717,-10.62301,-5.706912,-0.61056,50.61862,0,0,0,137.6015,-33.86402,-12.63111,0,-109.7821,-59.59857,0.001067912,-0.1257102,0.09433498,0,0.3,0,0,0,0
638225076014688019,41.06501,20.71309,40.74098,121.5932,-12.76926,83.28596,0,-0.8883717,-10.62301,-5.706912,-0.61056,50.61862,0,0,0,139.1085,-30.52063,-8.690215,0,-109.7821,-59.59857,0.001067912,-0.1257102,0.09433498,0,0.3,0,0,0,0
638225076015027909,40.99433,20.71309,43.26248,121.6664,-6.98289,78.37854,0,-0.8883717,-10.62301,-5.706912,-0.6838052,50.61862,0,0,0,141.772,-26.594,-5.227384,0,-109.7821,-59.59857,0.001067912,-0.1257102,0.09433498,0,0.3,0,0,0,0
638225076015357801,40.99433,20.68971,44.12633,121.8129,-4.053083,75.37549,0,-0.8883717,-10.62301,-5.706912,-0.61056,50.61862,0,0,0,142.7382,-25.25602,-4.11568,0,-109.7821,-59.59857,0.001067912,-0.1257102,0.09433498,0,0.3,0,0,0,0
638225076015707687,41.01789,20.52606,45.2937,121.8129,2.026266,66.51283,0,-0.8883717,-10.62301,-5.706912,-0.6838052,50.61862,0,0,0,144.1609,-23.70115,-2.616432,0,-109.7821,-59.59857,0.001067912,-0.1257102,0.09433498,0,0.3,0,0,0,0
638225076016047579,41.27705,20.50268,46.1342,121.8862,7.373164,56.11201,0,-0.8883717,-10.62301,-5.706912,-0.61056,50.61862,0,0,0,145.8227,-22.35176,-2.22937,0,-109.7821,-59.59857,0.001067912,-0.1257102,0.09433498,0,0.3,0,0,0,0
638225076016387473,41.88961,20.43255,46.25093,122.1059,12.1341,46.95637,0,-0.8883717,-10.62301,-5.706912,-0.61056,50.61862,0,0,0,147.754,-22.30862,-3.615349,0,-109.7821,-59.59857,0.001067912,-0.1257102,0.09433498,0,0.3,0,0,0,0
638225076016727373,42.03097,20.40917,46.27428,122.3256,14.33146,42.92788,0,-0.8883717,-10.62301,-5.706912,-0.61056,50.61862,0,0,0,148.1979,-22.32035,-3.938382,0,-109.7821,-59.59857,0.001067912,-0.1257102,0.09433498,0,0.3,0,0,0,0
638225076017067384,42.17233,20.47931,46.32097,122.4721,18.1402,35.09065,0,-0.8883717,-10.62301,-5.706912,-0.61056,50.61862,0,0,0,148.6152,-22.08883,-4.291123,0,-109.7821,-59.59857,0.001067912,-0.1257102,0.09433498,0,0.3,0,0,0,0
638225076017407148,42.12521,21.32092,46.06416,122.5454,21.36299,28.93805,0,-0.8883717,-10.62301,-5.780157,-0.61056,50.61862,0,0,0,147.734,-20.69031,-4.9941,0,-109.7821,-59.59857,0.001067912,-0.1257102,0.09433498,0,0.3,0,0,0,0
638225076017737047,42.10165,21.90538,45.92407,122.4721,22.46167,26.52096,0,-0.8883717,-10.62301,-5.706912,-0.61056,50.61862,0,0,0,147.179,-19.6602,-5.473166,0,-109.7821,-59.59857,0.001067912,-0.1257102,0.09433498,0,0.3,0,0,0,0
638225076018076944,42.00741,22.74699,45.87738,122.4721,24.43929,22.41923,0,-0.8883717,-10.62301,-5.706912,-0.61056,50.61862,0,0,0,146.3624,-17.92633,-5.840406,0,-109.7821,-59.59857,0.001067912,-0.1257102,0.09433498,0,0.3,0,0,0,0
638225076018426822,41.91317,23.28469,45.99411,122.3989,26.27042,18.3175,0,-0.8883717,-10.62301,-5.706912,-0.61056,50.61862,0,0,0,145.8942,-16.57928,-5.82339,0,-109.7821,-59.59857,0.001067912,-0.1257102,0.09433498,0,0.3,0,0,0,0
638225076018866677,41.51265,24.36009,46.18089,122.3989,28.46777,13.26359,0,-0.8883717,-10.62301,-5.780157,-0.6838052,50.61862,0,0,0,144.2844,-13.97652,-5.338726,0,-109.7821,-59.59857,0.001067912,-0.1257102,0.09433498,0,0.3,0,0,0,0
638225076019206700,41.04145,24.82765,46.06416,122.0327,29.20022,10.26054,0,-0.8883717,-10.62301,-5.706912,-0.6838052,50.61862,0,0,0,142.5179,-13.18288,-4.641281,0,-109.7821,-59.59857,0.001067912,-0.1257102,0.09433498,0,0.3,0,0,0,0
638225076019536465,40.57025,24.85103,46.01746,121.8862,29.27347,8.282915,0,-0.8883717,-10.62301,-5.706912,-0.6838052,50.61862,0,0,0,141.1028,-13.21173,-3.549431,0,-109.7821,-59.59857,0.001067912,-0.1257102,0.09433498,0,0.3,0,0,0,0
638225076019876363,39.43937,24.64063,46.5311,121.5932,29.12698,4.767147,0,-0.8883717,-10.62301,-5.706912,-0.61056,50.69187,0,0,0,138.4779,-12.79256,-0.0002345272,0,-109.7821,-59.59857,0.001067912,-0.1257102,0.09433498,0,0.3,0,0,0,0
638225076020216253,38.28493,24.40685,47.55838,121.6664,28.39453,1.910586,0,-0.8883717,-10.62301,-5.706912,-0.61056,50.61862,0,0,0,136.2073,-11.53775,4.211651,0,-109.7821,-59.59857,0.001067912,-0.1257102,0.09433498,0,0.3,0,0,0,0
638225076020556140,37.69594,24.64063,47.8619,121.6664,27.66208,1.104889,0,-0.8883717,-10.62301,-5.706912,-0.61056,50.61862,0,0,0,134.5788,-10.52017,5.800122,0,-109.7821,-59.59857,0.001067912,-0.1257102,0.09433498,0,0.3,0,0,0,0
638225076020896041,35.85826,25.78616,47.93193,122.3989,24.51253,1.837341,0,-0.8883717,-10.62301,-5.706912,-0.6838052,50.61862,0,0,0,128.3237,-7.987165,9.194346,0,-109.7821,-59.59857,0.001067912,-0.1257102,0.09433498,0,0.3,0,0,0,0
638225076021226198,33.80854,26.86156,47.79185,122.5454,19.45862,6.525032,0,-0.8883717,-10.62301,-5.706912,-0.61056,50.61862,0,0,0,121.1521,-5.985626,12.56651,0,-109.7821,-59.59857,0.001067912,-0.1257102,0.09433498,0,0.3,0,0,0,0
638225076021576097,32.06511,28.05384,47.74516,122.4721,13.52576,14.72849,0,-0.8883717,-10.62301,-5.706912,-0.61056,50.61862,0,0,0,114.8738,-3.603802,15.02251,0,-109.7821,-59.59857,0.001067912,-0.1257102,0.09433498,0,0.3,0,0,0,0
638225076021915989,30.58083,29.50329,47.20817,122.5454,8.618331,22.63897,0,-0.8883717,-10.62301,-5.706912,-0.61056,50.61862,0,0,0,108.8295,-1.568193,15.81116,0,-109.7821,-59.59857,0.001067912,-0.1257102,0.09433498,0,0.3,0,0,0,0
638225076022255881,29.02587,31.35017,45.80734,122.5454,3.710905,30.32971,0,-0.8883717,-10.62301,-5.706912,-0.6838052,50.61862,0,0,0,101.6471,-0.2271077,14.8311,0,-109.7821,-59.59857,0.001067912,-0.1257102,0.09433498,0,0.3,0,0,0,0
638225076022595775,25.7746,34.3192,42.02508,122.3989,-5.078516,42.26867,0,-0.8883717,-10.62301,-5.706912,-0.61056,50.61862,0,0,0,86.7085,-0.5261844,11.21828,0,-109.7821,-59.59857,0.001067912,-0.1257102,0.09433498,0,0.3,0,0,0,0
638225076022935650,23.58352,35.3946,40.20399,122.1791,-10.13243,48.42127,0,-0.8883717,-10.62301,-5.706912,-0.61056,50.61862,0,0,0,77.93002,-1.259305,10.16471,0,-109.7821,-59.59857,0.001067912,-0.1257102,0.09433498,0,0.3,0,0,0,0
638225076023275540,19.27205,36.58689,37.79922,121.8862,-20.60649,59.26155,0,-0.8883717,-10.62301,-5.706912,-0.6838052,50.61862,0,0,0,62.31538,-2.536194,9.873467,0,-109.7821,-59.59857,0.001067912,-0.1257102,0.09433498,0,0.3,0,0,0,0
638225076023615424,14.96058,36.93756,36.09487,121.5199,-31.95949,67.24528,0,-0.8883717,-10.62301,-5.706912,-0.61056,50.61862,0,0,0,47.79602,-4.266554,10.51939,0,-109.7821,-59.59857,0.001067912,-0.1257102,0.09433498,0,0.3,0,0,0,0
638225076023955327,13.21714,36.91418,34.9742,121.3002,-37.01341,69.44263,0,-0.8883717,-10.62301,-5.706912,-0.6838052,50.61862,0,0,0,41.85416,-5.825919,9.856322,0,-109.7821,-59.59857,0.001067912,-0.1257102,0.09433498,0,0.3,0,0,0,0
638225076024295219,9.423985,36.3531,32.28927,119.9085,-48.14668,72.29919,0,-0.8883717,-10.62301,-5.706912,-0.61056,50.61862,0,0,0,29.24903,-10.33447,7.87122,0,-109.7821,-59.59857,0.001067912,-0.1257102,0.09433498,0,0.3,0,0,0,0
638225076024635112,7.986827,35.69852,32.0558,112.8038,-57.15583,74.56979,0,-0.8883717,-10.62301,-5.706912,-0.61056,50.61862,0,0,0,24.8807,-11.85593,8.981226,0,-109.7821,-59.59857,0.001067912,-0.1257102,0.09433498,0,0.3,0,0,0,0
638225076024985132,7.986827,35.16082,31.77563,118.2239,-61.3308,71.78648,0,-0.8883717,-10.62301,-5.706912,-0.61056,50.61862,0,0,0,24.9046,-13.22036,9.151532,0,-109.7821,-59.59857,0.001067912,-0.1257102,0.09433498,0,0.3,0,0,0,0
638225076025325018,8.434465,34.66988,31.63554,119.6156,-62.35624,69.22289,0,-0.8883717,-10.62301,-5.706912,-0.6838052,50.61862,0,0,0,26.34585,-14.32865,9.324089,0,-109.7821,-59.59857,0.001067912,-0.1257102,0.09433498,0,0.3,0,0,0,0
638225076025674775,9.612464,33.87502,31.35538,119.9085,-63.52816,65.70713,0,-0.8883717,-10.62301,-5.706912,-0.6838052,50.61862,0,0,0,30.0741,-16.19803,9.223841,0,-109.7821,-59.59857,0.001067912,-0.1257102,0.09433498,0,0.3,0,0,0,0
638225076026014662,10.46062,33.17367,31.19195,119.9085,-64.11412,64.82819,0,-0.8883717,-10.62301,-5.706912,-0.61056,50.61862,0,0,0,32.80402,-17.75626,9.326035,0,-109.7821,-59.59857,0.001067912,-0.1257102,0.09433498,0,0.3,0,0,0,0
638225076026424526,11.07318,31.60733,31.21529,119.6888,-64.4071,67.46501,0,-0.8883717,-10.62301,-5.706912,-0.61056,50.61862,0,0,0,35.08566,-20.80633,10.92721,0,-109.7821,-59.59857,0.001067912,-0.1257102,0.09433498,0,0.3,0,0,0,0
638225076026754424,11.09674,30.92937,31.21529,117.8577,-64.48035,68.92992,0,-0.8883717,-10.62301,-5.706912,-0.61056,50.61862,0,0,0,35.317,-22.15503,11.71646,0,-109.7821,-59.59857,0.001067912,-0.1257102,0.09433498,0,0.3,0,0,0,0
638225076027094313,11.07318,29.26951,31.40207,114.1222,-64.5536,72.8119,0,-0.8883717,-10.62301,-5.780157,-0.6838052,50.54538,0,0,0,35.68637,-25.27123,13.99669,0,-109.7821,-59.59857,0.001067912,-0.1257102,0.09433498,0,0.3,0,0,0,0
638225076027434215,11.02606,28.00709,31.82232,113.463,-64.62684,74.35006,0,-0.8883717,-10.62301,-5.706912,-0.6838052,50.61862,0,0,0,35.96502,-27.33721,16.22573,0,-109.7821,-59.59857,0.001067912,-0.1257102,0.09433498,0,0.3,0,0,0,0
638225076027784103,10.57842,27.25899,32.70952,113.6827,-64.62684,73.17814,0,-0.8883717,-10.62301,-5.706912,-0.61056,50.61862,0,0,0,34.99067,-27.77742,19.01121,0,-109.7821,-59.59857,0.001067912,-0.1257102,0.09433498,0,0.3,0,0,0,0
638225076028124123,10.2957,27.1421,32.98969,116.173,-64.62684,72.00621,0,-0.8883717,-10.62301,-5.706912,-0.6838052,50.61862,0,0,0,34.18587,-27.66568,19.84291,0,-109.7821,-59.59857,0.001067912,-0.1257102,0.09433498,0,0.3,0,0,0,0
638225076028463876,10.20146,27.00183,33.24651,119.9818,-64.33386,69.14965,0,-0.8883717,-10.62301,-5.706912,-0.6838052,50.61862,0,0,0,33.99126,-27.6298,20.53782,0,-109.7821,-59.59857,0.001067912,-0.1257102,0.09433498,0,0.3,0,0,0,0
638225076028803923,10.20146,27.09534,33.26986,120.055,-63.45492,67.90449,0,-0.8883717,-10.62301,-5.706912,-0.6838052,50.61862,0,0,0,33.98178,-27.40616,20.48513,0,-109.7821,-59.59857,0.001067912,-0.1257102,0.09433498,0,0.3,0,0,0,0
638225076029143672,9.965863,27.18885,33.40994,120.1283,-63.08869,67.83124,0,-0.8883717,-10.62301,-5.706912,-0.61056,50.61862,0,0,0,33.23496,-27.0333,20.79374,0,-109.7821,-59.59857,0.001067912,-0.1257102,0.09433498,0,0.3,0,0,0,0
638225076029483552,9.400424,27.42263,33.45663,120.1283,-62.06326,68.27071,0,-0.8883717,-10.62301,-5.780157,-0.61056,50.61862,0,0,0,31.3408,-26.48995,20.95574,0,-109.7821,-59.59857,0.001067912,-0.1257102,0.09433498,0,0.3,0,0,0,0
638225076029823456,9.023465,28.19411,33.31655,120.1283,-60.89133,68.19746,0,-0.8883717,-10.62301,-5.706912,-0.61056,50.61862,0,0,0,29.92059,-25.08119,20.0617,0,-109.7821,-59.59857,0.001067912,-0.1257102,0.09433498,0,0.3,0,0,0,0
638225076030163340,8.811425,28.94222,33.19981,120.1283,-60.08564,67.75799,0,-0.8883717,-10.62301,-5.706912,-0.61056,50.61862,0,0,0,29.06077,-23.70106,19.12385,0,-109.7821,-59.59857,0.001067912,-0.1257102,0.09433498,0,0.3,0,0,0,0
638225076030493225,8.481586,31.28004,32.84961,120.1283,-57.81504,65.78037,0,-0.8883717,-10.62301,-5.706912,-0.61056,50.61862,0,0,0,27.47768,-19.43881,15.91251,0,-109.7821,-59.59857,0.001067912,-0.1257102,0.09433498,0,0.3,0,0,0,0
638225076030933218,7.704108,34.76339,32.61613,120.2015,-55.10497,62.92381,0,-0.8883717,-10.62301,-5.780157,-0.6838052,50.61862,0,0,0,24.32141,-12.93613,11.43794,0,-109.7821,-59.59857,0.001067912,-0.1257102,0.09433498,0,0.3,0,0,0,0
638225076031282974,6.408309,38.55066,33.01303,120.2748,-52.32165,59.55453,0,-0.8883717,-10.62301,-5.706912,-0.6838052,50.61862,0,0,0,19.74886,-5.365633,7.484848,0,-109.7821,-59.59857,0.001067912,-0.1257102,0.09433498,0,0.3,0,0,0,0
638225076031632869,5.206751,41.84698,35.0209,120.2748,-49.09886,54.42737,0,-0.8883717,-10.62301,-5.706912,-0.61056,50.61862,0,0,0,15.95951,3.107573,6.786902,0,-109.7821,-59.59857,0.001067912,-0.1257102,0.09433498,0,0.3,0,0,0,0
638225076031975132,4.170113,43.57697,37.77588,120.2015,-44.55766,47.24934,0,-0.8883717,-10.62301,-5.706912,-0.61056,50.61862,0,0,0,12.96504,9.87037,9.470036,0,-109.7821,-59.59857,0.001067912,-0.1257102,0.09433498,0,0.3,0,0,0,0
638225076032305016,3.604674,43.85751,39.22341,120.2748,-41.84759,42.6349,0,-0.8883717,-10.62301,-5.780157,-0.61056,50.61862,0,0,0,11.34696,12.43944,11.7703,0,-109.7821,-59.59857,0.001067912,-0.1257102,0.09433498,0,0.3,0,0,0,0
638225076032644905,2.827195,43.83413,42.56207,120.2748,-35.5485,31.79461,0,-0.8883717,-10.62301,-5.780157,-0.6838052,50.61862,0,0,0,9.193379,17.48632,17.81127,0,-109.7821,-59.59857,0.001067912,-0.1257102,0.09433498,0,0.3,0,0,0,0
638225076032984936,1.766997,43.50684,45.76064,120.348,-28.15074,20.22188,0,-0.8883717,-10.62301,-5.706912,-0.61056,50.69187,0,0,0,5.928154,22.12101,23.81244,0,-109.7821,-59.59857,0.001067912,-0.1257102,0.09433498,0,0.3,0,0,0,0
638225076033324836,1.107318,43.15617,46.90466,120.4213,-24.342,14.80174,0,-0.8883717,-10.62301,-5.780157,-0.61056,50.61862,0,0,0,3.761684,23.45331,26.26597,0,-109.7821,-59.59857,0.001067912,-0.1257102,0.09433498,0,0.3,0,0,0,0
638225076033654601,-0.2120396,42.10415,48.84248,120.4213,-16.79774,4.547412,0,-0.8883717,-10.62301,-5.706912,-0.61056,50.61862,0,0,0,-0.7376977,24.99672,30.98427,0,-109.7821,-59.59857,0.001067912,-0.1257102,0.09433498,0,0.3,0,0,0,0
638225076034004491,-1.766997,39.97673,50.52348,120.4213,-8.814018,-5.413931,0,-0.8883717,-10.62301,-5.706912,-0.61056,50.61862,0,0,0,-6.324811,24.24538,36.67019,0,-109.7821,-59.59857,0.001067912,-0.1257102,0.09433498,0,0.3,0,0,0,0
638225076034334368,-2.544476,38.64417,51.06047,120.4945,-5.078516,-9.881886,0,-0.8883717,-10.62301,-5.706912,-0.61056,50.61862,0,0,0,-9.228477,22.81421,39.31757,0,-109.7821,-59.59857,0.001067912,-0.1257102,0.09433498,0,0.3,0,0,0,0
638225076034684249,-4.476392,35.27771,51.57411,120.4945,2.905208,-19.18402,0,-0.8883717,-10.62301,-5.706912,-0.61056,50.61862,0,0,0,-16.65005,17.4877,44.32925,0,-109.7821,-59.59857,0.001067912,-0.1257102,0.09433498,0,0.3,0,0,0,0
638225076035024140,-6.47899,31.79436,51.59746,120.4945,10.15648,-27.38748,0,-0.8883717,-10.62301,-5.706912,-0.6838052,50.61862,0,0,0,-24.58104,10.7737,48.10067,0,-109.7821,-59.59857,0.001067912,-0.1257102,0.09433498,0,0.3,0,0,0,0
638225076035374041,-8.316667,28.56816,51.59746,120.348,16.6753,-33.75981,0,-0.8883717,-10.62301,-5.706912,-0.6838052,50.61862,0,0,0,-32.05548,4.283801,50.93576,0,-109.7821,-59.59857,0.001067912,-0.1257102,0.09433498,0,0.3,0,0,0,0
638225076035713935,-9.329745,26.93169,51.59746,120.2748,20.04458,-36.25014,0,-0.8883717,-10.62301,-5.706912,-0.61056,50.61862,0,0,0,-36.21507,0.9132392,52.08459,0,-109.7821,-59.59857,0.001067912,-0.1257102,0.09433498,0,0.3,0,0,0,0
638225076036053966,-11.14386,24.00941,51.15386,120.348,25.61121,-39.69267,0,-0.8883717,-10.62301,-5.706912,-0.61056,50.61862,0,0,0,-43.6159,-6.032935,53.06476,0,-109.7821,-59.59857,0.001067912,-0.1257102,0.09433498,0,0.3,0,0,0,0
638225076036403715,-11.56794,22.81713,50.92039,120.348,29.12698,-42.10976,0,-0.8883717,-10.62301,-5.780157,-0.61056,50.61862,0,0,0,-45.4061,-9.001846,53.48135,0,-109.7821,-59.59857,0.001067912,-0.1257102,0.09433498,0,0.3,0,0,0,0
638225076036733603,-11.56794,22.30281,51.06047,121.227,30.22566,-42.9887,0,-0.8883717,-10.62301,-5.706912,-0.61056,50.61862,0,0,0,-45.53934,-9.853933,54.13232,0,-109.7821,-59.59857,0.001067912,-0.1257102,0.09433498,0,0.3,0,0,0,0
638225076037073496,-11.4737,20.61958,51.80758,122.4721,31.69056,-44.16063,0,-0.8883717,-10.62301,-5.706912,-0.6838052,50.61862,0,0,0,-45.67407,-12.14016,56.67388,0,-109.7821,-59.59857,0.001067912,-0.1257102,0.09433498,0,0.3,0,0,0,0
638225076037413390,-11.42658,19.5208,52.36792,122.4721,33.52169,-44.81983,0,-0.8883717,-10.62301,-5.706912,-0.61056,50.61862,0,0,0,-45.82161,-13.51323,58.35698,0,-109.7821,-59.59857,0.001067912,-0.1257102,0.09433498,0,0.3,0,0,0,0
638225076037763286,-11.19098,19.33377,52.34457,122.6186,34.54712,-44.96632,0,-0.8883717,-10.62301,-5.706912,-0.6838052,50.61862,0,0,0,-44.91066,-13.96676,58.65295,0,-109.7821,-59.59857,0.001067912,-0.1257102,0.09433498,0,0.3,0,0,0,0
638225076038093168,-10.34282,19.1935,52.48465,122.4721,36.08527,-44.01414,0,-0.8883717,-10.62301,-5.706912,-0.61056,50.61862,0,0,0,-41.60054,-14.01658,59.59446,0,-109.7821,-59.59857,0.001067912,-0.1257102,0.09433498,0,0.3,0,0,0,0
638225076038493183,-9.188385,19.1935,53.27846,122.4721,37.40368,-42.25625,0,-0.8883717,-10.62301,-5.706912,-0.6838052,50.61862,0,0,0,-37.17765,-12.54341,61.48692,0,-109.7821,-59.59857,0.001067912,-0.1257102,0.09433498,0,0.3,0,0,0,0
638225076038832945,-8.081067,19.21688,54.25905,122.6186,38.86858,-41.01108,0,-0.8883717,-10.62301,-5.706912,-0.6838052,50.61862,0,0,0,-32.91617,-10.65113,63.48022,0,-109.7821,-59.59857,0.001067912,-0.1257102,0.09433498,0,0.3,0,0,0,0
638225076039172824,-7.256468,19.3104,54.86607,122.6186,40.04051,-38.96022,0,-0.8883717,-10.62301,-5.706912,-0.61056,50.61862,0,0,0,-29.67078,-9.294608,64.6713,0,-109.7821,-59.59857,0.001067912,-0.1257102,0.09433498,0,0.3,0,0,0,0
638225076039502722,-6.950189,19.33377,54.93612,122.5454,40.40673,-36.90935,0,-0.8883717,-10.62301,-5.780157,-0.61056,50.61862,0,0,0,-28.4339,-9.10989,64.90175,0,-109.7821,-59.59857,0.001067912,-0.1257102,0.09433498,0,0.3,0,0,0,0
638225076039842611,-6.03135,19.28702,54.51587,122.5454,40.91945,-32.36815,0,-0.8883717,-10.62301,-5.706912,-0.6838052,50.61862,0,0,0,-24.63423,-10.0111,64.8018,0,-109.7821,-59.59857,0.001067912,-0.1257102,0.09433498,0,0.3,0,0,0,0
638225076040180608,-4.005194,18.84283,52.69478,122.4721,40.91945,-28.85239,0,-0.8883717,-10.62301,-5.706912,-0.6838052,50.61862,0,0,0,-16.22352,-14.39973,63.35527,0,-109.7821,-59.59857,0.001067912,-0.1257102,0.09433498,0,0.3,0,0,0,0
638225076040530495,-3.180595,18.39865,51.99436,122.3989,40.84621,-27.02126,0,-0.8883717,-10.62301,-5.706912,-0.61056,50.61862,0,0,0,-12.85032,-16.66999,62.9,0,-109.7821,-59.59857,0.001067912,-0.1257102,0.09433498,0,0.3,0,0,0,0
638225076040870388,-1.625637,18.32851,51.10716,122.4721,40.40673,-24.75066,0,-0.8883717,-10.62301,-5.780157,-0.61056,50.61862,0,0,0,-6.535467,-18.44201,61.93151,0,-109.7821,-59.59857,0.001067912,-0.1257102,0.09433498,0,0.3,0,0,0,0
638225076041210277,-0.4947592,18.16486,50.40675,122.5454,39.82077,-22.84628,0,-0.8883717,-10.62301,-5.706912,-0.61056,50.61862,0,0,0,-1.981422,-20.06622,61.10368,0,-109.7821,-59.59857,0.001067912,-0.1257102,0.09433498,0,0.3,0,0,0,0
638225076041560171,0.09423985,18.16486,50.17327,122.5454,39.30806,-19.40376,0,-0.8883717,-10.62301,-5.706912,-0.61056,50.61862,0,0,0,0.3768473,-20.48424,60.76476,0,-109.7821,-59.59857,0.001067912,-0.1257102,0.09433498,0,0.3,0,0,0,0
638225076041900048,1.931917,18.25838,49.70633,122.5454,37.18394,-5.633667,0,-0.8883717,-10.62301,-5.706912,-0.6838052,50.61862,0,0,0,7.698037,-21.10928,59.86782,0,-109.7821,-59.59857,0.001067912,-0.1257102,0.09433498,0,0.3,0,0,0,0
638225076042239940,4.099433,18.39865,49.40281,122.5454,34.32739,10.62676,0,-0.8883717,-10.62301,-5.706912,-0.61056,50.61862,0,0,0,16.28392,-21.33696,58.85391,0,-109.7821,-59.59857,0.001067912,-0.1257102,0.09433498,0,0.3,0,0,0,0
638225076042579834,6.573229,18.16486,49.42616,122.4721,31.9103,21.10082,0,-0.8883717,-10.62301,-5.706912,-0.6838052,50.61862,0,0,0,26.09901,-21.81233,58.14399,0,-109.7821,-59.59857,0.001067912,-0.1257102,0.09433498,0,0.3,0,0,0,0
638225076043019691,9.942304,17.97784,49.21603,122.6186,29.4932,27.54639,0,-0.8883717,-10.62301,-5.706912,-0.61056,50.61862,0,0,0,39.33268,-22.59702,56.03778,0,-109.7821,-59.59857,0.001067912,-0.1257102,0.09433498,0,0.3,0,0,0,0
638225076043359604,11.28522,17.95446,49.07595,122.5454,28.46777,29.08454,0,-0.8883717,-10.62301,-5.706912,-0.61056,50.61862,0,0,0,44.54222,-22.89538,54.86166,0,-109.7821,-59.59857,0.001067912,-0.1257102,0.09433498,0,0.3,0,0,0,0
638225076043689488,14.7721,17.79081,48.56231,122.5454,25.83095,31.35514,0,-0.8883717,-10.62301,-5.706912,-0.61056,50.61862,0,0,0,57.86457,-24.1576,51.0913,0,-109.7821,-59.59857,0.001067912,-0.1257102,0.09433498,0,0.3,0,0,0,0
638225076044029376,18.40033,17.29987,47.8619,122.5454,23.34061,33.25952,0,-0.8883717,-10.62301,-5.706912,-0.6838052,50.61862,0,0,0,71.40118,-26.46252,46.28576,0,-109.7821,-59.59857,0.001067912,-0.1257102,0.09433498,0,0.3,0,0,0,0
638225076044369268,21.93432,16.73879,47.4183,122.5454,21.50948,36.6288,0,-0.8883717,-10.62301,-5.706912,-0.6838052,50.61862,0,0,0,84.37864,-28.47406,41.18566,0,-109.7821,-59.59857,0.001067912,-0.1257102,0.09433498,0,0.3,0,0,0,0
638225076044709164,23.70132,16.43488,47.32491,122.5454,20.70378,39.11913,0,-0.8883717,-10.62301,-5.706912,-0.6838052,50.61862,0,0,0,90.82155,-29.31189,38.53431,0,-109.7821,-59.59857,0.001067912,-0.1257102,0.09433498,0,0.3,0,0,0,0
638225076045059038,27.58871,16.59852,46.71788,122.5454,18.65292,44.9055,0,-0.8883717,-10.62301,-5.706912,-0.61056,50.69187,0,0,0,104.1423,-29.98034,30.9514,0,-109.7821,-59.59857,0.001067912,-0.1257102,0.09433498,0,0.3,0,0,0,0
638225076045388957,30.76931,17.1596,45.99411,122.4721,15.57662,51.57081,0,-0.8883717,-10.62301,-5.706912,-0.61056,50.61862,0,0,0,114.251,-29.94971,23.54153,0,-109.7821,-59.59857,0.001067912,-0.1257102,0.09433498,0,0.3,0,0,0,0
638225076045738822,32.34783,17.29987,45.66725,122.4721,13.89198,55.37956,0,-0.8883717,-10.62301,-5.706912,-0.61056,50.61862,0,0,0,119.1583,-30.18356,19.79195,0,-109.7821,-59.59857,0.001067912,-0.1257102,0.09433498,0,0.3,0,0,0,0
638225076046068739,36.14098,17.37,45.20031,122.4721,10.81569,64.53521,0,-0.8883717,-10.62301,-5.706912,-0.61056,50.61862,0,0,0,130.8653,-30.802,10.84178,0,-109.7821,-59.59857,0.001067912,-0.1257102,0.09433498,0,0.3,0,0,0,0
638225076046408619,38.80325,17.37,45.17696,122.3989,9.350782,71.56674,0,-0.8883717,-10.62301,-5.780157,-0.6838052,50.54538,0,0,0,139.0233,-30.84055,4.539998,0,-109.7821,-59.59857,0.001067912,-0.1257102,0.09433498,0,0.3,0,0,0,0
638225076046748509,40.5467,17.39338,45.27035,122.3256,8.618331,76.32768,0,-0.8883717,-10.62301,-5.706912,-0.61056,50.61862,0,0,0,144.3079,-30.63433,0.3342945,0,-109.7821,-59.59857,0.001067912,-0.1257102,0.09433498,0,0.3,0,0,0,0
638225076047088405,43.72729,17.4869,45.87738,122.2524,7.446409,85.33684,0,-0.8883717,-10.62301,-5.706912,-0.61056,50.61862,0,0,0,154.0833,-29.41775,-7.264723,0,-109.7821,-59.59857,0.001067912,-0.1257102,0.09433498,0,0.3,0,0,0,0
638225076047538257,47.23772,17.76744,46.69453,122.3256,6.127995,95.73765,0,-0.8883717,-10.62301,-5.706912,-0.61056,50.61862,0,0,0,164.4772,-27.42084,-16.24344,0,-109.7821,-59.59857,0.001067912,-0.1257102,0.09433498,0,0.3,0,0,0,0
638225076047888138,50.70104,18.58567,47.55838,122.2524,4.663092,108.702,0,-0.8883717,-10.62301,-5.706912,-0.6838052,50.61862,0,0,0,173.9644,-24.13811,-25.96708,0,-109.7821,-59.59857,0.001067912,-0.1257102,0.09433498,0,0.3,0,0,0,0
638225076048218038,54.35283,19.98837,48.2588,122.3256,2.465737,125.1822,0,-0.8883717,-10.62301,-5.706912,-0.6838052,50.61862,0,0,0,182.6916,-19.84711,-37.32803,0,-109.7821,-59.59857,0.001067912,-0.1257102,0.09433498,0,0.3,0,0,0,0
638225076048557924,54.54131,20.85336,48.42223,121.227,1.147324,134.6308,0,-0.8883717,-10.62301,-5.706912,-0.6838052,50.61862,0,0,0,182.7554,-17.67628,-38.19053,0,-109.7821,-59.59857,0.001067912,-0.1257102,0.09433498,0,0.3,0,0,0,0
638225076048907824,54.37639,22.13916,45.94742,120.4945,-3.686857,137.1944,0,-0.8883717,-10.62301,-5.706912,-0.61056,50.61862,0,0,0,178.3069,-19.11675,-40.58366,0,-109.7821,-59.59857,0.001067912,-0.1257102,0.09433498,0,0.3,0,0,0,0
638225076049237703,54.39995,23.00415,45.36374,120.348,-10.93813,138.9523,0,-0.8883717,-10.62301,-5.706912,-0.6838052,50.61862,0,0,0,176.959,-18.22929,-41.65955,0,-109.7821,-59.59857,0.001067912,-0.1257102,0.09433498,0,0.3,0,0,0,0
638225076049587600,54.37639,24.57049,45.87738,120.348,-17.74993,141.9554,0,-0.8883717,-10.62301,-5.780157,-0.6838052,50.61862,0,0,0,176.3914,-14.03918,-41.95621,0,-109.7821,-59.59857,0.001067912,-0.1257102,0.09433498,0,0.3,0,0,0,0
638225076049927502,54.35283,25.62251,46.11085,120.348,-21.11921,144.2992,0,-0.8883717,-10.62301,-5.706912,-0.61056,50.61862,0,0,0,175.8022,-11.43106,-42.26891,0,-109.7821,-59.59857,0.001067912,-0.1257102,0.09433498,0,0.3,0,0,0,0
638225076050267388,54.35283,27.74993,47.18483,120.2015,-27.56478,144.8119,0,-0.8883717,-10.62301,-5.706912,-0.6838052,50.61862,0,0,0,175.3897,-5.189865,-42.56477,0,-109.7821,-59.59857,0.001067912,-0.1257102,0.09433498,0,0.3,0,0,0,0
638225076050597281,54.32927,29.64356,47.8152,116.0998,-33.20466,144.8852,0,-0.8883717,-10.62301,-5.706912,-0.6838052,50.61862,0,0,0,174.4241,-0.2424478,-43.14865,0,-109.7821,-59.59857,0.001067912,-0.1257102,0.09433498,0,0.3,0,0,0,0
638225076050937173,54.30571,30.48518,47.8152,112.1446,-35.98798,144.9584,0,-0.8883717,-10.62301,-5.706912,-0.61056,50.61862,0,0,0,173.5756,1.452782,-43.64948,0,-109.7821,-59.59857,0.001067912,-0.1257102,0.09433498,0,0.3,0,0,0,0
638225076051277062,54.28215,31.28004,48.6557,100.7916,-41.7011,144.8852,0,-0.8883717,-10.62301,-5.706912,-0.6838052,50.61862,0,0,0,173.8113,4.499516,-43.3718,0,-109.7821,-59.59857,0.001067912,-0.1257102,0.09433498,0,0.3,0,0,0,0
638225076051606959,54.25859,31.60733,51.6208,91.63592,-46.02256,144.8119,0,-0.8883717,-10.62301,-5.706912,-0.6838052,50.61862,0,0,0,177.027,10.44595,-40.94909,0,-109.7821,-59.59857,0.001067912,-0.1257102,0.09433498,0,0.3,0,0,0,0
638225076052056803,54.28215,31.93463,55.09955,89.07233,-49.75807,144.8852,0,-0.8883717,-10.62301,-5.706912,-0.61056,50.61862,0,0,0,180.6761,17.58914,-38.4357,0,-109.7821,-59.59857,0.001067912,-0.1257102,0.09433498,0,0.3,0,0,0,0
638225076052386705,54.30571,32.63597,56.92064,88.04691,-52.2484,144.8852,0,-0.8883717,-10.62301,-5.706912,-0.61056,50.61862,0,0,0,181.9456,22.48314,-37.63628,0,-109.7821,-59.59857,0.001067912,-0.1257102,0.09433498,0,0.3,0,0,0,0
638225076052726602,54.30571,32.89313,57.85452,87.53419,-53.56682,144.9584,0,-0.8883717,-10.62301,-5.780157,-0.61056,50.61862,0,0,0,182.634,24.81725,-37.14179,0,-109.7821,-59.59857,0.001067912,-0.1257102,0.09433498,0,0.3,0,0,0,0
638225076053066494,53.99943,32.54246,59.60557,87.3877,-56.1304,144.8119,0,-0.8883717,-10.62301,-5.706912,-0.61056,50.61862,0,0,0,183.9982,27.6138,-34.66471,0,-109.7821,-59.59857,0.001067912,-0.1257102,0.09433498,0,0.3,0,0,0,0
638225076053406371,52.77431,31.5372,60.6562,89.21883,-59.13345,144.8852,0,-0.8883717,-10.62301,-5.706912,-0.61056,50.61862,0,0,0,183.0558,27.75094,-29.27371,0,-109.7821,-59.59857,0.001067912,-0.1257102,0.09433498,0,0.3,0,0,0,0
638225076053746275,52.72719,30.60207,61.59008,92.29513,-60.89133,144.8852,0,-0.8883717,-10.62301,-5.706912,-0.61056,50.61862,0,0,0,184.6704,27.79003,-27.80732,0,-109.7821,-59.59857,0.001067912,-0.1257102,0.09433498,0,0.3,0,0,0,0
638225076054086168,53.10415,29.08249,62.61737,99.18017,-62.9422,144.8852,0,-0.8883717,-10.62301,-5.706912,-0.6838052,50.61862,0,0,0,187.893,26.83545,-27.29721,0,-109.7821,-59.59857,0.001067912,-0.1257102,0.09433498,0,0.3,0,0,0,0
638225076054426056,54.16435,27.96033,63.43452,100.4253,-63.7479,144.8852,0,-0.8883717,-10.62301,-5.706912,-0.6838052,50.61862,0,0,0,192.1811,26.23568,-29.56279,0,-109.7821,-59.59857,0.001067912,-0.1257102,0.09433498,0,0.3,0,0,0,0
638225076054765954,54.42351,27.84344,64.0182,101.817,-64.04088,144.8852,0,-0.8883717,-10.62301,-5.706912,-0.6838052,50.61862,0,0,0,193.3995,27.21336,-30.00956,0,-109.7821,-59.59857,0.001067912,-0.1257102,0.09433498,0,0.3,0,0,0,0
638225076055105847,54.44707,28.03047,66.1428,108.702,-64.33386,144.7387,0,-0.8883717,-10.62301,-5.706912,-0.6838052,50.61862,0,0,0,194.9854,32.08209,-28.99631,0,-109.7821,-59.59857,0.001067912,-0.1257102,0.09433498,0,0.3,0,0,0,0
638225076055435919,54.35283,28.21749,67.73042,112.584,-64.4071,144.8852,0,-0.8883717,-10.62301,-5.780157,-0.61056,50.61862,0,0,0,195.7654,35.86555,-27.95179,0,-109.7821,-59.59857,0.001067912,-0.1257102,0.09433498,0,0.3,0,0,0,0
638225076055785619,54.30571,28.24087,69.55151,118.8831,-64.48035,144.8852,0,-0.8883717,-10.62301,-5.706912,-0.61056,50.61862,0,0,0,196.8826,39.8606,-26.90522,0,-109.7821,-59.59857,0.001067912,-0.1257102,0.09433498,0,0.3,0,0,0,0
638225076056115513,54.21147,28.26425,70.34531,119.7621,-64.48035,144.8119,0,-0.8883717,-10.62301,-5.706912,-0.61056,50.61862,0,0,0,197.1427,41.64403,-26.22621,0,-109.7821,-59.59857,0.001067912,-0.1257102,0.09433498,0,0.3,0,0,0,0
638225076056565547,53.15127,28.17073,72.70339,119.9818,-64.5536,144.8852,0,-0.8883717,-10.62301,-5.706912,-0.6838052,50.61862,0,0,0,195.9532,46.65719,-21.49818,0,-109.7821,-59.59857,0.001067912,-0.1257102,0.09433498,0,0.3,0,0,0,0
638225076056905264,52.65651,28.1006,73.59058,119.9818,-64.5536,144.9584,0,-0.8883717,-10.62301,-5.706912,-0.61056,50.61862,0,0,0,195.215,48.4894,-19.40177,0,-109.7821,-59.59857,0.001067912,-0.1257102,0.09433498,0,0.3,0,0,0,0
638225076057245151,51.9026,27.98371,75.31828,119.9085,-64.5536,144.8852,0,-0.8883717,-10.62301,-5.706912,-0.61056,50.61862,0,0,0,194.1869,52.12308,-16.10223,0,-109.7821,-59.59857,0.001067912,-0.1257102,0.09433498,0,0.3,0,0,0,0
638225076057595044,51.59631,27.5629,77.55962,119.9818,-64.48035,144.8852,0,-0.8883717,-10.62301,-5.706912,-0.61056,50.61862,0,0,0,194.6864,56.32725,-14.02309,0,-109.7821,-59.59857,0.001067912,-0.1257102,0.09433498,0,0.3,0,0,0,0
638225076057934934,51.59631,27.0252,78.91376,119.9818,-64.5536,144.8852,0,-0.8883717,-10.62301,-5.780157,-0.6838052,50.61862,0,0,0,195.6396,58.30051,-13.26749,0,-109.7821,-59.59857,0.001067912,-0.1257102,0.09433498,0,0.3,0,0,0,0
638225076058274983,51.57275,26.39399,81.29518,119.9818,-64.5536,144.8119,0,-0.8883717,-10.62301,-5.706912,-0.61056,50.61862,0,0,0,196.8392,62.44785,-12.18471,0,-109.7821,-59.59857,0.001067912,-0.1257102,0.09433498,0,0.3,0,0,0,0
638225076058614726,51.14867,26.41737,83.32639,120.055,-64.5536,144.8119,0,-0.8883717,-10.62301,-5.706912,-0.61056,50.61862,0,0,0,196.1517,67.18127,-10.3505,0,-109.7821,-59.59857,0.001067912,-0.1257102,0.09433498,0,0.3,0,0,0,0
638225076058944756,50.67748,26.34723,84.68053,120.055,-64.5536,144.8852,0,-0.8883717,-10.62301,-5.706912,-0.61056,50.61862,0,0,0,195.1565,70.16934,-8.488114,0,-109.7821,-59.59857,0.001067912,-0.1257102,0.09433498,0,0.3,0,0,0,0
638225076059284646,49.52304,26.2771,87.31877,120.1283,-64.62684,144.9584,0,-0.8883717,-10.62301,-5.706912,-0.61056,50.61862,0,0,0,192.2769,76.14776,-4.263662,0,-109.7821,-59.59857,0.001067912,-0.1257102,0.09433498,0,0.3,0,0,0,0
638225076059624383,48.722,26.2771,88.83634,120.055,-64.62684,144.8852,0,-0.8883717,-10.62301,-5.706912,-0.61056,50.61862,0,0,0,190.0532,79.67766,-1.513443,0,-109.7821,-59.59857,0.001067912,-0.1257102,0.09433498,0,0.3,0,0,0,0
638225076059954292,48.22724,26.2771,89.09316,120.1283,-64.5536,144.8852,0,-0.8883717,-10.62301,-5.706912,-0.6838052,50.61862,0,0,0,188.6135,80.27528,0.1286536,0,-109.7821,-59.59857,0.001067912,-0.1257102,0.09433498,0,0.3,0,0,0,0
638225076060304170,46.955,26.2771,89.13986,120.055,-64.5536,144.8852,0,-0.8883717,-10.62301,-5.706912,-0.6838052,50.61862,0,0,0,184.8275,80.38395,4.276035,0,-109.7821,-59.59857,0.001067912,-0.1257102,0.09433498,0,0.3,0,0,0,0
638225076060644071,45.91837,26.76804,89.67685,120.2015,-64.5536,144.8852,0,-0.8883717,-10.62301,-5.706912,-0.61056,50.61862,0,0,0,181.3169,82.65602,7.245654,0,-109.7821,-59.59857,0.001067912,-0.1257102,0.09433498,0,0.3,0,0,0,0
638225076061093924,45.61209,27.25899,90.75082,120.2015,-64.5536,144.9584,0,-0.8883717,-10.62301,-5.780157,-0.6838052,50.61862,0,0,0,179.9981,86.17348,7.84283,0,-109.7821,-59.59857,0.001067912,-0.1257102,0.09433498,0,0.3,0,0,0,0
638225076061433824,45.68277,27.32912,92.57191,120.2015,-64.5536,144.8119,0,-0.8883717,-10.62301,-5.706912,-0.61056,50.61862,0,0,0,180.0739,90.55498,7.482513,0,-109.7821,-59.59857,0.001067912,-0.1257102,0.09433498,0,0.3,0,0,0,0
638225076061783702,45.70633,27.32912,94.32295,120.2748,-64.5536,144.8852,0,-0.8883717,-10.62301,-5.706912,-0.61056,50.61862,0,0,0,179.9707,94.62282,7.237322,0,-109.7821,-59.59857,0.001067912,-0.1257102,0.09433498,0,0.3,0,0,0,0
638225076062113609,45.75344,27.23561,95.07007,120.2015,-64.62684,144.8852,0,-0.8883717,-10.62301,-5.706912,-0.61056,50.69187,0,0,0,180.0846,96.16236,7.059525,0,-109.7821,-59.59857,0.001067912,-0.1257102,0.09433498,0,0.3,0,0,0,0
638225076062443492,46.4838,26.86156,97.54488,120.2015,-64.62684,144.8852,0,-0.8883717,-10.62301,-5.706912,-0.61056,50.61862,0,0,0,182.1341,101.1116,4.586671,0,-109.7821,-59.59857,0.001067912,-0.1257102,0.09433498,0,0.3,0,0,0,0
638225076062783384,47.47332,26.95507,99.64613,120.2748,-64.62684,144.8852,0,-0.8883717,-10.62301,-5.706912,-0.6838052,50.61862,0,0,0,184.4822,106.1409,0.8549182,0,-109.7821,-59.59857,0.001067912,-0.1257102,0.09433498,0,0.3,0,0,0,0
638225076063123274,47.96808,27.72655,100.4166,120.2748,-64.62684,144.8852,0,-0.8883717,-10.62301,-5.706912,-0.6838052,50.61862,0,0,0,185.0919,109.5016,-1.505678,0,-109.7821,-59.59857,0.001067912,-0.1257102,0.09433498,0,0.3,0,0,0,0
638225076063473153,48.67488,29.52667,102.261,120.2748,-64.62684,144.9584,0,-0.8883717,-10.62301,-5.706912,-0.6838052,50.61862,0,0,0,184.9949,117.3877,-5.684279,0,-109.7821,-59.59857,0.001067912,-0.1257102,0.09433498,0,0.3,0,0,0,0
638225076063813053,49.64084,31.60733,104.3856,120.2748,-64.62684,144.7387,0,-0.8883717,-10.62301,-5.706912,-0.6838052,50.61862,0,0,0,184.9662,126.3684,-11.15864,0,-109.7821,-59.59857,0.001067912,-0.1257102,0.09433498,0,0.3,0,0,0,0
638225076064152945,50.08848,32.63597,105.3896,120.2748,-64.62684,144.8119,0,-0.8883717,-10.62301,-5.780157,-0.6838052,50.61862,0,0,0,184.7518,130.6541,-13.81041,0,-109.7821,-59.59857,0.001067912,-0.1257102,0.09433498,0,0.3,0,0,0,0
638225076064482838,50.6068,34.08542,106.0666,120.2748,-64.5536,144.8119,0,-0.8883717,-10.62301,-5.706912,-0.61056,50.61862,0,0,0,184.3785,134.9884,-16.93641,0,-109.7821,-59.59857,0.001067912,-0.1257102,0.09433498,0,0.3,0,0,0,0
638225076064822734,51.078,36.28297,106.09,120.348,-64.62684,144.8852,0,-0.8883717,-10.62301,-5.780157,-0.6838052,50.61862,0,0,0,183.3131,139.2205,-20.3187,0,-109.7821,-59.59857,0.001067912,-0.1257102,0.09433498,0,0.3,0,0,0,0
638225076065158779,51.38427,38.17661,106.09,120.348,-64.5536,144.8119,0,-0.8883717,-10.62301,-5.706912,-0.61056,50.61862,0,0,0,182.0185,142.7295,-22.96476,0,-109.7821,-59.59857,0.001067912,-0.1257102,0.09433498,0,0.3,0,0,0,0
638225076065488650,51.87903,43.31981,106.09,118.3704,-64.62684,144.8852,0,-0.8883717,-10.62301,-5.706912,-0.6838052,50.61862,0,0,0,177.1223,151.7949,-29.36372,0,-109.7821,-59.59857,0.001067912,-0.1257102,0.09433498,0,0.3,0,0,0,0
638225076065838543,52.16175,48.83707,106.09,118.0042,-64.62684,144.8852,0,-0.8883717,-10.62301,-5.706912,-0.61056,50.61862,0,0,0,170.5043,160.6988,-35.91094,0,-109.7821,-59.59857,0.001067912,-0.1257102,0.09433498,0,0.3,0,0,0,0
638225076066188439,52.46804,54.49459,106.09,118.0042,-64.62684,144.8852,0,-0.8883717,-10.62301,-5.706912,-0.61056,50.61862,0,0,0,163.0225,168.8625,-43.1139,0,-109.7821,-59.59857,0.001067912,-0.1257102,0.09433498,0,0.3,0,0,0,0
638225076066518327,52.68008,57.46363,106.09,118.0042,-64.62684,144.9584,0,-0.8883717,-10.62301,-5.706912,-0.61056,50.61862,0,0,0,158.9306,172.7282,-47.18996,0,-109.7821,-59.59857,0.001067912,-0.1257102,0.09433498,0,0.3,0,0,0,0
638225076066858226,53.03347,63.02763,106.09,116.9788,-64.62684,144.8852,0,-0.8883717,-10.62301,-5.706912,-0.61056,50.61862,0,0,0,150.6959,179.1524,-54.93048,0,-109.7821,-59.59857,0.001067912,-0.1257102,0.09433498,0,0.3,0,0,0,0
638225076067198117,53.45755,68.61503,106.0666,115.0011,-64.62684,144.8852,0,-0.8883717,-10.62301,-5.706912,-0.6838052,50.61862,0,0,0,142.016,184.4243,-63.1008,0,-109.7821,-59.59857,0.001067912,-0.1257102,0.09433498,0,0.3,0,0,0,0
638225076067607973,53.88163,74.95052,106.0433,114.2687,-64.62684,144.9584,0,-0.8883717,-10.62301,-5.780157,-0.6838052,50.61862,0,0,0,131.4948,188.9794,-72.39775,0,-109.7821,-59.59857,0.001067912,-0.1257102,0.09433498,0,0.3,0,0,0,0
638225076067907878,54.02299,77.35847,106.0199,114.2687,-64.62684,144.8852,0,-0.8883717,-10.62301,-5.706912,-0.61056,50.61862,0,0,0,127.3401,190.2682,-75.91004,0,-109.7821,-59.59857,0.001067912,-0.1257102,0.09433498,0,0.3,0,0,0,0
638225076068237785,54.21147,83.10951,105.9732,114.3419,-64.62684,144.8852,0,-0.8883717,-10.62301,-5.706912,-0.61056,50.69187,0,0,0,116.972,192.4332,-84.02271,0,-109.7821,-59.59857,0.001067912,-0.1257102,0.09433498,0,0.3,0,0,0,0
638225076068637655,54.21147,89.70216,105.9265,119.3226,-64.62684,144.8119,0,-0.8883717,-10.62301,-5.780157,-0.6838052,50.61862,0,0,0,104.581,193.2901,-92.9556,0,-109.7821,-59.59857,0.001067912,-0.1257102,0.09433498,0,0.3,0,0,0,0
638225076068967559,54.16435,94.28429,105.4596,120.055,-64.62684,144.8119,0,-0.8883717,-10.62301,-5.780157,-0.61056,50.61862,0,0,0,96.11919,191.873,-98.93569,0,-109.7821,-59.59857,0.001067912,-0.1257102,0.09433498,0,0.3,0,0,0,0
638225076069307442,54.11723,97.20657,105.1327,120.1283,-64.62684,144.8852,0,-0.8883717,-10.62301,-5.706912,-0.61056,50.61862,0,0,0,90.74242,190.4584,-102.705,0,-109.7821,-59.59857,0.001067912,-0.1257102,0.09433498,0,0.3,0,0,0,0
638225076069647323,54.09367,101.8588,104.1988,120.2015,-64.70008,144.9584,0,-0.8883717,-10.62301,-5.706912,-0.61056,50.61862,0,0,0,82.51447,186.563,-108.6056,0,-109.7821,-59.59857,0.001067912,-0.1257102,0.09433498,0,0.3,0,0,0,0
638225076069987227,54.32927,101.929,102.0275,120.2748,-64.62684,143.7132,0,-0.8883717,-10.62301,-5.706912,-0.6838052,50.61862,0,0,0,83.56104,181.608,-108.37,0,-109.7821,-59.59857,0.001067912,-0.1257102,0.09433498,0,0.3,0,0,0,0
638225076070317116,54.30571,101.9056,100.4399,120.2015,-64.62684,142.3948,0,-0.8883717,-10.62301,-5.706912,-0.61056,50.61862,0,0,0,84.16418,177.9951,-107.8846,0,-109.7821,-59.59857,0.001067912,-0.1257102,0.09433498,0,0.3,0,0,0,0
638225076070657001,54.35283,101.7887,97.96513,119.6888,-64.62684,140.4172,0,-0.8883717,-10.62301,-5.706912,-0.61056,50.61862,0,0,0,85.17873,172.3657,-107.2619,0,-109.7821,-59.59857,0.001067912,-0.1257102,0.09433498,0,0.3,0,0,0,0
638225076070996901,54.28215,101.8121,95.91057,120.1283,-64.62684,138.2931,0,-0.8883717,-10.62301,-5.780157,-0.6838052,50.61862,0,0,0,85.529,167.6081,-106.8508,0,-109.7821,-59.59857,0.001067912,-0.1257102,0.09433498,0,0.3,0,0,0,0
638225076071346779,54.23503,101.8354,95.02338,120.2748,-64.62684,137.4141,0,-0.8883717,-10.62301,-5.706912,-0.6838052,50.61862,0,0,0,85.5948,165.5415,-106.6966,0,-109.7821,-59.59857,0.001067912,-0.1257102,0.09433498,0,0.3,0,0,0,0
638225076071676672,53.71671,101.7887,92.50187,120.348,-64.62684,136.6085,0,-0.8883717,-10.62301,-5.780157,-0.6838052,50.61862,0,0,0,85.42985,159.7083,-105.6339,0,-109.7821,-59.59857,0.001067912,-0.1257102,0.09433498,0,0.3,0,0,0,0
638225076072016576,53.08059,101.7653,90.47066,120.348,-64.62684,136.6085,0,-0.8883717,-10.62301,-5.706912,-0.61056,50.61862,0,0,0,84.8689,154.9938,-104.5837,0,-109.7821,-59.59857,0.001067912,-0.1257102,0.09433498,0,0.3,0,0,0,0
638225076072366464,52.53872,101.7653,89.18655,120.348,-64.62684,136.2422,0,-0.8883717,-10.62301,-5.780157,-0.6838052,50.61862,0,0,0,84.25495,152.0053,-103.7893,0,-109.7821,-59.59857,0.001067912,-0.1257102,0.09433498,0,0.3,0,0,0,0
638225076072706357,51.76123,101.7887,86.43158,120.348,-64.62684,134.2646,0,-0.8883717,-10.62301,-5.706912,-0.6838052,50.61862,0,0,0,83.13681,145.5876,-102.8367,0,-109.7821,-59.59857,0.001067912,-0.1257102,0.09433498,0,0.3,0,0,0,0
638225076073136216,51.26648,101.7887,82.71936,120.348,-64.62684,132.6532,0,-0.8883717,-10.62301,-5.706912,-0.6838052,50.61862,0,0,0,81.93098,136.988,-102.6322,0,-109.7821,-59.59857,0.001067912,-0.1257102,0.09433498,0,0.3,0,0,0,0
638225076073486099,51.1958,101.6718,78.0966,120.348,-64.62684,131.5545,0,-0.8883717,-10.62301,-5.706912,-0.6838052,50.61862,0,0,0,80.66071,126.4376,-103.4874,0,-109.7821,-59.59857,0.001067912,-0.1257102,0.09433498,0,0.3,0,0,0,0
638225076073815989,51.64344,101.6017,72.04967,120.2015,-64.5536,131.1883,0,-0.8883717,-10.62301,-5.706912,-0.6838052,50.69187,0,0,0,78.44896,112.8781,-106.2689,0,-109.7821,-59.59857,0.001067912,-0.1257102,0.09433498,0,0.3,0,0,0,0
638225076074165882,52.35023,99.75479,64.76532,120.055,-64.62684,130.3826,0,-0.8883717,-10.62301,-5.706912,-0.6838052,50.61862,0,0,0,77.6166,97.92131,-108.4697,0,-109.7821,-59.59857,0.001067912,-0.1257102,0.09433498,0,0.3,0,0,0,0
638225076074505782,52.72719,98.39886,60.93637,120.055,-64.62684,128.8445,0,-0.8883717,-10.62301,-5.780157,-0.6838052,50.61862,0,0,0,77.25337,90.49099,-109.5566,0,-109.7821,-59.59857,0.001067912,-0.1257102,0.09433498,0,0.3,0,0,0,0
638225076074855656,54.07011,95.80387,54.16566,119.9818,-64.62684,125.9879,0,-0.8883717,-10.62301,-5.706912,-0.6838052,50.61862,0,0,0,76.62022,77.94751,-112.8253,0,-109.7821,-59.59857,0.001067912,-0.1257102,0.09433498,0,0.3,0,0,0,0
638225076075195547,54.35283,92.64782,46.85796,119.7621,-64.70008,121.6664,0,-0.8883717,-10.62301,-5.706912,-0.61056,50.61862,0,0,0,74.06224,65.37166,-115.2344,0,-109.7821,-59.59857,0.001067912,-0.1257102,0.09433498,0,0.3,0,0,0,0
638225076075555441,54.35283,90.59054,43.02901,119.6888,-64.70008,118.0774,0,-0.8883717,-10.62301,-5.780157,-0.6838052,50.61862,0,0,0,72.82668,59.21296,-116.1205,0,-109.7821,-59.59857,0.001067912,-0.1257102,0.09433498,0,0.3,0,0,0,0
638225076075895336,54.35283,85.26031,37.02876,118.3704,-64.62684,109.3612,0,-0.8883717,-10.62301,-5.706912,-0.61056,50.61862,0,0,0,74.21187,49.78625,-115.1271,0,-109.7821,-59.59857,0.001067912,-0.1257102,0.09433498,0,0.3,0,0,0,0
638225076076235224,54.35283,79.25211,31.09856,117.9309,-64.62684,102.4762,0,-0.8883717,-10.62301,-5.706912,-0.6838052,50.61862,0,0,0,76.17918,40.17573,-113.7161,0,-109.7821,-59.59857,0.001067912,-0.1257102,0.09433498,0,0.3,0,0,0,0
638225076076585125,54.35283,73.19716,25.07496,117.8577,-64.62684,96.98281,0,-0.8883717,-10.62301,-5.706912,-0.6838052,50.61862,0,0,0,77.25018,30.22433,-112.9481,0,-109.7821,-59.59857,0.001067912,-0.1257102,0.09433498,0,0.3,0,0,0,0
638225076076915012,54.35283,70.18137,22.08651,117.8577,-64.62684,94.56573,0,-0.8883717,-10.62301,-5.706912,-0.6838052,50.61862,0,0,0,77.485,25.23735,-112.7796,0,-109.7821,-59.59857,0.001067912,-0.1257102,0.09433498,0,0.3,0,0,0,0
638225076077264893,54.35283,63.33155,15.33915,118.0774,-64.62684,88.12015,0,-0.8883717,-10.62301,-5.706912,-0.6838052,50.61862,0,0,0,77.30176,13.9144,-112.9111,0,-109.7821,-59.59857,0.001067912,-0.1257102,0.09433498,0,0.3,0,0,0,0
638225076077664778,54.32927,52.32042,6.397151,118.5169,-64.70008,71.71323,0,-0.8883717,-10.62301,-5.706912,-0.6838052,50.61862,0,0,0,78.28703,-3.630979,-112.1557,0,-109.7821,-59.59857,0.001067912,-0.1257102,0.09433498,0,0.3,0,0,0,0
638225076078004653,54.32927,47.24735,3.151881,118.7366,-64.62684,58.23612,0,-0.8883717,-10.62301,-5.706912,-0.6838052,50.61862,0,0,0,79.49526,-11.88056,-111.2884,0,-109.7821,-59.59857,0.001067912,-0.1257102,0.09433498,0,0.3,0,0,0,0
638225076078344556,54.32927,47.36424,2.591547,119.0296,-64.4071,49.37346,0,-0.8883717,-10.62301,-5.706912,-0.6838052,50.61862,0,0,0,78.27471,-11.76143,-112.1645,0,-109.7821,-59.59857,0.001067912,-0.1257102,0.09433498,0,0.3,0,0,0,0
638225076078694444,54.32927,47.411,2.638241,119.1761,-64.48035,34.43144,0,-0.8883717,-10.62301,-5.706912,-0.6838052,50.61862,0,0,0,78.29784,-11.68279,-112.1479,0,-109.7821,-59.59857,0.001067912,-0.1257102,0.09433498,0,0.3,0,0,0,0
638225076079034330,54.32927,47.38762,2.638241,119.1761,-64.5536,25.27579,0,-0.8883717,-10.62301,-5.706912,-0.6838052,50.61862,0,0,0,78.33038,-11.71962,-112.1246,0,-109.7821,-59.59857,0.001067912,-0.1257102,0.09433498,0,0.3,0,0,0,0
638225076079374231,54.30571,47.38762,2.638241,119.1761,-64.5536,20.14863,0,-0.8883717,-10.62301,-5.706912,-0.6838052,50.61862,0,0,0,78.30726,-11.71962,-112.0924,0,-109.7821,-59.59857,0.001067912,-0.1257102,0.09433498,0,0.3,0,0,0,0
638225076079704120,54.30571,47.38762,2.638241,119.1761,-64.5536,18.39075,0,-0.8883717,-10.62301,-5.706912,-0.6838052,50.61862,0,0,0,78.30726,-11.71962,-112.0924,0,-109.7821,-59.59857,0.001067912,-0.1257102,0.09433498,0,0.3,0,0,0,0
638225076080044009,54.30571,47.38762,2.708283,119.1761,-64.5536,16.0469,0,-0.8883717,-10.62301,-5.706912,-0.6838052,50.61862,0,0,0,78.43951,-11.71202,-111.9974,0,-109.7821,-59.59857,0.001067912,-0.1257102,0.09433498,0,0.3,0,0,0,0
638225076080383901,54.30571,47.36424,3.338659,119.1761,-64.5536,14.36226,0,-0.8883717,-10.62301,-5.706912,-0.61056,50.61862,0,0,0,79.66187,-11.67148,-111.1192,0,-109.7821,-59.59857,0.001067912,-0.1257102,0.09433498,0,0.3,0,0,0,0
638225076080733787,54.30571,47.27073,4.132466,119.2493,-64.5536,13.92279,0,-0.8883717,-10.62301,-5.706912,-0.6838052,50.61862,0,0,0,81.28905,-11.69866,-109.9502,0,-109.7821,-59.59857,0.001067912,-0.1257102,0.09433498,0,0.3,0,0,0,0
638225076081073669,54.30571,47.10708,5.113051,119.3226,-64.5536,13.62981,0,-0.8883717,-10.62301,-5.706912,-0.61056,50.61862,0,0,0,83.3634,-11.77356,-108.4599,0,-109.7821,-59.59857,0.001067912,-0.1257102,0.09433498,0,0.3,0,0,0,0
638225076081403577,54.30571,46.68627,6.770707,119.3958,-64.62684,13.48332,0,-0.8883717,-10.62301,-5.706912,-0.6838052,50.61862,0,0,0,87.06045,-12.04342,-105.8039,0,-109.7821,-59.59857,0.001067912,-0.1257102,0.09433498,0,0.3,0,0,0,0
638225076081743466,54.30571,46.31222,7.844682,119.3958,-64.5536,13.55657,0,-0.8883717,-10.62301,-5.780157,-0.61056,50.61862,0,0,0,89.58678,-12.32475,-103.9889,0,-109.7821,-59.59857,0.001067912,-0.1257102,0.09433498,0,0.3,0,0,0,0
638225076082183325,54.30571,44.62899,10.99656,119.3958,-64.5536,13.48332,0,-0.8883717,-10.62301,-5.706912,-0.6838052,50.61862,0,0,0,97.73135,-13.87137,-98.13766,0,-109.7821,-59.59857,0.001067912,-0.1257102,0.09433498,0,0.3,0,0,0,0
638225076082523221,54.30571,43.81075,11.79037,119.3958,-64.5536,13.48332,0,-0.8883717,-10.62301,-5.706912,-0.6838052,50.61862,0,0,0,100.2808,-14.87119,-96.30607,0,-109.7821,-59.59857,0.001067912,-0.1257102,0.09433498,0,0.3,0,0,0,0
638225076082863237,54.30571,42.03401,13.61146,119.2493,-64.5536,13.48332,0,-0.8883717,-10.62301,-5.706912,-0.6838052,50.61862,0,0,0,105.9256,-16.96735,-92.25074,0,-109.7821,-59.59857,0.001067912,-0.1257102,0.09433498,0,0.3,0,0,0,0
638225076083202999,54.30571,40.67807,16.03957,117.5647,-64.5536,14.21577,0,-0.8883717,-10.62301,-5.706912,-0.6838052,50.61862,0,0,0,112.0555,-17.8902,-87.84692,0,-109.7821,-59.59857,0.001067912,-0.1257102,0.09433498,0,0.3,0,0,0,0
638225076083542894,54.30571,40.21051,17.60384,115.0011,-64.5536,15.90041,0,-0.8883717,-10.62301,-5.706912,-0.6838052,50.61862,0,0,0,115.4589,-17.66481,-85.40182,0,-109.7821,-59.59857,0.001067912,-0.1257102,0.09433498,0,0.3,0,0,0,0
638225076083882785,54.30571,39.64943,20.38216,106.5047,-64.5536,23.44467,0,-0.8883717,-10.62301,-5.706912,-0.6838052,50.61862,0,0,0,121.1047,-16.56191,-81.34573,0,-109.7821,-59.59857,0.001067912,-0.1257102,0.09433498,0,0.3,0,0,0,0
