zeyangz2/DNN_classification_different_people_hand/data_by_names/Srikar/srikar_right_28.csv
Timestamp,Therapist joint angle 0,Therapist joint angle 1,Therapist joint angle 2,Therapist joint angle 3,Therapist joint angle 4,Therapist joint angle 5,Patient joint angle 0,Patient joint angle 1,Patient joint angle 2,Patient joint angle 3,Patient joint angle 4,Patient joint angle 5,Virtual joint angle 0,Virtual joint angle 1,Virtual joint angle 2,Therapist position x,Therapist position y,Therapist position z,Patient position x,Patient position y,Patient position z,Virtual position x,Virtual position y,Virtual position z,Assistive Force, Obstacle Force Magnitude, Therapist Constant Force, Patient Constant Force, Recovery Factor, Assistance Level
638225087498836468,0,0,0,0,0,0,0,0,0,0,0,0,0,0,0,0,0,0,0,0,0,0,0,0,0,0.3,0,0,0,0
638225087498906450,13.75902,-1.028641,-0.04669453,-3.143331,-63.96763,42.56165,47.92096,-0.8883717,-9.082087,-78.29288,-7.495606,14.50875,0,0,0,31.68484,-112.3939,-38.95296,83.34011,-110.3957,-93.10179,0.001067912,-0.1257102,0.09433498,0,0.3,0,0,0,0
638225087499206351,13.75902,-1.028641,-0.04669453,-3.143331,-63.96763,42.56165,47.92096,-0.8883717,-9.082087,-78.29288,-7.568851,14.43551,0,0,0,31.68484,-112.3939,-38.95296,83.34011,-110.3957,-93.10179,0.001067912,-0.1257102,0.09433498,0,0.3,0,0,0,0
638225087499556236,13.75902,-1.028641,-0.04669453,-3.143331,-63.96763,42.56165,47.92096,-0.8883717,-9.082087,-78.29288,-7.495606,14.50875,0,0,0,31.68484,-112.3939,-38.95296,83.34011,-110.3957,-93.10179,0.001067912,-0.1257102,0.09433498,0,0.3,0,0,0,0
638225087499926125,13.75902,-1.028641,-0.04669453,-3.143331,-63.96763,42.56165,47.92096,-0.8883717,-9.082087,-78.29288,-7.495606,14.50875,0,0,0,31.68484,-112.3939,-38.95296,83.34011,-110.3957,-93.10179,0.001067912,-0.1257102,0.09433498,0,0.3,0,0,0,0
638225087500256016,13.75902,-1.028641,-0.04669453,-3.143331,-63.96763,42.6349,47.92096,-0.8883717,-9.082087,-78.29288,-7.495606,14.50875,0,0,0,31.68484,-112.3939,-38.95296,83.34011,-110.3957,-93.10179,0.001067912,-0.1257102,0.09433498,0,0.3,0,0,0,0
638225087500595905,13.75902,-1.028641,-0.04669453,-3.216576,-63.96763,42.56165,47.92096,-0.8883717,-9.082087,-78.29288,-7.495606,14.50875,0,0,0,31.68484,-112.3939,-38.95296,83.34011,-110.3957,-93.10179,0.001067912,-0.1257102,0.09433498,0,0.3,0,0,0,0
638225087500935799,13.75902,-1.028641,-0.04669453,-3.143331,-63.96763,42.56165,47.92096,-0.8883717,-9.082087,-78.29288,-7.568851,14.43551,0,0,0,31.68484,-112.3939,-38.95296,83.34011,-110.3957,-93.10179,0.001067912,-0.1257102,0.09433498,0,0.3,0,0,0,0
638225087501275688,13.75902,-1.028641,-0.04669453,-3.143331,-63.96763,42.56165,47.92096,-0.8883717,-9.082087,-78.29288,-7.495606,14.50875,0,0,0,31.68484,-112.3939,-38.95296,83.34011,-110.3957,-93.10179,0.001067912,-0.1257102,0.09433498,0,0.3,0,0,0,0
638225087501625592,13.75902,-1.028641,-0.04669453,-3.143331,-63.96763,42.56165,47.92096,-0.8883717,-9.082087,-78.29288,-7.568851,14.43551,0,0,0,31.68484,-112.3939,-38.95296,83.34011,-110.3957,-93.10179,0.001067912,-0.1257102,0.09433498,0,0.3,0,0,0,0
638225087501965470,13.75902,-1.028641,-0.04669453,-3.143331,-63.96763,42.56165,47.92096,-0.8883717,-9.082087,-78.29288,-7.568851,14.50875,0,0,0,31.68484,-112.3939,-38.95296,83.34011,-110.3957,-93.10179,0.001067912,-0.1257102,0.09433498,0,0.3,0,0,0,0
638225087502305360,13.75902,-1.028641,-0.04669453,-3.216576,-63.96763,42.56165,47.92096,-0.8883717,-9.082087,-78.29288,-7.495606,14.50875,0,0,0,31.68484,-112.3939,-38.95296,83.34011,-110.3957,-93.10179,0.001067912,-0.1257102,0.09433498,0,0.3,0,0,0,0
638225087502635256,13.75902,-1.028641,-0.04669453,-3.143331,-63.96763,42.56165,47.92096,-0.8883717,-9.082087,-78.29288,-7.495606,14.50875,0,0,0,31.68484,-112.3939,-38.95296,83.34011,-110.3957,-93.10179,0.001067912,-0.1257102,0.09433498,0,0.3,0,0,0,0
638225087502975149,13.75902,-1.028641,-0.04669453,-3.143331,-64.04088,42.56165,47.92096,-0.8883717,-9.082087,-78.29288,-7.495606,14.50875,0,0,0,31.68484,-112.3939,-38.95296,83.34011,-110.3957,-93.10179,0.001067912,-0.1257102,0.09433498,0,0.3,0,0,0,0
638225087503315037,13.75902,-1.028641,-0.04669453,-3.216576,-63.96763,42.6349,47.92096,-0.8883717,-9.082087,-78.29288,-7.568851,14.43551,0,0,0,31.68484,-112.3939,-38.95296,83.34011,-110.3957,-93.10179,0.001067912,-0.1257102,0.09433498,0,0.3,0,0,0,0
638225087503664925,13.75902,-1.028641,-0.04669453,-3.216576,-63.96763,42.56165,47.92096,-0.8883717,-9.082087,-78.29288,-7.495606,14.43551,0,0,0,31.68484,-112.3939,-38.95296,83.34011,-110.3957,-93.10179,0.001067912,-0.1257102,0.09433498,0,0.3,0,0,0,0
638225087503994819,13.75902,-1.028641,-0.04669453,-3.216576,-63.96763,42.56165,47.92096,-0.8883717,-9.082087,-78.29288,-7.495606,14.50875,0,0,0,31.68484,-112.3939,-38.95296,83.34011,-110.3957,-93.10179,0.001067912,-0.1257102,0.09433498,0,0.3,0,0,0,0
638225087504434675,13.75902,-1.028641,-0.04669453,-3.216576,-63.96763,42.56165,47.92096,-0.8883717,-9.082087,-78.29288,-7.495606,14.43551,0,0,0,31.68484,-112.3939,-38.95296,83.34011,-110.3957,-93.10179,0.001067912,-0.1257102,0.09433498,0,0.3,0,0,0,0
638225087504774568,13.75902,-1.028641,-0.04669453,-3.216576,-63.96763,42.56165,47.92096,-0.8883717,-9.082087,-78.29288,-7.495606,14.43551,0,0,0,31.68484,-112.3939,-38.95296,83.34011,-110.3957,-93.10179,0.001067912,-0.1257102,0.09433498,0,0.3,0,0,0,0
638225087505114464,13.75902,-1.028641,-0.04669453,-3.143331,-63.96763,42.56165,47.92096,-0.8883717,-9.082087,-78.29288,-7.495606,14.50875,0,0,0,31.68484,-112.3939,-38.95296,83.34011,-110.3957,-93.10179,0.001067912,-0.1257102,0.09433498,0,0.3,0,0,0,0
638225087505464367,13.75902,-1.028641,-0.04669453,-3.143331,-64.04088,42.56165,47.92096,-0.8883717,-9.082087,-78.29288,-7.568851,14.50875,0,0,0,31.68484,-112.3939,-38.95296,83.34011,-110.3957,-93.10179,0.001067912,-0.1257102,0.09433498,0,0.3,0,0,0,0
638225087505804241,13.75902,-1.028641,-0.04669453,-3.216576,-63.96763,42.56165,47.92096,-0.8883717,-9.082087,-78.29288,-7.568851,14.50875,0,0,0,31.68484,-112.3939,-38.95296,83.34011,-110.3957,-93.10179,0.001067912,-0.1257102,0.09433498,0,0.3,0,0,0,0
638225087506144135,12.67526,-1.075397,-0.1400836,-2.557369,-64.04088,42.34192,47.92096,-0.8883717,-9.082087,-78.29288,-7.495606,14.50875,0,0,0,29.18362,-112.5023,-38.59082,83.34011,-110.3957,-93.10179,0.001067912,-0.1257102,0.09433498,0,0.3,0,0,0,0
638225087506494022,9.094145,-0.7948589,-0.3035145,9.674574,-63.89439,34.72442,47.92096,-0.8883717,-9.082087,-78.29288,-7.495606,14.43551,0,0,0,20.96324,-111.848,-37.3864,83.34011,-110.3957,-93.10179,0.001067912,-0.1257102,0.09433498,0,0.3,0,0,0,0
638225087506833916,7.562747,-1.005263,-0.3268617,19.26969,-63.7479,30.69594,47.92096,-0.8883717,-9.082087,-78.29288,-7.495606,14.50875,0,0,0,17.44762,-112.3374,-36.93443,83.34011,-110.3957,-93.10179,0.001067912,-0.1257102,0.09433498,0,0.3,0,0,0,0
638225087507163810,5.041832,-1.005263,-0.4202508,36.55555,-62.9422,26.96043,47.92096,-0.8883717,-9.082087,-78.29288,-7.495606,14.50875,0,0,0,11.63144,-112.3359,-36.5107,83.34011,-110.3957,-93.10179,0.001067912,-0.1257102,0.09433498,0,0.3,0,0,0,0
638225087507513698,3.157035,-1.028641,-0.4202508,47.9818,-61.99001,25.1293,47.92096,-0.8883717,-9.082087,-78.29288,-7.495606,14.43551,0,0,0,7.288905,-112.3903,-36.20044,83.34011,-110.3957,-93.10179,0.001067912,-0.1257102,0.09433498,0,0.3,0,0,0,0
638225087507863581,2.332436,-1.028641,-0.4202508,51.42432,-59.64616,24.32361,47.92096,-0.8883717,-9.082087,-78.29288,-7.495606,14.50875,0,0,0,5.386324,-112.3903,-36.10922,83.34011,-110.3957,-93.10179,0.001067912,-0.1257102,0.09433498,0,0.3,0,0,0,0
638225087508193480,2.167516,-1.028641,-0.4202508,51.86379,-57.66854,24.03063,47.92096,-0.8883717,-9.082087,-78.29288,-7.495606,14.50875,0,0,0,5.005662,-112.3903,-36.09426,83.34011,-110.3957,-93.10179,0.001067912,-0.1257102,0.09433498,0,0.3,0,0,0,0
638225087508533368,2.167516,-1.028641,-0.3969035,51.7173,-52.90761,23.6644,47.92096,-0.8883717,-9.082087,-78.29288,-7.495606,14.43551,0,0,0,5.007717,-112.3907,-36.03997,83.34011,-110.3957,-93.10179,0.001067912,-0.1257102,0.09433498,0,0.3,0,0,0,0
638225087508963232,2.167516,-1.028641,-0.3969035,50.61862,-46.82826,23.44467,47.92096,-0.8883717,-9.082087,-78.29288,-7.495606,14.50875,0,0,0,5.007717,-112.3907,-36.03997,83.34011,-110.3957,-93.10179,0.001067912,-0.1257102,0.09433498,0,0.3,0,0,0,0
638225087509303120,2.167516,-1.028641,-0.3969035,49.66644,-43.09276,23.37142,47.92096,-0.8883717,-9.082087,-78.29288,-7.495606,14.50875,0,0,0,5.007717,-112.3907,-36.03997,83.34011,-110.3957,-93.10179,0.001067912,-0.1257102,0.09433498,0,0.3,0,0,0,0
638225087509643018,2.167516,-1.028641,-0.3969035,49.08047,-40.45593,23.37142,47.92096,-0.8883717,-9.082087,-78.29288,-7.495606,14.50875,0,0,0,5.007717,-112.3907,-36.03997,83.34011,-110.3957,-93.10179,0.001067912,-0.1257102,0.09433498,0,0.3,0,0,0,0
638225087509982906,2.167516,-1.028641,-0.3969035,48.20153,-34.59632,23.29818,47.92096,-0.8883717,-9.082087,-78.29288,-7.495606,14.43551,0,0,0,5.007717,-112.3907,-36.03997,83.34011,-110.3957,-93.10179,0.001067912,-0.1257102,0.09433498,0,0.3,0,0,0,0
638225087510332794,2.167516,-1.028641,-0.3969035,47.68882,-28.15074,23.29818,47.92096,-0.8883717,-9.082087,-78.29288,-7.495606,14.43551,0,0,0,5.007717,-112.3907,-36.03997,83.34011,-110.3957,-93.10179,0.001067912,-0.1257102,0.09433498,0,0.3,0,0,0,0
638225087510682681,2.167516,-1.005263,-0.3969035,47.24934,-21.70517,23.22493,47.92096,-0.8883717,-9.082087,-78.29288,-7.495606,14.50875,0,0,0,5.007753,-112.3363,-36.039,83.34011,-110.3957,-93.10179,0.001067912,-0.1257102,0.09433498,0,0.3,0,0,0,0
638225087511012580,2.167516,-1.005263,-0.3969035,47.10286,-18.70212,23.22493,47.92096,-0.8883717,-9.082087,-78.29288,-7.495606,14.43551,0,0,0,5.007753,-112.3363,-36.039,83.34011,-110.3957,-93.10179,0.001067912,-0.1257102,0.09433498,0,0.3,0,0,0,0
638225087511352471,2.167516,-1.005263,-0.3969035,46.73663,-12.98899,23.22493,47.92096,-0.8883717,-9.082087,-78.29288,-7.495606,14.50875,0,0,0,5.007753,-112.3363,-36.039,83.34011,-110.3957,-93.10179,0.001067912,-0.1257102,0.09433498,0,0.3,0,0,0,0
638225087511702356,2.167516,-1.005263,-0.3969035,46.22392,-7.568851,23.22493,47.92096,-0.8883717,-9.082087,-78.29288,-7.495606,14.43551,0,0,0,5.007753,-112.3363,-36.039,83.34011,-110.3957,-93.10179,0.001067912,-0.1257102,0.09433498,0,0.3,0,0,0,0
638225087512032254,2.214636,-1.005263,-0.4202508,45.85769,-5.225006,23.29818,47.92096,-0.8883717,-9.082087,-78.29288,-7.568851,14.50875,0,0,0,5.114464,-112.3359,-36.09746,83.34011,-110.3957,-93.10179,0.001067912,-0.1257102,0.09433498,0,0.3,0,0,0,0
638225087512372144,2.379556,-1.005263,-0.4202508,45.12524,-0.171089,23.29818,47.92096,-0.8883717,-9.082087,-78.29288,-7.495606,14.50875,0,0,0,5.495117,-112.3359,-36.11273,83.34011,-110.3957,-93.10179,0.001067912,-0.1257102,0.09433498,0,0.3,0,0,0,0
638225087512712035,2.426676,-1.005263,-0.4202508,44.17305,4.589847,23.29818,47.92096,-0.8883717,-9.082087,-78.29288,-7.495606,14.43551,0,0,0,5.603867,-112.3359,-36.11729,83.34011,-110.3957,-93.10179,0.001067912,-0.1257102,0.09433498,0,0.3,0,0,0,0
638225087513051923,2.426676,-1.005263,-0.4202508,43.58709,7.226673,23.29818,47.92096,-0.8883717,-9.082087,-78.29288,-7.568851,14.50875,0,0,0,5.603867,-112.3359,-36.11729,83.34011,-110.3957,-93.10179,0.001067912,-0.1257102,0.09433498,0,0.3,0,0,0,0
638225087513391818,2.450236,-1.005263,-0.4202508,42.6349,11.91436,23.29818,47.92096,-0.8883717,-9.082087,-78.29288,-7.495606,14.43551,0,0,0,5.658241,-112.3359,-36.11961,83.34011,-110.3957,-93.10179,0.001067912,-0.1257102,0.09433498,0,0.3,0,0,0,0
638225087513741702,2.591596,-1.005263,-0.4669453,41.60947,16.6753,23.22493,47.92096,-0.8883717,-9.082087,-78.29288,-7.495606,14.43551,0,0,0,5.979547,-112.3351,-36.24253,83.34011,-110.3957,-93.10179,0.001067912,-0.1257102,0.09433498,0,0.3,0,0,0,0
638225087514071599,2.685836,-1.005263,-0.4669453,40.3643,21.58273,23.29818,47.92096,-0.8883717,-9.082087,-78.29288,-7.495606,14.43551,0,0,0,6.196829,-112.3351,-36.25255,83.34011,-110.3957,-93.10179,0.001067912,-0.1257102,0.09433498,0,0.3,0,0,0,0
638225087514411491,2.685836,-1.005263,-0.4669453,39.33887,24.21955,23.22493,47.92096,-0.8883717,-9.082087,-78.29288,-7.495606,14.50875,0,0,0,6.196829,-112.3351,-36.25255,83.34011,-110.3957,-93.10179,0.001067912,-0.1257102,0.09433498,0,0.3,0,0,0,0
638225087514751382,2.685836,-1.005263,-0.4669453,36.04284,29.41996,23.22493,47.92096,-0.8883717,-9.082087,-78.29288,-7.495606,14.43551,0,0,0,6.196829,-112.3351,-36.25255,83.34011,-110.3957,-93.10179,0.001067912,-0.1257102,0.09433498,0,0.3,0,0,0,0
638225087515101268,2.685836,-1.005263,-0.4669453,30.32971,35.42606,21.46704,47.92096,-0.8883717,-9.082087,-78.29288,-7.495606,14.50875,0,0,0,6.196829,-112.3351,-36.25255,83.34011,-110.3957,-93.10179,0.001067912,-0.1257102,0.09433498,0,0.3,0,0,0,0
638225087515441161,2.685836,-1.005263,-0.4669453,26.66745,38.20938,19.34294,47.92096,-0.8883717,-9.082087,-78.29288,-7.495606,14.50875,0,0,0,6.196829,-112.3351,-36.25255,83.34011,-110.3957,-93.10179,0.001067912,-0.1257102,0.09433498,0,0.3,0,0,0,0
638225087515781052,2.685836,-1.005263,-0.4669453,15.31445,42.97031,10.55352,47.92096,-0.8883717,-9.082087,-78.29288,-7.495606,14.50875,0,0,0,6.196829,-112.3351,-36.25255,83.34011,-110.3957,-93.10179,0.001067912,-0.1257102,0.09433498,0,0.3,0,0,0,0
638225087516120946,2.685836,-1.005263,-0.4435981,-0.5065048,44.65495,0.4456824,47.92096,-0.8883717,-9.082087,-78.29288,-7.495606,14.43551,0,0,0,6.199375,-112.3355,-36.19827,83.34011,-110.3957,-93.10179,0.001067912,-0.1257102,0.09433498,0,0.3,0,0,0,0
638225087516570800,2.850755,-1.005263,-0.3969035,-22.48005,40.55322,-11.85951,47.92096,-0.8883717,-9.082087,-78.29288,-7.495606,14.50875,0,0,0,6.585138,-112.3363,-36.10812,83.34011,-110.3957,-93.10179,0.001067912,-0.1257102,0.09433498,0,0.3,0,0,0,0
638225087516910691,3.227715,-1.005263,-0.3969035,-33.46683,36.305,-15.37527,47.92096,-0.8883717,-9.082087,-78.29288,-7.495606,14.43551,0,0,0,7.455033,-112.3363,-36.15431,83.34011,-110.3957,-93.10179,0.001067912,-0.1257102,0.09433498,0,0.3,0,0,0,0
638225087517240587,3.581114,-1.005263,-0.4902926,-39.83916,32.93573,-18.08535,47.92096,-0.8883717,-9.082087,-78.29288,-7.495606,14.50875,0,0,0,8.256691,-112.3346,-36.41973,83.34011,-110.3957,-93.10179,0.001067912,-0.1257102,0.09433498,0,0.3,0,0,0,0
638225087517590475,4.075873,-1.028641,-1.003932,-49.8005,25.97744,-23.13926,47.92096,-0.8883717,-9.082087,-78.29288,-7.495606,14.50875,0,0,0,9.310579,-112.3735,-37.68922,83.34011,-110.3957,-93.10179,0.001067912,-0.1257102,0.09433498,0,0.3,0,0,0,0
638225087517930368,4.405713,-1.028641,-0.9572379,-57.418,18.87265,-30.09755,47.92096,-0.8883717,-9.082087,-78.29288,-7.495606,14.43551,0,0,0,10.07095,-112.3753,-37.63665,83.34011,-110.3957,-93.10179,0.001067912,-0.1257102,0.09433498,0,0.3,0,0,0,0
638225087518280257,4.476392,-1.028641,-0.9572379,-63.86357,11.40165,-38.4475,47.92096,-0.8883717,-9.082087,-78.29288,-7.495606,14.50875,0,0,0,10.23219,-112.3753,-37.64917,83.34011,-110.3957,-93.10179,0.001067912,-0.1257102,0.09433498,0,0.3,0,0,0,0
638225087518610148,4.523513,-1.028641,-0.9572379,-66.79338,7.446409,-44.08738,47.92096,-0.8883717,-9.082087,-78.29288,-7.568851,14.50875,0,0,0,10.33968,-112.3753,-37.65763,83.34011,-110.3957,-93.10179,0.001067912,-0.1257102,0.09433498,0,0.3,0,0,0,0
638225087518950042,4.853352,-1.028641,-0.9805852,-72.5065,-0.9767859,-54.63469,47.92096,-0.8883717,-9.082087,-78.29288,-7.495606,14.50875,0,0,0,11.08727,-112.3744,-37.77346,83.34011,-110.3957,-93.10179,0.001067912,-0.1257102,0.09433498,0,0.3,0,0,0,0
638225087519299925,5.371671,-1.028641,-0.9805852,-78.51261,-9.326735,-58.8829,47.92096,-0.8883717,-9.082087,-78.29288,-7.495606,14.50875,0,0,0,12.26805,-112.3744,-37.8791,83.34011,-110.3957,-93.10179,0.001067912,-0.1257102,0.09433498,0,0.3,0,0,0,0
638225087519629824,5.79575,-1.028641,-0.9805852,-80.9297,-13.20873,-59.61535,47.92096,-0.8883717,-9.082087,-78.29288,-7.495606,14.50875,0,0,0,13.2334,-112.3744,-37.97347,83.34011,-110.3957,-93.10179,0.001067912,-0.1257102,0.09433498,0,0.3,0,0,0,0
638225087519979711,6.832388,-1.028641,-0.9805852,-84.37222,-21.33894,-60.42105,47.92096,-0.8883717,-9.082087,-78.29288,-7.495606,14.50875,0,0,0,15.58997,-112.3744,-38.23423,83.34011,-110.3957,-93.10179,0.001067912,-0.1257102,0.09433498,0,0.3,0,0,0,0
638225087520319602,7.350708,-1.028641,-0.9805852,-85.83713,-28.44372,-60.64079,47.92096,-0.8883717,-9.082087,-78.29288,-7.495606,14.43551,0,0,0,16.76639,-112.3744,-38.38058,83.34011,-110.3957,-93.10179,0.001067912,-0.1257102,0.09433498,0,0.3,0,0,0,0
638225087520659494,7.350708,-1.028641,-0.9805852,-86.56957,-35.03579,-60.56754,47.92096,-0.8883717,-9.082087,-78.29288,-7.495606,14.43551,0,0,0,16.76639,-112.3744,-38.38058,83.34011,-110.3957,-93.10179,0.001067912,-0.1257102,0.09433498,0,0.3,0,0,0,0
638225087521089362,7.350708,-1.028641,-0.9805852,-86.20335,-41.26163,-59.32237,47.92096,-0.8883717,-9.082087,-78.29288,-7.495606,14.43551,0,0,0,16.76639,-112.3744,-38.38058,83.34011,-110.3957,-93.10179,0.001067912,-0.1257102,0.09433498,0,0.3,0,0,0,0
638225087521429251,7.350708,-1.028641,-0.9805852,-85.69064,-43.82521,-57.78423,47.92096,-0.8883717,-9.082087,-78.29288,-7.495606,14.50875,0,0,0,16.76639,-112.3744,-38.38058,83.34011,-110.3957,-93.10179,0.001067912,-0.1257102,0.09433498,0,0.3,0,0,0,0
638225087521759140,7.350708,-1.028641,-0.9805852,-83.63977,-49.68482,-54.56144,47.92096,-0.8883717,-9.082087,-78.29288,-7.495606,14.50875,0,0,0,16.76639,-112.3744,-38.38058,83.34011,-110.3957,-93.10179,0.001067912,-0.1257102,0.09433498,0,0.3,0,0,0,0
638225087522109034,7.350708,-1.028641,-0.9338906,-79.53804,-55.47119,-53.02329,47.92096,-0.8883717,-9.082087,-78.29288,-7.495606,14.50875,0,0,0,16.78029,-112.3762,-38.27281,83.34011,-110.3957,-93.10179,0.001067912,-0.1257102,0.09433498,0,0.3,0,0,0,0
638225087522448920,7.256468,-1.028641,-0.8871961,-76.242,-58.25451,-52.65706,47.92096,-0.8883717,-9.082087,-78.29288,-7.495606,14.43551,0,0,0,16.58005,-112.3779,-38.1376,83.34011,-110.3957,-93.10179,0.001067912,-0.1257102,0.09433498,0,0.3,0,0,0,0
638225087522788811,5.748631,-1.005263,-0.8638488,-66.86663,-61.40405,-57.5645,47.92096,-0.8883717,-9.082087,-78.29288,-7.495606,14.50875,0,0,0,13.15348,-112.3244,-37.69138,83.34011,-110.3957,-93.10179,0.001067912,-0.1257102,0.09433498,0,0.3,0,0,0,0
638225087523128705,4.570632,-0.8182371,-0.9105434,-54.63469,-62.86895,-72.14028,47.92096,-0.8883717,-9.082087,-78.29288,-7.495606,14.50875,0,0,0,10.45644,-111.8875,-37.55,83.34011,-110.3957,-93.10179,0.001067912,-0.1257102,0.09433498,0,0.3,0,0,0,0
638225087523468596,3.769594,-0.5143204,-0.8871961,-45.33255,-63.45492,-84.88493,47.92096,-0.8883717,-9.082087,-78.29288,-7.495606,14.43551,0,0,0,8.630911,-111.181,-37.35417,83.34011,-110.3957,-93.10179,0.001067912,-0.1257102,0.09433498,0,0.3,0,0,0,0
638225087523808502,3.486874,-0.5143204,-0.9105434,-41.67029,-63.6014,-90.08535,47.92096,-0.8883717,-9.082087,-78.29288,-7.495606,14.50875,0,0,0,7.98112,-111.1802,-37.36741,83.34011,-110.3957,-93.10179,0.001067912,-0.1257102,0.09433498,0,0.3,0,0,0,0
638225087524148377,2.709396,-0.5610769,-0.9572379,-32.95412,-63.89439,-104.6611,47.92096,-0.8883717,-9.082087,-78.29288,-7.495606,14.43551,0,0,0,6.197878,-111.2872,-37.38073,83.34011,-110.3957,-93.10179,0.001067912,-0.1257102,0.09433498,0,0.3,0,0,0,0
638225087524488270,1.696317,-0.5844551,-0.9572379,-22.11383,-63.89439,-136.2298,47.92096,-0.8883717,-9.082087,-78.29288,-7.568851,14.50875,0,0,0,3.881274,-111.3416,-37.29216,83.34011,-110.3957,-93.10179,0.001067912,-0.1257102,0.09433498,0,0.3,0,0,0,0
638225087524828158,1.177998,-0.6078333,-0.9572379,-13.91037,-63.82114,-141.357,47.92096,-0.8883717,-9.082087,-78.29288,-7.495606,14.50875,0,0,0,2.695522,-111.396,-37.26298,83.34011,-110.3957,-93.10179,0.001067912,-0.1257102,0.09433498,0,0.3,0,0,0,0
638225087525168051,-0.4240793,-0.7013461,-1.330794,-2.337634,-62.86895,-142.0894,47.92096,-0.8883717,-9.082087,-78.29288,-7.495606,14.50875,0,0,0,-0.9639952,-111.5963,-38.11057,83.34011,-110.3957,-93.10179,0.001067912,-0.1257102,0.09433498,0,0.3,0,0,0,0
638225087525607914,-2.379556,-0.7481025,-1.587614,4.034696,-61.40405,-142.0894,47.92096,-0.8883717,-9.082087,-78.29288,-7.495606,14.50875,0,0,0,-5.382713,-111.6899,-38.81769,83.34011,-110.3957,-93.10179,0.001067912,-0.1257102,0.09433498,0,0.3,0,0,0,0
638225087525957800,-4.335033,-0.9818845,-1.657656,7.184238,-60.01239,-142.0894,47.92096,-0.8883717,-9.082087,-78.29288,-7.495606,14.50875,0,0,0,-9.786655,-112.2293,-39.24747,83.34011,-110.3957,-93.10179,0.001067912,-0.1257102,0.09433498,0,0.3,0,0,0,0
638225087526297690,-6.431869,-1.028641,-1.657656,9.235103,-58.62074,-142.1627,47.92096,-0.8883717,-9.082087,-78.29288,-7.495606,14.50875,0,0,0,-14.50356,-112.3381,-39.6939,83.34011,-110.3957,-93.10179,0.001067912,-0.1257102,0.09433498,0,0.3,0,0,0,0
638225087526627587,-7.397828,-1.028641,-1.657656,10.18729,-58.03477,-142.1627,47.92096,-0.8883717,-9.082087,-78.29288,-7.495606,14.50875,0,0,0,-16.67043,-112.3381,-39.95668,83.34011,-110.3957,-93.10179,0.001067912,-0.1257102,0.09433498,0,0.3,0,0,0,0
638225087526977470,-9.353305,-1.028641,-1.657656,12.38465,-56.56987,-142.1627,47.92096,-0.8883717,-9.082087,-78.29288,-7.495606,14.50875,0,0,0,-21.04187,-112.3381,-40.6003,83.34011,-110.3957,-93.10179,0.001067912,-0.1257102,0.09433498,0,0.3,0,0,0,0
638225087527317364,-10.90826,-1.005263,-1.681003,15.16796,-54.95848,-142.1627,47.92096,-0.8883717,-9.082087,-78.29288,-7.495606,14.43551,0,0,0,-24.49062,-112.2821,-41.27071,83.34011,-110.3957,-93.10179,0.001067912,-0.1257102,0.09433498,0,0.3,0,0,0,0
638225087527667258,-11.87422,-0.9585064,-1.79774,19.1232,-52.68787,-142.1627,47.92096,-0.8883717,-9.082087,-78.29288,-7.495606,14.50875,0,0,0,-26.57399,-112.1651,-41.96558,83.34011,-110.3957,-93.10179,0.001067912,-0.1257102,0.09433498,0,0.3,0,0,0,0
638225087527997147,-12.10982,-0.8649935,-1.867781,21.32055,-50.85675,-142.1627,47.92096,-0.8883717,-9.082087,-78.29288,-7.568851,14.50875,0,0,0,-27.06,-111.9423,-42.23184,83.34011,-110.3957,-93.10179,0.001067912,-0.1257102,0.09433498,0,0.3,0,0,0,0
638225087528337042,-12.55746,-0.8416153,-1.867781,25.86176,-46.46204,-142.1627,47.92096,-0.8883717,-9.082087,-78.29288,-7.495606,14.50875,0,0,0,-28.04467,-111.8879,-42.44631,83.34011,-110.3957,-93.10179,0.001067912,-0.1257102,0.09433498,0,0.3,0,0,0,0
638225087528686928,-13.28782,-0.8182371,-1.821087,30.10997,-41.11514,-142.1627,47.92096,-0.8883717,-9.082087,-78.29288,-7.495606,14.50875,0,0,0,-29.67241,-111.8369,-42.70754,83.34011,-110.3957,-93.10179,0.001067912,-0.1257102,0.09433498,0,0.3,0,0,0,0
638225087529016833,-13.7119,-0.6779679,-1.70435,31.57488,-38.33182,-142.1627,47.92096,-0.8883717,-9.082087,-78.29288,-7.495606,14.50875,0,0,0,-30.66693,-111.5189,-42.66264,83.34011,-110.3957,-93.10179,0.001067912,-0.1257102,0.09433498,0,0.3,0,0,0,0
638225087529356713,-14.6543,0.116891,-0.8638488,33.40601,-32.54545,-142.1627,47.92096,-0.8883717,-9.082087,-78.29288,-7.495606,14.43551,0,0,0,-33.22704,-109.7128,-41.2832,83.34011,-110.3957,-93.10179,0.001067912,-0.1257102,0.09433498,0,0.3,0,0,0,0
638225087529696604,-15.31397,1.870256,0.5603344,34.06521,-27.41829,-142.1627,47.92096,-0.8883717,-9.082087,-78.29288,-7.495606,14.50875,0,0,0,-35.5445,-105.6416,-38.54557,83.34011,-110.3957,-93.10179,0.001067912,-0.1257102,0.09433498,0,0.3,0,0,0,0
638225087530146459,-15.40822,5.166583,3.432048,33.99197,-22.7306,-142.2359,47.92096,-0.8883717,-9.082087,-78.29288,-7.495606,14.50875,0,0,0,-37.40742,-97.75244,-32.61924,83.34011,-110.3957,-93.10179,0.001067912,-0.1257102,0.09433498,0,0.3,0,0,0,0
638225087530476355,-15.40822,8.20575,6.023595,33.77223,-20.67974,-142.1627,47.92096,-0.8883717,-9.082087,-78.29288,-7.568851,14.43551,0,0,0,-38.78559,-90.23093,-27.61861,83.34011,-110.3957,-93.10179,0.001067912,-0.1257102,0.09433498,0,0.3,0,0,0,0
638225087530826242,-15.43177,10.23965,7.797987,33.62574,-20.02053,-142.2359,47.92096,-0.8883717,-9.082087,-78.29288,-7.495606,14.50875,0,0,0,-39.73244,-85.06178,-24.41412,83.34011,-110.3957,-93.10179,0.001067912,-0.1257102,0.09433498,0,0.3,0,0,0,0
638225087531156137,-15.54957,14.70489,11.5102,33.18628,-20.02053,-142.1627,47.92096,-0.8883717,-9.082087,-78.29288,-7.568851,14.43551,0,0,0,-41.70966,-73.4686,-18.45357,83.34011,-110.3957,-93.10179,0.001067912,-0.1257102,0.09433498,0,0.3,0,0,0,0
638225087531496030,-15.71449,19.3104,15.12903,32.89329,-21.48543,-142.1627,47.92096,-0.8883717,-9.082087,-78.29288,-7.495606,14.50875,0,0,0,-43.51145,-61.28123,-13.70327,83.34011,-110.3957,-93.10179,0.001067912,-0.1257102,0.09433498,0,0.3,0,0,0,0
638225087531835923,-15.83229,21.46119,17.0435,32.89329,-22.7306,-142.1627,47.92096,-0.8883717,-9.082087,-78.29288,-7.495606,14.50875,0,0,0,-44.5216,-55.35471,-11.35183,83.34011,-110.3957,-93.10179,0.001067912,-0.1257102,0.09433498,0,0.3,0,0,0,0
638225087532175814,-16.06789,24.7809,20.59229,33.11303,-25.58716,-142.1627,47.92096,-0.8883717,-9.082087,-78.29288,-7.495606,14.50875,0,0,0,-46.49067,-45.58628,-6.939876,83.34011,-110.3957,-93.10179,0.001067912,-0.1257102,0.09433498,0,0.3,0,0,0,0
638225087532515704,-16.11501,27.21223,23.464,33.99197,-28.95644,-142.1627,47.92096,-0.8883717,-9.082087,-78.29288,-7.495606,14.43551,0,0,0,-47.65454,-37.99403,-3.409184,83.34011,-110.3957,-93.10179,0.001067912,-0.1257102,0.09433498,0,0.3,0,0,0,0
638225087532865600,-16.11501,28.311,25.47187,35.89634,-32.47221,-142.1627,47.92096,-0.8883717,-9.082087,-78.29288,-7.495606,14.43551,0,0,0,-48.50447,-33.79571,-0.4674495,83.34011,-110.3957,-93.10179,0.001067912,-0.1257102,0.09433498,0,0.3,0,0,0,0
638225087533195488,-16.11501,28.40452,26.66258,37.87396,-35.25552,-142.1627,47.92096,-0.8883717,-9.082087,-78.29288,-7.495606,14.43551,0,0,0,-49.16673,-32.38645,1.82474,83.34011,-110.3957,-93.10179,0.001067912,-0.1257102,0.09433498,0,0.3,0,0,0,0
638225087533535380,-16.11501,28.311,27.26961,40.65728,-38.03884,-142.1627,47.92096,-0.8883717,-9.082087,-78.29288,-7.495606,14.43551,0,0,0,-49.54493,-31.93732,3.13376,83.34011,-110.3957,-93.10179,0.001067912,-0.1257102,0.09433498,0,0.3,0,0,0,0
638225087533875272,-16.11501,28.28763,27.43304,45.34497,-41.92084,-142.1627,47.92096,-0.8883717,-9.082087,-78.29288,-7.568851,14.43551,0,0,0,-49.64586,-31.81047,3.483111,83.34011,-110.3957,-93.10179,0.001067912,-0.1257102,0.09433498,0,0.3,0,0,0,0
638225087534215165,-16.09145,28.311,27.43304,47.9818,-43.67872,-142.1627,47.92096,-0.8883717,-9.082087,-78.29288,-7.495606,14.43551,0,0,0,-49.56805,-31.76257,3.478727,83.34011,-110.3957,-93.10179,0.001067912,-0.1257102,0.09433498,0,0.3,0,0,0,0
638225087534665016,-16.09145,28.38114,26.73262,57.50367,-48.87913,-142.2359,47.92096,-0.8883717,-9.082087,-78.29288,-7.495606,14.50875,0,0,0,-49.14428,-32.36107,2.009732,83.34011,-110.3957,-93.10179,0.001067912,-0.1257102,0.09433498,0,0.3,0,0,0,0
638225087535004909,-16.09145,28.40452,26.24233,60.57997,-50.34403,-142.1627,47.92096,-0.8883717,-9.082087,-78.29288,-7.495606,14.43551,0,0,0,-48.85403,-32.82214,1.003566,83.34011,-110.3957,-93.10179,0.001067912,-0.1257102,0.09433498,0,0.3,0,0,0,0
638225087535354797,-16.06789,28.56816,24.7948,66.73256,-53.12735,-142.2359,47.92096,-0.8883717,-9.082087,-78.29288,-7.495606,14.50875,0,0,0,-47.89264,-33.93871,-2.07239,83.34011,-110.3957,-93.10179,0.001067912,-0.1257102,0.09433498,0,0.3,0,0,0,0
638225087535694692,-16.06789,28.66168,22.57681,73.03164,-55.98391,-142.1627,47.92096,-0.8883717,-9.082087,-78.29288,-7.495606,14.43551,0,0,0,-46.55547,-35.82126,-6.714888,83.34011,-110.3957,-93.10179,0.001067912,-0.1257102,0.09433498,0,0.3,0,0,0,0
638225087536034581,-16.06789,28.73181,21.22267,76.32768,-57.5953,-142.1627,47.92096,-0.8883717,-9.082087,-78.29288,-7.495606,14.50875,0,0,0,-45.72445,-36.85356,-9.600101,83.34011,-110.3957,-93.10179,0.001067912,-0.1257102,0.09433498,0,0.3,0,0,0,0
638225087536374471,-15.21973,28.80194,18.3276,82.91974,-60.96458,-142.2359,47.92096,-0.8883717,-9.082087,-78.29288,-7.495606,14.43551,0,0,0,-41.68454,-38.98988,-15.13401,83.34011,-110.3957,-93.10179,0.001067912,-0.1257102,0.09433498,0,0.3,0,0,0,0
638225087536714364,-11.56794,28.6383,15.64267,89.51181,-62.72246,-142.2359,47.92096,-0.8883717,-9.082087,-78.29288,-7.495606,14.43551,0,0,0,-30.67954,-41.14918,-18.46521,83.34011,-110.3957,-93.10179,0.001067912,-0.1257102,0.09433498,0,0.3,0,0,0,0
638225087537054252,-9.659584,28.56816,14.0784,93.02757,-63.23518,-142.2359,47.92096,-0.8883717,-9.082087,-78.29288,-7.495606,14.50875,0,0,0,-25.0939,-42.22617,-20.91855,83.34011,-110.3957,-93.10179,0.001067912,-0.1257102,0.09433498,0,0.3,0,0,0,0
638225087537394146,-5.418791,28.54479,11.37012,101.4508,-63.67465,-142.1627,47.92096,-0.8883717,-9.082087,-78.29288,-7.495606,14.50875,0,0,0,-13.54478,-43.66219,-25.56106,83.34011,-110.3957,-93.10179,0.001067912,-0.1257102,0.09433498,0,0.3,0,0,0,0
638225087537734038,-0.2591596,28.49803,8.895308,110.6797,-63.96763,-142.2359,47.92096,-0.8883717,-9.082087,-78.29288,-7.495606,14.43551,0,0,0,-0.6233488,-44.77105,-30.53912,83.34011,-110.3957,-93.10179,0.001067912,-0.1257102,0.09433498,0,0.3,0,0,0,0
638225087538073927,4.499953,28.24087,6.957485,118.4436,-64.04088,-142.2359,47.92096,-0.8883717,-9.082087,-78.29288,-7.495606,14.43551,0,0,0,10.48437,-45.91959,-35.13203,83.34011,-110.3957,-93.10179,0.001067912,-0.1257102,0.09433498,0,0.3,0,0,0,0
638225087538423814,7.397828,28.00709,6.000247,119.5423,-64.04088,-142.0894,47.92096,-0.8883717,-9.082087,-78.29288,-7.495606,14.50875,0,0,0,16.95392,-46.65084,-37.77328,83.34011,-110.3957,-93.10179,0.001067912,-0.1257102,0.09433498,0,0.3,0,0,0,0
638225087538763704,12.58102,27.82006,4.552717,119.7621,-64.11412,-141.2105,47.92096,-0.8883717,-9.082087,-78.29288,-7.495606,14.43551,0,0,0,27.99463,-47.34529,-42.91402,83.34011,-110.3957,-93.10179,0.001067912,-0.1257102,0.09433498,0,0.3,0,0,0,0
638225087539183575,17.88201,27.86682,3.618826,119.7621,-64.11412,-134.4719,47.92096,-0.8883717,-9.082087,-78.29288,-7.495606,14.50875,0,0,0,38.78236,-47.40393,-48.14849,83.34011,-110.3957,-93.10179,0.001067912,-0.1257102,0.09433498,0,0.3,0,0,0,0
638225087539523465,22.26416,28.26425,3.362006,119.8353,-64.04088,-126.8544,47.92096,-0.8883717,-9.082087,-78.29288,-7.495606,14.50875,0,0,0,47.46247,-46.62411,-52.41805,83.34011,-110.3957,-93.10179,0.001067912,-0.1257102,0.09433498,0,0.3,0,0,0,0
638225087539873353,26.08088,29.55005,3.385354,119.9085,-63.7479,-120.4088,47.92096,-0.8883717,-9.082087,-78.29288,-7.568851,14.43551,0,0,0,54.46209,-44.00126,-57.08505,83.34011,-110.3957,-93.10179,0.001067912,-0.1257102,0.09433498,0,0.3,0,0,0,0
638225087540223241,27.6594,30.55531,3.455395,119.9085,-63.45492,-117.9918,47.92096,-0.8883717,-9.082087,-78.29288,-7.495606,14.43551,0,0,0,57.03806,-41.96645,-59.52118,83.34011,-110.3957,-93.10179,0.001067912,-0.1257102,0.09433498,0,0.3,0,0,0,0
638225087540553136,30.34523,33.50097,3.945688,119.9818,-62.79571,-113.597,47.92096,-0.8883717,-9.082087,-78.29288,-7.495606,14.43551,0,0,0,60.81371,-36.08125,-64.46815,83.34011,-110.3957,-93.10179,0.001067912,-0.1257102,0.09433498,0,0.3,0,0,0,0
638225087540903025,32.58343,37.31161,4.996315,119.9818,-62.42948,-110.9602,47.92096,-0.8883717,-9.082087,-78.29288,-7.495606,14.50875,0,0,0,63.37046,-28.66326,-69.19719,83.34011,-110.3957,-93.10179,0.001067912,-0.1257102,0.09433498,0,0.3,0,0,0,0
638225087541232916,33.64362,39.50917,5.790122,119.9818,-62.20975,-109.9348,47.92096,-0.8883717,-9.082087,-78.29288,-7.495606,14.43551,0,0,0,64.45287,-24.48218,-71.50069,83.34011,-110.3957,-93.10179,0.001067912,-0.1257102,0.09433498,0,0.3,0,0,0,0
638225087541602797,35.4813,44.04454,7.681251,119.9818,-61.99001,-108.1769,47.92096,-0.8883717,-9.082087,-78.29288,-7.495606,14.50875,0,0,0,65.98164,-16.09622,-75.78327,83.34011,-110.3957,-93.10179,0.001067912,-0.1257102,0.09433498,0,0.3,0,0,0,0
638225087541942690,36.91846,47.78505,9.175476,119.9818,-61.91676,-106.4923,47.92096,-0.8883717,-9.082087,-78.29288,-7.495606,14.50875,0,0,0,66.59326,-9.530822,-79.71558,83.34011,-110.3957,-93.10179,0.001067912,-0.1257102,0.09433498,0,0.3,0,0,0,0
638225087542282579,37.97866,50.66056,9.99263,119.9818,-61.91676,-104.2949,47.92096,-0.8883717,-9.082087,-78.29288,-7.495606,14.50875,0,0,0,66.25755,-4.843655,-83.47906,83.34011,-110.3957,-93.10179,0.001067912,-0.1257102,0.09433498,0,0.3,0,0,0,0
638225087542632469,38.30849,51.68921,10.10937,119.9818,-62.1365,-103.1962,47.92096,-0.8883717,-9.082087,-78.29288,-7.495606,14.43551,0,0,0,65.7547,-3.295316,-85.11549,83.34011,-110.3957,-93.10179,0.001067912,-0.1257102,0.09433498,0,0.3,0,0,0,0
638225087542972363,38.8975,53.48933,10.41288,119.9818,-63.08869,-101.7313,47.92096,-0.8883717,-9.082087,-78.29288,-7.495606,14.43551,0,0,0,64.9538,-0.6243034,-87.84468,83.34011,-110.3957,-93.10179,0.001067912,-0.1257102,0.09433498,0,0.3,0,0,0,0
638225087543312253,39.81633,54.93878,10.69305,119.9085,-63.6014,-101.2919,47.92096,-0.8883717,-9.082087,-78.29288,-7.495606,14.43551,0,0,0,64.89465,1.467715,-90.50616,83.34011,-110.3957,-93.10179,0.001067912,-0.1257102,0.09433498,0,0.3,0,0,0,0
638225087543712127,40.21685,56.41161,10.85648,119.9085,-63.89439,-101.2186,47.92096,-0.8883717,-9.082087,-78.29288,-7.495606,14.43551,0,0,0,63.85067,3.47168,-92.83801,83.34011,-110.3957,-93.10179,0.001067912,-0.1257102,0.09433498,0,0.3,0,0,0,0
638225087544042019,40.38177,56.99606,10.94987,119.9085,-63.96763,-101.4383,47.92096,-0.8883717,-9.082087,-78.29288,-7.495606,14.50875,0,0,0,63.46942,4.259527,-93.72559,83.34011,-110.3957,-93.10179,0.001067912,-0.1257102,0.09433498,0,0.3,0,0,0,0
638225087544381908,40.82941,58.63254,11.48686,119.9085,-63.96763,-104.0752,47.92096,-0.8883717,-9.082087,-78.29288,-7.568851,14.50875,0,0,0,62.74458,6.531375,-95.73511,83.34011,-110.3957,-93.10179,0.001067912,-0.1257102,0.09433498,0,0.3,0,0,0,0
638225087544721806,41.32417,60.01184,12.16393,119.9085,-64.04088,-109.2023,47.92096,-0.8883717,-9.082087,-78.29288,-7.495606,14.50875,0,0,0,62.56466,8.492146,-97.1947,83.34011,-110.3957,-93.10179,0.001067912,-0.1257102,0.09433498,0,0.3,0,0,0,0
638225087545071688,41.84249,60.57293,12.30401,119.9085,-64.04088,-114.1098,47.92096,-0.8883717,-9.082087,-78.29288,-7.495606,14.43551,0,0,0,62.66172,9.208375,-98.37119,83.34011,-110.3957,-93.10179,0.001067912,-0.1257102,0.09433498,0,0.3,0,0,0,0
638225087545401583,41.88961,60.57293,12.28066,119.8353,-64.04088,-115.6479,47.92096,-0.8883717,-9.082087,-78.29288,-7.495606,14.50875,0,0,0,62.6838,9.196806,-98.46227,83.34011,-110.3957,-93.10179,0.001067912,-0.1257102,0.09433498,0,0.3,0,0,0,0
638225087545741478,41.88961,60.40928,12.14058,119.9085,-63.96763,-117.6255,47.92096,-0.8883717,-9.082087,-78.29288,-7.495606,14.50875,0,0,0,62.69236,8.940247,-98.45273,83.34011,-110.3957,-93.10179,0.001067912,-0.1257102,0.09433498,0,0.3,0,0,0,0
638225087546081372,41.88961,60.01184,11.79037,119.9085,-63.89439,-118.7975,47.92096,-0.8883717,-9.082087,-78.29288,-7.495606,14.43551,0,0,0,62.69595,8.311724,-98.44872,83.34011,-110.3957,-93.10179,0.001067912,-0.1257102,0.09433498,0,0.3,0,0,0,0
638225087546421261,41.86605,59.75469,11.53355,119.9085,-63.82114,-119.0172,47.92096,-0.8883717,-9.082087,-78.29288,-7.495606,14.43551,0,0,0,62.62204,7.89059,-98.47334,83.34011,-110.3957,-93.10179,0.001067912,-0.1257102,0.09433498,0,0.3,0,0,0,0
638225087546771150,41.79537,59.1001,10.99656,119.9085,-63.67465,-119.0904,47.92096,-0.8883717,-9.082087,-78.29288,-7.495606,14.50875,0,0,0,62.59311,6.87156,-98.33203,83.34011,-110.3957,-93.10179,0.001067912,-0.1257102,0.09433498,0,0.3,0,0,0,0
638225087547111038,41.79537,58.37537,10.6697,119.9818,-63.67465,-119.0904,47.92096,-0.8883717,-9.082087,-78.29288,-7.495606,14.50875,0,0,0,63.05606,5.853252,-97.81417,83.34011,-110.3957,-93.10179,0.001067912,-0.1257102,0.09433498,0,0.3,0,0,0,0
638225087547450930,41.81893,57.81429,10.55296,119.9818,-63.7479,-119.0904,47.92096,-0.8883717,-9.082087,-78.29288,-7.495606,14.43551,0,0,0,63.64616,5.113064,-97.21296,83.34011,-110.3957,-93.10179,0.001067912,-0.1257102,0.09433498,0,0.3,0,0,0,0
638225087547790820,41.91317,56.7389,10.41288,119.9085,-63.82114,-119.0904,47.92096,-0.8883717,-9.082087,-78.29288,-7.495606,14.50875,0,0,0,64.95548,3.70075,-95.9894,83.34011,-110.3957,-93.10179,0.001067912,-0.1257102,0.09433498,0,0.3,0,0,0,0
638225087548210690,41.91317,56.01418,10.41288,119.9818,-63.89439,-119.1637,47.92096,-0.8883717,-9.082087,-78.29288,-7.568851,14.43551,0,0,0,65.89371,2.766764,-94.94422,83.34011,-110.3957,-93.10179,0.001067912,-0.1257102,0.09433498,0,0.3,0,0,0,0
638225087548550577,41.91317,55.40634,10.41288,119.9085,-63.89439,-119.1637,47.92096,-0.8883717,-9.082087,-78.29288,-7.495606,14.43551,0,0,0,66.67446,1.969774,-94.07446,83.34011,-110.3957,-93.10179,0.001067912,-0.1257102,0.09433498,0,0.3,0,0,0,0
638225087548900470,41.91317,55.00891,10.50627,119.9085,-63.89439,-119.1637,47.92096,-0.8883717,-9.082087,-78.29288,-7.495606,14.43551,0,0,0,67.32467,1.481439,-93.35012,83.34011,-110.3957,-93.10179,0.001067912,-0.1257102,0.09433498,0,0.3,0,0,0,0
638225087549230360,41.93673,54.89202,10.6697,119.9818,-63.96763,-119.1637,47.92096,-0.8883717,-9.082087,-78.29288,-7.495606,14.50875,0,0,0,67.75422,1.395095,-92.93401,83.34011,-110.3957,-93.10179,0.001067912,-0.1257102,0.09433498,0,0.3,0,0,0,0
638225087549570248,42.19589,54.51797,11.25338,119.9818,-63.89439,-119.1637,47.92096,-0.8883717,-9.082087,-78.29288,-7.495606,14.43551,0,0,0,69.46767,1.150404,-91.72678,83.34011,-110.3957,-93.10179,0.001067912,-0.1257102,0.09433498,0,0.3,0,0,0,0
638225087549910144,42.99693,53.81662,12.16393,119.9818,-63.96763,-119.1637,47.92096,-0.8883717,-9.082087,-78.29288,-7.495606,14.50875,0,0,0,72.84969,0.624877,-90.21987,83.34011,-110.3957,-93.10179,0.001067912,-0.1257102,0.09433498,0,0.3,0,0,0,0
638225087550250035,43.35033,53.32568,12.60752,119.9818,-63.89439,-119.0904,47.92096,-0.8883717,-9.082087,-78.29288,-7.495606,14.50875,0,0,0,74.65353,0.1678125,-89.2689,83.34011,-110.3957,-93.10179,0.001067912,-0.1257102,0.09433498,0,0.3,0,0,0,0
638225087550589929,44.01001,51.99313,13.40133,119.9818,-63.89439,-118.9439,47.92096,-0.8883717,-9.082087,-78.29288,-7.495606,14.50875,0,0,0,78.52287,-1.297565,-87.06561,83.34011,-110.3957,-93.10179,0.001067912,-0.1257102,0.09433498,0,0.3,0,0,0,0
638225087550939818,44.85817,50.38003,14.05505,119.9818,-63.96763,-118.9439,47.92096,-0.8883717,-9.082087,-78.29288,-7.495606,14.50875,0,0,0,82.82332,-3.289572,-85.11561,83.34011,-110.3957,-93.10179,0.001067912,-0.1257102,0.09433498,0,0.3,0,0,0,0
638225087551279709,45.75344,48.22923,14.522,119.9818,-63.96763,-118.7975,47.92096,-0.8883717,-9.082087,-78.29288,-7.495606,14.50875,0,0,0,87.58673,-6.285098,-83.03704,83.34011,-110.3957,-93.10179,0.001067912,-0.1257102,0.09433498,0,0.3,0,0,0,0
638225087551619596,46.13041,47.06033,14.68543,119.9818,-63.96763,-118.7242,47.92096,-0.8883717,-9.082087,-78.29288,-7.495606,14.50875,0,0,0,89.8608,-8.022044,-81.96682,83.34011,-110.3957,-93.10179,0.001067912,-0.1257102,0.09433498,0,0.3,0,0,0,0
638225087551959490,46.62516,44.69912,14.87221,119.9818,-63.89439,-118.651,47.92096,-0.8883717,-9.082087,-78.29288,-7.495606,14.43551,0,0,0,93.77628,-11.73663,-79.74817,83.34011,-110.3957,-93.10179,0.001067912,-0.1257102,0.09433498,0,0.3,0,0,0,0
638225087552309374,46.7194,42.54833,14.89556,119.8353,-63.96763,-118.7975,47.92096,-0.8883717,-9.082087,-78.29288,-7.495606,14.50875,0,0,0,96.47417,-15.34606,-77.499,83.34011,-110.3957,-93.10179,0.001067912,-0.1257102,0.09433498,0,0.3,0,0,0,0
638225087552729242,46.6016,41.09888,14.80217,118.0042,-63.96763,-118.7975,47.92096,-0.8883717,-9.082087,-78.29288,-7.495606,14.43551,0,0,0,97.76899,-17.91558,-75.89964,83.34011,-110.3957,-93.10179,0.001067912,-0.1257102,0.09433498,0,0.3,0,0,0,0
638225087553069132,46.22464,40.30402,14.68543,114.4884,-63.96763,-116.9663,47.92096,-0.8883717,-9.082087,-78.29288,-7.495606,14.43551,0,0,0,97.83999,-19.3872,-74.60558,83.34011,-110.3957,-93.10179,0.001067912,-0.1257102,0.09433498,0,0.3,0,0,0,0
638225087553399027,45.94193,39.83646,14.522,111.7783,-63.96763,-114.476,47.92096,-0.8883717,-9.082087,-78.29288,-7.495606,14.50875,0,0,0,97.61512,-20.31586,-73.89277,83.34011,-110.3957,-93.10179,0.001067912,-0.1257102,0.09433498,0,0.3,0,0,0,0
638225087553738920,45.32936,38.97147,14.17179,105.5525,-63.96763,-107.5177,47.92096,-0.8883717,-9.082087,-78.29288,-7.568851,14.50875,0,0,0,96.94694,-22.07338,-72.5113,83.34011,-110.3957,-93.10179,0.001067912,-0.1257102,0.09433498,0,0.3,0,0,0,0
638225087554078813,44.83461,37.77918,13.65815,101.817,-63.7479,-103.7089,47.92096,-0.8883717,-9.082087,-78.29288,-7.495606,14.50875,0,0,0,96.51221,-24.53625,-71.27897,83.34011,-110.3957,-93.10179,0.001067912,-0.1257102,0.09433498,0,0.3,0,0,0,0
638225087554418705,44.64613,37.14796,13.30794,101.3775,-63.38167,-103.1962,47.92096,-0.8883717,-9.082087,-78.29288,-7.495606,14.50875,0,0,0,96.26332,-25.89235,-70.89017,83.34011,-110.3957,-93.10179,0.001067912,-0.1257102,0.09433498,0,0.3,0,0,0,0
638225087554758593,44.10425,35.83878,12.77096,101.0845,-62.1365,-102.9765,47.92096,-0.8883717,-9.082087,-78.29288,-7.495606,14.50875,0,0,0,95.75108,-28.62383,-69.55721,83.34011,-110.3957,-93.10179,0.001067912,-0.1257102,0.09433498,0,0.3,0,0,0,0
638225087555098484,43.44457,34.90366,12.42074,101.5973,-60.08564,-105.9063,47.92096,-0.8883717,-9.082087,-78.29288,-7.495606,14.50875,0,0,0,94.92664,-30.57624,-68.12418,83.34011,-110.3957,-93.10179,0.001067912,-0.1257102,0.09433498,0,0.3,0,0,0,0
638225087555438378,43.04405,34.6465,12.32736,102.2565,-58.84047,-108.1037,47.92096,-0.8883717,-9.082087,-78.29288,-7.495606,14.43551,0,0,0,94.3118,-31.11443,-67.36874,83.34011,-110.3957,-93.10179,0.001067912,-0.1257102,0.09433498,0,0.3,0,0,0,0
638225087555778265,41.46553,34.52961,11.81372,103.2087,-55.3247,-115.3549,47.92096,-0.8883717,-9.082087,-78.29288,-7.495606,14.43551,0,0,0,90.82247,-31.58839,-65.56934,83.34011,-110.3957,-93.10179,0.001067912,-0.1257102,0.09433498,0,0.3,0,0,0,0
638225087556118161,39.67498,34.57636,11.5102,102.7692,-53.64006,-121.4343,47.92096,-0.8883717,-9.082087,-78.29288,-7.495606,14.50875,0,0,0,87.08556,-31.64155,-63.36166,83.34011,-110.3957,-93.10179,0.001067912,-0.1257102,0.09433498,0,0.3,0,0,0,0
638225087556468045,36.61218,34.74001,11.08995,102.6227,-52.32165,-127.6601,47.92096,-0.8883717,-9.082087,-78.29288,-7.495606,14.50875,0,0,0,80.6504,-31.51991,-59.80236,83.34011,-110.3957,-93.10179,0.001067912,-0.1257102,0.09433498,0,0.3,0,0,0,0
638225087556807947,34.70382,34.95041,10.83313,102.6227,-52.02867,-129.711,47.92096,-0.8883717,-9.082087,-78.29288,-7.495606,14.50875,0,0,0,76.49754,-31.23168,-57.88927,83.34011,-110.3957,-93.10179,0.001067912,-0.1257102,0.09433498,0,0.3,0,0,0,0
638225087557247798,30.25099,35.25433,9.922588,102.9889,-52.46814,-136.1566,47.92096,-0.8883717,-9.082087,-78.29288,-7.495606,14.50875,0,0,0,66.43559,-31.03474,-54.43555,83.34011,-110.3957,-93.10179,0.001067912,-0.1257102,0.09433498,0,0.3,0,0,0,0
638225087557587691,26.17512,35.1842,8.568447,101.9635,-54.15278,-141.4302,47.92096,-0.8883717,-9.082087,-78.29288,-7.495606,14.50875,0,0,0,56.84019,-31.67443,-52.70872,83.34011,-110.3957,-93.10179,0.001067912,-0.1257102,0.09433498,0,0.3,0,0,0,0
638225087557927581,23.13588,34.76339,8.054807,98.66745,-55.61768,-142.0894,47.92096,-0.8883717,-9.082087,-78.29288,-7.495606,14.50875,0,0,0,50.38477,-32.64977,-50.42924,83.34011,-110.3957,-93.10179,0.001067912,-0.1257102,0.09433498,0,0.3,0,0,0,0
638225087558257473,20.82701,34.22569,7.494472,94.12625,-55.83742,-142.0894,47.92096,-0.8883717,-9.082087,-78.29288,-7.495606,14.50875,0,0,0,45.38582,-33.85759,-49.04042,83.34011,-110.3957,-93.10179,0.001067912,-0.1257102,0.09433498,0,0.3,0,0,0,0
638225087558597368,19.67257,33.75813,7.237653,91.63592,-55.3247,-142.1627,47.92096,-0.8883717,-9.082087,-78.29288,-7.495606,14.50875,0,0,0,42.97808,-34.83647,-48.13555,83.34011,-110.3957,-93.10179,0.001067912,-0.1257102,0.09433498,0,0.3,0,0,0,0
638225087558937260,17.15165,32.00476,6.49054,87.3877,-53.56682,-142.1627,47.92096,-0.8883717,-9.082087,-78.29288,-7.495606,14.43551,0,0,0,37.79318,-38.47117,-45.89426,83.34011,-110.3957,-93.10179,0.001067912,-0.1257102,0.09433498,0,0.3,0,0,0,0
638225087559277150,14.20666,28.91884,5.346524,83.79868,-51.36946,-142.1627,47.92096,-0.8883717,-9.082087,-78.29288,-7.495606,14.50875,0,0,0,31.69536,-44.93576,-43.15231,83.34011,-110.3957,-93.10179,0.001067912,-0.1257102,0.09433498,0,0.3,0,0,0,0
638225087559617043,12.55746,27.04858,4.716148,81.74782,-50.27078,-142.1627,47.92096,-0.8883717,-9.082087,-78.29288,-7.495606,14.50875,0,0,0,28.20534,-48.90816,-41.725,83.34011,-110.3957,-93.10179,0.001067912,-0.1257102,0.09433498,0,0.3,0,0,0,0
638225087559946948,9.376864,22.9574,3.478743,78.23206,-48.36641,-142.1627,47.92096,-0.8883717,-9.082087,-78.29288,-7.495606,14.50875,0,0,0,21.32388,-57.74158,-39.21933,83.34011,-110.3957,-93.10179,0.001067912,-0.1257102,0.09433498,0,0.3,0,0,0,0
638225087560286825,6.07847,17.81419,1.937823,74.27681,-46.68177,-142.1627,47.92096,-0.8883717,-9.082087,-78.29288,-7.495606,14.50875,0,0,0,13.92095,-69.12782,-37.62355,83.34011,-110.3957,-93.10179,0.001067912,-0.1257102,0.09433498,0,0.3,0,0,0,0
638225087560616721,4.711992,15.35948,1.330794,72.22594,-45.72958,-142.2359,47.92096,-0.8883717,-9.082087,-78.29288,-7.495606,14.50875,0,0,0,10.81747,-74.64305,-37.11092,83.34011,-110.3957,-93.10179,0.001067912,-0.1257102,0.09433498,0,0.3,0,0,0,0
638225087560956613,2.332436,10.54357,0.2568199,68.27071,-43.60548,-142.3092,47.92096,-0.8883717,-9.082087,-78.29288,-7.495606,14.50875,0,0,0,5.359701,-85.59785,-36.76286,83.34011,-110.3957,-93.10179,0.001067912,-0.1257102,0.09433498,0,0.3,0,0,0,0
638225087561296505,0.3769594,6.078333,-0.700418,64.46196,-41.48137,-142.0894,47.92096,-0.8883717,-9.082087,-78.29288,-7.495606,14.43551,0,0,0,0.8616706,-95.86987,-37.38263,83.34011,-110.3957,-93.10179,0.001067912,-0.1257102,0.09433498,0,0.3,0,0,0,0
638225087561636398,-0.4947592,3.974295,-1.190711,62.55759,-40.52918,-142.0894,47.92096,-0.8883717,-9.082087,-78.29288,-7.495606,14.43551,0,0,0,-1.124789,-100.7289,-38.09659,83.34011,-110.3957,-93.10179,0.001067912,-0.1257102,0.09433498,0,0.3,0,0,0,0
638225087561986284,-1.837677,0.5376987,-2.007865,59.04182,-39.21077,-142.1627,47.92096,-0.8883717,-9.082087,-78.29288,-7.495606,14.43551,0,0,0,-4.126255,-108.6667,-39.74419,83.34011,-110.3957,-93.10179,0.001067912,-0.1257102,0.09433498,0,0.3,0,0,0,0
638225087562326175,-2.732955,-1.122154,-2.288032,55.67254,-38.84454,-142.1627,47.92096,-0.8883717,-9.082087,-78.29288,-7.495606,14.50875,0,0,0,-6.103199,-112.5052,-40.4949,83.34011,-110.3957,-93.10179,0.001067912,-0.1257102,0.09433498,0,0.3,0,0,0,0
638225087562656068,-3.204155,-0.5143204,-2.077907,53.69492,-40.38269,-142.1627,47.92096,-0.8883717,-9.082087,-78.29288,-7.495606,14.50875,0,0,0,-7.182902,-111.1093,-40.04132,83.34011,-110.3957,-93.10179,0.001067912,-0.1257102,0.09433498,0,0.3,0,0,0,0
638225087562995962,-3.204155,-0.6078333,-2.077907,53.32869,-41.84759,-142.2359,47.92096,-0.8883717,-9.082087,-78.29288,-7.495606,14.43551,0,0,0,-7.182783,-111.327,-40.04345,83.34011,-110.3957,-93.10179,0.001067912,-0.1257102,0.09433498,0,0.3,0,0,0,0
638225087563325856,-2.992115,-0.7013461,-2.241338,52.96247,-44.19143,-142.2359,47.92096,-0.8883717,-9.082087,-78.29288,-7.495606,14.50875,0,0,0,-6.687929,-111.5303,-40.39981,83.34011,-110.3957,-93.10179,0.001067912,-0.1257102,0.09433498,0,0.3,0,0,0,0
638225087563665745,-2.732955,-0.7013461,-2.241338,52.66949,-46.60852,-142.2359,47.92096,-0.8883717,-9.082087,-78.29288,-7.495606,14.50875,0,0,0,-6.109119,-111.5303,-40.37087,83.34011,-110.3957,-93.10179,0.001067912,-0.1257102,0.09433498,0,0.3,0,0,0,0
638225087564005637,-2.638716,-0.7013461,-2.241338,52.37651,-47.92694,-142.2359,47.92096,-0.8883717,-9.082087,-78.29288,-7.495606,14.50875,0,0,0,-5.898612,-111.5303,-40.36099,83.34011,-110.3957,-93.10179,0.001067912,-0.1257102,0.09433498,0,0.3,0,0,0,0
638225087564345531,-2.638716,-0.6545897,-2.241338,51.27783,-50.34403,-142.2359,47.92096,-0.8883717,-9.082087,-78.29288,-7.495606,14.50875,0,0,0,-5.898671,-111.4214,-40.35971,83.34011,-110.3957,-93.10179,0.001067912,-0.1257102,0.09433498,0,0.3,0,0,0,0
638225087564795386,-2.638716,-0.2571602,-2.264685,49.00723,-52.98085,-142.2359,47.92096,-0.8883717,-9.082087,-78.29288,-7.495606,14.43551,0,0,0,-5.89651,-110.4944,-40.40659,83.34011,-110.3957,-93.10179,0.001067912,-0.1257102,0.09433498,0,0.3,0,0,0,0
638225087565135279,-2.591596,0.3039166,-2.124601,44.61252,-56.05715,-141.357,47.92096,-0.8883717,-9.082087,-78.29288,-7.495606,14.50875,0,0,0,-5.805995,-109.201,-40.07686,83.34011,-110.3957,-93.10179,0.001067912,-0.1257102,0.09433498,0,0.3,0,0,0,0
638225087565475167,-2.096837,0.7714807,-1.914476,32.30733,-59.93914,-118.9439,47.92096,-0.8883717,-9.082087,-78.29288,-7.495606,14.50875,0,0,0,-4.71564,-108.1301,-39.5533,83.34011,-110.3957,-93.10179,0.001067912,-0.1257102,0.09433498,0,0.3,0,0,0,0
638225087565815058,-1.413598,0.9818845,-2.451463,19.63592,-61.18431,-101.9511,47.92096,-0.8883717,-9.082087,-78.29288,-7.495606,14.50875,0,0,0,-3.148476,-107.5928,-40.76221,83.34011,-110.3957,-93.10179,0.001067912,-0.1257102,0.09433498,0,0.3,0,0,0,0
638225087566144956,-0.9895183,1.098776,-2.428116,-17.27965,-60.59835,-67.37935,47.92096,-0.8883717,-9.082087,-78.29288,-7.495606,14.50875,0,0,0,-2.2049,-107.3231,-40.69306,83.34011,-110.3957,-93.10179,0.001067912,-0.1257102,0.09433498,0,0.3,0,0,0,0
638225087566494843,-1.013078,0.9585064,-2.47481,-46.57772,-56.27689,-43.57467,47.92096,-0.8883717,-9.082087,-78.29288,-7.495606,14.50875,0,0,0,-2.255576,-107.6449,-40.79668,83.34011,-110.3957,-93.10179,0.001067912,-0.1257102,0.09433498,0,0.3,0,0,0,0
638225087566824738,-0.9895183,0.7013461,-2.521505,-55.80661,-53.27384,-36.32339,47.92096,-0.8883717,-9.082087,-78.29288,-7.495606,14.50875,0,0,0,-2.201401,-108.2386,-40.89565,83.34011,-110.3957,-93.10179,0.001067912,-0.1257102,0.09433498,0,0.3,0,0,0,0
638225087567164627,-0.8717186,0.116891,-2.708283,-67.3061,-46.60852,-24.75066,47.92096,-0.8883717,-9.082087,-78.29288,-7.495606,14.50875,0,0,0,-1.932892,-109.579,-41.31588,83.34011,-110.3957,-93.10179,0.001067912,-0.1257102,0.09433498,0,0.3,0,0,0,0
638225087567504523,-0.5654391,-0.4441859,-2.73163,-72.653,-39.65023,-13.17792,47.92096,-0.8883717,-9.082087,-78.29288,-7.495606,14.43551,0,0,0,-1.253223,-110.8823,-41.36537,83.34011,-110.3957,-93.10179,0.001067912,-0.1257102,0.09433498,0,0.3,0,0,0,0
638225087567844412,-0.3298394,-0.7013461,-2.73163,-74.04465,-36.28096,-8.124002,47.92096,-0.8883717,-9.082087,-78.29288,-7.495606,14.43551,0,0,0,-0.7310203,-111.4807,-41.36727,83.34011,-110.3957,-93.10179,0.001067912,-0.1257102,0.09433498,0,0.3,0,0,0,0
638225087568184302,0.1649197,-0.8416153,-2.73163,-74.9236,-30.05512,0.07945653,47.92096,-0.8883717,-9.082087,-78.29288,-7.495606,14.43551,0,0,0,0.365499,-111.8072,-41.37009,83.34011,-110.3957,-93.10179,0.001067912,-0.1257102,0.09433498,0,0.3,0,0,0,0
638225087568534190,0.2827196,-0.8416153,-2.73163,-75.14333,-24.70822,5.499599,47.92096,-0.8883717,-9.082087,-78.21963,-7.495606,14.43551,0,0,0,0.626568,-111.8072,-41.37111,83.34011,-110.3957,-93.10179,0.001067912,-0.1257102,0.09433498,0,0.3,0,0,0,0
638225087568874083,0.1884797,-0.8416153,-2.73163,-75.28983,-20.31351,8.429405,47.92096,-0.8883717,-9.082087,-78.29288,-7.495606,14.43551,0,0,0,0.417713,-111.8072,-41.37025,83.34011,-110.3957,-93.10179,0.001067912,-0.1257102,0.09433498,0,0.3,0,0,0,0
638225087569313944,-0.2591596,-0.7948589,-2.73163,-76.16876,-16.35827,10.18729,47.92096,-0.8883717,-9.082087,-78.29288,-7.495606,14.50875,0,0,0,-0.5743614,-111.6984,-41.36931,83.34011,-110.3957,-93.10179,0.001067912,-0.1257102,0.09433498,0,0.3,0,0,0,0
638225087569643835,-0.5654391,-0.7714807,-2.73163,-76.82797,-15.33284,10.48027,47.92096,-0.8883717,-9.082087,-78.29288,-7.495606,14.43551,0,0,0,-1.253143,-111.644,-41.37345,83.34011,-110.3957,-93.10179,0.001067912,-0.1257102,0.09433498,0,0.3,0,0,0,0
638225087569973732,-1.790557,-0.5844551,-2.708283,-79.31831,-13.06224,11.13948,47.92096,-0.8883717,-9.082087,-78.29288,-7.495606,14.50875,0,0,0,-3.969563,-111.2113,-41.36987,83.34011,-110.3957,-93.10179,0.001067912,-0.1257102,0.09433498,0,0.3,0,0,0,0
638225087570323616,-3.958073,0.0233782,-2.568199,-82.68758,-11.96356,10.18729,47.92096,-0.8883717,-9.082087,-78.29288,-7.495606,14.50875,0,0,0,-8.792233,-109.8117,-41.27904,83.34011,-110.3957,-93.10179,0.001067912,-0.1257102,0.09433498,0,0.3,0,0,0,0
638225087570663508,-6.738149,1.472827,-1.96117,-87.66826,-12.47628,7.477218,47.92096,-0.8883717,-9.082087,-78.29288,-7.495606,14.50875,0,0,0,-15.1056,-106.4944,-40.49684,83.34011,-110.3957,-93.10179,0.001067912,-0.1257102,0.09433498,0,0.3,0,0,0,0
638225087571003402,-8.010387,2.47809,-1.424183,-90.74455,-13.13548,6.158805,47.92096,-0.8883717,-9.082087,-78.29288,-7.495606,14.43551,0,0,0,-18.10344,-104.1931,-39.70657,83.34011,-110.3957,-93.10179,0.001067912,-0.1257102,0.09433498,0,0.3,0,0,0,0
638225087571343295,-10.6491,5.236718,0.5836816,-100.1932,-15.62582,3.888205,47.92096,-0.8883717,-9.082087,-78.29288,-7.495606,14.43551,0,0,0,-24.79041,-97.82212,-36.5086,83.34011,-110.3957,-93.10179,0.001067912,-0.1257102,0.09433498,0,0.3,0,0,0,0
638225087571683186,-12.5339,8.299262,3.805604,-113.597,-18.40914,2.789528,47.92096,-0.8883717,-9.082087,-78.29288,-7.495606,14.50875,0,0,0,-30.55692,-90.45776,-30.90152,83.34011,-110.3957,-93.10179,0.001067912,-0.1257102,0.09433498,0,0.3,0,0,0,0
638225087572023074,-13.02866,9.912358,5.673386,-121.654,-19.50781,2.643037,47.92096,-0.8883717,-9.082087,-78.29288,-7.495606,14.50875,0,0,0,-32.58532,-86.39172,-27.52885,83.34011,-110.3957,-93.10179,0.001067912,-0.1257102,0.09433498,0,0.3,0,0,0,0
638225087572362969,-13.45274,13.58274,10.48292,-142.6021,-21.2657,5.206618,47.92096,-0.8883717,-9.082087,-78.29288,-7.495606,14.50875,0,0,0,-35.79971,-76.45713,-18.68974,83.34011,-110.3957,-93.10179,0.001067912,-0.1257102,0.09433498,0,0.3,0,0,0,0
638225087572702857,-13.87682,16.17772,12.65422,-153.8087,-21.70517,8.50265,47.92096,-0.8883717,-9.082087,-78.29288,-7.495606,14.50875,0,0,0,-37.72181,-69.60725,-15.65834,83.34011,-110.3957,-93.10179,0.001067912,-0.1257102,0.09433498,0,0.3,0,0,0,0
638225087573042751,-14.8899,17.90771,12.67757,-154.6143,-21.9249,8.649141,47.92096,-0.8883717,-9.082087,-78.29288,-7.495606,14.50875,0,0,0,-40.126,-65.74593,-17.43832,83.34011,-110.3957,-93.10179,0.001067912,-0.1257102,0.09433498,0,0.3,0,0,0,0
638225087573382639,-16.37417,21.32092,13.86828,-154.7608,-23.17007,5.572844,47.92096,-0.8883717,-9.082087,-78.29288,-7.495606,14.50875,0,0,0,-44.03025,-57.62785,-18.49867,83.34011,-110.3957,-93.10179,0.001067912,-0.1257102,0.09433498,0,0.3,0,0,0,0
638225087573832496,-17.88201,24.54711,14.54535,-154.8341,-25.44067,-0.3600145,47.92096,-0.8883717,-9.082087,-78.29288,-7.495606,14.50875,0,0,0,-47.52892,-50.32692,-21.03952,83.34011,-110.3957,-93.10179,0.001067912,-0.1257102,0.09433498,0,0.3,0,0,0,0
638225087574172387,-18.89509,27.11872,16.03957,-154.8341,-28.29723,-6.732344,47.92096,-0.8883717,-9.082087,-78.29288,-7.495606,14.50875,0,0,0,-50.36781,-44.02314,-21.19649,83.34011,-110.3957,-93.10179,0.001067912,-0.1257102,0.09433498,0,0.3,0,0,0,0
638225087574512283,-19.88461,28.89546,17.4871,-154.8341,-30.56783,-12.07924,47.92096,-0.8883717,-9.082087,-78.29288,-7.495606,14.43551,0,0,0,-53.33829,-39.40073,-20.88082,83.34011,-110.3957,-93.10179,0.001067912,-0.1257102,0.09433498,0,0.3,0,0,0,0
638225087574842176,-20.21445,29.57343,18.25756,-154.8341,-31.30029,-14.2766,47.92096,-0.8883717,-9.082087,-78.29288,-7.495606,14.43551,0,0,0,-54.50977,-37.4735,-20.31197,83.34011,-110.3957,-93.10179,0.001067912,-0.1257102,0.09433498,0,0.3,0,0,0,0
638225087575182067,-20.73277,30.85923,19.56501,-154.8341,-32.25247,-17.71912,47.92096,-0.8883717,-9.082087,-78.29288,-7.495606,14.50875,0,0,0,-56.33265,-33.90137,-19.52742,83.34011,-110.3957,-93.10179,0.001067912,-0.1257102,0.09433498,0,0.3,0,0,0,0
638225087575521958,-21.22752,32.0749,20.4989,-154.8341,-33.05817,-20.72217,47.92096,-0.8883717,-9.082087,-78.29288,-7.495606,14.50875,0,0,0,-57.82025,-30.74364,-19.49264,83.34011,-110.3957,-93.10179,0.001067912,-0.1257102,0.09433498,0,0.3,0,0,0,0
638225087575871844,-21.86364,32.77624,20.66233,-154.8341,-34.15685,-22.33356,47.92096,-0.8883717,-9.082087,-78.29288,-7.495606,14.50875,0,0,0,-59.27599,-29.23212,-20.62555,83.34011,-110.3957,-93.10179,0.001067912,-0.1257102,0.09433498,0,0.3,0,0,0,0
638225087576201740,-22.31128,32.823,20.63898,-154.8341,-34.81605,-22.77304,47.92096,-0.8883717,-9.082087,-78.29288,-7.495606,14.50875,0,0,0,-60.38662,-29.15981,-21.19474,83.34011,-110.3957,-93.10179,0.001067912,-0.1257102,0.09433498,0,0.3,0,0,0,0
638225087576541632,-23.79556,32.77624,20.40551,-154.7608,-35.84149,-22.84628,47.92096,-0.8883717,-9.082087,-78.29288,-7.495606,14.43551,0,0,0,-63.99653,-29.44178,-23.21999,83.34011,-110.3957,-93.10179,0.001067912,-0.1257102,0.09433498,0,0.3,0,0,0,0
638225087576891518,-25.58612,32.0749,19.70509,-154.7608,-37.08665,-22.77304,47.92096,-0.8883717,-9.082087,-78.29288,-7.495606,14.50875,0,0,0,-68.21669,-31.3786,-25.8822,83.34011,-110.3957,-93.10179,0.001067912,-0.1257102,0.09433498,0,0.3,0,0,0,0
638225087577221413,-26.50496,31.51382,19.47162,-154.7608,-37.67262,-22.84628,47.92096,-0.8883717,-9.082087,-78.29288,-7.495606,14.43551,0,0,0,-70.57112,-32.67067,-26.83688,83.34011,-110.3957,-93.10179,0.001067912,-0.1257102,0.09433498,0,0.3,0,0,0,0
638225087577561305,-28.41331,30.04099,18.93463,-154.8341,-38.6248,-23.06602,47.92096,-0.8883717,-9.082087,-78.29288,-7.495606,14.50875,0,0,0,-75.51752,-36.02675,-28.76081,83.34011,-110.3957,-93.10179,0.001067912,-0.1257102,0.09433498,0,0.3,0,0,0,0
638225087577901195,-30.29811,28.47465,18.56108,-154.8341,-39.4305,-24.09145,47.92096,-0.8883717,-9.082087,-78.29288,-7.495606,14.50875,0,0,0,-80.55124,-39.48652,-30.49264,83.34011,-110.3957,-93.10179,0.001067912,-0.1257102,0.09433498,0,0.3,0,0,0,0
638225087578351051,-32.91327,26.65115,18.91129,-153.8819,-40.01646,-25.11688,47.92096,-0.8883717,-9.082087,-78.29288,-7.495606,14.50875,0,0,0,-88.24383,-42.98687,-32.01503,83.34011,-110.3957,-93.10179,0.001067912,-0.1257102,0.09433498,0,0.3,0,0,0,0
638225087578680947,-34.98654,25.50562,19.1681,-151.0253,-39.94322,-25.84933,47.92096,-0.8883717,-9.082087,-78.29288,-7.495606,14.50875,0,0,0,-94.11432,-45.18652,-33.8736,83.34011,-110.3957,-93.10179,0.001067912,-0.1257102,0.09433498,0,0.3,0,0,0,0
638225087579015909,-36.28234,24.89779,19.30819,-148.828,-39.65023,-26.28881,47.92096,-0.8883717,-9.082087,-78.29288,-7.495606,14.50875,0,0,0,-97.66992,-46.3591,-35.30258,83.34011,-110.3957,-93.10179,0.001067912,-0.1257102,0.09433498,0,0.3,0,0,0,0
638225087579355801,-38.63834,23.63536,19.6117,-143.6276,-38.6248,-26.80152,47.92096,-0.8883717,-9.082087,-78.29288,-7.495606,14.50875,0,0,0,-104.2266,-48.80227,-37.96665,83.34011,-110.3957,-93.10179,0.001067912,-0.1257102,0.09433498,0,0.3,0,0,0,0
638225087579695695,-40.47601,22.0924,19.84518,-139.0864,-37.30639,-27.16775,47.92096,-0.8883717,-9.082087,-78.29288,-7.495606,14.50875,0,0,0,-109.5918,-51.92768,-39.92564,83.34011,-110.3957,-93.10179,0.001067912,-0.1257102,0.09433498,0,0.3,0,0,0,0
638225087580035583,-41.30061,21.20403,20.07865,-137.5482,-36.57394,-27.53397,47.92096,-0.8883717,-9.082087,-78.29288,-7.495606,14.43551,0,0,0,-112.2692,-53.66391,-40.55941,83.34011,-110.3957,-93.10179,0.001067912,-0.1257102,0.09433498,0,0.3,0,0,0,0
638225087580375475,-42.66709,19.42729,20.59229,-136.2298,-34.74281,-28.48616,47.92096,-0.8883717,-9.082087,-78.29288,-7.495606,14.50875,0,0,0,-117.0174,-57.12627,-41.39321,83.34011,-110.3957,-93.10179,0.001067912,-0.1257102,0.09433498,0,0.3,0,0,0,0
638225087580715369,-43.49169,17.88433,20.66233,-135.4973,-33.20466,-29.95106,47.92096,-0.8883717,-9.082087,-78.29288,-7.495606,14.43551,0,0,0,-119.728,-60.47114,-42.14638,83.34011,-110.3957,-93.10179,0.001067912,-0.1257102,0.09433498,0,0.3,0,0,0,0
638225087581055261,-43.77441,17.08947,20.63898,-135.2776,-32.47221,-30.9765,47.92096,-0.8883717,-9.082087,-78.29288,-7.495606,14.43551,0,0,0,-120.6986,-62.25474,-42.37403,83.34011,-110.3957,-93.10179,0.001067912,-0.1257102,0.09433498,0,0.3,0,0,0,0
638225087581395152,-44.15137,15.05556,20.63898,-135.8636,-31.08055,-34.78524,47.92096,-0.8883717,-9.082087,-78.29288,-7.495606,14.43551,0,0,0,-122.4377,-66.80318,-42.23058,83.34011,-110.3957,-93.10179,0.001067912,-0.1257102,0.09433498,0,0.3,0,0,0,0
638225087581735043,-44.15137,14.02692,20.61563,-136.4495,-30.42134,-39.32644,47.92096,-0.8883717,-9.082087,-78.29288,-7.495606,14.43551,0,0,0,-122.8209,-69.13966,-41.83579,83.34011,-110.3957,-93.10179,0.001067912,-0.1257102,0.09433498,0,0.3,0,0,0,0
638225087582084933,-44.15137,12.99828,20.14869,-138.8666,-29.90863,-49.8005,47.92096,-0.8883717,-9.082087,-78.29288,-7.495606,14.43551,0,0,0,-122.501,-71.8459,-42.16536,83.34011,-110.3957,-93.10179,0.001067912,-0.1257102,0.09433498,0,0.3,0,0,0,0
638225087582424828,-44.15137,12.57747,19.77514,-140.0385,-29.90863,-53.75574,47.92096,-0.8883717,-9.082087,-78.29288,-7.495606,14.50875,0,0,0,-122.0828,-73.09781,-42.59615,83.34011,-110.3957,-93.10179,0.001067912,-0.1257102,0.09433498,0,0.3,0,0,0,0
638225087582864677,-44.15137,11.73586,18.67781,-141.8697,-29.90863,-61.51973,47.92096,-0.8883717,-9.082087,-78.29288,-7.495606,14.50875,0,0,0,-120.6904,-75.85364,-44.03039,83.34011,-110.3957,-93.10179,0.001067912,-0.1257102,0.09433498,0,0.3,0,0,0,0
638225087583194576,-44.15137,11.66572,18.53773,-142.2359,-29.90863,-64.52278,47.92096,-0.8883717,-9.082087,-78.29288,-7.495606,14.50875,0,0,0,-120.4982,-76.11751,-44.22834,83.34011,-110.3957,-93.10179,0.001067912,-0.1257102,0.09433498,0,0.3,0,0,0,0
638225087583554458,-44.15137,11.64235,18.49104,-143.7008,-29.32266,-68.25829,47.92096,-0.8883717,-9.082087,-78.29288,-7.495606,14.50875,0,0,0,-120.4341,-76.20531,-44.29439,83.34011,-110.3957,-93.10179,0.001067912,-0.1257102,0.09433498,0,0.3,0,0,0,0
638225087583894350,-44.10425,11.6891,18.28091,-144.8727,-27.41829,-69.72319,47.92096,-0.8883717,-9.082087,-78.29288,-7.495606,14.50875,0,0,0,-119.9937,-76.25298,-44.54443,83.34011,-110.3957,-93.10179,0.001067912,-0.1257102,0.09433498,0,0.3,0,0,0,0
638225087584234246,-44.01001,11.71248,17.86066,-144.7995,-26.09988,-69.94292,47.92096,-0.8883717,-9.082087,-78.29288,-7.495606,14.43551,0,0,0,-119.1362,-76.5031,-45.02393,83.34011,-110.3957,-93.10179,0.001067912,-0.1257102,0.09433498,0,0.3,0,0,0,0
638225087584564135,-43.72729,12.06315,16.22635,-142.9684,-23.31656,-71.62756,47.92096,-0.8883717,-9.082087,-78.29288,-7.495606,14.43551,0,0,0,-115.8964,-76.81926,-47.18695,83.34011,-110.3957,-93.10179,0.001067912,-0.1257102,0.09433498,0,0.3,0,0,0,0
638225087584904030,-43.37389,13.04504,14.24183,-140.185,-20.60649,-76.09552,47.92096,-0.8883717,-9.082087,-78.29288,-7.495606,14.50875,0,0,0,-111.7454,-75.80228,-50.07465,83.34011,-110.3957,-93.10179,0.001067912,-0.1257102,0.09433498,0,0.3,0,0,0,0
638225087585253916,-43.06761,14.16719,13.19121,-138.5737,-19.28808,-79.4648,47.92096,-0.8883717,-9.082087,-78.29288,-7.568851,14.43551,0,0,0,-109.0699,-73.84371,-51.66322,83.34011,-110.3957,-93.10179,0.001067912,-0.1257102,0.09433498,0,0.3,0,0,0,0
638225087585593805,-42.36081,16.73879,11.9538,-137.0355,-18.1894,-83.34679,47.92096,-0.8883717,-9.082087,-78.29288,-7.495606,14.50875,0,0,0,-104.6538,-68.7023,-53.58188,83.34011,-110.3957,-93.10179,0.001067912,-0.1257102,0.09433498,0,0.3,0,0,0,0
638225087585943693,-41.20637,20.82998,11.58024,-136.0833,-18.55563,-86.64282,47.92096,-0.8883717,-9.082087,-78.29288,-7.495606,14.50875,0,0,0,-99.74017,-59.86686,-54.44329,83.34011,-110.3957,-93.10179,0.001067912,-0.1257102,0.09433498,0,0.3,0,0,0,0
638225087586273587,-39.93414,24.96792,11.76702,-135.9368,-19.94728,-90.52482,47.92096,-0.8883717,-9.082087,-78.29288,-7.495606,14.50875,0,0,0,-95.05486,-50.90917,-54.80319,83.34011,-110.3957,-93.10179,0.001067912,-0.1257102,0.09433498,0,0.3,0,0,0,0
638225087586613482,-39.34513,27.11872,11.86041,-135.9368,-20.82623,-93.23489,47.92096,-0.8883717,-9.082087,-78.29288,-7.495606,14.50875,0,0,0,-92.6242,-46.36745,-55.36705,83.34011,-110.3957,-93.10179,0.001067912,-0.1257102,0.09433498,0,0.3,0,0,0,0
638225087586963372,-38.26138,31.11639,12.09388,-135.2776,-22.95034,-99.46073,47.92096,-0.8883717,-9.082087,-78.29288,-7.495606,14.43551,0,0,0,-87.99679,-38.128,-56.77219,83.34011,-110.3957,-93.10179,0.001067912,-0.1257102,0.09433498,0,0.3,0,0,0,0
638225087587383231,-37.55458,34.52961,12.3507,-134.3254,-25.07445,-107.1515,47.92096,-0.8883717,-9.082087,-78.29288,-7.495606,14.43551,0,0,0,-84.3456,-31.32679,-58.64521,83.34011,-110.3957,-93.10179,0.001067912,-0.1257102,0.09433498,0,0.3,0,0,0,0
638225087587723128,-36.94202,37.14796,12.3507,-132.4943,-26.83233,-117.6255,47.92096,-0.8883717,-9.082087,-78.29288,-7.495606,14.43551,0,0,0,-81.02369,-26.38704,-60.60124,83.34011,-110.3957,-93.10179,0.001067912,-0.1257102,0.09433498,0,0.3,0,0,0,0
638225087588063022,-36.49438,39.27538,12.3507,-130.8096,-28.00425,-126.6347,47.92096,-0.8883717,-9.082087,-78.29288,-7.495606,14.50875,0,0,0,-78.35796,-22.49685,-62.43356,83.34011,-110.3957,-93.10179,0.001067912,-0.1257102,0.09433498,0,0.3,0,0,0,0
638225087588402908,-36.25878,40.30402,12.3507,-129.9307,-28.51697,-130.9561,47.92096,-0.8883717,-9.082087,-78.29288,-7.495606,14.50875,0,0,0,-77.01564,-20.65728,-63.34767,83.34011,-110.3957,-93.10179,0.001067912,-0.1257102,0.09433498,0,0.3,0,0,0,0
638225087588732804,-35.88182,41.98725,12.37405,-128.7588,-29.61565,-137.9144,47.92096,-0.8883717,-9.082087,-78.29288,-7.495606,14.50875,0,0,0,-74.84351,-17.69569,-64.88864,83.34011,-110.3957,-93.10179,0.001067912,-0.1257102,0.09433498,0,0.3,0,0,0,0
638225087589082693,-35.05722,43.81075,12.42074,-127.8799,-31.0073,-141.7232,47.92096,-0.8883717,-9.082087,-78.29288,-7.495606,14.50875,0,0,0,-71.74845,-14.56352,-66.10008,83.34011,-110.3957,-93.10179,0.001067912,-0.1257102,0.09433498,0,0.3,0,0,0,0
638225087589422587,-34.51534,45.02642,12.63087,-127.7334,-31.73976,-141.8697,47.92096,-0.8883717,-9.082087,-78.29288,-7.495606,14.50875,0,0,0,-69.9267,-12.43665,-66.66437,83.34011,-110.3957,-93.10179,0.001067912,-0.1257102,0.09433498,0,0.3,0,0,0,0
638225087589762476,-33.31378,48.08897,13.40133,-127.6601,-34.01036,-141.8697,47.92096,-0.8883717,-9.082087,-78.29288,-7.495606,14.50875,0,0,0,-65.89653,-7.132156,-68.08469,83.34011,-110.3957,-93.10179,0.001067912,-0.1257102,0.09433498,0,0.3,0,0,0,0
638225087590112364,-32.04155,51.17488,14.0784,-127.4404,-37.08665,-141.8697,47.92096,-0.8883717,-9.082087,-78.29288,-7.495606,14.50875,0,0,0,-61.56342,-2.106587,-69.98672,83.34011,-110.3957,-93.10179,0.001067912,-0.1257102,0.09433498,0,0.3,0,0,0,0
638225087590442259,-31.31119,52.64771,14.47531,-127.1474,-38.77129,-141.9429,47.92096,-0.8883717,-9.082087,-78.29288,-7.495606,14.43551,0,0,0,-59.36781,0.2357342,-70.75005,83.34011,-110.3957,-93.10179,0.001067912,-0.1257102,0.09433498,0,0.3,0,0,0,0
638225087590932102,-28.03635,56.7389,15.94618,-127.0009,-44.63091,-142.3092,47.92096,-0.8883717,-9.082087,-78.29288,-7.495606,14.43551,0,0,0,-51.59647,6.635875,-71.4595,83.34011,-110.3957,-93.10179,0.001067912,-0.1257102,0.09433498,0,0.3,0,0,0,0
638225087591261997,-25.58612,57.72078,16.13296,-128.6123,-47.48747,-142.3824,47.92096,-0.8883717,-9.082087,-78.29288,-7.495606,14.50875,0,0,0,-46.75766,7.9929,-70.69852,83.34011,-110.3957,-93.10179,0.001067912,-0.1257102,0.09433498,0,0.3,0,0,0,0
638225087591601890,-23.74844,57.97795,16.13296,-131.1026,-49.17211,-142.2359,47.92096,-0.8883717,-9.082087,-78.29288,-7.495606,14.43551,0,0,0,-43.39805,8.311397,-69.71314,83.34011,-110.3957,-93.10179,0.001067912,-0.1257102,0.09433498,0,0.3,0,0,0,0
638225087591941780,-19.31917,57.88443,16.08627,-142.3824,-51.88218,-136.9623,47.92096,-0.8883717,-9.082087,-78.29288,-7.495606,14.50875,0,0,0,-35.67735,8.165688,-66.58065,83.34011,-110.3957,-93.10179,0.001067912,-0.1257102,0.09433498,0,0.3,0,0,0,0
638225087592281669,-15.36109,57.44025,15.61932,-152.8564,-52.98085,-127.2939,47.92096,-0.8883717,-9.082087,-78.29288,-7.495606,14.50875,0,0,0,-28.52191,7.315835,-64.52653,83.34011,-110.3957,-93.10179,0.001067912,-0.1257102,0.09433498,0,0.3,0,0,0,0
638225087592621559,-13.2407,57.22984,14.84886,-154.4678,-53.27384,-125.3163,47.92096,-0.8883717,-9.082087,-78.29288,-7.495606,14.50875,0,0,0,-24.35912,6.580361,-64.82519,83.34011,-110.3957,-93.10179,0.001067912,-0.1257102,0.09433498,0,0.3,0,0,0,0
638225087592961451,-8.764306,56.57525,14.26518,-152.71,-53.20059,-126.4149,47.92096,-0.8883717,-9.082087,-78.29288,-7.495606,14.50875,0,0,0,-16.199,5.407004,-63.2779,83.34011,-110.3957,-93.10179,0.001067912,-0.1257102,0.09433498,0,0.3,0,0,0,0
638225087593301346,-3.981634,55.42972,14.1251,-150.3661,-51.95542,-128.3193,47.92096,-0.8883717,-9.082087,-78.29288,-7.495606,14.43551,0,0,0,-7.513587,3.836305,-60.40345,83.34011,-110.3957,-93.10179,0.001067912,-0.1257102,0.09433498,0,0.3,0,0,0,0
638225087593641238,-1.248678,54.61148,13.96167,-148.535,-51.07648,-126.5614,47.92096,-0.8883717,-9.082087,-78.29288,-7.422361,14.50875,0,0,0,-2.384004,2.65228,-58.97691,83.34011,-110.3957,-93.10179,0.001067912,-0.1257102,0.09433498,0,0.3,0,0,0,0
638225087594011117,3.769594,52.99839,13.58811,-142.7486,-49.24535,-119.4567,47.92096,-0.8883717,-9.082087,-78.29288,-7.495606,14.43551,0,0,0,7.336041,0.2282808,-57.00708,83.34011,-110.3957,-93.10179,0.001067912,-0.1257102,0.09433498,0,0.3,0,0,0,0
638225087594331014,8.481586,51.43205,13.37798,-135.7903,-47.56071,-111.6927,47.92096,-0.8883717,-9.082087,-78.29288,-7.495606,14.43551,0,0,0,16.81253,-2.119258,-55.6069,83.34011,-110.3957,-93.10179,0.001067912,-0.1257102,0.09433498,0,0.3,0,0,0,0
638225087594670905,12.62814,49.79557,13.37798,-128.7588,-45.87607,-102.0975,47.92096,-0.8883717,-9.082087,-78.29288,-7.495606,14.50875,0,0,0,25.56427,-4.53598,-54.24529,83.34011,-110.3957,-93.10179,0.001067912,-0.1257102,0.09433498,0,0.3,0,0,0,0
638225087595005880,15.17262,48.95396,13.37798,-124.3641,-44.92389,-97.48311,47.92096,-0.8883717,-9.082087,-78.29288,-7.495606,14.43551,0,0,0,30.99383,-5.811342,-54.05787,83.34011,-110.3957,-93.10179,0.001067912,-0.1257102,0.09433498,0,0.3,0,0,0,0
638225087595345758,18.04693,48.18248,13.37798,-119.0904,-43.89846,-93.52787,47.92096,-0.8883717,-9.082087,-78.29288,-7.495606,14.50875,0,0,0,37.10309,-6.999493,-54.47589,83.34011,-110.3957,-93.10179,0.001067912,-0.1257102,0.09433498,0,0.3,0,0,0,0
638225087595685647,21.25109,47.36424,13.37798,-113.89,-43.23925,-90.81779,47.92096,-0.8883717,-9.082087,-78.29288,-7.495606,14.50875,0,0,0,43.92107,-8.279337,-55.41348,83.34011,-110.3957,-93.10179,0.001067912,-0.1257102,0.09433498,0,0.3,0,0,0,0
638225087596025538,22.64112,46.96681,13.37798,-111.8392,-43.09276,-89.79237,47.92096,-0.8883717,-9.082087,-78.29288,-7.495606,14.50875,0,0,0,46.90892,-8.908211,-55.88614,83.34011,-110.3957,-93.10179,0.001067912,-0.1257102,0.09433498,0,0.3,0,0,0,0
638225087596445402,25.16204,45.96155,13.33129,-108.3234,-43.01951,-87.37527,47.92096,-0.8883717,-9.082087,-78.29288,-7.495606,14.50875,0,0,0,52.48633,-10.54486,-56.61878,83.34011,-110.3957,-93.10179,0.001067912,-0.1257102,0.09433498,0,0.3,0,0,0,0
638225087596775299,26.74056,44.76926,12.98108,-105.0274,-42.94627,-85.54414,47.92096,-0.8883717,-9.082087,-78.29288,-7.495606,14.43551,0,0,0,56.07561,-12.67996,-57.05239,83.34011,-110.3957,-93.10179,0.001067912,-0.1257102,0.09433498,0,0.3,0,0,0,0
638225087597115190,27.73007,43.29643,12.23397,-101.5116,-42.79977,-84.29898,47.92096,-0.8883717,-9.082087,-78.29288,-7.495606,14.50875,0,0,0,58.30834,-15.52385,-57.43048,83.34011,-110.3957,-93.10179,0.001067912,-0.1257102,0.09433498,0,0.3,0,0,0,0
638225087597465077,28.34263,41.6132,11.46351,-97.70284,-42.28706,-83.8595,47.92096,-0.8883717,-9.082087,-78.29288,-7.495606,14.50875,0,0,0,59.91305,-18.78233,-57.27747,83.34011,-110.3957,-93.10179,0.001067912,-0.1257102,0.09433498,0,0.3,0,0,0,0
638225087597804969,28.60179,40.72483,11.20669,-95.79847,-41.77435,-83.49328,47.92096,-0.8883717,-9.082087,-78.29288,-7.495606,14.50875,0,0,0,60.78584,-20.45622,-56.86919,83.34011,-110.3957,-93.10179,0.001067912,-0.1257102,0.09433498,0,0.3,0,0,0,0
638225087598144861,29.30859,38.80782,11.08995,-92.94191,-40.45593,-81.00294,47.92096,-0.8883717,-9.082087,-78.29288,-7.495606,14.43551,0,0,0,63.42288,-23.93808,-55.37145,83.34011,-110.3957,-93.10179,0.001067912,-0.1257102,0.09433498,0,0.3,0,0,0,0
638225087598484754,30.29811,36.82067,11.08995,-90.74455,-38.91778,-75.94903,47.92096,-0.8883717,-9.082087,-78.29288,-7.495606,14.50875,0,0,0,66.79496,-27.59156,-54.03547,83.34011,-110.3957,-93.10179,0.001067912,-0.1257102,0.09433498,0,0.3,0,0,0,0
638225087598824645,30.93423,35.76865,11.08995,-89.79237,-38.25858,-73.09246,47.92096,-0.8883717,-9.082087,-78.29288,-7.495606,14.43551,0,0,0,68.80501,-29.56496,-53.54092,83.34011,-110.3957,-93.10179,0.001067912,-0.1257102,0.09433498,0,0.3,0,0,0,0
638225087599154537,32.39495,33.78151,11.08995,-87.96124,-37.01341,-66.64689,47.92096,-0.8883717,-9.082087,-78.29288,-7.495606,14.50875,0,0,0,73.12247,-33.36363,-53.10497,83.34011,-110.3957,-93.10179,0.001067912,-0.1257102,0.09433498,0,0.3,0,0,0,0
638225087599504429,33.99702,32.21516,11.08995,-86.1301,-36.13447,-61.44649,47.92096,-0.8883717,-9.082087,-78.29288,-7.495606,14.50875,0,0,0,77.42598,-36.42096,-53.5484,83.34011,-110.3957,-93.10179,0.001067912,-0.1257102,0.09433498,0,0.3,0,0,0,0
638225087599834321,34.82162,31.49044,11.08995,-85.03143,-35.84149,-59.24913,47.92096,-0.8883717,-9.082087,-78.29288,-7.495606,14.43551,0,0,0,79.57842,-37.85367,-53.94381,83.34011,-110.3957,-93.10179,0.001067912,-0.1257102,0.09433498,0,0.3,0,0,0,0
638225087600174226,36.56506,30.29815,11.13665,-82.61434,-35.32877,-55.73336,47.92096,-0.8883717,-9.082087,-78.29288,-7.495606,14.43551,0,0,0,83.93459,-40.21389,-55.18786,83.34011,-110.3957,-93.10179,0.001067912,-0.1257102,0.09433498,0,0.3,0,0,0,0
638225087600514105,38.59122,29.55005,11.41681,-79.53804,-35.18228,-53.46276,47.92096,-0.8883717,-9.082087,-78.29288,-7.495606,14.43551,0,0,0,88.8237,-41.59538,-57.04748,83.34011,-110.3957,-93.10179,0.001067912,-0.1257102,0.09433498,0,0.3,0,0,0,0
638225087601003946,41.70113,28.70843,12.25731,-74.7771,-35.695,-51.63163,47.92096,-0.8883717,-9.082087,-78.29288,-7.495606,14.50875,0,0,0,96.63918,-42.90514,-59.88887,83.34011,-110.3957,-93.10179,0.001067912,-0.1257102,0.09433498,0,0.3,0,0,0,0
638225087601343840,43.51525,28.28763,12.88769,-72.43327,-36.20771,-50.31322,47.92096,-0.8883717,-9.082087,-78.29288,-7.495606,14.50875,0,0,0,101.332,-43.4465,-61.62523,83.34011,-110.3957,-93.10179,0.001067912,-0.1257102,0.09433498,0,0.3,0,0,0,0
638225087601673734,46.46024,27.49277,13.6815,-68.33153,-37.52613,-48.62858,47.92096,-0.8883717,-9.082087,-78.29288,-7.568851,14.50875,0,0,0,108.6121,-44.65702,-65.13762,83.34011,-110.3957,-93.10179,0.001067912,-0.1257102,0.09433498,0,0.3,0,0,0,0
638225087602023622,47.7796,26.93169,13.96167,-66.06093,-38.25858,-48.18911,47.92096,-0.8883717,-9.082087,-78.29288,-7.495606,14.50875,0,0,0,111.8709,-45.66256,-66.83903,83.34011,-110.3957,-93.10179,0.001067912,-0.1257102,0.09433498,0,0.3,0,0,0,0
638225087602473480,50.86596,24.94454,15.47924,-58.51668,-40.38269,-47.96938,47.92096,-0.8883717,-9.082087,-78.29288,-7.495606,14.50875,0,0,0,121.3928,-48.92389,-69.5769,83.34011,-110.3957,-93.10179,0.001067912,-0.1257102,0.09433498,0,0.3,0,0,0,0
638225087602803371,51.57275,24.4536,16.203,-56.68555,-40.8954,-48.04262,47.92096,-0.8883717,-9.082087,-78.29288,-7.495606,14.50875,0,0,0,124.2456,-49.50216,-69.77795,83.34011,-110.3957,-93.10179,0.001067912,-0.1257102,0.09433498,0,0.3,0,0,0,0
638225087603143265,52.98635,23.82239,17.884,-53.46276,-42.36031,-48.11587,47.92096,-0.8883717,-9.082087,-78.29288,-7.495606,14.43551,0,0,0,130.1058,-49.69611,-70.25962,83.34011,-110.3957,-93.10179,0.001067912,-0.1257102,0.09433498,0,0.3,0,0,0,0
638225087603493151,54.04655,23.75225,19.2148,-51.19216,-43.9717,-48.11587,47.92096,-0.8883717,-9.082087,-78.29288,-7.495606,14.43551,0,0,0,134.3288,-48.86018,-70.9211,83.34011,-110.3957,-93.10179,0.001067912,-0.1257102,0.09433498,0,0.3,0,0,0,0
638225087603823047,54.47063,23.75225,19.77514,-50.16673,-44.7774,-48.04262,47.92096,-0.8883717,-9.082087,-78.29288,-7.495606,14.50875,0,0,0,136.0467,-48.42497,-71.20361,83.34011,-110.3957,-93.10179,0.001067912,-0.1257102,0.09433498,0,0.3,0,0,0,0
638225087604162939,54.61199,23.86915,20.0553,-48.40885,-46.02256,-47.38342,47.92096,-0.8883717,-9.082087,-78.29288,-7.495606,14.43551,0,0,0,136.6962,-47.95396,-71.24812,83.34011,-110.3957,-93.10179,0.001067912,-0.1257102,0.09433498,0,0.3,0,0,0,0
638225087604512824,54.61199,24.59387,20.00861,-46.94394,-46.9015,-46.21149,47.92096,-0.8883717,-9.082087,-78.29288,-7.568851,14.43551,0,0,0,136.0486,-46.45309,-71.70815,83.34011,-110.3957,-93.10179,0.001067912,-0.1257102,0.09433498,0,0.3,0,0,0,0
638225087604842721,54.61199,25.01468,20.00861,-46.50447,-47.26773,-45.77202,47.92096,-0.8883717,-9.082087,-78.29288,-7.495606,14.50875,0,0,0,135.7136,-45.56406,-71.94609,83.34011,-110.3957,-93.10179,0.001067912,-0.1257102,0.09433498,0,0.3,0,0,0,0
638225087605182613,54.61199,26.44075,20.00861,-45.11281,-48.29316,-44.67334,47.92096,-0.8883717,-9.082087,-78.29288,-7.495606,14.50875,0,0,0,134.539,-42.57413,-72.78043,83.34011,-110.3957,-93.10179,0.001067912,-0.1257102,0.09433498,0,0.3,0,0,0,0
638225087605532501,54.61199,28.1006,20.00861,-43.57467,-49.61158,-44.23387,47.92096,-0.8883717,-9.082087,-78.29288,-7.495606,14.50875,0,0,0,133.0961,-39.14049,-73.80547,83.34011,-110.3957,-93.10179,0.001067912,-0.1257102,0.09433498,0,0.3,0,0,0,0
638225087605862392,54.61199,29.52667,20.00861,-42.3295,-50.71025,-44.01414,47.92096,-0.8883717,-9.082087,-78.29288,-7.495606,14.50875,0,0,0,131.792,-36.23246,-74.73181,83.34011,-110.3957,-93.10179,0.001067912,-0.1257102,0.09433498,0,0.3,0,0,0,0
638225087606202287,54.61199,30.39166,20.00861,-41.5238,-51.36946,-43.94089,47.92096,-0.8883717,-9.082087,-78.29288,-7.495606,14.50875,0,0,0,130.9724,-34.48829,-75.31402,83.34011,-110.3957,-93.10179,0.001067912,-0.1257102,0.09433498,0,0.3,0,0,0,0
638225087606532181,54.61199,31.98138,20.00861,-39.91241,-53.12735,-44.01414,47.92096,-0.8883717,-9.082087,-78.29288,-7.495606,14.50875,0,0,0,129.4105,-31.32318,-76.4235,83.34011,-110.3957,-93.10179,0.001067912,-0.1257102,0.09433498,0,0.3,0,0,0,0
638225087606872071,54.61199,33.47759,20.00861,-38.15452,-54.81199,-44.6001,47.92096,-0.8883717,-9.082087,-78.29288,-7.495606,14.43551,0,0,0,127.8756,-28.39387,-77.5138,83.34011,-110.3957,-93.10179,0.001067912,-0.1257102,0.09433498,0,0.3,0,0,0,0
638225087607211998,54.61199,34.17893,20.00861,-37.05584,-55.76417,-45.11281,47.92096,-0.8883717,-9.082087,-78.21963,-7.495606,14.43551,0,0,0,127.1348,-27.0379,-78.04005,83.34011,-110.3957,-93.10179,0.001067912,-0.1257102,0.09433498,0,0.3,0,0,0,0
638225087607551855,54.61199,35.76865,20.00861,-33.46683,-57.88828,-47.74964,47.92096,-0.8883717,-9.082087,-78.29288,-7.495606,14.43551,0,0,0,125.4059,-24.00624,-79.26818,83.34011,-110.3957,-93.10179,0.001067912,-0.1257102,0.09433498,0,0.3,0,0,0,0
638225087607891748,54.56487,37.28823,20.00861,-27.38748,-60.23213,-54.48819,47.92096,-0.8883717,-9.082087,-78.29288,-7.495606,14.43551,0,0,0,123.6174,-21.16439,-80.38554,83.34011,-110.3957,-93.10179,0.001067912,-0.1257102,0.09433498,0,0.3,0,0,0,0
638225087608231638,54.42351,38.08309,19.56501,-22.5533,-61.55054,-61.22675,47.92096,-0.8883717,-9.082087,-78.29288,-7.495606,14.50875,0,0,0,121.6901,-20.04989,-81.30397,83.34011,-110.3957,-93.10179,0.001067912,-0.1257102,0.09433498,0,0.3,0,0,0,0
638225087608571529,53.90519,39.64943,18.23421,-9.66215,-63.08869,-86.93581,47.92096,-0.8883717,-9.082087,-78.29288,-7.495606,14.50875,0,0,0,116.6815,-18.21478,-83.28058,83.34011,-110.3957,-93.10179,0.001067912,-0.1257102,0.09433498,0,0.3,0,0,0,0
638225087608901425,53.41043,40.91186,16.81003,4.400921,-63.52816,-124.8036,47.92096,-0.8883717,-9.082087,-78.29288,-7.495606,14.50875,0,0,0,111.8795,-16.97126,-85.29256,83.34011,-110.3957,-93.10179,0.001067912,-0.1257102,0.09433498,0,0.3,0,0,0,0
638225087609251311,53.19839,41.56644,15.89949,13.19034,-63.52816,-139.8921,47.92096,-0.8883717,-9.082087,-78.29288,-7.495606,14.50875,0,0,0,109.139,-16.42238,-86.69881,83.34011,-110.3957,-93.10179,0.001067912,-0.1257102,0.09433498,0,0.3,0,0,0,0
638225087609591202,52.63295,42.38468,12.95773,25.86176,-62.35624,-142.0894,47.92096,-0.8883717,-9.082087,-78.29288,-7.495606,14.43551,0,0,0,102.0464,-16.71245,-90.42258,83.34011,-110.3957,-93.10179,0.001067912,-0.1257102,0.09433498,0,0.3,0,0,0,0
638225087610011069,52.23243,42.85225,9.782504,32.38057,-59.71941,-142.1627,47.92096,-0.8883717,-9.082087,-78.29288,-7.495606,14.43551,0,0,0,95.19028,-17.36839,-94.59912,83.34011,-110.3957,-93.10179,0.001067912,-0.1257102,0.09433498,0,0.3,0,0,0,0
638225087610350958,51.92616,42.87563,6.583929,36.04284,-56.42338,-142.1627,47.92096,-0.8883717,-9.082087,-78.29288,-7.495606,14.43551,0,0,0,88.96564,-18.38799,-98.65758,83.34011,-110.3957,-93.10179,0.001067912,-0.1257102,0.09433498,0,0.3,0,0,0,0
638225087610680902,51.71412,42.82887,4.249202,38.97264,-52.90761,-142.1627,47.92096,-0.8883717,-9.082087,-78.29288,-7.495606,14.50875,0,0,0,84.51938,-18.98067,-101.6344,83.34011,-110.3957,-93.10179,0.001067912,-0.1257102,0.09433498,0,0.3,0,0,0,0
638225087611015810,51.69056,42.66522,3.432048,40.80377,-51.29622,-142.2359,47.92096,-0.8883717,-9.082087,-78.29288,-7.568851,14.50875,0,0,0,83.20583,-19.38775,-102.6157,83.34011,-110.3957,-93.10179,0.001067912,-0.1257102,0.09433498,0,0.3,0,0,0,0
638225087611355699,51.69056,41.91712,2.311379,45.78444,-48.00018,-142.2359,47.92096,-0.8883717,-9.082087,-78.29288,-7.495606,14.50875,0,0,0,82.08113,-20.80639,-103.5042,83.34011,-110.3957,-93.10179,0.001067912,-0.1257102,0.09433498,0,0.3,0,0,0,0
638225087611695595,51.69056,40.91186,1.354141,52.08353,-44.63091,-142.2359,47.92096,-0.8883717,-9.082087,-78.29288,-7.495606,14.50875,0,0,0,81.5483,-22.63222,-103.9252,83.34011,-110.3957,-93.10179,0.001067912,-0.1257102,0.09433498,0,0.3,0,0,0,0
638225087612035487,51.66699,40.44429,0.8171543,54.7936,-43.01951,-142.1627,47.92096,-0.8883717,-9.082087,-78.29288,-7.495606,14.50875,0,0,0,81.09802,-23.48117,-104.2268,83.34011,-110.3957,-93.10179,0.001067912,-0.1257102,0.09433498,0,0.3,0,0,0,0
638225087612375388,51.61988,39.48579,-0.4435981,59.18831,-39.65023,-142.2359,47.92096,-0.8883717,-9.082087,-78.29288,-7.495606,14.50875,0,0,0,79.86837,-25.2005,-105.0922,83.34011,-110.3957,-93.10179,0.001067912,-0.1257102,0.09433498,0,0.3,0,0,0,0
638225087612705273,51.45495,38.55066,-1.44753,61.89838,-36.64718,-142.2359,47.92096,-0.8883717,-9.082087,-78.29288,-7.495606,14.43551,0,0,0,78.93042,-26.85288,-105.4645,83.34011,-110.3957,-93.10179,0.001067912,-0.1257102,0.09433498,0,0.3,0,0,0,0
638225087613045164,51.33715,38.12985,-1.727698,62.99706,-35.40202,-142.2359,47.92096,-0.8883717,-9.082087,-78.29288,-7.495606,14.50875,0,0,0,78.7664,-27.60299,-105.33,83.34011,-110.3957,-93.10179,0.001067912,-0.1257102,0.09433498,0,0.3,0,0,0,0
638225087613385052,51.10155,37.35837,-1.984518,65.12117,-33.05817,-142.2359,47.92096,-0.8883717,-9.082087,-78.29288,-7.495606,14.43551,0,0,0,78.89704,-29.00345,-104.6917,83.34011,-110.3957,-93.10179,0.001067912,-0.1257102,0.09433498,0,0.3,0,0,0,0
638225087613724948,50.77172,36.58689,-2.101254,67.39177,-31.1538,-142.2359,47.92096,-0.8883717,-9.082087,-78.29288,-7.495606,14.43551,0,0,0,79.15546,-30.42825,-103.7273,83.34011,-110.3957,-93.10179,0.001067912,-0.1257102,0.09433498,0,0.3,0,0,0,0
638225087614064836,50.32408,35.74527,-2.21799,69.36938,-29.61565,-142.2359,47.92096,-0.8883717,-9.082087,-78.29288,-7.495606,14.50875,0,0,0,79.32887,-31.99933,-102.5462,83.34011,-110.3957,-93.10179,0.001067912,-0.1257102,0.09433498,0,0.3,0,0,0,0
638225087614394730,50.04136,35.25433,-2.288032,70.39482,-28.88319,-142.2359,47.92096,-0.8883717,-9.082087,-78.29288,-7.495606,14.43551,0,0,0,79.38694,-32.92315,-101.834,83.34011,-110.3957,-93.10179,0.001067912,-0.1257102,0.09433498,0,0.3,0,0,0,0
638225087614744618,49.38168,34.34258,-2.404768,72.37244,-27.56478,-142.2359,47.92096,-0.8883717,-9.082087,-78.29288,-7.495606,14.50875,0,0,0,79.32903,-34.65452,-100.3128,83.34011,-110.3957,-93.10179,0.001067912,-0.1257102,0.09433498,0,0.3,0,0,0,0
638225087615094505,48.50996,33.40745,-2.498158,73.98383,-26.24637,-142.2359,47.92096,-0.8883717,-9.082087,-78.29288,-7.495606,14.43551,0,0,0,79.03076,-36.45218,-98.45397,83.34011,-110.3957,-93.10179,0.001067912,-0.1257102,0.09433498,0,0.3,0,0,0,0
638225087615424402,47.96808,32.89313,-2.568199,74.64304,-25.66041,-142.2359,47.92096,-0.8883717,-9.082087,-78.29288,-7.495606,14.50875,0,0,0,78.73143,-37.44717,-97.38044,83.34011,-110.3957,-93.10179,0.001067912,-0.1257102,0.09433498,0,0.3,0,0,0,0
638225087615774293,46.81364,31.7476,-2.614894,75.52198,-24.56173,-142.1627,47.92096,-0.8883717,-9.082087,-78.29288,-7.495606,14.43551,0,0,0,78.24576,-39.69527,-94.90739,83.34011,-110.3957,-93.10179,0.001067912,-0.1257102,0.09433498,0,0.3,0,0,0,0
638225087616114181,45.51785,30.48518,-2.638241,76.25443,-23.82928,-138.5737,47.92096,-0.8883717,-9.082087,-78.29288,-7.495606,14.43551,0,0,0,77.60948,-42.20815,-92.13087,83.34011,-110.3957,-93.10179,0.001067912,-0.1257102,0.09433498,0,0.3,0,0,0,0
638225087616444078,44.78749,29.99424,-2.661588,76.6939,-23.46305,-129.7842,47.92096,-0.8883717,-9.082087,-78.29288,-7.495606,14.50875,0,0,0,76.99877,-43.19277,-90.77792,83.34011,-110.3957,-93.10179,0.001067912,-0.1257102,0.09433498,0,0.3,0,0,0,0
638225087616793966,43.32677,29.55005,-2.941756,77.57285,-23.60954,-105.9795,47.92096,-0.8883717,-9.082087,-78.29288,-7.495606,14.43551,0,0,0,74.90166,-44.05824,-88.94065,83.34011,-110.3957,-93.10179,0.001067912,-0.1257102,0.09433498,0,0.3,0,0,0,0
638225087617133853,42.29013,29.59681,-3.24527,77.57285,-25.07445,-80.05076,47.92096,-0.8883717,-9.082087,-78.29288,-7.495606,14.50875,0,0,0,72.94198,-43.92547,-88.16007,83.34011,-110.3957,-93.10179,0.001067912,-0.1257102,0.09433498,0,0.3,0,0,0,0
638225087617553722,41.70113,29.57343,-3.24527,77.13338,-27.05207,-63.64384,47.92096,-0.8883717,-9.082087,-78.29288,-7.568851,14.50875,0,0,0,72.13165,-43.97279,-87.39442,83.34011,-110.3957,-93.10179,0.001067912,-0.1257102,0.09433498,0,0.3,0,0,0,0
638225087617893614,41.65401,29.57343,-3.24527,77.06013,-27.85776,-58.22369,47.92096,-0.8883717,-9.082087,-78.29288,-7.495606,14.50875,0,0,0,72.06506,-43.97279,-87.33513,83.34011,-110.3957,-93.10179,0.001067912,-0.1257102,0.09433498,0,0.3,0,0,0,0
638225087618233502,41.65401,29.57343,-3.24527,77.06013,-28.15074,-56.17283,47.92096,-0.8883717,-9.082087,-78.29288,-7.568851,14.50875,0,0,0,72.06506,-43.97279,-87.33513,83.34011,-110.3957,-93.10179,0.001067912,-0.1257102,0.09433498,0,0.3,0,0,0,0
638225087618573397,41.65401,29.57343,-3.24527,77.13338,-28.15074,-53.90223,47.92096,-0.8883717,-9.082087,-78.29288,-7.495606,14.50875,0,0,0,72.06506,-43.97279,-87.33513,83.34011,-110.3957,-93.10179,0.001067912,-0.1257102,0.09433498,0,0.3,0,0,0,0
638225087618913288,41.65401,29.55005,-3.221923,77.13338,-26.61259,-52.8768,47.92096,-0.8883717,-9.082087,-78.29288,-7.495606,14.43551,0,0,0,72.11895,-44.02318,-87.27454,83.34011,-110.3957,-93.10179,0.001067912,-0.1257102,0.09433498,0,0.3,0,0,0,0
638225087619253180,41.60689,29.3864,-3.221923,77.4996,-25.36743,-52.58382,47.92096,-0.8883717,-9.082087,-78.29288,-7.495606,14.50875,0,0,0,72.17667,-44.35478,-87.07516,83.34011,-110.3957,-93.10179,0.001067912,-0.1257102,0.09433498,0,0.3,0,0,0,0
638225087619593067,41.22993,28.68506,-3.24527,79.33073,-21.55868,-51.26541,47.92096,-0.8883717,-9.082087,-78.29288,-7.495606,14.43551,0,0,0,72.12679,-45.77886,-86.04703,83.34011,-110.3957,-93.10179,0.001067912,-0.1257102,0.09433498,0,0.3,0,0,0,0
638225087619932959,39.98125,27.51615,-3.24527,80.64914,-16.65125,-49.50752,47.92096,-0.8883717,-9.082087,-78.29288,-7.495606,14.43551,0,0,0,71.13947,-48.17865,-83.51292,83.34011,-110.3957,-93.10179,0.001067912,-0.1257102,0.09433498,0,0.3,0,0,0,0
638225087620272851,37.81374,25.83291,-3.198575,81.52808,-11.08462,-47.6764,47.92096,-0.8883717,-9.082087,-78.29288,-7.495606,14.43551,0,0,0,69.02464,-51.68523,-79.408,83.34011,-110.3957,-93.10179,0.001067912,-0.1257102,0.09433498,0,0.3,0,0,0,0
638225087620602747,36.28234,24.54711,-3.198575,82.55352,-7.202625,-43.35493,47.92096,-0.8883717,-9.082087,-78.29288,-7.495606,14.43551,0,0,0,67.37675,-54.39316,-76.56838,83.34011,-110.3957,-93.10179,0.001067912,-0.1257102,0.09433498,0,0.3,0,0,0,0
638225087620942636,34.93942,23.40158,-3.175228,83.43246,-3.760103,-37.34882,47.92096,-0.8883717,-9.082087,-78.29288,-7.495606,14.43551,0,0,0,65.85873,-56.83223,-74.08202,83.34011,-110.3957,-93.10179,0.001067912,-0.1257102,0.09433498,0,0.3,0,0,0,0
638225087621282528,33.26667,22.06903,-3.175228,84.23816,-0.3908245,-29.14537,47.92096,-0.8883717,-9.082087,-78.29288,-7.495606,14.50875,0,0,0,63.73635,-59.69258,-71.19755,83.34011,-110.3957,-93.10179,0.001067912,-0.1257102,0.09433498,0,0.3,0,0,0,0
638225087621612425,32.20647,21.43781,-3.175228,84.45789,1.000834,-24.45767,47.92096,-0.8883717,-9.082087,-78.29288,-7.495606,14.50875,0,0,0,62.21802,-61.05704,-69.57419,83.34011,-110.3957,-93.10179,0.001067912,-0.1257102,0.09433498,0,0.3,0,0,0,0
638225087621952317,29.63843,20.5962,-3.175228,84.9706,3.051698,-14.78931,47.92096,-0.8883717,-9.082087,-78.29288,-7.495606,14.50875,0,0,0,58.07722,-62.88548,-66.27509,83.34011,-110.3957,-93.10179,0.001067912,-0.1257102,0.09433498,0,0.3,0,0,0,0
638225087622302201,26.22224,20.22215,-3.175228,84.60438,4.296866,-4.681479,47.92096,-0.8883717,-9.082087,-78.29288,-7.495606,14.50875,0,0,0,52.02567,-63.7014,-62.72339,83.34011,-110.3957,-93.10179,0.001067912,-0.1257102,0.09433498,0,0.3,0,0,0,0
638225087622642097,24.38456,20.17539,-3.175228,84.23816,4.736337,0.1527017,47.92096,-0.8883717,-9.082087,-78.29288,-7.495606,14.50875,0,0,0,48.62719,-63.80353,-61.07513,83.34011,-110.3957,-93.10179,0.001067912,-0.1257102,0.09433498,0,0.3,0,0,0,0
638225087622981988,20.26157,20.15201,-3.175228,82.91974,4.809582,11.72544,47.92096,-0.8883717,-9.082087,-78.29288,-7.495606,14.50875,0,0,0,40.79501,-63.8546,-57.83898,83.34011,-110.3957,-93.10179,0.001067912,-0.1257102,0.09433498,0,0.3,0,0,0,0
638225087623321878,15.50245,20.10526,-3.175228,80.72239,4.223621,24.76308,47.92096,-0.8883717,-9.082087,-78.29288,-7.495606,14.43551,0,0,0,31.49564,-63.95678,-54.79927,83.34011,-110.3957,-93.10179,0.001067912,-0.1257102,0.09433498,0,0.3,0,0,0,0
638225087623661769,11.02606,20.03512,-3.175228,78.3053,3.344679,35.31038,47.92096,-0.8883717,-9.082087,-78.29288,-7.495606,14.43551,0,0,0,22.54783,-64.11009,-52.63249,83.34011,-110.3957,-93.10179,0.001067912,-0.1257102,0.09433498,0,0.3,0,0,0,0
638225087624001662,8.858545,19.96499,-3.175228,77.13338,2.612227,39.5586,47.92096,-0.8883717,-9.082087,-78.29288,-7.495606,14.43551,0,0,0,18.16372,-64.26348,-51.80733,83.34011,-110.3957,-93.10179,0.001067912,-0.1257102,0.09433498,0,0.3,0,0,0,0
638225087624341635,4.547072,19.7312,-3.175228,74.71628,0.9275885,45.78444,47.92096,-0.8883717,-9.082087,-78.29288,-7.495606,14.50875,0,0,0,9.365469,-64.77526,-50.58746,83.34011,-110.3957,-93.10179,0.001067912,-0.1257102,0.09433498,0,0.3,0,0,0,0
638225087624681442,0.2827196,19.38053,-3.175228,71.85973,-1.123276,49.88617,47.92096,-0.8883717,-9.082087,-78.29288,-7.495606,14.50875,0,0,0,0.5842663,-65.54433,-49.94389,83.34011,-110.3957,-93.10179,0.001067912,-0.1257102,0.09433498,0,0.3,0,0,0,0
638225087625081313,-3.840273,18.91297,-3.151881,68.85667,-3.027651,52.15677,47.92096,-0.8883717,-9.082087,-78.29288,-7.495606,14.43551,0,0,0,-7.957913,-66.57534,-49.79807,83.34011,-110.3957,-93.10179,0.001067912,-0.1257102,0.09433498,0,0.3,0,0,0,0
638225087625421207,-5.88999,18.60905,-3.128534,67.24528,-4.053083,52.88922,47.92096,-0.8883717,-9.082087,-78.29288,-7.495606,14.43551,0,0,0,-12.22194,-67.24807,-49.87828,83.34011,-110.3957,-93.10179,0.001067912,-0.1257102,0.09433498,0,0.3,0,0,0,0
638225087625761098,-8.764306,18.04797,-3.105186,64.68169,-5.810967,53.62167,47.92096,-0.8883717,-9.082087,-78.29288,-7.495606,14.50875,0,0,0,-18.21819,-68.49062,-50.18073,83.34011,-110.3957,-93.10179,0.001067912,-0.1257102,0.09433498,0,0.3,0,0,0,0
638225087626100989,-10.81402,17.51027,-2.98845,62.41109,-7.27587,53.9879,47.92096,-0.8883717,-9.082087,-78.29288,-7.495606,14.43551,0,0,0,-22.55566,-69.69673,-50.26611,83.34011,-110.3957,-93.10179,0.001067912,-0.1257102,0.09433498,0,0.3,0,0,0,0
638225087626430881,-11.37946,17.25311,-2.98845,61.67865,-7.788587,53.9879,47.92096,-0.8883717,-9.082087,-78.29288,-7.495606,14.50875,0,0,0,-23.75516,-70.26791,-50.31918,83.34011,-110.3957,-93.10179,0.001067912,-0.1257102,0.09433498,0,0.3,0,0,0,0
638225087626775842,-11.63862,16.90244,-2.98845,61.16593,-8.228058,52.08353,47.92096,-0.8883717,-9.082087,-78.29288,-7.495606,14.50875,0,0,0,-24.33714,-71.04808,-50.19308,83.34011,-110.3957,-93.10179,0.001067912,-0.1257102,0.09433498,0,0.3,0,0,0,0
638225087627115734,-11.61506,16.55177,-2.98845,62.26461,-8.154812,46.59014,47.92096,-0.8883717,-9.082087,-78.29288,-7.568851,14.43551,0,0,0,-24.33585,-71.8297,-49.95299,83.34011,-110.3957,-93.10179,0.001067912,-0.1257102,0.09433498,0,0.3,0,0,0,0
638225087627445627,-11.61506,16.36474,-3.011797,63.21679,-8.008322,42.85464,47.92096,-0.8883717,-9.082087,-78.29288,-7.495606,14.50875,0,0,0,-24.34975,-72.2443,-49.88535,83.34011,-110.3957,-93.10179,0.001067912,-0.1257102,0.09433498,0,0.3,0,0,0,0
638225087627785521,-11.61506,16.06083,-3.011797,65.41415,-7.422361,34.72442,47.92096,-0.8883717,-9.082087,-78.29288,-7.495606,14.50875,0,0,0,-24.38952,-72.92351,-49.6919,83.34011,-110.3957,-93.10179,0.001067912,-0.1257102,0.09433498,0,0.3,0,0,0,0
638225087628135408,-11.61506,15.82704,-3.011797,67.53825,-7.715342,28.42534,47.92096,-0.8883717,-9.082087,-78.29288,-7.495606,14.50875,0,0,0,-24.41961,-73.44668,-49.5455,83.34011,-110.3957,-93.10179,0.001067912,-0.1257102,0.09433498,0,0.3,0,0,0,0
638225087628475298,-11.61506,15.56988,-3.011797,69.22289,-8.521038,24.98281,47.92096,-0.8883717,-9.082087,-78.29288,-7.495606,14.43551,0,0,0,-24.45221,-74.02287,-49.38687,83.34011,-110.3957,-93.10179,0.001067912,-0.1257102,0.09433498,0,0.3,0,0,0,0
638225087628825188,-11.5915,15.52313,-3.011797,69.95535,-8.887264,23.22493,47.92096,-0.8883717,-9.082087,-78.29288,-7.495606,14.50875,0,0,0,-24.40915,-74.12771,-49.34826,83.34011,-110.3957,-93.10179,0.001067912,-0.1257102,0.09433498,0,0.3,0,0,0,0
638225087629155080,-11.56794,15.52313,-3.011797,71.12727,-9.326735,20.00214,47.92096,-0.8883717,-9.082087,-78.29288,-7.495606,14.43551,0,0,0,-24.36022,-74.12771,-49.33823,83.34011,-110.3957,-93.10179,0.001067912,-0.1257102,0.09433498,0,0.3,0,0,0,0
638225087629594939,-11.56794,15.49975,-3.011797,71.93297,-9.106999,18.3175,47.92096,-0.8883717,-9.082087,-78.29288,-7.495606,14.43551,0,0,0,-24.36314,-74.18014,-49.32397,83.34011,-110.3957,-93.10179,0.001067912,-0.1257102,0.09433498,0,0.3,0,0,0,0
638225087629934832,-11.56794,15.47637,-3.011797,72.59217,-8.594284,17.51181,47.92096,-0.8883717,-9.082087,-78.29288,-7.495606,14.50875,0,0,0,-24.36605,-74.23257,-49.30974,83.34011,-110.3957,-93.10179,0.001067912,-0.1257102,0.09433498,0,0.3,0,0,0,0
638225087630274724,-11.56794,15.47637,-3.011797,73.25138,-8.008322,17.21883,47.92096,-0.8883717,-9.082087,-78.29288,-7.495606,14.50875,0,0,0,-24.36605,-74.23257,-49.30974,83.34011,-110.3957,-93.10179,0.001067912,-0.1257102,0.09433498,0,0.3,0,0,0,0
638225087630634606,-11.56794,15.45299,-3.011797,73.47112,-7.788587,16.99909,47.92096,-0.8883717,-9.082087,-78.29288,-7.495606,14.50875,0,0,0,-24.36896,-74.28501,-49.29552,83.34011,-110.3957,-93.10179,0.001067912,-0.1257102,0.09433498,0,0.3,0,0,0,0
638225087630964500,-11.19098,15.47637,-2.98845,73.83734,-7.422361,15.82717,47.92096,-0.8883717,-9.082087,-78.29288,-7.495606,14.43551,0,0,0,-23.59287,-74.23541,-49.09877,83.34011,-110.3957,-93.10179,0.001067912,-0.1257102,0.09433498,0,0.3,0,0,0,0
638225087631314387,-10.22502,15.47637,-2.941756,74.05708,-7.202625,15.53419,47.92096,-0.8883717,-9.082087,-78.29288,-7.495606,14.50875,0,0,0,-21.59841,-74.24104,-48.61118,83.34011,-110.3957,-93.10179,0.001067912,-0.1257102,0.09433498,0,0.3,0,0,0,0
638225087631644285,-9.824504,15.47637,-2.871714,74.13033,-7.056135,16.48637,47.92096,-0.8883717,-9.082087,-78.29288,-7.495606,14.50875,0,0,0,-20.78864,-74.2493,-48.3027,83.34011,-110.3957,-93.10179,0.001067912,-0.1257102,0.09433498,0,0.3,0,0,0,0
638225087631984175,-9.518225,15.47637,-2.661588,74.78953,-6.909645,19.34294,47.92096,-0.8883717,-9.082087,-78.29288,-7.495606,14.50875,0,0,0,-20.2274,-74.2729,-47.71154,83.34011,-110.3957,-93.10179,0.001067912,-0.1257102,0.09433498,0,0.3,0,0,0,0
638225087632324068,-9.518225,15.47637,-2.591547,75.30224,-6.763155,21.76003,47.92096,-0.8883717,-9.082087,-78.29288,-7.495606,14.43551,0,0,0,-20.25433,-74.28038,-47.55094,83.34011,-110.3957,-93.10179,0.001067912,-0.1257102,0.09433498,0,0.3,0,0,0,0
638225087632673954,-9.541784,15.45299,-2.591547,75.59522,-6.616664,24.25036,47.92096,-0.8883717,-9.082087,-78.29288,-7.495606,14.43551,0,0,0,-20.30641,-74.33282,-47.54497,83.34011,-110.3957,-93.10179,0.001067912,-0.1257102,0.09433498,0,0.3,0,0,0,0
638225087633003850,-9.636024,15.45299,-2.614894,75.59522,-6.543418,25.56878,47.92096,-0.8883717,-9.082087,-78.29288,-7.495606,14.43551,0,0,0,-20.49599,-74.33035,-47.63205,83.34011,-110.3957,-93.10179,0.001067912,-0.1257102,0.09433498,0,0.3,0,0,0,0
638225087633343743,-10.10722,15.38286,-2.614894,75.44874,-6.250438,28.57183,47.92096,-0.8883717,-9.082087,-78.29288,-7.495606,14.43551,0,0,0,-21.49569,-74.48771,-47.76197,83.34011,-110.3957,-93.10179,0.001067912,-0.1257102,0.09433498,0,0.3,0,0,0,0
638225087633683634,-10.69622,15.35948,-2.614894,74.93602,-6.250438,30.91567,47.92096,-0.8883717,-9.082087,-78.29288,-7.568851,14.50875,0,0,0,-22.73685,-74.54017,-47.97514,83.34011,-110.3957,-93.10179,0.001067912,-0.1257102,0.09433498,0,0.3,0,0,0,0
638225087634123497,-11.52082,15.28934,-2.614894,74.35006,-6.763155,33.33276,47.92096,-0.8883717,-9.082087,-78.29288,-7.495606,14.50875,0,0,0,-24.47548,-74.6976,-48.27255,83.34011,-110.3957,-93.10179,0.001067912,-0.1257102,0.09433498,0,0.3,0,0,0,0
638225087634473388,-12.20406,15.14908,-2.614894,73.61761,-7.861832,35.16389,47.92096,-0.8883717,-9.082087,-78.29288,-7.495606,14.43551,0,0,0,-25.92372,-75.01261,-48.48919,83.34011,-110.3957,-93.10179,0.001067912,-0.1257102,0.09433498,0,0.3,0,0,0,0
638225087634803275,-12.5339,15.05556,-2.614894,73.17814,-8.594284,36.04284,47.92096,-0.8883717,-9.082087,-78.29288,-7.495606,14.50875,0,0,0,-26.6256,-75.22273,-48.58505,83.34011,-110.3957,-93.10179,0.001067912,-0.1257102,0.09433498,0,0.3,0,0,0,0
638225087635153162,-12.98154,14.61138,-2.614894,72.29919,-10.05919,37.50774,47.92096,-0.8883717,-9.082087,-78.29288,-7.495606,14.50875,0,0,0,-27.61993,-76.22208,-48.53883,83.34011,-110.3957,-93.10179,0.001067912,-0.1257102,0.09433498,0,0.3,0,0,0,0
638225087635493053,-13.0051,13.88665,-2.614894,71.85973,-10.86488,38.31343,47.92096,-0.8883717,-9.082087,-78.29288,-7.495606,14.50875,0,0,0,-27.76262,-77.8569,-48.14568,83.34011,-110.3957,-93.10179,0.001067912,-0.1257102,0.09433498,0,0.3,0,0,0,0
638225087635832946,-13.0051,13.48922,-2.614894,71.71323,-11.01137,38.45993,47.92096,-0.8883717,-9.082087,-78.29288,-7.495606,14.50875,0,0,0,-27.81188,-78.7556,-47.93242,83.34011,-110.3957,-93.10179,0.001067912,-0.1257102,0.09433498,0,0.3,0,0,0,0
638225087636182830,-13.0051,12.83463,-2.614894,71.56674,-10.93813,38.75291,47.92096,-0.8883717,-9.082087,-78.29288,-7.495606,14.50875,0,0,0,-27.88994,-80.23906,-47.59441,83.34011,-110.3957,-93.10179,0.001067912,-0.1257102,0.09433498,0,0.3,0,0,0,0
638225087636522725,-12.8873,12.50734,-2.614894,71.4935,-10.49866,38.67966,47.92096,-0.8883717,-9.082087,-78.29288,-7.495606,14.43551,0,0,0,-27.67888,-80.98225,-47.37444,83.34011,-110.3957,-93.10179,0.001067912,-0.1257102,0.09433498,0,0.3,0,0,0,0
638225087636862620,-12.20406,12.4372,-2.614894,71.56674,-9.766206,37.94721,47.92096,-0.8883717,-9.082087,-78.29288,-7.568851,14.50875,0,0,0,-26.24179,-81.14163,-47.01854,83.34011,-110.3957,-93.10179,0.001067912,-0.1257102,0.09433498,0,0.3,0,0,0,0
638225087637202509,-11.21454,12.4372,-2.614894,72.07946,-9.25349,36.99502,47.92096,-0.8883717,-9.082087,-78.29288,-7.495606,14.43551,0,0,0,-24.14254,-81.14163,-46.58345,83.34011,-110.3957,-93.10179,0.001067912,-0.1257102,0.09433498,0,0.3,0,0,0,0
638225087637542409,-9.518225,12.41383,-2.614894,73.54436,-8.374548,35.8231,47.92096,-0.8883717,-9.082087,-78.29288,-7.495606,14.50875,0,0,0,-20.52937,-81.19476,-45.91059,83.34011,-110.3957,-93.10179,0.001067912,-0.1257102,0.09433498,0,0.3,0,0,0,0
