zeyangz2/DNN_classification_different_people_hand/data_by_names/Srikar/srikar_right_6.csv
Timestamp,Therapist joint angle 0,Therapist joint angle 1,Therapist joint angle 2,Therapist joint angle 3,Therapist joint angle 4,Therapist joint angle 5,Patient joint angle 0,Patient joint angle 1,Patient joint angle 2,Patient joint angle 3,Patient joint angle 4,Patient joint angle 5,Virtual joint angle 0,Virtual joint angle 1,Virtual joint angle 2,Therapist position x,Therapist position y,Therapist position z,Patient position x,Patient position y,Patient position z,Virtual position x,Virtual position y,Virtual position z,Assistive Force, Obstacle Force Magnitude, Therapist Constant Force, Patient Constant Force, Recovery Factor, Assistance Level
638224437177578467,0,0,0,0,0,0,0,0,0,0,0,0,0,0,0,0,0,0,0,0,0,0,0,0,0,0.3,0,0,0,0
638224437177648461,-15.33753,-0.9117499,2.334727,97.86176,-61.11107,69.07641,-56.80307,-0.4675641,5.253135,-69.35696,-8.374548,-36.83611,0,0,0,-36.70414,-112.0112,-34.52678,-121.7991,-110.5281,-88.65619,0.001067912,-0.1257102,0.09433498,0,0.3,0,0,0,0
638224437178068313,-14.98414,-0.9117499,3.455395,97.93501,-61.11107,71.12727,-56.80307,-0.4675641,5.253135,-69.35696,-8.374548,-36.90935,0,0,0,-36.55152,-111.8795,-31.78663,-121.7991,-110.5281,-88.65619,0.001067912,-0.1257102,0.09433498,0,0.3,0,0,0,0
638224437178398204,-14.6543,-0.9117499,4.085772,98.00825,-61.11107,71.93297,-56.80307,-0.4675641,5.253135,-69.35696,-8.374548,-36.83611,0,0,0,-36.13511,-111.783,-30.16215,-121.7991,-110.5281,-88.65619,0.001067912,-0.1257102,0.09433498,0,0.3,0,0,0,0
638224437178748094,-13.90038,-0.9117499,5.066357,98.00825,-61.11107,72.73866,-56.80307,-0.4675641,5.253135,-69.35696,-8.374548,-36.90935,0,0,0,-34.86022,-111.6009,-27.49036,-121.7991,-110.5281,-88.65619,0.001067912,-0.1257102,0.09433498,0,0.3,0,0,0,0
638224437179097982,-13.49986,-0.9117499,5.46326,98.00825,-61.11107,73.03164,-56.80307,-0.4675641,5.253135,-69.35696,-8.374548,-36.90935,0,0,0,-34.08945,-111.5162,-26.35568,-121.7991,-110.5281,-88.65619,0.001067912,-0.1257102,0.09433498,0,0.3,0,0,0,0
638224437179517847,-12.48678,-0.9351282,6.443846,97.93501,-61.11107,73.91058,-56.80307,-0.4675641,5.253135,-69.35696,-8.447793,-36.90935,0,0,0,-32.06416,-111.3339,-23.55983,-121.7991,-110.5281,-88.65619,0.001067912,-0.1257102,0.09433498,0,0.3,0,0,0,0
638224437179847743,-12.10982,-0.9351282,6.653971,98.00825,-61.03782,74.35006,-56.80307,-0.4675641,5.253135,-69.35696,-8.374548,-36.90935,0,0,0,-31.2128,-111.2781,-22.87696,-121.7991,-110.5281,-88.65619,0.001067912,-0.1257102,0.09433498,0,0.3,0,0,0,0
638224437180187633,-11.14386,-1.005263,7.284348,98.00825,-61.03782,76.6939,-56.80307,-0.4675641,5.253135,-69.35696,-8.447793,-36.90935,0,0,0,-29.03685,-111.2633,-20.94532,-121.7991,-110.5281,-88.65619,0.001067912,-0.1257102,0.09433498,0,0.3,0,0,0,0
638224437180537521,-9.918744,-1.098776,7.868029,97.78851,-61.11107,80.5759,-56.80307,-0.4675641,5.253135,-69.35696,-8.374548,-36.83611,0,0,0,-26.10986,-111.3018,-19.03566,-121.7991,-110.5281,-88.65619,0.001067912,-0.1257102,0.09433498,0,0.3,0,0,0,0
638224437180867418,-9.353305,-1.098776,8.218237,97.49553,-61.11107,82.40703,-56.80307,-0.4675641,5.253135,-69.35696,-8.374548,-36.83611,0,0,0,-24.76623,-111.1877,-17.98894,-121.7991,-110.5281,-88.65619,0.001067912,-0.1257102,0.09433498,0,0.3,0,0,0,0
638224437181207311,-8.245987,-1.122154,9.152128,97.34904,-61.11107,85.62981,-56.80307,-0.4675641,5.253135,-69.35696,-8.374548,-36.83611,0,0,0,-22.16386,-110.9139,-15.41307,-121.7991,-110.5281,-88.65619,0.001067912,-0.1257102,0.09433498,0,0.3,0,0,0,0
638224437181547200,-7.044428,-1.122154,10.45957,97.27579,-61.11107,88.92585,-56.80307,-0.4675641,5.253135,-69.35696,-8.447793,-36.90935,0,0,0,-19.31968,-110.3957,-12.00614,-121.7991,-110.5281,-88.65619,0.001067912,-0.1257102,0.09433498,0,0.3,0,0,0,0
638224437181897091,-6.596789,-1.122154,11.15999,97.27579,-61.11107,90.39075,-56.80307,-0.4675641,5.253135,-69.35696,-8.374548,-36.83611,0,0,0,-18.28158,-110.09,-10.26936,-121.7991,-110.5281,-88.65619,0.001067912,-0.1257102,0.09433498,0,0.3,0,0,0,0
638224437182236981,-5.98423,-1.122154,12.91104,96.68983,-61.11107,93.83327,-56.80307,-0.4675641,5.253135,-69.35696,-8.447793,-36.90935,0,0,0,-17.00602,-109.2402,-6.119032,-121.7991,-110.5281,-88.65619,0.001067912,-0.1257102,0.09433498,0,0.3,0,0,0,0
638224437182576871,-5.489471,-1.122154,14.77882,94.27274,-61.11107,98.66745,-56.80307,-0.4675641,5.253135,-69.35696,-8.374548,-36.83611,0,0,0,-16.00826,-108.2,-1.777004,-121.7991,-110.5281,-88.65619,0.001067912,-0.1257102,0.09433498,0,0.3,0,0,0,0
638224437182916763,-5.041832,-1.075397,16.45982,89.43856,-61.11107,106.5047,-56.80307,-0.4675641,5.253135,-69.35696,-8.374548,-36.83611,0,0,0,-15.03769,-107.0379,2.09823,-121.7991,-110.5281,-88.65619,0.001067912,-0.1257102,0.09433498,0,0.3,0,0,0,0
638224437183256660,-4.876912,-0.9818845,17.20694,85.04385,-61.11107,115.8068,-56.80307,-0.4675641,5.253135,-69.35696,-8.374548,-36.83611,0,0,0,-14.68884,-106.3167,3.802984,-121.7991,-110.5281,-88.65619,0.001067912,-0.1257102,0.09433498,0,0.3,0,0,0,0
638224437183596559,-4.853352,-0.8182371,19.12141,71.347,-61.11107,143.7865,-56.80307,-0.4675641,5.253135,-69.35696,-8.374548,-36.83611,0,0,0,-14.97673,-104.5469,8.033298,-121.7991,-110.5281,-88.65619,0.001067912,-0.1257102,0.09433498,0,0.3,0,0,0,0
638224437184056401,-4.853352,-0.2571602,21.40944,63.65627,-61.11107,144.8852,-56.80307,-0.4675641,5.253135,-69.35696,-8.374548,-36.83611,0,0,0,-15.40039,-101.3968,13.02279,-121.7991,-110.5281,-88.65619,0.001067912,-0.1257102,0.09433498,0,0.3,0,0,0,0
638224437184396293,-4.876912,0.5143204,24.00099,61.53215,-61.11107,144.8852,-56.80307,-0.4675641,5.253135,-69.35696,-8.374548,-36.90935,0,0,0,-15.94762,-97.27334,18.55593,-121.7991,-110.5281,-88.65619,0.001067912,-0.1257102,0.09433498,0,0.3,0,0,0,0
638224437184736182,-4.994712,1.309179,26.61588,61.09268,-61.11107,144.8119,-56.80307,-0.4675641,5.253135,-69.35696,-8.447793,-36.90935,0,0,0,-16.80827,-92.8222,23.97383,-121.7991,-110.5281,-88.65619,0.001067912,-0.1257102,0.09433498,0,0.3,0,0,0,0
638224437185076076,-5.136071,1.753365,27.92333,60.94619,-61.11107,144.8852,-56.80307,-0.4675641,5.253135,-69.35696,-8.374548,-36.83611,0,0,0,-17.52237,-90.39459,26.59809,-121.7991,-110.5281,-88.65619,0.001067912,-0.1257102,0.09433498,0,0.3,0,0,0,0
638224437185415968,-5.560151,2.501468,30.65496,61.23917,-61.11107,144.9584,-56.80307,-0.4675641,5.253135,-69.35696,-8.374548,-36.90935,0,0,0,-19.49573,-85.54472,31.91697,-121.7991,-110.5281,-88.65619,0.001067912,-0.1257102,0.09433498,0,0.3,0,0,0,0
638224437185765872,-6.26695,3.085923,33.40994,62.11811,-61.03782,144.8119,-56.80307,-0.4675641,5.253135,-69.35696,-8.374548,-36.83611,0,0,0,-22.55075,-80.78554,36.99803,-121.7991,-110.5281,-88.65619,0.001067912,-0.1257102,0.09433498,0,0.3,0,0,0,0
638224437186095757,-6.714589,3.343083,34.76408,62.41109,-60.96458,144.7387,-56.80307,-0.4675641,5.253135,-69.35696,-8.374548,-36.83611,0,0,0,-24.45563,-78.42168,39.37442,-121.7991,-110.5281,-88.65619,0.001067912,-0.1257102,0.09433498,0,0.3,0,0,0,0
638224437186435641,-7.539187,3.693756,37.28558,62.63083,-61.03782,144.8852,-56.80307,-0.4675641,5.253135,-69.35696,-8.447793,-36.83611,0,0,0,-28.05867,-74.15584,43.65615,-121.7991,-110.5281,-88.65619,0.001067912,-0.1257102,0.09433498,0,0.3,0,0,0,0
638224437186775533,-8.340226,3.787269,39.80709,62.48434,-60.89133,144.8852,-56.80307,-0.4675641,5.253135,-69.35696,-8.374548,-36.83611,0,0,0,-31.68348,-70.28199,47.77002,-121.7991,-110.5281,-88.65619,0.001067912,-0.1257102,0.09433498,0,0.3,0,0,0,0
638224437187115429,-9.235504,3.810647,41.97839,62.70407,-60.30537,144.8119,-56.80307,-0.4675641,5.253135,-69.35696,-8.374548,-36.83611,0,0,0,-35.66895,-66.91967,51.01537,-121.7991,-110.5281,-88.65619,0.001067912,-0.1257102,0.09433498,0,0.3,0,0,0,0
638224437187455316,-9.706704,3.810647,42.98232,62.70407,-59.64616,144.8119,-56.80307,-0.4675641,5.253135,-69.35696,-8.447793,-36.83611,0,0,0,-37.76232,-65.34173,52.41315,-121.7991,-110.5281,-88.65619,0.001067912,-0.1257102,0.09433498,0,0.3,0,0,0,0
638224437187795208,-10.74334,3.810647,44.87344,62.26461,-58.03477,144.8119,-56.80307,-0.4675641,5.253135,-69.35696,-8.447793,-36.83611,0,0,0,-42.34102,-62.28838,54.80808,-121.7991,-110.5281,-88.65619,0.001067912,-0.1257102,0.09433498,0,0.3,0,0,0,0
638224437188135101,-11.61506,3.810647,45.87738,59.62778,-56.1304,144.8852,-56.80307,-0.4675641,5.253135,-69.35696,-8.374548,-36.83611,0,0,0,-46.06165,-60.62543,55.74578,-121.7991,-110.5281,-88.65619,0.001067912,-0.1257102,0.09433498,0,0.3,0,0,0,0
638224437188564971,-12.32186,4.16132,46.18089,52.23001,-53.42033,144.8852,-56.80307,-0.4675641,5.253135,-69.35696,-8.374548,-36.90935,0,0,0,-48.91507,-59.30286,55.58426,-121.7991,-110.5281,-88.65619,0.001067912,-0.1257102,0.09433498,0,0.3,0,0,0,0
638224437188904853,-12.43966,4.582128,46.48441,49.81293,-52.61463,144.8119,-56.80307,-0.4675641,5.253135,-69.35696,-8.374548,-36.83611,0,0,0,-49.46436,-57.81534,55.88661,-121.7991,-110.5281,-88.65619,0.001067912,-0.1257102,0.09433498,0,0.3,0,0,0,0
638224437189234754,-12.46322,6.148468,46.92801,46.66338,-51.36946,144.8119,-56.80307,-0.4675641,5.253135,-69.35696,-8.374548,-36.90935,0,0,0,-49.63579,-53.43449,56.22471,-121.7991,-110.5281,-88.65619,0.001067912,-0.1257102,0.09433498,0,0.3,0,0,0,0
638224437189574787,-12.46322,8.088859,46.90466,45.27173,-50.71025,144.8119,-56.80307,-0.4675641,5.253135,-69.35696,-8.374548,-36.90935,0,0,0,-49.507,-48.99314,55.64203,-121.7991,-110.5281,-88.65619,0.001067912,-0.1257102,0.09433498,0,0.3,0,0,0,0
638224437189914539,-12.48678,10.09938,46.90466,43.4406,-50.05105,144.8852,-56.80307,-0.4675641,5.253135,-69.35696,-8.374548,-36.90935,0,0,0,-49.4392,-44.3729,54.89959,-121.7991,-110.5281,-88.65619,0.001067912,-0.1257102,0.09433498,0,0.3,0,0,0,0
638224437190254438,-12.48678,11.1514,46.90466,42.04893,-49.61158,144.8852,-56.80307,-0.4675641,5.253135,-69.35696,-8.374548,-36.83611,0,0,0,-49.34159,-41.96645,54.45881,-121.7991,-110.5281,-88.65619,0.001067912,-0.1257102,0.09433498,0,0.3,0,0,0,0
638224437190594323,-12.39254,12.27356,46.88131,38.02045,-47.85369,144.8852,-56.80307,-0.4675641,5.253135,-69.35696,-8.374548,-36.83611,0,0,0,-48.8533,-39.44885,53.98559,-121.7991,-110.5281,-88.65619,0.001067912,-0.1257102,0.09433498,0,0.3,0,0,0,0
638224437190934344,-12.2983,12.15667,46.88131,33.25952,-44.04494,144.8852,-56.80307,-0.4675641,5.253135,-69.35696,-8.374548,-36.83611,0,0,0,-48.4998,-39.71474,54.12188,-121.7991,-110.5281,-88.65619,0.001067912,-0.1257102,0.09433498,0,0.3,0,0,0,0
638224437191264110,-12.32186,11.96964,46.90466,30.98892,-41.77435,144.8852,-56.80307,-0.4675641,5.253135,-69.35696,-8.374548,-36.83611,0,0,0,-48.61861,-40.10074,54.22707,-121.7991,-110.5281,-88.65619,0.001067912,-0.1257102,0.09433498,0,0.3,0,0,0,0
638224437191613999,-12.4161,11.40856,46.71788,26.52096,-36.86692,144.9584,-56.80307,-0.4675641,5.253135,-69.35696,-8.374548,-36.90935,0,0,0,-48.97755,-41.69645,54.11462,-121.7991,-110.5281,-88.65619,0.001067912,-0.1257102,0.09433498,0,0.3,0,0,0,0
638224437191953889,-12.51034,11.05789,46.5778,23.88414,-33.71738,144.8852,-56.80307,-0.4675641,5.253135,-69.35696,-8.374548,-36.83611,0,0,0,-49.32936,-42.73404,53.97048,-121.7991,-110.5281,-88.65619,0.001067912,-0.1257102,0.09433498,0,0.3,0,0,0,0
638224437192283780,-12.5339,11.03451,46.15754,22.8587,-32.10598,144.8119,-56.80307,-0.4675641,5.253135,-69.35696,-8.447793,-36.90935,0,0,0,-49.27657,-43.49536,53.30153,-121.7991,-110.5281,-88.65619,0.001067912,-0.1257102,0.09433498,0,0.3,0,0,0,0
638224437192633664,-12.48678,11.01113,44.21972,20.95433,-28.37048,144.8119,-56.80307,-0.4675641,5.253135,-69.35696,-8.374548,-36.83611,0,0,0,-48.40929,-46.74821,50.24888,-121.7991,-110.5281,-88.65619,0.001067912,-0.1257102,0.09433498,0,0.3,0,0,0,0
638224437193063536,-12.48678,10.98776,41.32466,19.26969,-23.75603,144.7387,-56.80307,-0.4675641,5.253135,-69.35696,-8.374548,-36.83611,0,0,0,-47.34224,-51.37678,45.43046,-121.7991,-110.5281,-88.65619,0.001067912,-0.1257102,0.09433498,0,0.3,0,0,0,0
638224437193403566,-12.48678,10.91762,38.10274,17.36532,-17.89642,144.8119,-56.80307,-0.4675641,5.253135,-69.35696,-8.447793,-36.83611,0,0,0,-46.10191,-56.32771,39.82958,-121.7991,-110.5281,-88.65619,0.001067912,-0.1257102,0.09433498,0,0.3,0,0,0,0
638224437193743446,-12.48678,10.7306,34.01696,15.16796,-10.05919,144.8852,-56.80307,-0.4675641,5.253135,-69.35696,-8.447793,-36.90935,0,0,0,-44.45784,-62.35147,32.40555,-121.7991,-110.5281,-88.65619,0.001067912,-0.1257102,0.09433498,0,0.3,0,0,0,0
638224437194083351,-12.48678,10.59033,31.82232,13.92279,-6.103948,144.8852,-56.80307,-0.4675641,5.253135,-69.35696,-8.374548,-36.83611,0,0,0,-43.5439,-65.44802,28.27853,-121.7991,-110.5281,-88.65619,0.001067912,-0.1257102,0.09433498,0,0.3,0,0,0,0
638224437194433098,-12.48678,10.28641,27.68986,11.65219,2.026266,144.8852,-56.80307,-0.4675641,5.253135,-69.35696,-8.374548,-36.83611,0,0,0,-41.76667,-70.91606,20.25319,-121.7991,-110.5281,-88.65619,0.001067912,-0.1257102,0.09433498,0,0.3,0,0,0,0
638224437194762983,-12.48678,9.772089,24.23446,9.601329,9.497273,144.8852,-56.80307,-0.4675641,5.253135,-69.35696,-8.374548,-36.90935,0,0,0,-40.24864,-75.6149,13.39832,-121.7991,-110.5281,-88.65619,0.001067912,-0.1257102,0.09433498,0,0.3,0,0,0,0
638224437195102885,-12.48678,9.468172,22.81028,8.722386,13.15953,144.7387,-56.80307,-0.4675641,5.253135,-69.35696,-8.374548,-36.90935,0,0,0,-39.61709,-77.63515,10.54649,-121.7991,-110.5281,-88.65619,0.001067912,-0.1257102,0.09433498,0,0.3,0,0,0,0
638224437195452795,-12.48678,8.579801,19.84518,6.891257,20.26431,144.0062,-56.80307,-0.4675641,5.253135,-69.35696,-8.447793,-36.90935,0,0,0,-38.29746,-82.18674,4.587516,-121.7991,-110.5281,-88.65619,0.001067912,-0.1257102,0.09433498,0,0.3,0,0,0,0
638224437195792664,-12.48678,7.340756,17.0435,5.279863,26.85638,141.1496,-56.80307,-0.4675641,5.253135,-69.35696,-8.447793,-36.90935,0,0,0,-37.04651,-87.10545,-1.061308,-121.7991,-110.5281,-88.65619,0.001067912,-0.1257102,0.09433498,0,0.3,0,0,0,0
638224437196122756,-12.48678,5.774416,14.31187,3.81496,32.42301,139.9045,-56.80307,-0.4675641,5.253135,-69.35696,-8.447793,-36.90935,0,0,0,-35.81319,-92.4448,-6.630558,-121.7991,-110.5281,-88.65619,0.001067912,-0.1257102,0.09433498,0,0.3,0,0,0,0
638224437196472450,-12.48678,4.745775,12.72426,3.228999,35.20633,139.3185,-56.80307,-0.4675641,5.253135,-69.35696,-8.374548,-36.83611,0,0,0,-35.08389,-95.69243,-9.923821,-121.7991,-110.5281,-88.65619,0.001067912,-0.1257102,0.09433498,0,0.3,0,0,0,0
638224437196802333,-12.48678,2.361199,9.73581,2.716283,40.187,139.2453,-56.80307,-0.4675641,5.253135,-69.35696,-8.374548,-36.83611,0,0,0,-33.68338,-102.5856,-16.24801,-121.7991,-110.5281,-88.65619,0.001067912,-0.1257102,0.09433498,0,0.3,0,0,0,0
638224437197132365,-12.48678,-0.4441859,7.027527,3.155754,44.50846,139.8312,-56.80307,-0.4675641,5.253135,-69.35696,-8.374548,-36.90935,0,0,0,-32.35882,-110.032,-22.22923,-121.7991,-110.5281,-88.65619,0.001067912,-0.1257102,0.09433498,0,0.3,0,0,0,0
638224437197472129,-12.48678,-1.192288,5.883511,3.521979,46.33959,140.8567,-56.80307,-0.4675641,5.253135,-69.35696,-8.374548,-36.90935,0,0,0,-31.78142,-112.0723,-24.83658,-121.7991,-110.5281,-88.65619,0.001067912,-0.1257102,0.09433498,0,0.3,0,0,0,0
638224437197822018,-12.34542,-0.7481025,1.79774,4.840393,49.04966,144.6654,-56.80307,-0.4675641,5.253135,-69.35696,-8.447793,-36.90935,0,0,0,-29.40287,-111.6754,-34.008,-121.7991,-110.5281,-88.65619,0.001067912,-0.1257102,0.09433498,0,0.3,0,0,0,0
638224437198151912,-12.34542,-1.122154,-1.120669,6.305296,50.51457,144.7387,-56.80307,-0.4675641,5.253135,-69.35696,-8.374548,-36.90935,0,0,0,-27.94779,-112.586,-40.65628,-121.7991,-110.5281,-88.65619,0.001067912,-0.1257102,0.09433498,0,0.3,0,0,0,0
638224437198491806,-12.32186,-1.122154,-1.937823,6.818012,50.95404,144.8852,-56.80307,-0.4675641,5.253135,-69.35696,-8.447793,-36.90935,0,0,0,-27.48957,-112.5353,-42.50216,-121.7991,-110.5281,-88.65619,0.001067912,-0.1257102,0.09433498,0,0.3,0,0,0,0
638224437198821700,-12.22762,-1.098776,-3.035145,7.477218,51.90622,144.8852,-56.80307,-0.4675641,5.253135,-69.35696,-8.447793,-36.90935,0,0,0,-26.74237,-112.3701,-44.94966,-121.7991,-110.5281,-88.65619,0.001067912,-0.1257102,0.09433498,0,0.3,0,0,0,0
638224437199171587,-12.0627,-1.028641,-2.801672,7.623709,53.37113,144.8119,-56.80307,-0.4675641,5.253135,-69.35696,-8.374548,-36.90935,0,0,0,-26.50111,-112.2345,-44.33953,-121.7991,-110.5281,-88.65619,0.001067912,-0.1257102,0.09433498,0,0.3,0,0,0,0
638224437199511475,-11.89778,-0.5610769,-2.288032,7.110993,55.2755,144.8119,-56.80307,-0.4675641,5.253135,-69.35696,-8.447793,-36.83611,0,0,0,-26.39338,-111.1995,-43.08039,-121.7991,-110.5281,-88.65619,0.001067912,-0.1257102,0.09433498,0,0.3,0,0,0,0
638224437199851370,-11.8271,0.1636474,-2.21799,6.671522,56.44743,144.8119,-56.80307,-0.4675641,5.253135,-69.35696,-8.447793,-36.90935,0,0,0,-26.27341,-109.5192,-42.88277,-121.7991,-110.5281,-88.65619,0.001067912,-0.1257102,0.09433498,0,0.3,0,0,0,0
638224437200181256,-11.26166,2.711872,-2.47481,5.279863,58.49829,144.8852,-56.80307,-0.4675641,5.253135,-69.35696,-8.374548,-36.83611,0,0,0,-24.88825,-103.5664,-43.36125,-121.7991,-110.5281,-88.65619,0.001067912,-0.1257102,0.09433498,0,0.3,0,0,0,0
638224437200611134,-9.047026,7.036839,-2.521505,4.767147,60.03644,144.8119,-56.80307,-0.4675641,5.253135,-69.35696,-8.374548,-36.90935,0,0,0,-19.88818,-93.53452,-43.44454,-121.7991,-110.5281,-88.65619,0.001067912,-0.1257102,0.09433498,0,0.3,0,0,0,0
638224437200951011,-7.020868,10.02925,-2.031212,5.865825,60.40266,144.8119,-56.80307,-0.4675641,5.253135,-69.35696,-8.374548,-36.90935,0,0,0,-15.47269,-86.69319,-42.71335,-121.7991,-110.5281,-88.65619,0.001067912,-0.1257102,0.09433498,0,0.3,0,0,0,0
638224437201300899,-5.79575,11.82937,-1.424183,6.891257,60.6224,144.8852,-56.80307,-0.4675641,5.253135,-69.35696,-8.374548,-36.90935,0,0,0,-12.84535,-82.62235,-41.79657,-121.7991,-110.5281,-88.65619,0.001067912,-0.1257102,0.09433498,0,0.3,0,0,0,0
638224437201640791,-3.274835,15.64002,0.04669453,9.235103,60.76889,144.8119,-56.80307,-0.4675641,5.253135,-69.35696,-8.374548,-36.90935,0,0,0,-7.341849,-74.0498,-40.03855,-121.7991,-110.5281,-88.65619,0.001067912,-0.1257102,0.09433498,0,0.3,0,0,0,0
638224437201980682,-0.6596789,19.3104,1.050627,11.28597,60.69564,144.8852,-56.80307,-0.4675641,5.253135,-69.35696,-8.374548,-36.90935,0,0,0,-1.477077,-65.88065,-40.06556,-121.7991,-110.5281,-88.65619,0.001067912,-0.1257102,0.09433498,0,0.3,0,0,0,0
638224437202330570,2.120397,22.32619,1.937823,12.53114,60.54916,144.8852,-56.80307,-0.4675641,5.253135,-69.35696,-8.374548,-36.90935,0,0,0,4.730854,-59.26688,-40.57475,-121.7991,-110.5281,-88.65619,0.001067912,-0.1257102,0.09433498,0,0.3,0,0,0,0
638224437202670465,3.816714,23.82239,2.568199,12.97061,60.47591,144.8119,-56.80307,-0.4675641,5.253135,-69.35696,-8.374548,-36.83611,0,0,0,8.517922,-56.00562,-40.66976,-121.7991,-110.5281,-88.65619,0.001067912,-0.1257102,0.09433498,0,0.3,0,0,0,0
638224437203020349,7.586308,26.51088,4.085772,14.21577,60.40266,144.8852,-56.80307,-0.4675641,5.253135,-69.35696,-8.447793,-36.90935,0,0,0,17.00799,-50.13795,-40.64828,-121.7991,-110.5281,-88.65619,0.001067912,-0.1257102,0.09433498,0,0.3,0,0,0,0
638224437203350244,12.1805,28.75519,6.140331,16.26664,60.10968,144.8119,-56.80307,-0.4675641,5.253135,-69.35696,-8.374548,-36.83611,0,0,0,27.6757,-45.08451,-40.13357,-121.7991,-110.5281,-88.65619,0.001067912,-0.1257102,0.09433498,0,0.3,0,0,0,0
638224437203690137,15.83229,30.18126,7.938071,18.53724,59.88995,144.7387,-56.80307,-0.4675641,5.253135,-69.35696,-8.374548,-36.90935,0,0,0,36.47337,-41.68222,-39.7326,-121.7991,-110.5281,-88.65619,0.001067912,-0.1257102,0.09433498,0,0.3,0,0,0,0
638224437204030032,19.31917,31.65409,9.782504,21.17406,59.52373,144.7387,-56.80307,-0.4675641,5.253135,-69.35696,-8.374548,-36.83611,0,0,0,45.04884,-38.08036,-39.84855,-121.7991,-110.5281,-88.65619,0.001067912,-0.1257102,0.09433498,0,0.3,0,0,0,0
638224437204369920,23.4186,33.8984,12.37405,23.95738,58.86452,140.2707,-56.80307,-0.4675641,5.253135,-69.35696,-8.374548,-36.90935,0,0,0,55.34838,-32.52999,-40.56128,-121.7991,-110.5281,-88.65619,0.001067912,-0.1257102,0.09433498,0,0.3,0,0,0,0
638224437204709812,26.717,36.42324,14.87221,25.27579,57.91233,134.4843,-56.80307,-0.4675641,5.253135,-69.35696,-8.374548,-36.83611,0,0,0,63.62811,-26.35693,-41.93303,-121.7991,-110.5281,-88.65619,0.001067912,-0.1257102,0.09433498,0,0.3,0,0,0,0
638224437205139696,29.28503,38.78444,17.18359,24.98281,56.30094,128.1853,-56.80307,-0.4675641,5.253135,-69.35696,-8.374548,-36.90935,0,0,0,70.11717,-20.51827,-43.32614,-121.7991,-110.5281,-88.65619,0.001067912,-0.1257102,0.09433498,0,0.3,0,0,0,0
638224437205479566,30.25099,39.69619,18.09413,24.39685,55.56849,125.8414,-56.80307,-0.4675641,5.253135,-69.35696,-8.447793,-36.90935,0,0,0,72.55609,-18.23265,-43.94096,-121.7991,-110.5281,-88.65619,0.001067912,-0.1257102,0.09433498,0,0.3,0,0,0,0
638224437205829464,32.25359,41.6132,20.26543,22.78546,53.73735,121.1537,-56.80307,-0.4675641,5.253135,-69.35696,-8.374548,-36.83611,0,0,0,77.85507,-13.18785,-44.97429,-121.7991,-110.5281,-88.65619,0.001067912,-0.1257102,0.09433498,0,0.3,0,0,0,0
638224437206169352,34.02058,43.31981,22.67019,21.61354,51.61324,117.345,-56.80307,-0.4675641,5.253135,-69.35696,-8.374548,-36.83611,0,0,0,83.03594,-8.20978,-45.3395,-121.7991,-110.5281,-88.65619,0.001067912,-0.1257102,0.09433498,0,0.3,0,0,0,0
638224437206519239,35.29282,44.81602,25.26174,20.95433,49.12291,114.2687,-56.80307,-0.4675641,5.253135,-69.35696,-8.447793,-36.83611,0,0,0,87.53146,-3.258018,-44.69203,-121.7991,-110.5281,-88.65619,0.001067912,-0.1257102,0.09433498,0,0.3,0,0,0,0
638224437206859136,35.64622,45.49398,26.49915,20.80784,47.87774,112.9503,-56.80307,-0.4675641,5.253135,-69.35696,-8.447793,-36.90935,0,0,0,89.15054,-0.8882516,-44.03784,-121.7991,-110.5281,-88.65619,0.001067912,-0.1257102,0.09433498,0,0.3,0,0,0,0
638224437207209018,35.85826,46.8733,28.78718,20.44161,45.46065,110.6064,-56.80307,-0.4675641,5.253135,-69.35696,-8.374548,-36.83611,0,0,0,91.01626,3.804796,-42.42294,-121.7991,-110.5281,-88.65619,0.001067912,-0.1257102,0.09433498,0,0.3,0,0,0,0
638224437207548916,35.88182,48.3695,31.19195,19.78241,43.19005,108.9218,-56.80307,-0.4675641,5.253135,-69.35696,-8.374548,-36.90935,0,0,0,92.40137,8.949203,-40.61721,-121.7991,-110.5281,-88.65619,0.001067912,-0.1257102,0.09433498,0,0.3,0,0,0,0
638224437207878809,35.88182,49.32801,32.63948,19.56267,41.87164,108.0428,-56.80307,-0.4675641,5.253135,-69.35696,-8.374548,-36.83611,0,0,0,93.0929,12.19821,-39.66125,-121.7991,-110.5281,-88.65619,0.001067912,-0.1257102,0.09433498,0,0.3,0,0,0,0
638224437208218698,35.88182,51.73597,36.02483,19.26969,38.86858,106.7244,-56.80307,-0.4675641,5.253135,-69.35696,-8.447793,-36.90935,0,0,0,94.37028,20.20335,-37.89545,-121.7991,-110.5281,-88.65619,0.001067912,-0.1257102,0.09433498,0,0.3,0,0,0,0
638224437208568585,35.85826,54.3777,39.29345,19.56267,35.49931,105.699,-56.80307,-0.4675641,5.253135,-69.35696,-8.447793,-36.90935,0,0,0,94.96572,28.54552,-36.95859,-121.7991,-110.5281,-88.65619,0.001067912,-0.1257102,0.09433498,0,0.3,0,0,0,0
638224437208908612,35.85826,57.65065,42.79554,20.29512,31.25109,105.0398,-56.80307,-0.4675641,5.253135,-69.35696,-8.374548,-36.83611,0,0,0,94.86672,38.15432,-37.09557,-121.7991,-110.5281,-88.65619,0.001067912,-0.1257102,0.09433498,0,0.3,0,0,0,0
638224437209248371,35.85826,59.42739,44.71001,20.73459,28.834,104.6736,-56.80307,-0.4675641,5.253135,-69.35696,-8.447793,-36.90935,0,0,0,94.68584,43.39367,-37.34583,-121.7991,-110.5281,-88.65619,0.001067912,-0.1257102,0.09433498,0,0.3,0,0,0,0
638224437209648244,35.85826,63.00426,48.42223,21.90652,23.34061,103.8679,-56.80307,-0.4675641,5.253135,-69.35696,-8.374548,-36.83611,0,0,0,93.89151,53.67435,-38.44484,-121.7991,-110.5281,-88.65619,0.001067912,-0.1257102,0.09433498,0,0.3,0,0,0,0
638224437209988130,35.85826,66.88504,52.39126,23.29818,17.26126,102.3297,-56.80307,-0.4675641,5.253135,-69.35696,-8.374548,-36.90935,0,0,0,92.54748,64.61556,-40.30439,-121.7991,-110.5281,-88.65619,0.001067912,-0.1257102,0.09433498,0,0.3,0,0,0,0
638224437210328026,35.85826,70.62555,56.33695,24.90957,11.18191,99.76613,-56.80307,-0.4675641,5.253135,-69.35696,-8.374548,-36.83611,0,0,0,90.92883,75.23154,-42.5439,-121.7991,-110.5281,-88.65619,0.001067912,-0.1257102,0.09433498,0,0.3,0,0,0,0
638224437210667919,35.81114,72.56595,58.39151,26.00825,7.812634,98.15474,-56.80307,-0.4675641,5.253135,-69.35696,-8.374548,-36.90935,0,0,0,89.827,80.68388,-43.85282,-121.7991,-110.5281,-88.65619,0.001067912,-0.1257102,0.09433498,0,0.3,0,0,0,0
638224437211007814,35.33994,76.2597,62.66406,28.42534,0.4881175,93.10082,-56.80307,-0.4675641,5.253135,-69.35696,-8.374548,-36.90935,0,0,0,86.84044,91.6486,-45.88197,-121.7991,-110.5281,-88.65619,0.001067912,-0.1257102,0.09433498,0,0.3,0,0,0,0
638224437211347701,34.25618,79.74306,67.05334,31.72137,-8.008322,85.55657,-56.80307,-0.4675641,5.253135,-69.35696,-8.374548,-36.90935,0,0,0,82.48789,102.5793,-47.2284,-121.7991,-110.5281,-88.65619,0.001067912,-0.1257102,0.09433498,0,0.3,0,0,0,0
638224437211687599,33.47871,81.35615,68.92113,33.77223,-12.32979,81.45483,-56.80307,-0.4675641,5.253135,-69.35696,-8.374548,-36.90935,0,0,0,79.69273,107.2257,-47.85014,-121.7991,-110.5281,-88.65619,0.001067912,-0.1257102,0.09433498,0,0.3,0,0,0,0
638224437212027482,31.42899,83.95113,71.53602,37.94721,-20.82623,73.61761,-56.80307,-0.4675641,5.253135,-69.35696,-8.447793,-36.90935,0,0,0,73.28208,113.7245,-48.43114,-121.7991,-110.5281,-88.65619,0.001067912,-0.1257102,0.09433498,0,0.3,0,0,0,0
638224437212357381,28.83739,85.96165,73.21703,41.68271,-29.17617,67.09879,-56.80307,-0.4675641,5.253135,-69.35696,-8.447793,-36.83611,0,0,0,66.10804,117.8645,-48.2856,-121.7991,-110.5281,-88.65619,0.001067912,-0.1257102,0.09433498,0,0.3,0,0,0,0
638224437212707269,27.6594,86.77989,73.61393,42.92788,-32.54545,64.75494,-56.80307,-0.4675641,5.253135,-69.35696,-8.447793,-36.83611,0,0,0,62.86587,118.8703,-48.4017,-121.7991,-110.5281,-88.65619,0.001067912,-0.1257102,0.09433498,0,0.3,0,0,0,0
638224437213037163,25.1856,88.43974,73.82405,44.24629,-38.33182,61.53215,-56.80307,-0.4675641,5.253135,-69.35696,-8.447793,-36.90935,0,0,0,56.04588,119.5009,-49.16869,-121.7991,-110.5281,-88.65619,0.001067912,-0.1257102,0.09433498,0,0.3,0,0,0,0
638224437213377193,22.61756,89.84244,73.82405,43.22086,-42.72653,60.06725,-56.80307,-0.4675641,5.253135,-69.35696,-8.447793,-36.83611,0,0,0,49.39427,119.5498,-49.79033,-121.7991,-110.5281,-88.65619,0.001067912,-0.1257102,0.09433498,0,0.3,0,0,0,0
638224437213726934,19.20137,91.10486,73.8474,40.3643,-46.2423,61.6054,-56.80307,-0.4675641,5.253135,-69.35696,-8.374548,-36.90935,0,0,0,41.2804,119.5777,-49.81795,-121.7991,-110.5281,-88.65619,0.001067912,-0.1257102,0.09433498,0,0.3,0,0,0,0
638224437214186788,13.90038,92.48417,73.8941,31.20865,-50.41727,71.85973,-56.80307,-0.4675641,5.253135,-69.35696,-8.374548,-36.83611,0,0,0,29.38938,119.5816,-49.59638,-121.7991,-110.5281,-88.65619,0.001067912,-0.1257102,0.09433498,0,0.3,0,0,0,0
638224437214526679,9.659584,92.99849,73.8941,16.0469,-52.90761,93.97977,-56.80307,-0.4675641,5.253135,-69.35696,-8.374548,-36.90935,0,0,0,20.32667,119.5243,-48.92693,-121.7991,-110.5281,-88.65619,0.001067912,-0.1257102,0.09433498,0,0.3,0,0,0,0
638224437214856575,7.138669,93.04525,73.8941,3.888205,-53.71331,118.0774,-56.80307,-0.4675641,5.253135,-69.35696,-8.447793,-36.90935,0,0,0,15.04078,119.5186,-48.25628,-121.7991,-110.5281,-88.65619,0.001067912,-0.1257102,0.09433498,0,0.3,0,0,0,0
638224437215196602,2.568036,92.97512,73.66063,-23.06602,-53.0541,144.3724,-56.80307,-0.4675641,5.253135,-69.35696,-8.374548,-36.90935,0,0,0,5.423419,119.0054,-47.42844,-121.7991,-110.5281,-88.65619,0.001067912,-0.1257102,0.09433498,0,0.3,0,0,0,0
638224437215536357,-0.3769594,92.74133,73.33376,-41.67029,-51.00323,144.7387,-56.80307,-0.4675641,5.253135,-69.35696,-8.447793,-36.83611,0,0,0,-0.7985126,118.3031,-46.98217,-121.7991,-110.5281,-88.65619,0.001067912,-0.1257102,0.09433498,0,0.3,0,0,0,0
638224437215866259,-1.766997,92.62444,73.28707,-48.62858,-49.90456,144.8852,-56.80307,-0.4675641,5.253135,-69.35696,-8.447793,-36.90935,0,0,0,-3.749879,118.2118,-46.79683,-121.7991,-110.5281,-88.65619,0.001067912,-0.1257102,0.09433498,0,0.3,0,0,0,0
638224437216206143,-4.217233,92.39066,72.93686,-57.12502,-48.07343,144.8119,-56.80307,-0.4675641,5.253135,-69.35696,-8.447793,-36.83611,0,0,0,-8.965611,117.4557,-46.76231,-121.7991,-110.5281,-88.65619,0.001067912,-0.1257102,0.09433498,0,0.3,0,0,0,0
638224437216546034,-6.384749,91.99323,72.42323,-61.9592,-46.2423,144.8852,-56.80307,-0.4675641,5.253135,-69.35696,-8.374548,-36.83611,0,0,0,-13.62101,116.3498,-46.62351,-121.7991,-110.5281,-88.65619,0.001067912,-0.1257102,0.09433498,0,0.3,0,0,0,0
638224437216875934,-7.492068,91.66593,72.21309,-63.57059,-45.36336,144.9584,-56.80307,-0.4675641,5.253135,-69.35696,-8.447793,-36.90935,0,0,0,-16.05075,115.9082,-46.30188,-121.7991,-110.5281,-88.65619,0.001067912,-0.1257102,0.09433498,0,0.3,0,0,0,0
638224437217215833,-10.86114,90.40351,71.55936,-66.13418,-43.31249,144.8852,-56.80307,-0.4675641,5.253135,-69.35696,-8.374548,-36.90935,0,0,0,-23.65988,114.5152,-45.03564,-121.7991,-110.5281,-88.65619,0.001067912,-0.1257102,0.09433498,0,0.3,0,0,0,0
638224437217555715,-13.2407,89.18784,71.06908,-67.67233,-41.77435,144.9584,-56.80307,-0.4675641,5.253135,-69.35696,-8.374548,-36.90935,0,0,0,-29.32367,113.4241,-43.72612,-121.7991,-110.5281,-88.65619,0.001067912,-0.1257102,0.09433498,0,0.3,0,0,0,0
638224437217885618,-14.7721,88.2761,70.74222,-68.55127,-40.67567,144.8852,-56.80307,-0.4675641,5.253135,-69.35696,-8.374548,-36.90935,0,0,0,-33.12121,112.6583,-42.74359,-121.7991,-110.5281,-88.65619,0.001067912,-0.1257102,0.09433498,0,0.3,0,0,0,0
638224437218225509,-17.71709,86.26557,70.18188,-70.16266,-38.33182,144.8852,-56.80307,-0.4675641,5.253135,-69.35696,-8.447793,-36.90935,0,0,0,-40.82035,111.2065,-40.57454,-121.7991,-110.5281,-88.65619,0.001067912,-0.1257102,0.09433498,0,0.3,0,0,0,0
638224437218565398,-20.56785,83.90437,69.50481,-71.62756,-36.28096,144.8852,-56.80307,-0.4675641,5.253135,-69.35696,-8.447793,-36.83611,0,0,0,-48.85733,109.2564,-38.14537,-121.7991,-110.5281,-88.65619,0.001067912,-0.1257102,0.09433498,0,0.3,0,0,0,0
638224437218905288,-21.98145,82.68871,69.13126,-72.06703,-35.47526,144.8119,-56.80307,-0.4675641,5.253135,-69.35696,-8.374548,-36.83611,0,0,0,-52.99138,108.1127,-37.06934,-121.7991,-110.5281,-88.65619,0.001067912,-0.1257102,0.09433498,0,0.3,0,0,0,0
638224437219245174,-24.95,79.93008,68.31409,-73.01923,-33.71738,144.7387,-56.80307,-0.4675641,5.253135,-69.35696,-8.374548,-36.83611,0,0,0,-62.10485,105.3705,-34.86169,-121.7991,-110.5281,-88.65619,0.001067912,-0.1257102,0.09433498,0,0.3,0,0,0,0
638224437219585070,-27.54159,76.82078,67.9172,-74.26439,-32.03274,144.8852,-56.80307,-0.4675641,5.253135,-69.35696,-8.374548,-36.90935,0,0,0,-71.1951,103.0554,-31.82757,-121.7991,-110.5281,-88.65619,0.001067912,-0.1257102,0.09433498,0,0.3,0,0,0,0
638224437219924956,-29.49707,73.80499,67.4269,-76.16876,-31.0073,144.8852,-56.80307,-0.4675641,5.253135,-69.35696,-8.374548,-36.83611,0,0,0,-78.94139,100.2204,-28.80493,-121.7991,-110.5281,-88.65619,0.001067912,-0.1257102,0.09433498,0,0.3,0,0,0,0
638224437220264864,-30.62795,71.74771,66.79652,-77.34068,-30.71432,137.4141,-56.80307,-0.4675641,5.253135,-69.35696,-8.447793,-36.90935,0,0,0,-83.71925,97.45113,-26.94596,-121.7991,-110.5281,-88.65619,0.001067912,-0.1257102,0.09433498,0,0.3,0,0,0,0
638224437220604749,-31.40543,70.0411,65.88599,-77.70691,-30.78757,125.7682,-56.80307,-0.4675641,5.253135,-69.35696,-8.447793,-36.90935,0,0,0,-87.1428,94.21005,-25.61758,-121.7991,-110.5281,-88.65619,0.001067912,-0.1257102,0.09433498,0,0.3,0,0,0,0
638224437220944640,-31.78239,67.93706,63.13101,-76.02227,-31.59327,105.8455,-56.80307,-0.4675641,5.253135,-69.35696,-8.374548,-36.90935,0,0,0,-89.03424,86.66721,-24.65386,-121.7991,-110.5281,-88.65619,0.001067912,-0.1257102,0.09433498,0,0.3,0,0,0,0
638224437221284526,-31.78239,66.90842,61.12315,-73.82492,-31.95949,98.88718,-56.80307,-0.4675641,5.253135,-69.35696,-8.447793,-36.90935,0,0,0,-89.0479,81.61733,-24.63182,-121.7991,-110.5281,-88.65619,0.001067912,-0.1257102,0.09433498,0,0.3,0,0,0,0
638224437221724383,-31.73527,62.11589,54.44583,-61.44649,-31.73976,87.16796,-56.80307,-0.4675641,5.253135,-69.35696,-8.447793,-36.90935,0,0,0,-89.86881,63.67809,-23.04013,-121.7991,-110.5281,-88.65619,0.001067912,-0.1257102,0.09433498,0,0.3,0,0,0,0
638224437222064290,-31.73527,60.10536,52.64809,-57.12502,-31.0073,84.89736,-56.80307,-0.4675641,5.253135,-69.35696,-8.447793,-36.83611,0,0,0,-90.71611,58.05227,-21.67012,-121.7991,-110.5281,-88.65619,0.001067912,-0.1257102,0.09433498,0,0.3,0,0,0,0
638224437222404167,-31.90019,55.28945,48.58566,-48.70182,-28.22399,81.82106,-56.80307,-0.4675641,5.253135,-69.35696,-8.374548,-36.90935,0,0,0,-92.97332,44.75796,-18.9832,-121.7991,-110.5281,-88.65619,0.001067912,-0.1257102,0.09433498,0,0.3,0,0,0,0
638224437222744059,-32.34783,49.88908,44.0096,-41.5238,-23.31656,79.40398,-56.80307,-0.4675641,5.253135,-69.35696,-8.374548,-36.83611,0,0,0,-95.54102,29.42746,-17.49799,-121.7991,-110.5281,-88.65619,0.001067912,-0.1257102,0.09433498,0,0.3,0,0,0,0
638224437223073954,-32.60699,46.92005,41.79161,-38.4475,-20.09377,78.59828,-56.80307,-0.4675641,5.253135,-69.35696,-8.374548,-36.83611,0,0,0,-96.96922,21.32678,-16.76419,-121.7991,-110.5281,-88.65619,0.001067912,-0.1257102,0.09433498,0,0.3,0,0,0,0
638224437223453833,-33.07819,41.14564,38.12609,-33.61332,-12.76926,77.57285,-56.80307,-0.4675641,5.253135,-69.35696,-8.374548,-36.90935,0,0,0,-99.74038,6.190688,-15.22116,-121.7991,-110.5281,-88.65619,0.001067912,-0.1257102,0.09433498,0,0.3,0,0,0,0
638224437223753735,-33.29023,35.46473,35.53454,-29.95106,-5.225006,77.20662,-56.80307,-0.4675641,5.253135,-69.35696,-8.447793,-36.90935,0,0,0,-102.1533,-7.795702,-12.7787,-121.7991,-110.5281,-88.65619,0.001067912,-0.1257102,0.09433498,0,0.3,0,0,0,0
638224437224093631,-33.3609,32.26192,34.55396,-28.33967,-0.9767859,77.35311,-56.80307,-0.4675641,5.253135,-69.35696,-8.374548,-36.83611,0,0,0,-103.6014,-15.2951,-10.99667,-121.7991,-110.5281,-88.65619,0.001067912,-0.1257102,0.09433498,0,0.3,0,0,0,0
638224437224423521,-33.40803,27.32912,33.43328,-25.92258,5.76177,78.52503,-56.80307,-0.4675641,5.253135,-69.35696,-8.447793,-36.90935,0,0,0,-105.6802,-26.71317,-8.126375,-121.7991,-110.5281,-88.65619,0.001067912,-0.1257102,0.09433498,0,0.3,0,0,0,0
638224437224773410,-33.40803,22.37294,32.96634,-23.72522,12.86655,79.47723,-56.80307,-0.4675641,5.253135,-69.35696,-8.447793,-36.83611,0,0,0,-107.8478,-37.77187,-4.840031,-121.7991,-110.5281,-88.65619,0.001067912,-0.1257102,0.09433498,0,0.3,0,0,0,0
638224437225113303,-33.40803,18.53891,32.82626,-22.04058,19.16564,80.28292,-56.80307,-0.4675641,5.253135,-69.35696,-8.447793,-36.90935,0,0,0,-109.4138,-46.30799,-2.465742,-121.7991,-110.5281,-88.65619,0.001067912,-0.1257102,0.09433498,0,0.3,0,0,0,0
638224437225453194,-33.40803,16.73879,32.73286,-21.30813,22.24193,80.79563,-56.80307,-0.4675641,5.253135,-69.35696,-8.374548,-36.83611,0,0,0,-110.0122,-50.41813,-1.558579,-121.7991,-110.5281,-88.65619,0.001067912,-0.1257102,0.09433498,0,0.3,0,0,0,0
638224437225793093,-33.40803,13.86327,32.38266,-19.91648,27.36909,81.52808,-56.80307,-0.4675641,5.253135,-69.35696,-8.374548,-36.90935,0,0,0,-110.6062,-57.31132,-0.6579364,-121.7991,-110.5281,-88.65619,0.001067912,-0.1257102,0.09433498,0,0.3,0,0,0,0
638224437226242951,-33.43158,11.64235,32.0558,-18.74455,31.32433,81.89431,-56.80307,-0.4675641,5.253135,-69.35696,-8.374548,-36.90935,0,0,0,-110.9492,-62.75807,-0.2883596,-121.7991,-110.5281,-88.65619,0.001067912,-0.1257102,0.09433498,0,0.3,0,0,0,0
638224437226572845,-33.43158,10.14614,31.35538,-17.71912,34.54712,82.04079,-56.80307,-0.4675641,5.253135,-69.35696,-8.374548,-36.90935,0,0,0,-110.5477,-67.0342,-0.8965256,-121.7991,-110.5281,-88.65619,0.001067912,-0.1257102,0.09433498,0,0.3,0,0,0,0
638224437226902740,-33.43158,9.608441,30.74835,-17.27965,35.86554,82.04079,-56.80307,-0.4675641,5.253135,-69.35696,-8.374548,-36.90935,0,0,0,-109.9992,-68.99583,-1.727456,-121.7991,-110.5281,-88.65619,0.001067912,-0.1257102,0.09433498,0,0.3,0,0,0,0
638224437227242622,-33.43158,8.72007,29.93119,-16.47395,38.20938,81.45483,-56.80307,-0.4675641,5.253135,-69.35696,-8.374548,-36.90935,0,0,0,-109.2763,-71.99767,-2.822436,-121.7991,-110.5281,-88.65619,0.001067912,-0.1257102,0.09433498,0,0.3,0,0,0,0
638224437227592523,-33.43158,8.346018,29.86115,-15.88799,39.82077,80.28292,-56.80307,-0.4675641,5.253135,-69.35696,-8.447793,-36.90935,0,0,0,-109.2696,-72.93985,-2.832574,-121.7991,-110.5281,-88.65619,0.001067912,-0.1257102,0.09433498,0,0.3,0,0,0,0
638224437227932402,-33.43158,8.439531,30.00124,-15.52176,40.84621,79.18424,-56.80307,-0.4675641,5.253135,-69.35696,-8.374548,-36.90935,0,0,0,-109.4078,-72.56187,-2.623288,-121.7991,-110.5281,-88.65619,0.001067912,-0.1257102,0.09433498,0,0.3,0,0,0,0
638224437228272295,-33.43158,8.579801,30.3281,-15.44852,41.06594,78.74477,-56.80307,-0.4675641,5.253135,-69.35696,-8.447793,-36.90935,0,0,0,-109.7435,-71.85674,-2.114706,-121.7991,-110.5281,-88.65619,0.001067912,-0.1257102,0.09433498,0,0.3,0,0,0,0
638224437228612196,-33.43158,9.000608,31.30868,-15.52176,41.21243,78.23206,-56.80307,-0.4675641,5.253135,-69.35696,-8.447793,-36.83611,0,0,0,-110.7409,-69.71965,-0.6039627,-121.7991,-110.5281,-88.65619,0.001067912,-0.1257102,0.09433498,0,0.3,0,0,0,0
638224437228952088,-33.43158,9.701954,32.47605,-15.88799,40.84621,78.01232,-56.80307,-0.4675641,5.253135,-69.35696,-8.374548,-36.83611,0,0,0,-111.8656,-66.67365,1.099768,-121.7991,-110.5281,-88.65619,0.001067912,-0.1257102,0.09433498,0,0.3,0,0,0,0
638224437229301965,-33.3609,10.21628,33.10642,-16.18097,40.40673,77.93907,-56.80307,-0.4675641,5.253135,-69.35696,-8.374548,-36.83611,0,0,0,-112.2209,-64.7001,2.094842,-121.7991,-110.5281,-88.65619,0.001067912,-0.1257102,0.09433498,0,0.3,0,0,0,0
638224437229631861,-33.17242,11.38519,33.99362,-16.84018,39.52779,77.35311,-56.80307,-0.4675641,5.253135,-69.35696,-8.374548,-36.90935,0,0,0,-112.3222,-60.88666,3.476757,-121.7991,-110.5281,-88.65619,0.001067912,-0.1257102,0.09433498,0,0.3,0,0,0,0
638224437229971755,-33.17242,12.74112,35.60458,-17.57263,38.06289,76.10795,-56.80307,-0.4675641,5.253135,-69.35696,-8.374548,-36.90935,0,0,0,-113.6459,-55.66093,5.501686,-121.7991,-110.5281,-88.65619,0.001067912,-0.1257102,0.09433498,0,0.3,0,0,0,0
638224437230311647,-33.14886,14.44773,38.0327,-18.37833,35.86554,75.52198,-56.80307,-0.4675641,5.253135,-69.35696,-8.374548,-36.90935,0,0,0,-115.5375,-48.41399,8.554206,-121.7991,-110.5281,-88.65619,0.001067912,-0.1257102,0.09433498,0,0.3,0,0,0,0
638224437230761503,-33.43158,16.50501,39.94717,-19.25727,32.27652,75.229,-56.80307,-0.4675641,5.253135,-69.35696,-8.374548,-36.90935,0,0,0,-117.6131,-40.99639,9.805844,-121.7991,-110.5281,-88.65619,0.001067912,-0.1257102,0.09433498,0,0.3,0,0,0,0
638224437231091396,-33.64362,17.25311,40.67094,-19.62349,30.81162,75.229,-56.80307,-0.4675641,5.253135,-69.35696,-8.447793,-36.83611,0,0,0,-118.7032,-38.24057,10.01787,-121.7991,-110.5281,-88.65619,0.001067912,-0.1257102,0.09433498,0,0.3,0,0,0,0
638224437231441283,-34.51534,19.14675,42.51537,-21.30813,27.29585,75.52198,-56.80307,-0.4675641,5.253135,-69.35696,-8.374548,-36.90935,0,0,0,-122.4422,-31.20446,9.702333,-121.7991,-110.5281,-88.65619,0.001067912,-0.1257102,0.09433498,0,0.3,0,0,0,0
638224437231781176,-35.2457,20.82998,44.4065,-23.79847,23.70683,76.18118,-56.80307,-0.4675641,5.253135,-69.35696,-8.447793,-36.83611,0,0,0,-125.7726,-24.49562,9.642481,-121.7991,-110.5281,-88.65619,0.001067912,-0.1257102,0.09433498,0,0.3,0,0,0,0
638224437232121071,-35.55198,22.34956,46.5311,-26.4353,20.19107,77.27986,-56.80307,-0.4675641,5.253135,-69.35696,-8.447793,-36.83611,0,0,0,-127.9818,-17.68238,10.73006,-121.7991,-110.5281,-88.65619,0.001067912,-0.1257102,0.09433498,0,0.3,0,0,0,0
638224437232460957,-35.81114,22.98077,47.79185,-27.75371,18.65292,78.37854,-56.80307,-0.4675641,5.253135,-69.35696,-8.447793,-36.83611,0,0,0,-129.6267,-14.17518,11.30816,-121.7991,-110.5281,-88.65619,0.001067912,-0.1257102,0.09433498,0,0.3,0,0,0,0
638224437232810846,-36.70642,23.86915,51.78423,-30.68352,15.64987,81.2351,-56.80307,-0.4675641,5.253135,-69.35696,-8.374548,-36.83611,0,0,0,-135.5116,-5.183621,13.41032,-121.7991,-110.5281,-88.65619,0.001067912,-0.1257102,0.09433498,0,0.3,0,0,0,0
638224437233150737,-37.74306,23.89252,57.43428,-34.93173,11.91436,83.87193,-56.80307,-0.4675641,5.253135,-69.35696,-8.374548,-36.83611,0,0,0,-143.4242,5.581851,16.93132,-121.7991,-110.5281,-88.65619,0.001067912,-0.1257102,0.09433498,0,0.3,0,0,0,0
638224437233490640,-38.21426,23.86915,60.09586,-37.49532,10.00999,84.82411,-56.80307,-0.4675641,5.253135,-69.35696,-8.374548,-36.90935,0,0,0,-146.9436,10.82828,18.28646,-121.7991,-110.5281,-88.65619,0.001067912,-0.1257102,0.09433498,0,0.3,0,0,0,0
638224437233840519,-38.92105,23.84577,65.16222,-43.72115,5.688524,86.06928,-56.80307,-0.4675641,5.253135,-69.35696,-8.374548,-36.90935,0,0,0,-152.6532,21.24646,20.69304,-121.7991,-110.5281,-88.65619,0.001067912,-0.1257102,0.09433498,0,0.3,0,0,0,0
638224437234170423,-39.20378,23.79901,68.40749,-48.77507,2.246002,86.43551,-56.80307,-0.4675641,5.253135,-69.35696,-8.374548,-36.83611,0,0,0,-155.4936,28.08745,22.27835,-121.7991,-110.5281,-88.65619,0.001067912,-0.1257102,0.09433498,0,0.3,0,0,0,0
638224437234510304,-39.4865,23.79901,69.71494,-53.90223,-0.6838052,86.50875,-56.80307,-0.4675641,5.253135,-69.35696,-8.447793,-36.90935,0,0,0,-157.1238,30.92939,22.34803,-121.7991,-110.5281,-88.65619,0.001067912,-0.1257102,0.09433498,0,0.3,0,0,0,0
638224437234850197,-39.65141,23.7055,69.48147,-56.02634,-1.782483,86.14253,-56.80307,-0.4675641,5.253135,-69.35696,-8.374548,-36.83611,0,0,0,-157.6072,30.22089,21.81662,-121.7991,-110.5281,-88.65619,0.001067912,-0.1257102,0.09433498,0,0.3,0,0,0,0
638224437235260073,-40.45245,22.72361,68.01058,-58.8829,-2.661425,84.16491,-56.80307,-0.4675641,5.253135,-69.35696,-8.447793,-36.90935,0,0,0,-160.0296,24.93032,19.3358,-121.7991,-110.5281,-88.65619,0.001067912,-0.1257102,0.09433498,0,0.3,0,0,0,0
638224437235599965,-41.15925,20.57282,65.69921,-59.90833,-1.928973,80.94212,-56.80307,-0.4675641,5.253135,-69.35696,-8.374548,-36.83611,0,0,0,-162.1564,15.33174,17.14585,-121.7991,-110.5281,-88.65619,0.001067912,-0.1257102,0.09433498,0,0.3,0,0,0,0
638224437235939859,-40.99433,18.4454,63.08431,-58.95615,0.6346079,78.23206,-56.80307,-0.4675641,5.253135,-69.35696,-8.374548,-36.83611,0,0,0,-160.9811,5.177324,16.8746,-121.7991,-110.5281,-88.65619,0.001067912,-0.1257102,0.09433498,0,0.3,0,0,0,0
638224437236269747,-40.61737,17.72068,62.12708,-58.15046,2.319247,77.13338,-56.80307,-0.4675641,5.253135,-69.35696,-8.374548,-36.90935,0,0,0,-159.4325,1.595907,17.54902,-121.7991,-110.5281,-88.65619,0.001067912,-0.1257102,0.09433498,0,0.3,0,0,0,0
638224437236619640,-39.39226,17.32325,59.79235,-55.66012,6.713957,74.64304,-56.80307,-0.4675641,5.253135,-69.35696,-8.374548,-36.90935,0,0,0,-153.9243,-4.036506,19.09219,-121.7991,-110.5281,-88.65619,0.001067912,-0.1257102,0.09433498,0,0.3,0,0,0,0
638224437236959537,-37.53102,17.90771,58.99854,-52.80355,10.96218,70.98078,-56.80307,-0.4675641,5.253135,-69.35696,-8.374548,-36.83611,0,0,0,-146.9314,-4.330173,22.92026,-121.7991,-110.5281,-88.65619,0.001067912,-0.1257102,0.09433498,0,0.3,0,0,0,0
638224437237289426,-36.32946,18.56229,59.02188,-51.19216,13.08629,69.36938,-56.80307,-0.4675641,5.253135,-69.35696,-8.374548,-36.90935,0,0,0,-142.6224,-2.836617,25.59778,-121.7991,-110.5281,-88.65619,0.001067912,-0.1257102,0.09433498,0,0.3,0,0,0,0
638224437237629320,-33.90279,20.64295,58.99854,-48.26236,16.96828,67.24528,-56.80307,-0.4675641,5.253135,-69.35696,-8.447793,-36.90935,0,0,0,-133.3608,1.678409,30.09103,-121.7991,-110.5281,-88.65619,0.001067912,-0.1257102,0.09433498,0,0.3,0,0,0,0
638224437237979209,-31.54679,23.35482,58.99854,-45.99176,20.11782,65.3409,-56.80307,-0.4675641,5.253135,-69.35696,-8.447793,-36.83611,0,0,0,-123.8537,7.529922,33.39086,-121.7991,-110.5281,-88.65619,0.001067912,-0.1257102,0.09433498,0,0.3,0,0,0,0
638224437238319090,-29.12011,26.37061,58.76507,-44.30712,22.31518,62.99706,-56.80307,-0.4675641,5.253135,-69.35696,-8.447793,-36.83611,0,0,0,-113.6281,13.4324,35.63091,-121.7991,-110.5281,-88.65619,0.001067912,-0.1257102,0.09433498,0,0.3,0,0,0,0
638224437238658979,-27.87143,27.82006,58.4849,-43.50142,23.04763,61.6054,-56.80307,-0.4675641,5.253135,-69.35696,-8.374548,-36.83611,0,0,0,-108.279,15.87881,36.4003,-121.7991,-110.5281,-88.65619,0.001067912,-0.1257102,0.09433498,0,0.3,0,0,0,0
638224437238998883,-25.32696,29.85397,58.06465,-41.81678,23.63359,59.04182,-56.80307,-0.4675641,5.253135,-69.35696,-8.374548,-36.90935,0,0,0,-97.88575,19.19335,38.47697,-121.7991,-110.5281,-88.65619,0.001067912,-0.1257102,0.09433498,0,0.3,0,0,0,0
638224437239348771,-22.26416,31.2099,57.90122,-39.54618,23.26737,56.91771,-56.80307,-0.4675641,5.253135,-69.35696,-8.447793,-36.83611,0,0,0,-86.01127,21.58901,41.74134,-121.7991,-110.5281,-88.65619,0.001067912,-0.1257102,0.09433498,0,0.3,0,0,0,0
638224437239778622,-17.97625,32.51908,57.76114,-35.44445,22.75465,54.28088,-56.80307,-0.4675641,5.253135,-69.35696,-8.374548,-36.83611,0,0,0,-69.51234,23.90078,45.88911,-121.7991,-110.5281,-88.65619,0.001067912,-0.1257102,0.09433498,0,0.3,0,0,0,0
638224437240118543,-14.32446,33.96853,57.13076,-31.26948,22.16869,51.35107,-56.80307,-0.4675641,5.253135,-69.35696,-8.447793,-36.90935,0,0,0,-55.07288,25.48544,47.32484,-121.7991,-110.5281,-88.65619,0.001067912,-0.1257102,0.09433498,0,0.3,0,0,0,0
638224437240458416,-11.87422,35.13744,56.59377,-28.04669,21.65597,49.00723,-56.80307,-0.4675641,5.253135,-69.35696,-8.447793,-36.90935,0,0,0,-45.34401,26.67952,47.30359,-121.7991,-110.5281,-88.65619,0.001067912,-0.1257102,0.09433498,0,0.3,0,0,0,0
638224437240798314,-7.020868,37.66228,55.79996,-21.60111,20.55729,44.17305,-56.80307,-0.4675641,5.253135,-69.35696,-8.447793,-36.90935,0,0,0,-26.38407,29.87378,45.88592,-121.7991,-110.5281,-88.65619,0.001067912,-0.1257102,0.09433498,0,0.3,0,0,0,0
638224437241138195,-1.790557,39.97673,55.44976,-14.56958,19.16564,37.87396,-56.80307,-0.4675641,5.253135,-69.35696,-8.447793,-36.90935,0,0,0,-6.624714,33.39761,43.56426,-121.7991,-110.5281,-88.65619,0.001067912,-0.1257102,0.09433498,0,0.3,0,0,0,0
638224437241478080,0.8481586,40.84172,55.44976,-10.98056,18.57967,33.91872,-56.80307,-0.4675641,5.253135,-69.35696,-8.447793,-36.83611,0,0,0,3.119101,34.9305,42.33968,-121.7991,-110.5281,-88.65619,0.001067912,-0.1257102,0.09433498,0,0.3,0,0,0,0
638224437241817981,5.701511,42.03401,55.44976,-4.534989,17.99371,24.76308,-56.80307,-0.4675641,5.253135,-69.35696,-8.374548,-36.90935,0,0,0,20.75102,37.01076,39.49301,-121.7991,-110.5281,-88.65619,0.001067912,-0.1257102,0.09433498,0,0.3,0,0,0,0
638224437242157878,9.588904,42.73536,55.26298,0.2259469,18.06696,15.75392,-56.80307,-0.4675641,5.253135,-69.35696,-8.374548,-36.90935,0,0,0,34.5697,37.8588,36.27934,-121.7991,-110.5281,-88.65619,0.001067912,-0.1257102,0.09433498,0,0.3,0,0,0,0
638224437242497904,11.21454,43.10941,54.95946,1.983831,18.28669,11.21272,-56.80307,-0.4675641,5.253135,-69.35696,-8.374548,-36.83611,0,0,0,40.16702,37.91686,34.23841,-121.7991,-110.5281,-88.65619,0.001067912,-0.1257102,0.09433498,0,0.3,0,0,0,0
638224437242837851,13.85326,44.06791,53.76875,4.693902,19.53186,0.8119082,-56.80307,-0.4675641,5.253135,-69.35696,-8.374548,-36.90935,0,0,0,48.69633,37.28039,29.11342,-121.7991,-110.5281,-88.65619,0.001067912,-0.1257102,0.09433498,0,0.3,0,0,0,0
638224437243177548,14.4187,44.76926,52.71812,5.279863,20.4108,-5.780157,-56.80307,-0.4675641,5.253135,-69.35696,-8.374548,-36.83611,0,0,0,49.99382,36.4872,26.09963,-121.7991,-110.5281,-88.65619,0.001067912,-0.1257102,0.09433498,0,0.3,0,0,0,0
638224437243527429,14.04174,45.5875,51.76089,5.060128,21.14326,-10.61434,-56.80307,-0.4675641,5.253135,-69.35696,-8.374548,-36.90935,0,0,0,48.05469,36.06829,23.79045,-121.7991,-110.5281,-88.65619,0.001067912,-0.1257102,0.09433498,0,0.3,0,0,0,0
638224437243877330,13.61766,46.0083,51.41068,4.840393,21.43624,-12.07924,-56.80307,-0.4675641,5.253135,-69.35696,-8.374548,-36.90935,0,0,0,46.3467,36.11247,22.9663,-121.7991,-110.5281,-88.65619,0.001067912,-0.1257102,0.09433498,0,0.3,0,0,0,0
638224437244337171,11.96846,46.96681,50.73361,4.107941,22.09544,-13.98362,-56.80307,-0.4675641,5.253135,-69.35696,-8.447793,-36.83611,0,0,0,40.28061,36.42252,21.66962,-121.7991,-110.5281,-88.65619,0.001067912,-0.1257102,0.09433498,0,0.3,0,0,0,0
638224437244677066,11.54438,47.03695,50.54683,3.81496,22.16869,-13.69064,-56.80307,-0.4675641,5.253135,-69.35696,-8.447793,-36.90935,0,0,0,38.794,36.19773,21.57548,-121.7991,-110.5281,-88.65619,0.001067912,-0.1257102,0.09433498,0,0.3,0,0,0,0
638224437245006964,10.81402,47.03695,50.29001,2.862773,22.46167,-12.006,-56.80307,-0.4675641,5.253135,-69.35696,-8.374548,-36.83611,0,0,0,36.29845,35.73706,21.68046,-121.7991,-110.5281,-88.65619,0.001067912,-0.1257102,0.09433498,0,0.3,0,0,0,0
638224437245346856,10.1779,47.57465,50.10323,1.397869,23.04763,-10.24811,-56.80307,-0.4675641,5.253135,-69.35696,-8.447793,-36.83611,0,0,0,33.97476,36.25168,20.89253,-121.7991,-110.5281,-88.65619,0.001067912,-0.1257102,0.09433498,0,0.3,0,0,0,0
638224437245796712,9.753823,48.95396,49.9865,-1.092466,23.4871,-8.050756,-56.80307,-0.4675641,5.253135,-69.35696,-8.374548,-36.90935,0,0,0,32.13776,38.18039,18.606,-121.7991,-110.5281,-88.65619,0.001067912,-0.1257102,0.09433498,0,0.3,0,0,0,0
638224437246126743,9.753823,50.09949,50.00984,-3.070086,23.41385,-6.585854,-56.80307,-0.4675641,5.253135,-69.35696,-8.374548,-36.83611,0,0,0,31.80009,39.95253,16.64165,-121.7991,-110.5281,-88.65619,0.001067912,-0.1257102,0.09433498,0,0.3,0,0,0,0
638224437246466494,9.753823,50.7307,50.12658,-4.315253,23.19412,-5.780157,-56.80307,-0.4675641,5.253135,-69.35696,-8.447793,-36.90935,0,0,0,31.63783,41.09699,15.6977,-121.7991,-110.5281,-88.65619,0.001067912,-0.1257102,0.09433498,0,0.3,0,0,0,0
638224437246816385,9.895184,51.43205,50.21997,-6.366118,22.90114,-4.681479,-56.80307,-0.4675641,5.253135,-69.35696,-8.374548,-36.90935,0,0,0,31.89749,42.28935,14.50512,-121.7991,-110.5281,-88.65619,0.001067912,-0.1257102,0.09433498,0,0.3,0,0,0,0
638224437247156279,10.43706,51.47881,49.96315,-7.538041,23.04763,-2.70386,-56.80307,-0.4675641,5.253135,-69.35696,-8.374548,-36.90935,0,0,0,33.54052,41.89867,13.73444,-121.7991,-110.5281,-88.65619,0.001067912,-0.1257102,0.09433498,0,0.3,0,0,0,0
638224437247496170,10.81402,51.57232,49.84641,-7.611286,23.4871,-1.385447,-56.80307,-0.4675641,5.253135,-69.35696,-8.447793,-36.90935,0,0,0,34.67295,41.82624,13.17059,-121.7991,-110.5281,-88.65619,0.001067912,-0.1257102,0.09433498,0,0.3,0,0,0,0
638224437247846055,11.63862,52.29704,49.42616,-7.171815,24.43929,0.2259469,-56.80307,-0.4675641,5.253135,-69.35696,-8.447793,-36.90935,0,0,0,36.88601,42.12094,10.73172,-121.7991,-110.5281,-88.65619,0.001067912,-0.1257102,0.09433498,0,0.3,0,0,0,0
638224437248185948,13.07578,54.00365,48.63235,-5.999893,25.53797,1.104889,-56.80307,-0.4675641,5.253135,-69.35696,-8.374548,-36.83611,0,0,0,40.37276,43.10797,5.474443,-121.7991,-110.5281,-88.65619,0.001067912,-0.1257102,0.09433498,0,0.3,0,0,0,0
638224437248525842,15.19618,56.50512,48.2121,-3.436311,26.12393,1.324624,-56.80307,-0.4675641,5.253135,-69.35696,-8.374548,-36.90935,0,0,0,45.35253,45.69415,-1.380914,-121.7991,-110.5281,-88.65619,0.001067912,-0.1257102,0.09433498,0,0.3,0,0,0,0
638224437248865732,16.96317,58.46889,48.18876,-0.7262403,25.83095,1.54436,-56.80307,-0.4675641,5.253135,-69.35696,-8.374548,-36.83611,0,0,0,49.34447,48.1101,-6.579672,-121.7991,-110.5281,-88.65619,0.001067912,-0.1257102,0.09433498,0,0.3,0,0,0,0
638224437249205625,18.61237,60.19888,48.18876,2.350057,25.31823,1.69085,-56.80307,-0.4675641,5.253135,-69.35696,-8.447793,-36.90935,0,0,0,52.87446,50.16361,-11.34885,-121.7991,-110.5281,-88.65619,0.001067912,-0.1257102,0.09433498,0,0.3,0,0,0,0
638224437249545509,20.61497,61.97561,48.11871,6.451786,24.73227,1.764095,-56.80307,-0.4675641,5.253135,-69.35696,-8.447793,-36.90935,0,0,0,57.01583,52.04136,-16.78206,-121.7991,-110.5281,-88.65619,0.001067912,-0.1257102,0.09433498,0,0.3,0,0,0,0
638224437249885405,21.51024,62.56007,47.88524,8.136425,24.65902,1.837341,-56.80307,-0.4675641,5.253135,-69.35696,-8.374548,-36.90935,0,0,0,58.80233,52.27052,-19.14984,-121.7991,-110.5281,-88.65619,0.001067912,-0.1257102,0.09433498,0,0.3,0,0,0,0
638224437250325268,24.64372,63.47182,46.25093,12.09166,25.31823,1.837341,-56.80307,-0.4675641,5.253135,-69.35696,-8.447793,-36.90935,0,0,0,65.00127,50.44852,-26.66065,-121.7991,-110.5281,-88.65619,0.001067912,-0.1257102,0.09433498,0,0.3,0,0,0,0
638224437250665303,25.7746,63.4952,45.59721,12.82412,26.05068,1.764095,-56.80307,-0.4675641,5.253135,-69.35696,-8.447793,-36.90935,0,0,0,67.30366,49.37976,-28.96803,-121.7991,-110.5281,-88.65619,0.001067912,-0.1257102,0.09433498,0,0.3,0,0,0,0
638224437251005190,28.31907,63.44844,44.14968,14.28902,28.46777,1.031644,-56.80307,-0.4675641,5.253135,-69.35696,-8.447793,-36.90935,0,0,0,72.33878,46.95427,-34.10937,-121.7991,-110.5281,-88.65619,0.001067912,-0.1257102,0.09433498,0,0.3,0,0,0,0
638224437251354931,31.05203,63.35493,42.95897,15.31445,31.1046,-0.57975,-56.80307,-0.4675641,5.253135,-69.35696,-8.374548,-36.83611,0,0,0,77.72167,44.94735,-39.26507,-121.7991,-110.5281,-88.65619,0.001067912,-0.1257102,0.09433498,0,0.3,0,0,0,0
638224437251684830,32.37139,63.09777,42.44533,15.75392,32.27652,-1.531937,-56.80307,-0.4675641,5.253135,-69.35696,-8.447793,-36.83611,0,0,0,80.489,43.867,-41.37952,-121.7991,-110.5281,-88.65619,0.001067912,-0.1257102,0.09433498,0,0.3,0,0,0,0
638224437252034714,35.0101,61.99899,41.4414,16.41313,34.98659,-4.168763,-56.80307,-0.4675641,5.253135,-69.35696,-8.374548,-36.83611,0,0,0,86.55399,41.12639,-44.78447,-121.7991,-110.5281,-88.65619,0.001067912,-0.1257102,0.09433498,0,0.3,0,0,0,0
638224437252374605,37.27186,60.50279,40.50751,16.63286,37.76991,-6.878834,-56.80307,-0.4675641,5.253135,-69.35696,-8.374548,-36.90935,0,0,0,92.21811,38.02634,-47.173,-121.7991,-110.5281,-88.65619,0.001067912,-0.1257102,0.09433498,0,0.3,0,0,0,0
638224437252714499,39.46294,58.74942,39.41019,16.12015,40.77296,-10.76083,-56.80307,-0.4675641,5.253135,-69.35696,-8.374548,-36.90935,0,0,0,97.77695,34.32283,-49.58062,-121.7991,-110.5281,-88.65619,0.001067912,-0.1257102,0.09433498,0,0.3,0,0,0,0
638224437253054388,40.52313,57.76754,38.8265,15.46094,42.23786,-13.10467,-56.80307,-0.4675641,5.253135,-69.35696,-8.374548,-36.90935,0,0,0,100.5357,32.26353,-50.73399,-121.7991,-110.5281,-88.65619,0.001067912,-0.1257102,0.09433498,0,0.3,0,0,0,0
638224437253394282,42.26657,55.40634,37.72918,13.1171,44.94794,-18.0121,-56.80307,-0.4675641,5.253135,-69.35696,-8.374548,-36.83611,0,0,0,105.8041,27.6555,-51.93638,-121.7991,-110.5281,-88.65619,0.001067912,-0.1257102,0.09433498,0,0.3,0,0,0,0
638224437253734174,43.25609,52.39055,36.84199,9.821064,46.9988,-22.99277,-56.80307,-0.4675641,5.253135,-69.35696,-8.447793,-36.83611,0,0,0,110.5587,22.26944,-50.84762,-121.7991,-110.5281,-88.65619,0.001067912,-0.1257102,0.09433498,0,0.3,0,0,0,0
638224437254074064,43.49169,50.35665,36.53847,7.91669,48.09748,-25.92258,-56.80307,-0.4675641,5.253135,-69.35696,-8.447793,-36.83611,0,0,0,113.1962,18.89257,-49.03141,-121.7991,-110.5281,-88.65619,0.001067912,-0.1257102,0.09433498,0,0.3,0,0,0,0
638224437254403960,43.35033,45.61087,36.09487,3.448734,50.58781,-32.29491,-56.80307,-0.4675641,5.253135,-69.35696,-8.374548,-36.90935,0,0,0,117.962,10.89016,-43.39185,-121.7991,-110.5281,-88.65619,0.001067912,-0.1257102,0.09433498,0,0.3,0,0,0,0
638224437254843820,42.52573,40.81834,35.23103,0.006211365,53.8106,-38.00803,-56.80307,-0.4675641,5.253135,-69.35696,-8.374548,-36.90935,0,0,0,120.2083,1.591315,-37.28389,-121.7991,-110.5281,-88.65619,0.001067912,-0.1257102,0.09433498,0,0.3,0,0,0,0
638224437255183708,41.08857,38.08309,33.57337,-1.019221,56.81365,-45.03957,-56.80307,-0.4675641,5.253135,-69.35696,-8.447793,-36.90935,0,0,0,117.4495,-5.503572,-33.66088,-121.7991,-110.5281,-88.65619,0.001067912,-0.1257102,0.09433498,0,0.3,0,0,0,0
638224437255513603,37.88441,37.59215,33.31655,-0.57975,58.57154,-49.28778,-56.80307,-0.4675641,5.253135,-69.35696,-8.374548,-36.90935,0,0,0,109.8617,-6.735379,-27.14717,-121.7991,-110.5281,-88.65619,0.001067912,-0.1257102,0.09433498,0,0.3,0,0,0,0
638224437255853496,35.7169,37.73242,33.57337,-0.57975,59.08425,-50.53296,-56.80307,-0.4675641,5.253135,-69.35696,-8.374548,-36.90935,0,0,0,104.6174,-6.147518,-22.8501,-121.7991,-110.5281,-88.65619,0.001067912,-0.1257102,0.09433498,0,0.3,0,0,0,0
638224437256193385,31.21695,38.24674,34.1804,-1.605182,59.81671,-51.4119,-56.80307,-0.4675641,5.253135,-69.35696,-8.374548,-36.90935,0,0,0,93.10526,-4.416613,-14.71751,-121.7991,-110.5281,-88.65619,0.001067912,-0.1257102,0.09433498,0,0.3,0,0,0,0
638224437256533280,27.14108,38.73769,34.55396,-4.022273,60.10968,-49.8005,-56.80307,-0.4675641,5.253135,-69.35696,-8.374548,-36.83611,0,0,0,81.95293,-3.031519,-8.482638,-121.7991,-110.5281,-88.65619,0.001067912,-0.1257102,0.09433498,0,0.3,0,0,0,0
638224437256873171,25.84528,39.13511,34.5773,-4.97446,60.25618,-48.26236,-56.80307,-0.4675641,5.253135,-69.35696,-8.447793,-36.90935,0,0,0,78.08282,-2.281204,-7.153127,-121.7991,-110.5281,-88.65619,0.001067912,-0.1257102,0.09433498,0,0.3,0,0,0,0
638224437257213070,24.69084,41.0755,34.32048,-5.926647,60.47591,-43.57467,-56.80307,-0.4675641,5.253135,-69.35696,-8.374548,-36.83611,0,0,0,73.3982,0.8346776,-8.703636,-121.7991,-110.5281,-88.65619,0.001067912,-0.1257102,0.09433498,0,0.3,0,0,0,0
638224437257552964,25.23272,44.06791,33.99362,-3.509557,60.6224,-35.22471,-56.80307,-0.4675641,5.253135,-69.35696,-8.447793,-36.83611,0,0,0,72.62811,5.535863,-14.23592,-121.7991,-110.5281,-88.65619,0.001067912,-0.1257102,0.09433498,0,0.3,0,0,0,0
638224437257902856,25.68036,45.51736,33.6901,-1.678428,60.54916,-31.04974,-56.80307,-0.4675641,5.253135,-69.35696,-8.447793,-36.83611,0,0,0,72.54575,7.536406,-17.47873,-121.7991,-110.5281,-88.65619,0.001067912,-0.1257102,0.09433498,0,0.3,0,0,0,0
638224437258232757,27.32955,47.97207,32.77956,1.471115,59.67021,-24.23794,-56.80307,-0.4675641,5.253135,-69.35696,-8.374548,-36.83611,0,0,0,74.13383,10.28954,-24.89995,-121.7991,-110.5281,-88.65619,0.001067912,-0.1257102,0.09433498,0,0.3,0,0,0,0
638224437258572636,30.55727,49.28125,31.30868,3.741715,58.64478,-20.50244,-56.80307,-0.4675641,5.253135,-69.35696,-8.447793,-36.90935,0,0,0,79.45547,10.48717,-33.76917,-121.7991,-110.5281,-88.65619,0.001067912,-0.1257102,0.09433498,0,0.3,0,0,0,0
638224437258912654,34.72738,49.35139,29.72107,5.499599,57.83909,-18.8178,-56.80307,-0.4675641,5.253135,-69.35696,-8.374548,-36.83611,0,0,0,87.14769,8.717453,-42.62117,-121.7991,-110.5281,-88.65619,0.001067912,-0.1257102,0.09433498,0,0.3,0,0,0,0
638224437259362385,39.32158,47.66816,28.81053,7.037747,56.8869,-19.84323,-56.80307,-0.4675641,5.253135,-69.35696,-8.374548,-36.83611,0,0,0,97.62629,5.08622,-49.16557,-121.7991,-110.5281,-88.65619,0.001067912,-0.1257102,0.09433498,0,0.3,0,0,0,0
638224437259702271,40.66449,46.77979,28.81053,7.330729,56.59392,-20.94191,-56.80307,-0.4675641,5.253135,-69.35696,-8.374548,-36.83611,0,0,0,101.3816,3.682061,-50.33512,-121.7991,-110.5281,-88.65619,0.001067912,-0.1257102,0.09433498,0,0.3,0,0,0,0
638224437260032294,43.46813,43.69386,28.95061,7.770199,56.0812,-24.75066,-56.80307,-0.4675641,5.253135,-69.35696,-8.374548,-36.90935,0,0,0,110.7369,-1.217384,-51.52753,-121.7991,-110.5281,-88.65619,0.001067912,-0.1257102,0.09433498,0,0.3,0,0,0,0
638224437260372255,45.23512,40.16375,29.13739,7.184238,55.86147,-30.02431,-56.80307,-0.4675641,5.253135,-69.35696,-8.447793,-36.90935,0,0,0,118.4536,-7.117852,-50.86461,-121.7991,-110.5281,-88.65619,0.001067912,-0.1257102,0.09433498,0,0.3,0,0,0,0
638224437260711943,46.79008,37.03107,29.25412,5.133373,55.86147,-36.76286,-56.80307,-0.4675641,5.253135,-69.35696,-8.447793,-36.83611,0,0,0,125.0856,-12.68287,-50.84602,-121.7991,-110.5281,-88.65619,0.001067912,-0.1257102,0.09433498,0,0.3,0,0,0,0
638224437261051988,47.73248,35.65176,29.27747,3.81496,55.93471,-40.20539,-56.80307,-0.4675641,5.253135,-69.35696,-8.447793,-36.90935,0,0,0,128.4441,-15.24207,-51.60786,-121.7991,-110.5281,-88.65619,0.001067912,-0.1257102,0.09433498,0,0.3,0,0,0,0
638224437261401733,50.11204,33.40745,29.27747,0.9583986,56.15445,-47.01719,-56.80307,-0.4675641,5.253135,-69.35696,-8.374548,-36.83611,0,0,0,135.4521,-19.545,-55.14281,-121.7991,-110.5281,-88.65619,0.001067912,-0.1257102,0.09433498,0,0.3,0,0,0,0
638224437261741621,53.17484,31.84111,29.41755,-0.9459759,56.15445,-52.65706,-56.80307,-0.4675641,5.253135,-69.35696,-8.374548,-36.83611,0,0,0,143.108,-22.45544,-61.19348,-121.7991,-110.5281,-88.65619,0.001067912,-0.1257102,0.09433498,0,0.3,0,0,0,0
638224437262071520,54.98895,31.13977,29.72107,-1.238957,55.71497,-55.22065,-56.80307,-0.4675641,5.253135,-69.35696,-8.374548,-36.90935,0,0,0,147.6301,-23.49876,-64.93587,-121.7991,-110.5281,-88.65619,0.001067912,-0.1257102,0.09433498,0,0.3,0,0,0,0
638224437262421408,56.14339,29.80721,30.51488,-1.312202,54.17683,-59.46887,-56.80307,-0.4675641,5.253135,-69.35696,-8.374548,-36.90935,0,0,0,152.3168,-25.24464,-66.16468,-121.7991,-110.5281,-88.65619,0.001067912,-0.1257102,0.09433498,0,0.3,0,0,0,0
638224437262761301,56.33187,29.10587,30.56157,-4.681479,53.00491,-62.32543,-56.80307,-0.4675641,5.253135,-69.35696,-8.447793,-36.90935,0,0,0,153.3981,-26.61071,-66.1694,-121.7991,-110.5281,-88.65619,0.001067912,-0.1257102,0.09433498,0,0.3,0,0,0,0
638224437263101194,56.26119,28.59154,30.51488,-7.24506,52.41894,-63.64384,-56.80307,-0.4675641,5.253135,-69.35696,-8.374548,-36.90935,0,0,0,153.6744,-27.7144,-65.71144,-121.7991,-110.5281,-88.65619,0.001067912,-0.1257102,0.09433498,0,0.3,0,0,0,0
638224437263441083,56.33187,28.00709,30.11797,-12.07924,51.32027,-65.0355,-56.80307,-0.4675641,5.253135,-69.35696,-8.447793,-36.90935,0,0,0,153.6739,-29.37836,-65.98567,-121.7991,-110.5281,-88.65619,0.001067912,-0.1257102,0.09433498,0,0.3,0,0,0,0
638224437263880943,56.33187,27.37588,29.72107,-16.03448,50.51457,-66.5004,-56.80307,-0.4675641,5.253135,-69.35696,-8.447793,-36.83611,0,0,0,153.5758,-31.13992,-66.05106,-121.7991,-110.5281,-88.65619,0.001067912,-0.1257102,0.09433498,0,0.3,0,0,0,0
638224437264220830,56.30831,27.28236,29.46425,-19.62349,50.0751,-67.52583,-56.80307,-0.4675641,5.253135,-69.35696,-8.447793,-36.83611,0,0,0,153.1844,-31.62844,-66.22081,-121.7991,-110.5281,-88.65619,0.001067912,-0.1257102,0.09433498,0,0.3,0,0,0,0
638224437264560728,56.30831,27.28236,29.46425,-22.26032,49.9286,-68.03855,-56.80307,-0.4675641,5.253135,-69.35696,-8.374548,-36.83611,0,0,0,153.1844,-31.62844,-66.22081,-121.7991,-110.5281,-88.65619,0.001067912,-0.1257102,0.09433498,0,0.3,0,0,0,0
638224437264910605,56.28475,27.32912,29.46425,-23.72522,50.14834,-68.18504,-56.80307,-0.4675641,5.253135,-69.35696,-8.374548,-36.83611,0,0,0,153.1008,-31.53175,-66.18554,-121.7991,-110.5281,-88.65619,0.001067912,-0.1257102,0.09433498,0,0.3,0,0,0,0
638224437265250511,56.28475,27.39925,29.46425,-23.94496,50.44132,-68.11179,-56.80307,-0.4675641,5.253135,-69.35696,-8.374548,-36.83611,0,0,0,153.0384,-31.38678,-66.22718,-121.7991,-110.5281,-88.65619,0.001067912,-0.1257102,0.09433498,0,0.3,0,0,0,0
638224437265600395,56.28475,28.12398,29.8845,-23.21251,51.10053,-67.3061,-56.80307,-0.4675641,5.253135,-69.35696,-8.374548,-36.90935,0,0,0,153.0918,-29.41,-66.19157,-121.7991,-110.5281,-88.65619,0.001067912,-0.1257102,0.09433498,0,0.3,0,0,0,0
638224437265940286,56.28475,29.99424,30.81839,-21.45462,51.97947,-64.74252,-56.80307,-0.4675641,5.253135,-69.35696,-8.374548,-36.90935,0,0,0,152.8934,-24.507,-66.32397,-121.7991,-110.5281,-88.65619,0.001067912,-0.1257102,0.09433498,0,0.3,0,0,0,0
638224437266280176,56.28475,31.58395,31.47211,-20.13621,52.3457,-63.05788,-56.80307,-0.4675641,5.253135,-69.35696,-8.374548,-36.90935,0,0,0,152.4012,-20.54176,-66.65239,-121.7991,-110.5281,-88.65619,0.001067912,-0.1257102,0.09433498,0,0.3,0,0,0,0
638224437266620062,56.28475,35.9323,33.31655,-16.32746,52.93166,-57.93071,-56.80307,-0.4675641,5.253135,-69.35696,-8.374548,-36.90935,0,0,0,150.7394,-9.83013,-67.76133,-121.7991,-110.5281,-88.65619,0.001067912,-0.1257102,0.09433498,0,0.3,0,0,0,0
638224437266960129,56.28475,41.44955,35.97814,-10.10162,52.93166,-50.6062,-56.80307,-0.4675641,5.253135,-69.35696,-8.374548,-36.90935,0,0,0,148.3036,3.710098,-69.38675,-121.7991,-110.5281,-88.65619,0.001067912,-0.1257102,0.09433498,0,0.3,0,0,0,0
638224437267299847,56.28475,44.20818,37.44902,-6.512609,52.49219,-46.50447,-56.80307,-0.4675641,5.253135,-69.35696,-8.447793,-36.83611,0,0,0,146.956,10.46475,-70.286,-121.7991,-110.5281,-88.65619,0.001067912,-0.1257102,0.09433498,0,0.3,0,0,0,0
638224437267639751,56.26119,50.05273,40.92776,1.764095,50.36808,-37.7883,-56.80307,-0.4675641,5.253135,-69.35696,-8.374548,-36.83611,0,0,0,143.8465,24.83012,-72.27544,-121.7991,-110.5281,-88.65619,0.001067912,-0.1257102,0.09433498,0,0.3,0,0,0,0
638224437267979637,56.26119,55.78039,44.63997,10.11404,46.77906,-29.73133,-56.80307,-0.4675641,5.253135,-69.35696,-8.374548,-36.83611,0,0,0,140.2788,38.73221,-74.65831,-121.7991,-110.5281,-88.65619,0.001067912,-0.1257102,0.09433498,0,0.3,0,0,0,0
638224437268399499,56.21407,61.78859,48.32884,19.48943,41.50541,-22.5533,-56.80307,-0.4675641,5.253135,-69.35696,-8.374548,-36.83611,0,0,0,135.1792,52.20092,-77.90343,-121.7991,-110.5281,-88.65619,0.001067912,-0.1257102,0.09433498,0,0.3,0,0,0,0
638224437268729387,56.21407,65.01479,49.42616,24.68983,38.06289,-18.67131,-56.80307,-0.4675641,5.253135,-69.35696,-8.374548,-36.90935,0,0,0,130.9958,57.48618,-80.70251,-121.7991,-110.5281,-88.65619,0.001067912,-0.1257102,0.09433498,0,0.3,0,0,0,0
638224437269069280,56.21407,66.48761,49.0526,27.39991,36.23176,-16.40071,-56.80307,-0.4675641,5.253135,-69.35696,-8.447793,-36.90935,0,0,0,127.9265,58.23542,-82.75614,-121.7991,-110.5281,-88.65619,0.001067912,-0.1257102,0.09433498,0,0.3,0,0,0,0
638224437269409169,56.19051,68.00719,45.80734,31.2819,33.59494,-12.51871,-56.80307,-0.4675641,5.253135,-69.35696,-8.447793,-36.90935,0,0,0,120.9365,54.04151,-87.36102,-121.7991,-110.5281,-88.65619,0.001067912,-0.1257102,0.09433498,0,0.3,0,0,0,0
638224437269749066,56.16695,68.03057,40.32073,32.82005,32.5695,-9.36917,-56.80307,-0.4675641,5.253135,-69.35696,-8.374548,-36.90935,0,0,0,113.1148,45.34599,-92.53172,-121.7991,-110.5281,-88.65619,0.001067912,-0.1257102,0.09433498,0,0.3,0,0,0,0
638224437270088954,56.16695,67.6799,37.30893,32.7468,32.5695,-7.757777,-56.80307,-0.4675641,5.253135,-69.35696,-8.374548,-36.83611,0,0,0,109.2064,40.64516,-95.15144,-121.7991,-110.5281,-88.65619,0.001067912,-0.1257102,0.09433498,0,0.3,0,0,0,0
638224437270428846,56.16695,66.51099,31.65889,31.42839,33.3752,-4.095518,-56.80307,-0.4675641,5.253135,-69.35696,-8.447793,-36.90935,0,0,0,102.2879,32.14425,-99.78876,-121.7991,-110.5281,-88.65619,0.001067912,-0.1257102,0.09433498,0,0.3,0,0,0,0
638224437270768753,56.16695,64.38357,27.01279,29.23104,34.40063,-0.5065048,-56.80307,-0.4675641,5.253135,-69.35696,-8.374548,-36.83611,0,0,0,98.20042,24.79063,-102.5285,-121.7991,-110.5281,-88.65619,0.001067912,-0.1257102,0.09433498,0,0.3,0,0,0,0
638224437271098639,56.16695,62.79386,24.91153,27.98586,34.98659,1.617605,-56.80307,-0.4675641,5.253135,-69.35696,-8.374548,-36.83611,0,0,0,97.30076,21.00412,-103.1315,-121.7991,-110.5281,-88.65619,0.001067912,-0.1257102,0.09433498,0,0.3,0,0,0,0
638224437271448525,56.16695,56.94931,20.26543,25.1293,37.69667,5.719335,-56.80307,-0.4675641,5.253135,-69.35696,-8.374548,-36.90935,0,0,0,98.77829,10.02703,-102.1411,-121.7991,-110.5281,-88.65619,0.001067912,-0.1257102,0.09433498,0,0.3,0,0,0,0
638224437271788411,56.14339,51.78272,17.76727,23.59116,40.55322,7.110993,-56.80307,-0.4675641,5.253135,-69.35696,-8.374548,-36.90935,0,0,0,102.2998,1.12942,-99.71978,-121.7991,-110.5281,-88.65619,0.001067912,-0.1257102,0.09433498,0,0.3,0,0,0,0
638224437272128312,55.90779,44.06791,15.47924,22.34599,45.68039,6.744767,-56.80307,-0.4675641,5.253135,-69.35696,-8.374548,-36.83611,0,0,0,108.8203,-12.4167,-94.69472,-121.7991,-110.5281,-88.65619,0.001067912,-0.1257102,0.09433498,0,0.3,0,0,0,0
638224437272468204,55.67219,40.23389,14.89556,21.90652,48.82993,5.865825,-56.80307,-0.4675641,5.253135,-69.35696,-8.374548,-36.90935,0,0,0,112.3782,-19.3869,-91.61086,-121.7991,-110.5281,-88.65619,0.001067912,-0.1257102,0.09433498,0,0.3,0,0,0,0
638224437272918054,56.16695,34.45947,12.3507,19.70916,55.71497,4.034696,-56.80307,-0.4675641,5.253135,-69.35696,-8.447793,-36.83611,0,0,0,115.0249,-31.46132,-91.25142,-121.7991,-110.5281,-88.65619,0.001067912,-0.1257102,0.09433498,0,0.3,0,0,0,0
638224437273247954,56.14339,33.31394,11.18334,18.46399,56.81365,3.228999,-56.80307,-0.4675641,5.253135,-69.35696,-8.374548,-36.90935,0,0,0,114.0188,-34.22859,-91.8578,-121.7991,-110.5281,-88.65619,0.001067912,-0.1257102,0.09433498,0,0.3,0,0,0,0
638224437273587844,56.16695,31.35017,8.778571,15.90041,58.13207,-0.0670338,-56.80307,-0.4675641,5.253135,-69.35696,-8.374548,-36.90935,0,0,0,111.5022,-39.06026,-93.61257,-121.7991,-110.5281,-88.65619,0.001067912,-0.1257102,0.09433498,0,0.3,0,0,0,0
638224437273927729,56.16695,28.42789,5.836816,13.26359,58.79127,-2.85035,-56.80307,-0.4675641,5.253135,-69.35696,-8.374548,-36.83611,0,0,0,108.6768,-45.82706,-95.50639,-121.7991,-110.5281,-88.65619,0.001067912,-0.1257102,0.09433498,0,0.3,0,0,0,0
638224437274267630,56.16695,26.25372,4.202508,12.23815,59.01101,-3.656047,-56.80307,-0.4675641,5.253135,-69.35696,-8.374548,-36.83611,0,0,0,107.4598,-50.65449,-96.3221,-121.7991,-110.5281,-88.65619,0.001067912,-0.1257102,0.09433498,0,0.3,0,0,0,0
638224437274607511,56.16695,20.8066,1.144016,10.70001,59.30399,-4.681479,-56.80307,-0.4675641,5.253135,-69.35696,-8.374548,-36.90935,0,0,0,105.7567,-62.60555,-97.46368,-121.7991,-110.5281,-88.65619,0.001067912,-0.1257102,0.09433498,0,0.3,0,0,0,0
638224437274947412,55.97847,14.51786,-0.7237652,10.70001,59.37723,-6.146383,-56.80307,-0.4675641,5.253135,-69.35696,-8.374548,-36.90935,0,0,0,105.5989,-76.56094,-97.06487,-121.7991,-110.5281,-88.65619,0.001067912,-0.1257102,0.09433498,0,0.3,0,0,0,0
638224437275287305,55.78999,11.66572,-1.003932,11.06623,59.52373,-8.490229,-56.80307,-0.4675641,5.253135,-69.35696,-8.374548,-36.83611,0,0,0,106.068,-83.01597,-96.23917,-121.7991,-110.5281,-88.65619,0.001067912,-0.1257102,0.09433498,0,0.3,0,0,0,0
638224437275627197,55.50727,6.405628,-1.050627,12.01842,59.88995,-14.71607,-56.80307,-0.4675641,5.253135,-69.35696,-8.447793,-36.90935,0,0,0,107.2054,-95.10018,-94.68978,-121.7991,-110.5281,-88.65619,0.001067912,-0.1257102,0.09433498,0,0.3,0,0,0,0
638224437275977075,55.48371,2.454711,-1.120669,13.19034,60.10968,-18.52482,-56.80307,-0.4675641,5.253135,-69.35696,-8.447793,-36.90935,0,0,0,107.626,-104.2632,-94.33566,-121.7991,-110.5281,-88.65619,0.001067912,-0.1257102,0.09433498,0,0.3,0,0,0,0
638224437276316966,55.55439,0.6078333,-1.634309,13.84955,60.25618,-20.13621,-56.80307,-0.4675641,5.253135,-69.35696,-8.374548,-36.90935,0,0,0,106.8264,-108.5311,-95.07949,-121.7991,-110.5281,-88.65619,0.001067912,-0.1257102,0.09433498,0,0.3,0,0,0,0
638224437276656858,55.62507,0.6312115,-2.21799,14.06928,60.25618,-20.94191,-56.80307,-0.4675641,5.253135,-69.35696,-8.447793,-36.83611,0,0,0,105.7956,-108.431,-95.97821,-121.7991,-110.5281,-88.65619,0.001067912,-0.1257102,0.09433498,0,0.3,0,0,0,0
638224437277006750,56.07271,0.5376987,-3.128534,13.99604,60.32942,-23.13926,-56.80307,-0.4675641,5.253135,-69.35696,-8.374548,-36.90935,0,0,0,104.6032,-108.5498,-97.98724,-121.7991,-110.5281,-88.65619,0.001067912,-0.1257102,0.09433498,0,0.3,0,0,0,0
638224437277456606,56.19051,0.5143204,-3.432048,13.92279,60.32942,-24.60417,-56.80307,-0.4675641,5.253135,-69.35696,-8.374548,-36.90935,0,0,0,104.162,-108.5638,-98.5946,-121.7991,-110.5281,-88.65619,0.001067912,-0.1257102,0.09433498,0,0.3,0,0,0,0
638224437277806491,56.23763,0.6078333,-3.408701,13.55657,60.40266,-26.28881,-56.80307,-0.4675641,5.253135,-69.35696,-8.374548,-36.83611,0,0,0,104.2627,-108.3494,-98.65132,-121.7991,-110.5281,-88.65619,0.001067912,-0.1257102,0.09433498,0,0.3,0,0,0,0
638224437278146382,56.26119,0.9351282,-3.221923,12.53114,60.40266,-30.39053,-56.80307,-0.4675641,5.253135,-69.35696,-8.374548,-36.83611,0,0,0,104.6437,-107.6129,-98.45886,-121.7991,-110.5281,-88.65619,0.001067912,-0.1257102,0.09433498,0,0.3,0,0,0,0
638224437278476277,56.26119,1.16891,-3.058492,11.79868,60.47591,-33.02736,-56.80307,-0.4675641,5.253135,-69.35696,-8.447793,-36.83611,0,0,0,104.9512,-107.0897,-98.25346,-121.7991,-110.5281,-88.65619,0.001067912,-0.1257102,0.09433498,0,0.3,0,0,0,0
638224437278816170,56.26119,1.893635,-2.754977,10.48027,60.6224,-37.12909,-56.80307,-0.4675641,5.253135,-69.35696,-8.374548,-36.90935,0,0,0,105.5004,-105.4394,-97.88667,-121.7991,-110.5281,-88.65619,0.001067912,-0.1257102,0.09433498,0,0.3,0,0,0,0
638224437279156064,56.26119,2.641737,-2.288032,9.381593,60.69564,-39.39969,-56.80307,-0.4675641,5.253135,-69.35696,-8.447793,-36.90935,0,0,0,106.346,-103.7475,-97.32191,-121.7991,-110.5281,-88.65619,0.001067912,-0.1257102,0.09433498,0,0.3,0,0,0,0
638224437279485957,56.23763,2.969032,-1.96117,8.942122,60.69564,-40.79135,-56.80307,-0.4675641,5.253135,-69.35696,-8.447793,-36.83611,0,0,0,106.9178,-103.0149,-96.87643,-121.7991,-110.5281,-88.65619,0.001067912,-0.1257102,0.09433498,0,0.3,0,0,0,0
638224437279825848,56.23763,3.296327,-1.517572,8.06318,60.76889,-43.28168,-56.80307,-0.4675641,5.253135,-69.35696,-8.447793,-36.83611,0,0,0,107.7411,-102.2856,-96.32606,-121.7991,-110.5281,-88.65619,0.001067912,-0.1257102,0.09433498,0,0.3,0,0,0,0
638224437280165743,56.21407,3.226192,-1.470878,7.257483,60.76889,-44.6001,-56.80307,-0.4675641,5.253135,-69.35696,-8.374548,-36.83611,0,0,0,107.8095,-102.4514,-96.21618,-121.7991,-110.5281,-88.65619,0.001067912,-0.1257102,0.09433498,0,0.3,0,0,0,0
638224437280515633,56.21407,2.805384,-1.470878,6.525032,60.84214,-45.18605,-56.80307,-0.4675641,5.253135,-69.35696,-8.374548,-36.90935,0,0,0,107.8523,-103.4294,-96.18753,-121.7991,-110.5281,-88.65619,0.001067912,-0.1257102,0.09433498,0,0.3,0,0,0,0
638224437280845524,56.21407,2.548224,-1.470878,6.232051,60.84214,-45.33255,-56.80307,-0.4675641,5.253135,-69.35696,-8.374548,-36.83611,0,0,0,107.8755,-104.0273,-96.17198,-121.7991,-110.5281,-88.65619,0.001067912,-0.1257102,0.09433498,0,0.3,0,0,0,0
638224437281185416,56.21407,2.431333,-1.470878,6.08556,60.84214,-45.55228,-56.80307,-0.4675641,5.253135,-69.35696,-8.447793,-36.90935,0,0,0,107.8853,-104.2991,-96.16541,-121.7991,-110.5281,-88.65619,0.001067912,-0.1257102,0.09433498,0,0.3,0,0,0,0
638224437281525314,56.19051,2.828763,-1.44753,6.671522,60.84214,-45.62553,-56.80307,-0.4675641,5.253135,-69.35696,-8.374548,-36.90935,0,0,0,107.8655,-103.3765,-96.11445,-121.7991,-110.5281,-88.65619,0.001067912,-0.1257102,0.09433498,0,0.3,0,0,0,0
638224437281975172,56.19051,4.091186,-1.377489,8.795631,60.91539,-45.69878,-56.80307,-0.4675641,5.253135,-69.35696,-8.374548,-36.90935,0,0,0,107.8536,-100.4477,-96.12243,-121.7991,-110.5281,-88.65619,0.001067912,-0.1257102,0.09433498,0,0.3,0,0,0,0
638224437282315052,56.19051,6.125089,-1.097321,11.28597,60.84214,-45.69878,-56.80307,-0.4675641,5.253135,-69.35696,-8.374548,-36.83611,0,0,0,108.0451,-95.74717,-95.99419,-121.7991,-110.5281,-88.65619,0.001067912,-0.1257102,0.09433498,0,0.3,0,0,0,0
638224437282654954,56.21407,7.761563,-0.7471125,13.04385,60.91539,-45.69878,-56.80307,-0.4675641,5.253135,-69.35696,-8.447793,-36.90935,0,0,0,108.3695,-91.97962,-95.84146,-121.7991,-110.5281,-88.65619,0.001067912,-0.1257102,0.09433498,0,0.3,0,0,0,0
638224437282984847,56.21407,11.22154,0.2801672,17.43856,60.84214,-45.69878,-56.80307,-0.4675641,5.253135,-69.35696,-8.374548,-36.90935,0,0,0,109.2531,-84.04809,-95.25027,-121.7991,-110.5281,-88.65619,0.001067912,-0.1257102,0.09433498,0,0.3,0,0,0,0
638224437283324730,56.21407,15.14908,1.727698,23.51791,60.91539,-45.69878,-56.80307,-0.4675641,5.253135,-69.35696,-8.374548,-36.83611,0,0,0,110.32,-75.09084,-94.53641,-121.7991,-110.5281,-88.65619,0.001067912,-0.1257102,0.09433498,0,0.3,0,0,0,0
638224437283664623,56.21407,17.44014,2.778325,27.54639,60.91539,-44.52685,-56.80307,-0.4675641,5.253135,-69.35696,-8.374548,-36.83611,0,0,0,111.1073,-69.87703,-94.00961,-121.7991,-110.5281,-88.65619,0.001067912,-0.1257102,0.09433498,0,0.3,0,0,0,0
638224437284004524,56.16695,21.71835,5.20644,36.84853,60.84214,-36.54313,-56.80307,-0.4675641,5.253135,-69.35696,-8.374548,-36.83611,0,0,0,112.9576,-60.10442,-92.63707,-121.7991,-110.5281,-88.65619,0.001067912,-0.1257102,0.09433498,0,0.3,0,0,0,0
638224437284344415,56.16695,25.92643,6.840749,45.78444,59.88995,-24.16469,-56.80307,-0.4675641,5.253135,-69.35696,-8.374548,-36.90935,0,0,0,112.8145,-50.74785,-92.73302,-121.7991,-110.5281,-88.65619,0.001067912,-0.1257102,0.09433498,0,0.3,0,0,0,0
638224437284674309,56.16695,28.14736,7.214305,49.59319,58.86452,-17.71912,-56.80307,-0.4675641,5.253135,-69.35696,-8.374548,-36.90935,0,0,0,111.5796,-46.03768,-93.56072,-121.7991,-110.5281,-88.65619,0.001067912,-0.1257102,0.09433498,0,0.3,0,0,0,0
638224437285014202,56.16695,32.54246,7.120916,56.11201,55.78822,-4.82797,-56.80307,-0.4675641,5.253135,-69.35696,-8.447793,-36.90935,0,0,0,107.1088,-37.23921,-96.55739,-121.7991,-110.5281,-88.65619,0.001067912,-0.1257102,0.09433498,0,0.3,0,0,0,0
638224437285354231,56.16695,35.09068,6.957485,59.26155,53.29788,3.082508,-56.80307,-0.4675641,5.253135,-69.35696,-8.374548,-36.90935,0,0,0,104.0537,-32.35884,-98.60515,-121.7991,-110.5281,-88.65619,0.001067912,-0.1257102,0.09433498,0,0.3,0,0,0,0
638224437285694122,56.16695,36.32973,6.934138,60.43347,51.75974,7.403974,-56.80307,-0.4675641,5.253135,-69.35696,-8.374548,-36.83611,0,0,0,102.6108,-30.02392,-99.57233,-121.7991,-110.5281,-88.65619,0.001067912,-0.1257102,0.09433498,0,0.3,0,0,0,0
638224437286033875,56.07271,38.34025,6.957485,62.26461,48.4637,14.36226,-56.80307,-0.4675641,5.253135,-69.35696,-8.374548,-36.83611,0,0,0,100.1877,-26.29702,-100.9574,-121.7991,-110.5281,-88.65619,0.001067912,-0.1257102,0.09433498,0,0.3,0,0,0,0
638224437286373849,55.46015,40.14038,6.957485,63.58302,45.5339,18.68373,-56.80307,-0.4675641,5.253135,-69.35696,-8.447793,-36.90935,0,0,0,97.27845,-23.05231,-101.3927,-121.7991,-110.5281,-88.65619,0.001067912,-0.1257102,0.09433498,0,0.3,0,0,0,0
638224437286713664,54.25859,41.96388,6.934138,63.80275,42.82383,21.10082,-56.80307,-0.4675641,5.253135,-69.35696,-8.374548,-36.90935,0,0,0,93.54702,-19.85856,-101.0271,-121.7991,-110.5281,-88.65619,0.001067912,-0.1257102,0.09433498,0,0.3,0,0,0,0
638224437287053677,53.29263,42.85225,6.91079,63.50977,41.57866,21.90652,-56.80307,-0.4675641,5.253135,-69.35696,-8.374548,-36.83611,0,0,0,91.23765,-18.33849,-100.3253,-121.7991,-110.5281,-88.65619,0.001067912,-0.1257102,0.09433498,0,0.3,0,0,0,0
638224437287393442,50.81884,43.90427,6.583929,62.63083,39.30806,24.4701,-56.80307,-0.4675641,5.253135,-69.35696,-8.374548,-36.83611,0,0,0,86.3274,-16.64827,-97.99033,-121.7991,-110.5281,-88.65619,0.001067912,-0.1257102,0.09433498,0,0.3,0,0,0,0
638224437287743322,47.544,44.04454,6.210372,61.38566,37.69667,28.05911,-56.80307,-0.4675641,5.253135,-69.35696,-8.374548,-36.83611,0,0,0,81.3624,-16.5102,-93.90997,-121.7991,-110.5281,-88.65619,0.001067912,-0.1257102,0.09433498,0,0.3,0,0,0,0
638224437288083212,44.7168,43.88089,6.140331,60.50672,36.96421,30.98892,-56.80307,-0.4675641,5.253135,-69.35696,-8.374548,-36.83611,0,0,0,77.6637,-16.80188,-89.91475,-121.7991,-110.5281,-88.65619,0.001067912,-0.1257102,0.09433498,0,0.3,0,0,0,0
638224437288423257,41.53621,43.88089,6.140331,59.3348,36.37825,34.28495,-56.80307,-0.4675641,5.253135,-69.35696,-8.374548,-36.90935,0,0,0,73.19221,-16.80188,-85.72652,-121.7991,-110.5281,-88.65619,0.001067912,-0.1257102,0.09433498,0,0.3,0,0,0,0
638224437288763142,36.80066,43.88089,6.140331,57.7234,35.79229,38.60641,-56.80307,-0.4675641,5.253135,-69.35696,-8.447793,-36.90935,0,0,0,66.12122,-16.80188,-79.96605,-121.7991,-110.5281,-88.65619,0.001067912,-0.1257102,0.09433498,0,0.3,0,0,0,0
638224437289112895,30.79287,43.83413,6.187026,55.52605,35.20633,43.36735,-56.80307,-0.4675641,5.253135,-69.35696,-8.447793,-36.83611,0,0,0,56.60139,-16.86868,-73.37341,-121.7991,-110.5281,-88.65619,0.001067912,-0.1257102,0.09433498,0,0.3,0,0,0,0
638224437289512767,24.40812,43.60035,6.560582,52.74273,34.62037,47.76206,-56.80307,-0.4675641,5.253135,-69.35696,-8.374548,-36.90935,0,0,0,46.20095,-17.16542,-66.53893,-121.7991,-110.5281,-88.65619,0.001067912,-0.1257102,0.09433498,0,0.3,0,0,0,0
638224437289852660,20.87413,43.4367,7.097569,50.98485,34.25414,50.10591,-56.80307,-0.4675641,5.253135,-69.35696,-8.374548,-36.83611,0,0,0,40.37299,-17.293,-62.48016,-121.7991,-110.5281,-88.65619,0.001067912,-0.1257102,0.09433498,0,0.3,0,0,0,0
638224437290192551,14.39514,43.01589,8.078154,47.32259,33.15546,54.86684,-56.80307,-0.4675641,5.253135,-69.35696,-8.447793,-36.90935,0,0,0,28.89806,-17.70528,-55.7598,-121.7991,-110.5281,-88.65619,0.001067912,-0.1257102,0.09433498,0,0.3,0,0,0,0
638224437290532441,8.269547,42.26779,8.498405,43.07437,31.9103,60.65321,-56.80307,-0.4675641,5.253135,-69.35696,-8.447793,-36.83611,0,0,0,17.02762,-18.84505,-51.19399,-121.7991,-110.5281,-88.65619,0.001067912,-0.1257102,0.09433498,0,0.3,0,0,0,0
638224437290872478,5.513031,41.75347,8.70853,40.87702,31.25109,63.80275,-56.80307,-0.4675641,5.253135,-69.35696,-8.374548,-36.90935,0,0,0,11.49711,-19.66131,-49.23193,-121.7991,-110.5281,-88.65619,0.001067912,-0.1257102,0.09433498,0,0.3,0,0,0,0
638224437291222223,0.4005193,40.60794,9.058739,36.18932,29.71294,70.98078,-56.80307,-0.4675641,5.253135,-69.35696,-8.374548,-36.90935,0,0,0,0.8544438,-21.54202,-46.12063,-121.7991,-110.5281,-88.65619,0.001067912,-0.1257102,0.09433498,0,0.3,0,0,0,0
638224437291562295,-4.028753,39.55592,9.082087,31.35514,27.88181,79.25748,-56.80307,-0.4675641,5.253135,-69.35696,-8.447793,-36.90935,0,0,0,-8.702219,-23.4068,-44.79356,-121.7991,-110.5281,-88.65619,0.001067912,-0.1257102,0.09433498,0,0.3,0,0,0,0
638224437291912000,-6.761709,38.78444,9.082087,27.03368,26.05068,86.94823,-56.80307,-0.4675641,5.253135,-69.35696,-8.374548,-36.90935,0,0,0,-14.71714,-24.79883,-44.22281,-121.7991,-110.5281,-88.65619,0.001067912,-0.1257102,0.09433498,0,0.3,0,0,0,0
638224437292251891,-7.656987,38.41039,9.082087,25.05606,25.09849,90.90347,-56.80307,-0.4675641,5.253135,-69.35696,-8.374548,-36.83611,0,0,0,-16.72719,-25.47922,-43.92966,-121.7991,-110.5281,-88.65619,0.001067912,-0.1257102,0.09433498,0,0.3,0,0,0,0
638224437292591785,-8.198866,37.54539,8.825266,22.12625,23.34061,98.7407,-56.80307,-0.4675641,5.253135,-69.35696,-8.374548,-36.90935,0,0,0,-17.9956,-27.15912,-43.45167,-121.7991,-110.5281,-88.65619,0.001067912,-0.1257102,0.09433498,0,0.3,0,0,0,0
638224437292921681,-8.151747,36.44662,8.101501,20.88108,22.38842,105.2595,-56.80307,-0.4675641,5.253135,-69.35696,-8.447793,-36.83611,0,0,0,-17.87483,-29.44945,-43.56291,-121.7991,-110.5281,-88.65619,0.001067912,-0.1257102,0.09433498,0,0.3,0,0,0,0
638224437293261570,-8.151747,35.69852,7.331042,20.5881,22.09544,107.8963,-56.80307,-0.4675641,5.253135,-69.35696,-8.447793,-36.83611,0,0,0,-17.76824,-31.09751,-44.30704,-121.7991,-110.5281,-88.65619,0.001067912,-0.1257102,0.09433498,0,0.3,0,0,0,0
638224437293601460,-8.151747,33.85164,5.369871,20.07539,22.31518,112.1446,-56.80307,-0.4675641,5.253135,-69.35696,-8.374548,-36.83611,0,0,0,-17.47264,-35.13291,-46.37065,-121.7991,-110.5281,-88.65619,0.001067912,-0.1257102,0.09433498,0,0.3,0,0,0,0
638224437294051319,-8.151747,31.77098,3.268617,19.48943,23.19412,114.4884,-56.80307,-0.4675641,5.253135,-69.35696,-8.374548,-36.90935,0,0,0,-17.15326,-39.57093,-48.60029,-121.7991,-110.5281,-88.65619,0.001067912,-0.1257102,0.09433498,0,0.3,0,0,0,0
638224437294391212,-8.151747,29.57343,0.793807,18.53724,24.73227,115.3673,-56.80307,-0.4675641,5.253135,-69.35696,-8.374548,-36.90935,0,0,0,-16.70705,-44.17384,-51.71537,-121.7991,-110.5281,-88.65619,0.001067912,-0.1257102,0.09433498,0,0.3,0,0,0,0
638224437294731105,-8.151747,27.96033,-1.44753,17.29207,26.70989,115.5871,-56.80307,-0.4675641,5.253135,-69.35696,-8.374548,-36.83611,0,0,0,-16.22362,-47.43494,-55.0903,-121.7991,-110.5281,-88.65619,0.001067912,-0.1257102,0.09433498,0,0.3,0,0,0,0
638224437295070993,-8.151747,27.44601,-2.381421,16.41313,27.58883,115.5138,-56.80307,-0.4675641,5.253135,-69.35696,-8.447793,-36.90935,0,0,0,-15.9945,-48.42214,-56.68979,-121.7991,-110.5281,-88.65619,0.001067912,-0.1257102,0.09433498,0,0.3,0,0,0,0
638224437295420878,-8.010387,26.72129,-4.062424,14.21577,29.12698,113.8292,-56.80307,-0.4675641,5.253135,-69.35696,-8.374548,-36.90935,0,0,0,-15.28167,-49.70401,-59.75814,-121.7991,-110.5281,-88.65619,0.001067912,-0.1257102,0.09433498,0,0.3,0,0,0,0
638224437295750776,-7.586308,26.53426,-4.692801,11.72544,29.85943,111.7783,-56.80307,-0.4675641,5.253135,-69.35696,-8.447793,-36.83611,0,0,0,-14.31013,-49.98114,-60.90466,-121.7991,-110.5281,-88.65619,0.001067912,-0.1257102,0.09433498,0,0.3,0,0,0,0
638224437296100665,-7.397828,26.53426,-4.739495,10.48027,29.78619,110.7529,-56.80307,-0.4675641,5.253135,-69.35696,-8.374548,-36.83611,0,0,0,-13.94266,-49.97221,-60.96558,-121.7991,-110.5281,-88.65619,0.001067912,-0.1257102,0.09433498,0,0.3,0,0,0,0
638224437296440556,-7.185789,26.51088,-4.879579,8.209671,28.98049,108.9218,-56.80307,-0.4675641,5.253135,-69.35696,-8.447793,-36.90935,0,0,0,-13.50756,-49.99355,-61.21294,-121.7991,-110.5281,-88.65619,0.001067912,-0.1257102,0.09433498,0,0.3,0,0,0,0
638224437296780447,-7.091548,26.51088,-4.902926,6.378541,27.80857,107.4569,-56.80307,-0.4675641,5.253135,-69.35696,-8.374548,-36.90935,0,0,0,-13.32464,-49.98892,-61.24459,-121.7991,-110.5281,-88.65619,0.001067912,-0.1257102,0.09433498,0,0.3,0,0,0,0
638224437297130336,-7.044428,26.44075,-5.089704,4.547412,26.70989,106.0652,-56.80307,-0.4675641,5.253135,-69.35696,-8.374548,-36.90935,0,0,0,-13.19237,-50.09717,-61.59124,-121.7991,-110.5281,-88.65619,0.001067912,-0.1257102,0.09433498,0,0.3,0,0,0,0
638224437297470219,-6.997309,26.25372,-5.46326,3.595225,26.34366,105.2595,-56.80307,-0.4675641,5.253135,-69.35696,-8.374548,-36.83611,0,0,0,-13.02263,-50.40728,-62.24796,-121.7991,-110.5281,-88.65619,0.001067912,-0.1257102,0.09433498,0,0.3,0,0,0,0
638224437297820109,-6.855949,25.43548,-6.537234,1.910586,26.12393,103.5749,-56.80307,-0.4675641,5.253135,-69.35696,-8.374548,-36.90935,0,0,0,-12.56318,-51.85987,-63.85998,-121.7991,-110.5281,-88.65619,0.001067912,-0.1257102,0.09433498,0,0.3,0,0,0,0
638224437298159999,-6.691029,24.00941,-7.821334,0.5189275,26.41691,101.817,-56.80307,-0.4675641,5.253135,-69.35696,-8.374548,-36.90935,0,0,0,-12.07861,-54.50113,-65.39056,-121.7991,-110.5281,-88.65619,0.001067912,-0.1257102,0.09433498,0,0.3,0,0,0,0
638224437298559870,-6.33763,22.27943,-8.918655,-0.7262403,27.36909,100.2788,-56.80307,-0.4675641,5.253135,-69.35696,-8.447793,-36.90935,0,0,0,-11.33911,-57.83155,-66.25641,-121.7991,-110.5281,-88.65619,0.001067912,-0.1257102,0.09433498,0,0.3,0,0,0,0
638224437298899765,-6.172709,21.83524,-9.198823,-1.019221,27.73532,99.83938,-56.80307,-0.4675641,5.253135,-69.35696,-8.374548,-36.90935,0,0,0,-11.0177,-58.68701,-66.47842,-121.7991,-110.5281,-88.65619,0.001067912,-0.1257102,0.09433498,0,0.3,0,0,0,0
638224437299239653,-5.630831,20.97025,-10.01598,-1.678428,28.68751,98.88718,-56.80307,-0.4675641,5.253135,-69.35696,-8.374548,-36.83611,0,0,0,-9.941862,-60.24394,-67.51377,-121.7991,-110.5281,-88.65619,0.001067912,-0.1257102,0.09433498,0,0.3,0,0,0,0
638224437299579547,-4.829792,20.54944,-10.94987,-2.117898,29.71294,98.30123,-56.80307,-0.4675641,5.253135,-69.35696,-8.447793,-36.90935,0,0,0,-8.380451,-60.76428,-69.16837,-121.7991,-110.5281,-88.65619,0.001067912,-0.1257102,0.09433498,0,0.3,0,0,0,0
638224437299919435,-3.628234,20.22215,-12.02384,-2.191144,30.44539,97.56878,-56.80307,-0.4675641,5.253135,-69.35696,-8.374548,-36.83611,0,0,0,-6.160593,-60.98055,-71.19418,-121.7991,-110.5281,-88.65619,0.001067912,-0.1257102,0.09433498,0,0.3,0,0,0,0
638224437300289318,-2.944995,19.91823,-12.7943,-1.971408,30.81162,97.12931,-56.80307,-0.4675641,5.253135,-69.35696,-8.374548,-36.90935,0,0,0,-4.924118,-61.2596,-72.63416,-121.7991,-110.5281,-88.65619,0.001067912,-0.1257102,0.09433498,0,0.3,0,0,0,0
638224437300589224,-1.696317,19.09999,-14.40526,-1.678428,31.83705,95.88414,-56.80307,-0.4675641,5.253135,-69.35696,-8.374548,-36.83611,0,0,0,-2.74808,-62.17303,-75.5564,-121.7991,-110.5281,-88.65619,0.001067912,-0.1257102,0.09433498,0,0.3,0,0,0,0
638224437300929117,-0.1649197,18.25838,-16.17966,-1.385447,33.08222,94.56573,-56.80307,-0.4675641,5.253135,-69.35696,-8.374548,-36.90935,0,0,0,-0.2575532,-62.93946,-78.87209,-121.7991,-110.5281,-88.65619,0.001067912,-0.1257102,0.09433498,0,0.3,0,0,0,0
638224437301269008,0.8010387,17.83757,-16.95012,-1.092466,33.66818,94.05301,-56.80307,-0.4675641,5.253135,-69.35696,-8.447793,-36.90935,0,0,0,1.231147,-63.35942,-80.29563,-121.7991,-110.5281,-88.65619,0.001067912,-0.1257102,0.09433498,0,0.3,0,0,0,0
638224437301608899,1.154438,17.58041,-18.00074,-0.2867693,34.98659,93.24731,-56.80307,-0.4675641,5.253135,-69.35696,-8.374548,-36.83611,0,0,0,1.730916,-63.19529,-82.45474,-121.7991,-110.5281,-88.65619,0.001067912,-0.1257102,0.09433498,0,0.3,0,0,0,0
638224437301958793,1.225118,17.13622,-18.79455,-0.5065048,35.71904,91.78241,-56.80307,-0.4675641,5.253135,-69.35696,-8.447793,-36.90935,0,0,0,1.805987,-63.59892,-83.90125,-121.7991,-110.5281,-88.65619,0.001067912,-0.1257102,0.09433498,0,0.3,0,0,0,0
638224437302288685,1.272238,16.9492,-19.02802,-0.7994855,36.23176,90.97672,-56.80307,-0.4675641,5.253135,-69.35696,-8.374548,-36.83611,0,0,0,1.866856,-63.83897,-84.28914,-121.7991,-110.5281,-88.65619,0.001067912,-0.1257102,0.09433498,0,0.3,0,0,0,0
638224437302628572,1.248678,16.85568,-19.19145,-1.165711,37.1107,89.58505,-56.80307,-0.4675641,5.253135,-69.35696,-8.374548,-36.90935,0,0,0,1.825837,-63.92269,-84.58444,-121.7991,-110.5281,-88.65619,0.001067912,-0.1257102,0.09433498,0,0.3,0,0,0,0
638224437303068432,1.248678,16.76217,-19.33154,-1.385447,37.69667,88.48637,-56.80307,-0.4675641,5.253135,-69.35696,-8.374548,-36.83611,0,0,0,1.820502,-64.02348,-84.82922,-121.7991,-110.5281,-88.65619,0.001067912,-0.1257102,0.09433498,0,0.3,0,0,0,0
638224437303398328,1.225118,16.6219,-19.49497,-1.605182,38.13613,87.68068,-56.80307,-0.4675641,5.253135,-69.35696,-8.374548,-36.90935,0,0,0,1.780493,-64.20976,-85.0934,-121.7991,-110.5281,-88.65619,0.001067912,-0.1257102,0.09433498,0,0.3,0,0,0,0
638224437303738221,1.225118,16.43488,-19.89187,-1.751673,38.50236,86.80173,-56.80307,-0.4675641,5.253135,-69.35696,-8.374548,-36.90935,0,0,0,1.764545,-64.31577,-85.83911,-121.7991,-110.5281,-88.65619,0.001067912,-0.1257102,0.09433498,0,0.3,0,0,0,0
638224437304078110,1.201558,16.20109,-20.24208,-1.751673,38.7221,86.28902,-56.80307,-0.4675641,5.253135,-69.35696,-8.374548,-36.83611,0,0,0,1.717768,-64.55828,-86.45097,-121.7991,-110.5281,-88.65619,0.001067912,-0.1257102,0.09433498,0,0.3,0,0,0,0
638224437304418002,0.9423984,15.49975,-20.91915,-2.044653,39.23481,84.38464,-56.80307,-0.4675641,5.253135,-69.35696,-8.374548,-36.83611,0,0,0,1.330376,-65.57458,-87.47331,-121.7991,-110.5281,-88.65619,0.001067912,-0.1257102,0.09433498,0,0.3,0,0,0,0
638224437304767890,0.7539188,15.45299,-20.98919,-2.70386,39.82077,80.86888,-56.80307,-0.4675641,5.253135,-69.35696,-8.374548,-36.90935,0,0,0,1.062697,-65.62116,-87.59256,-121.7991,-110.5281,-88.65619,0.001067912,-0.1257102,0.09433498,0,0.3,0,0,0,0
638224437305097785,0.8010387,15.45299,-21.01254,-3.070086,40.04051,78.74477,-56.80307,-0.4675641,5.253135,-69.35696,-8.374548,-36.83611,0,0,0,1.128402,-65.60169,-87.64418,-121.7991,-110.5281,-88.65619,0.001067912,-0.1257102,0.09433498,0,0.3,0,0,0,0
638224437305447673,0.8010387,15.42961,-21.05923,-3.509557,40.40673,73.98383,-56.80307,-0.4675641,5.253135,-69.35696,-8.374548,-36.83611,0,0,0,1.127187,-65.61513,-87.73112,-121.7991,-110.5281,-88.65619,0.001067912,-0.1257102,0.09433498,0,0.3,0,0,0,0
638224437305787581,0.8010387,15.42961,-21.10593,-3.949028,40.69971,69.80886,-56.80307,-0.4675641,5.253135,-69.35696,-8.374548,-36.83611,0,0,0,1.125769,-65.57603,-87.83251,-121.7991,-110.5281,-88.65619,0.001067912,-0.1257102,0.09433498,0,0.3,0,0,0,0
638224437306127457,0.9188384,15.42961,-21.19932,-4.681479,40.91945,66.51283,-56.80307,-0.4675641,5.253135,-69.35696,-8.374548,-36.90935,0,0,0,1.28806,-65.4976,-88.03768,-121.7991,-110.5281,-88.65619,0.001067912,-0.1257102,0.09433498,0,0.3,0,0,0,0
638224437306467351,0.9423984,15.42961,-21.24601,-4.97446,41.06594,65.12117,-56.80307,-0.4675641,5.253135,-69.35696,-8.374548,-36.83611,0,0,0,1.319418,-65.45826,-88.13951,-121.7991,-110.5281,-88.65619,0.001067912,-0.1257102,0.09433498,0,0.3,0,0,0,0
638224437306807239,1.013078,15.42961,-21.24601,-5.560421,41.43217,62.70407,-56.80307,-0.4675641,5.253135,-69.35696,-8.374548,-36.83611,0,0,0,1.418364,-65.45826,-88.1412,-121.7991,-110.5281,-88.65619,0.001067912,-0.1257102,0.09433498,0,0.3,0,0,0,0
638224437307147135,1.083758,15.42961,-21.24601,-5.926647,41.6519,61.16593,-56.80307,-0.4675641,5.253135,-69.35696,-8.374548,-36.90935,0,0,0,1.517308,-65.45826,-88.14301,-121.7991,-110.5281,-88.65619,0.001067912,-0.1257102,0.09433498,0,0.3,0,0,0,0
638224437307587007,1.154438,15.42961,-21.29271,-6.292873,41.79839,59.99401,-56.80307,-0.4675641,5.253135,-69.35696,-8.447793,-36.90935,0,0,0,1.61421,-65.41884,-88.24619,-121.7991,-110.5281,-88.65619,0.001067912,-0.1257102,0.09433498,0,0.3,0,0,0,0
638224437307926883,1.177998,15.42961,-21.29271,-6.439363,42.01813,58.89533,-56.80307,-0.4675641,5.253135,-69.35696,-8.447793,-36.90935,0,0,0,1.647148,-65.41884,-88.24686,-121.7991,-110.5281,-88.65619,0.001067912,-0.1257102,0.09433498,0,0.3,0,0,0,0
638224437308266776,1.177998,15.42961,-21.29271,-6.512609,42.09137,58.01638,-56.80307,-0.4675641,5.253135,-69.35696,-8.374548,-36.83611,0,0,0,1.647148,-65.41884,-88.24686,-121.7991,-110.5281,-88.65619,0.001067912,-0.1257102,0.09433498,0,0.3,0,0,0,0
638224437308616661,1.177998,15.38286,-21.3394,-6.585854,42.23786,56.11201,-56.80307,-0.4675641,5.253135,-69.35696,-8.447793,-36.90935,0,0,0,1.645661,-65.48425,-88.31918,-121.7991,-110.5281,-88.65619,0.001067912,-0.1257102,0.09433498,0,0.3,0,0,0,0
638224437308956554,1.083758,15.31272,-21.3861,-6.439363,42.31111,53.40194,-56.80307,-0.4675641,5.253135,-69.35696,-8.447793,-36.90935,0,0,0,1.512927,-65.60207,-88.37458,-121.7991,-110.5281,-88.65619,0.001067912,-0.1257102,0.09433498,0,0.3,0,0,0,0
638224437309296445,1.036638,15.26597,-21.43279,-6.219628,42.23786,51.79055,-56.80307,-0.4675641,5.253135,-69.35696,-8.374548,-36.83611,0,0,0,1.445844,-65.66737,-88.44583,-121.7991,-110.5281,-88.65619,0.001067912,-0.1257102,0.09433498,0,0.3,0,0,0,0
638224437309626343,0.9423984,15.17245,-21.47948,-5.853402,42.09137,47.8353,-56.80307,-0.4675641,5.253135,-69.35696,-8.374548,-36.83611,0,0,0,1.313692,-65.83762,-88.48757,-121.7991,-110.5281,-88.65619,0.001067912,-0.1257102,0.09433498,0,0.3,0,0,0,0
638224437309976238,0.9188384,15.1257,-21.47948,-5.560421,41.79839,44.39278,-56.80307,-0.4675641,5.253135,-69.35696,-8.374548,-36.83611,0,0,0,1.281309,-65.94266,-88.4586,-121.7991,-110.5281,-88.65619,0.001067912,-0.1257102,0.09433498,0,0.3,0,0,0,0
638224437310316130,0.9895183,15.1257,-21.50283,-5.487176,41.57866,40.14456,-56.80307,-0.4675641,5.253135,-69.35696,-8.374548,-36.90935,0,0,0,1.378988,-65.92275,-88.5108,-121.7991,-110.5281,-88.65619,0.001067912,-0.1257102,0.09433498,0,0.3,0,0,0,0
638224437310656020,1.060198,15.1257,-21.50283,-5.706912,41.50541,36.55555,-56.80307,-0.4675641,5.253135,-69.35696,-8.374548,-36.90935,0,0,0,1.477477,-65.92275,-88.51256,-121.7991,-110.5281,-88.65619,0.001067912,-0.1257102,0.09433498,0,0.3,0,0,0,0
638224437310995915,1.107318,15.1257,-21.50283,-6.073137,41.43217,32.16084,-56.80307,-0.4675641,5.253135,-69.35696,-8.447793,-36.90935,0,0,0,1.543134,-65.92275,-88.5138,-121.7991,-110.5281,-88.65619,0.001067912,-0.1257102,0.09433498,0,0.3,0,0,0,0
638224437311335805,1.154438,15.1257,-21.52618,-6.439363,41.43217,24.98281,-56.80307,-0.4675641,5.253135,-69.35696,-8.374548,-36.83611,0,0,0,1.607772,-65.90282,-88.56564,-121.7991,-110.5281,-88.65619,0.001067912,-0.1257102,0.09433498,0,0.3,0,0,0,0
638224437311675695,1.154438,15.1257,-21.52618,-6.585854,41.50541,21.46704,-56.80307,-0.4675641,5.253135,-69.35696,-8.374548,-36.90935,0,0,0,1.607772,-65.90282,-88.56564,-121.7991,-110.5281,-88.65619,0.001067912,-0.1257102,0.09433498,0,0.3,0,0,0,0
638224437312105559,1.154438,15.1257,-21.57287,-6.80559,41.50541,14.28902,-56.80307,-0.4675641,5.253135,-69.35696,-8.447793,-36.90935,0,0,0,1.605736,-65.86291,-88.66669,-121.7991,-110.5281,-88.65619,0.001067912,-0.1257102,0.09433498,0,0.3,0,0,0,0
638224437312445449,1.107318,15.1257,-21.59622,-6.659099,41.50541,9.601329,-56.80307,-0.4675641,5.253135,-69.35696,-8.374548,-36.90935,0,0,0,1.539227,-65.84292,-88.71592,-121.7991,-110.5281,-88.65619,0.001067912,-0.1257102,0.09433498,0,0.3,0,0,0,0
638224437312775343,0.9659585,15.1257,-21.66626,-6.219628,41.6519,7.330729,-56.80307,-0.4675641,5.253135,-69.35696,-8.374548,-36.90935,0,0,0,1.340196,-65.78282,-88.86388,-121.7991,-110.5281,-88.65619,0.001067912,-0.1257102,0.09433498,0,0.3,0,0,0,0
638224437313115238,0.8952785,15.1257,-21.71296,-5.780157,41.94488,6.158805,-56.80307,-0.4675641,5.253135,-69.35696,-8.374548,-36.83611,0,0,0,1.240563,-65.74266,-88.96326,-121.7991,-110.5281,-88.65619,0.001067912,-0.1257102,0.09433498,0,0.3,0,0,0,0
638224437313455128,0.8952785,15.07894,-21.92308,-5.560421,42.09137,5.79258,-56.80307,-0.4675641,5.253135,-69.35696,-8.374548,-36.90935,0,0,0,1.233912,-65.66596,-89.38887,-121.7991,-110.5281,-88.65619,0.001067912,-0.1257102,0.09433498,0,0.3,0,0,0,0
638224437313795021,0.8952785,15.05556,-21.99312,-5.194195,42.53085,5.426354,-56.80307,-0.4675641,5.253135,-69.35696,-8.374548,-36.83611,0,0,0,1.231771,-65.65755,-89.52589,-121.7991,-110.5281,-88.65619,0.001067912,-0.1257102,0.09433498,0,0.3,0,0,0,0
638224437314134911,0.8952785,15.05556,-22.01647,-5.047705,42.97031,5.719335,-56.80307,-0.4675641,5.253135,-69.35696,-8.374548,-36.90935,0,0,0,1.230984,-65.63718,-89.57627,-121.7991,-110.5281,-88.65619,0.001067912,-0.1257102,0.09433498,0,0.3,0,0,0,0
638224437314484790,0.8952785,15.05556,-22.01647,-4.97446,43.11681,6.012315,-56.80307,-0.4675641,5.253135,-69.35696,-8.374548,-36.83611,0,0,0,1.230984,-65.63718,-89.57627,-121.7991,-110.5281,-88.65619,0.001067912,-0.1257102,0.09433498,0,0.3,0,0,0,0
638224437314824691,0.8952785,15.17245,-22.03982,-4.901215,43.40979,7.110993,-56.80307,-0.4675641,5.253135,-69.35696,-8.374548,-36.90935,0,0,0,1.229088,-65.35416,-89.69756,-121.7991,-110.5281,-88.65619,0.001067912,-0.1257102,0.09433498,0,0.3,0,0,0,0
638224437315164582,0.8952785,15.31272,-21.96978,-5.120951,43.70277,9.894309,-56.80307,-0.4675641,5.253135,-69.35696,-8.374548,-36.83611,0,0,0,1.230109,-65.10027,-89.63226,-121.7991,-110.5281,-88.65619,0.001067912,-0.1257102,0.09433498,0,0.3,0,0,0,0
638224437315504474,0.9423984,15.35948,-21.94643,-5.267441,43.9225,10.91974,-56.80307,-0.4675641,5.253135,-69.35696,-8.374548,-36.90935,0,0,0,1.295201,-65.01564,-89.61169,-121.7991,-110.5281,-88.65619,0.001067912,-0.1257102,0.09433498,0,0.3,0,0,0,0
638224437315874357,0.9895183,15.38286,-21.94643,-5.780157,44.21548,11.79868,-56.80307,-0.4675641,5.253135,-69.35696,-8.374548,-36.83611,0,0,0,1.359706,-64.96317,-89.6272,-121.7991,-110.5281,-88.65619,0.001067912,-0.1257102,0.09433498,0,0.3,0,0,0,0
638224437316214247,1.060198,15.40624,-21.94643,-6.146383,44.50846,12.23815,-56.80307,-0.4675641,5.253135,-69.35696,-8.374548,-36.83611,0,0,0,1.45655,-64.91072,-89.64338,-121.7991,-110.5281,-88.65619,0.001067912,-0.1257102,0.09433498,0,0.3,0,0,0,0
638224437316634112,1.177998,15.40624,-21.94643,-6.732344,44.7282,12.60438,-56.80307,-0.4675641,5.253135,-69.35696,-8.374548,-36.90935,0,0,0,1.618367,-64.91072,-89.64654,-121.7991,-110.5281,-88.65619,0.001067912,-0.1257102,0.09433498,0,0.3,0,0,0,0
638224437316984002,1.177998,15.40624,-21.94643,-7.24506,44.87469,12.75087,-56.80307,-0.4675641,5.253135,-69.35696,-8.447793,-36.90935,0,0,0,1.618367,-64.91072,-89.64654,-121.7991,-110.5281,-88.65619,0.001067912,-0.1257102,0.09433498,0,0.3,0,0,0,0
