zeyangz2/DNN_classification_different_people_hand/data_by_names/Srikar/srikar_right_8.csv
Timestamp,Therapist joint angle 0,Therapist joint angle 1,Therapist joint angle 2,Therapist joint angle 3,Therapist joint angle 4,Therapist joint angle 5,Patient joint angle 0,Patient joint angle 1,Patient joint angle 2,Patient joint angle 3,Patient joint angle 4,Patient joint angle 5,Virtual joint angle 0,Virtual joint angle 1,Virtual joint angle 2,Therapist position x,Therapist position y,Therapist position z,Patient position x,Patient position y,Patient position z,Virtual position x,Virtual position y,Virtual position z,Assistive Force, Obstacle Force Magnitude, Therapist Constant Force, Patient Constant Force, Recovery Factor, Assistance Level
638224439476157083,0,0,0,0,0,0,0,0,0,0,0,0,0,0,0,0,0,0,0,0,0,0,0,0,0,0.3,0,0,0,0
638224439476237054,-4.570632,-1.729987,-4.109118,-23.57873,-66.31148,-73.53194,-56.80307,-0.4675641,5.229787,-69.28372,-8.374548,-36.83611,0,0,0,-9.860105,-113.683,-45.00962,-121.7539,-110.5331,-88.68581,0.001067912,-0.1257102,0.09433498,0,0.3,0,0,6.349513E-08,0
638224439476526965,-4.570632,-1.729987,-4.109118,-23.57873,-66.38472,-73.53194,-56.80307,-0.4675641,5.229787,-69.35696,-8.374548,-36.90935,0,0,0,-9.860105,-113.683,-45.00962,-121.7539,-110.5331,-88.68581,0.001067912,-0.1257102,0.09433498,0,0.3,0,0,6.349513E-08,0
638224439476866856,-4.570632,-1.729987,-4.109118,-23.57873,-66.31148,-73.53194,-56.80307,-0.4675641,5.229787,-69.35696,-8.374548,-36.83611,0,0,0,-9.860105,-113.683,-45.00962,-121.7539,-110.5331,-88.68581,0.001067912,-0.1257102,0.09433498,0,0.3,0,0,6.349513E-08,0
638224439477216730,-4.570632,-1.729987,-4.109118,-23.57873,-66.38472,-73.53194,-56.80307,-0.4675641,5.229787,-69.35696,-8.374548,-36.90935,0,0,0,-9.860105,-113.683,-45.00962,-121.7539,-110.5331,-88.68581,0.001067912,-0.1257102,0.09433498,0,0.3,0,0,0,0
638224439477556634,-4.570632,-1.729987,-4.109118,-23.57873,-66.31148,-73.45869,-56.80307,-0.4675641,5.229787,-69.35696,-8.374548,-36.90935,0,0,0,-9.860105,-113.683,-45.00962,-121.7539,-110.5331,-88.68581,0.001067912,-0.1257102,0.09433498,0,0.3,0,0,0,0
638224439477886525,-4.570632,-1.729987,-4.109118,-23.57873,-66.31148,-73.45869,-56.80307,-0.4675641,5.229787,-69.35696,-8.374548,-36.90935,0,0,0,-9.860105,-113.683,-45.00962,-121.7539,-110.5331,-88.68581,0.001067912,-0.1257102,0.09433498,0,0.3,0,0,6.349513E-08,0
638224439478226423,-4.570632,-1.729987,-4.109118,-23.57873,-66.31148,-73.53194,-56.80307,-0.4675641,5.229787,-69.35696,-8.374548,-36.83611,0,0,0,-9.860105,-113.683,-45.00962,-121.7539,-110.5331,-88.68581,0.001067912,-0.1257102,0.09433498,0,0.3,0,0,1.269903E-07,0
638224439478686270,-4.570632,-1.729987,-4.109118,-23.57873,-66.31148,-73.45869,-56.80307,-0.4675641,5.229787,-69.35696,-8.374548,-36.90935,0,0,0,-9.860105,-113.683,-45.00962,-121.7539,-110.5331,-88.68581,0.001067912,-0.1257102,0.09433498,0,0.3,0,0,1.269903E-07,0
638224439479026165,-4.570632,-1.729987,-4.109118,-23.57873,-66.31148,-73.53194,-56.80307,-0.4675641,5.229787,-69.35696,-8.374548,-36.90935,0,0,0,-9.860105,-113.683,-45.00962,-121.7539,-110.5331,-88.68581,0.001067912,-0.1257102,0.09433498,0,0.3,0,0,1.904854E-07,0
638224439479376065,-4.570632,-1.729987,-4.109118,-23.50549,-66.31148,-73.53194,-56.80307,-0.4675641,5.229787,-69.35696,-8.374548,-36.90935,0,0,0,-9.860105,-113.683,-45.00962,-121.7539,-110.5331,-88.68581,0.001067912,-0.1257102,0.09433498,0,0.3,0,0,1.904854E-07,0
638224439479715947,-4.570632,-1.729987,-4.109118,-23.50549,-66.31148,-73.53194,-56.80307,-0.4675641,5.229787,-69.35696,-8.374548,-36.90935,0,0,0,-9.860105,-113.683,-45.00962,-121.7539,-110.5331,-88.68581,0.001067912,-0.1257102,0.09433498,0,0.3,0,0,1.269903E-07,0
638224439480165787,-4.570632,-1.729987,-4.109118,-23.57873,-66.38472,-73.53194,-56.80307,-0.4675641,5.229787,-69.35696,-8.374548,-36.90935,0,0,0,-9.860105,-113.683,-45.00962,-121.7539,-110.5331,-88.68581,0.001067912,-0.1257102,0.09433498,0,0.3,0,0,6.349513E-08,0
638224439480505688,-4.570632,-1.729987,-4.109118,-23.57873,-66.31148,-73.45869,-56.80307,-0.4675641,5.229787,-69.35696,-8.374548,-36.90935,0,0,0,-9.860105,-113.683,-45.00962,-121.7539,-110.5331,-88.68581,0.001067912,-0.1257102,0.09433498,0,0.3,0,0,0,0
638224439480835585,-4.570632,-1.729987,-4.109118,-23.57873,-66.31148,-73.45869,-56.80307,-0.4675641,5.229787,-69.35696,-8.374548,-36.83611,0,0,0,-9.860105,-113.683,-45.00962,-121.7539,-110.5331,-88.68581,0.001067912,-0.1257102,0.09433498,0,0.3,0,0,0,0
638224439481165480,-4.570632,-1.729987,-4.109118,-23.57873,-66.31148,-73.53194,-56.80307,-0.4675641,5.229787,-69.35696,-8.374548,-36.90935,0,0,0,-9.860105,-113.683,-45.00962,-121.7539,-110.5331,-88.68581,0.001067912,-0.1257102,0.09433498,0,0.3,0,0,0,0
638224439481545353,-4.570632,-1.729987,-4.109118,-23.57873,-66.31148,-73.45869,-56.80307,-0.4675641,5.229787,-69.35696,-8.374548,-36.83611,0,0,0,-9.860105,-113.683,-45.00962,-121.7539,-110.5331,-88.68581,0.001067912,-0.1257102,0.09433498,0,0.3,0,0,0,0
638224439481885240,-4.570632,-1.729987,-4.109118,-23.57873,-66.31148,-73.53194,-56.80307,-0.4675641,5.229787,-69.35696,-8.374548,-36.83611,0,0,0,-9.860105,-113.683,-45.00962,-121.7539,-110.5331,-88.68581,0.001067912,-0.1257102,0.09433498,0,0.3,0,0,0,0
638224439482225141,-4.570632,-1.729987,-4.109118,-23.57873,-66.31148,-73.53194,-56.80307,-0.4675641,5.229787,-69.35696,-8.374548,-36.83611,0,0,0,-9.860105,-113.683,-45.00962,-121.7539,-110.5331,-88.68581,0.001067912,-0.1257102,0.09433498,0,0.3,0,0,0,0
638224439482565025,-4.570632,-1.729987,-4.109118,-23.57873,-66.31148,-73.53194,-56.80307,-0.4675641,5.229787,-69.35696,-8.374548,-36.83611,0,0,0,-9.860105,-113.683,-45.00962,-121.7539,-110.5331,-88.68581,0.001067912,-0.1257102,0.09433498,0,0.3,0,0,0,0
638224439482914917,-4.570632,-1.729987,-4.109118,-23.57873,-66.31148,-73.53194,-56.80307,-0.4675641,5.229787,-69.35696,-8.374548,-36.90935,0,0,0,-9.860105,-113.683,-45.00962,-121.7539,-110.5331,-88.68581,0.001067912,-0.1257102,0.09433498,0,0.3,0,0,0,0
638224439483264821,-4.570632,-1.729987,-4.109118,-23.50549,-66.31148,-73.45869,-56.80307,-0.4675641,5.229787,-69.35696,-8.374548,-36.83611,0,0,0,-9.860105,-113.683,-45.00962,-121.7539,-110.5331,-88.68581,0.001067912,-0.1257102,0.09433498,0,0.3,0,0,0,0
638224439483604699,-4.570632,-1.729987,-4.109118,-23.57873,-66.31148,-73.53194,-56.80307,-0.4675641,5.229787,-69.35696,-8.374548,-36.90935,0,0,0,-9.860105,-113.683,-45.00962,-121.7539,-110.5331,-88.68581,0.001067912,-0.1257102,0.09433498,0,0.3,0,0,0,0
638224439483944584,-4.570632,-1.729987,-4.109118,-23.57873,-66.31148,-73.45869,-56.80307,-0.4675641,5.229787,-69.35696,-8.374548,-36.83611,0,0,0,-9.860105,-113.683,-45.00962,-121.7539,-110.5331,-88.68581,0.001067912,-0.1257102,0.09433498,0,0.3,0,0,0,0
638224439484284486,-4.570632,-1.729987,-4.109118,-23.57873,-66.31148,-73.53194,-56.80307,-0.4675641,5.229787,-69.35696,-8.374548,-36.90935,0,0,0,-9.860105,-113.683,-45.00962,-121.7539,-110.5331,-88.68581,0.001067912,-0.1257102,0.09433498,0,0.3,0,0,0,0
638224439484714339,-4.570632,-1.729987,-4.109118,-23.57873,-66.31148,-73.53194,-56.80307,-0.4675641,5.229787,-69.35696,-8.374548,-36.90935,0,0,0,-9.860105,-113.683,-45.00962,-121.7539,-110.5331,-88.68581,0.001067912,-0.1257102,0.09433498,0,0.3,0,0,0,0
638224439485044240,-4.570632,-1.729987,-4.109118,-23.50549,-66.31148,-73.53194,-56.80307,-0.4675641,5.229787,-69.35696,-8.374548,-36.83611,0,0,0,-9.860105,-113.683,-45.00962,-121.7539,-110.5331,-88.68581,0.001067912,-0.1257102,0.09433498,0,0.3,0,0,0,0
638224439485384132,-4.570632,-1.729987,-4.109118,-23.57873,-66.31148,-73.53194,-56.80307,-0.4675641,5.229787,-69.35696,-8.374548,-36.90935,0,0,0,-9.860105,-113.683,-45.00962,-121.7539,-110.5331,-88.68581,0.001067912,-0.1257102,0.09433498,0,0.3,0,0,0,0
638224439485724019,-4.570632,-1.729987,-4.109118,-23.57873,-66.31148,-73.53194,-56.80307,-0.4675641,5.229787,-69.35696,-8.374548,-36.90935,0,0,0,-9.860105,-113.683,-45.00962,-121.7539,-110.5331,-88.68581,0.001067912,-0.1257102,0.09433498,0,0.3,0,0,0,0
638224439486063918,-4.570632,-1.729987,-4.109118,-23.57873,-66.31148,-73.53194,-56.80307,-0.4675641,5.229787,-69.35696,-8.374548,-36.90935,0,0,0,-9.860105,-113.683,-45.00962,-121.7539,-110.5331,-88.68581,0.001067912,-0.1257102,0.09433498,0,0.3,0,0,0,0
638224439486413800,-4.570632,-1.729987,-4.109118,-23.57873,-66.38472,-73.53194,-56.80307,-0.4675641,5.229787,-69.35696,-8.374548,-36.83611,0,0,0,-9.860105,-113.683,-45.00962,-121.7539,-110.5331,-88.68581,0.001067912,-0.1257102,0.09433498,0,0.3,0,0,0,0
638224439486753706,-4.570632,-1.729987,-4.109118,-23.50549,-66.31148,-73.53194,-56.80307,-0.4675641,5.229787,-69.35696,-8.374548,-36.90935,0,0,0,-9.860105,-113.683,-45.00962,-121.7539,-110.5331,-88.68581,0.001067912,-0.1257102,0.09433498,0,0.3,0,0,0,0
638224439487093590,-4.570632,-1.729987,-4.109118,-23.50549,-66.31148,-73.53194,-56.80307,-0.4675641,5.229787,-69.35696,-8.374548,-36.83611,0,0,0,-9.860105,-113.683,-45.00962,-121.7539,-110.5331,-88.68581,0.001067912,-0.1257102,0.09433498,0,0.3,0,0,0,0
638224439487433473,-4.570632,-1.729987,-4.109118,-23.57873,-66.31148,-73.53194,-56.80307,-0.4675641,5.229787,-69.35696,-8.374548,-36.90935,0,0,0,-9.860105,-113.683,-45.00962,-121.7539,-110.5331,-88.68581,0.001067912,-0.1257102,0.09433498,0,0.3,0,0,0,0
638224439487773368,-3.675354,-1.776743,-5.253135,-23.87171,-65.65227,-65.0355,-56.80307,-0.4675641,5.229787,-69.35696,-8.374548,-36.83611,0,0,0,-7.761397,-113.5744,-47.52214,-121.7539,-110.5331,-88.68581,0.001067912,-0.1257102,0.09433498,0,0.3,0,0,0,0
638224439488113264,-1.578517,-1.753365,-6.607276,-24.67741,-61.77028,-47.16368,-56.80307,-0.4675641,5.229787,-69.35696,-8.374548,-36.90935,0,0,0,-3.248981,-113.1945,-50.45089,-121.7539,-110.5331,-88.68581,0.001067912,-0.1257102,0.09433498,0,0.3,0,0,0,0
638224439488453158,-0.04711992,-1.729987,-7.074222,-25.40986,-58.84047,-37.20233,-56.80307,-0.4675641,5.229787,-69.35696,-8.374548,-36.90935,0,0,0,-0.09611074,-113.0106,-51.48354,-121.7539,-110.5331,-88.68581,0.001067912,-0.1257102,0.09433498,0,0.3,0,0,0,0
638224439488793041,3.816714,-1.729987,-7.704598,-25.99582,-52.54139,-18.89104,-56.80307,-0.4675641,5.229787,-69.35696,-8.374548,-36.90935,0,0,0,7.682366,-112.8219,-53.19442,-121.7539,-110.5331,-88.68581,0.001067912,-0.1257102,0.09433498,0,0.3,0,0,0,0
638224439489222898,8.410906,-1.729987,-7.868029,-24.31118,-46.97475,-3.875783,-56.80307,-0.4675641,5.229787,-69.35696,-8.374548,-36.90935,0,0,0,16.82628,-112.7704,-54.55256,-121.7539,-110.5331,-88.68581,0.001067912,-0.1257102,0.09433498,0,0.3,0,0,0,0
638224439489562809,13.52342,-1.729987,-7.868029,-20.50244,-42.79977,8.868877,-56.80307,-0.4675641,5.229787,-69.35696,-8.374548,-36.83611,0,0,0,26.90003,-112.7704,-56.50471,-121.7539,-110.5331,-88.68581,0.001067912,-0.1257102,0.09433498,0,0.3,0,0,0,0
638224439489902695,19.03645,-1.729987,-7.587861,-16.18097,-39.72348,17.51181,-56.80307,-0.4675641,5.229787,-69.28372,-8.374548,-36.83611,0,0,0,37.73157,-112.8581,-58.99561,-121.7539,-110.5331,-88.68581,0.001067912,-0.1257102,0.09433498,0,0.3,0,0,0,0
638224439490232587,22.005,-1.729987,-7.097569,-13.69064,-38.47831,20.22188,-56.80307,-0.4675641,5.229787,-69.35696,-8.374548,-36.83611,0,0,0,43.76822,-113.0039,-60.04708,-121.7539,-110.5331,-88.68581,0.001067912,-0.1257102,0.09433498,0,0.3,0,0,0,0
638224439490572481,28.17771,-1.729987,-5.183093,-8.050756,-36.06122,23.6644,-56.80307,-0.4675641,5.229787,-69.35696,-8.374548,-36.90935,0,0,0,57.25169,-113.4805,-61.47624,-121.7539,-110.5331,-88.68581,0.001067912,-0.1257102,0.09433498,0,0.3,0,0,0,0
638224439490912372,34.02058,-1.729987,-2.264685,-1.531937,-33.86386,25.34904,-56.80307,-0.4675641,5.229787,-69.35696,-8.374548,-36.83611,0,0,0,71.62587,-113.9216,-62.24252,-121.7539,-110.5331,-88.68581,0.001067912,-0.1257102,0.09433498,0,0.3,0,0,0,0
638224439491262260,36.72998,-1.729987,-0.4669453,1.910586,-32.83843,25.71527,-56.80307,-0.4675641,5.229787,-69.35696,-8.374548,-36.90935,0,0,0,79.06297,-114.0213,-62.39464,-121.7539,-110.5331,-88.68581,0.001067912,-0.1257102,0.09433498,0,0.3,0,0,0,0
638224439491602152,41.37129,-1.706609,3.595479,8.942122,-30.64108,25.27579,-56.80307,-0.4675641,5.229787,-69.35696,-8.374548,-36.90935,0,0,0,93.62386,-113.7089,-62.04725,-121.7539,-110.5331,-88.68581,0.001067912,-0.1257102,0.09433498,0,0.3,0,0,0,0
638224439491942130,44.74036,-1.659852,8.171543,15.97366,-27.93101,20.44161,-56.80307,-0.4675641,5.229787,-69.35696,-8.374548,-36.83611,0,0,0,107.1667,-112.5087,-60.20763,-121.7539,-110.5331,-88.68581,0.001067912,-0.1257102,0.09433498,0,0.3,0,0,0,0
638224439492281932,45.70633,-1.496205,10.10937,19.41618,-26.53935,16.0469,-56.80307,-0.4675641,5.229787,-69.35696,-8.374548,-36.90935,0,0,0,112.1691,-111.4115,-58.91292,-121.7539,-110.5331,-88.68581,0.001067912,-0.1257102,0.09433498,0,0.3,0,0,0,0
638224439492621826,46.366,-0.5143204,12.00049,25.20255,-22.43762,7.330729,-56.80307,-0.4675641,5.229787,-69.35696,-8.374548,-36.90935,0,0,0,116.577,-108.2828,-57.20325,-121.7539,-110.5331,-88.68581,0.001067912,-0.1257102,0.09433498,0,0.3,0,0,0,0
638224439492961720,46.20108,1.589718,12.3974,26.88719,-16.43152,-2.557369,-56.80307,-0.4675641,5.229787,-69.35696,-8.374548,-36.90935,0,0,0,116.8751,-103.1911,-56.27505,-121.7539,-110.5331,-88.68581,0.001067912,-0.1257102,0.09433498,0,0.3,0,0,0,0
638224439493301599,46.05972,4.628884,13.6815,25.78851,-10.49866,-15.00905,-56.80307,-0.4675641,5.229787,-69.35696,-8.374548,-36.83611,0,0,0,118.4185,-95.45473,-54.23293,-121.7539,-110.5331,-88.68581,0.001067912,-0.1257102,0.09433498,0,0.3,0,0,0,0
638224439493781458,46.05972,9.818846,17.16024,26.96043,-5.225006,-30.61027,-56.80307,-0.4675641,5.229787,-69.35696,-8.374548,-36.90935,0,0,0,122.9443,-81.32304,-49.87147,-121.7539,-110.5331,-88.68581,0.001067912,-0.1257102,0.09433498,0,0.3,0,0,0,0
638224439494131346,46.10685,13.34895,20.31212,29.0113,-3.467122,-40.42512,-56.80307,-0.4675641,5.229787,-69.35696,-8.374548,-36.90935,0,0,0,126.8586,-70.9197,-46.30045,-121.7539,-110.5331,-88.68581,0.001067912,-0.1257102,0.09433498,0,0.3,0,0,0,0
638224439494461235,46.22464,15.47637,22.29664,30.69594,-2.661425,-46.65096,-56.80307,-0.4675641,5.229787,-69.35696,-8.374548,-36.83611,0,0,0,129.3264,-64.44644,-44.4372,-121.7539,-110.5331,-88.68581,0.001067912,-0.1257102,0.09433498,0,0.3,0,0,0,0
638224439494801132,46.10685,20.5962,25.89212,34.28495,-2.441689,-61.66622,-56.80307,-0.4675641,5.229787,-69.35696,-8.374548,-36.90935,0,0,0,131.9176,-49.70424,-41.43324,-121.7539,-110.5331,-88.68581,0.001067912,-0.1257102,0.09433498,0,0.3,0,0,0,0
638224439495260993,45.32936,25.94981,28.78718,37.06827,-3.613612,-72.5065,-56.80307,-0.4675641,5.229787,-69.35696,-8.374548,-36.90935,0,0,0,130.9395,-35.1681,-38.90732,-121.7539,-110.5331,-88.68581,0.001067912,-0.1257102,0.09433498,0,0.3,0,0,0,0
638224439495590958,43.82153,31.09301,31.40207,38.67966,-5.737722,-77.34068,-56.80307,-0.4675641,5.229787,-69.35696,-8.374548,-36.90935,0,0,0,127.1774,-21.6027,-35.83036,-121.7539,-110.5331,-88.68581,0.001067912,-0.1257102,0.09433498,0,0.3,0,0,0,0
638224439495920772,42.66709,35.72189,34.41387,39.41211,-8.887264,-78.95209,-56.80307,-0.4675641,5.229787,-69.35696,-8.374548,-36.90935,0,0,0,124.4506,-8.804049,-33.32864,-121.7539,-110.5331,-88.68581,0.001067912,-0.1257102,0.09433498,0,0.3,0,0,0,0
638224439496270662,42.29013,38.08309,36.3517,39.85158,-10.64515,-79.39155,-56.80307,-0.4675641,5.229787,-69.35696,-8.374548,-36.90935,0,0,0,123.8135,-1.798503,-32.23363,-121.7539,-110.5331,-88.68581,0.001067912,-0.1257102,0.09433498,0,0.3,0,0,0,0
638224439496600679,41.81893,42.92238,40.62424,41.31649,-14.52714,-79.97752,-56.80307,-0.4675641,5.229787,-69.35696,-8.374548,-36.83611,0,0,0,123.0025,12.95018,-30.87066,-121.7539,-110.5331,-88.68581,0.001067912,-0.1257102,0.09433498,0,0.3,0,0,0,0
638224439496950433,41.18281,47.55127,45.10692,42.41516,-18.33589,-83.63977,-56.80307,-0.4675641,5.229787,-69.35696,-8.374548,-36.83611,0,0,0,121.4671,27.62993,-29.51525,-121.7539,-110.5331,-88.68581,0.001067912,-0.1257102,0.09433498,0,0.3,0,0,0,0
638224439497300340,39.9577,51.19827,49.07595,43.07437,-20.60649,-84.73845,-56.80307,-0.4675641,5.229787,-69.35696,-8.374548,-36.83611,0,0,0,118.3725,39.9202,-27.06741,-121.7539,-110.5331,-88.68581,0.001067912,-0.1257102,0.09433498,0,0.3,0,0,0,0
638224439497630229,39.10954,52.90487,51.06047,43.51384,-21.48543,-82.90732,-56.80307,-0.4675641,5.229787,-69.35696,-8.374548,-36.83611,0,0,0,116.1625,45.90421,-25.46065,-121.7539,-110.5331,-88.68581,0.001067912,-0.1257102,0.09433498,0,0.3,0,0,0,0
638224439497970109,37.29542,56.29471,54.70264,44.53928,-22.87709,-76.97446,-56.80307,-0.4675641,5.229787,-69.35696,-8.374548,-36.83611,0,0,0,110.7838,57.23196,-22.90135,-121.7539,-110.5331,-88.68581,0.001067912,-0.1257102,0.09433498,0,0.3,0,0,0,0
638224439498319998,35.15146,60.03522,58.41486,45.93093,-24.70822,-71.77406,-56.80307,-0.4675641,5.229787,-69.35696,-8.374548,-36.83611,0,0,0,103.7483,69.03139,-21.01264,-121.7539,-110.5331,-88.68581,0.001067912,-0.1257102,0.09433498,0,0.3,0,0,0,0
638224439498669883,34.02058,61.74184,60.00248,46.73663,-26.09988,-70.01617,-56.80307,-0.4675641,5.229787,-69.35696,-8.374548,-36.90935,0,0,0,99.93694,74.13776,-20.30214,-121.7539,-110.5331,-88.68581,0.001067912,-0.1257102,0.09433498,0,0.3,0,0,0,0
638224439499009780,31.14627,65.08492,62.52398,48.12829,-30.12836,-67.89206,-56.80307,-0.4675641,5.229787,-69.35696,-8.374548,-36.90935,0,0,0,90.24826,82.76486,-19.01654,-121.7539,-110.5331,-88.68581,0.001067912,-0.1257102,0.09433498,0,0.3,0,0,0,0
638224439499349675,27.54159,68.12408,64.4618,48.34802,-34.8893,-66.42715,-56.80307,-0.4675641,5.229787,-69.35696,-8.374548,-36.90935,0,0,0,78.61012,89.60897,-17.60866,-121.7539,-110.5331,-88.68581,0.001067912,-0.1257102,0.09433498,0,0.3,0,0,0,0
638224439499759537,22.92384,71.28014,65.60582,47.39584,-40.67567,-63.71709,-56.80307,-0.4675641,5.229787,-69.35696,-8.447793,-36.90935,0,0,0,63.97375,94.57052,-17.07856,-121.7539,-110.5331,-88.68581,0.001067912,-0.1257102,0.09433498,0,0.3,0,0,0,0
638224439500089441,21.03905,72.33216,65.65251,46.15067,-42.94627,-61.59297,-56.80307,-0.4675641,5.229787,-69.35696,-8.447793,-36.83611,0,0,0,58.14487,95.43399,-17.18541,-121.7539,-110.5331,-88.68581,0.001067912,-0.1257102,0.09433498,0,0.3,0,0,0,0
638224439500429332,15.87941,74.62322,65.65251,37.50774,-49.09886,-49.8005,-56.80307,-0.4675641,5.229787,-69.35696,-8.374548,-36.83611,0,0,0,42.91627,96.95031,-17.48555,-121.7539,-110.5331,-88.68581,0.001067912,-0.1257102,0.09433498,0,0.3,0,0,0,0
638224439500769224,10.57842,76.16618,65.72256,16.55962,-53.78655,-26.06907,-56.80307,-0.4675641,5.229787,-69.35696,-8.374548,-36.83611,0,0,0,28.16908,98.00436,-17.51574,-121.7539,-110.5331,-88.68581,0.001067912,-0.1257102,0.09433498,0,0.3,0,0,0,0
638224439501119113,5.159632,76.77402,66.16615,-12.37222,-54.29927,3.155754,-56.80307,-0.4675641,5.229787,-69.35696,-8.374548,-36.90935,0,0,0,13.71334,99.27809,-16.48036,-121.7539,-110.5331,-88.68581,0.001067912,-0.1257102,0.09433498,0,0.3,0,0,0,0
638224439501459009,2.780076,76.7974,66.1895,-25.11688,-53.0541,15.68068,-56.80307,-0.4675641,5.229787,-69.35696,-8.374548,-36.90935,0,0,0,7.394511,99.34023,-16.07294,-121.7539,-110.5331,-88.68581,0.001067912,-0.1257102,0.09433498,0,0.3,0,0,0,0
638224439501798896,-1.390038,76.6805,66.1895,-42.62248,-49.3186,33.69899,-56.80307,-0.4675641,5.229787,-69.35696,-8.374548,-36.83611,0,0,0,-3.704767,99.27783,-15.67365,-121.7539,-110.5331,-88.68581,0.001067912,-0.1257102,0.09433498,0,0.3,0,0,0,0
638224439502128788,-5.206751,76.28308,66.25954,-51.26541,-45.5831,43.80682,-56.80307,-0.4675641,5.229787,-69.35696,-8.374548,-36.90935,0,0,0,-13.94703,99.21079,-15.2978,-121.7539,-110.5331,-88.68581,0.001067912,-0.1257102,0.09433498,0,0.3,0,0,0,0
638224439502468681,-6.997309,76.04929,66.39962,-53.24303,-44.04494,46.88312,-56.80307,-0.4675641,5.229787,-69.35696,-8.374548,-36.83611,0,0,0,-18.8028,99.3793,-15.15401,-121.7539,-110.5331,-88.68581,0.001067912,-0.1257102,0.09433498,0,0.3,0,0,0,0
638224439502818570,-10.38994,75.65186,66.32958,-53.53601,-42.14057,50.76511,-56.80307,-0.4675641,5.229787,-69.35696,-8.374548,-36.90935,0,0,0,-27.98565,99.00385,-15.71729,-121.7539,-110.5331,-88.68581,0.001067912,-0.1257102,0.09433498,0,0.3,0,0,0,0
638224439503148466,-12.03914,75.39471,66.02607,-51.48514,-42.79977,50.17915,-56.80307,-0.4675641,5.229787,-69.35696,-8.374548,-36.90935,0,0,0,-32.42818,98.20801,-16.29821,-121.7539,-110.5331,-88.68581,0.001067912,-0.1257102,0.09433498,0,0.3,0,0,0,0
638224439503488348,-12.8873,75.23106,65.79259,-49.65401,-43.9717,48.42127,-56.80307,-0.4675641,5.229787,-69.35696,-8.374548,-36.83611,0,0,0,-34.7081,97.61539,-16.65196,-121.7539,-110.5331,-88.68581,0.001067912,-0.1257102,0.09433498,0,0.3,0,0,0,0
638224439503828239,-14.32446,75.02065,65.18556,-45.99176,-47.92694,41.8292,-56.80307,-0.4675641,5.229787,-69.35696,-8.374548,-36.83611,0,0,0,-38.47393,96.20421,-17.6795,-121.7539,-110.5331,-88.68581,0.001067912,-0.1257102,0.09433498,0,0.3,0,0,0,0
638224439504278117,-15.50245,74.45957,63.34113,-44.23387,-50.85675,29.08454,-56.80307,-0.4675641,5.229787,-69.35696,-8.374548,-36.83611,0,0,0,-41.40187,91.9938,-19.08451,-121.7539,-110.5331,-88.68581,0.001067912,-0.1257102,0.09433498,0,0.3,0,0,0,0
638224439504607991,-16.79825,73.85175,59.97913,-42.9887,-51.29622,8.722386,-56.80307,-0.4675641,5.229787,-69.35696,-8.374548,-36.90935,0,0,0,-44.08677,84.72164,-22.31149,-121.7539,-110.5331,-88.68581,0.001067912,-0.1257102,0.09433498,0,0.3,0,0,0,0
638224439504947885,-17.71709,72.8231,56.26691,-37.86154,-49.75807,-3.363066,-56.80307,-0.4675641,5.229787,-69.35696,-8.374548,-36.90935,0,0,0,-45.73268,76.6997,-25.19802,-121.7539,-110.5331,-88.68581,0.001067912,-0.1257102,0.09433498,0,0.3,0,0,0,0
638224439505297835,-18.09405,71.98148,54.09562,-31.41597,-47.85369,-10.32136,-56.80307,-0.4675641,5.229787,-69.35696,-8.374548,-36.83611,0,0,0,-46.35728,71.95905,-26.46982,-121.7539,-110.5331,-88.68581,0.001067912,-0.1257102,0.09433498,0,0.3,0,0,0,0
638224439505637746,-18.37677,71.56068,52.97495,-28.33967,-47.12124,-14.49633,-56.80307,-0.4675641,5.229787,-69.35696,-8.374548,-36.90935,0,0,0,-46.86138,69.55511,-27.28857,-121.7539,-110.5331,-88.68581,0.001067912,-0.1257102,0.09433498,0,0.3,0,0,0,0
638224439505977628,-19.13069,70.55542,50.75696,-24.8239,-46.31554,-20.35595,-56.80307,-0.4675641,5.229787,-69.35696,-8.374548,-36.83611,0,0,0,-48.39403,64.73552,-28.83809,-121.7539,-110.5331,-88.68581,0.001067912,-0.1257102,0.09433498,0,0.3,0,0,0,0
638224439506317507,-20.14377,69.55016,48.7024,-23.06602,-45.14362,-24.23794,-56.80307,-0.4675641,5.229787,-69.35696,-8.374548,-36.90935,0,0,0,-50.54612,60.28904,-30.55249,-121.7539,-110.5331,-88.68581,0.001067912,-0.1257102,0.09433498,0,0.3,0,0,0,0
638224439506657409,-20.68565,69.08259,47.90859,-22.91953,-44.41117,-25.84933,-56.80307,-0.4675641,5.229787,-69.35696,-8.374548,-36.83611,0,0,0,-51.7726,58.52515,-31.23391,-121.7539,-110.5331,-88.68581,0.001067912,-0.1257102,0.09433498,0,0.3,0,0,0,0
638224439506997310,-21.98145,67.77341,46.46106,-23.79847,-42.94627,-28.11993,-56.80307,-0.4675641,5.229787,-69.35696,-8.374548,-36.90935,0,0,0,-55.06368,54.93364,-31.93542,-121.7539,-110.5331,-88.68581,0.001067912,-0.1257102,0.09433498,0,0.3,0,0,0,0
638224439507345978,-23.58352,66.32397,45.59721,-26.21556,-41.18839,-29.95106,-56.80307,-0.4675641,5.229787,-69.35696,-8.374548,-36.90935,0,0,0,-59.54034,52.17126,-31.96064,-121.7539,-110.5331,-88.68581,0.001067912,-0.1257102,0.09433498,0,0.3,0,0,0,0
638224439507685868,-24.361,65.57586,45.52717,-28.11993,-40.2362,-30.75676,-56.80307,-0.4675641,5.229787,-69.35696,-8.374548,-36.90935,0,0,0,-61.9943,51.34531,-31.43667,-121.7539,-110.5331,-88.68581,0.001067912,-0.1257102,0.09433498,0,0.3,0,0,0,0
638224439508025758,-25.63324,63.58871,45.62056,-32.29491,-38.47831,-31.78219,-56.80307,-0.4675641,5.229787,-69.35696,-8.374548,-36.83611,0,0,0,-66.89172,49.51556,-28.9438,-121.7539,-110.5331,-88.68581,0.001067912,-0.1257102,0.09433498,0,0.3,0,0,0,0
638224439508355645,-27.02328,61.22752,46.83461,-35.81068,-37.08665,-31.6357,-56.80307,-0.4675641,5.229787,-69.35696,-8.374548,-36.90935,0,0,0,-73.35467,49.01072,-24.52783,-121.7539,-110.5331,-88.68581,0.001067912,-0.1257102,0.09433498,0,0.3,0,0,0,0
638224439508795509,-28.46043,58.04808,49.30943,-40.86459,-36.20771,-28.19318,-56.80307,-0.4675641,5.229787,-69.35696,-8.374548,-36.90935,0,0,0,-81.81504,49.55578,-17.41697,-121.7539,-110.5331,-88.68581,0.001067912,-0.1257102,0.09433498,0,0.3,0,0,0,0
638224439509137528,-29.30859,55.96742,51.31729,-44.45361,-35.84149,-24.8239,-56.80307,-0.4675641,5.229787,-69.35696,-8.374548,-36.83611,0,0,0,-87.48912,50.51504,-12.50099,-121.7539,-110.5331,-88.68581,0.001067912,-0.1257102,0.09433498,0,0.3,0,0,0,0
638224439509467424,-29.80335,54.42446,53.13838,-47.09043,-35.695,-21.96734,-56.80307,-0.4675641,5.229787,-69.35696,-8.374548,-36.90935,0,0,0,-91.58742,51.81552,-8.451034,-121.7539,-110.5331,-88.68581,0.001067912,-0.1257102,0.09433498,0,0.3,0,0,0,0
638224439509817312,-30.55727,51.40867,57.03737,-52.95005,-35.40202,-15.22878,-56.80307,-0.4675641,5.229787,-69.35696,-8.374548,-36.83611,0,0,0,-99.16972,55.02369,-0.3773796,-121.7539,-110.5331,-88.68581,0.001067912,-0.1257102,0.09433498,0,0.3,0,0,0,0
638224439510157204,-31.02847,48.72018,61.09979,-59.10264,-34.81605,-7.757777,-56.80307,-0.4675641,5.229787,-69.35696,-8.374548,-36.90935,0,0,0,-105.5252,59.11593,7.07594,-121.7539,-110.5331,-88.68581,0.001067912,-0.1257102,0.09433498,0,0.3,0,0,0,0
638224439510487099,-31.09915,47.48113,63.50457,-62.47192,-34.30334,-3.656047,-56.80307,-0.4675641,5.229787,-69.35696,-8.374548,-36.90935,0,0,0,-108.1938,62.14528,11.01093,-121.7539,-110.5331,-88.68581,0.001067912,-0.1257102,0.09433498,0,0.3,0,0,0,0
638224439510826989,-30.91067,45.89141,67.66038,-67.37935,-33.49764,2.496547,-56.80307,-0.4675641,5.229787,-69.35696,-8.374548,-36.90935,0,0,0,-111.0396,68.41245,17.10522,-121.7539,-110.5331,-88.68581,0.001067912,-0.1257102,0.09433498,0,0.3,0,0,0,0
638224439511157866,-30.10963,44.58223,72.00297,-72.653,-32.98492,8.429405,-56.80307,-0.4675641,5.229787,-69.35696,-8.374548,-36.90935,0,0,0,-111.269,75.75182,23.52468,-121.7539,-110.5331,-88.68581,0.001067912,-0.1257102,0.09433498,0,0.3,0,0,0,0
638224439511507762,-28.64891,44.20818,75.29494,-77.92664,-33.35115,13.99604,-56.80307,-0.4675641,5.229787,-69.35696,-8.374548,-36.90935,0,0,0,-107.6676,82.48058,28.72584,-121.7539,-110.5331,-88.68581,0.001067912,-0.1257102,0.09433498,0,0.3,0,0,0,0
638224439511837648,-27.49447,44.32507,76.67242,-80.34374,-34.0836,16.48637,-56.80307,-0.4675641,5.229787,-69.35696,-8.374548,-36.90935,0,0,0,-103.946,85.78584,31.37538,-121.7539,-110.5331,-88.68581,0.001067912,-0.1257102,0.09433498,0,0.3,0,0,0,0
638224439512177542,-26.3636,44.39521,77.95652,-81.66216,-34.81605,17.95128,-56.80307,-0.4675641,5.229787,-69.35696,-8.374548,-36.83611,0,0,0,-100.2246,88.81814,33.87375,-121.7539,-110.5331,-88.68581,0.001067912,-0.1257102,0.09433498,0,0.3,0,0,0,0
638224439512507438,-24.85576,44.69912,79.03049,-82.46785,-36.20771,18.68373,-56.80307,-0.4675641,5.229787,-69.35696,-8.374548,-36.83611,0,0,0,-94.8697,91.77153,36.4432,-121.7539,-110.5331,-88.68581,0.001067912,-0.1257102,0.09433498,0,0.3,0,0,0,0
638224439512857337,-24.05472,44.76926,79.45075,-82.24812,-36.86692,18.3175,-56.80307,-0.4675641,5.229787,-69.35696,-8.374548,-36.83611,0,0,0,-92.02496,92.84837,37.81132,-121.7539,-110.5331,-88.68581,0.001067912,-0.1257102,0.09433498,0,0.3,0,0,0,0
638224439513300393,-21.93432,45.00304,82.06564,-81.00294,-38.69805,15.60743,-56.80307,-0.4675641,5.229787,-69.35696,-8.374548,-36.90935,0,0,0,-84.55573,99.24025,41.62542,-121.7539,-110.5331,-88.68581,0.001067912,-0.1257102,0.09433498,0,0.3,0,0,0,0
638224439513630286,-21.25109,45.28358,82.92949,-81.07619,-39.06427,14.94823,-56.80307,-0.4675641,5.229787,-69.35696,-8.374548,-36.83611,0,0,0,-81.97326,101.6941,42.43207,-121.7539,-110.5331,-88.68581,0.001067912,-0.1257102,0.09433498,0,0.3,0,0,0,0
638224439513970178,-19.83749,46.3356,83.84003,-81.29592,-39.79673,12.3114,-56.80307,-0.4675641,5.229787,-69.35696,-8.374548,-36.90935,0,0,0,-76.23552,105.5058,42.96838,-121.7539,-110.5331,-88.68581,0.001067912,-0.1257102,0.09433498,0,0.3,0,0,0,0
638224439514320074,-18.56525,47.6214,84.47041,-80.124,-40.08971,6.451786,-56.80307,-0.4675641,5.229787,-69.35696,-8.374548,-36.90935,0,0,0,-70.87584,109.007,42.67661,-121.7539,-110.5331,-88.68581,0.001067912,-0.1257102,0.09433498,0,0.3,0,0,0,0
638224439514659974,-17.78777,48.1591,85.00739,-79.61128,-40.08971,3.521979,-56.80307,-0.4675641,5.229787,-69.35696,-8.374548,-36.90935,0,0,0,-67.75726,111.0907,42.84401,-121.7539,-110.5331,-88.68581,0.001067912,-0.1257102,0.09433498,0,0.3,0,0,0,0
638224439514999838,-15.92653,49.51503,85.91794,-79.24506,-40.30944,0.07945653,-56.80307,-0.4675641,5.229787,-69.35696,-8.374548,-36.90935,0,0,0,-60.25622,115.2803,42.80993,-121.7539,-110.5331,-88.68581,0.001067912,-0.1257102,0.09433498,0,0.3,0,0,0,0
638224439515339751,-13.66478,51.92299,86.22145,-79.31831,-40.96865,-1.751673,-56.80307,-0.4675641,5.229787,-69.35696,-8.374548,-36.83611,0,0,0,-50.86259,119.533,40.85559,-121.7539,-110.5331,-88.68581,0.001067912,-0.1257102,0.09433498,0,0.3,0,0,0,0
638224439515679631,-12.34542,53.44257,86.22145,-79.24506,-41.33487,-2.557369,-56.80307,-0.4675641,5.229787,-69.35696,-8.374548,-36.83611,0,0,0,-45.43078,121.6769,39.22367,-121.7539,-110.5331,-88.68581,0.001067912,-0.1257102,0.09433498,0,0.3,0,0,0,0
638224439516019522,-8.952785,56.62201,86.22145,-78.87884,-42.87302,-4.97446,-56.80307,-0.4675641,5.229787,-69.35696,-8.374548,-36.83611,0,0,0,-32.1238,125.9173,35.55909,-121.7539,-110.5331,-88.68581,0.001067912,-0.1257102,0.09433498,0,0.3,0,0,0,0
638224439516369413,-4.146553,59.66118,86.08137,-77.41393,-46.16905,-8.783209,-56.80307,-0.4675641,5.229787,-69.35696,-8.374548,-36.83611,0,0,0,-14.49013,129.3251,31.52044,-121.7539,-110.5331,-88.68581,0.001067912,-0.1257102,0.09433498,0,0.3,0,0,0,0
638224439516719312,0.8010387,61.78859,85.73116,-73.3122,-50.56377,-16.25422,-56.80307,-0.4675641,5.229787,-69.35696,-8.374548,-36.83611,0,0,0,2.740393,130.9332,27.64894,-121.7539,-110.5331,-88.68581,0.001067912,-0.1257102,0.09433498,0,0.3,0,0,0,0
638224439517049196,3.439754,62.48994,85.63777,-69.28372,-52.98085,-22.91953,-56.80307,-0.4675641,5.229787,-69.35696,-8.374548,-36.90935,0,0,0,11.67332,131.4792,25.85814,-121.7539,-110.5331,-88.68581,0.001067912,-0.1257102,0.09433498,0,0.3,0,0,0,0
638224439517389086,8.575826,63.02763,85.63777,-55.87985,-57.74179,-46.43123,-56.80307,-0.4675641,5.229787,-69.35696,-8.374548,-36.90935,0,0,0,28.84631,132.0521,22.93317,-121.7539,-110.5331,-88.68581,0.001067912,-0.1257102,0.09433498,0,0.3,0,0,0,0
638224439517828952,13.14646,63.07439,85.28756,-32.58789,-60.59835,-113.9633,-56.80307,-0.4675641,5.229787,-69.35696,-8.374548,-36.83611,0,0,0,43.96082,131.2889,19.86891,-121.7539,-110.5331,-88.68581,0.001067912,-0.1257102,0.09433498,0,0.3,0,0,0,0
638224439518168837,17.03385,62.77048,84.40037,-6.073137,-60.96458,-141.357,-56.80307,-0.4675641,5.229787,-69.35696,-8.374548,-36.90935,0,0,0,56.75026,128.9104,16.88025,-121.7539,-110.5331,-88.68581,0.001067912,-0.1257102,0.09433498,0,0.3,0,0,0,0
638224439518518729,19.97885,62.77048,83.34974,10.40703,-59.71941,-141.7964,-56.80307,-0.4675641,5.229787,-69.35696,-8.374548,-36.83611,0,0,0,66.10279,126.4792,13.47476,-121.7539,-110.5331,-88.68581,0.001067912,-0.1257102,0.09433498,0,0.3,0,0,0,0
638224439518848618,21.32176,62.77048,82.71936,15.90041,-59.0602,-141.8697,-56.80307,-0.4675641,5.229787,-69.35696,-8.374548,-36.83611,0,0,0,70.28122,125.0229,11.70988,-121.7539,-110.5331,-88.68581,0.001067912,-0.1257102,0.09433498,0,0.3,0,0,0,0
638224439519188517,24.17252,62.51331,80.73485,23.00519,-57.15583,-141.8697,-56.80307,-0.4675641,5.229787,-69.35696,-8.374548,-36.83611,0,0,0,79.09499,120.1774,7.870322,-121.7539,-110.5331,-88.68581,0.001067912,-0.1257102,0.09433498,0,0.3,0,0,0,0
638224439519528542,27.23532,61.39116,78.1433,26.88719,-54.22602,-141.9429,-56.80307,-0.4675641,5.229787,-69.35696,-8.374548,-36.90935,0,0,0,88.9465,113.0205,4.459094,-121.7539,-110.5331,-88.68581,0.001067912,-0.1257102,0.09433498,0,0.3,0,0,0,0
638224439519868300,28.74315,60.54955,76.78916,28.13236,-52.32165,-141.8697,-56.80307,-0.4675641,5.229787,-69.35696,-8.374548,-36.83611,0,0,0,93.95765,108.9935,2.960729,-121.7539,-110.5331,-88.68581,0.001067912,-0.1257102,0.09433498,0,0.3,0,0,0,0
638224439520208185,31.47611,58.07146,73.61393,29.45077,-47.78045,-141.9429,-56.80307,-0.4675641,5.229787,-69.35696,-8.374548,-36.90935,0,0,0,103.6231,98.90612,0.9058982,-121.7539,-110.5331,-88.68581,0.001067912,-0.1257102,0.09433498,0,0.3,0,0,0,0
638224439520548068,33.62006,54.705,70.46205,29.30428,-42.72653,-141.9429,-56.80307,-0.4675641,5.229787,-69.35696,-8.374548,-36.90935,0,0,0,112.2424,87.59227,0.4601282,-121.7539,-110.5331,-88.68581,0.001067912,-0.1257102,0.09433498,0,0.3,0,0,0,0
638224439520877964,34.39754,52.85812,69.06121,28.71832,-40.08971,-141.9429,-56.80307,-0.4675641,5.229787,-69.35696,-8.374548,-36.90935,0,0,0,115.8446,81.99365,0.8522829,-121.7539,-110.5331,-88.68581,0.001067912,-0.1257102,0.09433498,0,0.3,0,0,0,0
638224439521217864,35.50486,49.09423,66.65645,26.81394,-34.96254,-141.9429,-56.80307,-0.4675641,5.229787,-69.35696,-8.374548,-36.90935,0,0,0,121.8196,71.29518,2.404087,-121.7539,-110.5331,-88.68581,0.001067912,-0.1257102,0.09433498,0,0.3,0,0,0,0
638224439521557758,36.4237,45.40047,64.83536,24.61659,-30.42134,-142.2359,-56.80307,-0.4675641,5.229787,-69.35696,-8.374548,-36.90935,0,0,0,127.2559,61.59624,4.106266,-121.7539,-110.5331,-88.68581,0.001067912,-0.1257102,0.09433498,0,0.3,0,0,0,0
638224439521897775,37.41322,41.9405,63.36448,23.00519,-26.31961,-142.2359,-56.80307,-0.4675641,5.229787,-69.35696,-8.374548,-36.90935,0,0,0,132.6845,52.69302,5.11113,-121.7539,-110.5331,-88.68581,0.001067912,-0.1257102,0.09433498,0,0.3,0,0,0,0
638224439522351803,38.12002,38.66755,61.33327,22.1995,-21.85166,-141.9429,-56.80307,-0.4675641,5.229787,-69.35696,-8.374548,-36.90935,0,0,0,136.5011,42.69727,5.61113,-121.7539,-110.5331,-88.68581,0.001067912,-0.1257102,0.09433498,0,0.3,0,0,0,0
638224439522681697,38.14358,37.70904,60.44607,22.05301,-20.38675,-142.0894,-56.80307,-0.4675641,5.229787,-69.35696,-8.374548,-36.83611,0,0,0,136.804,39.13988,5.849641,-121.7539,-110.5331,-88.68581,0.001067912,-0.1257102,0.09433498,0,0.3,0,0,0,0
638224439523021591,37.9551,35.3946,57.92457,21.46704,-16.65125,-142.0162,-56.80307,-0.4675641,5.229787,-69.35696,-8.374548,-36.83611,0,0,0,136.3544,29.77334,6.457838,-121.7539,-110.5331,-88.68581,0.001067912,-0.1257102,0.09433498,0,0.3,0,0,0,0
638224439523351491,37.6017,33.19705,55.68323,20.73459,-13.28197,-141.8697,-56.80307,-0.4675641,5.229787,-69.35696,-8.374548,-36.83611,0,0,0,135.2893,21.18337,7.316008,-121.7539,-110.5331,-88.68581,0.001067912,-0.1257102,0.09433498,0,0.3,0,0,0,0
638224439523701372,37.08338,31.35017,53.83879,20.07539,-10.35217,-141.9429,-56.80307,-0.4675641,5.229787,-69.35696,-8.374548,-36.90935,0,0,0,133.5851,14.04323,8.387768,-121.7539,-110.5331,-88.68581,0.001067912,-0.1257102,0.09433498,0,0.3,0,0,0,0
638224439524041284,36.6593,30.4618,52.9516,19.85565,-9.033754,-141.9429,-56.80307,-0.4675641,5.229787,-69.35696,-8.374548,-36.90935,0,0,0,132.1723,10.61165,9.235865,-121.7539,-110.5331,-88.68581,0.001067912,-0.1257102,0.09433498,0,0.3,0,0,0,0
638224439524371165,35.4813,29.12924,51.55077,19.41618,-6.689909,-142.0162,-56.80307,-0.4675641,5.229787,-69.35696,-8.374548,-36.83611,0,0,0,128.2294,5.342446,11.54521,-121.7539,-110.5331,-88.68581,0.001067912,-0.1257102,0.09433498,0,0.3,0,0,0,0
638224439524711058,33.76143,28.35776,50.64022,18.75698,-4.932025,-142.0162,-56.80307,-0.4675641,5.229787,-69.35696,-8.374548,-36.83611,0,0,0,122.5127,2.119034,14.92411,-121.7539,-110.5331,-88.68581,0.001067912,-0.1257102,0.09433498,0,0.3,0,0,0,0
638224439525050952,32.79546,28.17073,50.3367,18.3175,-4.199574,-142.0162,-56.80307,-0.4675641,5.229787,-69.35696,-8.374548,-36.83611,0,0,0,119.2738,1.190665,16.7589,-121.7539,-110.5331,-88.68581,0.001067912,-0.1257102,0.09433498,0,0.3,0,0,0,0
638224439525390843,30.53371,28.1006,49.9865,16.99909,-2.661425,-142.0162,-56.80307,-0.4675641,5.229787,-69.35696,-8.374548,-36.83611,0,0,0,111.6494,0.4208645,20.93837,-121.7539,-110.5331,-88.68581,0.001067912,-0.1257102,0.09433498,0,0.3,0,0,0,0
638224439525730733,28.64891,28.1006,49.82306,15.90041,-1.782483,-142.0162,-56.80307,-0.4675641,5.229787,-69.35696,-8.374548,-36.83611,0,0,0,105.2459,0.1298922,24.29312,-121.7539,-110.5331,-88.68581,0.001067912,-0.1257102,0.09433498,0,0.3,0,0,0,0
638224439526060626,27.44736,28.1006,49.70633,15.16796,-1.343012,-142.0162,-56.80307,-0.4675641,5.229787,-69.35696,-8.374548,-36.83611,0,0,0,101.1022,-0.07751674,26.30198,-121.7539,-110.5331,-88.68581,0.001067912,-0.1257102,0.09433498,0,0.3,0,0,0,0
638224439526400526,24.92644,28.1006,49.23938,13.26359,-0.6838052,-142.0162,-56.80307,-0.4675641,5.229787,-69.35696,-8.374548,-36.90935,0,0,0,92.14513,-0.903564,29.92008,-121.7539,-110.5331,-88.68581,0.001067912,-0.1257102,0.09433498,0,0.3,0,0,0,0
638224439526750407,22.26416,28.26425,48.39888,10.8465,0.268382,-141.9429,-56.80307,-0.4675641,5.229787,-69.35696,-8.374548,-36.83611,0,0,0,82.28013,-2.040121,32.62766,-121.7539,-110.5331,-88.68581,0.001067912,-0.1257102,0.09433498,0,0.3,0,0,0,0
638224439527080309,21.0626,28.52141,47.88524,9.528083,0.7810982,-141.7232,-56.80307,-0.4675641,5.229787,-69.35696,-8.374548,-36.90935,0,0,0,77.65865,-2.403969,33.29886,-121.7539,-110.5331,-88.68581,0.001067912,-0.1257102,0.09433498,0,0.3,0,0,0,0
638224439527420194,18.65949,29.69032,46.60114,6.451786,2.172756,-140.6245,-56.80307,-0.4675641,5.229787,-69.35696,-8.374548,-36.83611,0,0,0,68.06271,-2.221349,33.20175,-121.7539,-110.5331,-88.68581,0.001067912,-0.1257102,0.09433498,0,0.3,0,0,0,0
638224439527770086,16.72757,31.77098,45.41043,3.375489,3.491169,-137.2552,-56.80307,-0.4675641,5.229787,-69.35696,-8.374548,-36.90935,0,0,0,59.96313,-0.05268129,31.16863,-121.7539,-110.5331,-88.68581,0.001067912,-0.1257102,0.09433498,0,0.3,0,0,0,0
638224439528109974,15.12549,35.02055,44.38315,0.4456824,4.370111,-131.8351,-56.80307,-0.4675641,5.229787,-69.35696,-8.374548,-36.90935,0,0,0,52.83356,4.573225,27.11403,-121.7539,-110.5331,-88.68581,0.001067912,-0.1257102,0.09433498,0,0.3,0,0,0,0
638224439528449873,14.3009,37.87269,43.93955,-1.238957,4.223621,-129.0518,-56.80307,-0.4675641,5.229787,-69.35696,-8.374548,-36.90935,0,0,0,48.85813,9.19313,23.31555,-121.7539,-110.5331,-88.68581,0.001067912,-0.1257102,0.09433498,0,0.3,0,0,0,0
638224439528789756,13.61766,41.16902,43.86951,-2.923595,3.271434,-127.1474,-56.80307,-0.4675641,5.229787,-69.35696,-8.374548,-36.90935,0,0,0,45.39221,14.99729,19.02622,-121.7539,-110.5331,-88.68581,0.001067912,-0.1257102,0.09433498,0,0.3,0,0,0,0
638224439529129647,13.05222,45.09655,44.28976,-4.97446,1.220569,-125.7557,-56.80307,-0.4675641,5.229787,-69.35696,-8.374548,-36.90935,0,0,0,42.28841,22.34719,14.0626,-121.7539,-110.5331,-88.68581,0.001067912,-0.1257102,0.09433498,0,0.3,0,0,0,0
638224439529479539,12.84018,46.80317,44.63997,-5.853402,-0.02459868,-125.3895,-56.80307,-0.4675641,5.229787,-69.35696,-8.374548,-36.83611,0,0,0,41.10793,25.67968,12.00173,-121.7539,-110.5331,-88.68581,0.001067912,-0.1257102,0.09433498,0,0.3,0,0,0,0
638224439529879415,12.43966,49.81895,45.59721,-7.171815,-2.73467,-125.1698,-56.80307,-0.4675641,5.229787,-69.35696,-8.374548,-36.83611,0,0,0,39.0559,31.92592,8.701973,-121.7539,-110.5331,-88.68581,0.001067912,-0.1257102,0.09433498,0,0.3,0,0,0,0
638224439530219304,12.01558,52.13339,46.36767,-8.270493,-5.810967,-125.243,-56.80307,-0.4675641,5.229787,-69.35696,-8.374548,-36.90935,0,0,0,37.13265,36.60684,6.112099,-121.7539,-110.5331,-88.68581,0.001067912,-0.1257102,0.09433498,0,0.3,0,0,0,0
638224439530549197,11.40302,53.74649,46.64783,-9.149435,-8.667529,-125.243,-56.80307,-0.4675641,5.229787,-69.35696,-8.374548,-36.83611,0,0,0,34.76178,39.34236,4.002315,-121.7539,-110.5331,-88.68581,0.001067912,-0.1257102,0.09433498,0,0.3,0,0,0,0
638224439530889088,10.90826,54.47121,46.67118,-9.515661,-9.912696,-126.0487,-56.80307,-0.4675641,5.229787,-69.35696,-8.374548,-36.90935,0,0,0,33.02068,40.37071,2.990911,-121.7539,-110.5331,-88.68581,0.001067912,-0.1257102,0.09433498,0,0.3,0,0,0,0
638224439531218984,9.259066,55.6635,46.55445,-10.17487,-11.59733,-129.6377,-56.80307,-0.4675641,5.229787,-69.35696,-8.374548,-36.90935,0,0,0,27.67976,41.7622,1.440794,-121.7539,-110.5331,-88.68581,0.001067912,-0.1257102,0.09433498,0,0.3,0,0,0,0
638224439531568873,6.502549,56.5285,46.06416,-11.27355,-12.62277,-135.4241,-56.80307,-0.4675641,5.229787,-69.35696,-8.374548,-36.90935,0,0,0,19.20372,42.06004,0.132215,-121.7539,-110.5331,-88.68581,0.001067912,-0.1257102,0.09433498,0,0.3,0,0,0,0
638224439531918771,3.298395,57.06619,45.57386,-13.17792,-12.91575,-141.2105,-56.80307,-0.4675641,5.229787,-69.35696,-8.374548,-36.83611,0,0,0,9.650563,41.92699,-0.8971362,-121.7539,-110.5331,-88.68581,0.001067912,-0.1257102,0.09433498,0,0.3,0,0,0,0
638224439532258651,1.531397,57.20647,45.45713,-14.56958,-12.8425,-141.7964,-56.80307,-0.4675641,5.229787,-69.35696,-8.447793,-36.83611,0,0,0,4.470145,41.91031,-1.143616,-121.7539,-110.5331,-88.68581,0.001067912,-0.1257102,0.09433498,0,0.3,0,0,0,0
638224439532598543,-2.426676,57.34673,45.34039,-17.86561,-12.76926,-141.7232,-56.80307,-0.4675641,5.229787,-69.35696,-8.374548,-36.90935,0,0,0,-7.062479,41.89334,-1.698879,-121.7539,-110.5331,-88.68581,0.001067912,-0.1257102,0.09433498,0,0.3,0,0,0,0
638224439532938436,-6.596789,57.2766,45.34039,-21.7476,-12.76926,-139.7456,-56.80307,-0.4675641,5.229787,-69.35696,-8.374548,-36.83611,0,0,0,-19.17809,41.80519,-2.51718,-121.7539,-110.5331,-88.68581,0.001067912,-0.1257102,0.09433498,0,0.3,0,0,0,0
638224439533278346,-8.387346,57.22984,45.34039,-23.57873,-12.76926,-139.7456,-56.80307,-0.4675641,5.229787,-69.35696,-8.374548,-36.90935,0,0,0,-24.3637,41.74632,-3.106845,-121.7539,-110.5331,-88.68581,0.001067912,-0.1257102,0.09433498,0,0.3,0,0,0,0
638224439533618224,-12.03914,56.92593,45.34039,-28.26642,-12.69601,-141.5034,-56.80307,-0.4675641,5.229787,-69.35696,-8.374548,-36.90935,0,0,0,-34.96285,41.36189,-4.413466,-121.7539,-110.5331,-88.68581,0.001067912,-0.1257102,0.09433498,0,0.3,0,0,0,0
638224439533958114,-14.91346,56.17782,45.03687,-32.73438,-12.62277,-141.7232,-56.80307,-0.4675641,5.229787,-69.35696,-8.374548,-36.90935,0,0,0,-43.38526,39.90107,-5.450182,-121.7539,-110.5331,-88.68581,0.001067912,-0.1257102,0.09433498,0,0.3,0,0,0,0
638224439534407969,-17.43437,54.12054,43.49596,-37.27558,-11.89032,-141.4302,-56.80307,-0.4675641,5.229787,-69.35696,-8.374548,-36.90935,0,0,0,-50.91605,34.66193,-6.217601,-121.7539,-110.5331,-88.68581,0.001067912,-0.1257102,0.09433498,0,0.3,0,0,0,0
638224439534737865,-18.35321,52.39055,41.62818,-38.88697,-10.86488,-138.6469,-56.80307,-0.4675641,5.229787,-69.35696,-8.374548,-36.90935,0,0,0,-53.51721,29.31308,-7.03161,-121.7539,-110.5331,-88.68581,0.001067912,-0.1257102,0.09433498,0,0.3,0,0,0,0
638224439535087748,-18.70661,51.17488,40.27403,-39.39969,-10.05919,-136.0101,-56.80307,-0.4675641,5.229787,-69.35696,-8.374548,-36.83611,0,0,0,-54.46072,25.49718,-7.51384,-121.7539,-110.5331,-88.68581,0.001067912,-0.1257102,0.09433498,0,0.3,0,0,0,0
638224439535437643,-19.13069,48.20586,37.33228,-39.17995,-7.788587,-126.3417,-56.80307,-0.4675641,5.229787,-69.35696,-8.374548,-36.83611,0,0,0,-55.62795,16.73746,-7.983912,-121.7539,-110.5331,-88.68581,0.001067912,-0.1257102,0.09433498,0,0.3,0,0,0,0
638224439535767537,-19.13069,44.7225,33.78349,-37.56856,-5.00527,-115.5747,-56.80307,-0.4675641,5.229787,-69.35696,-8.374548,-36.83611,0,0,0,-55.35204,6.351757,-8.779305,-121.7539,-110.5331,-88.68581,0.001067912,-0.1257102,0.09433498,0,0.3,0,0,0,0
638224439536117424,-19.13069,40.5378,30.07128,-35.59094,-1.489502,-107.4445,-56.80307,-0.4675641,5.229787,-69.35696,-8.374548,-36.83611,0,0,0,-55.11058,-5.380669,-9.475387,-121.7539,-110.5331,-88.68581,0.001067912,-0.1257102,0.09433498,0,0.3,0,0,0,0
638224439536457319,-19.13069,38.31688,28.46032,-34.56551,0.6346079,-104.6611,-56.80307,-0.4675641,5.229787,-69.35696,-8.374548,-36.83611,0,0,0,-55.11449,-11.20595,-9.46411,-121.7539,-110.5331,-88.68581,0.001067912,-0.1257102,0.09433498,0,0.3,0,0,0,0
638224439536797207,-19.10713,33.68799,25.65865,-32.58789,5.102563,-100.0467,-56.80307,-0.4675641,5.229787,-69.35696,-8.374548,-36.90935,0,0,0,-55.22093,-22.88508,-8.94561,-121.7539,-110.5331,-88.68581,0.001067912,-0.1257102,0.09433498,0,0.3,0,0,0,0
638224439537127103,-19.10713,29.33965,23.55739,-30.83001,9.717009,-96.1647,-56.80307,-0.4675641,5.229787,-69.35696,-8.374548,-36.90935,0,0,0,-55.49675,-33.54704,-8.149405,-121.7539,-110.5331,-88.68581,0.001067912,-0.1257102,0.09433498,0,0.3,0,0,0,0
638224439537476976,-19.10713,27.32912,22.67019,-30.09755,11.91436,-94.69979,-56.80307,-0.4675641,5.229787,-69.35696,-8.374548,-36.90935,0,0,0,-55.60204,-38.47607,-7.845458,-121.7539,-110.5331,-88.68581,0.001067912,-0.1257102,0.09433498,0,0.3,0,0,0,0
638224439537816883,-19.10713,23.21456,21.40944,-28.99888,16.16258,-92.13622,-56.80307,-0.4675641,5.229787,-69.35696,-8.374548,-36.90935,0,0,0,-56.04969,-48.23498,-6.553249,-121.7539,-110.5331,-88.68581,0.001067912,-0.1257102,0.09433498,0,0.3,0,0,0,0
638224439538156759,-19.10713,19.3104,20.38216,-27.97344,20.11782,-90.15859,-56.80307,-0.4675641,5.229787,-69.35696,-8.374548,-36.90935,0,0,0,-56.39696,-57.55409,-5.550796,-121.7539,-110.5331,-88.68581,0.001067912,-0.1257102,0.09433498,0,0.3,0,0,0,0
638224439538506666,-19.10713,15.6634,19.70509,-26.80152,23.78008,-87.37527,-56.80307,-0.4675641,5.229787,-69.35696,-8.374548,-36.83611,0,0,0,-56.74713,-66.18855,-4.539977,-121.7539,-110.5331,-88.68581,0.001067912,-0.1257102,0.09433498,0,0.3,0,0,0,0
638224439538936531,-19.10713,12.18004,18.98133,-25.11688,26.70989,-83.49328,-56.80307,-0.4675641,5.229787,-69.35696,-8.374548,-36.90935,0,0,0,-56.86525,-74.61428,-4.199003,-121.7539,-110.5331,-88.68581,0.001067912,-0.1257102,0.09433498,0,0.3,0,0,0,0
638224439539267745,-19.10713,10.91762,18.65447,-24.38443,27.58883,-82.24812,-56.80307,-0.4675641,5.229787,-69.35696,-8.374548,-36.90935,0,0,0,-56.82209,-77.73828,-4.323595,-121.7539,-110.5331,-88.68581,0.001067912,-0.1257102,0.09433498,0,0.3,0,0,0,0
638224439539607503,-19.13069,8.46291,17.81396,-22.69979,29.27347,-79.61128,-56.80307,-0.4675641,5.229787,-69.35696,-8.374548,-36.90935,0,0,0,-56.59577,-83.98151,-5.193841,-121.7539,-110.5331,-88.68581,0.001067912,-0.1257102,0.09433498,0,0.3,0,0,0,0
638224439539937544,-19.15425,6.38225,16.99681,-20.79542,30.88486,-77.41393,-56.80307,-0.4675641,5.229787,-69.35696,-8.374548,-36.90935,0,0,0,-56.27267,-89.35208,-6.340485,-121.7539,-110.5331,-88.68581,0.001067912,-0.1257102,0.09433498,0,0.3,0,0,0,0
638224439540277743,-19.24849,5.564013,16.81003,-19.91648,31.47083,-76.46174,-56.80307,-0.4675641,5.229787,-69.35696,-8.374548,-36.90935,0,0,0,-56.46728,-91.37248,-6.638843,-121.7539,-110.5331,-88.68581,0.001067912,-0.1257102,0.09433498,0,0.3,0,0,0,0
638224439540617486,-19.76681,5.002935,16.73999,-18.74455,32.42301,-74.7771,-56.80307,-0.4675641,5.229787,-69.35696,-8.374548,-36.90935,0,0,0,-57.91573,-92.71983,-7.189997,-121.7539,-110.5331,-88.68581,0.001067912,-0.1257102,0.09433498,0,0.3,0,0,0,0
638224439540957370,-20.68565,6.008198,16.85673,-19.33051,33.15546,-73.97141,-56.80307,-0.4675641,5.229787,-69.35696,-8.374548,-36.90935,0,0,0,-60.50524,-90.31248,-8.106129,-121.7539,-110.5331,-88.68581,0.001067912,-0.1257102,0.09433498,0,0.3,0,0,0,0
638224439541307259,-21.91076,8.907095,17.20694,-21.16164,33.30195,-73.67843,-56.80307,-0.4675641,5.229787,-69.35696,-8.374548,-36.83611,0,0,0,-63.88161,-83.38465,-9.52573,-121.7539,-110.5331,-88.68581,0.001067912,-0.1257102,0.09433498,0,0.3,0,0,0,0
638224439541637162,-22.61756,11.10465,17.41706,-22.48005,33.00897,-73.67843,-56.80307,-0.4675641,5.229787,-69.35696,-8.374548,-36.83611,0,0,0,-65.67377,-78.20265,-10.71511,-121.7539,-110.5331,-88.68581,0.001067912,-0.1257102,0.09433498,0,0.3,0,0,0,0
638224439541977199,-24.29032,17.22974,18.16417,-25.70284,31.17784,-75.28983,-56.80307,-0.4675641,5.229787,-69.35696,-8.374548,-36.90935,0,0,0,-69.49379,-63.85602,-14.36895,-121.7539,-110.5331,-88.68581,0.001067912,-0.1257102,0.09433498,0,0.3,0,0,0,0
638224439542316951,-25.51544,23.19118,19.79848,-29.14537,28.10155,-77.70691,-56.80307,-0.4675641,5.229787,-69.35696,-8.374548,-36.90935,0,0,0,-72.25565,-49.60437,-16.96786,-121.7539,-110.5331,-88.68581,0.001067912,-0.1257102,0.09433498,0,0.3,0,0,0,0
638224439542656841,-25.91596,26.39399,21.22267,-30.9765,25.83095,-78.73235,-56.80307,-0.4675641,5.229787,-69.35696,-8.374548,-36.83611,0,0,0,-73.30293,-41.67672,-17.49551,-121.7539,-110.5331,-88.68581,0.001067912,-0.1257102,0.09433498,0,0.3,0,0,0,0
638224439542996721,-26.08088,32.33206,24.88819,-34.12604,20.85028,-79.97752,-56.80307,-0.4675641,5.229787,-69.35696,-8.374548,-36.90935,0,0,0,-74.20936,-26.29696,-16.74179,-121.7539,-110.5331,-88.68581,0.001067912,-0.1257102,0.09433498,0,0.3,0,0,0,0
638224439543436590,-25.91596,38.17661,29.65103,-36.61637,15.50338,-80.19725,-56.80307,-0.4675641,5.229787,-69.35696,-8.374548,-36.90935,0,0,0,-74.64769,-10.11648,-14.72806,-121.7539,-110.5331,-88.68581,0.001067912,-0.1257102,0.09433498,0,0.3,0,0,0,0
638224439543776628,-25.72748,43.64711,35.13763,-38.88697,9.8635,-77.56042,-56.80307,-0.4675641,5.229787,-69.35696,-8.301303,-36.90935,0,0,0,-75.20251,6.340252,-12.28231,-121.7539,-110.5331,-88.68581,0.001067912,-0.1257102,0.09433498,0,0.3,0,0,0,0
638224439544147538,-25.32696,48.72018,41.23127,-41.37731,3.63766,-73.16571,-56.80307,-0.4675641,5.229787,-69.35696,-8.374548,-36.90935,0,0,0,-75.23292,23.27548,-9.387159,-121.7539,-110.5331,-88.68581,0.001067912,-0.1257102,0.09433498,0,0.3,0,0,0,0
638224439544497296,-24.78508,52.90487,47.23152,-44.45361,-2.88116,-68.47802,-56.80307,-0.4675641,5.229787,-69.35696,-8.374548,-36.90935,0,0,0,-74.75514,39.165,-6.454338,-121.7539,-110.5331,-88.68581,0.001067912,-0.1257102,0.09433498,0,0.3,0,0,0,0
638224439544837169,-24.40812,54.54135,49.9398,-46.21149,-6.030703,-66.20742,-56.80307,-0.4675641,5.229787,-69.35696,-8.374548,-36.90935,0,0,0,-74.14247,46.14515,-4.965383,-121.7539,-110.5331,-88.68581,0.001067912,-0.1257102,0.09433498,0,0.3,0,0,0,0
638224439545168705,-23.32436,57.04282,55.23963,-50.09349,-12.25654,-60.78728,-56.80307,-0.4675641,5.229787,-69.35696,-8.374548,-36.83611,0,0,0,-72.09871,59.21207,-1.134416,-121.7539,-110.5331,-88.68581,0.001067912,-0.1257102,0.09433498,0,0.3,0,0,0,0
638224439545518462,-22.42908,58.42213,58.74172,-52.95005,-16.43152,-56.46581,-56.80307,-0.4675641,5.229787,-69.35696,-8.374548,-36.83611,0,0,0,-70.13543,67.75988,1.566459,-121.7539,-110.5331,-88.68581,0.001067912,-0.1257102,0.09433498,0,0.3,0,0,0,0
638224439545858353,-21.8872,59.12348,60.6562,-54.70793,-18.55563,-53.90223,-56.80307,-0.4675641,5.229787,-69.35696,-8.374548,-36.83611,0,0,0,-68.843,72.45296,3.012936,-121.7539,-110.5331,-88.68581,0.001067912,-0.1257102,0.09433498,0,0.3,0,0,0,0
638224439546198243,-20.82701,60.29239,64.1116,-58.07721,-21.9249,-48.84832,-56.80307,-0.4675641,5.229787,-69.35696,-8.374548,-36.90935,0,0,0,-66.15055,80.94998,5.545604,-121.7539,-110.5331,-88.68581,0.001067912,-0.1257102,0.09433498,0,0.3,0,0,0,0
638224439546528257,-19.69613,61.41454,67.26347,-61.37324,-25.0012,-43.20844,-56.80307,-0.4675641,5.229787,-69.35696,-8.374548,-36.83611,0,0,0,-62.95463,88.90623,7.512921,-121.7539,-110.5331,-88.68581,0.001067912,-0.1257102,0.09433498,0,0.3,0,0,0,0
638224439546878027,-19.13069,61.92886,68.59427,-63.05788,-26.31961,-40.49837,-56.80307,-0.4675641,5.229787,-69.35696,-8.374548,-36.90935,0,0,0,-61.25214,92.3445,8.22968,-121.7539,-110.5331,-88.68581,0.001067912,-0.1257102,0.09433498,0,0.3,0,0,0,0
638224439547207915,-17.97625,62.91074,71.23251,-65.98769,-28.73671,-35.81068,-56.80307,-0.4675641,5.229787,-69.35696,-8.374548,-36.90935,0,0,0,-57.70773,99.16876,9.506945,-121.7539,-110.5331,-88.68581,0.001067912,-0.1257102,0.09433498,0,0.3,0,0,0,0
638224439547547801,-16.49197,63.93939,73.66063,-68.99074,-30.78757,-31.12299,-56.80307,-0.4675641,5.229787,-69.35696,-8.374548,-36.83611,0,0,0,-52.95739,105.6274,10.52317,-121.7539,-110.5331,-88.68581,0.001067912,-0.1257102,0.09433498,0,0.3,0,0,0,0
638224439547967678,-14.25378,65.36546,75.80857,-71.99379,-33.13141,-26.06907,-56.80307,-0.4675641,5.229787,-69.35696,-8.374548,-36.83611,0,0,0,-45.51683,111.8707,10.82345,-121.7539,-110.5331,-88.68581,0.001067912,-0.1257102,0.09433498,0,0.3,0,0,0,0
638224439548297559,-12.32186,66.6045,76.99928,-73.3122,-34.74281,-22.91953,-56.80307,-0.4675641,5.229787,-69.35696,-8.374548,-36.83611,0,0,0,-39.02758,115.7379,10.3191,-121.7539,-110.5331,-88.68581,0.001067912,-0.1257102,0.09433498,0,0.3,0,0,0,0
638224439548637457,-10.97894,67.39936,77.72305,-73.82492,-35.98798,-21.23489,-56.80307,-0.4675641,5.229787,-69.35696,-8.374548,-36.83611,0,0,0,-34.57541,118.1043,9.87478,-121.7539,-110.5331,-88.68581,0.001067912,-0.1257102,0.09433498,0,0.3,0,0,0,0
638224439548977346,-7.821907,69.10597,79.14723,-74.70387,-38.77129,-17.93885,-56.80307,-0.4675641,5.229787,-69.35696,-8.374548,-36.83611,0,0,0,-24.29597,122.8232,8.511971,-121.7539,-110.5331,-88.68581,0.001067912,-0.1257102,0.09433498,0,0.3,0,0,0,0
638224439549317237,-4.382153,70.46191,80.29124,-75.21658,-41.99408,-15.7415,-56.80307,-0.4675641,5.229787,-69.35696,-8.374548,-36.90935,0,0,0,-13.4507,126.5335,7.172211,-121.7539,-110.5331,-88.68581,0.001067912,-0.1257102,0.09433498,0,0.3,0,0,0,0
638224439549647134,-2.332436,71.04636,80.80489,-75.07008,-44.04494,-15.00905,-56.80307,-0.4675641,5.229787,-69.35696,-8.374548,-36.90935,0,0,0,-7.119975,128.1611,6.453978,-121.7539,-110.5331,-88.68581,0.001067912,-0.1257102,0.09433498,0,0.3,0,0,0,0
638224439549997039,1.908357,71.93473,81.52865,-73.16571,-48.00018,-14.49633,-56.80307,-0.4675641,5.229787,-69.35696,-8.447793,-36.90935,0,0,0,5.769289,130.4819,4.800879,-121.7539,-110.5331,-88.68581,0.001067912,-0.1257102,0.09433498,0,0.3,0,0,0,0
638224439550346911,6.29051,72.44905,82.27576,-68.47802,-52.83437,-17.49938,-56.80307,-0.4675641,5.229787,-69.35696,-8.374548,-36.90935,0,0,0,18.88458,132.5695,2.96452,-121.7539,-110.5331,-88.68581,0.001067912,-0.1257102,0.09433498,0,0.3,0,0,0,0
638224439550686830,8.481586,72.54256,82.41585,-64.37629,-55.17821,-21.16164,-56.80307,-0.4675641,5.229787,-69.35696,-8.374548,-36.90935,0,0,0,25.39629,132.9581,1.954927,-121.7539,-110.5331,-88.68581,0.001067912,-0.1257102,0.09433498,0,0.3,0,0,0,0
638224439551026694,14.04174,72.51919,82.36916,-44.01414,-59.64616,-47.74964,-56.80307,-0.4675641,5.229787,-69.35696,-8.374548,-36.90935,0,0,0,41.78687,132.834,-1.270624,-121.7539,-110.5331,-88.68581,0.001067912,-0.1257102,0.09433498,0,0.3,0,0,0,0
638224439551356586,17.26945,72.30878,82.20573,-26.36205,-60.81809,-82.3946,-56.80307,-0.4675641,5.229787,-69.35696,-8.374548,-36.83611,0,0,0,51.25131,132.3091,-3.491441,-121.7539,-110.5331,-88.68581,0.001067912,-0.1257102,0.09433498,0,0.3,0,0,0,0
638224439551696478,21.6516,71.30352,81.92556,-1.165711,-60.30537,-136.889,-56.80307,-0.4675641,5.229787,-69.35696,-8.374548,-36.83611,0,0,0,64.48493,130.9328,-5.907253,-121.7539,-110.5331,-88.68581,0.001067912,-0.1257102,0.09433498,0,0.3,0,0,0,0
638224439552036389,23.55996,70.48528,81.59869,9.821064,-59.13345,-141.1372,-56.80307,-0.4675641,5.229787,-69.35696,-8.374548,-36.90935,0,0,0,70.53436,129.5566,-6.595222,-121.7539,-110.5331,-88.68581,0.001067912,-0.1257102,0.09433498,0,0.3,0,0,0,0
638224439552377160,26.45784,68.56827,80.38464,24.4701,-55.76417,-141.8697,-56.80307,-0.4675641,5.229787,-69.35696,-8.374548,-36.90935,0,0,0,80.2869,125.2055,-7.022205,-121.7539,-110.5331,-88.68581,0.001067912,-0.1257102,0.09433498,0,0.3,0,0,0,0
638224439552717052,28.69603,66.79153,79.75426,31.57488,-52.02867,-141.9429,-56.80307,-0.4675641,5.229787,-69.35696,-8.374548,-36.90935,0,0,0,88.24137,122.1899,-7.147344,-121.7539,-110.5331,-88.68581,0.001067912,-0.1257102,0.09433498,0,0.3,0,0,0,0
638224439553056933,29.61487,65.97329,79.63753,33.5525,-50.41727,-141.9429,-56.80307,-0.4675641,5.229787,-69.35696,-8.374548,-36.90935,0,0,0,91.65331,121.1597,-7.108463,-121.7539,-110.5331,-88.68581,0.001067912,-0.1257102,0.09433498,0,0.3,0,0,0,0
638224439553406830,31.45255,64.26668,79.24062,36.04284,-47.7072,-141.9429,-56.80307,-0.4675641,5.229787,-69.35696,-8.374548,-36.90935,0,0,0,98.56863,118.5805,-7.20118,-121.7539,-110.5331,-88.68581,0.001067912,-0.1257102,0.09433498,0,0.3,0,0,0,0
638224439553746741,33.2431,62.2094,78.30673,37.43449,-45.07038,-141.9429,-56.80307,-0.4675641,5.229787,-69.35696,-8.374548,-36.90935,0,0,0,105.6673,114.2927,-7.138238,-121.7539,-110.5331,-88.68581,0.001067912,-0.1257102,0.09433498,0,0.3,0,0,0,0
638224439554076623,34.51534,60.33914,77.3028,37.58098,-42.94627,-141.9429,-56.80307,-0.4675641,5.229787,-69.35696,-8.374548,-36.90935,0,0,0,111.1038,109.917,-6.785719,-121.7539,-110.5331,-88.68581,0.001067912,-0.1257102,0.09433498,0,0.3,0,0,0,0
638224439554426396,35.66978,58.28186,76.01869,37.14151,-40.74891,-141.9429,-56.80307,-0.4675641,5.229787,-69.35696,-8.374548,-36.83611,0,0,0,116.3351,104.5654,-6.272258,-121.7539,-110.5331,-88.68581,0.001067912,-0.1257102,0.09433498,0,0.3,0,0,0,0
638224439554776279,37.15406,55.21932,74.03418,36.04284,-37.37963,-142.0162,-56.80307,-0.4675641,5.229787,-69.35696,-8.374548,-36.90935,0,0,0,123.3733,96.19613,-5.540761,-121.7539,-110.5331,-88.68581,0.001067912,-0.1257102,0.09433498,0,0.3,0,0,0,0
638224439555116172,38.59122,52.0165,71.86288,34.65118,-33.71738,-142.0162,-56.80307,-0.4675641,5.229787,-69.35696,-8.374548,-36.83611,0,0,0,130.2364,86.94407,-5.154342,-121.7539,-110.5331,-88.68581,0.001067912,-0.1257102,0.09433498,0,0.3,0,0,0,0
638224439555516043,40.05193,48.43964,68.68765,32.82005,-29.39591,-142.0162,-56.80307,-0.4675641,5.229787,-69.35696,-8.374548,-36.90935,0,0,0,136.8661,74.66378,-5.539294,-121.7539,-110.5331,-88.68581,0.001067912,-0.1257102,0.09433498,0,0.3,0,0,0,0
638224439555855937,40.64093,46.82654,67.07669,31.9411,-27.41829,-142.0162,-56.80307,-0.4675641,5.229787,-69.35696,-8.374548,-36.90935,0,0,0,139.4197,68.6606,-5.921256,-121.7539,-110.5331,-88.68581,0.001067912,-0.1257102,0.09433498,0,0.3,0,0,0,0
638224439556198272,41.74825,43.08603,63.20105,29.89024,-22.7306,-142.0162,-56.80307,-0.4675641,5.229787,-69.35696,-8.374548,-36.90935,0,0,0,144.103,54.31847,-6.886271,-121.7539,-110.5331,-88.68581,0.001067912,-0.1257102,0.09433498,0,0.3,0,0,0,0
638224439556538164,42.66709,39.0416,59.23202,27.69288,-17.82317,-142.0162,-56.80307,-0.4675641,5.229787,-69.35696,-8.374548,-36.90935,0,0,0,147.8497,39.12819,-7.942039,-121.7539,-110.5331,-88.68581,0.001067912,-0.1257102,0.09433498,0,0.3,0,0,0,0
638224439556878054,43.06761,36.98432,57.27084,26.66745,-15.25959,-142.0162,-56.80307,-0.4675641,5.229787,-69.35696,-8.374548,-36.90935,0,0,0,149.3409,31.47474,-8.579937,-121.7539,-110.5331,-88.68581,0.001067912,-0.1257102,0.09433498,0,0.3,0,0,0,0
638224439557217943,43.70373,32.823,53.48859,24.83632,-10.20568,-142.0162,-56.80307,-0.4675641,5.229787,-69.35696,-8.374548,-36.83611,0,0,0,151.4787,16.2908,-9.857216,-121.7539,-110.5331,-88.68581,0.001067912,-0.1257102,0.09433498,0,0.3,0,0,0,0
638224439557557842,43.84509,28.94222,50.03319,23.37142,-5.444741,-142.0162,-56.80307,-0.4675641,5.229787,-69.35696,-8.374548,-36.90935,0,0,0,151.6326,2.225166,-10.47788,-121.7539,-110.5331,-88.68581,0.001067912,-0.1257102,0.09433498,0,0.3,0,0,0,0
638224439557897729,43.84509,25.17833,47.23152,21.76003,-0.8302955,-142.0162,-56.80307,-0.4675641,5.229787,-69.35696,-8.374548,-36.83611,0,0,0,151.4078,-10.46764,-10.7119,-121.7539,-110.5331,-88.68581,0.001067912,-0.1257102,0.09433498,0,0.3,0,0,0,0
638224439558237619,43.84509,23.26131,46.18089,20.95433,1.440305,-142.0162,-56.80307,-0.4675641,5.229787,-69.35696,-8.374548,-36.90935,0,0,0,151.5141,-16.3161,-10.6012,-121.7539,-110.5331,-88.68581,0.001067912,-0.1257102,0.09433498,0,0.3,0,0,0,0
638224439558577520,43.84509,19.68445,44.47654,19.56267,5.688524,-142.0162,-56.80307,-0.4675641,5.229787,-69.35696,-8.374548,-36.83611,0,0,0,151.693,-26.88264,-10.41495,-121.7539,-110.5331,-88.68581,0.001067912,-0.1257102,0.09433498,0,0.3,0,0,0,0
638224439558917403,43.75085,16.87906,42.79554,18.61049,8.984557,-142.0162,-56.80307,-0.4675641,5.229787,-69.35696,-8.374548,-36.90935,0,0,0,150.8913,-35.78142,-10.7316,-121.7539,-110.5331,-88.68581,0.001067912,-0.1257102,0.09433498,0,0.3,0,0,0,0
638224439559257292,43.63305,15.64002,41.67487,18.17101,10.6692,-142.0162,-56.80307,-0.4675641,5.229787,-69.35696,-8.301303,-36.90935,0,0,0,149.7915,-40.30294,-11.235,-121.7539,-110.5331,-88.68581,0.001067912,-0.1257102,0.09433498,0,0.3,0,0,0,0
638224439559597215,43.23253,13.44247,39.2701,17.21883,13.96523,-142.0162,-56.80307,-0.4675641,5.229787,-69.35696,-8.374548,-36.90935,0,0,0,146.653,-48.88593,-12.35799,-121.7539,-110.5331,-88.68581,0.001067912,-0.1257102,0.09433498,0,0.3,0,0,0,0
638224439560027183,42.71421,11.17478,36.95872,16.19339,17.11477,-142.0162,-56.80307,-0.4675641,5.229787,-69.35696,-8.374548,-36.90935,0,0,0,143.1281,-57.36226,-13.32068,-121.7539,-110.5331,-88.68581,0.001067912,-0.1257102,0.09433498,0,0.3,0,0,0,0
638224439560366949,42.33725,8.673313,34.32048,15.3877,20.92352,-142.0894,-56.80307,-0.4675641,5.229787,-69.35696,-8.374548,-36.83611,0,0,0,139.4202,-66.67411,-15.32912,-121.7539,-110.5331,-88.68581,0.001067912,-0.1257102,0.09433498,0,0.3,0,0,0,0
638224439560716825,41.58333,5.4705,31.14525,15.31445,25.46472,-141.8697,-56.80307,-0.4675641,5.229787,-69.35696,-8.374548,-36.83611,0,0,0,133.8783,-78.06609,-17.4708,-121.7539,-110.5331,-88.68581,0.001067912,-0.1257102,0.09433498,0,0.3,0,0,0,0
638224439561056717,40.82941,3.717134,29.81446,15.53419,27.88181,-141.8697,-56.80307,-0.4675641,5.229787,-69.35696,-8.374548,-36.83611,0,0,0,130.35,-83.70462,-17.49468,-121.7539,-110.5331,-88.68581,0.001067912,-0.1257102,0.09433498,0,0.3,0,0,0,0
638224439561386610,38.44986,0.233782,27.80659,16.0469,33.15546,-139.7456,-56.80307,-0.4675641,5.229787,-69.35696,-8.374548,-36.90935,0,0,0,121.6019,-94.05762,-15.20049,-121.7539,-110.5331,-88.68581,0.001067912,-0.1257102,0.09433498,0,0.3,0,0,0,0
638224439561726635,34.75095,-1.846878,25.75204,15.82717,38.64885,-133.0803,-56.80307,-0.4675641,5.229787,-69.35696,-8.374548,-36.90935,0,0,0,108.9964,-101.0537,-11.23789,-121.7539,-110.5331,-88.68581,0.001067912,-0.1257102,0.09433498,0,0.3,0,0,0,0
638224439562076400,32.91327,-1.776743,23.41731,15.3877,40.99269,-130.4434,-56.80307,-0.4675641,5.229787,-69.35696,-8.374548,-36.90935,0,0,0,101.2201,-103.1511,-11.96692,-121.7539,-110.5331,-88.68581,0.001067912,-0.1257102,0.09433498,0,0.3,0,0,0,0
638224439562406519,29.56775,-1.753365,21.3394,13.7763,45.09443,-124.5838,-56.80307,-0.4675641,5.229787,-69.35696,-8.374548,-36.83611,0,0,0,89.71584,-104.9378,-10.21439,-121.7539,-110.5331,-88.68581,0.001067912,-0.1257102,0.09433498,0,0.3,0,0,0,0
638224439562746403,26.38716,-1.753365,19.91522,12.23815,48.17072,-119.6031,-56.80307,-0.4675641,5.229787,-69.35696,-8.374548,-36.83611,0,0,0,79.42508,-106.1055,-8.259114,-121.7539,-110.5331,-88.68581,0.001067912,-0.1257102,0.09433498,0,0.3,0,0,0,0
638224439563086294,25.11492,-1.753365,19.00467,11.43246,49.34265,-118.2115,-56.80307,-0.4675641,5.229787,-69.35696,-8.374548,-36.83611,0,0,0,75.00294,-106.8115,-8.34432,-121.7539,-110.5331,-88.68581,0.001067912,-0.1257102,0.09433498,0,0.3,0,0,0,0
638224439563426174,22.68824,-1.753365,16.59991,10.18729,51.02729,-114.769,-56.80307,-0.4675641,5.229787,-69.35696,-8.374548,-36.83611,0,0,0,66.10564,-108.5225,-10.22826,-121.7539,-110.5331,-88.68581,0.001067912,-0.1257102,0.09433498,0,0.3,0,0,0,0
638224439563756078,20.12021,-1.753365,13.37798,8.795631,52.19921,-112.7181,-56.80307,-0.4675641,5.229787,-69.35696,-8.374548,-36.90935,0,0,0,56.46311,-110.4617,-14.22575,-121.7539,-110.5331,-88.68581,0.001067912,-0.1257102,0.09433498,0,0.3,0,0,0,0
638224439564105970,17.03385,-1.753365,9.759157,6.891257,53.00491,-112.6449,-56.80307,-0.4675641,5.229787,-69.35696,-8.374548,-36.90935,0,0,0,45.66628,-112.1504,-19.29734,-121.7539,-110.5331,-88.68581,0.001067912,-0.1257102,0.09433498,0,0.3,0,0,0,0
638224439564435891,15.19618,-1.753365,8.334974,5.353109,53.29788,-114.1098,-56.80307,-0.4675641,5.229787,-69.35696,-8.374548,-36.90935,0,0,0,40.00496,-112.6716,-21.06844,-121.7539,-110.5331,-88.68581,0.001067912,-0.1257102,0.09433498,0,0.3,0,0,0,0
638224439564775756,11.30878,-1.753365,6.23372,0.5921727,53.66411,-120.8483,-56.80307,-0.4675641,5.229787,-69.35696,-8.374548,-36.83611,0,0,0,28.97664,-113.2917,-23.45166,-121.7539,-110.5331,-88.68581,0.001067912,-0.1257102,0.09433498,0,0.3,0,0,0,0
638224439565115646,7.397828,-1.753365,4.716148,-4.97446,53.88385,-128.832,-56.80307,-0.4675641,5.229787,-69.35696,-8.374548,-36.90935,0,0,0,18.57354,-113.6286,-25.29922,-121.7539,-110.5331,-88.68581,0.001067912,-0.1257102,0.09433498,0,0.3,0,0,0,0
638224439565455539,5.136071,-1.753365,4.132466,-8.343738,53.95709,-135.6438,-56.80307,-0.4675641,5.229787,-69.35696,-8.374548,-36.90935,0,0,0,12.79234,-113.7334,-26.02663,-121.7539,-110.5331,-88.68581,0.001067912,-0.1257102,0.09433498,0,0.3,0,0,0,0
638224439565795424,0.7067988,-1.753365,3.058492,-16.10773,54.17683,-141.5767,-56.80307,-0.4675641,5.229787,-69.35696,-8.374548,-36.90935,0,0,0,1.731957,-113.8902,-27.95818,-121.7539,-110.5331,-88.68581,0.001067912,-0.1257102,0.09433498,0,0.3,0,0,0,0
638224439566135321,-3.769594,-1.729987,2.334727,-24.89715,54.10358,-141.8697,-56.80307,-0.4675641,5.229787,-69.35696,-8.374548,-36.90935,0,0,0,-9.120161,-113.9151,-29.92858,-121.7539,-110.5331,-88.68581,0.001067912,-0.1257102,0.09433498,0,0.3,0,0,0,0
638224439566485221,-5.630831,-1.729987,2.101254,-28.85239,54.03033,-141.8697,-56.80307,-0.4675641,5.229787,-69.35696,-8.374548,-36.90935,0,0,0,-13.55786,-113.9361,-30.83817,-121.7539,-110.5331,-88.68581,0.001067912,-0.1257102,0.09433498,0,0.3,0,0,0,0
638224439566815109,-9.188385,-1.753365,1.44753,-36.39664,53.44437,-141.9429,-56.80307,-0.4675641,5.229787,-69.35696,-8.374548,-36.90935,0,0,0,-21.82141,-114.0376,-33.4473,-121.7539,-110.5331,-88.68581,0.001067912,-0.1257102,0.09433498,0,0.3,0,0,0,0
638224439567154999,-12.43966,-1.753365,0.9105434,-42.69572,52.63868,-142.0162,-56.80307,-0.4675641,5.229787,-69.35696,-8.374548,-36.83611,0,0,0,-29.16813,-114.0633,-36.12222,-121.7539,-110.5331,-88.68581,0.001067912,-0.1257102,0.09433498,0,0.3,0,0,0,0
638224439567574865,-16.39773,-1.753365,0.0700418,-48.55533,51.39351,-142.0162,-56.80307,-0.4675641,5.229787,-69.35696,-8.374548,-36.90935,0,0,0,-37.67356,-114.08,-40.3275,-121.7539,-110.5331,-88.68581,0.001067912,-0.1257102,0.09433498,0,0.3,0,0,0,0
638224439567924750,-19.01289,-1.776743,-0.2334726,-52.14435,50.36808,-142.0162,-56.80307,-0.4675641,5.229787,-69.35696,-8.374548,-36.90935,0,0,0,-43.24496,-114.1334,-42.84922,-121.7539,-110.5331,-88.68581,0.001067912,-0.1257102,0.09433498,0,0.3,0,0,0,0
638224439568265473,-20.47361,-1.776743,-0.3735563,-54.04872,49.70887,-142.0894,-56.80307,-0.4675641,5.229787,-69.35696,-8.374548,-36.83611,0,0,0,-46.31609,-114.1317,-44.29781,-121.7539,-110.5331,-88.68581,0.001067912,-0.1257102,0.09433498,0,0.3,0,0,0,0
638224439568605361,-23.60708,-1.776743,-0.5369871,-58.00396,48.39046,-142.0894,-56.80307,-0.4675641,5.229787,-69.35696,-8.374548,-36.90935,0,0,0,-52.87549,-114.1287,-47.36355,-121.7539,-110.5331,-88.68581,0.001067912,-0.1257102,0.09433498,0,0.3,0,0,0,0
638224439568945246,-26.85836,-1.776743,-0.5836816,-61.37324,47.07204,-142.0162,-56.80307,-0.4675641,5.229787,-69.35696,-8.374548,-36.90935,0,0,0,-59.60303,-114.1276,-50.65407,-121.7539,-110.5331,-88.68581,0.001067912,-0.1257102,0.09433498,0,0.3,0,0,0,0
638224439569285067,-28.64891,-1.776743,-0.5836816,-63.20437,46.33959,-142.0894,-56.80307,-0.4675641,5.229787,-69.35696,-8.301303,-36.83611,0,0,0,-63.25146,-114.1276,-52.57389,-121.7539,-110.5331,-88.68581,0.001067912,-0.1257102,0.09433498,0,0.3,0,0,0,0
638224439569614946,-32.13579,-1.776743,-0.5836816,-66.28067,44.65495,-142.0162,-56.80307,-0.4675641,5.229787,-69.28372,-8.374548,-36.90935,0,0,0,-70.17585,-114.1276,-56.63517,-121.7539,-110.5331,-88.68581,0.001067912,-0.1257102,0.09433498,0,0.3,0,0,0,0
638224439569964837,-35.97606,-1.776743,-0.5603344,-69.06399,42.53085,-141.4302,-56.80307,-0.4675641,5.229787,-69.35696,-8.447793,-36.83611,0,0,0,-77.53233,-114.1281,-61.54208,-121.7539,-110.5331,-88.68581,0.001067912,-0.1257102,0.09433498,0,0.3,0,0,0,0
638224439570314729,-39.51006,-1.753365,-0.350209,-71.33459,40.40673,-135.2044,-56.80307,-0.4675641,5.229787,-69.35696,-8.374548,-36.83611,0,0,0,-84.28081,-114.0777,-66.14575,-121.7539,-110.5331,-88.68581,0.001067912,-0.1257102,0.09433498,0,0.3,0,0,0,0
638224439570644619,-41.84249,-1.753365,-0.04669453,-72.79948,38.86858,-130.6632,-56.80307,-0.4675641,5.229787,-69.35696,-8.374548,-36.90935,0,0,0,-88.84166,-114.0801,-69.13419,-121.7539,-110.5331,-88.68581,0.001067912,-0.1257102,0.09433498,0,0.3,0,0,0,0
638224439570984507,-44.15137,-1.753365,0.1634309,-74.19114,37.03746,-126.8544,-56.80307,-0.4675641,5.229787,-69.35696,-8.374548,-36.83611,0,0,0,-93.10725,-114.0796,-72.44298,-121.7539,-110.5331,-88.68581,0.001067912,-0.1257102,0.09433498,0,0.3,0,0,0,0
638224439571325482,-46.67228,-1.753365,0.1867781,-75.36307,34.76685,-122.0935,-56.80307,-0.4675641,5.229787,-69.35696,-8.374548,-36.90935,0,0,0,-97.27505,-114.0794,-76.59374,-121.7539,-110.5331,-88.68581,0.001067912,-0.1257102,0.09433498,0,0.3,0,0,0,0
638224439571665385,-47.87384,-1.753365,0.3268617,-75.65604,33.74142,-119.6764,-56.80307,-0.4675641,5.229787,-69.35696,-8.301303,-36.83611,0,0,0,-99.41956,-114.078,-78.43505,-121.7539,-110.5331,-88.68581,0.001067912,-0.1257102,0.09433498,0,0.3,0,0,0,0
638224439572085259,-50.32408,-1.753365,1.470878,-76.02227,31.54407,-114.6957,-56.80307,-0.4675641,5.229787,-69.35696,-8.374548,-36.90935,0,0,0,-105.2217,-114.0362,-81.06794,-121.7539,-110.5331,-88.68581,0.001067912,-0.1257102,0.09433498,0,0.3,0,0,0,0
638224439572425145,-52.46804,-1.753365,3.782257,-76.31525,28.68751,-107.8107,-56.80307,-0.4675641,5.229787,-69.35696,-8.374548,-36.90935,0,0,0,-112.6745,-113.7897,-81.79187,-121.7539,-110.5331,-88.68581,0.001067912,-0.1257102,0.09433498,0,0.3,0,0,0,0
638224439572795020,-54.44707,-1.776743,8.054807,-77.34068,25.17174,-101.4383,-56.80307,-0.4675641,5.229787,-69.35696,-8.374548,-36.90935,0,0,0,-123.6403,-112.819,-79.98577,-121.7539,-110.5331,-88.68581,0.001067912,-0.1257102,0.09433498,0,0.3,0,0,0,0
638224439573134850,-55.22455,-1.776743,11.23003,-78.95209,22.75465,-98.94801,-56.80307,-0.4675641,5.229787,-69.35696,-8.374548,-36.90935,0,0,0,-130.8115,-111.5813,-77.5167,-121.7539,-110.5331,-88.68581,0.001067912,-0.1257102,0.09433498,0,0.3,0,0,0,0
638224439573474733,-55.43659,-1.776743,12.65422,-79.83102,21.65597,-97.48311,-56.80307,-0.4675641,5.229787,-69.35696,-8.374548,-36.83611,0,0,0,-133.8173,-110.8954,-76.16172,-121.7539,-110.5331,-88.68581,0.001067912,-0.1257102,0.09433498,0,0.3,0,0,0,0
638224439573814625,-55.76643,-1.753365,14.68543,-81.29592,19.60511,-93.08839,-56.80307,-0.4675641,5.229787,-69.35696,-8.374548,-36.90935,0,0,0,-138.1446,-109.7239,-74.34863,-121.7539,-110.5331,-88.68581,0.001067912,-0.1257102,0.09433498,0,0.3,0,0,0,0
638224439574144539,-56.07271,-1.753365,15.01229,-81.36917,18.65292,-89.71912,-56.80307,-0.4675641,5.229787,-69.35696,-8.374548,-36.83611,0,0,0,-139.2553,-109.5289,-74.67801,-121.7539,-110.5331,-88.68581,0.001067912,-0.1257102,0.09433498,0,0.3,0,0,0,0
638224439574484565,-56.28475,-1.753365,15.01229,-81.00294,18.1402,-87.52177,-56.80307,-0.4675641,5.229787,-69.35696,-8.374548,-36.90935,0,0,0,-139.601,-109.5289,-75.194,-121.7539,-110.5331,-88.68581,0.001067912,-0.1257102,0.09433498,0,0.3,0,0,0,0
638224439574824301,-56.68527,-1.753365,15.01229,-79.83102,17.18801,-83.56653,-56.80307,-0.4675641,5.229787,-69.35696,-8.374548,-36.83611,0,0,0,-140.2488,-109.5289,-76.17213,-121.7539,-110.5331,-88.68581,0.001067912,-0.1257102,0.09433498,0,0.3,0,0,0,0
638224439575165439,-57.03867,-1.753365,14.9189,-78.36612,16.08934,-81.7354,-56.80307,-0.4675641,5.229787,-69.35696,-8.374548,-36.90935,0,0,0,-140.6385,-109.5851,-77.15318,-121.7539,-110.5331,-88.68581,0.001067912,-0.1257102,0.09433498,0,0.3,0,0,0,0
638224439575505310,-57.10935,-1.753365,14.522,-76.75472,14.91741,-80.70996,-56.80307,-0.4675641,5.229787,-69.35696,-8.374548,-36.90935,0,0,0,-140.0006,-109.8198,-77.8119,-121.7539,-110.5331,-88.68581,0.001067912,-0.1257102,0.09433498,0,0.3,0,0,0,0
638224439575835229,-57.10935,-1.753365,14.24183,-75.65604,14.25821,-79.31831,-56.80307,-0.4675641,5.229787,-69.35696,-8.374548,-36.90935,0,0,0,-139.4703,-109.9818,-78.15491,-121.7539,-110.5331,-88.68581,0.001067912,-0.1257102,0.09433498,0,0.3,0,0,0,0
638224439576174146,-56.77951,-1.753365,13.86828,-73.75167,12.79331,-74.26439,-56.80307,-0.4675641,5.229787,-69.35696,-8.374548,-36.90935,0,0,0,-138.2432,-110.1929,-77.81556,-121.7539,-110.5331,-88.68581,0.001067912,-0.1257102,0.09433498,0,0.3,0,0,0,0
638224439576613996,-56.40255,-1.753365,12.58418,-73.09246,11.69463,-68.771,-56.80307,-0.4675641,5.229787,-69.35696,-8.374548,-36.83611,0,0,0,-135.2213,-110.8767,-78.51786,-121.7539,-110.5331,-88.68581,0.001067912,-0.1257102,0.09433498,0,0.3,0,0,0,0
638224439576953897,-56.19051,-1.753365,8.428363,-73.97141,11.54814,-64.96225,-56.80307,-0.4675641,5.229787,-69.35696,-8.374548,-36.90935,0,0,0,-126.9878,-112.6399,-83.30861,-121.7539,-110.5331,-88.68581,0.001067912,-0.1257102,0.09433498,0,0.3,0,0,0,0
638224439577293779,-55.88423,-1.753365,2.054559,-74.48412,12.35384,-64.37629,-56.80307,-0.4675641,5.229787,-69.35696,-8.374548,-36.90935,0,0,0,-114.3076,-113.9944,-90.91205,-121.7539,-110.5331,-88.68581,0.001067912,-0.1257102,0.09433498,0,0.3,0,0,0,0
638224439577623684,-55.55439,-1.729987,-1.44753,-74.19114,13.01304,-65.62146,-56.80307,-0.4675641,5.229787,-69.35696,-8.374548,-36.83611,0,0,0,-107.1408,-113.9832,-94.86383,-121.7539,-110.5331,-88.68581,0.001067912,-0.1257102,0.09433498,0,0.3,0,0,0,0
638224439577973575,-54.87115,-1.729987,-8.008113,-73.09246,14.99066,-70.01617,-56.80307,-0.4675641,5.229787,-69.35696,-8.374548,-36.90935,0,0,0,-93.81819,-112.7254,-102.3429,-121.7539,-110.5331,-88.68581,0.001067912,-0.1257102,0.09433498,0,0.3,0,0,0,0
638224439578315313,-54.09367,-1.683231,-12.37405,-72.14028,16.74854,-74.48412,-56.80307,-0.4675641,5.229787,-69.35696,-8.374548,-36.83611,0,0,0,-84.81793,-110.8192,-106.9378,-121.7539,-110.5331,-88.68581,0.001067912,-0.1257102,0.09433498,0,0.3,0,0,0,0
638224439578655214,-53.62247,-1.636474,-14.14844,-71.62756,17.481,-76.242,-56.80307,-0.4675641,5.229787,-69.35696,-8.374548,-36.90935,0,0,0,-81.07641,-109.7631,-108.6244,-121.7539,-110.5331,-88.68581,0.001067912,-0.1257102,0.09433498,0,0.3,0,0,0,0
638224439578995110,-52.68008,-0.9585064,-14.77882,-70.89511,18.79941,-77.56042,-56.80307,-0.4675641,5.229787,-69.35696,-8.374548,-36.90935,0,0,0,-78.98176,-107.8192,-108.1386,-121.7539,-110.5331,-88.68581,0.001067912,-0.1257102,0.09433498,0,0.3,0,0,0,0
638224439579346651,-51.76123,0.4675641,-14.80217,-70.67538,19.60511,-75.36307,-56.80307,-0.4675641,5.229787,-69.35696,-8.374548,-36.90935,0,0,0,-77.97595,-104.4864,-106.9035,-121.7539,-110.5331,-88.68581,0.001067912,-0.1257102,0.09433498,0,0.3,0,0,0,0
638224439579676536,-51.12512,1.472827,-14.77882,-70.52889,19.7516,-73.67843,-56.80307,-0.4675641,5.229787,-69.35696,-8.374548,-36.90935,0,0,0,-77.29902,-102.161,-106.0335,-121.7539,-110.5331,-88.68581,0.001067912,-0.1257102,0.09433498,0,0.3,0,0,0,0
638224439580026432,-49.59372,4.278211,-14.54535,-69.64995,19.82484,-67.59908,-56.80307,-0.4675641,5.229787,-69.35696,-8.374548,-36.83611,0,0,0,-75.75692,-95.77818,-103.8615,-121.7539,-110.5331,-88.68581,0.001067912,-0.1257102,0.09433498,0,0.3,0,0,0,0
638224439580366324,-48.08588,7.80832,-14.54535,-68.33153,19.67835,-59.76185,-56.80307,-0.4675641,5.229787,-69.35696,-8.374548,-36.83611,0,0,0,-73.39019,-87.60917,-102.4681,-121.7539,-110.5331,-88.68581,0.001067912,-0.1257102,0.09433498,0,0.3,0,0,0,0
638224439580706205,-46.64872,12.10991,-14.54535,-66.28067,19.23888,-53.97548,-56.80307,-0.4675641,5.229787,-69.35696,-8.374548,-36.90935,0,0,0,-70.45602,-77.75084,-101.8365,-121.7539,-110.5331,-88.68581,0.001067912,-0.1257102,0.09433498,0,0.3,0,0,0,0
638224439581156124,-45.11733,17.04271,-14.49865,-63.93682,18.21345,-50.23997,-56.80307,-0.4675641,5.229787,-69.35696,-8.374548,-36.83611,0,0,0,-66.68124,-66.67046,-101.9413,-121.7539,-110.5331,-88.68581,0.001067912,-0.1257102,0.09433498,0,0.3,0,0,0,0
638224439581496000,-43.79797,20.5962,-14.31187,-62.17894,17.40775,-48.77507,-56.80307,-0.4675641,5.229787,-69.35696,-8.374548,-36.90935,0,0,0,-63.57969,-58.95162,-102.045,-121.7539,-110.5331,-88.68581,0.001067912,-0.1257102,0.09433498,0,0.3,0,0,0,0
638224439581835891,-42.85557,22.77037,-14.17179,-61.00701,16.89503,-48.11587,-56.80307,-0.4675641,5.229787,-69.35696,-8.374548,-36.83611,0,0,0,-61.42395,-54.33,-102.1471,-121.7539,-110.5331,-88.68581,0.001067912,-0.1257102,0.09433498,0,0.3,0,0,0,0
638224439582165804,-40.85297,26.95507,-13.79823,-58.58992,15.94285,-47.45666,-56.80307,-0.4675641,5.229787,-69.35696,-8.374548,-36.90935,0,0,0,-56.94687,-45.7053,-102.4996,-121.7539,-110.5331,-88.68581,0.001067912,-0.1257102,0.09433498,0,0.3,0,0,0,0
638224439582515690,-38.6619,31.18653,-13.00443,-56.17283,15.13715,-47.16368,-56.80307,-0.4675641,5.229787,-69.35696,-8.374548,-36.90935,0,0,0,-52.52163,-37.52786,-102.7029,-121.7539,-110.5331,-88.68581,0.001067912,-0.1257102,0.09433498,0,0.3,0,0,0,0
638224439582855568,-37.50746,33.50097,-12.3507,-55.07415,14.77092,-47.16368,-56.80307,-0.4675641,5.229787,-69.35696,-8.374548,-36.90935,0,0,0,-50.33761,-33.31117,-102.7664,-121.7539,-110.5331,-88.68581,0.001067912,-0.1257102,0.09433498,0,0.3,0,0,0,0
638224439583188955,-35.29282,38.03634,-9.875894,-52.73031,13.81874,-47.74964,-56.80307,-0.4675641,5.229787,-69.35696,-8.374548,-36.90935,0,0,0,-47.46704,-25.85888,-101.2921,-121.7539,-110.5331,-88.68581,0.001067912,-0.1257102,0.09433498,0,0.3,0,0,0,0
638224439583528837,-34.20906,42.01063,-5.836816,-51.04567,12.79331,-50.38646,-56.80307,-0.4675641,5.229787,-69.35696,-8.374548,-36.90935,0,0,0,-48.08095,-20.0617,-97.62509,-121.7539,-110.5331,-88.68581,0.001067912,-0.1257102,0.09433498,0,0.3,0,0,0,0
638224439583868742,-33.92635,43.90427,-3.875646,-50.75269,12.35384,-52.95005,-56.80307,-0.4675641,5.229787,-69.35696,-8.374548,-36.90935,0,0,0,-48.59348,-17.22276,-96.10705,-121.7539,-110.5331,-88.68581,0.001067912,-0.1257102,0.09433498,0,0.3,0,0,0,0
638224439584208624,-33.31378,48.65004,0.8638488,-50.6062,10.96218,-57.49125,-56.80307,-0.4675641,5.229787,-69.35696,-8.374548,-36.90935,0,0,0,-49.49001,-9.880551,-93.04815,-121.7539,-110.5331,-88.68581,0.001067912,-0.1257102,0.09433498,0,0.3,0,0,0,0
638224439584538529,-32.81903,53.32568,5.533302,-50.6062,9.204292,-58.58992,-56.80307,-0.4675641,5.229787,-69.35696,-8.374548,-36.90935,0,0,0,-50.13575,-2.42614,-90.61124,-121.7539,-110.5331,-88.68581,0.001067912,-0.1257102,0.09433498,0,0.3,0,0,0,0
638224439584878416,-32.55987,56.10769,8.521752,-50.6062,7.812634,-57.78423,-56.80307,-0.4675641,5.229787,-69.35696,-8.374548,-36.90935,0,0,0,-50.65405,2.164343,-89.02211,-121.7539,-110.5331,-88.68581,0.001067912,-0.1257102,0.09433498,0,0.3,0,0,0,0
638224439585218316,-31.99443,61.46129,14.63874,-50.53296,4.370111,-54.63469,-56.80307,-0.4675641,5.229787,-69.35696,-8.374548,-36.90935,0,0,0,-51.61084,11.47599,-85.7375,-121.7539,-110.5331,-88.68581,0.001067912,-0.1257102,0.09433498,0,0.3,0,0,0,0
638224439585638181,-31.14627,66.44086,21.26936,-50.75269,0.1218917,-50.31322,-56.80307,-0.4675641,5.229787,-69.35696,-8.374548,-36.90935,0,0,0,-52.58752,21.31809,-81.33362,-121.7539,-110.5331,-88.68581,0.001067912,-0.1257102,0.09433498,0,0.3,0,0,0,0
638224439585978073,-30.06251,70.2515,27.45638,-51.4119,-4.053083,-45.18605,-56.80307,-0.4675641,5.229787,-69.35696,-8.374548,-36.83611,0,0,0,-53.37165,30.52727,-76.14008,-121.7539,-110.5331,-88.68581,0.001067912,-0.1257102,0.09433498,0,0.3,0,0,0,0
638224439586317947,-28.60179,73.31404,33.22316,-52.21759,-8.594284,-39.69267,-56.80307,-0.4675641,5.229787,-69.35696,-8.374548,-36.90935,0,0,0,-53.30581,39.53202,-70.5875,-121.7539,-110.5331,-88.68581,0.001067912,-0.1257102,0.09433498,0,0.3,0,0,0,0
638224439586647858,-27.87143,74.55309,36.02483,-52.51057,-10.64515,-37.05584,-56.80307,-0.4675641,5.229787,-69.35696,-8.374548,-36.83611,0,0,0,-53.26808,44.03465,-67.6227,-121.7539,-110.5331,-88.68581,0.001067912,-0.1257102,0.09433498,0,0.3,0,0,0,0
638224439586987749,-26.78768,76.23632,41.34801,-53.60925,-14.67363,-32.00193,-56.80307,-0.4675641,5.229787,-69.35696,-8.374548,-36.83611,0,0,0,-54.0018,52.7636,-61.38744,-121.7539,-110.5331,-88.68581,0.001067912,-0.1257102,0.09433498,0,0.3,0,0,0,0
638224439587327635,-26.17512,77.17145,46.62449,-55.73336,-18.55563,-26.50854,-56.80307,-0.4675641,5.229787,-69.35696,-8.374548,-36.83611,0,0,0,-55.81715,61.78973,-54.79011,-121.7539,-110.5331,-88.68581,0.001067912,-0.1257102,0.09433498,0,0.3,0,0,0,0
638224439587677524,-26.05732,77.26497,49.0993,-57.34475,-20.31351,-23.50549,-56.80307,-0.4675641,5.229787,-69.35696,-8.374548,-36.83611,0,0,0,-57.1877,66.10866,-51.39492,-121.7539,-110.5331,-88.68581,0.001067912,-0.1257102,0.09433498,0,0.3,0,0,0,0
638224439588017416,-26.05732,76.84415,53.46524,-61.29999,-23.24332,-17.13316,-56.80307,-0.4675641,5.229787,-69.35696,-8.374548,-36.83611,0,0,0,-60.39818,73.81554,-44.82914,-121.7539,-110.5331,-88.68581,0.001067912,-0.1257102,0.09433498,0,0.3,0,0,0,0
638224439588347311,-26.29292,75.67525,57.06072,-66.5004,-25.58716,-10.98056,-56.80307,-0.4675641,5.229787,-69.35696,-8.374548,-36.90935,0,0,0,-64.18796,80.04494,-38.43511,-121.7539,-110.5331,-88.68581,0.001067912,-0.1257102,0.09433498,0,0.3,0,0,0,0
638224439588687205,-26.76412,74.69336,58.39151,-69.35696,-26.4661,-7.831022,-56.80307,-0.4675641,5.229787,-69.35696,-8.374548,-36.83611,0,0,0,-66.99379,82.07931,-35.51819,-121.7539,-110.5331,-88.68581,0.001067912,-0.1257102,0.09433498,0,0.3,0,0,0,0
638224439589027084,-28.50755,71.65419,60.14256,-75.65604,-27.12531,-2.410879,-56.80307,-0.4675641,5.229787,-69.35696,-8.374548,-36.90935,0,0,0,-75.22903,83.53491,-29.8389,-121.7539,-110.5331,-88.68581,0.001067912,-0.1257102,0.09433498,0,0.3,0,0,0,0
638224439589366875,-30.20387,68.12408,60.93637,-80.63672,-26.09988,2.057076,-56.80307,-0.4675641,5.229787,-69.35696,-8.374548,-36.83611,0,0,0,-83.63404,82.319,-24.67466,-121.7539,-110.5331,-88.68581,0.001067912,-0.1257102,0.09433498,0,0.3,0,0,0,0
638224439589716764,-31.73527,64.45371,61.28657,-84.37222,-24.19551,5.93907,-56.80307,-0.4675641,5.229787,-69.35696,-8.374548,-36.83611,0,0,0,-91.76424,79.59811,-19.97538,-121.7539,-110.5331,-88.68581,0.001067912,-0.1257102,0.09433498,0,0.3,0,0,0,0
638224439590159014,-33.26667,60.83008,61.8469,-86.86256,-21.41219,8.575896,-56.80307,-0.4675641,5.229787,-69.35696,-8.374548,-36.90935,0,0,0,-100.1454,76.86989,-15.69976,-121.7539,-110.5331,-88.68581,0.001067912,-0.1257102,0.09433498,0,0.3,0,0,0,0
638224439590498915,-34.32687,58.49226,61.8936,-88.10773,-19.6543,9.967555,-56.80307,-0.4675641,5.229787,-69.35696,-8.374548,-36.83611,0,0,0,-105.6295,74.21759,-13.65879,-121.7539,-110.5331,-88.68581,0.001067912,-0.1257102,0.09433498,0,0.3,0,0,0,0
638224439590838805,-34.96298,57.15971,61.87025,-88.62045,-18.62887,10.55352,-56.80307,-0.4675641,5.229787,-69.35696,-8.374548,-36.90935,0,0,0,-108.83,72.51823,-12.71073,-121.7539,-110.5331,-88.68581,0.001067912,-0.1257102,0.09433498,0,0.3,0,0,0,0
638224439591178707,-36.44726,54.3777,61.16984,-89.71912,-16.65125,11.28597,-56.80307,-0.4675641,5.229787,-69.35696,-8.374548,-36.83611,0,0,0,-115.5431,67.44341,-11.9015,-121.7539,-110.5331,-88.68581,0.001067912,-0.1257102,0.09433498,0,0.3,0,0,0,0
638224439591518598,-38.26138,51.29178,58.67168,-90.59806,-15.1131,11.57895,-56.80307,-0.4675641,5.229787,-69.35696,-8.374548,-36.83611,0,0,0,-122.1773,58.07424,-13.43211,-121.7539,-110.5331,-88.68581,0.001067912,-0.1257102,0.09433498,0,0.3,0,0,0,0
638224439591848482,-39.32158,49.37476,56.82725,-90.74455,-14.16092,11.35921,-56.80307,-0.4675641,5.229787,-69.35696,-8.374548,-36.83611,0,0,0,-125.7475,51.59611,-14.83451,-121.7539,-110.5331,-88.68581,0.001067912,-0.1257102,0.09433498,0,0.3,0,0,0,0
638224439592188374,-41.51265,44.93291,52.43796,-90.0121,-11.96356,9.454838,-56.80307,-0.4675641,5.229787,-69.35696,-8.374548,-36.83611,0,0,0,-132.6292,36.23936,-18.50669,-121.7539,-110.5331,-88.68581,0.001067912,-0.1257102,0.09433498,0,0.3,0,0,0,0
638224439592528267,-43.25609,40.44429,48.35219,-88.69369,-9.546471,6.305296,-56.80307,-0.4675641,5.229787,-69.35696,-8.374548,-36.90935,0,0,0,-137.8259,21.23752,-21.86794,-121.7539,-110.5331,-88.68581,0.001067912,-0.1257102,0.09433498,0,0.3,0,0,0,0
638224439592868148,-43.91577,38.27012,46.43771,-87.81474,-8.374548,4.913638,-56.80307,-0.4675641,5.229787,-69.35696,-8.374548,-36.90935,0,0,0,-139.6368,14.04576,-23.32574,-121.7539,-110.5331,-88.68581,0.001067912,-0.1257102,0.09433498,0,0.3,0,0,0,0
638224439593208045,-45.18801,34.03867,42.74884,-85.61739,-5.517986,1.837341,-56.80307,-0.4675641,5.229787,-69.35696,-8.374548,-36.83611,0,0,0,-142.6068,0.06922445,-26.67604,-121.7539,-110.5331,-88.68581,0.001067912,-0.1257102,0.09433498,0,0.3,0,0,0,0
638224439593537933,-45.777,32.4957,41.06784,-84.51871,-3.760103,-0.4332596,-56.80307,-0.4675641,5.229787,-69.35696,-8.374548,-36.83611,0,0,0,-143.3808,-5.5464,-28.8063,-121.7539,-110.5331,-88.68581,0.001067912,-0.1257102,0.09433498,0,0.3,0,0,0,0
638224439593877837,-46.10685,31.88787,40.18064,-84.006,-2.807915,-1.605182,-56.80307,-0.4675641,5.229787,-69.35696,-8.374548,-36.83611,0,0,0,-143.5954,-8.087991,-30.19806,-121.7539,-110.5331,-88.68581,0.001067912,-0.1257102,0.09433498,0,0.3,0,0,0,0
638224439594217728,-46.69584,31.37355,38.3829,-83.42004,-1.343012,-3.875783,-56.80307,-0.4675641,5.229787,-69.35696,-8.374548,-36.90935,0,0,0,-143.1081,-11.75615,-33.47211,-121.7539,-110.5331,-88.68581,0.001067912,-0.1257102,0.09433498,0,0.3,0,0,0,0
638224439594557621,-46.81364,31.39693,36.7019,-82.68758,-0.3175794,-5.853402,-56.80307,-0.4675641,5.229787,-69.35696,-8.374548,-36.90935,0,0,0,-141.1027,-14.09361,-35.90895,-121.7539,-110.5331,-88.68581,0.001067912,-0.1257102,0.09433498,0,0.3,0,0,0,0
638224439594887502,-46.76653,31.49044,36.16492,-82.24812,0.1218917,-6.512609,-56.80307,-0.4675641,5.229787,-69.35696,-8.374548,-36.90935,0,0,0,-140.1784,-14.65015,-36.55947,-121.7539,-110.5331,-88.68581,0.001067912,-0.1257102,0.09433498,0,0.3,0,0,0,0
638224439595227408,-46.34245,32.56584,36.23495,-81.14944,1.220569,-7.24506,-56.80307,-0.4675641,5.229787,-69.35696,-8.374548,-36.90935,0,0,0,-138.334,-12.432,-36.35106,-121.7539,-110.5331,-88.68581,0.001067912,-0.1257102,0.09433498,0,0.3,0,0,0,0
638224439595567306,-45.28225,36.18946,37.5891,-79.83102,2.099511,-7.464796,-56.80307,-0.4675641,5.229787,-69.35696,-8.374548,-36.83611,0,0,0,-134.2753,-3.579838,-35.39112,-121.7539,-110.5331,-88.68581,0.001067912,-0.1257102,0.09433498,0,0.3,0,0,0,0
638224439595917175,-43.65661,42.29117,40.1573,-78.80559,1.440305,-6.80559,-56.80307,-0.4675641,5.229787,-69.35696,-8.447793,-36.90935,0,0,0,-127.463,11.16469,-34.76515,-121.7539,-110.5331,-88.68581,0.001067912,-0.1257102,0.09433498,0,0.3,0,0,0,0
638224439596257135,-41.74825,48.18248,43.09905,-78.07314,-0.3175794,-5.487176,-56.80307,-0.4675641,5.229787,-69.35696,-8.374548,-36.83611,0,0,0,-119.8715,25.36339,-34.03703,-121.7539,-110.5331,-88.68581,0.001067912,-0.1257102,0.09433498,0,0.3,0,0,0,0
638224439596597021,-39.93414,52.74123,45.71395,-77.48718,-2.295199,-4.095518,-56.80307,-0.4675641,5.229787,-69.35696,-8.374548,-36.83611,0,0,0,-113.0991,36.37406,-33.24861,-121.7539,-110.5331,-88.68581,0.001067912,-0.1257102,0.09433498,0,0.3,0,0,0,0
638224439596936918,-36.56506,59.49752,49.84641,-76.53499,-6.323683,-1.019221,-56.80307,-0.4675641,5.229787,-69.35696,-8.374548,-36.83611,0,0,0,-101.0409,52.25608,-32.12482,-121.7539,-110.5331,-88.68581,0.001067912,-0.1257102,0.09433498,0,0.3,0,0,0,0
638224439597266814,-34.4211,62.84061,51.99436,-75.72929,-8.814018,1.031644,-56.80307,-0.4675641,5.229787,-69.35696,-8.374548,-36.90935,0,0,0,-93.80279,59.88805,-31.46266,-121.7539,-110.5331,-88.68581,0.001067912,-0.1257102,0.09433498,0,0.3,0,0,0,0
638224439597716680,-27.306,70.53204,58.11135,-72.87273,-16.87099,6.744767,-56.80307,-0.4675641,5.229787,-69.35696,-8.301303,-36.90935,0,0,0,-72.32864,78.63128,-28.2518,-121.7539,-110.5331,-88.68581,0.001067912,-0.1257102,0.09433498,0,0.3,0,0,0,0
638224439598046558,-24.78508,72.4023,59.769,-71.8473,-19.58106,8.282915,-56.80307,-0.4675641,5.229787,-69.35696,-8.374548,-36.90935,0,0,0,-65.20089,83.31953,-27.14578,-121.7539,-110.5331,-88.68581,0.001067912,-0.1257102,0.09433498,0,0.3,0,0,0,0
638224439598386458,-19.03645,75.67525,62.31385,-68.84425,-25.44067,10.48027,-56.80307,-0.4675641,5.229787,-69.35696,-8.374548,-36.90935,0,0,0,-49.27619,90.59586,-25.53675,-121.7539,-110.5331,-88.68581,0.001067912,-0.1257102,0.09433498,0,0.3,0,0,0,0
638224439598736360,-12.55746,78.10658,63.76138,-63.27761,-31.59327,10.62676,-56.80307,-0.4675641,5.229787,-69.35696,-8.447793,-36.90935,0,0,0,-31.98055,94.88189,-24.77662,-121.7539,-110.5331,-88.68581,0.001067912,-0.1257102,0.09433498,0,0.3,0,0,0,0
638224439599066241,-9.447544,78.97157,64.08825,-59.54211,-34.37658,8.942122,-56.80307,-0.4675641,5.229787,-69.35696,-8.374548,-36.90935,0,0,0,-23.87539,95.96522,-24.86948,-121.7539,-110.5331,-88.68581,0.001067912,-0.1257102,0.09433498,0,0.3,0,0,0,0
638224439599406131,-2.120397,80.16386,63.94816,-47.60315,-40.08971,1.617605,-56.80307,-0.4675641,5.229787,-69.35696,-8.374548,-36.83611,0,0,0,-5.27544,96.17459,-25.86606,-121.7539,-110.5331,-88.68581,0.001067912,-0.1257102,0.09433498,0,0.3,0,0,0,0
638224439599736025,4.594193,80.4444,63.38783,-32.66114,-43.45898,-8.929699,-56.80307,-0.4675641,5.229787,-69.35696,-8.374548,-36.90935,0,0,0,11.3226,95.11575,-27.44469,-121.7539,-110.5331,-88.68581,0.001067912,-0.1257102,0.09433498,0,0.3,0,0,0,0
638224439600075918,8.104627,80.35088,63.08431,-23.65198,-44.33792,-16.03448,-56.80307,-0.4675641,5.229787,-69.35696,-8.374548,-36.83611,0,0,0,19.91444,94.44873,-28.50483,-121.7539,-110.5331,-88.68581,0.001067912,-0.1257102,0.09433498,0,0.3,0,0,0,0
638224439600415811,13.99462,79.95346,62.40724,-5.853402,-44.04494,-32.29491,-56.80307,-0.4675641,5.229787,-69.35696,-8.374548,-36.83611,0,0,0,34.20592,92.88967,-31.10261,-121.7539,-110.5331,-88.68581,0.001067912,-0.1257102,0.09433498,0,0.3,0,0,0,0
638224439600755692,18.58881,79.32224,60.6095,9.454838,-41.48137,-46.35798,-56.80307,-0.4675641,5.229787,-69.35696,-8.374548,-36.90935,0,0,0,44.91368,88.94827,-34.8054,-121.7539,-110.5331,-88.68581,0.001067912,-0.1257102,0.09433498,0,0.3,0,0,0,0
638224439601104215,21.55737,78.78455,57.57436,17.6583,-38.25858,-52.43733,-56.80307,-0.4675641,5.229787,-69.35696,-8.374548,-36.90935,0,0,0,50.88779,82.65049,-39.54217,-121.7539,-110.5331,-88.68581,0.001067912,-0.1257102,0.09433498,0,0.3,0,0,0,0
638224439601434114,22.8296,78.48063,55.42641,20.22188,-36.20771,-54.12197,-56.80307,-0.4675641,5.229787,-69.35696,-8.374548,-36.90935,0,0,0,52.93373,78.3426,-42.60752,-121.7539,-110.5331,-88.68581,0.001067912,-0.1257102,0.09433498,0,0.3,0,0,0,0
638224439601784003,24.87932,77.77929,50.17327,22.41923,-31.52002,-55.1474,-56.80307,-0.4675641,5.229787,-69.35696,-8.374548,-36.83611,0,0,0,54.96053,68.2718,-49.83567,-121.7539,-110.5331,-88.68581,0.001067912,-0.1257102,0.09433498,0,0.3,0,0,0,0
638224439602113900,26.22224,77.10131,44.24307,22.41923,-26.4661,-54.63469,-56.80307,-0.4675641,5.229787,-69.35696,-8.374548,-36.90935,0,0,0,54.26243,57.80497,-58.18214,-121.7539,-110.5331,-88.68581,0.001067912,-0.1257102,0.09433498,0,0.3,0,0,0,0
638224439602453790,26.66988,76.75064,41.30132,22.05301,-23.90252,-53.97548,-56.80307,-0.4675641,5.229787,-69.35696,-8.374548,-36.90935,0,0,0,53.22272,52.97141,-62.38965,-121.7539,-110.5331,-88.68581,0.001067912,-0.1257102,0.09433498,0,0.3,0,0,0,0
638224439602803672,27.306,75.95578,36.21161,20.80784,-19.14159,-51.33865,-56.80307,-0.4675641,5.229787,-69.35696,-8.374548,-36.90935,0,0,0,50.98428,45.1218,-69.59512,-121.7539,-110.5331,-88.68581,0.001067912,-0.1257102,0.09433498,0,0.3,0,0,0,0
638224439603143570,27.49447,74.88038,32.54609,19.63592,-15.03986,-47.31017,-56.80307,-0.4675641,5.229787,-69.35696,-8.374548,-36.83611,0,0,0,49.17714,39.6753,-73.85936,-121.7539,-110.5331,-88.68581,0.001067912,-0.1257102,0.09433498,0,0.3,0,0,0,0
638224439603493458,27.49447,74.1089,31.21529,19.04996,-13.20873,-46.35798,-56.80307,-0.4675641,5.229787,-69.35696,-8.374548,-36.90935,0,0,0,48.76172,37.5595,-74.65755,-121.7539,-110.5331,-88.68581,0.001067912,-0.1257102,0.09433498,0,0.3,0,0,0,0
638224439603823342,27.98923,72.00487,29.32417,17.80479,-9.473226,-45.62553,-56.80307,-0.4675641,5.229787,-69.35696,-8.374548,-36.90935,0,0,0,49.98332,33.91398,-74.30241,-121.7539,-110.5331,-88.68581,0.001067912,-0.1257102,0.09433498,0,0.3,0,0,0,0
638224439604163244,28.83739,70.20474,28.6004,17.36532,-6.98289,-45.33255,-56.80307,-0.4675641,5.229787,-69.35696,-8.374548,-36.90935,0,0,0,52.57092,31.74161,-72.87151,-121.7539,-110.5331,-88.68581,0.001067912,-0.1257102,0.09433498,0,0.3,0,0,0,0
638224439604503136,29.96827,67.58639,28.04007,17.6583,-4.346064,-45.18605,-56.80307,-0.4675641,5.229787,-69.35696,-8.301303,-36.83611,0,0,0,56.71123,28.92888,-69.99752,-121.7539,-110.5331,-88.68581,0.001067912,-0.1257102,0.09433498,0,0.3,0,0,0,0
638224439604833031,30.46303,66.04342,27.7132,18.02452,-3.100896,-45.11281,-56.80307,-0.4675641,5.229787,-69.35696,-8.374548,-36.90935,0,0,0,58.891,27.15941,-68.22523,-121.7539,-110.5331,-88.68581,0.001067912,-0.1257102,0.09433498,0,0.3,0,0,0,0
638224439605242901,31.52323,62.63021,27.03613,18.68373,-0.61056,-45.03957,-56.80307,-0.4675641,5.229787,-69.35696,-8.374548,-36.83611,0,0,0,63.74504,22.995,-64.42214,-121.7539,-110.5331,-88.68581,0.001067912,-0.1257102,0.09433498,0,0.3,0,0,0,0
638224439605582781,32.98395,59.33388,26.82601,19.41618,2.246002,-45.11281,-56.80307,-0.4675641,5.229787,-69.35696,-8.374548,-36.90935,0,0,0,69.78804,19.05252,-60.81989,-121.7539,-110.5331,-88.68581,0.001067912,-0.1257102,0.09433498,0,0.3,0,0,0,0
638224439605952682,35.08078,56.43498,27.24626,20.5881,5.102563,-46.065,-56.80307,-0.4675641,5.229787,-69.35696,-8.374548,-36.83611,0,0,0,77.46031,15.91066,-58.05651,-121.7539,-110.5331,-88.68581,0.001067912,-0.1257102,0.09433498,0,0.3,0,0,0,0
638224439606292507,36.09386,55.52323,27.68986,21.10082,6.05475,-46.65096,-56.80307,-0.4675641,5.229787,-69.35696,-8.374548,-36.83611,0,0,0,80.97401,15.19963,-57.28191,-121.7539,-110.5331,-88.68581,0.001067912,-0.1257102,0.09433498,0,0.3,0,0,0,0
638224439606752365,41.51265,54.05041,32.56944,24.4701,7.959125,-50.67944,-56.80307,-0.4675641,5.229787,-69.35696,-8.374548,-36.83611,0,0,0,99.46511,18.92199,-55.97515,-121.7539,-110.5331,-88.68581,0.001067912,-0.1257102,0.09433498,0,0.3,0,0,0,0
638224439607082253,43.06761,54.07378,34.53061,25.86176,7.959125,-51.92461,-56.80307,-0.4675641,5.229787,-69.35696,-8.374548,-36.83611,0,0,0,105.0453,21.4764,-55.9689,-121.7539,-110.5331,-88.68581,0.001067912,-0.1257102,0.09433498,0,0.3,0,0,0,0
638224439607422146,46.97857,54.12054,40.78767,30.54945,6.860447,-56.46581,-56.80307,-0.4675641,5.229787,-69.35696,-8.374548,-36.90935,0,0,0,120.8257,30.43304,-55.59368,-121.7539,-110.5331,-88.68581,0.001067912,-0.1257102,0.09433498,0,0.3,0,0,0,0
638224439607762030,49.73508,54.07378,46.88131,35.74985,4.809582,-62.69165,-56.80307,-0.4675641,5.229787,-69.35696,-8.374548,-36.90935,0,0,0,133.9785,40.18695,-54.86892,-121.7539,-110.5331,-88.68581,0.001067912,-0.1257102,0.09433498,0,0.3,0,0,0,0
638224439608101931,51.61988,54.02703,52.41461,40.65728,2.538982,-69.21047,-56.80307,-0.4675641,5.229787,-69.35696,-8.374548,-36.83611,0,0,0,144.2415,49.93346,-54.10707,-121.7539,-110.5331,-88.68581,0.001067912,-0.1257102,0.09433498,0,0.3,0,0,0,0
638224439608441824,52.37379,54.02703,54.79603,42.78139,1.367059,-72.28677,-56.80307,-0.4675641,5.229787,-69.35696,-8.374548,-36.90935,0,0,0,148.3366,54.39458,-54.00731,-121.7539,-110.5331,-88.68581,0.001067912,-0.1257102,0.09433498,0,0.3,0,0,0,0
638224439608781718,53.85807,54.05041,59.13863,46.73663,-1.050031,-78.14638,-56.80307,-0.4675641,5.229787,-69.35696,-8.374548,-36.83611,0,0,0,155.6612,62.89775,-54.66533,-121.7539,-110.5331,-88.68581,0.001067912,-0.1257102,0.09433498,0,0.3,0,0,0,0
638224439609121609,55.36591,54.07378,62.8275,49.95942,-3.100896,-83.63977,-56.80307,-0.4675641,5.229787,-69.35696,-8.374548,-36.90935,0,0,0,161.9885,70.43617,-56.45931,-121.7539,-110.5331,-88.68581,0.001067912,-0.1257102,0.09433498,0,0.3,0,0,0,0
638224439609471495,55.38947,54.1673,64.32172,51.64405,-4.126328,-86.34984,-56.80307,-0.4675641,5.229787,-69.35696,-8.374548,-36.83611,0,0,0,163.1631,73.67793,-55.74705,-121.7539,-110.5331,-88.68581,0.001067912,-0.1257102,0.09433498,0,0.3,0,0,0,0
638224439609811386,55.38947,54.96216,65.72256,53.91465,-6.323683,-89.13316,-56.80307,-0.4675641,5.229787,-69.35696,-8.374548,-36.90935,0,0,0,163.0556,77.70579,-55.82122,-121.7539,-110.5331,-88.68581,0.001067912,-0.1257102,0.09433498,0,0.3,0,0,0,0
638224439610151277,55.41303,56.34147,66.67979,54.72035,-8.008322,-89.64587,-56.80307,-0.4675641,5.229787,-69.35696,-8.301303,-36.83611,0,0,0,161.66,81.55541,-56.88246,-121.7539,-110.5331,-88.68581,0.001067912,-0.1257102,0.09433498,0,0.3,0,0,0,0
638224439610501156,55.36591,58.35199,68.59427,55.81903,-10.27892,-90.30508,-56.80307,-0.4675641,5.229787,-69.35696,-8.374548,-36.83611,0,0,0,159.7217,88.20046,-58.02507,-121.7539,-110.5331,-88.68581,0.001067912,-0.1257102,0.09433498,0,0.3,0,0,0,0
638224439610831052,55.34235,59.42739,69.90171,56.69797,-11.45084,-91.03754,-56.80307,-0.4675641,5.229787,-69.35696,-8.374548,-36.90935,0,0,0,158.8005,92.33911,-58.56487,-121.7539,-110.5331,-88.68581,0.001067912,-0.1257102,0.09433498,0,0.3,0,0,0,0
638224439611280907,55.27167,60.97035,71.79285,58.89533,-13.57495,-92.64893,-56.80307,-0.4675641,5.229787,-69.35696,-8.374548,-36.90935,0,0,0,157.2907,98.28139,-59.32163,-121.7539,-110.5331,-88.68581,0.001067912,-0.1257102,0.09433498,0,0.3,0,0,0,0
638224439611620811,55.15387,60.99373,71.86288,60.65321,-15.25959,-93.30813,-56.80307,-0.4675641,5.229787,-69.35696,-8.447793,-36.90935,0,0,0,157.0689,98.46266,-58.99661,-121.7539,-110.5331,-88.68581,0.001067912,-0.1257102,0.09433498,0,0.3,0,0,0,0
638224439611960825,55.13031,59.3105,70.99904,61.01944,-15.77231,-92.86866,-56.80307,-0.4675641,5.229787,-69.35696,-8.301303,-36.83611,0,0,0,159.2863,94.60714,-57.35553,-121.7539,-110.5331,-88.68581,0.001067912,-0.1257102,0.09433498,0,0.3,0,0,0,0
638224439612309374,55.13031,56.45836,70.13519,60.28699,-15.25959,-90.74455,-56.80307,-0.4675641,5.229787,-69.35696,-8.374548,-36.83611,0,0,0,163.3499,89.18256,-54.52394,-121.7539,-110.5331,-88.68581,0.001067912,-0.1257102,0.09433498,0,0.3,0,0,0,0
638224439612649274,55.13031,54.63486,69.83167,59.62778,-14.74688,-89.71912,-56.80307,-0.4675641,5.229787,-69.35696,-8.374548,-36.83611,0,0,0,166.0226,86.11794,-52.66153,-121.7539,-110.5331,-88.68581,0.001067912,-0.1257102,0.09433498,0,0.3,0,0,0,0
638224439612999169,55.13031,50.23976,69.38808,58.08963,-12.91575,-87.88799,-56.80307,-0.4675641,5.229787,-69.35696,-8.374548,-36.83611,0,0,0,172.3785,78.91575,-48.23259,-121.7539,-110.5331,-88.68581,0.001067912,-0.1257102,0.09433498,0,0.3,0,0,0,0
638224439613329042,55.13031,45.56412,68.89778,56.33175,-10.64515,-87.00905,-56.80307,-0.4675641,5.229787,-69.35696,-8.374548,-36.83611,0,0,0,178.6681,70.55609,-43.84986,-121.7539,-110.5331,-88.68581,0.001067912,-0.1257102,0.09433498,0,0.3,0,0,0,0
638224439613668948,55.13031,43.2263,68.52423,55.30631,-9.546471,-86.78931,-56.80307,-0.4675641,5.229787,-69.35696,-8.374548,-36.90935,0,0,0,181.532,65.85849,-41.85422,-121.7539,-110.5331,-88.68581,0.001067912,-0.1257102,0.09433498,0,0.3,0,0,0,0
638224439614008826,55.13031,38.76106,66.98331,53.10896,-7.422361,-86.56957,-56.80307,-0.4675641,5.229787,-69.35696,-8.374548,-36.83611,0,0,0,186.0098,54.69721,-38.73397,-121.7539,-110.5331,-88.68581,0.001067912,-0.1257102,0.09433498,0,0.3,0,0,0,0
638224439614348851,55.13031,34.59974,64.4618,50.54538,-5.517986,-86.42309,-56.80307,-0.4675641,5.229787,-69.35696,-8.374548,-36.90935,0,0,0,188.7759,41.58258,-36.8065,-121.7539,-110.5331,-88.68581,0.001067912,-0.1257102,0.09433498,0,0.3,0,0,0,0
