zeyangz2/DNN_classification_different_people_hand/data_by_names/Srikar/srikar_right_27.csv
Timestamp,Therapist joint angle 0,Therapist joint angle 1,Therapist joint angle 2,Therapist joint angle 3,Therapist joint angle 4,Therapist joint angle 5,Patient joint angle 0,Patient joint angle 1,Patient joint angle 2,Patient joint angle 3,Patient joint angle 4,Patient joint angle 5,Virtual joint angle 0,Virtual joint angle 1,Virtual joint angle 2,Therapist position x,Therapist position y,Therapist position z,Patient position x,Patient position y,Patient position z,Virtual position x,Virtual position y,Virtual position z,Assistive Force, Obstacle Force Magnitude, Therapist Constant Force, Patient Constant Force, Recovery Factor, Assistance Level
638225086544867931,0,0,0,0,0,0,0,0,0,0,0,0,0,0,0,0,0,0,0,0,0,0,0,0,0,0.3,0,0,0,0
638225086544937917,5.159632,-41.16902,-62.73411,-114.3295,-17.31046,-8.636719,47.92096,-0.8883717,-9.082087,-78.29288,-7.568851,14.43551,0,0,0,-1.632379,-125.5223,-186.4279,83.34011,-110.3957,-93.10179,0.001067912,-0.1257102,0.09433498,0,0.3,0,0,0,0
638225086545237821,5.159632,-41.16902,-62.73411,-114.3295,-17.31046,-8.636719,47.92096,-0.8883717,-9.082087,-78.29288,-7.568851,14.43551,0,0,0,-1.632379,-125.5223,-186.4279,83.34011,-110.3957,-93.10179,0.001067912,-0.1257102,0.09433498,0,0.3,0,0,0,0
638225086545587698,5.159632,-41.16902,-62.73411,-114.3295,-17.31046,-8.636719,47.92096,-0.8883717,-9.082087,-78.29288,-7.568851,14.50875,0,0,0,-1.632379,-125.5223,-186.4279,83.34011,-110.3957,-93.10179,0.001067912,-0.1257102,0.09433498,0,0.3,0,0,0,0
638225086545917602,5.159632,-41.16902,-62.73411,-114.3295,-17.31046,-8.636719,47.92096,-0.8883717,-9.082087,-78.29288,-7.642097,14.50875,0,0,0,-1.632379,-125.5223,-186.4279,83.34011,-110.3957,-93.10179,0.001067912,-0.1257102,0.09433498,0,0.3,0,0,6.001835E-08,0
638225086546257495,5.159632,-41.16902,-62.73411,-114.3295,-17.31046,-8.636719,47.92096,-0.8883717,-9.082087,-78.29288,-7.642097,14.50875,0,0,0,-1.632379,-125.5223,-186.4279,83.34011,-110.3957,-93.10179,0.001067912,-0.1257102,0.09433498,0,0.3,0,0,0,0
638225086546597387,5.159632,-41.16902,-62.73411,-114.3295,-17.23721,-8.636719,47.92096,-0.8883717,-9.082087,-78.29288,-7.642097,14.50875,0,0,0,-1.632379,-125.5223,-186.4279,83.34011,-110.3957,-93.10179,0.001067912,-0.1257102,0.09433498,0,0.3,0,0,0,0
638225086546937280,5.159632,-41.16902,-62.73411,-114.4027,-17.31046,-8.636719,47.92096,-0.8883717,-9.082087,-78.29288,-7.642097,14.50875,0,0,0,-1.632379,-125.5223,-186.4279,83.34011,-110.3957,-93.10179,0.001067912,-0.1257102,0.09433498,0,0.3,0,0,6.001835E-08,0
638225086547277164,5.159632,-41.16902,-62.73411,-114.4027,-17.31046,-8.636719,47.92096,-0.8883717,-9.082087,-78.29288,-7.642097,14.50875,0,0,0,-1.632379,-125.5223,-186.4279,83.34011,-110.3957,-93.10179,0.001067912,-0.1257102,0.09433498,0,0.3,0,0,6.001835E-08,0
638225086547617061,5.159632,-41.16902,-62.73411,-114.3295,-17.31046,-8.636719,47.92096,-0.8883717,-9.082087,-78.29288,-7.568851,14.50875,0,0,0,-1.632379,-125.5223,-186.4279,83.34011,-110.3957,-93.10179,0.001067912,-0.1257102,0.09433498,0,0.3,0,0,6.001835E-08,0
638225086548036917,5.159632,-41.16902,-62.73411,-114.3295,-17.31046,-8.636719,47.92096,-0.8883717,-9.082087,-78.29288,-7.568851,14.50875,0,0,0,-1.632379,-125.5223,-186.4279,83.34011,-110.3957,-93.10179,0.001067912,-0.1257102,0.09433498,0,0.3,0,0,0,0
638225086548366820,5.159632,-41.16902,-62.73411,-114.3295,-17.31046,-8.636719,47.92096,-0.8883717,-9.082087,-78.29288,-7.642097,14.43551,0,0,0,-1.632379,-125.5223,-186.4279,83.34011,-110.3957,-93.10179,0.001067912,-0.1257102,0.09433498,0,0.3,0,0,0,0
638225086548706712,5.159632,-41.16902,-62.73411,-114.3295,-17.31046,-8.636719,47.92096,-0.8883717,-9.082087,-78.29288,-7.642097,14.43551,0,0,0,-1.632379,-125.5223,-186.4279,83.34011,-110.3957,-93.10179,0.001067912,-0.1257102,0.09433498,0,0.3,0,0,0,0
638225086549046599,5.159632,-41.16902,-62.73411,-114.3295,-17.31046,-8.563474,47.92096,-0.8883717,-9.082087,-78.29288,-7.642097,14.43551,0,0,0,-1.632379,-125.5223,-186.4279,83.34011,-110.3957,-93.10179,0.001067912,-0.1257102,0.09433498,0,0.3,0,0,6.001835E-08,0
638225086549396502,5.159632,-41.16902,-62.73411,-114.4027,-17.31046,-8.636719,47.92096,-0.8883717,-9.082087,-78.29288,-7.642097,14.50875,0,0,0,-1.632379,-125.5223,-186.4279,83.34011,-110.3957,-93.10179,0.001067912,-0.1257102,0.09433498,0,0.3,0,0,6.001835E-08,0
638225086549736375,5.159632,-41.16902,-62.73411,-114.3295,-17.23721,-8.563474,47.92096,-0.8883717,-9.082087,-78.29288,-7.642097,14.50875,0,0,0,-1.632379,-125.5223,-186.4279,83.34011,-110.3957,-93.10179,0.001067912,-0.1257102,0.09433498,0,0.3,0,0,6.001835E-08,0
638225086550086263,5.159632,-41.16902,-62.73411,-114.3295,-17.31046,-8.636719,47.92096,-0.8883717,-9.082087,-78.29288,-7.642097,14.50875,0,0,0,-1.632379,-125.5223,-186.4279,83.34011,-110.3957,-93.10179,0.001067912,-0.1257102,0.09433498,0,0.3,0,0,6.001835E-08,0
638225086550416157,5.159632,-41.16902,-62.73411,-114.3295,-17.31046,-8.636719,47.92096,-0.8883717,-9.082087,-78.29288,-7.568851,14.43551,0,0,0,-1.632379,-125.5223,-186.4279,83.34011,-110.3957,-93.10179,0.001067912,-0.1257102,0.09433498,0,0.3,0,0,6.001835E-08,0
638225086550756055,5.159632,-41.16902,-62.73411,-114.3295,-17.31046,-8.636719,47.92096,-0.8883717,-9.082087,-78.29288,-7.642097,14.50875,0,0,0,-1.632379,-125.5223,-186.4279,83.34011,-110.3957,-93.10179,0.001067912,-0.1257102,0.09433498,0,0.3,0,0,6.001835E-08,0
638225086551095943,5.159632,-41.16902,-62.73411,-114.3295,-17.23721,-8.636719,47.92096,-0.8883717,-9.082087,-78.29288,-7.642097,14.50875,0,0,0,-1.632379,-125.5223,-186.4279,83.34011,-110.3957,-93.10179,0.001067912,-0.1257102,0.09433498,0,0.3,0,0,0,0
638225086551435833,5.159632,-41.16902,-62.73411,-114.3295,-17.31046,-8.636719,47.92096,-0.8883717,-9.082087,-78.29288,-7.568851,14.50875,0,0,0,-1.632379,-125.5223,-186.4279,83.34011,-110.3957,-93.10179,0.001067912,-0.1257102,0.09433498,0,0.3,0,0,0,0
638225086551775724,5.159632,-41.16902,-62.73411,-114.3295,-17.31046,-8.636719,47.92096,-0.8883717,-9.082087,-78.29288,-7.568851,14.50875,0,0,0,-1.632379,-125.5223,-186.4279,83.34011,-110.3957,-93.10179,0.001067912,-0.1257102,0.09433498,0,0.3,0,0,0,0
638225086552125612,5.159632,-41.16902,-62.73411,-114.3295,-17.31046,-8.636719,47.92096,-0.8883717,-9.082087,-78.29288,-7.568851,14.43551,0,0,0,-1.632379,-125.5223,-186.4279,83.34011,-110.3957,-93.10179,0.001067912,-0.1257102,0.09433498,0,0.3,0,0,0,0
638225086552555474,5.159632,-41.16902,-62.73411,-114.3295,-17.31046,-8.636719,47.92096,-0.8883717,-9.082087,-78.29288,-7.568851,14.50875,0,0,0,-1.632379,-125.5223,-186.4279,83.34011,-110.3957,-93.10179,0.001067912,-0.1257102,0.09433498,0,0.3,0,0,0,0
638225086552885368,5.159632,-41.16902,-62.73411,-114.3295,-17.31046,-8.636719,47.92096,-0.8883717,-9.082087,-78.29288,-7.642097,14.50875,0,0,0,-1.632379,-125.5223,-186.4279,83.34011,-110.3957,-93.10179,0.001067912,-0.1257102,0.09433498,0,0.3,0,0,0,0
638225086553235260,5.159632,-41.16902,-62.73411,-114.3295,-17.31046,-8.636719,47.92096,-0.8883717,-9.082087,-78.29288,-7.642097,14.50875,0,0,0,-1.632379,-125.5223,-186.4279,83.34011,-110.3957,-93.10179,0.001067912,-0.1257102,0.09433498,0,0.3,0,0,6.001835E-08,0
638225086553565151,5.159632,-41.16902,-62.73411,-114.4027,-17.31046,-8.636719,47.92096,-0.8883717,-9.082087,-78.29288,-7.568851,14.50875,0,0,0,-1.632379,-125.5223,-186.4279,83.34011,-110.3957,-93.10179,0.001067912,-0.1257102,0.09433498,0,0.3,0,0,6.001835E-08,0
638225086553915039,5.159632,-41.16902,-62.73411,-114.3295,-17.31046,-8.636719,47.92096,-0.8883717,-9.082087,-78.29288,-7.568851,14.50875,0,0,0,-1.632379,-125.5223,-186.4279,83.34011,-110.3957,-93.10179,0.001067912,-0.1257102,0.09433498,0,0.3,0,0,6.001835E-08,0
638225086554254928,5.159632,-41.16902,-62.73411,-114.4027,-17.31046,-8.636719,47.92096,-0.8883717,-9.082087,-78.29288,-7.568851,14.43551,0,0,0,-1.632379,-125.5223,-186.4279,83.34011,-110.3957,-93.10179,0.001067912,-0.1257102,0.09433498,0,0.3,0,0,6.001835E-08,0
638225086554594820,5.159632,-41.16902,-62.73411,-114.3295,-17.31046,-8.636719,47.92096,-0.8883717,-9.082087,-78.29288,-7.568851,14.50875,0,0,0,-1.632379,-125.5223,-186.4279,83.34011,-110.3957,-93.10179,0.001067912,-0.1257102,0.09433498,0,0.3,0,0,6.001835E-08,0
638225086554934712,5.159632,-41.16902,-62.73411,-114.3295,-17.31046,-8.636719,47.92096,-0.8883717,-9.082087,-78.29288,-7.568851,14.43551,0,0,0,-1.632379,-125.5223,-186.4279,83.34011,-110.3957,-93.10179,0.001067912,-0.1257102,0.09433498,0,0.3,0,0,6.001835E-08,0
638225086555274612,5.159632,-41.16902,-62.73411,-114.3295,-17.31046,-8.636719,47.92096,-0.8883717,-9.082087,-78.29288,-7.642097,14.50875,0,0,0,-1.632379,-125.5223,-186.4279,83.34011,-110.3957,-93.10179,0.001067912,-0.1257102,0.09433498,0,0.3,0,0,6.001835E-08,0
638225086555614505,5.159632,-41.16902,-62.73411,-114.4027,-17.31046,-8.636719,47.92096,-0.8883717,-9.082087,-78.29288,-7.642097,14.43551,0,0,0,-1.632379,-125.5223,-186.4279,83.34011,-110.3957,-93.10179,0.001067912,-0.1257102,0.09433498,0,0.3,0,0,6.001835E-08,0
638225086555954391,5.159632,-41.16902,-62.73411,-114.3295,-17.31046,-8.636719,47.92096,-0.8883717,-9.082087,-78.29288,-7.642097,14.50875,0,0,0,-1.632379,-125.5223,-186.4279,83.34011,-110.3957,-93.10179,0.001067912,-0.1257102,0.09433498,0,0.3,0,0,6.001835E-08,0
638225086556284417,5.159632,-41.16902,-62.73411,-114.3295,-17.31046,-8.636719,47.92096,-0.8883717,-9.082087,-78.29288,-7.642097,14.50875,0,0,0,-1.632379,-125.5223,-186.4279,83.34011,-110.3957,-93.10179,0.001067912,-0.1257102,0.09433498,0,0.3,0,0,6.001835E-08,0
638225086556624178,5.159632,-41.16902,-62.73411,-114.4027,-17.31046,-8.636719,47.92096,-0.8883717,-9.082087,-78.29288,-7.568851,14.50875,0,0,0,-1.632379,-125.5223,-186.4279,83.34011,-110.3957,-93.10179,0.001067912,-0.1257102,0.09433498,0,0.3,0,0,6.001835E-08,0
638225086557064168,5.159632,-41.16902,-62.73411,-114.3295,-17.31046,-8.636719,47.92096,-0.8883717,-9.082087,-78.29288,-7.568851,14.50875,0,0,0,-1.632379,-125.5223,-186.4279,83.34011,-110.3957,-93.10179,0.001067912,-0.1257102,0.09433498,0,0.3,0,0,6.001835E-08,0
638225086557403931,5.159632,-41.16902,-62.73411,-114.3295,-17.31046,-8.636719,47.92096,-0.8883717,-9.082087,-78.29288,-7.568851,14.50875,0,0,0,-1.632379,-125.5223,-186.4279,83.34011,-110.3957,-93.10179,0.001067912,-0.1257102,0.09433498,0,0.3,0,0,6.001835E-08,0
638225086557733826,5.159632,-41.16902,-62.73411,-114.3295,-17.31046,-8.636719,47.92096,-0.8883717,-9.082087,-78.29288,-7.642097,14.50875,0,0,0,-1.632379,-125.5223,-186.4279,83.34011,-110.3957,-93.10179,0.001067912,-0.1257102,0.09433498,0,0.3,0,0,0,0
638225086558073729,5.159632,-41.16902,-62.73411,-114.3295,-17.31046,-8.636719,47.92096,-0.8883717,-9.082087,-78.29288,-7.568851,14.43551,0,0,0,-1.632379,-125.5223,-186.4279,83.34011,-110.3957,-93.10179,0.001067912,-0.1257102,0.09433498,0,0.3,0,0,0,0
638225086558423607,5.159632,-41.16902,-62.73411,-114.3295,-17.31046,-8.636719,47.92096,-0.8883717,-9.082087,-78.29288,-7.642097,14.50875,0,0,0,-1.632379,-125.5223,-186.4279,83.34011,-110.3957,-93.10179,0.001067912,-0.1257102,0.09433498,0,0.3,0,0,0,0
638225086558753501,5.159632,-41.16902,-62.73411,-114.3295,-17.31046,-8.636719,47.92096,-0.8883717,-9.082087,-78.29288,-7.568851,14.43551,0,0,0,-1.632379,-125.5223,-186.4279,83.34011,-110.3957,-93.10179,0.001067912,-0.1257102,0.09433498,0,0.3,0,0,0,0
638225086559093392,5.159632,-41.16902,-62.73411,-114.3295,-17.23721,-8.563474,47.92096,-0.8883717,-9.082087,-78.29288,-7.568851,14.50875,0,0,0,-1.632379,-125.5223,-186.4279,83.34011,-110.3957,-93.10179,0.001067912,-0.1257102,0.09433498,0,0.3,0,0,0,0
638225086559443279,5.159632,-41.16902,-62.73411,-114.3295,-17.23721,-8.636719,47.92096,-0.8883717,-9.082087,-78.29288,-7.642097,14.50875,0,0,0,-1.632379,-125.5223,-186.4279,83.34011,-110.3957,-93.10179,0.001067912,-0.1257102,0.09433498,0,0.3,0,0,0,0
638225086559773177,5.159632,-41.16902,-62.73411,-114.3295,-17.31046,-8.636719,47.92096,-0.8883717,-9.082087,-78.29288,-7.568851,14.50875,0,0,0,-1.632379,-125.5223,-186.4279,83.34011,-110.3957,-93.10179,0.001067912,-0.1257102,0.09433498,0,0.3,0,0,0,0
638225086560113066,5.159632,-41.16902,-62.73411,-114.3295,-17.31046,-8.636719,47.92096,-0.8883717,-9.082087,-78.29288,-7.642097,14.50875,0,0,0,-1.632379,-125.5223,-186.4279,83.34011,-110.3957,-93.10179,0.001067912,-0.1257102,0.09433498,0,0.3,0,0,0,0
638225086560442952,5.159632,-41.16902,-62.73411,-114.3295,-17.23721,-8.636719,47.92096,-0.8883717,-9.082087,-78.29288,-7.568851,14.50875,0,0,0,-1.632379,-125.5223,-186.4279,83.34011,-110.3957,-93.10179,0.001067912,-0.1257102,0.09433498,0,0.3,0,0,0,0
638225086560792847,5.159632,-41.16902,-62.73411,-114.3295,-17.31046,-8.636719,47.92096,-0.8883717,-9.082087,-78.29288,-7.568851,14.50875,0,0,0,-1.632379,-125.5223,-186.4279,83.34011,-110.3957,-93.10179,0.001067912,-0.1257102,0.09433498,0,0.3,0,0,0,0
638225086561132739,5.159632,-41.16902,-62.73411,-114.3295,-17.31046,-8.636719,47.92096,-0.8883717,-9.082087,-78.29288,-7.642097,14.43551,0,0,0,-1.632379,-125.5223,-186.4279,83.34011,-110.3957,-93.10179,0.001067912,-0.1257102,0.09433498,0,0.3,0,0,0,0
638225086561472622,5.159632,-41.16902,-62.73411,-114.3295,-17.31046,-8.636719,47.92096,-0.8883717,-9.082087,-78.29288,-7.568851,14.50875,0,0,0,-1.632379,-125.5223,-186.4279,83.34011,-110.3957,-93.10179,0.001067912,-0.1257102,0.09433498,0,0.3,0,0,0,0
638225086561812523,5.159632,-41.16902,-62.73411,-114.3295,-17.31046,-8.636719,47.92096,-0.8883717,-9.082087,-78.29288,-7.642097,14.43551,0,0,0,-1.632379,-125.5223,-186.4279,83.34011,-110.3957,-93.10179,0.001067912,-0.1257102,0.09433498,0,0.3,0,0,0,0
638225086562152409,5.159632,-41.16902,-62.73411,-114.3295,-17.31046,-8.636719,47.92096,-0.8883717,-9.082087,-78.29288,-7.642097,14.43551,0,0,0,-1.632379,-125.5223,-186.4279,83.34011,-110.3957,-93.10179,0.001067912,-0.1257102,0.09433498,0,0.3,0,0,0,0
638225086562492297,5.159632,-41.16902,-62.73411,-114.4027,-17.31046,-8.636719,47.92096,-0.8883717,-9.082087,-78.29288,-7.642097,14.50875,0,0,0,-1.632379,-125.5223,-186.4279,83.34011,-110.3957,-93.10179,0.001067912,-0.1257102,0.09433498,0,0.3,0,0,0,0
638225086562842187,5.159632,-41.16902,-62.73411,-114.3295,-17.31046,-8.636719,47.92096,-0.8883717,-9.082087,-78.29288,-7.642097,14.50875,0,0,0,-1.632379,-125.5223,-186.4279,83.34011,-110.3957,-93.10179,0.001067912,-0.1257102,0.09433498,0,0.3,0,0,0,0
638225086563182081,5.159632,-41.16902,-62.73411,-114.3295,-17.31046,-8.636719,47.92096,-0.8883717,-9.082087,-78.29288,-7.568851,14.50875,0,0,0,-1.632379,-125.5223,-186.4279,83.34011,-110.3957,-93.10179,0.001067912,-0.1257102,0.09433498,0,0.3,0,0,0,0
638225086563521969,5.159632,-41.16902,-62.73411,-114.3295,-17.31046,-8.636719,47.92096,-0.8883717,-9.082087,-78.29288,-7.642097,14.50875,0,0,0,-1.632379,-125.5223,-186.4279,83.34011,-110.3957,-93.10179,0.001067912,-0.1257102,0.09433498,0,0.3,0,0,0,0
638225086563871859,5.159632,-41.16902,-62.73411,-114.3295,-17.31046,-8.636719,47.92096,-0.8883717,-9.082087,-78.29288,-7.642097,14.43551,0,0,0,-1.632379,-125.5223,-186.4279,83.34011,-110.3957,-93.10179,0.001067912,-0.1257102,0.09433498,0,0.3,0,0,0,0
638225086564211760,5.159632,-41.16902,-62.73411,-114.3295,-17.31046,-8.636719,47.92096,-0.8883717,-9.082087,-78.29288,-7.642097,14.43551,0,0,0,-1.632379,-125.5223,-186.4279,83.34011,-110.3957,-93.10179,0.001067912,-0.1257102,0.09433498,0,0.3,0,0,0,0
638225086564601624,5.159632,-41.16902,-62.73411,-114.3295,-17.31046,-8.636719,47.92096,-0.8883717,-9.082087,-78.29288,-7.642097,14.43551,0,0,0,-1.632379,-125.5223,-186.4279,83.34011,-110.3957,-93.10179,0.001067912,-0.1257102,0.09433498,0,0.3,0,0,0,0
638225086564941521,5.159632,-41.16902,-62.73411,-114.3295,-17.31046,-8.636719,47.92096,-0.8883717,-9.082087,-78.29288,-7.642097,14.50875,0,0,0,-1.632379,-125.5223,-186.4279,83.34011,-110.3957,-93.10179,0.001067912,-0.1257102,0.09433498,0,0.3,0,0,0,0
638225086565281552,5.159632,-41.16902,-62.73411,-114.3295,-17.31046,-8.636719,47.92096,-0.8883717,-9.082087,-78.29288,-7.642097,14.50875,0,0,0,-1.632379,-125.5223,-186.4279,83.34011,-110.3957,-93.10179,0.001067912,-0.1257102,0.09433498,0,0.3,0,0,0,0
638225086565621296,5.159632,-41.16902,-62.73411,-114.3295,-17.31046,-8.636719,47.92096,-0.8883717,-9.082087,-78.29288,-7.642097,14.43551,0,0,0,-1.632379,-125.5223,-186.4279,83.34011,-110.3957,-93.10179,0.001067912,-0.1257102,0.09433498,0,0.3,0,0,0,0
638225086565961192,5.159632,-41.16902,-62.73411,-114.3295,-17.31046,-8.636719,47.92096,-0.8883717,-9.082087,-78.29288,-7.642097,14.50875,0,0,0,-1.632379,-125.5223,-186.4279,83.34011,-110.3957,-93.10179,0.001067912,-0.1257102,0.09433498,0,0.3,0,0,0,0
638225086566291166,5.159632,-41.16902,-62.73411,-114.3295,-17.31046,-8.636719,47.92096,-0.8883717,-9.082087,-78.29288,-7.642097,14.50875,0,0,0,-1.632379,-125.5223,-186.4279,83.34011,-110.3957,-93.10179,0.001067912,-0.1257102,0.09433498,0,0.3,0,0,0,0
638225086566640975,5.159632,-41.16902,-62.73411,-114.3295,-17.31046,-8.636719,47.92096,-0.8883717,-9.082087,-78.29288,-7.642097,14.50875,0,0,0,-1.632379,-125.5223,-186.4279,83.34011,-110.3957,-93.10179,0.001067912,-0.1257102,0.09433498,0,0.3,0,0,0,0
638225086566970868,5.159632,-41.16902,-62.73411,-114.4027,-17.31046,-8.636719,47.92096,-0.8883717,-9.082087,-78.29288,-7.642097,14.50875,0,0,0,-1.632379,-125.5223,-186.4279,83.34011,-110.3957,-93.10179,0.001067912,-0.1257102,0.09433498,0,0.3,0,0,0,0
638225086567310757,5.159632,-41.16902,-62.73411,-114.3295,-17.31046,-8.636719,47.92096,-0.8883717,-9.082087,-78.29288,-7.642097,14.43551,0,0,0,-1.632379,-125.5223,-186.4279,83.34011,-110.3957,-93.10179,0.001067912,-0.1257102,0.09433498,0,0.3,0,0,0,0
638225086567650647,5.159632,-41.16902,-62.73411,-114.3295,-17.31046,-8.636719,47.92096,-0.8883717,-9.082087,-78.29288,-7.568851,14.43551,0,0,0,-1.632379,-125.5223,-186.4279,83.34011,-110.3957,-93.10179,0.001067912,-0.1257102,0.09433498,0,0.3,0,0,0,0
638225086567990539,5.159632,-41.16902,-62.73411,-114.3295,-17.31046,-8.636719,47.92096,-0.8883717,-9.082087,-78.29288,-7.642097,14.50875,0,0,0,-1.632379,-125.5223,-186.4279,83.34011,-110.3957,-93.10179,0.001067912,-0.1257102,0.09433498,0,0.3,0,0,0,0
638225086568320434,5.159632,-41.16902,-62.73411,-114.4027,-17.31046,-8.636719,47.92096,-0.8883717,-9.082087,-78.29288,-7.642097,14.50875,0,0,0,-1.632379,-125.5223,-186.4279,83.34011,-110.3957,-93.10179,0.001067912,-0.1257102,0.09433498,0,0.3,0,0,0,0
638225086568660326,4.311473,-41.23915,-62.17377,-114.4027,-16.94423,-8.636719,47.92096,-0.8883717,-9.082087,-78.29288,-7.642097,14.43551,0,0,0,-1.327342,-126.8014,-185.9559,83.34011,-110.3957,-93.10179,0.001067912,-0.1257102,0.09433498,0,0.3,0,0,2.376727E-05,0
638225086569000217,2.544476,-41.23915,-61.40331,-115.4282,-15.69907,-8.636719,47.92096,-0.8883717,-9.082087,-78.29288,-7.642097,14.43551,0,0,0,-0.7461994,-128.3816,-185.1417,83.34011,-110.3957,-93.10179,0.001067912,-0.1257102,0.09433498,0,0.3,0,0,9.837008E-05,0
638225086569340114,-1.107318,-40.95861,-60.18925,-117.2593,-10.05919,-8.636719,47.92096,-0.8883717,-9.082087,-78.29288,-7.642097,14.50875,0,0,0,0.2898848,-130.3559,-183.3476,83.34011,-110.3957,-93.10179,0.001067912,-0.1257102,0.09433498,0,0.3,0,0,0.0004413149,0
638225086569680007,-4.806232,-41.21577,-57.92457,-119.8229,-3.467122,-8.563474,47.92096,-0.8883717,-9.082087,-78.29288,-7.568851,14.50875,0,0,0,1.062722,-135.3274,-180.9891,83.34011,-110.3957,-93.10179,0.001067912,-0.1257102,0.09433498,0,0.3,0,0,0.0009029761,0
638225086570019890,-6.431869,-41.16902,-56.24356,-122.3865,-0.3908245,-8.563474,47.92096,-0.8883717,-9.082087,-78.29288,-7.642097,14.50875,0,0,0,1.174674,-138.5297,-178.7701,83.34011,-110.3957,-93.10179,0.001067912,-0.1257102,0.09433498,0,0.3,0,0,0.001213391,0
638225086570359790,-8.646505,-41.19239,-52.20449,-131.6886,3.93064,-8.563474,47.92096,-0.8883717,-9.082087,-78.29288,-7.642097,14.43551,0,0,0,0.7558058,-146.1958,-173.3203,83.34011,-110.3957,-93.10179,0.001067912,-0.1257102,0.09433498,0,0.3,0,0,0.001958099,0
638225086570709677,-9.376864,-41.19239,-49.47286,-147.2898,4.296866,-8.490229,47.92096,-0.8883717,-9.082087,-78.29288,-7.568851,14.43551,0,0,0,0.1650306,-151.1248,-169.3494,83.34011,-110.3957,-93.10179,0.001067912,-0.1257102,0.09433498,0,0.3,0,0,0.002775129,0
638225086571039577,-10.34282,-41.0755,-47.30156,-167.945,0.5613627,-9.881886,47.92096,-0.8883717,-9.082087,-78.29288,-7.642097,14.43551,0,0,0,-0.4527623,-154.6979,-165.8692,83.34011,-110.3957,-93.10179,0.001067912,-0.1257102,0.09433498,0,0.3,0,0,0.003620667,0
638225086571379472,-11.14386,-40.95861,-45.06022,-169.4099,-2.148709,-12.73845,47.92096,-0.8883717,-9.082087,-78.29288,-7.568851,14.43551,0,0,0,-1.219929,-158.2563,-162.1571,83.34011,-110.3957,-93.10179,0.001067912,-0.1257102,0.09433498,0,0.3,0,0,0.004058201,0
638225086571719355,-13.14646,-40.77158,-40.9511,-169.8493,-7.12938,-16.62044,47.92096,-0.8883717,-9.082087,-78.29288,-7.642097,14.50875,0,0,0,-3.090681,-164.4487,-155.1172,83.34011,-110.3957,-93.10179,0.001067912,-0.1257102,0.09433498,0,0.3,0,0,0.004907881,0
638225086572149208,-16.18569,-39.46241,-35.76801,-169.9958,-11.67058,-18.8178,47.92096,-0.8883717,-9.082087,-78.29288,-7.642097,14.43551,0,0,0,-6.971029,-169.6024,-144.3332,83.34011,-110.3957,-93.10179,0.001067912,-0.1257102,0.09433498,0,0.3,0,0,0.005708946,0
638225086572489111,-17.66997,-38.15323,-33.03638,-169.9226,-12.98899,-19.40376,47.92096,-0.8883717,-9.082087,-78.29288,-7.568851,14.50875,0,0,0,-9.76246,-170.8198,-137.7047,83.34011,-110.3957,-93.10179,0.001067912,-0.1257102,0.09433498,0,0.3,0,0,0.006476101,0
638225086572828993,-19.22493,-35.53487,-29.30082,-169.8493,-13.57495,-19.91648,47.92096,-0.8883717,-9.082087,-78.29288,-7.642097,14.43551,0,0,0,-14.24268,-170.4423,-127.5078,83.34011,-110.3957,-93.10179,0.001067912,-0.1257102,0.09433498,0,0.3,0,0,0.007213786,0
638225086573158895,-19.71969,-33.85164,-27.50308,-169.8493,-13.42846,-20.06297,47.92096,-0.8883717,-9.082087,-78.29288,-7.642097,14.50875,0,0,0,-16.58897,-169.2114,-122.0689,83.34011,-110.3957,-93.10179,0.001067912,-0.1257102,0.09433498,0,0.3,0,0,0.007581579,0
638225086573498780,-20.23801,-30.1345,-23.62743,-169.8493,-12.25654,-20.20946,47.92096,-0.8883717,-9.082087,-78.29288,-7.568851,14.50875,0,0,0,-21.40647,-165.7673,-110.2878,83.34011,-110.3957,-93.10179,0.001067912,-0.1257102,0.09433498,0,0.3,0,0,0.008288414,0
638225086573838675,-20.30869,-26.01994,-19.56501,-169.8493,-10.27892,-20.35595,47.92096,-0.8883717,-9.082087,-78.29288,-7.568851,14.43551,0,0,0,-26.09265,-160.7992,-97.84525,83.34011,-110.3957,-93.10179,0.001067912,-0.1257102,0.09433498,0,0.3,0,0,0.008902342,0
638225086574168575,-20.28513,-24.07955,-17.55714,-169.8493,-9.033754,-20.35595,47.92096,-0.8883717,-9.082087,-78.29288,-7.642097,14.50875,0,0,0,-28.26232,-158.1955,-91.88602,83.34011,-110.3957,-93.10179,0.001067912,-0.1257102,0.09433498,0,0.3,0,0,0.009145357,0
638225086574508464,-20.07309,-20.03512,-13.28459,-169.8493,-5.810967,-20.35595,47.92096,-0.8883717,-9.082087,-78.29288,-7.568851,14.50875,0,0,0,-32.48145,-152.1168,-79.46092,83.34011,-110.3957,-93.10179,0.001067912,-0.1257102,0.09433498,0,0.3,0,0,0.009431764,0
638225086574858347,-19.38985,-15.99069,-8.895308,-169.8493,-1.928973,-20.35595,47.92096,-0.8883717,-9.082087,-78.29288,-7.642097,14.43551,0,0,0,-35.71272,-145.1315,-66.88085,83.34011,-110.3957,-93.10179,0.001067912,-0.1257102,0.09433498,0,0.3,0,0,0.009420181,0
638225086575198234,-18.75373,-13.8399,-6.537234,-169.8493,0.268382,-20.35595,47.92096,-0.8883717,-9.082087,-78.29288,-7.568851,14.50875,0,0,0,-36.74656,-141.0316,-60.12128,83.34011,-110.3957,-93.10179,0.001067912,-0.1257102,0.09433498,0,0.3,0,0,0.009300624,0
638225086575538126,-16.93961,-9.935737,-1.914476,-169.8493,4.443357,-20.42919,47.92096,-0.8883717,-9.082087,-78.29288,-7.642097,14.50875,0,0,0,-36.97261,-132.9342,-46.96059,83.34011,-110.3957,-93.10179,0.001067912,-0.1257102,0.09433498,0,0.3,0,0,0.008870113,0
638225086575878028,-14.25378,-5.680903,2.614894,-169.8493,8.325351,-20.42919,47.92096,-0.8883717,-9.082087,-78.29288,-7.568851,14.50875,0,0,0,-34.16973,-123.0612,-33.8435,83.34011,-110.3957,-93.10179,0.001067912,-0.1257102,0.09433498,0,0.3,0,0,0.00827371,0
638225086576217913,-12.72238,-3.740513,4.599411,-169.8493,9.8635,-20.42919,47.92096,-0.8883717,-9.082087,-78.29288,-7.642097,14.50875,0,0,0,-31.65966,-118.2701,-28.1204,83.34011,-110.3957,-93.10179,0.001067912,-0.1257102,0.09433498,0,0.3,0,0,0.007962095,0
638225086576667764,-5.98423,2.969032,11.1133,-169.8493,13.15953,-20.42919,47.92096,-0.8883717,-9.082087,-78.29288,-7.568851,14.50875,0,0,0,-16.56339,-100.5924,-10.34159,83.34011,-110.3957,-93.10179,0.001067912,-0.1257102,0.09433498,0,0.3,0,0,0.007213546,0
638225086576997668,-4.005194,4.605506,12.63087,-169.8493,13.67225,-20.42919,47.92096,-0.8883717,-9.082087,-78.29288,-7.642097,14.43551,0,0,0,-11.32071,-96.06551,-6.666892,83.34011,-110.3957,-93.10179,0.001067912,-0.1257102,0.09433498,0,0.3,0,0,0.007078385,0
638225086577337552,1.130878,8.182371,16.27304,-169.8493,14.62444,-20.42919,47.92096,-0.8883717,-9.082087,-78.29288,-7.642097,14.50875,0,0,0,3.342518,-85.67867,0.9762048,83.34011,-110.3957,-93.10179,0.001067912,-0.1257102,0.09433498,0,0.3,0,0,0.00702917,0
638225086577677444,6.691029,11.38519,19.40158,-169.8493,15.43013,-20.42919,47.92096,-0.8883717,-9.082087,-78.29288,-7.568851,14.50875,0,0,0,20.39286,-76.10371,5.481023,83.34011,-110.3957,-93.10179,0.001067912,-0.1257102,0.09433498,0,0.3,0,0,0.007334423,0
638225086578017336,9.659584,12.78788,20.73237,-169.8493,15.79636,-20.42919,47.92096,-0.8883717,-9.082087,-78.29288,-7.642097,14.43551,0,0,0,29.74128,-71.84883,6.385736,83.34011,-110.3957,-93.10179,0.001067912,-0.1257102,0.09433498,0,0.3,0,0,0.007654021,0
638225086578367220,16.09145,15.05556,22.92702,-169.8493,16.6753,-20.42919,47.92096,-0.8883717,-9.082087,-78.29288,-7.642097,14.50875,0,0,0,50.09048,-64.82718,5.289742,83.34011,-110.3957,-93.10179,0.001067912,-0.1257102,0.09433498,0,0.3,0,0,0.008691918,0
638225086578697124,22.40552,16.50501,24.39789,-169.8493,17.92047,-20.42919,47.92096,-0.8883717,-9.082087,-78.29288,-7.642097,14.50875,0,0,0,69.72868,-60.20706,0.7781661,83.34011,-110.3957,-93.10179,0.001067912,-0.1257102,0.09433498,0,0.3,0,0,0.0102614,0
638225086579037022,29.09655,17.20636,25.12166,-169.8493,19.97133,-20.42919,47.92096,-0.8883717,-9.082087,-78.29288,-7.642097,14.50875,0,0,0,89.47342,-57.93941,-7.575219,83.34011,-110.3957,-93.10179,0.001067912,-0.1257102,0.09433498,0,0.3,0,0,0.01241089,0
638225086579386898,32.74835,17.29987,25.16835,-169.8493,21.28975,-20.42919,47.92096,-0.8883717,-9.082087,-78.29288,-7.642097,14.43551,0,0,0,99.55022,-57.68538,-13.57201,83.34011,-110.3957,-93.10179,0.001067912,-0.1257102,0.09433498,0,0.3,0,0,0.01371119,0
638225086579726789,40.73517,16.80893,24.72475,-169.8493,24.58578,-20.42919,47.92096,-0.8883717,-9.082087,-78.29288,-7.568851,14.43551,0,0,0,119.6981,-59.2132,-29.3608,83.34011,-110.3957,-93.10179,0.001067912,-0.1257102,0.09433498,0,0.3,0,0,0.01673906,0
638225086580056691,46.88432,15.6634,23.27722,-169.8493,27.66208,-20.42919,47.92096,-0.8883717,-9.082087,-78.29288,-7.642097,14.43551,0,0,0,132.1951,-63.14323,-44.57617,83.34011,-110.3957,-93.10179,0.001067912,-0.1257102,0.09433498,0,0.3,0,0,0.02025367,0
638225086580406579,50.08848,14.65813,22.15656,-169.8493,29.4932,-20.42919,47.92096,-0.8883717,-9.082087,-78.29288,-7.568851,14.50875,0,0,0,137.5306,-66.40865,-53.3096,83.34011,-110.3957,-93.10179,0.001067912,-0.1257102,0.09433498,0,0.3,0,0,0.02219623,0
638225086580746476,55.55439,12.53072,20.17204,-169.8493,33.3752,-20.42919,47.92096,-0.8883717,-9.082087,-78.29288,-7.642097,14.50875,0,0,0,145.2711,-72.88849,-68.71085,83.34011,-110.3957,-93.10179,0.001067912,-0.1257102,0.09433498,0,0.3,0,0,0.02629356,0
638225086581216323,60.00722,10.49681,17.62719,-169.8493,37.47693,-20.42919,47.92096,-0.8883717,-9.082087,-78.29288,-7.642097,14.50875,0,0,0,148.5339,-79.44501,-82.61886,83.34011,-110.3957,-93.10179,0.001067912,-0.1257102,0.09433498,0,0.3,0,0,0.03058493,0
638225086581556204,63.39986,8.953853,14.31187,-169.8493,40.62647,-20.42919,47.92096,-0.8883717,-9.082087,-78.29288,-7.642097,14.50875,0,0,0,147.2573,-85.10697,-94.60859,83.34011,-110.3957,-93.10179,0.001067912,-0.1257102,0.09433498,0,0.3,0,0,0.03512922,0
638225086581896098,65.99145,7.738185,11.90711,-169.9226,42.53085,-20.42919,47.92096,-0.8883717,-9.082087,-78.29288,-7.642097,14.50875,0,0,0,145.8371,-89.17564,-103.3931,83.34011,-110.3957,-93.10179,0.001067912,-0.1257102,0.09433498,0,0.3,0,0,0.03981144,0
638225086582245994,68.2532,5.98482,11.41681,-170.0691,43.33654,-20.42919,47.92096,-0.8883717,-9.082087,-78.29288,-7.642097,14.43551,0,0,0,147.7018,-93.45769,-109.4325,83.34011,-110.3957,-93.10179,0.001067912,-0.1257102,0.09433498,0,0.3,0,0,0.04431167,0
638225086582695920,70.11445,3.623622,11.81372,-170.2888,43.55628,-20.42919,47.92096,-0.8883717,-9.082087,-78.29288,-7.568851,14.50875,0,0,0,150.8211,-98.74745,-113.7965,83.34011,-110.3957,-93.10179,0.001067912,-0.1257102,0.09433498,0,0.3,0,0,0.04849699,0
638225086583035740,70.58564,2.267686,12.72426,-170.5085,43.33654,-20.42919,47.92096,-0.8883717,-9.082087,-78.29288,-7.642097,14.50875,0,0,0,153.3706,-101.4487,-114.2965,83.34011,-110.3957,-93.10179,0.001067912,-0.1257102,0.09433498,0,0.3,0,0,0.0524019,0
638225086583365638,70.67989,1.496205,13.30794,-170.5818,42.82383,-20.42919,47.92096,-0.8883717,-9.082087,-78.29288,-7.568851,14.43551,0,0,0,154.764,-102.9373,-114.0914,83.34011,-110.3957,-93.10179,0.001067912,-0.1257102,0.09433498,0,0.3,0,0,0.05425257,0
638225086583705527,70.70345,-0.5844551,14.522,-170.5818,41.6519,-20.42919,47.92096,-0.8883717,-9.082087,-78.29288,-7.642097,14.43551,0,0,0,157.4112,-107.0999,-113.236,83.34011,-110.3957,-93.10179,0.001067912,-0.1257102,0.09433498,0,0.3,0,0,0.05777529,0
638225086584035419,70.70345,-3.530109,15.54928,-170.5818,39.96726,-20.42919,47.92096,-0.8883717,-9.082087,-78.29288,-7.642097,14.43551,0,0,0,159.3582,-113.3302,-112.5543,83.34011,-110.3957,-93.10179,0.001067912,-0.1257102,0.09433498,0,0.3,0,0,0.06108968,0
638225086584385311,70.70345,-5.33023,16.38978,-170.655,39.08832,-20.42919,47.92096,-0.8883717,-9.082087,-78.29288,-7.642097,14.50875,0,0,0,160.8278,-116.9689,-112.0397,83.34011,-110.3957,-93.10179,0.001067912,-0.1257102,0.09433498,0,0.3,0,0,0.06264374,0
638225086584725198,70.60921,-8.042102,17.86066,-170.655,37.62342,-20.42919,47.92096,-0.8883717,-9.082087,-78.29288,-7.642097,14.43551,0,0,0,163.1277,-122.229,-110.9331,83.34011,-110.3957,-93.10179,0.001067912,-0.1257102,0.09433498,0,0.3,0,0,0.06555415,0
638225086585075090,70.44428,-9.795467,18.70116,-170.655,36.23176,-20.42919,47.92096,-0.8883717,-9.082087,-78.29288,-7.568851,14.43551,0,0,0,164.1159,-125.6467,-110.0538,83.34011,-110.3957,-93.10179,0.001067912,-0.1257102,0.09433498,0,0.3,0,0,0.0682737,0
638225086585404980,70.35004,-10.6137,19.07472,-170.7283,35.49931,-20.50244,47.92096,-0.8883717,-9.082087,-78.29288,-7.642097,14.50875,0,0,0,164.4768,-127.2394,-109.6208,83.34011,-110.3957,-93.10179,0.001067912,-0.1257102,0.09433498,0,0.3,0,0,0.06958264,0
638225086585744871,70.42072,-14.91529,21.3861,-170.8748,33.88792,-28.26642,47.92096,-0.8883717,-9.082087,-78.29288,-7.642097,14.50875,0,0,0,167.221,-135.1412,-108.8734,83.34011,-110.3957,-93.10179,0.001067912,-0.1257102,0.09433498,0,0.3,0,0,0.07194496,0
638225086586084763,70.35004,-20.71309,26.10224,-170.8748,32.64275,-49.36103,47.92096,-0.8883717,-9.082087,-78.29288,-7.568851,14.50875,0,0,0,172.7208,-143.564,-106.6771,83.34011,-110.3957,-93.10179,0.001067912,-0.1257102,0.09433498,0,0.3,0,0,0.07370464,0
638225086586434644,70.06733,-24.10293,29.60433,-170.8748,31.69056,-78.6591,47.92096,-0.8883717,-9.082087,-78.29288,-7.568851,14.43551,0,0,0,176.3612,-147.0493,-104.3944,83.34011,-110.3957,-93.10179,0.001067912,-0.1257102,0.09433498,0,0.3,0,0,0.07501964,0
638225086586764546,69.9024,-24.10293,29.58099,-170.948,31.47083,-88.47395,47.92096,-0.8883717,-9.082087,-78.29288,-7.568851,14.50875,0,0,0,176.132,-147.0761,-103.9032,83.34011,-110.3957,-93.10179,0.001067912,-0.1257102,0.09433498,0,0.3,0,0,0.07566166,0
638225086587104436,69.43121,-23.49509,30.2814,-169.1169,31.25109,-96.09145,47.92096,-0.8883717,-9.082087,-78.29288,-7.568851,14.43551,0,0,0,177.4532,-144.9683,-101.76,83.34011,-110.3957,-93.10179,0.001067912,-0.1257102,0.09433498,0,0.3,0,0,0.07691604,0
638225086587444330,68.51237,-21.99889,31.77563,-165.2349,30.73837,-96.53092,47.92096,-0.8883717,-9.082087,-78.29288,-7.642097,14.43551,0,0,0,180.3882,-139.9645,-97.33817,83.34011,-110.3957,-93.10179,0.001067912,-0.1257102,0.09433498,0,0.3,0,0,0.07808946,0
638225086587784218,67.82912,-21.04038,32.75621,-162.1586,30.44539,-96.09145,47.92096,-0.8883717,-9.082087,-78.29288,-7.568851,14.50875,0,0,0,182.0735,-136.6708,-94.15514,83.34011,-110.3957,-93.10179,0.001067912,-0.1257102,0.09433498,0,0.3,0,0,0.07863629,0
638225086588114110,66.08569,-18.93634,34.88082,-155.8595,30.07917,-94.33356,47.92096,-0.8883717,-9.082087,-78.29288,-7.642097,14.43551,0,0,0,185.0173,-129.3172,-86.30634,83.34011,-110.3957,-93.10179,0.001067912,-0.1257102,0.09433498,0,0.3,0,0,0.07963841,0
638225086588454006,64.01242,-16.66866,37.16885,-150.6591,30.15241,-89.57263,47.92096,-0.8883717,-9.082087,-78.29288,-7.568851,14.50875,0,0,0,187.2495,-121.1607,-77.07256,83.34011,-110.3957,-93.10179,0.001067912,-0.1257102,0.09433498,0,0.3,0,0,0.08048666,0
638225086588873998,61.23234,-13.93341,39.92382,-144.2868,30.59188,-85.39766,47.92096,-0.8883717,-9.082087,-78.29288,-7.568851,14.50875,0,0,0,188.4698,-111.0258,-64.87634,83.34011,-110.3957,-93.10179,0.001067912,-0.1257102,0.09433498,0,0.3,0,0,0.08112351,0
638225086589213763,60.05434,-12.92815,40.92776,-142.0894,30.59188,-84.6652,47.92096,-0.8883717,-9.082087,-78.29288,-7.642097,14.50875,0,0,0,188.3148,-107.235,-59.86442,83.34011,-110.3957,-93.10179,0.001067912,-0.1257102,0.09433498,0,0.3,0,0,0.08135806,0
638225086589553655,56.02559,-10.076,43.89286,-134.9846,28.10155,-83.63977,47.92096,-0.8883717,-9.082087,-78.29288,-7.642097,14.43551,0,0,0,185.5501,-96.07719,-43.31543,83.34011,-110.3957,-93.10179,0.001067912,-0.1257102,0.09433498,0,0.3,0,0,0.08158811,0
638225086589893554,51.17223,-7.55116,46.41436,-126.9277,20.85028,-83.27354,47.92096,-0.8883717,-9.082087,-78.29288,-7.568851,14.50875,0,0,0,178.2313,-86.11027,-24.90609,83.34011,-110.3957,-93.10179,0.001067912,-0.1257102,0.09433498,0,0.3,0,0,0.0814934,0
638225086590243428,45.98904,-4.979557,46.99805,-120.0426,8.691576,-76.90121,47.92096,-0.8883717,-9.082087,-78.29288,-7.642097,14.43551,0,0,0,165.6834,-79.17263,-8.290133,83.34011,-110.3957,-93.10179,0.001067912,-0.1257102,0.09433498,0,0.3,0,0,0.08115784,0
638225086590583325,42.87913,-3.693756,46.9747,-117.1861,0.4148723,-68.55127,47.92096,-0.8883717,-9.082087,-78.29288,-7.568851,14.43551,0,0,0,156.8847,-76.22842,0.6013936,83.34011,-110.3957,-93.10179,0.001067912,-0.1257102,0.09433498,0,0.3,0,0,0.08091428,0
638225086590933213,37.03626,-1.870256,46.55445,-117.6255,-9.326735,-44.67334,47.92096,-0.8883717,-9.082087,-78.29288,-7.642097,14.50875,0,0,0,138.5908,-72.70218,15.32423,83.34011,-110.3957,-93.10179,0.001067912,-0.1257102,0.09433498,0,0.3,0,0,0.08024652,0
638225086591273105,31.57035,-0.8416153,46.41436,-113.8168,-13.86794,-21.01515,47.92096,-0.8883717,-9.082087,-78.29288,-7.642097,14.43551,0,0,0,120.3771,-70.54526,27.54733,83.34011,-110.3957,-93.10179,0.001067912,-0.1257102,0.09433498,0,0.3,0,0,0.07930609,0
638225086591612998,28.81383,-0.4208077,46.34432,-109.8615,-15.1131,-13.83713,47.92096,-0.8883717,-9.082087,-78.29288,-7.642097,14.50875,0,0,0,110.7678,-69.68394,33.02072,83.34011,-110.3957,-93.10179,0.001067912,-0.1257102,0.09433498,0,0.3,0,0,0.07869337,0
638225086591942891,22.49976,-0.1402692,46.27428,-98.72827,-16.50476,-4.754725,47.92096,-0.8883717,-9.082087,-78.29288,-7.642097,14.43551,0,0,0,87.90759,-69.1489,43.88018,83.34011,-110.3957,-93.10179,0.001067912,-0.1257102,0.09433498,0,0.3,0,0,0.07711698,0
638225086592282772,17.76421,-0.233782,46.06416,-90.81779,-17.01748,-1.971408,47.92096,-0.8883717,-9.082087,-78.29288,-7.642097,14.50875,0,0,0,69.98289,-69.71933,50.08988,83.34011,-110.3957,-93.10179,0.001067912,-0.1257102,0.09433498,0,0.3,0,0,0.07512096,0
638225086592622674,12.34542,-0.4909423,45.34039,-81.80864,-17.23721,-2.337634,47.92096,-0.8883717,-9.082087,-78.29288,-7.568851,14.50875,0,0,0,48.78948,-71.52345,54.56959,83.34011,-110.3957,-93.10179,0.001067912,-0.1257102,0.09433498,0,0.3,0,0,0.07268589,0
638225086592962559,9.541784,-0.6545897,44.63997,-76.75472,-17.31046,-4.095518,47.92096,-0.8883717,-9.082087,-78.29288,-7.568851,14.50875,0,0,0,37.63564,-73.05679,55.54853,83.34011,-110.3957,-93.10179,0.001067912,-0.1257102,0.09433498,0,0.3,0,0,0.07131861,0
638225086593392419,3.981634,-1.332558,42.39864,-65.69471,-17.45695,-8.563474,47.92096,-0.8883717,-9.082087,-78.29288,-7.642097,14.43551,0,0,0,15.50034,-78.22627,54.34101,83.34011,-110.3957,-93.10179,0.001067912,-0.1257102,0.09433498,0,0.3,0,0,0.0683441,0
638225086593732314,-0.8952785,-2.291064,39.43353,-54.63469,-17.45695,-11.42003,47.92096,-0.8883717,-9.082087,-78.29288,-7.642097,14.50875,0,0,0,-3.405374,-84.97527,49.56841,83.34011,-110.3957,-93.10179,0.001067912,-0.1257102,0.09433498,0,0.3,0,0,0.06517069,0
638225086594082213,-4.735552,-3.179435,36.58516,-44.38036,-17.45695,-12.73845,47.92096,-0.8883717,-9.082087,-78.29288,-7.568851,14.50875,0,0,0,-17.55355,-91.1223,43.54778,83.34011,-110.3957,-93.10179,0.001067912,-0.1257102,0.09433498,0,0.3,0,0,0.06188991,0
638225086594432090,-8.057507,-3.974295,33.80684,-36.25014,-17.5302,-13.32441,47.92096,-0.8883717,-9.082087,-78.29288,-7.568851,14.43551,0,0,0,-29.04604,-96.69527,36.82883,83.34011,-110.3957,-93.10179,0.001067912,-0.1257102,0.09433498,0,0.3,0,0,0.05856807,0
638225086594761990,-9.400424,-4.348346,32.61613,-33.68657,-17.5302,-13.76388,47.92096,-0.8883717,-9.082087,-78.29288,-7.568851,14.50875,0,0,0,-33.45765,-99.08141,33.74202,83.34011,-110.3957,-93.10179,0.001067912,-0.1257102,0.09433498,0,0.3,0,0,0.05690304,0
638225086595111868,-11.89778,-4.956179,29.72107,-30.24404,-17.45695,-16.47395,47.92096,-0.8883717,-9.082087,-78.29288,-7.642097,14.43551,0,0,0,-41.01955,-103.9783,26.33908,83.34011,-110.3957,-93.10179,0.001067912,-0.1257102,0.09433498,0,0.3,0,0,0.05362082,0
638225086595451766,-13.40562,-5.33023,26.82601,-29.14537,-17.5302,-18.23184,47.92096,-0.8883717,-9.082087,-78.29288,-7.642097,14.50875,0,0,0,-44.7346,-108.0367,19.34458,83.34011,-110.3957,-93.10179,0.001067912,-0.1257102,0.09433498,0,0.3,0,0,0.05047544,0
638225086595791652,-14.11242,-5.657525,24.56132,-28.63265,-17.5302,-18.74455,47.92096,-0.8883717,-9.082087,-78.29288,-7.568851,14.50875,0,0,0,-45.87074,-111.08,14.10172,83.34011,-110.3957,-93.10179,0.001067912,-0.1257102,0.09433498,0,0.3,0,0,0.04902521,0
638225086596131543,-14.96058,-7.387512,21.10593,-27.0945,-17.5302,-18.74455,47.92096,-0.8883717,-9.082087,-78.29288,-7.568851,14.50875,0,0,0,-46.5353,-118.2005,5.801335,83.34011,-110.3957,-93.10179,0.001067912,-0.1257102,0.09433498,0,0.3,0,0,0.04636928,0
638225086596471443,-16.20925,-10.14614,17.30033,-23.359,-17.31046,-17.42614,47.92096,-0.8883717,-9.082087,-78.29288,-7.568851,14.43551,0,0,0,-47.71175,-127.458,-4.224034,83.34011,-110.3957,-93.10179,0.001067912,-0.1257102,0.09433498,0,0.3,0,0,0.0440039,0
638225086596801338,-17.22233,-11.50208,14.89556,-21.67436,-16.79774,-16.25422,47.92096,-0.8883717,-9.082087,-78.29288,-7.568851,14.50875,0,0,0,-48.83865,-132.1094,-10.79523,83.34011,-110.3957,-93.10179,0.001067912,-0.1257102,0.09433498,0,0.3,0,0,0.04292813,0
638225086597151224,-19.57833,-14.07368,9.852547,-18.30508,-15.33284,-14.42309,47.92096,-0.8883717,-9.082087,-78.29288,-7.568851,14.50875,0,0,0,-50.98986,-140.4599,-24.98227,83.34011,-110.3957,-93.10179,0.001067912,-0.1257102,0.09433498,0,0.3,0,0,0.04096883,0
638225086597491108,-22.26416,-16.52839,4.412633,-14.05686,-14.74688,-12.6652,47.92096,-0.8883717,-9.082087,-78.29288,-7.642097,14.43551,0,0,0,-52.32283,-147.5415,-40.54613,83.34011,-110.3957,-93.10179,0.001067912,-0.1257102,0.09433498,0,0.3,0,0,0.0392391,0
638225086597831018,-24.73796,-19.35715,-1.073974,-9.442415,-14.74688,-8.636719,47.92096,-0.8883717,-9.082087,-78.29288,-7.642097,14.50875,0,0,0,-51.60241,-154.1762,-56.35383,83.34011,-110.3957,-93.10179,0.001067912,-0.1257102,0.09433498,0,0.3,0,0,0.03774872,0
638225086598170897,-26.29292,-21.57808,-4.27255,-6.219628,-14.52714,-2.777105,47.92096,-0.8883717,-9.082087,-78.29288,-7.642097,14.50875,0,0,0,-50.52838,-158.6714,-66.08176,83.34011,-110.3957,-93.10179,0.001067912,-0.1257102,0.09433498,0,0.3,0,0,0.03708744,0
638225086598510786,-27.87143,-24.17306,-7.377736,-3.289821,-14.23416,5.646089,47.92096,-0.8883717,-9.082087,-78.29288,-7.568851,14.50875,0,0,0,-48.86823,-163.5021,-75.9426,83.34011,-110.3957,-93.10179,0.001067912,-0.1257102,0.09433498,0,0.3,0,0,0.0358342,0
638225086598850691,-29.59131,-27.32912,-11.62694,-1.458692,-14.01443,12.45789,47.92096,-0.8883717,-9.082087,-78.29288,-7.642097,14.50875,0,0,0,-45.22848,-168.4849,-88.70535,83.34011,-110.3957,-93.10179,0.001067912,-0.1257102,0.09433498,0,0.3,0,0,0.03472308,0
638225086599180577,-30.27455,-28.52141,-13.30794,-0.8727306,-14.01443,14.06928,47.92096,-0.8883717,-9.082087,-78.29288,-7.568851,14.50875,0,0,0,-43.59402,-170.0921,-93.67164,83.34011,-110.3957,-93.10179,0.001067912,-0.1257102,0.09433498,0,0.3,0,0,0.03421682,0
638225086599600566,-31.59391,-31.49044,-16.90342,-0.5065048,-14.01443,18.09777,47.92096,-0.8883717,-9.082087,-78.29288,-7.568851,14.50875,0,0,0,-39.2599,-173.895,-104.5187,83.34011,-110.3957,-93.10179,0.001067912,-0.1257102,0.09433498,0,0.3,0,0,0.03329038,0
638225086599940329,-32.51274,-34.59974,-19.96191,-1.824918,-14.16092,28.57183,47.92096,-0.8883717,-9.082087,-78.29288,-7.568851,14.43551,0,0,0,-34.52845,-177.7098,-114.1778,83.34011,-110.3957,-93.10179,0.001067912,-0.1257102,0.09433498,0,0.3,0,0,0.03245385,0
638225086600280229,-33.31378,-36.93756,-22.64685,-3.949028,-14.08767,42.04893,47.92096,-0.8883717,-9.082087,-78.29288,-7.568851,14.43551,0,0,0,-30.33858,-179.8541,-122.1881,83.34011,-110.3957,-93.10179,0.001067912,-0.1257102,0.09433498,0,0.3,0,0,0.03168555,0
638225086600620113,-33.73786,-37.63891,-24.23446,-5.340686,-14.01443,47.90855,47.92096,-0.8883717,-9.082087,-78.29288,-7.568851,14.50875,0,0,0,-28.24744,-179.6829,-126.0553,83.34011,-110.3957,-93.10179,0.001067912,-0.1257102,0.09433498,0,0.3,0,0,0.03133918,0
638225086600960009,-34.60958,-37.63891,-28.76383,-7.904267,-14.23416,55.4528,47.92096,-0.8883717,-9.082087,-78.29288,-7.642097,14.50875,0,0,0,-23.53061,-174.9806,-134.2527,83.34011,-110.3957,-93.10179,0.001067912,-0.1257102,0.09433498,0,0.3,0,0,0.03081564,0
638225086601289894,-34.98654,-36.37648,-32.96634,-9.076189,-13.72145,59.04182,47.92096,-0.8883717,-9.082087,-78.29288,-7.642097,14.50875,0,0,0,-19.95557,-167.6177,-139.8362,83.34011,-110.3957,-93.10179,0.001067912,-0.1257102,0.09433498,0,0.3,0,0,0.03056837,0
638225086601629794,-34.93942,-33.99191,-35.95479,-9.295925,-11.67058,60.06725,47.92096,-0.8883717,-9.082087,-78.29288,-7.568851,14.43551,0,0,0,-18.47945,-159.147,-141.8991,83.34011,-110.3957,-93.10179,0.001067912,-0.1257102,0.09433498,0,0.3,0,0,0.03053092,0
638225086601959684,-34.91586,-32.42557,-37.02876,-9.149435,-10.49866,59.84751,47.92096,-0.8883717,-9.082087,-78.29288,-7.568851,14.50875,0,0,0,-18.46117,-154.6105,-141.9021,83.34011,-110.3957,-93.10179,0.001067912,-0.1257102,0.09433498,0,0.3,0,0,0.03058559,0
638225086602299574,-34.84518,-28.75519,-38.17278,-8.124002,-8.960509,58.30937,47.92096,-0.8883717,-9.082087,-78.29288,-7.568851,14.50875,0,0,0,-19.70666,-145.6336,-140.0435,83.34011,-110.3957,-93.10179,0.001067912,-0.1257102,0.09433498,0,0.3,0,0,0.03080448,0
638225086602649468,-34.56246,-24.73414,-38.63972,-5.926647,-8.154812,57.13744,47.92096,-0.8883717,-9.082087,-78.29288,-7.642097,14.50875,0,0,0,-21.47234,-136.6028,-137.1804,83.34011,-110.3957,-93.10179,0.001067912,-0.1257102,0.09433498,0,0.3,0,0,0.03113308,0
638225086602979363,-34.32687,-22.77037,-38.63972,-4.97446,-7.568851,56.84446,47.92096,-0.8883717,-9.082087,-78.29288,-7.568851,14.43551,0,0,0,-22.38205,-132.4197,-135.5722,83.34011,-110.3957,-93.10179,0.001067912,-0.1257102,0.09433498,0,0.3,0,0,0.03132478,0
638225086603319254,-33.43158,-17.62716,-38.4296,-3.656047,-5.298251,56.47824,47.92096,-0.8883717,-9.082087,-78.29288,-7.568851,14.43551,0,0,0,-24.35424,-121.494,-131.4591,83.34011,-110.3957,-93.10179,0.001067912,-0.1257102,0.09433498,0,0.3,0,0,0.03175391,0
638225086603659146,-32.06511,-10.80073,-37.5424,-2.630615,-2.148709,56.2585,47.92096,-0.8883717,-9.082087,-78.29288,-7.642097,14.43551,0,0,0,-26.40136,-107.3725,-126.2056,83.34011,-110.3957,-93.10179,0.001067912,-0.1257102,0.09433498,0,0.3,0,0,0.03220339,0
638225086603999039,-31.21695,-6.732923,-36.86533,-1.824918,-0.61056,55.81903,47.92096,-0.8883717,-9.082087,-78.29288,-7.568851,14.43551,0,0,0,-27.17282,-98.97051,-123.5123,83.34011,-110.3957,-93.10179,0.001067912,-0.1257102,0.09433498,0,0.3,0,0,0.03241093,0
638225086604338920,-29.37927,1.589718,-34.67069,0.2259469,2.099511,53.91465,47.92096,-0.8883717,-9.082087,-78.29288,-7.642097,14.50875,0,0,0,-28.18007,-82.6223,-118.2961,83.34011,-110.3957,-93.10179,0.001067912,-0.1257102,0.09433498,0,0.3,0,0,0.03271432,0
638225086604678810,-26.99972,10.12276,-31.42542,2.057076,4.516602,51.27783,47.92096,-0.8883717,-9.082087,-78.29288,-7.568851,14.50875,0,0,0,-28.03231,-67.00286,-113.3328,83.34011,-110.3957,-93.10179,0.001067912,-0.1257102,0.09433498,0,0.3,0,0,0.03285255,0
638225086605028704,-23.772,18.91297,-27.05948,3.521979,7.080183,47.9818,47.92096,-0.8883717,-9.082087,-78.29288,-7.568851,14.50875,0,0,0,-26.39799,-52.17987,-108.4184,83.34011,-110.3957,-93.10179,0.001067912,-0.1257102,0.09433498,0,0.3,0,0,0.03278767,0
638225086605358596,-21.81652,23.1678,-24.51463,3.96145,8.325351,45.85769,47.92096,-0.8883717,-9.082087,-78.29288,-7.568851,14.50875,0,0,0,-24.99839,-45.51595,-105.9018,83.34011,-110.3957,-93.10179,0.001067912,-0.1257102,0.09433498,0,0.3,0,0,0.0326848,0
638225086605708483,-17.22233,31.06963,-18.8179,5.133373,10.88893,40.80377,47.92096,-0.8883717,-9.082087,-78.29288,-7.568851,14.43551,0,0,0,-21.08274,-34.05306,-100.3365,83.34011,-110.3957,-93.10179,0.001067912,-0.1257102,0.09433498,0,0.3,0,0,0.03237588,0
638225086606048384,-12.1805,37.35837,-13.44803,6.451786,13.01304,34.65118,47.92096,-0.8883717,-9.082087,-78.29288,-7.568851,14.50875,0,0,0,-15.82055,-25.42714,-95.0563,83.34011,-110.3957,-93.10179,0.001067912,-0.1257102,0.09433498,0,0.3,0,0,0.03199536,0
638225086606398273,-9.636024,39.7897,-11.13665,6.964502,14.18496,31.35514,47.92096,-0.8883717,-9.082087,-78.29288,-7.642097,14.43551,0,0,0,-12.84029,-22.14872,-92.72284,83.34011,-110.3957,-93.10179,0.001067912,-0.1257102,0.09433498,0,0.3,0,0,0.03180493,0
638225086606738161,-4.122993,43.74062,-6.957485,7.989935,16.6753,23.37142,47.92096,-0.8883717,-9.082087,-78.29288,-7.568851,14.50875,0,0,0,-5.765426,-16.82056,-88.36826,83.34011,-110.3957,-93.10179,0.001067912,-0.1257102,0.09433498,0,0.3,0,0,0.03146948,0
638225086607148030,0.8245987,45.86803,-4.202508,9.381593,19.38537,15.24121,47.92096,-0.8883717,-9.082087,-78.29288,-7.642097,14.50875,0,0,0,1.195661,-13.9311,-85.27736,83.34011,-110.3957,-93.10179,0.001067912,-0.1257102,0.09433498,0,0.3,0,0,0.03124405,0
638225086607487990,5.206751,47.01357,-2.614894,10.8465,22.38842,7.403974,47.92096,-0.8883717,-9.082087,-78.29288,-7.642097,14.50875,0,0,0,7.699007,-12.3136,-83.86246,83.34011,-110.3957,-93.10179,0.001067912,-0.1257102,0.09433498,0,0.3,0,0,0.03115901,0
638225086607837801,9.612464,47.71491,-2.334727,11.28597,26.34366,1.031644,47.92096,-0.8883717,-9.082087,-78.29288,-7.568851,14.50875,0,0,0,14.07472,-11.23614,-85.24522,83.34011,-110.3957,-93.10179,0.001067912,-0.1257102,0.09433498,0,0.3,0,0,0.03121717,0
638225086608187692,11.77998,47.92532,-2.404768,11.13948,28.68751,-1.971408,47.92096,-0.8883717,-9.082087,-78.29288,-7.568851,14.50875,0,0,0,17.10044,-10.90059,-86.35168,83.34011,-110.3957,-93.10179,0.001067912,-0.1257102,0.09433498,0,0.3,0,0,0.03130203,0
638225086608517729,15.45534,48.04221,-3.035145,11.21272,33.81467,-8.709964,47.92096,-0.8883717,-9.082087,-78.29288,-7.642097,14.50875,0,0,0,21.87722,-10.64888,-89.22382,83.34011,-110.3957,-93.10179,0.001067912,-0.1257102,0.09433498,0,0.3,0,0,0.03156461,0
638225086608867506,17.50505,47.83181,-4.412633,13.48332,38.20938,-13.76388,47.92096,-0.8883717,-9.082087,-78.29288,-7.568851,14.43551,0,0,0,23.84039,-10.76873,-92.76117,83.34011,-110.3957,-93.10179,0.001067912,-0.1257102,0.09433498,0,0.3,0,0,0.03190354,0
638225086609197374,17.55217,47.64478,-5.556649,15.3877,39.74753,-15.08229,47.92096,-0.8883717,-9.082087,-78.29288,-7.642097,14.43551,0,0,0,23.19979,-10.83012,-95.00262,83.34011,-110.3957,-93.10179,0.001067912,-0.1257102,0.09433498,0,0.3,0,0,0.03206738,0
638225086609537267,16.70401,47.20059,-8.428363,20.95433,41.79839,-15.88799,47.92096,-0.8883717,-9.082087,-78.29288,-7.568851,14.43551,0,0,0,20.42375,-10.71599,-100.2914,83.34011,-110.3957,-93.10179,0.001067912,-0.1257102,0.09433498,0,0.3,0,0,0.03233183,0
638225086609877157,14.48938,46.70965,-11.1133,29.0113,41.79839,-13.61739,47.92096,-0.8883717,-9.082087,-78.29288,-7.568851,14.50875,0,0,0,16.44677,-10.43552,-104.7064,83.34011,-110.3957,-93.10179,0.001067912,-0.1257102,0.09433498,0,0.3,0,0,0.03247149,0
638225086610217040,12.69882,46.38236,-12.46744,33.77223,40.99269,-11.85951,47.92096,-0.8883717,-9.082087,-78.29288,-7.642097,14.50875,0,0,0,13.89351,-10.31546,-106.6937,83.34011,-110.3957,-93.10179,0.001067912,-0.1257102,0.09433498,0,0.3,0,0,0.03248157,0
638225086610556932,7.633427,45.23682,-16.03957,43.58709,37.40368,-7.904267,47.92096,-0.8883717,-9.082087,-78.29288,-7.568851,14.50875,0,0,0,7.579197,-10.1272,-111.7983,83.34011,-110.3957,-93.10179,0.001067912,-0.1257102,0.09433498,0,0.3,0,0,0.03234299,0
638225086610896824,0.9895183,42.80549,-21.57287,50.76511,31.54407,-2.70386,47.92096,-0.8883717,-9.082087,-78.29288,-7.568851,14.50875,0,0,0,0.8428116,-10.04605,-119.5538,83.34011,-110.3957,-93.10179,0.001067912,-0.1257102,0.09433498,0,0.3,0,0,0.03195575,0
638225086611246716,-6.10203,38.73769,-27.99337,53.10896,24.2928,3.741715,47.92096,-0.8883717,-9.082087,-78.29288,-7.642097,14.50875,0,0,0,-4.403462,-10.95377,-127.1596,83.34011,-110.3957,-93.10179,0.001067912,-0.1257102,0.09433498,0,0.3,0,0,0.03134393,0
638225086611676583,-13.07578,31.84111,-33.7368,51.42432,16.23583,11.57895,47.92096,-0.8883717,-9.082087,-78.29288,-7.642097,14.50875,0,0,0,-8.873793,-17.19268,-130.144,83.34011,-110.3957,-93.10179,0.001067912,-0.1257102,0.09433498,0,0.3,0,0,0.03071349,0
638225086612016473,-15.0077,29.01235,-36.04818,50.10591,13.81874,14.21577,47.92096,-0.8883717,-9.082087,-78.29288,-7.568851,14.50875,0,0,0,-9.877536,-19.79197,-131.5063,83.34011,-110.3957,-93.10179,0.001067912,-0.1257102,0.09433498,0,0.3,0,0,0.03042558,0
638225086612356366,-18.68305,20.71309,-42.53872,43.29411,9.204292,23.73765,47.92096,-0.8883717,-9.082087,-78.29288,-7.568851,14.43551,0,0,0,-11.07529,-27.74067,-135.5976,83.34011,-110.3957,-93.10179,0.001067912,-0.1257102,0.09433498,0,0.3,0,0,0.02995552,0
638225086612686260,-19.88461,12.39045,-48.2121,34.57793,8.471841,34.87091,47.92096,-0.8883717,-9.082087,-78.29288,-7.642097,14.43551,0,0,0,-10.48136,-36.89786,-139.3712,83.34011,-110.3957,-93.10179,0.001067912,-0.1257102,0.09433498,0,0.3,0,0,0.02968718,0
638225086613026152,-19.86105,4.184699,-52.29787,28.05911,10.59595,45.85769,47.92096,-0.8883717,-9.082087,-78.29288,-7.642097,14.43551,0,0,0,-9.33873,-48.47025,-142.4971,83.34011,-110.3957,-93.10179,0.001067912,-0.1257102,0.09433498,0,0.3,0,0,0.02968142,0
638225086613366044,-19.86105,-0.09351282,-53.86214,25.64202,12.35384,51.05809,47.92096,-0.8883717,-9.082087,-78.29288,-7.642097,14.43551,0,0,0,-8.71648,-55.50815,-144.2197,83.34011,-110.3957,-93.10179,0.001067912,-0.1257102,0.09433498,0,0.3,0,0,0.02978663,0
638225086613705935,-19.86105,-7.55116,-55.87001,22.34599,16.16258,60.14049,47.92096,-0.8883717,-9.082087,-78.29288,-7.568851,14.50875,0,0,0,-7.410034,-68.99271,-147.8364,83.34011,-110.3957,-93.10179,0.001067912,-0.1257102,0.09433498,0,0.3,0,0,0.03017009,0
638225086614045819,-19.86105,-13.55936,-56.47704,19.63592,20.55729,69.51588,47.92096,-0.8883717,-9.082087,-78.29288,-7.642097,14.50875,0,0,0,-6.272978,-81.55962,-150.9842,83.34011,-110.3957,-93.10179,0.001067912,-0.1257102,0.09433498,0,0.3,0,0,0.03071355,0
638225086614385711,-19.86105,-16.20109,-56.47704,18.3175,22.97438,74.35006,47.92096,-0.8883717,-9.082087,-78.29288,-7.642097,14.50875,0,0,0,-5.736611,-87.50127,-152.4691,83.34011,-110.3957,-93.10179,0.001067912,-0.1257102,0.09433498,0,0.3,0,0,0.03102337,0
638225086614735597,-19.93173,-21.81186,-56.33695,15.46094,29.12698,85.41007,47.92096,-0.8883717,-9.082087,-78.29288,-7.642097,14.50875,0,0,0,-4.368483,-100.1145,-156.303,83.34011,-110.3957,-93.10179,0.001067912,-0.1257102,0.09433498,0,0.3,0,0,0.03167066,0
638225086615075489,-19.97885,-25.31859,-55.9167,13.70306,33.30195,91.63592,47.92096,-0.8883717,-9.082087,-78.29288,-7.568851,14.50875,0,0,0,-3.449968,-108.4063,-158.8604,83.34011,-110.3957,-93.10179,0.001067912,-0.1257102,0.09433498,0,0.3,0,0,0.03230926,0
638225086615425379,-20.04953,-29.90072,-55.21629,11.57895,38.13613,99.03368,47.92096,-0.8883717,-9.082087,-78.29288,-7.568851,14.43551,0,0,0,-2.083725,-119.1983,-162.6404,83.34011,-110.3957,-93.10179,0.001067912,-0.1257102,0.09433498,0,0.3,0,0,0.03288574,0
638225086615755287,-20.09665,-32.40219,-54.72599,10.62676,40.62647,102.4762,47.92096,-0.8883717,-9.082087,-78.29288,-7.642097,14.43551,0,0,0,-1.278727,-125.1147,-164.8551,83.34011,-110.3957,-93.10179,0.001067912,-0.1257102,0.09433498,0,0.3,0,0,0.03312923,0
638225086616185141,-20.28513,-37.26486,-53.48859,8.942122,45.09443,107.4569,47.92096,-0.8883717,-9.082087,-78.29288,-7.568851,14.43551,0,0,0,0.3649188,-136.7345,-169.3373,83.34011,-110.3957,-93.10179,0.001067912,-0.1257102,0.09433498,0,0.3,0,0,0.03349,0
638225086616535023,-20.37937,-41.33266,-52.71812,7.184238,48.97642,110.3134,47.92096,-0.8883717,-9.082087,-78.29288,-7.642097,14.43551,0,0,0,2.079331,-145.4933,-173.9473,83.34011,-110.3957,-93.10179,0.001067912,-0.1257102,0.09433498,0,0.3,0,0,0.03366201,0
638225086616874913,-20.33225,-40.63132,-52.99829,5.572844,50.80755,111.2656,47.92096,-0.8883717,-9.082087,-78.29288,-7.642097,14.43551,0,0,0,1.839567,-143.7413,-173.3144,83.34011,-110.3957,-93.10179,0.001067912,-0.1257102,0.09433498,0,0.3,0,0,0.03380894,0
638225086617214813,-20.30869,-40.70145,-53.06834,4.693902,50.51457,110.4599,47.92096,-0.8883717,-9.082087,-78.29288,-7.642097,14.43551,0,0,0,1.908468,-143.7348,-173.5069,83.34011,-110.3957,-93.10179,0.001067912,-0.1257102,0.09433498,0,0.3,0,0,0.0338875,0
638225086617554697,-20.30869,-41.23915,-52.88156,2.862773,48.97642,107.6034,47.92096,-0.8883717,-9.082087,-78.29288,-7.642097,14.50875,0,0,0,2.102401,-145.0268,-174.0309,83.34011,-110.3957,-93.10179,0.001067912,-0.1257102,0.09433498,0,0.3,0,0,0.03401726,0
638225086617894594,-20.33225,-41.23915,-52.60139,1.031644,46.63258,104.0144,47.92096,-0.8883717,-9.082087,-78.29288,-7.642097,14.50875,0,0,0,1.96757,-145.5458,-173.6599,83.34011,-110.3957,-93.10179,0.001067912,-0.1257102,0.09433498,0,0.3,0,0,0.03414768,0
638225086618234478,-20.33225,-41.19239,-52.57804,-0.7262403,44.50846,100.6451,47.92096,-0.8883717,-9.082087,-78.29288,-7.642097,14.43551,0,0,0,1.931186,-145.5071,-173.5617,83.34011,-110.3957,-93.10179,0.001067912,-0.1257102,0.09433498,0,0.3,0,0,0.03427666,0
638225086618564373,-20.30869,-41.23915,-52.57804,-1.678428,43.48303,98.81395,47.92096,-0.8883717,-9.082087,-78.29288,-7.568851,14.50875,0,0,0,1.953929,-145.5889,-173.6297,83.34011,-110.3957,-93.10179,0.001067912,-0.1257102,0.09433498,0,0.3,0,0,0.0343401,0
638225086618894268,-20.30869,-41.21577,-52.5547,-3.436311,41.79839,95.44467,47.92096,-0.8883717,-9.082087,-78.29288,-7.642097,14.50875,0,0,0,1.930019,-145.5912,-173.5651,83.34011,-110.3957,-93.10179,0.001067912,-0.1257102,0.09433498,0,0.3,0,0,0.03446692,0
638225086619244156,-20.28513,-41.19239,-52.48465,-5.413931,40.47998,92.66135,47.92096,-0.8883717,-9.082087,-78.29288,-7.568851,14.43551,0,0,0,1.881059,-145.6796,-173.4392,83.34011,-110.3957,-93.10179,0.001067912,-0.1257102,0.09433498,0,0.3,0,0,0.03459296,0
638225086619594052,-20.28513,-41.19239,-52.48465,-6.366118,40.187,91.26969,47.92096,-0.8883717,-9.082087,-78.29288,-7.642097,14.50875,0,0,0,1.881059,-145.6796,-173.4392,83.34011,-110.3957,-93.10179,0.001067912,-0.1257102,0.09433498,0,0.3,0,0,0.03465574,0
638225086619933934,-20.28513,-41.19239,-52.62474,-7.904267,40.91945,88.26664,47.92096,-0.8883717,-9.082087,-78.29288,-7.568851,14.43551,0,0,0,1.949783,-145.4207,-173.6252,83.34011,-110.3957,-93.10179,0.001067912,-0.1257102,0.09433498,0,0.3,0,0,0.03478028,0
638225086620263837,-20.28513,-41.19239,-52.62474,-8.929699,44.28873,85.26359,47.92096,-0.8883717,-9.082087,-78.29288,-7.642097,14.50875,0,0,0,1.949783,-145.4207,-173.6252,83.34011,-110.3957,-93.10179,0.001067912,-0.1257102,0.09433498,0,0.3,0,0,0.03490337,0
638225086620713684,-20.28513,-41.0755,-52.01771,-10.61434,53.00491,80.94212,47.92096,-0.8883717,-9.082087,-78.29288,-7.568851,14.50875,0,0,0,1.588354,-146.334,-172.6473,83.34011,-110.3957,-93.10179,0.001067912,-0.1257102,0.09433498,0,0.3,0,0,0.03502863,0
638225086621053585,-20.28513,-40.42091,-51.57411,-12.59196,61.13512,76.25443,47.92096,-0.8883717,-9.082087,-78.29288,-7.568851,14.50875,0,0,0,1.022223,-145.9911,-171.1156,83.34011,-110.3957,-93.10179,0.001067912,-0.1257102,0.09433498,0,0.3,0,0,0.03517346,0
638225086621403477,-20.28513,-39.7897,-51.48072,-14.56958,66.92149,71.78648,47.92096,-0.8883717,-9.082087,-78.29288,-7.568851,14.50875,0,0,0,0.6472433,-145.0376,-170.1011,83.34011,-110.3957,-93.10179,0.001067912,-0.1257102,0.09433498,0,0.3,0,0,0.03526492,0
638225086621743356,-20.21445,-38.76106,-51.45737,-21.45462,78.86045,60.94619,47.92096,-0.8883717,-9.082087,-78.29288,-7.568851,14.43551,0,0,0,0.1097173,-143.2269,-168.648,83.34011,-110.3957,-93.10179,0.001067912,-0.1257102,0.09433498,0,0.3,0,0,0.03548207,0
638225086622073273,-20.16733,-38.76106,-51.55077,-34.27253,89.11477,49.08047,47.92096,-0.8883717,-9.082087,-78.29288,-7.568851,14.50875,0,0,0,0.1561164,-143.0568,-168.7751,83.34011,-110.3957,-93.10179,0.001067912,-0.1257102,0.09433498,0,0.3,0,0,0.03570732,0
638225086622413146,-20.16733,-38.94809,-51.73754,-43.7944,92.99677,43.07437,47.92096,-0.8883717,-9.082087,-78.29288,-7.568851,14.43551,0,0,0,0.3432631,-143.0549,-169.2846,83.34011,-110.3957,-93.10179,0.001067912,-0.1257102,0.09433498,0,0.3,0,0,0.03581415,0
638225086622753034,-20.14377,-39.50917,-52.25118,-63.93682,96.952,34.28495,47.92096,-0.8883717,-9.082087,-78.29288,-7.568851,14.50875,0,0,0,0.8807665,-143.1245,-170.7511,83.34011,-110.3957,-93.10179,0.001067912,-0.1257102,0.09433498,0,0.3,0,0,0.03600747,0
638225086623092928,-20.14377,-40.30402,-53.04499,-83.56653,96.21955,29.37753,47.92096,-0.8883717,-9.082087,-78.29288,-7.568851,14.50875,0,0,0,1.675483,-143.075,-172.9177,83.34011,-110.3957,-93.10179,0.001067912,-0.1257102,0.09433498,0,0.3,0,0,0.03616754,0
638225086623432820,-20.14377,-40.98199,-53.74541,-96.89715,91.7516,27.32666,47.92096,-0.8883717,-9.082087,-78.29288,-7.568851,14.43551,0,0,0,2.364164,-142.9636,-174.7951,83.34011,-110.3957,-93.10179,0.001067912,-0.1257102,0.09433498,0,0.3,0,0,0.03629292,0
638225086623772719,-20.14377,-41.19239,-53.97888,-104.3682,86.33145,25.64202,47.92096,-0.8883717,-9.082087,-78.29288,-7.568851,14.50875,0,0,0,2.58535,-142.8938,-175.3981,83.34011,-110.3957,-93.10179,0.001067912,-0.1257102,0.09433498,0,0.3,0,0,0.03634676,0
638225086624102611,-20.14377,-41.09888,-54.04892,-112.8646,80.47184,20.36837,47.92096,-0.8883717,-9.082087,-78.29288,-7.642097,14.43551,0,0,0,2.569021,-142.5981,-175.3536,83.34011,-110.3957,-93.10179,0.001067912,-0.1257102,0.09433498,0,0.3,0,0,0.03645569,0
638225086624452492,-20.09665,-41.12226,-54.21235,-124.2176,71.16971,15.53419,47.92096,-0.8883717,-9.082087,-78.29288,-7.568851,14.50875,0,0,0,2.652133,-142.3308,-175.5986,83.34011,-110.3957,-93.10179,0.001067912,-0.1257102,0.09433498,0,0.3,0,0,0.03656456,0
638225086624792391,-20.02597,-41.12226,-54.53922,-130.1505,64.87062,14.06928,47.92096,-0.8883717,-9.082087,-78.29288,-7.568851,14.50875,0,0,0,2.794928,-141.7124,-176.0182,83.34011,-110.3957,-93.10179,0.001067912,-0.1257102,0.09433498,0,0.3,0,0,0.03661762,0
638225086625242239,-19.17781,-41.21577,-58.13469,-145.5319,34.1809,11.65219,47.92096,-0.8883717,-9.082087,-78.29288,-7.568851,14.50875,0,0,0,4.25168,-134.9126,-180.5744,83.34011,-110.3957,-93.10179,0.001067912,-0.1257102,0.09433498,0,0.3,0,0,0.03675242,0
638225086625572137,-18.80085,-41.23915,-59.8157,-149.3407,21.28975,11.21272,47.92096,-0.8883717,-9.082087,-78.29288,-7.568851,14.50875,0,0,0,4.832561,-131.6009,-182.5449,83.34011,-110.3957,-93.10179,0.001067912,-0.1257102,0.09433498,0,0.3,0,0,0.03678273,0
638225086625902037,-20.61497,-41.00537,-57.01402,-164.8687,-0.3175794,6.598277,47.92096,-0.8883717,-9.082087,-78.29288,-7.568851,14.43551,0,0,0,3.951169,-136.7451,-178.8536,83.34011,-110.3957,-93.10179,0.001067912,-0.1257102,0.09433498,0,0.3,0,0,0.03687552,0
638225086626241929,-20.85056,-41.19239,-56.66381,-162.5981,-6.396928,-0.2135241,47.92096,-0.8883717,-9.082087,-78.29288,-7.568851,14.50875,0,0,0,3.937483,-137.7555,-178.688,83.34011,-110.3957,-93.10179,0.001067912,-0.1257102,0.09433498,0,0.3,0,0,0.03697293,0
638225086626621805,-20.75632,-41.19239,-57.2008,-158.7161,-7.349115,-2.410879,47.92096,-0.8883717,-9.082087,-78.29288,-7.642097,14.50875,0,0,0,4.16214,-136.7081,-179.3321,83.34011,-110.3957,-93.10179,0.001067912,-0.1257102,0.09433498,0,0.3,0,0,0.03701956,0
638225086626921710,-20.61497,-41.19239,-57.71444,-150.8056,-8.447793,-5.194195,47.92096,-0.8883717,-9.105433,-78.29288,-7.568851,14.50875,0,0,0,4.361444,-135.7004,-179.9442,83.30029,-110.3871,-93.13775,0.001067912,-0.1257102,0.09433498,0,0.3,0,0,0.03711013,0
638225086627251604,-20.61497,-41.19239,-57.73779,-145.0925,-9.180244,-6.585854,47.92096,-0.8883717,-9.082087,-78.29288,-7.642097,14.50875,0,0,0,4.371659,-135.6544,-179.9714,83.34011,-110.3957,-93.10179,0.001067912,-0.1257102,0.09433498,0,0.3,0,0,0.03719812,0
638225086627601491,-20.61497,-41.19239,-57.76114,-143.2613,-9.692961,-7.025325,47.92096,-0.8883717,-9.082087,-78.29288,-7.568851,14.50875,0,0,0,4.381868,-135.6085,-179.9985,83.34011,-110.3957,-93.10179,0.001067912,-0.1257102,0.09433498,0,0.3,0,0,0.03724169,0
638225086627941378,-20.61497,-41.19239,-57.78448,-140.478,-10.93813,-7.538041,47.92096,-0.8883717,-9.082087,-78.29288,-7.642097,14.43551,0,0,0,4.392071,-135.5625,-180.0257,83.34011,-110.3957,-93.10179,0.001067912,-0.1257102,0.09433498,0,0.3,0,0,0.03732824,0
638225086628281277,-20.59141,-41.19239,-57.78448,-139.2328,-12.8425,-7.831022,47.92096,-0.8883717,-9.082087,-78.29288,-7.642097,14.50875,0,0,0,4.387269,-135.5625,-180.0275,83.34011,-110.3957,-93.10179,0.001067912,-0.1257102,0.09433498,0,0.3,0,0,0.03741364,0
638225086628631168,-20.59141,-41.19239,-57.78448,-139.0131,-14.67363,-7.977511,47.92096,-0.8883717,-9.082087,-78.29288,-7.568851,14.50875,0,0,0,4.387269,-135.5625,-180.0275,83.34011,-110.3957,-93.10179,0.001067912,-0.1257102,0.09433498,0,0.3,0,0,0.03749827,0
638225086628961061,-20.59141,-41.19239,-57.78448,-139.0131,-15.55258,-8.050756,47.92096,-0.8883717,-9.082087,-78.29288,-7.642097,14.50875,0,0,0,4.387269,-135.5625,-180.0275,83.34011,-110.3957,-93.10179,0.001067912,-0.1257102,0.09433498,0,0.3,0,0,0.03754028,0
638225086629300954,-20.59141,-41.19239,-57.78448,-138.9399,-16.35827,-8.050756,47.92096,-0.8883717,-9.082087,-78.29288,-7.568851,14.50875,0,0,0,4.387269,-135.5625,-180.0275,83.34011,-110.3957,-93.10179,0.001067912,-0.1257102,0.09433498,0,0.3,0,0,0.0376237,0
638225086629630846,-20.59141,-41.19239,-57.78448,-138.7934,-16.7245,-8.050756,47.92096,-0.8883717,-9.082087,-78.29288,-7.642097,14.43551,0,0,0,4.387269,-135.5625,-180.0275,83.34011,-110.3957,-93.10179,0.001067912,-0.1257102,0.09433498,0,0.3,0,0,0.03770635,0
638225086629970735,-21.15685,-41.23915,-57.01402,-138.7934,-16.50476,-8.124002,47.92096,-0.8883717,-9.082087,-78.29288,-7.642097,14.50875,0,0,0,4.179482,-137.155,-179.1495,83.34011,-110.3957,-93.10179,0.001067912,-0.1257102,0.09433498,0,0.3,0,0,0.03775016,0
638225086630310629,-23.67776,-41.19239,-54.77269,-137.9877,-14.01443,-8.563474,47.92096,-0.8883717,-9.082087,-78.29288,-7.642097,14.43551,0,0,0,3.447038,-141.3921,-176.2109,83.34011,-110.3957,-93.10179,0.001067912,-0.1257102,0.09433498,0,0.3,0,0,0.03785262,0
638225086630650509,-25.91596,-41.19239,-53.13838,-150.2929,-9.619716,-6.659099,47.92096,-0.8883717,-9.082087,-78.29288,-7.568851,14.50875,0,0,0,2.773257,-144.4675,-174.0573,83.34011,-110.3957,-93.10179,0.001067912,-0.1257102,0.09433498,0,0.3,0,0,0.03796515,0
638225086630990409,-26.52852,-41.19239,-53.16172,-154.9806,-7.935077,-6.073137,47.92096,-0.8883717,-9.082087,-78.29288,-7.568851,14.43551,0,0,0,2.848669,-144.424,-174.0564,83.34011,-110.3957,-93.10179,0.001067912,-0.1257102,0.09433498,0,0.3,0,0,0.03802283,0
638225086631330300,-27.11752,-41.21577,-52.92825,-154.0284,-7.27587,-4.242009,47.92096,-0.8883717,-9.082087,-78.29288,-7.568851,14.50875,0,0,0,2.774613,-144.8992,-173.768,83.34011,-110.3957,-93.10179,0.001067912,-0.1257102,0.09433498,0,0.3,0,0,0.03813788,0
638225086631670192,-27.14108,-41.19239,-52.41461,-145.6052,-10.5719,-1.971408,47.92096,-0.8883717,-9.082087,-78.29288,-7.568851,14.50875,0,0,0,2.429805,-145.8088,-173.0899,83.34011,-110.3957,-93.10179,0.001067912,-0.1257102,0.09433498,0,0.3,0,0,0.03825084,0
638225086632010082,-27.73007,-41.21577,-51.76089,-138.7934,-12.91575,-1.238957,47.92096,-0.8883717,-9.082087,-78.29288,-7.568851,14.50875,0,0,0,2.060077,-147.0501,-172.2689,83.34011,-110.3957,-93.10179,0.001067912,-0.1257102,0.09433498,0,0.3,0,0,0.03830515,0
638225086632349975,-28.31907,-41.19239,-51.13051,-120.7018,-15.47933,-0.6529952,47.92096,-0.8883717,-9.082087,-78.29288,-7.642097,14.43551,0,0,0,1.649478,-148.1565,-171.411,83.34011,-110.3957,-93.10179,0.001067912,-0.1257102,0.09433498,0,0.3,0,0,0.03841151,0
638225086632809830,-28.74315,-41.19239,-50.19662,-99.53397,-16.57801,-1.458692,47.92096,-0.8883717,-9.082087,-78.29288,-7.568851,14.50875,0,0,0,1.009561,-149.8376,-170.1907,83.34011,-110.3957,-93.10179,0.001067912,-0.1257102,0.09433498,0,0.3,0,0,0.0385118,0
638225086633149719,-29.40283,-41.19239,-48.49227,-77.04771,-17.09072,-5.926647,47.92096,-0.8883717,-9.082087,-78.29288,-7.568851,14.50875,0,0,0,-0.238042,-152.8468,-167.9276,83.34011,-110.3957,-93.10179,0.001067912,-0.1257102,0.09433498,0,0.3,0,0,0.0385969,0
638225086633489610,-29.82691,-41.19239,-48.23545,-51.99786,-15.84556,-11.42003,47.92096,-0.8883717,-9.082087,-78.29288,-7.568851,14.43551,0,0,0,-0.4386844,-153.2935,-167.5849,83.34011,-110.3957,-93.10179,0.001067912,-0.1257102,0.09433498,0,0.3,0,0,0.03867427,0
638225086633829502,-29.80335,-41.19239,-48.23545,-26.4353,-11.81707,-13.91037,47.92096,-0.8883717,-9.082087,-78.29288,-7.568851,14.50875,0,0,0,-0.4383697,-153.2935,-167.5847,83.34011,-110.3957,-93.10179,0.001067912,-0.1257102,0.09433498,0,0.3,0,0,0.03875079,0
638225086634159396,-29.80335,-41.19239,-48.23545,-15.59501,-8.814018,-12.37222,47.92096,-0.8883717,-9.082087,-78.29288,-7.642097,14.50875,0,0,0,-0.4383697,-153.2935,-167.5847,83.34011,-110.3957,-93.10179,0.001067912,-0.1257102,0.09433498,0,0.3,0,0,0.03878878,0
638225086634499287,-29.80335,-41.19239,-48.23545,-3.216576,-0.3908245,-7.977511,47.92096,-0.8883717,-9.082087,-78.29288,-7.568851,14.50875,0,0,0,-0.4383697,-153.2935,-167.5847,83.34011,-110.3957,-93.10179,0.001067912,-0.1257102,0.09433498,0,0.3,0,0,0.03886428,0
638225086634849168,-29.80335,-41.16902,-48.23545,-0.9459759,9.057802,-5.120951,47.92096,-0.8883717,-9.082087,-78.29288,-7.642097,14.50875,0,0,0,-0.456176,-153.2525,-167.5536,83.34011,-110.3957,-93.10179,0.001067912,-0.1257102,0.09433498,0,0.3,0,0,0.03893949,0
638225086635179069,-29.89759,-41.0755,-48.09537,-1.824918,13.30602,-3.509557,47.92096,-0.8883717,-9.082087,-78.29288,-7.568851,14.43551,0,0,0,-0.6372229,-153.3315,-167.2417,83.34011,-110.3957,-93.10179,0.001067912,-0.1257102,0.09433498,0,0.3,0,0,0.03897766,0
638225086635528952,-30.08607,-40.70145,-47.16148,-3.802537,20.99677,-0.5065048,47.92096,-0.8883717,-9.082087,-78.29288,-7.568851,14.43551,0,0,0,-1.660845,-154.2791,-165.4833,83.34011,-110.3957,-93.10179,0.001067912,-0.1257102,0.09433498,0,0.3,0,0,0.03905382,0
638225086635878836,-30.22743,-39.48579,-46.06416,-5.267441,28.32128,1.104889,47.92096,-0.8883717,-9.082087,-78.29288,-7.568851,14.50875,0,0,0,-3.468433,-153.9707,-162.3972,83.34011,-110.3957,-93.10179,0.001067912,-0.1257102,0.09433498,0,0.3,0,0,0.03914367,0
638225086636208734,-30.22743,-38.73769,-45.85403,-5.999893,31.9103,1.54436,47.92096,-0.8883717,-9.082087,-78.29288,-7.568851,14.50875,0,0,0,-4.192536,-152.9713,-161.1544,83.34011,-110.3957,-93.10179,0.001067912,-0.1257102,0.09433498,0,0.3,0,0,0.03920159,0
638225086636548626,-30.22743,-36.96094,-44.54658,-7.538041,41.21243,2.203566,47.92096,-0.8883717,-9.082087,-78.29288,-7.568851,14.50875,0,0,0,-6.549261,-151.8653,-157.1096,83.34011,-110.3957,-93.10179,0.001067912,-0.1257102,0.09433498,0,0.3,0,0,0.03934035,0
638225086636888526,-30.48659,-33.82826,-42.6788,-9.66215,53.00491,2.496547,47.92096,-0.8883717,-9.082087,-78.29288,-7.568851,14.50875,0,0,0,-10.33894,-148.921,-150.7886,83.34011,-110.3957,-93.10179,0.001067912,-0.1257102,0.09433498,0,0.3,0,0,0.03951578,0
638225086637288523,-30.65151,-28.56816,-41.69822,-15.30203,67.50745,1.910586,47.92096,-0.8883717,-9.082087,-78.29288,-7.568851,14.50875,0,0,0,-14.48339,-139.9855,-143.9101,83.34011,-110.3957,-93.10179,0.001067912,-0.1257102,0.09433498,0,0.3,0,0,0.03976,0
638225086637629469,-30.65151,-25.13157,-42.00173,-21.52787,76.73634,-0.5065048,47.92096,-0.8883717,-9.082087,-78.29288,-7.568851,14.50875,0,0,0,-16.05655,-132.3792,-141.2555,83.34011,-110.3957,-93.10179,0.001067912,-0.1257102,0.09433498,0,0.3,0,0,0.04006537,0
638225086637959362,-30.62795,-23.63536,-42.21186,-26.06907,81.64377,-2.70386,47.92096,-0.8883717,-9.082087,-78.29288,-7.642097,14.43551,0,0,0,-16.59296,-128.8797,-140.3241,83.34011,-110.3957,-93.10179,0.001067912,-0.1257102,0.09433498,0,0.3,0,0,0.04023324,0
638225086638299251,-30.55727,-21.71835,-42.46867,-36.9826,89.18802,-8.416983,47.92096,-0.8883717,-9.082087,-78.29288,-7.568851,14.50875,0,0,0,-17.20822,-124.3606,-139.2029,83.34011,-110.3957,-93.10179,0.001067912,-0.1257102,0.09433498,0,0.3,0,0,0.04058201,0
638225086638649136,-30.51015,-20.90011,-43.09905,-49.87375,94.09544,-13.39765,47.92096,-0.8883717,-9.082087,-78.29288,-7.568851,14.43551,0,0,0,-16.98893,-121.5899,-139.5202,83.34011,-110.3957,-93.10179,0.001067912,-0.1257102,0.09433498,0,0.3,0,0,0.04094146,0
638225086638989078,-30.46303,-20.73647,-43.47261,-55.80661,95.56034,-15.52176,47.92096,-0.8883717,-9.082087,-78.29288,-7.568851,14.50875,0,0,0,-16.71298,-120.6378,-139.9351,83.34011,-110.3957,-93.10179,0.001067912,-0.1257102,0.09433498,0,0.3,0,0,0.04112428,0
638225086639328925,-30.29811,-20.64295,-44.35981,-66.86663,97.7577,-21.30813,47.92096,-0.8883717,-9.082087,-78.29288,-7.642097,14.43551,0,0,0,-15.91951,-119.002,-141.1049,83.34011,-110.3957,-93.10179,0.001067912,-0.1257102,0.09433498,0,0.3,0,0,0.04149645,0
638225086639668870,-30.15675,-20.57282,-45.34039,-74.9236,99.07612,-27.16775,47.92096,-0.8883717,-9.082087,-78.29288,-7.568851,14.50875,0,0,0,-15.0683,-117.2397,-142.4151,83.34011,-110.3957,-93.10179,0.001067912,-0.1257102,0.09433498,0,0.3,0,0,0.04187655,0
638225086639998767,-30.15675,-20.64295,-45.85403,-77.34068,99.51559,-29.21861,47.92096,-0.8883717,-9.082087,-78.29288,-7.568851,14.43551,0,0,0,-14.60022,-116.4994,-143.2207,83.34011,-110.3957,-93.10179,0.001067912,-0.1257102,0.09433498,0,0.3,0,0,0.042068,0
638225086640348652,-30.15675,-21.27416,-46.95135,-78.73235,100.0283,-31.41597,47.92096,-0.8883717,-9.082087,-78.29288,-7.568851,14.50875,0,0,0,-13.47053,-116.0608,-145.1651,83.34011,-110.3957,-93.10179,0.001067912,-0.1257102,0.09433498,0,0.3,0,0,0.04245158,0
638225086640678550,-30.15675,-22.02227,-47.67512,-76.02227,100.1015,-30.09755,47.92096,-0.8883717,-9.082087,-78.29288,-7.568851,14.50875,0,0,0,-12.57412,-116.4409,-146.7079,83.34011,-110.3957,-93.10179,0.001067912,-0.1257102,0.09433498,0,0.3,0,0,0.04283342,0
638225086641028439,-30.15675,-23.26131,-48.98256,-68.47802,98.49015,-25.11688,47.92096,-0.8883717,-9.082087,-78.29288,-7.642097,14.43551,0,0,0,-11.0001,-116.8294,-149.4171,83.34011,-110.3957,-93.10179,0.001067912,-0.1257102,0.09433498,0,0.3,0,0,0.04321202,0
638225086641368330,-30.15675,-23.93928,-49.65963,-63.86357,96.87876,-21.60111,47.92096,-0.8883717,-9.082087,-78.29288,-7.568851,14.50875,0,0,0,-10.16674,-117.0802,-150.8514,83.34011,-110.3957,-93.10179,0.001067912,-0.1257102,0.09433498,0,0.3,0,0,0.04339927,0
638225086641808355,-30.15675,-25.43548,-50.68691,-52.73031,90.87266,-12.59196,47.92096,-0.8883717,-9.082087,-78.29288,-7.642097,14.43551,0,0,0,-8.66685,-118.408,-153.433,83.34011,-110.3957,-93.10179,0.001067912,-0.1257102,0.09433498,0,0.3,0,0,0.04376664,0
638225086642148087,-30.15675,-27.07196,-50.87369,-42.47599,82.37621,-3.436311,47.92096,-0.8883717,-9.082087,-78.29288,-7.568851,14.50875,0,0,0,-7.682419,-121.4869,-155.1273,83.34011,-110.3957,-93.10179,0.001067912,-0.1257102,0.09433498,0,0.3,0,0,0.04412015,0
638225086642477978,-30.15675,-29.57343,-50.87369,-33.9063,72.19514,5.499599,47.92096,-0.8883717,-9.082087,-78.29288,-7.568851,14.43551,0,0,0,-6.294927,-126.6115,-157.5154,83.34011,-110.3957,-93.10179,0.001067912,-0.1257102,0.09433498,0,0.3,0,0,0.04444761,0
638225086642827870,-30.15675,-33.64123,-50.59352,-27.31424,63.84519,13.33683,47.92096,-0.8883717,-9.082087,-78.29288,-7.568851,14.50875,0,0,0,-4.010125,-135.1776,-161.4479,83.34011,-110.3957,-93.10179,0.001067912,-0.1257102,0.09433498,0,0.3,0,0,0.04471812,0
638225086643157753,-30.15675,-36.25959,-50.05654,-24.8239,61.13512,16.70611,47.92096,-0.8883717,-9.082087,-78.29288,-7.568851,14.50875,0,0,0,-2.657336,-141.134,-163.7763,83.34011,-110.3957,-93.10179,0.001067912,-0.1257102,0.09433498,0,0.3,0,0,0.04481312,0
638225086643497652,-30.27455,-41.33266,-48.39888,-21.38138,59.30399,22.78546,47.92096,-0.8883717,-9.082087,-78.29288,-7.568851,14.50875,0,0,0,-0.2085822,-153.2548,-167.9927,83.34011,-110.3957,-93.10179,0.001067912,-0.1257102,0.09433498,0,0.3,0,0,0.04487392,0
638225086643847541,-30.41591,-41.05212,-48.86583,-19.477,60.54916,26.66745,47.92096,-0.8883717,-9.082087,-78.29288,-7.568851,14.50875,0,0,0,-0.06354465,-151.9479,-168.2418,83.34011,-110.3957,-93.10179,0.001067912,-0.1257102,0.09433498,0,0.3,0,0,0.04492218,0
638225086644187429,-30.41591,-41.26253,-48.72574,-19.11078,61.4281,27.83937,47.92096,-0.8883717,-9.082087,-78.29288,-7.568851,14.43551,0,0,0,-0.009114988,-152.5619,-168.3345,83.34011,-110.3957,-93.10179,0.001067912,-0.1257102,0.09433498,0,0.3,0,0,0.0449454,0
638225086644527321,-30.41591,-41.16902,-48.60901,-18.96429,65.01711,29.30428,47.92096,-0.8883717,-9.082087,-78.29288,-7.568851,14.43551,0,0,0,-0.1725584,-152.6022,-168.0561,83.34011,-110.3957,-93.10179,0.001067912,-0.1257102,0.09433498,0,0.3,0,0,0.04499162,0
638225086644867212,-30.41591,-41.21577,-48.04868,-20.20946,69.99778,29.59726,47.92096,-0.8883717,-9.082087,-78.29288,-7.642097,14.50875,0,0,0,-0.5752373,-153.6582,-167.3701,83.34011,-110.3957,-93.10179,0.001067912,-0.1257102,0.09433498,0,0.3,0,0,0.04510163,0
638225086645207104,-30.41591,-41.21577,-48.04868,-21.23489,72.56136,29.08454,47.92096,-0.8883717,-9.082087,-78.29288,-7.568851,14.50875,0,0,0,-0.5752373,-153.6582,-167.3701,83.34011,-110.3957,-93.10179,0.001067912,-0.1257102,0.09433498,0,0.3,0,0,0.04521177,0
638225086645536996,-30.41591,-41.23915,-48.30549,-23.57873,77.54203,26.96043,47.92096,-0.8883717,-9.082087,-78.29288,-7.642097,14.43551,0,0,0,-0.3552929,-153.2537,-167.7448,83.34011,-110.3957,-93.10179,0.001067912,-0.1257102,0.09433498,0,0.3,0,0,0.04543209,0
638225086645876888,-30.43947,-41.23915,-48.44558,-25.92258,81.8635,24.4701,47.92096,-0.8883717,-9.082087,-78.29288,-7.642097,14.50875,0,0,0,-0.2458244,-153.01,-167.9317,83.34011,-110.3957,-93.10179,0.001067912,-0.1257102,0.09433498,0,0.3,0,0,0.0456547,0
638225086646356747,-30.60439,-41.26253,-49.07595,-28.48616,86.77093,20.66135,47.92096,-0.8883717,-9.082087,-78.29288,-7.568851,14.50875,0,0,0,0.2636139,-151.9477,-168.7957,83.34011,-110.3957,-93.10179,0.001067912,-0.1257102,0.09433498,0,0.3,0,0,0.04587935,0
638225086646696627,-30.76931,-41.26253,-49.37947,-29.73133,88.89503,18.61049,47.92096,-0.8883717,-9.082087,-78.29288,-7.568851,14.50875,0,0,0,0.5008969,-151.4127,-169.1913,83.34011,-110.3957,-93.10179,0.001067912,-0.1257102,0.09433498,0,0.3,0,0,0.04610934,0
638225086647036518,-31.09915,-41.28591,-49.96315,-31.48921,91.09239,15.75392,47.92096,-0.8883717,-9.082087,-78.29288,-7.568851,14.50875,0,0,0,0.9783711,-150.418,-169.9719,83.34011,-110.3957,-93.10179,0.001067912,-0.1257102,0.09433498,0,0.3,0,0,0.04634335,0
638225086647386411,-31.26407,-41.28591,-50.14993,-32.22166,91.89809,14.36226,47.92096,-0.8883717,-9.082087,-78.29288,-7.568851,14.50875,0,0,0,1.127881,-150.0847,-170.2077,83.34011,-110.3957,-93.10179,0.001067912,-0.1257102,0.09433498,0,0.3,0,0,0.04646225,0
638225086647816265,-31.47611,-41.28591,-50.19662,-33.9063,93.50948,11.21272,47.92096,-0.8883717,-9.082087,-78.29288,-7.568851,14.50875,0,0,0,1.171092,-150.0013,-170.2628,83.34011,-110.3957,-93.10179,0.001067912,-0.1257102,0.09433498,0,0.3,0,0,0.04670214,0
638225086648156161,-31.97087,-41.23915,-50.14993,-36.83611,95.78008,6.818012,47.92096,-0.8883717,-9.082087,-78.29288,-7.568851,14.50875,0,0,0,1.11271,-150.0029,-170.1327,83.34011,-110.3957,-93.10179,0.001067912,-0.1257102,0.09433498,0,0.3,0,0,0.04694318,0
638225086648496194,-32.3007,-41.12226,-49.96315,-42.3295,98.63664,-0.140279,47.92096,-0.8883717,-9.082087,-78.29288,-7.568851,14.50875,0,0,0,0.8780969,-150.1314,-169.739,83.34011,-110.3957,-93.10179,0.001067912,-0.1257102,0.09433498,0,0.3,0,0,0.04718475,0
638225086648845940,-32.63055,-40.91186,-50.71026,-49.50752,101.127,-9.076189,47.92096,-0.8883717,-9.082087,-78.29288,-7.642097,14.43551,0,0,0,1.311234,-148.4234,-170.3979,83.34011,-110.3957,-93.10179,0.001067912,-0.1257102,0.09433498,0,0.3,0,0,0.04743227,0
638225086649185833,-32.81903,-40.79496,-50.75696,-53.09653,102.0059,-13.32441,47.92096,-0.8883717,-9.082087,-78.29288,-7.568851,14.50875,0,0,0,1.258794,-148.1335,-170.3018,83.34011,-110.3957,-93.10179,0.001067912,-0.1257102,0.09433498,0,0.3,0,0,0.04756064,0
638225086649525719,-32.84259,-40.58456,-50.66357,-58.73641,103.1046,-20.2827,47.92096,-0.8883717,-9.082087,-78.29288,-7.568851,14.50875,0,0,0,1.011805,-147.9304,-169.9174,83.34011,-110.3957,-93.10179,0.001067912,-0.1257102,0.09433498,0,0.3,0,0,0.04782376,0
638225086649865614,-32.72478,-40.67807,-50.47679,-60.27456,103.6906,-24.45767,47.92096,-0.8883717,-9.082087,-78.29288,-7.568851,14.50875,0,0,0,0.935939,-148.4313,-169.8065,83.34011,-110.3957,-93.10179,0.001067912,-0.1257102,0.09433498,0,0.3,0,0,0.04808791,0
638225086650205506,-32.55987,-40.79496,-50.29001,-59.46887,103.7638,-25.77609,47.92096,-0.8883717,-9.082087,-78.29288,-7.568851,14.50875,0,0,0,0.8781112,-148.9723,-169.7252,83.34011,-110.3957,-93.10179,0.001067912,-0.1257102,0.09433498,0,0.3,0,0,0.04821832,0
638225086650545398,-31.90019,-41.23915,-49.79972,-54.26846,102.3721,-25.11688,47.92096,-0.8883717,-9.082087,-78.29288,-7.568851,14.43551,0,0,0,0.833505,-150.6271,-169.6891,83.34011,-110.3957,-93.10179,0.001067912,-0.1257102,0.09433498,0,0.3,0,0,0.04846956,0
638225086650885282,-31.07559,-41.09888,-51.87762,-45.03957,96.80552,-17.49938,47.92096,-0.8883717,-9.082087,-78.29288,-7.568851,14.50875,0,0,0,2.279531,-146.6317,-172.1325,83.34011,-110.3957,-93.10179,0.001067912,-0.1257102,0.09433498,0,0.3,0,0,0.04871048,0
638225086651225176,-30.95779,-41.21577,-52.48465,-35.59094,87.43013,-8.490229,47.92096,-0.8883717,-9.082087,-78.29288,-7.568851,14.43551,0,0,0,2.809469,-145.7205,-173.0336,83.34011,-110.3957,-93.10179,0.001067912,-0.1257102,0.09433498,0,0.3,0,0,0.04897071,0
638225086651555074,-30.95779,-41.19239,-52.46131,-31.12299,81.27753,-3.949028,47.92096,-0.8883717,-9.082087,-78.29288,-7.568851,14.50875,0,0,0,2.774005,-145.7227,-172.9744,83.34011,-110.3957,-93.10179,0.001067912,-0.1257102,0.09433498,0,0.3,0,0,0.04910107,0
638225086651894965,-30.95779,-41.21577,-51.76089,-24.45767,67.50745,4.034696,47.92096,-0.8883717,-9.082087,-78.29288,-7.568851,14.50875,0,0,0,2.277459,-147.0501,-172.1467,83.34011,-110.3957,-93.10179,0.001067912,-0.1257102,0.09433498,0,0.3,0,0,0.04936126,0
638225086652344814,-30.95779,-41.23915,-49.40281,-18.8178,46.55933,12.97061,47.92096,-0.8883717,-9.082087,-78.29288,-7.642097,14.50875,0,0,0,0.5034007,-151.3306,-169.1892,83.34011,-110.3957,-93.10179,0.001067912,-0.1257102,0.09433498,0,0.3,0,0,0.04961357,0
638225086652674707,-30.93423,-41.23915,-48.18876,-16.98667,33.81467,17.51181,47.92096,-0.8883717,-9.082087,-78.29288,-7.568851,14.50875,0,0,0,-0.4537582,-153.4564,-167.5928,83.34011,-110.3957,-93.10179,0.001067912,-0.1257102,0.09433498,0,0.3,0,0,0.0498447,0
638225086653014600,-30.88711,-41.23915,-48.11871,-16.25422,25.68446,20.44161,47.92096,-0.8883717,-9.082087,-78.29288,-7.568851,14.50875,0,0,0,-0.5089634,-153.5778,-167.4991,83.34011,-110.3957,-93.10179,0.001067912,-0.1257102,0.09433498,0,0.3,0,0,0.04995508,0
638225086653364486,-30.74575,-41.23915,-49.44951,-16.10773,13.52576,24.90957,47.92096,-0.8883717,-9.082087,-78.21963,-7.568851,14.50875,0,0,0,0.5364285,-151.248,-169.2518,83.34011,-110.3957,-93.10179,0.001067912,-0.1257102,0.09433498,0,0.3,0,0,0.05017804,0
638225086653704388,-30.62795,-41.21577,-51.78423,-17.49938,6.787202,27.76613,47.92096,-0.8883717,-9.082087,-78.29288,-7.568851,14.50875,0,0,0,2.272695,-147.0074,-172.1886,83.34011,-110.3957,-93.10179,0.001067912,-0.1257102,0.09433498,0,0.3,0,0,0.0504174,0
638225086654044273,-30.55727,-41.21577,-53.97888,-20.57568,2.905208,30.32971,47.92096,-0.8883717,-9.082087,-78.29288,-7.568851,14.50875,0,0,0,3.834942,-142.9348,-174.8456,83.34011,-110.3957,-93.10179,0.001067912,-0.1257102,0.09433498,0,0.3,0,0,0.05067644,0
638225086654384164,-30.55727,-41.21577,-54.88942,-22.40681,1.367059,31.42839,47.92096,-0.8883717,-9.082087,-78.29288,-7.568851,14.50875,0,0,0,4.461591,-141.211,-175.907,83.34011,-110.3957,-93.10179,0.001067912,-0.1257102,0.09433498,0,0.3,0,0,0.05081076,0
638225086654724052,-30.55727,-41.23915,-55.56649,-25.55635,-1.123276,32.60031,47.92096,-0.8883717,-9.082087,-78.29288,-7.568851,14.50875,0,0,0,4.936721,-139.9575,-176.7118,83.34011,-110.3957,-93.10179,0.001067912,-0.1257102,0.09433498,0,0.3,0,0,0.05108456,0
638225086655053956,-30.55727,-41.23915,-55.68323,-28.11993,-3.906592,33.25952,47.92096,-0.8883717,-9.082087,-78.29288,-7.642097,14.50875,0,0,0,5.014709,-139.7332,-176.8439,83.34011,-110.3957,-93.10179,0.001067912,-0.1257102,0.09433498,0,0.3,0,0,0.05135993,0
638225086655393840,-30.53371,-41.23915,-55.72992,-29.3651,-5.371496,33.47925,47.92096,-0.8883717,-9.082087,-78.29288,-7.642097,14.50875,0,0,0,5.042325,-139.6434,-176.8987,83.34011,-110.3957,-93.10179,0.001067912,-0.1257102,0.09433498,0,0.3,0,0,0.05149779,0
638225086655723735,-30.51015,-41.26253,-55.75327,-30.83001,-7.935077,33.18628,47.92096,-0.8883717,-9.082087,-78.29288,-7.568851,14.50875,0,0,0,5.072552,-139.6394,-176.958,83.34011,-110.3957,-93.10179,0.001067912,-0.1257102,0.09433498,0,0.3,0,0,0.05177357,0
638225086656063660,-30.51015,-41.26253,-55.77662,-30.83001,-9.692961,31.42839,47.92096,-0.8883717,-9.082087,-78.29288,-7.568851,14.50875,0,0,0,5.088072,-139.5945,-176.9843,83.34011,-110.3957,-93.10179,0.001067912,-0.1257102,0.09433498,0,0.3,0,0,0.05204876,0
638225086656393521,-30.51015,-41.26253,-55.82331,-30.61027,-10.35217,30.25646,47.92096,-0.8883717,-9.082087,-78.29288,-7.568851,14.50875,0,0,0,5.119085,-139.5046,-177.037,83.34011,-110.3957,-93.10179,0.001067912,-0.1257102,0.09433498,0,0.3,0,0,0.0521862,0
638225086656733554,-30.51015,-41.26253,-56.22021,-29.73133,-11.3776,26.96043,47.92096,-0.8883717,-9.082087,-78.29288,-7.568851,14.50875,0,0,0,5.381187,-138.7386,-177.4818,83.34011,-110.3957,-93.10179,0.001067912,-0.1257102,0.09433498,0,0.3,0,0,0.05246186,0
638225086657073319,-30.51015,-41.26253,-56.33695,-28.7059,-12.03681,22.34599,47.92096,-0.8883717,-9.082087,-78.29288,-7.568851,14.50875,0,0,0,5.457763,-138.5126,-177.6117,83.34011,-110.3957,-93.10179,0.001067912,-0.1257102,0.09433498,0,0.3,0,0,0.05273879,0
638225086657413197,-30.51015,-41.26253,-56.31361,-28.48616,-12.54952,20.07539,47.92096,-0.8883717,-9.082087,-78.29288,-7.568851,14.50875,0,0,0,5.442466,-138.5578,-177.5857,83.34011,-110.3957,-93.10179,0.001067912,-0.1257102,0.09433498,0,0.3,0,0,0.05287731,0
638225086657753094,-30.51015,-41.26253,-56.31361,-29.43835,-14.16092,16.77936,47.92096,-0.8883717,-9.082087,-78.29288,-7.568851,14.50875,0,0,0,5.442466,-138.5578,-177.5857,83.34011,-110.3957,-93.10179,0.001067912,-0.1257102,0.09433498,0,0.3,0,0,0.05315435,0
638225086658102974,-30.51015,-41.26253,-56.54708,-32.73438,-15.77231,15.60743,47.92096,-0.8883717,-9.082087,-78.29288,-7.568851,14.43551,0,0,0,5.595009,-138.1051,-177.8446,83.34011,-110.3957,-93.10179,0.001067912,-0.1257102,0.09433498,0,0.3,0,0,0.05343134,0
638225086658442879,-30.51015,-41.26253,-56.89729,-36.03041,-16.57801,15.82717,47.92096,-0.8883717,-9.082087,-78.29288,-7.568851,14.50875,0,0,0,5.822064,-137.4237,-178.2299,83.34011,-110.3957,-93.10179,0.001067912,-0.1257102,0.09433498,0,0.3,0,0,0.05370928,0
638225086658782763,-30.51015,-41.26253,-56.94398,-37.27558,-16.79774,15.90041,47.92096,-0.8883717,-9.082087,-78.29288,-7.568851,14.43551,0,0,0,5.852178,-137.3326,-178.281,83.34011,-110.3957,-93.10179,0.001067912,-0.1257102,0.09433498,0,0.3,0,0,0.05384865,0
638225086659132645,-30.51015,-41.26253,-56.99068,-39.2532,-17.01748,15.97366,47.92096,-0.8883717,-9.082087,-78.21963,-7.568851,14.50875,0,0,0,5.882254,-137.2415,-178.332,83.34011,-110.3957,-93.10179,0.001067912,-0.1257102,0.09433498,0,0.3,0,0,0.05412731,0
638225086659472540,-30.51015,-41.26253,-56.94398,-40.27863,-17.16397,16.0469,47.92096,-0.8883717,-9.082087,-78.29288,-7.568851,14.43551,0,0,0,5.852178,-137.3326,-178.281,83.34011,-110.3957,-93.10179,0.001067912,-0.1257102,0.09433498,0,0.3,0,0,0.05440604,0
638225086659882404,-30.51015,-41.26253,-56.8039,-40.57161,-17.16397,15.97366,47.92096,-0.8883717,-9.082087,-78.29288,-7.568851,14.50875,0,0,0,5.761723,-137.6057,-178.1275,83.34011,-110.3957,-93.10179,0.001067912,-0.1257102,0.09433498,0,0.3,0,0,0.05468464,0
638225086660222305,-30.51015,-41.26253,-56.78055,-40.49837,-17.16397,15.90041,47.92096,-0.8883717,-9.082087,-78.29288,-7.568851,14.43551,0,0,0,5.746614,-137.6511,-178.1019,83.34011,-110.3957,-93.10179,0.001067912,-0.1257102,0.09433498,0,0.3,0,0,0.05482376,0
638225086660553098,-30.51015,-41.26253,-56.64047,-39.61942,-17.16397,14.80174,47.92096,-0.8883717,-9.082087,-78.29288,-7.568851,14.43551,0,0,0,5.655764,-137.9236,-177.9477,83.34011,-110.3957,-93.10179,0.001067912,-0.1257102,0.09433498,0,0.3,0,0,0.05510201,0
638225086660892840,-30.53371,-41.26253,-56.43034,-37.27558,-17.23721,12.3114,47.92096,-0.8883717,-9.082087,-78.29288,-7.568851,14.50875,0,0,0,5.522705,-138.3316,-177.7131,83.34011,-110.3957,-93.10179,0.001067912,-0.1257102,0.09433498,0,0.3,0,0,0.05537983,0
638225086661232728,-30.53371,-41.26253,-56.31361,-33.83306,-17.16397,8.429405,47.92096,-0.8883717,-9.082087,-78.29288,-7.642097,14.43551,0,0,0,5.446263,-138.5578,-177.5835,83.34011,-110.3957,-93.10179,0.001067912,-0.1257102,0.09433498,0,0.3,0,0,0.05565718,0
638225086661572824,-30.55727,-41.26253,-56.15017,-32.14842,-17.09072,6.451786,47.92096,-0.8883717,-9.082087,-78.29288,-7.568851,14.50875,0,0,0,5.342574,-138.874,-177.3992,83.34011,-110.3957,-93.10179,0.001067912,-0.1257102,0.09433498,0,0.3,0,0,0.05579576,0
638225086661912511,-30.67507,-41.26253,-55.75327,-28.33967,-16.94423,1.69085,47.92096,-0.8883717,-9.082087,-78.29288,-7.642097,14.50875,0,0,0,5.097308,-139.6394,-176.9434,83.34011,-110.3957,-93.10179,0.001067912,-0.1257102,0.09433498,0,0.3,0,0,0.05607233,0
638225086662242416,-30.81643,-41.26253,-55.30967,-23.79847,-16.57801,-3.436311,47.92096,-0.8883717,-9.082087,-78.29288,-7.568851,14.50875,0,0,0,4.819161,-140.4906,-176.429,83.34011,-110.3957,-93.10179,0.001067912,-0.1257102,0.09433498,0,0.3,0,0,0.05634799,0
638225086662592302,-30.88711,-41.26253,-55.00616,-21.30813,-16.35827,-6.292873,47.92096,-0.8883717,-9.082087,-78.29288,-7.642097,14.43551,0,0,0,4.621948,-141.0704,-176.0767,83.34011,-110.3957,-93.10179,0.001067912,-0.1257102,0.09433498,0,0.3,0,0,0.05648549,0
638225086662932193,-31.05203,-41.26253,-54.46917,-15.88799,-15.99205,-12.51871,47.92096,-0.8883717,-9.082087,-78.29288,-7.568851,14.50875,0,0,0,4.271996,-142.0908,-175.4452,83.34011,-110.3957,-93.10179,0.001067912,-0.1257102,0.09433498,0,0.3,0,0,0.05675882,0
638225086663272086,-31.14627,-41.26253,-54.21235,-12.81169,-15.69907,-16.10773,47.92096,-0.8883717,-9.082087,-78.29288,-7.568851,14.43551,0,0,0,4.103434,-142.5765,-175.1399,83.34011,-110.3957,-93.10179,0.001067912,-0.1257102,0.09433498,0,0.3,0,0,0.05703046,0
638225086663611977,-31.16983,-41.26253,-54.11897,-11.27355,-15.47933,-17.79236,47.92096,-0.8883717,-9.082087,-78.29288,-7.568851,14.50875,0,0,0,4.040365,-142.7527,-175.0294,83.34011,-110.3957,-93.10179,0.001067912,-0.1257102,0.09433498,0,0.3,0,0,0.05716592,0
638225086663951868,-31.19339,-41.26253,-53.86214,-8.783209,-15.03986,-20.64893,47.92096,-0.8883717,-9.082087,-78.29288,-7.568851,14.43551,0,0,0,3.861105,-143.2362,-174.7271,83.34011,-110.3957,-93.10179,0.001067912,-0.1257102,0.09433498,0,0.3,0,0,0.05743606,0
638225086664291771,-31.19339,-41.26253,-53.74541,-7.025325,-14.67363,-22.69979,47.92096,-0.8883717,-9.082087,-78.29288,-7.568851,14.50875,0,0,0,3.778004,-143.4554,-174.5899,83.34011,-110.3957,-93.10179,0.001067912,-0.1257102,0.09433498,0,0.3,0,0,0.05770488,0
638225086664631650,-31.19339,-41.26253,-53.72206,-6.073137,-14.60039,-23.79847,47.92096,-0.8883717,-9.082087,-78.29288,-7.568851,14.43551,0,0,0,3.761357,-143.4993,-174.5624,83.34011,-110.3957,-93.10179,0.001067912,-0.1257102,0.09433498,0,0.3,0,0,0.05797311,0
638225086664961545,-31.19339,-41.26253,-53.69871,-5.706912,-14.52714,-24.09145,47.92096,-0.8883717,-9.082087,-78.29288,-7.568851,14.50875,0,0,0,3.744699,-143.5431,-174.5349,83.34011,-110.3957,-93.10179,0.001067912,-0.1257102,0.09433498,0,0.3,0,0,0.05810725,0
638225086665301437,-31.19339,-41.26253,-53.69871,-5.340686,-14.23416,-24.60417,47.92096,-0.8883717,-9.082087,-78.29288,-7.568851,14.50875,0,0,0,3.744699,-143.5431,-174.5349,83.34011,-110.3957,-93.10179,0.001067912,-0.1257102,0.09433498,0,0.3,0,0,0.05837535,0
638225086665641327,-31.19339,-41.26253,-53.69871,-5.120951,-14.08767,-24.89715,47.92096,-0.8883717,-9.082087,-78.29288,-7.642097,14.43551,0,0,0,3.744699,-143.5431,-174.5349,83.34011,-110.3957,-93.10179,0.001067912,-0.1257102,0.09433498,0,0.3,0,0,0.05864351,0
638225086665981213,-31.19339,-41.26253,-53.69871,-4.97446,-13.94118,-25.19013,47.92096,-0.8883717,-9.082087,-78.29288,-7.568851,14.43551,0,0,0,3.744699,-143.5431,-174.5349,83.34011,-110.3957,-93.10179,0.001067912,-0.1257102,0.09433498,0,0.3,0,0,0.05877753,0
638225086666321104,-31.19339,-41.26253,-53.69871,-4.461744,-13.72145,-26.14231,47.92096,-0.8883717,-9.082087,-78.29288,-7.568851,14.50875,0,0,0,3.744699,-143.5431,-174.5349,83.34011,-110.3957,-93.10179,0.001067912,-0.1257102,0.09433498,0,0.3,0,0,0.05904569,0
638225086666660992,-31.21695,-41.23915,-53.72206,-2.410879,-13.13548,-30.9765,47.92096,-0.8883717,-9.082087,-78.29288,-7.568851,14.50875,0,0,0,3.745317,-143.4584,-174.5301,83.34011,-110.3957,-93.10179,0.001067912,-0.1257102,0.09433498,0,0.3,0,0,0.05931422,0
638225086667000893,-31.21695,-41.23915,-53.72206,-0.6529952,-12.54952,-35.29796,47.92096,-0.8883717,-9.082087,-78.29288,-7.568851,14.50875,0,0,0,3.745317,-143.4584,-174.5301,83.34011,-110.3957,-93.10179,0.001067912,-0.1257102,0.09433498,0,0.3,0,0,0.05944866,0
638225086667430754,-31.21695,-41.23915,-53.72206,3.375489,-7.861832,-50.16673,47.92096,-0.8883717,-9.082087,-78.29288,-7.568851,14.50875,0,0,0,3.745317,-143.4584,-174.5301,83.34011,-110.3957,-93.10179,0.001067912,-0.1257102,0.09433498,0,0.3,0,0,0.0598521,0
638225086667770649,-31.21695,-41.23915,-53.72206,3.96145,-5.444741,-54.19521,47.92096,-0.8883717,-9.082087,-78.29288,-7.642097,14.50875,0,0,0,3.745317,-143.4584,-174.5301,83.34011,-110.3957,-93.10179,0.001067912,-0.1257102,0.09433498,0,0.3,0,0,0.05998666,0
638225086668110539,-31.21695,-41.23915,-53.72206,4.254431,-0.171089,-59.46887,47.92096,-0.8883717,-9.082087,-78.29288,-7.642097,14.43551,0,0,0,3.745317,-143.4584,-174.5301,83.34011,-110.3957,-93.10179,0.001067912,-0.1257102,0.09433498,0,0.3,0,0,0.06025561,0
638225086668450443,-31.21695,-41.23915,-53.72206,3.81496,4.443357,-61.73947,47.92096,-0.8883717,-9.082087,-78.29288,-7.568851,14.43551,0,0,0,3.745317,-143.4584,-174.5301,83.34011,-110.3957,-93.10179,0.001067912,-0.1257102,0.09433498,0,0.3,0,0,0.06052449,0
638225086668790311,-31.21695,-41.21577,-53.72206,3.521979,6.640712,-62.54516,47.92096,-0.8883717,-9.082087,-78.29288,-7.568851,14.50875,0,0,0,3.726732,-143.4174,-174.4995,83.34011,-110.3957,-93.10179,0.001067912,-0.1257102,0.09433498,0,0.3,0,0,0.06065899,0
638225086669140206,-31.21695,-41.21577,-53.72206,2.862773,10.44946,-64.15656,47.92096,-0.8883717,-9.082087,-78.29288,-7.568851,14.50875,0,0,0,3.726732,-143.4174,-174.4995,83.34011,-110.3957,-93.10179,0.001067912,-0.1257102,0.09433498,0,0.3,0,0,0.06090416,0
638225086669470104,-31.21695,-41.21577,-53.74541,2.130321,14.47795,-65.98769,47.92096,-0.8883717,-9.082087,-78.29288,-7.568851,14.43551,0,0,0,3.743391,-143.3736,-174.5269,83.34011,-110.3957,-93.10179,0.001067912,-0.1257102,0.09433498,0,0.3,0,0,0.0610883,0
638225086669809986,-31.21695,-41.21577,-53.76875,1.764095,16.6753,-66.93987,47.92096,-0.8883717,-9.082087,-78.21963,-7.568851,14.43551,0,0,0,3.760041,-143.3298,-174.5544,83.34011,-110.3957,-93.10179,0.001067912,-0.1257102,0.09433498,0,0.3,0,0,0.06117065,0
638225086670150013,-31.21695,-41.19239,-53.88549,0.9583986,21.72922,-69.21047,47.92096,-0.8883717,-9.082087,-78.29288,-7.642097,14.43551,0,0,0,3.824575,-143.0695,-174.6609,83.34011,-110.3957,-93.10179,0.001067912,-0.1257102,0.09433498,0,0.3,0,0,0.06129434,0
638225086670489777,-31.21695,-41.19239,-54.04892,0.1527017,28.10155,-71.70081,47.92096,-0.8883717,-9.082087,-78.29288,-7.568851,14.43551,0,0,0,3.940541,-142.7619,-174.8523,83.34011,-110.3957,-93.10179,0.001067912,-0.1257102,0.09433498,0,0.3,0,0,0.06136889,0
638225086670839809,-31.21695,-41.19239,-54.16566,-0.5065048,34.8401,-73.89817,47.92096,-0.8883717,-9.082087,-78.29288,-7.568851,14.50875,0,0,0,4.023095,-142.5418,-174.9885,83.34011,-110.3957,-93.10179,0.001067912,-0.1257102,0.09433498,0,0.3,0,0,0.0614193,0
638225086671189545,-31.21695,-41.19239,-54.2357,-0.8727306,38.50236,-74.99684,47.92096,-0.8883717,-9.082087,-78.29288,-7.568851,14.50875,0,0,0,4.072516,-142.4096,-175.07,83.34011,-110.3957,-93.10179,0.001067912,-0.1257102,0.09433498,0,0.3,0,0,0.06143965,0
638225086671529446,-31.21695,-41.19239,-54.49252,-1.531937,46.11986,-77.26745,47.92096,-0.8883717,-9.082087,-78.29288,-7.568851,14.50875,0,0,0,4.253007,-141.9238,-175.3679,83.34011,-110.3957,-93.10179,0.001067912,-0.1257102,0.09433498,0,0.3,0,0,0.06146882,0
638225086672029283,-31.21695,-41.19239,-54.70264,-2.264389,53.66411,-78.6591,47.92096,-0.8883717,-9.082087,-78.29288,-7.568851,14.50875,0,0,0,4.399842,-141.5252,-175.6102,83.34011,-110.3957,-93.10179,0.001067912,-0.1257102,0.09433498,0,0.3,0,0,0.06149637,0
638225086672329194,-31.21695,-41.19239,-55.05285,-3.143331,61.2816,-79.68453,47.92096,-0.8883717,-9.082087,-78.29288,-7.568851,14.50875,0,0,0,4.642879,-140.8585,-176.0112,83.34011,-110.3957,-93.10179,0.001067912,-0.1257102,0.09433498,0,0.3,0,0,0.0615319,0
638225086672679096,-31.21695,-41.19239,-55.23963,-4.022273,68.53288,-80.19725,47.92096,-0.8883717,-9.082087,-78.29288,-7.568851,14.50875,0,0,0,4.771635,-140.5018,-176.2236,83.34011,-110.3957,-93.10179,0.001067912,-0.1257102,0.09433498,0,0.3,0,0,0.06157199,0
638225086673008972,-31.21695,-41.19239,-55.28632,-4.534989,71.9754,-80.56348,47.92096,-0.8883717,-9.082087,-78.29288,-7.568851,14.43551,0,0,0,4.80373,-140.4125,-176.2766,83.34011,-110.3957,-93.10179,0.001067912,-0.1257102,0.09433498,0,0.3,0,0,0.06159354,0
638225086673348859,-31.07559,-40.79496,-55.77662,-5.706912,78.49422,-82.17487,47.92096,-0.8883717,-9.082087,-78.29288,-7.568851,14.50875,0,0,0,4.804315,-138.7736,-176.3219,83.34011,-110.3957,-93.10179,0.001067912,-0.1257102,0.09433498,0,0.3,0,0,0.06163567,0
638225086673678758,-30.86355,-40.35078,-56.52373,-6.878834,83.98761,-84.73845,47.92096,-0.8883717,-9.082087,-78.29288,-7.568851,14.50875,0,0,0,4.926706,-136.5443,-176.5938,83.34011,-110.3957,-93.10179,0.001067912,-0.1257102,0.09433498,0,0.3,0,0,0.06169473,0
638225086674028638,-30.67507,-40.02348,-57.10741,-7.831022,88.6753,-87.66826,47.92096,-0.8883717,-9.082087,-78.29288,-7.568851,14.50875,0,0,0,5.028117,-134.8254,-176.8267,83.34011,-110.3957,-93.10179,0.001067912,-0.1257102,0.09433498,0,0.3,0,0,0.06178631,0
638225086674358543,-30.62795,-39.88321,-57.34089,-8.270493,90.50643,-89.13316,47.92096,-0.8883717,-9.082087,-78.29288,-7.642097,14.50875,0,0,0,5.064204,-134.1183,-176.9036,83.34011,-110.3957,-93.10179,0.001067912,-0.1257102,0.09433498,0,0.3,0,0,0.06185246,0
638225086674718438,-30.46303,-39.69619,-57.66774,-9.002944,93.65598,-92.13622,47.92096,-0.8883717,-9.082087,-78.29288,-7.568851,14.43551,0,0,0,5.105534,-133.1422,-177.0303,83.34011,-110.3957,-93.10179,0.001067912,-0.1257102,0.09433498,0,0.3,0,0,0.06204649,0
638225086675068305,-30.36879,-39.53254,-57.97126,-9.588906,96.07306,-95.28575,47.92096,-0.8883717,-9.082087,-78.29288,-7.568851,14.50875,0,0,0,5.158676,-132.2509,-177.1537,83.34011,-110.3957,-93.10179,0.001067912,-0.1257102,0.09433498,0,0.3,0,0,0.06233278,0
638225086675408197,-30.29811,-39.46241,-58.15804,-9.955132,97.0985,-97.19013,47.92096,-0.8883717,-9.082087,-78.29288,-7.642097,14.43551,0,0,0,5.21144,-131.756,-177.269,83.34011,-110.3957,-93.10179,0.001067912,-0.1257102,0.09433498,0,0.3,0,0,0.06251211,0
638225086675748098,-30.08607,-39.25201,-58.53159,-10.68758,99.00287,-101.8046,47.92096,-0.8883717,-9.082087,-78.29288,-7.568851,14.50875,0,0,0,5.251452,-130.6373,-177.4143,83.34011,-110.3957,-93.10179,0.001067912,-0.1257102,0.09433498,0,0.3,0,0,0.06293362,0
638225086676087982,-29.89759,-39.0416,-58.90515,-11.71302,101.0537,-109.2756,47.92096,-0.8883717,-9.082087,-78.29288,-7.568851,14.50875,0,0,0,5.292531,-129.5145,-177.5549,83.34011,-110.3957,-93.10179,0.001067912,-0.1257102,0.09433498,0,0.3,0,0,0.06341437,0
638225086676497850,-29.70911,-38.87795,-59.06858,-13.61739,103.2511,-119.5299,47.92096,-0.8883717,-9.082087,-78.29288,-7.568851,14.50875,0,0,0,5.240662,-128.8924,-177.5345,83.34011,-110.3957,-93.10179,0.001067912,-0.1257102,0.09433498,0,0.3,0,0,0.06390772,0
638225086676827744,-29.70911,-38.80782,-58.9285,-15.30203,104.2765,-125.243,47.92096,-0.8883717,-9.082087,-78.29288,-7.568851,14.43551,0,0,0,5.106701,-129.0447,-177.2997,83.34011,-110.3957,-93.10179,0.001067912,-0.1257102,0.09433498,0,0.3,0,0,0.06435702,0
638225086677167636,-29.70911,-38.80782,-58.9285,-16.18097,104.6427,-128.3193,47.92096,-0.8883717,-9.082087,-78.29288,-7.568851,14.50875,0,0,0,5.106701,-129.0447,-177.2997,83.34011,-110.3957,-93.10179,0.001067912,-0.1257102,0.09433498,0,0.3,0,0,0.06455442,0
638225086677507527,-29.70911,-38.80782,-58.9285,-17.42614,105.2287,-132.1281,47.92096,-0.8883717,-9.082087,-78.29288,-7.642097,14.43551,0,0,0,5.106701,-129.0447,-177.2997,83.34011,-110.3957,-93.10179,0.001067912,-0.1257102,0.09433498,0,0.3,0,0,0.06487834,0
638225086677847419,-29.70911,-38.80782,-58.9285,-18.15859,105.5217,-135.4973,47.92096,-0.8883717,-9.082087,-78.29288,-7.568851,14.43551,0,0,0,5.106701,-129.0447,-177.2997,83.34011,-110.3957,-93.10179,0.001067912,-0.1257102,0.09433498,0,0.3,0,0,0.06508492,0
638225086678187310,-29.70911,-38.80782,-58.9285,-18.30508,105.5949,-136.5228,47.92096,-0.8883717,-9.082087,-78.29288,-7.568851,14.50875,0,0,0,5.106701,-129.0447,-177.2997,83.34011,-110.3957,-93.10179,0.001067912,-0.1257102,0.09433498,0,0.3,0,0,0.06513162,0
