zeyangz2/DNN_classification_different_people_hand/data_by_names/Srikar/srikar_right_24.csv
Timestamp,Therapist joint angle 0,Therapist joint angle 1,Therapist joint angle 2,Therapist joint angle 3,Therapist joint angle 4,Therapist joint angle 5,Patient joint angle 0,Patient joint angle 1,Patient joint angle 2,Patient joint angle 3,Patient joint angle 4,Patient joint angle 5,Virtual joint angle 0,Virtual joint angle 1,Virtual joint angle 2,Therapist position x,Therapist position y,Therapist position z,Patient position x,Patient position y,Patient position z,Virtual position x,Virtual position y,Virtual position z,Assistive Force, Obstacle Force Magnitude, Therapist Constant Force, Patient Constant Force, Recovery Factor, Assistance Level
638225082841103637,0,0,0,0,0,0,0,0,0,0,0,0,0,0,0,0,0,0,0,0,0,0,0,0,0,0.3,0,0,0,0
638225082841243597,-44.22205,-0.9818845,3.852299,-116.5269,-64.11412,60.36023,52.93923,40.30402,-8.70853,-46.13824,-44.48441,13.26359,0,0,0,-99.23851,-111.9838,-66.37933,65.04114,-22.2061,-119.2298,0.001067912,-0.1257102,0.09433498,0,0.3,0,0,0,0
638225082841583488,-44.22205,-0.9818845,3.852299,-116.4536,-64.11412,60.36023,52.93923,40.30402,-8.70853,-46.13824,-44.48441,13.26359,0,0,0,-99.23851,-111.9838,-66.37933,65.04114,-22.2061,-119.2298,0.001067912,-0.1257102,0.09433498,0,0.3,0,0,0,0
638225082841923379,-44.22205,-0.9818845,3.898993,-122.0202,-64.11412,60.50672,52.93923,40.30402,-8.70853,-46.13824,-44.48441,13.26359,0,0,0,-99.31413,-111.9765,-66.30163,65.04114,-22.2061,-119.2298,0.001067912,-0.1257102,0.09433498,0,0.3,0,0,0,0
638225082842273267,-44.22205,-0.9818845,3.898993,-129.5645,-64.04088,60.57997,52.93923,40.30402,-8.70853,-46.13824,-44.48441,13.26359,0,0,0,-99.31413,-111.9765,-66.30163,65.04114,-22.2061,-119.2298,0.001067912,-0.1257102,0.09433498,0,0.3,0,0,0,0
638225082842613155,-44.69325,-0.9818845,4.295897,-147.8758,-64.11412,60.57997,52.93923,40.30402,-8.70853,-46.13824,-44.48441,13.26359,0,0,0,-100.798,-111.9105,-66.46683,65.04114,-22.2061,-119.2298,0.001067912,-0.1257102,0.09433498,0,0.3,0,0,0,0
638225082842953046,-45.09377,-0.9818845,4.27255,-150.8056,-64.04088,60.50672,52.93923,40.30402,-8.70853,-46.13824,-44.48441,13.26359,0,0,0,-101.4694,-111.9145,-67.21218,65.04114,-22.2061,-119.2298,0.001067912,-0.1257102,0.09433498,0,0.3,0,0,0,0
638225082843292936,-45.09377,-0.9818845,4.27255,-151.4648,-64.11412,60.36023,52.93923,40.30402,-8.70853,-46.13824,-44.48441,13.26359,0,0,0,-101.4694,-111.9145,-67.21218,65.04114,-22.2061,-119.2298,0.001067912,-0.1257102,0.09433498,0,0.3,0,0,0,0
638225082843622833,-45.09377,-0.9818845,4.27255,-153.2959,-64.11412,60.36023,52.93923,40.30402,-8.70853,-46.13824,-44.48441,13.26359,0,0,0,-101.4694,-111.9145,-67.21218,65.04114,-22.2061,-119.2298,0.001067912,-0.1257102,0.09433498,0,0.3,0,0,0,0
638225082843962724,-45.14088,-0.9818845,4.669453,-154.6876,-64.04088,60.36023,52.93923,40.30402,-8.70853,-46.13824,-44.48441,13.26359,0,0,0,-102.2053,-111.8425,-66.64606,65.04114,-22.2061,-119.2298,0.001067912,-0.1257102,0.09433498,0,0.3,0,0,0,0
638225082844392585,-45.5414,-0.9818845,6.210372,-154.7608,-63.52816,60.36023,52.93923,40.30402,-8.70853,-46.13824,-44.48441,13.26359,0,0,0,-105.4619,-111.5025,-64.86254,65.04114,-22.2061,-119.2298,0.001067912,-0.1257102,0.09433498,0,0.3,0,0,0,0
638225082844732481,-46.0126,-0.9818845,7.564514,-154.7608,-62.86895,60.36023,52.93923,40.30402,-8.70853,-46.13824,-44.48441,13.26359,0,0,0,-108.5606,-111.1246,-63.56039,65.04114,-22.2061,-119.2298,0.001067912,-0.1257102,0.09433498,0,0.3,0,0,0,0
638225082845082367,-46.88432,-0.9117499,10.15606,-154.8341,-61.62378,60.36023,52.93923,40.30402,-8.70853,-46.13824,-44.48441,13.26359,0,0,0,-114.4942,-110.0325,-61.14942,65.04114,-22.2061,-119.2298,0.001067912,-0.1257102,0.09433498,0,0.3,0,0,0,0
638225082845422256,-47.37908,-0.8182371,11.74367,-154.8341,-60.81809,60.36023,52.93923,40.30402,-8.70853,-46.13824,-44.48441,13.26359,0,0,0,-118.0874,-109.113,-59.68344,65.04114,-22.2061,-119.2298,0.001067912,-0.1257102,0.09433498,0,0.3,0,0,0,0
638225082845752156,-48.32148,-0.5610769,15.05899,-154.8341,-59.27994,60.36023,52.93923,40.30402,-8.70853,-46.13824,-44.48441,13.26359,0,0,0,-125.4694,-106.7264,-56.64517,65.04114,-22.2061,-119.2298,0.001067912,-0.1257102,0.09433498,0,0.3,0,0,0,0
638225082846092045,-49.14608,-0.1636474,18.56108,-154.8341,-57.96152,60.36023,52.93923,40.30402,-8.70853,-46.13824,-44.48441,13.26359,0,0,0,-132.9691,-103.4447,-53.35555,65.04114,-22.2061,-119.2298,0.001067912,-0.1257102,0.09433498,0,0.3,0,0,0,0
638225082846431952,-49.59372,0.1402692,20.4989,-154.8341,-57.37556,60.36023,52.93923,40.30402,-8.70853,-46.13824,-44.48441,13.26359,0,0,0,-137.1002,-101.2297,-51.64269,65.04114,-22.2061,-119.2298,0.001067912,-0.1257102,0.09433498,0,0.3,0,0,0,0
638225082846781822,-50.34764,0.8182371,24.49128,-154.8341,-56.49662,60.36023,52.93923,40.30402,-8.70853,-46.13824,-44.48441,13.26359,0,0,0,-145.2222,-96.09745,-47.98805,65.04114,-22.2061,-119.2298,0.001067912,-0.1257102,0.09433498,0,0.3,0,0,0,0
638225082847111722,-50.88952,1.613096,28.6004,-154.8341,-55.83742,60.36023,52.93923,40.30402,-8.70853,-46.13824,-44.48441,13.26359,0,0,0,-152.9605,-89.97476,-43.99592,65.04114,-22.2061,-119.2298,0.001067912,-0.1257102,0.09433498,0,0.3,0,0,0,0
638225082847451609,-51.00732,2.407955,31.58885,-154.9073,-55.54444,60.36023,52.93923,40.30402,-8.70853,-46.13824,-44.48441,13.26359,0,0,0,-157.842,-84.63876,-40.56546,65.04114,-22.2061,-119.2298,0.001067912,-0.1257102,0.09433498,0,0.3,0,0,0,0
638225082847791499,-51.00732,3.296327,34.48391,-154.9073,-55.39795,60.36023,52.93923,40.30402,-8.70853,-46.13824,-44.48441,13.26359,0,0,0,-162.1518,-78.9008,-37.07635,65.04114,-22.2061,-119.2298,0.001067912,-0.1257102,0.09433498,0,0.3,0,0,0,0
638225082848141395,-51.00732,4.511993,38.05604,-154.9073,-55.10497,60.36023,52.93923,40.30402,-8.70853,-46.13824,-44.48441,13.26359,0,0,0,-167.2109,-71.16053,-32.98066,65.04114,-22.2061,-119.2298,0.001067912,-0.1257102,0.09433498,0,0.3,0,0,0,0
638225082848481279,-50.98376,6.38225,42.49202,-154.8341,-53.71331,60.36023,52.93923,40.30402,-8.70853,-46.13824,-44.48441,13.26359,0,0,0,-172.9528,-60.15515,-28.21436,65.04114,-22.2061,-119.2298,0.001067912,-0.1257102,0.09433498,0,0.3,0,0,0,0
638225082848901146,-50.63036,8.743448,47.32491,-154.8341,-50.85675,60.36023,52.93923,40.30402,-8.70853,-46.13824,-44.48441,13.26359,0,0,0,-177.6827,-46.7694,-22.55735,65.04114,-22.2061,-119.2298,0.001067912,-0.1257102,0.09433498,0,0.3,0,0,0,0
638225082849251031,-50.41832,9.935737,49.26273,-154.8341,-49.3186,60.36023,52.93923,40.30402,-8.70853,-46.13824,-44.48441,13.26359,0,0,0,-179.1074,-40.66439,-20.27589,65.04114,-22.2061,-119.2298,0.001067912,-0.1257102,0.09433498,0,0.3,0,0,0,0
638225082849580928,-49.71152,13.06842,53.09168,-154.7608,-45.50985,60.36023,52.93923,40.30402,-8.70853,-46.13824,-44.48441,13.26359,0,0,0,-180.4191,-26.57917,-15.40582,65.04114,-22.2061,-119.2298,0.001067912,-0.1257102,0.09433498,0,0.3,0,0,0,0
638225082849910827,-48.69844,16.43488,56.50039,-154.8341,-41.92084,60.36023,52.93923,40.30402,-8.70853,-46.13824,-44.48441,13.26359,0,0,0,-179.6235,-12.52196,-10.53822,65.04114,-22.2061,-119.2298,0.001067912,-0.1257102,0.09433498,0,0.3,0,0,0,0
638225082850250718,-48.15656,18.09473,58.13469,-154.8341,-40.08971,60.28699,52.93923,40.30402,-8.70853,-46.13824,-44.48441,13.26359,0,0,0,-178.799,-5.631651,-8.2412,65.04114,-22.2061,-119.2298,0.001067912,-0.1257102,0.09433498,0,0.3,0,0,0,0
638225082850600606,-46.955,21.32092,61.35661,-154.8341,-36.72043,60.36023,52.93923,40.30402,-8.70853,-46.13824,-44.48441,13.26359,0,0,0,-176.3127,7.912718,-3.676655,65.04114,-22.2061,-119.2298,0.001067912,-0.1257102,0.09433498,0,0.3,0,0,0,0
638225082850930500,-45.63565,24.07955,64.1116,-154.8341,-33.4244,60.36023,52.93923,40.30402,-8.70853,-46.13824,-44.48441,13.26359,0,0,0,-172.803,19.53417,0.6607284,65.04114,-22.2061,-119.2298,0.001067912,-0.1257102,0.09433498,0,0.3,0,0,0,0
638225082851280385,-44.19849,26.79142,66.67979,-154.8341,-30.20161,60.36023,52.93923,40.30402,-8.70853,-46.13824,-44.48441,13.26359,0,0,0,-168.3549,30.66751,4.782289,65.04114,-22.2061,-119.2298,0.001067912,-0.1257102,0.09433498,0,0.3,0,0,0,0
638225082851620281,-43.39745,28.19411,67.87051,-154.8341,-28.59021,60.36023,52.93923,40.30402,-8.70853,-46.13824,-44.48441,13.26359,0,0,0,-165.6181,36.11946,6.80186,65.04114,-22.2061,-119.2298,0.001067912,-0.1257102,0.09433498,0,0.3,0,0,0,0
638225082851960172,-41.48909,30.81247,70.25192,-154.9073,-25.51392,60.36023,52.93923,40.30402,-8.70853,-46.13824,-44.48441,13.26359,0,0,0,-159.0176,46.59886,11.45569,65.04114,-22.2061,-119.2298,0.001067912,-0.1257102,0.09433498,0,0.3,0,0,0,0
638225082852300071,-39.39226,32.91651,72.32983,-154.8341,-22.87709,60.36023,52.93923,40.30402,-8.70853,-46.13824,-44.48441,13.26359,0,0,0,-151.6762,55.33791,16.35455,65.04114,-22.2061,-119.2298,0.001067912,-0.1257102,0.09433498,0,0.3,0,0,0,0
638225082852639949,-38.14358,33.94515,73.35711,-154.9073,-21.33894,60.36023,52.93923,40.30402,-8.70853,-46.13824,-44.48441,13.26359,0,0,0,-147.2361,59.62031,19.13335,65.04114,-22.2061,-119.2298,0.001067912,-0.1257102,0.09433498,0,0.3,0,0,0,0
638225082852969848,-35.45774,35.88554,75.29494,-154.9073,-18.84861,60.36023,52.93923,40.30402,-8.70853,-46.13824,-44.48441,13.26359,0,0,0,-137.4964,67.66546,24.71389,65.04114,-22.2061,-119.2298,0.001067912,-0.1257102,0.09433498,0,0.3,0,0,0,0
638225082853419705,-32.41851,37.47526,76.8592,-154.8341,-16.7245,60.36023,52.93923,40.30402,-8.70853,-46.13824,-44.48441,13.26359,0,0,0,-126.3516,74.16621,30.60619,65.04114,-22.2061,-119.2298,0.001067912,-0.1257102,0.09433498,0,0.3,0,0,0,0
638225082853759596,-28.57823,38.94809,78.30673,-154.9073,-14.89337,60.36023,52.93923,40.30402,-8.70853,-46.13824,-44.48441,13.26359,0,0,0,-112.075,80.14959,37.39605,65.04114,-22.2061,-119.2298,0.001067912,-0.1257102,0.09433498,0,0.3,0,0,0,0
638225082854109484,-24.07828,40.09362,79.31066,-154.9073,-13.79469,60.36023,52.93923,40.30402,-8.70853,-46.13824,-44.48441,13.26359,0,0,0,-95.07989,84.49826,44.4201,65.04114,-22.2061,-119.2298,0.001067912,-0.1257102,0.09433498,0,0.3,0,0,0,0
638225082854449373,-21.2982,40.63132,79.68422,-154.9073,-13.57495,60.36023,52.93923,40.30402,-8.70853,-46.13824,-44.48441,13.26359,0,0,0,-84.4113,86.30666,48.17385,65.04114,-22.2061,-119.2298,0.001067912,-0.1257102,0.09433498,0,0.3,0,0,0,0
638225082854789263,-15.76161,41.68334,79.98773,-154.9073,-13.94118,60.36023,52.93923,40.30402,-8.70853,-46.13824,-44.48441,13.26359,0,0,0,-62.72313,88.84541,53.87701,65.04114,-22.2061,-119.2298,0.001067912,-0.1257102,0.09433498,0,0.3,0,0,0,0
638225082855129158,-9.965863,43.27305,79.94104,-154.9073,-14.96661,60.36023,52.93923,40.30402,-8.70853,-46.13824,-44.48441,13.26359,0,0,0,-39.52579,91.46711,56.59552,65.04114,-22.2061,-119.2298,0.001067912,-0.1257102,0.09433498,0,0.3,0,0,0,0
638225082855469046,-7.067988,44.06791,79.94104,-154.9073,-15.62582,60.36023,52.93923,40.30402,-8.70853,-46.13824,-44.48441,13.26359,0,0,0,-27.94574,92.80521,57.03843,65.04114,-22.2061,-119.2298,0.001067912,-0.1257102,0.09433498,0,0.3,0,0,0,0
638225082855818935,-1.248678,45.40047,79.96439,-154.9073,-17.09072,60.36023,52.93923,40.30402,-8.70853,-46.13824,-44.48441,13.26359,0,0,0,-4.901874,95.06183,56.53761,65.04114,-22.2061,-119.2298,0.001067912,-0.1257102,0.09433498,0,0.3,0,0,0,0
638225082856158829,4.170113,46.3356,80.03443,-154.9073,-17.96966,60.36023,52.93923,40.30402,-8.70853,-46.13824,-44.48441,13.26359,0,0,0,16.24572,96.73782,54.46579,65.04114,-22.2061,-119.2298,0.001067912,-0.1257102,0.09433498,0,0.3,0,0,0,0
638225082856498720,9.706704,46.77979,80.03443,-154.9073,-17.89642,60.36023,52.93923,40.30402,-8.70853,-46.13824,-44.48441,13.26359,0,0,0,37.54096,97.44868,51.11905,65.04114,-22.2061,-119.2298,0.001067912,-0.1257102,0.09433498,0,0.3,0,0,0,0
638225082856838609,12.4161,46.82654,80.01108,-154.9073,-17.5302,60.36023,52.93923,40.30402,-8.70853,-46.13824,-44.48441,13.26359,0,0,0,47.85427,97.46965,49.01247,65.04114,-22.2061,-119.2298,0.001067912,-0.1257102,0.09433498,0,0.3,0,0,0,0
638225082857168513,18.16473,46.80317,79.61417,-154.9073,-16.50476,60.36023,52.93923,40.30402,-8.70853,-46.13824,-44.48441,13.26359,0,0,0,69.34699,96.52323,43.0085,65.04114,-22.2061,-119.2298,0.001067912,-0.1257102,0.09433498,0,0.3,0,0,0,0
638225082857518395,24.33744,46.61614,78.86706,-154.9073,-15.1131,60.36023,52.93923,40.30402,-8.70853,-46.13824,-44.48441,13.26359,0,0,0,91.66824,94.51651,34.31943,65.04114,-22.2061,-119.2298,0.001067912,-0.1257102,0.09433498,0,0.3,0,0,0,0
638225082857928260,29.23791,46.31222,78.68028,-154.9073,-13.72145,60.36023,52.93923,40.30402,-8.70853,-46.13824,-44.48441,13.26359,0,0,0,108.8553,93.60291,26.12142,65.04114,-22.2061,-119.2298,0.001067912,-0.1257102,0.09433498,0,0.3,0,0,0,0
638225082858258157,30.69863,46.05506,78.68028,-154.9073,-13.06224,60.36023,52.93923,40.30402,-8.70853,-46.13824,-44.48441,13.26359,0,0,0,113.9978,93.18852,23.65467,65.04114,-22.2061,-119.2298,0.001067912,-0.1257102,0.09433498,0,0.3,0,0,0,0
638225082858598050,33.64362,45.2602,78.70364,-154.9073,-10.49866,60.36023,52.93923,40.30402,-8.70853,-46.13824,-44.48441,13.26359,0,0,0,124.4508,91.94881,18.6545,65.04114,-22.2061,-119.2298,0.001067912,-0.1257102,0.09433498,0,0.3,0,0,0,0
638225082858947935,35.99962,44.74588,78.70364,-154.9073,-7.568851,60.36023,52.93923,40.30402,-8.70853,-46.13824,-44.48441,13.26359,0,0,0,132.5306,91.10242,14.06527,65.04114,-22.2061,-119.2298,0.001067912,-0.1257102,0.09433498,0,0.3,0,0,0,0
638225082859297821,38.21426,44.39521,78.68028,-154.9073,-4.639044,60.36023,52.93923,40.30402,-8.70853,-46.13824,-44.48441,13.26359,0,0,0,139.8284,90.46773,9.249284,65.04114,-22.2061,-119.2298,0.001067912,-0.1257102,0.09433498,0,0.3,0,0,0,0
638225082859627718,39.32158,44.25494,78.63359,-154.9073,-3.540367,60.36023,52.93923,40.30402,-8.70853,-46.13824,-44.48441,13.26359,0,0,0,143.3654,90.12762,6.673842,65.04114,-22.2061,-119.2298,0.001067912,-0.1257102,0.09433498,0,0.3,0,0,0,0
638225082859967607,41.44197,44.18481,78.18999,-154.9073,-2.075463,60.36023,52.93923,40.30402,-8.70853,-46.13824,-44.48441,13.26359,0,0,0,149.6812,88.99926,1.17943,65.04114,-22.2061,-119.2298,0.001067912,-0.1257102,0.09433498,0,0.3,0,0,0,0
638225082860307503,43.68017,44.18481,77.2561,-154.9073,-1.782483,60.36023,52.93923,40.30402,-8.70853,-46.13824,-44.48441,13.26359,0,0,0,155.8686,86.87546,-5.129788,65.04114,-22.2061,-119.2298,0.001067912,-0.1257102,0.09433498,0,0.3,0,0,0,0
638225082860657386,44.85817,44.18481,76.55569,-154.9073,-2.148709,60.36023,52.93923,40.30402,-8.70853,-46.13824,-44.48441,13.26359,0,0,0,158.9307,85.2877,-8.630495,65.04114,-22.2061,-119.2298,0.001067912,-0.1257102,0.09433498,0,0.3,0,0,0,0
638225082860987283,47.44976,43.9744,75.24824,-154.9806,-4.272818,60.36023,52.93923,40.30402,-8.70853,-46.13824,-44.48441,13.26359,0,0,0,165.695,81.98469,-16.25099,65.04114,-22.2061,-119.2298,0.001067912,-0.1257102,0.09433498,0,0.3,0,0,0,0
638225082861327178,48.81624,43.64711,74.92138,-154.9073,-6.030703,60.36023,52.93923,40.30402,-8.70853,-46.13824,-44.48441,13.26359,0,0,0,169.5246,80.69988,-20.02732,65.04114,-22.2061,-119.2298,0.001067912,-0.1257102,0.09433498,0,0.3,0,0,0,0
638225082861657068,49.68796,43.48346,74.75794,-154.9806,-7.27587,60.28699,52.93923,40.30402,-8.70853,-46.13824,-44.48441,13.26359,0,0,0,171.8858,80.05678,-22.51813,65.04114,-22.2061,-119.2298,0.001067912,-0.1257102,0.09433498,0,0.3,0,0,0,0
638225082861996962,51.21936,43.27305,74.6879,-154.9806,-9.619716,60.36023,52.93923,40.30402,-8.70853,-46.13824,-44.48441,13.26359,0,0,0,175.9504,79.54359,-26.98006,65.04114,-22.2061,-119.2298,0.001067912,-0.1257102,0.09433498,0,0.3,0,0,0,0
638225082862336854,52.46804,43.2263,74.6879,-154.9073,-11.45084,60.36023,52.93923,40.30402,-8.70853,-46.13824,-44.48441,13.26359,0,0,0,179.0485,79.46433,-30.80249,65.04114,-22.2061,-119.2298,0.001067912,-0.1257102,0.09433498,0,0.3,0,0,0,0
638225082862676744,53.55179,43.2263,74.6879,-154.9073,-12.8425,60.36023,52.93923,40.30402,-8.70853,-46.13824,-44.48441,13.26359,0,0,0,181.618,79.46433,-34.21362,65.04114,-22.2061,-119.2298,0.001067912,-0.1257102,0.09433498,0,0.3,0,0,0,0
638225082863016635,54.04655,43.2263,74.6879,-154.9073,-13.20873,60.36023,52.93923,40.30402,-8.70853,-46.13824,-44.48441,13.26359,0,0,0,182.7695,79.46433,-35.78691,65.04114,-22.2061,-119.2298,0.001067912,-0.1257102,0.09433498,0,0.3,0,0,0,0
638225082863366522,54.35283,43.27305,74.89803,-154.9806,-13.42846,60.36023,52.93923,40.30402,-8.70853,-46.13824,-44.48441,13.26359,0,0,0,183.5192,80.01552,-36.7345,65.04114,-22.2061,-119.2298,0.001067912,-0.1257102,0.09433498,0,0.3,0,0,0,0
638225082863706421,54.35283,43.60035,75.48171,-154.9806,-12.8425,60.43347,52.93923,40.30402,-8.70853,-46.13824,-44.48441,13.26359,0,0,0,183.3758,81.88197,-36.83736,65.04114,-22.2061,-119.2298,0.001067912,-0.1257102,0.09433498,0,0.3,0,0,0,0
638225082864046308,54.35283,44.02116,75.80857,-154.9806,-12.03681,60.36023,52.93923,40.30402,-8.70853,-46.13824,-44.48441,13.26359,0,0,0,182.9781,83.32571,-37.12258,65.04114,-22.2061,-119.2298,0.001067912,-0.1257102,0.09433498,0,0.3,0,0,0,0
638225082864386198,54.35283,44.48872,75.92531,-154.9806,-11.08462,60.36023,52.93923,40.30402,-8.70853,-46.13824,-44.48441,13.26359,0,0,0,182.4149,84.36859,-37.52649,65.04114,-22.2061,-119.2298,0.001067912,-0.1257102,0.09433498,0,0.3,0,0,0,0
638225082864716091,54.32927,44.95628,75.99535,-154.9806,-9.912696,60.36023,52.93923,40.30402,-8.70853,-46.13824,-44.48441,13.26359,0,0,0,181.7711,85.29993,-37.87496,65.04114,-22.2061,-119.2298,0.001067912,-0.1257102,0.09433498,0,0.3,0,0,0,0
638225082865055986,54.30571,45.14331,76.08874,-154.9806,-9.25349,61.23917,52.93923,40.30402,-8.70853,-46.13824,-44.48441,13.26359,0,0,0,181.5098,85.81839,-37.94938,65.04114,-22.2061,-119.2298,0.001067912,-0.1257102,0.09433498,0,0.3,0,0,0,0
638225082865495843,53.95231,45.23682,76.3689,-154.9073,-9.692961,71.56674,52.93923,40.30402,-8.70853,-46.13824,-44.48441,13.26359,0,0,0,180.7027,86.60509,-36.83183,65.04114,-22.2061,-119.2298,0.001067912,-0.1257102,0.09433498,0,0.3,0,0,0,0
638225082865835735,53.71671,45.23682,76.57903,-154.9073,-10.13243,74.78953,52.93923,40.30402,-8.70853,-46.13824,-44.48441,13.26359,0,0,0,180.2526,87.08057,-36.02221,65.04114,-22.2061,-119.2298,0.001067912,-0.1257102,0.09433498,0,0.3,0,0,0,0
638225082866165627,53.26907,45.65763,77.39619,-154.9073,-11.23111,78.59828,52.93923,40.30402,-8.70853,-46.13824,-44.48441,13.26359,0,0,0,178.9971,89.62067,-34.77929,65.04114,-22.2061,-119.2298,0.001067912,-0.1257102,0.09433498,0,0.3,0,0,0,0
638225082866505522,52.82143,46.73303,78.63359,-154.9073,-12.32979,80.20967,52.93923,40.30402,-8.70853,-46.13824,-44.48441,13.26359,0,0,0,176.9854,94.17023,-34.11507,65.04114,-22.2061,-119.2298,0.001067912,-0.1257102,0.09433498,0,0.3,0,0,0,0
638225082866845414,52.56227,47.29411,79.28732,-154.9806,-12.69601,80.5759,52.93923,40.30402,-8.70853,-46.13824,-44.48441,13.26359,0,0,0,175.8493,96.5539,-33.7195,65.04114,-22.2061,-119.2298,0.001067912,-0.1257102,0.09433498,0,0.3,0,0,0,0
638225082867195302,51.83192,48.6968,80.80489,-154.9806,-12.8425,81.08862,52.93923,40.30402,-8.70853,-46.13824,-44.48441,13.26359,0,0,0,172.6917,102.2172,-32.61075,65.04114,-22.2061,-119.2298,0.001067912,-0.1257102,0.09433498,0,0.3,0,0,0,0
638225082867535189,50.77172,50.80084,82.43919,-154.4678,-12.40303,81.30835,52.93923,40.30402,-8.70853,-46.13824,-44.48441,13.26359,0,0,0,167.6848,109.1441,-31.45168,65.04114,-22.2061,-119.2298,0.001067912,-0.1257102,0.09433498,0,0.3,0,0,0,0
638225082867875082,49.99424,52.03988,83.30305,-153.1494,-11.89032,81.3816,52.93923,40.30402,-8.70853,-46.13824,-44.48441,13.26359,0,0,0,164.2762,112.9373,-30.47775,65.04114,-22.2061,-119.2298,0.001067912,-0.1257102,0.09433498,0,0.3,0,0,0,0
638225082868214972,47.82672,54.47121,85.28756,-151.1718,-9.985942,81.3816,52.93923,40.30402,-8.70853,-46.13824,-44.48441,13.26359,0,0,0,155.9241,120.918,-27.09908,65.04114,-22.2061,-119.2298,0.001067912,-0.1257102,0.09433498,0,0.3,0,0,0,0
638225082868544867,45.09377,56.62201,87.45886,-148.535,-7.12938,81.45483,52.93923,40.30402,-8.70853,-46.13824,-44.48441,13.26359,0,0,0,146.3149,128.7928,-22.51322,65.04114,-22.2061,-119.2298,0.001067912,-0.1257102,0.09433498,0,0.3,0,0,0,0
638225082868894758,42.80845,58.21173,89.16321,-146.1911,-4.712289,81.45483,52.93923,40.30402,-8.70853,-46.13824,-44.48441,13.26359,0,0,0,138.3441,134.7501,-18.99611,65.04114,-22.2061,-119.2298,0.001067912,-0.1257102,0.09433498,0,0.3,0,0,0,0
638225082869244671,41.55977,59.05334,90.02706,-145.0192,-3.760103,81.45483,52.93923,40.30402,-8.70853,-46.13824,-44.48441,13.26359,0,0,0,133.9565,137.7801,-17.25763,65.04114,-22.2061,-119.2298,0.001067912,-0.1257102,0.09433498,0,0.3,0,0,0,0
638225082869574539,38.94461,60.45603,91.47459,-142.6021,-2.221954,81.45483,52.93923,40.30402,-8.70853,-46.13824,-44.48441,13.26359,0,0,0,125.1226,142.7931,-13.53064,65.04114,-22.2061,-119.2298,0.001067912,-0.1257102,0.09433498,0,0.3,0,0,0,0
638225082870024398,36.4237,61.41454,92.71199,-139.5991,-1.343012,81.45483,52.93923,40.30402,-8.70853,-46.13824,-44.48441,13.26359,0,0,0,116.9718,146.7547,-9.830675,65.04114,-22.2061,-119.2298,0.001067912,-0.1257102,0.09433498,0,0.3,0,0,0,0
638225082870354289,34.0677,62.16264,93.92605,-137.4017,-0.61056,81.52808,52.93923,40.30402,-8.70853,-46.13824,-44.48441,13.26359,0,0,0,109.4053,150.3986,-6.562642,65.04114,-22.2061,-119.2298,0.001067912,-0.1257102,0.09433498,0,0.3,0,0,0,0
638225082870694178,32.06511,62.53669,94.74321,-135.0579,0.3416272,81.52808,52.93923,40.30402,-8.70853,-46.13824,-44.48441,13.26359,0,0,0,103.1992,152.699,-3.613623,65.04114,-22.2061,-119.2298,0.001067912,-0.1257102,0.09433498,0,0.3,0,0,0,0
638225082871024074,31.16983,62.67696,94.97668,-133.3,0.7810982,81.52808,52.93923,40.30402,-8.70853,-46.13824,-44.48441,13.26359,0,0,0,100.4387,153.3907,-2.308655,65.04114,-22.2061,-119.2298,0.001067912,-0.1257102,0.09433498,0,0.3,0,0,0,0
638225082871363965,29.73267,62.93412,95.28019,-129.418,1.51355,81.45483,52.93923,40.30402,-8.70853,-46.13824,-44.48441,13.26359,0,0,0,95.94741,154.3678,-0.3589319,65.04114,-22.2061,-119.2298,0.001067912,-0.1257102,0.09433498,0,0.3,0,0,0,0
638225082871713854,28.48399,63.14453,95.51366,-125.9755,1.879776,81.45483,52.93923,40.30402,-8.70853,-46.13824,-44.48441,13.26359,0,0,0,92.03127,155.1307,1.263485,65.04114,-22.2061,-119.2298,0.001067912,-0.1257102,0.09433498,0,0.3,0,0,0,0
638225082872053746,28.01279,63.26142,95.60706,-124.6571,2.099511,81.52808,52.93923,40.30402,-8.70853,-46.13824,-44.48441,13.26359,0,0,0,90.50932,155.4697,1.781625,65.04114,-22.2061,-119.2298,0.001067912,-0.1257102,0.09433498,0,0.3,0,0,0,0
638225082872393639,27.58871,63.30818,95.72379,-123.1189,2.246002,81.45483,52.93923,40.30402,-8.70853,-46.13824,-44.48441,13.26359,0,0,0,89.19018,155.789,2.336948,65.04114,-22.2061,-119.2298,0.001067912,-0.1257102,0.09433498,0,0.3,0,0,0,0
638225082872733532,27.37668,63.30818,95.81718,-121.947,2.392492,81.52808,52.93923,40.30402,-8.70853,-46.13824,-44.48441,13.26359,0,0,0,88.54784,156.0052,2.646446,65.04114,-22.2061,-119.2298,0.001067912,-0.1257102,0.09433498,0,0.3,0,0,0,0
638225082873083417,27.35312,63.2848,95.84052,-120.5553,2.465737,81.52808,52.93923,40.30402,-8.70853,-46.13824,-44.48441,13.26359,0,0,0,88.49731,156.0349,2.721113,65.04114,-22.2061,-119.2298,0.001067912,-0.1257102,0.09433498,0,0.3,0,0,0,0
638225082873423306,27.44736,63.23804,95.84052,-120.0426,2.538982,81.52808,52.93923,40.30402,-8.70853,-46.13824,-44.48441,13.26359,0,0,0,88.82337,155.9859,2.661567,65.04114,-22.2061,-119.2298,0.001067912,-0.1257102,0.09433498,0,0.3,0,0,0,0
638225082873763197,27.73007,63.14453,95.84052,-119.2369,2.392492,81.52808,52.93923,40.30402,-8.70853,-46.13824,-44.48441,13.26359,0,0,0,89.75651,155.8877,2.393137,65.04114,-22.2061,-119.2298,0.001067912,-0.1257102,0.09433498,0,0.3,0,0,0,0
638225082874103090,28.15415,63.07439,95.86387,-118.9439,2.319247,81.52808,52.93923,40.30402,-8.70853,-46.13824,-44.48441,13.26359,0,0,0,91.08389,155.868,1.847597,65.04114,-22.2061,-119.2298,0.001067912,-0.1257102,0.09433498,0,0.3,0,0,0,0
638225082874542950,29.07299,63.07439,96.02731,-119.0172,2.392492,81.45483,52.93923,40.30402,-8.70853,-46.13824,-44.48441,13.26359,0,0,0,93.78233,156.2463,0.3306493,65.04114,-22.2061,-119.2298,0.001067912,-0.1257102,0.09433498,0,0.3,0,0,0,0
638225082874872843,29.40283,63.07439,96.1207,-119.3102,2.392492,81.45483,52.93923,40.30402,-8.70853,-46.13824,-44.48441,13.26359,0,0,0,94.74053,156.4624,-0.2320637,65.04114,-22.2061,-119.2298,0.001067912,-0.1257102,0.09433498,0,0.3,0,0,0,0
638225082875212735,30.69863,63.2848,96.4709,-121.1413,2.319247,81.3816,52.93923,40.30402,-8.70853,-46.13824,-44.48441,13.26359,0,0,0,98.24939,157.4935,-2.870149,65.04114,-22.2061,-119.2298,0.001067912,-0.1257102,0.09433498,0,0.3,0,0,0,0
638225082875542633,32.39495,63.68222,96.84446,-125.0233,1.953021,80.72239,52.93923,40.30402,-8.70853,-46.13824,-44.48441,13.26359,0,0,0,102.6074,158.77,-6.635023,65.04114,-22.2061,-119.2298,0.001067912,-0.1257102,0.09433498,0,0.3,0,0,0,0
638225082875892525,34.4211,63.89263,97.03124,-133.0803,1.51355,80.28292,52.93923,40.30402,-8.70853,-46.13824,-44.48441,13.26359,0,0,0,107.9828,159.4179,-10.76961,65.04114,-22.2061,-119.2298,0.001067912,-0.1257102,0.09433498,0,0.3,0,0,0,0
638225082876232412,35.52842,63.86925,97.05459,-139.6723,1.367059,80.13642,52.93923,40.30402,-8.70853,-46.13824,-44.48441,13.26359,0,0,0,111.0324,159.4478,-12.85149,65.04114,-22.2061,-119.2298,0.001067912,-0.1257102,0.09433498,0,0.3,0,0,0,0
638225082876572303,37.15406,63.2848,96.61098,-152.9297,1.147324,80.06318,52.93923,40.30402,-8.70853,-46.13824,-44.48441,13.26359,0,0,0,116.209,157.8174,-14.99516,65.04114,-22.2061,-119.2298,0.001067912,-0.1257102,0.09433498,0,0.3,0,0,0,0
638225082876912194,38.80325,61.46129,96.4709,-154.6143,0.5613627,75.88821,52.93923,40.30402,-8.70853,-46.13824,-44.48441,13.26359,0,0,0,122.9538,155.5256,-15.44408,65.04114,-22.2061,-119.2298,0.001067912,-0.1257102,0.09433498,0,0.3,0,0,0,0
638225082877252086,39.55717,60.15212,96.44756,-154.9806,0.268382,71.42025,52.93923,40.30402,-8.70853,-46.13824,-44.48441,13.26359,0,0,0,126.653,153.9855,-15.01968,65.04114,-22.2061,-119.2298,0.001067912,-0.1257102,0.09433498,0,0.3,0,0,0,0
638225082877591975,40.82941,55.89729,96.07401,-155.1271,-0.61056,54.13439,52.93923,40.30402,-8.70853,-46.13824,-44.48441,13.26359,0,0,0,135.579,147.8784,-11.44316,65.04114,-22.2061,-119.2298,0.001067912,-0.1257102,0.09433498,0,0.3,0,0,0,0
638225082877931868,40.90009,53.18541,96.09735,-155.1271,-0.6838052,44.39278,52.93923,40.30402,-8.70853,-46.13824,-44.48441,13.26359,0,0,0,139.1344,144.2714,-7.729395,65.04114,-22.2061,-119.2298,0.001067912,-0.1257102,0.09433498,0,0.3,0,0,0,0
638225082878281757,40.19329,51.47881,96.93785,-155.2003,0.1951368,36.92178,52.93923,40.30402,-8.70853,-46.13824,-44.48441,13.26359,0,0,0,139.0282,143.7878,-3.79334,65.04114,-22.2061,-119.2298,0.001067912,-0.1257102,0.09433498,0,0.3,0,0,0,0
638225082878621644,39.51006,51.66583,97.755,-155.2003,0.8543434,34.57793,52.93923,40.30402,-8.70853,-46.13824,-44.48441,13.26359,0,0,0,136.6843,145.9445,-2.597904,65.04114,-22.2061,-119.2298,0.001067912,-0.1257102,0.09433498,0,0.3,0,0,0,0
638225082879051507,37.81374,53.41919,99.17918,-155.2003,2.538982,31.79461,52.93923,40.30402,-8.70853,-46.13824,-44.48441,13.26359,0,0,0,129.4327,151.7047,-1.568972,65.04114,-22.2061,-119.2298,0.001067912,-0.1257102,0.09433498,0,0.3,0,0,0,0
638225082879391400,36.04674,55.1258,99.50605,-155.2003,4.516602,30.25646,52.93923,40.30402,-8.70853,-46.13824,-44.48441,13.26359,0,0,0,122.2584,154.7746,-0.3640584,65.04114,-22.2061,-119.2298,0.001067912,-0.1257102,0.09433498,0,0.3,0,0,0,0
638225082879721298,35.5991,54.61148,99.15584,-155.2003,7.080183,28.49858,52.93923,40.30402,-8.70853,-46.13824,-44.48441,13.26359,0,0,0,121.5891,153.2815,1.489447,65.04114,-22.2061,-119.2298,0.001067912,-0.1257102,0.09433498,0,0.3,0,0,0,0
638225082880061186,35.62266,53.84,98.54881,-155.2003,8.545086,23.6644,52.93923,40.30402,-8.70853,-46.13824,-44.48441,13.26359,0,0,0,122.634,150.8358,2.800319,65.04114,-22.2061,-119.2298,0.001067912,-0.1257102,0.09433498,0,0.3,0,0,0,0
638225082880401077,35.29282,51.17488,97.45148,-155.2003,10.74244,6.598277,52.93923,40.30402,-8.70853,-46.13824,-44.48441,13.26359,0,0,0,124.6952,144.5318,7.810172,65.04114,-22.2061,-119.2298,0.001067912,-0.1257102,0.09433498,0,0.3,0,0,0,0
638225082880740968,34.39754,49.39814,98.03517,-155.2003,12.35384,-6.073137,52.93923,40.30402,-8.70853,-46.13824,-44.48441,13.26359,0,0,0,123.6211,143.2358,12.21064,65.04114,-22.2061,-119.2298,0.001067912,-0.1257102,0.09433498,0,0.3,0,0,0,0
638225082881090854,32.91327,50.96449,99.55274,-155.2003,12.42708,-12.44547,52.93923,40.30402,-8.70853,-46.13824,-44.48441,13.26359,0,0,0,117.0878,149.0605,12.54836,65.04114,-22.2061,-119.2298,0.001067912,-0.1257102,0.09433498,0,0.3,0,0,0,0
638225082881430752,31.75883,52.50745,99.97299,-155.2003,11.84112,-14.34984,52.93923,40.30402,-8.70853,-46.13824,-44.48441,13.26359,0,0,0,111.8481,152.2483,12.33228,65.04114,-22.2061,-119.2298,0.001067912,-0.1257102,0.09433498,0,0.3,0,0,0,0
638225082881770642,29.77979,54.44784,98.71223,-154.8341,9.424027,-16.69369,52.93923,40.30402,-8.70853,-46.13824,-44.48441,13.26359,0,0,0,103.9759,152.0405,13.35069,65.04114,-22.2061,-119.2298,0.001067912,-0.1257102,0.09433498,0,0.3,0,0,0,0
638225082882110532,29.16723,51.87623,98.36203,-155.0538,7.080183,-27.24099,52.93923,40.30402,-8.70853,-46.13824,-44.48441,13.26359,0,0,0,104.4207,147.6464,18.73994,65.04114,-22.2061,-119.2298,0.001067912,-0.1257102,0.09433498,0,0.3,0,0,0,0
638225082882450423,28.41331,50.07611,98.5955,-155.0538,6.420976,-35.44445,52.93923,40.30402,-8.70853,-46.13824,-44.48441,13.26359,0,0,0,103.4604,145.546,22.88988,65.04114,-22.2061,-119.2298,0.001067912,-0.1257102,0.09433498,0,0.3,0,0,0,0
638225082882795357,27.07039,49.72544,99.76286,-155.2003,6.127995,-45.18605,52.93923,40.30402,-8.70853,-46.13824,-44.48441,13.26359,0,0,0,99.03697,147.7024,25.43205,65.04114,-22.2061,-119.2298,0.001067912,-0.1257102,0.09433498,0,0.3,0,0,0,0
638225082883135249,24.64372,53.16203,100.7201,-154.5411,5.542034,-49.43428,52.93923,40.30402,-8.70853,-46.13824,-44.48441,13.26359,0,0,0,87.97046,154.8792,23.40743,65.04114,-22.2061,-119.2298,0.001067912,-0.1257102,0.09433498,0,0.3,0,0,0,0
638225082883575106,22.05212,54.98553,99.17918,-151.5381,4.296866,-53.38951,52.93923,40.30402,-8.70853,-46.13824,-44.48441,13.26359,0,0,0,78.15228,153.8369,24.57819,65.04114,-22.2061,-119.2298,0.001067912,-0.1257102,0.09433498,0,0.3,0,0,0,0
638225082883904998,22.14636,52.81136,98.26865,-153.7354,3.124943,-69.86968,52.93923,40.30402,-8.70853,-46.13824,-44.48441,13.26359,0,0,0,80.13184,148.7609,28.53372,65.04114,-22.2061,-119.2298,0.001067912,-0.1257102,0.09433498,0,0.3,0,0,0,0
638225082884244895,21.93432,51.29178,98.24529,-154.8341,2.172756,-80.19725,52.93923,40.30402,-8.70853,-46.13824,-44.48441,13.26359,0,0,0,80.44732,146.5323,31.4231,65.04114,-22.2061,-119.2298,0.001067912,-0.1257102,0.09433498,0,0.3,0,0,0,0
638225082884584783,20.59141,51.17488,99.29593,-155.1271,0.707853,-88.76694,52.93923,40.30402,-8.70853,-46.13824,-44.48441,13.26359,0,0,0,75.68678,148.7786,33.10315,65.04114,-22.2061,-119.2298,0.001067912,-0.1257102,0.09433498,0,0.3,0,0,0,0
638225082884924676,17.45793,54.54135,99.83291,-152.6367,-0.5373149,-91.11078,52.93923,40.30402,-8.70853,-46.13824,-44.48441,13.26359,0,0,0,62.62598,154.7411,30.78393,65.04114,-22.2061,-119.2298,0.001067912,-0.1257102,0.09433498,0,0.3,0,0,0,0
638225082885264568,15.87941,55.28945,99.55274,-151.0253,-0.8302955,-91.76999,52.93923,40.30402,-8.70853,-46.13824,-44.48441,13.26359,0,0,0,56.7569,155.0991,31.16871,65.04114,-22.2061,-119.2298,0.001067912,-0.1257102,0.09433498,0,0.3,0,0,0,0
638225082885614458,16.39773,53.60622,98.12856,-153.7354,-0.6838052,-133.593,52.93923,40.30402,-8.70853,-46.13824,-44.48441,13.26359,0,0,0,59.60303,149.5462,34.19331,65.04114,-22.2061,-119.2298,0.001067912,-0.1257102,0.09433498,0,0.3,0,0,0,0
638225082885954350,16.18569,51.22165,97.26471,-155.4933,-1.050031,-141.9429,52.93923,40.30402,-8.70853,-46.13824,-44.48441,13.26359,0,0,0,60.15395,144.1689,38.89438,65.04114,-22.2061,-119.2298,0.001067912,-0.1257102,0.09433498,0,0.3,0,0,0,0
638225082886294239,14.34802,52.48407,98.92237,-155.42,-0.9767859,-142.0894,52.93923,40.30402,-8.70853,-46.13824,-44.48441,13.26359,0,0,0,52.7699,149.8031,37.95207,65.04114,-22.2061,-119.2298,0.001067912,-0.1257102,0.09433498,0,0.3,0,0,0,0
638225082886644122,11.33234,54.49459,98.43207,-151.9043,-0.61056,-142.1627,52.93923,40.30402,-8.70853,-46.13824,-44.48441,13.26359,0,0,0,41.13828,151.459,36.92391,65.04114,-22.2061,-119.2298,0.001067912,-0.1257102,0.09433498,0,0.3,0,0,0,0
638225082886984016,10.69622,53.58284,97.755,-147.949,-0.3175794,-142.0162,52.93923,40.30402,-8.70853,-46.13824,-44.48441,13.26359,0,0,0,39.21673,148.6528,39.2737,65.04114,-22.2061,-119.2298,0.001067912,-0.1257102,0.09433498,0,0.3,0,0,0,0
638225082887333906,11.3559,49.25787,95.86387,-152.2705,-1.562747,-142.0894,52.93923,40.30402,-8.70853,-46.13824,-44.48441,13.26359,0,0,0,43.25637,138.007,47.03312,65.04114,-22.2061,-119.2298,0.001067912,-0.1257102,0.09433498,0,0.3,0,0,0,0
638225082887673799,11.04962,47.55127,96.07401,-155.0538,-2.88116,-141.9429,52.93923,40.30402,-8.70853,-46.13824,-44.48441,13.26359,0,0,0,42.66395,135.8566,50.12661,65.04114,-22.2061,-119.2298,0.001067912,-0.1257102,0.09433498,0,0.3,0,0,0,0
638225082888093661,6.14915,48.20586,97.61492,-153.3692,-7.495606,-140.771,52.93923,40.30402,-8.70853,-46.13824,-44.48441,13.26359,0,0,0,23.67778,140.4391,51.42414,65.04114,-22.2061,-119.2298,0.001067912,-0.1257102,0.09433498,0,0.3,0,0,0,0
638225082888433550,5.206751,47.97207,97.73165,-150.3661,-8.521038,-128.6123,52.93923,40.30402,-8.70853,-46.13824,-44.48441,13.26359,0,0,0,20.09336,140.3449,52.15096,65.04114,-22.2061,-119.2298,0.001067912,-0.1257102,0.09433498,0,0.3,0,0,0,0
638225082888763446,5.72507,45.0498,97.52153,-149.121,-11.3776,-130.5899,52.93923,40.30402,-8.70853,-46.13824,-44.48441,13.26359,0,0,0,22.58589,135.1799,56.93398,65.04114,-22.2061,-119.2298,0.001067912,-0.1257102,0.09433498,0,0.3,0,0,0,0
638225082889103341,5.348111,42.12752,96.4709,-154.8341,-15.40608,-141.9429,52.93923,40.30402,-8.70853,-46.13824,-44.48441,13.26359,0,0,0,21.56802,127.8273,62.04264,65.04114,-22.2061,-119.2298,0.001067912,-0.1257102,0.09433498,0,0.3,0,0,0,0
638225082889443232,4.735552,41.65996,95.93391,-155.3468,-17.38371,-142.1627,52.93923,40.30402,-8.70853,-46.13824,-44.48441,13.26359,0,0,0,19.1748,125.7748,63.1188,65.04114,-22.2061,-119.2298,0.001067912,-0.1257102,0.09433498,0,0.3,0,0,0,0
638225082889783120,2.450236,42.4782,96.1207,-155.2003,-18.77536,-142.3092,52.93923,40.30402,-8.70853,-46.13824,-44.48441,13.26359,0,0,0,9.873069,127.6207,62.37891,65.04114,-22.2061,-119.2298,0.001067912,-0.1257102,0.09433498,0,0.3,0,0,0,0
638225082890113014,0.9423984,42.64184,96.82111,-155.2003,-16.28502,-142.1627,52.93923,40.30402,-8.70853,-46.13824,-44.48441,13.26359,0,0,0,3.791062,129.521,62.11755,65.04114,-22.2061,-119.2298,0.001067912,-0.1257102,0.09433498,0,0.3,0,0,0,0
638225082890452907,1.177998,42.1509,96.58764,-153.5889,-14.89337,-142.1627,52.93923,40.30402,-8.70853,-46.13824,-44.48441,13.26359,0,0,0,4.75585,128.1375,62.93369,65.04114,-22.2061,-119.2298,0.001067912,-0.1257102,0.09433498,0,0.3,0,0,0,0
638225082890792802,1.672757,40.88848,95.56036,-150.5858,-15.25959,-142.1627,52.93923,40.30402,-8.70853,-46.13824,-44.48441,13.26359,0,0,0,6.81706,123.5603,65.08364,65.04114,-22.2061,-119.2298,0.001067912,-0.1257102,0.09433498,0,0.3,0,0,0,0
638225082891132688,0.9188384,41.12226,95.42028,-155.0538,-18.04291,-141.064,52.93923,40.30402,-8.70853,-46.13824,-44.48441,13.26359,0,0,0,3.739729,123.6463,64.82737,65.04114,-22.2061,-119.2298,0.001067912,-0.1257102,0.09433498,0,0.3,0,0,0,0
638225082891472583,-0.1177998,42.05739,95.39693,-155.2735,-18.77536,-139.0864,52.93923,40.30402,-8.70853,-46.13824,-44.48441,13.26359,0,0,0,-0.476513,125.22,63.41731,65.04114,-22.2061,-119.2298,0.001067912,-0.1257102,0.09433498,0,0.3,0,0,0,0
638225082891822469,-2.803635,43.31981,95.11676,-155.0538,-18.40914,-139.3793,52.93923,40.30402,-8.70853,-46.13824,-44.48441,13.26359,0,0,0,-11.24198,126.7303,61.21037,65.04114,-22.2061,-119.2298,0.001067912,-0.1257102,0.09433498,0,0.3,0,0,0,0
638225082892162364,-2.615156,42.87563,95.00002,-153.5157,-17.82317,-142.1627,52.93923,40.30402,-8.70853,-46.13824,-44.48441,13.26359,0,0,0,-10.52008,125.7048,61.97564,65.04114,-22.2061,-119.2298,0.001067912,-0.1257102,0.09433498,0,0.3,0,0,0,0
638225082892612220,-1.814117,41.65996,94.11283,-150.4394,-22.65736,-142.2359,52.93923,40.30402,-8.70853,-46.13824,-44.48441,13.26359,0,0,0,-7.364461,121.5528,64.16617,65.04114,-22.2061,-119.2298,0.001067912,-0.1257102,0.09433498,0,0.3,0,0,0,0
638225082892942113,-3.439754,42.50157,94.62646,-152.8564,-29.46916,-142.2359,52.93923,40.30402,-8.70853,-46.13824,-44.48441,13.26359,0,0,0,-13.8735,124.1986,62.46239,65.04114,-22.2061,-119.2298,0.001067912,-0.1257102,0.09433498,0,0.3,0,0,0,0
638225082893282002,-7.044428,43.17954,94.393,-142.6021,-33.35115,-142.2359,52.93923,40.30402,-8.70853,-46.13824,-44.48441,13.26359,0,0,0,-28.23134,124.8139,60.1111,65.04114,-22.2061,-119.2298,0.001067912,-0.1257102,0.09433498,0,0.3,0,0,0,0
638225082893621897,-8.151747,42.80549,94.41634,-138.5737,-33.93711,-141.9429,52.93923,40.30402,-8.70853,-46.13824,-44.48441,13.26359,0,0,0,-32.72469,124.2313,60.10637,65.04114,-22.2061,-119.2298,0.001067912,-0.1257102,0.09433498,0,0.3,0,0,0,0
638225082893971784,-9.023465,41.84698,93.34237,-129.8575,-36.50069,-141.8697,52.93923,40.30402,-8.70853,-46.13824,-44.48441,13.26359,0,0,0,-36.4587,120.0882,61.2326,65.04114,-22.2061,-119.2298,0.001067912,-0.1257102,0.09433498,0,0.3,0,0,0,0
638225082894311677,-9.188385,41.12226,91.61468,-120.3356,-42.79977,-137.1087,52.93923,40.30402,-8.70853,-46.13824,-44.48441,13.26359,0,0,0,-37.32556,114.8075,62.40133,65.04114,-22.2061,-119.2298,0.001067912,-0.1257102,0.09433498,0,0.3,0,0,0,0
638225082894641572,-9.824504,41.16902,91.59132,-116.5269,-46.82826,-131.4689,52.93923,40.30402,-8.70853,-46.13824,-44.48441,13.26359,0,0,0,-39.87313,114.8351,61.90366,65.04114,-22.2061,-119.2298,0.001067912,-0.1257102,0.09433498,0,0.3,0,0,0,0
638225082894981457,-12.7695,41.58982,91.00764,-112.4251,-54.66549,-122.7527,52.93923,40.30402,-8.70853,-46.13824,-44.48441,13.26359,0,0,0,-51.51398,114.2119,58.94964,65.04114,-22.2061,-119.2298,0.001067912,-0.1257102,0.09433498,0,0.3,0,0,0,0
638225082895331353,-15.03126,41.30928,88.15927,-106.126,-59.35318,-120.4088,52.93923,40.30402,-8.70853,-46.13824,-44.48441,13.26359,0,0,0,-60.54379,107.0941,57.11045,65.04114,-22.2061,-119.2298,0.001067912,-0.1257102,0.09433498,0,0.3,0,0,0,0
638225082895671238,-16.04433,41.05212,86.71175,-102.4638,-60.96458,-115.1352,52.93923,40.30402,-8.70853,-46.13824,-44.48441,13.26359,0,0,0,-64.58786,103.2781,56.23863,65.04114,-22.2061,-119.2298,0.001067912,-0.1257102,0.09433498,0,0.3,0,0,0,0
638225082896011133,-16.11501,41.00537,86.57166,-94.48006,-62.72246,-99.82695,52.93923,40.30402,-8.70853,-46.13824,-44.48441,13.26359,0,0,0,-64.87939,102.8706,56.20906,65.04114,-22.2061,-119.2298,0.001067912,-0.1257102,0.09433498,0,0.3,0,0,0,0
638225082896351024,-16.23281,41.05212,86.10472,-86.49634,-63.52816,-118.651,52.93923,40.30402,-8.70853,-46.13824,-44.48441,13.26359,0,0,0,-65.30157,101.8681,55.93997,65.04114,-22.2061,-119.2298,0.001067912,-0.1257102,0.09433498,0,0.3,0,0,0,0
638225082896690915,-17.34013,41.26253,85.451,-82.46785,-63.96763,-138.9399,52.93923,40.30402,-8.70853,-46.13824,-44.48441,13.26359,0,0,0,-69.49438,100.7195,54.22156,65.04114,-22.2061,-119.2298,0.001067912,-0.1257102,0.09433498,0,0.3,0,0,0,0
638225082897130773,-17.50505,40.74821,85.19418,-78.6591,-64.11412,-141.064,52.93923,40.30402,-8.70853,-46.13824,-44.48441,13.26359,0,0,0,-70.35632,99.2204,54.72315,65.04114,-22.2061,-119.2298,0.001067912,-0.1257102,0.09433498,0,0.3,0,0,0,0
638225082897480660,-17.24589,40.74821,84.70388,-74.19114,-63.96763,-142.0894,52.93923,40.30402,-8.70853,-46.13824,-44.48441,13.26359,0,0,0,-69.31681,98.08372,54.94316,65.04114,-22.2061,-119.2298,0.001067912,-0.1257102,0.09433498,0,0.3,0,0,0,0
638225082897820552,-16.70401,40.74821,84.47041,-72.87273,-63.6014,-142.1627,52.93923,40.30402,-8.70853,-46.13824,-44.48441,13.26359,0,0,0,-67.1872,97.54277,55.53963,65.04114,-22.2061,-119.2298,0.001067912,-0.1257102,0.09433498,0,0.3,0,0,0,0
638225082898160445,-16.51553,41.09888,84.49376,-73.53194,-62.79571,-142.1627,52.93923,40.30402,-8.70853,-46.13824,-44.48441,13.26359,0,0,0,-66.29984,98.21352,55.25188,65.04114,-22.2061,-119.2298,0.001067912,-0.1257102,0.09433498,0,0.3,0,0,0,0
638225082898500338,-17.26945,41.26253,84.05016,-73.67843,-62.35624,-142.1627,52.93923,40.30402,-8.70853,-46.13824,-44.48441,13.26359,0,0,0,-69.13121,97.47292,54.02228,65.04114,-22.2061,-119.2298,0.001067912,-0.1257102,0.09433498,0,0.3,0,0,0,0
638225082898835272,-17.31657,40.98199,83.98011,-72.5065,-62.28299,-142.2359,52.93923,40.30402,-8.70853,-46.13824,-44.48441,13.26359,0,0,0,-69.43682,96.81893,54.35907,65.04114,-22.2061,-119.2298,0.001067912,-0.1257102,0.09433498,0,0.3,0,0,0,0
638225082899175161,-17.22233,40.77158,83.62991,-69.13722,-61.40405,-142.2359,52.93923,40.30402,-8.70853,-46.13824,-44.48441,13.26359,0,0,0,-69.13926,95.63835,54.69507,65.04114,-22.2061,-119.2298,0.001067912,-0.1257102,0.09433498,0,0.3,0,0,0,0
638225082899505057,-15.99721,40.8651,82.8361,-68.69775,-60.23213,-142.2359,52.93923,40.30402,-8.70853,-46.13824,-44.48441,13.26359,0,0,0,-64.25539,93.96844,55.77631,65.04114,-22.2061,-119.2298,0.001067912,-0.1257102,0.09433498,0,0.3,0,0,0,0
638225082899854944,-15.50245,40.93523,82.76605,-70.38239,-59.79266,-142.2359,52.93923,40.30402,-8.70853,-46.13824,-44.48441,13.26359,0,0,0,-62.28362,93.93009,56.20013,65.04114,-22.2061,-119.2298,0.001067912,-0.1257102,0.09433498,0,0.3,0,0,0,0
638225082900194840,-15.95009,40.95861,82.48589,-74.9236,-58.84047,-142.2359,52.93923,40.30402,-8.70853,-46.13824,-44.48441,13.26359,0,0,0,-64.00327,93.32452,55.59192,65.04114,-22.2061,-119.2298,0.001067912,-0.1257102,0.09433498,0,0.3,0,0,0,0
638225082900534731,-16.77469,40.74821,82.08898,-77.63367,-57.52206,-142.2359,52.93923,40.30402,-8.70853,-46.13824,-44.48441,13.26359,0,0,0,-67.27616,92.03873,54.83563,65.04114,-22.2061,-119.2298,0.001067912,-0.1257102,0.09433498,0,0.3,0,0,0,0
638225082900874621,-16.77469,40.63132,82.11234,-77.63367,-56.42338,-142.2359,52.93923,40.30402,-8.70853,-46.13824,-44.48441,13.26359,0,0,0,-67.32951,91.88627,55.0126,65.04114,-22.2061,-119.2298,0.001067912,-0.1257102,0.09433498,0,0.3,0,0,0,0
638225082901214511,-16.23281,40.60794,81.43526,-74.04465,-54.66549,-142.2359,52.93923,40.30402,-8.70853,-46.13824,-44.48441,13.26359,0,0,0,-65.16093,90.28539,55.4569,65.04114,-22.2061,-119.2298,0.001067912,-0.1257102,0.09433498,0,0.3,0,0,0,0
638225082901654370,-14.91346,40.63132,80.68816,-72.72624,-54.66549,-142.2359,52.93923,40.30402,-8.70853,-46.13824,-44.48441,13.26359,0,0,0,-59.91183,88.60899,56.60262,65.04114,-22.2061,-119.2298,0.001067912,-0.1257102,0.09433498,0,0.3,0,0,0,0
638225082902004263,-15.36109,41.02874,80.6648,-74.04465,-55.98391,-142.2359,52.93923,40.30402,-8.70853,-46.13824,-44.48441,13.26359,0,0,0,-61.50496,89.25525,55.53603,65.04114,-22.2061,-119.2298,0.001067912,-0.1257102,0.09433498,0,0.3,0,0,0,0
638225082902344151,-17.41081,40.98199,80.61811,-76.90121,-56.27689,-142.2359,52.93923,40.30402,-8.70853,-46.13824,-44.48441,13.26359,0,0,0,-69.48934,89.0659,53.24422,65.04114,-22.2061,-119.2298,0.001067912,-0.1257102,0.09433498,0,0.3,0,0,0,0
638225082902684040,-17.57573,40.39754,80.24455,-75.36307,-53.93304,-142.1627,52.93923,40.30402,-8.70853,-46.13824,-44.48441,13.26359,0,0,0,-70.35104,87.17717,53.75094,65.04114,-22.2061,-119.2298,0.001067912,-0.1257102,0.09433498,0,0.3,0,0,0,0
638225082903023934,-16.75113,40.16375,80.12782,-73.3122,-53.12735,-142.1627,52.93923,40.30402,-8.70853,-46.13824,-44.48441,13.26359,0,0,0,-67.23544,86.49436,55.03291,65.04114,-22.2061,-119.2298,0.001067912,-0.1257102,0.09433498,0,0.3,0,0,0,0
638225082903363825,-14.48938,40.04686,79.89434,-70.96836,-55.3247,-142.2359,52.93923,40.30402,-8.70853,-46.13824,-44.48441,13.26359,0,0,0,-58.38755,85.75114,57.59074,65.04114,-22.2061,-119.2298,0.001067912,-0.1257102,0.09433498,0,0.3,0,0,0,0
638225082903713725,-15.50245,40.91186,80.12782,-67.3061,-60.08564,-142.2359,52.93923,40.30402,-8.70853,-46.13824,-44.48441,13.26359,0,0,0,-62.04909,87.81757,55.35457,65.04114,-22.2061,-119.2298,0.001067912,-0.1257102,0.09433498,0,0.3,0,0,0,0
638225082904053602,-17.74065,41.56644,79.87099,-67.67233,-60.59835,-141.9429,52.93923,40.30402,-8.70853,-46.13824,-44.48441,13.26359,0,0,0,-70.40066,88.37453,51.70526,65.04114,-22.2061,-119.2298,0.001067912,-0.1257102,0.09433498,0,0.3,0,0,0,0
638225082904393497,-21.1804,41.12226,79.17058,-72.28677,-56.64312,-135.3509,52.93923,40.30402,-8.70853,-46.13824,-44.48441,13.26359,0,0,0,-83.61653,85.99546,47.44516,65.04114,-22.2061,-119.2298,0.001067912,-0.1257102,0.09433498,0,0.3,0,0,0,0
638225082904733398,-21.91076,40.09362,78.33008,-72.79948,-49.17211,-141.7232,52.93923,40.30402,-8.70853,-46.13824,-44.48441,13.26359,0,0,0,-86.79951,82.25938,47.4534,65.04114,-22.2061,-119.2298,0.001067912,-0.1257102,0.09433498,0,0.3,0,0,0,0
638225082905073277,-20.92125,39.95335,77.93317,-71.48107,-46.60852,-142.0894,52.93923,40.30402,-8.70853,-46.13824,-44.48441,13.26359,0,0,0,-83.06687,81.10538,48.93885,65.04114,-22.2061,-119.2298,0.001067912,-0.1257102,0.09433498,0,0.3,0,0,0,0
638225082905403171,-18.14117,40.04686,78.28338,-65.76794,-48.95237,-142.1627,52.93923,40.30402,-8.70853,-46.13824,-44.48441,13.26359,0,0,0,-72.43881,82.06969,52.73872,65.04114,-22.2061,-119.2298,0.001067912,-0.1257102,0.09433498,0,0.3,0,0,0,0
638225082905743061,-18.96577,40.56118,78.75033,-54.70793,-56.86285,-142.2359,52.93923,40.30402,-8.70853,-46.13824,-44.48441,13.26359,0,0,0,-75.43177,84.04758,51.14568,65.04114,-22.2061,-119.2298,0.001067912,-0.1257102,0.09433498,0,0.3,0,0,0,0
638225082906182923,-24.03116,40.3274,75.83192,-49.72726,-55.61768,-137.5482,52.93923,40.30402,-8.70853,-46.13824,-44.48441,13.26359,0,0,0,-94.05231,77.00832,42.58614,65.04114,-22.2061,-119.2298,0.001067912,-0.1257102,0.09433498,0,0.3,0,0,0,0
638225082906512815,-25.91596,39.69619,72.68004,-47.96938,-49.46509,-133.2267,52.93923,40.30402,-8.70853,-46.13824,-44.48441,13.26359,0,0,0,-100.4821,68.82357,38.43811,65.04114,-22.2061,-119.2298,0.001067912,-0.1257102,0.09433498,0,0.3,0,0,0,0
638225082906852707,-26.62276,39.36889,70.22857,-46.50447,-44.70415,-133.0803,52.93923,40.30402,-8.70853,-46.13824,-44.48441,13.26359,0,0,0,-102.4295,62.82724,35.99414,65.04114,-22.2061,-119.2298,0.001067912,-0.1257102,0.09433498,0,0.3,0,0,0,0
638225082907192601,-26.74056,39.5793,63.97151,-42.10976,-33.93711,-136.4495,52.93923,40.30402,-8.70853,-46.13824,-44.48441,13.26359,0,0,0,-100.1608,49.79697,30.44697,65.04114,-22.2061,-119.2298,0.001067912,-0.1257102,0.09433498,0,0.3,0,0,0,0
638225082907532490,-26.64632,40.51442,60.93637,-37.71505,-24.92796,-139.8188,52.93923,40.30402,-8.70853,-46.13824,-44.48441,13.26359,0,0,0,-97.74076,45.20057,26.44034,65.04114,-22.2061,-119.2298,0.001067912,-0.1257102,0.09433498,0,0.3,0,0,0,0
638225082907872380,-28.08347,40.79496,61.14649,-36.90935,-21.41219,-139.9653,52.93923,40.30402,-8.70853,-46.13824,-44.48441,13.26359,0,0,0,-102.5067,46.1238,23.76128,65.04114,-22.2061,-119.2298,0.001067912,-0.1257102,0.09433498,0,0.3,0,0,0,0
638225082908212274,-30.20387,40.51442,58.62498,-36.32339,-16.79774,-139.8921,52.93923,40.30402,-8.70853,-46.13824,-44.48441,13.26359,0,0,0,-108.2774,40.55243,17.66022,65.04114,-22.2061,-119.2298,0.001067912,-0.1257102,0.09433498,0,0.3,0,0,0,0
638225082908552168,-30.58083,40.18713,56.52373,-33.32034,-12.98899,-139.7456,52.93923,40.30402,-8.70853,-46.13824,-44.48441,13.26359,0,0,0,-108.4157,35.84417,15.11099,65.04114,-22.2061,-119.2298,0.001067912,-0.1257102,0.09433498,0,0.3,0,0,0,0
638225082908892056,-28.46043,40.91186,52.508,-29.43835,-10.13243,-140.4048,52.93923,40.30402,-8.70853,-46.13824,-44.48441,13.26359,0,0,0,-98.44606,29.51698,13.26406,65.04114,-22.2061,-119.2298,0.001067912,-0.1257102,0.09433498,0,0.3,0,0,0,0
638225082909231948,-25.8924,41.16902,50.52348,-24.89715,-8.228058,-142.0162,52.93923,40.30402,-8.70853,-46.13824,-44.48441,13.26359,0,0,0,-88.78317,26.35312,14.55349,65.04114,-22.2061,-119.2298,0.001067912,-0.1257102,0.09433498,0,0.3,0,0,0,0
638225082909561845,-22.80604,41.05212,50.19662,-18.8178,-6.763155,-142.2359,52.93923,40.30402,-8.70853,-46.13824,-44.48441,13.26359,0,0,0,-78.6879,25.56232,18.78588,65.04114,-22.2061,-119.2298,0.001067912,-0.1257102,0.09433498,0,0.3,0,0,0,0
638225082909901729,-18.87153,40.8651,51.97101,-8.416983,-6.030703,-142.2359,52.93923,40.30402,-8.70853,-46.13824,-44.48441,13.26359,0,0,0,-66.59323,28.44666,26.46876,65.04114,-22.2061,-119.2298,0.001067912,-0.1257102,0.09433498,0,0.3,0,0,0,0
638225082910241625,-17.66997,40.74821,53.27846,-2.85035,-6.323683,-142.2359,52.93923,40.30402,-8.70853,-46.13824,-44.48441,13.26359,0,0,0,-63.10795,30.65885,29.75174,65.04114,-22.2061,-119.2298,0.001067912,-0.1257102,0.09433498,0,0.3,0,0,0,0
638225082910691479,-18.11761,40.35078,53.27846,9.894309,-7.27587,-142.3092,52.93923,40.30402,-8.70853,-46.13824,-44.48441,13.26359,0,0,0,-64.84072,29.95601,29.82417,65.04114,-22.2061,-119.2298,0.001067912,-0.1257102,0.09433498,0,0.3,0,0,0,0
638225082911021373,-19.41341,39.95335,53.11503,11.35921,-7.27587,-142.2359,52.93923,40.30402,-8.70853,-46.13824,-44.48441,13.26359,0,0,0,-69.42816,28.94446,28.6548,65.04114,-22.2061,-119.2298,0.001067912,-0.1257102,0.09433498,0,0.3,0,0,0,0
638225082911361265,-22.02856,39.29876,53.37185,10.11404,-7.422361,-142.1627,52.93923,40.30402,-8.70853,-46.13824,-44.48441,13.26359,0,0,0,-78.84322,28.24993,26.51409,65.04114,-22.2061,-119.2298,0.001067912,-0.1257102,0.09433498,0,0.3,0,0,0,0
638225082911701157,-23.0652,39.34552,54.07227,6.158805,-7.788587,-142.2359,52.93923,40.30402,-8.70853,-46.13824,-44.48441,13.26359,0,0,0,-82.70663,29.64826,25.87979,65.04114,-22.2061,-119.2298,0.001067912,-0.1257102,0.09433498,0,0.3,0,0,0,0
638225082912041052,-22.80604,39.50917,54.21235,4.547412,-8.301303,-142.2359,52.93923,40.30402,-8.70853,-46.13824,-44.48441,13.26359,0,0,0,-81.80752,30.2067,26.20497,65.04114,-22.2061,-119.2298,0.001067912,-0.1257102,0.09433498,0,0.3,0,0,0,0
638225082912390936,-21.34533,39.55592,54.11897,3.96145,-9.033754,-142.1627,52.93923,40.30402,-8.70853,-46.13824,-44.48441,13.26359,0,0,0,-76.74989,30.11441,28.04411,65.04114,-22.2061,-119.2298,0.001067912,-0.1257102,0.09433498,0,0.3,0,0,0,0
638225082912740824,-21.03905,39.27538,53.55863,4.474167,-8.594284,-141.8697,52.93923,40.30402,-8.70853,-46.13824,-44.48441,13.26359,0,0,0,-75.57154,28.5571,28.1203,65.04114,-22.2061,-119.2298,0.001067912,-0.1257102,0.09433498,0,0.3,0,0,0,0
638225082913080721,-21.55737,38.69093,54.16566,5.353109,-8.374548,-134.2522,52.93923,40.30402,-8.70853,-46.13824,-44.48441,13.26359,0,0,0,-77.96632,28.64071,28.99937,65.04114,-22.2061,-119.2298,0.001067912,-0.1257102,0.09433498,0,0.3,0,0,0,0
638225082913420611,-21.84008,38.52728,54.30574,5.353109,-8.594284,-132.9338,52.93923,40.30402,-8.70853,-46.13824,-44.48441,13.26359,0,0,0,-79.09846,28.60763,29.00974,65.04114,-22.2061,-119.2298,0.001067912,-0.1257102,0.09433498,0,0.3,0,0,0,0
638225082913880460,-21.76941,38.31688,51.6675,4.107941,-7.056135,-137.9877,52.93923,40.30402,-8.70853,-46.13824,-44.48441,13.26359,0,0,0,-77.59703,23.32147,25.95727,65.04114,-22.2061,-119.2298,0.001067912,-0.1257102,0.09433498,0,0.3,0,0,0,0
638225082914220358,-21.55737,38.17661,51.31729,3.302244,-5.810967,-140.0385,52.93923,40.30402,-8.70853,-46.13824,-44.48441,13.26359,0,0,0,-76.7652,22.42727,25.95908,65.04114,-22.2061,-119.2298,0.001067912,-0.1257102,0.09433498,0,0.3,0,0,0,0
638225082914560247,-21.22752,37.84931,50.87369,0.8851534,-3.393876,-137.8412,52.93923,40.30402,-8.70853,-46.13824,-44.48441,13.26359,0,0,0,-75.58043,21.02368,26.23067,65.04114,-22.2061,-119.2298,0.001067912,-0.1257102,0.09433498,0,0.3,0,0,0,0
638225082914905217,-21.20397,37.4285,50.03319,-0.6529952,-0.9767859,-125.9022,52.93923,40.30402,-8.70853,-46.13824,-44.48441,13.26359,0,0,0,-75.26625,18.73972,25.65816,65.04114,-22.2061,-119.2298,0.001067912,-0.1257102,0.09433498,0,0.3,0,0,0,0
638225082915245108,-21.22752,37.14796,49.82306,-0.7262403,-0.02459868,-120.3356,52.93923,40.30402,-8.70853,-46.13824,-44.48441,13.26359,0,0,0,-75.37525,17.84602,25.70245,65.04114,-22.2061,-119.2298,0.001067912,-0.1257102,0.09433498,0,0.3,0,0,0,0
638225082915584998,-21.22752,36.79729,49.75303,0.2259469,0.4881175,-113.597,52.93923,40.30402,-8.70853,-46.13824,-44.48441,13.26359,0,0,0,-75.51487,17.06949,26.0619,65.04114,-22.2061,-119.2298,0.001067912,-0.1257102,0.09433498,0,0.3,0,0,0,0
638225082915924890,-21.10972,36.56351,47.67512,1.178134,1.440305,-116.4536,52.93923,40.30402,-8.70853,-46.13824,-44.48441,13.26359,0,0,0,-74.08289,12.99934,23.54331,65.04114,-22.2061,-119.2298,0.001067912,-0.1257102,0.09433498,0,0.3,0,0,0,0
638225082916274780,-20.82701,36.51675,46.64783,1.617605,2.465737,-121.654,52.93923,40.30402,-8.70853,-46.13824,-44.48441,13.26359,0,0,0,-72.58016,11.15876,22.44768,65.04114,-22.2061,-119.2298,0.001067912,-0.1257102,0.09433498,0,0.3,0,0,0,0
638225082916614670,-18.68305,36.6804,46.32097,2.569792,4.956073,-130.3702,52.93923,40.30402,-8.70853,-46.13824,-44.48441,13.26359,0,0,0,-65.15101,10.91287,24.31805,65.04114,-22.2061,-119.2298,0.001067912,-0.1257102,0.09433498,0,0.3,0,0,0,0
638225082916954557,-17.31657,36.65702,46.55445,4.913638,6.567466,-129.9307,52.93923,40.30402,-8.70853,-46.13824,-44.48441,13.26359,0,0,0,-60.65901,11.26297,26.20545,65.04114,-22.2061,-119.2298,0.001067912,-0.1257102,0.09433498,0,0.3,0,0,0,0
638225082917304445,-17.69353,36.54013,46.5311,7.623709,6.713957,-121.654,52.93923,40.30402,-8.70853,-46.13824,-44.48441,13.26359,0,0,0,-61.97564,11.00512,25.92107,65.04114,-22.2061,-119.2298,0.001067912,-0.1257102,0.09433498,0,0.3,0,0,0,0
638225082917644340,-18.40033,36.51675,46.5311,8.282915,6.201241,-119.8229,52.93923,40.30402,-8.70853,-46.13824,-44.48441,13.26359,0,0,0,-64.37761,10.96139,25.17251,65.04114,-22.2061,-119.2298,0.001067912,-0.1257102,0.09433498,0,0.3,0,0,0,0
638225082917994225,-19.34273,36.49338,46.1342,8.136425,5.835015,-122.533,52.93923,40.30402,-8.70853,-46.13824,-44.48441,13.26359,0,0,0,-67.35126,10.24945,23.51622,65.04114,-22.2061,-119.2298,0.001067912,-0.1257102,0.09433498,0,0.3,0,0,0,0
638225082918394098,-19.01289,36.37648,44.56993,7.623709,7.080183,-138.0609,52.93923,40.30402,-8.70853,-46.13824,-44.48441,13.26359,0,0,0,-65.46479,7.440549,21.6347,65.04114,-22.2061,-119.2298,0.001067912,-0.1257102,0.09433498,0,0.3,0,0,0,0
638225082918733992,-18.73017,36.32973,44.8501,6.964502,8.105616,-140.4048,52.93923,40.30402,-8.70853,-46.13824,-44.48441,13.26359,0,0,0,-64.69605,7.811644,22.45537,65.04114,-22.2061,-119.2298,0.001067912,-0.1257102,0.09433498,0,0.3,0,0,0,0
638225082919073880,-18.68305,36.32973,44.96684,5.426354,9.350782,-135.2044,52.93923,40.30402,-8.70853,-46.13824,-44.48441,13.26359,0,0,0,-64.60075,8.003451,22.69079,65.04114,-22.2061,-119.2298,0.001067912,-0.1257102,0.09433498,0,0.3,0,0,0,0
638225082919413775,-18.75373,36.32973,45.06022,5.133373,9.643764,-129.1983,52.93923,40.30402,-8.70853,-46.13824,-44.48441,13.26359,0,0,0,-64.88577,8.15718,22.75645,65.04114,-22.2061,-119.2298,0.001067912,-0.1257102,0.09433498,0,0.3,0,0,0,0
638225082919753665,-19.17781,36.30635,46.88131,5.865825,8.325351,-119.0172,52.93923,40.30402,-8.70853,-46.13824,-44.48441,13.26359,0,0,0,-67.27671,11.16055,25.0836,65.04114,-22.2061,-119.2298,0.001067912,-0.1257102,0.09433498,0,0.3,0,0,0,0
638225082920093560,-19.60189,36.28297,46.67118,7.110993,5.688524,-116.2339,52.93923,40.30402,-8.70853,-46.13824,-44.48441,13.26359,0,0,0,-68.60501,10.76034,24.29518,65.04114,-22.2061,-119.2298,0.001067912,-0.1257102,0.09433498,0,0.3,0,0,0,0
638225082920433449,-19.57833,36.1427,45.36374,7.550464,5.102563,-118.651,52.93923,40.30402,-8.70853,-46.13824,-44.48441,13.26359,0,0,0,-67.88233,8.307429,22.51416,65.04114,-22.2061,-119.2298,0.001067912,-0.1257102,0.09433498,0,0.3,0,0,0,0
638225082920773338,-19.41341,35.72189,42.88893,7.770199,6.347731,-132.4943,52.93923,40.30402,-8.70853,-46.13824,-44.48441,13.26359,0,0,0,-66.14958,3.504459,19.35172,65.04114,-22.2061,-119.2298,0.001067912,-0.1257102,0.09433498,0,0.3,0,0,0,0
638225082921113230,-18.80085,35.48811,42.25855,6.818012,9.057802,-141.8697,52.93923,40.30402,-8.70853,-46.13824,-44.48441,13.26359,0,0,0,-63.89299,2.069508,19.32531,65.04114,-22.2061,-119.2298,0.001067912,-0.1257102,0.09433498,0,0.3,0,0,0,0
638225082921463121,-18.35321,35.48811,42.37529,6.012315,10.37621,-142.1627,52.93923,40.30402,-8.70853,-46.13824,-44.48441,13.26359,0,0,0,-62.48804,2.252419,20.00944,65.04114,-22.2061,-119.2298,0.001067912,-0.1257102,0.09433498,0,0.3,0,0,0,0
638225082921803010,-17.97625,35.48811,43.16909,5.426354,11.91436,-141.8697,52.93923,40.30402,-8.70853,-46.13824,-44.48441,13.26359,0,0,0,-61.666,3.507021,21.70644,65.04114,-22.2061,-119.2298,0.001067912,-0.1257102,0.09433498,0,0.3,0,0,0,0
638225082922142898,-18.32965,35.48811,43.30918,6.158805,11.91436,-135.3509,52.93923,40.30402,-8.70853,-46.13824,-44.48441,13.26359,0,0,0,-62.91177,3.730366,21.54794,65.04114,-22.2061,-119.2298,0.001067912,-0.1257102,0.09433498,0,0.3,0,0,0,0
638225082922492787,-19.48409,35.46473,43.77612,7.257483,10.6692,-130.004,52.93923,40.30402,-8.70853,-46.13824,-44.48441,13.26359,0,0,0,-66.99824,4.434722,21.0143,65.04114,-22.2061,-119.2298,0.001067912,-0.1257102,0.09433498,0,0.3,0,0,0,0
638225082922922649,-20.52073,35.25433,42.51537,7.550464,9.643764,-132.9338,52.93923,40.30402,-8.70853,-46.13824,-44.48441,13.26359,0,0,0,-69.76208,2.02878,18.03159,65.04114,-22.2061,-119.2298,0.001067912,-0.1257102,0.09433498,0,0.3,0,0,0,0
638225082923252547,-20.56785,35.13744,41.60483,7.330729,9.790254,-137.9144,52.93923,40.30402,-8.70853,-46.13824,-44.48441,13.26359,0,0,0,-69.41767,0.3868086,16.64789,65.04114,-22.2061,-119.2298,0.001067912,-0.1257102,0.09433498,0,0.3,0,0,0,0
638225082923592436,-20.04953,35.02055,40.53086,6.158805,10.74244,-141.8697,52.93923,40.30402,-8.70853,-46.13824,-44.48441,13.26359,0,0,0,-67.14883,-1.477898,15.6449,65.04114,-22.2061,-119.2298,0.001067912,-0.1257102,0.09433498,0,0.3,0,0,0,0
638225082923932330,-18.80085,35.06731,42.2819,4.400921,11.47489,-142.2359,52.93923,40.30402,-8.70853,-46.13824,-44.48441,13.26359,0,0,0,-64.08824,1.306525,19.89883,65.04114,-22.2061,-119.2298,0.001067912,-0.1257102,0.09433498,0,0.3,0,0,0,0
638225082924282219,-18.11761,35.06731,45.38708,5.060128,10.81569,-141.7232,52.93923,40.30402,-8.70853,-46.13824,-44.48441,13.26359,0,0,0,-63.45984,6.31117,25.60374,65.04114,-22.2061,-119.2298,0.001067912,-0.1257102,0.09433498,0,0.3,0,0,0,0
638225082924612112,-18.44745,35.06731,46.69453,5.93907,9.8635,-136.3763,52.93923,40.30402,-8.70853,-46.13824,-44.48441,13.26359,0,0,0,-65.24371,8.501541,27.23887,65.04114,-22.2061,-119.2298,0.001067912,-0.1257102,0.09433498,0,0.3,0,0,0,0
638225082924961998,-20.92125,34.81015,49.21603,6.964502,6.933692,-125.4628,52.93923,40.30402,-8.70853,-46.13824,-44.48441,13.26359,0,0,0,-75.15071,12.36866,28.2315,65.04114,-22.2061,-119.2298,0.001067912,-0.1257102,0.09433498,0,0.3,0,0,0,0
638225082925311887,-24.85576,34.17893,49.65963,5.353109,3.491169,-122.0935,52.93923,40.30402,-8.70853,-46.13824,-44.48441,13.26359,0,0,0,-89.09418,11.94221,23.9757,65.04114,-22.2061,-119.2298,0.001067912,-0.1257102,0.09433498,0,0.3,0,0,0,0
638225082925641782,-26.41072,33.99191,48.37553,3.66847,2.099511,-120.2624,52.93923,40.30402,-8.70853,-46.13824,-44.48441,13.26359,0,0,0,-93.51699,9.325625,19.95032,65.04114,-22.2061,-119.2298,0.001067912,-0.1257102,0.09433498,0,0.3,0,0,0,0
638225082925981675,-27.25887,33.94515,45.247,0.4456824,0.8543434,-115.8676,52.93923,40.30402,-8.70853,-46.13824,-44.48441,13.26359,0,0,0,-94.03977,3.927188,14.17003,65.04114,-22.2061,-119.2298,0.001067912,-0.1257102,0.09433498,0,0.3,0,0,0,0
638225082926331562,-26.03376,33.99191,44.42985,-0.5065048,0.7810982,-114.8422,52.93923,40.30402,-8.70853,-46.13824,-44.48441,13.26359,0,0,0,-89.49728,2.676441,14.87257,65.04114,-22.2061,-119.2298,0.001067912,-0.1257102,0.09433498,0,0.3,0,0,0,0
638225082926671452,-24.95,34.59974,44.31311,-0.0670338,0.707853,-114.769,52.93923,40.30402,-8.70853,-46.13824,-44.48441,13.26359,0,0,0,-85.59763,3.655153,15.63373,65.04114,-22.2061,-119.2298,0.001067912,-0.1257102,0.09433498,0,0.3,0,0,0,0
638225082927011345,-23.32436,37.14796,45.41043,2.203566,-0.171089,-116.0874,52.93923,40.30402,-8.70853,-46.13824,-44.48441,13.26359,0,0,0,-79.68456,10.26197,16.45913,65.04114,-22.2061,-119.2298,0.001067912,-0.1257102,0.09433498,0,0.3,0,0,0,0
638225082927441205,-23.58352,41.9405,48.93587,4.034696,-3.027651,-118.7975,52.93923,40.30402,-8.70853,-46.13824,-44.48441,13.26359,0,0,0,-79.91048,24.87754,14.70134,65.04114,-22.2061,-119.2298,0.001067912,-0.1257102,0.09433498,0,0.3,0,0,0,0
638225082927771100,-25.68036,47.36424,54.189,4.474167,-9.546471,-121.1413,52.93923,40.30402,-8.70853,-46.13824,-44.48441,13.26359,0,0,0,-86.00399,43.42733,10.50998,65.04114,-22.2061,-119.2298,0.001067912,-0.1257102,0.09433498,0,0.3,0,0,0,0
638225082928110994,-28.79027,50.16962,55.5198,0.5189275,-17.09072,-122.24,52.93923,40.30402,-8.70853,-46.13824,-44.48441,13.26359,0,0,0,-94.07489,50.26305,2.840436,65.04114,-22.2061,-119.2298,0.001067912,-0.1257102,0.09433498,0,0.3,0,0,0,0
638225082928450885,-29.37927,51.19827,54.53922,-3.216576,-19.36132,-122.3132,52.93923,40.30402,-8.70853,-46.13824,-44.48441,13.26359,0,0,0,-94.27936,49.90976,-0.889459,65.04114,-22.2061,-119.2298,0.001067912,-0.1257102,0.09433498,0,0.3,0,0,0,0
638225082928800776,-26.90548,53.67635,51.13051,-9.881886,-20.89947,-127.6601,52.93923,40.30402,-8.70853,-46.13824,-44.48441,13.26359,0,0,0,-82.72635,47.10435,-5.326075,65.04114,-22.2061,-119.2298,0.001067912,-0.1257102,0.09433498,0,0.3,0,0,0,0
638225082929130669,-21.43956,55.10242,50.00984,-9.955132,-21.11921,-141.6499,52.93923,40.30402,-8.70853,-46.13824,-44.48441,13.26359,0,0,0,-65.22982,47.0223,-2.240855,65.04114,-22.2061,-119.2298,0.001067912,-0.1257102,0.09433498,0,0.3,0,0,0,0
638225082929480557,-21.20397,55.35958,52.01771,-5.780157,-21.70517,-142.2359,52.93923,40.30402,-8.70853,-46.13824,-44.48441,13.26359,0,0,0,-65.43172,50.99582,0.3084165,65.04114,-22.2061,-119.2298,0.001067912,-0.1257102,0.09433498,0,0.3,0,0,0,0
638225082929815532,-23.3008,55.33621,53.16172,-4.315253,-22.29113,-141.8697,52.93923,40.30402,-8.70853,-46.13824,-44.48441,13.26359,0,0,0,-72.2164,53.07975,-0.6718428,65.04114,-22.2061,-119.2298,0.001067912,-0.1257102,0.09433498,0,0.3,0,0,0,0
638225082930145432,-28.95519,54.705,54.72599,-6.952079,-23.60954,-129.5645,52.93923,40.30402,-8.70853,-46.13824,-44.48441,13.26359,0,0,0,-90.00605,55.18073,-5.674886,65.04114,-22.2061,-119.2298,0.001067912,-0.1257102,0.09433498,0,0.3,0,0,0,0
638225082930485319,-28.81383,55.42972,53.18507,-13.91037,-24.12226,-122.533,52.93923,40.30402,-8.70853,-46.13824,-44.48441,13.26359,0,0,0,-87.92093,53.24688,-8.513842,65.04114,-22.2061,-119.2298,0.001067912,-0.1257102,0.09433498,0,0.3,0,0,0,0
638225082930815214,-26.10444,55.6635,51.6208,-14.78931,-24.26875,-122.4597,52.93923,40.30402,-8.70853,-46.13824,-44.48441,13.26359,0,0,0,-79.09242,50.67021,-6.933917,65.04114,-22.2061,-119.2298,0.001067912,-0.1257102,0.09433498,0,0.3,0,0,0,0
638225082931155112,-19.34273,53.86338,50.54683,-9.22268,-23.90252,-133.3732,52.93923,40.30402,-8.70853,-46.13824,-44.48441,13.26359,0,0,0,-60.15041,46.30831,3.002855,65.04114,-22.2061,-119.2298,0.001067912,-0.1257102,0.09433498,0,0.3,0,0,0,0
638225082931504995,-17.12809,49.74882,51.76089,0.8119082,-22.51087,-134.0325,52.93923,40.30402,-8.70853,-46.13824,-44.48441,13.26359,0,0,0,-56.22188,42.58899,14.08376,65.04114,-22.2061,-119.2298,0.001067912,-0.1257102,0.09433498,0,0.3,0,0,0,0
638225082931954852,-20.68565,45.54074,53.27846,7.037747,-19.80079,-120.1159,52.93923,40.30402,-8.70853,-46.13824,-44.48441,13.26359,0,0,0,-70.74892,38.79488,19.02353,65.04114,-22.2061,-119.2298,0.001067912,-0.1257102,0.09433498,0,0.3,0,0,0,0
638225082932284745,-24.33744,44.97966,53.06834,5.572844,-18.33589,-110.008,52.93923,40.30402,-8.70853,-46.13824,-44.48441,13.26359,0,0,0,-82.80104,37.48425,14.71493,65.04114,-22.2061,-119.2298,0.001067912,-0.1257102,0.09433498,0,0.3,0,0,0,0
638225082932624634,-25.96308,45.40047,52.43796,2.862773,-17.67669,-104.9541,52.93923,40.30402,-8.70853,-46.13824,-44.48441,13.26359,0,0,0,-87.26813,37.0066,10.86921,65.04114,-22.2061,-119.2298,0.001067912,-0.1257102,0.09433498,0,0.3,0,0,0,0
638225082932964526,-24.85576,47.31749,49.30943,-2.630615,-16.57801,-98.14231,52.93923,40.30402,-8.70853,-46.13824,-44.48441,13.26359,0,0,0,-80.50018,34.43776,5.42402,65.04114,-22.2061,-119.2298,0.001067912,-0.1257102,0.09433498,0,0.3,0,0,0,0
638225082933314418,-18.37677,47.57465,47.69846,-1.824918,-15.18635,-101.8046,52.93923,40.30402,-8.70853,-46.13824,-44.48441,13.26359,0,0,0,-59.45544,32.03435,10.62188,65.04114,-22.2061,-119.2298,0.001067912,-0.1257102,0.09433498,0,0.3,0,0,0,0
638225082933644306,-14.98414,46.61614,48.91252,1.397869,-14.4539,-109.1291,52.93923,40.30402,-8.70853,-46.13824,-44.48441,13.26359,0,0,0,-49.66845,32.62551,17.22068,65.04114,-22.2061,-119.2298,0.001067912,-0.1257102,0.09433498,0,0.3,0,0,0,0
638225082933984200,-13.21714,44.02116,51.31729,9.894309,-13.28197,-120.5553,52.93923,40.30402,-8.70853,-46.13824,-44.48441,13.26359,0,0,0,-45.72506,32.67341,26.3378,65.04114,-22.2061,-119.2298,0.001067912,-0.1257102,0.09433498,0,0.3,0,0,0,0
638225082934324092,-17.50505,43.88089,50.59352,13.41008,-11.89032,-118.5777,52.93923,40.30402,-8.70853,-46.13824,-44.48441,13.26359,0,0,0,-59.90254,31.13012,21.5782,65.04114,-22.2061,-119.2298,0.001067912,-0.1257102,0.09433498,0,0.3,0,0,0,0
638225082934663983,-20.30869,44.95628,50.03319,12.01842,-11.3776,-113.8168,52.93923,40.30402,-8.70853,-46.13824,-44.48441,13.26359,0,0,0,-68.22379,31.91418,15.99699,65.04114,-22.2061,-119.2298,0.001067912,-0.1257102,0.09433498,0,0.3,0,0,0,0
638225082935003875,-22.9474,48.32275,49.37947,4.181186,-11.45084,-102.244,52.93923,40.30402,-8.70853,-46.13824,-44.48441,13.26359,0,0,0,-74.03413,36.13239,6.509627,65.04114,-22.2061,-119.2298,0.001067912,-0.1257102,0.09433498,0,0.3,0,0,0,0
638225082935343764,-18.37677,49.58517,49.28608,1.983831,-12.40303,-99.53397,52.93923,40.30402,-8.70853,-46.13824,-44.48441,13.26359,0,0,0,-59.12125,37.89687,9.615901,65.04114,-22.2061,-119.2298,0.001067912,-0.1257102,0.09433498,0,0.3,0,0,0,0
638225082935693654,-12.36898,47.31749,51.43402,7.403974,-13.28197,-107.5177,52.93923,40.30402,-8.70853,-46.13824,-44.48441,13.26359,0,0,0,-41.69912,38.24601,21.79927,65.04114,-22.2061,-119.2298,0.001067912,-0.1257102,0.09433498,0,0.3,0,0,0,0
638225082936023548,-12.20406,44.97966,51.85428,11.28597,-13.13548,-112.3519,52.93923,40.30402,-8.70853,-46.13824,-44.48441,13.26359,0,0,0,-42.10933,35.24376,26.34654,65.04114,-22.2061,-119.2298,0.001067912,-0.1257102,0.09433498,0,0.3,0,0,0,0
638225082936473407,-16.27993,41.96388,51.7142,13.92279,-11.3776,-112.4251,52.93923,40.30402,-8.70853,-46.13824,-44.48441,13.26359,0,0,0,-57.13837,29.89446,27.30234,65.04114,-22.2061,-119.2298,0.001067912,-0.1257102,0.09433498,0,0.3,0,0,0,0
638225082936803297,-20.63853,43.17954,52.01771,9.088613,-9.619716,-103.5625,52.93923,40.30402,-8.70853,-46.13824,-44.48441,13.26359,0,0,0,-71.3215,32.53366,21.01107,65.04114,-22.2061,-119.2298,0.001067912,-0.1257102,0.09433498,0,0.3,0,0,0,0
638225082937143191,-19.79037,45.89141,52.20449,3.375489,-10.20568,-96.31119,52.93923,40.30402,-8.70853,-46.13824,-44.48441,13.26359,0,0,0,-67.1024,37.37533,18.13246,65.04114,-22.2061,-119.2298,0.001067912,-0.1257102,0.09433498,0,0.3,0,0,0,0
638225082937493084,-15.97365,46.56938,51.31729,3.375489,-11.45084,-100.2664,52.93923,40.30402,-8.70853,-46.13824,-44.48441,13.26359,0,0,0,-53.8751,36.84505,19.86141,65.04114,-22.2061,-119.2298,0.001067912,-0.1257102,0.09433498,0,0.3,0,0,0,0
638225082937842967,-14.58362,45.2602,51.03712,5.353109,-11.74383,-105.8331,52.93923,40.30402,-8.70853,-46.13824,-44.48441,13.26359,0,0,0,-49.7417,34.21722,22.83544,65.04114,-22.2061,-119.2298,0.001067912,-0.1257102,0.09433498,0,0.3,0,0,0,0
638225082938172862,-16.23281,40.39754,52.0644,8.575896,-10.86488,-108.6896,52.93923,40.30402,-8.70853,-46.13824,-44.48441,13.26359,0,0,0,-57.78904,27.79213,30.13682,65.04114,-22.2061,-119.2298,0.001067912,-0.1257102,0.09433498,0,0.3,0,0,0,0
638225082938512758,-20.89769,36.56351,54.81938,6.671522,-9.033754,-101.2186,52.93923,40.30402,-8.70853,-46.13824,-44.48441,13.26359,0,0,0,-77.08242,25.958,33.53338,65.04114,-22.2061,-119.2298,0.001067912,-0.1257102,0.09433498,0,0.3,0,0,0,0
638225082938852648,-23.04164,36.56351,55.77662,3.81496,-8.521038,-96.38443,52.93923,40.30402,-8.70853,-46.13824,-44.48441,13.26359,0,0,0,-85.07742,27.78957,31.67553,65.04114,-22.2061,-119.2298,0.001067912,-0.1257102,0.09433498,0,0.3,0,0,0,0
638225082939192539,-24.54948,39.74295,56.29026,-3.143331,-8.814018,-87.52177,52.93923,40.30402,-8.70853,-46.13824,-44.48441,13.26359,0,0,0,-88.68981,34.5992,25.8175,65.04114,-22.2061,-119.2298,0.001067912,-0.1257102,0.09433498,0,0.3,0,0,0,0
638225082939532429,-20.45005,45.49398,55.49645,-5.413931,-11.30435,-83.34679,52.93923,40.30402,-8.70853,-46.13824,-44.48441,13.26359,0,0,0,-71.05515,42.91505,22.20191,65.04114,-22.2061,-119.2298,0.001067912,-0.1257102,0.09433498,0,0.3,0,0,0,0
638225082939882316,-15.92653,47.76167,57.50431,-0.0670338,-14.96661,-92.50243,52.93923,40.30402,-8.70853,-46.13824,-44.48441,13.26359,0,0,0,-55.46036,50.43591,26.00346,65.04114,-22.2061,-119.2298,0.001067912,-0.1257102,0.09433498,0,0.3,0,0,0,0
638225082940212212,-15.05481,47.43437,58.76507,4.107941,-17.09072,-99.97345,52.93923,40.30402,-8.70853,-46.13824,-44.48441,13.26359,0,0,0,-53.04555,52.41425,28.8638,65.04114,-22.2061,-119.2298,0.001067912,-0.1257102,0.09433498,0,0.3,0,0,0,0
638225082940552107,-17.88201,43.92765,59.11527,9.015368,-19.80079,-101.8046,52.93923,40.30402,-8.70853,-46.13824,-44.48441,13.26359,0,0,0,-64.63017,47.41127,31.96387,65.04114,-22.2061,-119.2298,0.001067912,-0.1257102,0.09433498,0,0.3,0,0,0,0
638225082940981965,-21.8872,40.93523,58.78841,3.741715,-19.21483,-90.30508,52.93923,40.30402,-8.70853,-46.13824,-44.48441,13.26359,0,0,0,-80.06886,41.61969,30.95617,65.04114,-22.2061,-119.2298,0.001067912,-0.1257102,0.09433498,0,0.3,0,0,0,0
638225082941311859,-20.80345,41.87036,58.22808,-0.3600145,-17.96966,-84.88493,52.93923,40.30402,-8.70853,-46.13824,-44.48441,13.26359,0,0,0,-75.53171,42.14011,30.4526,65.04114,-22.2061,-119.2298,0.001067912,-0.1257102,0.09433498,0,0.3,0,0,0,0
638225082941651749,-18.28253,43.17954,57.76114,-0.8727306,-17.5302,-83.56653,52.93923,40.30402,-8.70853,-46.13824,-44.48441,13.26359,0,0,0,-65.88772,43.46407,31.08001,65.04114,-22.2061,-119.2298,0.001067912,-0.1257102,0.09433498,0,0.3,0,0,0,0
638225082941981646,-11.92134,44.58223,59.3721,5.646089,-17.5302,-93.30813,52.93923,40.30402,-8.70853,-46.13824,-44.48441,13.26359,0,0,0,-43.32252,49.0161,36.85126,65.04114,-22.2061,-119.2298,0.001067912,-0.1257102,0.09433498,0,0.3,0,0,0,0
638225082942351525,-10.57842,43.92765,60.86632,16.26664,-18.33589,-109.0558,52.93923,40.30402,-8.70853,-46.13824,-44.48441,13.26359,0,0,0,-39.01472,50.94018,40.55838,65.04114,-22.2061,-119.2298,0.001067912,-0.1257102,0.09433498,0,0.3,0,0,0,0
638225082942691418,-15.10193,42.40806,58.60164,19.41618,-18.77536,-104.6611,52.93923,40.30402,-8.70853,-46.13824,-44.48441,13.26359,0,0,0,-55.30769,43.80869,36.6019,65.04114,-22.2061,-119.2298,0.001067912,-0.1257102,0.09433498,0,0.3,0,0,0,0
638225082943021310,-17.41081,41.68334,58.11135,17.07234,-18.33589,-97.70284,52.93923,40.30402,-8.70853,-46.13824,-44.48441,13.26359,0,0,0,-63.67848,41.58467,34.714,65.04114,-22.2061,-119.2298,0.001067912,-0.1257102,0.09433498,0,0.3,0,0,0,0
638225082943351209,-17.52861,41.80023,58.088,10.0408,-17.16397,-84.29898,52.93923,40.30402,-8.70853,-46.13824,-44.48441,13.26359,0,0,0,-64.03265,41.74153,34.38255,65.04114,-22.2061,-119.2298,0.001067912,-0.1257102,0.09433498,0,0.3,0,0,0,0
638225082943701095,-12.0627,42.38468,58.78841,9.967555,-16.43152,-81.58891,52.93923,40.30402,-8.70853,-46.13824,-44.48441,13.26359,0,0,0,-44.41826,44.13993,39.50279,65.04114,-22.2061,-119.2298,0.001067912,-0.1257102,0.09433498,0,0.3,0,0,0,0
638225082944040989,-8.575826,42.03401,60.14256,15.97366,-15.62582,-91.55025,52.93923,40.30402,-8.70853,-46.13824,-44.48441,13.26359,0,0,0,-32.01498,46.24991,43.94498,65.04114,-22.2061,-119.2298,0.001067912,-0.1257102,0.09433498,0,0.3,0,0,0,0
638225082944390875,-8.882105,41.9405,59.25536,21.61354,-14.74688,-100.5594,52.93923,40.30402,-8.70853,-46.13824,-44.48441,13.26359,0,0,0,-33.01099,44.30539,42.88535,65.04114,-22.2061,-119.2298,0.001067912,-0.1257102,0.09433498,0,0.3,0,0,0,0
638225082944730769,-13.61766,41.91712,56.40699,22.12625,-13.86794,-98.28881,52.93923,40.30402,-8.70853,-46.13824,-44.48441,13.26359,0,0,0,-49.51488,38.65392,36.04436,65.04114,-22.2061,-119.2298,0.001067912,-0.1257102,0.09433498,0,0.3,0,0,0,0
638225082945070660,-16.13857,41.84698,55.82331,19.19645,-13.42846,-92.64893,52.93923,40.30402,-8.70853,-46.13824,-44.48441,13.26359,0,0,0,-58.27683,37.40466,33.04584,65.04114,-22.2061,-119.2298,0.001067912,-0.1257102,0.09433498,0,0.3,0,0,0,0
638225082945500519,-15.62025,41.96388,53.97888,7.91669,-10.71839,-78.73235,52.93923,40.30402,-8.70853,-46.13824,-44.48441,13.26359,0,0,0,-55.73906,34.09514,31.01278,65.04114,-22.2061,-119.2298,0.001067912,-0.1257102,0.09433498,0,0.3,0,0,0,0
638225082945825485,-13.02866,41.75347,53.06834,7.257483,-9.180244,-79.09857,52.93923,40.30402,-8.70853,-46.13824,-44.48441,13.26359,0,0,0,-46.45723,32.02639,32.42015,65.04114,-22.2061,-119.2298,0.001067912,-0.1257102,0.09433498,0,0.3,0,0,0,0
638225082946165377,-7.562747,41.0755,53.13838,11.28597,-5.591231,-87.22878,52.93923,40.30402,-8.70853,-46.13824,-44.48441,13.26359,0,0,0,-27.27218,30.97342,37.06419,65.04114,-22.2061,-119.2298,0.001067912,-0.1257102,0.09433498,0,0.3,0,0,0,0
638225082946505266,-6.785269,41.63658,53.55863,17.14558,-3.247386,-97.6296,52.93923,40.30402,-8.70853,-46.13824,-44.48441,13.26359,0,0,0,-24.44942,32.73832,37.13834,65.04114,-22.2061,-119.2298,0.001067912,-0.1257102,0.09433498,0,0.3,0,0,0,0
638225082946855157,-8.363786,42.52495,52.71812,18.83022,-2.73467,-99.38748,52.93923,40.30402,-8.70853,-46.13824,-44.48441,13.26359,0,0,0,-29.72845,32.70777,33.85496,65.04114,-22.2061,-119.2298,0.001067912,-0.1257102,0.09433498,0,0.3,0,0,0,0
638225082947195042,-12.1805,44.44196,50.66357,17.21883,-2.441689,-94.77303,52.93923,40.30402,-8.70853,-46.13824,-44.48441,13.26359,0,0,0,-41.84911,32.19292,25.52926,65.04114,-22.2061,-119.2298,0.001067912,-0.1257102,0.09433498,0,0.3,0,0,0,0
638225082947524943,-13.1229,45.33034,50.10323,12.60438,-2.002218,-88.10773,52.93923,40.30402,-8.70853,-46.13824,-44.48441,13.26359,0,0,0,-44.51216,32.65322,22.5839,65.04114,-22.2061,-119.2298,0.001067912,-0.1257102,0.09433498,0,0.3,0,0,0,0
638225082947864832,-11.33234,45.33034,50.17327,11.57895,-1.709238,-86.64282,52.93923,40.30402,-8.70853,-46.13824,-44.48441,13.26359,0,0,0,-38.54503,32.77835,23.98394,65.04114,-22.2061,-119.2298,0.001067912,-0.1257102,0.09433498,0,0.3,0,0,0,0
638225082948194724,-4.711992,44.69912,53.3952,15.75392,-0.9767859,-92.79542,52.93923,40.30402,-8.70853,-46.13824,-44.48441,13.26359,0,0,0,-16.58021,37.63067,32.80342,65.04114,-22.2061,-119.2298,0.001067912,-0.1257102,0.09433498,0,0.3,0,0,0,0
638225082948534619,-0.2120396,44.97966,58.13469,28.57183,0.1951368,-113.9633,52.93923,40.30402,-8.70853,-46.13824,-44.48441,13.26359,0,0,0,-0.7682052,47.21052,39.22775,65.04114,-22.2061,-119.2298,0.001067912,-0.1257102,0.09433498,0,0.3,0,0,0,0
638225082948884505,-2.426676,47.411,52.5547,36.33582,0.1951368,-117.479,52.93923,40.30402,-8.70853,-46.13824,-44.48441,13.26359,0,0,0,-8.303615,40.44856,27.58781,65.04114,-22.2061,-119.2298,0.001067912,-0.1257102,0.09433498,0,0.3,0,0,0,0
638225082949224395,-4.924032,48.88382,49.00591,36.26257,0.1218917,-112.4251,52.93923,40.30402,-8.70853,-46.13824,-44.48441,13.26359,0,0,0,-16.16603,36.33783,19.29382,65.04114,-22.2061,-119.2298,0.001067912,-0.1257102,0.09433498,0,0.3,0,0,0,0
638225082949554291,-7.869027,50.84759,46.06416,30.98892,0.268382,-106.1993,52.93923,40.30402,-8.70853,-46.13824,-44.48441,13.26359,0,0,0,-24.67415,34.23359,10.17582,65.04114,-22.2061,-119.2298,0.001067912,-0.1257102,0.09433498,0,0.3,0,0,0,0
638225082949904181,-4.547072,51.19827,46.88131,27.25341,0.9275885,-106.9317,52.93923,40.30402,-8.70853,-46.13824,-44.48441,13.26359,0,0,0,-14.34126,36.12587,11.97881,65.04114,-22.2061,-119.2298,0.001067912,-0.1257102,0.09433498,0,0.3,0,0,0,0
638225082950254066,-2.120397,50.98786,48.23545,27.98586,1.440305,-109.715,52.93923,40.30402,-8.70853,-46.13824,-44.48441,13.26359,0,0,0,-6.785923,38.14405,14.93045,65.04114,-22.2061,-119.2298,0.001067912,-0.1257102,0.09433498,0,0.3,0,0,0,0
638225082950583966,0.4476392,50.89435,50.57018,33.40601,2.758718,-115.7944,52.93923,40.30402,-8.70853,-46.13824,-44.48441,13.26359,0,0,0,1.46184,42.13255,18.75507,65.04114,-22.2061,-119.2298,0.001067912,-0.1257102,0.09433498,0,0.3,0,0,0,0
638225082950923856,-0.7067988,52.06326,49.12265,38.02045,3.198189,-117.2593,52.93923,40.30402,-8.70853,-46.13824,-44.48441,13.26359,0,0,0,-2.25508,41.25197,14.44604,65.04114,-22.2061,-119.2298,0.001067912,-0.1257102,0.09433498,0,0.3,0,0,0,0
638225082951273745,-2.167516,53.39582,48.07202,38.60641,2.758718,-114.4027,52.93923,40.30402,-8.70853,-46.13824,-44.48441,13.26359,0,0,0,-6.759602,41.29597,10.24697,65.04114,-22.2061,-119.2298,0.001067912,-0.1257102,0.09433498,0,0.3,0,0,0,0
638225082951603639,-4.759112,57.86105,48.56231,37.36125,-0.4640697,-105.1006,52.93923,40.30402,-8.70853,-46.13824,-44.48441,13.26359,0,0,0,-14.17968,48.0138,1.968819,65.04114,-22.2061,-119.2298,0.001067912,-0.1257102,0.09433498,0,0.3,0,0,0,0
638225082951953527,-4.876912,61.6717,53.62867,37.94721,-5.664476,-102.0975,52.93923,40.30402,-8.70853,-46.13824,-44.48441,13.26359,0,0,0,-14.50787,61.65172,1.682004,65.04114,-22.2061,-119.2298,0.001067912,-0.1257102,0.09433498,0,0.3,0,0,0,0
638225082952293414,-5.489471,64.50047,63.97151,47.32259,-13.79469,-127.9531,52.93923,40.30402,-8.70853,-46.13824,-44.48441,13.26359,0,0,0,-16.95459,85.19382,8.06996,65.04114,-22.2061,-119.2298,0.001067912,-0.1257102,0.09433498,0,0.3,0,0,0,0
638225082952633321,-6.903069,64.96803,68.08063,58.5291,-17.74993,-140.478,52.93923,40.30402,-8.70853,-46.13824,-44.48441,13.26359,0,0,0,-21.65027,94.39492,10.47791,65.04114,-22.2061,-119.2298,0.001067912,-0.1257102,0.09433498,0,0.3,0,0,0,0
638225082953043178,-8.693625,66.25382,68.47753,81.45483,-21.77841,-142.1627,52.93923,40.30402,-8.70853,-46.13824,-44.48441,13.26359,0,0,0,-26.86708,96.48878,7.357901,65.04114,-22.2061,-119.2298,0.001067912,-0.1257102,0.09433498,0,0.3,0,0,0,0
638225082953383066,-8.599386,68.73192,65.90933,92.66135,-23.75603,-142.1627,52.93923,40.30402,-8.70853,-46.13824,-44.48441,13.26359,0,0,0,-25.435,93.18695,-0.1566924,65.04114,-22.2061,-119.2298,0.001067912,-0.1257102,0.09433498,0,0.3,0,0,0,0
638225082953722957,-7.821907,71.98148,64.53184,94.34599,-25.44067,-142.2359,52.93923,40.30402,-8.70853,-46.13824,-44.48441,13.26359,0,0,0,-21.9983,92.81831,-8.213893,65.04114,-22.2061,-119.2298,0.001067912,-0.1257102,0.09433498,0,0.3,0,0,0,0
638225082954072850,-6.997309,73.71148,64.34506,94.12625,-26.09988,-142.2359,52.93923,40.30402,-8.70853,-46.13824,-44.48441,13.26359,0,0,0,-19.19991,93.61362,-11.91852,65.04114,-22.2061,-119.2298,0.001067912,-0.1257102,0.09433498,0,0.3,0,0,0,0
638225082954412737,-4.264353,76.91429,63.55126,92.29513,-26.4661,-142.2359,52.93923,40.30402,-8.70853,-46.13824,-44.48441,13.26359,0,0,0,-11.12283,93.84354,-19.17987,65.04114,-22.2061,-119.2298,0.001067912,-0.1257102,0.09433498,0,0.3,0,0,0,0
638225082954752634,-1.790557,79.13522,60.28264,88.33988,-26.17312,-142.2359,52.93923,40.30402,-8.70853,-46.13824,-44.48441,13.26359,0,0,0,-4.404046,88.20516,-27.47145,65.04114,-22.2061,-119.2298,0.001067912,-0.1257102,0.09433498,0,0.3,0,0,0,0
638225082955092519,0.8245987,80.42102,55.19294,81.67458,-25.95339,-141.2837,52.93923,40.30402,-8.70853,-46.13824,-44.48441,13.26359,0,0,0,1.895086,78.72256,-36.6824,65.04114,-22.2061,-119.2298,0.001067912,-0.1257102,0.09433498,0,0.3,0,0,0,0
638225082955432411,2.096837,80.56129,51.55077,77.27986,-25.29418,-135.2044,52.93923,40.30402,-8.70853,-46.13824,-44.48441,13.26359,0,0,0,4.621231,71.97482,-42.13187,65.04114,-22.2061,-119.2298,0.001067912,-0.1257102,0.09433498,0,0.3,0,0,0,0
638225082955772316,3.321954,79.74306,44.56993,68.4172,-22.80385,-119.8961,52.93923,40.30402,-8.70853,-46.13824,-44.48441,13.26359,0,0,0,6.798694,59.57115,-51.22019,65.04114,-22.2061,-119.2298,0.001067912,-0.1257102,0.09433498,0,0.3,0,0,0,0
638225082956112197,3.416194,77.96631,41.67487,59.40804,-18.77536,-99.31424,52.93923,40.30402,-8.70853,-46.13824,-44.48441,13.26359,0,0,0,6.940067,54.16655,-52.09045,65.04114,-22.2061,-119.2298,0.001067912,-0.1257102,0.09433498,0,0.3,0,0,0,0
638225082956452089,3.934513,77.12469,42.18851,55.89228,-16.87099,-90.15859,52.93923,40.30402,-8.70853,-46.13824,-44.48441,13.26359,0,0,0,8.183759,54.54297,-49.36259,65.04114,-22.2061,-119.2298,0.001067912,-0.1257102,0.09433498,0,0.3,0,0,0,0
638225082956811970,5.136071,75.44146,41.32466,51.05809,-12.91575,-80.27049,52.93923,40.30402,-8.70853,-46.13824,-44.48441,13.26359,0,0,0,10.8835,52.27512,-47.26374,65.04114,-22.2061,-119.2298,0.001067912,-0.1257102,0.09433498,0,0.3,0,0,0,0
638225082957141866,7.138669,74.15565,40.92776,46.95637,-8.154812,-76.75472,52.93923,40.30402,-8.70853,-46.13824,-44.48441,13.26359,0,0,0,15.38059,50.88288,-45.54304,65.04114,-22.2061,-119.2298,0.001067912,-0.1257102,0.09433498,0,0.3,0,0,0,0
638225082957561729,11.0025,72.30878,41.97839,43.80682,-2.148709,-78.14638,52.93923,40.30402,-8.70853,-46.13824,-44.48441,13.26359,0,0,0,24.75625,51.2616,-41.01979,65.04114,-22.2061,-119.2298,0.001067912,-0.1257102,0.09433498,0,0.3,0,0,0,0
638225082957891625,13.19358,71.46716,43.75277,44.17305,1.293814,-83.8595,52.93923,40.30402,-8.70853,-46.13824,-44.48441,13.26359,0,0,0,30.72202,53.46193,-37.29995,65.04114,-22.2061,-119.2298,0.001067912,-0.1257102,0.09433498,0,0.3,0,0,0,0
638225082958241513,14.3009,71.49055,44.68667,44.97874,3.051698,-90.23183,52.93923,40.30402,-8.70853,-46.13824,-44.48441,13.26359,0,0,0,33.62087,54.99504,-36.4587,65.04114,-22.2061,-119.2298,0.001067912,-0.1257102,0.09433498,0,0.3,0,0,0,0
638225082958581407,16.39773,72.6127,45.76064,46.44365,5.468789,-100.4862,52.93923,40.30402,-8.70853,-46.13824,-44.48441,13.26359,0,0,0,38.21967,57.57417,-38.47174,65.04114,-22.2061,-119.2298,0.001067912,-0.1257102,0.09433498,0,0.3,0,0,0,0
638225082958921296,19.79037,74.48296,47.3716,47.9818,6.860447,-104.7344,52.93923,40.30402,-8.70853,-46.13824,-44.48441,13.26359,0,0,0,45.29799,61.52946,-42.46358,65.04114,-22.2061,-119.2298,0.001067912,-0.1257102,0.09433498,0,0.3,0,0,0,0
638225082959251194,22.2406,75.39471,48.46893,49.08047,7.446409,-106.4923,52.93923,40.30402,-8.70853,-46.13824,-44.48441,13.26359,0,0,0,50.51066,63.97637,-44.82771,65.04114,-22.2061,-119.2298,0.001067912,-0.1257102,0.09433498,0,0.3,0,0,0,0
638225082959591081,27.75363,76.30646,50.57018,51.7173,8.838067,-107.8839,52.93923,40.30402,-8.70853,-46.13824,-44.48441,13.26359,0,0,0,62.66424,68.2147,-49.2632,65.04114,-22.2061,-119.2298,0.001067912,-0.1257102,0.09433498,0,0.3,0,0,0,0
638225082959930972,33.12531,76.58699,52.92825,55.23307,11.10867,-108.2501,52.93923,40.30402,-8.70853,-46.13824,-44.48441,13.26359,0,0,0,75.04726,72.67731,-53.33881,65.04114,-22.2061,-119.2298,0.001067912,-0.1257102,0.09433498,0,0.3,0,0,0,0
638225082960280861,37.67238,76.61037,55.16959,58.60235,13.45251,-108.4699,52.93923,40.30402,-8.70853,-46.13824,-44.48441,13.26359,0,0,0,85.76813,76.91249,-57.26838,65.04114,-22.2061,-119.2298,0.001067912,-0.1257102,0.09433498,0,0.3,0,0,0,0
638225082960620753,40.97078,76.61037,56.40699,60.57997,15.28364,-110.6672,52.93923,40.30402,-8.70853,-46.13824,-44.48441,13.26359,0,0,0,93.07892,79.29405,-61.16457,65.04114,-22.2061,-119.2298,0.001067912,-0.1257102,0.09433498,0,0.3,0,0,0,0
638225082960960647,44.12781,76.65713,57.29419,61.82513,16.82179,-116.8931,52.93923,40.30402,-8.70853,-46.13824,-44.48441,13.26359,0,0,0,99.55309,81.04799,-65.71889,65.04114,-22.2061,-119.2298,0.001067912,-0.1257102,0.09433498,0,0.3,0,0,0,0
638225082961300536,47.6618,76.91429,59.46548,62.63083,18.28669,-127.9531,52.93923,40.30402,-8.70853,-46.13824,-44.48441,13.26359,0,0,0,107.2177,85.48779,-70.65869,65.04114,-22.2061,-119.2298,0.001067912,-0.1257102,0.09433498,0,0.3,0,0,0,0
638225082961635496,49.02828,77.05456,61.23988,62.99706,18.72616,-133.0803,52.93923,40.30402,-8.70853,-46.13824,-44.48441,13.26359,0,0,0,110.819,89.15025,-72.1125,65.04114,-22.2061,-119.2298,0.001067912,-0.1257102,0.09433498,0,0.3,0,0,0,0
638225082962085354,52.82143,77.63902,67.89385,65.04792,19.09239,-142.0162,52.93923,40.30402,-8.70853,-46.13824,-44.48441,13.26359,0,0,0,121.1814,103.4259,-76.43974,65.04114,-22.2061,-119.2298,0.001067912,-0.1257102,0.09433498,0,0.3,0,0,0,0
638225082962425238,53.66959,78.01306,70.29861,66.07335,19.01915,-142.0894,52.93923,40.30402,-8.70853,-46.13824,-44.48441,13.26359,0,0,0,123.4517,108.8376,-77.56478,65.04114,-22.2061,-119.2298,0.001067912,-0.1257102,0.09433498,0,0.3,0,0,0,0
638225082962755138,54.35283,79.22874,75.24824,68.4172,18.35994,-142.1627,52.93923,40.30402,-8.70853,-46.13824,-44.48441,13.26359,0,0,0,125.043,120.3954,-78.67219,65.04114,-22.2061,-119.2298,0.001067912,-0.1257102,0.09433498,0,0.3,0,0,0,0
638225082963105022,54.25859,80.95872,80.15116,70.98078,17.26126,-142.2359,52.93923,40.30402,-8.70853,-46.13824,-44.48441,13.26359,0,0,0,123.6487,132.2337,-79.36384,65.04114,-22.2061,-119.2298,0.001067912,-0.1257102,0.09433498,0,0.3,0,0,0,0
638225082963444920,54.23503,82.45493,82.55593,72.51893,16.6753,-142.2359,52.93923,40.30402,-8.70853,-46.13824,-44.48441,13.26359,0,0,0,121.4988,138.2688,-80.83517,65.04114,-22.2061,-119.2298,0.001067912,-0.1257102,0.09433498,0,0.3,0,0,0,0
638225082963784808,54.02299,87.03706,87.31877,75.88821,14.69768,-142.2359,52.93923,40.30402,-8.70853,-46.13824,-44.48441,13.26359,0,0,0,113.3738,150.2837,-86.04859,65.04114,-22.2061,-119.2298,0.001067912,-0.1257102,0.09433498,0,0.3,0,0,0,0
638225082964124701,52.51515,92.55431,91.8248,79.55046,11.69463,-142.2359,52.93923,40.30402,-8.70853,-46.13824,-44.48441,13.26359,0,0,0,101.0457,160.8138,-90.85737,65.04114,-22.2061,-119.2298,0.001067912,-0.1257102,0.09433498,0,0.3,0,0,0,0
638225082964474589,51.26648,95.31293,93.87936,81.30835,9.717009,-142.2359,52.93923,40.30402,-8.70853,-46.13824,-44.48441,13.26359,0,0,0,94.15133,165.149,-92.83007,65.04114,-22.2061,-119.2298,0.001067912,-0.1257102,0.09433498,0,0.3,0,0,0,0
638225082964814480,47.544,101.0406,97.21802,84.9706,4.882828,-142.2359,52.93923,40.30402,-8.70853,-46.13824,-44.48441,13.26359,0,0,0,78.76423,170.9867,-96.28708,65.04114,-22.2061,-119.2298,0.001067912,-0.1257102,0.09433498,0,0.3,0,0,0,0
638225082965154371,42.45505,101.6718,100.0197,88.99909,-1.782483,-142.1627,52.93923,40.30402,-8.70853,-46.13824,-44.48441,13.26359,0,0,0,70.42985,177.1438,-91.36815,65.04114,-22.2061,-119.2298,0.001067912,-0.1257102,0.09433498,0,0.3,0,0,0,0
638225082965504260,38.6619,101.7653,101.9809,92.51486,-5.517986,-142.1627,52.93923,40.30402,-8.70853,-46.13824,-44.48441,13.26359,0,0,0,64.50565,181.5799,-87.72397,65.04114,-22.2061,-119.2298,0.001067912,-0.1257102,0.09433498,0,0.3,0,0,0,0
638225082965844147,36.80066,101.7419,103.1249,94.63897,-7.422361,-142.2359,52.93923,40.30402,-8.70853,-46.13824,-44.48441,13.26359,0,0,0,61.53822,184.1899,-86.09213,65.04114,-22.2061,-119.2298,0.001067912,-0.1257102,0.09433498,0,0.3,0,0,0,0
638225082966194038,32.55987,101.7186,104.8526,99.61964,-11.30435,-142.1627,52.93923,40.30402,-8.70853,-46.13824,-44.48441,13.26359,0,0,0,54.79248,188.1026,-82.54102,65.04114,-22.2061,-119.2298,0.001067912,-0.1257102,0.09433498,0,0.3,0,0,0,0
638225082966643894,27.98923,101.6718,105.9966,105.4793,-15.40608,-142.2359,52.93923,40.30402,-8.70853,-46.13824,-44.48441,13.26359,0,0,0,47.49796,190.6913,-78.97882,65.04114,-22.2061,-119.2298,0.001067912,-0.1257102,0.09433498,0,0.3,0,0,0,0
638225082966983787,23.23012,101.7186,105.9966,112.2178,-19.80079,-142.2359,52.93923,40.30402,-8.70853,-46.13824,-44.48441,13.26359,0,0,0,39.87734,190.6692,-75.44411,65.04114,-22.2061,-119.2298,0.001067912,-0.1257102,0.09433498,0,0.3,0,0,0,0
638225082967323679,18.82441,101.7186,105.9966,119.2493,-24.41524,-142.2359,52.93923,40.30402,-8.70853,-46.13824,-44.48441,13.26359,0,0,0,32.62262,190.6692,-72.65533,65.04114,-22.2061,-119.2298,0.001067912,-0.1257102,0.09433498,0,0.3,0,0,0,0
638225082967673563,17.03385,101.6952,105.9499,121.3002,-26.90557,-142.2359,52.93923,40.30402,-8.70853,-46.13824,-44.48441,13.26359,0,0,0,29.64098,190.5758,-71.6032,65.04114,-22.2061,-119.2298,0.001067912,-0.1257102,0.09433498,0,0.3,0,0,0,0
638225082968013455,14.20666,101.6952,105.7398,121.5932,-31.1538,-142.0162,52.93923,40.30402,-8.70853,-46.13824,-44.48441,13.26359,0,0,0,24.86575,190.1053,-70.1295,65.04114,-22.2061,-119.2298,0.001067912,-0.1257102,0.09433498,0,0.3,0,0,0,0
638225082968353443,11.30878,101.6718,105.2495,121.5932,-35.25552,-139.5991,52.93923,40.30402,-8.70853,-46.13824,-44.48441,13.26359,0,0,0,19.93855,189.0167,-68.64682,65.04114,-22.2061,-119.2298,0.001067912,-0.1257102,0.09433498,0,0.3,0,0,0,0
638225082968693237,7.986827,101.6718,104.4323,121.5932,-39.13752,-130.2237,52.93923,40.30402,-8.70853,-46.13824,-44.48441,13.26359,0,0,0,14.19528,187.1783,-67.17658,65.04114,-22.2061,-119.2298,0.001067912,-0.1257102,0.09433498,0,0.3,0,0,0,0
638225082969033133,6.573229,101.6718,103.7552,121.6664,-40.96865,-125.3163,52.93923,40.30402,-8.70853,-46.13824,-44.48441,13.26359,0,0,0,11.73899,185.6499,-66.47598,65.04114,-22.2061,-119.2298,0.001067912,-0.1257102,0.09433498,0,0.3,0,0,0,0
638225082969383018,4.499953,101.6718,102.3077,121.5932,-44.70415,-116.7466,52.93923,40.30402,-8.70853,-46.13824,-44.48441,13.26359,0,0,0,8.10535,182.3678,-65.36068,65.04114,-22.2061,-119.2298,0.001067912,-0.1257102,0.09433498,0,0.3,0,0,0,0
638225082969722909,2.897875,101.6718,100.6501,120.8607,-48.21992,-109.715,52.93923,40.30402,-8.70853,-46.13824,-44.48441,13.26359,0,0,0,5.261632,178.5871,-64.40757,65.04114,-22.2061,-119.2298,0.001067912,-0.1257102,0.09433498,0,0.3,0,0,0,0
638225082970062800,2.379556,101.6718,99.69283,119.3958,-49.68482,-106.1993,52.93923,40.30402,-8.70853,-46.13824,-44.48441,13.26359,0,0,0,4.337462,176.3943,-63.97114,65.04114,-22.2061,-119.2298,0.001067912,-0.1257102,0.09433498,0,0.3,0,0,0,0
638225082970402690,2.191077,101.6718,97.96513,113.9757,-52.46814,-97.99583,52.93923,40.30402,-8.70853,-46.13824,-44.48441,13.26359,0,0,0,4.01767,172.421,-63.34074,65.04114,-22.2061,-119.2298,0.001067912,-0.1257102,0.09433498,0,0.3,0,0,0,0
638225082970742587,2.756516,101.6952,96.37752,104.3073,-54.44576,-88.25421,52.93923,40.30402,-8.70853,-46.13824,-44.48441,13.26359,0,0,0,5.07339,168.744,-62.978,65.04114,-22.2061,-119.2298,0.001067912,-0.1257102,0.09433498,0,0.3,0,0,0,0
638225082971162451,5.088952,101.6718,94.32295,86.80173,-55.83742,-70.52889,52.93923,40.30402,-8.70853,-46.13824,-44.48441,13.26359,0,0,0,9.401833,163.9943,-62.77461,65.04114,-22.2061,-119.2298,0.001067912,-0.1257102,0.09433498,0,0.3,0,0,0,0
638225082971492348,7.939706,101.6484,91.87149,71.42025,-55.47119,-53.97548,52.93923,40.30402,-8.70853,-46.13824,-44.48441,13.26359,0,0,0,14.69088,158.3086,-63.01479,65.04114,-22.2061,-119.2298,0.001067912,-0.1257102,0.09433498,0,0.3,0,0,0,0
638225082971832236,10.03654,101.625,89.56011,61.38566,-53.78655,-43.28168,52.93923,40.30402,-8.70853,-46.13824,-44.48441,13.26359,0,0,0,18.5561,152.9408,-63.50419,65.04114,-22.2061,-119.2298,0.001067912,-0.1257102,0.09433498,0,0.3,0,0,0,0
638225082972172126,14.13598,101.1575,83.58321,42.12218,-46.38879,-25.19013,52.93923,40.30402,-8.70853,-46.13824,-44.48441,13.26359,0,0,0,26.06126,139.2763,-64.8708,65.04114,-22.2061,-119.2298,0.001067912,-0.1257102,0.09433498,0,0.3,0,0,0,0
638225082972502021,17.05741,99.89507,78.82037,26.37447,-36.06122,-14.05686,52.93923,40.30402,-8.70853,-46.13824,-44.48441,13.26359,0,0,0,31.6515,128.8617,-65.19241,65.04114,-22.2061,-119.2298,0.001067912,-0.1257102,0.09433498,0,0.3,0,0,0,0
638225082972851909,18.35321,99.24047,76.8592,18.97671,-30.27485,-11.2003,52.93923,40.30402,-8.70853,-46.13824,-44.48441,13.26359,0,0,0,34.14651,124.6531,-65.42122,65.04114,-22.2061,-119.2298,0.001067912,-0.1257102,0.09433498,0,0.3,0,0,0,0
638225082973181805,21.01549,98.07156,73.21703,4.474167,-18.48238,-9.295925,52.93923,40.30402,-8.70853,-46.13824,-44.48441,13.26359,0,0,0,39.07037,116.8745,-66.65038,65.04114,-22.2061,-119.2298,0.001067912,-0.1257102,0.09433498,0,0.3,0,0,0,0
638225082973521697,24.33744,98.07156,70.08849,-9.955132,-8.154812,-11.85951,52.93923,40.30402,-8.70853,-46.13824,-44.48441,13.26359,0,0,0,43.95343,109.9642,-71.1733,65.04114,-22.2061,-119.2298,0.001067912,-0.1257102,0.09433498,0,0.3,0,0,0,0
638225082973861589,26.69344,98.32872,68.47753,-17.42614,-3.906592,-15.00905,52.93923,40.30402,-8.70853,-46.13824,-44.48441,13.26359,0,0,0,47.04914,106.372,-74.7765,65.04114,-22.2061,-119.2298,0.001067912,-0.1257102,0.09433498,0,0.3,0,0,0,0
638225082974201478,33.78498,98.25859,64.20498,-32.07517,1.000834,-25.04364,52.93923,40.30402,-8.70853,-46.13824,-44.48441,13.26359,0,0,0,56.11272,97.28951,-84.48228,65.04114,-22.2061,-119.2298,0.001067912,-0.1257102,0.09433498,0,0.3,0,0,0,0
638225082974551380,37.9551,97.46373,60.2126,-37.86154,1.66004,-33.10061,52.93923,40.30402,-8.70853,-46.13824,-44.48441,13.26359,0,0,0,60.52591,89.32413,-90.7551,65.04114,-22.2061,-119.2298,0.001067912,-0.1257102,0.09433498,0,0.3,0,0,0,0
638225082974891259,41.15925,95.40645,54.30574,-43.06195,0.9275885,-44.38036,52.93923,40.30402,-8.70853,-46.13824,-44.48441,13.26359,0,0,0,63.00829,78.30241,-96.27284,65.04114,-22.2061,-119.2298,0.001067912,-0.1257102,0.09433498,0,0.3,0,0,0,0
638225082975231149,41.96029,93.7466,50.99043,-45.69878,-0.3175794,-50.45971,52.93923,40.30402,-8.70853,-46.13824,-44.48441,13.26359,0,0,0,63.45481,72.47782,-97.778,65.04114,-22.2061,-119.2298,0.001067912,-0.1257102,0.09433498,0,0.3,0,0,0,0
638225082975561045,42.94981,89.21123,43.61269,-51.48514,-4.639044,-63.64384,52.93923,40.30402,-8.70853,-46.13824,-44.48441,13.26359,0,0,0,63.92352,60.13942,-99.67991,65.04114,-22.2061,-119.2298,0.001067912,-0.1257102,0.09433498,0,0.3,0,0,0,0
638225082975900933,44.55189,82.61857,34.69404,-54.85442,-11.08462,-81.29592,52.93923,40.30402,-8.70853,-46.13824,-44.48441,13.26359,0,0,0,65.26849,45.9541,-102.0525,65.04114,-22.2061,-119.2298,0.001067912,-0.1257102,0.09433498,0,0.3,0,0,0,0
638225082976240828,45.14088,78.01306,30.18801,-54.26846,-14.01443,-91.69674,52.93923,40.30402,-8.70853,-46.13824,-44.48441,13.26359,0,0,0,67.16212,38.52723,-101.5174,65.04114,-22.2061,-119.2298,0.001067912,-0.1257102,0.09433498,0,0.3,0,0,0,0
638225082976570721,45.04665,67.63314,21.19932,-50.75269,-16.13853,-116.2339,52.93923,40.30402,-8.70853,-46.13824,-44.48441,13.26359,0,0,0,70.03617,22.34163,-98.42777,65.04114,-22.2061,-119.2298,0.001067912,-0.1257102,0.09433498,0,0.3,0,0,0,0
638225082976910614,43.96289,57.18309,17.16024,-47.96938,-11.3776,-140.9907,52.93923,40.30402,-8.70853,-46.13824,-44.48441,13.26359,0,0,0,77.48167,8.004522,-88.0113,65.04114,-22.2061,-119.2298,0.001067912,-0.1257102,0.09433498,0,0.3,0,0,0,0
638225082977250503,42.87913,50.7307,17.74392,-49.1413,-5.078516,-142.1627,52.93923,40.30402,-8.70853,-46.13824,-44.48441,13.26359,0,0,0,85.0882,-0.4194578,-76.71729,65.04114,-22.2061,-119.2298,0.001067912,-0.1257102,0.09433498,0,0.3,0,0,0,0
638225082977600393,42.85557,47.06033,18.14083,-51.99786,1.147324,-142.2359,52.93923,40.30402,-8.70853,-46.13824,-44.48441,13.26359,0,0,0,90.02551,-5.75001,-71.32023,65.04114,-22.2061,-119.2298,0.001067912,-0.1257102,0.09433498,0,0.3,0,0,0,0
638225082977935369,43.51525,45.51736,19.91522,-53.82899,7.519653,-142.2359,52.93923,40.30402,-8.70853,-46.13824,-44.48441,13.26359,0,0,0,95.61195,-6.885098,-67.64971,65.04114,-22.2061,-119.2298,0.001067912,-0.1257102,0.09433498,0,0.3,0,0,0,0
638225082978275259,44.12781,45.0498,22.97371,-53.90223,9.131048,-142.0894,52.93923,40.30402,-8.70853,-46.13824,-44.48441,13.26359,0,0,0,101.834,-5.048612,-63.36743,65.04114,-22.2061,-119.2298,0.001067912,-0.1257102,0.09433498,0,0.3,0,0,0,0
638225082978705122,44.81104,43.78737,24.67806,-52.73031,7.666144,-142.1627,52.93923,40.30402,-8.70853,-46.13824,-44.48441,13.26359,0,0,0,107.0852,-5.544813,-60.55616,65.04114,-22.2061,-119.2298,0.001067912,-0.1257102,0.09433498,0,0.3,0,0,0,0
638225082979045012,44.97597,43.03927,25.1917,-51.63163,6.640712,-142.1627,52.93923,40.30402,-8.70853,-46.13824,-44.48441,13.26359,0,0,0,109.007,-6.305605,-59.25154,65.04114,-22.2061,-119.2298,0.001067912,-0.1257102,0.09433498,0,0.3,0,0,0,0
638225082979384903,44.90529,40.93523,26.40576,-48.55533,3.78415,-142.1627,52.93923,40.30402,-8.70853,-46.13824,-44.48441,13.26359,0,0,0,112.9806,-8.715551,-54.99527,65.04114,-22.2061,-119.2298,0.001067912,-0.1257102,0.09433498,0,0.3,0,0,0,0
638225082979734791,44.64613,38.43377,26.70927,-45.91851,1.806531,-142.2359,52.93923,40.30402,-8.70853,-46.13824,-44.48441,13.26359,0,0,0,115.523,-12.87975,-51.39111,65.04114,-22.2061,-119.2298,0.001067912,-0.1257102,0.09433498,0,0.3,0,0,0,0
638225082980074682,44.64613,37.17134,26.66258,-44.96632,1.293814,-142.1627,52.93923,40.30402,-8.70853,-46.13824,-44.48441,13.26359,0,0,0,116.7203,-15.25003,-50.17894,65.04114,-22.2061,-119.2298,0.001067912,-0.1257102,0.09433498,0,0.3,0,0,0,0
638225082980414574,44.64613,34.74001,26.40576,-43.35493,1.51355,-140.0385,52.93923,40.30402,-8.70853,-46.13824,-44.48441,13.26359,0,0,0,118.6792,-20.09724,-48.19572,65.04114,-22.2061,-119.2298,0.001067912,-0.1257102,0.09433498,0,0.3,0,0,0,0
638225082980754464,44.62257,32.75286,26.24233,-41.30406,2.099511,-130.0772,52.93923,40.30402,-8.70853,-46.13824,-44.48441,13.26359,0,0,0,120.1949,-24.11133,-46.56104,65.04114,-22.2061,-119.2298,0.001067912,-0.1257102,0.09433498,0,0.3,0,0,0,0
638225082981104356,44.59901,31.2099,26.14894,-38.88697,2.685472,-122.6062,52.93923,40.30402,-8.70853,-46.13824,-44.48441,13.26359,0,0,0,121.3433,-27.25321,-45.29624,65.04114,-22.2061,-119.2298,0.001067912,-0.1257102,0.09433498,0,0.3,0,0,0,0
638225082981444248,44.59901,30.57869,26.0322,-37.6418,2.905208,-119.6764,52.93923,40.30402,-8.70853,-46.13824,-44.48441,13.26359,0,0,0,121.7016,-28.63334,-44.93289,65.04114,-22.2061,-119.2298,0.001067912,-0.1257102,0.09433498,0,0.3,0,0,0,0
638225082981784139,44.50476,29.59681,25.30844,-35.00498,3.344679,-114.2563,52.93923,40.30402,-8.70853,-46.13824,-44.48441,13.26359,0,0,0,121.2372,-31.34033,-44.99861,65.04114,-22.2061,-119.2298,0.001067912,-0.1257102,0.09433498,0,0.3,0,0,0,0
638225082982124027,44.33985,29.03573,24.44459,-32.80762,3.63766,-111.5462,52.93923,40.30402,-8.70853,-46.13824,-44.48441,13.26359,0,0,0,120.0538,-33.32468,-45.49737,65.04114,-22.2061,-119.2298,0.001067912,-0.1257102,0.09433498,0,0.3,0,0,0,0
638225082982463921,44.15137,28.68506,23.93095,-31.6357,3.93064,-109.2756,52.93923,40.30402,-8.70853,-46.13824,-44.48441,13.26359,0,0,0,119.1638,-34.52927,-45.60289,65.04114,-22.2061,-119.2298,0.001067912,-0.1257102,0.09433498,0,0.3,0,0,0,0
638225082982803825,43.70373,27.8902,23.13714,-29.58484,4.956073,-102.7568,52.93923,40.30402,-8.70853,-46.13824,-44.48441,13.26359,0,0,0,117.6366,-36.89598,-45.26637,65.04114,-22.2061,-119.2298,0.001067912,-0.1257102,0.09433498,0,0.3,0,0,0,0
638225082983253663,43.09117,26.97845,22.67019,-28.04669,7.006938,-94.91953,52.93923,40.30402,-8.70853,-46.13824,-44.48441,13.26359,0,0,0,116.298,-39.20227,-44.03286,65.04114,-22.2061,-119.2298,0.001067912,-0.1257102,0.09433498,0,0.3,0,0,0,0
638225082983563566,42.61997,26.09007,22.13321,-27.0945,10.44946,-91.11078,52.93923,40.30402,-8.70853,-46.13824,-44.48441,13.26359,0,0,0,115.1147,-41.52835,-43.25122,65.04114,-22.2061,-119.2298,0.001067912,-0.1257102,0.09433498,0,0.3,0,0,0,0
