zeyangz2/DNN_classification_different_people_hand/data_by_names/Srikar/srikar_right_2.csv
Timestamp,Therapist joint angle 0,Therapist joint angle 1,Therapist joint angle 2,Therapist joint angle 3,Therapist joint angle 4,Therapist joint angle 5,Patient joint angle 0,Patient joint angle 1,Patient joint angle 2,Patient joint angle 3,Patient joint angle 4,Patient joint angle 5,Virtual joint angle 0,Virtual joint angle 1,Virtual joint angle 2,Therapist position x,Therapist position y,Therapist position z,Patient position x,Patient position y,Patient position z,Virtual position x,Virtual position y,Virtual position z,Assistive Force, Obstacle Force Magnitude, Therapist Constant Force, Patient Constant Force, Recovery Factor, Assistance Level
638224432481386682,0,0,0,0,0,0,0,0,0,0,0,0,0,0,0,0,0,0,0,0,0,0,0,0,0,0.3,0,0,0,0
638224432481506759,-4.052313,-1.075397,-1.214058,114.6349,-61.18431,68.78342,-56.82663,-0.4675641,5.626691,-70.23591,-8.447793,-36.83611,0,0,0,-9.222157,-112.4728,-38.17513,-122.5563,-110.4457,-88.2327,0.001067912,-0.1257102,0.09433498,0,0.3,0,0,0,0
638224432481846526,-4.052313,-1.075397,-1.214058,114.6349,-61.18431,68.78342,-56.82663,-0.4675641,5.626691,-70.23591,-8.447793,-36.83611,0,0,0,-9.222157,-112.4728,-38.17513,-122.5563,-110.4457,-88.2327,0.001067912,-0.1257102,0.09433498,0,0.3,0,0,0,0
638224432482186605,-4.052313,-1.075397,-1.214058,114.7082,-61.18431,68.78342,-56.82663,-0.4675641,5.626691,-70.23591,-8.447793,-36.83611,0,0,0,-9.222157,-112.4728,-38.17513,-122.5563,-110.4457,-88.2327,0.001067912,-0.1257102,0.09433498,0,0.3,0,0,0,0
638224432482526307,-4.052313,-1.075397,-1.214058,114.6349,-61.25756,68.71018,-56.82663,-0.4675641,5.626691,-70.23591,-8.447793,-36.83611,0,0,0,-9.222157,-112.4728,-38.17513,-122.5563,-110.4457,-88.2327,0.001067912,-0.1257102,0.09433498,0,0.3,0,0,0,0
638224432482866202,-4.052313,-1.075397,-1.214058,114.6349,-61.18431,68.71018,-56.82663,-0.4675641,5.626691,-70.23591,-8.447793,-36.90935,0,0,0,-9.222157,-112.4728,-38.17513,-122.5563,-110.4457,-88.2327,0.001067912,-0.1257102,0.09433498,0,0.3,0,0,0,0
638224432483206092,-4.052313,-1.075397,-1.237405,114.5617,-61.18431,68.71018,-56.82663,-0.4675641,5.626691,-70.23591,-8.447793,-36.83611,0,0,0,-9.218318,-112.4716,-38.22932,-122.5563,-110.4457,-88.2327,0.001067912,-0.1257102,0.09433498,0,0.3,0,0,0,0
638224432483545994,-4.052313,-1.075397,-1.260752,114.6349,-61.18431,68.78342,-56.82663,-0.4675641,5.626691,-70.16266,-8.447793,-36.90935,0,0,0,-9.214479,-112.4704,-38.28351,-122.5563,-110.4457,-88.2327,0.001067912,-0.1257102,0.09433498,0,0.3,0,0,0,0
638224432483915857,-4.052313,-1.075397,-1.260752,114.6349,-61.25756,68.78342,-56.82663,-0.4675641,5.626691,-70.23591,-8.447793,-36.83611,0,0,0,-9.214479,-112.4704,-38.28351,-122.5563,-110.4457,-88.2327,0.001067912,-0.1257102,0.09433498,0,0.3,0,0,0,0
638224432484255755,-4.052313,-1.075397,-1.2841,114.5617,-61.25756,68.78342,-56.82663,-0.4675641,5.626691,-70.23591,-8.447793,-36.83611,0,0,0,-9.21064,-112.4692,-38.3377,-122.5563,-110.4457,-88.2327,0.001067912,-0.1257102,0.09433498,0,0.3,0,0,0,0
638224432484605649,-4.052313,-1.075397,-1.2841,114.5617,-61.18431,68.78342,-56.82663,-0.4675641,5.626691,-70.23591,-8.521038,-36.90935,0,0,0,-9.21064,-112.4692,-38.3377,-122.5563,-110.4457,-88.2327,0.001067912,-0.1257102,0.09433498,0,0.3,0,0,0,0
638224432484945539,-4.052313,-1.075397,-1.307447,114.6349,-61.18431,68.71018,-56.82663,-0.4675641,5.626691,-70.23591,-8.447793,-36.83611,0,0,0,-9.206801,-112.468,-38.39189,-122.5563,-110.4457,-88.2327,0.001067912,-0.1257102,0.09433498,0,0.3,0,0,0,0
638224432485275427,-4.028753,-1.075397,-1.330794,114.6349,-61.18431,68.78342,-56.82663,-0.4675641,5.626691,-70.23591,-8.447793,-36.83611,0,0,0,-9.149545,-112.4668,-38.4423,-122.5563,-110.4457,-88.2327,0.001067912,-0.1257102,0.09433498,0,0.3,0,0,0,0
638224432485624028,-3.910954,-1.075397,-1.330794,114.7082,-61.18431,68.78342,-56.82663,-0.4675641,5.626691,-70.23591,-8.447793,-36.83611,0,0,0,-8.882437,-112.4668,-38.42377,-122.5563,-110.4457,-88.2327,0.001067912,-0.1257102,0.09433498,0,0.3,0,0,0,0
638224432485963917,-3.698914,-1.075397,-1.330794,114.6349,-61.25756,68.78342,-56.82663,-0.4675641,5.626691,-70.23591,-8.447793,-36.90935,0,0,0,-8.401547,-112.4668,-38.39178,-122.5563,-110.4457,-88.2327,0.001067912,-0.1257102,0.09433498,0,0.3,0,0,0,0
638224432486303826,-3.039235,-1.075397,-1.354141,114.7082,-61.25756,68.71018,-56.82663,-0.4675641,5.626691,-70.23591,-8.447793,-36.83611,0,0,0,-6.90186,-112.4655,-38.35791,-122.5563,-110.4457,-88.2327,0.001067912,-0.1257102,0.09433498,0,0.3,0,0,0,0
638224432486633699,-2.332436,-1.075397,-1.354141,114.7082,-61.25756,68.71018,-56.82663,-0.4675641,5.626691,-70.23591,-8.447793,-36.90935,0,0,0,-5.297798,-112.4655,-38.28267,-122.5563,-110.4457,-88.2327,0.001067912,-0.1257102,0.09433498,0,0.3,0,0,0,0
638224432486973602,-0.4005193,-0.9117499,-1.260752,114.6349,-61.18431,68.63693,-56.82663,-0.4675641,5.626691,-70.23591,-8.447793,-36.90935,0,0,0,-0.9115319,-112.0896,-37.9541,-122.5563,-110.4457,-88.2327,0.001067912,-0.1257102,0.09433498,0,0.3,0,0,0,0
638224432487313493,1.649197,-0.4909423,-0.9572379,114.6349,-61.25756,69.14965,-56.82663,-0.4675641,5.626691,-70.23591,-8.447793,-36.90935,0,0,0,3.77355,-111.124,-37.28698,-122.5563,-110.4457,-88.2327,0.001067912,-0.1257102,0.09433498,0,0.3,0,0,0,0
638224432487653376,2.874315,-0.09351282,-0.7237652,114.6349,-61.18431,69.8821,-56.82663,-0.4675641,5.626691,-70.23591,-8.521038,-36.83611,0,0,0,6.60239,-110.207,-36.85027,-122.5563,-110.4457,-88.2327,0.001067912,-0.1257102,0.09433498,0,0.3,0,0,0,0
638224432487993270,5.324551,1.285801,-0.1400836,114.6349,-61.18431,72.22594,-56.82663,-0.4675641,5.626691,-70.23591,-8.447793,-36.83611,0,0,0,12.34114,-107.0073,-35.93346,-122.5563,-110.4457,-88.2327,0.001067912,-0.1257102,0.09433498,0,0.3,0,0,0,0
638224432488433130,8.057507,3.787269,0.4202508,114.7082,-61.18431,75.44874,-56.82663,-0.4675641,5.626691,-70.23591,-8.447793,-36.90935,0,0,0,18.78754,-101.1884,-35.63636,-122.5563,-110.4457,-88.2327,0.001067912,-0.1257102,0.09433498,0,0.3,0,0,0,0
638224432488773020,11.30878,6.475762,1.377489,114.4884,-61.25756,78.89126,-56.82663,-0.4675641,5.626691,-70.23591,-8.447793,-36.83611,0,0,0,26.61123,-94.92187,-35.27993,-122.5563,-110.4457,-88.2327,0.001067912,-0.1257102,0.09433498,0,0.3,0,0,0,0
638224432489112911,14.93702,8.836961,2.848366,112.6573,-61.25756,83.6522,-56.82663,-0.4675641,5.626691,-70.23591,-8.447793,-36.83611,0,0,0,35.67193,-89.34959,-34.63274,-122.5563,-110.4457,-88.2327,0.001067912,-0.1257102,0.09433498,0,0.3,0,0,0,0
638224432489452931,16.72757,9.748712,3.735562,110.8994,-61.25756,86.65524,-56.82663,-0.4675641,5.626691,-70.23591,-8.447793,-36.83611,0,0,0,40.32735,-87.13688,-34.1666,-122.5563,-110.4457,-88.2327,0.001067912,-0.1257102,0.09433498,0,0.3,0,0,0,0
638224432489792684,19.97885,11.50208,5.556649,104.6736,-61.18431,95.66441,-56.82663,-0.4675641,5.626691,-70.23591,-8.447793,-36.83611,0,0,0,49.05889,-82.78294,-33.40681,-122.5563,-110.4457,-88.2327,0.001067912,-0.1257102,0.09433498,0,0.3,0,0,0,0
638224432490132578,22.57044,13.16193,7.307694,95.22493,-61.25756,110.5332,-56.82663,-0.4675641,5.626691,-70.23591,-8.447793,-36.90935,0,0,0,56.348,-78.55254,-32.78555,-122.5563,-110.4457,-88.2327,0.001067912,-0.1257102,0.09433498,0,0.3,0,0,0,0
638224432490462482,23.70132,14.07368,8.124848,89.87803,-61.18431,120.5678,-56.82663,-0.4675641,5.626691,-70.23591,-8.447793,-36.83611,0,0,0,59.56929,-76.23485,-32.65588,-122.5563,-110.4457,-88.2327,0.001067912,-0.1257102,0.09433498,0,0.3,0,0,0,0
638224432490812360,25.39764,15.99069,9.549031,79.98994,-61.18431,140.7102,-56.82663,-0.4675641,5.626691,-70.23591,-8.521038,-36.90935,0,0,0,64.46844,-71.41689,-32.56533,-122.5563,-110.4457,-88.2327,0.001067912,-0.1257102,0.09433498,0,0.3,0,0,0,0
638224432491152250,26.57564,18.35189,11.15999,70.6878,-60.89133,144.8119,-56.82663,-0.4675641,5.626691,-70.23591,-8.447793,-36.83611,0,0,0,68.17056,-65.49289,-32.07182,-122.5563,-110.4457,-88.2327,0.001067912,-0.1257102,0.09433498,0,0.3,0,0,0,0
638224432491492161,27.16464,21.29754,13.26125,65.78037,-60.08564,144.8852,-56.82663,-0.4675641,5.626691,-70.23591,-8.447793,-36.90935,0,0,0,70.68858,-58.0099,-30.59582,-122.5563,-110.4457,-88.2327,0.001067912,-0.1257102,0.09433498,0,0.3,0,0,0,0
638224432491832033,27.25887,22.74699,14.33522,64.38871,-59.71941,144.8852,-56.82663,-0.4675641,5.626691,-70.23591,-8.447793,-36.83611,0,0,0,71.4475,-54.28653,-29.67888,-122.5563,-110.4457,-88.2327,0.001067912,-0.1257102,0.09433498,0,0.3,0,0,0,0
638224432492171931,27.28243,25.71602,16.85673,61.82513,-58.98696,144.9584,-56.82663,-0.4675641,5.626691,-70.23591,-8.447793,-36.83611,0,0,0,72.79542,-46.40829,-27.20531,-122.5563,-110.4457,-88.2327,0.001067912,-0.1257102,0.09433498,0,0.3,0,0,0,0
638224432492511829,27.37668,28.28763,18.88794,58.89533,-57.81504,144.8119,-56.82663,-0.4675641,5.626691,-70.23591,-8.447793,-36.83611,0,0,0,73.84688,-39.62527,-25.74287,-122.5563,-110.4457,-88.2327,0.001067912,-0.1257102,0.09433498,0,0.3,0,0,0,0
638224432492951679,28.05991,30.48518,19.6584,53.76817,-55.10497,144.9584,-56.82663,-0.4675641,5.626691,-70.23591,-8.447793,-36.90935,0,0,0,75.15788,-34.57719,-27.35447,-122.5563,-110.4457,-88.2327,0.001067912,-0.1257102,0.09433498,0,0.3,0,0,0,0
638224432493291569,28.48399,31.09301,19.42492,51.7173,-53.56682,144.9584,-56.82663,-0.4675641,5.626691,-70.23591,-8.447793,-36.83611,0,0,0,75.60983,-33.54367,-29.00119,-122.5563,-110.4457,-88.2327,0.001067912,-0.1257102,0.09433498,0,0.3,0,0,0,0
638224432493623173,29.80335,32.42557,18.8179,46.59014,-47.78045,144.9584,-56.82663,-0.4675641,5.626691,-70.23591,-8.447793,-36.90935,0,0,0,77.32352,-31.36951,-33.35383,-122.5563,-110.4457,-88.2327,0.001067912,-0.1257102,0.09433498,0,0.3,0,0,0,0
638224432493963064,31.00491,32.98664,18.91129,43.88007,-40.52918,144.2992,-56.82663,-0.4675641,5.626691,-70.23591,-8.447793,-36.90935,0,0,0,79.87983,-30.20043,-35.43344,-122.5563,-110.4457,-88.2327,0.001067912,-0.1257102,0.09433498,0,0.3,0,0,0,0
638224432494312951,31.68815,32.86975,19.35488,43.51384,-32.76519,135.583,-56.82663,-0.4675641,5.626691,-70.23591,-8.447793,-36.83611,0,0,0,82.04916,-30.09038,-35.43959,-122.5563,-110.4457,-88.2327,0.001067912,-0.1257102,0.09433498,0,0.3,0,0,0,0
638224432494652843,31.71171,32.86975,19.79848,43.88007,-29.17617,131.0418,-56.82663,-0.4675641,5.626691,-70.23591,-8.521038,-36.83611,0,0,0,82.61513,-29.74445,-34.64583,-122.5563,-110.4457,-88.2327,0.001067912,-0.1257102,0.09433498,0,0.3,0,0,0,0
638224432495002733,31.59391,32.89313,21.3394,44.53928,-21.9249,123.2046,-56.82663,-0.4675641,5.626691,-70.23591,-8.447793,-36.83611,0,0,0,84.08361,-28.4388,-31.64147,-122.5563,-110.4457,-88.2327,0.001067912,-0.1257102,0.09433498,0,0.3,0,0,0,0
638224432495342623,31.42899,33.17367,23.58074,45.19848,-15.84556,116.3195,-56.82663,-0.4675641,5.626691,-70.23591,-8.447793,-36.83611,0,0,0,86.01777,-25.89864,-27.59046,-122.5563,-110.4457,-88.2327,0.001067912,-0.1257102,0.09433498,0,0.3,0,0,0,0
638224432495682522,31.33475,33.64123,24.98158,45.5647,-13.28197,113.17,-56.82663,-0.4675641,5.626691,-70.23591,-8.447793,-36.83611,0,0,0,87.02,-23.64958,-25.42257,-122.5563,-110.4457,-88.2327,0.001067912,-0.1257102,0.09433498,0,0.3,0,0,0,0
638224432496022406,31.42899,36.75054,29.37086,46.29716,-8.374548,105.7722,-56.82663,-0.4675641,5.626691,-70.23591,-8.447793,-36.90935,0,0,0,89.81796,-13.07206,-21.37183,-122.5563,-110.4457,-88.2327,0.001067912,-0.1257102,0.09433498,0,0.3,0,0,0,0
638224432496362302,31.59391,40.3274,32.8963,46.95637,-6.909645,100.6451,-56.82663,-0.4675641,5.626691,-70.23591,-8.447793,-36.83611,0,0,0,91.20265,-2.319946,-20.06687,-122.5563,-110.4457,-88.2327,0.001067912,-0.1257102,0.09433498,0,0.3,0,0,0,0
638224432496702189,31.85307,45.51736,38.0327,48.12829,-7.056135,94.05301,-56.82663,-0.4675641,5.626691,-70.23591,-8.447793,-36.83611,0,0,0,92.66943,13.4559,-19.19815,-122.5563,-110.4457,-88.2327,0.001067912,-0.1257102,0.09433498,0,0.3,0,0,0,0
638224432497042084,31.97087,48.18248,40.83437,48.86074,-7.568851,90.97672,-56.82663,-0.4675641,5.626691,-70.23591,-8.447793,-36.83611,0,0,0,93.24637,21.83903,-18.95564,-122.5563,-110.4457,-88.2327,0.001067912,-0.1257102,0.09433498,0,0.3,0,0,0,0
638224432497471943,32.13579,53.81662,47.06809,50.83836,-9.546471,84.3114,-56.82663,-0.4675641,5.626691,-70.23591,-8.447793,-36.83611,0,0,0,93.81078,40.15248,-19.01009,-122.5563,-110.4457,-88.2327,0.001067912,-0.1257102,0.09433498,0,0.3,0,0,0,0
638224432497831830,31.94731,59.3105,54.189,53.76817,-12.32979,76.47417,-56.82663,-0.4675641,5.626691,-70.23591,-8.447793,-36.90935,0,0,0,93.23445,59.99891,-18.83789,-122.5563,-110.4457,-88.2327,0.001067912,-0.1257102,0.09433498,0,0.3,0,0,0,0
638224432498171722,31.35831,63.7056,60.51611,57.50367,-15.47933,68.05097,-56.82663,-0.4675641,5.626691,-70.23591,-8.447793,-36.90935,0,0,0,91.14719,77.2702,-18.7823,-122.5563,-110.4457,-88.2327,0.001067912,-0.1257102,0.09433498,0,0.3,0,0,0,0
638224432498511613,30.29811,67.16558,65.88599,61.75189,-18.26265,58.67559,-56.82663,-0.4675641,5.626691,-70.23591,-8.447793,-36.90935,0,0,0,87.51151,91.76874,-18.58065,-122.5563,-110.4457,-88.2327,0.001067912,-0.1257102,0.09433498,0,0.3,0,0,0,0
638224432498841511,29.73267,68.47475,67.75376,63.65627,-19.43457,54.7936,-56.82663,-0.4675641,5.626691,-70.23591,-8.447793,-36.90935,0,0,0,85.47852,96.91496,-18.68856,-122.5563,-110.4457,-88.2327,0.001067912,-0.1257102,0.09433498,0,0.3,0,0,0,0
638224432499181398,27.91855,71.16325,70.90565,67.24528,-21.85166,47.61557,-56.82663,-0.4675641,5.626691,-70.23591,-8.447793,-36.90935,0,0,0,79.16049,105.936,-18.95885,-122.5563,-110.4457,-88.2327,0.001067912,-0.1257102,0.09433498,0,0.3,0,0,0,0
638224432499531287,25.11492,73.96864,73.07694,69.58913,-24.342,43.36735,-56.82663,-0.4675641,5.626691,-70.23591,-8.447793,-36.90935,0,0,0,69.77795,112.6976,-19.49094,-122.5563,-110.4457,-88.2327,0.001067912,-0.1257102,0.09433498,0,0.3,0,0,0,0
638224432499871187,23.32436,75.41808,74.15092,70.98078,-25.88014,41.38973,-56.82663,-0.4675641,5.626691,-70.23591,-8.447793,-36.90935,0,0,0,64.08356,115.9861,-19.72362,-122.5563,-110.4457,-88.2327,0.001067912,-0.1257102,0.09433498,0,0.3,0,0,0,0
638224432500211086,18.54169,78.17671,75.78522,74.71628,-29.46916,36.6288,-56.82663,-0.4675641,5.626691,-70.23591,-8.447793,-36.83611,0,0,0,49.79468,121.1258,-19.88848,-122.5563,-110.4457,-88.2327,0.001067912,-0.1257102,0.09433498,0,0.3,0,0,0,0
638224432500560964,12.4161,80.49116,76.60238,79.84344,-34.30334,29.89024,-56.82663,-0.4675641,5.626691,-70.23591,-8.447793,-36.90935,0,0,0,32.6278,123.9696,-20.1488,-122.5563,-110.4457,-88.2327,0.001067912,-0.1257102,0.09433498,0,0.3,0,0,0,0
638224432500900854,5.324551,81.94061,76.71912,88.48637,-40.38269,20.51486,-56.82663,-0.4675641,5.626691,-70.23591,-8.447793,-36.90935,0,0,0,13.77847,124.7491,-20.51143,-122.5563,-110.4457,-88.2327,0.001067912,-0.1257102,0.09433498,0,0.3,0,0,0,0
638224432501230748,2.002597,82.15101,76.71912,96.54334,-43.67872,14.582,-56.82663,-0.4675641,5.626691,-70.23591,-8.447793,-36.83611,0,0,0,5.171628,124.8169,-20.44612,-122.5563,-110.4457,-88.2327,0.001067912,-0.1257102,0.09433498,0,0.3,0,0,0,0
638224432501580638,-2.473796,81.89384,75.1315,113.17,-49.61158,0.299192,-56.82663,-0.4675641,5.626691,-70.23591,-8.447793,-36.83611,0,0,0,-6.374598,121.1498,-20.79919,-122.5563,-110.4457,-88.2327,0.001067912,-0.1257102,0.09433498,0,0.3,0,0,0,0
638224432502000499,-5.418791,81.00548,73.40381,113.9757,-55.39795,-9.22268,-56.82663,-0.4675641,5.626691,-70.23591,-8.447793,-36.83611,0,0,0,-14.03706,116.9722,-20.37148,-122.5563,-110.4457,-88.2327,0.001067912,-0.1257102,0.09433498,0,0.3,0,0,0,0
638224432502330398,-6.620349,80.56129,72.65669,114.0489,-57.5953,-12.07924,-56.82663,-0.4675641,5.626691,-70.23591,-8.447793,-36.83611,0,0,0,-17.19616,115.1435,-20.18885,-122.5563,-110.4457,-88.2327,0.001067912,-0.1257102,0.09433498,0,0.3,0,0,0,0
638224432502670288,-7.327148,80.30412,72.32983,114.0489,-58.76722,-13.32441,-56.82663,-0.4675641,5.626691,-70.23591,-8.447793,-36.83611,0,0,0,-19.0686,114.3185,-20.05385,-122.5563,-110.4457,-88.2327,0.001067912,-0.1257102,0.09433498,0,0.3,0,0,0,0
638224432503010190,-8.316667,79.81319,72.25979,113.9757,-60.15888,-14.78931,-56.82663,-0.4675641,5.626691,-70.23591,-8.447793,-36.83611,0,0,0,-21.78237,113.966,-19.3407,-122.5563,-110.4457,-88.2327,0.001067912,-0.1257102,0.09433498,0,0.3,0,0,0,0
638224432503350079,-9.282625,79.08846,72.35318,114.0489,-60.81809,-15.15554,-56.82663,-0.4675641,5.626691,-70.23591,-8.447793,-36.83611,0,0,0,-24.56946,113.8642,-18.02741,-122.5563,-110.4457,-88.2327,0.001067912,-0.1257102,0.09433498,0,0.3,0,0,0,0
638224432503680713,-9.824504,78.57414,72.58665,113.9757,-60.96458,-15.15554,-56.82663,-0.4675641,5.626691,-70.23591,-8.447793,-36.90935,0,0,0,-26.21834,114.1505,-16.9481,-122.5563,-110.4457,-88.2327,0.001067912,-0.1257102,0.09433498,0,0.3,0,0,0,0
638224432504030594,-10.7669,77.47537,73.07694,113.9757,-61.18431,-14.20335,-56.82663,-0.4675641,5.626691,-70.23591,-8.447793,-36.83611,0,0,0,-29.23519,114.7102,-14.61134,-122.5563,-110.4457,-88.2327,0.001067912,-0.1257102,0.09433498,0,0.3,0,0,0,0
638224432504360492,-11.85066,76.07268,73.59058,114.0489,-61.25756,-12.15249,-56.82663,-0.4675641,5.626691,-70.23591,-8.447793,-36.83611,0,0,0,-32.86081,115.1085,-11.74605,-122.5563,-110.4457,-88.2327,0.001067912,-0.1257102,0.09433498,0,0.3,0,0,0,0
638224432504700380,-12.86374,74.52972,74.12756,113.9757,-61.25756,-9.955132,-56.82663,-0.4675641,5.626691,-70.23591,-8.447793,-36.83611,0,0,0,-36.47519,115.3978,-8.626529,-122.5563,-110.4457,-88.2327,0.001067912,-0.1257102,0.09433498,0,0.3,0,0,0,0
638224432505030276,-13.28782,73.78161,74.40773,114.0489,-61.25756,-8.783209,-56.82663,-0.4675641,5.626691,-70.23591,-8.447793,-36.83611,0,0,0,-38.082,115.5501,-7.098681,-122.5563,-110.4457,-88.2327,0.001067912,-0.1257102,0.09433498,0,0.3,0,0,0,0
638224432505370168,-14.23022,72.12176,74.92138,114.0489,-61.3308,-5.780157,-56.82663,-0.4675641,5.626691,-70.23591,-8.447793,-36.90935,0,0,0,-41.71457,115.5704,-3.860452,-122.5563,-110.4457,-88.2327,0.001067912,-0.1257102,0.09433498,0,0.3,0,0,0,0
638224432505710081,-14.8899,70.36839,75.50506,114.0489,-61.3308,-1.898163,-56.82663,-0.4675641,5.626691,-70.23591,-8.447793,-36.90935,0,0,0,-44.6876,115.5719,-0.2823607,-122.5563,-110.4457,-88.2327,0.001067912,-0.1257102,0.09433498,0,0.3,0,0,0,0
638224432506059951,-15.10193,69.48002,75.83192,113.9757,-61.3308,0.5921727,-56.82663,-0.4675641,5.626691,-70.23591,-8.447793,-36.83611,0,0,0,-45.86429,115.5992,1.60779,-122.5563,-110.4457,-88.2327,0.001067912,-0.1257102,0.09433498,0,0.3,0,0,0,0
638224432506399852,-15.36109,67.84354,76.4623,113.9757,-61.3308,7.623709,-56.82663,-0.4675641,5.626691,-70.23591,-8.447793,-36.90935,0,0,0,-47.66536,115.6378,5.158103,-122.5563,-110.4457,-88.2327,0.001067912,-0.1257102,0.09433498,0,0.3,0,0,0,0
638224432506739721,-15.50245,66.04342,77.20941,113.3165,-61.3308,18.09777,-56.82663,-0.4675641,5.626691,-70.23591,-8.447793,-36.83611,0,0,0,-49.22944,115.6902,9.136098,-122.5563,-110.4457,-88.2327,0.001067912,-0.1257102,0.09433498,0,0.3,0,0,0,0
638224432507079612,-15.64381,64.87452,77.32614,110.6064,-61.3308,25.34904,-56.82663,-0.4675641,5.626691,-70.23591,-8.447793,-36.90935,0,0,0,-50.35065,114.8253,11.4548,-122.5563,-110.4457,-88.2327,0.001067912,-0.1257102,0.09433498,0,0.3,0,0,0,0
638224432507419504,-15.87941,63.1679,76.81251,101.231,-61.3308,39.99807,-56.82663,-0.4675641,5.626691,-70.23591,-8.447793,-36.83611,0,0,0,-51.99332,111.9204,14.42318,-122.5563,-110.4457,-88.2327,0.001067912,-0.1257102,0.09433498,0,0.3,0,0,0,0
638224432507759395,-16.32705,61.20414,74.3377,83.87193,-61.3308,65.19441,-56.82663,-0.4675641,5.626691,-70.23591,-8.447793,-36.90935,0,0,0,-54.1527,104.21,16.51373,-122.5563,-110.4457,-88.2327,0.001067912,-0.1257102,0.09433498,0,0.3,0,0,0,0
638224432508099287,-16.91605,58.42213,66.79652,58.01638,-59.71941,135.7295,-56.82663,-0.4675641,5.626691,-70.23591,-8.447793,-36.83611,0,0,0,-55.98069,84.41518,15.71871,-122.5563,-110.4457,-88.2327,0.001067912,-0.1257102,0.09433498,0,0.3,0,0,0,0
638224432508429182,-17.15165,56.36485,61.56674,45.27173,-56.86285,143.64,-56.82663,-0.4675641,5.626691,-70.23591,-8.374548,-36.83611,0,0,0,-56.36376,70.88218,14.2773,-122.5563,-110.4457,-88.2327,0.001067912,-0.1257102,0.09433498,0,0.3,0,0,0,0
638224432508769087,-17.34013,49.72544,51.45737,25.71527,-46.31554,144.8119,-56.82663,-0.4675641,5.626691,-70.23591,-8.447793,-36.90935,0,0,0,-56.77827,42.00016,13.49533,-122.5563,-110.4457,-88.2327,0.001067912,-0.1257102,0.09433498,0,0.3,0,0,0,0
638224432509118961,-17.52861,42.03401,46.25093,15.90041,-34.30334,144.8852,-56.82663,-0.4675641,5.626691,-70.23591,-8.447793,-36.90935,0,0,0,-58.84317,20.42568,17.95225,-122.5563,-110.4457,-88.2327,0.001067912,-0.1257102,0.09433498,0,0.3,0,0,0,0
638224432509528847,-17.57573,35.20757,43.19244,10.91974,-22.87709,144.8852,-56.82663,-0.4675641,5.626691,-70.23591,-8.447793,-36.90935,0,0,0,-60.46196,3.011645,22.53075,-122.5563,-110.4457,-88.2327,0.001067912,-0.1257102,0.09433498,0,0.3,0,0,0,0
638224432509858729,-17.57573,33.12691,42.32859,9.601329,-18.48238,144.9584,-56.82663,-0.4675641,5.626691,-70.23591,-8.447793,-36.90935,0,0,0,-60.83741,-2.359845,23.71606,-122.5563,-110.4457,-88.2327,0.001067912,-0.1257102,0.09433498,0,0.3,0,0,0,0
638224432510208613,-17.62285,30.27477,40.04056,7.550464,-10.20568,144.8119,-56.82663,-0.4675641,5.626691,-70.23591,-8.447793,-36.83611,0,0,0,-60.83805,-11.51326,23.17078,-122.5563,-110.4457,-88.2327,0.001067912,-0.1257102,0.09433498,0,0.3,0,0,0,0
638224432510538519,-17.45793,28.96559,37.37897,5.426354,-3.393876,139.6848,-56.82663,-0.4675641,5.626691,-70.23591,-8.447793,-36.83611,0,0,0,-59.28828,-18.03559,20.17096,-122.5563,-110.4457,-88.2327,0.001067912,-0.1257102,0.09433498,0,0.3,0,0,0,0
638224432511088350,-16.49197,28.12398,34.29713,2.203566,5.322299,128.0388,-56.82663,-0.4675641,5.626691,-70.23591,-8.447793,-36.83611,0,0,0,-54.71693,-23.95531,16.46634,-122.5563,-110.4457,-88.2327,0.001067912,-0.1257102,0.09433498,0,0.3,0,0,0,0
638224432511418228,-15.99721,27.8902,33.76015,1.178134,8.03237,123.7905,-56.82663,-0.4675641,5.626691,-70.23591,-8.447793,-36.90935,0,0,0,-52.90396,-25.13508,16.18189,-122.5563,-110.4457,-88.2327,0.001067912,-0.1257102,0.09433498,0,0.3,0,0,0,0
638224432511758119,-14.84277,27.46939,32.8963,-0.5065048,12.64682,115.8801,-56.82663,-0.4675641,5.626691,-70.23591,-8.447793,-36.90935,0,0,0,-48.86161,-27.10702,16.02629,-122.5563,-110.4457,-88.2327,0.001067912,-0.1257102,0.09433498,0,0.3,0,0,0,0
638224432512108007,-14.04174,27.21223,32.52274,-2.191144,16.89503,105.992,-56.82663,-0.4675641,5.626691,-70.23591,-8.447793,-36.90935,0,0,0,-46.1684,-28.10848,16.24836,-122.5563,-110.4457,-88.2327,0.001067912,-0.1257102,0.09433498,0,0.3,0,0,0,0
638224432512447877,-13.7119,27.1421,32.12584,-3.436311,18.87265,101.3775,-56.82663,-0.4675641,5.626691,-70.23591,-8.447793,-36.83611,0,0,0,-44.93758,-28.74763,15.82516,-122.5563,-110.4457,-88.2327,0.001067912,-0.1257102,0.09433498,0,0.3,0,0,0,0
638224432512777781,-12.62814,26.97845,30.39814,-6.366118,22.82789,94.8587,-56.82663,-0.4675641,5.626691,-70.23591,-8.447793,-36.83611,0,0,0,-40.73251,-31.17346,13.45732,-122.5563,-110.4457,-88.2327,0.001067912,-0.1257102,0.09433498,0,0.3,0,0,0,0
638224432513127659,-10.6491,26.69791,28.32023,-8.856454,26.27042,91.78241,-56.82663,-0.4675641,5.626691,-70.23591,-8.447793,-36.90935,0,0,0,-33.70533,-34.12698,10.90307,-122.5563,-110.4457,-88.2327,0.001067912,-0.1257102,0.09433498,0,0.3,0,0,0,0
638224432513467552,-9.047026,26.41737,27.22291,-9.588906,28.24804,90.90347,-56.82663,-0.4675641,5.626691,-70.23591,-8.447793,-36.83611,0,0,0,-28.37119,-35.90098,9.832038,-122.5563,-110.4457,-88.2327,0.001067912,-0.1257102,0.09433498,0,0.3,0,0,0,0
638224432513807452,-5.112512,25.97318,25.30844,-9.002944,31.47083,90.46399,-56.82663,-0.4675641,5.626691,-70.23591,-8.447793,-36.83611,0,0,0,-15.76276,-38.80033,7.83373,-122.5563,-110.4457,-88.2327,0.001067912,-0.1257102,0.09433498,0,0.3,0,0,0,0
638224432514217322,-0.2355996,25.76278,24.04768,-5.560421,34.54712,92.51486,-56.82663,-0.4675641,5.626691,-70.23591,-8.447793,-36.90935,0,0,0,-0.7172723,-40.46604,6.083407,-122.5563,-110.4457,-88.2327,0.001067912,-0.1257102,0.09433498,0,0.3,0,0,0,0
638224432514558483,3.769594,25.62251,22.99706,-0.4332596,36.89096,95.44467,-56.82663,-0.4675641,5.626691,-70.23591,-8.447793,-36.83611,0,0,0,11.33002,-41.73612,3.611565,-122.5563,-110.4457,-88.2327,0.001067912,-0.1257102,0.09433498,0,0.3,0,0,0,0
638224432514898373,6.00779,25.48224,21.89973,3.96145,38.79534,98.66745,-56.82663,-0.4675641,5.626691,-70.23591,-8.447793,-36.90935,0,0,0,17.80485,-43.00585,0.830558,-122.5563,-110.4457,-88.2327,0.001067912,-0.1257102,0.09433498,0,0.3,0,0,0,0
638224432515238266,6.549669,25.48224,21.29271,5.646089,39.45455,100.8648,-56.82663,-0.4675641,5.626691,-70.23591,-8.447793,-36.83611,0,0,0,19.25423,-43.52584,-0.6504365,-122.5563,-110.4457,-88.2327,0.001067912,-0.1257102,0.09433498,0,0.3,0,0,0,0
638224432515578156,6.738149,25.48224,19.12141,7.550464,40.62647,106.2117,-56.82663,-0.4675641,5.626691,-70.23591,-8.447793,-36.90935,0,0,0,19.24938,-45.27127,-5.424071,-122.5563,-110.4457,-88.2327,0.001067912,-0.1257102,0.09433498,0,0.3,0,0,0,0
638224432515918051,6.47899,25.34197,14.35857,7.550464,41.57866,110.8994,-56.82663,-0.4675641,5.626691,-70.23591,-8.447793,-36.83611,0,0,0,17.33058,-48.75804,-15.7439,-122.5563,-110.4457,-88.2327,0.001067912,-0.1257102,0.09433498,0,0.3,0,0,0,0
638224432516257941,6.24339,24.89779,12.23397,7.110993,42.09137,113.463,-56.82663,-0.4675641,5.626691,-70.23591,-8.447793,-36.90935,0,0,0,16.22734,-50.83123,-20.02109,-122.5563,-110.4457,-88.2327,0.001067912,-0.1257102,0.09433498,0,0.3,0,0,0,0
638224432516587834,5.86643,23.14442,11.1133,5.353109,43.48303,116.173,-56.82663,-0.4675641,5.626691,-70.23591,-8.447793,-36.83611,0,0,0,15.15982,-55.08618,-20.806,-122.5563,-110.4457,-88.2327,0.001067912,-0.1257102,0.09433498,0,0.3,0,0,0,0
638224432516927726,6.45543,21.71835,11.04326,3.375489,45.31416,116.173,-56.82663,-0.4675641,5.626691,-70.23591,-8.447793,-36.83611,0,0,0,16.80014,-58.18533,-19.8702,-122.5563,-110.4457,-88.2327,0.001067912,-0.1257102,0.09433498,0,0.3,0,0,0,0
638224432517267620,7.256468,21.71835,10.85648,2.569792,46.26635,115.6603,-56.82663,-0.4675641,5.626691,-70.23591,-8.447793,-36.83611,0,0,0,18.82039,-58.2679,-20.54295,-122.5563,-110.4457,-88.2327,0.001067912,-0.1257102,0.09433498,0,0.3,0,0,0,0
638224432517617507,9.848064,22.88726,10.78644,2.423302,47.58476,115.0744,-56.82663,-0.4675641,5.626691,-70.23591,-8.447793,-36.83611,0,0,0,25.28048,-55.78155,-22.72009,-122.5563,-110.4457,-88.2327,0.001067912,-0.1257102,0.09433498,0,0.3,0,0,0,0
638224432517957396,14.11242,25.36535,11.08995,4.913638,47.87774,114.9279,-56.82663,-0.4675641,5.626691,-70.23591,-8.447793,-36.90935,0,0,0,35.63363,-50.38424,-26.61657,-122.5563,-110.4457,-88.2327,0.001067912,-0.1257102,0.09433498,0,0.3,0,0,0,0
638224432518307287,18.84797,28.89546,12.91104,9.967555,46.1931,114.9279,-56.82663,-0.4675641,5.626691,-70.23591,-8.447793,-36.90935,0,0,0,47.34215,-42.19221,-29.66406,-122.5563,-110.4457,-88.2327,0.001067912,-0.1257102,0.09433498,0,0.3,0,0,0,0
638224432518737151,23.0652,32.77624,16.22635,16.41313,43.19005,114.9279,-56.82663,-0.4675641,5.626691,-70.23591,-8.447793,-36.83611,0,0,0,58.52458,-32.49774,-30.90979,-122.5563,-110.4457,-88.2327,0.001067912,-0.1257102,0.09433498,0,0.3,0,0,0,0
638224432519077041,24.26676,34.38934,17.65053,18.97671,41.72515,114.5617,-56.82663,-0.4675641,5.626691,-70.23591,-8.447793,-36.83611,0,0,0,61.84347,-28.40449,-31.16976,-122.5563,-110.4457,-88.2327,0.001067912,-0.1257102,0.09433498,0,0.3,0,0,0,0
638224432519416933,26.128,38.15323,20.63898,24.32361,38.5756,111.6319,-56.82663,-0.4675641,5.626691,-70.23591,-8.447793,-36.83611,0,0,0,66.87769,-19.0624,-32.00433,-122.5563,-110.4457,-88.2327,0.001067912,-0.1257102,0.09433498,0,0.3,0,0,0,0
638224432519756838,27.32955,41.87036,23.13714,28.35209,35.13308,107.6034,-56.82663,-0.4675641,5.626691,-70.23591,-8.447793,-36.83611,0,0,0,69.64558,-10.27014,-33.58476,-122.5563,-110.4457,-88.2327,0.001067912,-0.1257102,0.09433498,0,0.3,0,0,0,0
638224432520096723,28.20127,44.67575,25.35513,31.06216,31.9103,100.7916,-56.82663,-0.4675641,5.626691,-70.23591,-8.447793,-36.83611,0,0,0,71.79712,-3.396966,-34.45608,-122.5563,-110.4457,-88.2327,0.001067912,-0.1257102,0.09433498,0,0.3,0,0,0,0
638224432520436636,28.41331,45.89141,26.96609,32.08759,30.15241,95.29817,-56.82663,-0.4675641,5.626691,-70.23591,-8.447793,-36.90935,0,0,0,72.93673,0.2467051,-33.53122,-122.5563,-110.4457,-88.2327,0.001067912,-0.1257102,0.09433498,0,0.3,0,0,0,0
638224432520776500,28.34263,48.18248,29.79111,33.5525,27.00287,86.21577,-56.82663,-0.4675641,5.626691,-70.23591,-8.447793,-36.83611,0,0,0,73.66402,7.005233,-31.7846,-122.5563,-110.4457,-88.2327,0.001067912,-0.1257102,0.09433498,0,0.3,0,0,0,0
638224432521116392,28.13059,50.80084,32.56944,34.50468,23.56034,80.50266,-56.82663,-0.4675641,5.626691,-70.23591,-8.447793,-36.90935,0,0,0,73.58185,14.31074,-30.72036,-122.5563,-110.4457,-88.2327,0.001067912,-0.1257102,0.09433498,0,0.3,0,0,0,0
638224432521456292,28.10703,52.11002,33.90023,34.94416,21.72922,78.23206,-56.82663,-0.4675641,5.626691,-70.23591,-8.447793,-36.83611,0,0,0,73.62303,17.90684,-30.50705,-122.5563,-110.4457,-88.2327,0.001067912,-0.1257102,0.09433498,0,0.3,0,0,0,0
638224432521806173,27.21176,55.07904,36.46843,35.74985,17.33451,73.54436,-56.82663,-0.4675641,5.626691,-70.23591,-8.447793,-36.83611,0,0,0,71.15108,25.45134,-29.9748,-122.5563,-110.4457,-88.2327,0.001067912,-0.1257102,0.09433498,0,0.3,0,0,0,0
638224432522146080,26.43428,57.53376,38.96659,35.31038,14.03847,71.27377,-56.82663,-0.4675641,5.626691,-70.23591,-8.447793,-36.83611,0,0,0,69.19829,32.17711,-29.1601,-122.5563,-110.4457,-88.2327,0.001067912,-0.1257102,0.09433498,0,0.3,0,0,0,0
638224432522525942,25.51544,60.75995,42.32859,34.43144,10.44946,70.24833,-56.82663,-0.4675641,5.626691,-70.23591,-8.521038,-36.90935,0,0,0,66.73799,41.12365,-28.52785,-122.5563,-110.4457,-88.2327,0.001067912,-0.1257102,0.09433498,0,0.3,0,0,0,0
638224432522855835,25.11492,62.37305,44.10299,33.91872,8.691576,70.10184,-56.82663,-0.4675641,5.626691,-70.23591,-8.447793,-36.83611,0,0,0,65.63512,45.73886,-28.32895,-122.5563,-110.4457,-88.2327,0.001067912,-0.1257102,0.09433498,0,0.3,0,0,0,0
638224432523235714,24.10184,66.44086,48.74909,33.40601,4.370111,69.8821,-56.82663,-0.4675641,5.626691,-70.23591,-8.447793,-36.90935,0,0,0,62.70603,57.65965,-28.18099,-122.5563,-110.4457,-88.2327,0.001067912,-0.1257102,0.09433498,0,0.3,0,0,0,0
638224432523575606,22.2406,70.50866,53.53528,33.69899,-1.343012,69.80886,-56.82663,-0.4675641,5.626691,-70.23591,-8.447793,-36.83611,0,0,0,57.43208,69.80437,-27.90158,-122.5563,-110.4457,-88.2327,0.001067912,-0.1257102,0.09433498,0,0.3,0,0,0,0
638224432523915507,18.98933,74.15565,57.17745,34.13846,-8.154812,69.44263,-56.82663,-0.4675641,5.626691,-70.23591,-8.447793,-36.83611,0,0,0,48.31062,79.35274,-27.96082,-122.5563,-110.4457,-88.2327,0.001067912,-0.1257102,0.09433498,0,0.3,0,0,0,0
638224432524265387,17.08097,75.60511,58.46156,33.99197,-11.67058,69.14965,-56.82663,-0.4675641,5.626691,-70.23591,-8.447793,-36.83611,0,0,0,43.11971,82.76205,-28.02137,-122.5563,-110.4457,-88.2327,0.001067912,-0.1257102,0.09433498,0,0.3,0,0,0,0
638224432524605285,12.95798,77.49874,60.37603,32.60031,-18.55563,68.92992,-56.82663,-0.4675641,5.626691,-70.23591,-8.447793,-36.83611,0,0,0,32.46599,87.62279,-27.25231,-122.5563,-110.4457,-88.2327,0.001067912,-0.1257102,0.09433498,0,0.3,0,0,0,0
638224432524955167,8.293106,78.15334,61.02975,29.74375,-24.63498,71.12727,-56.82663,-0.4675641,5.626691,-70.23591,-8.447793,-36.90935,0,0,0,20.77591,89.27092,-25.81625,-122.5563,-110.4457,-88.2327,0.001067912,-0.1257102,0.09433498,0,0.3,0,0,0,0
638224432525295068,3.486874,78.2936,60.46942,24.39685,-29.17617,76.47417,-56.82663,-0.4675641,5.626691,-70.23591,-8.447793,-36.90935,0,0,0,8.702298,88.19972,-25.53175,-122.5563,-110.4457,-88.2327,0.001067912,-0.1257102,0.09433498,0,0.3,0,0,0,0
638224432525634956,0.9423984,78.24685,59.95578,20.88108,-30.86081,80.20967,-56.82663,-0.4675641,5.626691,-70.23591,-8.447793,-36.90935,0,0,0,2.345304,87.14011,-25.77348,-122.5563,-110.4457,-88.2327,0.001067912,-0.1257102,0.09433498,0,0.3,0,0,0,0
638224432525984844,-4.405713,77.75591,58.78841,12.09166,-32.98492,89.80479,-56.82663,-0.4675641,5.626691,-70.23591,-8.447793,-36.83611,0,0,0,-10.93352,84.56472,-26.44125,-122.5563,-110.4457,-88.2327,0.001067912,-0.1257102,0.09433498,0,0.3,0,0,0,0
638224432526314737,-9.471104,77.03118,58.27478,1.764095,-33.86386,100.2056,-56.82663,-0.4675641,5.626691,-70.23591,-8.447793,-36.90935,0,0,0,-23.58848,83.17696,-26.95275,-122.5563,-110.4457,-88.2327,0.001067912,-0.1257102,0.09433498,0,0.3,0,0,0,0
638224432526654631,-11.68574,76.6805,58.22808,-3.289821,-33.86386,105.113,-56.82663,-0.4675641,5.626691,-70.23591,-8.447793,-36.83611,0,0,0,-29.18428,82.89896,-27.24759,-122.5563,-110.4457,-88.2327,0.001067912,-0.1257102,0.09433498,0,0.3,0,0,0,0
638224432526984532,-15.78517,75.76876,58.22808,-13.76388,-33.64413,114.5617,-56.82663,-0.4675641,5.626691,-70.23591,-8.447793,-36.83611,0,0,0,-39.75732,82.39368,-27.7117,-122.5563,-110.4457,-88.2327,0.001067912,-0.1257102,0.09433498,0,0.3,0,0,0,0
638224432527324575,-19.20137,74.69336,58.22808,-22.69979,-32.83843,121.6664,-56.82663,-0.4675641,5.626691,-70.23591,-8.447793,-36.83611,0,0,0,-48.86307,81.75565,-28.04517,-122.5563,-110.4457,-88.2327,0.001067912,-0.1257102,0.09433498,0,0.3,0,0,0,0
638224432527764276,-23.46572,73.50108,57.85452,-31.78219,-31.52002,126.3541,-56.82663,-0.4675641,5.626691,-70.23591,-8.447793,-36.83611,0,0,0,-60.04004,80.25768,-30.04112,-122.5563,-110.4457,-88.2327,0.001067912,-0.1257102,0.09433498,0,0.3,0,0,0,0
638224432528104171,-26.2458,72.37891,57.13076,-37.86154,-30.05512,128.2585,-56.82663,-0.4675641,5.626691,-70.23591,-8.447793,-36.90935,0,0,0,-67.38149,78.07094,-31.68858,-122.5563,-110.4457,-88.2327,0.001067912,-0.1257102,0.09433498,0,0.3,0,0,0,0
638224432528444061,-27.61227,71.56068,56.45369,-40.86459,-29.02968,128.698,-56.82663,-0.4675641,5.626691,-70.23591,-8.447793,-36.83611,0,0,0,-71.06062,76.16305,-32.49446,-122.5563,-110.4457,-88.2327,0.001067912,-0.1257102,0.09433498,0,0.3,0,0,0,0
638224432528784116,-30.25099,69.57353,54.56256,-45.99176,-26.39286,128.9177,-56.82663,-0.4675641,5.626691,-70.23591,-8.447793,-36.90935,0,0,0,-78.18129,70.99691,-34.29565,-122.5563,-110.4457,-88.2327,0.001067912,-0.1257102,0.09433498,0,0.3,0,0,0,0
638224432529133837,-32.58343,67.58639,52.57804,-49.06805,-23.38981,128.9177,-56.82663,-0.4675641,5.626691,-70.23591,-8.447793,-36.83611,0,0,0,-84.41367,65.59197,-36.27186,-122.5563,-110.4457,-88.2327,0.001067912,-0.1257102,0.09433498,0,0.3,0,0,0,0
638224432529473734,-33.71431,66.62788,51.69085,-50.02024,-22.07139,128.9177,-56.82663,-0.4675641,5.626691,-70.23591,-8.447793,-36.90935,0,0,0,-87.44115,63.09408,-37.3084,-122.5563,-110.4457,-88.2327,0.001067912,-0.1257102,0.09433498,0,0.3,0,0,0,0
638224432529813620,-36.25878,64.1498,49.70633,-51.92461,-19.14159,128.9177,-56.82663,-0.4675641,5.626691,-70.23591,-8.447793,-36.83611,0,0,0,-94.54332,57.11842,-39.4506,-122.5563,-110.4457,-88.2327,0.001067912,-0.1257102,0.09433498,0,0.3,0,0,0,0
638224432530153515,-38.85038,61.46129,48.02533,-53.46276,-16.13853,128.9177,-56.82663,-0.4675641,5.626691,-70.23591,-8.447793,-36.83611,0,0,0,-102.1515,51.3125,-41.52765,-122.5563,-110.4457,-88.2327,0.001067912,-0.1257102,0.09433498,0,0.3,0,0,0,0
638224432530483417,-40.31109,59.96509,47.30156,-54.26846,-14.52714,128.9177,-56.82663,-0.4675641,5.626691,-70.23591,-8.447793,-36.83611,0,0,0,-106.5821,48.36392,-42.72204,-122.5563,-110.4457,-88.2327,0.001067912,-0.1257102,0.09433498,0,0.3,0,0,0,0
638224432530823305,-43.65661,55.07904,45.85403,-56.6123,-10.71839,128.9177,-56.82663,-0.4675641,5.626691,-70.23591,-8.447793,-36.83611,0,0,0,-118.7536,39.81257,-43.89283,-122.5563,-110.4457,-88.2327,0.001067912,-0.1257102,0.09433498,0,0.3,0,0,0,0
638224432531163196,-45.47073,51.08138,45.2937,-58.51668,-7.642097,129.0642,-56.82663,-0.4675641,5.626691,-70.23591,-8.447793,-36.83611,0,0,0,-127.285,33.29338,-43.13942,-122.5563,-110.4457,-88.2327,0.001067912,-0.1257102,0.09433498,0,0.3,0,0,0,0
638224432531513074,-46.79008,46.45249,44.63997,-60.78728,-3.760103,129.0642,-56.82663,-0.4675641,5.626691,-70.23591,-8.447793,-36.90935,0,0,0,-135.2531,25.1192,-41.29478,-122.5563,-110.4457,-88.2327,0.001067912,-0.1257102,0.09433498,0,0.3,0,0,0,0
638224432531842979,-46.93144,44.48872,44.10299,-61.59297,-2.002218,129.0642,-56.82663,-0.4675641,5.626691,-70.23591,-8.447793,-36.90935,0,0,0,-137.2937,21.04022,-40.01406,-122.5563,-110.4457,-88.2327,0.001067912,-0.1257102,0.09433498,0,0.3,0,0,0,0
638224432532312827,-48.55708,39.48579,42.95897,-61.81271,2.538982,128.991,-56.82663,-0.4675641,5.626691,-70.23591,-8.447793,-36.83611,0,0,0,-145.2693,10.55438,-40.08433,-122.5563,-110.4457,-88.2327,0.001067912,-0.1257102,0.09433498,0,0.3,0,0,0,0
638224432532652719,-49.14608,37.82593,42.58541,-61.88596,3.710905,129.1375,-56.82663,-0.4675641,5.626691,-70.23591,-8.447793,-36.90935,0,0,0,-147.9226,6.947314,-40.4235,-122.5563,-110.4457,-88.2327,0.001067912,-0.1257102,0.09433498,0,0.3,0,0,0,0
638224432532992611,-50.15916,33.75813,41.09119,-62.47192,6.787202,129.5037,-56.82663,-0.4675641,5.626691,-70.23591,-8.447793,-36.83611,0,0,0,-152.4225,-3.050146,-41.17218,-122.5563,-110.4457,-88.2327,0.001067912,-0.1257102,0.09433498,0,0.3,0,0,0,0
638224432533332495,-50.65392,29.97086,38.28952,-62.61841,10.30297,129.5769,-56.82663,-0.4675641,5.626691,-70.23591,-8.447793,-36.83611,0,0,0,-153.2329,-14.6988,-42.72434,-122.5563,-110.4457,-88.2327,0.001067912,-0.1257102,0.09433498,0,0.3,0,0,0,0
638224432533662389,-50.67748,28.38114,36.53847,-62.25218,12.06085,129.5769,-56.82663,-0.4675641,5.626691,-70.23591,-8.447793,-36.83611,0,0,0,-152.1759,-20.40516,-43.69555,-122.5563,-110.4457,-88.2327,0.001067912,-0.1257102,0.09433498,0,0.3,0,0,0,0
638224432534002281,-50.67748,24.96792,32.91964,-60.78728,16.08934,129.5037,-56.82663,-0.4675641,5.626691,-70.23591,-8.447793,-36.90935,0,0,0,-149.5803,-32.3,-45.82169,-122.5563,-110.4457,-88.2327,0.001067912,-0.1257102,0.09433498,0,0.3,0,0,0,0
638224432534352172,-50.46544,21.85862,29.72107,-59.39562,19.97133,129.0642,-56.82663,-0.4675641,5.626691,-70.23591,-8.447793,-36.90935,0,0,0,-146.4392,-42.80916,-47.48638,-122.5563,-110.4457,-88.2327,0.001067912,-0.1257102,0.09433498,0,0.3,0,0,0,0
638224432534682064,-50.18272,20.45593,28.25019,-58.8829,22.0222,127.9655,-56.82663,-0.4675641,5.626691,-70.23591,-8.447793,-36.83611,0,0,0,-144.4461,-47.5125,-47.92823,-122.5563,-110.4457,-88.2327,0.001067912,-0.1257102,0.09433498,0,0.3,0,0,0,0
638224432535031953,-49.4288,18.18824,25.16835,-57.93071,26.19717,125.0357,-56.82663,-0.4675641,5.626691,-70.23591,-8.447793,-36.90935,0,0,0,-139.3091,-55.71617,-49.0691,-122.5563,-110.4457,-88.2327,0.001067912,-0.1257102,0.09433498,0,0.3,0,0,0,0
638224432535371844,-48.08588,16.59852,22.10986,-56.75879,30.00592,121.5199,-56.82663,-0.4675641,5.626691,-70.23591,-8.447793,-36.83611,0,0,0,-132.4463,-62.1007,-49.4538,-122.5563,-110.4457,-88.2327,0.001067912,-0.1257102,0.09433498,0,0.3,0,0,0,0
638224432535721735,-46.76653,15.89718,19.47162,-55.29389,33.08222,118.6634,-56.82663,-0.4675641,5.626691,-70.23591,-8.447793,-36.90935,0,0,0,-125.8244,-65.84713,-50.05458,-122.5563,-110.4457,-88.2327,0.001067912,-0.1257102,0.09433498,0,0.3,0,0,0,0
638224432536051627,-46.15396,15.71015,18.23421,-54.63469,34.40063,117.1985,-56.82663,-0.4675641,5.626691,-70.23591,-8.447793,-36.83611,0,0,0,-122.6725,-67.19656,-50.52196,-122.5563,-110.4457,-88.2327,0.001067912,-0.1257102,0.09433498,0,0.3,0,0,0,0
638224432536391520,-44.62257,15.5465,15.73606,-53.31627,36.96421,113.756,-56.82663,-0.4675641,5.626691,-70.23591,-8.447793,-36.83611,0,0,0,-115.6462,-69.26169,-51.17006,-122.5563,-110.4457,-88.2327,0.001067912,-0.1257102,0.09433498,0,0.3,0,0,0,0
638224432536801388,-42.26657,15.6634,13.12116,-51.77813,39.67428,109.874,-56.82663,-0.4675641,5.626691,-70.23591,-8.447793,-36.83611,0,0,0,-106.7183,-70.51598,-50.93053,-122.5563,-110.4457,-88.2327,0.001067912,-0.1257102,0.09433498,0,0.3,0,0,0,0
638224432537131281,-40.59381,16.20109,11.69698,-50.45971,41.28568,108.0428,-56.82663,-0.4675641,5.626691,-70.23591,-8.447793,-36.83611,0,0,0,-100.9154,-70.02488,-50.58428,-122.5563,-110.4457,-88.2327,0.001067912,-0.1257102,0.09433498,0,0.3,0,0,0,0
638224432537471177,-39.51006,16.92582,10.7164,-49.58077,42.31111,107.0174,-56.82663,-0.4675641,5.626691,-70.23591,-8.447793,-36.83611,0,0,0,-96.9397,-68.8517,-50.79477,-122.5563,-110.4457,-88.2327,0.001067912,-0.1257102,0.09433498,0,0.3,0,0,0,0
638224432537821062,-37.4839,19.3104,8.988697,-47.60315,43.9225,105.3328,-56.82663,-0.4675641,5.626691,-70.23591,-8.447793,-36.90935,0,0,0,-89.26189,-64.26543,-51.95393,-122.5563,-110.4457,-88.2327,0.001067912,-0.1257102,0.09433498,0,0.3,0,0,0,0
638224432538160953,-35.5991,22.58335,7.868029,-45.47904,44.80145,104.1608,-56.82663,-0.4675641,5.626691,-70.23591,-8.447793,-36.90935,0,0,0,-82.29845,-57.53465,-53.39293,-122.5563,-110.4457,-88.2327,0.001067912,-0.1257102,0.09433498,0,0.3,0,0,0,0
638224432538510840,-33.73786,26.34723,7.587861,-43.35493,44.87469,103.4284,-56.82663,-0.4675641,5.626691,-70.23591,-8.447793,-36.83611,0,0,0,-76.14792,-49.65025,-54.33431,-122.5563,-110.4457,-88.2327,0.001067912,-0.1257102,0.09433498,0,0.3,0,0,0,0
638224432538860728,-32.77191,28.38114,7.587861,-42.18301,44.58171,103.1354,-56.82663,-0.4675641,5.626691,-70.23591,-8.521038,-36.90935,0,0,0,-73.03728,-45.44646,-54.89619,-122.5563,-110.4457,-88.2327,0.001067912,-0.1257102,0.09433498,0,0.3,0,0,0,0
638224432539200629,-30.76931,32.75286,7.844682,-39.91241,43.2633,102.4762,-56.82663,-0.4675641,5.626691,-70.23591,-8.521038,-36.83611,0,0,0,-66.68462,-36.60752,-56.34915,-122.5563,-110.4457,-88.2327,0.001067912,-0.1257102,0.09433498,0,0.3,0,0,0,0
638224432539540512,-28.36619,37.33499,8.358321,-37.20233,41.13919,102.0367,-56.82663,-0.4675641,5.626691,-70.23591,-8.447793,-36.90935,0,0,0,-59.58351,-27.71028,-57.99702,-122.5563,-110.4457,-88.2327,0.001067912,-0.1257102,0.09433498,0,0.3,0,0,0,0
638224432539880404,-26.0102,41.02874,8.895308,-35.00498,39.23481,101.5973,-56.82663,-0.4675641,5.626691,-70.23591,-8.447793,-36.83611,0,0,0,-53.15718,-20.86018,-59.41083,-122.5563,-110.4457,-88.2327,0.001067912,-0.1257102,0.09433498,0,0.3,0,0,0,0
638224432540220300,-23.51284,44.3017,9.455643,-32.88087,37.47693,101.0845,-56.82663,-0.4675641,5.626691,-70.23591,-8.447793,-36.90935,0,0,0,-46.81419,-15.05168,-60.7507,-122.5563,-110.4457,-88.2327,0.001067912,-0.1257102,0.09433498,0,0.3,0,0,0,0
638224432540560206,-19.36629,48.93058,10.62301,-29.43835,34.76685,100.4986,-56.82663,-0.4675641,5.626691,-70.23591,-8.447793,-36.83611,0,0,0,-37.20285,-7.18012,-62.50805,-122.5563,-110.4457,-88.2327,0.001067912,-0.1257102,0.09433498,0,0.3,0,0,0,0
638224432540900095,-14.48938,54.35432,12.46744,-24.89715,31.54407,99.83938,-56.82663,-0.4675641,5.626691,-70.23591,-8.447793,-36.90935,0,0,0,-26.64654,1.509613,-65.23661,-122.5563,-110.4457,-88.2327,0.001067912,-0.1257102,0.09433498,0,0.3,0,0,0,0
638224432541319945,-8.622946,60.03522,15.47924,-19.84323,27.66208,98.81395,-56.82663,-0.4675641,5.626691,-70.23591,-8.447793,-36.83611,0,0,0,-15.32203,10.36243,-67.3115,-122.5563,-110.4457,-88.2327,0.001067912,-0.1257102,0.09433498,0,0.3,0,0,0,0
638224432541649993,-5.91355,62.46656,17.13689,-17.49938,25.7577,98.30123,-56.82663,-0.4675641,5.626691,-70.23591,-8.447793,-36.90935,0,0,0,-10.39916,14.16721,-67.95159,-122.5563,-110.4457,-88.2327,0.001067912,-0.1257102,0.09433498,0,0.3,0,0,0,0
638224432541989869,0.4476392,67.63314,21.50283,-11.71302,21.14326,96.83633,-56.82663,-0.4675641,5.626691,-70.23591,-8.447793,-36.90935,0,0,0,0.7783283,22.59882,-68.72956,-122.5563,-110.4457,-88.2327,0.001067912,-0.1257102,0.09433498,0,0.3,0,0,0,0
638224432542329759,6.997309,72.51919,26.70927,-5.340686,15.72311,94.34599,-56.82663,-0.4675641,5.626691,-70.23591,-8.447793,-36.83611,0,0,0,12.18136,31.4202,-69.10226,-122.5563,-110.4457,-88.2327,0.001067912,-0.1257102,0.09433498,0,0.3,0,0,0,0
638224432542679525,9.989424,74.64661,29.23078,-2.484124,13.08629,92.95433,-56.82663,-0.4675641,5.626691,-70.23591,-8.521038,-36.90935,0,0,0,17.42052,35.57169,-69.44655,-122.5563,-110.4457,-88.2327,0.001067912,-0.1257102,0.09433498,0,0.3,0,0,0,0
638224432543019418,15.78517,78.31698,34.624,3.741715,7.446409,89.36532,-56.82663,-0.4675641,5.626691,-70.23591,-8.447793,-36.83611,0,0,0,27.9569,44.20386,-69.45474,-122.5563,-110.4457,-88.2327,0.001067912,-0.1257102,0.09433498,0,0.3,0,0,0,0
638224432543359304,20.99193,80.88859,39.55027,9.894309,1.806531,85.19034,-56.82663,-0.4675641,5.626691,-70.23591,-8.447793,-36.90935,0,0,0,37.98305,52.19574,-69.35909,-122.5563,-110.4457,-88.2327,0.001067912,-0.1257102,0.09433498,0,0.3,0,0,0,0
638224432543699207,25.44476,82.08087,43.49596,15.60743,-2.88116,81.01537,-56.82663,-0.4675641,5.626691,-70.23591,-8.447793,-36.83611,0,0,0,47.32817,58.69316,-68.87771,-122.5563,-110.4457,-88.2327,0.001067912,-0.1257102,0.09433498,0,0.3,0,0,0,0
638224432544029090,27.61227,82.24452,45.247,18.39075,-4.785534,78.74477,-56.82663,-0.4675641,5.626691,-70.23591,-8.447793,-36.83611,0,0,0,52.23176,61.59492,-68.49197,-122.5563,-110.4457,-88.2327,0.001067912,-0.1257102,0.09433498,0,0.3,0,0,0,0
638224432544368983,32.13579,81.84708,48.42223,24.61659,-8.154812,73.47112,-56.82663,-0.4675641,5.626691,-70.23591,-8.447793,-36.90935,0,0,0,63.12082,66.85638,-67.86627,-122.5563,-110.4457,-88.2327,0.001067912,-0.1257102,0.09433498,0,0.3,0,0,0,0
638224432544709020,35.3635,81.16912,50.10323,28.79156,-9.546471,69.58913,-56.82663,-0.4675641,5.626691,-70.23591,-8.447793,-36.83611,0,0,0,71.0592,69.5877,-68.22497,-122.5563,-110.4457,-88.2327,0.001067912,-0.1257102,0.09433498,0,0.3,0,0,0,0
638224432545048771,36.98914,80.60804,51.01377,30.91567,-9.912696,67.39177,-56.82663,-0.4675641,5.626691,-70.23591,-8.447793,-36.83611,0,0,0,75.45682,71.0175,-68.17591,-122.5563,-110.4457,-88.2327,0.001067912,-0.1257102,0.09433498,0,0.3,0,0,0,0
638224432545388659,40.07549,78.85468,52.22783,35.09065,-10.42541,62.99706,-56.82663,-0.4675641,5.626691,-70.23591,-8.447793,-36.90935,0,0,0,84.45525,72.50507,-67.96906,-122.5563,-110.4457,-88.2327,0.001067912,-0.1257102,0.09433498,0,0.3,0,0,0,0
638224432545728562,42.73777,76.56361,52.78817,38.31343,-9.985942,59.55453,-56.82663,-0.4675641,5.626691,-70.23591,-8.447793,-36.83611,0,0,0,93.10084,72.40479,-67.59094,-122.5563,-110.4457,-88.2327,0.001067912,-0.1257102,0.09433498,0,0.3,0,0,0,0
638224432546068442,44.05713,75.23106,52.9516,39.63185,-9.546471,58.08963,-56.82663,-0.4675641,5.626691,-70.23591,-8.447793,-36.83611,0,0,0,97.64738,71.95238,-67.43473,-122.5563,-110.4457,-88.2327,0.001067912,-0.1257102,0.09433498,0,0.3,0,0,0,0
638224432546408331,46.4838,72.33216,53.02164,42.04893,-7.935077,55.67254,-56.82663,-0.4675641,5.626691,-70.23591,-8.447793,-36.83611,0,0,0,106.6013,70.19834,-67.13184,-122.5563,-110.4457,-88.2327,0.001067912,-0.1257102,0.09433498,0,0.3,0,0,0,0
638224432546758219,48.98116,69.29299,52.9049,43.95331,-5.664476,53.91465,-56.82663,-0.4675641,5.626691,-70.23591,-8.447793,-36.83611,0,0,0,115.8267,67.65701,-67.59647,-122.5563,-110.4457,-88.2327,0.001067912,-0.1257102,0.09433498,0,0.3,0,0,0,0
638224432547098111,51.21936,65.78626,52.60139,45.49146,-3.100896,52.44975,-56.82663,-0.4675641,5.626691,-70.23591,-8.447793,-36.83611,0,0,0,125.2187,63.97711,-67.7412,-122.5563,-110.4457,-88.2327,0.001067912,-0.1257102,0.09433498,0,0.3,0,0,0,0
638224432547438002,52.49159,63.37831,52.32122,46.3704,-1.269767,51.7173,-56.82663,-0.4675641,5.626691,-70.23591,-8.447793,-36.83611,0,0,0,131.1215,61.05481,-67.70635,-122.5563,-110.4457,-88.2327,0.001067912,-0.1257102,0.09433498,0,0.3,0,0,0,0
638224432547787891,53.99943,60.24563,51.80758,47.32259,1.293814,51.05809,-56.82663,-0.4675641,5.626691,-70.23591,-8.447793,-36.83611,0,0,0,138.3282,56.66837,-67.84662,-122.5563,-110.4457,-88.2327,0.001067912,-0.1257102,0.09433498,0,0.3,0,0,0,0
638224432548127782,55.46015,56.24796,50.96708,48.05504,4.150376,50.39889,-56.82663,-0.4675641,5.626691,-70.23591,-8.447793,-36.83611,0,0,0,146.3553,50.24443,-67.61284,-122.5563,-110.4457,-88.2327,0.001067912,-0.1257102,0.09433498,0,0.3,0,0,0,0
638224432548457677,56.09627,53.98027,50.50013,48.27478,5.76177,50.17915,-56.82663,-0.4675641,5.626691,-70.23591,-8.447793,-36.90935,0,0,0,150.4868,46.38463,-67.21284,-122.5563,-110.4457,-88.2327,0.001067912,-0.1257102,0.09433498,0,0.3,0,0,0,0
638224432548857552,56.26119,48.88382,49.35612,48.42127,9.204292,49.95942,-56.82663,-0.4675641,5.626691,-70.23591,-8.447793,-36.83611,0,0,0,157.0616,36.95467,-63.44917,-122.5563,-110.4457,-88.2327,0.001067912,-0.1257102,0.09433498,0,0.3,0,0,0,0
638224432549207439,56.26119,42.99252,49.00591,47.68882,13.30602,49.95942,-56.82663,-0.4675641,5.626691,-70.23591,-8.447793,-36.90935,0,0,0,164.8083,26.80665,-58.27513,-122.5563,-110.4457,-88.2327,0.001067912,-0.1257102,0.09433498,0,0.3,0,0,0,0
638224432549547333,56.26119,37.10121,48.95922,46.73663,17.92047,49.95942,-56.82663,-0.4675641,5.626691,-70.23591,-8.447793,-36.90935,0,0,0,172.0821,16.23294,-53.41703,-122.5563,-110.4457,-88.2327,0.001067912,-0.1257102,0.09433498,0,0.3,0,0,0,0
638224432549887222,56.26119,34.20231,48.79579,46.15067,19.89809,49.81293,-56.82663,-0.4675641,5.626691,-70.23591,-8.447793,-36.83611,0,0,0,175.1438,10.46465,-51.37208,-122.5563,-110.4457,-88.2327,0.001067912,-0.1257102,0.09433498,0,0.3,0,0,0,0
638224432550227103,56.23763,28.38114,48.00198,44.61252,24.21955,49.15372,-56.82663,-0.4675641,5.626691,-70.23591,-8.447793,-36.90935,0,0,0,179.9236,-2.489275,-48.07272,-122.5563,-110.4457,-88.2327,0.001067912,-0.1257102,0.09433498,0,0.3,0,0,0,0
638224432550567007,56.21407,23.07429,47.18483,42.70815,27.80857,47.54232,-56.82663,-0.4675641,5.626691,-70.23591,-8.447793,-36.83611,0,0,0,183.2626,-15.01631,-45.73151,-122.5563,-110.4457,-88.2327,0.001067912,-0.1257102,0.09433498,0,0.3,0,0,0,0
638224432550906887,56.21407,18.88959,46.71788,40.87702,30.66513,45.34497,-56.82663,-0.4675641,5.626691,-70.23591,-8.447793,-36.90935,0,0,0,185.5439,-24.90213,-44.20514,-122.5563,-110.4457,-88.2327,0.001067912,-0.1257102,0.09433498,0,0.3,0,0,0,0
638224432551246779,56.21407,17.11284,46.55445,39.99807,31.61732,44.39278,-56.82663,-0.4675641,5.626691,-70.23591,-8.447793,-36.83611,0,0,0,186.3889,-29.11127,-43.63976,-122.5563,-110.4457,-88.2327,0.001067912,-0.1257102,0.09433498,0,0.3,0,0,0,0
638224432551586672,56.16695,13.65287,46.1342,38.31343,33.08222,42.6349,-56.82663,-0.4675641,5.626691,-70.23591,-8.447793,-36.90935,0,0,0,187.4996,-37.58198,-42.67328,-122.5563,-110.4457,-88.2327,0.001067912,-0.1257102,0.09433498,0,0.3,0,0,0,0
638224432551926561,56.16695,10.80073,45.20031,36.99502,33.88792,41.24324,-56.82663,-0.4675641,5.626691,-70.23591,-8.447793,-36.83611,0,0,0,187.4055,-45.6235,-42.73632,-122.5563,-110.4457,-88.2327,0.001067912,-0.1257102,0.09433498,0,0.3,0,0,0,0
638224432552266471,56.14339,9.49155,44.49989,36.4823,34.10765,40.73053,-56.82663,-0.4675641,5.626691,-70.23591,-8.447793,-36.83611,0,0,0,186.8398,-49.77243,-43.0041,-122.5563,-110.4457,-88.2327,0.001067912,-0.1257102,0.09433498,0,0.3,0,0,0,0
638224432552606343,55.97847,6.943326,42.88893,35.74985,34.47387,39.77834,-56.82663,-0.4675641,5.626691,-70.23591,-8.447793,-36.83611,0,0,0,184.934,-58.23179,-43.50929,-122.5563,-110.4457,-88.2327,0.001067912,-0.1257102,0.09433498,0,0.3,0,0,0,0
638224432552956232,55.41303,4.699019,41.30132,35.16389,34.62037,38.89939,-56.82663,-0.4675641,5.626691,-70.23591,-8.447793,-36.83611,0,0,0,181.8719,-65.90483,-42.94598,-122.5563,-110.4457,-88.2327,0.001067912,-0.1257102,0.09433498,0,0.3,0,0,0,0
638224432553396092,54.61199,2.384577,39.64366,34.06521,34.76685,38.24019,-56.82663,-0.4675641,5.626691,-70.23591,-8.447793,-36.90935,0,0,0,177.9797,-73.78489,-41.92247,-122.5563,-110.4457,-88.2327,0.001067912,-0.1257102,0.09433498,0,0.3,0,0,0,0
638224432553725986,54.11723,1.215667,38.98993,33.33276,34.76685,38.24019,-56.82663,-0.4675641,5.626691,-70.23591,-8.447793,-36.83611,0,0,0,175.9969,-77.46803,-41.03015,-122.5563,-110.4457,-88.2327,0.001067912,-0.1257102,0.09433498,0,0.3,0,0,0,0
638224432554075875,53.76383,0.5376987,38.68642,32.96654,34.8401,38.31343,-56.82663,-0.4675641,5.626691,-70.23591,-8.521038,-36.90935,0,0,0,174.7839,-79.48873,-40.25801,-122.5563,-110.4457,-88.2327,0.001067912,-0.1257102,0.09433498,0,0.3,0,0,0,0
638224432554415768,52.77431,-0.6312115,38.28952,32.38057,34.98659,38.38668,-56.82663,-0.4675641,5.626691,-70.23591,-8.447793,-36.83611,0,0,0,171.9682,-82.7841,-37.69744,-122.5563,-110.4457,-88.2327,0.001067912,-0.1257102,0.09433498,0,0.3,0,0,0,0
638224432554745663,51.45495,-1.098776,37.61245,31.79461,34.98659,38.45993,-56.82663,-0.4675641,5.626691,-70.23591,-8.447793,-36.83611,0,0,0,167.9297,-84.84128,-34.55702,-122.5563,-110.4457,-88.2327,0.001067912,-0.1257102,0.09433498,0,0.3,0,0,0,0
638224432555095549,49.97068,-1.075397,36.77194,31.20865,34.98659,38.45993,-56.82663,-0.4675641,5.626691,-70.23591,-8.521038,-36.83611,0,0,0,163.2153,-85.96936,-31.25369,-122.5563,-110.4457,-88.2327,0.001067912,-0.1257102,0.09433498,0,0.3,0,0,0,0
638224432555425446,48.91048,-1.098776,36.51513,31.06216,35.05984,38.60641,-56.82663,-0.4675641,5.626691,-70.23591,-8.447793,-36.90935,0,0,0,160.2885,-86.3805,-28.57309,-122.5563,-110.4457,-88.2327,0.001067912,-0.1257102,0.09433498,0,0.3,0,0,0,0
638224432555765336,46.67228,-1.075397,35.74466,30.54945,34.98659,39.33887,-56.82663,-0.4675641,5.626691,-70.23591,-8.447793,-36.90935,0,0,0,153.6545,-87.38338,-23.4129,-122.5563,-110.4457,-88.2327,0.001067912,-0.1257102,0.09433498,0,0.3,0,0,0,0
638224432556115226,44.03357,-1.075397,34.64734,29.96349,35.05984,40.65728,-56.82663,-0.4675641,5.626691,-70.23591,-8.447793,-36.83611,0,0,0,145.3684,-88.85536,-17.99303,-122.5563,-110.4457,-88.2327,0.001067912,-0.1257102,0.09433498,0,0.3,0,0,0,0
638224432556455115,41.74825,-1.075397,33.64341,29.37753,35.13308,42.04893,-56.82663,-0.4675641,5.626691,-70.23591,-8.447793,-36.90935,0,0,0,137.9696,-90.16683,-13.75867,-122.5563,-110.4457,-88.2327,0.001067912,-0.1257102,0.09433498,0,0.3,0,0,0,0
638224432556805017,39.65141,-1.075397,32.73286,28.64507,35.42606,43.51384,-56.82663,-0.4675641,5.626691,-70.23591,-8.447793,-36.83611,0,0,0,131.0892,-91.32685,-10.17956,-122.5563,-110.4457,-88.2327,0.001067912,-0.1257102,0.09433498,0,0.3,0,0,0,0
638224432557144895,36.1881,-1.052019,31.19195,27.54639,35.86554,46.00418,-56.82663,-0.4675641,5.626691,-70.23591,-8.447793,-36.90935,0,0,0,119.499,-93.17086,-5.004164,-122.5563,-110.4457,-88.2327,0.001067912,-0.1257102,0.09433498,0,0.3,0,0,0,0
638224432557484787,34.46822,-1.005263,30.46818,26.7407,36.08527,47.10286,-56.82663,-0.4675641,5.626691,-70.23591,-8.447793,-36.90935,0,0,0,113.7251,-93.92534,-2.682123,-122.5563,-110.4457,-88.2327,0.001067912,-0.1257102,0.09433498,0,0.3,0,0,0,0
638224432557914654,29.23791,-0.1402692,28.2035,23.6644,36.96421,50.83836,-56.82663,-0.4675641,5.626691,-70.23591,-8.447793,-36.83611,0,0,0,95.91509,-94.49443,3.003518,-122.5563,-110.4457,-88.2327,0.001067912,-0.1257102,0.09433498,0,0.3,0,0,0,0
638224432558244545,27.70651,0.3974294,27.52643,22.71221,37.18394,51.93703,-56.82663,-0.4675641,5.626691,-70.23591,-8.447793,-36.90935,0,0,0,90.65244,-93.97952,4.269775,-122.5563,-110.4457,-88.2327,0.001067912,-0.1257102,0.09433498,0,0.3,0,0,0,0
638224432558584436,24.45524,2.08066,25.98551,20.88108,37.69667,54.42737,-56.82663,-0.4675641,5.626691,-70.23591,-8.447793,-36.90935,0,0,0,79.35566,-91.67751,6.141209,-122.5563,-110.4457,-88.2327,0.001067912,-0.1257102,0.09433498,0,0.3,0,0,0,0
638224432558924328,21.22752,4.652263,24.63136,19.26969,37.84315,57.21069,-56.82663,-0.4675641,5.626691,-70.23591,-8.447793,-36.90935,0,0,0,68.24633,-87.05046,7.349142,-122.5563,-110.4457,-88.2327,0.001067912,-0.1257102,0.09433498,0,0.3,0,0,0,0
638224432559264225,19.60189,6.218602,24.02434,18.53724,37.62342,58.74884,-56.82663,-0.4675641,5.626691,-70.23591,-8.447793,-36.83611,0,0,0,62.68674,-84.00349,7.676475,-122.5563,-110.4457,-88.2327,0.001067912,-0.1257102,0.09433498,0,0.3,0,0,0,0
638224432559604110,16.25637,9.935737,22.78693,17.07234,36.96421,61.75189,-56.82663,-0.4675641,5.626691,-70.23591,-8.447793,-36.83611,0,0,0,51.22746,-76.58356,7.330706,-122.5563,-110.4457,-88.2327,0.001067912,-0.1257102,0.09433498,0,0.3,0,0,0,0
638224432559944003,12.81662,14.28408,21.71296,15.31445,35.71904,64.97468,-56.82663,-0.4675641,5.626691,-70.23591,-8.447793,-36.90935,0,0,0,39.61045,-67.63726,5.7623,-122.5563,-110.4457,-88.2327,0.001067912,-0.1257102,0.09433498,0,0.3,0,0,0,0
638224432560283894,11.19098,16.57515,21.3861,14.28902,34.8401,66.36633,-56.82663,-0.4675641,5.626691,-70.23591,-8.447793,-36.83611,0,0,0,34.2425,-62.77699,4.730231,-122.5563,-110.4457,-88.2327,0.001067912,-0.1257102,0.09433498,0,0.3,0,0,0,0
638224432560623786,7.680547,21.81186,21.24601,11.5057,32.20328,69.22289,-56.82663,-0.4675641,5.626691,-70.23591,-8.447793,-36.83611,0,0,0,23.00456,-51.38908,2.231586,-122.5563,-110.4457,-88.2327,0.001067912,-0.1257102,0.09433498,0,0.3,0,0,0,0
638224432560963679,4.193673,27.72655,21.783,8.722386,28.54102,71.78648,-56.82663,-0.4675641,5.626691,-70.23591,-8.447793,-36.83611,0,0,0,12.25068,-38.43689,-1.27487,-122.5563,-110.4457,-88.2327,0.001067912,-0.1257102,0.09433498,0,0.3,0,0,0,0
638224432561303568,0.9423984,32.93989,23.39396,5.646089,24.2928,73.54436,-56.82663,-0.4675641,5.626691,-70.23591,-8.521038,-36.90935,0,0,0,2.711482,-26.52792,-3.512674,-122.5563,-110.4457,-88.2327,0.001067912,-0.1257102,0.09433498,0,0.3,0,0,0,0
638224432561643461,-0.6832389,35.41798,24.65471,3.96145,21.72922,74.42331,-56.82663,-0.4675641,5.626691,-70.23591,-8.447793,-36.83611,0,0,0,-1.959191,-20.56232,-4.061835,-122.5563,-110.4457,-88.2327,0.001067912,-0.1257102,0.09433498,0,0.3,0,0,0,0
638224432561983351,-3.510434,39.62605,27.64316,0.299192,16.30907,76.18118,-56.82663,-0.4675641,5.626691,-70.23591,-8.447793,-36.83611,0,0,0,-10.07721,-9.731469,-4.079994,-122.5563,-110.4457,-88.2327,0.001067912,-0.1257102,0.09433498,0,0.3,0,0,0,0
638224432562423212,-5.79575,42.94576,30.74835,-3.289821,10.88893,78.08556,-56.82663,-0.4675641,5.626691,-70.23591,-8.447793,-36.83611,0,0,0,-16.74186,-0.4016953,-3.407785,-122.5563,-110.4457,-88.2327,0.001067912,-0.1257102,0.09433498,0,0.3,0,0,0,0
638224432562773103,-7.751227,45.54074,33.85353,-6.146383,5.468789,80.28292,-56.82663,-0.4675641,5.626691,-70.23591,-8.447793,-36.90935,0,0,0,-22.61592,7.785964,-2.198004,-122.5563,-110.4457,-88.2327,0.001067912,-0.1257102,0.09433498,0,0.3,0,0,0,0
638224432563112992,-9.541784,47.43437,36.7019,-9.076189,0.3416272,82.77325,-56.82663,-0.4675641,5.626691,-70.23591,-8.447793,-36.83611,0,0,0,-28.16368,14.64854,-0.8011954,-122.5563,-110.4457,-88.2327,0.001067912,-0.1257102,0.09433498,0,0.3,0,0,0,0
638224432563452883,-10.46062,48.25261,38.12609,-10.54109,-2.148709,84.23816,-56.82663,-0.4675641,5.626691,-70.23591,-8.447793,-36.90935,0,0,0,-31.06855,17.94048,-0.07374706,-122.5563,-110.4457,-88.2327,0.001067912,-0.1257102,0.09433498,0,0.3,0,0,0,0
638224432563792775,-12.15694,49.84233,40.9511,-13.10467,-6.396928,87.31445,-56.82663,-0.4675641,5.626691,-70.23591,-8.447793,-36.83611,0,0,0,-36.51551,24.55062,1.157562,-122.5563,-110.4457,-88.2327,0.001067912,-0.1257102,0.09433498,0,0.3,0,0,0,0
638224432564142667,-13.90038,51.59569,44.17303,-15.81474,-10.42541,91.26969,-56.82663,-0.4675641,5.626691,-70.23591,-8.447793,-36.83611,0,0,0,-42.22357,32.20551,2.262715,-122.5563,-110.4457,-88.2327,0.001067912,-0.1257102,0.09433498,0,0.3,0,0,0,0
638224432564482556,-14.70142,52.57758,45.99411,-17.42614,-12.69601,93.68678,-56.82663,-0.4675641,5.626691,-70.23591,-8.447793,-36.83611,0,0,0,-44.90656,36.61094,2.806398,-122.5563,-110.4457,-88.2327,0.001067912,-0.1257102,0.09433498,0,0.3,0,0,0,0
638224432564822446,-16.11501,54.23743,49.5429,-20.86866,-16.94423,99.03368,-56.82663,-0.4675641,5.626691,-70.23591,-8.447793,-36.83611,0,0,0,-49.79496,45.02834,3.999181,-122.5563,-110.4457,-88.2327,0.001067912,-0.1257102,0.09433498,0,0.3,0,0,0,0
638224432565162337,-17.66997,55.33621,53.02164,-24.31118,-21.11921,105.4793,-56.82663,-0.4675641,5.626691,-70.23591,-8.521038,-36.90935,0,0,0,-55.3562,52.81905,5.418271,-122.5563,-110.4457,-88.2327,0.001067912,-0.1257102,0.09433498,0,0.3,0,0,0,0
638224432565502231,-19.76681,55.68688,56.19687,-28.5594,-25.29418,114.6349,-56.82663,-0.4675641,5.626691,-70.23591,-8.447793,-36.83611,0,0,0,-62.8968,59.30492,6.670669,-122.5563,-110.4457,-88.2327,0.001067912,-0.1257102,0.09433498,0,0.3,0,0,0,0
638224432565872113,-20.92125,55.56999,57.29419,-31.12299,-26.83233,119.6888,-56.82663,-0.4675641,5.626691,-70.23591,-8.447793,-36.83611,0,0,0,-66.9905,61.28698,6.885788,-122.5563,-110.4457,-88.2327,0.001067912,-0.1257102,0.09433498,0,0.3,0,0,0,0
638224432566202007,-23.39504,54.84526,58.69503,-36.76286,-29.10293,128.8445,-56.82663,-0.4675641,5.626691,-70.23591,-8.447793,-36.83611,0,0,0,-75.72779,63.0892,6.688157,-122.5563,-110.4457,-88.2327,0.001067912,-0.1257102,0.09433498,0,0.3,0,0,0,0
638224432566541899,-25.49188,53.74649,59.55888,-43.13519,-30.05512,135.3633,-56.82663,-0.4675641,5.626691,-70.23591,-8.447793,-36.90935,0,0,0,-83.41921,63.32241,6.605839,-122.5563,-110.4457,-88.2327,0.001067912,-0.1257102,0.09433498,0,0.3,0,0,0,0
638224432566951767,-27.4238,52.25029,60.00248,-49.21454,-30.05512,139.9777,-56.82663,-0.4675641,5.626691,-70.23591,-8.447793,-36.90935,0,0,0,-90.79002,62.11884,6.623821,-122.5563,-110.4457,-88.2327,0.001067912,-0.1257102,0.09433498,0,0.3,0,0,0,0
638224432567291661,-28.10703,51.66583,60.04917,-50.89918,-29.90863,141.0764,-56.82663,-0.4675641,5.626691,-70.23591,-8.447793,-36.83611,0,0,0,-93.40032,61.37474,6.521592,-122.5563,-110.4457,-88.2327,0.001067912,-0.1257102,0.09433498,0,0.3,0,0,0,0
638224432567624916,-29.68555,50.23976,60.02582,-54.19521,-29.02968,144.0795,-56.82663,-0.4675641,5.626691,-70.23591,-8.447793,-36.83611,0,0,0,-99.44512,59.23686,6.098063,-122.5563,-110.4457,-88.2327,0.001067912,-0.1257102,0.09433498,0,0.3,0,0,0,0
638224432567974808,-31.14627,48.67342,59.93243,-56.39257,-27.85776,144.8852,-56.82663,-0.4675641,5.626691,-70.23591,-8.447793,-36.90935,0,0,0,-105.2363,56.67908,5.784144,-122.5563,-110.4457,-88.2327,0.001067912,-0.1257102,0.09433498,0,0.3,0,0,0,0
638224432568304692,-32.72478,46.68627,59.86239,-58.22369,-26.68584,144.8119,-56.82663,-0.4675641,5.626691,-70.23591,-8.447793,-36.83611,0,0,0,-111.7976,53.42441,5.627047,-122.5563,-110.4457,-88.2327,0.001067912,-0.1257102,0.09433498,0,0.3,0,0,0,0
638224432568645075,-33.62006,45.42385,59.79235,-59.24913,-25.95339,144.8852,-56.82663,-0.4675641,5.626691,-70.23591,-8.447793,-36.90935,0,0,0,-115.6282,51.24453,5.552347,-122.5563,-110.4457,-88.2327,0.001067912,-0.1257102,0.09433498,0,0.3,0,0,0,0
638224432568985094,-35.19858,42.89901,59.27871,-61.08026,-24.04902,144.9584,-56.82663,-0.4675641,5.626691,-70.23591,-8.447793,-36.83611,0,0,0,-122.3851,45.99892,5.151006,-122.5563,-110.4457,-88.2327,0.001067912,-0.1257102,0.09433498,0,0.3,0,0,0,0
638224432569334853,-36.7771,40.04686,58.25143,-62.54516,-21.99815,144.8852,-56.82663,-0.4675641,5.626691,-70.23591,-8.447793,-36.90935,0,0,0,-129.0075,38.98145,4.241655,-122.5563,-110.4457,-88.2327,0.001067912,-0.1257102,0.09433498,0,0.3,0,0,0,0
638224432569665105,-37.53102,38.52728,57.78448,-62.91139,-20.97272,144.9584,-56.82663,-0.4675641,5.626691,-70.23591,-8.447793,-36.83611,0,0,0,-132.2808,35.3224,3.848644,-122.5563,-110.4457,-88.2327,0.001067912,-0.1257102,0.09433498,0,0.3,0,0,0,0
638224432570014990,-39.34513,34.17893,56.50039,-63.49735,-18.11616,144.9584,-56.82663,-0.4675641,5.626691,-70.23591,-8.447793,-36.83611,0,0,0,-140.4402,24.66321,2.958889,-122.5563,-110.4457,-88.2327,0.001067912,-0.1257102,0.09433498,0,0.3,0,0,0,0
638224432570344892,-40.47601,30.8826,55.4731,-63.57059,-15.84556,144.9584,-56.82663,-0.4675641,5.626691,-70.23591,-8.447793,-36.83611,0,0,0,-145.6033,16.21413,2.274211,-122.5563,-110.4457,-88.2327,0.001067912,-0.1257102,0.09433498,0,0.3,0,0,0,0
638224432570690087,-41.06501,28.87208,54.77269,-63.27761,-14.30741,144.8119,-56.82663,-0.4675641,5.626691,-70.23591,-8.447793,-36.83611,0,0,0,-148.2685,10.81962,1.822994,-122.5563,-110.4457,-88.2327,0.001067912,-0.1257102,0.09433498,0,0.3,0,0,0,0
638224432571029970,-41.98385,24.82765,53.32516,-62.39867,-11.59733,144.8119,-56.82663,-0.4675641,5.626691,-70.23591,-8.447793,-36.90935,0,0,0,-152.4986,-0.3040157,1.112828,-122.5563,-110.4457,-88.2327,0.001067912,-0.1257102,0.09433498,0,0.3,0,0,0,0
638224432571470005,-42.54929,20.17539,51.6675,-61.00701,-8.447793,144.8852,-56.82663,-0.4675641,5.626691,-70.23591,-8.447793,-36.83611,0,0,0,-155.3766,-13.36513,0.921232,-122.5563,-110.4457,-88.2327,0.001067912,-0.1257102,0.09433498,0,0.3,0,0,0,0
638224432571809726,-42.59641,15.5465,48.98256,-58.80966,-5.078516,144.8852,-56.82663,-0.4675641,5.626691,-70.23591,-8.447793,-36.83611,0,0,0,-155.0516,-28.42557,0.2885533,-122.5563,-110.4457,-88.2327,0.001067912,-0.1257102,0.09433498,0,0.3,0,0,0,0
638224432572149620,-42.33725,11.36181,45.59721,-55.87985,-1.782483,144.8852,-56.82663,-0.4675641,5.626691,-70.23591,-8.447793,-36.90935,0,0,0,-152.2142,-43.68428,-1.287052,-122.5563,-110.4457,-88.2327,0.001067912,-0.1257102,0.09433498,0,0.3,0,0,0,0
638224432572489511,-42.05453,9.23439,43.84616,-54.12197,0.04864649,144.8852,-56.82663,-0.4675641,5.626691,-70.23591,-8.447793,-36.83611,0,0,0,-150.0414,-51.42316,-2.030801,-122.5563,-110.4457,-88.2327,0.001067912,-0.1257102,0.09433498,0,0.3,0,0,0,0
638224432572829402,-41.51265,5.821173,40.64759,-50.82594,3.710905,144.7387,-56.82663,-0.4675641,5.626691,-70.23591,-8.447793,-36.90935,0,0,0,-145.4994,-64.30183,-3.965999,-122.5563,-110.4457,-88.2327,0.001067912,-0.1257102,0.09433498,0,0.3,0,0,0,0
638224432573169295,-40.66449,2.922275,37.79922,-47.89613,7.519653,142.1018,-56.82663,-0.4675641,5.626691,-70.23591,-8.447793,-36.90935,0,0,0,-140.0391,-75.21993,-5.335323,-122.5563,-110.4457,-88.2327,0.001067912,-0.1257102,0.09433498,0,0.3,0,0,0,0
638224432573509184,-39.43937,1.239045,35.16098,-45.33255,11.25516,139.465,-56.82663,-0.4675641,5.626691,-70.23591,-8.447793,-36.90935,0,0,0,-133.476,-82.78507,-6.081211,-122.5563,-110.4457,-88.2327,0.001067912,-0.1257102,0.09433498,0,0.3,0,0,0,0
638224432573849076,-38.7797,1.028641,33.57337,-44.16063,12.9398,137.6339,-56.82663,-0.4675641,5.626691,-70.23591,-8.447793,-36.90935,0,0,0,-129.6947,-85.36041,-6.92524,-122.5563,-110.4457,-88.2327,0.001067912,-0.1257102,0.09433498,0,0.3,0,0,0,0
638224432574198957,-37.22474,1.332558,29.97789,-42.25625,16.52881,133.6054,-56.82663,-0.4675641,5.626691,-70.23591,-8.521038,-36.83611,0,0,0,-120.9549,-89.0591,-9.140541,-122.5563,-110.4457,-88.2327,0.001067912,-0.1257102,0.09433498,0,0.3,0,0,0,0
638224432574528999,-35.19858,1.893635,26.33572,-40.86459,19.89809,129.0642,-56.82663,-0.4675641,5.626691,-70.23591,-8.447793,-36.83611,0,0,0,-110.922,-91.75317,-11.09979,-122.5563,-110.4457,-88.2327,0.001067912,-0.1257102,0.09433498,0,0.3,0,0,0,0
638224432574868887,-33.92635,2.197551,24.58467,-40.0589,21.43624,126.5739,-56.82663,-0.4675641,5.626691,-70.23591,-8.447793,-36.83611,0,0,0,-105.3355,-92.79816,-11.74976,-122.5563,-110.4457,-88.2327,0.001067912,-0.1257102,0.09433498,0,0.3,0,0,0,0
638224432575208637,-31.19339,3.109301,21.54953,-37.71505,24.58578,122.0327,-56.82663,-0.4675641,5.626691,-70.23591,-8.447793,-36.83611,0,0,0,-94.33228,-93.44587,-12.54832,-122.5563,-110.4457,-88.2327,0.001067912,-0.1257102,0.09433498,0,0.3,0,0,0,0
638224432575538667,-28.41331,4.792531,18.93463,-34.78524,27.51558,118.3704,-56.82663,-0.4675641,5.626691,-70.23591,-8.447793,-36.83611,0,0,0,-83.81931,-91.64323,-13.41549,-122.5563,-110.4457,-88.2327,0.001067912,-0.1257102,0.09433498,0,0.3,0,0,0,0
638224432575988388,-25.7746,7.55116,16.52986,-31.56245,29.93268,113.756,-56.82663,-0.4675641,5.626691,-70.23591,-8.447793,-36.90935,0,0,0,-73.97955,-86.96514,-15.14266,-122.5563,-110.4457,-88.2327,0.001067912,-0.1257102,0.09433498,0,0.3,0,0,0,0
638224432576318381,-24.33744,9.655198,15.52593,-29.80457,30.95811,110.0937,-56.82663,-0.4675641,5.626691,-70.23591,-8.447793,-36.83611,0,0,0,-68.88641,-82.76871,-16.04893,-122.5563,-110.4457,-88.2327,0.001067912,-0.1257102,0.09433498,0,0.3,0,0,0,0
638224432576658179,-23.5364,11.03451,15.15238,-28.85239,31.39758,108.1893,-56.82663,-0.4675641,5.626691,-70.23591,-8.447793,-36.83611,0,0,0,-66.18546,-79.84074,-16.39794,-122.5563,-110.4457,-88.2327,0.001067912,-0.1257102,0.09433498,0,0.3,0,0,0,0
638224432576998064,-21.84008,14.35422,14.70878,-27.0945,31.54407,105.0398,-56.82663,-0.4675641,5.626691,-70.23591,-8.447793,-36.83611,0,0,0,-60.65571,-72.57039,-17.00705,-122.5563,-110.4457,-88.2327,0.001067912,-0.1257102,0.09433498,0,0.3,0,0,0,0
638224432577337964,-20.14377,18.14149,14.68543,-25.04364,30.95811,103.0622,-56.82663,-0.4675641,5.626691,-70.23591,-8.447793,-36.90935,0,0,0,-55.28182,-64.12329,-17.64214,-122.5563,-110.4457,-88.2327,0.001067912,-0.1257102,0.09433498,0,0.3,0,0,0,0
638224432577667984,-19.29561,20.12863,14.80217,-23.94496,30.2989,102.2565,-56.82663,-0.4675641,5.626691,-70.23591,-8.447793,-36.83611,0,0,0,-52.63078,-59.68502,-18.02314,-122.5563,-110.4457,-88.2327,0.001067912,-0.1257102,0.09433498,0,0.3,0,0,0,0
638224432578007876,-17.52861,24.17306,15.50258,-21.67436,28.54102,101.0845,-56.82663,-0.4675641,5.626691,-70.23591,-8.447793,-36.83611,0,0,0,-47.37561,-50.54247,-18.35497,-122.5563,-110.4457,-88.2327,0.001067912,-0.1257102,0.09433498,0,0.3,0,0,0,0
638224432578357629,-15.97365,28.1006,16.6466,-19.477,26.34366,100.3521,-56.82663,-0.4675641,5.626691,-70.23591,-8.447793,-36.83611,0,0,0,-42.88408,-41.60062,-18.53548,-122.5563,-110.4457,-88.2327,0.001067912,-0.1257102,0.09433498,0,0.3,0,0,0,0
638224432578687524,-15.26685,29.94748,17.34702,-18.52482,25.17174,100.0591,-56.82663,-0.4675641,5.626691,-70.23591,-8.447793,-36.83611,0,0,0,-40.89413,-37.36566,-18.52576,-122.5563,-110.4457,-88.2327,0.001067912,-0.1257102,0.09433498,0,0.3,0,0,0,0
638224432579027424,-13.90038,34.95041,19.47162,-16.47395,21.65597,99.25342,-56.82663,-0.4675641,5.626691,-70.23591,-8.447793,-36.83611,0,0,0,-36.93627,-25.98142,-19.10166,-122.5563,-110.4457,-88.2327,0.001067912,-0.1257102,0.09433498,0,0.3,0,0,0,0
638224432579367316,-13.7119,37.84931,20.54559,-15.66825,19.67835,98.96043,-56.82663,-0.4675641,5.626691,-70.23591,-8.447793,-36.83611,0,0,0,-36.05289,-19.69623,-20.58843,-122.5563,-110.4457,-88.2327,0.001067912,-0.1257102,0.09433498,0,0.3,0,0,0,0
638224432579707217,-13.73546,41.70671,21.75965,-15.22878,16.82179,97.27579,-56.82663,-0.4675641,5.626691,-70.23591,-8.447793,-36.90935,0,0,0,-35.37573,-11.77829,-23.62222,-122.5563,-110.4457,-88.2327,0.001067912,-0.1257102,0.09433498,0,0.3,0,0,0,0
638224432580037102,-13.73546,43.41333,22.69354,-15.15554,15.50338,96.10387,-56.82663,-0.4675641,5.626691,-70.23591,-8.447793,-36.90935,0,0,0,-35.21561,-8.030606,-24.2773,-122.5563,-110.4457,-88.2327,0.001067912,-0.1257102,0.09433498,0,0.3,0,0,0,0
638224432580376996,-13.73546,46.92005,25.1917,-15.44852,12.35384,94.63897,-56.82663,-0.4675641,5.626691,-70.23591,-8.521038,-36.90935,0,0,0,-35.10319,0.08211244,-24.73723,-122.5563,-110.4457,-88.2327,0.001067912,-0.1257102,0.09433498,0,0.3,0,0,0,0
638224432580716884,-13.73546,50.49692,27.97002,-15.96124,8.838067,94.05301,-56.82663,-0.4675641,5.626691,-70.23591,-8.447793,-36.83611,0,0,0,-34.9912,8.467778,-25.19542,-122.5563,-110.4457,-88.2327,0.001067912,-0.1257102,0.09433498,0,0.3,0,0,0,0
638224432581056776,-13.73546,52.25029,29.46425,-16.18097,6.933692,94.12625,-56.82663,-0.4675641,5.626691,-70.23591,-8.447793,-36.90935,0,0,0,-34.95841,12.68598,-25.32955,-122.5563,-110.4457,-88.2327,0.001067912,-0.1257102,0.09433498,0,0.3,0,0,0,0
638224432581406660,-13.73546,55.59337,32.75621,-16.76693,2.831963,95.29817,-56.82663,-0.4675641,5.626691,-70.23591,-8.447793,-36.83611,0,0,0,-35.02282,21.22543,-25.06602,-122.5563,-110.4457,-88.2327,0.001067912,-0.1257102,0.09433498,0,0.3,0,0,0,0
638224432581736557,-13.73546,58.5624,36.32835,-17.27965,-1.562747,96.98281,-56.82663,-0.4675641,5.626691,-70.23591,-8.447793,-36.83611,0,0,0,-35.27148,29.69391,-24.04873,-122.5563,-110.4457,-88.2327,0.001067912,-0.1257102,0.09433498,0,0.3,0,0,0,0
638224432582076452,-13.73546,60.68982,39.48022,-17.86561,-5.225006,98.44772,-56.82663,-0.4675641,5.626691,-70.23591,-8.447793,-36.90935,0,0,0,-35.63141,36.70343,-22.57618,-122.5563,-110.4457,-88.2327,0.001067912,-0.1257102,0.09433498,0,0.3,0,0,0,0
638224432582416342,-13.73546,62.34967,42.58541,-18.45157,-8.740773,100.0591,-56.82663,-0.4675641,5.626691,-70.23591,-8.447793,-36.90935,0,0,0,-36.11945,43.28941,-20.57956,-122.5563,-110.4457,-88.2327,0.001067912,-0.1257102,0.09433498,0,0.3,0,0,0,0
638224432582756231,-13.73546,64.00952,47.06809,-19.25727,-13.86794,102.403,-56.82663,-0.4675641,5.626691,-70.23591,-8.447793,-36.83611,0,0,0,-37.05737,52.38538,-16.74236,-122.5563,-110.4457,-88.2327,0.001067912,-0.1257102,0.09433498,0,0.3,0,0,0,0
638224432583096125,-13.73546,64.781,51.43402,-20.35595,-18.92185,104.6003,-56.82663,-0.4675641,5.626691,-70.23591,-8.447793,-36.90935,0,0,0,-38.2474,60.85741,-11.87377,-122.5563,-110.4457,-88.2327,0.001067912,-0.1257102,0.09433498,0,0.3,0,0,0,0
638224432583515991,-13.73546,64.87452,55.77662,-22.11383,-23.75603,106.7977,-56.82663,-0.4675641,5.626691,-70.23591,-8.447793,-36.83611,0,0,0,-39.62418,69.0836,-6.24111,-122.5563,-110.4457,-88.2327,0.001067912,-0.1257102,0.09433498,0,0.3,0,0,0,0
638224432583845887,-13.73546,64.85114,57.66774,-22.91953,-25.73365,107.9696,-56.82663,-0.4675641,5.626691,-70.23591,-8.447793,-36.90935,0,0,0,-40.20928,72.73998,-3.847385,-122.5563,-110.4457,-88.2327,0.001067912,-0.1257102,0.09433498,0,0.3,0,0,0,0
638224432584205770,-13.75902,64.73425,61.77686,-24.97039,-30.12836,110.6797,-56.82663,-0.4675641,5.626691,-70.23591,-8.447793,-36.83611,0,0,0,-41.48204,80.88136,1.05764,-122.5563,-110.4457,-88.2327,0.001067912,-0.1257102,0.09433498,0,0.3,0,0,0,0
638224432584541457,-13.85326,64.45371,65.67587,-27.75371,-34.96254,112.9503,-56.82663,-0.4675641,5.626691,-70.23591,-8.447793,-36.83611,0,0,0,-42.86345,88.73668,5.461117,-122.5563,-110.4457,-88.2327,0.001067912,-0.1257102,0.09433498,0,0.3,0,0,0,0
638224432584881351,-13.97106,64.21992,67.40356,-29.58484,-37.30639,114.4884,-56.82663,-0.4675641,5.626691,-70.23591,-8.447793,-36.83611,0,0,0,-43.7256,92.18954,7.401959,-122.5563,-110.4457,-88.2327,0.001067912,-0.1257102,0.09433498,0,0.3,0,0,0,0
638224432585221240,-14.27734,63.7056,69.76163,-33.97955,-41.26163,118.0042,-56.82663,-0.4675641,5.626691,-70.23591,-8.447793,-36.83611,0,0,0,-45.4239,96.77293,10.15005,-122.5563,-110.4457,-88.2327,0.001067912,-0.1257102,0.09433498,0,0.3,0,0,0,0
638224432585561132,-14.67786,63.12115,70.90565,-38.81373,-44.04494,121.0805,-56.82663,-0.4675641,5.626691,-70.23591,-8.447793,-36.90935,0,0,0,-47.20584,98.67137,11.8717,-122.5563,-110.4457,-88.2327,0.001067912,-0.1257102,0.09433498,0,0.3,0,0,0,0
638224432585901034,-15.47889,62.77048,71.20916,-42.76897,-45.5831,122.6919,-56.82663,-0.4675641,5.626691,-70.23591,-8.447793,-36.83611,0,0,0,-49.97596,98.9683,12.11561,-122.5563,-110.4457,-88.2327,0.001067912,-0.1257102,0.09433498,0,0.3,0,0,0,0
638224432586240914,-16.04433,62.72372,71.13912,-44.38036,-46.02256,123.2778,-56.82663,-0.4675641,5.626691,-70.23591,-8.447793,-36.83611,0,0,0,-51.76667,98.76418,11.65605,-122.5563,-110.4457,-88.2327,0.001067912,-0.1257102,0.09433498,0,0.3,0,0,0,0
638224432586580817,-18.16473,62.60683,70.60213,-48.62858,-46.46204,124.816,-56.82663,-0.4675641,5.626691,-70.23591,-8.447793,-36.90935,0,0,0,-58.33902,97.45849,9.457941,-122.5563,-110.4457,-88.2327,0.001067912,-0.1257102,0.09433498,0,0.3,0,0,0,0
638224432586930695,-20.68565,61.97561,69.76163,-52.58382,-45.65634,127.3063,-56.82663,-0.4675641,5.626691,-70.23591,-8.447793,-36.83611,0,0,0,-66.32843,94.9351,7.316178,-122.5563,-110.4457,-88.2327,0.001067912,-0.1257102,0.09433498,0,0.3,0,0,0,0
638224432587270586,-22.16992,61.22752,69.10791,-54.70793,-44.70415,128.3317,-56.82663,-0.4675641,5.626691,-70.23591,-8.447793,-36.83611,0,0,0,-71.23267,92.68251,6.462581,-122.5563,-110.4457,-88.2327,0.001067912,-0.1257102,0.09433498,0,0.3,0,0,0,0
638224432587610477,-24.73796,59.12348,67.94054,-57.78423,-42.14057,129.2107,-56.82663,-0.4675641,5.626691,-70.23591,-8.447793,-36.83611,0,0,0,-80.35519,87.71894,6.050269,-122.5563,-110.4457,-88.2327,0.001067912,-0.1257102,0.09433498,0,0.3,0,0,0,0
638224432588030346,-27.25887,56.5285,67.45025,-59.61535,-39.21077,131.2616,-56.82663,-0.4675641,5.626691,-70.23591,-8.447793,-36.90935,0,0,0,-90.09109,83.44747,6.506132,-122.5563,-110.4457,-88.2327,0.001067912,-0.1257102,0.09433498,0,0.3,0,0,0,0
638224432588380233,-29.92115,53.44257,67.21678,-61.44649,-36.13447,134.5576,-56.82663,-0.4675641,5.626691,-70.23591,-8.447793,-36.83611,0,0,0,-100.945,78.82555,7.048896,-122.5563,-110.4457,-88.2327,0.001067912,-0.1257102,0.09433498,0,0.3,0,0,0,0
638224432588720125,-32.55987,50.07611,66.98331,-63.35086,-33.13141,137.0479,-56.82663,-0.4675641,5.626691,-70.23591,-8.447793,-36.90935,0,0,0,-112.1106,73.47604,7.223277,-122.5563,-110.4457,-88.2327,0.001067912,-0.1257102,0.09433498,0,0.3,0,0,0,0
638224432589060016,-33.87922,48.25261,66.98331,-64.37629,-31.52002,138.0001,-56.82663,-0.4675641,5.626691,-70.23591,-8.447793,-36.83611,0,0,0,-117.9133,70.70103,7.261051,-122.5563,-110.4457,-88.2327,0.001067912,-0.1257102,0.09433498,0,0.3,0,0,0,0
638224432589399914,-36.35302,44.46534,66.95996,-66.13418,-28.29723,140.1242,-56.82663,-0.4675641,5.626691,-70.23591,-8.447793,-36.90935,0,0,0,-129.1511,64.56893,7.127301,-122.5563,-110.4457,-88.2327,0.001067912,-0.1257102,0.09433498,0,0.3,0,0,0,0
638224432589729802,-38.47342,40.79496,66.81988,-68.03855,-25.07445,141.4426,-56.82663,-0.4675641,5.626691,-70.23591,-8.447793,-36.83611,0,0,0,-139.0744,57.98513,6.657099,-122.5563,-110.4457,-88.2327,0.001067912,-0.1257102,0.09433498,0,0.3,0,0,0,0
638224432590079699,-39.51006,38.94809,66.79652,-68.84425,-23.5363,142.3216,-56.82663,-0.4675641,5.626691,-70.23591,-8.447793,-36.90935,0,0,0,-143.9573,54.63636,6.221717,-122.5563,-110.4457,-88.2327,0.001067912,-0.1257102,0.09433498,0,0.3,0,0,0,0
638224432590419590,-41.30061,35.67514,66.72649,-70.23591,-20.89947,142.9808,-56.82663,-0.4675641,5.626691,-70.23591,-8.447793,-36.83611,0,0,0,-152.3463,48.42885,5.058383,-122.5563,-110.4457,-88.2327,0.001067912,-0.1257102,0.09433498,0,0.3,0,0,0,0
638224432590759475,-42.97337,32.51908,66.21284,-71.55432,-18.26265,143.054,-56.82663,-0.4675641,5.626691,-70.23591,-8.447793,-36.90935,0,0,0,-159.8246,41.25094,3.200651,-122.5563,-110.4457,-88.2327,0.001067912,-0.1257102,0.09433498,0,0.3,0,0,0,0
638224432591099375,-44.43409,29.50329,64.69527,-72.28677,-15.77231,143.054,-56.82663,-0.4675641,5.626691,-70.23591,-8.447793,-36.83611,0,0,0,-165.6499,32.02324,0.6049091,-122.5563,-110.4457,-88.2327,0.001067912,-0.1257102,0.09433498,0,0.3,0,0,0,0
638224432591439266,-44.99953,28.28763,63.73803,-72.21353,-14.60039,143.054,-56.82663,-0.4675641,5.626691,-70.23591,-8.447793,-36.83611,0,0,0,-167.5907,27.54013,-0.7565497,-122.5563,-110.4457,-88.2327,0.001067912,-0.1257102,0.09433498,0,0.3,0,0,0,0
638224432591779158,-46.03617,25.66927,61.19318,-71.1881,-12.1833,142.2483,-56.82663,-0.4675641,5.626691,-70.23591,-8.447793,-36.83611,0,0,0,-170.6144,16.85822,-3.797589,-122.5563,-110.4457,-88.2327,0.001067912,-0.1257102,0.09433498,0,0.3,0,0,0,0
638224432592119041,-46.67228,23.21456,58.15804,-69.21047,-9.839451,140.4172,-56.82663,-0.4675641,5.626691,-70.23591,-8.447793,-36.83611,0,0,0,-171.5561,5.560752,-6.526987,-122.5563,-110.4457,-88.2327,0.001067912,-0.1257102,0.09433498,0,0.3,0,0,0,0
638224432592568898,-46.86076,20.5962,53.27846,-65.84119,-6.470173,138.7326,-56.82663,-0.4675641,5.626691,-70.23591,-8.447793,-36.90935,0,0,0,-169.08,-9.473703,-9.910437,-122.5563,-110.4457,-88.2327,0.001067912,-0.1257102,0.09433498,0,0.3,0,0,0,0
638224432592908816,-46.57804,19.1935,48.77244,-62.47192,-3.686857,136.462,-56.82663,-0.4675641,5.626691,-70.23591,-8.447793,-36.90935,0,0,0,-164.3133,-20.6944,-12.84733,-122.5563,-110.4457,-88.2327,0.001067912,-0.1257102,0.09433498,0,0.3,0,0,0,0
638224432593238696,-46.22464,18.81945,46.29763,-60.42105,-2.075463,134.9971,-56.82663,-0.4675641,5.626691,-70.23591,-8.447793,-36.90935,0,0,0,-160.7481,-25.76617,-14.3308,-122.5563,-110.4457,-88.2327,0.001067912,-0.1257102,0.09433498,0,0.3,0,0,0,0
638224432593578576,-45.32936,18.7727,41.32466,-55.9531,1.586795,132.0673,-56.82663,-0.4675641,5.626691,-70.23591,-8.447793,-36.83611,0,0,0,-152.409,-33.87921,-17.68324,-122.5563,-110.4457,-88.2327,0.001067912,-0.1257102,0.09433498,0,0.3,0,0,0,0
638224432593918486,-44.38697,19.14675,37.30893,-51.99786,5.249053,128.9177,-56.82663,-0.4675641,5.626691,-70.23591,-8.447793,-36.90935,0,0,0,-144.6556,-38.97649,-20.5653,-122.5563,-110.4457,-88.2327,0.001067912,-0.1257102,0.09433498,0,0.3,0,0,0,0
638224432594258365,-43.91577,19.54418,35.53454,-50.38646,6.933692,127.3796,-56.82663,-0.4675641,5.626691,-70.23591,-8.447793,-36.90935,0,0,0,-140.9181,-40.55555,-21.99509,-122.5563,-110.4457,-88.2327,0.001067912,-0.1257102,0.09433498,0,0.3,0,0,0,0
638224432594588253,-42.73777,21.08714,31.70559,-47.60315,10.59595,123.7173,-56.82663,-0.4675641,5.626691,-70.23591,-8.447793,-36.83611,0,0,0,-131.9982,-42.12118,-25.49401,-122.5563,-110.4457,-88.2327,0.001067912,-0.1257102,0.09433498,0,0.3,0,0,0,0
638224432594928152,-41.32417,23.75225,28.6004,-45.2593,13.599,120.348,-56.82663,-0.4675641,5.626691,-70.23591,-8.447793,-36.90935,0,0,0,-122.746,-40.01751,-28.74999,-122.5563,-110.4457,-88.2327,0.001067912,-0.1257102,0.09433498,0,0.3,0,0,0,0
638224432595278031,-40.5467,25.57575,27.45638,-44.16063,14.69768,118.9564,-56.82663,-0.4675641,5.626691,-70.23591,-8.447793,-36.90935,0,0,0,-118.1614,-37.41199,-30.22889,-122.5563,-110.4457,-88.2327,0.001067912,-0.1257102,0.09433498,0,0.3,0,0,0,0
638224432595617941,-38.63834,30.64882,25.82208,-41.96327,16.08934,116.3195,-56.82663,-0.4675641,5.626691,-70.23591,-8.447793,-36.83611,0,0,0,-107.9007,-28.70668,-33.37044,-122.5563,-110.4457,-88.2327,0.001067912,-0.1257102,0.09433498,0,0.3,0,0,0,0
638224432595957815,-37.2483,34.71663,25.68199,-40.64486,16.01609,115.0011,-56.82663,-0.4675641,5.626691,-70.23591,-8.447793,-36.90935,0,0,0,-101.3232,-20.88154,-35.09503,-122.5563,-110.4457,-88.2327,0.001067912,-0.1257102,0.09433498,0,0.3,0,0,0,0
638224432596307704,-35.4813,40.00011,26.33572,-39.2532,15.06391,113.6095,-56.82663,-0.4675641,5.626691,-70.23591,-8.447793,-36.90935,0,0,0,-93.63029,-10.4437,-36.99453,-122.5563,-110.4457,-88.2327,0.001067912,-0.1257102,0.09433498,0,0.3,0,0,0,0
638224432596647607,-34.51534,42.61847,26.8727,-38.52075,14.25821,113.0235,-56.82663,-0.4675641,5.626691,-70.23591,-8.447793,-36.90935,0,0,0,-89.75651,-5.306892,-37.82836,-122.5563,-110.4457,-88.2327,0.001067912,-0.1257102,0.09433498,0,0.3,0,0,0,0
638224432597077468,-32.20647,48.08897,28.50701,-36.76286,11.76787,112.0713,-56.82663,-0.4675641,5.626691,-70.23591,-8.447793,-36.90935,0,0,0,-81.39441,5.404315,-39.13022,-122.5563,-110.4457,-88.2327,0.001067912,-0.1257102,0.09433498,0,0.3,0,0,0,0
638224432597427360,-30.03895,53.53609,30.86509,-34.93173,8.545086,111.4854,-56.82663,-0.4675641,5.626691,-70.23591,-8.447793,-36.83611,0,0,0,-73.91846,16.12958,-40.52024,-122.5563,-110.4457,-88.2327,0.001067912,-0.1257102,0.09433498,0,0.3,0,0,0,0
638224432597767250,-28.05991,58.74942,33.87688,-33.61332,4.882828,111.2656,-56.82663,-0.4675641,5.626691,-70.23591,-8.447793,-36.83611,0,0,0,-67.50642,26.63967,-41.70853,-122.5563,-110.4457,-88.2327,0.001067912,-0.1257102,0.09433498,0,0.3,0,0,0,0
638224432598117137,-25.96308,64.00952,37.51905,-32.88087,0.7810982,111.1924,-56.82663,-0.4675641,5.626691,-70.23591,-8.447793,-36.83611,0,0,0,-61.13781,37.44724,-42.79363,-122.5563,-110.4457,-88.2327,0.001067912,-0.1257102,0.09433498,0,0.3,0,0,0,0
638224432598457028,-24.78508,66.46423,39.45688,-32.66114,-1.489502,111.1924,-56.82663,-0.4675641,5.626691,-70.23591,-8.447793,-36.83611,0,0,0,-57.84887,42.6468,-43.06791,-122.5563,-110.4457,-88.2327,0.001067912,-0.1257102,0.09433498,0,0.3,0,0,0,0
638224432598796924,-21.36888,71.42041,43.79947,-32.07517,-6.836399,111.1924,-56.82663,-0.4675641,5.626691,-70.23591,-8.447793,-36.83611,0,0,0,-49.11161,53.50248,-42.83132,-122.5563,-110.4457,-88.2327,0.001067912,-0.1257102,0.09433498,0,0.3,0,0,0,0
638224432599136827,-16.98673,75.53497,47.60507,-30.83001,-12.40303,110.3867,-56.82663,-0.4675641,5.626691,-70.23591,-8.447793,-36.90935,0,0,0,-38.50258,62.56334,-42.30935,-122.5563,-110.4457,-88.2327,0.001067912,-0.1257102,0.09433498,0,0.3,0,0,0,0
638224432599486691,-14.39514,77.21821,49.28608,-29.58484,-15.25959,109.4345,-56.82663,-0.4675641,5.626691,-70.23591,-8.447793,-36.90935,0,0,0,-32.46275,66.41366,-41.87135,-122.5563,-110.4457,-88.2327,0.001067912,-0.1257102,0.09433498,0,0.3,0,0,0,0
638224432599826591,-8.717185,79.9067,51.94767,-25.26337,-20.67974,105.699,-56.82663,-0.4675641,5.626691,-70.23591,-8.447793,-36.83611,0,0,0,-19.45632,72.44183,-41.45693,-122.5563,-110.4457,-88.2327,0.001067912,-0.1257102,0.09433498,0,0.3,0,0,0,0
638224432600156613,-3.251275,81.58993,53.88549,-19.33051,-25.0012,100.2788,-56.82663,-0.4675641,5.626691,-70.23591,-8.447793,-36.83611,0,0,0,-7.215787,76.66942,-41.32588,-122.5563,-110.4457,-88.2327,0.001067912,-0.1257102,0.09433498,0,0.3,0,0,0,0
638224432600496385,1.790557,82.54844,55.37971,-12.22573,-27.85776,94.05301,-56.82663,-0.4675641,5.626691,-70.23591,-8.447793,-36.83611,0,0,0,3.969255,79.81302,-41.37971,-122.5563,-110.4457,-88.2327,0.001067912,-0.1257102,0.09433498,0,0.3,0,0,0,0
638224432600826284,4.170113,82.8056,55.98674,-8.343738,-28.95644,90.75697,-56.82663,-0.4675641,5.626691,-70.23591,-8.447793,-36.83611,0,0,0,9.252282,81.05618,-41.45168,-122.5563,-110.4457,-88.2327,0.001067912,-0.1257102,0.09433498,0,0.3,0,0,0,0
638224432601176156,9.023465,83.03938,57.36423,-0.3600145,-30.27485,83.87193,-56.82663,-0.4675641,5.626691,-70.23591,-8.447793,-36.90935,0,0,0,20.14698,83.80196,-41.48329,-122.5563,-110.4457,-88.2327,0.001067912,-0.1257102,0.09433498,0,0.3,0,0,0,0
638224432601616021,13.57054,83.06276,59.09193,6.818012,-30.93406,77.57285,-56.82663,-0.4675641,5.626691,-70.23591,-8.447793,-36.90935,0,0,0,30.62542,87.22691,-41.47427,-122.5563,-110.4457,-88.2327,0.001067912,-0.1257102,0.09433498,0,0.3,0,0,0,0
638224432601955903,18.37677,82.78222,60.88967,14.28902,-31.22704,70.76105,-56.82663,-0.4675641,5.626691,-70.23591,-8.447793,-36.90935,0,0,0,42.01214,90.76947,-41.88567,-122.5563,-110.4457,-88.2327,0.001067912,-0.1257102,0.09433498,0,0.3,0,0,0,0
638224432602295975,23.25368,81.94061,62.50063,21.76003,-31.22704,63.50977,-56.82663,-0.4675641,5.626691,-70.23591,-8.447793,-36.83611,0,0,0,54.07978,93.81006,-42.4982,-122.5563,-110.4457,-88.2327,0.001067912,-0.1257102,0.09433498,0,0.3,0,0,0,0
638224432602631152,25.58612,81.30939,63.15435,25.20255,-31.08055,59.84751,-56.82663,-0.4675641,5.626691,-70.23591,-8.447793,-36.90935,0,0,0,60.08457,94.94964,-42.86582,-122.5563,-110.4457,-88.2327,0.001067912,-0.1257102,0.09433498,0,0.3,0,0,0,0
638224432602971055,30.06251,79.46251,63.92481,31.57488,-30.27485,53.10896,-56.82663,-0.4675641,5.626691,-70.23591,-8.447793,-36.83611,0,0,0,72.2183,95.83709,-43.5788,-122.5563,-110.4457,-88.2327,0.001067912,-0.1257102,0.09433498,0,0.3,0,0,0,0
638224432603310935,34.11483,77.07793,64.0182,36.55555,-28.29723,47.46908,-56.82663,-0.4675641,5.626691,-70.23591,-8.447793,-36.83611,0,0,0,83.95592,94.90422,-44.41671,-122.5563,-110.4457,-88.2327,0.001067912,-0.1257102,0.09433498,0,0.3,0,0,0,0
638224432603650833,36.0703,75.76876,64.0182,38.67966,-26.97882,45.12524,-56.82663,-0.4675641,5.626691,-70.23591,-8.447793,-36.83611,0,0,0,89.87981,94.18896,-44.95971,-122.5563,-110.4457,-88.2327,0.001067912,-0.1257102,0.09433498,0,0.3,0,0,0,0
638224432603990728,39.4865,72.98676,64.0182,42.12218,-23.90252,41.09675,-56.82663,-0.4675641,5.626691,-70.23591,-8.447793,-36.83611,0,0,0,101.0376,92.4455,-45.72274,-122.5563,-110.4457,-88.2327,0.001067912,-0.1257102,0.09433498,0,0.3,0,0,0,0
638224432604330608,42.36081,70.32163,63.99486,44.68576,-20.89947,37.94721,-56.82663,-0.4675641,5.626691,-70.23591,-8.447793,-36.83611,0,0,0,111.0102,90.4445,-46.61118,-122.5563,-110.4457,-88.2327,0.001067912,-0.1257102,0.09433498,0,0.3,0,0,0,0
638224432604660524,43.70373,68.9657,63.97151,45.78444,-19.14159,36.6288,-56.82663,-0.4675641,5.626691,-70.23591,-8.447793,-36.83611,0,0,0,115.8606,89.29794,-47.12463,-122.5563,-110.4457,-88.2327,0.001067912,-0.1257102,0.09433498,0,0.3,0,0,0,0
638224432605010393,45.98904,66.30058,63.78473,47.24934,-16.21178,34.50468,-56.82663,-0.4675641,5.626691,-70.23591,-8.447793,-36.90935,0,0,0,124.5898,86.54746,-47.98898,-122.5563,-110.4457,-88.2327,0.001067912,-0.1257102,0.09433498,0,0.3,0,0,0,0
638224432605350283,48.08588,63.23804,63.50457,48.27478,-13.20873,32.7468,-56.82663,-0.4675641,5.626691,-70.23591,-8.447793,-36.83611,0,0,0,133.4923,82.92523,-48.5148,-122.5563,-110.4457,-88.2327,0.001067912,-0.1257102,0.09433498,0,0.3,0,0,0,0
638224432605700171,50.06492,59.73131,62.85084,48.93398,-10.35217,31.50163,-56.82663,-0.4675641,5.626691,-70.23591,-8.447793,-36.90935,0,0,0,142.5227,77.6718,-49.03419,-122.5563,-110.4457,-88.2327,0.001067912,-0.1257102,0.09433498,0,0.3,0,0,0,0
638224432606150029,52.04396,55.19594,60.93637,49.08047,-6.763155,30.62269,-56.82663,-0.4675641,5.626691,-70.23591,-8.447793,-36.90935,0,0,0,151.9178,68.06599,-49.84634,-122.5563,-110.4457,-88.2327,0.001067912,-0.1257102,0.09433498,0,0.3,0,0,0,0
638224432606479922,52.60939,53.58284,60.07252,49.00723,-5.444741,30.4762,-56.82663,-0.4675641,5.626691,-70.23591,-8.447793,-36.90935,0,0,0,154.7184,64.1301,-50.09904,-122.5563,-110.4457,-88.2327,0.001067912,-0.1257102,0.09433498,0,0.3,0,0,0,0
638224432606829811,54.04655,48.97734,57.27084,48.49451,-1.562747,30.18322,-56.82663,-0.4675641,5.626691,-70.23591,-8.447793,-36.83611,0,0,0,161.6593,51.85777,-51.0982,-122.5563,-110.4457,-88.2327,0.001067912,-0.1257102,0.09433498,0,0.3,0,0,0,0
638224432607169703,55.08319,44.5121,54.53922,47.54232,2.612227,30.25646,-56.82663,-0.4675641,5.626691,-70.23591,-8.447793,-36.83611,0,0,0,167.0369,39.47391,-51.75059,-122.5563,-110.4457,-88.2327,0.001067912,-0.1257102,0.09433498,0,0.3,0,0,0,0
638224432607509594,55.81355,40.39754,52.13445,46.5169,6.787202,30.40295,-56.82663,-0.4675641,5.626691,-70.23591,-8.447793,-36.83611,0,0,0,171.0913,27.92076,-52.13562,-122.5563,-110.4457,-88.2327,0.001067912,-0.1257102,0.09433498,0,0.3,0,0,0,0
638224432607849485,56.07271,38.31688,50.92039,45.78444,8.911312,30.40295,-56.82663,-0.4675641,5.626691,-70.23591,-8.447793,-36.83611,0,0,0,172.7045,21.96456,-52.17793,-122.5563,-110.4457,-88.2327,0.001067912,-0.1257102,0.09433498,0,0.3,0,0,0,0
638224432608189383,56.19051,34.17893,48.44558,44.39278,12.86655,30.4762,-56.82663,-0.4675641,5.626691,-70.23591,-8.447793,-36.83611,0,0,0,174.5771,9.80805,-51.4389,-122.5563,-110.4457,-88.2327,0.001067912,-0.1257102,0.09433498,0,0.3,0,0,0,0
638224432608529280,56.16695,30.60207,46.60114,42.92788,16.74854,30.69594,-56.82663,-0.4675641,5.626691,-70.23591,-8.447793,-36.83611,0,0,0,175.8249,-0.3863727,-50.49854,-122.5563,-110.4457,-88.2327,0.001067912,-0.1257102,0.09433498,0,0.3,0,0,0,0
638224432608869177,56.16695,29.03573,45.6906,42.19543,18.57967,30.84243,-56.82663,-0.4675641,5.626691,-70.23591,-8.447793,-36.83611,0,0,0,176.1111,-5.077258,-50.30674,-122.5563,-110.4457,-88.2327,0.001067912,-0.1257102,0.09433498,0,0.3,0,0,0,0
638224432609209051,55.97847,25.29522,43.44926,40.80377,21.87571,31.20865,-56.82663,-0.4675641,5.626691,-70.23591,-8.447793,-36.83611,0,0,0,175.9356,-16.48182,-49.58368,-122.5563,-110.4457,-88.2327,0.001067912,-0.1257102,0.09433498,0,0.3,0,0,0,0
638224432609558940,55.34235,22.48983,41.41805,39.85158,24.21955,31.35514,-56.82663,-0.4675641,5.626691,-70.23591,-8.447793,-36.90935,0,0,0,173.9114,-25.64056,-48.11811,-122.5563,-110.4457,-88.2327,0.001067912,-0.1257102,0.09433498,0,0.3,0,0,0,0
638224432609898831,53.97587,19.47404,38.8732,38.38668,26.70989,31.35514,-56.82663,-0.4675641,5.626691,-70.23591,-8.447793,-36.83611,0,0,0,169.3658,-36.01169,-45.18954,-122.5563,-110.4457,-88.2327,0.001067912,-0.1257102,0.09433498,0,0.3,0,0,0,0
638224432610238723,53.00991,17.97784,37.5424,37.50774,28.0283,31.35514,-56.82663,-0.4675641,5.626691,-70.23591,-8.447793,-36.83611,0,0,0,166.2145,-41.2252,-43.1435,-122.5563,-110.4457,-88.2327,0.001067912,-0.1257102,0.09433498,0,0.3,0,0,0,0
638224432610658607,50.98376,15.8738,35.4178,35.74985,30.51864,31.35514,-56.82663,-0.4675641,5.626691,-70.23591,-8.447793,-36.83611,0,0,0,159.7024,-48.84947,-38.95055,-122.5563,-110.4457,-88.2327,0.001067912,-0.1257102,0.09433498,0,0.3,0,0,0,0
638224432611008481,48.50996,14.40097,33.45663,33.77223,32.71599,31.57488,-56.82663,-0.4675641,5.626691,-70.23591,-8.447793,-36.83611,0,0,0,151.8192,-54.73936,-34.0788,-122.5563,-110.4457,-88.2327,0.001067912,-0.1257102,0.09433498,0,0.3,0,0,0,0
638224432611348369,45.75344,13.65287,31.51881,32.16084,34.62037,32.52707,-56.82663,-0.4675641,5.626691,-70.23591,-8.447793,-36.90935,0,0,0,142.7634,-58.8509,-29.29277,-122.5563,-110.4457,-88.2327,0.001067912,-0.1257102,0.09433498,0,0.3,0,0,0,0
638224432611698260,42.92625,13.5126,29.72107,30.69594,36.52474,33.99197,-56.82663,-0.4675641,5.626691,-70.23591,-8.447793,-36.83611,0,0,0,133.3309,-61.29925,-25.00064,-122.5563,-110.4457,-88.2327,0.001067912,-0.1257102,0.09433498,0,0.3,0,0,0,0
638224432612038151,41.41841,13.5126,28.95061,30.03673,37.33044,35.09065,-56.82663,-0.4675641,5.626691,-70.23591,-8.447793,-36.90935,0,0,0,128.4785,-62.17777,-22.7141,-122.5563,-110.4457,-88.2327,0.001067912,-0.1257102,0.09433498,0,0.3,0,0,0,0
638224432612368046,38.12002,13.5126,27.59647,28.79156,38.5756,37.36125,-56.82663,-0.4675641,5.626691,-70.23591,-8.447793,-36.83611,0,0,0,118.173,-63.6706,-17.74679,-122.5563,-110.4457,-88.2327,0.001067912,-0.1257102,0.09433498,0,0.3,0,0,0,0
638224432612717933,34.44466,13.5126,26.28902,27.61964,39.52779,39.70509,-56.82663,-0.4675641,5.626691,-70.23591,-8.447793,-36.83611,0,0,0,106.7415,-65.04933,-12.71831,-122.5563,-110.4457,-88.2327,0.001067912,-0.1257102,0.09433498,0,0.3,0,0,0,0
638224432613057826,32.34783,13.5126,25.6353,26.81394,39.96726,41.09675,-56.82663,-0.4675641,5.626691,-70.23591,-8.447793,-36.83611,0,0,0,100.2438,-65.71539,-10.07264,-122.5563,-110.4457,-88.2327,0.001067912,-0.1257102,0.09433498,0,0.3,0,0,0,0
638224432613407719,28.24839,13.5126,24.7948,25.05606,40.62647,43.88007,-56.82663,-0.4675641,5.626691,-70.23591,-8.447793,-36.83611,0,0,0,87.83485,-66.54875,-4.870407,-122.5563,-110.4457,-88.2327,0.001067912,-0.1257102,0.09433498,0,0.3,0,0,0,0
638224432613747605,23.8898,13.91003,24.23446,23.00519,41.06594,46.88312,-56.82663,-0.4675641,5.626691,-70.23591,-8.447793,-36.83611,0,0,0,74.5873,-66.19125,0.04674941,-122.5563,-110.4457,-88.2327,0.001067912,-0.1257102,0.09433498,0,0.3,0,0,0,0
638224432614087496,21.6516,14.42435,23.74417,21.83327,41.21243,48.71425,-56.82663,-0.4675641,5.626691,-70.23591,-8.447793,-36.83611,0,0,0,67.46109,-65.49456,1.589928,-122.5563,-110.4457,-88.2327,0.001067912,-0.1257102,0.09433498,0,0.3,0,0,0,0
638224432614427387,17.36369,16.10758,22.24994,19.48943,41.43217,52.66949,-56.82663,-0.4675641,5.626691,-70.23591,-8.447793,-36.90935,0,0,0,53.30296,-63.07401,2.118462,-122.5563,-110.4457,-88.2327,0.001067912,-0.1257102,0.09433498,0,0.3,0,0,0,0
638224432614777285,13.19358,17.97784,20.82576,17.21883,41.21243,56.2585,-56.82663,-0.4675641,5.626691,-70.16266,-8.447793,-36.90935,0,0,0,39.77087,-60.12934,1.299485,-122.5563,-110.4457,-88.2327,0.001067912,-0.1257102,0.09433498,0,0.3,0,0,0,0
638224432615197147,8.198866,19.87147,20.21873,13.84955,40.04051,59.92076,-56.82663,-0.4675641,5.626691,-70.23591,-8.447793,-36.83611,0,0,0,24.457,-56.45581,1.393577,-122.5563,-110.4457,-88.2327,0.001067912,-0.1257102,0.09433498,0,0.3,0,0,0,0
638224432615527038,4.994712,21.32092,20.17204,11.21272,39.01508,61.89838,-56.82663,-0.4675641,5.626691,-70.23591,-8.447793,-36.90935,0,0,0,14.81893,-53.33559,1.211438,-122.5563,-110.4457,-88.2327,0.001067912,-0.1257102,0.09433498,0,0.3,0,0,0,0
638224432615866930,3.204155,22.37294,20.17204,9.601329,38.20938,62.99706,-56.82663,-0.4675641,5.626691,-70.23591,-8.447793,-36.83611,0,0,0,9.462649,-51.063,0.6819723,-122.5563,-110.4457,-88.2327,0.001067912,-0.1257102,0.09433498,0,0.3,0,0,0,0
638224432616206821,-0.3298394,25.36535,20.31212,6.158805,36.23176,65.04792,-56.82663,-0.4675641,5.626691,-70.23591,-8.447793,-36.83611,0,0,0,-0.960138,-44.58206,-1.568107,-122.5563,-110.4457,-88.2327,0.001067912,-0.1257102,0.09433498,0,0.3,0,0,0,0
638224432616546721,-3.439754,29.176,20.96585,2.936018,33.59494,66.95229,-56.82663,-0.4675641,5.626691,-70.23591,-8.447793,-36.83611,0,0,0,-9.848565,-36.1641,-4.500172,-122.5563,-110.4457,-88.2327,0.001067912,-0.1257102,0.09433498,0,0.3,0,0,0,0
638224432616886603,-4.759112,31.46706,21.52618,1.324624,31.9103,67.97772,-56.82663,-0.4675641,5.626691,-70.23591,-8.447793,-36.83611,0,0,0,-13.49613,-31.08903,-6.241606,-122.5563,-110.4457,-88.2327,0.001067912,-0.1257102,0.09433498,0,0.3,0,0,0,0
638224432617226505,-6.903069,36.70378,23.09044,-1.824918,28.17479,69.8821,-56.82663,-0.4675641,5.626691,-70.23591,-8.447793,-36.83611,0,0,0,-19.13536,-19.61655,-10.2949,-122.5563,-110.4457,-88.2327,0.001067912,-0.1257102,0.09433498,0,0.3,0,0,0,0
638224432617566397,-8.340226,42.80549,25.75204,-4.608234,23.26737,71.78648,-56.82663,-0.4675641,5.626691,-70.23591,-8.447793,-36.90935,0,0,0,-22.59483,-6.143181,-14.22568,-122.5563,-110.4457,-88.2327,0.001067912,-0.1257102,0.09433498,0,0.3,0,0,0,0
638224432617916276,-8.693625,48.74355,29.09069,-6.439363,17.62749,73.39787,-56.82663,-0.4675641,5.626691,-70.23591,-8.447793,-36.83611,0,0,0,-23.09115,7.069886,-17.33627,-122.5563,-110.4457,-88.2327,0.001067912,-0.1257102,0.09433498,0,0.3,0,0,0,0
638224432618246170,-8.622946,53.04515,31.96241,-7.391551,12.9398,74.35006,-56.82663,-0.4675641,5.626691,-70.23591,-8.447793,-36.90935,0,0,0,-22.60344,16.77769,-19.29549,-122.5563,-110.4457,-88.2327,0.001067912,-0.1257102,0.09433498,0,0.3,0,0,0,0
638224432618586062,-8.528707,56.71552,34.74073,-8.050756,8.471841,74.93602,-56.82663,-0.4675641,5.626691,-70.23591,-8.447793,-36.83611,0,0,0,-22.12314,25.24583,-20.82627,-122.5563,-110.4457,-88.2327,0.001067912,-0.1257102,0.09433498,0,0.3,0,0,0,0
638224432618925963,-8.175306,61.71846,38.8732,-8.856454,1.733285,75.59522,-56.82663,-0.4675641,5.626691,-70.23591,-8.447793,-36.83611,0,0,0,-20.88556,36.96413,-22.97042,-122.5563,-110.4457,-88.2327,0.001067912,-0.1257102,0.09433498,0,0.3,0,0,0,0
638224432619265845,-7.916147,63.96276,40.92776,-9.295925,-1.635992,75.88821,-56.82663,-0.4675641,5.626691,-70.23591,-8.447793,-36.90935,0,0,0,-20.09295,42.41542,-23.84708,-122.5563,-110.4457,-88.2327,0.001067912,-0.1257102,0.09433498,0,0.3,0,0,0,0
638224432619721659,-7.303588,69.90083,47.32491,-9.881886,-11.89032,76.54742,-56.82663,-0.4675641,5.626691,-70.23591,-8.447793,-36.90935,0,0,0,-18.28913,58.1889,-25.65188,-122.5563,-110.4457,-88.2327,0.001067912,-0.1257102,0.09433498,0,0.3,0,0,0,0
638224432620061544,-7.280028,71.30352,49.0526,-10.02838,-14.89337,76.6939,-56.82663,-0.4675641,5.626691,-70.23591,-8.447793,-36.83611,0,0,0,-18.17994,62.27008,-26.03975,-122.5563,-110.4457,-88.2327,0.001067912,-0.1257102,0.09433498,0,0.3,0,0,0,0
638224432620391446,-7.327148,73.75823,52.43796,-10.54109,-21.04596,77.20662,-56.82663,-0.4675641,5.626691,-70.23591,-8.447793,-36.83611,0,0,0,-18.23776,70.08516,-26.51523,-122.5563,-110.4457,-88.2327,0.001067912,-0.1257102,0.09433498,0,0.3,0,0,0,0
638224432620731336,-7.845467,75.34795,55.0762,-11.12705,-26.4661,78.08556,-56.82663,-0.4675641,5.626691,-70.23591,-8.447793,-36.90935,0,0,0,-19.52879,76.02235,-26.62291,-122.5563,-110.4457,-88.2327,0.001067912,-0.1257102,0.09433498,0,0.3,0,0,0,0
638224432621061236,-8.552266,75.86227,55.98674,-11.56653,-28.80995,78.89126,-56.82663,-0.4675641,5.626691,-70.23591,-8.447793,-36.90935,0,0,0,-21.28153,78.06706,-26.83512,-122.5563,-110.4457,-88.2327,0.001067912,-0.1257102,0.09433498,0,0.3,0,0,0,0
