zeyangz2/DNN_classification_different_people_hand/data_by_names/Srikar/srikar_right_21.csv
Timestamp,Therapist joint angle 0,Therapist joint angle 1,Therapist joint angle 2,Therapist joint angle 3,Therapist joint angle 4,Therapist joint angle 5,Patient joint angle 0,Patient joint angle 1,Patient joint angle 2,Patient joint angle 3,Patient joint angle 4,Patient joint angle 5,Virtual joint angle 0,Virtual joint angle 1,Virtual joint angle 2,Therapist position x,Therapist position y,Therapist position z,Patient position x,Patient position y,Patient position z,Virtual position x,Virtual position y,Virtual position z,Assistive Force, Obstacle Force Magnitude, Therapist Constant Force, Patient Constant Force, Recovery Factor, Assistance Level
638225078928658331,0,0,0,0,0,0,0,0,0,0,0,0,0,0,0,0,0,0,0,0,0,0,0,0,0,0.3,0,0,0,0
638225078928748307,-32.67767,-1.005263,-3.875646,46.5169,-63.89439,134.7773,0.02355996,-0.8883717,-10.62301,-5.706912,-0.5373149,50.54538,0,0,0,-67.11983,-112.0346,-63.71041,0.04471847,-109.7821,-59.59858,0.001067912,-0.1257102,0.09433498,0,0.3,0,0,1.133168E-07,0
638225078929088194,-32.67767,-1.005263,-3.875646,46.59014,-63.89439,134.7773,0.02355996,-0.8883717,-10.62301,-5.706912,-0.4640697,50.61862,0,0,0,-67.11983,-112.0346,-63.71041,0.04471847,-109.7821,-59.59858,0.001067912,-0.1257102,0.09433498,0,0.3,0,0,1.133168E-07,0
638225078929428087,-32.67767,-1.005263,-3.875646,46.5169,-63.96763,134.7041,0.02355996,-0.8883717,-10.62301,-5.706912,-0.4640697,50.61862,0,0,0,-67.11983,-112.0346,-63.71041,0.04471847,-109.7821,-59.59858,0.001067912,-0.1257102,0.09433498,0,0.3,0,0,0,0
638225078929757982,-32.67767,-1.005263,-3.875646,46.5169,-63.96763,134.7773,0.02355996,-0.8883717,-10.62301,-5.706912,-0.5373149,50.61862,0,0,0,-67.11983,-112.0346,-63.71041,0.04471847,-109.7821,-59.59858,0.001067912,-0.1257102,0.09433498,0,0.3,0,0,0,0
638225078930097873,-32.67767,-1.005263,-3.875646,46.5169,-63.89439,134.7773,0.02355996,-0.8883717,-10.62301,-5.780157,-0.5373149,50.54538,0,0,0,-67.11983,-112.0346,-63.71041,0.04471847,-109.7821,-59.59858,0.001067912,-0.1257102,0.09433498,0,0.3,0,0,0,0
638225078930437765,-32.67767,-1.005263,-3.875646,46.59014,-63.96763,134.7773,0.02355996,-0.8883717,-10.62301,-5.706912,-0.5373149,50.61862,0,0,0,-67.11983,-112.0346,-63.71041,0.04471847,-109.7821,-59.59858,0.001067912,-0.1257102,0.09433498,0,0.3,0,0,0,0
638225078930777654,-32.67767,-1.005263,-3.875646,46.5169,-63.96763,134.7773,0.02355996,-0.8883717,-10.62301,-5.780157,-0.5373149,50.61862,0,0,0,-67.11983,-112.0346,-63.71041,0.04471847,-109.7821,-59.59858,0.001067912,-0.1257102,0.09433498,0,0.3,0,0,0,0
638225078931117550,-32.67767,-1.005263,-3.875646,46.5169,-63.96763,134.7773,0.02355996,-0.8883717,-10.62301,-5.780157,-0.4640697,50.61862,0,0,0,-67.11983,-112.0346,-63.71041,0.04471847,-109.7821,-59.59858,0.001067912,-0.1257102,0.09433498,0,0.3,0,0,0,0
638225078931457440,-32.67767,-1.005263,-3.875646,46.5169,-63.96763,134.7041,0.02355996,-0.8883717,-10.62301,-5.780157,-0.5373149,50.61862,0,0,0,-67.11983,-112.0346,-63.71041,0.04471847,-109.7821,-59.59858,0.001067912,-0.1257102,0.09433498,0,0.3,0,0,0,0
638225078931797329,-32.67767,-1.005263,-3.875646,46.5169,-63.89439,134.7773,0.02355996,-0.8883717,-10.62301,-5.706912,-0.5373149,50.61862,0,0,0,-67.11983,-112.0346,-63.71041,0.04471847,-109.7821,-59.59858,0.001067912,-0.1257102,0.09433498,0,0.3,0,0,0,0
638225078932137219,-32.67767,-1.005263,-3.875646,46.59014,-63.96763,134.7773,0.02355996,-0.8883717,-10.62301,-5.706912,-0.5373149,50.54538,0,0,0,-67.11983,-112.0346,-63.71041,0.04471847,-109.7821,-59.59858,0.001067912,-0.1257102,0.09433498,0,0.3,0,0,0,0
638225078932477113,-32.67767,-1.005263,-3.875646,46.59014,-63.96763,134.7773,0.02355996,-0.8883717,-10.62301,-5.706912,-0.5373149,50.61862,0,0,0,-67.11983,-112.0346,-63.71041,0.04471847,-109.7821,-59.59858,0.001067912,-0.1257102,0.09433498,0,0.3,0,0,0,0
638225078932827003,-32.67767,-1.005263,-3.875646,46.59014,-63.96763,134.7773,0.02355996,-0.8883717,-10.62301,-5.780157,-0.5373149,50.61862,0,0,0,-67.11983,-112.0346,-63.71041,0.04471847,-109.7821,-59.59858,0.001067912,-0.1257102,0.09433498,0,0.3,0,0,0,0
638225078933156892,-32.67767,-1.005263,-3.875646,46.5169,-63.96763,134.7773,0.02355996,-0.8883717,-10.62301,-5.706912,-0.4640697,50.61862,0,0,0,-67.11983,-112.0346,-63.71041,0.04471847,-109.7821,-59.59858,0.001067912,-0.1257102,0.09433498,0,0.3,0,0,0,0
638225078933596752,-32.67767,-1.005263,-3.875646,46.5169,-63.96763,134.7773,0.02355996,-0.8883717,-10.62301,-5.706912,-0.4640697,50.61862,0,0,0,-67.11983,-112.0346,-63.71041,0.04471847,-109.7821,-59.59858,0.001067912,-0.1257102,0.09433498,0,0.3,0,0,0,0
638225078933936646,-32.67767,-1.005263,-3.875646,46.5169,-63.96763,134.7773,0.02355996,-0.8883717,-10.62301,-5.780157,-0.5373149,50.54538,0,0,0,-67.11983,-112.0346,-63.71041,0.04471847,-109.7821,-59.59858,0.001067912,-0.1257102,0.09433498,0,0.3,0,0,0,0
638225078934266538,-32.67767,-1.005263,-3.875646,46.59014,-63.96763,134.7773,0.02355996,-0.8883717,-10.62301,-5.706912,-0.5373149,50.61862,0,0,0,-67.11983,-112.0346,-63.71041,0.04471847,-109.7821,-59.59858,0.001067912,-0.1257102,0.09433498,0,0.3,0,0,0,0
638225078934606436,-32.67767,-1.005263,-3.875646,46.5169,-63.96763,134.7773,0.02355996,-0.8883717,-10.62301,-5.780157,-0.5373149,50.61862,0,0,0,-67.11983,-112.0346,-63.71041,0.04471847,-109.7821,-59.59858,0.001067912,-0.1257102,0.09433498,0,0.3,0,0,0,0
638225078934946326,-32.67767,-1.005263,-3.875646,46.59014,-63.96763,134.7773,0.02355996,-0.8883717,-10.62301,-5.706912,-0.4640697,50.54538,0,0,0,-67.11983,-112.0346,-63.71041,0.04471847,-109.7821,-59.59858,0.001067912,-0.1257102,0.09433498,0,0.3,0,0,0,0
638225078935296215,-32.67767,-1.005263,-3.875646,46.5169,-63.96763,134.7773,0.02355996,-0.8883717,-10.62301,-5.780157,-0.5373149,50.54538,0,0,0,-67.11983,-112.0346,-63.71041,0.04471847,-109.7821,-59.59858,0.001067912,-0.1257102,0.09433498,0,0.3,0,0,1.133168E-07,0
638225078935636101,-32.67767,-1.005263,-3.875646,46.5169,-63.89439,134.7041,0.02355996,-0.8883717,-10.62301,-5.706912,-0.5373149,50.61862,0,0,0,-67.11983,-112.0346,-63.71041,0.04471847,-109.7821,-59.59858,0.001067912,-0.1257102,0.09433498,0,0.3,0,0,2.266336E-07,0
638225078935975995,-32.67767,-1.005263,-3.875646,46.5169,-63.96763,134.7041,0.02355996,-0.8883717,-10.62301,-5.706912,-0.5373149,50.61862,0,0,0,-67.11983,-112.0346,-63.71041,0.04471847,-109.7821,-59.59858,0.001067912,-0.1257102,0.09433498,0,0.3,0,0,2.266336E-07,0
638225078936315884,-32.39495,-1.075397,-3.875646,46.59014,-63.96763,134.7773,0.02355996,-0.8883717,-10.62301,-5.706912,-0.5373149,50.61862,0,0,0,-66.6011,-112.1978,-63.383,0.04471847,-109.7821,-59.59858,0.001067912,-0.1257102,0.09433498,0,0.3,0,0,0.0001975112,0
638225078936665775,-30.36879,-1.028641,-3.945688,46.59014,-63.89439,134.7773,0.02355996,-0.8883717,-10.62301,-5.706912,-0.5373149,50.61862,0,0,0,-62.76706,-112.0779,-61.23249,0.04471847,-109.7821,-59.59858,0.001067912,-0.1257102,0.09433498,0,0.3,0,0,0.002468494,0
638225078937005665,-28.34263,-1.052019,-3.875646,46.66338,-63.45492,134.7773,0.02355996,-0.8883717,-10.62301,-5.706912,-0.5373149,50.61862,0,0,0,-59.01734,-112.1434,-58.93801,0.04471847,-109.7821,-59.59858,0.001067912,-0.1257102,0.09433498,0,0.3,0,0,0.005248609,0
638225078937345556,-22.594,-1.005263,-3.828952,46.80988,-61.69703,134.7773,0.02355996,-0.8883717,-10.62301,-5.780157,-0.5373149,50.61862,0,0,0,-47.80378,-112.0419,-53.47491,0.04471847,-109.7821,-59.59858,0.001067912,-0.1257102,0.09433498,0,0.3,0,0,0.01567625,0
638225078937675453,-16.20925,-1.005263,-3.782257,46.73663,-59.35318,134.7773,0.02355996,-0.8883717,-10.62301,-5.780157,-0.4640697,50.61862,0,0,0,-34.76293,-112.0491,-48.76731,0.04471847,-109.7821,-59.59858,0.001067912,-0.1257102,0.09433498,0,0.3,0,0,0.0326434,0
638225078938115311,-8.622946,-1.005263,-3.735562,46.15067,-57.22908,134.7773,0.02355996,-0.8883717,-10.62301,-5.706912,-0.4640697,50.61862,0,0,0,-18.68766,-112.0562,-45.1174,0.04471847,-109.7821,-59.59858,0.001067912,-0.1257102,0.09433498,0,0.3,0,0,0.05550819,0
638225078938465202,-4.240793,-1.005263,-3.735562,45.12524,-56.9361,134.7773,0.02355996,-0.8883717,-10.62301,-5.706912,-0.5373149,50.54538,0,0,0,-9.217019,-112.0562,-44.04976,0.04471847,-109.7821,-59.59858,0.001067912,-0.1257102,0.09433498,0,0.3,0,0,0.08096385,0
638225078938795091,-1.554958,-1.005263,-3.735562,44.0998,-57.22908,134.7773,0.02355996,-0.8883717,-10.62301,-5.706912,-0.5373149,50.61862,0,0,0,-3.382246,-112.0562,-43.7544,0.04471847,-109.7821,-59.59858,0.001067912,-0.1257102,0.09433498,0,0.3,0,0,0.09396208,0
638225078939134983,4.099433,-1.005263,-3.735562,41.09675,-58.47424,134.7041,0.02355996,-0.8883717,-10.62301,-5.706912,-0.5373149,50.61862,0,0,0,8.910318,-112.0562,-44.0274,0.04471847,-109.7821,-59.59858,0.001067912,-0.1257102,0.09433498,0,0.3,0,0,0.1180748,0
638225078939474881,10.0601,-1.005263,-3.735562,37.58098,-60.01239,134.7773,0.02355996,-0.8883717,-10.62301,-5.780157,-0.5373149,50.61862,0,0,0,21.77252,-112.0562,-45.62486,0.04471847,-109.7821,-59.59858,0.001067912,-0.1257102,0.09433498,0,0.3,0,0,0.1369996,0
638225078939814766,13.17002,-0.9818845,-3.735562,35.8231,-60.81809,134.7773,0.02355996,-0.8883717,-10.62301,-5.780157,-0.5373149,50.61862,0,0,0,28.39871,-112.0018,-46.98587,0.04471847,-109.7821,-59.59858,0.001067912,-0.1257102,0.09433498,0,0.3,0,0,0.144033,0
638225078940154666,19.83749,-0.9818845,-3.735562,33.18628,-61.77028,134.7773,0.02355996,-0.8883717,-10.62301,-5.706912,-0.5373149,50.61862,0,0,0,42.29784,-112.0018,-51.10397,0.04471847,-109.7821,-59.59858,0.001067912,-0.1257102,0.09433498,0,0.3,0,0,0.1529006,0
638225078940494548,26.57564,-0.8182371,-3.688868,31.79461,-62.20975,134.7773,0.02355996,-0.8883717,-10.62301,-5.780157,-0.5373149,50.61862,0,0,0,55.81358,-111.628,-56.77437,0.04471847,-109.7821,-59.59858,0.001067912,-0.1257102,0.09433498,0,0.3,0,0,0.1550712,0
638225078940834440,33.03107,-0.4675641,-3.50209,30.98892,-62.28299,134.7773,0.02355996,-0.8883717,-10.62301,-5.780157,-0.5373149,50.61862,0,0,0,68.24567,-110.8392,-63.38553,0.04471847,-109.7821,-59.59858,0.001067912,-0.1257102,0.09433498,0,0.3,0,0,0.1510453,0
638225078941174335,37.62526,-0.3740513,-3.408701,30.62269,-62.35624,134.7773,0.02355996,-0.8883717,-10.62301,-5.780157,-0.5373149,50.61862,0,0,0,76.56725,-110.6346,-69.01601,0.04471847,-109.7821,-59.59858,0.001067912,-0.1257102,0.09433498,0,0.3,0,0,0.1464164,0
638225078941524223,41.53621,-0.5143204,-3.408701,30.40295,-62.50273,134.7773,0.02355996,-0.8883717,-10.62301,-5.780157,-0.5373149,50.54538,0,0,0,83.16245,-110.9611,-74.47158,0.04471847,-109.7821,-59.59858,0.001067912,-0.1257102,0.09433498,0,0.3,0,0,0.1353385,0
638225078941864111,45.98904,-0.6545897,-3.035145,30.10997,-62.57597,134.4111,0.02355996,-0.8883717,-10.62301,-5.780157,-0.4640697,50.61862,0,0,0,90.8219,-111.3364,-80.61074,0.04471847,-109.7821,-59.59858,0.001067912,-0.1257102,0.09433498,0,0.3,0,0,0.1209538,0
638225078942204005,47.23772,-0.6312115,-2.754977,30.10997,-62.57597,129.3572,0.02355996,-0.8883717,-10.62301,-5.706912,-0.5373149,50.54538,0,0,0,93.1909,-111.3149,-82.16818,0.04471847,-109.7821,-59.59858,0.001067912,-0.1257102,0.09433498,0,0.3,0,0,0.1130604,0
638225078942643862,49.38168,-0.5610769,-2.47481,26.59421,-59.93914,118.6634,0.02355996,-0.8883717,-10.62301,-5.780157,-0.5373149,50.61862,0,0,0,96.84548,-111.1814,-85.28965,0.04471847,-109.7821,-59.59858,0.001067912,-0.1257102,0.09433498,0,0.3,0,0,0.08857273,0
638225078942973759,49.49948,-0.5376987,-2.47481,24.61659,-58.98696,118.0042,0.02355996,-0.8883717,-10.62301,-5.780157,-0.5373149,50.61862,0,0,0,97.01644,-111.127,-85.4886,0.04471847,-109.7821,-59.59858,0.001067912,-0.1257102,0.09433498,0,0.3,0,0,0.08063512,0
638225078943313652,49.52304,-0.5143204,-2.451463,19.9289,-57.66854,117.4915,0.02355996,-0.8883717,-10.62301,-5.780157,-0.5373149,50.61862,0,0,0,97.09218,-111.075,-85.49294,0.04471847,-109.7821,-59.59858,0.001067912,-0.1257102,0.09433498,0,0.3,0,0,0.06537434,0
638225078943653538,49.61728,-0.3039166,-2.451463,16.99909,-56.9361,117.345,0.02355996,-0.8883717,-10.62301,-5.706912,-0.5373149,50.61862,0,0,0,97.231,-110.5853,-85.65048,0.04471847,-109.7821,-59.59858,0.001067912,-0.1257102,0.09433498,0,0.3,0,0,0.0508405,0
638225078943993433,49.64084,-0.09351282,-2.451463,16.48637,-56.7896,117.2717,0.02355996,-0.8883717,-10.62301,-5.706912,-0.4640697,50.61862,0,0,0,97.26629,-110.0956,-85.68937,0.04471847,-109.7821,-59.59858,0.001067912,-0.1257102,0.09433498,0,0.3,0,0,0.04384126,0
638225078944343320,49.64084,0.1402692,-2.451463,16.77936,-56.56987,117.2717,0.02355996,-0.8883717,-10.62301,-5.706912,-0.4640697,50.61862,0,0,0,97.26612,-109.5515,-85.68951,0.04471847,-109.7821,-59.59858,0.001067912,-0.1257102,0.09433498,0,0.3,0,0,0.03036789,0
638225078944693211,49.38168,-0.09351282,-2.451463,17.6583,-56.49662,117.2717,0.02355996,-0.8883717,-10.62301,-5.780157,-0.5373149,50.61862,0,0,0,96.8914,-110.0956,-85.25026,0.04471847,-109.7821,-59.59858,0.001067912,-0.1257102,0.09433498,0,0.3,0,0,0.01766904,0
638225078945033097,48.8398,-0.7247244,-2.47481,18.09777,-56.71636,117.2717,0.02355996,-0.8883717,-10.62301,-5.706912,-0.5373149,50.54538,0,0,0,96.05239,-111.5623,-84.38027,0.04471847,-109.7821,-59.59858,0.001067912,-0.1257102,0.09433498,0,0.3,0,0,0.005891682,0
638225078945372990,48.50996,-1.005263,-2.47481,18.24426,-56.9361,117.2717,0.02355996,-0.8883717,-10.62301,-5.706912,-0.5373149,50.54538,0,0,0,95.56002,-112.2151,-83.83524,0.04471847,-109.7821,-59.59858,0.001067912,-0.1257102,0.09433498,0,0.3,0,0,0.0003628405,0
638225078945712879,47.7796,-0.9818845,-2.47481,18.46399,-57.96152,117.2717,0.02355996,-0.8883717,-10.62301,-5.706912,-0.5373149,50.61862,0,0,0,94.47566,-112.1608,-82.62339,0.04471847,-109.7821,-59.59858,0.001067912,-0.1257102,0.09433498,0,0.3,0,0,0,0
638225078946052778,47.52044,-0.9818845,-2.498158,18.61049,-58.98696,117.2717,0.02355996,-0.8883717,-10.62301,-5.706912,-0.5373149,50.61862,0,0,0,94.04691,-112.1584,-82.2336,0.04471847,-109.7821,-59.59858,0.001067912,-0.1257102,0.09433498,0,0.3,0,0,0,0
638225078946382668,47.52044,-0.9818845,-2.498158,18.90347,-59.57292,117.345,0.02355996,-0.8883717,-10.62301,-5.706912,-0.5373149,50.61862,0,0,0,94.04691,-112.1584,-82.2336,0.04471847,-109.7821,-59.59858,0.001067912,-0.1257102,0.09433498,0,0.3,0,0,0,0
638225078946732558,47.56756,-1.005263,-2.498158,19.56267,-60.23213,117.2717,0.02355996,-0.8883717,-10.62301,-5.780157,-0.5373149,50.61862,0,0,0,94.117,-112.2128,-82.31161,0.04471847,-109.7821,-59.59858,0.001067912,-0.1257102,0.09433498,0,0.3,0,0,0,0
638225078947062452,47.56756,-1.098776,-2.521505,19.78241,-60.45186,117.2717,0.02355996,-0.8883717,-10.62301,-5.780157,-0.5373149,50.61862,0,0,0,94.07398,-112.428,-82.35093,0.04471847,-109.7821,-59.59858,0.001067912,-0.1257102,0.09433498,0,0.3,0,0,0,0
638225078947402343,47.28484,-1.052019,-2.498158,19.85565,-60.52511,117.2717,0.02355996,-0.8883717,-10.62301,-5.780157,-0.5373149,50.61862,0,0,0,93.68987,-112.3216,-81.84957,0.04471847,-109.7821,-59.59858,0.001067912,-0.1257102,0.09433498,0,0.3,0,0,0,0
638225078947742234,45.72989,-1.028641,-2.521505,19.34294,-60.81809,117.2717,0.02355996,-0.8883717,-10.62301,-5.780157,-0.4640697,50.61862,0,0,0,91.26995,-112.2648,-79.37628,0.04471847,-109.7821,-59.59858,0.001067912,-0.1257102,0.09433498,0,0.3,0,0,0,0
638225078948082123,42.66709,-1.028641,-2.591547,17.51181,-62.28299,117.2717,0.02355996,-0.8883717,-10.62301,-5.706912,-0.5373149,50.54538,0,0,0,86.27531,-112.2575,-74.74653,0.04471847,-109.7821,-59.59858,0.001067912,-0.1257102,0.09433498,0,0.3,0,0,0,0
638225078948422019,38.5441,-1.005263,-2.778325,15.68068,-63.45492,117.2717,0.02355996,-0.8883717,-10.62301,-5.780157,-0.5373149,50.61862,0,0,0,79.05217,-112.1828,-69.12464,0.04471847,-109.7821,-59.59858,0.001067912,-0.1257102,0.09433498,0,0.3,0,0,0,0
638225078948761906,34.6567,-1.005263,-2.778325,14.80174,-63.89439,117.1985,0.02355996,-0.8883717,-10.62301,-5.706912,-0.5373149,50.61862,0,0,0,72.14323,-112.1828,-63.99353,0.04471847,-109.7821,-59.59858,0.001067912,-0.1257102,0.09433498,0,0.3,0,0,0,0
638225078949101798,29.54419,-1.028641,-2.754977,14.14253,-64.11412,117.2717,0.02355996,-0.8883717,-10.62301,-5.706912,-0.5373149,50.61862,0,0,0,62.58311,-112.2398,-57.93351,0.04471847,-109.7821,-59.59858,0.001067912,-0.1257102,0.09433498,0,0.3,0,0,0,0
638225078949451686,22.594,-1.028641,-2.754977,13.70306,-64.18736,117.2717,0.02355996,-0.8883717,-10.62301,-5.706912,-0.5373149,50.61862,0,0,0,48.76213,-112.2398,-51.17192,0.04471847,-109.7821,-59.59858,0.001067912,-0.1257102,0.09433498,0,0.3,0,0,0,0
638225078949791576,18.98933,-1.028641,-2.73163,13.55657,-64.26061,117.2717,0.02355996,-0.8883717,-10.62301,-5.706912,-0.5373149,50.61862,0,0,0,41.31611,-112.2424,-48.28666,0.04471847,-109.7821,-59.59858,0.001067912,-0.1257102,0.09433498,0,0.3,0,0,0,0
638225078950211440,11.75642,-1.005263,-2.73163,13.33683,-64.18736,117.2717,0.02355996,-0.8883717,-10.62301,-5.780157,-0.4640697,50.61862,0,0,0,25.8712,-112.188,-44.03929,0.04471847,-109.7821,-59.59858,0.001067912,-0.1257102,0.09433498,0,0.3,0,0,0,0
638225078950541337,4.452833,-1.005263,-2.73163,13.19034,-64.18736,117.2717,0.02355996,-0.8883717,-10.62301,-5.706912,-0.4640697,50.61862,0,0,0,9.858079,-112.188,-41.75896,0.04471847,-109.7821,-59.59858,0.001067912,-0.1257102,0.09433498,0,0.3,0,0,0,0
638225078950881226,-2.026157,-1.005263,-2.73163,13.19034,-64.18736,117.2717,0.02355996,-0.8883717,-10.62301,-5.780157,-0.5373149,50.61862,0,0,0,-4.48927,-112.188,-41.45509,0.04471847,-109.7821,-59.59858,0.001067912,-0.1257102,0.09433498,0,0.3,0,0,0,0
638225078951221123,-7.680547,-1.005263,-2.73163,13.26359,-64.11412,117.2717,0.02355996,-0.8883717,-10.62301,-5.780157,-0.4640697,50.54538,0,0,0,-16.97008,-112.188,-42.51484,0.04471847,-109.7821,-59.59858,0.001067912,-0.1257102,0.09433498,0,0.3,0,0,0,0
638225078951551015,-10.13078,-1.005263,-2.73163,13.33683,-64.18736,117.2717,0.02355996,-0.8883717,-10.62301,-5.706912,-0.5373149,50.61862,0,0,0,-22.33423,-112.188,-43.35538,0.04471847,-109.7821,-59.59858,0.001067912,-0.1257102,0.09433498,0,0.3,0,0,0.001963667,0
638225078951890907,-13.90038,-1.005263,-2.73163,13.41008,-64.11412,117.2717,0.02355996,-0.8883717,-10.62301,-5.706912,-0.5373149,50.61862,0,0,0,-30.5036,-112.188,-45.09416,0.04471847,-109.7821,-59.59858,0.001067912,-0.1257102,0.09433498,0,0.3,0,0,0.01053087,0
638225078952240794,-16.16213,-1.005263,-2.73163,13.41008,-64.11412,117.1985,0.02355996,-0.8883717,-10.62301,-5.706912,-0.5373149,50.61862,0,0,0,-35.34411,-112.188,-46.394,0.04471847,-109.7821,-59.59858,0.001067912,-0.1257102,0.09433498,0,0.3,0,0,0.01785341,0
638225078952590686,-16.58621,-1.005263,-2.73163,13.41008,-64.11412,117.2717,0.02355996,-0.8883717,-10.62301,-5.780157,-0.5373149,50.61862,0,0,0,-36.2458,-112.188,-46.65894,0.04471847,-109.7821,-59.59858,0.001067912,-0.1257102,0.09433498,0,0.3,0,0,0.02123183,0
638225078952920579,-16.42129,-1.005263,-2.73163,13.48332,-64.18736,117.2717,0.02355996,-0.8883717,-10.62301,-5.780157,-0.5373149,50.61862,0,0,0,-35.89537,-112.188,-46.55511,0.04471847,-109.7821,-59.59858,0.001067912,-0.1257102,0.09433498,0,0.3,0,0,0.02785418,0
638225078953260468,-15.85585,-1.005263,-2.73163,13.41008,-64.18736,117.2717,0.02355996,-0.8883717,-10.62301,-5.706912,-0.5373149,50.61862,0,0,0,-34.69168,-112.188,-46.20681,0.04471847,-109.7821,-59.59858,0.001067912,-0.1257102,0.09433498,0,0.3,0,0,0.03447846,0
638225078953600359,-15.50245,-1.005263,-2.73163,13.41008,-64.18736,117.2717,0.02355996,-0.8883717,-10.62301,-5.706912,-0.4640697,50.61862,0,0,0,-33.93764,-112.188,-45.99516,0.04471847,-109.7821,-59.59858,0.001067912,-0.1257102,0.09433498,0,0.3,0,0,0.03781722,0
638225078953940252,-14.8899,-1.005263,-2.73163,13.33683,-64.11412,117.2717,0.02355996,-0.8883717,-10.62301,-5.706912,-0.4640697,50.61862,0,0,0,-32.62762,-112.188,-45.63932,0.04471847,-109.7821,-59.59858,0.001067912,-0.1257102,0.09433498,0,0.3,0,0,0.04452501,0
638225078954280141,-14.27734,-1.005263,-2.73163,13.26359,-64.11412,117.2717,0.02355996,-0.8883717,-10.62301,-5.706912,-0.4640697,50.61862,0,0,0,-31.31385,-112.188,-45.29751,0.04471847,-109.7821,-59.59858,0.001067912,-0.1257102,0.09433498,0,0.3,0,0,0.05127411,0
638225078954730003,-13.2407,-0.9818845,-2.73163,13.33683,-64.18736,117.2717,0.02355996,-0.8883717,-10.62301,-5.706912,-0.5373149,50.54538,0,0,0,-29.08271,-112.1336,-44.75021,0.04471847,-109.7821,-59.59858,0.001067912,-0.1257102,0.09433498,0,0.3,0,0,0.05813674,0
638225078955069894,-12.34542,-0.6312115,-2.73163,13.26359,-64.18736,117.2717,0.02355996,-0.8883717,-10.62301,-5.780157,-0.4640697,50.61862,0,0,0,-27.15038,-111.3175,-44.29966,0.04471847,-109.7821,-59.59858,0.001067912,-0.1257102,0.09433498,0,0.3,0,0,0.06514743,0
638225078955409780,-11.7093,0.1636474,-2.73163,13.26359,-64.18736,117.1985,0.02355996,-0.8883717,-10.62301,-5.706912,-0.5373149,50.61862,0,0,0,-25.77301,-109.4676,-43.99849,0.04471847,-109.7821,-59.59858,0.001067912,-0.1257102,0.09433498,0,0.3,0,0,0.0687534,0
638225078955739678,-10.86114,4.184699,-2.708283,13.26359,-64.18736,117.2717,0.02355996,-0.8883717,-10.62301,-5.780157,-0.5373149,50.61862,0,0,0,-23.8728,-100.1203,-43.92591,0.04471847,-109.7821,-59.59858,0.001067912,-0.1257102,0.09433498,0,0.3,0,0,0.07587259,0
638225078956089562,-10.86114,11.38519,-2.381421,13.19034,-64.18736,117.2717,0.02355996,-0.8883717,-10.62301,-5.780157,-0.5373149,50.61862,0,0,0,-23.58855,-83.56103,-45.40742,0.04471847,-109.7821,-59.59858,0.001067912,-0.1257102,0.09433498,0,0.3,0,0,0.0815795,0
638225078956429456,-11.2381,19.47404,-1.681003,13.19034,-64.18736,117.2717,0.02355996,-0.8883717,-10.62301,-5.706912,-0.4640697,50.61862,0,0,0,-23.73906,-65.48642,-48.87601,0.04471847,-109.7821,-59.59858,0.001067912,-0.1257102,0.09433498,0,0.3,0,0,0.08446778,0
638225078956769347,-11.49726,22.27943,-1.564267,13.19034,-64.18736,117.2717,0.02355996,-0.8883717,-10.62301,-5.706912,-0.5373149,50.61862,0,0,0,-23.86963,-59.39413,-50.99831,0.04471847,-109.7821,-59.59858,0.001067912,-0.1257102,0.09433498,0,0.3,0,0,0.08501232,0
638225078957119239,-11.66218,24.36009,-1.844434,13.26359,-64.18736,117.2717,0.02355996,-0.8883717,-10.62301,-5.706912,-0.4640697,50.61862,0,0,0,-23.68809,-54.92804,-53.58311,0.04471847,-109.7821,-59.59858,0.001067912,-0.1257102,0.09433498,0,0.3,0,0,0.08536944,0
638225078957459128,-10.74334,22.13916,-2.825019,13.70306,-64.18736,117.2717,0.02355996,-0.8883717,-10.62301,-5.706912,-0.5373149,50.61862,0,0,0,-21.79989,-59.58401,-53.45382,0.04471847,-109.7821,-59.59858,0.001067912,-0.1257102,0.09433498,0,0.3,0,0,0.08636085,0
638225078957789021,-10.10722,20.31566,-3.362006,13.92279,-64.18736,117.2717,0.02355996,-0.8883717,-10.62301,-5.706912,-0.4640697,50.54538,0,0,0,-20.5736,-63.47245,-52.93475,0.04471847,-109.7821,-59.59858,0.001067912,-0.1257102,0.09433498,0,0.3,0,0,0.08741022,0
638225078958128914,-8.646505,17.39338,-3.75891,14.06928,-64.26061,117.2717,0.02355996,-0.8883717,-10.62301,-5.706912,-0.5373149,50.61862,0,0,0,-17.81659,-69.85074,-51.18655,0.04471847,-109.7821,-59.59858,0.001067912,-0.1257102,0.09433498,0,0.3,0,0,0.09049968,0
638225078958458806,-7.020868,16.45825,-3.618826,14.14253,-64.26061,117.2717,0.02355996,-0.8883717,-10.62301,-5.706912,-0.5373149,50.61862,0,0,0,-14.60284,-71.95383,-49.77649,0.04471847,-109.7821,-59.59858,0.001067912,-0.1257102,0.09433498,0,0.3,0,0,0.09425444,0
638225078958798707,-6.26695,16.92582,-3.455395,14.21577,-64.18736,117.2717,0.02355996,-0.8883717,-10.62301,-5.706912,-0.5373149,50.54538,0,0,0,-13.04871,-70.93494,-49.52793,0.04471847,-109.7821,-59.59858,0.001067912,-0.1257102,0.09433498,0,0.3,0,0,0.09608848,0
638225078959128595,-5.088952,20.45593,-2.568199,14.21577,-64.26061,117.2717,0.02355996,-0.8883717,-10.62301,-5.780157,-0.5373149,50.61862,0,0,0,-10.55254,-63.262,-49.85303,0.04471847,-109.7821,-59.59858,0.001067912,-0.1257102,0.09433498,0,0.3,0,0,0.09883663,0
638225078959468484,-4.264353,26.16021,-1.494225,14.14253,-64.26061,117.2717,0.02355996,-0.8883717,-10.62301,-5.780157,-0.5373149,50.61862,0,0,0,-8.641402,-51.16296,-52.45872,0.04471847,-109.7821,-59.59858,0.001067912,-0.1257102,0.09433498,0,0.3,0,0,0.0994767,0
638225078959808379,-3.369075,27.39925,-1.54092,14.21577,-64.18736,117.2717,0.02355996,-0.8883717,-10.62301,-5.780157,-0.5373149,50.61862,0,0,0,-6.746815,-48.58568,-53.74334,0.04471847,-109.7821,-59.59858,0.001067912,-0.1257102,0.09433498,0,0.3,0,0,0.0993614,0
638225078960148268,0.1177998,26.67453,-2.288032,14.94823,-63.52816,117.2717,0.02355996,-0.8883717,-10.62301,-5.706912,-0.5373149,50.61862,0,0,0,0.2340418,-50.02996,-54.51628,0.04471847,-109.7821,-59.59858,0.001067912,-0.1257102,0.09433498,0,0.3,0,0,0.09931477,0
638225078960488162,3.321954,23.44834,-2.591547,15.60743,-63.23518,117.2717,0.02355996,-0.8883717,-10.62301,-5.706912,-0.4640697,50.61862,0,0,0,6.73967,-56.80072,-52.23708,0.04471847,-109.7821,-59.59858,0.001067912,-0.1257102,0.09433498,0,0.3,0,0,0.1002603,0
638225078960828047,5.630831,20.99363,-2.801672,15.60743,-63.82114,117.2717,0.02355996,-0.8883717,-10.62301,-5.706912,-0.4640697,50.61862,0,0,0,11.57604,-62.06609,-50.93902,0.04471847,-109.7821,-59.59858,0.001067912,-0.1257102,0.09433498,0,0.3,0,0,0.1020813,0
638225078961157947,6.314069,20.82998,-2.754977,15.60743,-64.04088,117.2717,0.02355996,-0.8883717,-10.62301,-5.706912,-0.5373149,50.61862,0,0,0,13.00217,-62.42714,-50.8424,0.04471847,-109.7821,-59.59858,0.001067912,-0.1257102,0.09433498,0,0.3,0,0,0.10304,0
638225078961497836,6.526109,23.98604,-2.147949,15.46094,-64.26061,117.1985,0.02355996,-0.8883717,-10.62301,-5.780157,-0.5373149,50.61862,0,0,0,13.27917,-55.69767,-52.27054,0.04471847,-109.7821,-59.59858,0.001067912,-0.1257102,0.09433498,0,0.3,0,0,0.1041694,0
638225078961847724,5.395231,29.87734,-1.003932,15.31445,-64.33386,117.2717,0.02355996,-0.8883717,-10.62301,-5.706912,-0.5373149,50.54538,0,0,0,10.65219,-43.55191,-55.56137,0.04471847,-109.7821,-59.59858,0.001067912,-0.1257102,0.09433498,0,0.3,0,0,0.10348,0
638225078962267589,6.12559,33.33732,-1.073974,15.75392,-64.18736,117.2717,0.02355996,-0.8883717,-10.62301,-5.706912,-0.5373149,50.61862,0,0,0,11.62135,-36.6918,-60.06403,0.04471847,-109.7821,-59.59858,0.001067912,-0.1257102,0.09433498,0,0.3,0,0,0.1012906,0
638225078962597483,7.515628,32.96326,-1.260752,16.48637,-63.96763,117.2717,0.02355996,-0.8883717,-10.62301,-5.780157,-0.4640697,50.61862,0,0,0,14.25019,-37.41182,-60.33673,0.04471847,-109.7821,-59.59858,0.001067912,-0.1257102,0.09433498,0,0.3,0,0,0.1001401,0
638225078962937375,11.92134,29.69032,-1.44753,19.78241,-63.82114,117.2717,0.02355996,-0.8883717,-10.62301,-5.780157,-0.4640697,50.61862,0,0,0,23.23372,-43.90761,-58.30128,0.04471847,-109.7821,-59.59858,0.001067912,-0.1257102,0.09433498,0,0.3,0,0,0.09834365,0
638225078963267271,15.57313,25.15495,-1.727698,22.49248,-64.18736,117.2717,0.02355996,-0.8883717,-10.62301,-5.706912,-0.4640697,50.61862,0,0,0,31.32564,-53.25661,-55.95073,0.04471847,-109.7821,-59.59858,0.001067912,-0.1257102,0.09433498,0,0.3,0,0,0.09743298,0
638225078963617165,17.26945,23.47172,-1.657656,23.22493,-64.26061,117.2717,0.02355996,-0.8883717,-10.62301,-5.706912,-0.5373149,50.61862,0,0,0,35.16634,-56.83138,-55.2315,0.04471847,-109.7821,-59.59858,0.001067912,-0.1257102,0.09433498,0,0.3,0,0,0.0971864,0
638225078963957049,20.37937,24.03279,-1.120669,24.17712,-64.18736,117.2717,0.02355996,-0.8883717,-10.62301,-5.706912,-0.5373149,50.61862,0,0,0,41.50333,-55.66645,-56.62777,0.04471847,-109.7821,-59.59858,0.001067912,-0.1257102,0.09433498,0,0.3,0,0,0.09620213,0
638225078964296940,23.08876,28.68506,-0.3268617,24.39685,-64.11412,117.2717,0.02355996,-0.8883717,-10.62301,-5.706912,-0.5373149,50.54538,0,0,0,45.57779,-45.99054,-61.43627,0.04471847,-109.7821,-59.59858,0.001067912,-0.1257102,0.09433498,0,0.3,0,0,0.09378514,0
638225078964646828,25.35052,34.36596,0.1634309,24.39685,-63.89439,117.1985,0.02355996,-0.8883717,-10.62301,-5.706912,-0.5373149,50.61862,0,0,0,47.29141,-34.72649,-68.53213,0.04471847,-109.7821,-59.59858,0.001067912,-0.1257102,0.09433498,0,0.3,0,0,0.08966517,0
638225078964986721,26.43428,36.30635,0.1634309,24.39685,-63.89439,117.1985,0.02355996,-0.8883717,-10.62301,-5.706912,-0.5373149,50.61862,0,0,0,48.00819,-31.04259,-71.78322,0.04471847,-109.7821,-59.59858,0.001067912,-0.1257102,0.09433498,0,0.3,0,0,0.08709162,0
638225078965326611,29.87403,37.12459,-0.5369871,24.54334,-63.96763,117.2717,0.02355996,-0.8883717,-10.62301,-5.706912,-0.5373149,50.61862,0,0,0,52.33657,-29.51073,-77.23837,0.04471847,-109.7821,-59.59858,0.001067912,-0.1257102,0.09433498,0,0.3,0,0,0.08145236,0
638225078965666511,32.86615,35.58163,-0.8405016,24.68983,-64.11412,117.2717,0.02355996,-0.8883717,-10.62301,-5.706912,-0.5373149,50.54538,0,0,0,57.79293,-32.39433,-78.89988,0.04471847,-109.7821,-59.59858,0.001067912,-0.1257102,0.09433498,0,0.3,0,0,0.07568362,0
638225078966006396,34.09126,35.11406,-0.7237652,24.68983,-64.18736,117.2717,0.02355996,-0.8883717,-10.62301,-5.706912,-0.5373149,50.61862,0,0,0,60.19738,-33.28564,-79.40962,0.04471847,-109.7821,-59.59858,0.001067912,-0.1257102,0.09433498,0,0.3,0,0,0.07275433,0
638225078966346288,35.9525,36.32973,-0.0700418,24.54334,-64.11412,117.2717,0.02355996,-0.8883717,-10.62301,-5.780157,-0.5373149,50.61862,0,0,0,62.97773,-30.99919,-81.5173,0.04471847,-109.7821,-59.59858,0.001067912,-0.1257102,0.09433498,0,0.3,0,0,0.06656037,0
638225078966776149,37.4839,39.95335,1.214058,24.39685,-64.11412,117.2717,0.02355996,-0.8883717,-10.62301,-5.706912,-0.5373149,50.61862,0,0,0,63.92524,-24.33754,-84.99251,0.04471847,-109.7821,-59.59858,0.001067912,-0.1257102,0.09433498,0,0.3,0,0,0.05958759,0
638225078967116042,39.65141,42.40806,2.288032,24.4701,-64.04088,117.2717,0.02355996,-0.8883717,-10.62301,-5.706912,-0.4640697,50.61862,0,0,0,66.22621,-19.96161,-88.44236,0.04471847,-109.7821,-59.59858,0.001067912,-0.1257102,0.09433498,0,0.3,0,0,0.05181259,0
638225078967455934,42.36081,41.35604,2.334727,24.39685,-64.11412,117.2717,0.02355996,-0.8883717,-10.62301,-5.706912,-0.5373149,50.54538,0,0,0,71.10397,-21.78014,-90.37417,0.04471847,-109.7821,-59.59858,0.001067912,-0.1257102,0.09433498,0,0.3,0,0,0.04377803,0
638225078967795822,43.39745,40.91186,2.404768,24.39685,-64.11412,117.2717,0.02355996,-0.8883717,-10.62301,-5.706912,-0.5373149,50.61862,0,0,0,73.08219,-22.55202,-91.06085,0.04471847,-109.7821,-59.59858,0.001067912,-0.1257102,0.09433498,0,0.3,0,0,0.03973239,0
638225078968135717,44.22205,42.66522,3.268617,24.17712,-64.11412,117.2717,0.02355996,-0.8883717,-10.62301,-5.706912,-0.5373149,50.54538,0,0,0,73.6909,-19.40998,-92.63031,0.04471847,-109.7821,-59.59858,0.001067912,-0.1257102,0.09433498,0,0.3,0,0,0.03144734,0
638225078968475606,44.85817,46.68627,5.439913,23.81089,-64.11412,117.1985,0.02355996,-0.8883717,-10.62301,-5.780157,-0.5373149,50.61862,0,0,0,73.44073,-12.37283,-94.54476,0.04471847,-109.7821,-59.59858,0.001067912,-0.1257102,0.09433498,0,0.3,0,0,0.02248999,0
638225078968815500,45.56496,48.06559,6.770707,23.6644,-64.11412,117.2717,0.02355996,-0.8883717,-10.62301,-5.780157,-0.5373149,50.54538,0,0,0,74.85798,-9.86957,-94.95393,0.04471847,-109.7821,-59.59858,0.001067912,-0.1257102,0.09433498,0,0.3,0,0,0.01779051,0
638225078969145391,48.0152,48.08897,8.148195,23.59116,-64.11412,117.2717,0.02355996,-0.8883717,-10.62301,-5.706912,-0.4640697,50.61862,0,0,0,80.26009,-9.417014,-96.12204,0.04471847,-109.7821,-59.59858,0.001067912,-0.1257102,0.09433498,0,0.3,0,0,0.008087082,0
638225078969495283,50.18272,46.14857,8.218237,23.51791,-64.04088,117.2717,0.02355996,-0.8883717,-10.62301,-5.780157,-0.4640697,50.61862,0,0,0,85.60001,-12.46676,-96.98701,0.04471847,-109.7821,-59.59858,0.001067912,-0.1257102,0.09433498,0,0.3,0,0,0,0
638225078969845167,50.91308,44.3017,7.914723,23.29818,-64.18736,117.2717,0.02355996,-0.8883717,-10.62301,-5.706912,-0.5373149,50.61862,0,0,0,88.32816,-15.59322,-96.60111,0.04471847,-109.7821,-59.59858,0.001067912,-0.1257102,0.09433498,0,0.3,0,0,0,0
638225078970175063,50.98376,44.11467,7.914723,23.22493,-64.11412,117.2717,0.02355996,-0.8883717,-10.62301,-5.780157,-0.5373149,50.61862,0,0,0,88.65242,-15.90524,-96.51906,0.04471847,-109.7821,-59.59858,0.001067912,-0.1257102,0.09433498,0,0.3,0,0,0,0
638225078970514952,51.078,44.67575,7.914723,23.15168,-64.18736,117.2717,0.02355996,-0.8883717,-10.62301,-5.780157,-0.5373149,50.61862,0,0,0,88.05968,-14.97217,-97.23894,0.04471847,-109.7821,-59.59858,0.001067912,-0.1257102,0.09433498,0,0.3,0,0,0,0
638225078970844849,51.26648,46.77979,8.311626,23.15168,-64.11412,117.2717,0.02355996,-0.8883717,-10.62301,-5.706912,-0.4640697,50.61862,0,0,0,86.27148,-11.4236,-99.1506,0.04471847,-109.7821,-59.59858,0.001067912,-0.1257102,0.09433498,0,0.3,0,0,0,0
638225078971304701,52.23243,50.09949,10.17941,23.15168,-64.18736,117.2717,0.02355996,-0.8883717,-10.62301,-5.706912,-0.5373149,50.61862,0,0,0,86.24794,-5.600252,-101.5274,0.04471847,-109.7821,-59.59858,0.001067912,-0.1257102,0.09433498,0,0.3,0,0,0,0
638225078971644593,54.25859,50.47354,11.5569,23.22493,-64.18736,117.1985,0.02355996,-0.8883717,-10.62301,-5.706912,-0.5373149,50.61862,0,0,0,90.56844,-4.439538,-103.1707,0.04471847,-109.7821,-59.59858,0.001067912,-0.1257102,0.09433498,0,0.3,0,0,0,0
638225078971984487,54.42351,49.95922,12.16393,23.22493,-64.18736,117.2717,0.02355996,-0.8883717,-10.62301,-5.706912,-0.5373149,50.61862,0,0,0,92.6284,-4.915133,-102.092,0.04471847,-109.7821,-59.59858,0.001067912,-0.1257102,0.09433498,0,0.3,0,0,0,0
638225078972324379,54.35283,49.49166,12.98108,21.61354,-64.26061,118.1507,0.02355996,-0.8883717,-10.62301,-5.706912,-0.5373149,50.61862,0,0,0,94.72968,-5.204625,-100.4122,0.04471847,-109.7821,-59.59858,0.001067912,-0.1257102,0.09433498,0,0.3,0,0,0,0
638225078972664262,54.28215,51.40867,14.28853,19.56267,-64.18736,117.7844,0.02355996,-0.8883717,-10.62301,-5.706912,-0.4640697,50.61862,0,0,0,94.25368,-1.6465,-100.5773,0.04471847,-109.7821,-59.59858,0.001067912,-0.1257102,0.09433498,0,0.3,0,0,0,0
638225078973004157,54.16435,53.48933,15.26911,18.53724,-64.18736,117.7112,0.02355996,-0.8883717,-10.62301,-5.780157,-0.5373149,50.54538,0,0,0,92.79082,1.886855,-101.3393,0.04471847,-109.7821,-59.59858,0.001067912,-0.1257102,0.09433498,0,0.3,0,0,0,0
638225078973344052,54.28215,55.07904,16.97346,17.80479,-64.18736,117.6379,0.02355996,-0.8883717,-10.62301,-5.706912,-0.5373149,50.61862,0,0,0,93.58331,5.14806,-101.0593,0.04471847,-109.7821,-59.59858,0.001067912,-0.1257102,0.09433498,0,0.3,0,0,0,0
638225078973673942,54.37639,54.28419,17.884,17.29207,-64.26061,117.5647,0.02355996,-0.8883717,-10.62301,-5.706912,-0.4640697,50.61862,0,0,0,96.56435,4.713309,-99.15651,0.04471847,-109.7821,-59.59858,0.001067912,-0.1257102,0.09433498,0,0.3,0,0,0,0
638225078974013833,54.37639,53.53609,17.95405,16.99909,-64.26061,117.5647,0.02355996,-0.8883717,-10.62301,-5.706912,-0.5373149,50.54538,0,0,0,97.83412,3.737852,-98.24665,0.04471847,-109.7821,-59.59858,0.001067912,-0.1257102,0.09433498,0,0.3,0,0,0,0
638225078974353727,54.30571,51.57232,17.37037,16.70611,-64.33386,117.5647,0.02355996,-0.8883717,-10.62301,-5.706912,-0.5373149,50.54538,0,0,0,99.64314,0.546933,-96.7642,0.04471847,-109.7821,-59.59858,0.001067912,-0.1257102,0.09433498,0,0.3,0,0,0,0
638225078974693616,53.92875,51.78272,17.0902,16.55962,-64.26061,117.5647,0.02355996,-0.8883717,-10.62301,-5.706912,-0.5373149,50.61862,0,0,0,98.35608,0.6574367,-96.70309,0.04471847,-109.7821,-59.59858,0.001067912,-0.1257102,0.09433498,0,0.3,0,0,0,0
638225078975043507,52.93923,53.55946,17.18359,16.41313,-64.26061,117.5647,0.02355996,-0.8883717,-10.62301,-5.780157,-0.5373149,50.61862,0,0,0,94.64601,3.228915,-96.8716,0.04471847,-109.7821,-59.59858,0.001067912,-0.1257102,0.09433498,0,0.3,0,0,0,0
638225078975393393,52.82143,53.6296,17.18359,16.41313,-64.26061,117.5647,0.02355996,-0.8883717,-10.62301,-5.780157,-0.5373149,50.61862,0,0,0,94.39418,3.325792,-96.75655,0.04471847,-109.7821,-59.59858,0.001067912,-0.1257102,0.09433498,0,0.3,0,0,0,0
638225078975723290,53.29263,51.50218,17.0435,16.70611,-64.26061,117.6379,0.02355996,-0.8883717,-10.62301,-5.780157,-0.4640697,50.61862,0,0,0,97.88176,0.2203587,-95.3716,0.04471847,-109.7821,-59.59858,0.001067912,-0.1257102,0.09433498,0,0.3,0,0,0,0
638225078976073174,53.36331,46.28884,16.29639,16.70611,-64.26061,117.5647,0.02355996,-0.8883717,-10.62301,-5.780157,-0.5373149,50.61862,0,0,0,103.969,-8.252666,-91.03247,0.04471847,-109.7821,-59.59858,0.001067912,-0.1257102,0.09433498,0,0.3,0,0,0,0
638225078976413070,53.17484,43.2263,15.94618,16.63286,-64.26061,117.5647,0.02355996,-0.8883717,-10.62301,-5.780157,-0.5373149,50.61862,0,0,0,107.1041,-13.53975,-88.15246,0.04471847,-109.7821,-59.59858,0.001067912,-0.1257102,0.09433498,0,0.3,0,0,0,0
638225078976752959,53.08059,39.62605,15.75941,16.63286,-64.26061,117.5647,0.02355996,-0.8883717,-10.62301,-5.780157,-0.5373149,50.61862,0,0,0,111.0695,-19.94026,-84.89783,0.04471847,-109.7821,-59.59858,0.001067912,-0.1257102,0.09433498,0,0.3,0,0,0,0
638225078977092851,53.26907,40.72483,15.78275,16.70611,-64.26061,117.5647,0.02355996,-0.8883717,-10.62301,-5.706912,-0.5373149,50.54538,0,0,0,110.0631,-17.97157,-86.21903,0.04471847,-109.7821,-59.59858,0.001067912,-0.1257102,0.09433498,0,0.3,0,0,0,0
638225078977512715,53.76383,42.75873,15.78275,16.63286,-64.26061,117.5647,0.02355996,-0.8883717,-10.62301,-5.706912,-0.5373149,50.61862,0,0,0,108.2263,-14.43969,-89.03535,0.04471847,-109.7821,-59.59858,0.001067912,-0.1257102,0.09433498,0,0.3,0,0,0,0
638225078977852611,54.02299,42.03401,15.78275,16.63286,-64.33386,117.5647,0.02355996,-0.8883717,-10.62301,-5.706912,-0.5373149,50.61862,0,0,0,109.5043,-15.68532,-88.85758,0.04471847,-109.7821,-59.59858,0.001067912,-0.1257102,0.09433498,0,0.3,0,0,0,0
638225078978192501,54.02299,41.37942,15.78275,16.63286,-64.26061,117.5647,0.02355996,-0.8883717,-10.62301,-5.780157,-0.5373149,50.61862,0,0,0,110.3246,-16.82269,-88.26213,0.04471847,-109.7821,-59.59858,0.001067912,-0.1257102,0.09433498,0,0.3,0,0,0,0
638225078978532392,53.52823,42.80549,15.78275,16.48637,-64.33386,117.5647,0.02355996,-0.8883717,-10.62301,-5.706912,-0.5373149,50.61862,0,0,0,107.8398,-14.35982,-88.63493,0.04471847,-109.7821,-59.59858,0.001067912,-0.1257102,0.09433498,0,0.3,0,0,0,0
638225078978872282,52.56227,47.38762,16.08627,16.41313,-64.26061,117.5647,0.02355996,-0.8883717,-10.62301,-5.706912,-0.5373149,50.61862,0,0,0,101.0239,-6.639723,-91.00593,0.04471847,-109.7821,-59.59858,0.001067912,-0.1257102,0.09433498,0,0.3,0,0,0,0
638225078979212173,52.27955,48.86045,16.38978,16.48637,-64.33386,117.5647,0.02355996,-0.8883717,-10.62301,-5.706912,-0.5373149,50.61862,0,0,0,99.15865,-4.154096,-91.65495,0.04471847,-109.7821,-59.59858,0.001067912,-0.1257102,0.09433498,0,0.3,0,0,0,0
638225078979552065,52.35023,47.85518,16.57656,16.55962,-64.26061,117.5647,0.02355996,-0.8883717,-10.62301,-5.780157,-0.5373149,50.61862,0,0,0,100.9675,-5.585375,-90.45472,0.04471847,-109.7821,-59.59858,0.001067912,-0.1257102,0.09433498,0,0.3,0,0,0,0
638225078979891958,52.37379,46.38236,16.52986,16.55962,-64.26061,117.6379,0.02355996,-0.8883717,-10.62301,-5.706912,-0.5373149,50.61862,0,0,0,102.9064,-7.948861,-89.02641,0.04471847,-109.7821,-59.59858,0.001067912,-0.1257102,0.09433498,0,0.3,0,0,0,0
638225078980241845,51.73767,47.78505,16.52986,16.55962,-64.26061,117.5647,0.02355996,-0.8883717,-10.62301,-5.706912,-0.5373149,50.61862,0,0,0,100.1422,-5.725941,-89.36933,0.04471847,-109.7821,-59.59858,0.001067912,-0.1257102,0.09433498,0,0.3,0,0,0,0
638225078980581740,51.36071,48.60329,16.52986,16.55962,-64.26061,117.5647,0.02355996,-0.8883717,-10.62301,-5.706912,-0.5373149,50.61862,0,0,0,98.51161,-4.456488,-89.59856,0.04471847,-109.7821,-59.59858,0.001067912,-0.1257102,0.09433498,0,0.3,0,0,0,0
638225078980911630,51.4314,47.66816,16.52986,16.77936,-64.26061,117.5647,0.02355996,-0.8883717,-10.62301,-5.706912,-0.5373149,50.61862,0,0,0,99.87595,-5.908941,-88.70965,0.04471847,-109.7821,-59.59858,0.001067912,-0.1257102,0.09433498,0,0.3,0,0,0,0
638225078981261517,51.47852,45.51736,16.34309,16.8526,-64.26061,117.5647,0.02355996,-0.8883717,-10.62301,-5.706912,-0.5373149,50.61862,0,0,0,102.4602,-9.47159,-86.78671,0.04471847,-109.7821,-59.59858,0.001067912,-0.1257102,0.09433498,0,0.3,0,0,0,0
638225078981591413,51.21936,45.70439,16.34309,16.8526,-64.33386,117.5647,0.02355996,-0.8883717,-10.62301,-5.706912,-0.5373149,50.61862,0,0,0,101.8478,-9.167098,-86.51892,0.04471847,-109.7821,-59.59858,0.001067912,-0.1257102,0.09433498,0,0.3,0,0,0,0
638225078982021274,49.87644,48.41626,16.34309,16.77936,-64.33386,117.5647,0.02355996,-0.8883717,-10.62301,-5.780157,-0.4640697,50.61862,0,0,0,96.36919,-4.86786,-87.13184,0.04471847,-109.7821,-59.59858,0.001067912,-0.1257102,0.09433498,0,0.3,0,0,0,0
638225078982361170,49.99424,47.78505,16.34309,17.07234,-64.26061,117.5647,0.02355996,-0.8883717,-10.62301,-5.780157,-0.5373149,50.61862,0,0,0,97.37354,-5.848942,-86.6272,0.04471847,-109.7821,-59.59858,0.001067912,-0.1257102,0.09433498,0,0.3,0,0,0,0
638225078982691060,50.2534,46.49924,16.34309,17.80479,-64.33386,117.6379,0.02355996,-0.8883717,-10.62301,-5.706912,-0.5373149,50.54538,0,0,0,99.42883,-7.88439,-85.66588,0.04471847,-109.7821,-59.59858,0.001067912,-0.1257102,0.09433498,0,0.3,0,0,0,0
638225078983026022,49.21676,48.08897,16.31974,17.6583,-64.33386,117.5647,0.02355996,-0.8883717,-10.62301,-5.706912,-0.4640697,50.54538,0,0,0,95.81857,-5.390345,-85.69053,0.04471847,-109.7821,-59.59858,0.001067912,-0.1257102,0.09433498,0,0.3,0,0,0,0
638225078983365916,48.55708,48.79031,16.22635,17.51181,-64.33386,117.5647,0.02355996,-0.8883717,-10.62301,-5.780157,-0.5373149,50.54538,0,0,0,93.78856,-4.368369,-85.53931,0.04471847,-109.7821,-59.59858,0.001067912,-0.1257102,0.09433498,0,0.3,0,0,0,0
638225078983715798,48.86336,47.55127,16.06292,18.09777,-64.33386,117.5647,0.02355996,-0.8883717,-10.62301,-5.706912,-0.4640697,50.61862,0,0,0,95.57302,-6.397305,-84.86864,0.04471847,-109.7821,-59.59858,0.001067912,-0.1257102,0.09433498,0,0.3,0,0,0,0
638225078984055694,49.02828,45.86803,15.92284,19.19645,-64.26061,117.5647,0.02355996,-0.8883717,-10.62301,-5.706912,-0.4640697,50.61862,0,0,0,97.72921,-9.17328,-83.47994,0.04471847,-109.7821,-59.59858,0.001067912,-0.1257102,0.09433498,0,0.3,0,0,0,0
638225078984395583,48.133,46.77979,15.92284,19.19645,-64.33386,117.4915,0.02355996,-0.8883717,-10.62301,-5.706912,-0.5373149,50.61862,0,0,0,95.24828,-7.70788,-82.98758,0.04471847,-109.7821,-59.59858,0.001067912,-0.1257102,0.09433498,0,0.3,0,0,0,0
638225078984735475,46.17752,48.93058,15.71271,18.09777,-64.33386,117.5647,0.02355996,-0.8883717,-10.62301,-5.706912,-0.5373149,50.54538,0,0,0,89.26286,-4.482487,-82.68275,0.04471847,-109.7821,-59.59858,0.001067912,-0.1257102,0.09433498,0,0.3,0,0,0,0
638225078985075368,46.43668,48.06559,15.43254,18.02452,-64.33386,117.5647,0.02355996,-0.8883717,-10.62301,-5.780157,-0.5373149,50.61862,0,0,0,90.2868,-5.991552,-82.48119,0.04471847,-109.7821,-59.59858,0.001067912,-0.1257102,0.09433498,0,0.3,0,0,0,0
638225078985425254,46.15396,47.87856,15.52593,19.26969,-64.33386,117.5647,0.02355996,-0.8883717,-10.62301,-5.706912,-0.5373149,50.61862,0,0,0,90.24626,-6.224961,-81.66765,0.04471847,-109.7821,-59.59858,0.001067912,-0.1257102,0.09433498,0,0.3,0,0,0,0
638225078985775143,45.07021,49.42152,15.68936,19.34294,-64.33386,117.5647,0.02355996,-0.8883717,-10.62301,-5.780157,-0.5373149,50.54538,0,0,0,86.94148,-3.750223,-81.62132,0.04471847,-109.7821,-59.59858,0.001067912,-0.1257102,0.09433498,0,0.3,0,0,0,0
638225078986115035,42.71421,52.50745,16.203,17.87803,-64.26061,117.6379,0.02355996,-0.8883717,-10.62301,-5.780157,-0.4640697,50.61862,0,0,0,80.29856,1.101001,-81.37457,0.04471847,-109.7821,-59.59858,0.001067912,-0.1257102,0.09433498,0,0.3,0,0,0,0
638225078986554892,43.49169,50.89435,16.38978,18.24426,-64.33386,117.5647,0.02355996,-0.8883717,-10.62301,-5.706912,-0.5373149,50.54538,0,0,0,83.78626,-1.10374,-80.03204,0.04471847,-109.7821,-59.59858,0.001067912,-0.1257102,0.09433498,0,0.3,0,0,0,0
638225078986894784,43.27965,49.88908,16.13296,19.41618,-64.33386,117.5647,0.02355996,-0.8883717,-10.62301,-5.780157,-0.5373149,50.61862,0,0,0,84.30118,-2.762701,-78.82807,0.04471847,-109.7821,-59.59858,0.001067912,-0.1257102,0.09433498,0,0.3,0,0,0,0
638225078987244672,40.26397,53.20879,16.43647,18.75698,-64.26061,117.5647,0.02355996,-0.8883717,-10.62301,-5.706912,-0.4640697,50.61862,0,0,0,76.00288,2.239258,-78.61615,0.04471847,-109.7821,-59.59858,0.001067912,-0.1257102,0.09433498,0,0.3,0,0,0,0
638225078987584566,39.13309,54.54135,17.02016,17.73154,-64.33386,117.4915,0.02355996,-0.8883717,-10.62301,-5.706912,-0.5373149,50.61862,0,0,0,73.45715,4.458643,-78.0676,0.04471847,-109.7821,-59.59858,0.001067912,-0.1257102,0.09433498,0,0.3,0,0,0,0
638225078987924458,39.60429,54.02703,17.81396,17.80479,-64.33386,117.5647,0.02355996,-0.8883717,-10.62301,-5.706912,-0.5373149,50.61862,0,0,0,75.94044,4.312862,-76.56778,0.04471847,-109.7821,-59.59858,0.001067912,-0.1257102,0.09433498,0,0.3,0,0,0,0
638225078988264351,40.02837,52.46069,17.39371,19.34294,-64.26061,117.5647,0.02355996,-0.8883717,-10.62301,-5.780157,-0.5373149,50.61862,0,0,0,77.89654,1.835622,-75.60983,0.04471847,-109.7821,-59.59858,0.001067912,-0.1257102,0.09433498,0,0.3,0,0,0,0
638225078988614234,39.18022,53.04515,17.16024,19.56267,-64.26061,117.5647,0.02355996,-0.8883717,-10.62301,-5.780157,-0.4640697,50.61862,0,0,0,75.50333,2.497539,-75.70848,0.04471847,-109.7821,-59.59858,0.001067912,-0.1257102,0.09433498,0,0.3,0,0,0,0
638225078988944129,35.5991,56.03755,17.44041,17.95128,-64.26061,117.6379,0.02355996,-0.8883717,-10.62301,-5.706912,-0.5373149,50.61862,0,0,0,66.62992,6.731217,-75.27923,0.04471847,-109.7821,-59.59858,0.001067912,-0.1257102,0.09433498,0,0.3,0,0,0,0
638225078989294016,34.4211,57.01944,18.84124,16.41313,-64.26061,117.5647,0.02355996,-0.8883717,-10.62301,-5.706912,-0.4640697,50.61862,0,0,0,65.37621,9.00664,-72.94585,0.04471847,-109.7821,-59.59858,0.001067912,-0.1257102,0.09433498,0,0.3,0,0,0,0
638225078989643906,35.43418,56.66877,18.91129,18.02452,-64.26061,117.5647,0.02355996,-0.8883717,-10.62301,-5.706912,-0.5373149,50.61862,0,0,0,67.53836,8.61301,-73.43427,0.04471847,-109.7821,-59.59858,0.001067912,-0.1257102,0.09433498,0,0.3,0,0,0,0
638225078989983799,34.86874,57.32335,18.98133,18.75698,-64.18736,117.5647,0.02355996,-0.8883717,-10.62301,-5.706912,-0.5373149,50.61862,0,0,0,65.95611,9.495773,-73.69413,0.04471847,-109.7821,-59.59858,0.001067912,-0.1257102,0.09433498,0,0.3,0,0,0,0
638225078990323691,31.71171,58.95983,19.54166,17.80479,-64.26061,117.5647,0.02355996,-0.8883717,-10.62301,-5.706912,-0.5373149,50.61862,0,0,0,59.58979,11.93623,-71.90999,0.04471847,-109.7821,-59.59858,0.001067912,-0.1257102,0.09433498,0,0.3,0,0,0,0
638225078990663581,31.49967,58.7728,20.68568,16.41313,-64.33386,117.4915,0.02355996,-0.8883717,-10.62301,-5.706912,-0.5373149,50.61862,0,0,0,60.73347,12.62678,-69.24069,0.04471847,-109.7821,-59.59858,0.001067912,-0.1257102,0.09433498,0,0.3,0,0,0,0
638225078991073449,34.86874,55.31283,19.77514,18.97671,-63.82114,117.5647,0.02355996,-0.8883717,-10.62301,-5.706912,-0.5373149,50.61862,0,0,0,69.17843,7.51386,-69.06966,0.04471847,-109.7821,-59.59858,0.001067912,-0.1257102,0.09433498,0,0.3,0,0,0,0
638225078991403343,35.26926,54.68162,19.6117,20.00214,-63.67465,117.4915,0.02355996,-0.8883717,-10.62301,-5.780157,-0.5373149,50.61862,0,0,0,70.3588,6.542997,-68.86559,0.04471847,-109.7821,-59.59858,0.001067912,-0.1257102,0.09433498,0,0.3,0,0,0,0
638225078991753228,33.3609,57.62727,19.42492,20.5881,-64.11412,117.6379,0.02355996,-0.8883717,-10.62301,-5.780157,-0.4640697,50.61862,0,0,0,63.65071,10.21566,-71.67516,0.04471847,-109.7821,-59.59858,0.001067912,-0.1257102,0.09433498,0,0.3,0,0,0,0
638225078992093126,28.83739,60.68982,20.73237,17.29207,-64.4071,117.7112,0.02355996,-0.8883717,-10.62301,-5.706912,-0.5373149,50.61862,0,0,0,54.25494,14.91403,-69.81301,0.04471847,-109.7821,-59.59858,0.001067912,-0.1257102,0.09433498,0,0.3,0,0,0,0
638225078992443010,29.12011,60.08199,21.71296,14.94823,-64.4071,117.6379,0.02355996,-0.8883717,-10.62301,-5.706912,-0.4640697,50.61862,0,0,0,56.37429,15.0411,-67.149,0.04471847,-109.7821,-59.59858,0.001067912,-0.1257102,0.09433498,0,0.3,0,0,0,0
638225078992772904,30.13319,59.24037,21.3861,15.53419,-64.18736,117.6379,0.02355996,-0.8883717,-10.62301,-5.706912,-0.4640697,50.54538,0,0,0,58.64823,13.77228,-67.31144,0.04471847,-109.7821,-59.59858,0.001067912,-0.1257102,0.09433498,0,0.3,0,0,0,0
638225078993112796,29.85047,59.80144,21.26936,17.07234,-63.82114,117.6379,0.02355996,-0.8883717,-10.62301,-5.706912,-0.5373149,50.54538,0,0,0,57.46283,14.33582,-68.21887,0.04471847,-109.7821,-59.59858,0.001067912,-0.1257102,0.09433498,0,0.3,0,0,0,0
638225078993442694,26.88192,62.18602,20.4989,15.60743,-64.18736,117.5647,0.02355996,-0.8883717,-10.62301,-5.706912,-0.5373149,50.54538,0,0,0,49.24816,16.38756,-71.20058,0.04471847,-109.7821,-59.59858,0.001067912,-0.1257102,0.09433498,0,0.3,0,0,0,0
638225078993792580,25.37408,62.46656,20.33547,14.36226,-64.33386,117.6379,0.02355996,-0.8883717,-10.62301,-5.706912,-0.5373149,50.61862,0,0,0,46.2742,16.55811,-70.78286,0.04471847,-109.7821,-59.59858,0.001067912,-0.1257102,0.09433498,0,0.3,0,0,0,0
638225078994132476,24.87932,60.83008,19.63505,13.19034,-64.48035,117.6379,0.02355996,-0.8883717,-10.62301,-5.706912,-0.5373149,50.61862,0,0,0,46.19558,14.19233,-68.73602,0.04471847,-109.7821,-59.59858,0.001067912,-0.1257102,0.09433498,0,0.3,0,0,0,0
638225078994472362,25.32696,58.58578,18.04744,13.55657,-64.5536,117.6379,0.02355996,-0.8883717,-10.62301,-5.780157,-0.5373149,50.61862,0,0,0,47.40577,10.36452,-68.18432,0.04471847,-109.7821,-59.59858,0.001067912,-0.1257102,0.09433498,0,0.3,0,0,0,0
638225078994812256,25.09136,58.04808,17.06685,13.62981,-64.5536,117.6379,0.02355996,-0.8883717,-10.62301,-5.706912,-0.5373149,50.61862,0,0,0,46.52238,9.018807,-68.99634,0.04471847,-109.7821,-59.59858,0.001067912,-0.1257102,0.09433498,0,0.3,0,0,0,0
638225078995142149,24.19608,58.2351,15.94618,13.41008,-64.5536,117.6379,0.02355996,-0.8883717,-10.62301,-5.780157,-0.5373149,50.61862,0,0,0,43.78784,8.507506,-70.8998,0.04471847,-109.7821,-59.59858,0.001067912,-0.1257102,0.09433498,0,0.3,0,0,0,0
638225078995482041,23.183,58.21173,14.70878,13.33683,-64.5536,117.6379,0.02355996,-0.8883717,-10.62301,-5.706912,-0.4640697,50.61862,0,0,0,40.98283,7.7176,-72.65149,0.04471847,-109.7821,-59.59858,0.001067912,-0.1257102,0.09433498,0,0.3,0,0,0,0
638225078995821980,22.8296,57.95457,13.6815,13.26359,-64.5536,117.6379,0.02355996,-0.8883717,-10.62301,-5.780157,-0.5373149,50.61862,0,0,0,39.68959,6.814875,-74.06858,0.04471847,-109.7821,-59.59858,0.001067912,-0.1257102,0.09433498,0,0.3,0,0,0,0
638225078996151875,22.9474,57.39349,13.05112,13.26359,-64.48035,117.6379,0.02355996,-0.8883717,-10.62301,-5.706912,-0.5373149,50.61862,0,0,0,39.75706,5.77743,-74.44867,0.04471847,-109.7821,-59.59858,0.001067912,-0.1257102,0.09433498,0,0.3,0,0,0,0
638225078996491766,23.01808,55.4531,11.18334,12.89736,-64.5536,117.5647,0.02355996,-0.8883717,-10.62301,-5.780157,-0.5373149,50.61862,0,0,0,39.68217,2.367466,-74.94662,0.04471847,-109.7821,-59.59858,0.001067912,-0.1257102,0.09433498,0,0.3,0,0,0,0
638225078996841652,22.54688,52.8815,8.451711,8.795631,-64.48035,117.6379,0.02355996,-0.8883717,-10.62301,-5.780157,-0.5373149,50.61862,0,0,0,38.37129,-2.219998,-75.92749,0.04471847,-109.7821,-59.59858,0.001067912,-0.1257102,0.09433498,0,0.3,0,0,0,0
638225078997171546,21.98145,51.08138,6.443846,3.448734,-64.5536,117.6379,0.02355996,-0.8883717,-10.62301,-5.706912,-0.5373149,50.61862,0,0,0,36.9584,-5.406043,-76.78938,0.04471847,-109.7821,-59.59858,0.001067912,-0.1257102,0.09433498,0,0.3,0,0,0,0
638225078997511437,20.75632,49.14098,4.365939,-4.242009,-64.5536,117.6379,0.02355996,-0.8883717,-10.62301,-5.706912,-0.4640697,50.61862,0,0,0,34.51411,-8.757557,-77.28192,0.04471847,-109.7821,-59.59858,0.001067912,-0.1257102,0.09433498,0,0.3,0,0,0,0
638225078997851331,18.40033,48.18248,2.521505,-13.61739,-64.48035,117.6379,0.02355996,-0.8883717,-10.62301,-5.780157,-0.5373149,50.61862,0,0,0,29.91747,-10.48885,-78.41651,0.04471847,-109.7821,-59.59858,0.001067912,-0.1257102,0.09433498,0,0.3,0,0,0,0
638225078998201222,16.82181,48.34613,1.821087,-18.08535,-64.48035,117.6379,0.02355996,-0.8883717,-10.62301,-5.780157,-0.4640697,50.61862,0,0,0,26.87506,-10.29707,-79.45782,0.04471847,-109.7821,-59.59858,0.001067912,-0.1257102,0.09433498,0,0.3,0,0,0,0
638225078998611088,13.14646,49.35139,1.354141,-25.92258,-64.48035,117.6379,0.02355996,-0.8883717,-10.62301,-5.780157,-0.4640697,50.61862,0,0,0,20.47377,-8.787597,-80.69125,0.04471847,-109.7821,-59.59858,0.001067912,-0.1257102,0.09433498,0,0.3,0,0,0,0
638225078998950980,11.96846,48.41626,1.54092,-32.22166,-64.48035,117.6379,0.02355996,-0.8883717,-10.62301,-5.780157,-0.5373149,50.61862,0,0,0,19.09745,-10.20778,-78.25975,0.04471847,-109.7821,-59.59858,0.001067912,-0.1257102,0.09433498,0,0.3,0,0,0,0
638225078999290869,13.73546,46.0083,1.70435,-36.46988,-64.48035,117.6379,0.02355996,-0.8883717,-10.62301,-5.780157,-0.5373149,50.61862,0,0,0,22.93306,-14.00362,-74.52719,0.04471847,-109.7821,-59.59858,0.001067912,-0.1257102,0.09433498,0,0.3,0,0,0,0
638225078999640756,13.49986,44.86277,1.517572,-38.4475,-64.26061,117.6379,0.02355996,-0.8883717,-10.62301,-5.706912,-0.5373149,50.54538,0,0,0,22.88904,-15.88665,-73.00923,0.04471847,-109.7821,-59.59858,0.001067912,-0.1257102,0.09433498,0,0.3,0,0,0,0
638225078999975715,12.03914,45.72776,1.144016,-39.17995,-63.6014,117.6379,0.02355996,-0.8883717,-10.62301,-5.706912,-0.4640697,50.61862,0,0,0,19.97148,-14.49067,-74.70616,0.04471847,-109.7821,-59.59858,0.001067912,-0.1257102,0.09433498,0,0.3,0,0,0,0
638225079000315609,7.539187,48.83707,0.9105434,-40.57161,-60.6716,117.5647,0.02355996,-0.8883717,-10.62301,-5.780157,-0.5373149,50.54538,0,0,0,11.79401,-9.59183,-79.23666,0.04471847,-109.7821,-59.59858,0.001067912,-0.1257102,0.09433498,0,0.3,0,0,0,0
638225079000665498,5.183192,50.28652,3.151881,-44.16063,-58.84047,117.5647,0.02355996,-0.8883717,-10.62301,-5.780157,-0.5373149,50.61862,0,0,0,8.359724,-7.218901,-76.19257,0.04471847,-109.7821,-59.59858,0.001067912,-0.1257102,0.09433498,0,0.3,0,0,0,0
638225079000995392,5.701511,49.91246,3.385354,-45.62553,-59.35318,117.2717,0.02355996,-0.8883717,-10.62301,-5.780157,-0.5373149,50.61862,0,0,0,9.313306,-7.746347,-75.0676,0.04471847,-109.7821,-59.59858,0.001067912,-0.1257102,0.09433498,0,0.3,0,0,0,0
638225079001345278,6.761709,47.64478,2.381421,-47.16368,-62.06326,116.9788,0.02355996,-0.8883717,-10.62301,-5.780157,-0.5373149,50.61862,0,0,0,11.23033,-11.34157,-73.63129,0.04471847,-109.7821,-59.59858,0.001067912,-0.1257102,0.09433498,0,0.3,0,0,0,0
638225079001675173,5.159632,46.77979,1.167363,-48.40885,-62.42948,116.9055,0.02355996,-0.8883717,-10.62301,-5.780157,-0.4640697,50.61862,0,0,0,8.456685,-12.79657,-74.69566,0.04471847,-109.7821,-59.59858,0.001067912,-0.1257102,0.09433498,0,0.3,0,0,0,0
638225079002025076,1.295798,48.04221,1.050627,-50.67944,-60.59835,116.9055,0.02355996,-0.8883717,-10.62301,-5.706912,-0.4640697,50.54538,0,0,0,2.071458,-10.81351,-76.7728,0.04471847,-109.7821,-59.59858,0.001067912,-0.1257102,0.09433498,0,0.3,0,0,0,0
638225079002354955,-0.4711992,48.39288,1.330794,-52.80355,-59.64616,116.9055,0.02355996,-0.8883717,-10.62301,-5.706912,-0.4640697,50.61862,0,0,0,-0.7536694,-10.25616,-76.70914,0.04471847,-109.7821,-59.59858,0.001067912,-0.1257102,0.09433498,0,0.3,0,0,0,0
638225079002694848,-0.4005193,47.6214,1.751045,-56.17283,-59.27994,116.8323,0.02355996,-0.8883717,-10.62301,-5.706912,-0.5373149,50.61862,0,0,0,-0.6567842,-11.43113,-74.39612,0.04471847,-109.7821,-59.59858,0.001067912,-0.1257102,0.09433498,0,0.3,0,0,0,0
638225079003174694,0.2827196,45.84466,1.260752,-57.93071,-62.42948,116.8323,0.02355996,-0.8883717,-10.62301,-5.706912,-0.5373149,50.61862,0,0,0,0.4728429,-14.29526,-72.5247,0.04471847,-109.7821,-59.59858,0.001067912,-0.1257102,0.09433498,0,0.3,0,0,0,0
638225079003494591,-1.484278,45.84466,1.260752,-59.54211,-62.35624,116.8323,0.02355996,-0.8883717,-10.62301,-5.706912,-0.5373149,50.61862,0,0,0,-2.482158,-14.29526,-72.55569,0.04471847,-109.7821,-59.59858,0.001067912,-0.1257102,0.09433498,0,0.3,0,0,0,0
638225079003834485,-4.594193,46.1252,1.564267,-64.08331,-60.59835,116.8323,0.02355996,-0.8883717,-10.62301,-5.706912,-0.5373149,50.61862,0,0,0,-7.694451,-13.82416,-72.59556,0.04471847,-109.7821,-59.59858,0.001067912,-0.1257102,0.09433498,0,0.3,0,0,0,0
638225079004174373,-4.759112,46.03168,1.681003,-65.69471,-59.79266,116.8323,0.02355996,-0.8883717,-10.62301,-5.706912,-0.4640697,50.61862,0,0,0,-8.005576,-13.96744,-72.19123,0.04471847,-109.7821,-59.59858,0.001067912,-0.1257102,0.09433498,0,0.3,0,0,0,0
638225079004514267,-2.992115,45.4706,1.587614,-67.01311,-59.8659,116.9055,0.02355996,-0.8883717,-10.62301,-5.780157,-0.5373149,50.61862,0,0,0,-5.074196,-14.88483,-71.27296,0.04471847,-109.7821,-59.59858,0.001067912,-0.1257102,0.09433498,0,0.3,0,0,0,0
638225079004854158,-3.086355,45.49398,1.517572,-67.59908,-62.1365,116.9055,0.02355996,-0.8883717,-10.62301,-5.706912,-0.4640697,50.61862,0,0,0,-5.222999,-14.8511,-71.48289,0.04471847,-109.7821,-59.59858,0.001067912,-0.1257102,0.09433498,0,0.3,0,0,0,0
638225079005194050,-4.547072,46.05506,1.727698,-67.89206,-62.79571,116.9055,0.02355996,-0.8883717,-10.62301,-5.706912,-0.4640697,50.61862,0,0,0,-7.655165,-13.92644,-72.09303,0.04471847,-109.7821,-59.59858,0.001067912,-0.1257102,0.09433498,0,0.3,0,0,0,0
638225079005533942,-7.256468,47.24735,2.754977,-68.84425,-62.50273,116.9055,0.02355996,-0.8883717,-10.62301,-5.706912,-0.4640697,50.61862,0,0,0,-12.24358,-11.92816,-72.19429,0.04471847,-109.7821,-59.59858,0.001067912,-0.1257102,0.09433498,0,0.3,0,0,0,0
638225079005863835,-6.05491,47.24735,3.24527,-68.69775,-62.57597,116.8323,0.02355996,-0.8883717,-10.62301,-5.706912,-0.5373149,50.61862,0,0,0,-10.34474,-11.86843,-70.82552,0.04471847,-109.7821,-59.59858,0.001067912,-0.1257102,0.09433498,0,0.3,0,0,0,0
638225079006213727,-4.971152,46.70965,2.871714,-68.33153,-63.30842,116.8323,0.02355996,-0.8883717,-10.62301,-5.706912,-0.5373149,50.61862,0,0,0,-8.502362,-12.76864,-70.60073,0.04471847,-109.7821,-59.59858,0.001067912,-0.1257102,0.09433498,0,0.3,0,0,0,0
638225079006553615,-4.994712,46.35898,2.778325,-68.11179,-63.30842,116.8323,0.02355996,-0.8883717,-10.62301,-5.706912,-0.5373149,50.61862,0,0,0,-8.575228,-13.3408,-70.23039,0.04471847,-109.7821,-59.59858,0.001067912,-0.1257102,0.09433498,0,0.3,0,0,0,0
638225079006903502,-7.539187,47.01357,3.595479,-68.91749,-61.40405,116.9055,0.02355996,-0.8883717,-10.62301,-5.780157,-0.5373149,50.61862,0,0,0,-13.02648,-12.18998,-69.92427,0.04471847,-109.7821,-59.59858,0.001067912,-0.1257102,0.09433498,0,0.3,0,0,0,0
638225079007233399,-7.185789,47.10708,4.132466,-69.50346,-59.49968,116.8323,0.02355996,-0.8883717,-10.62301,-5.706912,-0.5373149,50.61862,0,0,0,-12.5552,-11.95749,-68.76673,0.04471847,-109.7821,-59.59858,0.001067912,-0.1257102,0.09433498,0,0.3,0,0,0,0
638225079007683254,-4.240793,46.45249,3.945688,-69.13722,-60.6716,116.9055,0.02355996,-0.8883717,-10.62301,-5.780157,-0.5373149,50.61862,0,0,0,-7.472335,-13.0314,-67.57848,0.04471847,-109.7821,-59.59858,0.001067912,-0.1257102,0.09433498,0,0.3,0,0,0,0
638225079008013147,-4.476392,46.45249,3.922341,-69.06399,-61.55054,116.8323,0.02355996,-0.8883717,-10.62301,-5.706912,-0.4640697,50.61862,0,0,0,-7.882411,-13.03513,-67.6641,0.04471847,-109.7821,-59.59858,0.001067912,-0.1257102,0.09433498,0,0.3,0,0,0,0
638225079008353042,-7.751227,46.99019,4.249202,-69.50346,-62.9422,116.9055,0.02355996,-0.8883717,-10.62301,-5.706912,-0.4640697,50.61862,0,0,0,-13.60074,-12.12301,-68.4297,0.04471847,-109.7821,-59.59858,0.001067912,-0.1257102,0.09433498,0,0.3,0,0,0,0
638225079008682936,-8.481586,47.29411,5.113051,-69.86968,-62.86895,116.9055,0.02355996,-0.8883717,-10.62301,-5.706912,-0.5373149,50.54538,0,0,0,-15.09237,-11.47782,-67.14214,0.04471847,-109.7821,-59.59858,0.001067912,-0.1257102,0.09433498,0,0.3,0,0,0,0
638225079009022825,-5.348111,46.96681,4.762842,-68.91749,-63.7479,116.9055,0.02355996,-0.8883717,-10.62301,-5.706912,-0.5373149,50.61862,0,0,0,-9.513905,-12.06621,-66.72112,0.04471847,-109.7821,-59.59858,0.001067912,-0.1257102,0.09433498,0,0.3,0,0,0,0
638225079009362719,-4.429273,46.6629,4.459328,-68.47802,-63.7479,116.9055,0.02355996,-0.8883717,-10.62301,-5.706912,-0.5373149,50.61862,0,0,0,-7.868406,-12.60707,-66.76942,0.04471847,-109.7821,-59.59858,0.001067912,-0.1257102,0.09433498,0,0.3,0,0,0,0
638225079009692612,-7.185789,46.82654,4.319244,-68.99074,-61.69703,116.9055,0.02355996,-0.8883717,-10.62301,-5.706912,-0.5373149,50.61862,0,0,0,-12.66912,-12.37103,-67.86311,0.04471847,-109.7821,-59.59858,0.001067912,-0.1257102,0.09433498,0,0.3,0,0,0,0
638225079010032499,-10.08366,47.411,5.509954,-72.5065,-57.74179,116.9055,0.02355996,-0.8883717,-10.62301,-5.706912,-0.5373149,50.61862,0,0,0,-18.04203,-11.20799,-66.89508,0.04471847,-109.7821,-59.59858,0.001067912,-0.1257102,0.09433498,0,0.3,0,0,0,0
638225079010362397,-9.094145,47.50451,5.860164,-74.33764,-56.35013,116.9055,0.02355996,-0.8883717,-10.62301,-5.706912,-0.5373149,50.61862,0,0,0,-16.39011,-10.9801,-65.95611,0.04471847,-109.7821,-59.59858,0.001067912,-0.1257102,0.09433498,0,0.3,0,0,0,0
638225079010702293,-4.641313,47.10708,5.673386,-72.79948,-57.37556,116.9055,0.02355996,-0.8883717,-10.62301,-5.706912,-0.4640697,50.61862,0,0,0,-8.410958,-11.65099,-64.74615,0.04471847,-109.7821,-59.59858,0.001067912,-0.1257102,0.09433498,0,0.3,0,0,0,0
638225079011032183,-5.513031,46.92005,5.346524,-71.33459,-60.30537,116.9055,0.02355996,-0.8883717,-10.62301,-5.706912,-0.5373149,50.61862,0,0,0,-9.944033,-12.02082,-65.32288,0.04471847,-109.7821,-59.59858,0.001067912,-0.1257102,0.09433498,0,0.3,0,0,0,0
638225079011382072,-7.350708,47.24735,5.533302,-71.0416,-61.62378,116.9788,0.02355996,-0.8883717,-10.62301,-5.706912,-0.4640697,50.61862,0,0,0,-13.22679,-11.46091,-65.81883,0.04471847,-109.7821,-59.59858,0.001067912,-0.1257102,0.09433498,0,0.3,0,0,0,0
638225079011721963,-8.410906,48.08897,6.74736,-70.74863,-63.08869,116.9055,0.02355996,-0.8883717,-10.62301,-5.780157,-0.4640697,50.61862,0,0,0,-15.32077,-9.839612,-64.73446,0.04471847,-109.7821,-59.59858,0.001067912,-0.1257102,0.09433498,0,0.3,0,0,0,0
638225079012061852,-4.594193,48.13572,6.934138,-69.86968,-63.89439,116.9055,0.02355996,-0.8883717,-10.62301,-5.780157,-0.5373149,50.61862,0,0,0,-8.417703,-9.715178,-63.59497,0.04471847,-109.7821,-59.59858,0.001067912,-0.1257102,0.09433498,0,0.3,0,0,0,0
638225079012401747,-2.568036,48.11234,6.724013,-69.35696,-64.11412,116.9055,0.02355996,-0.8883717,-10.62301,-5.706912,-0.5373149,50.54538,0,0,0,-4.688808,-9.809649,-63.80746,0.04471847,-109.7821,-59.59858,0.001067912,-0.1257102,0.09433498,0,0.3,0,0,0,0
638225079012741635,-3.321954,48.27599,6.607276,-69.28372,-63.52816,116.9055,0.02355996,-0.8883717,-10.62301,-5.706912,-0.4640697,50.61862,0,0,0,-6.031883,-9.587293,-64.43104,0.04471847,-109.7821,-59.59858,0.001067912,-0.1257102,0.09433498,0,0.3,0,0,0,0
638225079013081531,-5.159632,48.55653,7.261,-70.52889,-60.89133,116.9055,0.02355996,-0.8883717,-10.62301,-5.706912,-0.4640697,50.61862,0,0,0,-9.453161,-8.970254,-63.6601,0.04471847,-109.7821,-59.59858,0.001067912,-0.1257102,0.09433498,0,0.3,0,0,0,0
638225079013411425,-4.122993,48.55653,7.727945,-70.89511,-59.8659,116.9055,0.02355996,-0.8883717,-10.62301,-5.780157,-0.5373149,50.61862,0,0,0,-7.635057,-8.828506,-62.43151,0.04471847,-109.7821,-59.59858,0.001067912,-0.1257102,0.09433498,0,0.3,0,0,0,0
638225079013751313,-0.4476392,48.06559,7.844682,-70.38239,-61.18431,116.9055,0.02355996,-0.8883717,-10.62301,-5.706912,-0.5373149,50.61862,0,0,0,-0.8384258,-9.551635,-61.03751,0.04471847,-109.7821,-59.59858,0.001067912,-0.1257102,0.09433498,0,0.3,0,0,0,0
638225079014101206,-1.837677,47.97207,7.377736,-70.23591,-62.64922,116.9055,0.02355996,-0.8883717,-10.62301,-5.780157,-0.5373149,50.54538,0,0,0,-3.412048,-9.841154,-62.00436,0.04471847,-109.7821,-59.59858,0.001067912,-0.1257102,0.09433498,0,0.3,0,0,0,0
638225079014441093,-4.924032,48.46302,7.77464,-70.60213,-61.69703,116.9055,0.02355996,-0.8883717,-10.62301,-5.706912,-0.4640697,50.61862,0,0,0,-9.13832,-8.958035,-62.27889,0.04471847,-109.7821,-59.59858,0.001067912,-0.1257102,0.09433498,0,0.3,0,0,0,0
638225079014786148,-4.782672,48.48639,8.28828,-70.74863,-61.03782,116.9055,0.02355996,-0.8883717,-10.62301,-5.780157,-0.5373149,50.54538,0,0,0,-8.971892,-8.754941,-61.11767,0.04471847,-109.7821,-59.59858,0.001067912,-0.1257102,0.09433498,0,0.3,0,0,0,0
638225079015265917,-1.013078,48.08897,8.428363,-69.94292,-62.79571,116.9055,0.02355996,-0.8883717,-10.62301,-5.706912,-0.5373149,50.54538,0,0,0,-1.920471,-9.323017,-59.74692,0.04471847,-109.7821,-59.59858,0.001067912,-0.1257102,0.09433498,0,0.3,0,0,0,0
638225079015595809,-1.602077,48.11234,8.241585,-69.79643,-62.64922,116.9055,0.02355996,-0.8883717,-10.62301,-5.706912,-0.5373149,50.54538,0,0,0,-3.023629,-9.349695,-60.24283,0.04471847,-109.7821,-59.59858,0.001067912,-0.1257102,0.09433498,0,0.3,0,0,0,0
638225079015925704,-4.311473,48.60329,8.311626,-70.82186,-59.64616,116.9055,0.02355996,-0.8883717,-10.62301,-5.780157,-0.5373149,50.61862,0,0,0,-8.078436,-8.566989,-61.19721,0.04471847,-109.7821,-59.59858,0.001067912,-0.1257102,0.09433498,0,0.3,0,0,0,0
638225079016265596,-3.227715,48.3695,8.70853,-73.38544,-56.20364,116.9055,0.02355996,-0.8883717,-10.62301,-5.706912,-0.5373149,50.61862,0,0,0,-6.12468,-8.79092,-59.74468,0.04471847,-109.7821,-59.59858,0.001067912,-0.1257102,0.09433498,0,0.3,0,0,0,0
638225079016605491,-1.225118,48.04221,8.755224,-73.82492,-55.76417,116.9055,0.02355996,-0.8883717,-10.62301,-5.706912,-0.5373149,50.54538,0,0,0,-2.340188,-9.28209,-58.92181,0.04471847,-109.7821,-59.59858,0.001067912,-0.1257102,0.09433498,0,0.3,0,0,0,0
638225079016945381,0.7539188,47.13046,7.914723,-73.97141,-57.52206,116.9055,0.02355996,-0.8883717,-10.62301,-5.706912,-0.5373149,50.61862,0,0,0,1.43533,-10.99689,-59.27509,0.04471847,-109.7821,-59.59858,0.001067912,-0.1257102,0.09433498,0,0.3,0,0,0,0
638225079017285270,-1.531397,47.20059,7.074222,-74.55737,-59.79266,116.9055,0.02355996,-0.8883717,-10.62301,-5.780157,-0.5373149,50.61862,0,0,0,-2.860221,-11.14105,-61.36302,0.04471847,-109.7821,-59.59858,0.001067912,-0.1257102,0.09433498,0,0.3,0,0,0,0
638225079017635168,-1.460718,47.15384,7.634556,-75.58281,-61.40405,116.9055,0.02355996,-0.8883717,-10.62301,-5.780157,-0.5373149,50.54538,0,0,0,-2.763246,-11.04809,-59.98682,0.04471847,-109.7821,-59.59858,0.001067912,-0.1257102,0.09433498,0,0.3,0,0,0,0
638225079017975053,-0.2120396,46.8733,7.914723,-75.72929,-62.50273,116.9055,0.02355996,-0.8883717,-10.62301,-5.706912,-0.5373149,50.61862,0,0,0,-0.4053174,-11.40506,-58.82866,0.04471847,-109.7821,-59.59858,0.001067912,-0.1257102,0.09433498,0,0.3,0,0,0,0
638225079018314941,1.908357,45.93817,7.727945,-75.65604,-63.30842,116.9055,0.02355996,-0.8883717,-10.62301,-5.706912,-0.5373149,50.54538,0,0,0,3.685338,-12.96494,-57.74371,0.04471847,-109.7821,-59.59858,0.001067912,-0.1257102,0.09433498,0,0.3,0,0,0,0
638225079018644837,-0.1884797,46.05506,7.237653,-75.94903,-61.77028,116.9055,0.02355996,-0.8883717,-10.62301,-5.706912,-0.5373149,50.54538,0,0,0,-0.3596852,-12.92455,-59.01,0.04471847,-109.7821,-59.59858,0.001067912,-0.1257102,0.09433498,0,0.3,0,0,0,0
638225079018994725,-1.672757,46.24208,7.401083,-76.90121,-60.15888,116.9055,0.02355996,-0.8883717,-10.62301,-5.706912,-0.5373149,50.61862,0,0,0,-3.193608,-12.57453,-58.99266,0.04471847,-109.7821,-59.59858,0.001067912,-0.1257102,0.09433498,0,0.3,0,0,0,0
638225079019334617,-0.7774788,46.26546,8.311626,-79.97752,-57.52206,116.9055,0.02355996,-0.8883717,-10.62301,-5.706912,-0.5373149,50.54538,0,0,0,-1.512471,-12.24724,-56.89632,0.04471847,-109.7821,-59.59858,0.001067912,-0.1257102,0.09433498,0,0.3,0,0,0,0
638225079019754493,2.568036,45.5875,8.591794,-81.51566,-58.76722,116.8323,0.02355996,-0.8883717,-10.62301,-5.780157,-0.5373149,50.61862,0,0,0,5.073909,-13.24895,-55.22118,0.04471847,-109.7821,-59.59858,0.001067912,-0.1257102,0.09433498,0,0.3,0,0,0,0
638225079020084376,1.625637,45.4706,7.657903,-82.10162,-61.77028,116.9055,0.02355996,-0.8883717,-10.62301,-5.706912,-0.5373149,50.61862,0,0,0,3.157035,-13.74672,-57.10979,0.04471847,-109.7821,-59.59858,0.001067912,-0.1257102,0.09433498,0,0.3,0,0,0,0
638225079020434265,-0.8245987,46.03168,7.821334,-82.90732,-62.50273,116.9055,0.02355996,-0.8883717,-10.62301,-5.706912,-0.5373149,50.61862,0,0,0,-1.593516,-12.78431,-57.63496,0.04471847,-109.7821,-59.59858,0.001067912,-0.1257102,0.09433498,0,0.3,0,0,0,0
638225079020784150,-0.4240793,45.98492,8.405016,-83.20029,-62.50273,116.9055,0.02355996,-0.8883717,-10.62301,-5.706912,-0.5373149,50.61862,0,0,0,-0.830077,-12.66817,-56.20342,0.04471847,-109.7821,-59.59858,0.001067912,-0.1257102,0.09433498,0,0.3,0,0,0,0
638225079021114047,2.167516,45.51736,9.198823,-83.12706,-63.52816,116.9055,0.02355996,-0.8883717,-10.62301,-5.780157,-0.4640697,50.54538,0,0,0,4.340176,-13.14479,-53.67723,0.04471847,-109.7821,-59.59858,0.001067912,-0.1257102,0.09433498,0,0.3,0,0,0,0
638225079021473932,2.026157,45.0498,8.615141,-82.98056,-62.57597,116.9055,0.02355996,-0.8883717,-10.62301,-5.706912,-0.4640697,50.54538,0,0,0,4.037133,-14.12078,-54.23531,0.04471847,-109.7821,-59.59858,0.001067912,-0.1257102,0.09433498,0,0.3,0,0,0,0
638225079021813825,0.6832389,45.14331,8.358321,-83.20029,-61.03782,116.9055,0.02355996,-0.8883717,-10.62301,-5.706912,-0.5373149,50.54538,0,0,0,1.352723,-14.05536,-54.91732,0.04471847,-109.7821,-59.59858,0.001067912,-0.1257102,0.09433498,0,0.3,0,0,0,0
638225079022143717,-0.8717186,45.02642,8.731878,-85.61739,-56.7896,116.9055,0.02355996,-0.8883717,-10.62301,-5.706912,-0.5373149,50.61862,0,0,0,-1.741873,-14.11826,-53.87009,0.04471847,-109.7821,-59.59858,0.001067912,-0.1257102,0.09433498,0,0.3,0,0,0,0
638225079022483608,1.437158,43.78737,9.035392,-88.98667,-54.44576,116.9055,0.02355996,-0.8883717,-10.62301,-5.706912,-0.5373149,50.61862,0,0,0,2.939659,-16.06925,-51.17792,0.04471847,-109.7821,-59.59858,0.001067912,-0.1257102,0.09433498,0,0.3,0,0,0,0
638225079022823503,2.450236,42.12752,8.311626,-90.45158,-55.54444,116.9055,0.02355996,-0.8883717,-10.62301,-5.780157,-0.5373149,50.61862,0,0,0,5.052227,-19.15045,-50.28185,0.04471847,-109.7821,-59.59858,0.001067912,-0.1257102,0.09433498,0,0.3,0,0,0,0
638225079023153396,1.507838,41.9405,7.727945,-90.74455,-56.49662,116.9055,0.02355996,-0.8883717,-10.62301,-5.706912,-0.5373149,50.61862,0,0,0,3.081925,-19.66328,-51.26807,0.04471847,-109.7821,-59.59858,0.001067912,-0.1257102,0.09433498,0,0.3,0,0,0,0
638225079023493284,-1.342918,41.91712,7.447778,-91.47701,-57.88828,116.9055,0.02355996,-0.8883717,-10.62301,-5.706912,-0.5373149,50.61862,0,0,0,-2.730609,-19.78986,-51.86951,0.04471847,-109.7821,-59.59858,0.001067912,-0.1257102,0.09433498,0,0.3,0,0,0,0
638225079023833178,-0.8245987,40.84172,7.844682,-92.20946,-59.64616,116.9055,0.02355996,-0.8883717,-10.62301,-5.706912,-0.5373149,50.61862,0,0,0,-1.713772,-21.54495,-49.27982,0.04471847,-109.7821,-59.59858,0.001067912,-0.1257102,0.09433498,0,0.3,0,0,0,0
638225079024263050,0.4947592,39.22863,7.891376,-92.42919,-62.35624,116.9055,0.02355996,-0.8883717,-10.62301,-5.706912,-0.5373149,50.61862,0,0,0,1.050068,-24.40447,-46.74946,0.04471847,-109.7821,-59.59858,0.001067912,-0.1257102,0.09433498,0,0.3,0,0,0,0
638225079024612926,0.1177998,39.20525,7.821334,-92.42919,-62.35624,116.9055,0.02355996,-0.8883717,-10.62301,-5.780157,-0.5373149,50.61862,0,0,0,0.2497579,-24.46891,-46.87226,0.04471847,-109.7821,-59.59858,0.001067912,-0.1257102,0.09433498,0,0.3,0,0,0,0
638225079024952820,-2.355996,40.07024,7.914723,-92.94191,-60.08564,116.9055,0.02355996,-0.8883717,-10.62301,-5.706912,-0.5373149,50.54538,0,0,0,-4.949811,-22.88883,-48.04274,0.04471847,-109.7821,-59.59858,0.001067912,-0.1257102,0.09433498,0,0.3,0,0,0,0
638225079025282715,-2.026157,39.97673,8.498405,-93.52787,-56.9361,116.9055,0.02355996,-0.8883717,-10.62301,-5.706912,-0.4640697,50.61862,0,0,0,-4.309636,-22.86159,-46.53266,0.04471847,-109.7821,-59.59858,0.001067912,-0.1257102,0.09433498,0,0.3,0,0,0,0
638225079025632600,0.1649197,39.90659,9.292212,-93.60111,-56.49662,116.9055,0.02355996,-0.8883717,-10.62301,-5.706912,-0.5373149,50.61862,0,0,0,0.3564124,-22.70106,-44.5269,0.04471847,-109.7821,-59.59858,0.001067912,-0.1257102,0.09433498,0,0.3,0,0,0,0
638225079025962495,-0.02355996,40.44429,9.549031,-93.45463,-57.15583,116.9055,0.02355996,-0.8883717,-10.62301,-5.706912,-0.5373149,50.61862,0,0,0,-0.05082662,-21.64704,-44.74408,0.04471847,-109.7821,-59.59858,0.001067912,-0.1257102,0.09433498,0,0.3,0,0,0,0
638225079026292391,-1.884797,41.63658,9.829199,-93.30813,-58.47424,116.9055,0.02355996,-0.8883717,-10.62301,-5.706912,-0.5373149,50.61862,0,0,0,-4.026613,-19.44435,-45.98951,0.04471847,-109.7821,-59.59858,0.001067912,-0.1257102,0.09433498,0,0.3,0,0,0,0
638225079026632286,-0.4476392,40.93523,10.10937,-93.23489,-60.30537,116.9055,0.02355996,-0.8883717,-10.62301,-5.706912,-0.5373149,50.61862,0,0,0,-0.9699151,-20.55802,-44.20782,0.04471847,-109.7821,-59.59858,0.001067912,-0.1257102,0.09433498,0,0.3,0,0,0,0
638225079026962178,0.7539188,40.18713,10.36619,-93.16164,-61.62378,116.9788,0.02355996,-0.8883717,-10.62301,-5.780157,-0.5373149,50.61862,0,0,0,1.656147,-21.77454,-42.49455,0.04471847,-109.7821,-59.59858,0.001067912,-0.1257102,0.09433498,0,0.3,0,0,0,0
638225079027302069,1.931917,39.32214,10.45957,-92.79542,-62.50273,116.9055,0.02355996,-0.8883717,-10.62301,-5.706912,-0.4640697,50.61862,0,0,0,4.293805,-23.28295,-41.05486,0.04471847,-109.7821,-59.59858,0.001067912,-0.1257102,0.09433498,0,0.3,0,0,0,0
638225079027641958,0.1884797,40.3274,10.52962,-92.86866,-60.30537,116.9055,0.02355996,-0.8883717,-10.62301,-5.706912,-0.4640697,50.54538,0,0,0,0.4145846,-21.45642,-42.32124,0.04471847,-109.7821,-59.59858,0.001067912,-0.1257102,0.09433498,0,0.3,0,0,0,0
638225079027991847,-0.4005193,40.6547,10.92652,-93.30813,-58.47424,116.9055,0.02355996,-0.8883717,-10.62301,-5.780157,-0.5373149,50.61862,0,0,0,-0.8838735,-20.70515,-41.91066,0.04471847,-109.7821,-59.59858,0.001067912,-0.1257102,0.09433498,0,0.3,0,0,0,0
638225079028331739,1.649197,40.18713,12.14058,-96.45767,-55.39795,116.9055,0.02355996,-0.8883717,-10.62301,-5.706912,-0.4640697,50.61862,0,0,0,3.73899,-20.96866,-38.48731,0.04471847,-109.7821,-59.59858,0.001067912,-0.1257102,0.09433498,0,0.3,0,0,0,0
638225079028781596,3.510434,39.43903,12.63087,-101.5116,-55.61768,116.9055,0.02355996,-0.8883717,-10.62301,-5.706912,-0.5373149,50.61862,0,0,0,8.091331,-22.06132,-36.45209,0.04471847,-109.7821,-59.59858,0.001067912,-0.1257102,0.09433498,0,0.3,0,0,0,0
638225079029121509,2.049716,40.00011,12.28066,-103.123,-57.00934,116.8323,0.02355996,-0.8883717,-10.62301,-5.780157,-0.5373149,50.61862,0,0,0,4.668105,-21.23269,-37.91801,0.04471847,-109.7821,-59.59858,0.001067912,-0.1257102,0.09433498,0,0.3,0,0,0,0
638225079029451386,1.342918,40.3274,12.60752,-104.0752,-57.81504,116.9055,0.02355996,-0.8883717,-10.62301,-5.706912,-0.4640697,50.61862,0,0,0,3.064682,-20.48664,-37.61887,0.04471847,-109.7821,-59.59858,0.001067912,-0.1257102,0.09433498,0,0.3,0,0,0,0
638225079029791273,2.379556,40.00011,12.98108,-105.6866,-58.62074,116.8323,0.02355996,-0.8883717,-10.62301,-5.706912,-0.5373149,50.61862,0,0,0,5.484936,-20.87623,-36.35773,0.04471847,-109.7821,-59.59858,0.001067912,-0.1257102,0.09433498,0,0.3,0,0,0,0
638225079030141159,4.405713,38.94809,13.58811,-108.3966,-61.4773,116.9055,0.02355996,-0.8883717,-10.62301,-5.780157,-0.4640697,50.61862,0,0,0,10.37339,-22.44156,-33.71132,0.04471847,-109.7821,-59.59858,0.001067912,-0.1257102,0.09433498,0,0.3,0,0,0,0
638225079030491051,3.416194,38.87795,12.65422,-107.4445,-62.28299,116.9055,0.02355996,-0.8883717,-10.62301,-5.706912,-0.5373149,50.54538,0,0,0,7.926672,-23.06198,-35.5629,0.04471847,-109.7821,-59.59858,0.001067912,-0.1257102,0.09433498,0,0.3,0,0,0,0
638225079030835995,1.554958,39.50917,12.44409,-106.9317,-60.01239,116.9055,0.02355996,-0.8883717,-10.62301,-5.780157,-0.5373149,50.61862,0,0,0,3.571552,-22.02969,-36.78072,0.04471847,-109.7821,-59.59858,0.001067912,-0.1257102,0.09433498,0,0.3,0,0,0,0
638225079031165889,1.979037,39.48579,12.86434,-108.9094,-58.62074,116.9055,0.02355996,-0.8883717,-10.62301,-5.780157,-0.5373149,50.61862,0,0,0,4.579418,-21.85741,-35.82241,0.04471847,-109.7821,-59.59858,0.001067912,-0.1257102,0.09433498,0,0.3,0,0,0,0
638225079031505785,4.853352,38.38701,13.65815,-118.5777,-57.22908,116.9055,0.02355996,-0.8883717,-10.62301,-5.706912,-0.4640697,50.61862,0,0,0,11.50739,-23.42275,-32.82564,0.04471847,-109.7821,-59.59858,0.001067912,-0.1257102,0.09433498,0,0.3,0,0,0,0
638225079031845676,5.96067,37.03107,12.841,-126.1952,-57.74179,116.8323,0.02355996,-0.8883717,-10.62301,-5.706912,-0.5373149,50.61862,0,0,0,14.13248,-26.35522,-32.99475,0.04471847,-109.7821,-59.59858,0.001067912,-0.1257102,0.09433498,0,0.3,0,0,0,0
638225079032185563,5.206751,37.07783,11.81372,-124.2908,-58.25451,116.8323,0.02355996,-0.8883717,-10.62301,-5.780157,-0.5373149,50.61862,0,0,0,12.13233,-26.77881,-35.21191,0.04471847,-109.7821,-59.59858,0.001067912,-0.1257102,0.09433498,0,0.3,0,0,0,0
638225079032525464,2.827195,38.05972,10.69305,-115.7212,-58.91372,116.759,0.02355996,-0.8883717,-10.62301,-5.780157,-0.5373149,50.61862,0,0,0,6.399195,-25.47649,-38.76956,0.04471847,-109.7821,-59.59858,0.001067912,-0.1257102,0.09433498,0,0.3,0,0,0,0
638225079032855351,3.722474,37.77918,10.87983,-114.4027,-59.49968,116.8323,0.02355996,-0.8883717,-10.62301,-5.706912,-0.4640697,50.61862,0,0,0,8.476872,-25.91021,-38.05883,0.04471847,-109.7821,-59.59858,0.001067912,-0.1257102,0.09433498,0,0.3,0,0,0,0
638225079033305207,6.620349,35.74527,11.18334,-116.5269,-62.06326,116.8323,0.02355996,-0.8883717,-10.62301,-5.780157,-0.4640697,50.61862,0,0,0,15.45957,-29.56713,-35.15121,0.04471847,-109.7821,-59.59858,0.001067912,-0.1257102,0.09433498,0,0.3,0,0,0,0
638225079033645101,7.327148,33.80488,10.38953,-116.3804,-63.08869,116.8323,0.02355996,-0.8883717,-10.62301,-5.780157,-0.5373149,50.61862,0,0,0,17.19851,-33.62219,-34.59747,0.04471847,-109.7821,-59.59858,0.001067912,-0.1257102,0.09433498,0,0.3,0,0,0,0
638225079033984990,7.185789,32.33206,9.315559,-116.3804,-62.86895,116.8323,0.02355996,-0.8883717,-10.62301,-5.706912,-0.5373149,50.61862,0,0,0,16.79437,-36.92242,-35.14314,0.04471847,-109.7821,-59.59858,0.001067912,-0.1257102,0.09433498,0,0.3,0,0,0,0
638225079034324880,6.620349,29.55005,6.91079,-117.2593,-61.84352,116.8323,0.02355996,-0.8883717,-10.62301,-5.780157,-0.5373149,50.61862,0,0,0,15.224,-43.26513,-37.18082,0.04471847,-109.7821,-59.59858,0.001067912,-0.1257102,0.09433498,0,0.3,0,0,0,0
638225079034664772,6.314069,28.70843,5.439913,-119.5299,-60.96458,116.759,0.02355996,-0.8883717,-10.62301,-5.780157,-0.4640697,50.61862,0,0,0,14.25318,-45.34439,-39.53632,0.04471847,-109.7821,-59.59858,0.001067912,-0.1257102,0.09433498,0,0.3,0,0,0,0
638225079035004661,6.33763,28.96559,5.323177,-120.0426,-60.6716,116.759,0.02355996,-0.8883717,-10.62301,-5.706912,-0.5373149,50.61862,0,0,0,14.24442,-44.84558,-40.09794,0.04471847,-109.7821,-59.59858,0.001067912,-0.1257102,0.09433498,0,0.3,0,0,0,0
638225079035334559,6.36119,30.01761,5.72008,-119.8961,-60.74484,116.8323,0.02355996,-0.8883717,-10.62301,-5.706912,-0.5373149,50.61862,0,0,0,14.26548,-42.62551,-40.38794,0.04471847,-109.7821,-59.59858,0.001067912,-0.1257102,0.09433498,0,0.3,0,0,0,0
638225079035674450,6.07847,31.70084,6.864096,-119.6031,-60.89133,116.8323,0.02355996,-0.8883717,-10.62301,-5.706912,-0.5373149,50.61862,0,0,0,13.70136,-38.97089,-39.68555,0.04471847,-109.7821,-59.59858,0.001067912,-0.1257102,0.09433498,0,0.3,0,0,0,0
638225079036024335,5.91355,33.47759,9.035392,-119.4567,-60.96458,116.8323,0.02355996,-0.8883717,-10.62301,-5.706912,-0.5373149,50.61862,0,0,0,13.61711,-34.78804,-36.884,0.04471847,-109.7821,-59.59858,0.001067912,-0.1257102,0.09433498,0,0.3,0,0,0,0
638225079036354232,5.91355,34.36596,10.69305,-119.3102,-60.96458,116.8323,0.02355996,-0.8883717,-10.62301,-5.706912,-0.5373149,50.61862,0,0,0,13.88983,-32.41145,-34.25106,0.04471847,-109.7821,-59.59858,0.001067912,-0.1257102,0.09433498,0,0.3,0,0,0,0
638225079036694124,6.10203,34.48285,12.14058,-119.1637,-60.96458,116.8323,0.02355996,-0.8883717,-10.62301,-5.706912,-0.5373149,50.61862,0,0,0,14.66556,-31.52019,-31.16688,0.04471847,-109.7821,-59.59858,0.001067912,-0.1257102,0.09433498,0,0.3,0,0,0,0
638225079037034013,6.45543,34.06204,13.54141,-119.0172,-61.18431,116.9055,0.02355996,-0.8883717,-10.62301,-5.706912,-0.4640697,50.61862,0,0,0,15.93081,-31.60495,-27.5534,0.04471847,-109.7821,-59.59858,0.001067912,-0.1257102,0.09433498,0,0.3,0,0,0,0
638225079037363911,6.502549,33.71137,13.96167,-119.0172,-61.4773,116.8323,0.02355996,-0.8883717,-10.62301,-5.706912,-0.4640697,50.61862,0,0,0,16.20572,-32.04997,-26.17048,0.04471847,-109.7821,-59.59858,0.001067912,-0.1257102,0.09433498,0,0.3,0,0,0,0
638225079037703799,6.07847,33.87502,14.17179,-118.9439,-61.84352,116.8323,0.02355996,-0.8883717,-10.62301,-5.706912,-0.4640697,50.61862,0,0,0,15.18073,-31.61459,-25.79337,0.04471847,-109.7821,-59.59858,0.001067912,-0.1257102,0.09433498,0,0.3,0,0,0,0
638225079038043693,5.136071,34.97379,14.24183,-119.0172,-61.91676,116.8323,0.02355996,-0.8883717,-10.62301,-5.706912,-0.5373149,50.54538,0,0,0,12.71875,-29.46518,-26.84543,0.04471847,-109.7821,-59.59858,0.001067912,-0.1257102,0.09433498,0,0.3,0,0,0,0
638225079038383581,4.947592,35.20757,14.49865,-119.1637,-61.99001,116.8323,0.02355996,-0.8883717,-10.62301,-5.706912,-0.5373149,50.54538,0,0,0,12.27615,-28.87162,-26.53912,0.04471847,-109.7821,-59.59858,0.001067912,-0.1257102,0.09433498,0,0.3,0,0,0,0
638225079038733471,5.442351,34.69325,15.3625,-119.4567,-61.99001,116.8323,0.02355996,-0.8883717,-10.62301,-5.706912,-0.5373149,50.61862,0,0,0,13.74952,-29.33476,-24.0339,0.04471847,-109.7821,-59.59858,0.001067912,-0.1257102,0.09433498,0,0.3,0,0,0,0
638225079039063367,5.96067,34.22569,16.2497,-119.5299,-62.06326,116.8323,0.02355996,-0.8883717,-10.62301,-5.706912,-0.4640697,50.61862,0,0,0,15.32474,-29.66958,-21.57576,0.04471847,-109.7821,-59.59858,0.001067912,-0.1257102,0.09433498,0,0.3,0,0,0,0
638225079039403259,5.583711,34.45947,16.2497,-118.7242,-62.1365,116.8323,0.02355996,-0.8883717,-10.62301,-5.780157,-0.5373149,50.61862,0,0,0,14.32889,-29.22033,-21.78361,0.04471847,-109.7821,-59.59858,0.001067912,-0.1257102,0.09433498,0,0.3,0,0,0,0
638225079039743150,4.782672,34.59974,16.03957,-117.9185,-62.06326,116.8323,0.02355996,-0.8883717,-10.62301,-5.706912,-0.5373149,50.61862,0,0,0,12.22385,-29.08736,-22.25014,0.04471847,-109.7821,-59.59858,0.001067912,-0.1257102,0.09433498,0,0.3,0,0,0,0
638225079040083041,4.429273,34.48285,15.92284,-118.2847,-61.62378,116.8323,0.02355996,-0.8883717,-10.62301,-5.780157,-0.5373149,50.61862,0,0,0,11.31423,-29.38626,-22.28414,0.04471847,-109.7821,-59.59858,0.001067912,-0.1257102,0.09433498,0,0.3,0,0,0,0
638225079040432926,4.806232,33.78151,15.94618,-119.5299,-61.4773,116.8323,0.02355996,-0.8883717,-10.62301,-5.780157,-0.4640697,50.61862,0,0,0,12.35608,-30.72247,-21.397,0.04471847,-109.7821,-59.59858,0.001067912,-0.1257102,0.09433498,0,0.3,0,0,0,0
638225079040842798,5.489471,31.65409,15.96953,-119.8961,-61.62378,116.8323,0.02355996,-0.8883717,-10.62301,-5.706912,-0.4640697,50.54538,0,0,0,14.36854,-34.87307,-18.839,0.04471847,-109.7821,-59.59858,0.001067912,-0.1257102,0.09433498,0,0.3,0,0,0,0
638225079041172692,5.88999,30.11112,15.96953,-119.9694,-61.69703,116.759,0.02355996,-0.8883717,-10.62301,-5.706912,-0.5373149,50.61862,0,0,0,15.60247,-37.95492,-17.10965,0.04471847,-109.7821,-59.59858,0.001067912,-0.1257102,0.09433498,0,0.3,0,0,0,0
638225079041512586,6.643909,27.16547,15.94618,-119.9694,-61.69703,116.8323,0.02355996,-0.8883717,-10.62301,-5.706912,-0.5373149,50.54538,0,0,0,17.96521,-43.98619,-14.11657,0.04471847,-109.7821,-59.59858,0.001067912,-0.1257102,0.09433498,0,0.3,0,0,0,0
638225079041842480,6.785269,26.39399,15.29246,-119.5299,-61.69703,116.8323,0.02355996,-0.8883717,-10.62301,-5.706912,-0.5373149,50.54538,0,0,0,18.26814,-45.99879,-14.81305,0.04471847,-109.7821,-59.59858,0.001067912,-0.1257102,0.09433498,0,0.3,0,0,0,0
638225079042182368,6.526109,26.62777,14.45196,-118.7975,-61.62378,116.8323,0.02355996,-0.8883717,-10.62301,-5.706912,-0.5373149,50.61862,0,0,0,17.33099,-46.01397,-16.85167,0.04471847,-109.7821,-59.59858,0.001067912,-0.1257102,0.09433498,0,0.3,0,0,0,0
638225079042522262,5.371671,27.53952,12.04719,-116.7466,-61.84352,116.8323,0.02355996,-0.8883717,-10.62301,-5.780157,-0.5373149,50.61862,0,0,0,13.67476,-45.40735,-22.91866,0.04471847,-109.7821,-59.59858,0.001067912,-0.1257102,0.09433498,0,0.3,0,0,0,0
638225079042862153,4.358593,28.12398,10.06267,-116.0874,-61.91676,116.8323,0.02355996,-0.8883717,-10.62301,-5.706912,-0.5373149,50.61862,0,0,0,10.70856,-45.09005,-27.85257,0.04471847,-109.7821,-59.59858,0.001067912,-0.1257102,0.09433498,0,0.3,0,0,0,0
638225079043202046,4.240793,27.98371,9.502337,-116.2339,-61.99001,116.8323,0.02355996,-0.8883717,-10.62301,-5.706912,-0.5373149,50.61862,0,0,0,10.33599,-45.59974,-28.95937,0.04471847,-109.7821,-59.59858,0.001067912,-0.1257102,0.09433498,0,0.3,0,0,0,0
638225079043531940,4.806232,26.93169,9.665768,-116.8198,-61.91676,116.8323,0.02355996,-0.8883717,-10.62301,-5.706912,-0.4640697,50.54538,0,0,0,11.8371,-47.70902,-27.56943,0.04471847,-109.7821,-59.59858,0.001067912,-0.1257102,0.09433498,0,0.3,0,0,0,0
638225079043871829,6.07847,24.73414,11.62694,-118.9439,-61.99001,116.8323,0.02355996,-0.8883717,-10.62301,-5.780157,-0.5373149,50.61862,0,0,0,15.67088,-51.46899,-21.19054,0.04471847,-109.7821,-59.59858,0.001067912,-0.1257102,0.09433498,0,0.3,0,0,0,0
638225079044211719,6.573229,23.84577,12.95773,-119.8961,-61.91676,116.8323,0.02355996,-0.8883717,-10.62301,-5.706912,-0.5373149,50.61862,0,0,0,17.38481,-52.69413,-17.48012,0.04471847,-109.7821,-59.59858,0.001067912,-0.1257102,0.09433498,0,0.3,0,0,0,0
638225079044551615,7.468508,22.25605,16.78668,-121.8005,-61.4773,116.8323,0.02355996,-0.8883717,-10.62301,-5.706912,-0.5373149,50.61862,0,0,0,21.04763,-53.81168,-7.795511,0.04471847,-109.7821,-59.59858,0.001067912,-0.1257102,0.09433498,0,0.3,0,0,0,0
638225079044881506,7.892587,21.90538,19.96191,-122.0202,-60.89133,116.759,0.02355996,-0.8883717,-10.62301,-5.706912,-0.5373149,50.61862,0,0,0,23.24044,-52.23877,-0.7058669,0.04471847,-109.7821,-59.59858,0.001067912,-0.1257102,0.09433498,0,0.3,0,0,0,0
638225079045221399,7.704108,22.77037,20.80241,-119.2369,-60.74484,116.8323,0.02355996,-0.8883717,-10.62301,-5.780157,-0.5373149,50.61862,0,0,0,22.83208,-49.69538,0.4285823,0.04471847,-109.7821,-59.59858,0.001067912,-0.1257102,0.09433498,0,0.3,0,0,0,0
638225079045561290,7.397828,23.40158,20.17204,-115.9409,-61.18431,116.8323,0.02355996,-0.8883717,-10.62301,-5.780157,-0.5373149,50.61862,0,0,0,21.67841,-48.85745,-1.385917,0.04471847,-109.7821,-59.59858,0.001067912,-0.1257102,0.09433498,0,0.3,0,0,0,0
638225079045901181,6.714589,24.85103,17.55714,-107.7374,-62.50273,116.8323,0.02355996,-0.8883717,-10.62301,-5.706912,-0.4640697,50.61862,0,0,0,18.85139,-47.74637,-8.227678,0.04471847,-109.7821,-59.59858,0.001067912,-0.1257102,0.09433498,0,0.3,0,0,0,0
638225079046241072,5.86643,26.25372,13.44803,-99.16775,-63.6014,116.8323,0.02355996,-0.8883717,-10.62301,-5.780157,-0.4640697,50.61862,0,0,0,15.39344,-47.35675,-18.5323,0.04471847,-109.7821,-59.59858,0.001067912,-0.1257102,0.09433498,0,0.3,0,0,0,0
638225079046580964,5.489471,26.67453,11.44016,-96.38443,-63.82114,116.8323,0.02355996,-0.8883717,-10.62301,-5.780157,-0.4640697,50.61862,0,0,0,13.92917,-47.48693,-23.41086,0.04471847,-109.7821,-59.59858,0.001067912,-0.1257102,0.09433498,0,0.3,0,0,0,0
638225079046915927,4.876912,26.88494,7.331042,-93.23489,-64.11412,116.8323,0.02355996,-0.8883717,-10.62301,-5.706912,-0.4640697,50.61862,0,0,0,11.55808,-48.60903,-32.88942,0.04471847,-109.7821,-59.59858,0.001067912,-0.1257102,0.09433498,0,0.3,0,0,0,0
638225079047265812,4.759112,26.62777,6.140331,-92.79542,-64.18736,116.8323,0.02355996,-0.8883717,-10.62301,-5.706912,-0.4640697,50.61862,0,0,0,11.07358,-49.46849,-35.34001,0.04471847,-109.7821,-59.59858,0.001067912,-0.1257102,0.09433498,0,0.3,0,0,0,0
638225079047605705,4.876912,26.41737,6.607276,-93.7476,-64.18736,116.759,0.02355996,-0.8883717,-10.62301,-5.706912,-0.5373149,50.54538,0,0,0,11.45743,-49.786,-34.06904,0.04471847,-109.7821,-59.59858,0.001067912,-0.1257102,0.09433498,0,0.3,0,0,0,0
638225079047945595,5.088952,26.11345,9.315559,-97.92258,-64.18736,116.759,0.02355996,-0.8883717,-10.62301,-5.706912,-0.4640697,50.61862,0,0,0,12.53574,-49.54735,-27.58327,0.04471847,-109.7821,-59.59858,0.001067912,-0.1257102,0.09433498,0,0.3,0,0,0,0
638225079048355467,5.230311,25.94981,13.14451,-102.0243,-64.18736,116.759,0.02355996,-0.8883717,-10.62301,-5.706912,-0.5373149,50.61862,0,0,0,13.6949,-48.15441,-18.74532,0.04471847,-109.7821,-59.59858,0.001067912,-0.1257102,0.09433498,0,0.3,0,0,0,0
638225079048695356,5.159632,25.97318,16.36643,-103.123,-64.18736,116.8323,0.02355996,-0.8883717,-10.62301,-5.706912,-0.5373149,50.61862,0,0,0,14.16023,-46.19586,-11.5312,0.04471847,-109.7821,-59.59858,0.001067912,-0.1257102,0.09433498,0,0.3,0,0,0,0
638225079049035244,4.782672,26.16021,17.37037,-102.3173,-64.18736,116.8323,0.02355996,-0.8883717,-10.62301,-5.706912,-0.5373149,50.61862,0,0,0,13.29867,-45.12686,-9.403833,0.04471847,-109.7821,-59.59858,0.001067912,-0.1257102,0.09433498,0,0.3,0,0,0,0
638225079049375138,4.547072,26.37061,16.99681,-101.2919,-64.18736,116.8323,0.02355996,-0.8883717,-10.62301,-5.706912,-0.5373149,50.61862,0,0,0,12.56195,-44.94458,-10.3945,0.04471847,-109.7821,-59.59858,0.001067912,-0.1257102,0.09433498,0,0.3,0,0,0,0
638225079049705035,4.099433,26.88494,14.94225,-98.94801,-64.18736,116.8323,0.02355996,-0.8883717,-10.62301,-5.780157,-0.5373149,50.61862,0,0,0,10.96053,-45.19004,-15.42154,0.04471847,-109.7821,-59.59858,0.001067912,-0.1257102,0.09433498,0,0.3,0,0,0,0
638225079050044926,3.651794,27.1421,11.76702,-97.84933,-64.18736,116.8323,0.02355996,-0.8883717,-10.62301,-5.780157,-0.4640697,50.54538,0,0,0,9.290192,-46.36353,-22.78653,0.04471847,-109.7821,-59.59858,0.001067912,-0.1257102,0.09433498,0,0.3,0,0,0,0
638225079050394816,3.439754,27.1421,10.08602,-97.6296,-64.18736,116.8323,0.02355996,-0.8883717,-10.62301,-5.706912,-0.5373149,50.61862,0,0,0,8.520955,-47.10509,-26.58752,0.04471847,-109.7821,-59.59858,0.001067912,-0.1257102,0.09433498,0,0.3,0,0,0,0
638225079050734706,3.321954,27.00183,8.008113,-97.6296,-64.18736,116.8323,0.02355996,-0.8883717,-10.62301,-5.706912,-0.4640697,50.61862,0,0,0,7.961349,-48.1562,-31.18964,0.04471847,-109.7821,-59.59858,0.001067912,-0.1257102,0.09433498,0,0.3,0,0,0,0
638225079051074594,3.604674,26.72129,8.801919,-99.31424,-64.11412,116.759,0.02355996,-0.8883717,-10.62301,-5.706912,-0.4640697,50.61862,0,0,0,8.771508,-48.46863,-29.11213,0.04471847,-109.7821,-59.59858,0.001067912,-0.1257102,0.09433498,0,0.3,0,0,0,0
638225079051404493,3.746034,26.55764,9.945935,-100.5594,-64.11412,116.8323,0.02355996,-0.8883717,-10.62301,-5.706912,-0.4640697,50.61862,0,0,0,9.297796,-48.3754,-26.34242,0.04471847,-109.7821,-59.59858,0.001067912,-0.1257102,0.09433498,0,0.3,0,0,0,0
638225079051744381,3.981634,26.41737,12.7943,-102.3905,-64.11412,116.759,0.02355996,-0.8883717,-10.62301,-5.706912,-0.5373149,50.61862,0,0,0,10.34299,-47.36079,-19.75378,0.04471847,-109.7821,-59.59858,0.001067912,-0.1257102,0.09433498,0,0.3,0,0,0,0
638225079052084273,4.005194,26.44075,14.94225,-102.7568,-64.18736,116.8323,0.02355996,-0.8883717,-10.62301,-5.706912,-0.5373149,50.61862,0,0,0,10.74138,-46.1139,-14.94094,0.04471847,-109.7821,-59.59858,0.001067912,-0.1257102,0.09433498,0,0.3,0,0,0,0
638225079052434165,3.840273,26.60439,15.03564,-102.6835,-64.18736,116.8323,0.02355996,-0.8883717,-10.62301,-5.706912,-0.5373149,50.61862,0,0,0,10.30243,-45.7169,-14.87087,0.04471847,-109.7821,-59.59858,0.001067912,-0.1257102,0.09433498,0,0.3,0,0,0,0
638225079052764055,3.698914,26.76804,14.40526,-102.6835,-64.18736,116.8323,0.02355996,-0.8883717,-10.62301,-5.706912,-0.5373149,50.61862,0,0,0,9.821163,-45.7494,-16.43263,0.04471847,-109.7821,-59.59858,0.001067912,-0.1257102,0.09433498,0,0.3,0,0,0,0
638225079053103947,3.251275,27.18885,12.07054,-102.6835,-64.18736,116.8323,0.02355996,-0.8883717,-10.62301,-5.780157,-0.5373149,50.54538,0,0,0,8.30881,-46.12082,-22.08469,0.04471847,-109.7821,-59.59858,0.001067912,-0.1257102,0.09433498,0,0.3,0,0,0,0
638225079053443837,2.944995,27.23561,9.572379,-102.7568,-64.11412,116.8323,0.02355996,-0.8883717,-10.62301,-5.706912,-0.4640697,50.61862,0,0,0,7.230883,-47.11557,-27.79488,0.04471847,-109.7821,-59.59858,0.001067912,-0.1257102,0.09433498,0,0.3,0,0,0,0
638225079053783730,3.015675,27.0252,9.105433,-102.9765,-64.11412,116.8323,0.02355996,-0.8883717,-10.62301,-5.706912,-0.5373149,50.61862,0,0,0,7.359598,-47.72774,-28.65178,0.04471847,-109.7821,-59.59858,0.001067912,-0.1257102,0.09433498,0,0.3,0,0,0,0
638225079054113626,3.604674,26.41737,10.03932,-104.2949,-64.11412,116.8323,0.02355996,-0.8883717,-10.62301,-5.706912,-0.4640697,50.61862,0,0,0,8.97002,-48.62988,-25.96097,0.04471847,-109.7821,-59.59858,0.001067912,-0.1257102,0.09433498,0,0.3,0,0,0,0
638225079054453517,4.217233,26.13683,12.46744,-105.4668,-64.11412,116.8323,0.02355996,-0.8883717,-10.62301,-5.706912,-0.5373149,50.61862,0,0,0,10.9206,-48.1126,-20.24961,0.04471847,-109.7821,-59.59858,0.001067912,-0.1257102,0.09433498,0,0.3,0,0,0,0
638225079054793408,4.264353,26.13683,13.44803,-105.4668,-64.11412,116.8323,0.02355996,-0.8883717,-10.62301,-5.706912,-0.4640697,50.61862,0,0,0,11.20777,-47.60086,-18.04073,0.04471847,-109.7821,-59.59858,0.001067912,-0.1257102,0.09433498,0,0.3,0,0,0,0
638225079055133299,3.981634,26.37061,13.86828,-104.9541,-64.11412,116.8323,0.02355996,-0.8883717,-10.62301,-5.780157,-0.5373149,50.61862,0,0,0,10.51523,-46.88193,-17.27922,0.04471847,-109.7821,-59.59858,0.001067912,-0.1257102,0.09433498,0,0.3,0,0,0,0
638225079055473189,3.086355,26.86156,12.37405,-104.1484,-64.11412,116.759,0.02355996,-0.8883717,-10.62301,-5.706912,-0.4640697,50.61862,0,0,0,7.943574,-46.64984,-21.02638,0.04471847,-109.7821,-59.59858,0.001067912,-0.1257102,0.09433498,0,0.3,0,0,0,0
638225079055903050,1.602077,27.3525,9.058739,-103.5625,-64.18736,116.8323,0.02355996,-0.8883717,-10.62301,-5.706912,-0.4640697,50.61862,0,0,0,3.898351,-47.06732,-28.96794,0.04471847,-109.7821,-59.59858,0.001067912,-0.1257102,0.09433498,0,0.3,0,0,0,0
638225079056242944,0.9188384,27.09534,7.401083,-103.6357,-64.11412,116.8323,0.02355996,-0.8883717,-10.62301,-5.706912,-0.5373149,50.61862,0,0,0,2.179177,-48.15177,-32.47526,0.04471847,-109.7821,-59.59858,0.001067912,-0.1257102,0.09433498,0,0.3,0,0,0,0
638225079056582837,0.9188384,26.74467,7.307694,-104.0752,-64.11412,116.8323,0.02355996,-0.8883717,-10.62301,-5.706912,-0.5373149,50.61862,0,0,0,2.181646,-48.90731,-32.32133,0.04471847,-109.7821,-59.59858,0.001067912,-0.1257102,0.09433498,0,0.3,0,0,0,0
638225079056912729,1.390038,26.25372,8.778571,-105.8331,-64.11412,116.8323,0.02355996,-0.8883717,-10.62301,-5.706912,-0.4640697,50.61862,0,0,0,3.394848,-49.45091,-28.44566,0.04471847,-109.7821,-59.59858,0.001067912,-0.1257102,0.09433498,0,0.3,0,0,0,0
638225079057262619,1.743437,26.20697,11.48686,-106.5655,-64.04088,116.759,0.02355996,-0.8883717,-10.62301,-5.706912,-0.4640697,50.61862,0,0,0,4.44793,-48.4397,-22.2197,0.04471847,-109.7821,-59.59858,0.001067912,-0.1257102,0.09433498,0,0.3,0,0,0,0
638225079057602510,1.790557,26.20697,12.77096,-106.5655,-64.11412,116.8323,0.02355996,-0.8883717,-10.62301,-5.780157,-0.5373149,50.54538,0,0,0,4.659402,-47.81178,-19.303,0.04471847,-109.7821,-59.59858,0.001067912,-0.1257102,0.09433498,0,0.3,0,0,0,0
638225079057942400,1.578517,26.34723,13.61146,-105.9795,-64.04088,116.8323,0.02355996,-0.8883717,-10.62301,-5.706912,-0.4640697,50.61862,0,0,0,4.156263,-47.07265,-17.52743,0.04471847,-109.7821,-59.59858,0.001067912,-0.1257102,0.09433498,0,0.3,0,0,0,0
638225079058272295,0.8245987,26.79142,12.44409,-104.9541,-64.18736,116.8323,0.02355996,-0.8883717,-10.62301,-5.780157,-0.5373149,50.61862,0,0,0,2.126634,-46.76048,-20.59481,0.04471847,-109.7821,-59.59858,0.001067912,-0.1257102,0.09433498,0,0.3,0,0,0,0
638225079058612286,0.4947592,27.00183,11.37012,-104.4414,-64.18736,116.8323,0.02355996,-0.8883717,-10.62301,-5.706912,-0.5373149,50.61862,0,0,0,1.252976,-46.83947,-23.25219,0.04471847,-109.7821,-59.59858,0.001067912,-0.1257102,0.09433498,0,0.3,0,0,0,0
638225079058952076,0.4476392,26.93169,9.292212,-104.0752,-64.18736,116.8323,0.02355996,-0.8883717,-10.62301,-5.706912,-0.5373149,50.61862,0,0,0,1.097058,-47.8522,-27.93449,0.04471847,-109.7821,-59.59858,0.001067912,-0.1257102,0.09433498,0,0.3,0,0,0,0
638225079059291968,1.107318,26.67453,9.502337,-104.2949,-64.11412,116.8323,0.02355996,-0.8883717,-10.62301,-5.780157,-0.4640697,50.61862,0,0,0,2.728173,-48.30656,-27.2042,0.04471847,-109.7821,-59.59858,0.001067912,-0.1257102,0.09433498,0,0.3,0,0,0,0
638225079059631860,2.214636,26.53426,11.32342,-104.5879,-64.11412,116.8323,0.02355996,-0.8883717,-10.62301,-5.780157,-0.5373149,50.61862,0,0,0,5.622056,-47.83244,-22.9719,0.04471847,-109.7821,-59.59858,0.001067912,-0.1257102,0.09433498,0,0.3,0,0,0,0
638225079059971752,2.520916,26.58102,12.28066,-104.5879,-64.11412,116.8323,0.02355996,-0.8883717,-10.62301,-5.706912,-0.4640697,50.61862,0,0,0,6.492881,-47.27944,-20.87399,0.04471847,-109.7821,-59.59858,0.001067912,-0.1257102,0.09433498,0,0.3,0,0,0,0
638225079060311643,2.520916,27.21223,13.12116,-103.8554,-64.11412,116.8323,0.02355996,-0.8883717,-10.62301,-5.706912,-0.5373149,50.61862,0,0,0,6.547585,-45.5392,-19.63148,0.04471847,-109.7821,-59.59858,0.001067912,-0.1257102,0.09433498,0,0.3,0,0,0,0
638225079060651536,1.554958,28.07722,12.23397,-102.1708,-64.04088,116.8323,0.02355996,-0.8883717,-10.62301,-5.706912,-0.5373149,50.54538,0,0,0,3.959493,-44.20901,-22.48973,0.04471847,-109.7821,-59.59858,0.001067912,-0.1257102,0.09433498,0,0.3,0,0,0,0
638225079060991428,0.8952785,28.87208,10.97322,-101.2186,-64.11412,116.759,0.02355996,-0.8883717,-10.62301,-5.706912,-0.5373149,50.61862,0,0,0,2.221204,-43.17305,-26.20959,0.04471847,-109.7821,-59.59858,0.001067912,-0.1257102,0.09433498,0,0.3,0,0,0,0
638225079061321321,0.4476392,29.62018,8.685184,-100.4129,-64.18736,116.8323,0.02355996,-0.8883717,-10.62301,-5.706912,-0.5373149,50.61862,0,0,0,1.063,-42.56289,-32.29367,0.04471847,-109.7821,-59.59858,0.001067912,-0.1257102,0.09433498,0,0.3,0,0,0,0
638225079061661216,0.8245987,29.3864,6.794055,-100.2664,-64.18736,116.8323,0.02355996,-0.8883717,-10.62301,-5.780157,-0.5373149,50.61862,0,0,0,1.899203,-43.62915,-36.39634,0.04471847,-109.7821,-59.59858,0.001067912,-0.1257102,0.09433498,0,0.3,0,0,0,0
638225079061991108,1.413598,28.77857,6.91079,-100.6326,-64.18736,116.8323,0.02355996,-0.8883717,-10.62301,-5.780157,-0.5373149,50.61862,0,0,0,3.279176,-44.83303,-35.46576,0.04471847,-109.7821,-59.59858,0.001067912,-0.1257102,0.09433498,0,0.3,0,0,0,0
638225079062330994,2.002597,28.33438,8.148195,-100.7791,-64.18736,116.8323,0.02355996,-0.8883717,-10.62301,-5.780157,-0.5373149,50.61862,0,0,0,4.762064,-45.36369,-32.15931,0.04471847,-109.7821,-59.59858,0.001067912,-0.1257102,0.09433498,0,0.3,0,0,0,0
638225079062680886,2.638716,28.12398,10.69305,-100.7791,-64.11412,116.8323,0.02355996,-0.8883717,-10.62301,-5.780157,-0.5373149,50.54538,0,0,0,6.55342,-44.82576,-26.15287,0.04471847,-109.7821,-59.59858,0.001067912,-0.1257102,0.09433498,0,0.3,0,0,0,0
638225079063015812,2.756516,28.17073,12.00049,-100.6326,-64.11412,116.8323,0.02355996,-0.8883717,-10.62301,-5.780157,-0.4640697,50.54538,0,0,0,6.986771,-44.13113,-23.23796,0.04471847,-109.7821,-59.59858,0.001067912,-0.1257102,0.09433498,0,0.3,0,0,0,0
638225079063445673,2.167516,28.75519,11.93045,-99.24099,-64.11412,116.8323,0.02355996,-0.8883717,-10.62301,-5.706912,-0.5373149,50.61862,0,0,0,5.464129,-42.9691,-23.98099,0.04471847,-109.7821,-59.59858,0.001067912,-0.1257102,0.09433498,0,0.3,0,0,0,0
638225079063785568,1.931917,29.03573,11.30008,-98.65503,-64.11412,116.8323,0.02355996,-0.8883717,-10.62301,-5.706912,-0.5373149,50.54538,0,0,0,4.811358,-42.69285,-25.71133,0.04471847,-109.7821,-59.59858,0.001067912,-0.1257102,0.09433498,0,0.3,0,0,0,0
