zeyangz2/DNN_classification_different_people_hand/data_by_names/Srikar/srikar_right_30.csv
Timestamp,Therapist joint angle 0,Therapist joint angle 1,Therapist joint angle 2,Therapist joint angle 3,Therapist joint angle 4,Therapist joint angle 5,Patient joint angle 0,Patient joint angle 1,Patient joint angle 2,Patient joint angle 3,Patient joint angle 4,Patient joint angle 5,Virtual joint angle 0,Virtual joint angle 1,Virtual joint angle 2,Therapist position x,Therapist position y,Therapist position z,Patient position x,Patient position y,Patient position z,Virtual position x,Virtual position y,Virtual position z,Assistive Force, Obstacle Force Magnitude, Therapist Constant Force, Patient Constant Force, Recovery Factor, Assistance Level
638225089392761318,0,0,0,0,0,0,0,0,0,0,0,0,0,0,0,0,0,0,0,0,0,0,0,0,0,0.3,0,0,0,0
638225089392901274,23.84268,-1.028641,5.813469,-53.60925,-63.7479,25.71527,52.98635,35.97906,-13.33129,41.90245,-38.40507,16.12015,0,0,0,59.35486,-111.7081,-34.04557,61.6141,-28.06491,-121.8974,0.001067912,-0.1257102,0.09433498,0,0.3,0,0,0,0
638225089393241164,23.84268,-1.028641,5.813469,-53.60925,-63.7479,25.71527,52.98635,35.97906,-13.33129,41.90245,-38.40507,16.12015,0,0,0,59.35486,-111.7081,-34.04557,61.6141,-28.06491,-121.8974,0.001067912,-0.1257102,0.09433498,0,0.3,0,0,0,0
638225089393591047,23.84268,-1.028641,5.813469,-53.60925,-63.7479,25.71527,52.98635,35.97906,-13.33129,41.90245,-38.40507,16.12015,0,0,0,59.35486,-111.7081,-34.04557,61.6141,-28.06491,-121.8974,0.001067912,-0.1257102,0.09433498,0,0.3,0,0,0,0
638225089393940937,23.84268,-1.028641,5.813469,-53.60925,-63.7479,25.71527,52.98635,35.97906,-13.33129,41.90245,-38.40507,16.12015,0,0,0,59.35486,-111.7081,-34.04557,61.6141,-28.06491,-121.8974,0.001067912,-0.1257102,0.09433498,0,0.3,0,0,0,0
638225089394280827,23.84268,-1.028641,5.813469,-53.60925,-63.7479,25.71527,52.98635,35.97906,-13.33129,41.90245,-38.40507,16.12015,0,0,0,59.35486,-111.7081,-34.04557,61.6141,-28.06491,-121.8974,0.001067912,-0.1257102,0.09433498,0,0.3,0,0,0,0
638225089394620721,23.84268,-1.028641,5.813469,-53.60925,-63.7479,25.71527,52.98635,35.97906,-13.33129,41.90245,-38.40507,16.12015,0,0,0,59.35486,-111.7081,-34.04557,61.6141,-28.06491,-121.8974,0.001067912,-0.1257102,0.09433498,0,0.3,0,0,0,0
638225089394960611,23.84268,-1.028641,5.813469,-53.60925,-63.7479,25.71527,52.98635,35.97906,-13.33129,41.90245,-38.40507,16.12015,0,0,0,59.35486,-111.7081,-34.04557,61.6141,-28.06491,-121.8974,0.001067912,-0.1257102,0.09433498,0,0.3,0,0,0,0
638225089395300502,23.84268,-1.028641,5.813469,-53.60925,-63.7479,25.64202,52.98635,35.97906,-13.33129,41.90245,-38.40507,16.12015,0,0,0,59.35486,-111.7081,-34.04557,61.6141,-28.06491,-121.8974,0.001067912,-0.1257102,0.09433498,0,0.3,0,0,0,0
638225089395680379,23.84268,-1.028641,5.813469,-53.60925,-63.7479,25.71527,52.98635,35.97906,-13.33129,41.90245,-38.40507,16.12015,0,0,0,59.35486,-111.7081,-34.04557,61.6141,-28.06491,-121.8974,0.001067912,-0.1257102,0.09433498,0,0.3,0,0,0,0
638225089396020275,23.84268,-1.028641,5.813469,-53.60925,-63.7479,25.71527,52.98635,35.97906,-13.33129,41.90245,-38.40507,16.12015,0,0,0,59.35486,-111.7081,-34.04557,61.6141,-28.06491,-121.8974,0.001067912,-0.1257102,0.09433498,0,0.3,0,0,0,0
638225089396360165,23.84268,-1.028641,5.813469,-53.60925,-63.7479,25.64202,52.98635,35.97906,-13.33129,41.90245,-38.40507,16.12015,0,0,0,59.35486,-111.7081,-34.04557,61.6141,-28.06491,-121.8974,0.001067912,-0.1257102,0.09433498,0,0.3,0,0,0,0
638225089396700054,23.84268,-1.028641,5.813469,-53.60925,-63.7479,25.71527,52.98635,35.97906,-13.33129,41.90245,-38.40507,16.12015,0,0,0,59.35486,-111.7081,-34.04557,61.6141,-28.06491,-121.8974,0.001067912,-0.1257102,0.09433498,0,0.3,0,0,0,0
638225089397039946,23.84268,-1.028641,5.813469,-53.60925,-63.7479,25.71527,52.98635,35.97906,-13.33129,41.90245,-38.40507,16.12015,0,0,0,59.35486,-111.7081,-34.04557,61.6141,-28.06491,-121.8974,0.001067912,-0.1257102,0.09433498,0,0.3,0,0,0,0
638225089397379840,23.84268,-1.028641,5.813469,-53.60925,-63.7479,25.71527,52.98635,35.97906,-13.33129,41.90245,-38.40507,16.12015,0,0,0,59.35486,-111.7081,-34.04557,61.6141,-28.06491,-121.8974,0.001067912,-0.1257102,0.09433498,0,0.3,0,0,0,0
638225089397709732,23.84268,-1.028641,5.813469,-53.60925,-63.7479,25.71527,52.98635,35.97906,-13.33129,41.90245,-38.40507,16.12015,0,0,0,59.35486,-111.7081,-34.04557,61.6141,-28.06491,-121.8974,0.001067912,-0.1257102,0.09433498,0,0.3,0,0,0,0
638225089398049623,23.84268,-1.028641,5.813469,-53.60925,-63.7479,25.71527,52.98635,35.97906,-13.33129,41.90245,-38.40507,16.12015,0,0,0,59.35486,-111.7081,-34.04557,61.6141,-28.06491,-121.8974,0.001067912,-0.1257102,0.09433498,0,0.3,0,0,0,0
638225089398389515,23.84268,-1.028641,5.813469,-53.60925,-63.7479,25.71527,52.98635,35.97906,-13.33129,41.90245,-38.40507,16.12015,0,0,0,59.35486,-111.7081,-34.04557,61.6141,-28.06491,-121.8974,0.001067912,-0.1257102,0.09433498,0,0.3,0,0,0,0
638225089398739403,23.84268,-1.028641,5.813469,-53.60925,-63.7479,25.64202,52.98635,35.97906,-13.33129,41.90245,-38.40507,16.12015,0,0,0,59.35486,-111.7081,-34.04557,61.6141,-28.06491,-121.8974,0.001067912,-0.1257102,0.09433498,0,0.3,0,0,0,0
638225089399069301,23.84268,-1.028641,5.813469,-53.60925,-63.82114,25.64202,52.98635,35.97906,-13.33129,41.90245,-38.40507,16.12015,0,0,0,59.35486,-111.7081,-34.04557,61.6141,-28.06491,-121.8974,0.001067912,-0.1257102,0.09433498,0,0.3,0,0,0,0
638225089399419187,23.84268,-1.028641,5.813469,-53.60925,-63.7479,25.71527,52.98635,35.97906,-13.33129,41.90245,-38.40507,16.12015,0,0,0,59.35486,-111.7081,-34.04557,61.6141,-28.06491,-121.8974,0.001067912,-0.1257102,0.09433498,0,0.3,0,0,0,0
638225089399759080,23.84268,-1.028641,5.813469,-53.60925,-63.7479,25.71527,52.98635,35.97906,-13.33129,41.90245,-38.40507,16.12015,0,0,0,59.35486,-111.7081,-34.04557,61.6141,-28.06491,-121.8974,0.001067912,-0.1257102,0.09433498,0,0.3,0,0,0,0
638225089400208936,23.84268,-1.028641,5.813469,-53.60925,-63.7479,25.71527,52.98635,35.97906,-13.33129,41.90245,-38.40507,16.12015,0,0,0,59.35486,-111.7081,-34.04557,61.6141,-28.06491,-121.8974,0.001067912,-0.1257102,0.09433498,0,0.3,0,0,0,0
638225089400538827,23.84268,-1.028641,5.813469,-53.60925,-63.7479,25.71527,52.98635,35.97906,-13.33129,41.90245,-38.40507,16.12015,0,0,0,59.35486,-111.7081,-34.04557,61.6141,-28.06491,-121.8974,0.001067912,-0.1257102,0.09433498,0,0.3,0,0,0,0
638225089400868722,23.84268,-1.028641,5.813469,-53.60925,-63.7479,25.71527,52.98635,35.97906,-13.33129,41.90245,-38.40507,16.12015,0,0,0,59.35486,-111.7081,-34.04557,61.6141,-28.06491,-121.8974,0.001067912,-0.1257102,0.09433498,0,0.3,0,0,0,0
638225089401218611,23.81912,-1.028641,5.813469,-53.60925,-63.7479,25.78851,52.98635,35.97906,-13.33129,41.90245,-38.40507,16.12015,0,0,0,59.29963,-111.7081,-34.02117,61.6141,-28.06491,-121.8974,0.001067912,-0.1257102,0.09433498,0,0.3,0,0,0,0
638225089401558504,23.81912,-1.028641,5.790122,-53.60925,-63.7479,25.935,52.98635,35.97906,-13.33129,41.90245,-38.40507,16.12015,0,0,0,59.2778,-111.7136,-34.07063,61.6141,-28.06491,-121.8974,0.001067912,-0.1257102,0.09433498,0,0.3,0,0,0,0
638225089401908390,23.79556,-1.028641,5.766775,-53.60925,-63.7479,26.00825,52.98635,35.97906,-13.33129,41.90245,-38.40507,16.12015,0,0,0,59.20076,-111.7191,-34.09573,61.6141,-28.06491,-121.8974,0.001067912,-0.1257102,0.09433498,0,0.3,0,0,0,0
638225089402248281,23.74844,-1.028641,5.72008,-53.60925,-63.7479,26.37447,52.98635,35.97906,-13.33129,41.90245,-38.40507,16.12015,0,0,0,59.04679,-111.7299,-34.14606,61.6141,-28.06491,-121.8974,0.001067912,-0.1257102,0.09433498,0,0.3,0,0,0,0
638225089402588177,23.6542,-1.028641,5.626691,-53.53601,-63.7479,26.59421,52.98635,35.97906,-13.33129,41.90245,-38.40507,16.12015,0,0,0,58.73919,-111.7514,-34.24724,61.6141,-28.06491,-121.8974,0.001067912,-0.1257102,0.09433498,0,0.3,0,0,0,0
638225089402928078,23.60708,-1.028641,5.556649,-53.60925,-63.7479,26.7407,52.98635,35.97906,-13.33129,41.90245,-38.40507,16.12015,0,0,0,58.56391,-111.7673,-34.34764,61.6141,-28.06491,-121.8974,0.001067912,-0.1257102,0.09433498,0,0.3,0,0,0,0
638225089403257960,23.27724,-1.028641,5.579997,-54.12197,-63.7479,27.25341,52.98635,35.97906,-13.33129,41.90245,-38.40507,16.12015,0,0,0,57.8129,-111.762,-33.96304,61.6141,-28.06491,-121.8974,0.001067912,-0.1257102,0.09433498,0,0.3,0,0,0,0
638225089403597853,22.73536,-1.028641,5.579997,-57.05178,-63.7479,28.57183,52.98635,35.97906,-13.33129,41.90245,-38.40507,16.12015,0,0,0,56.53936,-111.762,-33.42229,61.6141,-28.06491,-121.8974,0.001067912,-0.1257102,0.09433498,0,0.3,0,0,0,0
638225089403937745,22.2406,-1.028641,5.579997,-63.35086,-63.7479,29.59726,52.98635,35.97906,-13.33129,41.90245,-38.40507,16.12015,0,0,0,55.37214,-111.762,-32.9391,61.6141,-28.06491,-121.8974,0.001067912,-0.1257102,0.09433498,0,0.3,0,0,0,0
638225089404277631,22.05212,-1.028641,5.603344,-66.64689,-63.7479,29.89024,52.98635,35.97906,-13.33129,41.90245,-38.40507,16.12015,0,0,0,54.9467,-111.7567,-32.70756,61.6141,-28.06491,-121.8974,0.001067912,-0.1257102,0.09433498,0,0.3,0,0,0,0
638225089404737484,21.39244,-1.028641,5.603344,-81.44242,-63.7479,30.40295,52.98635,35.97906,-13.33129,41.90245,-38.40507,16.12015,0,0,0,53.38136,-111.7567,-32.08393,61.6141,-28.06491,-121.8974,0.001067912,-0.1257102,0.09433498,0,0.3,0,0,0,0
638225089405067380,21.10972,-1.028641,5.650038,-86.86256,-63.7479,30.4762,52.98635,35.97906,-13.33129,41.90245,-38.40507,16.12015,0,0,0,52.74728,-111.7461,-31.72129,61.6141,-28.06491,-121.8974,0.001067912,-0.1257102,0.09433498,0,0.3,0,0,0,0
638225089405417269,19.64901,-1.028641,6.046942,-96.97039,-63.82114,30.54945,52.98635,35.97906,-13.33129,41.90245,-38.40507,16.12015,0,0,0,49.55626,-111.652,-29.55565,61.6141,-28.06491,-121.8974,0.001067912,-0.1257102,0.09433498,0,0.3,0,0,0,0
638225089405757159,17.99981,-1.028641,6.070289,-102.83,-63.82114,30.62269,52.98635,35.97906,-13.33129,41.90245,-38.40507,16.12015,0,0,0,45.55793,-111.6462,-28.13552,61.6141,-28.06491,-121.8974,0.001067912,-0.1257102,0.09433498,0,0.3,0,0,0,0
638225089406097049,17.03385,-1.028641,6.093637,-106.9317,-63.7479,30.62269,52.98635,35.97906,-13.33129,41.90245,-38.40507,16.12015,0,0,0,43.2035,-111.6405,-27.33576,61.6141,-28.06491,-121.8974,0.001067912,-0.1257102,0.09433498,0,0.3,0,0,0,0
638225089406436947,15.0077,-1.028641,6.303762,-114.3295,-63.7479,30.69594,52.98635,35.97906,-13.33129,41.90245,-38.40507,16.12015,0,0,0,38.31672,-111.5877,-25.42683,61.6141,-28.06491,-121.8974,0.001067912,-0.1257102,0.09433498,0,0.3,0,0,0,0
638225089406776833,12.81662,-1.028641,6.280415,-120.4821,-63.67465,30.62269,52.98635,35.97906,-13.33129,41.90245,-38.40507,16.12015,0,0,0,32.81246,-111.5936,-24.11905,61.6141,-28.06491,-121.8974,0.001067912,-0.1257102,0.09433498,0,0.3,0,0,0,0
638225089407126722,10.71978,-1.028641,6.327109,-120.0426,-63.7479,30.32971,52.98635,35.97906,-13.33129,41.90245,-38.40507,16.12015,0,0,0,27.53339,-111.5817,-22.90894,61.6141,-28.06491,-121.8974,0.001067912,-0.1257102,0.09433498,0,0.3,0,0,0,0
638225089407456617,9.706704,-1.028641,6.327109,-117.8453,-63.67465,30.32971,52.98635,35.97906,-13.33129,41.90245,-38.40507,16.12015,0,0,0,24.95759,-111.5817,-22.44486,61.6141,-28.06491,-121.8974,0.001067912,-0.1257102,0.09433498,0,0.3,0,0,0,0
638225089407806507,7.350708,-1.028641,6.327109,-112.1321,-63.67465,30.25646,52.98635,35.97906,-13.33129,41.90245,-38.40507,16.12015,0,0,0,18.93858,-111.5817,-21.54223,61.6141,-28.06491,-121.8974,0.001067912,-0.1257102,0.09433498,0,0.3,0,0,0,0
638225089408146397,4.876912,-1.028641,6.887444,-111.4729,-63.7479,31.13541,52.98635,35.97906,-13.33129,41.90245,-38.40507,16.12015,0,0,0,12.69448,-111.4316,-19.57085,61.6141,-28.06491,-121.8974,0.001067912,-0.1257102,0.09433498,0,0.3,0,0,0,0
638225089408476293,3.533994,-1.028641,7.331042,-118.8707,-63.7479,32.96654,52.98635,35.97906,-13.33129,41.90245,-38.40507,16.12015,0,0,0,9.267328,-111.3038,-18.29166,61.6141,-28.06491,-121.8974,0.001067912,-0.1257102,0.09433498,0,0.3,0,0,0,0
638225089408816182,0.4711992,-1.028641,8.755224,-138.9399,-63.82114,37.50774,52.98635,35.97906,-13.33129,41.90245,-38.40507,16.12015,0,0,0,1.263404,-110.8401,-14.72901,61.6141,-28.06491,-121.8974,0.001067912,-0.1257102,0.09433498,0,0.3,0,0,0,0
638225089409246048,-2.780076,-1.028641,10.2261,-145.3122,-63.82114,41.53622,52.98635,35.97906,-13.33129,41.90245,-38.40507,16.12015,0,0,0,-7.615005,-110.2756,-11.53223,61.6141,-28.06491,-121.8974,0.001067912,-0.1257102,0.09433498,0,0.3,0,0,0,0
638225089409585939,-6.19627,-1.028641,12.07054,-149.9266,-63.82114,43.73357,52.98635,35.97906,-13.33129,41.90245,-38.40507,16.12015,0,0,0,-17.40058,-109.4457,-8.077723,61.6141,-28.06491,-121.8974,0.001067912,-0.1257102,0.09433498,0,0.3,0,0,0,0
638225089409935824,-9.329745,-1.028641,14.49865,-150.7323,-63.82114,43.73357,52.98635,35.97906,-13.33129,41.90245,-38.40507,16.12015,0,0,0,-27.02697,-108.1472,-3.841694,61.6141,-28.06491,-121.8974,0.001067912,-0.1257102,0.09433498,0,0.3,0,0,0,0
638225089410265721,-10.86114,-1.028641,15.85279,-150.3661,-63.82114,42.78139,52.98635,35.97906,-13.33129,41.90245,-38.40507,16.12015,0,0,0,-31.98689,-107.3222,-1.635578,61.6141,-28.06491,-121.8974,0.001067912,-0.1257102,0.09433498,0,0.3,0,0,0,0
638225089410605612,-13.42918,-1.028641,18.60777,-150.2196,-63.82114,40.3643,52.98635,35.97906,-13.33129,41.90245,-38.40507,16.12015,0,0,0,-40.84668,-105.4231,2.719948,61.6141,-28.06491,-121.8974,0.001067912,-0.1257102,0.09433498,0,0.3,0,0,0,0
638225089410945506,-15.50245,-1.028641,21.7363,-150.0731,-63.82114,37.36125,52.98635,35.97906,-13.33129,41.90245,-38.40507,16.12015,0,0,0,-48.8354,-102.9125,7.715466,61.6141,-28.06491,-121.8974,0.001067912,-0.1257102,0.09433498,0,0.3,0,0,0,0
638225089411275398,-16.30349,-1.028641,23.20718,-149.9266,-63.82114,36.11608,52.98635,35.97906,-13.33129,41.90245,-38.40507,16.12015,0,0,0,-52.18009,-101.604,10.05161,61.6141,-28.06491,-121.8974,0.001067912,-0.1257102,0.09433498,0,0.3,0,0,0,0
638225089411615290,-17.50505,-1.028641,26.49915,-149.7802,-63.82114,32.60031,52.98635,35.97906,-13.33129,41.90245,-38.40507,16.12015,0,0,0,-58.00047,-98.38431,15.54747,61.6141,-28.06491,-121.8974,0.001067912,-0.1257102,0.09433498,0,0.3,0,0,0,0
638225089411955182,-18.16473,-1.005263,29.79111,-149.5604,-63.82114,26.37447,52.98635,35.97906,-13.33129,41.90245,-38.40507,16.12015,0,0,0,-62.22002,-94.71633,21.28661,61.6141,-28.06491,-121.8974,0.001067912,-0.1257102,0.09433498,0,0.3,0,0,0,0
638225089412325061,-18.30609,-1.005263,32.98969,-148.9745,-63.82114,14.72849,52.98635,35.97906,-13.33129,41.90245,-38.40507,16.12015,0,0,0,-64.68343,-90.83932,27.16492,61.6141,-28.06491,-121.8974,0.001067912,-0.1257102,0.09433498,0,0.3,0,0,0,0
638225089412664953,-18.30609,-1.028641,34.53061,-148.6082,-63.82114,6.964502,52.98635,35.97906,-13.33129,41.90245,-38.40507,16.12015,0,0,0,-65.61959,-88.90079,29.9946,61.6141,-28.06491,-121.8974,0.001067912,-0.1257102,0.09433498,0,0.3,0,0,0,0
638225089413004843,-18.30609,-1.005263,37.56575,-147.2898,-63.82114,-14.86256,52.98635,35.97906,-13.33129,41.90245,-38.40507,16.12015,0,0,0,-67.4136,-84.68996,35.41723,61.6141,-28.06491,-121.8974,0.001067912,-0.1257102,0.09433498,0,0.3,0,0,0,0
638225089413344735,-18.30609,-0.8649935,40.78767,-147.5828,-63.82114,-39.98565,52.98635,35.97906,-13.33129,41.90245,-38.40507,16.12015,0,0,0,-69.24085,-79.62714,40.94038,61.6141,-28.06491,-121.8974,0.001067912,-0.1257102,0.09433498,0,0.3,0,0,0,0
638225089413674632,-18.35321,-0.7247244,42.60876,-151.0986,-63.82114,-51.85137,52.98635,35.97906,-13.33129,41.90245,-38.40507,16.12015,0,0,0,-70.41079,-76.48142,43.89119,61.6141,-28.06491,-121.8974,0.001067912,-0.1257102,0.09433498,0,0.3,0,0,0,0
638225089414014518,-18.87153,-0.4441859,46.67118,-155.3468,-63.82114,-73.01923,52.98635,35.97906,-13.33129,41.90245,-38.40507,16.12015,0,0,0,-74.50558,-69.18646,49.61637,61.6141,-28.06491,-121.8974,0.001067912,-0.1257102,0.09433498,0,0.3,0,0,0,0
638225089414354410,-19.71969,0.1402692,50.36005,-155.4933,-63.7479,-84.22573,52.98635,35.97906,-13.33129,41.90245,-38.40507,16.12015,0,0,0,-79.64373,-61.39565,53.84571,61.6141,-28.06491,-121.8974,0.001067912,-0.1257102,0.09433498,0,0.3,0,0,0,0
638225089414684309,-20.09665,0.4675641,52.18114,-155.5665,-63.67465,-86.20335,52.98635,35.97906,-13.33129,41.90245,-38.40507,16.12015,0,0,0,-82.01358,-57.32764,55.80328,61.6141,-28.06491,-121.8974,0.001067912,-0.1257102,0.09433498,0,0.3,0,0,0,0
638225089415024202,-20.63853,1.075397,56.15017,-155.5665,-62.86895,-86.2766,52.98635,35.97906,-13.33129,41.90245,-38.40507,16.12015,0,0,0,-86.02891,-48.42563,60.05976,61.6141,-28.06491,-121.8974,0.001067912,-0.1257102,0.09433498,0,0.3,0,0,0,0
638225089415364088,-20.66209,2.384577,59.60557,-155.5665,-61.69703,-82.02838,52.98635,35.97906,-13.33129,41.90245,-38.40507,16.12015,0,0,0,-87.59901,-38.57017,63.93881,61.6141,-28.06491,-121.8974,0.001067912,-0.1257102,0.09433498,0,0.3,0,0,0,0
638225089415703980,-20.59141,3.343083,60.91301,-155.5665,-61.18431,-80.19725,52.98635,35.97906,-13.33129,41.90245,-38.40507,16.12015,0,0,0,-87.80408,-33.70008,65.35542,61.6141,-28.06491,-121.8974,0.001067912,-0.1257102,0.09433498,0,0.3,0,0,0,0
638225089416043872,-20.26157,5.914686,63.50457,-155.5665,-60.01239,-76.97446,52.98635,35.97906,-13.33129,41.90245,-38.40507,16.12015,0,0,0,-87.2638,-22.39959,68.04191,61.6141,-28.06491,-121.8974,0.001067912,-0.1257102,0.09433498,0,0.3,0,0,0,0
638225089416383765,-19.88461,8.72007,66.32958,-155.5665,-58.62074,-75.58281,52.98635,35.97906,-13.33129,41.90245,-38.40507,16.12015,0,0,0,-86.37178,-9.969885,70.44984,61.6141,-28.06491,-121.8974,0.001067912,-0.1257102,0.09433498,0,0.3,0,0,0,0
638225089416733652,-19.60189,11.40856,69.2013,-154.8341,-56.20364,-75.14333,52.98635,35.97906,-13.33129,41.90245,-38.40507,16.12015,0,0,0,-85.67397,2.376447,72.22538,61.6141,-28.06491,-121.8974,0.001067912,-0.1257102,0.09433498,0,0.3,0,0,0,0
638225089417073544,-19.43697,12.67099,70.57878,-154.1749,-54.59225,-75.07008,52.98635,35.97906,-13.33129,41.90245,-38.40507,16.12015,0,0,0,-85.144,8.260354,72.93249,61.6141,-28.06491,-121.8974,0.001067912,-0.1257102,0.09433498,0,0.3,0,0,0,0
638225089417413432,-18.68305,15.3361,73.33376,-151.9775,-51.44271,-74.99684,52.98635,35.97906,-13.33129,41.90245,-38.40507,16.12015,0,0,0,-82.11721,20.37425,74.49139,61.6141,-28.06491,-121.8974,0.001067912,-0.1257102,0.09433498,0,0.3,0,0,0,0
638225089417753328,-17.62285,17.97784,75.99535,-152.3437,-49.68482,-74.99684,52.98635,35.97906,-13.33129,41.90245,-38.40507,16.12015,0,0,0,-77.57231,32.23757,75.85096,61.6141,-28.06491,-121.8974,0.001067912,-0.1257102,0.09433498,0,0.3,0,0,0,0
638225089418093220,-17.03385,19.40391,77.39619,-151.0986,-49.3186,-74.99684,52.98635,35.97906,-13.33129,41.90245,-38.40507,16.12015,0,0,0,-74.96609,38.5542,76.33588,61.6141,-28.06491,-121.8974,0.001067912,-0.1257102,0.09433498,0,0.3,0,0,0,0
638225089418433113,-15.97365,22.39632,80.15116,-144.2868,-48.5129,-75.43631,52.98635,35.97906,-13.33129,41.90245,-38.40507,16.12015,0,0,0,-70.0857,51.34838,76.49275,61.6141,-28.06491,-121.8974,0.001067912,-0.1257102,0.09433498,0,0.3,0,0,0,0
638225089418772999,-14.91346,24.40685,82.25242,-142.0162,-47.19449,-75.72929,52.98635,35.97906,-13.33129,41.90245,-38.40507,16.12015,0,0,0,-65.25763,60.47518,76.67461,61.6141,-28.06491,-121.8974,0.001067912,-0.1257102,0.09433498,0,0.3,0,0,0,0
638225089419102896,-14.13598,25.36535,83.60656,-143.2613,-46.60852,-75.80254,52.98635,35.97906,-13.33129,41.90245,-38.40507,16.12015,0,0,0,-61.79232,65.62643,77.0034,61.6141,-28.06491,-121.8974,0.001067912,-0.1257102,0.09433498,0,0.3,0,0,0,0
638225089419442788,-12.6517,27.39925,85.70781,-143.6276,-47.48747,-75.87578,52.98635,35.97906,-13.33129,41.90245,-38.40507,16.12015,0,0,0,-55.05534,74.73582,76.91367,61.6141,-28.06491,-121.8974,0.001067912,-0.1257102,0.09433498,0,0.3,0,0,0,0
638225089419852656,-11.45014,29.03573,87.34212,-139.1596,-50.41727,-75.94903,52.98635,35.97906,-13.33129,41.90245,-38.40507,16.12015,0,0,0,-49.58843,81.88836,76.47525,61.6141,-28.06491,-121.8974,0.001067912,-0.1257102,0.09433498,0,0.3,0,0,0,0
638225089420192547,-10.34282,30.41504,88.7663,-131.1026,-53.12735,-76.90121,52.98635,35.97906,-13.33129,41.90245,-38.40507,16.12015,0,0,0,-44.58232,87.98872,75.93269,61.6141,-28.06491,-121.8974,0.001067912,-0.1257102,0.09433498,0,0.3,0,0,0,0
638225089420542449,-9.070585,31.32679,89.67685,-115.5014,-55.17821,-94.48006,52.98635,35.97906,-13.33129,41.90245,-38.40507,16.12015,0,0,0,-38.98043,91.92905,75.81557,61.6141,-28.06491,-121.8974,0.001067912,-0.1257102,0.09433498,0,0.3,0,0,0,0
638225089420882327,-8.434465,31.65409,89.98036,-105.4668,-55.61768,-125.3895,52.98635,35.97906,-13.33129,41.90245,-38.40507,16.12015,0,0,0,-36.20921,93.285,75.84178,61.6141,-28.06491,-121.8974,0.001067912,-0.1257102,0.09433498,0,0.3,0,0,0,0
638225089421222216,-7.303588,32.823,90.47066,-85.03143,-54.59225,-141.7964,52.98635,35.97906,-13.33129,41.90245,-38.40507,16.12015,0,0,0,-31.19767,96.72716,75.06495,61.6141,-28.06491,-121.8974,0.001067912,-0.1257102,0.09433498,0,0.3,0,0,0,0
638225089421552111,-5.98423,35.11406,90.51735,-70.60213,-52.39489,-142.0894,52.98635,35.97906,-13.33129,41.90245,-38.40507,16.12015,0,0,0,-25.27406,101.2578,72.75494,61.6141,-28.06491,-121.8974,0.001067912,-0.1257102,0.09433498,0,0.3,0,0,0,0
638225089421902000,-5.277431,36.37648,90.51735,-66.13418,-51.66244,-142.0894,52.98635,35.97906,-13.33129,41.90245,-38.40507,16.12015,0,0,0,-22.14008,103.6424,71.33926,61.6141,-28.06491,-121.8974,0.001067912,-0.1257102,0.09433498,0,0.3,0,0,0,0
638225089422241891,-3.581114,38.62079,90.79752,-60.05483,-51.66244,-142.1627,52.98635,35.97906,-13.33129,41.90245,-38.40507,16.12015,0,0,0,-14.83603,108.4382,68.70885,61.6141,-28.06491,-121.8974,0.001067912,-0.1257102,0.09433498,0,0.3,0,0,0,0
638225089422581785,-1.460718,40.117,91.89484,-53.38951,-53.93304,-142.1627,52.98635,35.97906,-13.33129,41.90245,-38.40507,16.12015,0,0,0,-5.99699,113.6834,66.82742,61.6141,-28.06491,-121.8974,0.001067912,-0.1257102,0.09433498,0,0.3,0,0,0,0
638225089422921675,0.588999,41.05212,92.80538,-44.23387,-58.25451,-142.1627,52.98635,35.97906,-13.33129,41.90245,-38.40507,16.12015,0,0,0,2.402912,117.4536,65.38873,61.6141,-28.06491,-121.8974,0.001067912,-0.1257102,0.09433498,0,0.3,0,0,0,0
638225089423261581,1.507838,41.49631,92.82873,-39.61942,-60.23213,-142.1627,52.98635,35.97906,-13.33129,41.90245,-38.40507,16.12015,0,0,0,6.132839,118.2849,64.63575,61.6141,-28.06491,-121.8974,0.001067912,-0.1257102,0.09433498,0,0.3,0,0,0,0
638225089423601454,2.944995,42.71198,93.0155,-32.07517,-62.35624,-142.1627,52.98635,35.97906,-13.33129,41.90245,-38.40507,16.12015,0,0,0,11.87571,120.8181,62.49204,61.6141,-28.06491,-121.8974,0.001067912,-0.1257102,0.09433498,0,0.3,0,0,0,0
638225089423941348,4.146553,44.27832,93.03886,-21.01515,-63.30842,-142.1627,52.98635,35.97906,-13.33129,41.90245,-38.40507,16.12015,0,0,0,16.53213,123.5169,59.68687,61.6141,-28.06491,-121.8974,0.001067912,-0.1257102,0.09433498,0,0.3,0,0,0,0
638225089424371208,5.65439,45.72776,93.71593,-2.484124,-63.7479,-142.1627,52.98635,35.97906,-13.33129,41.90245,-38.40507,16.12015,0,0,0,22.28272,127.4751,56.70666,61.6141,-28.06491,-121.8974,0.001067912,-0.1257102,0.09433498,0,0.3,0,0,0,0
638225089424711104,6.21983,46.31222,93.87936,2.276812,-63.82114,-142.1627,52.98635,35.97906,-13.33129,41.90245,-38.40507,16.12015,0,0,0,24.39385,128.7992,55.47771,61.6141,-28.06491,-121.8974,0.001067912,-0.1257102,0.09433498,0,0.3,0,0,0,0
638225089425050992,7.704108,47.85518,94.27626,10.11404,-63.96763,-142.2359,52.98635,35.97906,-13.33129,41.90245,-38.40507,16.12015,0,0,0,29.82204,132.1658,52.09953,61.6141,-28.06491,-121.8974,0.001067912,-0.1257102,0.09433498,0,0.3,0,0,0,0
638225089425390882,9.306185,49.67868,94.36965,14.43551,-64.04088,-142.2359,52.98635,35.97906,-13.33129,41.90245,-38.40507,16.12015,0,0,0,35.45493,135.1798,48.01393,61.6141,-28.06491,-121.8974,0.001067912,-0.1257102,0.09433498,0,0.3,0,0,0,0
638225089425720779,11.07318,51.2684,94.36965,16.41313,-64.04088,-142.1627,52.98635,35.97906,-13.33129,41.90245,-38.40507,16.12015,0,0,0,41.56156,137.5344,44.01717,61.6141,-28.06491,-121.8974,0.001067912,-0.1257102,0.09433498,0,0.3,0,0,0,0
638225089426060673,11.96846,52.11002,94.36965,16.92585,-64.04088,-142.2359,52.98635,35.97906,-13.33129,41.90245,-38.40507,16.12015,0,0,0,44.55598,138.7487,41.8383,61.6141,-28.06491,-121.8974,0.001067912,-0.1257102,0.09433498,0,0.3,0,0,0,0
638225089426400562,13.8297,53.79325,94.36965,17.43856,-64.04088,-142.2359,52.98635,35.97906,-13.33129,41.90245,-38.40507,16.12015,0,0,0,50.61182,141.1089,37.24432,61.6141,-28.06491,-121.8974,0.001067912,-0.1257102,0.09433498,0,0.3,0,0,0,0
638225089426750464,15.95009,55.47648,94.36965,17.58505,-64.04088,-142.2359,52.98635,35.97906,-13.33129,41.90245,-38.40507,16.12015,0,0,0,57.30617,143.3763,32.15936,61.6141,-28.06491,-121.8974,0.001067912,-0.1257102,0.09433498,0,0.3,0,0,0,0
638225089427080347,17.03385,56.34147,94.36965,17.6583,-64.04088,-142.2359,52.98635,35.97906,-13.33129,41.90245,-38.40507,16.12015,0,0,0,60.59998,144.5047,29.44554,61.6141,-28.06491,-121.8974,0.001067912,-0.1257102,0.09433498,0,0.3,0,0,0,0
638225089427420234,19.67257,58.39875,94.36965,17.73154,-64.04088,-142.2359,52.98635,35.97906,-13.33129,41.90245,-38.40507,16.12015,0,0,0,68.28442,147.0863,22.64908,61.6141,-28.06491,-121.8974,0.001067912,-0.1257102,0.09433498,0,0.3,0,0,0,0
638225089427760126,21.32176,59.70793,94.36965,17.80479,-64.04088,-142.2359,52.98635,35.97906,-13.33129,41.90245,-38.40507,16.12015,0,0,0,72.80291,148.6532,18.17043,61.6141,-28.06491,-121.8974,0.001067912,-0.1257102,0.09433498,0,0.3,0,0,0,0
638225089428100015,22.33484,60.43266,94.36965,17.80479,-64.11412,-142.2359,52.98635,35.97906,-13.33129,41.90245,-38.40507,16.12015,0,0,0,75.53383,149.4947,15.50197,61.6141,-28.06491,-121.8974,0.001067912,-0.1257102,0.09433498,0,0.3,0,0,0,0
638225089428439915,24.76152,61.97561,94.36965,17.80479,-64.04088,-142.2359,52.98635,35.97906,-13.33129,41.90245,-38.40507,16.12015,0,0,0,81.93247,151.2245,9.281339,61.6141,-28.06491,-121.8974,0.001067912,-0.1257102,0.09433498,0,0.3,0,0,0,0
638225089428779800,27.35312,63.33155,94.36965,17.80479,-64.04088,-142.2359,52.98635,35.97906,-13.33129,41.90245,-38.40507,16.12015,0,0,0,88.59261,152.6741,2.90531,61.6141,-28.06491,-121.8974,0.001067912,-0.1257102,0.09433498,0,0.3,0,0,0,0
638225089429119697,29.99183,64.47708,94.27626,17.80479,-64.04088,-142.2359,52.98635,35.97906,-13.33129,41.90245,-38.40507,16.12015,0,0,0,95.19426,153.6301,-3.414394,61.6141,-28.06491,-121.8974,0.001067912,-0.1257102,0.09433498,0,0.3,0,0,0,0
638225089429449586,31.33475,64.92127,94.20621,17.80479,-64.04088,-142.2359,52.98635,35.97906,-13.33129,41.90245,-38.40507,16.12015,0,0,0,98.5538,153.9093,-6.478696,61.6141,-28.06491,-121.8974,0.001067912,-0.1257102,0.09433498,0,0.3,0,0,0,0
638225089429789482,34.16194,65.48235,94.13618,17.73154,-64.04088,-142.2359,52.98635,35.97906,-13.33129,41.90245,-38.40507,16.12015,0,0,0,105.759,154.2944,-12.50785,61.6141,-28.06491,-121.8974,0.001067912,-0.1257102,0.09433498,0,0.3,0,0,0,0
638225089430129370,36.91846,65.646,94.11283,17.6583,-64.04088,-142.2359,52.98635,35.97906,-13.33129,41.90245,-38.40507,16.12015,0,0,0,112.9254,154.3978,-18.04841,61.6141,-28.06491,-121.8974,0.001067912,-0.1257102,0.09433498,0,0.3,0,0,0,0
638225089430469265,38.94461,65.62261,93.97274,17.51181,-64.04088,-142.2359,52.98635,35.97906,-13.33129,41.90245,-38.40507,16.12015,0,0,0,118.2144,154.0501,-22.07851,61.6141,-28.06491,-121.8974,0.001067912,-0.1257102,0.09433498,0,0.3,0,0,0,0
638225089430799155,41.06501,65.5291,93.66923,17.07234,-64.04088,-142.2359,52.98635,35.97906,-13.33129,41.90245,-38.40507,16.12015,0,0,0,123.7065,153.2553,-26.36763,61.6141,-28.06491,-121.8974,0.001067912,-0.1257102,0.09433498,0,0.3,0,0,0,0
638225089431149042,44.05713,65.15505,93.15559,16.0469,-64.04088,-142.2359,52.98635,35.97906,-13.33129,41.90245,-38.40507,16.12015,0,0,0,131.5488,151.6988,-32.39877,61.6141,-28.06491,-121.8974,0.001067912,-0.1257102,0.09433498,0,0.3,0,0,0,0
638225089431488934,45.5414,64.87452,92.87543,15.46094,-63.96763,-142.2359,52.98635,35.97906,-13.33129,41.90245,-38.40507,16.12015,0,0,0,135.473,150.7719,-35.41331,61.6141,-28.06491,-121.8974,0.001067912,-0.1257102,0.09433498,0,0.3,0,0,0,0
638225089431928796,50.46544,63.7056,91.28781,12.60438,-63.96763,-142.2359,52.98635,35.97906,-13.33129,41.90245,-38.40507,16.12015,0,0,0,148.3776,145.8992,-45.88654,61.6141,-28.06491,-121.8974,0.001067912,-0.1257102,0.09433498,0,0.3,0,0,0,0
638225089432258691,51.94971,63.30818,90.56405,11.13948,-63.96763,-142.2359,52.98635,35.97906,-13.33129,41.90245,-38.40507,16.12015,0,0,0,152.1733,143.8024,-49.24398,61.6141,-28.06491,-121.8974,0.001067912,-0.1257102,0.09433498,0,0.3,0,0,0,0
638225089432598583,54.77691,62.30291,88.34605,6.525032,-63.96763,-142.0162,52.98635,35.97906,-13.33129,41.90245,-38.40507,16.12015,0,0,0,159.5227,137.5715,-55.72281,61.6141,-28.06491,-121.8974,0.001067912,-0.1257102,0.09433498,0,0.3,0,0,0,0
638225089432938472,54.75335,61.13401,85.31091,0.1527017,-63.08869,-123.7781,52.98635,35.97906,-13.33129,41.90245,-38.40507,16.12015,0,0,0,161.1138,129.2302,-54.50016,61.6141,-28.06491,-121.8974,0.001067912,-0.1257102,0.09433498,0,0.3,0,0,0,0
638225089433278366,54.75335,60.7132,84.40037,-3.070086,-62.35624,-106.712,52.98635,35.97906,-13.33129,41.90245,-38.40507,16.12015,0,0,0,161.6576,126.6436,-54.11585,61.6141,-28.06491,-121.8974,0.001067912,-0.1257102,0.09433498,0,0.3,0,0,0,0
638225089433618257,54.72979,59.66118,84.02681,-8.343738,-61.99001,-71.62756,52.98635,35.97906,-13.33129,41.90245,-38.40507,16.12015,0,0,0,163.2735,124.5614,-52.87331,61.6141,-28.06491,-121.8974,0.001067912,-0.1257102,0.09433498,0,0.3,0,0,0,0
638225089433958146,54.75335,59.02996,83.95677,-13.4709,-61.99001,-45.40579,52.98635,35.97906,-13.33129,41.90245,-38.40507,16.12015,0,0,0,164.3391,123.6502,-52.22098,61.6141,-28.06491,-121.8974,0.001067912,-0.1257102,0.09433498,0,0.3,0,0,0,0
638225089434298036,54.75335,58.72605,83.95677,-15.59501,-61.62378,-37.20233,52.98635,35.97906,-13.33129,41.90245,-38.40507,16.12015,0,0,0,164.8337,123.2846,-51.87153,61.6141,-28.06491,-121.8974,0.001067912,-0.1257102,0.09433498,0,0.3,0,0,0,0
638225089434637931,54.75335,58.18835,83.91008,-19.03753,-60.81809,-27.75371,52.98635,35.97906,-13.33129,41.90245,-38.40507,16.12015,0,0,0,165.6953,122.5219,-51.26266,61.6141,-28.06491,-121.8974,0.001067912,-0.1257102,0.09433498,0,0.3,0,0,0,0
638225089434977822,54.72979,57.51038,83.32639,-22.48005,-60.30537,-22.62654,52.98635,35.97906,-13.33129,41.90245,-38.40507,16.12015,0,0,0,166.6146,120.3322,-50.51032,61.6141,-28.06491,-121.8974,0.001067912,-0.1257102,0.09433498,0,0.3,0,0,0,0
638225089435327707,54.72979,56.71552,82.3925,-25.6296,-59.8659,-21.30813,52.98635,35.97906,-13.33129,41.90245,-38.40507,16.12015,0,0,0,167.6623,117.1711,-49.76931,61.6141,-28.06491,-121.8974,0.001067912,-0.1257102,0.09433498,0,0.3,0,0,0,0
638225089435657604,54.72979,56.22458,81.92556,-27.24099,-59.64616,-22.18707,52.98635,35.97906,-13.33129,41.90245,-38.40507,16.12015,0,0,0,168.3189,115.4633,-49.30492,61.6141,-28.06491,-121.8974,0.001067912,-0.1257102,0.09433498,0,0.3,0,0,0,0
638225089435997495,54.75335,55.1258,81.01501,-30.24404,-59.2067,-25.40986,52.98635,35.97906,-13.33129,41.90245,-38.40507,16.12015,0,0,0,169.8359,111.9256,-48.33676,61.6141,-28.06491,-121.8974,0.001067912,-0.1257102,0.09433498,0,0.3,0,0,0,0
638225089436447352,54.75335,54.02703,80.01108,-33.46683,-58.91372,-28.92563,52.98635,35.97906,-13.33129,41.90245,-38.40507,16.12015,0,0,0,171.2232,108.1388,-47.35641,61.6141,-28.06491,-121.8974,0.001067912,-0.1257102,0.09433498,0,0.3,0,0,0,0
638225089436787244,54.75335,52.8815,78.9838,-36.83611,-58.84047,-32.51464,52.98635,35.97906,-13.33129,41.90245,-38.40507,16.12015,0,0,0,172.6165,104.2004,-46.37185,61.6141,-28.06491,-121.8974,0.001067912,-0.1257102,0.09433498,0,0.3,0,0,0,0
638225089437127136,54.75335,51.45543,77.90982,-40.42512,-58.76722,-37.6418,52.98635,35.97906,-13.33129,41.90245,-38.40507,16.12015,0,0,0,174.3485,99.71591,-45.14796,61.6141,-28.06491,-121.8974,0.001067912,-0.1257102,0.09433498,0,0.3,0,0,0,0
638225089437467026,54.75335,50.66056,77.34949,-42.10976,-58.84047,-40.42512,52.98635,35.97906,-13.33129,41.90245,-38.40507,16.12015,0,0,0,175.2954,97.27933,-44.47883,61.6141,-28.06491,-121.8974,0.001067912,-0.1257102,0.09433498,0,0.3,0,0,0,0
638225089437806916,54.75335,48.6968,75.73853,-45.84526,-59.0602,-46.43123,52.98635,35.97906,-13.33129,41.90245,-38.40507,16.12015,0,0,0,177.4286,90.67574,-42.97143,61.6141,-28.06491,-121.8974,0.001067912,-0.1257102,0.09433498,0,0.3,0,0,0,0
638225089438136813,54.75335,46.42911,73.75401,-49.87375,-59.79266,-53.60925,52.98635,35.97906,-13.33129,41.90245,-38.40507,16.12015,0,0,0,179.6171,82.6588,-41.42495,61.6141,-28.06491,-121.8974,0.001067912,-0.1257102,0.09433498,0,0.3,0,0,0,0
638225089438486697,54.75335,45.09655,72.61,-52.0711,-60.30537,-58.22369,52.98635,35.97906,-13.33129,41.90245,-38.40507,16.12015,0,0,0,180.8026,77.94656,-40.58723,61.6141,-28.06491,-121.8974,0.001067912,-0.1257102,0.09433498,0,0.3,0,0,0,0
638225089438826591,54.75335,42.19766,70.46205,-56.75879,-61.40405,-69.06399,52.98635,35.97906,-13.33129,41.90245,-38.40507,16.12015,0,0,0,183.3123,68.3235,-38.81373,61.6141,-28.06491,-121.8974,0.001067912,-0.1257102,0.09433498,0,0.3,0,0,0,0
638225089439166481,54.75335,38.69093,69.06121,-61.73947,-62.57597,-82.17487,52.98635,35.97906,-13.33129,41.90245,-38.40507,16.12015,0,0,0,186.7145,59.05429,-36.40963,61.6141,-28.06491,-121.8974,0.001067912,-0.1257102,0.09433498,0,0.3,0,0,0,0
638225089439506374,54.75335,36.86742,68.68765,-63.86357,-63.08869,-86.05686,52.98635,35.97906,-13.33129,41.90245,-38.40507,16.12015,0,0,0,188.5818,54.88908,-35.0901,61.6141,-28.06491,-121.8974,0.001067912,-0.1257102,0.09433498,0,0.3,0,0,0,0
638225089439856260,54.75335,33.01003,68.59427,-67.81882,-63.52816,-87.15554,52.98635,35.97906,-13.33129,41.90245,-38.40507,16.12015,0,0,0,192.7153,47.32843,-32.16918,61.6141,-28.06491,-121.8974,0.001067912,-0.1257102,0.09433498,0,0.3,0,0,0,0
638225089440186157,54.75335,29.10587,68.80439,-71.26134,-63.82114,-84.88493,52.98635,35.97906,-13.33129,41.90245,-38.40507,16.12015,0,0,0,196.688,40.00164,-29.36187,61.6141,-28.06491,-121.8974,0.001067912,-0.1257102,0.09433498,0,0.3,0,0,0,0
638225089440526045,54.75335,24.9913,69.1546,-74.55737,-63.96763,-82.83408,52.98635,35.97906,-13.33129,41.90245,-38.40507,16.12015,0,0,0,200.4825,32.23552,-26.68057,61.6141,-28.06491,-121.8974,0.001067912,-0.1257102,0.09433498,0,0.3,0,0,0,0
638225089440975906,54.72979,20.01174,69.52816,-78.29288,-63.96763,-80.63672,52.98635,35.97906,-13.33129,41.90245,-38.40507,16.12015,0,0,0,204.2947,22.3453,-23.86071,61.6141,-28.06491,-121.8974,0.001067912,-0.1257102,0.09433498,0,0.3,0,0,0,0
638225089441325795,54.72979,16.29461,69.50481,-80.85645,-63.96763,-78.6591,52.98635,35.97906,-13.33129,41.90245,-38.40507,16.12015,0,0,0,206.4794,14.07519,-22.31557,61.6141,-28.06491,-121.8974,0.001067912,-0.1257102,0.09433498,0,0.3,0,0,0,0
638225089441665684,54.70623,14.40097,69.43477,-82.17487,-63.96763,-77.41393,52.98635,35.97906,-13.33129,41.90245,-38.40507,16.12015,0,0,0,207.3247,9.67266,-21.58978,61.6141,-28.06491,-121.8974,0.001067912,-0.1257102,0.09433498,0,0.3,0,0,0,0
638225089442005573,54.65911,10.47344,69.10791,-84.95818,-63.96763,-74.9236,52.98635,35.97906,-13.33129,41.90245,-38.40507,16.12015,0,0,0,208.5899,0.03649125,-20.43653,61.6141,-28.06491,-121.8974,0.001067912,-0.1257102,0.09433498,0,0.3,0,0,0,0
638225089442335467,54.61199,7.434268,68.43084,-86.86256,-63.96763,-73.53194,52.98635,35.97906,-13.33129,41.90245,-38.40507,16.12015,0,0,0,208.9003,-8.418694,-19.95804,61.6141,-28.06491,-121.8974,0.001067912,-0.1257102,0.09433498,0,0.3,0,0,0,0
638225089442675360,54.56487,6.288737,67.89385,-87.59501,-63.96763,-73.01923,52.98635,35.97906,-13.33129,41.90245,-38.40507,16.12015,0,0,0,208.659,-12.22576,-19.87115,61.6141,-28.06491,-121.8974,0.001067912,-0.1257102,0.09433498,0,0.3,0,0,0,0
638225089443015250,54.37639,4.55875,66.25954,-88.62045,-63.96763,-71.55432,52.98635,35.97906,-13.33129,41.90245,-38.40507,16.12015,0,0,0,207.2745,-19.73712,-19.82679,61.6141,-28.06491,-121.8974,0.001067912,-0.1257102,0.09433498,0,0.3,0,0,0,0
638225089443345148,53.95231,2.99241,64.74197,-89.42614,-63.96763,-69.79643,52.98635,35.97906,-13.33129,41.90245,-38.40507,16.12015,0,0,0,205.1794,-26.58849,-19.01732,61.6141,-28.06491,-121.8974,0.001067912,-0.1257102,0.09433498,0,0.3,0,0,0,0
638225089443695033,53.69315,2.197551,63.99486,-89.86562,-63.96763,-68.62451,52.98635,35.97906,-13.33129,41.90245,-38.40507,16.12015,0,0,0,203.9632,-30.00424,-18.48657,61.6141,-28.06491,-121.8974,0.001067912,-0.1257102,0.09433498,0,0.3,0,0,0,0
638225089444034926,53.15127,0.5610769,62.36055,-90.59806,-64.04088,-66.06093,52.98635,35.97906,-13.33129,41.90245,-38.40507,16.12015,0,0,0,201.2368,-37.20606,-17.53857,61.6141,-28.06491,-121.8974,0.001067912,-0.1257102,0.09433498,0,0.3,0,0,0,0
638225089444394811,52.63295,-0.6312115,61.16984,-90.89104,-64.04088,-64.15656,52.98635,35.97906,-13.33129,41.90245,-38.40507,16.12015,0,0,0,198.821,-42.42241,-16.52102,61.6141,-28.06491,-121.8974,0.001067912,-0.1257102,0.09433498,0,0.3,0,0,0,0
638225089444734701,51.87903,-1.052019,59.23202,-91.11078,-64.04088,-62.17894,52.98635,35.97906,-13.33129,41.90245,-38.40507,16.12015,0,0,0,195.0315,-47.31524,-15.31052,61.6141,-28.06491,-121.8974,0.001067912,-0.1257102,0.09433498,0,0.3,0,0,0,0
638225089445064598,51.47852,-1.028641,58.01796,-91.18402,-64.04088,-60.86052,52.98635,35.97906,-13.33129,41.90245,-38.40507,16.12015,0,0,0,192.8067,-49.67322,-14.86651,61.6141,-28.06491,-121.8974,0.001067912,-0.1257102,0.09433498,0,0.3,0,0,0,0
638225089445474467,50.74816,-1.028641,55.94005,-91.40376,-64.04088,-58.22369,52.98635,35.97906,-13.33129,41.90245,-38.40507,16.12015,0,0,0,188.794,-53.72794,-14.08873,61.6141,-28.06491,-121.8974,0.001067912,-0.1257102,0.09433498,0,0.3,0,0,0,0
638225089445814356,49.82932,-1.052019,54.11897,-91.47701,-64.04088,-55.73336,52.98635,35.97906,-13.33129,41.90245,-38.40507,16.12015,0,0,0,184.439,-57.25533,-12.64865,61.6141,-28.06491,-121.8974,0.001067912,-0.1257102,0.09433498,0,0.3,0,0,0,0
638225089446164248,48.93404,-1.052019,52.29787,-91.47701,-64.04088,-53.53601,52.98635,35.97906,-13.33129,41.90245,-38.40507,16.12015,0,0,0,180.0699,-60.64937,-11.45329,61.6141,-28.06491,-121.8974,0.001067912,-0.1257102,0.09433498,0,0.3,0,0,0,0
638225089446504136,48.41572,-1.052019,51.29394,-91.47701,-64.04088,-52.36408,52.98635,35.97906,-13.33129,41.90245,-38.40507,16.12015,0,0,0,177.5623,-62.48544,-10.78986,61.6141,-28.06491,-121.8974,0.001067912,-0.1257102,0.09433498,0,0.3,0,0,0,0
638225089446834031,47.26128,-1.052019,49.51955,-91.55025,-64.04088,-50.23997,52.98635,35.97906,-13.33129,41.90245,-38.40507,16.12015,0,0,0,172.4189,-65.66762,-9.030582,61.6141,-28.06491,-121.8974,0.001067912,-0.1257102,0.09433498,0,0.3,0,0,0,0
638225089447183917,45.87124,-1.052019,47.97863,-91.84323,-64.04088,-48.48209,52.98635,35.97906,-13.33129,41.90245,-38.40507,16.12015,0,0,0,166.806,-68.36385,-6.541278,61.6141,-28.06491,-121.8974,0.001067912,-0.1257102,0.09433498,0,0.3,0,0,0,0
638225089447533822,44.81104,-1.052019,47.51169,-92.42919,-64.04088,-45.99176,52.98635,35.97906,-13.33129,41.90245,-38.40507,16.12015,0,0,0,163.2685,-69.16823,-4.001019,61.6141,-28.06491,-121.8974,0.001067912,-0.1257102,0.09433498,0,0.3,0,0,0,0
638225089447873697,44.43409,-1.028641,47.51169,-92.42919,-64.04088,-44.16063,52.98635,35.97906,-13.33129,41.90245,-38.40507,16.12015,0,0,0,162.1844,-69.11383,-2.929705,61.6141,-28.06491,-121.8974,0.001067912,-0.1257102,0.09433498,0,0.3,0,0,0,0
638225089448203591,43.56237,-1.005263,47.83855,-91.18402,-64.04088,-39.54618,52.98635,35.97906,-13.33129,41.90245,-38.40507,16.12015,0,0,0,160.0026,-68.49699,-0.1095399,61.6141,-28.06491,-121.8974,0.001067912,-0.1257102,0.09433498,0,0.3,0,0,0,0
638225089448553480,42.31369,-0.9351282,48.11871,-89.3529,-64.04088,-33.9063,52.98635,35.97906,-13.33129,41.90245,-38.40507,16.12015,0,0,0,156.5941,-67.84937,3.662074,61.6141,-28.06491,-121.8974,0.001067912,-0.1257102,0.09433498,0,0.3,0,0,0,0
638225089448893374,41.55977,-0.8416153,48.14206,-88.62045,-64.04088,-31.26948,52.98635,35.97906,-13.33129,41.90245,-38.40507,16.12015,0,0,0,154.3435,-67.59129,5.737309,61.6141,-28.06491,-121.8974,0.001067912,-0.1257102,0.09433498,0,0.3,0,0,0,0
638225089449233266,39.81633,-0.7948589,48.16541,-87.66826,-63.45492,-27.02126,52.98635,35.97906,-13.33129,41.90245,-38.40507,16.12015,0,0,0,148.9998,-67.44199,10.38151,61.6141,-28.06491,-121.8974,0.001067912,-0.1257102,0.09433498,0,0.3,0,0,0,0
638225089449573153,37.9551,-0.7948589,48.16541,-87.22878,-61.91676,-24.75066,52.98635,35.97906,-13.33129,41.90245,-38.40507,16.12015,0,0,0,143.1162,-67.44199,15.12658,61.6141,-28.06491,-121.8974,0.001067912,-0.1257102,0.09433498,0,0.3,0,0,0,0
638225089450003022,35.62266,-0.7013461,48.11871,-86.93581,-58.91372,-23.43224,52.98635,35.97906,-13.33129,41.90245,-38.40507,16.12015,0,0,0,135.49,-67.30532,20.7424,61.6141,-28.06491,-121.8974,0.001067912,-0.1257102,0.09433498,0,0.3,0,0,0,0
638225089450342909,33.92635,-0.6312115,48.04868,-87.00905,-56.7896,-23.06602,52.98635,35.97906,-13.33129,41.90245,-38.40507,16.12015,0,0,0,129.7734,-67.2634,24.58152,61.6141,-28.06491,-121.8974,0.001067912,-0.1257102,0.09433498,0,0.3,0,0,0,0
638225089450672809,32.88971,-0.6312115,48.02533,-87.30203,-55.47119,-22.84628,52.98635,35.97906,-13.33129,41.90245,-38.40507,16.12015,0,0,0,126.242,-67.3038,26.86726,61.6141,-28.06491,-121.8974,0.001067912,-0.1257102,0.09433498,0,0.3,0,0,0,0
638225089451012693,30.76931,-0.6312115,47.95528,-88.18098,-53.20059,-22.33356,52.98635,35.97906,-13.33129,41.90245,-38.40507,16.12015,0,0,0,118.8768,-67.42493,31.31073,61.6141,-28.06491,-121.8974,0.001067912,-0.1257102,0.09433498,0,0.3,0,0,0,0
638225089451352592,28.62535,-0.5143204,47.97863,-88.98667,-50.7835,-21.96734,52.98635,35.97906,-13.33129,41.90245,-38.40507,16.12015,0,0,0,111.3429,-67.11253,35.65252,61.6141,-28.06491,-121.8974,0.001067912,-0.1257102,0.09433498,0,0.3,0,0,0,0
638225089451692480,27.306,-0.3272949,48.00198,-89.20641,-49.3186,-21.82085,52.98635,35.97906,-13.33129,41.90245,-38.40507,16.12015,0,0,0,106.6344,-66.63689,38.19727,61.6141,-28.06491,-121.8974,0.001067912,-0.1257102,0.09433498,0,0.3,0,0,0,0
638225089452032372,24.85576,0.2805384,48.07202,-89.42614,-46.46204,-21.7476,52.98635,35.97906,-13.33129,41.90245,-38.40507,16.12015,0,0,0,97.75269,-65.10101,42.66665,61.6141,-28.06491,-121.8974,0.001067912,-0.1257102,0.09433498,0,0.3,0,0,0,0
638225089452362262,22.14636,1.42607,48.07202,-89.05991,-42.65329,-22.33356,52.98635,35.97906,-13.33129,41.90245,-38.40507,16.12015,0,0,0,87.65364,-62.43524,47.01478,61.6141,-28.06491,-121.8974,0.001067912,-0.1257102,0.09433498,0,0.3,0,0,0,0
638225089452712150,20.00241,3.24957,48.07202,-87.96124,-38.69805,-23.28575,52.98635,35.97906,-13.33129,41.90245,-38.40507,16.12015,0,0,0,79.4762,-58.19495,49.98051,61.6141,-28.06491,-121.8974,0.001067912,-0.1257102,0.09433498,0,0.3,0,0,0,0
638225089453072035,19.15425,4.605506,48.11871,-86.86256,-36.64718,-23.50549,52.98635,35.97906,-13.33129,41.90245,-38.40507,16.12015,0,0,0,76.18851,-54.96575,50.99743,61.6141,-28.06491,-121.8974,0.001067912,-0.1257102,0.09433498,0,0.3,0,0,0,0
638225089453411929,17.85845,8.158993,48.35219,-83.93275,-32.10598,-23.65198,52.98635,35.97906,-13.33129,41.90245,-38.40507,16.12015,0,0,0,71.03781,-46.34264,52.13385,61.6141,-28.06491,-121.8974,0.001067912,-0.1257102,0.09433498,0,0.3,0,0,0,0
638225089453751819,16.53909,12.13329,49.58959,-80.41698,-27.34505,-23.43224,52.98635,35.97906,-13.33129,41.90245,-38.40507,16.12015,0,0,0,66.01672,-35.06685,53.9616,61.6141,-28.06491,-121.8974,0.001067912,-0.1257102,0.09433498,0,0.3,0,0,0,0
638225089454101708,15.85585,13.98017,50.3834,-78.73235,-25.22094,-23.359,52.98635,35.97906,-13.33129,41.90245,-38.40507,16.12015,0,0,0,63.42032,-29.46476,54.9416,61.6141,-28.06491,-121.8974,0.001067912,-0.1257102,0.09433498,0,0.3,0,0,0,0
638225089454551563,13.90038,19.5208,53.76875,-74.1179,-18.77536,-22.99277,52.98635,35.97906,-13.33129,41.90245,-38.40507,16.12015,0,0,0,56.03474,-10.90717,58.06951,61.6141,-28.06491,-121.8974,0.001067912,-0.1257102,0.09433498,0,0.3,0,0,0,0
638225089454881460,13.40562,20.68971,54.95946,-72.87273,-17.31046,-21.67436,52.98635,35.97906,-13.33129,41.90245,-38.40507,16.12015,0,0,0,54.23503,-6.100215,59.20586,61.6141,-28.06491,-121.8974,0.001067912,-0.1257102,0.09433498,0,0.3,0,0,0,0
638225089455221348,12.20406,23.19118,57.83118,-69.21047,-14.23416,-16.18097,52.98635,35.97906,-13.33129,41.90245,-38.40507,16.12015,0,0,0,49.77343,4.86564,61.78226,61.6141,-28.06491,-121.8974,0.001067912,-0.1257102,0.09433498,0,0.3,0,0,0,0
638225089455561245,10.93182,25.92643,60.95971,-64.81577,-12.40303,-6.292873,52.98635,35.97906,-13.33129,41.90245,-38.40507,16.12015,0,0,0,44.85274,16.92148,63.8723,61.6141,-28.06491,-121.8974,0.001067912,-0.1257102,0.09433498,0,0.3,0,0,0,0
638225089455911129,9.400424,28.26425,64.20498,-60.42105,-12.1833,9.235103,52.98635,35.97906,-13.33129,41.90245,-38.40507,16.12015,0,0,0,38.79388,28.46876,65.97405,61.6141,-28.06491,-121.8974,0.001067912,-0.1257102,0.09433498,0,0.3,0,0,0,0
638225089456241022,8.410906,29.05911,66.07276,-57.71098,-12.62277,21.24731,52.98635,35.97906,-13.33129,41.90245,-38.40507,16.12015,0,0,0,34.87896,34.03606,67.53916,61.6141,-28.06491,-121.8974,0.001067912,-0.1257102,0.09433498,0,0.3,0,0,0,0
638225089456580916,6.21983,29.97086,69.48147,-52.43733,-13.94118,49.22696,52.98635,35.97906,-13.33129,41.90245,-38.40507,16.12015,0,0,0,26.04668,43.22569,70.64335,61.6141,-28.06491,-121.8974,0.001067912,-0.1257102,0.09433498,0,0.3,0,0,0,0
638225089456920805,3.557554,30.57869,72.49326,-47.16368,-16.50476,78.59828,52.98635,35.97906,-13.33129,41.90245,-38.40507,16.12015,0,0,0,15.01505,51.0739,73.16232,61.6141,-28.06491,-121.8974,0.001067912,-0.1257102,0.09433498,0,0.3,0,0,0,0
638225089457260696,2.214636,30.78909,73.63728,-44.81983,-18.11616,92.14863,52.98635,35.97906,-13.33129,41.90245,-38.40507,16.12015,0,0,0,9.37111,54.04211,73.97315,61.6141,-28.06491,-121.8974,0.001067912,-0.1257102,0.09433498,0,0.3,0,0,0,0
638225089457600590,-0.8010387,31.23328,75.31828,-39.98565,-22.07139,136.9014,52.98635,35.97906,-13.33129,41.90245,-38.40507,16.12015,0,0,0,-3.397475,58.69767,74.64487,61.6141,-28.06491,-121.8974,0.001067912,-0.1257102,0.09433498,0,0.3,0,0,0,0
638225089457940478,-3.345515,31.88787,75.6218,-35.44445,-25.44067,144.7387,52.98635,35.97906,-13.33129,41.90245,-38.40507,16.12015,0,0,0,-14.14566,60.67962,73.63536,61.6141,-28.06491,-121.8974,0.001067912,-0.1257102,0.09433498,0,0.3,0,0,0,0
638225089458270374,-4.476392,32.16841,75.59845,-32.80762,-26.97882,144.8119,52.98635,35.97906,-13.33129,41.90245,-38.40507,16.12015,0,0,0,-18.89072,61.18052,72.95037,61.6141,-28.06491,-121.8974,0.001067912,-0.1257102,0.09433498,0,0.3,0,0,0,0
638225089458620266,-6.384749,32.21516,75.24824,-25.84933,-29.17617,144.8119,52.98635,35.97906,-13.33129,41.90245,-38.40507,16.12015,0,0,0,-26.88651,60.48378,71.92598,61.6141,-28.06491,-121.8974,0.001067912,-0.1257102,0.09433498,0,0.3,0,0,0,0
638225089459060124,-7.539187,32.16841,74.291,-16.32746,-29.61565,142.8343,52.98635,35.97906,-13.33129,41.90245,-38.40507,16.12015,0,0,0,-31.65281,58.24208,70.81279,61.6141,-28.06491,-121.8974,0.001067912,-0.1257102,0.09433498,0,0.3,0,0,0,0
638225089459400012,-8.387346,32.02814,72.93686,-3.143331,-28.95644,133.8251,52.98635,35.97906,-13.33129,41.90245,-38.40507,16.12015,0,0,0,-35.08519,54.94199,69.61009,61.6141,-28.06491,-121.8974,0.001067912,-0.1257102,0.09433498,0,0.3,0,0,0,0
638225089459729910,-9.282625,31.72422,71.51267,12.3114,-26.90557,124.9625,52.98635,35.97906,-13.33129,41.90245,-38.40507,16.12015,0,0,0,-38.69605,51.185,68.40285,61.6141,-28.06491,-121.8974,0.001067912,-0.1257102,0.09433498,0,0.3,0,0,0,0
638225089460069799,-9.895184,31.44369,70.95234,20.29512,-25.73365,121.1537,52.98635,35.97906,-13.33129,41.90245,-38.40507,16.12015,0,0,0,-41.21162,49.39402,67.89917,61.6141,-28.06491,-121.8974,0.001067912,-0.1257102,0.09433498,0,0.3,0,0,0,0
638225089460399694,-12.10982,30.4618,69.62154,35.89634,-23.90252,115.7336,52.98635,35.97906,-13.33129,41.90245,-38.40507,16.12015,0,0,0,-50.33764,44.51854,66.2579,61.6141,-28.06491,-121.8974,0.001067912,-0.1257102,0.09433498,0,0.3,0,0,0,0
638225089460739585,-15.45534,28.91884,66.09611,48.86074,-23.38981,113.8292,52.98635,35.97906,-13.33129,41.90245,-38.40507,16.12015,0,0,0,-63.5929,33.80017,61.65473,61.6141,-28.06491,-121.8974,0.001067912,-0.1257102,0.09433498,0,0.3,0,0,0,0
638225089461079476,-17.10453,28.1006,63.45787,53.69492,-23.5363,113.6827,52.98635,35.97906,-13.33129,41.90245,-38.40507,16.12015,0,0,0,-69.68391,26.57245,58.09735,61.6141,-28.06491,-121.8974,0.001067912,-0.1257102,0.09433498,0,0.3,0,0,0,0
638225089461419368,-20.02597,26.0667,57.29419,60.28699,-24.85471,116.9055,52.98635,35.97906,-13.33129,41.90245,-38.40507,16.12015,0,0,0,-79.44549,9.893847,49.61727,61.6141,-28.06491,-121.8974,0.001067912,-0.1257102,0.09433498,0,0.3,0,0,0,0
638225089461749261,-22.594,23.47172,50.7803,63.0703,-26.90557,123.4976,52.98635,35.97906,-13.33129,41.90245,-38.40507,16.12015,0,0,0,-86.68523,-7.853815,39.95936,61.6141,-28.06491,-121.8974,0.001067912,-0.1257102,0.09433498,0,0.3,0,0,0,0
638225089462089156,-23.72488,21.90538,47.48834,63.21679,-28.15074,128.3317,52.98635,35.97906,-13.33129,41.90245,-38.40507,16.12015,0,0,0,-89.32867,-17.01043,34.90654,61.6141,-28.06491,-121.8974,0.001067912,-0.1257102,0.09433498,0,0.3,0,0,0,0
638225089462429047,-25.539,17.97784,40.9511,61.31242,-30.3481,141.5159,52.98635,35.97906,-13.33129,41.90245,-38.40507,16.12015,0,0,0,-92.3638,-36.20679,24.95603,61.6141,-28.06491,-121.8974,0.001067912,-0.1257102,0.09433498,0,0.3,0,0,0,0
638225089462768936,-26.81124,13.09179,35.53454,57.57691,-31.59327,144.7387,52.98635,35.97906,-13.33129,41.90245,-38.40507,16.12015,0,0,0,-93.54208,-54.96025,16.74163,61.6141,-28.06491,-121.8974,0.001067912,-0.1257102,0.09433498,0,0.3,0,0,0,0
638225089463108833,-27.32955,10.28641,33.36324,55.4528,-31.95949,144.8119,52.98635,35.97906,-13.33129,41.90245,-38.40507,16.12015,0,0,0,-93.90679,-64.21188,13.36104,61.6141,-28.06491,-121.8974,0.001067912,-0.1257102,0.09433498,0,0.3,0,0,0,0
638225089463448722,-28.10703,5.306852,30.51488,51.93703,-32.25247,144.8119,52.98635,35.97906,-13.33129,41.90245,-38.40507,16.12015,0,0,0,-94.45417,-79.19717,8.494685,61.6141,-28.06491,-121.8974,0.001067912,-0.1257102,0.09433498,0,0.3,0,0,0,0
638225089463798609,-28.81383,0.8182371,28.74048,49.37346,-32.69194,144.8852,52.98635,35.97906,-13.33129,41.90245,-38.40507,16.12015,0,0,0,-95.16733,-91.66787,4.659775,61.6141,-28.06491,-121.8974,0.001067912,-0.1257102,0.09433498,0,0.3,0,0,0,0
638225089464138501,-29.75623,-1.098776,26.89605,47.10286,-32.98492,144.9584,52.98635,35.97906,-13.33129,41.90245,-38.40507,16.12015,0,0,0,-96.11034,-98.13249,-0.2342279,61.6141,-28.06491,-121.8974,0.001067912,-0.1257102,0.09433498,0,0.3,0,0,0,0
638225089464468394,-30.60439,-0.9351282,25.47187,45.41821,-33.13141,144.7387,52.98635,35.97906,-13.33129,41.90245,-38.40507,16.12015,0,0,0,-97.0775,-99.21424,-4.229607,61.6141,-28.06491,-121.8974,0.001067912,-0.1257102,0.09433498,0,0.3,0,0,0,0
638225089464808284,-32.44207,-0.7948589,23.55739,41.02351,-33.49764,144.8852,52.98635,35.97906,-13.33129,41.90245,-38.40507,16.12015,0,0,0,-100.1185,-100.7365,-10.84416,61.6141,-28.06491,-121.8974,0.001067912,-0.1257102,0.09433498,0,0.3,0,0,0,0
638225089465148175,-34.27974,-0.9351282,21.94643,34.72442,-32.69194,144.7387,52.98635,35.97906,-13.33129,41.90245,-38.40507,16.12015,0,0,0,-103.1678,-102.5129,-16.99676,61.6141,-28.06491,-121.8974,0.001067912,-0.1257102,0.09433498,0,0.3,0,0,0,0
638225089465488067,-35.17502,-0.9351282,21.783,31.57488,-31.813,144.8119,52.98635,35.97906,-13.33129,41.90245,-38.40507,16.12015,0,0,0,-105.3167,-102.6546,-18.91577,61.6141,-28.06491,-121.8974,0.001067912,-0.1257102,0.09433498,0,0.3,0,0,0,0
638225089465827960,-37.1305,-0.9818845,21.92308,25.64202,-30.42134,144.8119,52.98635,35.97906,-13.33129,41.90245,-38.40507,16.12015,0,0,0,-110.5361,-102.642,-22.3567,61.6141,-28.06491,-121.8974,0.001067912,-0.1257102,0.09433498,0,0.3,0,0,0,0
638225089466167851,-39.4865,-1.005263,22.27329,19.48943,-29.24942,144.8852,52.98635,35.97906,-13.33129,41.90245,-38.40507,16.12015,0,0,0,-116.9238,-102.3898,-26.44194,61.6141,-28.06491,-121.8974,0.001067912,-0.1257102,0.09433498,0,0.3,0,0,0,0
638225089466597714,-43.16185,-1.005263,23.09044,10.18729,-26.90557,144.8119,52.98635,35.97906,-13.33129,41.90245,-38.40507,16.12015,0,0,0,-126.9804,-101.6564,-32.94903,61.6141,-28.06491,-121.8974,0.001067912,-0.1257102,0.09433498,0,0.3,0,0,0,0
638225089466947604,-45.56496,-0.9818845,23.88425,3.448734,-24.78147,144.8852,52.98635,35.97906,-13.33129,41.90245,-38.40507,16.12015,0,0,0,-133.7567,-100.8657,-37.20547,61.6141,-28.06491,-121.8974,0.001067912,-0.1257102,0.09433498,0,0.3,0,0,0,0
638225089467287491,-47.02568,-0.9351282,24.44459,-0.8727306,-23.09683,144.8119,52.98635,35.97906,-13.33129,41.90245,-38.40507,16.12015,0,0,0,-137.9282,-100.2231,-39.84544,61.6141,-28.06491,-121.8974,0.001067912,-0.1257102,0.09433498,0,0.3,0,0,0,0
638225089467627386,-49.82932,-0.7247244,26.10224,-10.02838,-18.84861,144.8852,52.98635,35.97906,-13.33129,41.90245,-38.40507,16.12015,0,0,0,-146.7198,-98.08636,-44.49079,61.6141,-28.06491,-121.8974,0.001067912,-0.1257102,0.09433498,0,0.3,0,0,0,0
638225089467967281,-52.18531,-0.4208077,28.41362,-17.86561,-14.52714,144.8119,52.98635,35.97906,-13.33129,41.90245,-38.40507,16.12015,0,0,0,-155.4706,-94.91543,-47.69078,61.6141,-28.06491,-121.8974,0.001067912,-0.1257102,0.09433498,0,0.3,0,0,0,0
638225089468307172,-53.22195,-0.2104038,29.8845,-21.89409,-12.25654,144.8119,52.98635,35.97906,-13.33129,41.90245,-38.40507,16.12015,0,0,0,-160.0249,-92.75835,-48.73168,61.6141,-28.06491,-121.8974,0.001067912,-0.1257102,0.09433498,0,0.3,0,0,0,0
638225089468647060,-54.75335,0.2571602,32.96634,-28.7059,-8.301303,144.7387,52.98635,35.97906,-13.33129,41.90245,-38.40507,16.12015,0,0,0,-168.1621,-87.93085,-49.51954,61.6141,-28.06491,-121.8974,0.001067912,-0.1257102,0.09433498,0,0.3,0,0,0,0
638225089468986948,-55.93135,0.9351282,36.07153,-34.78524,-4.492554,144.8119,52.98635,35.97906,-13.33129,41.90245,-38.40507,16.12015,0,0,0,-175.4879,-82.25817,-49.67574,61.6141,-28.06491,-121.8974,0.001067912,-0.1257102,0.09433498,0,0.3,0,0,0,0
638225089469336838,-56.54391,2.104038,38.80315,-39.69267,-1.123276,144.7387,52.98635,35.97906,-13.33129,41.90245,-38.40507,16.12015,0,0,0,-180.8976,-75.67429,-48.81571,61.6141,-28.06491,-121.8974,0.001067912,-0.1257102,0.09433498,0,0.3,0,0,0,0
638225089469666733,-56.70883,3.319705,40.90441,-42.54923,1.367059,144.8119,52.98635,35.97906,-13.33129,41.90245,-38.40507,16.12015,0,0,0,-184.2671,-69.71439,-47.34977,61.6141,-28.06491,-121.8974,0.001067912,-0.1257102,0.09433498,0,0.3,0,0,0,0
638225089470016619,-56.73238,4.769154,42.93562,-44.67334,3.857395,144.8119,52.98635,35.97906,-13.33129,41.90245,-38.40507,16.12015,0,0,0,-187.0589,-63.19124,-45.6266,61.6141,-28.06491,-121.8974,0.001067912,-0.1257102,0.09433498,0,0.3,0,0,0,0
638225089470356510,-56.63815,6.990083,46.29763,-46.57772,7.299919,144.8119,52.98635,35.97906,-13.33129,41.90245,-38.40507,16.12015,0,0,0,-191.0658,-52.55479,-42.54772,61.6141,-28.06491,-121.8974,0.001067912,-0.1257102,0.09433498,0,0.3,0,0,0,0
638225089470696405,-56.47323,8.252506,48.53897,-47.45666,9.204292,144.8852,52.98635,35.97906,-13.33129,41.90245,-38.40507,16.12015,0,0,0,-193.3204,-45.80193,-40.26409,61.6141,-28.06491,-121.8974,0.001067912,-0.1257102,0.09433498,0,0.3,0,0,0,0
638225089471126265,-56.04915,12.78788,54.28239,-50.75269,15.72311,144.8119,52.98635,35.97906,-13.33129,41.90245,-38.40507,16.12015,0,0,0,-197.682,-24.98252,-35.25835,61.6141,-28.06491,-121.8974,0.001067912,-0.1257102,0.09433498,0,0.3,0,0,0,0
638225089471466155,-55.93135,14.65813,55.33302,-52.36408,18.43318,144.8852,52.98635,35.97906,-13.33129,41.90245,-38.40507,16.12015,0,0,0,-197.72,-18.75587,-34.6412,61.6141,-28.06491,-121.8974,0.001067912,-0.1257102,0.09433498,0,0.3,0,0,0,0
638225089471806047,-55.41303,19.07661,55.84666,-56.53906,25.61121,144.8852,52.98635,35.97906,-13.33129,41.90245,-38.40507,16.12015,0,0,0,-194.6026,-7.930906,-34.16795,61.6141,-28.06491,-121.8974,0.001067912,-0.1257102,0.09433498,0,0.3,0,0,0,0
638225089472145940,-54.51775,23.47172,55.00616,-60.42105,32.71599,144.7387,52.98635,35.97906,-13.33129,41.90245,-38.40507,16.12015,0,0,0,-188.5569,-0.0118641,-33.9418,61.6141,-28.06491,-121.8974,0.001067912,-0.1257102,0.09433498,0,0.3,0,0,0,0
638225089472485830,-54.07011,25.59913,54.42248,-61.81271,35.49931,144.8852,52.98635,35.97906,-13.33129,41.90245,-38.40507,16.12015,0,0,0,-185.2009,3.383256,-34.13965,61.6141,-28.06491,-121.8974,0.001067912,-0.1257102,0.09433498,0,0.3,0,0,0,0
638225089472825725,-53.36331,29.40978,53.74541,-63.42411,39.60104,144.8119,52.98635,35.97906,-13.33129,41.90245,-38.40507,16.12015,0,0,0,-179.5034,9.972079,-34.86057,61.6141,-28.06491,-121.8974,0.001067912,-0.1257102,0.09433498,0,0.3,0,0,0,0
638225089473175609,-52.79787,32.09827,53.55863,-64.59603,41.87164,144.8119,52.98635,35.97906,-13.33129,41.90245,-38.40507,16.12015,0,0,0,-175.4238,14.9987,-35.18581,61.6141,-28.06491,-121.8974,0.001067912,-0.1257102,0.09433498,0,0.3,0,0,0,0
638225089473515499,-51.66699,34.3192,52.76482,-65.54821,43.70277,144.8852,52.98635,35.97906,-13.33129,41.90245,-38.40507,16.12015,0,0,0,-169.672,17.84462,-34.19232,61.6141,-28.06491,-121.8974,0.001067912,-0.1257102,0.09433498,0,0.3,0,0,0,0
638225089473855395,-50.77172,35.20757,51.78423,-65.69471,44.7282,144.8852,52.98635,35.97906,-13.33129,41.90245,-38.40507,16.12015,0,0,0,-165.5602,17.73806,-33.18625,61.6141,-28.06491,-121.8974,0.001067912,-0.1257102,0.09433498,0,0.3,0,0,0,0
638225089474195284,-48.6042,36.39986,48.6557,-64.08331,46.77906,144.9584,52.98635,35.97906,-13.33129,41.90245,-38.40507,16.12015,0,0,0,-155.6174,14.3935,-31.17505,61.6141,-28.06491,-121.8974,0.001067912,-0.1257102,0.09433498,0,0.3,0,0,0,0
638225089474535174,-45.94193,37.61553,45.15361,-59.98158,49.19616,144.7387,52.98635,35.97906,-13.33129,41.90245,-38.40507,16.12015,0,0,0,-143.8528,10.70194,-29.15093,61.6141,-28.06491,-121.8974,0.001067912,-0.1257102,0.09433498,0,0.3,0,0,0,0
638225089474875065,-44.50476,38.22336,43.566,-57.05178,50.44132,144.8119,52.98635,35.97906,-13.33129,41.90245,-38.40507,16.12015,0,0,0,-137.8552,9.234607,-28.09091,61.6141,-28.06491,-121.8974,0.001067912,-0.1257102,0.09433498,0,0.3,0,0,0,0
638225089475204958,-41.46553,39.50917,41.02114,-48.92156,52.3457,144.8119,52.98635,35.97906,-13.33129,41.90245,-38.40507,16.12015,0,0,0,-126.0805,7.579257,-25.66908,61.6141,-28.06491,-121.8974,0.001067912,-0.1257102,0.09433498,0,0.3,0,0,0,0
638225089475634825,-38.40274,41.70671,40.29738,-39.17995,53.44437,144.8119,52.98635,35.97906,-13.33129,41.90245,-38.40507,16.12015,0,0,0,-115.4153,10.36437,-22.74639,61.6141,-28.06491,-121.8974,0.001067912,-0.1257102,0.09433498,0,0.3,0,0,0,0
638225089475974714,-35.52842,44.09129,40.13395,-29.3651,53.59086,144.8119,52.98635,35.97906,-13.33129,41.90245,-38.40507,16.12015,0,0,0,-105.6049,14.18406,-20.4527,61.6141,-28.06491,-121.8974,0.001067912,-0.1257102,0.09433498,0,0.3,0,0,0,0
638225089476314604,-32.74835,45.7979,39.80709,-20.2827,51.90622,137.4141,52.98635,35.97906,-13.33129,41.90245,-38.40507,16.12015,0,0,0,-96.47401,16.50657,-18.35483,61.6141,-28.06491,-121.8974,0.001067912,-0.1257102,0.09433498,0,0.3,0,0,0,0
638225089476654495,-31.16983,46.56938,39.83044,-15.22878,50.58781,128.8445,52.98635,35.97906,-13.33129,41.90245,-38.40507,16.12015,0,0,0,-91.65655,17.7845,-16.82703,61.6141,-28.06491,-121.8974,0.001067912,-0.1257102,0.09433498,0,0.3,0,0,0,0
638225089476994388,-28.41331,48.06559,40.41412,-6.952079,47.43827,113.0968,52.98635,35.97906,-13.33129,41.90245,-38.40507,16.12015,0,0,0,-83.53974,21.0206,-13.93225,61.6141,-28.06491,-121.8974,0.001067912,-0.1257102,0.09433498,0,0.3,0,0,0,0
638225089477334280,-26.29292,49.6553,40.78767,-0.2867693,44.80145,93.02757,52.98635,35.97906,-13.33129,41.90245,-38.40507,16.12015,0,0,0,-76.82733,24.02047,-12.85331,61.6141,-28.06491,-121.8974,0.001067912,-0.1257102,0.09433498,0,0.3,0,0,0,0
638225089477674171,-25.60968,50.30989,40.78767,2.057076,43.77601,81.30835,52.98635,35.97906,-13.33129,41.90245,-38.40507,16.12015,0,0,0,-74.46333,25.0001,-13.00038,61.6141,-28.06491,-121.8974,0.001067912,-0.1257102,0.09433498,0,0.3,0,0,0,0
638225089478004068,-25.20916,50.9411,40.83437,4.474167,42.67733,60.06725,52.98635,35.97906,-13.33129,41.90245,-38.40507,16.12015,0,0,0,-72.92692,26.00309,-13.43669,61.6141,-28.06491,-121.8974,0.001067912,-0.1257102,0.09433498,0,0.3,0,0,0,0
638225089478353952,-25.23272,50.98786,40.81102,3.888205,42.4576,42.48841,52.98635,35.97906,-13.33129,41.90245,-38.40507,16.12015,0,0,0,-72.93705,26.0361,-13.58035,61.6141,-28.06491,-121.8974,0.001067912,-0.1257102,0.09433498,0,0.3,0,0,0,0
638225089478693848,-25.23272,51.01124,40.81102,2.789528,42.89707,34.72442,52.98635,35.97906,-13.33129,41.90245,-38.40507,16.12015,0,0,0,-72.91902,26.07034,-13.6186,61.6141,-28.06491,-121.8974,0.001067912,-0.1257102,0.09433498,0,0.3,0,0,0,0
638225089479033742,-25.20916,51.22165,40.81102,-0.2867693,43.99575,20.80784,52.98635,35.97906,-13.33129,41.90245,-38.40507,16.12015,0,0,0,-72.69303,26.37774,-13.93351,61.6141,-28.06491,-121.8974,0.001067912,-0.1257102,0.09433498,0,0.3,0,0,0,0
638225089479373632,-25.13848,51.92299,40.81102,-4.608234,45.31416,12.38465,52.98635,35.97906,-13.33129,41.90245,-38.40507,16.12015,0,0,0,-71.95927,27.39226,-15.00157,61.6141,-28.06491,-121.8974,0.001067912,-0.1257102,0.09433498,0,0.3,0,0,0,0
638225089479723520,-24.85576,53.34906,40.83437,-10.3946,46.41284,18.68373,52.98635,35.97906,-13.33129,41.90245,-38.40507,16.12015,0,0,0,-70.11021,29.44197,-17.00459,61.6141,-28.06491,-121.8974,0.001067912,-0.1257102,0.09433498,0,0.3,0,0,0,0
638225089480173371,-24.26676,55.24269,40.78767,-17.93885,46.92556,49.4467,52.98635,35.97906,-13.33129,41.90245,-38.40507,16.12015,0,0,0,-67.0461,31.94289,-19.62934,61.6141,-28.06491,-121.8974,0.001067912,-0.1257102,0.09433498,0,0.3,0,0,0,0
638225089480523263,-23.79556,56.27134,40.81102,-23.65198,46.1931,97.34904,52.98635,35.97906,-13.33129,41.90245,-38.40507,16.12015,0,0,0,-65.03889,33.32552,-20.85616,61.6141,-28.06491,-121.8974,0.001067912,-0.1257102,0.09433498,0,0.3,0,0,0,0
638225089480853159,-23.34792,56.71552,40.81102,-26.21556,45.24092,126.1344,52.98635,35.97906,-13.33129,41.90245,-38.40507,16.12015,0,0,0,-63.54295,33.89621,-21.14395,61.6141,-28.06491,-121.8974,0.001067912,-0.1257102,0.09433498,0,0.3,0,0,0,0
638225089481183052,-22.33484,56.90255,40.81102,-29.51159,43.19005,144.5189,52.98635,35.97906,-13.33129,41.90245,-38.40507,16.12015,0,0,0,-60.79189,34.1345,-20.38042,61.6141,-28.06491,-121.8974,0.001067912,-0.1257102,0.09433498,0,0.3,0,0,0,0
638225089481522942,-20.94481,56.71552,40.78767,-31.34272,41.6519,144.8852,52.98635,35.97906,-13.33129,41.90245,-38.40507,16.12015,0,0,0,-57.30001,33.86071,-18.64747,61.6141,-28.06491,-121.8974,0.001067912,-0.1257102,0.09433498,0,0.3,0,0,0,0
638225089481852840,-20.14377,56.66877,40.78767,-31.92868,41.06594,144.8119,52.98635,35.97906,-13.33129,41.90245,-38.40507,16.12015,0,0,0,-55.23285,33.80095,-17.77565,61.6141,-28.06491,-121.8974,0.001067912,-0.1257102,0.09433498,0,0.3,0,0,0,0
638225089482192730,-18.18829,56.59863,40.78767,-32.66114,40.187,144.9584,52.98635,35.97906,-13.33129,41.90245,-38.40507,16.12015,0,0,0,-50.10521,33.71117,-15.84912,61.6141,-28.06491,-121.8974,0.001067912,-0.1257102,0.09433498,0,0.3,0,0,0,0
638225089482562607,-16.16213,56.62201,40.78767,-32.58789,39.52779,144.8852,52.98635,35.97906,-13.33129,41.90245,-38.40507,16.12015,0,0,0,-44.66945,33.74112,-14.21659,61.6141,-28.06491,-121.8974,0.001067912,-0.1257102,0.09433498,0,0.3,0,0,0,0
638225089482902499,-15.0077,56.64539,40.78767,-32.4414,39.30806,143.054,52.98635,35.97906,-13.33129,41.90245,-38.40507,16.12015,0,0,0,-41.54323,33.77104,-13.39179,61.6141,-28.06491,-121.8974,0.001067912,-0.1257102,0.09433498,0,0.3,0,0,0,0
638225089483242391,-12.34542,56.78566,40.83437,-32.51464,38.79534,132.4335,52.98635,35.97906,-13.33129,41.90245,-38.40507,16.12015,0,0,0,-34.26002,34.02123,-11.81566,61.6141,-28.06491,-121.8974,0.001067912,-0.1257102,0.09433498,0,0.3,0,0,0,0
638225089483582287,-10.08366,56.85579,40.83437,-32.88087,38.13613,121.3735,52.98635,35.97906,-13.33129,41.90245,-38.40507,16.12015,0,0,0,-28.0318,34.11056,-10.72005,61.6141,-28.06491,-121.8974,0.001067912,-0.1257102,0.09433498,0,0.3,0,0,0,0
638225089483922174,-7.067988,56.85579,40.83437,-33.39359,36.96421,105.6257,52.98635,35.97906,-13.33129,41.90245,-38.40507,16.12015,0,0,0,-19.7002,34.11056,-9.463606,61.6141,-28.06491,-121.8974,0.001067912,-0.1257102,0.09433498,0,0.3,0,0,0,0
638225089484262066,-5.348111,56.85579,40.83437,-33.54007,36.08527,97.71527,52.98635,35.97906,-13.33129,41.90245,-38.40507,16.12015,0,0,0,-14.92267,34.11056,-8.94392,61.6141,-28.06491,-121.8974,0.001067912,-0.1257102,0.09433498,0,0.3,0,0,0,0
638225089484681931,-1.625637,56.7389,40.81102,-32.95412,34.10765,80.64914,52.98635,35.97906,-13.33129,41.90245,-38.40507,16.12015,0,0,0,-4.547241,33.92606,-8.124954,61.6141,-28.06491,-121.8974,0.001067912,-0.1257102,0.09433498,0,0.3,0,0,0,0
638225089485011826,2.026157,56.29471,40.78767,-30.83001,31.76381,58.16287,52.98635,35.97906,-13.33129,41.90245,-38.40507,16.12015,0,0,0,5.696186,33.32022,-7.340069,61.6141,-28.06491,-121.8974,0.001067912,-0.1257102,0.09433498,0,0.3,0,0,0,0
638225089485351719,5.607271,55.52323,40.69429,-28.04669,29.34671,25.42229,52.98635,35.97906,-13.33129,41.90245,-38.40507,16.12015,0,0,0,15.87119,32.17196,-6.6943,61.6141,-28.06491,-121.8974,0.001067912,-0.1257102,0.09433498,0,0.3,0,0,0,0
638225089485701609,7.162228,55.03229,40.67094,-26.65503,28.32128,8.429405,52.98635,35.97906,-13.33129,41.90245,-38.40507,16.12015,0,0,0,20.36396,31.4857,-6.293579,61.6141,-28.06491,-121.8974,0.001067912,-0.1257102,0.09433498,0,0.3,0,0,0,0
638225089486041496,10.4135,53.46595,40.67094,-23.359,26.27042,-29.95106,52.98635,35.97906,-13.33129,41.90245,-38.40507,16.12015,0,0,0,30.05695,29.35585,-4.799631,61.6141,-28.06491,-121.8974,0.001067912,-0.1257102,0.09433498,0,0.3,0,0,0,0
638225089486381391,13.19358,51.45543,40.69429,-20.20946,24.80551,-58.07721,52.98635,35.97906,-13.33129,41.90245,-38.40507,16.12015,0,0,0,38.81039,26.5403,-2.797583,61.6141,-28.06491,-121.8974,0.001067912,-0.1257102,0.09433498,0,0.3,0,0,0,0
638225089486731276,15.38465,49.37476,40.69429,-17.27965,24.14631,-76.53499,52.98635,35.97906,-13.33129,41.90245,-38.40507,16.12015,0,0,0,46.10149,23.45471,-0.8043175,61.6141,-28.06491,-121.8974,0.001067912,-0.1257102,0.09433498,0,0.3,0,0,0,0
638225089487071168,16.16213,48.53315,40.78767,-16.10773,23.99982,-82.3946,52.98635,35.97906,-13.33129,41.90245,-38.40507,16.12015,0,0,0,48.82775,22.31032,0.1317461,61.6141,-28.06491,-121.8974,0.001067912,-0.1257102,0.09433498,0,0.3,0,0,0,0
638225089487411062,17.38725,47.50451,40.92776,-14.56958,23.70683,-87.00905,52.98635,35.97906,-13.33129,41.90245,-38.40507,16.12015,0,0,0,53.02434,20.92227,0.9828965,61.6141,-28.06491,-121.8974,0.001067912,-0.1257102,0.09433498,0,0.3,0,0,0,0
638225089487750949,18.58881,47.03695,41.11454,-14.05686,22.90114,-76.82797,52.98635,35.97906,-13.33129,41.90245,-38.40507,16.12015,0,0,0,56.92289,20.4692,0.9022827,61.6141,-28.06491,-121.8974,0.001067912,-0.1257102,0.09433498,0,0.3,0,0,0,0
638225089488090841,19.20137,46.8733,41.11454,-14.13011,22.16869,-66.93987,52.98635,35.97906,-13.33129,41.90245,-38.40507,16.12015,0,0,0,58.82065,20.20923,0.546913,61.6141,-28.06491,-121.8974,0.001067912,-0.1257102,0.09433498,0,0.3,0,0,0,0
638225089488430744,20.52073,46.61614,41.09119,-14.64282,20.04458,-40.0589,52.98635,35.97906,-13.33129,41.90245,-38.40507,16.12015,0,0,0,62.83237,19.76337,-0.4823207,61.6141,-28.06491,-121.8974,0.001067912,-0.1257102,0.09433498,0,0.3,0,0,0,0
638225089488760631,21.86364,46.38236,41.11454,-15.00905,17.84722,-6.80559,52.98635,35.97906,-13.33129,41.90245,-38.40507,16.12015,0,0,0,66.91152,19.42455,-1.596693,61.6141,-28.06491,-121.8974,0.001067912,-0.1257102,0.09433498,0,0.3,0,0,0,0
638225089489100520,22.49976,46.28884,41.16123,-14.86256,16.82179,9.601329,52.98635,35.97906,-13.33129,41.90245,-38.40507,16.12015,0,0,0,68.85029,19.34578,-2.128757,61.6141,-28.06491,-121.8974,0.001067912,-0.1257102,0.09433498,0,0.3,0,0,0,0
638225089489440409,23.72488,46.05506,41.3947,-13.98362,15.2104,36.92178,52.98635,35.97906,-13.33129,41.90245,-38.40507,16.12015,0,0,0,72.71071,19.32747,-2.905618,61.6141,-28.06491,-121.8974,0.001067912,-0.1257102,0.09433498,0,0.3,0,0,0,0
638225089489780306,24.54948,45.93817,42.2352,-12.88494,14.11172,56.99095,52.98635,35.97906,-13.33129,41.90245,-38.40507,16.12015,0,0,0,75.77121,20.4427,-2.465029,61.6141,-28.06491,-121.8974,0.001067912,-0.1257102,0.09433498,0,0.3,0,0,0,0
638225089490120192,24.97356,45.93817,43.79947,-12.22573,13.08629,71.93297,52.98635,35.97906,-13.33129,41.90245,-38.40507,16.12015,0,0,0,78.12074,22.92636,-0.6174814,61.6141,-28.06491,-121.8974,0.001067912,-0.1257102,0.09433498,0,0.3,0,0,0,0
638225089490450091,25.16204,45.93817,44.75671,-12.15249,12.50033,76.54742,52.98635,35.97906,-13.33129,41.90245,-38.40507,16.12015,0,0,0,79.35027,24.48171,0.5683187,61.6141,-28.06491,-121.8974,0.001067912,-0.1257102,0.09433498,0,0.3,0,0,0,0
638225089490789979,25.68036,45.93817,46.99805,-12.37222,11.69463,81.3816,52.98635,35.97906,-13.33129,41.90245,-38.40507,16.12015,0,0,0,82.4488,28.22613,3.116352,61.6141,-28.06491,-121.8974,0.001067912,-0.1257102,0.09433498,0,0.3,0,0,0,0
638225089491139869,26.5992,45.93817,49.47286,-12.29898,11.03542,82.48027,52.98635,35.97906,-13.33129,41.90245,-38.40507,16.12015,0,0,0,86.90548,32.52201,5.202311,61.6141,-28.06491,-121.8974,0.001067912,-0.1257102,0.09433498,0,0.3,0,0,0,0
638225089491479758,27.306,45.93817,50.75696,-11.85951,10.88893,81.2351,52.98635,35.97906,-13.33129,41.90245,-38.40507,16.12015,0,0,0,89.91888,34.81522,5.819929,61.6141,-28.06491,-121.8974,0.001067912,-0.1257102,0.09433498,0,0.3,0,0,0,0
638225089491819650,29.26147,45.93817,52.99829,-9.442415,10.74244,75.74171,52.98635,35.97906,-13.33129,41.90245,-38.40507,16.12015,0,0,0,97.3837,38.91874,5.459465,61.6141,-28.06491,-121.8974,0.001067912,-0.1257102,0.09433498,0,0.3,0,0,0,0
638225089492239517,31.38187,45.96155,55.49645,-5.120951,10.6692,65.19441,52.98635,35.97906,-13.33129,41.90245,-38.40507,16.12015,0,0,0,105.4964,43.67469,4.603907,61.6141,-28.06491,-121.8974,0.001067912,-0.1257102,0.09433498,0,0.3,0,0,0,0
638225089492579411,33.26667,45.93817,57.87787,1.031644,10.74244,46.88312,52.98635,35.97906,-13.33129,41.90245,-38.40507,16.12015,0,0,0,112.8189,48.26832,3.618248,61.6141,-28.06491,-121.8974,0.001067912,-0.1257102,0.09433498,0,0.3,0,0,0,0
638225089492919299,33.8321,45.82128,60.39938,7.037747,10.88893,24.10387,52.98635,35.97906,-13.33129,41.90245,-38.40507,16.12015,0,0,0,116.2951,53.11614,5.159146,61.6141,-28.06491,-121.8974,0.001067912,-0.1257102,0.09433498,0,0.3,0,0,0,0
638225089493259188,33.78498,45.77452,61.42666,9.747819,11.3284,11.28597,52.98635,35.97906,-13.33129,41.90245,-38.40507,16.12015,0,0,0,116.8421,55.1296,6.285575,61.6141,-28.06491,-121.8974,0.001067912,-0.1257102,0.09433498,0,0.3,0,0,0,0
638225089493589088,33.76143,45.98492,63.5746,14.28902,12.50033,-15.37527,52.98635,35.97906,-13.33129,41.90245,-38.40507,16.12015,0,0,0,117.8576,59.90455,7.960255,61.6141,-28.06491,-121.8974,0.001067912,-0.1257102,0.09433498,0,0.3,0,0,0,0
638225089493938976,33.78498,46.38236,66.81988,18.24426,13.81874,-41.81678,52.98635,35.97906,-13.33129,41.90245,-38.40507,16.12015,0,0,0,119.3206,67.40036,9.990113,61.6141,-28.06491,-121.8974,0.001067912,-0.1257102,0.09433498,0,0.3,0,0,0,0
638225089494268867,33.8321,46.61614,68.52423,20.22188,14.47795,-53.53601,52.98635,35.97906,-13.33129,41.90245,-38.40507,16.12015,0,0,0,120.0865,71.44405,10.81584,61.6141,-28.06491,-121.8974,0.001067912,-0.1257102,0.09433498,0,0.3,0,0,0,0
638225089494608759,33.8321,47.22397,72.09636,24.54334,15.79636,-70.60213,52.98635,35.97906,-13.33129,41.90245,-38.40507,16.12015,0,0,0,121.0705,80.2367,12.28397,61.6141,-28.06491,-121.8974,0.001067912,-0.1257102,0.09433498,0,0.3,0,0,0,0
638225089494948653,33.73786,48.53315,76.06539,29.89024,17.33451,-80.124,52.98635,35.97906,-13.33129,41.90245,-38.40507,16.12015,0,0,0,120.925,91.16176,12.71004,61.6141,-28.06491,-121.8974,0.001067912,-0.1257102,0.09433498,0,0.3,0,0,0,0
638225089495288541,33.54939,49.67868,77.37284,32.7468,18.06696,-81.80864,52.98635,35.97906,-13.33129,41.90245,-38.40507,16.12015,0,0,0,119.6013,95.86863,12.00984,61.6141,-28.06491,-121.8974,0.001067912,-0.1257102,0.09433498,0,0.3,0,0,0,0
638225089495618437,32.96038,52.29704,78.89041,38.31343,19.38537,-80.19725,52.98635,35.97906,-13.33129,41.90245,-38.40507,16.12015,0,0,0,115.5601,103.1607,9.866639,61.6141,-28.06491,-121.8974,0.001067912,-0.1257102,0.09433498,0,0.3,0,0,0,0
638225089495958328,32.11223,55.21932,79.89434,43.66033,20.63054,-72.653,52.98635,35.97906,-13.33129,41.90245,-38.40507,16.12015,0,0,0,110.2224,109.4778,7.276302,61.6141,-28.06491,-121.8974,0.001067912,-0.1257102,0.09433498,0,0.3,0,0,0,0
638225089496288225,31.73527,56.87917,80.17451,46.3704,21.2165,-66.28067,52.98635,35.97906,-13.33129,41.90245,-38.40507,16.12015,0,0,0,107.4384,112.2774,5.368315,61.6141,-28.06491,-121.8974,0.001067912,-0.1257102,0.09433498,0,0.3,0,0,0,0
638225089496748078,30.32167,61.48467,80.15116,53.9879,22.75465,-48.3356,52.98635,35.97906,-13.33129,41.90245,-38.40507,16.12015,0,0,0,98.46938,117.7138,0.01394009,61.6141,-28.06491,-121.8974,0.001067912,-0.1257102,0.09433498,0,0.3,0,0,0,0
638225089497097960,29.85047,62.30291,80.15116,55.67254,23.12087,-44.16063,52.98635,35.97906,-13.33129,41.90245,-38.40507,16.12015,0,0,0,96.24535,118.611,-0.6388696,61.6141,-28.06491,-121.8974,0.001067912,-0.1257102,0.09433498,0,0.3,0,0,0,0
638225089497427858,28.50755,64.29005,80.15116,59.48129,23.70683,-32.51464,52.98635,35.97906,-13.33129,41.90245,-38.40507,16.12015,0,0,0,90.3166,120.6892,-2.059795,61.6141,-28.06491,-121.8974,0.001067912,-0.1257102,0.09433498,0,0.3,0,0,0,0
638225089497767748,27.28243,66.62788,80.10447,63.21679,24.2928,-20.72217,52.98635,35.97906,-13.33129,41.90245,-38.40507,16.12015,0,0,0,84.46342,122.8418,-4.581949,61.6141,-28.06491,-121.8974,0.001067912,-0.1257102,0.09433498,0,0.3,0,0,0,0
638225089498097643,26.78768,67.93706,80.05778,64.97468,24.2928,-14.64282,52.98635,35.97906,-13.33129,41.90245,-38.40507,16.12015,0,0,0,81.77102,123.9115,-6.384333,61.6141,-28.06491,-121.8974,0.001067912,-0.1257102,0.09433498,0,0.3,0,0,0,0
638225089498437534,26.19868,70.85934,80.01108,68.12422,23.56034,0.299192,52.98635,35.97906,-13.33129,41.90245,-38.40507,16.12015,0,0,0,77.28308,126.1973,-11.28088,61.6141,-28.06491,-121.8974,0.001067912,-0.1257102,0.09433498,0,0.3,0,0,0,0
638225089498777425,25.79816,74.48296,79.96439,71.347,22.09544,19.41618,52.98635,35.97906,-13.33129,41.90245,-38.40507,16.12015,0,0,0,72.67186,128.6019,-18.00869,61.6141,-28.06491,-121.8974,0.001067912,-0.1257102,0.09433498,0,0.3,0,0,0,0
638225089499127323,25.04424,78.12995,79.96439,74.42331,19.82484,40.73053,52.98635,35.97906,-13.33129,41.90245,-38.40507,16.12015,0,0,0,67.19698,130.6109,-24.53563,61.6141,-28.06491,-121.8974,0.001067912,-0.1257102,0.09433498,0,0.3,0,0,0,0
638225089499457209,24.21964,79.7898,79.84765,76.18118,18.35994,51.64405,52.98635,35.97906,-13.33129,41.90245,-38.40507,16.12015,0,0,0,63.54537,131.0832,-27.08467,61.6141,-28.06491,-121.8974,0.001067912,-0.1257102,0.09433498,0,0.3,0,0,0,0
638225089499797102,22.28772,82.71208,79.03049,80.94212,14.99066,72.1527,52.98635,35.97906,-13.33129,41.90245,-38.40507,16.12015,0,0,0,56.06557,130.248,-31.56453,61.6141,-28.06491,-121.8974,0.001067912,-0.1257102,0.09433498,0,0.3,0,0,0,0
638225089500126996,21.03905,84.32518,77.60631,84.01842,12.72006,82.33378,52.98635,35.97906,-13.33129,41.90245,-38.40507,16.12015,0,0,0,51.49137,127.4259,-34.48313,61.6141,-28.06491,-121.8974,0.001067912,-0.1257102,0.09433498,0,0.3,0,0,0,0
638225089500476882,20.23801,85.23693,76.509,85.70306,11.47489,86.28902,52.98635,35.97906,-13.33129,41.90245,-38.40507,16.12015,0,0,0,48.68598,125.1299,-36.29575,61.6141,-28.06491,-121.8974,0.001067912,-0.1257102,0.09433498,0,0.3,0,0,0,0
638225089500816776,18.42389,87.08381,74.31435,87.97366,9.424027,90.3175,52.98635,35.97906,-13.33129,41.90245,-38.40507,16.12015,0,0,0,42.71918,120.4749,-40.10995,61.6141,-28.06491,-121.8974,0.001067912,-0.1257102,0.09433498,0,0.3,0,0,0,0
638225089501156666,16.60977,89.21123,72.46991,89.73154,7.226673,91.85565,52.98635,35.97906,-13.33129,41.90245,-38.40507,16.12015,0,0,0,36.87283,116.5215,-44.73956,61.6141,-28.06491,-121.8974,0.001067912,-0.1257102,0.09433498,0,0.3,0,0,0,0
638225089501486559,15.64381,90.28662,71.39594,90.61049,6.05475,92.29513,52.98635,35.97906,-13.33129,41.90245,-38.40507,16.12015,0,0,0,33.89979,114.1562,-47.29207,61.6141,-28.06491,-121.8974,0.001067912,-0.1257102,0.09433498,0,0.3,0,0,0,0
638225089501826455,13.78258,91.75945,68.94447,91.70916,3.417924,92.7346,52.98635,35.97906,-13.33129,41.90245,-38.40507,16.12015,0,0,0,28.67251,108.7281,-51.46304,61.6141,-28.06491,-121.8974,0.001067912,-0.1257102,0.09433498,0,0.3,0,0,0,0
638225089502166344,12.20406,92.11012,65.62917,92.44161,0.8543434,92.95433,52.98635,35.97906,-13.33129,41.90245,-38.40507,16.12015,0,0,0,24.63961,101.5839,-54.42638,61.6141,-28.06491,-121.8974,0.001067912,-0.1257102,0.09433498,0,0.3,0,0,0,0
638225089502496237,11.66218,91.99323,63.64465,92.66135,-0.2443342,93.02757,52.98635,35.97906,-13.33129,41.90245,-38.40507,16.12015,0,0,0,23.21613,97.4203,-55.86971,61.6141,-28.06491,-121.8974,0.001067912,-0.1257102,0.09433498,0,0.3,0,0,0,0
638225089502836127,10.60198,91.52567,58.53159,92.14863,-2.295199,92.07539,52.98635,35.97906,-13.33129,41.90245,-38.40507,16.12015,0,0,0,20.2729,87.04025,-60.04345,61.6141,-28.06491,-121.8974,0.001067912,-0.1257102,0.09433498,0,0.3,0,0,0,0
638225089503176022,9.211945,91.03472,54.04892,90.75697,-4.053083,90.24426,52.98635,35.97906,-13.33129,41.90245,-38.40507,16.12015,0,0,0,16.89577,78.38923,-64.16995,61.6141,-28.06491,-121.8974,0.001067912,-0.1257102,0.09433498,0,0.3,0,0,0,0
638225089503525910,7.492068,90.38013,49.146,87.97366,-6.909645,87.31445,52.98635,35.97906,-13.33129,41.90245,-38.40507,16.12015,0,0,0,13.03608,69.46832,-69.22512,61.6141,-28.06491,-121.8974,0.001067912,-0.1257102,0.09433498,0,0.3,0,0,0,0
638225089503855802,6.667469,89.9827,46.85796,86.43551,-8.521038,85.55657,52.98635,35.97906,-13.33129,41.90245,-38.40507,16.12015,0,0,0,11.3019,65.51402,-71.66782,61.6141,-28.06491,-121.8974,0.001067912,-0.1257102,0.09433498,0,0.3,0,0,0,0
638225089504275671,4.617752,88.74366,42.60876,82.55352,-11.74383,80.64914,52.98635,35.97906,-13.33129,41.90245,-38.40507,16.12015,0,0,0,7.503338,58.5232,-75.45235,61.6141,-28.06491,-121.8974,0.001067912,-0.1257102,0.09433498,0,0.3,0,0,0,0
638225089504615562,2.568036,87.17731,39.3168,78.3053,-15.03986,73.7641,52.98635,35.97906,-13.33129,41.90245,-38.40507,16.12015,0,0,0,4.079934,53.37138,-77.38303,61.6141,-28.06491,-121.8974,0.001067912,-0.1257102,0.09433498,0,0.3,0,0,0,0
638225089504955452,0.8010387,85.47071,37.05211,73.83734,-17.45695,66.1466,52.98635,35.97906,-13.33129,41.90245,-38.40507,16.12015,0,0,0,1.270521,49.85855,-77.47955,61.6141,-28.06491,-121.8974,0.001067912,-0.1257102,0.09433498,0,0.3,0,0,0,0
638225089505305343,0.04711992,84.48882,36.16492,71.63998,-18.33589,62.48434,52.98635,35.97906,-13.33129,41.90245,-38.40507,16.12015,0,0,0,0.07524797,48.42722,-76.85176,61.6141,-28.06491,-121.8974,0.001067912,-0.1257102,0.09433498,0,0.3,0,0,0,0
638225089505645246,-1.060198,82.52505,34.55396,67.24528,-19.21483,56.18526,52.98635,35.97906,-13.33129,41.90245,-38.40507,16.12015,0,0,0,-1.720428,45.74072,-75.38435,61.6141,-28.06491,-121.8974,0.001067912,-0.1257102,0.09433498,0,0.3,0,0,0,0
638225089505975125,-2.191077,80.6548,33.52667,63.58302,-19.36132,51.35107,52.98635,35.97906,-13.33129,41.90245,-38.40507,16.12015,0,0,0,-3.643765,43.76577,-73.11345,61.6141,-28.06491,-121.8974,0.001067912,-0.1257102,0.09433498,0,0.3,0,0,0,0
638225089506315016,-3.510434,78.69103,32.8963,60.7997,-19.06834,46.73663,52.98635,35.97906,-13.33129,41.90245,-38.40507,16.12015,0,0,0,-6.035776,42.14288,-69.96,61.6141,-28.06491,-121.8974,0.001067912,-0.1257102,0.09433498,0,0.3,0,0,0,0
638225089506654907,-4.193673,77.63902,32.56944,59.55453,-18.84861,44.53928,52.98635,35.97906,-13.33129,41.90245,-38.40507,16.12015,0,0,0,-7.337042,41.22938,-68.28722,61.6141,-28.06491,-121.8974,0.001067912,-0.1257102,0.09433498,0,0.3,0,0,0,0
638225089506994803,-5.324551,75.74538,31.93906,57.57691,-18.40914,40.80377,52.98635,35.97906,-13.33129,41.90245,-38.40507,16.12015,0,0,0,-9.593322,39.43198,-65.4167,61.6141,-28.06491,-121.8974,0.001067912,-0.1257102,0.09433498,0,0.3,0,0,0,0
638225089507334703,-6.12559,73.61797,31.40207,55.96552,-17.96966,37.36125,52.98635,35.97906,-13.33129,41.90245,-38.40507,16.12015,0,0,0,-11.42747,37.46783,-61.87057,61.6141,-28.06491,-121.8974,0.001067912,-0.1257102,0.09433498,0,0.3,0,0,0,0
638225089507664590,-6.45543,72.56595,31.28534,55.37956,-17.67669,35.45687,52.98635,35.97906,-13.33129,41.90245,-38.40507,16.12015,0,0,0,-12.27755,36.61441,-59.84095,61.6141,-28.06491,-121.8974,0.001067912,-0.1257102,0.09433498,0,0.3,0,0,0,0
638225089508014476,-7.020868,70.85934,31.14525,54.7936,-17.31046,32.08759,52.98635,35.97906,-13.33129,41.90245,-38.40507,16.12015,0,0,0,-13.77466,35.19916,-56.5012,61.6141,-28.06491,-121.8974,0.001067912,-0.1257102,0.09433498,0,0.3,0,0,0,0
638225089508354368,-7.609867,69.1761,30.93513,54.42737,-16.87099,29.817,52.98635,35.97906,-13.33129,41.90245,-38.40507,16.12015,0,0,0,-15.35576,33.60829,-53.41489,61.6141,-28.06491,-121.8974,0.001067912,-0.1257102,0.09433498,0,0.3,0,0,0,0
638225089508804222,-8.128186,67.49287,30.84174,53.9879,-16.35827,30.69594,52.98635,35.97906,-13.33129,41.90245,-38.40507,16.12015,0,0,0,-16.88324,32.05045,-50.13907,61.6141,-28.06491,-121.8974,0.001067912,-0.1257102,0.09433498,0,0.3,0,0,0,0
638225089509134117,-8.175306,66.55774,30.81839,53.62167,-15.77231,34.50468,52.98635,35.97906,-13.33129,41.90245,-38.40507,16.12015,0,0,0,-17.25876,31.17311,-48.21579,61.6141,-28.06491,-121.8974,0.001067912,-0.1257102,0.09433498,0,0.3,0,0,0,0
638225089509474009,-8.175306,65.94991,30.79504,53.40194,-15.25959,38.82615,52.98635,35.97906,-13.33129,41.90245,-38.40507,16.12015,0,0,0,-17.43626,30.57561,-46.98026,61.6141,-28.06491,-121.8974,0.001067912,-0.1257102,0.09433498,0,0.3,0,0,0,0
638225089509813904,-8.175306,64.96803,30.79504,52.59624,-13.50171,55.59929,52.98635,35.97906,-13.33129,41.90245,-38.40507,16.12015,0,0,0,-17.73186,29.62647,-44.92261,61.6141,-28.06491,-121.8974,0.001067912,-0.1257102,0.09433498,0,0.3,0,0,0,0
638225089510153793,-8.198866,63.89263,30.79504,51.49756,-11.23111,86.06928,52.98635,35.97906,-13.33129,41.90245,-38.40507,16.12015,0,0,0,-18.10459,28.54622,-42.69527,61.6141,-28.06491,-121.8974,0.001067912,-0.1257102,0.09433498,0,0.3,0,0,0,0
638225089510493680,-8.245987,63.26142,30.81839,50.98485,-10.05919,104.6003,52.98635,35.97906,-13.33129,41.90245,-38.40507,16.12015,0,0,0,-18.4033,27.92032,-41.36201,61.6141,-28.06491,-121.8974,0.001067912,-0.1257102,0.09433498,0,0.3,0,0,0,0
638225089510833576,-8.293106,62.30291,30.81839,50.32565,-8.081567,140.1242,52.98635,35.97906,-13.33129,41.90245,-38.40507,16.12015,0,0,0,-18.79386,26.90001,-39.41415,61.6141,-28.06491,-121.8974,0.001067912,-0.1257102,0.09433498,0,0.3,0,0,0,0
638225089511173463,-8.128186,61.6717,30.60827,49.95942,-6.323683,144.7387,52.98635,35.97906,-13.33129,41.90245,-38.40507,16.12015,0,0,0,-18.54659,25.96026,-38.49287,61.6141,-28.06491,-121.8974,0.001067912,-0.1257102,0.09433498,0,0.3,0,0,0,0
638225089511513360,-7.515628,61.55481,29.67438,49.88617,-4.639044,144.8119,52.98635,35.97906,-13.33129,41.90245,-38.40507,16.12015,0,0,0,-16.94268,24.73952,-39.92822,61.6141,-28.06491,-121.8974,0.001067912,-0.1257102,0.09433498,0,0.3,0,0,0,0
638225089511853247,-7.232908,61.53143,29.34751,49.81293,-3.979838,144.8119,52.98635,35.97906,-13.33129,41.90245,-38.40507,16.12015,0,0,0,-16.23147,24.33887,-40.45549,61.6141,-28.06491,-121.8974,0.001067912,-0.1257102,0.09433498,0,0.3,0,0,0,0
638225089512193140,-6.808829,61.50805,29.044,49.73968,-2.954405,144.8852,52.98635,35.97906,-13.33129,41.90245,-38.40507,16.12015,0,0,0,-15.21697,23.96835,-40.90368,61.6141,-28.06491,-121.8974,0.001067912,-0.1257102,0.09433498,0,0.3,0,0,0,0
638225089512543026,-6.573229,61.50805,28.69379,50.10591,-2.221954,144.8852,52.98635,35.97906,-13.33129,41.90245,-38.40507,16.12015,0,0,0,-14.61108,23.57482,-41.55127,61.6141,-28.06491,-121.8974,0.001067912,-0.1257102,0.09433498,0,0.3,0,0,0,0
638225089512872922,-6.573229,61.48467,28.48367,50.47213,-2.002218,144.8852,52.98635,35.97906,-13.33129,41.90245,-38.40507,16.12015,0,0,0,-14.5674,23.31484,-41.93037,61.6141,-28.06491,-121.8974,0.001067912,-0.1257102,0.09433498,0,0.3,0,0,0,0
638225089513212814,-6.573229,61.48467,28.22684,51.27783,-2.002218,141.2961,52.98635,35.97906,-13.33129,41.90245,-38.40507,16.12015,0,0,0,-14.50718,23.03096,-42.45292,61.6141,-28.06491,-121.8974,0.001067912,-0.1257102,0.09433498,0,0.3,0,0,0,0
638225089513542708,-6.526109,61.46129,27.68986,52.59624,-2.441689,129.4304,52.98635,35.97906,-13.33129,41.90245,-38.40507,16.12015,0,0,0,-14.28361,22.41904,-43.49029,61.6141,-28.06491,-121.8974,0.001067912,-0.1257102,0.09433498,0,0.3,0,0,0,0
638225089513882595,-6.526109,61.43792,27.29295,53.1822,-2.954405,123.2046,52.98635,35.97906,-13.33129,41.90245,-38.40507,16.12015,0,0,0,-14.1959,21.96662,-44.25694,61.6141,-28.06491,-121.8974,0.001067912,-0.1257102,0.09433498,0,0.3,0,0,0,0
638225089514222491,-6.526109,61.25089,26.35906,54.35413,-3.760103,110.0937,52.98635,35.97906,-13.33129,41.90245,-38.40507,16.12015,0,0,0,-14.01887,20.77702,-45.80448,61.6141,-28.06491,-121.8974,0.001067912,-0.1257102,0.09433498,0,0.3,0,0,0,0
638225089514562381,-6.526109,61.01711,25.42517,55.37956,-4.639044,96.76308,52.98635,35.97906,-13.33129,41.90245,-38.40507,16.12015,0,0,0,-13.85079,19.56522,-47.27372,61.6141,-28.06491,-121.8974,0.001067912,-0.1257102,0.09433498,0,0.3,0,0,0,0
638225089514902273,-6.526109,60.83008,24.98158,55.89228,-5.00527,90.17101,52.98635,35.97906,-13.33129,41.90245,-38.40507,16.12015,0,0,0,-13.78786,18.91404,-47.82385,61.6141,-28.06491,-121.8974,0.001067912,-0.1257102,0.09433498,0,0.3,0,0,0,0
638225089515242164,-6.384749,60.40928,23.97764,56.84446,-5.444741,76.10795,52.98635,35.97906,-13.33129,41.90245,-38.40507,16.12015,0,0,0,-13.34888,17.46537,-49.05537,61.6141,-28.06491,-121.8974,0.001067912,-0.1257102,0.09433498,0,0.3,0,0,0,0
638225089515582058,-5.98423,59.77807,22.90367,57.86989,-5.444741,61.09268,52.98635,35.97906,-13.33129,41.90245,-38.40507,16.12015,0,0,0,-12.40833,15.7386,-49.97921,61.6141,-28.06491,-121.8974,0.001067912,-0.1257102,0.09433498,0,0.3,0,0,0,0
638225089515931941,-5.630831,58.95983,21.89973,59.18831,-5.078516,46.95637,52.98635,35.97906,-13.33129,41.90245,-38.40507,16.12015,0,0,0,-11.62682,13.87788,-50.42398,61.6141,-28.06491,-121.8974,0.001067912,-0.1257102,0.09433498,0,0.3,0,0,0,0
638225089516381802,-5.041832,58.42213,21.43279,60.87295,-4.126328,32.23409,52.98635,35.97906,-13.33129,41.90245,-38.40507,16.12015,0,0,0,-10.41915,12.82634,-50.25171,61.6141,-28.06491,-121.8974,0.001067912,-0.1257102,0.09433498,0,0.3,0,0,0,0
638225089516721690,-4.617752,58.39875,21.3861,62.33785,-3.320631,23.37142,52.98635,35.97906,-13.33129,41.90245,-38.40507,16.12015,0,0,0,-9.540345,12.75817,-50.23248,61.6141,-28.06491,-121.8974,0.001067912,-0.1257102,0.09433498,0,0.3,0,0,0,0
638225089517061581,-4.429273,58.39875,21.3861,63.36329,-2.954405,19.04996,52.98635,35.97906,-13.33129,41.90245,-38.40507,16.12015,0,0,0,-9.151736,12.75817,-50.20173,61.6141,-28.06491,-121.8974,0.001067912,-0.1257102,0.09433498,0,0.3,0,0,0,0
638225089517401473,-3.958073,58.37537,21.3861,65.19441,-2.295199,12.38465,52.98635,35.97906,-13.33129,41.90245,-38.40507,16.12015,0,0,0,-8.182987,12.72965,-50.08424,61.6141,-28.06491,-121.8974,0.001067912,-0.1257102,0.09433498,0,0.3,0,0,0,0
638225089517741369,-3.039235,58.21173,21.3861,67.17203,-1.635992,8.06318,52.98635,35.97906,-13.33129,41.90245,-38.40507,16.12015,0,0,0,-6.302597,12.52947,-49.64465,61.6141,-28.06491,-121.8974,0.001067912,-0.1257102,0.09433498,0,0.3,0,0,0,0
638225089518081257,-2.355996,58.09484,21.3861,68.34396,-1.343012,6.744767,52.98635,35.97906,-13.33129,41.90245,-38.40507,16.12015,0,0,0,-4.896149,12.38592,-49.34703,61.6141,-28.06491,-121.8974,0.001067912,-0.1257102,0.09433498,0,0.3,0,0,0,0
638225089518421149,-0.5418791,57.76754,21.3394,71.42025,-0.7570504,5.133373,52.98635,35.97906,-13.33129,41.90245,-38.40507,16.12015,0,0,0,-1.131562,11.9419,-48.70741,61.6141,-28.06491,-121.8974,0.001067912,-0.1257102,0.09433498,0,0.3,0,0,0,0
638225089518761038,1.272238,57.25322,21.26936,74.78953,0.3416272,4.767147,52.98635,35.97906,-13.33129,41.90245,-38.40507,16.12015,0,0,0,2.675579,11.23969,-47.87396,61.6141,-28.06491,-121.8974,0.001067912,-0.1257102,0.09433498,0,0.3,0,0,0,0
638225089519100929,2.120397,56.90255,21.19932,76.40092,1.074079,5.79258,52.98635,35.97906,-13.33129,41.90245,-38.40507,16.12015,0,0,0,4.478373,10.73707,-47.39399,61.6141,-28.06491,-121.8974,0.001067912,-0.1257102,0.09433498,0,0.3,0,0,0,0
638225089519440819,4.217233,55.85053,21.03589,80.35616,2.905208,10.48027,52.98635,35.97906,-13.33129,41.90245,-38.40507,16.12015,0,0,0,9.024813,9.244257,-45.95943,61.6141,-28.06491,-121.8974,0.001067912,-0.1257102,0.09433498,0,0.3,0,0,0,0
638225089519780714,5.560151,54.75175,20.91915,82.8465,4.882828,17.58505,52.98635,35.97906,-13.33129,41.90245,-38.40507,16.12015,0,0,0,12.06983,7.691244,-44.36448,61.6141,-28.06491,-121.8974,0.001067912,-0.1257102,0.09433498,0,0.3,0,0,0,0
638225089520130614,7.020868,53.23217,20.73237,85.70306,7.812634,30.40295,52.98635,35.97906,-13.33129,41.90245,-38.40507,16.12015,0,0,0,15.52652,5.45755,-42.27631,61.6141,-28.06491,-121.8974,0.001067912,-0.1257102,0.09433498,0,0.3,0,0,0,0
638225089520470494,7.986827,52.22691,20.47555,86.94823,9.497273,39.48536,52.98635,35.97906,-13.33129,41.90245,-38.40507,16.12015,0,0,0,17.83066,3.830388,-41.26626,61.6141,-28.06491,-121.8974,0.001067912,-0.1257102,0.09433498,0,0.3,0,0,0,0
638225089520900351,10.34282,49.49166,19.19145,88.63287,13.08629,59.62778,52.98635,35.97906,-13.33129,41.90245,-38.40507,16.12015,0,0,0,23.42143,-1.201608,-40.01549,61.6141,-28.06491,-121.8974,0.001067912,-0.1257102,0.09433498,0,0.3,0,0,0,0
638225089521240248,13.26426,45.56412,16.76334,89.51181,17.40775,82.99299,52.98635,35.97906,-13.33129,41.90245,-38.40507,16.12015,0,0,0,30.24523,-9.116709,-40.04623,61.6141,-28.06491,-121.8974,0.001067912,-0.1257102,0.09433498,0,0.3,0,0,0,0
638225089521580137,15.47889,41.96388,14.10175,89.65829,22.46167,102.9157,52.98635,35.97906,-13.33129,41.90245,-38.40507,16.12015,0,0,0,35.13376,-16.81538,-41.48029,61.6141,-28.06491,-121.8974,0.001067912,-0.1257102,0.09433498,0,0.3,0,0,0,0
638225089521930028,16.72757,39.43903,12.23397,89.65829,27.07611,115.8801,52.98635,35.97906,-13.33129,41.90245,-38.40507,16.12015,0,0,0,37.77477,-22.26019,-42.65993,61.6141,-28.06491,-121.8974,0.001067912,-0.1257102,0.09433498,0,0.3,0,0,0,0
638225089522269919,17.22233,38.38701,11.53355,90.02452,29.27347,122.9116,52.98635,35.97906,-13.33129,41.90245,-38.40507,16.12015,0,0,0,38.8875,-24.55452,-43.08006,61.6141,-28.06491,-121.8974,0.001067912,-0.1257102,0.09433498,0,0.3,0,0,0,0
638225089522619805,17.90557,37.07783,10.59966,91.19645,32.93573,136.0225,52.98635,35.97906,-13.33129,41.90245,-38.40507,16.12015,0,0,0,40.25064,-27.32795,-43.77301,61.6141,-28.06491,-121.8974,0.001067912,-0.1257102,0.09433498,0,0.3,0,0,0,0
638225089522949699,18.23541,36.37648,9.502337,92.14863,35.71904,144.3724,52.98635,35.97906,-13.33129,41.90245,-38.40507,16.12015,0,0,0,40.48569,-29.08194,-45.46807,61.6141,-28.06491,-121.8974,0.001067912,-0.1257102,0.09433498,0,0.3,0,0,0,0
638225089523299587,18.32965,36.09594,8.96535,92.14863,36.81772,144.7387,52.98635,35.97906,-13.33129,41.90245,-38.40507,16.12015,0,0,0,40.42119,-29.80912,-46.33945,61.6141,-28.06491,-121.8974,0.001067912,-0.1257102,0.09433498,0,0.3,0,0,0,0
638225089523629482,18.32965,35.81541,7.938071,91.26969,38.64885,144.8119,52.98635,35.97906,-13.33129,41.90245,-38.40507,16.12015,0,0,0,39.79803,-30.68904,-48.22043,61.6141,-28.06491,-121.8974,0.001067912,-0.1257102,0.09433498,0,0.3,0,0,0,0
638225089523969373,18.32965,35.74527,7.354388,88.70612,39.89402,144.8119,52.98635,35.97906,-13.33129,41.90245,-38.40507,16.12015,0,0,0,39.40463,-31.00222,-49.4079,61.6141,-28.06491,-121.8974,0.001067912,-0.1257102,0.09433498,0,0.3,0,0,0,0
638225089524319262,18.32965,35.37122,7.050874,85.70306,40.55322,144.8119,52.98635,35.97906,-13.33129,41.90245,-38.40507,16.12015,0,0,0,39.34344,-31.79901,-49.59259,61.6141,-28.06491,-121.8974,0.001067912,-0.1257102,0.09433498,0,0.3,0,0,0,0
638225089524659152,18.30609,35.02055,6.677318,84.01842,40.77296,144.7387,52.98635,35.97906,-13.33129,41.90245,-38.40507,16.12015,0,0,0,39.17124,-32.56987,-49.94932,61.6141,-28.06491,-121.8974,0.001067912,-0.1257102,0.09433498,0,0.3,0,0,0,0
638225089524999048,18.21185,34.08542,5.696733,80.28292,41.21243,144.8852,52.98635,35.97906,-13.33129,41.90245,-38.40507,16.12015,0,0,0,38.65313,-34.60831,-50.86774,61.6141,-28.06491,-121.8974,0.001067912,-0.1257102,0.09433498,0,0.3,0,0,0,0
638225089525418910,17.95269,32.51908,4.132466,75.52198,42.60409,144.8119,52.98635,35.97906,-13.33129,41.90245,-38.40507,16.12015,0,0,0,37.62026,-37.96695,-52.24061,61.6141,-28.06491,-121.8974,0.001067912,-0.1257102,0.09433498,0,0.3,0,0,0,0
638225089525758804,17.66997,31.56057,3.338659,72.44569,44.65495,144.8852,52.98635,35.97906,-13.33129,41.90245,-38.40507,16.12015,0,0,0,36.84651,-39.97832,-52.68536,61.6141,-28.06491,-121.8974,0.001067912,-0.1257102,0.09433498,0,0.3,0,0,0,0
638225089526088695,17.41081,30.9995,3.035145,70.24833,46.26635,144.8119,52.98635,35.97906,-13.33129,41.90245,-38.40507,16.12015,0,0,0,36.3148,-41.13362,-52.54591,61.6141,-28.06491,-121.8974,0.001067912,-0.1257102,0.09433498,0,0.3,0,0,0,0
638225089526438585,16.77469,30.27477,2.965103,64.90143,49.78212,143.1273,52.98635,35.97906,-13.33129,41.90245,-38.40507,16.12015,0,0,0,35.22798,-42.59341,-51.48277,61.6141,-28.06491,-121.8974,0.001067912,-0.1257102,0.09433498,0,0.3,0,0,0,0
638225089526778476,16.46841,29.78383,2.965103,58.45585,52.78517,133.1659,52.98635,35.97906,-13.33129,41.90245,-38.40507,16.12015,0,0,0,34.76485,-43.58266,-50.74777,61.6141,-28.06491,-121.8974,0.001067912,-0.1257102,0.09433498,0,0.3,0,0,0,0
638225089527128365,16.46841,29.43316,2.965103,51.64405,54.17683,123.2046,52.98635,35.97906,-13.33129,41.90245,-38.40507,16.12015,0,0,0,34.87917,-44.29224,-50.36107,61.6141,-28.06491,-121.8974,0.001067912,-0.1257102,0.09433498,0,0.3,0,0,0,0
638225089527468259,16.46841,29.26951,2.965103,47.61557,54.17683,117.4915,52.98635,35.97906,-13.33129,41.90245,-38.40507,16.12015,0,0,0,34.93209,-44.62422,-50.18204,61.6141,-28.06491,-121.8974,0.001067912,-0.1257102,0.09433498,0,0.3,0,0,0,0
638225089527798153,16.44485,29.03573,2.965103,41.17,52.41894,107.0174,52.98635,35.97906,-13.33129,41.90245,-38.40507,16.12015,0,0,0,34.95853,-45.0994,-49.91348,61.6141,-28.06491,-121.8974,0.001067912,-0.1257102,0.09433498,0,0.3,0,0,0,0
638225089528148037,16.44485,28.98897,2.965103,36.04284,49.19616,96.17712,52.98635,35.97906,-13.33129,41.90245,-38.40507,16.12015,0,0,0,34.97348,-45.19456,-49.86286,61.6141,-28.06491,-121.8974,0.001067912,-0.1257102,0.09433498,0,0.3,0,0,0,0
638225089528487932,16.44485,28.96559,2.965103,34.2117,47.14529,91.48943,52.98635,35.97906,-13.33129,41.90245,-38.40507,16.12015,0,0,0,34.98094,-45.24216,-49.83758,61.6141,-28.06491,-121.8974,0.001067912,-0.1257102,0.09433498,0,0.3,0,0,0,0
638225089528827819,16.44485,28.80194,2.965103,31.50163,42.67733,81.67458,52.98635,35.97906,-13.33129,41.90245,-38.40507,16.12015,0,0,0,35.03302,-45.57565,-49.66113,61.6141,-28.06491,-121.8974,0.001067912,-0.1257102,0.09433498,0,0.3,0,0,0,0
638225089529177712,16.25637,28.47465,3.035145,30.76918,38.42912,70.32157,52.98635,35.97906,-13.33129,41.90245,-38.40507,16.12015,0,0,0,34.79016,-46.23568,-49.03975,61.6141,-28.06491,-121.8974,0.001067912,-0.1257102,0.09433498,0,0.3,0,0,0,0
638225089529527597,15.66737,27.8902,3.035145,31.50163,35.05984,56.40499,52.98635,35.97906,-13.33129,41.90245,-38.40507,16.12015,0,0,0,33.73533,-47.43467,-48.06987,61.6141,-28.06491,-121.8974,0.001067912,-0.1257102,0.09433498,0,0.3,0,0,0,0
638225089529937469,14.63074,26.95507,3.035145,33.47925,32.05679,44.17305,52.98635,35.97906,-13.33129,41.90245,-38.40507,16.12015,0,0,0,31.80691,-49.3665,-46.50939,61.6141,-28.06491,-121.8974,0.001067912,-0.1257102,0.09433498,0,0.3,0,0,0,0
638225089530277355,13.97106,26.55764,3.035145,34.50468,31.03135,40.14456,52.98635,35.97906,-13.33129,41.90245,-38.40507,16.12015,0,0,0,30.50255,-50.19244,-45.74716,61.6141,-28.06491,-121.8974,0.001067912,-0.1257102,0.09433498,0,0.3,0,0,0,0
638225089530627245,12.46322,25.64589,2.825019,36.99502,28.98049,33.25952,52.98635,35.97906,-13.33129,41.90245,-38.40507,16.12015,0,0,0,27.36193,-52.12301,-44.55227,61.6141,-28.06491,-121.8974,0.001067912,-0.1257102,0.09433498,0,0.3,0,0,0,0
638225089530957139,11.14386,24.82765,2.194643,39.99807,26.78313,29.37753,52.98635,35.97906,-13.33129,41.90245,-38.40507,16.12015,0,0,0,24.37786,-53.90984,-44.59654,61.6141,-28.06491,-121.8974,0.001067912,-0.1257102,0.09433498,0,0.3,0,0,0,0
638225089531297030,10.48418,24.64063,2.171296,41.68271,25.68446,28.27885,52.98635,35.97906,-13.33129,41.90245,-38.40507,16.12015,0,0,0,22.97469,-54.30726,-44.19838,61.6141,-28.06491,-121.8974,0.001067912,-0.1257102,0.09433498,0,0.3,0,0,0,0
638225089531636924,9.400424,24.61725,2.124601,44.97874,22.82789,26.66745,52.98635,35.97906,-13.33129,41.90245,-38.40507,16.12015,0,0,0,20.60834,-54.36079,-43.87082,61.6141,-28.06491,-121.8974,0.001067912,-0.1257102,0.09433498,0,0.3,0,0,0,0
638225089531976815,8.481586,24.61725,2.358074,48.56776,18.72616,26.00825,52.98635,35.97906,-13.33129,41.90245,-38.40507,16.12015,0,0,0,18.68962,-54.33954,-43.01932,61.6141,-28.06491,-121.8974,0.001067912,-0.1257102,0.09433498,0,0.3,0,0,0,0
638225089532316709,6.997309,24.61725,2.591547,51.79055,13.599,25.20255,52.98635,35.97906,-13.33129,41.90245,-38.40507,16.12015,0,0,0,15.50309,-54.31607,-42.03843,61.6141,-28.06491,-121.8974,0.001067912,-0.1257102,0.09433498,0,0.3,0,0,0,0
638225089532656596,6.19627,24.59387,2.591547,53.25545,10.59595,25.05606,52.98635,35.97906,-13.33129,41.90245,-38.40507,16.12015,0,0,0,13.73814,-54.36555,-41.81151,61.6141,-28.06491,-121.8974,0.001067912,-0.1257102,0.09433498,0,0.3,0,0,0,0
638225089532996488,3.369075,24.14968,2.918408,55.81903,2.612227,25.34904,52.98635,35.97906,-13.33129,41.90245,-38.40507,16.12015,0,0,0,7.549782,-55.27065,-40.1035,61.6141,-28.06491,-121.8974,0.001067912,-0.1257102,0.09433498,0,0.3,0,0,0,0
638225089533336381,0.6361189,23.05091,2.871714,56.69797,-4.346064,26.88719,52.98635,35.97906,-13.33129,41.90245,-38.40507,16.12015,0,0,0,1.436437,-57.6195,-38.97418,61.6141,-28.06491,-121.8974,0.001067912,-0.1257102,0.09433498,0,0.3,0,0,0,0
638225089533676273,-0.3769594,22.34956,2.708283,56.77122,-8.008322,28.79156,52.98635,35.97906,-13.33129,41.90245,-38.40507,16.12015,0,0,0,-0.8528783,-59.14387,-38.71901,61.6141,-28.06491,-121.8974,0.001067912,-0.1257102,0.09433498,0,0.3,0,0,0,0
638225089534016163,-0.9895183,20.94687,2.124601,56.40499,-15.62582,37.21476,52.98635,35.97906,-13.33129,41.90245,-38.40507,16.12015,0,0,0,-2.236069,-62.23543,-38.88844,61.6141,-28.06491,-121.8974,0.001067912,-0.1257102,0.09433498,0,0.3,0,0,0,0
638225089534346058,-0.4240793,19.7312,1.330794,56.33175,-22.36438,51.86379,52.98635,35.97906,-13.33129,41.90245,-38.40507,16.12015,0,0,0,-0.9519648,-64.94402,-39.73592,61.6141,-28.06491,-121.8974,0.001067912,-0.1257102,0.09433498,0,0.3,0,0,0,0
638225089534685952,0,19.17013,0.793807,56.2585,-25.66041,60.50672,52.98635,35.97906,-13.33129,41.90245,-38.40507,16.12015,0,0,0,0,-66.1985,-40.54712,61.6141,-28.06491,-121.8974,0.001067912,-0.1257102,0.09433498,0,0.3,0,0,0,0
