zeyangz2/DNN_classification_different_people_hand/data_by_names/Srikar/srikar_right_7.csv
Timestamp,Therapist joint angle 0,Therapist joint angle 1,Therapist joint angle 2,Therapist joint angle 3,Therapist joint angle 4,Therapist joint angle 5,Patient joint angle 0,Patient joint angle 1,Patient joint angle 2,Patient joint angle 3,Patient joint angle 4,Patient joint angle 5,Virtual joint angle 0,Virtual joint angle 1,Virtual joint angle 2,Therapist position x,Therapist position y,Therapist position z,Patient position x,Patient position y,Patient position z,Virtual position x,Virtual position y,Virtual position z,Assistive Force, Obstacle Force Magnitude, Therapist Constant Force, Patient Constant Force, Recovery Factor, Assistance Level
638224438232836477,0,0,0,0,0,0,0,0,0,0,0,0,0,0,0,0,0,0,0,0,0,0,0,0,0,0.3,0,0,0,0
638224438232916458,-7.562747,-1.729987,-9.408949,-54.12197,-64.91982,-142.2359,-56.80307,-0.4675641,5.229787,-69.28372,-8.374548,-36.90935,0,0,0,-14.6733,-112.2318,-57.83065,-121.7539,-110.5331,-88.68581,0.001067912,-0.1257102,0.09433498,0,0.3,0,0,0,0
638224438233216356,-7.562747,-1.729987,-9.408949,-54.12197,-64.91982,-142.2359,-56.80307,-0.4675641,5.229787,-69.35696,-8.374548,-36.83611,0,0,0,-14.6733,-112.2318,-57.83065,-121.7539,-110.5331,-88.68581,0.001067912,-0.1257102,0.09433498,0,0.3,0,0,0,0
638224438233556247,-7.562747,-1.729987,-9.408949,-54.12197,-64.91982,-142.2359,-56.80307,-0.4675641,5.229787,-69.28372,-8.374548,-36.90935,0,0,0,-14.6733,-112.2318,-57.83065,-121.7539,-110.5331,-88.68581,0.001067912,-0.1257102,0.09433498,0,0.3,0,0,6.845557E-08,0
638224438233896140,-7.562747,-1.729987,-9.408949,-54.12197,-64.91982,-142.2359,-56.80307,-0.4675641,5.229787,-69.35696,-8.374548,-36.90935,0,0,0,-14.6733,-112.2318,-57.83065,-121.7539,-110.5331,-88.68581,0.001067912,-0.1257102,0.09433498,0,0.3,0,0,0,0
638224438234226038,-7.562747,-1.729987,-9.408949,-54.12197,-64.91982,-142.2359,-56.80307,-0.4675641,5.229787,-69.35696,-8.374548,-36.83611,0,0,0,-14.6733,-112.2318,-57.83065,-121.7539,-110.5331,-88.68581,0.001067912,-0.1257102,0.09433498,0,0.3,0,0,0,0
638224438234565926,-7.562747,-1.729987,-9.408949,-54.12197,-64.99306,-142.2359,-56.80307,-0.4675641,5.229787,-69.28372,-8.374548,-36.83611,0,0,0,-14.6733,-112.2318,-57.83065,-121.7539,-110.5331,-88.68581,0.001067912,-0.1257102,0.09433498,0,0.3,0,0,6.845557E-08,0
638224438234895820,-7.562747,-1.729987,-9.408949,-54.12197,-64.99306,-142.2359,-56.80307,-0.4675641,5.229787,-69.35696,-8.374548,-36.90935,0,0,0,-14.6733,-112.2318,-57.83065,-121.7539,-110.5331,-88.68581,0.001067912,-0.1257102,0.09433498,0,0.3,0,0,0,0
638224438235245713,-7.562747,-1.729987,-9.408949,-54.12197,-64.99306,-142.2359,-56.80307,-0.4675641,5.229787,-69.35696,-8.374548,-36.90935,0,0,0,-14.6733,-112.2318,-57.83065,-121.7539,-110.5331,-88.68581,0.001067912,-0.1257102,0.09433498,0,0.3,0,0,0,0
638224438235585600,-7.562747,-1.729987,-9.408949,-54.12197,-64.99306,-142.2359,-56.80307,-0.4675641,5.229787,-69.28372,-8.374548,-36.90935,0,0,0,-14.6733,-112.2318,-57.83065,-121.7539,-110.5331,-88.68581,0.001067912,-0.1257102,0.09433498,0,0.3,0,0,0,0
638224438235925497,-7.562747,-1.729987,-9.408949,-54.19521,-64.99306,-142.2359,-56.80307,-0.4675641,5.229787,-69.28372,-8.374548,-36.90935,0,0,0,-14.6733,-112.2318,-57.83065,-121.7539,-110.5331,-88.68581,0.001067912,-0.1257102,0.09433498,0,0.3,0,0,0,0
638224438236265389,-7.562747,-1.729987,-9.408949,-54.19521,-64.91982,-142.2359,-56.80307,-0.4675641,5.229787,-69.35696,-8.447793,-36.90935,0,0,0,-14.6733,-112.2318,-57.83065,-121.7539,-110.5331,-88.68581,0.001067912,-0.1257102,0.09433498,0,0.3,0,0,0,0
638224438236615271,-7.562747,-1.729987,-9.408949,-54.12197,-64.91982,-142.2359,-56.80307,-0.4675641,5.229787,-69.28372,-8.374548,-36.90935,0,0,0,-14.6733,-112.2318,-57.83065,-121.7539,-110.5331,-88.68581,0.001067912,-0.1257102,0.09433498,0,0.3,0,0,6.845557E-08,0
638224438237055132,-7.562747,-1.729987,-9.408949,-54.12197,-64.91982,-142.2359,-56.80307,-0.4675641,5.229787,-69.35696,-8.374548,-36.90935,0,0,0,-14.6733,-112.2318,-57.83065,-121.7539,-110.5331,-88.68581,0.001067912,-0.1257102,0.09433498,0,0.3,0,0,1.369111E-07,0
638224438237395027,-7.562747,-1.729987,-9.408949,-54.12197,-64.91982,-142.2359,-56.80307,-0.4675641,5.229787,-69.35696,-8.374548,-36.83611,0,0,0,-14.6733,-112.2318,-57.83065,-121.7539,-110.5331,-88.68581,0.001067912,-0.1257102,0.09433498,0,0.3,0,0,2.053667E-07,0
638224438237734919,-7.562747,-1.729987,-9.408949,-54.12197,-64.99306,-142.2359,-56.80307,-0.4675641,5.229787,-69.35696,-8.374548,-36.90935,0,0,0,-14.6733,-112.2318,-57.83065,-121.7539,-110.5331,-88.68581,0.001067912,-0.1257102,0.09433498,0,0.3,0,0,2.738223E-07,0
638224438238074810,-7.562747,-1.729987,-9.408949,-54.12197,-64.91982,-142.2359,-56.80307,-0.4675641,5.229787,-69.35696,-8.374548,-36.83611,0,0,0,-14.6733,-112.2318,-57.83065,-121.7539,-110.5331,-88.68581,0.001067912,-0.1257102,0.09433498,0,0.3,0,0,3.422778E-07,0
638224438238414698,-7.562747,-1.729987,-9.408949,-54.19521,-64.99306,-142.2359,-56.80307,-0.4675641,5.229787,-69.28372,-8.374548,-36.90935,0,0,0,-14.6733,-112.2318,-57.83065,-121.7539,-110.5331,-88.68581,0.001067912,-0.1257102,0.09433498,0,0.3,0,0,3.422778E-07,0
638224438238764585,-7.562747,-1.729987,-9.408949,-54.12197,-64.91982,-142.1627,-56.80307,-0.4675641,5.229787,-69.28372,-8.374548,-36.90935,0,0,0,-14.6733,-112.2318,-57.83065,-121.7539,-110.5331,-88.68581,0.001067912,-0.1257102,0.09433498,0,0.3,0,0,4.107334E-07,0
638224438239104481,-7.562747,-1.729987,-9.408949,-54.19521,-64.99306,-142.2359,-56.80307,-0.4675641,5.229787,-69.35696,-8.374548,-36.90935,0,0,0,-14.6733,-112.2318,-57.83065,-121.7539,-110.5331,-88.68581,0.001067912,-0.1257102,0.09433498,0,0.3,0,0,4.107334E-07,0
638224438239454365,-7.680547,-1.729987,-9.408949,-54.19521,-64.91982,-142.2359,-56.80307,-0.4675641,5.229787,-69.28372,-8.374548,-36.90935,0,0,0,-14.90049,-112.2318,-57.86105,-121.7539,-110.5331,-88.68581,0.001067912,-0.1257102,0.09433498,0,0.3,0,0,7.00985E-05,0
638224438239794261,-7.633427,-1.729987,-9.385601,-54.04872,-64.91982,-142.2359,-56.80307,-0.4675641,5.229787,-69.28372,-8.374548,-36.90935,0,0,0,-14.81674,-112.2406,-57.7957,-121.7539,-110.5331,-88.68581,0.001067912,-0.1257102,0.09433498,0,0.3,0,0,0.0001284226,0
638224438240134156,-7.609867,-1.729987,-9.385601,-54.04872,-64.91982,-142.2359,-56.80307,-0.4675641,5.229787,-69.35696,-8.374548,-36.83611,0,0,0,-14.77128,-112.2406,-57.78962,-121.7539,-110.5331,-88.68581,0.001067912,-0.1257102,0.09433498,0,0.3,0,0,0.0001445782,0
638224438240474046,-7.609867,-1.729987,-9.385601,-53.97548,-64.91982,-142.2359,-56.80307,-0.4675641,5.229787,-69.35696,-8.374548,-36.83611,0,0,0,-14.77128,-112.2406,-57.78962,-121.7539,-110.5331,-88.68581,0.001067912,-0.1257102,0.09433498,0,0.3,0,0,0.0001744248,0
638224438240823930,-7.609867,-1.729987,-9.385601,-53.97548,-64.91982,-142.2359,-56.80307,-0.4675641,5.229787,-69.35696,-8.374548,-36.90935,0,0,0,-14.77128,-112.2406,-57.78962,-121.7539,-110.5331,-88.68581,0.001067912,-0.1257102,0.09433498,0,0.3,0,0,0.0002013963,0
638224438241163824,-7.609867,-1.729987,-9.385601,-53.90223,-64.99306,-142.2359,-56.80307,-0.4675641,5.229787,-69.28372,-8.374548,-36.90935,0,0,0,-14.77128,-112.2406,-57.78962,-121.7539,-110.5331,-88.68581,0.001067912,-0.1257102,0.09433498,0,0.3,0,0,0.0002139921,0
638224438241613678,-7.609867,-1.729987,-9.385601,-53.90223,-64.99306,-142.2359,-56.80307,-0.4675641,5.229787,-69.28372,-8.374548,-36.90935,0,0,0,-14.77128,-112.2406,-57.78962,-121.7539,-110.5331,-88.68581,0.001067912,-0.1257102,0.09433498,0,0.3,0,0,0.0002483568,0
638224438241953574,-7.609867,-1.729987,-9.385601,-53.90223,-64.99306,-142.2359,-56.80307,-0.4675641,5.229787,-69.35696,-8.374548,-36.90935,0,0,0,-14.77128,-112.2406,-57.78962,-121.7539,-110.5331,-88.68581,0.001067912,-0.1257102,0.09433498,0,0.3,0,0,0.0002588305,0
638224438242293461,-7.609867,-1.729987,-9.408949,-53.90223,-64.91982,-142.2359,-56.80307,-0.4675641,5.229787,-69.28372,-8.374548,-36.90935,0,0,0,-14.76418,-112.2318,-57.84276,-121.7539,-110.5331,-88.68581,0.001067912,-0.1257102,0.09433498,0,0.3,0,0,0.0002799833,0
638224438242633355,-7.586308,-1.729987,-9.595726,-53.75574,-64.91982,-142.2359,-56.80307,-0.4675641,5.229787,-69.35696,-8.374548,-36.90935,0,0,0,-14.66214,-112.16,-58.26168,-121.7539,-110.5331,-88.68581,0.001067912,-0.1257102,0.09433498,0,0.3,0,0,0.000307297,0
638224438243083209,-7.586308,-1.729987,-9.47899,-53.46276,-64.91982,-142.2359,-56.80307,-0.4675641,5.229787,-69.28372,-8.374548,-36.83611,0,0,0,-14.69751,-112.205,-57.99609,-121.7539,-110.5331,-88.68581,0.001067912,-0.1257102,0.09433498,0,0.3,0,0,0.000320509,0
638224438243423099,-7.586308,-1.729987,-9.47899,-53.16978,-64.99306,-142.2359,-56.80307,-0.4675641,5.229787,-69.28372,-8.374548,-36.83611,0,0,0,-14.69751,-112.205,-57.99609,-121.7539,-110.5331,-88.68581,0.001067912,-0.1257102,0.09433498,0,0.3,0,0,0.0003315303,0
638224438243762993,-7.586308,-1.729987,-9.47899,-53.09653,-64.91982,-142.2359,-56.80307,-0.4675641,5.229787,-69.28372,-8.374548,-36.83611,0,0,0,-14.69751,-112.205,-57.99609,-121.7539,-110.5331,-88.68581,0.001067912,-0.1257102,0.09433498,0,0.3,0,0,0.0003367329,0
638224438244102886,-6.879509,-1.800122,-10.87983,-52.73031,-64.84657,-142.2359,-56.80307,-0.4675641,5.229787,-69.35696,-8.374548,-36.90935,0,0,0,-12.95014,-111.792,-61.01398,-121.7539,-110.5331,-88.68581,0.001067912,-0.1257102,0.09433498,0,0.3,0,0,0.0001821603,0
638224438244452789,-5.465911,-1.776743,-11.79037,-52.80355,-64.04088,-142.0894,-56.80307,-0.4675641,5.229787,-69.28372,-8.374548,-36.90935,0,0,0,-10.10052,-111.3211,-62.79387,-121.7539,-110.5331,-88.68581,0.001067912,-0.1257102,0.09433498,0,0.3,0,0,0,0
638224438244792665,-3.722474,-1.753365,-11.81372,-51.33865,-62.57597,-142.0894,-56.80307,-0.4675641,5.229787,-69.28372,-8.374548,-36.83611,0,0,0,-6.881056,-111.2556,-62.58684,-121.7539,-110.5331,-88.68581,0.001067912,-0.1257102,0.09433498,0,0.3,0,0,0,0
638224438245122560,-2.897875,-1.753365,-11.74367,-49.36103,-61.4773,-141.9429,-56.80307,-0.4675641,5.229787,-69.28372,-8.374548,-36.83611,0,0,0,-5.366324,-111.2888,-62.33939,-121.7539,-110.5331,-88.68581,0.001067912,-0.1257102,0.09433498,0,0.3,0,0,0,0
638224438245462451,-1.814117,-1.753365,-11.44016,-45.84526,-59.0602,-141.9429,-56.80307,-0.4675641,5.229787,-69.28372,-8.374548,-36.90935,0,0,0,-3.382184,-111.4308,-61.56521,-121.7539,-110.5331,-88.68581,0.001067912,-0.1257102,0.09433498,0,0.3,0,0,0,0
638224438245802341,-1.154438,-1.753365,-11.41681,-44.30712,-56.71636,-141.9429,-56.80307,-0.4675641,5.229787,-69.28372,-8.374548,-36.90935,0,0,0,-2.153586,-111.4416,-61.48009,-121.7539,-110.5331,-88.68581,0.001067912,-0.1257102,0.09433498,0,0.3,0,0,0,0
638224438246142233,-0.9423984,-1.753365,-11.1133,-45.33255,-54.59225,-140.2583,-56.80307,-0.4675641,5.229787,-69.35696,-8.374548,-36.90935,0,0,0,-1.769463,-111.5796,-60.78016,-121.7539,-110.5331,-88.68581,0.001067912,-0.1257102,0.09433498,0,0.3,0,0,0,0
638224438246482125,-0.9188384,-1.753365,-10.83313,-47.23692,-51.36946,-136.3031,-56.80307,-0.4675641,5.229787,-69.28372,-8.374548,-36.90935,0,0,0,-1.735496,-111.7037,-60.13939,-121.7539,-110.5331,-88.68581,0.001067912,-0.1257102,0.09433498,0,0.3,0,0,0,0
638224438246822019,-0.1177998,-1.753365,-10.80978,-49.36103,-44.99713,-130.9561,-56.80307,-0.4675641,5.229787,-69.28372,-8.374548,-36.83611,0,0,0,-0.2226186,-111.7139,-60.07233,-121.7539,-110.5331,-88.68581,0.001067912,-0.1257102,0.09433498,0,0.3,0,0,0,0
638224438247161909,0.7303588,-1.729987,-10.80978,-50.38646,-41.77435,-130.2969,-56.80307,-0.4675641,5.229787,-69.35696,-8.374548,-36.90935,0,0,0,1.38022,-111.6595,-60.07924,-121.7539,-110.5331,-88.68581,0.001067912,-0.1257102,0.09433498,0,0.3,0,0,0,0
638224438247601770,4.476392,-1.519583,-10.85648,-48.3356,-32.17923,-140.185,-56.80307,-0.4675641,5.229787,-69.28372,-8.374548,-36.90935,0,0,0,8.443791,-111.1496,-60.49332,-121.7539,-110.5331,-88.68581,0.001067912,-0.1257102,0.09433498,0,0.3,0,0,0,0
638224438247941659,5.819311,-1.402692,-10.80978,-45.99176,-29.76214,-141.6499,-56.80307,-0.4675641,5.229787,-69.28372,-8.374548,-36.90935,0,0,0,10.98075,-110.898,-60.60774,-121.7539,-110.5331,-88.68581,0.001067912,-0.1257102,0.09433498,0,0.3,0,0,0,0
638224438248281554,8.693625,-1.122154,-10.52962,-39.61942,-25.14769,-141.9429,-56.80307,-0.4675641,5.229787,-69.35696,-8.374548,-36.90935,0,0,0,16.46872,-110.366,-60.64627,-121.7539,-110.5331,-88.68581,0.001067912,-0.1257102,0.09433498,0,0.3,0,0,0,0
638224438248621447,11.42658,-0.6078333,-9.829199,-32.58789,-21.04596,-142.0162,-56.80307,-0.4675641,5.229787,-69.28372,-8.374548,-36.90935,0,0,0,21.90686,-109.4572,-59.96363,-121.7539,-110.5331,-88.68581,0.001067912,-0.1257102,0.09433498,0,0.3,0,0,0,0
638224438248951338,12.74594,-0.1870256,-9.385601,-28.99888,-18.92185,-142.0162,-56.80307,-0.4675641,5.229787,-69.28372,-8.374548,-36.90935,0,0,0,24.62274,-108.6501,-59.49728,-121.7539,-110.5331,-88.68581,0.001067912,-0.1257102,0.09433498,0,0.3,0,0,0,0
638224438249291229,15.36109,1.052019,-8.241585,-21.60111,-14.16092,-142.0894,-56.80307,-0.4675641,5.229787,-69.28372,-8.374548,-36.90935,0,0,0,30.25496,-106.1745,-58.21801,-121.7539,-110.5331,-88.68581,0.001067912,-0.1257102,0.09433498,0,0.3,0,0,0,0
638224438249631117,17.62285,3.156058,-6.303762,-14.42309,-9.326735,-142.0894,-56.80307,-0.4675641,5.229787,-69.28372,-8.374548,-36.83611,0,0,0,35.87769,-101.8521,-55.40551,-121.7539,-110.5331,-88.68581,0.001067912,-0.1257102,0.09433498,0,0.3,0,0,0,0
638224438249971011,18.51813,4.699019,-5.019662,-10.76083,-7.12938,-142.0894,-56.80307,-0.4675641,5.229787,-69.28372,-8.374548,-36.90935,0,0,0,38.50448,-98.56435,-53.39313,-121.7539,-110.5331,-88.68581,0.001067912,-0.1257102,0.09433498,0,0.3,0,0,0,0
638224438250310908,19.81393,8.486288,-1.79774,-3.802537,-4.199574,-142.0894,-56.80307,-0.4675641,5.229787,-69.35696,-8.374548,-36.83611,0,0,0,43.28828,-90.25555,-48.20382,-121.7539,-110.5331,-88.68581,0.001067912,-0.1257102,0.09433498,0,0.3,0,0,0,0
638224438250650799,20.59141,12.50734,1.914476,2.423302,-3.393876,-142.0894,-56.80307,-0.4675641,5.229787,-69.28372,-8.374548,-36.90935,0,0,0,47.35316,-81.04667,-42.31157,-121.7539,-110.5331,-88.68581,0.001067912,-0.1257102,0.09433498,0,0.3,0,0,0,0
638224438250990692,20.82701,16.17772,5.72008,7.184238,-3.467122,-142.0894,-56.80307,-0.4675641,5.229787,-69.28372,-8.374548,-36.90935,0,0,0,50.26035,-72.18235,-36.22633,-121.7539,-110.5331,-88.68581,0.001067912,-0.1257102,0.09433498,0,0.3,0,0,0,0
638224438251320585,20.82701,18.235,7.938071,9.308348,-3.760103,-142.0894,-56.80307,-0.4675641,5.229787,-69.28372,-8.374548,-36.83611,0,0,0,51.57903,-66.995,-32.75979,-121.7539,-110.5331,-88.68581,0.001067912,-0.1257102,0.09433498,0,0.3,0,0,0,0
638224438251670469,20.82701,21.67159,11.5102,12.01842,-4.712289,-142.0894,-56.80307,-0.4675641,5.229787,-69.28372,-8.374548,-36.90935,0,0,0,53.52172,-58.07393,-27.65287,-121.7539,-110.5331,-88.68581,0.001067912,-0.1257102,0.09433498,0,0.3,0,0,0,0
638224438252120326,20.82701,25.10819,14.9656,13.99604,-6.103948,-142.0894,-56.80307,-0.4675641,5.229787,-69.28372,-8.374548,-36.83611,0,0,0,55.17589,-48.89265,-23.30443,-121.7539,-110.5331,-88.68581,0.001067912,-0.1257102,0.09433498,0,0.3,0,0,0,0
638224438252450222,20.82701,28.17073,18.04744,15.46094,-7.568851,-142.0894,-56.80307,-0.4675641,5.229787,-69.28372,-8.374548,-36.83611,0,0,0,56.48455,-40.48462,-19.86423,-121.7539,-110.5331,-88.68581,0.001067912,-0.1257102,0.09433498,0,0.3,0,0,0,0
638224438252790113,20.82701,31.56057,21.08258,16.41313,-9.033754,-142.0894,-56.80307,-0.4675641,5.229787,-69.28372,-8.374548,-36.83611,0,0,0,57.4542,-31.27859,-17.31523,-121.7539,-110.5331,-88.68581,0.001067912,-0.1257102,0.09433498,0,0.3,0,0,0,0
638224438253120007,20.82701,33.68799,22.92702,16.77936,-10.13243,-142.0894,-56.80307,-0.4675641,5.229787,-69.28372,-8.447793,-36.83611,0,0,0,57.92018,-25.50035,-16.09027,-121.7539,-110.5331,-88.68581,0.001067912,-0.1257102,0.09433498,0,0.3,0,0,0,0
638224438253469894,20.77989,38.73769,27.47973,17.36532,-12.91575,-142.0894,-56.80307,-0.4675641,5.229787,-69.35696,-8.374548,-36.83611,0,0,0,58.73287,-11.51013,-13.57097,-121.7539,-110.5331,-88.68581,0.001067912,-0.1257102,0.09433498,0,0.3,0,0,0,0
638224438253809788,20.14377,44.65237,33.12977,18.09777,-17.23721,-142.1627,-56.80307,-0.4675641,5.229787,-69.28372,-8.374548,-36.90935,0,0,0,57.76709,5.396914,-10.86686,-121.7539,-110.5331,-88.68581,0.001067912,-0.1257102,0.09433498,0,0.3,0,0,0,0
638224438254149682,19.60189,47.48113,36.02483,18.39075,-19.80079,-142.1627,-56.80307,-0.4675641,5.229787,-69.35696,-8.374548,-36.90935,0,0,0,56.54567,13.78782,-9.567855,-121.7539,-110.5331,-88.68581,0.001067912,-0.1257102,0.09433498,0,0.3,0,0,0,0
638224438254499568,17.76421,53.37244,42.11847,18.46399,-26.09988,-142.1627,-56.80307,-0.4675641,5.229787,-69.28372,-8.374548,-36.90935,0,0,0,51.55935,31.45379,-7.416128,-121.7539,-110.5331,-88.68581,0.001067912,-0.1257102,0.09433498,0,0.3,0,0,0,0
638224438254829462,14.56006,58.88969,48.84248,16.63286,-33.86386,-142.0894,-56.80307,-0.4675641,5.229787,-69.28372,-8.374548,-36.90935,0,0,0,42.56108,49.759,-4.487241,-121.7539,-110.5331,-88.68581,0.001067912,-0.1257102,0.09433498,0,0.3,0,0,0,0
638224438255169356,12.67526,61.08725,52.01771,13.99604,-38.11209,-141.6499,-56.80307,-0.4675641,5.229787,-69.28372,-8.374548,-36.83611,0,0,0,37.20971,58.01287,-2.904431,-121.7539,-110.5331,-88.68581,0.001067912,-0.1257102,0.09433498,0,0.3,0,0,0,0
638224438255519246,9.353305,63.8225,55.58984,4.034696,-45.72958,-129.5645,-56.80307,-0.4675641,5.229787,-69.28372,-8.374548,-36.90935,0,0,0,27.44073,67.66465,-1.751433,-121.7539,-110.5331,-88.68581,0.001067912,-0.1257102,0.09433498,0,0.3,0,0,0,0
638224438255859137,6.950189,64.19655,58.01796,-6.878834,-49.3186,-126.8544,-56.80307,-0.4675641,5.229787,-69.28372,-8.374548,-36.90935,0,0,0,20.71081,72.77472,1.546966,-121.7539,-110.5331,-88.68581,0.001067912,-0.1257102,0.09433498,0,0.3,0,0,0,0
638224438256199025,5.183192,64.21992,61.73017,-16.40071,-51.29622,-124.5838,-56.80307,-0.4675641,5.229787,-69.28372,-8.374548,-36.83611,0,0,0,15.84943,80.26985,6.373854,-121.7539,-110.5331,-88.68581,0.001067912,-0.1257102,0.09433498,0,0.3,0,0,0,0
638224438256648881,3.274835,64.21992,66.02607,-29.21861,-54.22602,-111.3997,-56.80307,-0.4675641,5.229787,-69.28372,-8.374548,-36.83611,0,0,0,10.27358,89.24478,11.19858,-121.7539,-110.5331,-88.68581,0.001067912,-0.1257102,0.09433498,0,0.3,0,0,0,0
638224438256978778,2.520916,64.21992,67.26347,-34.85849,-55.25146,-105.6866,-56.80307,-0.4675641,5.229787,-69.28372,-8.374548,-36.83611,0,0,0,7.960413,91.88869,12.45879,-121.7539,-110.5331,-88.68581,0.001067912,-0.1257102,0.09433498,0,0.3,0,0,0,0
638224438257318670,-0.09423985,63.84587,69.90171,-52.95005,-57.22908,-89.49938,-56.80307,-0.4675641,5.229787,-69.28372,-8.374548,-36.90935,0,0,0,-0.3026564,97.22323,15.65833,-121.7539,-110.5331,-88.68581,0.001067912,-0.1257102,0.09433498,0,0.3,0,0,0,0
638224438257658560,-3.840273,62.65359,71.86288,-74.33764,-57.37556,-73.09246,-56.80307,-0.4675641,5.229787,-69.28372,-8.374548,-36.83611,0,0,0,-12.59009,100.2867,19.20922,-121.7539,-110.5331,-88.68581,0.001067912,-0.1257102,0.09433498,0,0.3,0,0,0,0
638224438257998451,-7.986827,61.18076,72.11971,-87.00905,-55.3247,-63.64384,-56.80307,-0.4675641,5.229787,-69.28372,-8.374548,-36.90935,0,0,0,-26.56502,99.24155,20.98576,-121.7539,-110.5331,-88.68581,0.001067912,-0.1257102,0.09433498,0,0.3,0,0,0,0
638224438258338342,-10.2957,60.1755,71.7695,-89.57263,-53.64006,-61.44649,-56.80307,-0.4675641,5.229787,-69.28372,-8.374548,-36.90935,0,0,0,-34.49057,97.32087,21.5203,-121.7539,-110.5331,-88.68581,0.001067912,-0.1257102,0.09433498,0,0.3,0,0,0,0
638224438258678232,-14.60718,57.76754,70.32196,-89.86562,-50.12429,-63.71709,-56.80307,-0.4675641,5.229787,-69.35696,-8.374548,-36.90935,0,0,0,-49.60217,91.24606,21.97795,-121.7539,-110.5331,-88.68581,0.001067912,-0.1257102,0.09433498,0,0.3,0,0,0,0
638224438259028122,-18.42389,54.705,67.84715,-86.1301,-46.38879,-69.94292,-56.80307,-0.4675641,5.229787,-69.35696,-8.374548,-36.90935,0,0,0,-63.38405,81.90523,21.92456,-121.7539,-110.5331,-88.68581,0.001067912,-0.1257102,0.09433498,0,0.3,0,0,0,0
638224438259358019,-19.95529,53.18541,66.35294,-83.27354,-44.63091,-72.5065,-56.80307,-0.4675641,5.229787,-69.28372,-8.374548,-36.90935,0,0,0,-68.96041,76.62027,21.57821,-121.7539,-110.5331,-88.68581,0.001067912,-0.1257102,0.09433498,0,0.3,0,0,0,0
638224438259697907,-23.27724,49.28125,62.80414,-74.48412,-40.2362,-77.56042,-56.80307,-0.4675641,5.229787,-69.35696,-8.374548,-36.83611,0,0,0,-81.24854,63.47333,20.51347,-121.7539,-110.5331,-88.68581,0.001067912,-0.1257102,0.09433498,0,0.3,0,0,0,0
638224438260037803,-25.02068,46.68627,60.95971,-68.55127,-37.30639,-78.95209,-56.80307,-0.4675641,5.229787,-69.28372,-8.374548,-36.83611,0,0,0,-87.99892,55.64522,20.18662,-121.7539,-110.5331,-88.68581,0.001067912,-0.1257102,0.09433498,0,0.3,0,0,0,0
638224438260377692,-25.91596,45.00304,59.86239,-64.66927,-35.47526,-79.39155,-56.80307,-0.4675641,5.229787,-69.35696,-8.374548,-36.90935,0,0,0,-91.61127,50.69552,20.18233,-121.7539,-110.5331,-88.68581,0.001067912,-0.1257102,0.09433498,0,0.3,0,0,0,0
638224438260717583,-26.66988,42.03401,57.87787,-57.5645,-32.39896,-79.75778,-56.80307,-0.4675641,5.229787,-69.35696,-8.374548,-36.83611,0,0,0,-95.14783,41.73175,21.07845,-121.7539,-110.5331,-88.68581,0.001067912,-0.1257102,0.09433498,0,0.3,0,0,0,0
638224438261047479,-26.62276,38.76106,56.01009,-47.38342,-30.49459,-79.09857,-56.80307,-0.4675641,5.229787,-69.35696,-8.374548,-36.90935,0,0,0,-96.14145,32.28807,23.44974,-121.7539,-110.5331,-88.68581,0.001067912,-0.1257102,0.09433498,0,0.3,0,0,0,0
638224438261397370,-26.64632,35.32447,55.75327,-38.00803,-29.46916,-75.07008,-56.80307,-0.4675641,5.229787,-69.35696,-8.374548,-36.90935,0,0,0,-98.23054,25.41003,27.41642,-121.7539,-110.5331,-88.68581,0.001067912,-0.1257102,0.09433498,0,0.3,0,0,0,0
638224438261737258,-26.64632,33.82826,55.68323,-34.27253,-29.02968,-72.36002,-56.80307,-0.4675641,5.229787,-69.35696,-8.374548,-36.90935,0,0,0,-99.07562,22.40823,29.10061,-121.7539,-110.5331,-88.68581,0.001067912,-0.1257102,0.09433498,0,0.3,0,0,0,0
638224438262077149,-26.64632,31.49044,54.86607,-28.04669,-27.78452,-68.33153,-56.80307,-0.4675641,5.229787,-69.35696,-8.374548,-36.83611,0,0,0,-99.9065,16.26467,30.7565,-121.7539,-110.5331,-88.68581,0.001067912,-0.1257102,0.09433498,0,0.3,0,0,0,0
638224438262417041,-26.64632,29.85397,51.92432,-23.72522,-26.61259,-69.21047,-56.80307,-0.4675641,5.229787,-69.35696,-8.374548,-36.90935,0,0,0,-98.94707,7.493252,28.84443,-121.7539,-110.5331,-88.68581,0.001067912,-0.1257102,0.09433498,0,0.3,0,0,0,0
638224438262756933,-26.64632,28.87208,48.37553,-21.0884,-25.58716,-71.8473,-56.80307,-0.4675641,5.229787,-69.35696,-8.374548,-36.83611,0,0,0,-97.07641,-0.8383215,25.11632,-121.7539,-110.5331,-88.68581,0.001067912,-0.1257102,0.09433498,0,0.3,0,0,0,0
638224438263096826,-26.62276,27.51615,44.0096,-18.0121,-23.97577,-73.89817,-56.80307,-0.4675641,5.229787,-69.35696,-8.374548,-36.83611,0,0,0,-94.51369,-10.95094,20.20239,-121.7539,-110.5331,-88.68581,0.001067912,-0.1257102,0.09433498,0,0.3,0,0,0,0
638224438263426718,-26.62276,24.80427,39.22341,-14.20335,-20.75298,-71.70081,-56.80307,-0.4675641,5.229787,-69.35696,-8.374548,-36.90935,0,0,0,-92.02978,-24.01144,15.24706,-121.7539,-110.5331,-88.68581,0.001067912,-0.1257102,0.09433498,0,0.3,0,0,0,0
638224438263766614,-26.62276,23.12104,36.95872,-12.51871,-18.48238,-69.79643,-56.80307,-0.4675641,5.229787,-69.35696,-8.374548,-36.90935,0,0,0,-90.88395,-30.84264,12.96115,-121.7539,-110.5331,-88.68581,0.001067912,-0.1257102,0.09433498,0,0.3,0,0,0,0
638224438264176485,-26.62276,19.66107,32.73286,-10.02838,-12.98899,-66.42715,-56.80307,-0.4675641,5.229787,-69.28372,-8.374548,-36.83611,0,0,0,-88.58366,-43.95778,8.37215,-121.7539,-110.5331,-88.68581,0.001067912,-0.1257102,0.09433498,0,0.3,0,0,0,0
638224438264526373,-26.5992,15.92056,28.62375,-8.490229,-7.12938,-64.66927,-56.80307,-0.4675641,5.229787,-69.35696,-8.374548,-36.83611,0,0,0,-86.0198,-57.12409,3.433587,-121.7539,-110.5331,-88.68581,0.001067912,-0.1257102,0.09433498,0,0.3,0,0,0,0
638224438264866263,-26.52852,11.92288,24.32785,-7.684532,-0.4640697,-64.08331,-56.80307,-0.4675641,5.229787,-69.28372,-8.374548,-36.90935,0,0,0,-82.81108,-70.6095,-2.463481,-121.7539,-110.5331,-88.68581,0.001067912,-0.1257102,0.09433498,0,0.3,0,0,0,0
638224438265236145,-26.38716,8.112236,20.54559,-7.757777,6.201241,-65.0355,-56.80307,-0.4675641,5.229787,-69.35696,-8.374548,-36.90935,0,0,0,-79.47161,-82.70066,-8.165328,-121.7539,-110.5331,-88.68581,0.001067912,-0.1257102,0.09433498,0,0.3,0,0,0,0
638224438265546044,-26.29292,6.312115,18.74786,-7.904267,9.350782,-66.20742,-56.80307,-0.4675641,5.229787,-69.35696,-8.374548,-36.83611,0,0,0,-77.69561,-88.26364,-11.09594,-121.7539,-110.5331,-88.68581,0.001067912,-0.1257102,0.09433498,0,0.3,0,0,0,0
638224438265895934,-26.17512,2.898897,15.29246,-8.490229,15.64987,-68.40478,-56.80307,-0.4675641,5.229787,-69.35696,-8.374548,-36.83611,0,0,0,-74.26186,-98.53436,-17.26438,-121.7539,-110.5331,-88.68581,0.001067912,-0.1257102,0.09433498,0,0.3,0,0,0,0
638224438266225829,-26.05732,-0.1402692,11.97715,-9.735395,21.28975,-71.40782,-56.80307,-0.4675641,5.229787,-69.35696,-8.374548,-36.90935,0,0,0,-70.73241,-107.4235,-23.69453,-121.7539,-110.5331,-88.68581,0.001067912,-0.1257102,0.09433498,0,0.3,0,0,0,0
638224438266575713,-26.0102,-1.449449,10.38953,-10.46785,23.56034,-73.38544,-56.80307,-0.4675641,5.229787,-69.35696,-8.374548,-36.83611,0,0,0,-69.00533,-111.1867,-26.932,-121.7539,-110.5331,-88.68581,0.001067912,-0.1257102,0.09433498,0,0.3,0,0,0,0
638224438266915607,-25.86884,-1.636474,5.743428,-12.37222,27.58883,-77.34068,-56.80307,-0.4675641,5.229787,-69.35696,-8.374548,-36.90935,0,0,0,-63.98106,-113.1388,-36.40361,-121.7539,-110.5331,-88.68581,0.001067912,-0.1257102,0.09433498,0,0.3,0,0,0,0
638224438267255499,-25.75104,-1.472827,1.657656,-14.78931,29.63969,-79.09857,-56.80307,-0.4675641,5.229787,-69.35696,-8.374548,-36.90935,0,0,0,-59.59224,-113.3717,-44.80822,-121.7539,-110.5331,-88.68581,0.001067912,-0.1257102,0.09433498,0,0.3,0,0,0,0
638224438267595395,-25.63324,-1.776743,-0.2334726,-17.49938,30.37215,-79.68453,-56.80307,-0.4675641,5.229787,-69.28372,-8.374548,-36.90935,0,0,0,-57.42558,-114.1334,-48.67178,-121.7539,-110.5331,-88.68581,0.001067912,-0.1257102,0.09433498,0,0.3,0,0,0,0
638224438267935281,-25.58612,-1.659852,-0.700418,-18.96429,30.44539,-80.27049,-56.80307,-0.4675641,5.229787,-69.35696,-8.374548,-36.90935,0,0,0,-56.86134,-113.8526,-49.5974,-121.7539,-110.5331,-88.68581,0.001067912,-0.1257102,0.09433498,0,0.3,0,0,0,0
638224438268285169,-25.51544,-1.753365,-0.8638488,-21.89409,30.07917,-83.34679,-56.80307,-0.4675641,5.229787,-69.35696,-8.374548,-36.83611,0,0,0,-56.54818,-114.065,-49.87643,-121.7539,-110.5331,-88.68581,0.001067912,-0.1257102,0.09433498,0,0.3,0,0,0,0
638224438268705035,-25.32696,-1.729987,-0.9105434,-24.53092,28.54102,-85.98362,-56.80307,-0.4675641,5.229787,-69.35696,-8.374548,-36.83611,0,0,0,-56.11237,-114.0089,-49.78778,-121.7539,-110.5331,-88.68581,0.001067912,-0.1257102,0.09433498,0,0.3,0,0,0,0
638224438269044929,-25.0678,-1.729987,-0.8871961,-25.55635,27.44234,-86.49634,-56.80307,-0.4675641,5.229787,-69.35696,-8.447793,-36.90935,0,0,0,-55.59854,-114.0098,-49.48597,-121.7539,-110.5331,-88.68581,0.001067912,-0.1257102,0.09433498,0,0.3,0,0,0,0
638224438269384820,-24.76152,-1.729987,-0.9105434,-26.28881,26.49015,-87.15554,-56.80307,-0.4675641,5.229787,-69.35696,-8.374548,-36.90935,0,0,0,-54.93959,-114.0089,-49.2398,-121.7539,-110.5331,-88.68581,0.001067912,-0.1257102,0.09433498,0,0.3,0,0,0,0
638224438269724711,-23.70132,-1.729987,-0.9105434,-27.46073,24.73227,-89.42614,-56.80307,-0.4675641,5.229787,-69.35696,-8.374548,-36.83611,0,0,0,-52.7263,-114.0089,-48.24365,-121.7539,-110.5331,-88.68581,0.001067912,-0.1257102,0.09433498,0,0.3,0,0,0,0
638224438270064602,-21.55737,-1.729987,-0.9572379,-27.53397,22.6814,-91.33051,-56.80307,-0.4675641,5.229787,-69.35696,-8.374548,-36.90935,0,0,0,-48.15625,-114.0071,-46.45628,-121.7539,-110.5331,-88.68581,0.001067912,-0.1257102,0.09433498,0,0.3,0,0,0,0
638224438270404493,-18.51813,-1.729987,-1.330794,-26.21556,20.92352,-92.2827,-56.80307,-0.4675641,5.229787,-69.35696,-8.374548,-36.90935,0,0,0,-41.34966,-113.9898,-44.89872,-121.7539,-110.5331,-88.68581,0.001067912,-0.1257102,0.09433498,0,0.3,0,0,0,0
638224438270744387,-16.63333,-1.729987,-1.587614,-24.8239,19.89809,-91.91647,-56.80307,-0.4675641,5.229787,-69.35696,-8.374548,-36.90935,0,0,0,-37.09594,-113.9746,-44.17805,-121.7539,-110.5331,-88.68581,0.001067912,-0.1257102,0.09433498,0,0.3,0,0,0,0
638224438271084276,-12.72238,-1.729987,-1.821087,-21.23489,17.77398,-90.59806,-56.80307,-0.4675641,5.229787,-69.35696,-8.374548,-36.90935,0,0,0,-28.42066,-113.9584,-42.46685,-121.7539,-110.5331,-88.68581,0.001067912,-0.1257102,0.09433498,0,0.3,0,0,0,0
638224438271424169,-8.481586,-1.729987,-1.821087,-16.98667,15.28364,-90.15859,-56.80307,-0.4675641,5.229787,-69.28372,-8.374548,-36.90935,0,0,0,-19.03401,-113.9584,-40.70985,-121.7539,-110.5331,-88.68581,0.001067912,-0.1257102,0.09433498,0,0.3,0,0,0,0
638224438271754063,-6.24339,-1.729987,-1.657656,-14.64282,14.03847,-89.49938,-56.80307,-0.4675641,5.229787,-69.28372,-8.374548,-36.83611,0,0,0,-14.07598,-113.9699,-39.68594,-121.7539,-110.5331,-88.68581,0.001067912,-0.1257102,0.09433498,0,0.3,0,0,0,0
638224438272103953,-1.578517,-1.636474,-0.9805852,-8.783209,11.62138,-85.61739,-56.80307,-0.4675641,5.229787,-69.28372,-8.374548,-36.83611,0,0,0,-3.609008,-113.7887,-37.3862,-121.7539,-110.5331,-88.68581,0.001067912,-0.1257102,0.09433498,0,0.3,0,0,0,0
638224438272443842,2.921435,-1.122154,-0.2101254,-1.971408,9.717009,-82.24812,-56.80307,-0.4675641,5.229787,-69.35696,-8.374548,-36.90935,0,0,0,6.770164,-112.6106,-35.68726,-121.7539,-110.5331,-88.68581,0.001067912,-0.1257102,0.09433498,0,0.3,0,0,0,0
638224438272793731,7.138669,-0.04675641,0.6070289,4.547412,7.959125,-80.41698,-56.80307,-0.4675641,5.229787,-69.35696,-8.374548,-36.90935,0,0,0,16.74712,-110.1013,-34.63192,-121.7539,-110.5331,-88.68581,0.001067912,-0.1257102,0.09433498,0,0.3,0,0,0,0
638224438273243588,11.7093,1.917013,1.494225,11.06623,6.201241,-79.75778,-56.80307,-0.4675641,5.229787,-69.35696,-8.374548,-36.90935,0,0,0,27.75343,-105.4938,-34.44321,-121.7539,-110.5331,-88.68581,0.001067912,-0.1257102,0.09433498,0,0.3,0,0,0,0
638224438273573482,13.17002,2.828763,1.891129,13.04385,5.542034,-79.39155,-56.80307,-0.4675641,5.229787,-69.35696,-8.374548,-36.90935,0,0,0,31.34827,-103.3464,-34.38069,-121.7539,-110.5331,-88.68581,0.001067912,-0.1257102,0.09433498,0,0.3,0,0,0,0
638224438273913378,16.84537,6.101711,2.98845,18.09777,3.417924,-77.1942,-56.80307,-0.4675641,5.229787,-69.28372,-8.374548,-36.90935,0,0,0,40.43921,-95.64438,-34.79121,-121.7539,-110.5331,-88.68581,0.001067912,-0.1257102,0.09433498,0,0.3,0,0,0,0
638224438274253264,19.76681,10.42668,4.43598,23.00519,0.7810982,-74.70387,-56.80307,-0.4675641,5.229787,-69.35696,-8.374548,-36.90935,0,0,0,47.84143,-85.46724,-35.22338,-121.7539,-110.5331,-88.68581,0.001067912,-0.1257102,0.09433498,0,0.3,0,0,0,0
638224438274593157,21.43956,15.1257,6.327109,27.32666,-2.221954,-72.5065,-56.80307,-0.4675641,5.229787,-69.28372,-8.374548,-36.83611,0,0,0,52.425,-74.39174,-34.84859,-121.7539,-110.5331,-88.68581,0.001067912,-0.1257102,0.09433498,0,0.3,0,0,0,0
638224438274933049,21.91076,17.83757,7.494472,29.30428,-4.053083,-71.26134,-56.80307,-0.4675641,5.229787,-69.28372,-8.374548,-36.83611,0,0,0,53.85946,-68.01314,-34.44309,-121.7539,-110.5331,-88.68581,0.001067912,-0.1257102,0.09433498,0,0.3,0,0,0,0
638224438275272942,22.45264,23.02753,9.642421,32.01435,-7.715342,-68.47802,-56.80307,-0.4675641,5.229787,-69.28372,-8.374548,-36.83611,0,0,0,55.40136,-55.9531,-34.28599,-121.7539,-110.5331,-88.68581,0.001067912,-0.1257102,0.09433498,0,0.3,0,0,0,0
638224438275612833,22.87672,28.311,12.53748,34.13846,-11.81707,-65.69471,-56.80307,-0.4675641,5.229787,-69.35696,-8.374548,-36.90935,0,0,0,56.89231,-43.57795,-33.51425,-121.7539,-110.5331,-88.68581,0.001067912,-0.1257102,0.09433498,0,0.3,0,0,0,0
638224438275952725,23.23012,30.57869,14.10175,35.09065,-13.72145,-64.74252,-56.80307,-0.4675641,5.229787,-69.28372,-8.374548,-36.83611,0,0,0,58.09692,-38.14346,-32.9963,-121.7539,-110.5331,-88.68581,0.001067912,-0.1257102,0.09433498,0,0.3,0,0,0,0
638224438276292616,24.54948,35.88554,18.46769,37.94721,-18.62887,-63.57059,-56.80307,-0.4675641,5.229787,-69.35696,-8.374548,-36.90935,0,0,0,62.43818,-24.96731,-31.65486,-121.7539,-110.5331,-88.68581,0.001067912,-0.1257102,0.09433498,0,0.3,0,0,0,0
638224438276632507,25.63324,38.92471,21.54953,40.65728,-21.55868,-64.44954,-56.80307,-0.4675641,5.229787,-69.35696,-8.374548,-36.90935,0,0,0,66.06922,-16.89527,-30.65794,-121.7539,-110.5331,-88.68581,0.001067912,-0.1257102,0.09433498,0,0.3,0,0,0,0
638224438276972401,26.43428,40.79496,23.69748,42.70815,-23.17007,-66.28067,-56.80307,-0.4675641,5.229787,-69.35696,-8.374548,-36.90935,0,0,0,68.79996,-11.6312,-29.9613,-121.7539,-110.5331,-88.68581,0.001067912,-0.1257102,0.09433498,0,0.3,0,0,0,0
638224438277312292,28.22483,44.04454,28.13346,47.1761,-25.73365,-71.48107,-56.80307,-0.4675641,5.229787,-69.35696,-8.374548,-36.90935,0,0,0,75.06863,-1.537698,-28.49319,-121.7539,-110.5331,-88.68581,0.001067912,-0.1257102,0.09433498,0,0.3,0,0,0,0
638224438277752154,30.46303,46.6629,32.33596,52.74273,-27.63803,-78.51261,-56.80307,-0.4675641,5.229787,-69.28372,-8.374548,-36.83611,0,0,0,82.55869,7.668331,-27.98614,-121.7539,-110.5331,-88.68581,0.001067912,-0.1257102,0.09433498,0,0.3,0,0,0,0
638224438278092054,33.3609,48.50977,36.56182,58.74884,-28.22399,-86.64282,-56.80307,-0.4675641,5.229787,-69.28372,-8.374548,-36.90935,0,0,0,92.26328,16.12964,-28.21743,-121.7539,-110.5331,-88.68581,0.001067912,-0.1257102,0.09433498,0,0.3,0,0,0,0
638224438278431935,37.0127,49.32801,40.50751,65.04792,-27.2718,-94.69979,-56.80307,-0.4675641,5.229787,-69.35696,-8.374548,-36.83611,0,0,0,104.4607,23.10092,-29.78987,-121.7539,-110.5331,-88.68581,0.001067912,-0.1257102,0.09433498,0,0.3,0,0,0,0
638224438278761831,38.99174,49.28125,42.14182,67.90449,-26.4661,-97.99583,-56.80307,-0.4675641,5.229787,-69.28372,-8.374548,-36.90935,0,0,0,111.0326,25.54155,-31.19572,-121.7539,-110.5331,-88.68581,0.001067912,-0.1257102,0.09433498,0,0.3,0,0,0,0
638224438279111714,43.44457,48.11234,44.78006,73.10489,-23.38981,-103.1962,-56.80307,-0.4675641,5.229787,-69.28372,-8.374548,-36.83611,0,0,0,125.8157,27.96917,-35.51073,-121.7539,-110.5331,-88.68581,0.001067912,-0.1257102,0.09433498,0,0.3,0,0,0,0
638224438279441611,47.35552,45.54074,46.43771,76.40092,-19.6543,-106.4923,-56.80307,-0.4675641,5.229787,-69.28372,-8.374548,-36.90935,0,0,0,139.7787,26.6312,-39.61646,-121.7539,-110.5331,-88.68581,0.001067912,-0.1257102,0.09433498,0,0.3,0,0,0,0
638224438279781505,49.09896,43.71724,46.9747,77.4996,-17.5302,-107.8839,-56.80307,-0.4675641,5.229787,-69.35696,-8.374548,-36.90935,0,0,0,146.5318,24.52063,-41.41549,-121.7539,-110.5331,-88.68581,0.001067912,-0.1257102,0.09433498,0,0.3,0,0,0,0
638224438280121394,51.9026,39.29876,47.32491,78.59828,-12.76926,-110.301,-56.80307,-0.4675641,5.229787,-69.28372,-8.374548,-36.90935,0,0,0,158.3634,17.41912,-44.18883,-121.7539,-110.5331,-88.68581,0.001067912,-0.1257102,0.09433498,0,0.3,0,0,0,0
638224438280471283,53.99943,33.92177,47.27821,78.23206,-8.081567,-112.5716,-56.80307,-0.4675641,5.229787,-69.35696,-8.374548,-36.90935,0,0,0,168.7762,7.297514,-45.72437,-121.7539,-110.5331,-88.68581,0.001067912,-0.1257102,0.09433498,0,0.3,0,0,0,0
638224438280811173,55.27167,27.91357,47.11478,76.62066,-3.540367,-115.4282,-56.80307,-0.4675641,5.229787,-69.35696,-8.374548,-36.90935,0,0,0,177.147,-4.972563,-45.55796,-121.7539,-110.5331,-88.68581,0.001067912,-0.1257102,0.09433498,0,0.3,0,0,0,0
638224438281161062,55.31879,24.85103,47.06809,75.59522,-1.343012,-116.8931,-56.80307,-0.4675641,5.229787,-69.35696,-8.374548,-36.90935,0,0,0,179.7913,-11.4368,-43.94379,-121.7539,-110.5331,-88.68581,0.001067912,-0.1257102,0.09433498,0,0.3,0,0,0,0
638224438281500956,55.20099,18.51554,46.83461,73.03164,3.344679,-121.5075,-56.80307,-0.4675641,5.229787,-69.35696,-8.374548,-36.83611,0,0,0,183.702,-25.52875,-40.67851,-121.7539,-110.5331,-88.68581,0.001067912,-0.1257102,0.09433498,0,0.3,0,0,0,0
638224438281840843,54.68267,13.16193,45.62056,69.80886,7.446409,-125.536,-56.80307,-0.4675641,5.229787,-69.35696,-8.374548,-36.90935,0,0,0,183.7184,-39.5516,-38.18669,-121.7539,-110.5331,-88.68581,0.001067912,-0.1257102,0.09433498,0,0.3,0,0,0,0
638224438282290700,53.66959,8.673313,43.1224,66.21985,11.03542,-127.0009,-56.80307,-0.4675641,5.229787,-69.28372,-8.374548,-36.83611,0,0,0,179.6339,-53.87228,-36.24893,-121.7539,-110.5331,-88.68581,0.001067912,-0.1257102,0.09433498,0,0.3,0,0,0,0
638224438282630596,52.84499,6.592653,40.90441,64.24223,12.57357,-127.1474,-56.80307,-0.4675641,5.229787,-69.35696,-8.374548,-36.83611,0,0,0,175.1702,-62.12646,-35.60529,-121.7539,-110.5331,-88.68581,0.001067912,-0.1257102,0.09433498,0,0.3,0,0,0,0
638224438282970488,52.16175,5.236718,39.43353,63.0703,13.45251,-127.1474,-56.80307,-0.4675641,5.229787,-69.28372,-8.374548,-36.90935,0,0,0,171.7658,-67.47351,-34.93108,-121.7539,-110.5331,-88.68581,0.001067912,-0.1257102,0.09433498,0,0.3,0,0,0,0
638224438283310379,50.55968,2.758628,36.7019,61.38566,14.69768,-127.0009,-56.80307,-0.4675641,5.229787,-69.35696,-8.301303,-36.90935,0,0,0,164.4139,-77.14619,-33.105,-121.7539,-110.5331,-88.68581,0.001067912,-0.1257102,0.09433498,0,0.3,0,0,0,0
638224438283660263,48.53352,0.4441859,34.34383,60.06725,15.72311,-124.5838,-56.80307,-0.4675641,5.229787,-69.35696,-8.374548,-36.90935,0,0,0,156.2953,-85.71891,-30.23449,-121.7539,-110.5331,-88.68581,0.001067912,-0.1257102,0.09433498,0,0.3,0,0,0,0
638224438284000156,46.41312,-1.192288,31.37873,59.04182,16.74854,-120.0426,-56.80307,-0.4675641,5.229787,-69.35696,-8.374548,-36.90935,0,0,0,146.8618,-93.27151,-28.55948,-121.7539,-110.5331,-88.68581,0.001067912,-0.1257102,0.09433498,0,0.3,0,0,0,0
638224438284340050,45.23512,-1.589718,29.37086,58.38261,17.18801,-117.6988,-56.80307,-0.4675641,5.229787,-69.35696,-8.374548,-36.90935,0,0,0,141.0786,-96.55907,-28.42452,-121.7539,-110.5331,-88.68581,0.001067912,-0.1257102,0.09433498,0,0.3,0,0,0,0
638224438284679943,42.69065,-1.659852,24.7481,57.0642,17.40775,-112.6449,-56.80307,-0.4675641,5.229787,-69.35696,-8.374548,-36.83611,0,0,0,128.2297,-101.6153,-29.34326,-121.7539,-110.5331,-88.68581,0.001067912,-0.1257102,0.09433498,0,0.3,0,0,0,0
638224438285049822,38.75614,-1.496205,18.46769,55.30631,16.52881,-108.4699,-56.80307,-0.4675641,5.229787,-69.35696,-8.374548,-36.90935,0,0,0,109.8929,-106.6147,-31.45633,-121.7539,-110.5331,-88.68581,0.001067912,-0.1257102,0.09433498,0,0.3,0,0,0,0
638224438285399711,32.84259,-1.472827,10.57631,52.01028,15.28364,-106.8585,-56.80307,-0.4675641,5.229787,-69.35696,-8.374548,-36.83611,0,0,0,85.57018,-111.162,-35.78757,-121.7539,-110.5331,-88.68581,0.001067912,-0.1257102,0.09433498,0,0.3,0,0,0,0
638224438285739600,28.57823,-1.542961,6.653971,49.15372,14.55119,-106.419,-56.80307,-0.4675641,5.229787,-69.35696,-8.374548,-36.90935,0,0,0,71.15736,-112.6924,-37.7201,-121.7539,-110.5331,-88.68581,0.001067912,-0.1257102,0.09433498,0,0.3,0,0,0,0
638224438286079500,18.63593,-1.753365,2.21799,41.46298,13.81874,-104.0752,-56.80307,-0.4675641,5.229787,-69.35696,-8.374548,-36.90935,0,0,0,44.24169,-113.9802,-37.16068,-121.7539,-110.5331,-88.68581,0.001067912,-0.1257102,0.09433498,0,0.3,0,0,0,0
638224438286419385,7.774787,-1.332558,0.8638488,31.50163,13.599,-98.36205,-56.80307,-0.4675641,5.229787,-69.35696,-8.374548,-36.90935,0,0,0,18.30663,-113.086,-34.2696,-121.7539,-110.5331,-88.68581,0.001067912,-0.1257102,0.09433498,0,0.3,0,0,0,0
638224438286809258,-3.015675,-0.2571602,1.470878,19.63592,13.30602,-94.84628,-56.80307,-0.4675641,5.229787,-69.35696,-8.374548,-36.90935,0,0,0,-7.195439,-110.5546,-31.76781,-121.7539,-110.5331,-88.68581,0.001067912,-0.1257102,0.09433498,0,0.3,0,0,0,0
638224438287149155,-7.303588,0.3272949,2.498158,14.06928,12.9398,-94.18707,-56.80307,-0.4675641,5.229787,-69.35696,-8.374548,-36.90935,0,0,0,-17.69098,-109.1115,-30.31889,-121.7539,-110.5331,-88.68581,0.001067912,-0.1257102,0.09433498,0,0.3,0,0,0,0
638224438287489043,-16.39773,1.683231,6.840749,-0.2135241,10.96218,-92.06297,-56.80307,-0.4675641,5.229787,-69.35696,-8.447793,-36.90935,0,0,0,-42.11285,-105.1337,-25.24191,-121.7539,-110.5331,-88.68581,0.001067912,-0.1257102,0.09433498,0,0.3,0,0,0,0
638224438287828933,-22.4762,2.665115,12.18727,-13.98362,7.959125,-88.40071,-56.80307,-0.4675641,5.229787,-69.35696,-8.374548,-36.83611,0,0,0,-61.68672,-100.7941,-19.24996,-121.7539,-110.5331,-88.68581,0.001067912,-0.1257102,0.09433498,0,0.3,0,0,0,0
638224438288168827,-24.85576,3.24957,14.9189,-21.01515,5.981505,-85.69064,-56.80307,-0.4675641,5.229787,-69.35696,-8.374548,-36.83611,0,0,0,-70.39219,-97.94595,-16.39588,-121.7539,-110.5331,-88.68581,0.001067912,-0.1257102,0.09433498,0,0.3,0,0,0,0
638224438288508718,-27.87143,4.301589,18.56108,-30.83001,2.978453,-81.7354,-56.80307,-0.4675641,5.229787,-69.28372,-8.374548,-36.83611,0,0,0,-82.00774,-93.06168,-13.27741,-121.7539,-110.5331,-88.68581,0.001067912,-0.1257102,0.09433498,0,0.3,0,0,0,0
638224438288848609,-30.29811,6.662788,20.59229,-39.83916,0.3416272,-79.31831,-56.80307,-0.4675641,5.229787,-69.35696,-8.374548,-36.90935,0,0,0,-90.48225,-86.00783,-13.49645,-121.7539,-110.5331,-88.68581,0.001067912,-0.1257102,0.09433498,0,0.3,0,0,0,0
638224438289198496,-31.24051,10.70722,20.82576,-46.50447,-1.416257,-78.87884,-56.80307,-0.4675641,5.229787,-69.35696,-8.374548,-36.90935,0,0,0,-92.54351,-76.51255,-15.78603,-121.7539,-110.5331,-88.68581,0.001067912,-0.1257102,0.09433498,0,0.3,0,0,0,0
638224438289538390,-31.24051,13.34895,20.38216,-48.77507,-2.075463,-79.4648,-56.80307,-0.4675641,5.229787,-69.35696,-8.374548,-36.90935,0,0,0,-91.37787,-70.86301,-17.70767,-121.7539,-110.5331,-88.68581,0.001067912,-0.1257102,0.09433498,0,0.3,0,0,0,0
638224438289898271,-30.03895,21.53132,19.05137,-51.77813,-3.467122,-83.56653,-56.80307,-0.4675641,5.229787,-69.28372,-8.374548,-36.90935,0,0,0,-83.88463,-53.75517,-23.2854,-121.7539,-110.5331,-88.68581,0.001067912,-0.1257102,0.09433498,0,0.3,0,0,0,0
638224438290238165,-28.74315,27.42263,19.30819,-51.92461,-4.565799,-86.20335,-56.80307,-0.4675641,5.229787,-69.35696,-8.374548,-36.90935,0,0,0,-78.12346,-41.08516,-25.90938,-121.7539,-110.5331,-88.68581,0.001067912,-0.1257102,0.09433498,0,0.3,0,0,0,0
638224438290568061,-27.80075,31.44369,20.0553,-51.63163,-5.517986,-87.37527,-56.80307,-0.4675641,5.229787,-69.35696,-8.374548,-36.90935,0,0,0,-74.38927,-32.35054,-27.2627,-121.7539,-110.5331,-88.68581,0.001067912,-0.1257102,0.09433498,0,0.3,0,0,0,0
638224438290907956,-25.6568,40.93523,23.53404,-50.6062,-8.301303,-89.20641,-56.80307,-0.4675641,5.229787,-69.35696,-8.374548,-36.90935,0,0,0,-66.67243,-11.53669,-29.54717,-121.7539,-110.5331,-88.68581,0.001067912,-0.1257102,0.09433498,0,0.3,0,0,0,0
638224438291327825,-23.46572,50.14624,29.18408,-49.87375,-12.40303,-90.08535,-56.80307,-0.4675641,5.229787,-69.35696,-8.447793,-36.83611,0,0,0,-59.92057,9.298252,-30.31635,-121.7539,-110.5331,-88.68581,0.001067912,-0.1257102,0.09433498,0,0.3,0,0,0,0
638224438291667709,-21.6516,57.79092,35.55789,-50.23997,-17.45695,-90.08535,-56.80307,-0.4675641,5.229787,-69.35696,-8.374548,-36.83611,0,0,0,-54.83633,27.69458,-30.21287,-121.7539,-110.5331,-88.68581,0.001067912,-0.1257102,0.09433498,0,0.3,0,0,0,0
638224438292007601,-20.37937,63.47182,41.72157,-52.0711,-23.02358,-87.7415,-56.80307,-0.4675641,5.229787,-69.35696,-8.374548,-36.90935,0,0,0,-51.64495,43.12941,-29.3277,-121.7539,-110.5331,-88.68581,0.001067912,-0.1257102,0.09433498,0,0.3,0,0,0,0
638224438292347494,-20.02597,65.24857,43.93955,-53.53601,-25.36743,-85.83713,-56.80307,-0.4675641,5.229787,-69.35696,-8.374548,-36.90935,0,0,0,-50.80623,48.42786,-28.95763,-121.7539,-110.5331,-88.68581,0.001067912,-0.1257102,0.09433498,0,0.3,0,0,0,0
638224438292697385,-19.88461,67.39936,47.18483,-57.418,-29.61565,-82.32136,-56.80307,-0.4675641,5.229787,-69.35696,-8.374548,-36.90935,0,0,0,-50.70137,55.8301,-28.17135,-121.7539,-110.5331,-88.68581,0.001067912,-0.1257102,0.09433498,0,0.3,0,0,0,0
638224438293027275,-20.28513,68.05395,48.2121,-61.00701,-32.03274,-80.56348,-56.80307,-0.4675641,5.229787,-69.35696,-8.447793,-36.90935,0,0,0,-51.74913,58.17585,-28.34225,-121.7539,-110.5331,-88.68581,0.001067912,-0.1257102,0.09433498,0,0.3,0,0,0,0
638224438293367167,-20.82701,68.10071,48.32884,-62.61841,-32.76519,-80.19725,-56.80307,-0.4675641,5.229787,-69.35696,-8.374548,-36.83611,0,0,0,-53.09933,58.41924,-28.76325,-121.7539,-110.5331,-88.68581,0.001067912,-0.1257102,0.09433498,0,0.3,0,0,0,0
638224438293707063,-22.61756,67.63314,48.28215,-65.0355,-33.4244,-80.78321,-56.80307,-0.4675641,5.229787,-69.28372,-8.374548,-36.83611,0,0,0,-57.7948,57.9281,-29.62679,-121.7539,-110.5331,-88.68581,0.001067912,-0.1257102,0.09433498,0,0.3,0,0,0,0
638224438294056956,-25.32696,65.71613,47.46499,-67.45258,-32.91168,-83.8595,-56.80307,-0.4675641,5.229787,-69.28372,-8.374548,-36.90935,0,0,0,-65.4945,54.75106,-29.96387,-121.7539,-110.5331,-88.68581,0.001067912,-0.1257102,0.09433498,0,0.3,0,0,0,0
638224438294396838,-28.88451,61.97561,45.87738,-69.79643,-31.08055,-87.81474,-56.80307,-0.4675641,5.229787,-69.35696,-8.374548,-36.90935,0,0,0,-76.5046,48.22663,-29.67357,-121.7539,-110.5331,-88.68581,0.001067912,-0.1257102,0.09433498,0,0.3,0,0,0,0
638224438294726733,-30.83999,59.49752,45.27035,-70.96836,-29.68889,-89.64587,-56.80307,-0.4675641,5.229787,-69.35696,-8.374548,-36.83611,0,0,0,-83.26425,44.3986,-28.89431,-121.7539,-110.5331,-88.68581,0.001067912,-0.1257102,0.09433498,0,0.3,0,0,0,0
638224438295066629,-34.75095,53.16203,44.0096,-73.89817,-26.02663,-92.06297,-56.80307,-0.4675641,5.229787,-69.35696,-8.374548,-36.90935,0,0,0,-98.38337,34.16613,-26.53594,-121.7539,-110.5331,-88.68581,0.001067912,-0.1257102,0.09433498,0,0.3,0,0,0,0
638224438295406515,-38.16714,45.44723,42.98232,-76.53499,-21.55868,-92.86866,-56.80307,-0.4675641,5.229787,-69.35696,-8.374548,-36.83611,0,0,0,-113.9935,20.82174,-23.31899,-121.7539,-110.5331,-88.68581,0.001067912,-0.1257102,0.09433498,0,0.3,0,0,0,0
638224438295746406,-39.60429,41.02874,42.81889,-77.70691,-19.14159,-93.16164,-56.80307,-0.4675641,5.229787,-69.35696,-8.374548,-36.83611,0,0,0,-121.9071,13.07295,-21.01207,-121.7539,-110.5331,-88.68581,0.001067912,-0.1257102,0.09433498,0,0.3,0,0,0,0
638224438296076306,-41.44197,32.56584,42.56207,-79.61128,-14.30741,-93.30813,-56.80307,-0.4675641,5.229787,-69.35696,-8.374548,-36.83611,0,0,0,-134.08,-3.090199,-16.49049,-121.7539,-110.5331,-88.68581,0.001067912,-0.1257102,0.09433498,0,0.3,0,0,0,0
638224438296426196,-42.17233,23.89252,42.14182,-80.19725,-9.106999,-93.23489,-56.80307,-0.4675641,5.229787,-69.28372,-8.374548,-36.90935,0,0,0,-141.9237,-21.51748,-11.67803,-121.7539,-110.5331,-88.68581,0.001067912,-0.1257102,0.09433498,0,0.3,0,0,0,0
638224438296766081,-42.21945,20.0585,41.51144,-79.68453,-6.763155,-92.64893,-56.80307,-0.4675641,5.229787,-69.28372,-8.374548,-36.83611,0,0,0,-143.5612,-30.7693,-10.13197,-121.7539,-110.5331,-88.68581,0.001067912,-0.1257102,0.09433498,0,0.3,0,0,0,0
638224438297105975,-42.07809,12.41383,38.98993,-77.26745,-2.514934,-90.08535,-56.80307,-0.4675641,5.229787,-69.28372,-8.374548,-36.83611,0,0,0,-143.5004,-51.63078,-9.412859,-121.7539,-110.5331,-88.68581,0.001067912,-0.1257102,0.09433498,0,0.3,0,0,0,0
638224438297445868,-41.08857,4.722397,35.93144,-73.01923,2.099511,-88.10773,-56.80307,-0.4675641,5.229787,-69.28372,-8.374548,-36.90935,0,0,0,-138.7726,-73.64767,-9.20791,-121.7539,-110.5331,-88.68581,0.001067912,-0.1257102,0.09433498,0,0.3,0,0,0,0
638224438297795753,-39.79277,-0.4675641,33.7368,-68.771,5.981505,-86.93581,-56.80307,-0.4675641,5.229787,-69.28372,-8.374548,-36.83611,0,0,0,-132.7421,-88.63174,-8.987182,-121.7539,-110.5331,-88.68581,0.001067912,-0.1257102,0.09433498,0,0.3,0,0,0,0
638224438298125651,-39.03886,-1.846878,32.0091,-66.5004,7.88588,-86.2766,-56.80307,-0.4675641,5.229787,-69.35696,-8.374548,-36.83611,0,0,0,-128.4658,-94.02366,-9.927732,-121.7539,-110.5331,-88.68581,0.001067912,-0.1257102,0.09433498,0,0.3,0,0,0,0
638224438298475538,-37.50746,-1.239045,26.75597,-62.32543,11.10867,-85.69064,-56.80307,-0.4675641,5.229787,-69.35696,-8.374548,-36.83611,0,0,0,-117.7251,-98.60602,-14.96899,-121.7539,-110.5331,-88.68581,0.001067912,-0.1257102,0.09433498,0,0.3,0,0,0,0
638224438298885406,-35.66978,-1.192288,22.83363,-58.66317,13.67225,-85.83713,-56.80307,-0.4675641,5.229787,-69.35696,-8.374548,-36.90935,0,0,0,-107.9158,-102.3248,-18.00201,-121.7539,-110.5331,-88.68581,0.001067912,-0.1257102,0.09433498,0,0.3,0,0,0,0
638224438299215306,-34.20906,-1.122154,20.24208,-56.83204,15.2104,-87.44852,-56.80307,-0.4675641,5.229787,-69.35696,-8.374548,-36.90935,0,0,0,-100.896,-104.3757,-19.93656,-121.7539,-110.5331,-88.68581,0.001067912,-0.1257102,0.09433498,0,0.3,0,0,0,0
638224438299555196,-32.93682,-0.8649935,18.14083,-55.73336,16.08934,-89.13316,-56.80307,-0.4675641,5.229787,-69.28372,-8.374548,-36.90935,0,0,0,-95.07047,-105.3848,-21.60034,-121.7539,-110.5331,-88.68581,0.001067912,-0.1257102,0.09433498,0,0.3,0,0,0,0
638224438299895086,-29.89759,0.3272949,13.30794,-52.95005,17.77398,-91.84323,-56.80307,-0.4675641,5.229787,-69.28372,-8.374548,-36.83611,0,0,0,-81.76742,-105.6574,-26.13827,-121.7539,-110.5331,-88.68581,0.001067912,-0.1257102,0.09433498,0,0.3,0,0,0,0
638224438300234979,-25.82172,2.220929,8.241585,-48.3356,19.45862,-93.23489,-56.80307,-0.4675641,5.229787,-69.28372,-8.447793,-36.90935,0,0,0,-66.36606,-103.4551,-31.1979,-121.7539,-110.5331,-88.68581,0.001067912,-0.1257102,0.09433498,0,0.3,0,0,0,0
638224438300574872,-23.772,3.109301,6.210372,-45.62553,20.26431,-93.45463,-56.80307,-0.4675641,5.229787,-69.28372,-8.374548,-36.83611,0,0,0,-59.48898,-101.9844,-33.29171,-121.7539,-110.5331,-88.68581,0.001067912,-0.1257102,0.09433498,0,0.3,0,0,0,0
638224438300914762,-19.27205,4.932801,2.73163,-39.54618,21.58273,-93.7476,-56.80307,-0.4675641,5.229787,-69.35696,-8.374548,-36.83611,0,0,0,-45.94723,-98.38207,-36.93983,-121.7539,-110.5331,-88.68581,0.001067912,-0.1257102,0.09433498,0,0.3,0,0,0,0
638224438301254667,-14.98414,7.013461,0.2568199,-33.54007,22.75465,-94.26032,-56.80307,-0.4675641,5.229787,-69.35696,-8.374548,-36.83611,0,0,0,-34.37441,-93.71629,-39.92071,-121.7539,-110.5331,-88.68581,0.001067912,-0.1257102,0.09433498,0,0.3,0,0,0,0
638224438301594543,-10.5313,9.538307,-1.634309,-27.82695,23.78008,-94.69979,-56.80307,-0.4675641,5.229787,-69.28372,-8.374548,-36.83611,0,0,0,-23.34067,-87.84873,-42.79786,-121.7539,-110.5331,-88.68581,0.001067912,-0.1257102,0.09433498,0,0.3,0,0,0,0
638224438301934438,-7.209348,11.6891,-2.544852,-23.43224,24.21955,-95.06602,-56.80307,-0.4675641,5.229787,-69.28372,-8.374548,-36.83611,0,0,0,-15.64467,-82.85164,-44.67199,-121.7539,-110.5331,-88.68581,0.001067912,-0.1257102,0.09433498,0,0.3,0,0,0,0
638224438302274327,-3.557554,14.28408,-3.058492,-18.89104,24.07306,-95.359,-56.80307,-0.4675641,5.229787,-69.35696,-8.374548,-36.90935,0,0,0,-7.577217,-76.90864,-46.47286,-121.7539,-110.5331,-88.68581,0.001067912,-0.1257102,0.09433498,0,0.3,0,0,0,0
638224438302614218,1.342918,17.76744,-3.058492,-12.81169,23.12087,-95.43224,-56.80307,-0.4675641,5.229787,-69.35696,-8.374548,-36.90935,0,0,0,2.809405,-69.11776,-48.50827,-121.7539,-110.5331,-88.68581,0.001067912,-0.1257102,0.09433498,0,0.3,0,0,0,0
638224438302954111,3.910954,19.59093,-2.684936,-9.515661,22.31518,-95.94496,-56.80307,-0.4675641,5.229787,-69.28372,-8.374548,-36.90935,0,0,0,8.142695,-65.14102,-49.2442,-121.7539,-110.5331,-88.68581,0.001067912,-0.1257102,0.09433498,0,0.3,0,0,0,0
638224438303393972,11.14386,24.28995,-0.6770707,-0.5065048,19.45862,-100.9256,-56.80307,-0.4675641,5.229787,-69.28372,-8.374548,-36.90935,0,0,0,23.18687,-55.13656,-50.64255,-121.7539,-110.5331,-88.68581,0.001067912,-0.1257102,0.09433498,0,0.3,0,0,0,0
638224438303733864,13.40562,25.69264,0.2568199,1.983831,18.43318,-103.0497,-56.80307,-0.4675641,5.229787,-69.28372,-8.374548,-36.90935,0,0,0,27.99827,-52.18565,-50.87667,-121.7539,-110.5331,-88.68581,0.001067912,-0.1257102,0.09433498,0,0.3,0,0,0,0
638224438304073751,18.56525,28.56816,2.73163,7.184238,15.94285,-107.9572,-56.80307,-0.4675641,5.229787,-69.35696,-8.374548,-36.90935,0,0,0,39.31081,-46.07998,-51.30549,-121.7539,-110.5331,-88.68581,0.001067912,-0.1257102,0.09433498,0,0.3,0,0,0,0
638224438304423640,23.58352,31.18653,5.72008,12.3114,13.23278,-113.597,-56.80307,-0.4675641,5.229787,-69.35696,-8.374548,-36.90935,0,0,0,50.95883,-40.28394,-51.61835,-121.7539,-110.5331,-88.68581,0.001067912,-0.1257102,0.09433498,0,0.3,0,0,0,0
638224438304763533,26.0102,32.54246,7.587861,14.94823,11.69463,-115.8676,-56.80307,-0.4675641,5.229787,-69.35696,-8.374548,-36.83611,0,0,0,57.01847,-37.1001,-51.49759,-121.7539,-110.5331,-88.68581,0.001067912,-0.1257102,0.09433498,0,0.3,0,0,0,0
638224438305103425,30.08607,35.1842,11.13665,20.29512,8.178861,-118.9439,-56.80307,-0.4675641,5.229787,-69.35696,-8.374548,-36.90935,0,0,0,67.5472,-30.65174,-51.75964,-121.7539,-110.5331,-88.68581,0.001067912,-0.1257102,0.09433498,0,0.3,0,0,0,0
638224438305443316,33.40803,37.31161,14.49865,25.49553,4.370111,-122.24,-56.80307,-0.4675641,5.229787,-69.28372,-8.374548,-36.90935,0,0,0,76.77817,-24.92322,-51.94527,-121.7539,-110.5331,-88.68581,0.001067912,-0.1257102,0.09433498,0,0.3,0,0,0,0
638224438305773214,34.82162,37.94283,15.89949,27.91262,2.612227,-123.2654,-56.80307,-0.4675641,5.229787,-69.28372,-8.374548,-36.83611,0,0,0,80.91084,-22.90498,-52.02826,-121.7539,-110.5331,-88.68581,0.001067912,-0.1257102,0.09433498,0,0.3,0,0,0,0
638224438306113101,37.31898,38.48052,18.00074,32.23409,-0.5373149,-125.0233,-56.80307,-0.4675641,5.229787,-69.28372,-8.374548,-36.90935,0,0,0,88.2691,-20.49601,-52.55983,-121.7539,-110.5331,-88.68581,0.001067912,-0.1257102,0.09433498,0,0.3,0,0,0,0
638224438306452991,39.39226,38.41039,19.49497,35.60336,-2.88116,-126.9277,-56.80307,-0.4675641,5.229787,-69.28372,-8.374548,-36.83611,0,0,0,94.55459,-19.50615,-53.20563,-121.7539,-110.5331,-88.68581,0.001067912,-0.1257102,0.09433498,0,0.3,0,0,0,0
638224438306802894,41.55977,38.27012,20.91915,38.45993,-4.712289,-127.1474,-56.80307,-0.4675641,5.229787,-69.28372,-8.374548,-36.83611,0,0,0,101.0397,-18.61732,-54.38514,-121.7539,-110.5331,-88.68581,0.001067912,-0.1257102,0.09433498,0,0.3,0,0,0,0
638224438307132778,42.83201,38.01296,21.783,39.92483,-5.444741,-127.1474,-56.80307,-0.4675641,5.229787,-69.35696,-8.374548,-36.90935,0,0,0,105.0695,-18.35605,-55.01233,-121.7539,-110.5331,-88.68581,0.001067912,-0.1257102,0.09433498,0,0.3,0,0,0,0
638224438307472667,45.6592,36.79729,23.97764,42.92788,-6.616664,-128.3193,-56.80307,-0.4675641,5.229787,-69.35696,-8.374548,-36.83611,0,0,0,115.1265,-18.61769,-55.84263,-121.7539,-110.5331,-88.68581,0.001067912,-0.1257102,0.09433498,0,0.3,0,0,0,0
638224438307912527,48.41572,34.43609,26.38241,46.5169,-6.98289,-132.7873,-56.80307,-0.4675641,5.229787,-69.35696,-8.374548,-36.83611,0,0,0,126.5858,-20.70371,-56.02396,-121.7539,-110.5331,-88.68581,0.001067912,-0.1257102,0.09433498,0,0.3,0,0,0,0
638224438308252421,50.44188,31.37355,28.08676,50.10591,-6.470173,-137.9877,-56.80307,-0.4675641,5.229787,-69.35696,-8.374548,-36.90935,0,0,0,136.1821,-24.87205,-55.85792,-121.7539,-110.5331,-88.68581,0.001067912,-0.1257102,0.09433498,0,0.3,0,0,0,0
638224438308592312,51.64344,28.03047,29.13739,52.96247,-5.225006,-141.064,-56.80307,-0.4675641,5.229787,-69.28372,-8.374548,-36.90935,0,0,0,143.2171,-30.45855,-55.01422,-121.7539,-110.5331,-88.68581,0.001067912,-0.1257102,0.09433498,0,0.3,0,0,0,0
638224438308932203,52.02039,26.20697,29.60433,53.9879,-4.492554,-141.5767,-56.80307,-0.4675641,5.229787,-69.28372,-8.374548,-36.83611,0,0,0,146.231,-33.70282,-54.18566,-121.7539,-110.5331,-88.68581,0.001067912,-0.1257102,0.09433498,0,0.3,0,0,0,0
638224438309282090,52.20887,22.23267,30.18801,55.59929,-2.58818,-141.7964,-56.80307,-0.4675641,5.229787,-69.28372,-8.374548,-36.90935,0,0,0,150.5345,-41.45961,-51.62084,-121.7539,-110.5331,-88.68581,0.001067912,-0.1257102,0.09433498,0,0.3,0,0,0,0
638224438309621982,52.20887,18.46878,30.46818,56.47824,-0.5373149,-141.8697,-56.80307,-0.4675641,5.229787,-69.28372,-8.374548,-36.90935,0,0,0,153.3863,-49.34215,-49.40946,-121.7539,-110.5331,-88.68581,0.001067912,-0.1257102,0.09433498,0,0.3,0,0,0,0
638224438309961873,52.18531,16.36474,30.63161,56.84446,0.6346079,-140.6245,-56.80307,-0.4675641,5.229787,-69.28372,-8.374548,-36.83611,0,0,0,154.754,-53.82097,-48.24695,-121.7539,-110.5331,-88.68581,0.001067912,-0.1257102,0.09433498,0,0.3,0,0,0,0
638224438310291769,51.87903,11.82937,31.00517,57.21069,3.051698,-138.2807,-56.80307,-0.4675641,5.229787,-69.35696,-8.374548,-36.90935,0,0,0,156.7192,-63.61061,-45.37379,-121.7539,-110.5331,-88.68581,0.001067912,-0.1257102,0.09433498,0,0.3,0,0,0,0
638224438310631663,51.21936,7.784942,30.95848,57.28393,5.468789,-136.1566,-56.80307,-0.4675641,5.229787,-69.35696,-8.374548,-36.83611,0,0,0,156.47,-72.94006,-42.63191,-121.7539,-110.5331,-88.68581,0.001067912,-0.1257102,0.09433498,0,0.3,0,0,0,0
638224438310971550,50.88952,5.704282,30.91178,57.0642,6.713957,-133.593,-56.80307,-0.4675641,5.229787,-69.35696,-8.374548,-36.90935,0,0,0,156.1126,-77.80467,-41.43329,-121.7539,-110.5331,-88.68581,0.001067912,-0.1257102,0.09433498,0,0.3,0,0,0,0
638224438311311444,50.18272,1.519583,30.56157,56.69797,9.057802,-127.2206,-56.80307,-0.4675641,5.229787,-69.28372,-8.374548,-36.90935,0,0,0,154.4682,-87.93919,-39.573,-121.7539,-110.5331,-88.68581,0.001067912,-0.1257102,0.09433498,0,0.3,0,0,0,0
638224438311651338,49.00472,-1.917013,29.58099,56.2585,11.3284,-122.8259,-56.80307,-0.4675641,5.229787,-69.28372,-8.374548,-36.83611,0,0,0,150.2765,-97.07982,-37.73838,-121.7539,-110.5331,-88.68581,0.001067912,-0.1257102,0.09433498,0,0.3,0,0,0,0
638224438311981230,48.58064,-1.776743,27.45638,55.89228,12.35384,-120.3356,-56.80307,-0.4675641,5.229787,-69.28372,-8.374548,-36.90935,0,0,0,146.0556,-99.11426,-39.49692,-121.7539,-110.5331,-88.68581,0.001067912,-0.1257102,0.09433498,0,0.3,0,0,0,0
638224438312421087,46.41312,-1.800122,24.3045,55.01333,13.89198,-109.8615,-56.80307,-0.4675641,5.229787,-69.35696,-8.374548,-36.90935,0,0,0,136.2965,-102.3702,-38.61607,-121.7539,-110.5331,-88.68581,0.001067912,-0.1257102,0.09433498,0,0.3,0,0,0,0
638224438312760980,45.70633,-1.753365,23.81421,54.86684,14.03847,-107.0782,-56.80307,-0.4675641,5.229787,-69.35696,-8.374548,-36.90935,0,0,0,133.9424,-102.7267,-37.66992,-121.7539,-110.5331,-88.68581,0.001067912,-0.1257102,0.09433498,0,0.3,0,0,0,0
638224438313100873,43.56237,-1.800122,23.11379,54.57386,14.4047,-101.0721,-56.80307,-0.4675641,5.229787,-69.28372,-8.374548,-36.83611,0,0,0,127.927,-103.4845,-33.83657,-121.7539,-110.5331,-88.68581,0.001067912,-0.1257102,0.09433498,0,0.3,0,0,0,0
638224438313430766,41.08857,-1.776743,21.59622,53.76817,14.69768,-97.92258,-56.80307,-0.4675641,5.229787,-69.35696,-8.374548,-36.90935,0,0,0,119.8562,-104.7735,-30.90091,-121.7539,-110.5331,-88.68581,0.001067912,-0.1257102,0.09433498,0,0.3,0,0,0,0
638224438313770658,39.83989,-1.776743,20.4989,53.03571,14.91741,-97.40987,-56.80307,-0.4675641,5.229787,-69.35696,-8.374548,-36.83611,0,0,0,115.3055,-105.6907,-30.15178,-121.7539,-110.5331,-88.68581,0.001067912,-0.1257102,0.09433498,0,0.3,0,0,0,0
638224438314110549,37.31898,-1.753365,18.7712,50.9116,15.43013,-97.11688,-56.80307,-0.4675641,5.229787,-69.35696,-8.374548,-36.90935,0,0,0,106.8205,-106.9874,-28.22435,-121.7539,-110.5331,-88.68581,0.001067912,-0.1257102,0.09433498,0,0.3,0,0,0,0
638224438314450440,34.82162,-1.729987,17.30033,48.42127,16.01609,-97.04363,-56.80307,-0.4675641,5.229787,-69.28372,-8.374548,-36.83611,0,0,0,98.75558,-107.9929,-26.37371,-121.7539,-110.5331,-88.68581,0.001067912,-0.1257102,0.09433498,0,0.3,0,0,0,0
638224438314790334,32.55987,-1.729987,15.61932,45.85769,16.52881,-97.04363,-56.80307,-0.4675641,5.229787,-69.28372,-8.374548,-36.90935,0,0,0,91.05637,-109.1014,-25.74915,-121.7539,-110.5331,-88.68581,0.001067912,-0.1257102,0.09433498,0,0.3,0,0,0,0
638224438315130221,31.40543,-1.729987,14.63874,44.39278,16.6753,-97.11688,-56.80307,-0.4675641,5.229787,-69.28372,-8.374548,-36.90935,0,0,0,87.01685,-109.697,-25.82388,-121.7539,-110.5331,-88.68581,0.001067912,-0.1257102,0.09433498,0,0.3,0,0,0,0
638224438315470123,28.62535,-1.659852,11.90711,41.02351,17.18801,-97.99583,-56.80307,-0.4675641,5.229787,-69.28372,-8.374548,-36.90935,0,0,0,77.03973,-110.9934,-27.19778,-121.7539,-110.5331,-88.68581,0.001067912,-0.1257102,0.09433498,0,0.3,0,0,0,0
638224438315820006,26.03376,-1.56634,9.525684,37.72747,17.62749,-98.80152,-56.80307,-0.4675641,5.229787,-69.28372,-8.374548,-36.90935,0,0,0,68.19121,-111.8063,-28.74611,-121.7539,-110.5331,-88.68581,0.001067912,-0.1257102,0.09433498,0,0.3,0,0,0,0
638224438316159895,24.54948,-1.472827,8.218237,35.74985,17.99371,-99.53397,-56.80307,-0.4675641,5.229787,-69.28372,-8.374548,-36.83611,0,0,0,63.30549,-112.0581,-29.75607,-121.7539,-110.5331,-88.68581,0.001067912,-0.1257102,0.09433498,0,0.3,0,0,0,0
638224438316499792,21.93432,-1.005263,5.766775,31.35514,18.72616,-101.5116,-56.80307,-0.4675641,5.229787,-69.28372,-8.374548,-36.90935,0,0,0,54.80944,-111.6647,-32.24288,-121.7539,-110.5331,-88.68581,0.001067912,-0.1257102,0.09433498,0,0.3,0,0,0,0
638224438316939649,19.43697,-0.0233782,3.385354,26.7407,19.7516,-104.9541,-56.80307,-0.4675641,5.229787,-69.28372,-8.374548,-36.83611,0,0,0,46.99521,-109.8217,-35.17418,-121.7539,-110.5331,-88.68581,0.001067912,-0.1257102,0.09433498,0,0.3,0,0,0,0
638224438317279542,17.38725,1.636474,1.400836,22.56572,20.48405,-108.9826,-56.80307,-0.4675641,5.229787,-69.28372,-8.374548,-36.90935,0,0,0,40.80669,-106.1519,-38.03407,-121.7539,-110.5331,-88.68581,0.001067912,-0.1257102,0.09433498,0,0.3,0,0,0,0
638224438317609434,15.78517,3.763891,0.02334727,18.83022,20.70378,-110.8137,-56.80307,-0.4675641,5.229787,-69.35696,-8.374548,-36.83611,0,0,0,36.2119,-101.2462,-40.25333,-121.7539,-110.5331,-88.68581,0.001067912,-0.1257102,0.09433498,0,0.3,0,0,0,0
638224438317949328,15.03126,4.932801,-0.4669453,17.14558,20.55729,-111.5462,-56.80307,-0.4675641,5.229787,-69.28372,-8.374548,-36.90935,0,0,0,34.17384,-98.52917,-41.08921,-121.7539,-110.5331,-88.68581,0.001067912,-0.1257102,0.09433498,0,0.3,0,0,0,0
638224438318289219,13.38206,7.574538,-1.120669,14.14253,19.97133,-113.1576,-56.80307,-0.4675641,5.229787,-69.28372,-8.374548,-36.83611,0,0,0,29.99003,-92.39684,-42.28992,-121.7539,-110.5331,-88.68581,0.001067912,-0.1257102,0.09433498,0,0.3,0,0,0,0
638224438318629109,11.63862,10.35654,-1.354141,11.5057,19.01915,-114.5492,-56.80307,-0.4675641,5.229787,-69.28372,-8.374548,-36.90935,0,0,0,25.82776,-85.99001,-42.95614,-121.7539,-110.5331,-88.68581,0.001067912,-0.1257102,0.09433498,0,0.3,0,0,0,0
638224438318969003,10.69622,11.94626,-1.354141,10.0408,18.35994,-114.9887,-56.80307,-0.4675641,5.229787,-69.28372,-8.374548,-36.90935,0,0,0,23.62908,-82.36008,-43.25142,-121.7539,-110.5331,-88.68581,0.001067912,-0.1257102,0.09433498,0,0.3,0,0,0,0
638224438319308891,8.528707,15.59326,-1.097321,6.891257,16.52881,-115.7944,-56.80307,-0.4675641,5.229787,-69.28372,-8.374548,-36.90935,0,0,0,18.66984,-74.1302,-43.85391,-121.7539,-110.5331,-88.68581,0.001067912,-0.1257102,0.09433498,0,0.3,0,0,0,0
638224438319648786,6.26695,18.9831,-0.2568199,3.228999,14.25821,-117.2593,-56.80307,-0.4675641,5.229787,-69.35696,-8.374548,-36.83611,0,0,0,13.6997,-66.62134,-43.59999,-121.7539,-110.5331,-88.68581,0.001067912,-0.1257102,0.09433498,0,0.3,0,0,0,0
638224438319988677,4.311473,21.92875,1.073974,-0.4332596,11.76787,-118.358,-56.80307,-0.4675641,5.229787,-69.28372,-8.374548,-36.83611,0,0,0,9.487619,-60.17657,-42.50573,-121.7539,-110.5331,-88.68581,0.001067912,-0.1257102,0.09433498,0,0.3,0,0,0,0
638224438320328570,3.581114,23.1678,1.79774,-2.191144,10.52271,-118.7242,-56.80307,-0.4675641,5.229787,-69.35696,-8.374548,-36.90935,0,0,0,7.918848,-57.4711,-41.81799,-121.7539,-110.5331,-88.68581,0.001067912,-0.1257102,0.09433498,0,0.3,0,0,0,0
638224438320678459,2.120397,25.529,3.362006,-5.413931,7.812634,-119.6031,-56.80307,-0.4675641,5.229787,-69.28372,-8.374548,-36.90935,0,0,0,4.741514,-52.30093,-40.28684,-121.7539,-110.5331,-88.68581,0.001067912,-0.1257102,0.09433498,0,0.3,0,0,0,0
638224438321018348,0.7067988,27.21223,4.622759,-8.197248,5.249053,-121.361,-56.80307,-0.4675641,5.229787,-69.28372,-8.374548,-36.83611,0,0,0,1.595469,-48.58688,-39.02185,-121.7539,-110.5331,-88.68581,0.001067912,-0.1257102,0.09433498,0,0.3,0,0,0,0
638224438321458205,-0.9659585,28.59154,5.953553,-11.27355,2.685472,-122.0935,-56.80307,-0.4675641,5.229787,-69.35696,-8.374548,-36.90935,0,0,0,-2.207093,-45.46447,-37.4488,-121.7539,-110.5331,-88.68581,0.001067912,-0.1257102,0.09433498,0,0.3,0,0,0,0
638224438321798099,-2.096837,29.29289,6.700665,-13.25116,1.147324,-122.0935,-56.80307,-0.4675641,5.229787,-69.28372,-8.374548,-36.90935,0,0,0,-4.824495,-43.84441,-36.58017,-121.7539,-110.5331,-88.68581,0.001067912,-0.1257102,0.09433498,0,0.3,0,0,0,0
638224438322137991,-2.803635,29.59681,7.050874,-14.42309,0.268382,-122.0935,-56.80307,-0.4675641,5.229787,-69.28372,-8.374548,-36.90935,0,0,0,-6.472168,-43.13086,-36.18877,-121.7539,-110.5331,-88.68581,0.001067912,-0.1257102,0.09433498,0,0.3,0,0,0,0
638224438322477881,-4.240793,29.80721,7.447778,-16.76693,-1.050031,-122.1667,-56.80307,-0.4675641,5.229787,-69.28372,-8.374548,-36.83611,0,0,0,-9.834623,-42.58894,-35.72078,-121.7539,-110.5331,-88.68581,0.001067912,-0.1257102,0.09433498,0,0.3,0,0,0,0
638224438322827769,-5.630831,29.80721,7.657903,-18.96429,-2.075463,-122.1667,-56.80307,-0.4675641,5.229787,-69.28372,-8.374548,-36.90935,0,0,0,-13.09666,-42.52467,-35.51592,-121.7539,-110.5331,-88.68581,0.001067912,-0.1257102,0.09433498,0,0.3,0,0,0,0
638224438323167665,-6.29051,29.80721,7.751292,-19.84323,-2.514934,-122.1667,-56.80307,-0.4675641,5.229787,-69.28372,-8.374548,-36.83611,0,0,0,-14.64876,-42.49553,-35.46142,-121.7539,-110.5331,-88.68581,0.001067912,-0.1257102,0.09433498,0,0.3,0,0,0,0
638224438323507552,-8.198866,29.69032,7.961418,-21.7476,-3.320631,-122.1667,-56.80307,-0.4675641,5.229787,-69.28372,-8.374548,-36.83611,0,0,0,-19.15429,-42.66488,-35.40982,-121.7539,-110.5331,-88.68581,0.001067912,-0.1257102,0.09433498,0,0.3,0,0,0,0
638224438323837447,-10.48418,29.08249,7.984766,-23.87171,-3.979838,-122.1667,-56.80307,-0.4675641,5.229787,-69.28372,-8.374548,-36.83611,0,0,0,-24.57624,-43.88998,-35.54385,-121.7539,-110.5331,-88.68581,0.001067912,-0.1257102,0.09433498,0,0.3,0,0,0,0
638224438324187335,-12.6517,28.1006,7.984766,-26.36205,-4.492554,-122.1667,-56.80307,-0.4675641,5.229787,-69.35696,-8.374548,-36.83611,0,0,0,-29.82108,-45.89651,-35.50132,-121.7539,-110.5331,-88.68581,0.001067912,-0.1257102,0.09433498,0,0.3,0,0,0,0
638224438324527229,-14.44226,27.00183,7.984766,-28.48616,-4.639044,-122.1667,-56.80307,-0.4675641,5.229787,-69.35696,-8.374548,-36.90935,0,0,0,-34.25252,-48.16376,-35.35252,-121.7539,-110.5331,-88.68581,0.001067912,-0.1257102,0.09433498,0,0.3,0,0,0,0
638224438324867119,-16.30349,25.50562,7.914723,-30.90325,-4.639044,-123.0457,-56.80307,-0.4675641,5.229787,-69.28372,-8.374548,-36.83611,0,0,0,-38.94116,-51.30927,-35.21175,-121.7539,-110.5331,-88.68581,0.001067912,-0.1257102,0.09433498,0,0.3,0,0,0,0
638224438325207012,-18.63593,23.19118,7.891376,-34.34578,-4.419309,-124.4373,-56.80307,-0.4675641,5.229787,-69.28372,-8.374548,-36.90935,0,0,0,-45.01971,-56.22392,-34.85362,-121.7539,-110.5331,-88.68581,0.001067912,-0.1257102,0.09433498,0,0.3,0,0,0,0
638224438325556899,-19.67257,21.99889,7.914723,-36.10366,-4.126328,-124.8768,-56.80307,-0.4675641,5.229787,-69.28372,-8.374548,-36.90935,0,0,0,-47.80456,-58.77833,-34.63535,-121.7539,-110.5331,-88.68581,0.001067912,-0.1257102,0.09433498,0,0.3,0,0,0,0
638224438325986772,-22.05212,18.21162,7.961418,-40.93784,-3.100896,-125.3163,-56.80307,-0.4675641,5.229787,-69.28372,-8.374548,-36.90935,0,0,0,-54.49285,-67.03916,-33.82793,-121.7539,-110.5331,-88.68581,0.001067912,-0.1257102,0.09433498,0,0.3,0,0,0,0
638224438326316659,-22.97096,16.76217,7.961418,-42.47599,-2.441689,-125.3163,-56.80307,-0.4675641,5.229787,-69.28372,-8.374548,-36.83611,0,0,0,-57.03864,-70.25661,-33.78581,-121.7539,-110.5331,-88.68581,0.001067912,-0.1257102,0.09433498,0,0.3,0,0,0,0
638224438326666548,-24.7144,13.69963,8.311626,-45.40579,-1.269767,-125.6093,-56.80307,-0.4675641,5.229787,-69.35696,-8.374548,-36.83611,0,0,0,-62.22637,-77.01783,-33.14968,-121.7539,-110.5331,-88.68581,0.001067912,-0.1257102,0.09433498,0,0.3,0,0,0,0
638224438327006439,-25.96308,11.05789,8.661836,-48.11587,0.04864649,-125.6825,-56.80307,-0.4675641,5.229787,-69.28372,-8.374548,-36.83611,0,0,0,-66.08776,-82.90244,-32.6281,-121.7539,-110.5331,-88.68581,0.001067912,-0.1257102,0.09433498,0,0.3,0,0,0,0
638224438327346326,-26.55208,9.842223,8.755224,-49.21454,0.707853,-125.6825,-56.80307,-0.4675641,5.229787,-69.35696,-8.374548,-36.83611,0,0,0,-67.80489,-85.65189,-32.66341,-121.7539,-110.5331,-88.68581,0.001067912,-0.1257102,0.09433498,0,0.3,0,0,0,0
638224438327686219,-27.98923,7.481025,9.549031,-51.04567,1.879776,-125.6093,-56.80307,-0.4675641,5.229787,-69.35696,-8.374548,-36.90935,0,0,0,-72.43102,-90.79042,-32.06528,-121.7539,-110.5331,-88.68581,0.001067912,-0.1257102,0.09433498,0,0.3,0,0,0,0
638224438328026115,-29.73267,5.540634,11.04326,-52.73031,2.905208,-123.4852,-56.80307,-0.4675641,5.229787,-69.28372,-8.374548,-36.83611,0,0,0,-78.49471,-94.65557,-30.91627,-121.7539,-110.5331,-88.68581,0.001067912,-0.1257102,0.09433498,0,0.3,0,0,0,0
638224438328395995,-30.55727,4.932801,11.81372,-53.6825,3.271434,-121.2145,-56.80307,-0.4675641,5.229787,-69.35696,-8.374548,-36.83611,0,0,0,-81.42366,-95.70903,-30.43546,-121.7539,-110.5331,-88.68581,0.001067912,-0.1257102,0.09433498,0,0.3,0,0,0,0
638224438328695900,-32.27715,4.348346,13.70484,-55.44038,3.63766,-117.1128,-56.80307,-0.4675641,5.229787,-69.28372,-8.374548,-36.90935,0,0,0,-87.87725,-96.09279,-29.21909,-121.7539,-110.5331,-88.68581,0.001067912,-0.1257102,0.09433498,0,0.3,0,0,0,0
638224438329045787,-33.9499,4.231455,15.94618,-57.5645,3.417924,-114.183,-56.80307,-0.4675641,5.229787,-69.35696,-8.374548,-36.90935,0,0,0,-94.72861,-95.0294,-27.64384,-121.7539,-110.5331,-88.68581,0.001067912,-0.1257102,0.09433498,0,0.3,0,0,0,0
638224438329395676,-35.3635,4.301589,17.83731,-59.6886,3.271434,-110.1545,-56.80307,-0.4675641,5.229787,-69.28372,-8.374548,-36.83611,0,0,0,-100.6012,-93.58778,-26.59915,-121.7539,-110.5331,-88.68581,0.001067912,-0.1257102,0.09433498,0,0.3,0,0,0,0
638224438329725570,-36.04674,4.41848,18.53773,-60.4943,3.198189,-107.5909,-56.80307,-0.4675641,5.229787,-69.28372,-8.374548,-36.83611,0,0,0,-103.1835,-92.8077,-26.57339,-121.7539,-110.5331,-88.68581,0.001067912,-0.1257102,0.09433498,0,0.3,0,0,0,0
638224438330065459,-37.41322,4.699019,19.91522,-61.66622,2.905208,-102.83,-56.80307,-0.4675641,5.229787,-69.28372,-8.374548,-36.83611,0,0,0,-108.3428,-91.10114,-26.71124,-121.7539,-110.5331,-88.68581,0.001067912,-0.1257102,0.09433498,0,0.3,0,0,0,0
638224438330505319,-39.43937,4.81591,21.96978,-62.91139,2.319247,-96.09145,-56.80307,-0.4675641,5.229787,-69.35696,-8.374548,-36.90935,0,0,0,-116.1053,-89.12096,-27.19895,-121.7539,-110.5331,-88.68581,0.001067912,-0.1257102,0.09433498,0,0.3,0,0,0,0
638224438330845215,-40.61737,4.81591,23.09044,-63.57059,2.026266,-91.84323,-56.80307,-0.4675641,5.229787,-69.28372,-8.374548,-36.90935,0,0,0,-120.551,-88.12158,-27.78702,-121.7539,-110.5331,-88.68581,0.001067912,-0.1257102,0.09433498,0,0.3,0,0,0,0
638224438331195104,-42.26657,4.932801,25.05162,-64.44954,1.586795,-85.54414,-56.80307,-0.4675641,5.229787,-69.28372,-8.374548,-36.90935,0,0,0,-127.3337,-85.98892,-28.24791,-121.7539,-110.5331,-88.68581,0.001067912,-0.1257102,0.09433498,0,0.3,0,0,0,0
638224438331524996,-43.09117,5.096448,26.21898,-64.88901,1.293814,-82.32136,-56.80307,-0.4675641,5.229787,-69.28372,-8.374548,-36.90935,0,0,0,-130.9875,-84.43407,-28.3305,-121.7539,-110.5331,-88.68581,0.001067912,-0.1257102,0.09433498,0,0.3,0,0,0,0
638224438331864883,-44.78749,5.564013,28.9973,-65.76794,0.6346079,-74.41088,-56.80307,-0.4675641,5.229787,-69.35696,-8.374548,-36.90935,0,0,0,-139.04,-80.35426,-28.27478,-121.7539,-110.5331,-88.68581,0.001067912,-0.1257102,0.09433498,0,0.3,0,0,0,0
638224438332204775,-46.27176,5.914686,32.0091,-66.64689,-0.61056,-65.54821,-56.80307,-0.4675641,5.229787,-69.28372,-8.374548,-36.83611,0,0,0,-146.9265,-75.9846,-27.80543,-121.7539,-110.5331,-88.68581,0.001067912,-0.1257102,0.09433498,0,0.3,0,0,0,0
638224438332544670,-46.955,6.008198,33.83019,-67.08636,-1.196521,-60.93377,-56.80307,-0.4675641,5.229787,-69.28372,-8.374548,-36.83611,0,0,0,-151.1754,-73.46484,-27.15449,-121.7539,-110.5331,-88.68581,0.001067912,-0.1257102,0.09433498,0,0.3,0,0,0,0
638224438332884565,-48.27436,6.031577,37.77588,-68.33153,-2.514934,-51.70488,-56.80307,-0.4675641,5.229787,-69.28372,-8.374548,-36.83611,0,0,0,-159.9397,-68.03962,-25.72049,-121.7539,-110.5331,-88.68581,0.001067912,-0.1257102,0.09433498,0,0.3,0,0,0,0
638224438333224453,-49.4288,6.148468,41.13788,-70.01617,-3.393876,-43.20844,-56.80307,-0.4675641,5.229787,-69.35696,-8.374548,-36.83611,0,0,0,-167.3474,-62.79723,-25.06181,-121.7539,-110.5331,-88.68581,0.001067912,-0.1257102,0.09433498,0,0.3,0,0,0,0
638224438333564344,-49.87644,6.38225,42.46867,-70.82186,-3.613612,-39.91241,-56.80307,-0.4675641,5.229787,-69.35696,-8.374548,-36.90935,0,0,0,-170.1817,-60.19184,-24.92401,-121.7539,-110.5331,-88.68581,0.001067912,-0.1257102,0.09433498,0,0.3,0,0,0,0
638224438333904235,-50.67748,7.200486,44.82675,-72.43327,-3.833347,-34.34578,-56.80307,-0.4675641,5.229787,-69.28372,-8.374548,-36.83611,0,0,0,-175.0679,-54.51307,-24.9436,-121.7539,-110.5331,-88.68581,0.001067912,-0.1257102,0.09433498,0,0.3,0,0,0,0
638224438334234130,-51.40784,8.275885,46.76458,-74.04465,-3.833347,-29.95106,-56.80307,-0.4675641,5.229787,-69.28372,-8.374548,-36.90935,0,0,0,-179.0759,-48.80009,-25.43565,-121.7539,-110.5331,-88.68581,0.001067912,-0.1257102,0.09433498,0,0.3,0,0,0,0
638224438334574025,-51.73767,8.883718,47.62842,-74.7771,-3.833347,-28.26642,-56.80307,-0.4675641,5.229787,-69.28372,-8.374548,-36.90935,0,0,0,-180.8026,-45.92617,-25.75363,-121.7539,-110.5331,-88.68581,0.001067912,-0.1257102,0.09433498,0,0.3,0,0,0,0
638224438335033873,-52.77431,10.6137,50.07989,-77.04771,-3.467122,-24.45767,-56.80307,-0.4675641,5.229787,-69.35696,-8.447793,-36.90935,0,0,0,-185.799,-37.66196,-27.18953,-121.7539,-110.5331,-88.68581,0.001067912,-0.1257102,0.09433498,0,0.3,0,0,0,0
638224438335363770,-53.10415,10.941,50.64022,-77.56042,-3.320631,-23.79847,-56.80307,-0.4675641,5.229787,-69.28372,-8.374548,-36.90935,0,0,0,-187.16,-35.90939,-27.8475,-121.7539,-110.5331,-88.68581,0.001067912,-0.1257102,0.09433498,0,0.3,0,0,0,0
638224438335703663,-54.23503,11.22154,52.04106,-78.73235,-2.88116,-22.77304,-56.80307,-0.4675641,5.229787,-69.28372,-8.374548,-36.90935,0,0,0,-191.4473,-32.72282,-30.45172,-121.7539,-110.5331,-88.68581,0.001067912,-0.1257102,0.09433498,0,0.3,0,0,0,0
638224438336043553,-55.31879,11.19816,53.90884,-79.90427,-2.221954,-22.26032,-56.80307,-0.4675641,5.229787,-69.28372,-8.447793,-36.83611,0,0,0,-196.1824,-29.30577,-32.60201,-121.7539,-110.5331,-88.68581,0.001067912,-0.1257102,0.09433498,0,0.3,0,0,0,0
638224438336383444,-55.78999,11.1514,55.12289,-80.63672,-2.075463,-21.67436,-56.80307,-0.4675641,5.229787,-69.28372,-8.374548,-36.90935,0,0,0,-198.666,-27.11176,-33.28598,-121.7539,-110.5331,-88.68581,0.001067912,-0.1257102,0.09433498,0,0.3,0,0,0,0
638224438336713341,-56.59103,10.87086,56.87394,-82.24812,-1.782483,-20.06297,-56.80307,-0.4675641,5.229787,-69.35696,-8.374548,-36.83611,0,0,0,-202.5413,-24.37421,-34.75312,-121.7539,-110.5331,-88.68581,0.001067912,-0.1257102,0.09433498,0,0.3,0,0,0,0
638224438337053232,-57.20359,10.941,58.55495,-83.42004,-1.123276,-19.11078,-56.80307,-0.4675641,5.229787,-69.28372,-8.374548,-36.83611,0,0,0,-205.6886,-20.90655,-35.81096,-121.7539,-110.5331,-88.68581,0.001067912,-0.1257102,0.09433498,0,0.3,0,0,0,0
638224438337403116,-57.36851,11.17478,61.14649,-84.51871,-0.2443342,-18.30508,-56.80307,-0.4675641,5.229787,-69.28372,-8.374548,-36.90935,0,0,0,-208.5323,-15.15739,-34.82644,-121.7539,-110.5331,-88.68581,0.001067912,-0.1257102,0.09433498,0,0.3,0,0,0,0
638224438337733013,-57.36851,11.43194,62.40724,-85.10468,0.1951368,-17.49938,-56.80307,-0.4675641,5.229787,-69.28372,-8.374548,-36.90935,0,0,0,-209.6021,-11.98512,-34.14145,-121.7539,-110.5331,-88.68581,0.001067912,-0.1257102,0.09433498,0,0.3,0,0,0,0
638224438338072906,-57.34494,12.08653,66.21284,-86.1301,0.9275885,-14.9358,-56.80307,-0.4675641,5.229787,-69.28372,-8.374548,-36.83611,0,0,0,-212.5176,-2.513427,-32.15142,-121.7539,-110.5331,-88.68581,0.001067912,-0.1257102,0.09433498,0,0.3,0,0,0,0
638224438338412796,-57.32139,12.5541,69.10791,-87.15554,1.220569,-12.44547,-56.80307,-0.4675641,5.229787,-69.28372,-8.374548,-36.90935,0,0,0,-214.4216,4.781304,-30.80677,-121.7539,-110.5331,-88.68581,0.001067912,-0.1257102,0.09433498,0,0.3,0,0,0,0
638224438338742694,-57.27427,12.85801,70.67217,-87.81474,1.293814,-11.12705,-56.80307,-0.4675641,5.229787,-69.28372,-8.374548,-36.90935,0,0,0,-215.2305,8.889924,-30.03789,-121.7539,-110.5331,-88.68581,0.001067912,-0.1257102,0.09433498,0,0.3,0,0,0,0
638224438339092582,-57.01511,13.98017,73.14698,-88.91342,1.586795,-8.490229,-56.80307,-0.4675641,5.229787,-69.28372,-8.374548,-36.83611,0,0,0,-215.5945,16.90499,-28.42211,-121.7539,-110.5331,-88.68581,0.001067912,-0.1257102,0.09433498,0,0.3,0,0,0,0
638224438339422474,-56.49679,15.96731,75.15485,-90.0121,1.66004,-6.439363,-56.80307,-0.4675641,5.229787,-69.28372,-8.374548,-36.83611,0,0,0,-214.3876,25.86782,-26.43265,-121.7539,-110.5331,-88.68581,0.001067912,-0.1257102,0.09433498,0,0.3,0,0,0,0
638224438339772364,-56.14339,17.08947,76.11208,-90.89104,1.733285,-5.487176,-56.80307,-0.4675641,5.229787,-69.35696,-8.374548,-36.83611,0,0,0,-213.3502,30.52974,-25.21899,-121.7539,-110.5331,-88.68581,0.001067912,-0.1257102,0.09433498,0,0.3,0,0,0,0
638224438340112256,-55.31879,19.33377,77.67635,-91.98972,1.733285,-3.875783,-56.80307,-0.4675641,5.229787,-69.35696,-8.374548,-36.83611,0,0,0,-210.6048,39.0369,-22.6225,-121.7539,-110.5331,-88.68581,0.001067912,-0.1257102,0.09433498,0,0.3,0,0,0,0
638224438340462143,-54.30571,21.85862,79.05384,-92.79542,1.806531,-2.191144,-56.80307,-0.4675641,5.229787,-69.28372,-8.374548,-36.90935,0,0,0,-206.8417,47.67719,-19.75043,-121.7539,-110.5331,-88.68581,0.001067912,-0.1257102,0.09433498,0,0.3,0,0,0,0
638224438340802034,-53.00991,25.24846,80.01108,-93.7476,1.586795,-0.57975,-56.80307,-0.4675641,5.229787,-69.28372,-8.374548,-36.90935,0,0,0,-201.2338,57.09911,-16.76401,-121.7539,-110.5331,-88.68581,0.001067912,-0.1257102,0.09433498,0,0.3,0,0,0,0
638224438341141929,-52.11464,27.93695,80.05778,-94.33356,1.147324,0.006211365,-56.80307,-0.4675641,5.229787,-69.28372,-8.374548,-36.90935,0,0,0,-196.6451,62.80088,-15.34659,-121.7539,-110.5331,-88.68581,0.001067912,-0.1257102,0.09433498,0,0.3,0,0,0,0
638224438341481821,-50.79528,31.86449,80.05778,-94.91953,0.268382,0.5921727,-56.80307,-0.4675641,5.229787,-69.35696,-8.374548,-36.83611,0,0,0,-189.5398,70.72353,-13.73911,-121.7539,-110.5331,-88.68581,0.001067912,-0.1257102,0.09433498,0,0.3,0,0,0,0
638224438341821709,-48.9576,37.0077,79.91769,-95.57873,-1.489502,0.8851534,-56.80307,-0.4675641,5.229787,-69.28372,-8.374548,-36.90935,0,0,0,-179.3378,80.27172,-12.22085,-121.7539,-110.5331,-88.68581,0.001067912,-0.1257102,0.09433498,0,0.3,0,0,0,0
638224438342161603,-48.0152,39.67281,79.73091,-95.72523,-2.441689,1.031644,-56.80307,-0.4675641,5.229787,-69.28372,-8.374548,-36.90935,0,0,0,-173.8287,84.7085,-11.91741,-121.7539,-110.5331,-88.68581,0.001067912,-0.1257102,0.09433498,0,0.3,0,0,0,0
638224438342551479,-46.10685,45.4706,78.89041,-96.0182,-4.932025,1.104889,-56.80307,-0.4675641,5.229787,-69.28372,-8.374548,-36.90935,0,0,0,-161.6858,92.71928,-12.79344,-121.7539,-110.5331,-88.68581,0.001067912,-0.1257102,0.09433498,0,0.3,0,0,0,0
638224438342891370,-44.15137,51.50218,77.62965,-95.359,-7.861832,1.104889,-56.80307,-0.4675641,5.229787,-69.28372,-8.374548,-36.83611,0,0,0,-148.5493,99.14642,-15.33377,-121.7539,-110.5331,-88.68581,0.001067912,-0.1257102,0.09433498,0,0.3,0,0,0,0
638224438343231264,-42.07809,57.69741,76.11208,-93.89409,-11.08462,-0.57975,-56.80307,-0.4675641,5.229787,-69.28372,-8.374548,-36.83611,0,0,0,-134.5062,104.0553,-19.37452,-121.7539,-110.5331,-88.68581,0.001067912,-0.1257102,0.09433498,0,0.3,0,0,0,0
638224438343571150,-40.80585,61.13401,75.24824,-92.86866,-12.91575,-2.337634,-56.80307,-0.4675641,5.229787,-69.28372,-8.374548,-36.83611,0,0,0,-126.3414,106.1763,-22.01233,-121.7539,-110.5331,-88.68581,0.001067912,-0.1257102,0.09433498,0,0.3,0,0,0,0
638224438343911045,-38.23782,67.58639,74.08087,-90.15859,-16.43152,-6.659099,-56.80307,-0.4675641,5.229787,-69.28372,-8.374548,-36.90935,0,0,0,-110.8381,110.0509,-27.69106,-121.7539,-110.5331,-88.68581,0.001067912,-0.1257102,0.09433498,0,0.3,0,0,0,0
638224438344250949,-34.91586,74.08553,74.03418,-87.59501,-20.46,-12.006,-56.80307,-0.4675641,5.229787,-69.28372,-8.374548,-36.90935,0,0,0,-94.31046,114.9092,-33.23885,-121.7539,-110.5331,-88.68581,0.001067912,-0.1257102,0.09433498,0,0.3,0,0,0,0
638224438344590827,-30.93423,80.23399,74.15092,-85.4709,-24.56173,-16.69369,-56.80307,-0.4675641,5.229787,-69.28372,-8.374548,-36.83611,0,0,0,-77.57076,118.3491,-38.91425,-121.7539,-110.5331,-88.68581,0.001067912,-0.1257102,0.09433498,0,0.3,0,0,0,0
638224438344920723,-28.34263,83.5537,74.36105,-84.29898,-26.97882,-19.11078,-56.80307,-0.4675641,5.229787,-69.28372,-8.374548,-36.90935,0,0,0,-68.07095,119.9091,-42.15356,-121.7539,-110.5331,-88.68581,0.001067912,-0.1257102,0.09433498,0,0.3,0,0,0,0
638224438345270608,-22.61756,89.11771,74.78129,-81.51566,-32.10598,-23.21251,-56.80307,-0.4675641,5.229787,-69.28372,-8.374548,-36.90935,0,0,0,-50.27472,121.6792,-47.67701,-121.7539,-110.5331,-88.68581,0.001067912,-0.1257102,0.09433498,0,0.3,0,0,0,0
638224438345600504,-15.45534,94.00376,74.92138,-77.26745,-38.33182,-27.82695,-56.80307,-0.4675641,5.229787,-69.28372,-8.374548,-36.90935,0,0,0,-31.83134,121.6843,-53.22144,-121.7539,-110.5331,-88.68581,0.001067912,-0.1257102,0.09433498,0,0.3,0,0,0,0
638224438345940393,-11.07318,96.15455,74.87468,-73.89817,-41.92084,-31.6357,-56.80307,-0.4675641,5.229787,-69.28372,-8.374548,-36.83611,0,0,0,-21.97847,121.1362,-56.04659,-121.7539,-110.5331,-88.68581,0.001067912,-0.1257102,0.09433498,0,0.3,0,0,0,0
638224438346270293,-2.002597,98.91319,74.85133,-62.83814,-49.17211,-45.18605,-56.80307,-0.4675641,5.229787,-69.35696,-8.374548,-36.83611,0,0,0,-3.77597,120.2421,-60.3607,-121.7539,-110.5331,-88.68581,0.001067912,-0.1257102,0.09433498,0,0.3,0,0,0,0
638224438346620179,7.539187,99.52101,73.8941,-38.22777,-55.03172,-106.1993,-56.80307,-0.4675641,5.229787,-69.35696,-8.374548,-36.90935,0,0,0,13.91536,117.87,-63.20808,-121.7539,-110.5331,-88.68581,0.001067912,-0.1257102,0.09433498,0,0.3,0,0,0,0
638224438346960070,12.5339,98.95994,72.75008,-21.01515,-55.98391,-137.2552,-56.80307,-0.4675641,5.229787,-69.28372,-8.374548,-36.90935,0,0,0,23.13046,115.5292,-64.30659,-121.7539,-110.5331,-88.68581,0.001067912,-0.1257102,0.09433498,0,0.3,0,0,0,0
638224438347289980,20.35581,96.76238,69.92506,6.012315,-53.56682,-141.7232,-56.80307,-0.4675641,5.229787,-69.28372,-8.374548,-36.90935,0,0,0,38.10547,110,-65.64507,-121.7539,-110.5331,-88.68581,0.001067912,-0.1257102,0.09433498,0,0.3,0,0,0,0
638224438347629858,27.306,93.957,67.14674,22.78546,-48.07343,-141.8697,-56.80307,-0.4675641,5.229787,-69.28372,-8.374548,-36.83611,0,0,0,52.14993,104.5927,-67.3373,-121.7539,-110.5331,-88.68581,0.001067912,-0.1257102,0.09433498,0,0.3,0,0,0,0
638224438347969748,30.29811,92.2504,65.53577,28.57183,-44.99713,-141.8697,-56.80307,-0.4675641,5.229787,-69.28372,-8.374548,-36.90935,0,0,0,58.59336,101.3736,-68.07189,-121.7539,-110.5331,-88.68581,0.001067912,-0.1257102,0.09433498,0,0.3,0,0,0,0
638224438348309642,35.3635,88.29947,61.68347,36.04284,-38.47831,-141.8697,-56.80307,-0.4675641,5.229787,-69.28372,-8.374548,-36.83611,0,0,0,70.23312,93.38775,-69.38896,-121.7539,-110.5331,-88.68581,0.001067912,-0.1257102,0.09433498,0,0.3,0,0,0,0
638224438348649535,38.94461,83.7641,57.22415,39.77834,-31.88625,-141.8697,-56.80307,-0.4675641,5.229787,-69.35696,-8.374548,-36.90935,0,0,0,79.57981,83.72144,-69.88264,-121.7539,-110.5331,-88.68581,0.001067912,-0.1257102,0.09433498,0,0.3,0,0,0,0
638224438349009420,41.39485,78.76117,52.36792,41.46298,-25.07445,-141.8697,-56.80307,-0.4675641,5.229787,-69.28372,-8.374548,-36.83611,0,0,0,87.01716,72.72078,-69.63052,-121.7539,-110.5331,-88.68581,0.001067912,-0.1257102,0.09433498,0,0.3,0,0,0,0
638224438349349307,42.14877,76.37659,50.10323,41.75596,-21.99815,-141.8697,-56.80307,-0.4675641,5.229787,-69.28372,-8.374548,-36.90935,0,0,0,89.73082,67.41664,-69.21271,-121.7539,-110.5331,-88.68581,0.001067912,-0.1257102,0.09433498,0,0.3,0,0,0,0
638224438349689202,42.80845,71.02299,45.45713,41.68271,-15.62582,-141.8697,-56.80307,-0.4675641,5.229787,-69.28372,-8.374548,-36.83611,0,0,0,94.05367,55.91491,-66.81131,-121.7539,-110.5331,-88.68581,0.001067912,-0.1257102,0.09433498,0,0.3,0,0,0,0
638224438350089071,42.78489,63.8225,39.99387,40.80377,-8.008322,-141.9429,-56.80307,-0.4675641,5.229787,-69.28372,-8.374548,-36.90935,0,0,0,98.17345,40.86131,-62.27621,-121.7539,-110.5331,-88.68581,0.001067912,-0.1257102,0.09433498,0,0.3,0,0,0,0
638224438350428964,42.59641,59.33388,37.37897,40.29105,-3.686857,-141.9429,-56.80307,-0.4675641,5.229787,-69.28372,-8.374548,-36.90935,0,0,0,100.8258,32.08663,-58.68894,-121.7539,-110.5331,-88.68581,0.001067912,-0.1257102,0.09433498,0,0.3,0,0,0,0
638224438350768855,42.33725,56.24796,35.72132,40.07132,-0.8302955,-141.7964,-56.80307,-0.4675641,5.229787,-69.28372,-8.374548,-36.83611,0,0,0,102.3338,25.96145,-56.03345,-121.7539,-110.5331,-88.68581,0.001067912,-0.1257102,0.09433498,0,0.3,0,0,0,0
638224438351118742,41.39485,49.42152,32.56944,39.99807,4.736337,-141.7964,-56.80307,-0.4675641,5.229787,-69.28372,-8.374548,-36.90935,0,0,0,104.8257,12.25208,-49.42709,-121.7539,-110.5331,-88.68581,0.001067912,-0.1257102,0.09433498,0,0.3,0,0,0,0
638224438351448638,39.74566,42.73536,30.16467,39.99807,10.00999,-140.9175,-56.80307,-0.4675641,5.229787,-69.28372,-8.374548,-36.90935,0,0,0,105.4669,-1.44934,-41.52026,-121.7539,-110.5331,-88.68581,0.001067912,-0.1257102,0.09433498,0,0.3,0,0,0,0
638224438351788532,37.8373,36.56351,28.39028,39.63185,15.06391,-137.475,-56.80307,-0.4675641,5.229787,-69.28372,-8.447793,-36.90935,0,0,0,104.595,-14.52351,-33.68801,-121.7539,-110.5331,-88.68581,0.001067912,-0.1257102,0.09433498,0,0.3,0,0,0,0
638224438352128424,36.82422,33.68799,27.66651,39.41211,17.77398,-135.4973,-56.80307,-0.4675641,5.229787,-69.28372,-8.374548,-36.83611,0,0,0,103.6143,-20.7882,-29.96795,-121.7539,-110.5331,-88.68581,0.001067912,-0.1257102,0.09433498,0,0.3,0,0,0,0
638224438352468312,34.86874,28.54479,26.49915,38.75291,22.53491,-131.7619,-56.80307,-0.4675641,5.229787,-69.35696,-8.374548,-36.90935,0,0,0,100.9843,-32.26968,-23.42392,-121.7539,-110.5331,-88.68581,0.001067912,-0.1257102,0.09433498,0,0.3,0,0,0,0
638224438352798208,32.46563,24.2432,25.70534,38.0937,26.49015,-128.0996,-56.80307,-0.4675641,5.229787,-69.28372,-8.374548,-36.83611,0,0,0,96.31665,-42.04831,-16.96279,-121.7539,-110.5331,-88.68581,0.001067912,-0.1257102,0.09433498,0,0.3,0,0,0,0
638224438353138098,31.00491,22.48983,25.1917,37.65423,28.24804,-125.536,-56.80307,-0.4675641,5.229787,-69.28372,-8.374548,-36.83611,0,0,0,92.70389,-46.30794,-14.09476,-121.7539,-110.5331,-88.68581,0.001067912,-0.1257102,0.09433498,0,0.3,0,0,0,0
638224438353477993,27.51804,20.08188,23.23053,36.33582,31.61732,-120.0426,-56.80307,-0.4675641,5.229787,-69.28372,-8.374548,-36.90935,0,0,0,82.1671,-53.40128,-10.6297,-121.7539,-110.5331,-88.68581,0.001067912,-0.1257102,0.09433498,0,0.3,0,0,0,0
638224438353817886,23.34792,18.91297,20.42886,34.57793,34.54712,-114.4027,-56.80307,-0.4675641,5.229787,-69.28372,-8.374548,-36.90935,0,0,0,68.44166,-58.39019,-9.795419,-121.7539,-110.5331,-88.68581,0.001067912,-0.1257102,0.09433498,0,0.3,0,0,0,0
638224438354157776,21.15685,18.79608,18.72451,33.40601,35.79229,-111.2532,-56.80307,-0.4675641,5.229787,-69.28372,-8.374548,-36.90935,0,0,0,61.0126,-59.97671,-10.69803,-121.7539,-110.5331,-88.68581,0.001067912,-0.1257102,0.09433498,0,0.3,0,0,0,0
638224438354607630,13.85326,19.7312,11.86041,28.64507,39.60104,-104.0752,-56.80307,-0.4675641,5.229787,-69.28372,-8.374548,-36.83611,0,0,0,36.61642,-62.13312,-19.87058,-121.7539,-110.5331,-88.68581,0.001067912,-0.1257102,0.09433498,0,0.3,0,0,0,0
638224438354947523,11.30878,20.43255,9.549031,26.66745,40.69971,-103.123,-56.80307,-0.4675641,5.229787,-69.28372,-8.374548,-36.83611,0,0,0,28.84221,-61.59922,-24.12388,-121.7539,-110.5331,-88.68581,0.001067912,-0.1257102,0.09433498,0,0.3,0,0,0,0
638224438355287414,6.172709,22.37294,5.673386,22.27274,42.4576,-102.537,-56.80307,-0.4675641,5.229787,-69.28372,-8.374548,-36.83611,0,0,0,14.67672,-58.58929,-32.64651,-121.7539,-110.5331,-88.68581,0.001067912,-0.1257102,0.09433498,0,0.3,0,0,0,0
638224438355627308,0.6596789,25.17833,2.451463,16.41313,43.77601,-102.4638,-56.80307,-0.4675641,5.229787,-69.35696,-8.374548,-36.90935,0,0,0,1.455098,-53.14594,-41.97443,-121.7539,-110.5331,-88.68581,0.001067912,-0.1257102,0.09433498,0,0.3,0,0,0,0
638224438355967198,-2.285316,26.58102,1.610961,13.19034,44.14224,-102.4638,-56.80307,-0.4675641,5.229787,-69.28372,-8.374548,-36.83611,0,0,0,-4.904877,-50.27813,-45.44374,-121.7539,-110.5331,-88.68581,0.001067912,-0.1257102,0.09433498,0,0.3,0,0,0,0
638224438356307087,-8.057507,28.80194,1.424183,6.305296,43.99575,-102.4638,-56.80307,-0.4675641,5.229787,-69.35696,-8.374548,-36.90935,0,0,0,-16.84353,-45.71299,-49.3687,-121.7539,-110.5331,-88.68581,0.001067912,-0.1257102,0.09433498,0,0.3,0,0,0,0
638224438356636982,-14.63074,30.4618,2.825019,-1.238957,42.60409,-101.7313,-56.80307,-0.4675641,5.229787,-69.28372,-8.374548,-36.90935,0,0,0,-30.69344,-42.23432,-50.77467,-121.7539,-110.5331,-88.68581,0.001067912,-0.1257102,0.09433498,0,0.3,0,0,0,0
638224438356966879,-17.66997,30.85923,3.898993,-4.681479,41.57866,-100.7791,-56.80307,-0.4675641,5.229787,-69.28372,-8.374548,-36.90935,0,0,0,-37.4983,-41.29207,-50.63933,-121.7539,-110.5331,-88.68581,0.001067912,-0.1257102,0.09433498,0,0.3,0,0,0,0
638224438357316766,-24.14896,31.04625,7.144264,-12.15249,39.08832,-98.06907,-56.80307,-0.4675641,5.229787,-69.28372,-8.374548,-36.83611,0,0,0,-53.52483,-40.19211,-48.96754,-121.7539,-110.5331,-88.68581,0.001067912,-0.1257102,0.09433498,0,0.3,0,0,0,0
638224438357656661,-30.58083,30.78909,11.62694,-20.20946,35.93878,-94.69979,-56.80307,-0.4675641,5.229787,-69.35696,-8.447793,-36.90935,0,0,0,-71.95322,-39.00463,-46.59079,-121.7539,-110.5331,-88.68581,0.001067912,-0.1257102,0.09433498,0,0.3,0,0,0,0
638224438358006545,-35.1279,30.34491,16.08627,-26.80152,33.08222,-90.89104,-56.80307,-0.4675641,5.229787,-69.28372,-8.447793,-36.83611,0,0,0,-87.47874,-37.40978,-44.0091,-121.7539,-110.5331,-88.68581,0.001067912,-0.1257102,0.09433498,0,0.3,0,0,0,0
638224438358346440,-37.03626,29.87734,18.56108,-30.09755,31.54407,-88.25421,-56.80307,-0.4675641,5.229787,-69.28372,-8.374548,-36.90935,0,0,0,-95.21136,-36.63616,-42.16647,-121.7539,-110.5331,-88.68581,0.001067912,-0.1257102,0.09433498,0,0.3,0,0,0,0
638224438358686329,-39.51006,28.1006,23.11379,-35.73743,28.54102,-82.02838,-56.80307,-0.4675641,5.229787,-69.28372,-8.374548,-36.83611,0,0,0,-108.1427,-36.48493,-37.20928,-121.7539,-110.5331,-88.68581,0.001067912,-0.1257102,0.09433498,0,0.3,0,0,0,0
638224438359126189,-40.24041,24.85103,26.31237,-39.54618,26.19717,-75.80254,-56.80307,-0.4675641,5.229787,-69.28372,-8.374548,-36.83611,0,0,0,-116.3514,-40.14198,-30.8635,-121.7539,-110.5331,-88.68581,0.001067912,-0.1257102,0.09433498,0,0.3,0,0,0,0
638224438359466077,-39.91058,20.2689,27.97002,-41.23082,25.17174,-70.52889,-56.80307,-0.4675641,5.229787,-69.35696,-8.374548,-36.90935,0,0,0,-120.385,-48.22782,-24.42518,-121.7539,-110.5331,-88.68581,0.001067912,-0.1257102,0.09433498,0,0.3,0,0,0,0
638224438359805973,-38.87394,14.86854,28.43697,-41.08433,25.46472,-66.72014,-56.80307,-0.4675641,5.229787,-69.35696,-8.374548,-36.90935,0,0,0,-120.7427,-59.6923,-18.57258,-121.7539,-110.5331,-88.68581,0.001067912,-0.1257102,0.09433498,0,0.3,0,0,0,0
638224438360145878,-38.0729,12.08653,28.34358,-40.49837,26.19717,-65.76794,-56.80307,-0.4675641,5.229787,-69.35696,-8.374548,-36.90935,0,0,0,-119.4495,-66.09155,-15.86187,-121.7539,-110.5331,-88.68581,0.001067912,-0.1257102,0.09433498,0,0.3,0,0,0,0
638224438360485754,-36.16454,6.545897,27.59647,-38.74048,28.10155,-64.74252,-56.80307,-0.4675641,5.229787,-69.28372,-8.374548,-36.90935,0,0,0,-114.6304,-79.62728,-11.52383,-121.7539,-110.5331,-88.68581,0.001067912,-0.1257102,0.09433498,0,0.3,0,0,0,0
638224438360825650,-33.62006,1.987147,25.93881,-36.46988,30.66513,-65.10874,-56.80307,-0.4675641,5.229787,-69.28372,-8.374548,-36.90935,0,0,0,-106.0849,-91.9426,-8.800621,-121.7539,-110.5331,-88.68581,0.001067912,-0.1257102,0.09433498,0,0.3,0,0,0,0
638224438361175536,-32.04155,0.1402692,24.53798,-35.07822,32.34977,-66.42715,-56.80307,-0.4675641,5.229787,-69.28372,-8.374548,-36.83611,0,0,0,-100.1274,-97.6302,-8.370989,-121.7539,-110.5331,-88.68581,0.001067912,-0.1257102,0.09433498,0,0.3,0,0,0,0
638224438361505433,-28.69603,-1.800122,21.03589,-32.14842,35.86554,-70.82186,-56.80307,-0.4675641,5.229787,-69.28372,-8.374548,-36.83611,0,0,0,-86.98174,-105.3019,-9.448491,-121.7539,-110.5331,-88.68581,0.001067912,-0.1257102,0.09433498,0,0.3,0,0,0,0
638224438361845324,-25.04424,-1.449449,15.47924,-29.43835,39.60104,-77.48718,-56.80307,-0.4675641,5.229787,-69.28372,-8.447793,-36.90935,0,0,0,-71.49712,-108.5361,-15.33249,-121.7539,-110.5331,-88.68581,0.001067912,-0.1257102,0.09433498,0,0.3,0,0,0,0
638224438362185217,-23.01808,-1.215667,13.09782,-28.11993,41.50541,-81.44242,-56.80307,-0.4675641,5.229787,-69.28372,-8.374548,-36.83611,0,0,0,-63.94728,-109.36,-17.83174,-121.7539,-110.5331,-88.68581,0.001067912,-0.1257102,0.09433498,0,0.3,0,0,0,0
638224438362525103,-18.47101,-1.16891,9.595726,-25.04364,45.16767,-88.18098,-56.80307,-0.4675641,5.229787,-69.28372,-8.374548,-36.83611,0,0,0,-49.28243,-110.8546,-20.8123,-121.7539,-110.5331,-88.68581,0.001067912,-0.1257102,0.09433498,0,0.3,0,0,0,0
638224438362865001,-13.64122,-1.192288,6.934138,-20.72217,48.82993,-91.69674,-56.80307,-0.4675641,5.229787,-69.28372,-8.374548,-36.83611,0,0,0,-35.23946,-111.7993,-23.14466,-121.7539,-110.5331,-88.68581,0.001067912,-0.1257102,0.09433498,0,0.3,0,0,0,0
638224438363214883,-8.693625,-0.9585064,4.039077,-16.03448,51.75974,-95.359,-56.80307,-0.4675641,5.229787,-69.35696,-8.374548,-36.90935,0,0,0,-21.57287,-111.8995,-27.26571,-121.7539,-110.5331,-88.68581,0.001067912,-0.1257102,0.09433498,0,0.3,0,0,0,0
638224438363644748,-2.850755,-0.09351282,3.50209,-10.17487,53.59086,-99.38748,-56.80307,-0.4675641,5.229787,-69.28372,-8.374548,-36.90935,0,0,0,-7.037213,-109.9686,-27.0296,-121.7539,-110.5331,-88.68581,0.001067912,-0.1257102,0.09433498,0,0.3,0,0,0,0
638224438363994636,2.238196,1.496205,4.155813,-4.315253,54.46981,-101.8046,-56.80307,-0.4675641,5.229787,-69.28372,-8.374548,-36.83611,0,0,0,5.583477,-106.1675,-25.49079,-121.7539,-110.5331,-88.68581,0.001067912,-0.1257102,0.09433498,0,0.3,0,0,0,0
638224438364334531,5.136071,2.805384,4.692801,-0.6529952,54.76279,-102.244,-56.80307,-0.4675641,5.229787,-69.28372,-8.447793,-36.83611,0,0,0,12.90003,-103.0263,-24.82859,-121.7539,-110.5331,-88.68581,0.001067912,-0.1257102,0.09433498,0,0.3,0,0,0,0
638224438364664422,11.2381,6.101711,6.467193,7.843444,54.98252,-99.68047,-56.80307,-0.4675641,5.229787,-69.28372,-8.374548,-36.90935,0,0,0,28.76806,-94.97716,-23.56607,-121.7539,-110.5331,-88.68581,0.001067912,-0.1257102,0.09433498,0,0.3,0,0,0,0
638224438365014311,16.72757,9.772089,9.22217,16.26664,53.66411,-97.40987,-56.80307,-0.4675641,5.229787,-69.28372,-8.374548,-36.83611,0,0,0,43.97516,-85.64294,-22.02901,-121.7539,-110.5331,-88.68581,0.001067912,-0.1257102,0.09433498,0,0.3,0,0,0,0
638224438365354202,19.10713,11.50208,10.97322,19.78241,52.56543,-97.11688,-56.80307,-0.4675641,5.229787,-69.28372,-8.374548,-36.83611,0,0,0,51.08239,-80.97142,-20.89218,-121.7539,-110.5331,-88.68581,0.001067912,-0.1257102,0.09433498,0,0.3,0,0,0,0
638224438365694095,23.48928,15.1257,15.24576,25.935,49.63563,-98.80152,-56.80307,-0.4675641,5.229787,-69.35696,-8.374548,-36.83611,0,0,0,65.28535,-70.51096,-18.12712,-121.7539,-110.5331,-88.68581,0.001067912,-0.1257102,0.09433498,0,0.3,0,0,0,0
638224438366033985,27.32955,18.88959,20.12534,29.96349,46.11986,-105.1739,-56.80307,-0.4675641,5.229787,-69.28372,-8.374548,-36.83611,0,0,0,78.98985,-58.68647,-15.50348,-121.7539,-110.5331,-88.68581,0.001067912,-0.1257102,0.09433498,0,0.3,0,0,0,0
638224438366373876,29.02587,20.8066,22.83363,31.42839,44.06899,-109.9348,-56.80307,-0.4675641,5.229787,-69.28372,-8.374548,-36.90935,0,0,0,85.59051,-52.18223,-14.10494,-121.7539,-110.5331,-88.68581,0.001067912,-0.1257102,0.09433498,0,0.3,0,0,0,0
638224438366723765,32.65411,25.59913,30.02458,33.77223,38.94183,-121.7273,-56.80307,-0.4675641,5.229787,-69.35696,-8.374548,-36.90935,0,0,0,100.8906,-34.48906,-10.91942,-121.7539,-110.5331,-88.68581,0.001067912,-0.1257102,0.09433498,0,0.3,0,0,0,0
638224438367063656,35.05722,29.45654,36.2583,35.45687,34.69361,-131.5421,-56.80307,-0.4675641,5.229787,-69.28372,-8.374548,-36.90935,0,0,0,111.9945,-18.60134,-8.744785,-121.7539,-110.5331,-88.68581,0.001067912,-0.1257102,0.09433498,0,0.3,0,0,0,0
638224438367403548,37.03626,33.75813,43.65939,37.50774,29.20022,-140.9907,-56.80307,-0.4675641,5.229787,-69.28372,-8.374548,-36.90935,0,0,0,122.2269,0.9780645,-6.362789,-121.7539,-110.5331,-88.68581,0.001067912,-0.1257102,0.09433498,0,0.3,0,0,0,0
638224438367733447,37.7195,35.72189,47.3716,38.75291,26.27042,-141.7964,-56.80307,-0.4675641,5.229787,-69.28372,-8.374548,-36.90935,0,0,0,126.2597,10.89655,-5.103889,-121.7539,-110.5331,-88.68581,0.001067912,-0.1257102,0.09433498,0,0.3,0,0,0,0
638224438368153312,38.12002,38.66755,53.97888,41.24324,20.4108,-141.7964,-56.80307,-0.4675641,5.229787,-69.28372,-8.374548,-36.90935,0,0,0,130.8521,28.24622,-1.588209,-121.7539,-110.5331,-88.68581,0.001067912,-0.1257102,0.09433498,0,0.3,0,0,0,0
638224438368493205,37.81374,40.46767,58.81176,43.29411,14.91741,-141.9429,-56.80307,-0.4675641,5.229787,-69.28372,-8.374548,-36.90935,0,0,0,132.1382,40.84118,1.917265,-121.7539,-110.5331,-88.68581,0.001067912,-0.1257102,0.09433498,0,0.3,0,0,0,0
638224438368843091,37.1305,41.63658,61.91695,44.68576,10.30297,-141.9429,-56.80307,-0.4675641,5.229787,-69.35696,-8.374548,-36.90935,0,0,0,131.1769,49.17357,4.905175,-121.7539,-110.5331,-88.68581,0.001067912,-0.1257102,0.09433498,0,0.3,0,0,0,0
638224438369192976,36.21166,42.78211,63.55126,45.49146,6.494221,-141.9429,-56.80307,-0.4675641,5.229787,-69.28372,-8.374548,-36.83611,0,0,0,128.3529,54.52925,6.947178,-121.7539,-110.5331,-88.68581,0.001067912,-0.1257102,0.09433498,0,0.3,0,0,0,0
638224438369522875,35.7169,43.60035,64.22832,45.78444,4.882828,-142.0162,-56.80307,-0.4675641,5.229787,-69.28372,-8.374548,-36.90935,0,0,0,126.4784,57.33265,7.553801,-121.7539,-110.5331,-88.68581,0.001067912,-0.1257102,0.09433498,0,0.3,0,0,0,0
638224438369852766,34.63314,45.84466,66.09611,46.22392,2.026266,-141.9429,-56.80307,-0.4675641,5.229787,-69.28372,-8.374548,-36.83611,0,0,0,122.0777,64.98855,8.392829,-121.7539,-110.5331,-88.68581,0.001067912,-0.1257102,0.09433498,0,0.3,0,0,0,0
638224438370202655,33.21954,48.81369,68.85109,47.39584,-0.8302955,-142.0162,-56.80307,-0.4675641,5.229787,-69.28372,-8.374548,-36.90935,0,0,0,116.2428,75.59374,9.155505,-121.7539,-110.5331,-88.68581,0.001067912,-0.1257102,0.09433498,0,0.3,0,0,0,0
638224438370552548,32.27715,50.47354,70.57878,48.34802,-2.441689,-142.0162,-56.80307,-0.4675641,5.229787,-69.28372,-8.374548,-36.83611,0,0,0,112.4801,81.8667,9.733115,-121.7539,-110.5331,-88.68581,0.001067912,-0.1257102,0.09433498,0,0.3,0,0,0,0
