zeyangz2/DNN_classification_different_people_hand/zeyang_test/zeyang_right_33.csv
Timestamp,Therapist joint angle 0,Therapist joint angle 1,Therapist joint angle 2,Therapist joint angle 3,Therapist joint angle 4,Therapist joint angle 5,Patient joint angle 0,Patient joint angle 1,Patient joint angle 2,Patient joint angle 3,Patient joint angle 4,Patient joint angle 5,Virtual joint angle 0,Virtual joint angle 1,Virtual joint angle 2,Therapist position x,Therapist position y,Therapist position z,Patient position x,Patient position y,Patient position z,Virtual position x,Virtual position y,Virtual position z,Assistive Force, Obstacle Force Magnitude, Therapist Constant Force, Patient Constant Force, Recovery Factor, Assistance Level
6.38225E+17,0,0,0,0,0,0,0,0,0,0,0,0,0,0,0,0,0,0,0,0,0,0,0,0,0,0.3,0,0,0,0
6.38225E+17,-54.23503,-1.028641,8.871961,-138.7201,-58.32775,14.14253,52.9628,20.17539,-15.54928,56.47824,-16.28502,18.75698,0,0,0,-124.8734,-110.7985,-78.40446,71.37988,-59.12767,-114.4887,0.001067912,-0.1257102,0.09433498,0,0.3,0,0,0.002237853,0
6.38225E+17,-54.23503,-1.028641,8.871961,-138.7201,-58.32775,14.14253,52.98635,27.25899,-15.73606,52.66949,-19.87404,18.83022,0,0,0,-124.8734,-110.7985,-78.40446,65.7762,-43.92614,-118.7595,0.001067912,-0.1257102,0.09433498,0,0.3,0,0,0.002265108,0
6.38225E+17,-54.23503,-1.028641,8.871961,-138.7201,-58.32775,14.14253,53.03347,35.34784,-15.22242,42.41516,-24.41524,18.90347,0,0,0,-124.8734,-110.7985,-78.40446,58.92872,-28.1731,-123.998,0.001067912,-0.1257102,0.09433498,0,0.3,0,0,0.002832806,0
6.38225E+17,-54.23503,-1.028641,8.871961,-138.7201,-58.32775,14.14253,52.93923,37.80256,-12.65422,36.6288,-26.90557,19.26969,0,0,0,-124.8734,-110.7985,-78.40446,60.76825,-25.02506,-122.4567,0.001067912,-0.1257102,0.09433498,0,0.3,0,0,0.000260435,0
6.38225E+17,-54.23503,-1.028641,8.848614,-138.7201,-58.32775,14.14253,52.98635,38.17661,-12.28066,24.32361,-28.80995,23.15168,0,0,0,-124.8298,-110.8068,-78.43584,61.05595,-24.52664,-122.3182,0.001067912,-0.1257102,0.09433498,0,0.3,0,0,0,0
6.38225E+17,-54.23503,-1.028641,8.848614,-138.6469,-58.32775,14.14253,53.03347,38.15323,-12.42074,13.92279,-26.61259,25.34904,0,0,0,-124.8298,-110.8068,-78.43584,60.86618,-24.49969,-122.5398,0.001067912,-0.1257102,0.09433498,0,0.3,0,0,0,0
6.38225E+17,-54.23503,-1.028641,8.848614,-138.6469,-58.32775,14.14253,53.05703,38.15323,-12.46744,5.646089,-25.07445,26.37447,0,0,0,-124.8298,-110.8068,-78.43584,60.80019,-24.47627,-122.6286,0.001067912,-0.1257102,0.09433498,0,0.3,0,0,0,0
6.38225E+17,-54.23503,-1.028641,8.848614,-138.5737,-58.32775,14.14253,53.05703,38.15323,-12.49079,1.617605,-25.36743,26.66745,0,0,0,-124.8298,-110.8068,-78.43584,60.75779,-24.46453,-122.6605,0.001067912,-0.1257102,0.09433498,0,0.3,0,0,0,0
6.38225E+17,-54.23503,-1.028641,8.848614,-138.6469,-58.32775,14.06928,53.08059,38.17661,-12.60752,-7.318305,-29.46916,27.03368,0,0,0,-124.8298,-110.8068,-78.43584,60.53767,-24.36271,-122.865,0.001067912,-0.1257102,0.09433498,0,0.3,0,0,0,0
6.38225E+17,-54.23503,-1.028641,8.848614,-138.6469,-58.32775,14.06928,53.08059,38.15323,-12.72426,-13.10467,-33.05817,26.59421,0,0,0,-124.8298,-110.8068,-78.43584,60.35262,-24.34592,-123.004,0.001067912,-0.1257102,0.09433498,0,0.3,0,0,0,0
6.38225E+17,-54.23503,-1.028641,8.848614,-138.6469,-58.32775,14.06928,53.10415,38.15323,-12.72426,-16.32746,-34.44983,26.00825,0,0,0,-124.8298,-110.8068,-78.43584,60.37127,-24.34592,-123.0288,0.001067912,-0.1257102,0.09433498,0,0.3,0,0,0,0
6.38225E+17,-54.23503,-1.028641,8.848614,-138.6469,-58.32775,14.06928,53.10415,38.15323,-12.7943,-21.45462,-36.28096,25.20255,0,0,0,-124.8298,-110.8068,-78.43584,60.24411,-24.30992,-123.1243,0.001067912,-0.1257102,0.09433498,0,0.3,0,0,0,0
6.38225E+17,-54.23503,-1.028641,8.848614,-138.6469,-58.32775,14.06928,53.12771,38.15323,-12.86434,-24.53092,-37.08665,24.68983,0,0,0,-124.8298,-110.8068,-78.43584,60.13556,-24.27372,-123.2444,0.001067912,-0.1257102,0.09433498,0,0.3,0,0,0,0
6.38225E+17,-54.23503,-1.028641,8.848614,-138.6469,-58.32775,14.06928,53.12771,38.15323,-12.88769,-25.48311,-37.30639,24.54334,0,0,0,-124.8298,-110.8068,-78.43584,60.09318,-24.26161,-123.2762,0.001067912,-0.1257102,0.09433498,0,0.3,0,0,0,0
6.38225E+17,-54.23503,-1.028641,8.848614,-138.6469,-58.401,14.06928,52.89211,37.45188,-11.39347,-25.40986,-38.03884,25.27579,0,0,0,-124.8298,-110.8068,-78.43584,63.41656,-26.28271,-120.3747,0.001067912,-0.1257102,0.09433498,0,0.3,0,0,0,0
6.38225E+17,-54.23503,-1.028641,8.848614,-138.6469,-58.32775,14.14253,52.89211,37.45188,-11.39347,-25.40986,-38.03884,25.27579,0,0,0,-124.8298,-110.8068,-78.43584,63.41656,-26.28271,-120.3747,0.001067912,-0.1257102,0.09433498,0,0.3,0,0,0,0
6.38225E+17,-54.23503,-1.028641,8.848614,-138.6469,-58.32775,14.06928,52.89211,37.45188,-11.39347,-25.40986,-38.03884,25.27579,0,0,0,-124.8298,-110.8068,-78.43584,63.41656,-26.28271,-120.3747,0.001067912,-0.1257102,0.09433498,0,0.3,0,0,0,0
6.38225E+17,-54.23503,-1.028641,8.848614,-138.5737,-58.32775,14.14253,52.89211,37.45188,-11.39347,-25.40986,-38.03884,25.27579,0,0,0,-124.8298,-110.8068,-78.43584,63.41656,-26.28271,-120.3747,0.001067912,-0.1257102,0.09433498,0,0.3,0,0,0,0
6.38225E+17,-54.23503,-1.028641,8.848614,-138.6469,-58.32775,14.06928,52.89211,37.45188,-11.39347,-25.40986,-38.03884,25.27579,0,0,0,-124.8298,-110.8068,-78.43584,63.41656,-26.28271,-120.3747,0.001067912,-0.1257102,0.09433498,0,0.3,0,0,0,0
6.38225E+17,-54.23503,-1.028641,8.848614,-138.6469,-58.32775,14.14253,52.89211,37.45188,-11.39347,-25.40986,-38.03884,25.27579,0,0,0,-124.8298,-110.8068,-78.43584,63.41656,-26.28271,-120.3747,0.001067912,-0.1257102,0.09433498,0,0.3,0,0,0,0
6.38225E+17,-54.23503,-1.028641,8.848614,-138.5737,-58.25451,14.14253,52.89211,37.45188,-11.39347,-25.40986,-38.03884,25.27579,0,0,0,-124.8298,-110.8068,-78.43584,63.41656,-26.28271,-120.3747,0.001067912,-0.1257102,0.09433498,0,0.3,0,0,0,0
6.38225E+17,-54.23503,-1.028641,8.848614,-138.6469,-58.32775,14.06928,52.89211,37.45188,-11.39347,-25.40986,-38.03884,25.27579,0,0,0,-124.8298,-110.8068,-78.43584,63.41656,-26.28271,-120.3747,0.001067912,-0.1257102,0.09433498,0,0.3,0,0,0,0
6.38225E+17,-54.23503,-1.028641,8.848614,-138.6469,-58.32775,14.06928,52.89211,37.45188,-11.39347,-25.40986,-38.03884,25.27579,0,0,0,-124.8298,-110.8068,-78.43584,63.41656,-26.28271,-120.3747,0.001067912,-0.1257102,0.09433498,0,0.3,0,0,0,0
6.38225E+17,-54.23503,-1.028641,8.848614,-138.6469,-58.32775,14.06928,52.89211,37.45188,-11.39347,-25.40986,-38.03884,25.27579,0,0,0,-124.8298,-110.8068,-78.43584,63.41656,-26.28271,-120.3747,0.001067912,-0.1257102,0.09433498,0,0.3,0,0,0,0
6.38225E+17,-54.23503,-1.028641,8.848614,-138.6469,-58.401,14.06928,52.89211,37.45188,-11.39347,-25.40986,-38.03884,25.27579,0,0,0,-124.8298,-110.8068,-78.43584,63.41656,-26.28271,-120.3747,0.001067912,-0.1257102,0.09433498,0,0.3,0,0,0,0
6.38225E+17,-54.23503,-1.028641,8.848614,-138.6469,-58.32775,14.06928,52.89211,37.45188,-11.39347,-25.40986,-38.03884,25.27579,0,0,0,-124.8298,-110.8068,-78.43584,63.41656,-26.28271,-120.3747,0.001067912,-0.1257102,0.09433498,0,0.3,0,0,0,0
6.38225E+17,-54.23503,-1.028641,8.848614,-138.6469,-58.32775,14.06928,52.89211,37.45188,-11.39347,-25.40986,-38.03884,25.27579,0,0,0,-124.8298,-110.8068,-78.43584,63.41656,-26.28271,-120.3747,0.001067912,-0.1257102,0.09433498,0,0.3,0,0,0,0
6.38225E+17,-54.23503,-1.028641,8.848614,-138.6469,-58.32775,14.14253,52.89211,37.45188,-11.39347,-25.40986,-38.03884,25.27579,0,0,0,-124.8298,-110.8068,-78.43584,63.41656,-26.28271,-120.3747,0.001067912,-0.1257102,0.09433498,0,0.3,0,0,0,0
6.38225E+17,-54.23503,-1.028641,8.848614,-138.6469,-58.32775,14.06928,52.89211,37.45188,-11.39347,-25.40986,-38.03884,25.27579,0,0,0,-124.8298,-110.8068,-78.43584,63.41656,-26.28271,-120.3747,0.001067912,-0.1257102,0.09433498,0,0.3,0,0,0,0
6.38225E+17,-54.23503,-1.028641,8.848614,-138.6469,-58.32775,14.06928,52.89211,37.45188,-11.39347,-25.40986,-38.03884,25.27579,0,0,0,-124.8298,-110.8068,-78.43584,63.41656,-26.28271,-120.3747,0.001067912,-0.1257102,0.09433498,0,0.3,0,0,0,0
6.38225E+17,-54.23503,-1.028641,8.848614,-138.6469,-58.32775,14.06928,52.89211,37.45188,-11.39347,-25.40986,-38.03884,25.27579,0,0,0,-124.8298,-110.8068,-78.43584,63.41656,-26.28271,-120.3747,0.001067912,-0.1257102,0.09433498,0,0.3,0,0,0,0
6.38225E+17,-54.23503,-1.028641,8.848614,-138.6469,-58.32775,14.14253,52.89211,37.45188,-11.39347,-25.40986,-38.03884,25.27579,0,0,0,-124.8298,-110.8068,-78.43584,63.41656,-26.28271,-120.3747,0.001067912,-0.1257102,0.09433498,0,0.3,0,0,0,0
6.38225E+17,-54.23503,-1.028641,8.848614,-138.6469,-58.32775,14.06928,52.89211,37.45188,-11.39347,-25.40986,-38.03884,25.27579,0,0,0,-124.8298,-110.8068,-78.43584,63.41656,-26.28271,-120.3747,0.001067912,-0.1257102,0.09433498,0,0.3,0,0,0,0
6.38225E+17,-54.23503,-1.028641,8.848614,-138.6469,-58.32775,14.06928,52.89211,37.45188,-11.39347,-25.40986,-38.03884,25.27579,0,0,0,-124.8298,-110.8068,-78.43584,63.41656,-26.28271,-120.3747,0.001067912,-0.1257102,0.09433498,0,0.3,0,0,0,0
6.38225E+17,-54.23503,-1.028641,8.848614,-138.6469,-58.32775,14.14253,52.89211,37.45188,-11.39347,-25.40986,-38.03884,25.27579,0,0,0,-124.8298,-110.8068,-78.43584,63.41656,-26.28271,-120.3747,0.001067912,-0.1257102,0.09433498,0,0.3,0,0,0,0
6.38225E+17,-54.23503,-1.028641,8.848614,-138.6469,-58.32775,14.14253,52.89211,37.45188,-11.39347,-25.40986,-38.03884,25.27579,0,0,0,-124.8298,-110.8068,-78.43584,63.41656,-26.28271,-120.3747,0.001067912,-0.1257102,0.09433498,0,0.3,0,0,0,0
6.38225E+17,-54.23503,-1.028641,8.848614,-138.6469,-58.32775,14.06928,52.89211,37.45188,-11.39347,-25.40986,-38.03884,25.27579,0,0,0,-124.8298,-110.8068,-78.43584,63.41656,-26.28271,-120.3747,0.001067912,-0.1257102,0.09433498,0,0.3,0,0,0,0
6.38225E+17,-54.23503,-1.028641,8.848614,-138.6469,-58.32775,14.14253,52.89211,37.45188,-11.39347,-25.40986,-38.03884,25.27579,0,0,0,-124.8298,-110.8068,-78.43584,63.41656,-26.28271,-120.3747,0.001067912,-0.1257102,0.09433498,0,0.3,0,0,0,0
6.38225E+17,-54.23503,-1.028641,8.848614,-138.6469,-58.32775,14.06928,52.89211,37.45188,-11.39347,-25.40986,-38.03884,25.27579,0,0,0,-124.8298,-110.8068,-78.43584,63.41656,-26.28271,-120.3747,0.001067912,-0.1257102,0.09433498,0,0.3,0,0,0,0
6.38225E+17,-54.23503,-1.028641,8.848614,-138.6469,-58.32775,14.06928,52.89211,37.45188,-11.39347,-25.40986,-38.03884,25.27579,0,0,0,-124.8298,-110.8068,-78.43584,63.41656,-26.28271,-120.3747,0.001067912,-0.1257102,0.09433498,0,0.3,0,0,0,0
6.38225E+17,-54.23503,-1.028641,8.848614,-138.6469,-58.32775,14.06928,52.89211,37.45188,-11.39347,-25.40986,-38.03884,25.27579,0,0,0,-124.8298,-110.8068,-78.43584,63.41656,-26.28271,-120.3747,0.001067912,-0.1257102,0.09433498,0,0.3,0,0,0,0
6.38225E+17,-54.23503,-1.028641,8.848614,-138.6469,-58.32775,14.06928,52.89211,37.45188,-11.39347,-25.40986,-38.03884,25.27579,0,0,0,-124.8298,-110.8068,-78.43584,63.41656,-26.28271,-120.3747,0.001067912,-0.1257102,0.09433498,0,0.3,0,0,0,0
6.38225E+17,-54.23503,-1.028641,8.848614,-138.6469,-58.32775,14.14253,52.89211,37.45188,-11.39347,-25.40986,-38.03884,25.27579,0,0,0,-124.8298,-110.8068,-78.43584,63.41656,-26.28271,-120.3747,0.001067912,-0.1257102,0.09433498,0,0.3,0,0,0,0
6.38225E+17,-54.23503,-1.028641,8.848614,-138.6469,-58.401,14.06928,52.89211,37.45188,-11.39347,-25.40986,-38.03884,25.27579,0,0,0,-124.8298,-110.8068,-78.43584,63.41656,-26.28271,-120.3747,0.001067912,-0.1257102,0.09433498,0,0.3,0,0,0,0
6.38225E+17,-54.23503,-1.028641,8.848614,-138.6469,-58.32775,14.06928,52.89211,37.45188,-11.39347,-25.40986,-38.03884,25.27579,0,0,0,-124.8298,-110.8068,-78.43584,63.41656,-26.28271,-120.3747,0.001067912,-0.1257102,0.09433498,0,0.3,0,0,0,0
6.38225E+17,-54.23503,-1.028641,8.848614,-138.6469,-58.32775,14.14253,52.89211,37.45188,-11.39347,-25.40986,-38.03884,25.27579,0,0,0,-124.8298,-110.8068,-78.43584,63.41656,-26.28271,-120.3747,0.001067912,-0.1257102,0.09433498,0,0.3,0,0,0,0
6.38225E+17,-54.23503,-1.028641,8.848614,-138.6469,-58.32775,14.14253,52.89211,37.45188,-11.39347,-25.40986,-38.03884,25.27579,0,0,0,-124.8298,-110.8068,-78.43584,63.41656,-26.28271,-120.3747,0.001067912,-0.1257102,0.09433498,0,0.3,0,0,0,0
6.38225E+17,-54.23503,-1.028641,8.848614,-138.6469,-58.32775,14.06928,52.89211,37.45188,-11.39347,-25.40986,-38.03884,25.27579,0,0,0,-124.8298,-110.8068,-78.43584,63.41656,-26.28271,-120.3747,0.001067912,-0.1257102,0.09433498,0,0.3,0,0,0,0
6.38225E+17,-54.23503,-1.028641,8.848614,-138.6469,-58.32775,14.06928,52.89211,37.45188,-11.39347,-25.40986,-38.03884,25.27579,0,0,0,-124.8298,-110.8068,-78.43584,63.41656,-26.28271,-120.3747,0.001067912,-0.1257102,0.09433498,0,0.3,0,0,0,0
6.38225E+17,-54.23503,-1.028641,8.848614,-138.6469,-58.32775,14.06928,52.89211,37.45188,-11.39347,-25.40986,-38.03884,25.27579,0,0,0,-124.8298,-110.8068,-78.43584,63.41656,-26.28271,-120.3747,0.001067912,-0.1257102,0.09433498,0,0.3,0,0,0,0
6.38225E+17,-54.23503,-1.028641,8.848614,-138.6469,-58.32775,14.06928,52.89211,37.45188,-11.39347,-25.40986,-38.03884,25.27579,0,0,0,-124.8298,-110.8068,-78.43584,63.41656,-26.28271,-120.3747,0.001067912,-0.1257102,0.09433498,0,0.3,0,0,0,0
6.38225E+17,-54.23503,-1.028641,8.848614,-138.6469,-58.32775,14.14253,52.89211,37.45188,-11.39347,-25.40986,-38.03884,25.27579,0,0,0,-124.8298,-110.8068,-78.43584,63.41656,-26.28271,-120.3747,0.001067912,-0.1257102,0.09433498,0,0.3,0,0,0,0
6.38225E+17,-54.23503,-1.028641,8.848614,-138.6469,-58.32775,14.06928,52.89211,37.45188,-11.39347,-25.40986,-38.03884,25.27579,0,0,0,-124.8298,-110.8068,-78.43584,63.41656,-26.28271,-120.3747,0.001067912,-0.1257102,0.09433498,0,0.3,0,0,0,0
6.38225E+17,-54.23503,-1.028641,8.848614,-138.6469,-58.32775,14.06928,52.89211,37.45188,-11.39347,-25.40986,-38.03884,25.27579,0,0,0,-124.8298,-110.8068,-78.43584,63.41656,-26.28271,-120.3747,0.001067912,-0.1257102,0.09433498,0,0.3,0,0,0,0
6.38225E+17,-54.23503,-1.028641,8.848614,-138.6469,-58.32775,14.06928,52.89211,37.45188,-11.39347,-25.40986,-38.03884,25.27579,0,0,0,-124.8298,-110.8068,-78.43584,63.41656,-26.28271,-120.3747,0.001067912,-0.1257102,0.09433498,0,0.3,0,0,0,0
6.38225E+17,-54.23503,-1.028641,8.848614,-138.6469,-58.32775,14.14253,52.89211,37.45188,-11.39347,-25.40986,-38.03884,25.27579,0,0,0,-124.8298,-110.8068,-78.43584,63.41656,-26.28271,-120.3747,0.001067912,-0.1257102,0.09433498,0,0.3,0,0,0,0
6.38225E+17,-54.23503,-1.028641,8.848614,-138.6469,-58.32775,14.06928,52.89211,37.45188,-11.39347,-25.40986,-38.03884,25.27579,0,0,0,-124.8298,-110.8068,-78.43584,63.41656,-26.28271,-120.3747,0.001067912,-0.1257102,0.09433498,0,0.3,0,0,0,0
6.38225E+17,-54.23503,-1.028641,8.848614,-138.6469,-58.32775,14.06928,52.89211,37.45188,-11.39347,-25.40986,-38.03884,25.27579,0,0,0,-124.8298,-110.8068,-78.43584,63.41656,-26.28271,-120.3747,0.001067912,-0.1257102,0.09433498,0,0.3,0,0,0,0
6.38225E+17,-54.23503,-1.028641,8.848614,-138.6469,-58.32775,14.06928,52.89211,37.45188,-11.39347,-25.40986,-38.03884,25.27579,0,0,0,-124.8298,-110.8068,-78.43584,63.41656,-26.28271,-120.3747,0.001067912,-0.1257102,0.09433498,0,0.3,0,0,0,0
6.38225E+17,-54.23503,-1.028641,8.685184,-139.2328,-57.81504,13.84955,52.89211,37.45188,-11.39347,-25.40986,-38.03884,25.27579,0,0,0,-124.5248,-110.8648,-78.65556,63.41656,-26.28271,-120.3747,0.001067912,-0.1257102,0.09433498,0,0.3,0,0,0,0
6.38225E+17,-54.23503,-1.028641,8.615141,-136.5228,-56.05715,13.48332,52.89211,37.45188,-11.39347,-25.40986,-38.03884,25.27579,0,0,0,-124.394,-110.8893,-78.74975,63.41656,-26.28271,-120.3747,0.001067912,-0.1257102,0.09433498,0,0.3,0,0,0,0
6.38225E+17,-54.23503,-1.028641,8.568447,-134.8381,-55.10497,12.60438,52.89211,37.45188,-11.39347,-25.40986,-38.03884,25.27579,0,0,0,-124.3068,-110.9055,-78.81255,63.41656,-26.28271,-120.3747,0.001067912,-0.1257102,0.09433498,0,0.3,0,0,0,0
6.38225E+17,-54.44707,-0.7247244,8.615141,-128.5391,-53.34708,7.110993,52.89211,37.45188,-11.39347,-25.40986,-38.03884,25.27579,0,0,0,-124.7336,-110.1821,-79.20442,63.41656,-26.28271,-120.3747,0.001067912,-0.1257102,0.09433498,0,0.3,0,0,0,0
6.38225E+17,-54.91827,0,8.661836,-119.5299,-51.95542,1.178134,52.89211,37.45188,-11.39347,-25.40986,-38.03884,25.27579,0,0,0,-125.5591,-108.4791,-80.16535,63.41656,-26.28271,-120.3747,0.001067912,-0.1257102,0.09433498,0,0.3,0,0,0,0
6.38225E+17,-55.17743,0.5376987,8.778571,-114.0365,-51.29622,-0.7994855,52.89211,37.45188,-11.39347,-25.40986,-38.03884,25.27579,0,0,0,-126.1724,-107.1865,-80.58418,63.41656,-26.28271,-120.3747,0.001067912,-0.1257102,0.09433498,0,0.3,0,0,0,0
6.38225E+17,-55.74287,1.729987,9.035392,-99.68047,-48.95237,-4.82797,52.89211,37.45188,-11.39347,-25.40986,-38.03884,25.27579,0,0,0,-127.475,-104.3196,-81.5321,63.41656,-26.28271,-120.3747,0.001067912,-0.1257102,0.09433498,0,0.3,0,0,0,0
6.38225E+17,-55.93135,2.057282,9.058739,-90.30508,-46.09581,-6.512609,52.89211,37.45188,-11.39347,-25.40986,-38.03884,25.27579,0,0,0,-127.7836,-103.5497,-81.93595,63.41656,-26.28271,-120.3747,0.001067912,-0.1257102,0.09433498,0,0.3,0,0,0,0
6.38225E+17,-55.90779,2.057282,9.058739,-81.44242,-41.40812,-7.464796,52.89211,37.45188,-11.39347,-25.40986,-38.03884,25.27579,0,0,0,-127.748,-103.5497,-81.88342,63.41656,-26.28271,-120.3747,0.001067912,-0.1257102,0.09433498,0,0.3,0,0,0,0
6.38225E+17,-55.76643,2.057282,9.058739,-77.99989,-38.69805,-8.050756,52.89211,37.45188,-11.39347,-25.40986,-38.03884,25.27579,0,0,0,-127.5343,-103.5497,-81.5685,63.41656,-26.28271,-120.3747,0.001067912,-0.1257102,0.09433498,0,0.3,0,0,0,0
6.38225E+17,-54.94183,2.057282,9.058739,-72.36002,-32.91168,-10.10162,52.89211,37.45188,-11.39347,-25.40986,-38.03884,25.27579,0,0,0,-126.2722,-103.5497,-79.74208,63.41656,-26.28271,-120.3747,0.001067912,-0.1257102,0.09433498,0,0.3,0,0,0,0
6.38225E+17,-53.50467,2.127417,9.128781,-68.03855,-27.56478,-13.17792,52.89211,37.45188,-11.39347,-25.40986,-38.03884,25.27579,0,0,0,-124.1347,-103.3608,-76.5108,63.41656,-26.28271,-120.3747,0.001067912,-0.1257102,0.09433498,0,0.3,0,0,0,0
6.38225E+17,-51.94971,2.174173,9.128781,-64.2298,-21.9249,-16.69369,52.89211,37.45188,-11.39347,-25.40986,-38.03884,25.27579,0,0,0,-121.5937,-103.2521,-73.17863,63.41656,-26.28271,-120.3747,0.001067912,-0.1257102,0.09433498,0,0.3,0,0,0,0
6.38225E+17,-50.81884,3.226192,9.012045,-60.64079,-16.87099,-21.45462,52.89211,37.45188,-11.39347,-25.40986,-38.03884,25.27579,0,0,0,-119.3943,-100.8492,-71.03974,63.41656,-26.28271,-120.3747,0.001067912,-0.1257102,0.09433498,0,0.3,0,0,0,0
6.38225E+17,-50.58324,4.067808,8.988697,-59.02939,-14.82012,-24.60417,52.89211,37.45188,-11.39347,-25.40986,-38.03884,25.27579,0,0,0,-118.8554,-98.9029,-70.66281,63.41656,-26.28271,-120.3747,0.001067912,-0.1257102,0.09433498,0,0.3,0,0,0,0
6.38225E+17,-50.51255,5.376987,8.988697,-56.6123,-11.45084,-31.78219,52.89211,37.45188,-11.39347,-25.40986,-38.03884,25.27579,0,0,0,-118.5412,-95.86633,-70.67578,63.41656,-26.28271,-120.3747,0.001067912,-0.1257102,0.09433498,0,0.3,0,0,0,0
6.38225E+17,-50.51255,5.634147,8.988697,-54.78117,-8.008322,-36.90935,52.89211,37.45188,-11.39347,-25.40986,-38.03884,25.27579,0,0,0,-118.4969,-95.27058,-70.7123,63.41656,-26.28271,-120.3747,0.001067912,-0.1257102,0.09433498,0,0.3,0,0,0,0
6.38225E+17,-50.51255,5.493878,8.96535,-53.97548,-6.103948,-38.88697,52.89211,37.45188,-11.39347,-25.40986,-38.03884,25.27579,0,0,0,-118.4799,-95.60398,-70.7263,63.41656,-26.28271,-120.3747,0.001067912,-0.1257102,0.09433498,0,0.3,0,0,0,0
6.38225E+17,-50.51255,5.143205,8.895308,-52.21759,-1.196521,-41.45055,52.89211,37.45188,-11.39347,-25.40986,-38.03884,25.27579,0,0,0,-118.414,-96.44193,-70.78059,63.41656,-26.28271,-120.3747,0.001067912,-0.1257102,0.09433498,0,0.3,0,0,0,0
6.38225E+17,-50.46544,4.979557,8.895308,-50.67944,4.370111,-42.69572,52.89211,37.45188,-11.39347,-25.40986,-38.03884,25.27579,0,0,0,-118.3596,-96.82132,-70.66186,63.41656,-26.28271,-120.3747,0.001067912,-0.1257102,0.09433498,0,0.3,0,0,0,0
6.38225E+17,-50.41832,4.979557,8.895308,-50.23997,7.153428,-43.20844,52.89211,37.45188,-11.39347,-25.40986,-38.03884,25.27579,0,0,0,-118.2793,-96.82132,-70.56455,63.41656,-26.28271,-120.3747,0.001067912,-0.1257102,0.09433498,0,0.3,0,0,0,0
6.38225E+17,-50.41832,4.979557,8.895308,-49.94699,12.28059,-43.50142,52.89211,37.45188,-11.39347,-25.40986,-38.03884,25.27579,0,0,0,-118.2793,-96.82132,-70.56455,63.41656,-26.28271,-120.3747,0.001067912,-0.1257102,0.09433498,0,0.3,0,0,0,0
6.38225E+17,-50.41832,4.932801,8.638489,-50.02024,17.33451,-41.67029,52.89211,37.45188,-11.39347,-25.40986,-38.03884,25.27579,0,0,0,-117.8312,-97.02084,-70.93497,63.41656,-26.28271,-120.3747,0.001067912,-0.1257102,0.09433498,0,0.3,0,0,0,0
6.38225E+17,-50.6068,4.324967,7.261,-50.02024,23.41385,-36.61637,52.89211,37.45188,-11.39347,-25.40986,-38.03884,25.27579,0,0,0,-115.7855,-98.87427,-73.26568,63.41656,-26.28271,-120.3747,0.001067912,-0.1257102,0.09433498,0,0.3,0,0,0,0
6.38225E+17,-50.74816,3.506731,6.303762,-49.50752,26.78313,-32.95412,52.89211,37.45188,-11.39347,-25.40986,-38.03884,25.27579,0,0,0,-114.4074,-101.0373,-74.86911,63.41656,-26.28271,-120.3747,0.001067912,-0.1257102,0.09433498,0,0.3,0,0,0,0
6.38225E+17,-50.81884,2.758628,5.579997,-48.92156,29.05373,-30.53703,52.89211,37.45188,-11.39347,-25.40986,-38.03884,25.27579,0,0,0,-113.2977,-102.9502,-76.00869,63.41656,-26.28271,-120.3747,0.001067912,-0.1257102,0.09433498,0,0.3,0,0,0,0
6.38225E+17,-50.93663,0.9818845,3.735562,-47.45666,33.15546,-25.55635,52.89211,37.45188,-11.39347,-25.40986,-38.03884,25.27579,0,0,0,-110.2701,-107.4316,-78.85292,63.41656,-26.28271,-120.3747,0.001067912,-0.1257102,0.09433498,0,0.3,0,0,0,0
6.38225E+17,-50.9602,-1.075397,1.494225,-44.67334,37.18394,-17.79236,52.89211,37.45188,-11.39347,-25.40986,-38.03884,25.27579,0,0,0,-106.2567,-112.4574,-82.18275,63.41656,-26.28271,-120.3747,0.001067912,-0.1257102,0.09433498,0,0.3,0,0,0,0
6.38225E+17,-51.03088,-0.8416153,-1.260752,-40.7181,40.47998,-8.124002,52.89211,37.45188,-11.39347,-25.40986,-38.03884,25.27579,0,0,0,-101.3853,-111.9264,-86.34025,63.41656,-26.28271,-120.3747,0.001067912,-0.1257102,0.09433498,0,0.3,0,0,0,0
6.38225E+17,-51.03088,-0.7013461,-2.428116,-38.96022,41.06594,-4.388499,52.89211,37.45188,-11.39347,-25.40986,-38.03884,25.27579,0,0,0,-99.27746,-111.5125,-88.04524,63.41656,-26.28271,-120.3747,0.001067912,-0.1257102,0.09433498,0,0.3,0,0,0,0
6.38225E+17,-51.05444,-1.052019,-4.622759,-34.78524,41.35892,1.54436,52.89211,37.45188,-11.39347,-25.40986,-38.03884,25.27579,0,0,0,-95.33595,-112.0145,-91.29832,63.41656,-26.28271,-120.3747,0.001067912,-0.1257102,0.09433498,0,0.3,0,0,0,0
6.38225E+17,-51.05444,-1.052019,-6.070289,-31.34272,40.99269,5.060128,52.89211,37.45188,-11.39347,-25.40986,-38.03884,25.27579,0,0,0,-92.72723,-111.7006,-93.40673,63.41656,-26.28271,-120.3747,0.001067912,-0.1257102,0.09433498,0,0.3,0,0,0,0
6.38225E+17,-51.05444,-1.052019,-6.397151,-30.09755,40.91945,6.305296,52.89211,37.45188,-11.39347,-25.40986,-38.03884,25.27579,0,0,0,-92.13906,-111.618,-93.88209,63.41656,-26.28271,-120.3747,0.001067912,-0.1257102,0.09433498,0,0.3,0,0,0,0
6.38225E+17,-51.05444,-1.028641,-6.467193,-28.99888,40.77296,7.91669,52.89211,37.45188,-11.39347,-25.40986,-38.03884,25.27579,0,0,0,-92.01385,-111.5454,-93.98329,63.41656,-26.28271,-120.3747,0.001067912,-0.1257102,0.09433498,0,0.3,0,0,0,0
6.38225E+17,-51.05444,-1.052019,-6.560582,-29.87782,40.55322,8.722386,52.89211,37.45188,-11.39347,-25.40986,-38.03884,25.27579,0,0,0,-91.84512,-111.5751,-94.11965,63.41656,-26.28271,-120.3747,0.001067912,-0.1257102,0.09433498,0,0.3,0,0,0.001119,0
6.38225E+17,-51.05444,-1.052019,-6.560582,-30.9765,40.187,8.942122,52.89211,37.45188,-11.39347,-25.40986,-38.03884,25.27579,0,0,0,-91.84512,-111.5751,-94.11965,63.41656,-26.28271,-120.3747,0.001067912,-0.1257102,0.09433498,0,0.3,0,0,0.00192889,0
6.38225E+17,-51.05444,-1.028641,-6.934138,-33.61332,39.3813,9.161857,52.89211,37.45188,-11.39347,-25.40986,-38.03884,25.27579,0,0,0,-91.17439,-111.4185,-94.66174,63.41656,-26.28271,-120.3747,0.001067912,-0.1257102,0.09433498,0,0.3,0,0,0.00354808,0
6.38225E+17,-51.05444,-1.028641,-7.42443,-36.32339,39.01508,8.282915,52.89211,37.45188,-11.39347,-25.40986,-38.03884,25.27579,0,0,0,-90.29387,-111.2759,-95.3734,63.41656,-26.28271,-120.3747,0.001067912,-0.1257102,0.09433498,0,0.3,0,0,0.005189059,0
6.38225E+17,-51.05444,-1.028641,-7.42443,-37.49532,38.94183,7.623709,52.89211,37.45188,-11.39347,-25.40986,-38.03884,25.27579,0,0,0,-90.29387,-111.2759,-95.3734,63.41656,-26.28271,-120.3747,0.001067912,-0.1257102,0.09433498,0,0.3,0,0,0.005998728,0
6.38225E+17,-51.05444,-1.028641,-7.42443,-39.69267,38.50236,6.671522,52.89211,37.45188,-11.39347,-25.40986,-38.03884,25.27579,0,0,0,-90.29387,-111.2759,-95.3734,63.41656,-26.28271,-120.3747,0.001067912,-0.1257102,0.09433498,0,0.3,0,0,0.007589481,0
6.38225E+17,-51.05444,-1.028641,-7.42443,-41.81678,37.9164,6.012315,52.89211,37.45188,-11.39347,-25.40986,-38.03884,25.27579,0,0,0,-90.29387,-111.2759,-95.3734,63.41656,-26.28271,-120.3747,0.001067912,-0.1257102,0.09433498,0,0.3,0,0,0.00914323,0
6.38225E+17,-51.05444,-1.028641,-7.401083,-43.72115,37.33044,5.426354,52.89211,37.45188,-11.39347,-25.40986,-38.03884,25.27579,0,0,0,-90.33578,-111.283,-95.33952,63.41656,-26.28271,-120.3747,0.001067912,-0.1257102,0.09433498,0,0.3,0,0,0.01066012,0
6.38225E+17,-51.05444,-1.028641,-7.401083,-44.74659,37.03746,4.767147,52.89211,37.45188,-11.39347,-25.40986,-38.03884,25.27579,0,0,0,-90.33578,-111.283,-95.33952,63.41656,-26.28271,-120.3747,0.001067912,-0.1257102,0.09433498,0,0.3,0,0,0.01140494,0
6.38225E+17,-51.05444,-1.028641,-7.331042,-46.65096,36.52474,2.496547,52.89211,37.45188,-11.39347,-25.40986,-38.03884,25.27579,0,0,0,-90.46152,-111.3038,-95.23791,63.41656,-26.28271,-120.3747,0.001067912,-0.1257102,0.09433498,0,0.3,0,0,0.01286562,0
6.38225E+17,-50.9602,-0.9351282,-6.934138,-48.18911,36.23176,-0.5065048,52.89211,37.45188,-11.39347,-25.40986,-38.03884,25.27579,0,0,0,-91.05597,-111.2009,-94.50953,63.41656,-26.28271,-120.3747,0.001067912,-0.1257102,0.09433498,0,0.3,0,0,0.01426795,0
6.38225E+17,-50.3712,-0.0233782,-6.373804,-49.72726,36.08527,-3.582802,52.89211,37.45188,-11.39347,-25.40986,-38.03884,25.27579,0,0,0,-91.30341,-109.2301,-92.7399,63.41656,-26.28271,-120.3747,0.001067912,-0.1257102,0.09433498,0,0.3,0,0,0.01564096,0
6.38225E+17,-50.04136,0.5376987,-6.280415,-50.02024,36.08527,-4.242009,52.89211,37.45188,-11.39347,-25.40986,-38.03884,25.27579,0,0,0,-91.02773,-107.9483,-92.08057,63.41656,-26.28271,-120.3747,0.001067912,-0.1257102,0.09433498,0,0.3,0,0,0.01634235,0
6.38225E+17,-48.62776,2.291064,-6.140331,-50.23997,36.08527,-5.047705,52.89211,37.45188,-11.39347,-25.40986,-38.03884,25.27579,0,0,0,-89.28615,-103.9042,-89.71052,63.41656,-26.28271,-120.3747,0.001067912,-0.1257102,0.09433498,0,0.3,0,0,0.01783324,0
6.38225E+17,-46.13041,4.769154,-6.093637,-48.92156,36.01203,-5.340686,52.89211,37.45188,-11.39347,-25.40986,-38.03884,25.27579,0,0,0,-85.59667,-98.15964,-86.06592,63.41656,-26.28271,-120.3747,0.001067912,-0.1257102,0.09433498,0,0.3,0,0,0.01952918,0
6.38225E+17,-43.11473,7.621294,-6.093637,-46.28474,35.93878,-4.242009,52.89211,37.45188,-11.39347,-25.40986,-38.03884,25.27579,0,0,0,-80.65969,-91.56103,-82.19958,63.41656,-26.28271,-120.3747,0.001067912,-0.1257102,0.09433498,0,0.3,0,0,0.02149448,0
6.38225E+17,-41.27705,9.281147,-6.070289,-44.45361,35.79229,-2.85035,52.89211,37.45188,-11.39347,-25.40986,-38.03884,25.27579,0,0,0,-77.51664,-87.74573,-80.04335,63.41656,-26.28271,-120.3747,0.001067912,-0.1257102,0.09433498,0,0.3,0,0,0.02260078,0
6.38225E+17,-37.67238,12.83463,-5.603344,-40.35188,35.35282,-0.3600145,52.89211,37.45188,-11.39347,-25.40986,-38.03884,25.27579,0,0,0,-71.50272,-79.74072,-75.74406,63.41656,-26.28271,-120.3747,0.001067912,-0.1257102,0.09433498,0,0.3,0,0,0.02505201,0
6.38225E+17,-33.9499,17.20636,-4.716148,-36.10366,34.40063,2.716283,52.89211,37.45188,-11.39347,-25.40986,-38.03884,25.27579,0,0,0,-65.01573,-70.10171,-71.77819,63.41656,-26.28271,-120.3747,0.001067912,-0.1257102,0.09433498,0,0.3,0,0,0.02782699,0
6.38225E+17,-32.32427,19.35715,-4.039077,-34.12604,33.81467,3.888205,52.89211,37.45188,-11.39347,-25.40986,-38.03884,25.27579,0,0,0,-62.25048,-65.46918,-69.97175,63.41656,-26.28271,-120.3747,0.001067912,-0.1257102,0.09433498,0,0.3,0,0,0.0293212,0
6.38225E+17,-28.43687,25.48224,-1.097321,-29.43835,31.32433,6.305296,52.89211,37.45188,-11.39347,-25.40986,-38.03884,25.27579,0,0,0,-56.10654,-52.6042,-64.74256,63.41656,-26.28271,-120.3747,0.001067912,-0.1257102,0.09433498,0,0.3,0,0,0.03249858,0
6.38225E+17,-26.29292,29.40978,1.260752,-26.94801,29.05373,7.550464,52.89211,37.45188,-11.39347,-25.40986,-38.03884,25.27579,0,0,0,-52.75623,-44.48587,-61.57264,63.41656,-26.28271,-120.3747,0.001067912,-0.1257102,0.09433498,0,0.3,0,0,0.03579782,0
6.38225E+17,-24.97356,32.19178,3.128534,-25.26337,27.2226,8.429405,52.89211,37.45188,-11.39347,-25.40986,-38.03884,25.27579,0,0,0,-50.71794,-38.75838,-59.45385,63.41656,-26.28271,-120.3747,0.001067912,-0.1257102,0.09433498,0,0.3,0,0,0.03748141,0
6.38225E+17,-22.8296,37.59215,7.331042,-22.48005,22.97438,9.601329,52.89211,37.45188,-11.39347,-25.40986,-38.03884,25.27579,0,0,0,-47.59833,-27.56154,-55.28161,63.41656,-26.28271,-120.3747,0.001067912,-0.1257102,0.09433498,0,0.3,0,0,0.04085171,0
6.38225E+17,-20.87413,42.85225,11.88376,-20.2827,18.1402,10.8465,52.89211,37.45188,-11.39347,-25.40986,-38.03884,25.27579,0,0,0,-44.6181,-16.44928,-51.34824,63.41656,-26.28271,-120.3747,0.001067912,-0.1257102,0.09433498,0,0.3,0,0,0.04417067,0
6.38225E+17,-19.08357,47.92532,16.76334,-18.15859,12.79331,12.01842,52.89211,37.45188,-11.39347,-25.40986,-38.03884,25.27579,0,0,0,-41.78981,-5.351221,-47.55619,63.41656,-26.28271,-120.3747,0.001067912,-0.1257102,0.09433498,0,0.3,0,0,0.0473928,0
6.38225E+17,-17.55217,52.71785,21.66626,-16.5472,7.080183,12.97061,52.89211,37.45188,-11.39347,-25.40986,-38.03884,25.27579,0,0,0,-39.20713,5.522717,-44.39456,63.41656,-26.28271,-120.3747,0.001067912,-0.1257102,0.09433498,0,0.3,0,0,0.0504675,0
6.38225E+17,-16.68045,54.9154,24.00099,-15.88799,4.077131,13.33683,52.89211,37.45188,-11.39347,-25.40986,-38.03884,25.27579,0,0,0,-37.56929,10.65052,-42.96965,63.41656,-26.28271,-120.3747,0.001067912,-0.1257102,0.09433498,0,0.3,0,0,0.05194924,0
6.38225E+17,-14.39514,58.58578,28.34358,-14.56958,-1.855728,13.84955,52.89211,37.45188,-11.39347,-25.40986,-38.03884,25.27579,0,0,0,-33.01854,19.79021,-39.70595,63.41656,-26.28271,-120.3747,0.001067912,-0.1257102,0.09433498,0,0.3,0,0,0.05481905,0
6.38225E+17,-11.8271,61.34441,31.91571,-12.73845,-7.056135,14.14253,52.89211,37.45188,-11.39347,-25.40986,-38.03884,25.27579,0,0,0,-27.5558,27.17599,-36.75877,63.41656,-26.28271,-120.3747,0.001067912,-0.1257102,0.09433498,0,0.3,0,0,0.05759269,0
6.38225E+17,-9.070585,63.8225,35.4645,-10.32136,-11.74383,14.36226,52.89211,37.45188,-11.39347,-25.40986,-38.03884,25.27579,0,0,0,-21.47165,34.41224,-33.85588,63.41656,-26.28271,-120.3747,0.001067912,-0.1257102,0.09433498,0,0.3,0,0,0.06027962,0
6.38225E+17,-7.609867,64.89789,37.07546,-8.709964,-14.16092,14.36226,52.89211,37.45188,-11.39347,-25.40986,-38.03884,25.27579,0,0,0,-18.1377,37.71326,-32.59262,63.41656,-26.28271,-120.3747,0.001067912,-0.1257102,0.09433498,0,0.3,0,0,0.06159206,0
6.38225E+17,-4.782672,66.3941,39.667,-5.633667,-18.04291,13.99604,52.89211,37.45188,-11.39347,-25.40986,-38.03884,25.27579,0,0,0,-11.54929,42.893,-30.31259,63.41656,-26.28271,-120.3747,0.001067912,-0.1257102,0.09433498,0,0.3,0,0,0.06417197,0
6.38225E+17,-1.814117,67.56301,42.09512,-1.898163,-21.2657,12.53114,52.89211,37.45188,-11.39347,-25.40986,-38.03884,25.27579,0,0,0,-4.44111,47.65528,-28.13203,63.41656,-26.28271,-120.3747,0.001067912,-0.1257102,0.09433498,0,0.3,0,0,0.06669411,0
6.38225E+17,1.083758,68.28773,44.03294,2.130321,-24.04902,9.674574,52.89211,37.45188,-11.39347,-25.40986,-38.03884,25.27579,0,0,0,2.686171,51.36858,-26.35531,63.41656,-26.28271,-120.3747,0.001067912,-0.1257102,0.09433498,0,0.3,0,0,0.06917076,0
6.38225E+17,2.473796,68.45138,44.82675,4.107941,-25.22094,7.91669,52.89211,37.45188,-11.39347,-25.40986,-38.03884,25.27579,0,0,0,6.171601,52.80228,-25.49791,63.41656,-26.28271,-120.3747,0.001067912,-0.1257102,0.09433498,0,0.3,0,0,0.07039531,0
6.38225E+17,5.371671,68.52151,46.27428,8.136425,-27.05207,4.547412,52.89211,37.45188,-11.39347,-25.40986,-38.03884,25.27579,0,0,0,13.59236,55.26709,-23.79498,63.41656,-26.28271,-120.3747,0.001067912,-0.1257102,0.09433498,0,0.3,0,0,0.07281937,0
6.38225E+17,9.047026,68.26435,47.32491,13.55657,-28.44372,-0.2867693,52.89211,37.45188,-11.39347,-25.40986,-38.03884,25.27579,0,0,0,23.18153,56.82915,-22.76103,63.41656,-26.28271,-120.3747,0.001067912,-0.1257102,0.09433498,0,0.3,0,0,0.07524749,0
6.38225E+17,11.26166,67.77341,47.76851,16.70611,-28.80995,-3.289821,52.89211,37.45188,-11.39347,-25.40986,-38.03884,25.27579,0,0,0,29.13324,57.16322,-22.04297,63.41656,-26.28271,-120.3747,0.001067912,-0.1257102,0.09433498,0,0.3,0,0,0.07768181,0
6.38225E+17,12.7695,67.28246,48.04868,18.68373,-28.95644,-4.901215,52.89211,37.45188,-11.39347,-25.40986,-38.03884,25.27579,0,0,0,33.30301,57.21035,-21.40422,63.41656,-26.28271,-120.3747,0.001067912,-0.1257102,0.09433498,0,0.3,0,0,0.07889934,0
6.38225E+17,15.66737,65.92653,48.2121,22.12625,-29.10293,-7.757777,52.89211,37.45188,-11.39347,-25.40986,-38.03884,25.27579,0,0,0,41.5401,56.24054,-20.24268,63.41656,-26.28271,-120.3747,0.001067912,-0.1257102,0.09433498,0,0.3,0,0,0.08134652,0
6.38225E+17,18.63593,64.07965,48.02533,25.64202,-28.73671,-10.61434,52.89211,37.45188,-11.39347,-25.40986,-38.03884,25.27579,0,0,0,50.30665,54.10059,-19.17632,63.41656,-26.28271,-120.3747,0.001067912,-0.1257102,0.09433498,0,0.3,0,0,0.0838157,0
6.38225E+17,20.02597,63.02763,47.74516,27.32666,-28.15074,-12.07924,52.89211,37.45188,-11.39347,-25.40986,-38.03884,25.27579,0,0,0,54.51152,52.52645,-18.79176,63.41656,-26.28271,-120.3747,0.001067912,-0.1257102,0.09433498,0,0.3,0,0,0.08506499,0
6.38225E+17,22.64112,60.61968,46.83461,30.18322,-26.61259,-14.86256,52.89211,37.45188,-11.39347,-25.40986,-38.03884,25.27579,0,0,0,62.62694,48.32323,-18.20227,63.41656,-26.28271,-120.3747,0.001067912,-0.1257102,0.09433498,0,0.3,0,0,0.08760376,0
6.38225E+17,24.8322,57.95457,45.64391,32.38057,-24.70822,-16.76693,52.89211,37.45188,-11.39347,-25.40986,-38.03884,25.27579,0,0,0,69.75604,43.15407,-17.60663,63.41656,-26.28271,-120.3747,0.001067912,-0.1257102,0.09433498,0,0.3,0,0,0.09019814,0
6.38225E+17,26.717,54.82188,44.0096,33.99197,-22.36438,-18.08535,52.89211,37.45188,-11.39347,-25.40986,-38.03884,25.27579,0,0,0,76.19296,36.43718,-16.96903,63.41656,-26.28271,-120.3747,0.001067912,-0.1257102,0.09433498,0,0.3,0,0,0.09284755,0
6.38225E+17,27.84787,52.41393,42.6788,34.72442,-20.24026,-18.67131,52.89211,37.45188,-11.39347,-25.40986,-38.03884,25.27579,0,0,0,80.22111,30.98729,-16.5048,63.41656,-26.28271,-120.3747,0.001067912,-0.1257102,0.09433498,0,0.3,0,0,0.09420549,0
6.38225E+17,28.79027,49.81895,41.25462,35.23714,-18.1894,-18.8178,52.89211,37.45188,-11.39347,-25.40986,-38.03884,25.27579,0,0,0,83.78477,24.97991,-15.88476,63.41656,-26.28271,-120.3747,0.001067912,-0.1257102,0.09433498,0,0.3,0,0,0.09693076,0
6.38225E+17,29.68555,46.45249,39.24675,35.67661,-15.18635,-18.89104,52.89211,37.45188,-11.39347,-25.40986,-38.03884,25.27579,0,0,0,87.27987,16.73248,-15.2424,63.41656,-26.28271,-120.3747,0.001067912,-0.1257102,0.09433498,0,0.3,0,0,0.09969635,0
6.38225E+17,29.99183,44.83939,38.31286,35.8231,-13.6482,-18.67131,52.89211,37.45188,-11.39347,-25.40986,-38.03884,25.27579,0,0,0,88.59194,12.74663,-14.85371,63.41656,-26.28271,-120.3747,0.001067912,-0.1257102,0.09433498,0,0.3,0,0,0.1010875,0
6.38225E+17,30.58083,40.35078,35.90809,36.04284,-9.180244,-16.98667,52.89211,37.45188,-11.39347,-25.40986,-38.03884,25.27579,0,0,0,91.49083,1.681512,-13.52925,63.41656,-26.28271,-120.3747,0.001067912,-0.1257102,0.09433498,0,0.3,0,0,0.1052504,0
6.38225E+17,30.69863,38.94809,35.16098,36.04284,-7.788587,-16.10773,52.89211,37.45188,-11.39347,-25.40986,-38.03884,25.27579,0,0,0,92.15002,-1.842651,-13.14323,63.41656,-26.28271,-120.3747,0.001067912,-0.1257102,0.09433498,0,0.3,0,0,0.1066285,0
6.38225E+17,30.81643,36.25959,33.80684,35.89634,-5.15176,-14.34984,52.89211,37.45188,-11.39347,-25.40986,-38.03884,25.27579,0,0,0,93.09392,-8.583776,-12.28526,63.41656,-26.28271,-120.3747,0.001067912,-0.1257102,0.09433498,0,0.3,0,0,0.109359,0
6.38225E+17,30.93423,33.66461,32.75621,35.74985,-2.954405,-12.44547,52.89211,37.45188,-11.39347,-25.40986,-38.03884,25.27579,0,0,0,94.14271,-14.87476,-11.26204,63.41656,-26.28271,-120.3747,0.001067912,-0.1257102,0.09433498,0,0.3,0,0,0.1120342,0
6.38225E+17,31.00491,32.44894,32.28927,35.67661,-2.075463,-11.56653,52.89211,37.45188,-11.39347,-25.40986,-38.03884,25.27579,0,0,0,94.65937,-17.83035,-10.84091,63.41656,-26.28271,-120.3747,0.001067912,-0.1257102,0.09433498,0,0.3,0,0,0.1133483,0
6.38225E+17,31.16983,29.69032,31.28534,35.53012,-0.09784385,-10.02838,52.89211,37.45188,-11.39347,-25.40986,-38.03884,25.27579,0,0,0,95.79921,-24.55997,-9.978547,63.41656,-26.28271,-120.3747,0.001067912,-0.1257102,0.09433498,0,0.3,0,0,0.1159235,0
6.38225E+17,31.42899,26.95507,30.49153,35.31038,1.66004,-9.076189,52.89211,37.45188,-11.39347,-25.40986,-38.03884,25.27579,0,0,0,97.2626,-31.11181,-9.189421,63.41656,-26.28271,-120.3747,0.001067912,-0.1257102,0.09433498,0,0.3,0,0,0.1184156,0
6.38225E+17,31.61747,25.41211,30.14132,35.16389,2.612227,-8.709964,52.89211,37.45188,-11.39347,-25.40986,-38.03884,25.27579,0,0,0,98.24745,-34.74573,-8.76009,63.41656,-26.28271,-120.3747,0.001067912,-0.1257102,0.09433498,0,0.3,0,0,0.1196237,0
6.38225E+17,32.13579,22.58335,29.58099,34.94416,4.443357,-8.197248,52.89211,37.45188,-11.39347,-25.40986,-38.03884,25.27579,0,0,0,100.5097,-41.40901,-8.345976,63.41656,-26.28271,-120.3747,0.001067912,-0.1257102,0.09433498,0,0.3,0,0,0.1219645,0
6.38225E+17,32.91327,19.59093,29.27747,34.79766,6.347731,-7.904267,52.89211,37.45188,-11.39347,-25.40986,-38.03884,25.27579,0,0,0,103.6986,-48.2535,-8.137712,63.41656,-26.28271,-120.3747,0.001067912,-0.1257102,0.09433498,0,0.3,0,0,0.1241937,0
6.38225E+17,33.26667,18.51554,29.27747,34.79766,7.006938,-7.904267,52.89211,37.45188,-11.39347,-25.40986,-38.03884,25.27579,0,0,0,105.133,-50.61922,-8.097215,63.41656,-26.28271,-120.3747,0.001067912,-0.1257102,0.09433498,0,0.3,0,0,0.1252661,0
6.38225E+17,34.39754,15.94393,29.30082,34.94416,8.545086,-7.904267,52.89211,37.45188,-11.39347,-25.40986,-38.03884,25.27579,0,0,0,109.3035,-56.30871,-8.701558,63.41656,-26.28271,-120.3747,0.001067912,-0.1257102,0.09433498,0,0.3,0,0,0.1273263,0
6.38225E+17,35.92894,13.74638,29.51094,35.23714,9.790254,-7.904267,52.89211,37.45188,-11.39347,-25.40986,-38.03884,25.27579,0,0,0,114.5499,-61.01215,-10.27369,63.41656,-26.28271,-120.3747,0.001067912,-0.1257102,0.09433498,0,0.3,0,0,0.1292863,0
6.38225E+17,37.74306,11.66572,30.42149,35.8231,10.74244,-8.197248,52.89211,37.45188,-11.39347,-25.40986,-38.03884,25.27579,0,0,0,121.2724,-64.67732,-11.68527,63.41656,-26.28271,-120.3747,0.001067912,-0.1257102,0.09433498,0,0.3,0,0,0.1311315,0
6.38225E+17,38.68546,10.7306,31.07521,36.26257,11.10867,-8.636719,52.89211,37.45188,-11.39347,-25.40986,-38.03884,25.27579,0,0,0,124.9142,-66.0344,-12.35045,63.41656,-26.28271,-120.3747,0.001067912,-0.1257102,0.09433498,0,0.3,0,0,0.1320035,0
6.38225E+17,40.80585,9.211012,32.4527,37.50774,11.54814,-10.46785,52.89211,37.45188,-11.39347,-25.40986,-38.03884,25.27579,0,0,0,132.782,-67.8299,-14.55235,63.41656,-26.28271,-120.3747,0.001067912,-0.1257102,0.09433498,0,0.3,0,0,0.1336556,0
6.38225E+17,43.18541,8.392776,33.92358,39.04589,11.54814,-13.17792,52.89211,37.45188,-11.39347,-25.40986,-38.03884,25.27579,0,0,0,141.213,-67.83799,-17.89663,63.41656,-26.28271,-120.3747,0.001067912,-0.1257102,0.09433498,0,0.3,0,0,0.1352091,0
6.38225E+17,44.26917,8.275885,34.76408,39.85158,11.47489,-14.78931,52.89211,37.45188,-11.39347,-25.40986,-38.03884,25.27579,0,0,0,145.1884,-67.00358,-19.40966,63.41656,-26.28271,-120.3747,0.001067912,-0.1257102,0.09433498,0,0.3,0,0,0.1359517,0
6.38225E+17,46.7194,8.229127,37.12215,42.26867,10.74244,-18.37833,52.89211,37.45188,-11.39347,-25.40986,-38.03884,25.27579,0,0,0,154.6689,-63.89005,-22.69623,63.41656,-26.28271,-120.3747,0.001067912,-0.1257102,0.09433498,0,0.3,0,0,0.1373534,0
6.38225E+17,48.62776,8.229127,39.38684,44.39278,10.15648,-21.01515,52.89211,37.45188,-11.39347,-25.40986,-38.03884,25.27579,0,0,0,162.5394,-60.6268,-25.19214,63.41656,-26.28271,-120.3747,0.001067912,-0.1257102,0.09433498,0,0.3,0,0,0.1386421,0
6.38225E+17,49.57016,8.32264,40.78767,45.5647,9.8635,-22.5533,52.89211,37.45188,-11.39347,-25.40986,-38.03884,25.27579,0,0,0,166.7467,-58.312,-26.28757,63.41656,-26.28271,-120.3747,0.001067912,-0.1257102,0.09433498,0,0.3,0,0,0.1392356,0
6.38225E+17,51.1958,8.743448,43.63604,48.05504,9.424027,-25.48311,52.89211,37.45188,-11.39347,-25.40986,-38.03884,25.27579,0,0,0,174.4225,-52.88987,-28.0896,63.41656,-26.28271,-120.3747,0.001067912,-0.1257102,0.09433498,0,0.3,0,0,0.1403223,0
6.38225E+17,52.53872,9.538307,46.43771,50.32565,9.204292,-27.97344,52.89211,37.45188,-11.39347,-25.40986,-38.03884,25.27579,0,0,0,181.0857,-46.45016,-29.59237,63.41656,-26.28271,-120.3747,0.001067912,-0.1257102,0.09433498,0,0.3,0,0,0.1412841,0
6.38225E+17,53.48111,10.96438,48.6557,52.523,9.204292,-30.09755,52.89211,37.45188,-11.39347,-25.40986,-38.03884,25.27579,0,0,0,185.6687,-39.37566,-30.8676,63.41656,-26.28271,-120.3747,0.001067912,-0.1257102,0.09433498,0,0.3,0,0,0.1421506,0
6.38225E+17,54.11723,12.88139,50.40675,54.42737,9.204292,-31.48921,52.89211,37.45188,-11.39347,-25.40986,-38.03884,25.27579,0,0,0,188.5799,-31.91021,-31.92736,63.41656,-26.28271,-120.3747,0.001067912,-0.1257102,0.09433498,0,0.3,0,0,0.1429572,0
6.38225E+17,54.30571,14.0503,51.24725,55.4528,9.277537,-32.00193,52.89211,37.45188,-11.39347,-25.40986,-38.03884,25.27579,0,0,0,189.5166,-27.74803,-32.19712,63.41656,-26.28271,-120.3747,0.001067912,-0.1257102,0.09433498,0,0.3,0,0,0.1433427,0
6.38225E+17,54.39995,16.64528,52.46131,57.35718,9.350782,-32.51464,52.89211,37.45188,-11.39347,-25.40986,-38.03884,25.27579,0,0,0,189.8597,-19.70224,-32.42355,63.41656,-26.28271,-120.3747,0.001067912,-0.1257102,0.09433498,0,0.3,0,0,0.1440963,0
6.38225E+17,54.37639,19.84809,53.27846,59.18831,9.131048,-32.66114,52.89211,37.45188,-11.39347,-25.40986,-38.03884,25.27579,0,0,0,188.84,-11.1075,-33.0361,63.41656,-26.28271,-120.3747,0.001067912,-0.1257102,0.09433498,0,0.3,0,0,0.1448547,0
6.38225E+17,54.04655,23.19118,53.88549,60.94619,8.618331,-32.66114,52.89211,37.45188,-11.39347,-25.40986,-38.03884,25.27579,0,0,0,186.4268,-2.73334,-33.13428,63.41656,-26.28271,-120.3747,0.001067912,-0.1257102,0.09433498,0,0.3,0,0,0.145629,0
6.38225E+17,53.74027,24.94454,54.02557,61.75189,8.325351,-32.51464,52.89211,37.45188,-11.39347,-25.40986,-38.03884,25.27579,0,0,0,184.5141,1.256136,-33.01045,63.41656,-26.28271,-120.3747,0.001067912,-0.1257102,0.09433498,0,0.3,0,0,0.1460297,0
6.38225E+17,52.9628,28.73181,54.02557,63.43653,7.592898,-31.41597,52.89211,37.45188,-11.39347,-25.40986,-38.03884,25.27579,0,0,0,179.4847,9.119731,-32.91575,63.41656,-26.28271,-120.3747,0.001067912,-0.1257102,0.09433498,0,0.3,0,0,0.146878,0
6.38225E+17,51.92616,32.79962,54.02557,65.04792,6.494221,-29.51159,52.89211,37.45188,-11.39347,-25.40986,-38.03884,25.27579,0,0,0,173.1935,17.25304,-32.67657,63.41656,-26.28271,-120.3747,0.001067912,-0.1257102,0.09433498,0,0.3,0,0,0.1477913,0
6.38225E+17,51.33715,34.8569,54.02557,65.78037,5.835015,-28.33967,52.89211,37.45188,-11.39347,-25.40986,-38.03884,25.27579,0,0,0,169.7084,21.23036,-32.56853,63.41656,-26.28271,-120.3747,0.001067912,-0.1257102,0.09433498,0,0.3,0,0,0.1482742,0
6.38225E+17,49.92356,38.76106,54.00222,67.09879,4.223621,-25.99582,52.89211,37.45188,-11.39347,-25.40986,-38.03884,25.27579,0,0,0,162.1177,28.46,-31.94814,63.41656,-26.28271,-120.3747,0.001067912,-0.1257102,0.09433498,0,0.3,0,0,0.1492898,0
6.38225E+17,48.15656,42.61847,53.88549,68.56369,2.172756,-23.13926,52.89211,37.45188,-11.39347,-25.40986,-38.03884,25.27579,0,0,0,153.3559,35.04642,-31.02465,63.41656,-26.28271,-120.3747,0.001067912,-0.1257102,0.09433498,0,0.3,0,0,0.1503702,0
6.38225E+17,45.80056,46.73303,53.44189,69.8821,-0.8302955,-19.11078,52.89211,37.45188,-11.39347,-25.40986,-38.03884,25.27579,0,0,0,142.3165,41.02291,-29.95595,63.41656,-26.28271,-120.3747,0.001067912,-0.1257102,0.09433498,0,0.3,0,0,0.1515289,0
6.38225E+17,44.03357,49.09423,52.99829,70.61456,-2.954405,-16.03448,52.89211,37.45188,-11.39347,-25.40986,-38.03884,25.27579,0,0,0,134.7172,43.87906,-29.0097,63.41656,-26.28271,-120.3747,0.001067912,-0.1257102,0.09433498,0,0.3,0,0,0.1527485,0
6.38225E+17,42.97337,50.28652,52.69478,70.90753,-4.272818,-14.20335,52.89211,37.45188,-11.39347,-25.40986,-38.03884,25.27579,0,0,0,130.3827,45.11116,-28.40127,63.41656,-26.28271,-120.3747,0.001067912,-0.1257102,0.09433498,0,0.3,0,0,0.1533801,0
6.38225E+17,40.71161,52.39055,51.73754,71.4935,-7.12938,-10.76083,52.89211,37.45188,-11.39347,-25.40986,-38.03884,25.27579,0,0,0,121.3739,46.40946,-27.29767,63.41656,-26.28271,-120.3747,0.001067912,-0.1257102,0.09433498,0,0.3,0,0,0.1546953,0
6.38225E+17,38.33206,54.00365,50.21997,71.85973,-9.985942,-6.732344,52.89211,37.45188,-11.39347,-25.40986,-38.03884,25.27579,0,0,0,112.1693,45.91449,-26.48229,63.41656,-26.28271,-120.3747,0.001067912,-0.1257102,0.09433498,0,0.3,0,0,0.1560929,0
6.38225E+17,37.22474,54.51797,49.28608,71.93297,-11.30435,-4.608234,52.89211,37.45188,-11.39347,-25.40986,-38.03884,25.27579,0,0,0,107.9695,44.9547,-26.23293,63.41656,-26.28271,-120.3747,0.001067912,-0.1257102,0.09433498,0,0.3,0,0,0.1568282,0
6.38225E+17,34.96298,54.98553,46.95135,71.63998,-14.01443,-0.140279,52.89211,37.45188,-11.39347,-25.40986,-38.03884,25.27579,0,0,0,99.68885,41.53735,-25.78362,63.41656,-26.28271,-120.3747,0.001067912,-0.1257102,0.09433498,0,0.3,0,0,0.1583831,0
6.38225E+17,32.79546,54.82188,44.42985,70.76105,-16.94423,5.279863,52.89211,37.45188,-11.39347,-25.40986,-38.03884,25.27579,0,0,0,92.17406,37.11931,-25.29899,63.41656,-26.28271,-120.3747,0.001067912,-0.1257102,0.09433498,0,0.3,0,0,0.1600422,0
6.38225E+17,30.86355,54.09716,41.51144,69.44263,-19.43457,11.21272,52.89211,37.45188,-11.39347,-25.40986,-38.03884,25.27579,0,0,0,85.45394,31.50958,-25.36051,63.41656,-26.28271,-120.3747,0.001067912,-0.1257102,0.09433498,0,0.3,0,0,0.1618119,0
6.38225E+17,29.61487,53.02177,39.29345,67.97772,-21.11921,15.75392,52.89211,37.45188,-11.39347,-25.40986,-38.03884,25.27579,0,0,0,81.37017,26.67727,-25.19911,63.41656,-26.28271,-120.3747,0.001067912,-0.1257102,0.09433498,0,0.3,0,0,0.1627497,0
6.38225E+17,28.57823,51.47881,37.12215,66.36633,-22.51087,20.44161,52.89211,37.45188,-11.39347,-25.40986,-38.03884,25.27579,0,0,0,78.22585,21.35337,-24.74386,63.41656,-26.28271,-120.3747,0.001067912,-0.1257102,0.09433498,0,0.3,0,0,0.1646585,0
6.38225E+17,27.58871,48.93058,34.22709,64.02249,-23.75603,26.37447,52.89211,37.45188,-11.39347,-25.40986,-38.03884,25.27579,0,0,0,75.30972,13.62871,-24.22667,63.41656,-26.28271,-120.3747,0.001067912,-0.1257102,0.09433498,0,0.3,0,0,0.1666366,0
6.38225E+17,27.25887,47.45775,32.63948,62.92381,-24.12226,29.37753,52.89211,37.45188,-11.39347,-25.40986,-38.03884,25.27579,0,0,0,74.23676,9.307979,-24.26525,63.41656,-26.28271,-120.3747,0.001067912,-0.1257102,0.09433498,0,0.3,0,0,0.1676533,0
6.38225E+17,26.99972,43.15617,28.6471,59.70102,-24.342,37.288,52.89211,37.45188,-11.39347,-25.40986,-38.03884,25.27579,0,0,0,73.18598,-2.466566,-24.71266,63.41656,-26.28271,-120.3747,0.001067912,-0.1257102,0.09433498,0,0.3,0,0,0.1707889,0
6.38225E+17,27.04683,41.6132,27.3163,58.82208,-24.19551,39.99807,52.89211,37.45188,-11.39347,-25.40986,-38.03884,25.27579,0,0,0,73.1611,-6.572168,-25.05295,63.41656,-26.28271,-120.3747,0.001067912,-0.1257102,0.09433498,0,0.3,0,0,0.1718571,0
6.38225E+17,27.25887,38.69093,25.02827,57.13744,-23.60954,44.68576,52.89211,37.45188,-11.39347,-25.40986,-38.03884,25.27579,0,0,0,73.51057,-14.1187,-25.6747,63.41656,-26.28271,-120.3747,0.001067912,-0.1257102,0.09433498,0,0.3,0,0,0.174015,0
6.38225E+17,27.6594,35.605,22.97371,55.81903,-22.65736,49.08047,52.89211,37.45188,-11.39347,-25.40986,-38.03884,25.27579,0,0,0,74.49151,-21.78765,-26.21994,63.41656,-26.28271,-120.3747,0.001067912,-0.1257102,0.09433498,0,0.3,0,0,0.1761844,0
6.38225E+17,27.89499,34.1088,22.08651,55.30631,-22.07139,51.13134,52.89211,37.45188,-11.39347,-25.40986,-38.03884,25.27579,0,0,0,75.1141,-25.43623,-26.45417,63.41656,-26.28271,-120.3747,0.001067912,-0.1257102,0.09433498,0,0.3,0,0,0.1772663,0
6.38225E+17,28.34263,31.32679,20.84911,54.42737,-20.82623,54.57386,52.89211,37.45188,-11.39347,-25.40986,-38.03884,25.27579,0,0,0,76.60932,-31.93723,-26.32432,63.41656,-26.28271,-120.3747,0.001067912,-0.1257102,0.09433498,0,0.3,0,0,0.1794,0
6.38225E+17,28.79027,28.80194,19.86852,53.9879,-19.36132,57.28393,52.89211,37.45188,-11.39347,-25.40986,-38.03884,25.27579,0,0,0,78.10381,-37.81652,-26.22255,63.41656,-26.28271,-120.3747,0.001067912,-0.1257102,0.09433498,0,0.3,0,0,0.1814871,0
6.38225E+17,29.00231,27.65641,19.42492,53.84141,-18.77536,58.38261,52.89211,37.45188,-11.39347,-25.40986,-38.03884,25.27579,0,0,0,78.76924,-40.51261,-26.26005,63.41656,-26.28271,-120.3747,0.001067912,-0.1257102,0.09433498,0,0.3,0,0,0.1825128,0
6.38225E+17,29.47351,24.92117,18.53773,53.76817,-17.38371,60.65321,52.89211,37.45188,-11.39347,-25.40986,-38.03884,25.27579,0,0,0,80.36152,-46.89127,-26.15815,63.41656,-26.28271,-120.3747,0.001067912,-0.1257102,0.09433498,0,0.3,0,0,0.1845156,0
6.38225E+17,29.85047,22.13916,17.884,53.62167,-15.77231,62.26461,52.89211,37.45188,-11.39347,-25.40986,-38.03884,25.27579,0,0,0,81.86243,-53.30262,-25.70166,63.41656,-26.28271,-120.3747,0.001067912,-0.1257102,0.09433498,0,0.3,0,0,0.1864387,0
6.38225E+17,30.06251,20.12863,17.62719,53.40194,-14.08767,63.0703,52.89211,37.45188,-11.39347,-25.40986,-38.03884,25.27579,0,0,0,82.94972,-57.84924,-25.03818,63.41656,-26.28271,-120.3747,0.001067912,-0.1257102,0.09433498,0,0.3,0,0,0.1882775,0
6.38225E+17,30.10963,19.35715,17.62719,53.40194,-13.35522,63.36329,52.89211,37.45188,-11.39347,-25.40986,-38.03884,25.27579,0,0,0,83.37182,-59.53922,-24.58176,63.41656,-26.28271,-120.3747,0.001067912,-0.1257102,0.09433498,0,0.3,0,0,0.1891674,0
6.38225E+17,30.27455,17.76744,17.62719,53.40194,-12.25654,63.80275,52.89211,37.45188,-11.39347,-25.40986,-38.03884,25.27579,0,0,0,84.37906,-63.04653,-23.80519,63.41656,-26.28271,-120.3747,0.001067912,-0.1257102,0.09433498,0,0.3,0,0,0.1908894,0
6.38225E+17,30.76931,15.82704,17.62719,53.62167,-11.45084,64.02249,52.89211,37.45188,-11.39347,-25.40986,-38.03884,25.27579,0,0,0,86.29169,-67.3697,-23.41788,63.41656,-26.28271,-120.3747,0.001067912,-0.1257102,0.09433498,0,0.3,0,0,0.1925303,0
6.38225E+17,31.38187,14.02692,17.67388,53.84141,-10.5719,64.16898,52.89211,37.45188,-11.39347,-25.40986,-38.03884,25.27579,0,0,0,88.45211,-71.3848,-23.33901,63.41656,-26.28271,-120.3747,0.001067912,-0.1257102,0.09433498,0,0.3,0,0,0.1940927,0
6.38225E+17,32.32427,12.06315,17.90735,54.13439,-9.546471,64.16898,52.89211,37.45188,-11.39347,-25.40986,-38.03884,25.27579,0,0,0,91.65343,-75.67107,-23.50447,63.41656,-26.28271,-120.3747,0.001067912,-0.1257102,0.09433498,0,0.3,0,0,0.1955749,0
6.38225E+17,32.86615,10.96438,18.18752,54.35413,-9.033754,64.09573,52.89211,37.45188,-11.39347,-25.40986,-38.03884,25.27579,0,0,0,93.63264,-77.97485,-23.42828,63.41656,-26.28271,-120.3747,0.001067912,-0.1257102,0.09433498,0,0.3,0,0,0.1962792,0
6.38225E+17,33.8321,9.070744,18.7712,54.86684,-8.008322,63.94925,52.89211,37.45188,-11.39347,-25.40986,-38.03884,25.27579,0,0,0,97.20663,-81.88412,-23.32032,63.41656,-26.28271,-120.3747,0.001067912,-0.1257102,0.09433498,0,0.3,0,0,0.1976185,0
6.38225E+17,34.8923,7.247243,19.56501,55.52605,-7.349115,63.50977,52.89211,37.45188,-11.39347,-25.40986,-38.03884,25.27579,0,0,0,101.2162,-85.47839,-23.21839,63.41656,-26.28271,-120.3747,0.001067912,-0.1257102,0.09433498,0,0.3,0,0,0.1988596,0
6.38225E+17,35.43418,6.475762,20.07865,55.81903,-7.056135,63.21679,52.89211,37.45188,-11.39347,-25.40986,-38.03884,25.27579,0,0,0,103.3606,-86.85569,-23.09104,63.41656,-26.28271,-120.3747,0.001067912,-0.1257102,0.09433498,0,0.3,0,0,0.1994465,0
6.38225E+17,36.70642,5.07307,21.47948,56.77122,-6.543418,62.48434,52.89211,37.45188,-11.39347,-25.40986,-38.03884,25.27579,0,0,0,108.5786,-88.94705,-22.71469,63.41656,-26.28271,-120.3747,0.001067912,-0.1257102,0.09433498,0,0.3,0,0,0.2005477,0
6.38225E+17,37.97866,3.90416,23.0204,57.94314,-6.103948,61.53215,52.89211,37.45188,-11.39347,-25.40986,-38.03884,25.27579,0,0,0,113.9589,-90.30126,-22.37721,63.41656,-26.28271,-120.3747,0.001067912,-0.1257102,0.09433498,0,0.3,0,0,0.2015564,0
6.38225E+17,38.61478,3.38984,23.67413,58.60235,-6.030703,60.94619,52.89211,37.45188,-11.39347,-25.40986,-38.03884,25.27579,0,0,0,116.4918,-90.8929,-22.50043,63.41656,-26.28271,-120.3747,0.001067912,-0.1257102,0.09433498,0,0.3,0,0,0.2020315,0
6.38225E+17,39.83989,2.361199,25.1917,59.70102,-5.737722,59.70102,52.89211,37.45188,-11.39347,-25.40986,-38.03884,25.27579,0,0,0,121.7205,-91.82302,-22.46317,63.41656,-26.28271,-120.3747,0.001067912,-0.1257102,0.09433498,0,0.3,0,0,0.202916,0
6.38225E+17,40.92365,1.613096,26.9194,61.09268,-5.664476,58.23612,52.89211,37.45188,-11.39347,-25.40986,-38.03884,25.27579,0,0,0,126.8638,-91.79695,-22.01653,63.41656,-26.28271,-120.3747,0.001067912,-0.1257102,0.09433498,0,0.3,0,0,0.2037248,0
6.38225E+17,41.98385,1.239045,28.39028,62.85057,-6.030703,57.0642,52.89211,37.45188,-11.39347,-25.40986,-38.03884,25.27579,0,0,0,131.5924,-91.07838,-22.11893,63.41656,-26.28271,-120.3747,0.001067912,-0.1257102,0.09433498,0,0.3,0,0,0.2044696,0
6.38225E+17,42.47861,1.145532,29.02065,63.80275,-6.250438,56.77122,52.89211,37.45188,-11.39347,-25.40986,-38.03884,25.27579,0,0,0,133.7223,-90.5913,-22.30828,63.41656,-26.28271,-120.3747,0.001067912,-0.1257102,0.09433498,0,0.3,0,0,0.2048251,0
6.38225E+17,43.42101,0.8649935,30.42149,65.3409,-6.763155,56.2585,52.89211,37.45188,-11.39347,-25.40986,-38.03884,25.27579,0,0,0,138.0602,-89.62778,-22.46261,63.41656,-26.28271,-120.3747,0.001067912,-0.1257102,0.09433498,0,0.3,0,0,0.2054953,0
6.38225E+17,44.45765,0.3740513,32.42935,66.87905,-7.12938,55.52605,52.89211,37.45188,-11.39347,-25.40986,-38.03884,25.27579,0,0,0,143.4783,-88.33395,-22.12932,63.41656,-26.28271,-120.3747,0.001067912,-0.1257102,0.09433498,0,0.3,0,0,0.2060987,0
6.38225E+17,45.02308,0.09351282,33.40994,67.83124,-7.12938,55.01333,52.89211,37.45188,-11.39347,-25.40986,-38.03884,25.27579,0,0,0,146.2714,-87.74659,-22.1964,63.41656,-26.28271,-120.3747,0.001067912,-0.1257102,0.09433498,0,0.3,0,0,0.206373,0
6.38225E+17,46.20108,-0.4675641,35.37111,69.44263,-7.056135,53.40194,52.89211,37.45188,-11.39347,-25.40986,-38.03884,25.27579,0,0,0,151.9606,-86.47443,-22.63052,63.41656,-26.28271,-120.3747,0.001067912,-0.1257102,0.09433498,0,0.3,0,0,0.2068699,0
6.38225E+17,47.3084,-0.9818845,37.33228,70.98078,-6.836399,51.7173,52.89211,37.45188,-11.39347,-25.40986,-38.03884,25.27579,0,0,0,157.4391,-84.96597,-23.11215,63.41656,-26.28271,-120.3747,0.001067912,-0.1257102,0.09433498,0,0.3,0,0,0.2072968,0
6.38225E+17,47.87384,-1.028641,38.28952,71.63998,-6.689909,50.83836,52.89211,37.45188,-11.39347,-25.40986,-38.03884,25.27579,0,0,0,160.1687,-83.70898,-23.49361,63.41656,-26.28271,-120.3747,0.001067912,-0.1257102,0.09433498,0,0.3,0,0,0.2074885,0
6.38225E+17,48.81624,-1.028641,40.71763,73.03164,-6.470173,48.93398,52.89211,37.45188,-11.39347,-25.40986,-38.03884,25.27579,0,0,0,165.8109,-80.11438,-23.27654,63.41656,-26.28271,-120.3747,0.001067912,-0.1257102,0.09433498,0,0.3,0,0,0.2078228,0
6.38225E+17,49.52304,-1.028641,43.5193,74.42331,-5.957458,46.59014,52.89211,37.45188,-11.39347,-25.40986,-38.03884,25.27579,0,0,0,171.2666,-75.74167,-22.19356,63.41656,-26.28271,-120.3747,0.001067912,-0.1257102,0.09433498,0,0.3,0,0,0.2080801,0
6.38225E+17,50.20628,-1.005263,46.74123,75.59522,-5.15176,42.78139,52.89211,37.45188,-11.39347,-25.40986,-38.03884,25.27579,0,0,0,177.0623,-70.37355,-20.86012,63.41656,-26.28271,-120.3747,0.001067912,-0.1257102,0.09433498,0,0.3,0,0,0.2082575,0
6.38225E+17,50.53612,-0.9818845,48.6557,76.0347,-4.346064,39.33887,52.89211,37.45188,-11.39347,-25.40986,-38.03884,25.27579,0,0,0,180.2242,-67.02377,-19.9753,63.41656,-26.28271,-120.3747,0.001067912,-0.1257102,0.09433498,0,0.3,0,0,0.2083759,0
6.38225E+17,50.67748,-0.9585064,49.82306,76.0347,-3.760103,36.92178,52.89211,37.45188,-11.39347,-25.40986,-38.03884,25.27579,0,0,0,181.9627,-64.91149,-19.29576,63.41656,-26.28271,-120.3747,0.001067912,-0.1257102,0.09433498,0,0.3,0,0,0.2084131,0
6.38225E+17,50.88952,-0.5844551,52.0644,75.30224,-2.661425,30.18322,52.89211,37.45188,-11.39347,-25.40986,-38.03884,25.27579,0,0,0,185.0724,-59.99053,-17.88954,63.41656,-26.28271,-120.3747,0.001067912,-0.1257102,0.09433498,0,0.3,0,0,0.2084482,0
6.38225E+17,50.9602,0.5610769,54.14231,73.91058,-1.635992,21.02757,52.89211,37.45188,-11.39347,-25.40986,-38.03884,25.27579,0,0,0,187.5133,-53.45714,-16.28893,63.41656,-26.28271,-120.3747,0.001067912,-0.1257102,0.09433498,0,0.3,0,0,0.2084398,0
6.38225E+17,50.88952,1.683231,55.30967,73.25138,-1.123276,15.97366,52.89211,37.45188,-11.39347,-25.40986,-38.03884,25.27579,0,0,0,188.5033,-48.62793,-15.10027,63.41656,-26.28271,-120.3747,0.001067912,-0.1257102,0.09433498,0,0.3,0,0,0.2084217,0
6.38225E+17,50.58324,4.348346,57.38758,73.10489,-0.4640697,7.696954,52.89211,37.45188,-11.39347,-25.40986,-38.03884,25.27579,0,0,0,189.4995,-38.40882,-12.60048,63.41656,-26.28271,-120.3747,0.001067912,-0.1257102,0.09433498,0,0.3,0,0,0.2083618,0
6.38225E+17,50.18272,7.948589,58.69503,73.7641,-0.09784385,0.2259469,52.89211,37.45188,-11.39347,-25.40986,-38.03884,25.27579,0,0,0,188.954,-27.49753,-10.82286,63.41656,-26.28271,-120.3747,0.001067912,-0.1257102,0.09433498,0,0.3,0,0,0.2082871,0
6.38225E+17,49.61728,12.83463,58.88181,74.64304,0.1218917,-6.878834,52.89211,37.45188,-11.39347,-25.40986,-38.03884,25.27579,0,0,0,185.9998,-15.94389,-10.14841,63.41656,-26.28271,-120.3747,0.001067912,-0.1257102,0.09433498,0,0.3,0,0,0.2082372,0
6.38225E+17,48.98116,17.06609,58.57829,75.30224,-0.2443342,-10.90732,52.89211,37.45188,-11.39347,-25.40986,-38.03884,25.27579,0,0,0,182.0389,-7.034925,-10.0009,63.41656,-26.28271,-120.3747,0.001067912,-0.1257102,0.09433498,0,0.3,0,0,0.208242,0
6.38225E+17,48.2508,21.41443,57.90122,75.81496,-1.050031,-13.76388,52.89211,37.45188,-11.39347,-25.40986,-38.03884,25.27579,0,0,0,176.8993,1.177998,-10.46577,63.41656,-26.28271,-120.3747,0.001067912,-0.1257102,0.09433498,0,0.3,0,0,0.2082948,0
6.38225E+17,47.14348,27.21223,56.71051,75.88821,-2.88116,-16.47395,52.89211,37.45188,-11.39347,-25.40986,-38.03884,25.27579,0,0,0,168.6469,11.13757,-11.87198,63.41656,-26.28271,-120.3747,0.001067912,-0.1257102,0.09433498,0,0.3,0,0,0.20845,0
6.38225E+17,46.53092,30.01761,56.08013,75.74171,-3.979838,-17.42614,52.89211,37.45188,-11.39347,-25.40986,-38.03884,25.27579,0,0,0,164.1059,15.64681,-12.78758,63.41656,-26.28271,-120.3747,0.001067912,-0.1257102,0.09433498,0,0.3,0,0,0.2085713,0
6.38225E+17,44.38697,38.19999,53.88549,74.13033,-7.935077,-19.62349,52.89211,37.45188,-11.39347,-25.40986,-38.03884,25.27579,0,0,0,148.6576,27.21811,-16.47674,63.41656,-26.28271,-120.3747,0.001067912,-0.1257102,0.09433498,0,0.3,0,0,0.2091265,0
6.38225E+17,43.63305,40.77158,53.11503,73.17814,-9.399981,-20.2827,52.89211,37.45188,-11.39347,-25.40986,-38.03884,25.27579,0,0,0,143.2844,30.3955,-18.06019,63.41656,-26.28271,-120.3747,0.001067912,-0.1257102,0.09433498,0,0.3,0,0,0.2093796,0
6.38225E+17,42.03097,45.51736,51.41068,71.05402,-12.32979,-21.60111,52.89211,37.45188,-11.39347,-25.40986,-38.03884,25.27579,0,0,0,132.3456,35.31535,-21.52505,63.41656,-26.28271,-120.3747,0.001067912,-0.1257102,0.09433498,0,0.3,0,0,0.2099907,0
6.38225E+17,40.31109,49.6553,49.82306,68.27071,-15.33284,-22.5533,52.89211,37.45188,-11.39347,-25.40986,-38.03884,25.27579,0,0,0,121.7637,38.95373,-24.82752,63.41656,-26.28271,-120.3747,0.001067912,-0.1257102,0.09433498,0,0.3,0,0,0.210736,0
6.38225E+17,39.32158,51.54894,49.30943,66.73256,-16.79774,-22.99277,52.89211,37.45188,-11.39347,-25.40986,-38.03884,25.27579,0,0,0,116.6177,40.84097,-25.98047,63.41656,-26.28271,-120.3747,0.001067912,-0.1257102,0.09433498,0,0.3,0,0,0.2111452,0
6.38225E+17,37.34254,55.03229,48.91252,63.50977,-19.6543,-23.94496,52.89211,37.45188,-11.39347,-25.40986,-38.03884,25.27579,0,0,0,107.323,44.98799,-27.68518,63.41656,-26.28271,-120.3747,0.001067912,-0.1257102,0.09433498,0,0.3,0,0,0.2120119,0
6.38225E+17,35.45774,57.76754,48.88918,60.94619,-22.07139,-24.97039,52.89211,37.45188,-11.39347,-25.40986,-38.03884,25.27579,0,0,0,99.54213,48.46961,-28.57914,63.41656,-26.28271,-120.3747,0.001067912,-0.1257102,0.09433498,0,0.3,0,0,0.2128952,0
6.38225E+17,34.46822,59.05334,48.88918,59.70102,-23.17007,-25.40986,52.89211,37.45188,-11.39347,-25.40986,-38.03884,25.27579,0,0,0,95.67086,50.03717,-28.98251,63.41656,-26.28271,-120.3747,0.001067912,-0.1257102,0.09433498,0,0.3,0,0,0.2133411,0
6.38225E+17,32.27715,61.39116,48.88918,57.21069,-25.44067,-26.28881,52.89211,37.45188,-11.39347,-25.40986,-38.03884,25.27579,0,0,0,87.75083,52.73921,-29.41925,63.41656,-26.28271,-120.3747,0.001067912,-0.1257102,0.09433498,0,0.3,0,0,0.2142357,0
6.38225E+17,29.85047,63.51858,48.93587,54.06115,-27.71127,-27.02126,52.89211,37.45188,-11.39347,-25.40986,-38.03884,25.27579,0,0,0,79.64025,55.11072,-29.57388,63.41656,-26.28271,-120.3747,0.001067912,-0.1257102,0.09433498,0,0.3,0,0,0.2151227,0
6.38225E+17,27.51804,64.9914,49.07595,50.83836,-29.83538,-27.60722,52.89211,37.45188,-11.39347,-25.40986,-38.03884,25.27579,0,0,0,72.59874,56.8457,-28.99623,63.41656,-26.28271,-120.3747,0.001067912,-0.1257102,0.09433498,0,0.3,0,0,0.215986,0
6.38225E+17,26.2458,65.646,49.146,49.00723,-30.93406,-27.82695,52.89211,37.45188,-11.39347,-25.40986,-38.03884,25.27579,0,0,0,68.92181,57.6051,-28.56456,63.41656,-26.28271,-120.3747,0.001067912,-0.1257102,0.09433498,0,0.3,0,0,0.216405,0
6.38225E+17,23.60708,66.74477,49.19269,45.05199,-32.76519,-27.9002,52.89211,37.45188,-11.39347,-25.40986,-38.03884,25.27579,0,0,0,61.50478,58.71948,-27.61854,63.41656,-26.28271,-120.3747,0.001067912,-0.1257102,0.09433498,0,0.3,0,0,0.2172153,0
6.38225E+17,21.13329,67.56301,49.19269,41.02351,-34.37658,-27.82695,52.89211,37.45188,-11.39347,-25.40986,-38.03884,25.27579,0,0,0,54.74041,59.45886,-26.73191,63.41656,-26.28271,-120.3747,0.001067912,-0.1257102,0.09433498,0,0.3,0,0,0.2179871,0
6.38225E+17,18.47101,68.17085,49.19269,36.55555,-35.84149,-27.53397,52.89211,37.45188,-11.39347,-25.40986,-38.03884,25.27579,0,0,0,47.68818,59.99185,-25.58505,63.41656,-26.28271,-120.3747,0.001067912,-0.1257102,0.09433498,0,0.3,0,0,0.2187136,0
6.38225E+17,15.78517,68.47475,49.21603,31.64813,-37.1599,-26.36205,52.89211,37.45188,-11.39347,-25.40986,-38.03884,25.27579,0,0,0,40.77674,60.29426,-24.10559,63.41656,-26.28271,-120.3747,0.001067912,-0.1257102,0.09433498,0,0.3,0,0,0.2193851,0
6.38225E+17,14.4187,68.54489,49.23938,29.45077,-37.67262,-25.48311,52.89211,37.45188,-11.39347,-25.40986,-38.03884,25.27579,0,0,0,37.29633,60.39521,-23.28693,63.41656,-26.28271,-120.3747,0.001067912,-0.1257102,0.09433498,0,0.3,0,0,0.2196974,0
6.38225E+17,11.45014,68.66178,49.23938,24.39685,-38.6248,-22.84628,52.89211,37.45188,-11.39347,-25.40986,-38.03884,25.27579,0,0,0,29.68349,60.49446,-21.79835,63.41656,-26.28271,-120.3747,0.001067912,-0.1257102,0.09433498,0,0.3,0,0,0.2202718,0
6.38225E+17,8.245987,68.66178,49.23938,18.90347,-39.28401,-18.96429,52.89211,37.45188,-11.39347,-25.40986,-38.03884,25.27579,0,0,0,21.44574,60.49446,-20.36833,63.41656,-26.28271,-120.3747,0.001067912,-0.1257102,0.09433498,0,0.3,0,0,0.2207677,0
6.38225E+17,6.667469,68.6384,49.23938,16.12015,-39.57699,-16.76693,52.89211,37.45188,-11.39347,-25.40986,-38.03884,25.27579,0,0,0,17.36706,60.47465,-19.78339,63.41656,-26.28271,-120.3747,0.001067912,-0.1257102,0.09433498,0,0.3,0,0,0.2209884,0
6.38225E+17,3.298395,68.47475,49.23938,9.381593,-39.94322,-12.07924,52.89211,37.45188,-11.39347,-25.40986,-38.03884,25.27579,0,0,0,8.626539,60.33541,-18.66562,63.41656,-26.28271,-120.3747,0.001067912,-0.1257102,0.09433498,0,0.3,0,0,0.221365,0
6.38225E+17,0.3298394,68.24097,49.16934,2.569792,-40.08971,-7.538041,52.89211,37.45188,-11.39347,-25.40986,-38.03884,25.27579,0,0,0,0.8654241,60.01133,-18.0205,63.41656,-26.28271,-120.3747,0.001067912,-0.1257102,0.09433498,0,0.3,0,0,0.2216644,0
6.38225E+17,-2.497356,67.8903,48.91252,-4.315253,-39.79673,-3.070086,52.89211,37.45188,-11.39347,-25.40986,-38.03884,25.27579,0,0,0,-6.566374,59.25507,-17.79588,63.41656,-26.28271,-120.3747,0.001067912,-0.1257102,0.09433498,0,0.3,0,0,0.2218927,0
6.38225E+17,-3.628234,67.70328,48.79579,-7.391551,-39.4305,-1.458692,52.89211,37.45188,-11.39347,-25.40986,-38.03884,25.27579,0,0,0,-9.550661,58.88599,-17.73101,63.41656,-26.28271,-120.3747,0.001067912,-0.1257102,0.09433498,0,0.3,0,0,0.2219856,0
6.38225E+17,-5.772191,67.18896,48.60901,-12.95818,-38.55156,1.251379,52.89211,37.45188,-11.39347,-25.40986,-38.03884,25.27579,0,0,0,-15.26101,58.10028,-17.3793,63.41656,-26.28271,-120.3747,0.001067912,-0.1257102,0.09433498,0,0.3,0,0,0.2221283,0
6.38225E+17,-7.633427,66.48761,48.30549,-17.2064,-37.59937,3.888205,52.89211,37.45188,-11.39347,-25.40986,-38.03884,25.27579,0,0,0,-20.29346,56.92953,-16.9315,63.41656,-26.28271,-120.3747,0.001067912,-0.1257102,0.09433498,0,0.3,0,0,0.2222199,0
6.38225E+17,-9.518225,65.646,48.16541,-20.79542,-36.42745,6.305296,52.89211,37.45188,-11.39347,-25.40986,-38.03884,25.27579,0,0,0,-25.52278,55.89174,-16.12935,63.41656,-26.28271,-120.3747,0.001067912,-0.1257102,0.09433498,0,0.3,0,0,0.222257,0
6.38225E+17,-10.81402,64.94465,48.16541,-23.21251,-35.5485,7.843444,52.89211,37.45188,-11.39347,-25.40986,-38.03884,25.27579,0,0,0,-29.23679,55.20954,-15.28888,63.41656,-26.28271,-120.3747,0.001067912,-0.1257102,0.09433498,0,0.3,0,0,0.2222409,0
6.38225E+17,-11.5915,64.54722,48.16541,-24.53092,-35.10904,8.649141,52.89211,37.45188,-11.39347,-25.40986,-38.03884,25.27579,0,0,0,-31.4791,54.81491,-14.88018,63.41656,-26.28271,-120.3747,0.001067912,-0.1257102,0.09433498,0,0.3,0,0,0.222212,0
6.38225E+17,-13.38206,63.75236,48.16541,-27.16775,-34.30334,9.747819,52.89211,37.45188,-11.39347,-25.40986,-38.03884,25.27579,0,0,0,-36.64437,54.0083,-14.31909,63.41656,-26.28271,-120.3747,0.001067912,-0.1257102,0.09433498,0,0.3,0,0,0.222109,0
6.38225E+17,-15.26685,62.72372,48.16541,-30.1708,-33.4244,10.70001,52.89211,37.45188,-11.39347,-25.40986,-38.03884,25.27579,0,0,0,-42.25348,52.93031,-13.54551,63.41656,-26.28271,-120.3747,0.001067912,-0.1257102,0.09433498,0,0.3,0,0,0.2219368,0
6.38225E+17,-16.18569,62.09251,48.14206,-31.85544,-32.91168,11.28597,52.89211,37.45188,-11.39347,-25.40986,-38.03884,25.27579,0,0,0,-45.08333,52.2094,-13.02742,63.41656,-26.28271,-120.3747,0.001067912,-0.1257102,0.09433498,0,0.3,0,0,0.2218241,0
6.38225E+17,-17.85845,60.80671,48.02533,-34.56551,-31.73976,12.38465,52.89211,37.45188,-11.39347,-25.40986,-38.03884,25.27579,0,0,0,-50.34858,50.57702,-12.08044,63.41656,-26.28271,-120.3747,0.001067912,-0.1257102,0.09433498,0,0.3,0,0,0.2215509,0
6.38225E+17,-19.69613,59.21699,47.76851,-37.27558,-30.3481,13.48332,52.89211,37.45188,-11.39347,-25.40986,-38.03884,25.27579,0,0,0,-56.27888,48.28431,-11.13569,63.41656,-26.28271,-120.3747,0.001067912,-0.1257102,0.09433498,0,0.3,0,0,0.2212091,0
6.38225E+17,-20.49717,58.44551,47.62842,-38.37426,-29.68889,13.99604,52.89211,37.45188,-11.39347,-25.40986,-38.03884,25.27579,0,0,0,-58.93242,47.11388,-10.70431,63.41656,-26.28271,-120.3747,0.001067912,-0.1257102,0.09433498,0,0.3,0,0,0.2210139,0
6.38225E+17,-22.57044,56.36485,47.44164,-40.79135,-27.93101,15.16796,52.89211,37.45188,-11.39347,-25.40986,-38.03884,25.27579,0,0,0,-66.05027,44.18471,-9.443412,63.41656,-26.28271,-120.3747,0.001067912,-0.1257102,0.09433498,0,0.3,0,0,0.2205623,0
6.38225E+17,-24.21964,54.51797,47.4183,-42.76897,-26.31961,16.19339,52.89211,37.45188,-11.39347,-25.40986,-38.03884,25.27579,0,0,0,-72.0333,41.70652,-8.215464,63.41656,-26.28271,-120.3747,0.001067912,-0.1257102,0.09433498,0,0.3,0,0,0.2200288,0
6.38225E+17,-25.8924,52.27366,47.27821,-45.2593,-24.48849,17.21883,52.89211,37.45188,-11.39347,-25.40986,-38.03884,25.27579,0,0,0,-78.41161,38.35231,-6.813119,63.41656,-26.28271,-120.3747,0.001067912,-0.1257102,0.09433498,0,0.3,0,0,0.2194103,0
6.38225E+17,-26.50496,51.19827,47.11478,-46.21149,-23.68279,17.51181,52.89211,37.45188,-11.39347,-25.40986,-38.03884,25.27579,0,0,0,-80.89577,36.52327,-6.133339,63.41656,-26.28271,-120.3747,0.001067912,-0.1257102,0.09433498,0,0.3,0,0,0.2190754,0
6.38225E+17,-27.91855,48.76693,46.76458,-48.18911,-21.99815,17.95128,52.89211,37.45188,-11.39347,-25.40986,-38.03884,25.27579,0,0,0,-86.64133,32.28937,-4.841073,63.41656,-26.28271,-120.3747,0.001067912,-0.1257102,0.09433498,0,0.3,0,0,0.2183534,0
6.38225E+17,-29.37927,46.17195,46.50775,-49.87375,-19.94728,18.17101,52.89211,37.45188,-11.39347,-25.40986,-38.03884,25.27579,0,0,0,-92.76318,27.77254,-3.582538,63.41656,-26.28271,-120.3747,0.001067912,-0.1257102,0.09433498,0,0.3,0,0,0.2175532,0
6.38225E+17,-30.76931,43.34319,46.11085,-51.55839,-17.96966,18.24426,52.89211,37.45188,-11.39347,-25.40986,-38.03884,25.27579,0,0,0,-98.77768,22.43007,-2.446913,63.41656,-26.28271,-120.3747,0.001067912,-0.1257102,0.09433498,0,0.3,0,0,0.216682,0
6.38225E+17,-31.52323,41.87036,45.92407,-52.36408,-17.01748,18.24426,52.89211,37.45188,-11.39347,-25.40986,-38.03884,25.27579,0,0,0,-102.0075,19.59439,-2.04029,63.41656,-26.28271,-120.3747,0.001067912,-0.1257102,0.09433498,0,0.3,0,0,0.216218,0
6.38225E+17,-33.26667,38.38701,45.71395,-54.3417,-14.74688,18.17101,52.89211,37.45188,-11.39347,-25.40986,-38.03884,25.27579,0,0,0,-109.6988,13.04591,-1.137554,63.41656,-26.28271,-120.3747,0.001067912,-0.1257102,0.09433498,0,0.3,0,0,0.2152157,0
6.38225E+17,-34.84518,34.99717,45.17696,-56.68555,-12.03681,16.99909,52.89211,37.45188,-11.39347,-25.40986,-38.03884,25.27579,0,0,0,-116.4555,5.830007,-1.074193,63.41656,-26.28271,-120.3747,0.001067912,-0.1257102,0.09433498,0,0.3,0,0,0.2141212,0
6.38225E+17,-35.57554,33.15029,44.78006,-57.63773,-10.49866,16.12015,52.89211,37.45188,-11.39347,-25.40986,-38.03884,25.27579,0,0,0,-119.5991,1.616763,-1.145044,63.41656,-26.28271,-120.3747,0.001067912,-0.1257102,0.09433498,0,0.3,0,0,0.213552,0
6.38225E+17,-36.8949,29.55005,44.56993,-58.8829,-7.715342,14.582,52.89211,37.45188,-11.39347,-25.40986,-38.03884,25.27579,0,0,0,-125.8252,-5.881762,-0.7354527,63.41656,-26.28271,-120.3747,0.001067912,-0.1257102,0.09433498,0,0.3,0,0,0.2123535,0
6.38225E+17,-38.00222,26.23034,44.82675,-59.76185,-5.078516,13.48332,52.89211,37.45188,-11.39347,-25.40986,-38.03884,25.27579,0,0,0,-131.5274,-12.28922,-0.01602033,63.41656,-26.28271,-120.3747,0.001067912,-0.1257102,0.09433498,0,0.3,0,0,0.2110745,0
6.38225E+17,-38.5441,24.59387,45.2937,-60.05483,-3.833347,13.19034,52.89211,37.45188,-11.39347,-25.40986,-38.03884,25.27579,0,0,0,-134.6103,-14.96004,0.6112265,63.41656,-26.28271,-120.3747,0.001067912,-0.1257102,0.09433498,0,0.3,0,0,0.210399,0
6.38225E+17,-39.4865,21.882,46.90466,-60.78728,-2.075463,13.1171,52.89211,37.45188,-11.39347,-25.40986,-38.03884,25.27579,0,0,0,-140.6076,-18.0576,2.302562,63.41656,-26.28271,-120.3747,0.001067912,-0.1257102,0.09433498,0,0.3,0,0,0.2089695,0
6.38225E+17,-40.26397,20.24553,48.93587,-62.32543,-0.7570504,13.1171,52.89211,37.45188,-11.39347,-25.40986,-38.03884,25.27579,0,0,0,-145.8424,-18.10313,3.840864,63.41656,-26.28271,-120.3747,0.001067912,-0.1257102,0.09433498,0,0.3,0,0,0.2082188,0
6.38225E+17,-40.66449,20.01174,50.89704,-64.15656,0.04864649,13.41008,52.89211,37.45188,-11.39347,-25.40986,-38.03884,25.27579,0,0,0,-149.0796,-15.1219,5.188473,63.41656,-26.28271,-120.3747,0.001067912,-0.1257102,0.09433498,0,0.3,0,0,0.207477,0
6.38225E+17,-40.73517,20.10526,52.01771,-65.25523,0.1951368,13.62981,52.89211,37.45188,-11.39347,-25.40986,-38.03884,25.27579,0,0,0,-150.3054,-12.87747,6.179314,63.41656,-26.28271,-120.3747,0.001067912,-0.1257102,0.09433498,0,0.3,0,0,0.2070796,0
6.38225E+17,-40.71161,20.85336,54.00222,-67.37935,0.268382,14.21577,52.89211,37.45188,-11.39347,-25.40986,-38.03884,25.27579,0,0,0,-151.6488,-7.557391,7.885738,63.41656,-26.28271,-120.3747,0.001067912,-0.1257102,0.09433498,0,0.3,0,0,0.2062309,0
6.38225E+17,-40.16973,22.53659,55.26298,-69.43021,-0.02459868,15.09472,52.89211,37.45188,-11.39347,-25.40986,-38.03884,25.27579,0,0,0,-150.1367,-1.524751,9.503285,63.41656,-26.28271,-120.3747,0.001067912,-0.1257102,0.09433498,0,0.3,0,0,0.2054214,0
6.38225E+17,-39.76921,23.47172,55.44976,-70.23591,-0.3175794,15.60743,52.89211,37.45188,-11.39347,-25.40986,-38.03884,25.27579,0,0,0,-148.5038,0.8361991,10.08465,63.41656,-26.28271,-120.3747,0.001067912,-0.1257102,0.09433498,0,0.3,0,0,0.2050188,0
6.38225E+17,-38.7797,25.31859,55.21629,-71.26134,-1.123276,16.8526,52.89211,37.45188,-11.39347,-25.40986,-38.03884,25.27579,0,0,0,-144.0947,4.303761,10.99773,63.41656,-26.28271,-120.3747,0.001067912,-0.1257102,0.09433498,0,0.3,0,0,0.2042418,0
6.38225E+17,-37.69594,26.83818,54.46917,-71.33459,-2.221954,17.73154,52.89211,37.45188,-11.39347,-25.40986,-38.03884,25.27579,0,0,0,-139.1138,6.058674,11.66864,63.41656,-26.28271,-120.3747,0.001067912,-0.1257102,0.09433498,0,0.3,0,0,0.203522,0
6.38225E+17,-36.5415,27.8902,52.92825,-70.52889,-3.320631,18.17101,52.89211,37.45188,-11.39347,-25.40986,-38.03884,25.27579,0,0,0,-133.5245,5.342942,11.8249,63.41656,-26.28271,-120.3747,0.001067912,-0.1257102,0.09433498,0,0.3,0,0,0.2028752,0
6.38225E+17,-35.97606,28.19411,51.85428,-69.79643,-3.833347,18.3175,52.89211,37.45188,-11.39347,-25.40986,-38.03884,25.27579,0,0,0,-130.6485,3.987119,11.63029,63.41656,-26.28271,-120.3747,0.001067912,-0.1257102,0.09433498,0,0.3,0,0,0.2025847,0
6.38225E+17,-34.7745,28.35776,49.0526,-67.15961,-4.785534,18.46399,52.89211,37.45188,-11.39347,-25.40986,-38.03884,25.27579,0,0,0,-124.375,-0.7050391,10.77228,63.41656,-26.28271,-120.3747,0.001067912,-0.1257102,0.09433498,0,0.3,0,0,0.2020822,0
6.38225E+17,-33.47871,27.67979,45.08357,-62.7649,-5.15176,18.3175,52.89211,37.45188,-11.39347,-25.40986,-38.03884,25.27579,0,0,0,-117.2313,-8.860014,8.910345,63.41656,-26.28271,-120.3747,0.001067912,-0.1257102,0.09433498,0,0.3,0,0,0.2016987,0
6.38225E+17,-32.72478,27.25899,42.98232,-59.76185,-4.85878,17.51181,52.89211,37.45188,-11.39347,-25.40986,-38.03884,25.27579,0,0,0,-113.2324,-13.12801,7.859872,63.41656,-26.28271,-120.3747,0.001067912,-0.1257102,0.09433498,0,0.3,0,0,0.2014459,0
6.38225E+17,-32.39495,27.0252,41.69822,-57.5645,-4.712289,16.99909,52.89211,37.45188,-11.39347,-25.40986,-38.03884,25.27579,0,0,0,-111.1656,-15.62507,6.853162,63.41656,-26.28271,-120.3747,0.001067912,-0.1257102,0.09433498,0,0.3,0,0,0.2013528,0
6.38225E+17,-32.44207,26.39399,40.57755,-54.12197,-4.272818,15.97366,52.89211,37.45188,-11.39347,-25.40986,-38.03884,25.27579,0,0,0,-110.6102,-18.65325,5.661184,63.41656,-26.28271,-120.3747,0.001067912,-0.1257102,0.09433498,0,0.3,0,0,0.2012241,0
6.38225E+17,-33.03107,25.62251,40.67094,-52.51057,-3.833347,15.16796,52.89211,37.45188,-11.39347,-25.40986,-38.03884,25.27579,0,0,0,-112.9122,-20.12543,5.313334,63.41656,-26.28271,-120.3747,0.001067912,-0.1257102,0.09433498,0,0.3,0,0,0.2011328,0
6.38225E+17,-33.99702,24.66401,41.41805,-52.51057,-3.247386,14.94823,52.89211,37.45188,-11.39347,-25.40986,-38.03884,25.27579,0,0,0,-117.0871,-21.00307,5.258202,63.41656,-26.28271,-120.3747,0.001067912,-0.1257102,0.09433498,0,0.3,0,0,0.2009985,0
6.38225E+17,-34.56246,24.2432,41.90834,-53.02329,-2.88116,14.94823,52.89211,37.45188,-11.39347,-25.40986,-38.03884,25.27579,0,0,0,-119.5083,-21.13606,5.130151,63.41656,-26.28271,-120.3747,0.001067912,-0.1257102,0.09433498,0,0.3,0,0,0.2009073,0
6.38225E+17,-35.62266,23.33145,42.81889,-55.1474,-1.928973,14.65524,52.89211,37.45188,-11.39347,-25.40986,-38.03884,25.27579,0,0,0,-124.1082,-21.6498,4.857738,63.41656,-26.28271,-120.3747,0.001067912,-0.1257102,0.09433498,0,0.3,0,0,0.2006681,0
6.38225E+17,-35.90538,23.05091,42.93562,-57.418,-1.050031,14.14253,52.89211,37.45188,-11.39347,-25.40986,-38.03884,25.27579,0,0,0,-125.2289,-22.0651,4.612767,63.41656,-26.28271,-120.3747,0.001067912,-0.1257102,0.09433498,0,0.3,0,0,0.2003711,0
6.38225E+17,-35.8347,23.05091,42.77219,-58.22369,-0.7570504,13.84955,52.89211,37.45188,-11.39347,-25.40986,-38.03884,25.27579,0,0,0,-124.8522,-22.3238,4.541056,63.41656,-26.28271,-120.3747,0.001067912,-0.1257102,0.09433498,0,0.3,0,0,0.2002185,0
6.38225E+17,-35.17502,23.68212,42.00173,-59.24913,0.04864649,13.04385,52.89211,37.45188,-11.39347,-25.40986,-38.03884,25.27579,0,0,0,-121.7548,-22.18404,4.408213,63.41656,-26.28271,-120.3747,0.001067912,-0.1257102,0.09433498,0,0.3,0,0,0.1999282,0
6.38225E+17,-33.90279,24.96792,40.43747,-58.73641,0.1218917,12.09166,52.89211,37.45188,-11.39347,-25.40986,-38.03884,25.27579,0,0,0,-115.674,-21.85613,3.773032,63.41656,-26.28271,-120.3747,0.001067912,-0.1257102,0.09433498,0,0.3,0,0,0.1997034,0
6.38225E+17,-31.99443,26.16021,37.93931,-56.46581,-0.2443342,10.8465,52.89211,37.45188,-11.39347,-25.40986,-38.03884,25.27579,0,0,0,-106.8561,-23.02645,2.692497,63.41656,-26.28271,-120.3747,0.001067912,-0.1257102,0.09433498,0,0.3,0,0,0.1995953,0
6.38225E+17,-29.44995,26.41737,34.85747,-52.14435,-0.61056,9.235103,52.89211,37.45188,-11.39347,-25.40986,-38.03884,25.27579,0,0,0,-96.18879,-26.74555,2.010152,63.41656,-26.28271,-120.3747,0.001067912,-0.1257102,0.09433498,0,0.3,0,0,0.1996475,0
6.38225E+17,-28.53111,26.41737,33.87688,-49.72726,-0.5373149,8.575896,52.89211,37.45188,-11.39347,-25.40986,-38.03884,25.27579,0,0,0,-92.54474,-28.03383,1.87571,63.41656,-26.28271,-120.3747,0.001067912,-0.1257102,0.09433498,0,0.3,0,0,0.199739,0
6.38225E+17,-27.56516,26.34723,32.70952,-44.67334,-0.3175794,7.110993,52.89211,37.45188,-11.39347,-25.40986,-38.03884,25.27579,0,0,0,-88.64452,-29.67142,1.462801,63.41656,-26.28271,-120.3747,0.001067912,-0.1257102,0.09433498,0,0.3,0,0,0.2000006,0
6.38225E+17,-27.91855,25.59913,32.70952,-41.89003,-0.3175794,5.572844,52.89211,37.45188,-11.39347,-25.40986,-38.03884,25.27579,0,0,0,-90.04726,-31.23668,1.586593,63.41656,-26.28271,-120.3747,0.001067912,-0.1257102,0.09433498,0,0.3,0,0,0.2003029,0
6.38225E+17,-28.43687,24.82765,33.03638,-41.23082,-0.3175794,5.279863,52.89211,37.45188,-11.39347,-25.40986,-38.03884,25.27579,0,0,0,-92.24934,-32.44823,1.999472,63.41656,-26.28271,-120.3747,0.001067912,-0.1257102,0.09433498,0,0.3,0,0,0.2004432,0
6.38225E+17,-30.32167,22.70024,34.81077,-41.5238,0.04864649,5.206618,52.89211,37.45188,-11.39347,-25.40986,-38.03884,25.27579,0,0,0,-100.5394,-34.67486,3.553313,63.41656,-26.28271,-120.3747,0.001067912,-0.1257102,0.09433498,0,0.3,0,0,0.2006529,0
6.38225E+17,-32.72478,20.54944,37.49571,-43.94089,1.147324,7.037747,52.89211,37.45188,-11.39347,-25.40986,-38.03884,25.27579,0,0,0,-111.3836,-35.64183,4.982763,63.41656,-26.28271,-120.3747,0.001067912,-0.1257102,0.09433498,0,0.3,0,0,0.2007004,0
6.38225E+17,-34.70382,19.56756,39.85378,-47.5299,1.953021,8.942122,52.89211,37.45188,-11.39347,-25.40986,-38.03884,25.27579,0,0,0,-120.1884,-34.35911,5.199409,63.41656,-26.28271,-120.3747,0.001067912,-0.1257102,0.09433498,0,0.3,0,0,0.2005715,0
6.38225E+17,-35.50486,19.56756,40.90441,-49.58077,2.319247,9.601329,52.89211,37.45188,-11.39347,-25.40986,-38.03884,25.27579,0,0,0,-123.6848,-32.77502,5.018526,63.41656,-26.28271,-120.3747,0.001067912,-0.1257102,0.09433498,0,0.3,0,0,0.2004552,0
6.38225E+17,-36.35302,20.61958,42.18851,-53.53601,2.465737,10.40703,52.89211,37.45188,-11.39347,-25.40986,-38.03884,25.27579,0,0,0,-127.0647,-28.49353,4.292592,63.41656,-26.28271,-120.3747,0.001067912,-0.1257102,0.09433498,0,0.3,0,0,0.2001539,0
6.38225E+17,-36.75354,22.91064,42.91228,-56.24608,1.879776,10.8465,52.89211,37.45188,-11.39347,-25.40986,-38.03884,25.27579,0,0,0,-127.828,-22.40266,2.810342,63.41656,-26.28271,-120.3747,0.001067912,-0.1257102,0.09433498,0,0.3,0,0,0.1998224,0
6.38225E+17,-36.8949,24.26657,43.30918,-57.27151,1.440305,10.91974,52.89211,37.45188,-11.39347,-25.40986,-38.03884,25.27579,0,0,0,-127.8966,-18.87932,2.023841,63.41656,-26.28271,-120.3747,0.001067912,-0.1257102,0.09433498,0,0.3,0,0,0.1996584,0
6.38225E+17,-37.0127,27.74993,44.28976,-59.32237,-0.02459868,11.06623,52.89211,37.45188,-11.39347,-25.40986,-38.03884,25.27579,0,0,0,-127.0985,-10.01472,0.2375947,63.41656,-26.28271,-120.3747,0.001067912,-0.1257102,0.09433498,0,0.3,0,0,0.1993411,0
6.38225E+17,-37.0127,31.5372,45.55051,-61.1535,-2.075463,11.13948,52.89211,37.45188,-11.39347,-25.40986,-38.03884,25.27579,0,0,0,-125.7252,-0.2833761,-1.583933,63.41656,-26.28271,-120.3747,0.001067912,-0.1257102,0.09433498,0,0.3,0,0,0.1990475,0
6.38225E+17,-36.98914,35.34784,47.04474,-63.27761,-4.419309,11.13948,52.89211,37.45188,-11.39347,-25.40986,-38.03884,25.27579,0,0,0,-124.162,9.629866,-3.516389,63.41656,-26.28271,-120.3747,0.001067912,-0.1257102,0.09433498,0,0.3,0,0,0.1987754,0
6.38225E+17,-36.82422,38.85457,48.42223,-65.18199,-7.056135,11.21272,52.89211,37.45188,-11.39347,-25.40986,-38.03884,25.27579,0,0,0,-122.0291,18.5107,-5.374022,63.41656,-26.28271,-120.3747,0.001067912,-0.1257102,0.09433498,0,0.3,0,0,0.1985225,0
6.38225E+17,-36.72998,40.46767,49.07595,-66.06093,-8.374548,11.13948,52.89211,37.45188,-11.39347,-25.40986,-38.03884,25.27579,0,0,0,-120.9278,22.54468,-6.289891,63.41656,-26.28271,-120.3747,0.001067912,-0.1257102,0.09433498,0,0.3,0,0,0.1984045,0
6.38225E+17,-36.51794,43.29643,50.14993,-67.67233,-10.79164,11.21272,52.89211,37.45188,-11.39347,-25.40986,-38.03884,25.27579,0,0,0,-118.6758,29.3497,-8.073846,63.41656,-26.28271,-120.3747,0.001067912,-0.1257102,0.09433498,0,0.3,0,0,0.1981834,0
6.38225E+17,-36.23522,45.37709,50.24332,-68.84425,-12.91575,11.21272,52.89211,37.45188,-11.39347,-25.40986,-38.03884,25.27579,0,0,0,-115.9654,32.98008,-10.1076,63.41656,-26.28271,-120.3747,0.001067912,-0.1257102,0.09433498,0,0.3,0,0,0.1979932,0
6.38225E+17,-36.09386,46.05506,50.00984,-69.13722,-13.72145,11.21272,52.89211,37.45188,-11.39347,-25.40986,-38.03884,25.27579,0,0,0,-114.7039,33.66476,-11.01624,63.41656,-26.28271,-120.3747,0.001067912,-0.1257102,0.09433498,0,0.3,0,0,0.1979141,0
6.38225E+17,-35.85826,46.546,48.86583,-68.99074,-14.74688,10.77325,52.89211,37.45188,-11.39347,-25.40986,-38.03884,25.27579,0,0,0,-112.5579,32.43143,-12.61865,63.41656,-26.28271,-120.3747,0.001067912,-0.1257102,0.09433498,0,0.3,0,0,0.1977944,0
6.38225E+17,-35.45774,46.17195,46.74123,-67.74557,-15.1131,9.235103,52.89211,37.45188,-11.39347,-25.40986,-38.03884,25.27579,0,0,0,-109.9054,28.16751,-14.02765,63.41656,-26.28271,-120.3747,0.001067912,-0.1257102,0.09433498,0,0.3,0,0,0.1977355,0
6.38225E+17,-34.8923,44.81602,44.31311,-65.47498,-15.1131,6.451786,52.89211,37.45188,-11.39347,-25.40986,-38.03884,25.27579,0,0,0,-107.4,21.9231,-14.35164,63.41656,-26.28271,-120.3747,0.001067912,-0.1257102,0.09433498,0,0.3,0,0,0.1977557,0
6.38225E+17,-34.56246,43.69386,42.93562,-64.15656,-14.96661,4.986883,52.89211,37.45188,-11.39347,-25.40986,-38.03884,25.27579,0,0,0,-106.2291,17.8407,-14.14613,63.41656,-26.28271,-120.3747,0.001067912,-0.1257102,0.09433498,0,0.3,0,0,0.1977927,0
6.38225E+17,-34.0677,40.63132,40.18064,-61.37324,-13.79469,1.764095,52.89211,37.45188,-11.39347,-25.40986,-38.03884,25.27579,0,0,0,-104.8859,8.304798,-13.24587,63.41656,-26.28271,-120.3747,0.001067912,-0.1257102,0.09433498,0,0.3,0,0,0.1979155,0
6.38225E+17,-33.69075,37.2181,37.61245,-58.44344,-12.11005,-0.9459759,52.89211,37.45188,-11.39347,-25.40986,-38.03884,25.27579,0,0,0,-104.0512,-1.627308,-12.27724,63.41656,-26.28271,-120.3747,0.001067912,-0.1257102,0.09433498,0,0.3,0,0,0.1980803,0
6.38225E+17,-33.19599,32.823,35.04425,-55.29389,-9.399981,-2.99684,52.89211,37.45188,-11.39347,-25.40986,-38.03884,25.27579,0,0,0,-103.2765,-13.54305,-10.50282,63.41656,-26.28271,-120.3747,0.001067912,-0.1257102,0.09433498,0,0.3,0,0,0.1982739,0
6.38225E+17,-32.88971,29.12924,33.62006,-53.31627,-7.056135,-4.168763,52.89211,37.45188,-11.39347,-25.40986,-38.03884,25.27579,0,0,0,-103.3472,-22.78192,-8.536602,63.41656,-26.28271,-120.3747,0.001067912,-0.1257102,0.09433498,0,0.3,0,0,0.1984749,0
6.38225E+17,-32.65411,26.8148,32.82626,-52.29084,-5.517986,-4.534989,52.89211,37.45188,-11.39347,-25.40986,-38.03884,25.27579,0,0,0,-103.2184,-28.55118,-7.287156,63.41656,-26.28271,-120.3747,0.001067912,-0.1257102,0.09433498,0,0.3,0,0,0.1985693,0
6.38225E+17,-32.04155,22.37294,31.30868,-50.09349,-2.661425,-4.82797,52.89211,37.45188,-11.39347,-25.40986,-38.03884,25.27579,0,0,0,-102.1848,-39.82408,-5.083766,63.41656,-26.28271,-120.3747,0.001067912,-0.1257102,0.09433498,0,0.3,0,0,0.1987424,0
6.38225E+17,-31.24051,18.70256,30.30475,-47.5299,0.4881175,-4.97446,52.89211,37.45188,-11.39347,-25.40986,-38.03884,25.27579,0,0,0,-100.4055,-49.01883,-2.825091,63.41656,-26.28271,-120.3747,0.001067912,-0.1257102,0.09433498,0,0.3,0,0,0.1988994,0
6.38225E+17,-30.65151,17.79081,29.93119,-46.13824,2.099511,-4.97446,52.89211,37.45188,-11.39347,-25.40986,-38.03884,25.27579,0,0,0,-98.65392,-51.47036,-1.877072,63.41656,-26.28271,-120.3747,0.001067912,-0.1257102,0.09433498,0,0.3,0,0,0.1989736,0
6.38225E+17,-29.54419,18.0246,29.62768,-43.20844,4.003886,-4.901215,52.89211,37.45188,-11.39347,-25.40986,-38.03884,25.27579,0,0,0,-95.03357,-51.30346,-0.6806026,63.41656,-26.28271,-120.3747,0.001067912,-0.1257102,0.09433498,0,0.3,0,0,0.1991442,0
6.38225E+17,-29.14367,19.61431,29.90785,-40.27863,4.296866,-4.534989,52.89211,37.45188,-11.39347,-25.40986,-38.03884,25.27579,0,0,0,-93.5536,-47.47773,-0.5684307,63.41656,-26.28271,-120.3747,0.001067912,-0.1257102,0.09433498,0,0.3,0,0,0.1993565,0
6.38225E+17,-29.54419,20.97025,31.05186,-38.59399,3.198189,-4.022273,52.89211,37.45188,-11.39347,-25.40986,-38.03884,25.27579,0,0,0,-95.31595,-43.16733,-0.1823925,63.41656,-26.28271,-120.3747,0.001067912,-0.1257102,0.09433498,0,0.3,0,0,0.1995859,0
6.38225E+17,-30.51015,21.08714,32.26592,-38.30101,2.099511,-3.289821,52.89211,37.45188,-11.39347,-25.40986,-38.03884,25.27579,0,0,0,-99.30891,-41.43038,0.1747927,63.41656,-26.28271,-120.3747,0.001067912,-0.1257102,0.09433498,0,0.3,0,0,0.1996883,0
6.38225E+17,-32.44207,20.40917,34.41387,-39.47293,1.293814,-1.678428,52.89211,37.45188,-11.39347,-25.40986,-38.03884,25.27579,0,0,0,-107.4739,-40.15856,0.7272518,63.41656,-26.28271,-120.3747,0.001067912,-0.1257102,0.09433498,0,0.3,0,0,0.1998065,0
6.38225E+17,-34.96298,19.35715,37.49571,-43.06195,0.8543434,0.4456824,52.89211,37.45188,-11.39347,-25.40986,-38.03884,25.27579,0,0,0,-118.6106,-38.25013,1.276596,63.41656,-26.28271,-120.3747,0.001067912,-0.1257102,0.09433498,0,0.3,0,0,0.1997623,0
6.38225E+17,-35.76402,19.28702,38.77981,-45.33255,0.7810982,1.54436,52.89211,37.45188,-11.39347,-25.40986,-38.03884,25.27579,0,0,0,-122.3758,-36.55858,1.552961,63.41656,-26.28271,-120.3747,0.001067912,-0.1257102,0.09433498,0,0.3,0,0,0.1996737,0
6.38225E+17,-36.37658,20.38579,40.36742,-49.28778,0.7810982,3.81496,52.89211,37.45188,-11.39347,-25.40986,-38.03884,25.27579,0,0,0,-125.3597,-31.79917,1.829331,63.41656,-26.28271,-120.3747,0.001067912,-0.1257102,0.09433498,0,0.3,0,0,0.1994152,0
6.38225E+17,-36.3059,23.40158,40.92776,-52.0711,0.1951368,5.572844,52.89211,37.45188,-11.39347,-25.40986,-38.03884,25.27579,0,0,0,-124.186,-24.4377,0.6723078,63.41656,-26.28271,-120.3747,0.001067912,-0.1257102,0.09433498,0,0.3,0,0,0.1991289,0
6.38225E+17,-35.64622,27.28236,40.92776,-53.97548,-1.416257,6.305296,52.89211,37.45188,-11.39347,-25.40986,-38.03884,25.27579,0,0,0,-119.9792,-16.27631,-1.050074,63.41656,-26.28271,-120.3747,0.001067912,-0.1257102,0.09433498,0,0.3,0,0,0.1988887,0
6.38225E+17,-35.08078,29.29289,40.76432,-54.92767,-2.807915,5.865825,52.89211,37.45188,-11.39347,-25.40986,-38.03884,25.27579,0,0,0,-116.8826,-12.40481,-1.924246,63.41656,-26.28271,-120.3747,0.001067912,-0.1257102,0.09433498,0,0.3,0,0,0.1987997,0
6.38225E+17,-34.0677,31.70084,40.04056,-55.80661,-5.15176,4.474167,52.89211,37.45188,-11.39347,-25.40986,-38.03884,25.27579,0,0,0,-111.6102,-8.668007,-3.302125,63.41656,-26.28271,-120.3747,0.001067912,-0.1257102,0.09433498,0,0.3,0,0,0.1986988,0
6.38225E+17,-33.17242,32.98664,38.47629,-55.51363,-7.422361,2.569792,52.89211,37.45188,-11.39347,-25.40986,-38.03884,25.27579,0,0,0,-106.5993,-8.44359,-5.277922,63.41656,-26.28271,-120.3747,0.001067912,-0.1257102,0.09433498,0,0.3,0,0,0.1987021,0
6.38225E+17,-32.46563,33.01003,36.23495,-54.41495,-8.447793,-0.140279,52.89211,37.45188,-11.39347,-25.40986,-38.03884,25.27579,0,0,0,-102.338,-11.56291,-7.498596,63.41656,-26.28271,-120.3747,0.001067912,-0.1257102,0.09433498,0,0.3,0,0,0.1987848,0
6.38225E+17,-32.18291,32.56584,34.9742,-53.6825,-8.374548,-1.898163,52.89211,37.45188,-11.39347,-25.40986,-38.03884,25.27579,0,0,0,-100.5706,-14.14026,-8.540886,63.41656,-26.28271,-120.3747,0.001067912,-0.1257102,0.09433498,0,0.3,0,0,0.1988538,0
6.38225E+17,-31.45255,30.78909,32.17253,-52.58382,-7.495606,-5.853402,52.89211,37.45188,-11.39347,-25.40986,-38.03884,25.27579,0,0,0,-96.82389,-21.2648,-10.05364,63.41656,-26.28271,-120.3747,0.001067912,-0.1257102,0.09433498,0,0.3,0,0,0.1990355,0
6.38225E+17,-30.20387,27.74993,29.06735,-50.82594,-5.664476,-9.735395,52.89211,37.45188,-11.39347,-25.40986,-38.03884,25.27579,0,0,0,-91.96251,-31.11492,-10.36713,63.41656,-26.28271,-120.3747,0.001067912,-0.1257102,0.09433498,0,0.3,0,0,0.1992626,0
6.38225E+17,-29.40283,25.90305,27.45638,-49.50752,-4.272818,-11.12705,52.89211,37.45188,-11.39347,-25.40986,-38.03884,25.27579,0,0,0,-89.07594,-36.72583,-10.28394,63.41656,-26.28271,-120.3747,0.001067912,-0.1257102,0.09433498,0,0.3,0,0,0.199389,0
6.38225E+17,-27.4238,22.25605,24.23446,-45.99176,-0.61056,-12.51871,52.89211,37.45188,-11.39347,-25.40986,-38.03884,25.27579,0,0,0,-82.05113,-47.74249,-10.21808,63.41656,-26.28271,-120.3747,0.001067912,-0.1257102,0.09433498,0,0.3,0,0,0.1996739,0
6.38225E+17,-25.25628,19.75458,21.54953,-42.10976,3.78415,-13.32441,52.89211,37.45188,-11.39347,-25.40986,-38.03884,25.27579,0,0,0,-74.44602,-55.60766,-10.54667,63.41656,-26.28271,-120.3747,0.001067912,-0.1257102,0.09433498,0,0.3,0,0,0.2000293,0
6.38225E+17,-21.84008,19.05324,18.70116,-37.27558,8.618331,-15.15554,52.89211,37.45188,-11.39347,-25.40986,-38.03884,25.27579,0,0,0,-62.79682,-59.42798,-11.66474,63.41656,-26.28271,-120.3747,0.001067912,-0.1257102,0.09433498,0,0.3,0,0,0.2004861,0
6.38225E+17,-19.55477,19.56756,17.55714,-33.9063,10.52271,-16.03448,52.89211,37.45188,-11.39347,-25.40986,-38.03884,25.27579,0,0,0,-55.51952,-59.12677,-12.04271,63.41656,-26.28271,-120.3747,0.001067912,-0.1257102,0.09433498,0,0.3,0,0,0.2011074,0
6.38225E+17,-17.90557,20.22215,17.0435,-31.12299,11.54814,-16.32746,52.89211,37.45188,-11.39347,-25.40986,-38.03884,25.27579,0,0,0,-50.48771,-58.04972,-12.089,63.41656,-26.28271,-120.3747,0.001067912,-0.1257102,0.09433498,0,0.3,0,0,0.201466,0
6.38225E+17,-15.14906,22.32619,16.48317,-25.26337,12.64682,-16.5472,52.89211,37.45188,-11.39347,-25.40986,-38.03884,25.27579,0,0,0,-42.12381,-53.86288,-12.76199,63.41656,-26.28271,-120.3747,0.001067912,-0.1257102,0.09433498,0,0.3,0,0,0.2022912,0
6.38225E+17,-13.64122,25.62251,16.41313,-19.11078,12.20734,-15.81474,52.89211,37.45188,-11.39347,-25.40986,-38.03884,25.27579,0,0,0,-37.24317,-46.90001,-14.8883,63.41656,-26.28271,-120.3747,0.001067912,-0.1257102,0.09433498,0,0.3,0,0,0.2032503,0
6.38225E+17,-13.49986,27.5629,16.52986,-16.5472,11.3284,-15.52176,52.89211,37.45188,-11.39347,-25.40986,-38.03884,25.27579,0,0,0,-36.45335,-42.78486,-16.50918,63.41656,-26.28271,-120.3747,0.001067912,-0.1257102,0.09433498,0,0.3,0,0,0.2037714,0
6.38225E+17,-13.90038,31.25666,17.37037,-12.95818,8.545086,-15.37527,52.89211,37.45188,-11.39347,-25.40986,-38.03884,25.27579,0,0,0,-36.94943,-34.72689,-19.04849,63.41656,-26.28271,-120.3747,0.001067912,-0.1257102,0.09433498,0,0.3,0,0,0.2048572,0
6.38225E+17,-14.93702,33.75813,18.56108,-10.98056,5.029318,-15.30203,52.89211,37.45188,-11.39347,-25.40986,-38.03884,25.27579,0,0,0,-39.51759,-28.96277,-20.21717,63.41656,-26.28271,-120.3747,0.001067912,-0.1257102,0.09433498,0,0.3,0,0,0.2059404,0
6.38225E+17,-16.63333,34.55299,19.49497,-10.46785,1.51355,-15.08229,52.89211,37.45188,-11.39347,-25.40986,-38.03884,25.27579,0,0,0,-44.17616,-26.72329,-20.47829,63.41656,-26.28271,-120.3747,0.001067912,-0.1257102,0.09433498,0,0.3,0,0,0.2069777,0
6.38225E+17,-18.16473,34.50623,20.0553,-10.90732,-0.5373149,-14.34984,52.89211,37.45188,-11.39347,-25.40986,-38.03884,25.27579,0,0,0,-48.51403,-26.37172,-20.48705,63.41656,-26.28271,-120.3747,0.001067912,-0.1257102,0.09433498,0,0.3,0,0,0.2074629,0
6.38225E+17,-19.86105,34.3192,20.73237,-12.07924,-2.295199,-13.61739,52.89211,37.45188,-11.39347,-25.40986,-38.03884,25.27579,0,0,0,-53.45518,-26.1817,-20.36741,63.41656,-26.28271,-120.3747,0.001067912,-0.1257102,0.09433498,0,0.3,0,0,0.2083319,0
6.38225E+17,-22.07568,33.54772,21.54953,-14.71607,-4.272818,-12.95818,52.89211,37.45188,-11.39347,-25.40986,-38.03884,25.27579,0,0,0,-60.17712,-26.9855,-19.971,63.41656,-26.28271,-120.3747,0.001067912,-0.1257102,0.09433498,0,0.3,0,0,0.2090629,0
6.38225E+17,-23.25368,32.7061,21.85304,-16.47395,-5.078516,-12.6652,52.89211,37.45188,-11.39347,-25.40986,-38.03884,25.27579,0,0,0,-63.89659,-28.36468,-19.653,63.41656,-26.28271,-120.3747,0.001067912,-0.1257102,0.09433498,0,0.3,0,0,0.2093493,0
6.38225E+17,-25.6568,28.96559,22.1799,-21.38138,-5.884212,-11.34679,52.89211,37.45188,-11.39347,-25.40986,-38.03884,25.27579,0,0,0,-72.31239,-35.5532,-17.80557,63.41656,-26.28271,-120.3747,0.001067912,-0.1257102,0.09433498,0,0.3,0,0,0.2099137,0
6.38225E+17,-26.05732,27.53952,22.20325,-22.69979,-5.810967,-10.76083,52.89211,37.45188,-11.39347,-25.40986,-38.03884,25.27579,0,0,0,-74.07519,-38.45623,-16.85817,63.41656,-26.28271,-120.3747,0.001067912,-0.1257102,0.09433498,0,0.3,0,0,0.2100166,0
6.38225E+17,-26.4814,24.43022,22.1799,-24.45767,-5.078516,-9.588906,52.89211,37.45188,-11.39347,-25.40986,-38.03884,25.27579,0,0,0,-76.58561,-44.98098,-14.61804,63.41656,-26.28271,-120.3747,0.001067912,-0.1257102,0.09433498,0,0.3,0,0,0.2101358,0
6.38225E+17,-26.85836,21.39106,22.1799,-25.40986,-3.979838,-8.636719,52.89211,37.45188,-11.39347,-25.40986,-38.03884,25.27579,0,0,0,-78.83928,-51.49557,-12.66895,63.41656,-26.28271,-120.3747,0.001067912,-0.1257102,0.09433498,0,0.3,0,0,0.2101714,0
6.38225E+17,-27.04683,19.77796,22.1799,-25.70284,-3.393876,-8.343738,52.89211,37.45188,-11.39347,-25.40986,-38.03884,25.27579,0,0,0,-79.95117,-55.01007,-11.75357,63.41656,-26.28271,-120.3747,0.001067912,-0.1257102,0.09433498,0,0.3,0,0,0.210161,0
6.38225E+17,-27.37668,16.71542,22.31999,-26.06907,-2.295199,-7.684532,52.89211,37.45188,-11.39347,-25.40986,-38.03884,25.27579,0,0,0,-82.01622,-61.65517,-9.966887,63.41656,-26.28271,-120.3747,0.001067912,-0.1257102,0.09433498,0,0.3,0,0,0.2100745,0
6.38225E+17,-27.77719,13.58274,22.71689,-26.21556,-1.196521,-6.659099,52.89211,37.45188,-11.39347,-25.40986,-38.03884,25.27579,0,0,0,-84.4069,-68.33813,-8.103496,63.41656,-26.28271,-120.3747,0.001067912,-0.1257102,0.09433498,0,0.3,0,0,0.2099109,0
6.38225E+17,-28.01279,12.15667,23.0204,-26.28881,-0.8302955,-6.146383,52.89211,37.45188,-11.39347,-25.40986,-38.03884,25.27579,0,0,0,-85.71801,-71.29919,-7.224674,63.41656,-26.28271,-120.3747,0.001067912,-0.1257102,0.09433498,0,0.3,0,0,0.2097884,0
6.38225E+17,-28.71959,9.351281,24.02434,-26.4353,-0.171089,-4.901215,52.89211,37.45188,-11.39347,-25.40986,-38.03884,25.27579,0,0,0,-89.3139,-76.78059,-5.347182,63.41656,-26.28271,-120.3747,0.001067912,-0.1257102,0.09433498,0,0.3,0,0,0.2094709,0
6.38225E+17,-29.63843,6.63941,25.33178,-26.87477,0.3416272,-3.436311,52.89211,37.45188,-11.39347,-25.40986,-38.03884,25.27579,0,0,0,-93.71778,-81.7598,-3.63421,63.41656,-26.28271,-120.3747,0.001067912,-0.1257102,0.09433498,0,0.3,0,0,0.2090506,0
6.38225E+17,-30.48659,4.16132,26.73262,-27.46073,0.4148723,-1.605182,52.89211,37.45188,-11.39347,-25.40986,-38.03884,25.27579,0,0,0,-97.90733,-86.07041,-2.047342,63.41656,-26.28271,-120.3747,0.001067912,-0.1257102,0.09433498,0,0.3,0,0,0.2085206,0
6.38225E+17,-30.88711,2.945654,27.50308,-27.82695,0.4148723,-0.6529952,52.89211,37.45188,-11.39347,-25.40986,-38.03884,25.27579,0,0,0,-99.97678,-88.0769,-1.215636,63.41656,-26.28271,-120.3747,0.001067912,-0.1257102,0.09433498,0,0.3,0,0,0.2082167,0
6.38225E+17,-31.61747,0.7247244,29.044,-28.48616,0.1951368,1.324624,52.89211,37.45188,-11.39347,-25.40986,-38.03884,25.27579,0,0,0,-103.8416,-91.54418,0.3269213,63.41656,-26.28271,-120.3747,0.001067912,-0.1257102,0.09433498,0,0.3,0,0,0.2075342,0
6.38225E+17,-32.3007,-0.9585064,30.63161,-29.07212,-0.171089,3.888205,52.89211,37.45188,-11.39347,-25.40986,-38.03884,25.27579,0,0,0,-107.554,-93.6232,1.77903,63.41656,-26.28271,-120.3747,0.001067912,-0.1257102,0.09433498,0,0.3,0,0,0.2067604,0
6.38225E+17,-32.88971,-1.005263,31.5655,-29.80457,-0.9767859,6.964502,52.89211,37.45188,-11.39347,-25.40986,-38.03884,25.27579,0,0,0,-110.3069,-92.60936,2.225668,63.41656,-26.28271,-120.3747,0.001067912,-0.1257102,0.09433498,0,0.3,0,0,0.2059221,0
6.38225E+17,-33.33735,-1.028641,32.82626,-30.46378,-2.002218,10.48027,52.89211,37.45188,-11.39347,-25.40986,-38.03884,25.27579,0,0,0,-113.0002,-91.10037,3.4323,63.41656,-26.28271,-120.3747,0.001067912,-0.1257102,0.09433498,0,0.3,0,0,0.2050435,0
6.38225E+17,-33.62006,-1.028641,33.50333,-30.68352,-2.514934,12.67763,52.89211,37.45188,-11.39347,-25.40986,-38.03884,25.27579,0,0,0,-114.5769,-90.23833,3.971079,63.41656,-26.28271,-120.3747,0.001067912,-0.1257102,0.09433498,0,0.3,0,0,0.2045781,0
6.38225E+17,-34.6567,-1.028641,35.53454,-31.34272,-3.320631,17.07234,52.89211,37.45188,-11.39347,-25.40986,-38.03884,25.27579,0,0,0,-119.8906,-87.55953,5.073834,63.41656,-26.28271,-120.3747,0.001067912,-0.1257102,0.09433498,0,0.3,0,0,0.2035615,0
6.38225E+17,-36.3059,-1.005263,38.28952,-33.17385,-3.979838,20.44161,52.89211,37.45188,-11.39347,-25.40986,-38.03884,25.27579,0,0,0,-127.8678,-83.65458,5.683381,63.41656,-26.28271,-120.3747,0.001067912,-0.1257102,0.09433498,0,0.3,0,0,0.2023658,0
6.38225E+17,-37.08338,-0.9818845,39.87713,-34.63876,-4.346064,21.83327,52.89211,37.45188,-11.39347,-25.40986,-38.03884,25.27579,0,0,0,-131.9475,-81.27073,6.221093,63.41656,-26.28271,-120.3747,0.001067912,-0.1257102,0.09433498,0,0.3,0,0,0.2016871,0
6.38225E+17,-38.40274,-0.9818845,43.19244,-38.08128,-4.932025,24.03063,52.89211,37.45188,-11.39347,-25.40986,-38.03884,25.27579,0,0,0,-139.5194,-76.15513,7.662416,63.41656,-26.28271,-120.3747,0.001067912,-0.1257102,0.09433498,0,0.3,0,0,0.2001437,0
6.38225E+17,-39.74566,-0.8883717,47.13813,-42.18301,-5.444741,26.37447,52.89211,37.45188,-11.39347,-25.40986,-38.03884,25.27579,0,0,0,-147.7474,-69.42661,9.324373,63.41656,-26.28271,-120.3747,0.001067912,-0.1257102,0.09433498,0,0.3,0,0,0.1983408,0
6.38225E+17,-40.35821,-0.6545897,49.21603,-44.52685,-5.737722,27.39991,52.89211,37.45188,-11.39347,-25.40986,-38.03884,25.27579,0,0,0,-151.7314,-65.27884,10.19749,63.41656,-26.28271,-120.3747,0.001067912,-0.1257102,0.09433498,0,0.3,0,0,0.1973388,0
6.38225E+17,-41.39485,0.09351282,53.7921,-49.36103,-6.177193,29.15779,52.89211,37.45188,-11.39347,-25.40986,-38.03884,25.27579,0,0,0,-159.325,-55.20446,12.40142,63.41656,-26.28271,-120.3747,0.001067912,-0.1257102,0.09433498,0,0.3,0,0,0.1951378,0
6.38225E+17,-41.91317,1.42607,59.06858,-55.22065,-6.396928,30.25646,52.89211,37.45188,-11.39347,-25.40986,-38.03884,25.27579,0,0,0,-165.4605,-41.87477,15.97354,63.41656,-26.28271,-120.3747,0.001067912,-0.1257102,0.09433498,0,0.3,0,0,0.1926924,0
6.38225E+17,-41.91317,2.47809,61.26323,-58.58992,-6.396928,30.54945,52.89211,37.45188,-11.39347,-25.40986,-38.03884,25.27579,0,0,0,-167.1022,-34.99717,17.80232,63.41656,-26.28271,-120.3747,0.001067912,-0.1257102,0.09433498,0,0.3,0,0,0.1913996,0
6.38225E+17,-41.46553,5.33023,63.69135,-65.25523,-6.177193,30.69594,52.89211,37.45188,-11.39347,-25.40986,-38.03884,25.27579,0,0,0,-167.0726,-23.36394,20.72024,63.41656,-26.28271,-120.3747,0.001067912,-0.1257102,0.09433498,0,0.3,0,0,0.1887139,0
6.38225E+17,-40.71161,8.06548,63.90147,-70.82186,-5.664476,29.15779,52.89211,37.45188,-11.39347,-25.40986,-38.03884,25.27579,0,0,0,-164.2269,-16.60319,22.50314,63.41656,-26.28271,-120.3747,0.001067912,-0.1257102,0.09433498,0,0.3,0,0,0.1859822,0
6.38225E+17,-40.05193,9.912358,62.66406,-74.48412,-5.225006,26.66745,52.89211,37.45188,-11.39347,-25.40986,-38.03884,25.27579,0,0,0,-160.7534,-14.93015,22.87614,63.41656,-26.28271,-120.3747,0.001067912,-0.1257102,0.09433498,0,0.3,0,0,0.1832749,0
