zeyangz2/DNN_classification_different_people_hand/zeyang_test/zeyang_right_31.csv
Timestamp,Therapist joint angle 0,Therapist joint angle 1,Therapist joint angle 2,Therapist joint angle 3,Therapist joint angle 4,Therapist joint angle 5,Patient joint angle 0,Patient joint angle 1,Patient joint angle 2,Patient joint angle 3,Patient joint angle 4,Patient joint angle 5,Virtual joint angle 0,Virtual joint angle 1,Virtual joint angle 2,Therapist position x,Therapist position y,Therapist position z,Patient position x,Patient position y,Patient position z,Virtual position x,Virtual position y,Virtual position z,Assistive Force, Obstacle Force Magnitude, Therapist Constant Force, Patient Constant Force, Recovery Factor, Assistance Level
6.38225E+17,0,0,0,0,0,0,0,0,0,0,0,0,0,0,0,0,0,0,0,0,0,0,0,0,0,0.3,0,0,0,0
6.38225E+17,-5.489471,-1.028641,-4.085772,48.34802,-63.96763,127.1598,51.14867,0.07013461,-13.16786,62.63083,-7.715342,19.85565,0,0,0,-11.84568,-112.055,-45.09054,80.19228,-106.3306,-103.7554,0.001067912,-0.1257102,0.09433498,0,0.3,0,0,0,0
6.38225E+17,-5.489471,-1.028641,-4.085772,48.34802,-63.96763,127.0866,51.14867,0.07013461,-13.16786,62.70407,-7.715342,19.85565,0,0,0,-11.84568,-112.055,-45.09054,80.19228,-106.3306,-103.7554,0.001067912,-0.1257102,0.09433498,0,0.3,0,0,0,0
6.38225E+17,-5.489471,-1.028641,-4.085772,48.34802,-63.96763,127.0866,51.14867,0.07013461,-13.16786,62.70407,-7.715342,19.85565,0,0,0,-11.84568,-112.055,-45.09054,80.19228,-106.3306,-103.7554,0.001067912,-0.1257102,0.09433498,0,0.3,0,0,0,0
6.38225E+17,-5.489471,-1.028641,-4.085772,48.34802,-63.96763,127.0866,51.14867,0.07013461,-13.16786,62.70407,-7.715342,19.85565,0,0,0,-11.84568,-112.055,-45.09054,80.19228,-106.3306,-103.7554,0.001067912,-0.1257102,0.09433498,0,0.3,0,0,0,0
6.38225E+17,-5.489471,-1.028641,-4.085772,48.34802,-63.96763,127.1598,51.14867,0.07013461,-13.16786,62.63083,-7.715342,19.78241,0,0,0,-11.84568,-112.055,-45.09054,80.19228,-106.3306,-103.7554,0.001067912,-0.1257102,0.09433498,0,0.3,0,0,0,0
6.38225E+17,-5.489471,-1.028641,-4.085772,48.34802,-63.96763,127.1598,51.14867,0.07013461,-13.16786,62.70407,-7.715342,19.85565,0,0,0,-11.84568,-112.055,-45.09054,80.19228,-106.3306,-103.7554,0.001067912,-0.1257102,0.09433498,0,0.3,0,0,0,0
6.38225E+17,-5.489471,-1.028641,-4.085772,48.34802,-63.96763,127.1598,51.14867,0.07013461,-13.16786,62.70407,-7.715342,19.85565,0,0,0,-11.84568,-112.055,-45.09054,80.19228,-106.3306,-103.7554,0.001067912,-0.1257102,0.09433498,0,0.3,0,0,0,0
6.38225E+17,-5.489471,-1.028641,-4.085772,48.34802,-63.96763,127.1598,51.14867,0.07013461,-13.16786,62.70407,-7.715342,19.85565,0,0,0,-11.84568,-112.055,-45.09054,80.19228,-106.3306,-103.7554,0.001067912,-0.1257102,0.09433498,0,0.3,0,0,0,0
6.38225E+17,-5.489471,-1.028641,-4.085772,48.34802,-63.96763,127.1598,51.14867,0.07013461,-13.16786,62.63083,-7.788587,19.85565,0,0,0,-11.84568,-112.055,-45.09054,80.19228,-106.3306,-103.7554,0.001067912,-0.1257102,0.09433498,0,0.3,0,0,0,0
6.38225E+17,-5.489471,-1.028641,-4.085772,48.34802,-63.96763,127.0866,51.14867,0.07013461,-13.16786,62.70407,-7.715342,19.85565,0,0,0,-11.84568,-112.055,-45.09054,80.19228,-106.3306,-103.7554,0.001067912,-0.1257102,0.09433498,0,0.3,0,0,0,0
6.38225E+17,-5.489471,-1.028641,-4.085772,48.34802,-63.96763,127.0866,51.14867,0.07013461,-13.16786,62.70407,-7.715342,19.85565,0,0,0,-11.84568,-112.055,-45.09054,80.19228,-106.3306,-103.7554,0.001067912,-0.1257102,0.09433498,0,0.3,0,0,0,0
6.38225E+17,-5.489471,-1.028641,-4.085772,48.34802,-63.96763,127.0866,51.14867,0.07013461,-13.16786,62.70407,-7.715342,19.85565,0,0,0,-11.84568,-112.055,-45.09054,80.19228,-106.3306,-103.7554,0.001067912,-0.1257102,0.09433498,0,0.3,0,0,0,0
6.38225E+17,-5.489471,-1.028641,-4.085772,48.34802,-63.96763,127.0866,51.14867,0.07013461,-13.16786,62.63083,-7.715342,19.85565,0,0,0,-11.84568,-112.055,-45.09054,80.19228,-106.3306,-103.7554,0.001067912,-0.1257102,0.09433498,0,0.3,0,0,0,0
6.38225E+17,-5.489471,-1.028641,-4.085772,48.34802,-63.96763,127.1598,51.14867,0.07013461,-13.16786,62.70407,-7.715342,19.85565,0,0,0,-11.84568,-112.055,-45.09054,80.19228,-106.3306,-103.7554,0.001067912,-0.1257102,0.09433498,0,0.3,0,0,0,0
6.38225E+17,-5.489471,-1.028641,-4.085772,48.34802,-63.96763,127.0866,51.14867,0.07013461,-13.16786,62.70407,-7.715342,19.78241,0,0,0,-11.84568,-112.055,-45.09054,80.19228,-106.3306,-103.7554,0.001067912,-0.1257102,0.09433498,0,0.3,0,0,0,0
6.38225E+17,-5.489471,-1.028641,-4.085772,48.34802,-63.96763,127.1598,51.14867,0.07013461,-13.16786,62.70407,-7.715342,19.85565,0,0,0,-11.84568,-112.055,-45.09054,80.19228,-106.3306,-103.7554,0.001067912,-0.1257102,0.09433498,0,0.3,0,0,0,0
6.38225E+17,-5.489471,-1.028641,-4.085772,48.34802,-63.96763,127.0866,51.14867,0.07013461,-13.16786,62.63083,-7.788587,19.85565,0,0,0,-11.84568,-112.055,-45.09054,80.19228,-106.3306,-103.7554,0.001067912,-0.1257102,0.09433498,0,0.3,0,0,0,0
6.38225E+17,-5.489471,-1.028641,-4.085772,48.34802,-63.96763,127.0866,51.14867,0.07013461,-13.16786,62.63083,-7.788587,19.85565,0,0,0,-11.84568,-112.055,-45.09054,80.19228,-106.3306,-103.7554,0.001067912,-0.1257102,0.09433498,0,0.3,0,0,0,0
6.38225E+17,-5.489471,-1.028641,-4.085772,48.34802,-63.96763,127.0866,51.14867,0.07013461,-13.16786,62.63083,-7.715342,19.85565,0,0,0,-11.84568,-112.055,-45.09054,80.19228,-106.3306,-103.7554,0.001067912,-0.1257102,0.09433498,0,0.3,0,0,0,0
6.38225E+17,-5.489471,-1.028641,-4.085772,48.34802,-63.96763,127.0866,51.14867,0.07013461,-13.16786,62.70407,-7.715342,19.85565,0,0,0,-11.84568,-112.055,-45.09054,80.19228,-106.3306,-103.7554,0.001067912,-0.1257102,0.09433498,0,0.3,0,0,0,0
6.38225E+17,-5.489471,-1.028641,-4.085772,48.34802,-63.96763,127.0866,51.14867,0.07013461,-13.16786,62.63083,-7.715342,19.85565,0,0,0,-11.84568,-112.055,-45.09054,80.19228,-106.3306,-103.7554,0.001067912,-0.1257102,0.09433498,0,0.3,0,0,0,0
6.38225E+17,-5.489471,-1.028641,-4.085772,48.34802,-63.96763,127.0866,51.14867,0.07013461,-13.16786,62.63083,-7.715342,19.78241,0,0,0,-11.84568,-112.055,-45.09054,80.19228,-106.3306,-103.7554,0.001067912,-0.1257102,0.09433498,0,0.3,0,0,0,0
6.38225E+17,-5.489471,-1.028641,-4.085772,48.34802,-63.96763,127.0866,51.14867,0.07013461,-13.16786,62.70407,-7.715342,19.85565,0,0,0,-11.84568,-112.055,-45.09054,80.19228,-106.3306,-103.7554,0.001067912,-0.1257102,0.09433498,0,0.3,0,0,0,0
6.38225E+17,-5.489471,-1.028641,-4.085772,48.34802,-63.96763,127.0866,51.14867,0.07013461,-13.16786,62.70407,-7.715342,19.85565,0,0,0,-11.84568,-112.055,-45.09054,80.19228,-106.3306,-103.7554,0.001067912,-0.1257102,0.09433498,0,0.3,0,0,0,0
6.38225E+17,-5.489471,-1.028641,-4.085772,48.34802,-63.96763,127.1598,51.14867,0.07013461,-13.16786,62.70407,-7.715342,19.85565,0,0,0,-11.84568,-112.055,-45.09054,80.19228,-106.3306,-103.7554,0.001067912,-0.1257102,0.09433498,0,0.3,0,0,0,0
6.38225E+17,-5.489471,-1.028641,-4.085772,48.34802,-63.96763,127.1598,51.14867,0.07013461,-13.16786,62.70407,-7.715342,19.85565,0,0,0,-11.84568,-112.055,-45.09054,80.19228,-106.3306,-103.7554,0.001067912,-0.1257102,0.09433498,0,0.3,0,0,6.98E-08,0
6.38225E+17,-5.489471,-1.028641,-4.085772,48.34802,-63.96763,127.1598,51.14867,0.07013461,-13.16786,62.70407,-7.715342,19.85565,0,0,0,-11.84568,-112.055,-45.09054,80.19228,-106.3306,-103.7554,0.001067912,-0.1257102,0.09433498,0,0.3,0,0,6.98E-08,0
6.38225E+17,-5.489471,-1.028641,-4.085772,48.34802,-63.96763,127.0866,51.14867,0.07013461,-13.16786,62.70407,-7.715342,19.85565,0,0,0,-11.84568,-112.055,-45.09054,80.19228,-106.3306,-103.7554,0.001067912,-0.1257102,0.09433498,0,0.3,0,0,1.40E-07,0
6.38225E+17,-5.489471,-1.028641,-4.085772,48.34802,-63.89439,126.9401,51.14867,0.07013461,-13.16786,62.70407,-7.788587,19.85565,0,0,0,-11.84568,-112.055,-45.09054,80.19228,-106.3306,-103.7554,0.001067912,-0.1257102,0.09433498,0,0.3,0,0,2.09E-07,0
6.38225E+17,-5.489471,-1.028641,-4.085772,48.34802,-63.23518,126.7936,51.14867,0.07013461,-13.16786,62.70407,-7.715342,19.85565,0,0,0,-11.84568,-112.055,-45.09054,80.19228,-106.3306,-103.7554,0.001067912,-0.1257102,0.09433498,0,0.3,0,0,2.79E-07,0
6.38225E+17,-5.489471,-1.028641,-4.085772,48.34802,-62.1365,126.7204,51.14867,0.07013461,-13.16786,62.63083,-7.715342,19.85565,0,0,0,-11.84568,-112.055,-45.09054,80.19228,-106.3306,-103.7554,0.001067912,-0.1257102,0.09433498,0,0.3,0,0,3.49E-07,0
6.38225E+17,-5.489471,-1.028641,-3.969035,48.27478,-60.59835,127.2331,51.14867,0.07013461,-13.16786,62.63083,-7.715342,19.85565,0,0,0,-11.8716,-112.0741,-44.82076,80.19228,-106.3306,-103.7554,0.001067912,-0.1257102,0.09433498,0,0.3,0,0,0,0
6.38225E+17,-5.489471,-1.028641,-3.782257,47.46908,-59.8659,128.9177,51.14867,0.07013461,-13.16786,62.70407,-7.715342,19.85565,0,0,0,-11.91309,-112.1035,-44.38904,80.19228,-106.3306,-103.7554,0.001067912,-0.1257102,0.09433498,0,0.3,0,0,0,0
6.38225E+17,-5.489471,-0.8883717,-3.735562,36.55555,-57.00934,144.0062,51.14867,0.07013461,-13.16786,62.70407,-7.715342,19.85565,0,0,0,-11.92399,-111.7842,-44.27566,80.19228,-106.3306,-103.7554,0.001067912,-0.1257102,0.09433498,0,0.3,0,0,0,0
6.38225E+17,-5.489471,-0.8182371,-3.75891,33.40601,-56.05715,144.6654,51.14867,0.07013461,-13.16786,62.70407,-7.715342,19.78241,0,0,0,-11.91903,-111.6174,-44.32721,80.19228,-106.3306,-103.7554,0.001067912,-0.1257102,0.09433498,0,0.3,0,0,0,0
6.38225E+17,-5.489471,-0.5844551,-3.782257,23.59116,-52.61463,144.9584,51.14867,0.07013461,-13.16786,62.70407,-7.715342,19.85565,0,0,0,-11.91448,-111.0698,-44.37455,80.19228,-106.3306,-103.7554,0.001067912,-0.1257102,0.09433498,0,0.3,0,0,0,0
6.38225E+17,-5.489471,-0.4208077,-3.922341,14.72849,-47.92694,144.8852,51.14867,0.07013461,-13.16786,62.70407,-7.715342,19.85565,0,0,0,-11.88369,-110.667,-44.69503,80.19228,-106.3306,-103.7554,0.001067912,-0.1257102,0.09433498,0,0.3,0,0,0,0
6.38225E+17,-5.489471,-0.4675641,-3.969035,7.110993,-41.48137,144.8852,51.14867,0.07013461,-13.16786,62.70407,-7.715342,19.85565,0,0,0,-11.87323,-110.7684,-44.80379,80.19228,-106.3306,-103.7554,0.001067912,-0.1257102,0.09433498,0,0.3,0,0,0,0
6.38225E+17,-5.489471,-0.5376987,-3.898993,4.474167,-38.03884,144.8852,51.14867,0.07013461,-13.16786,62.70407,-7.715342,19.85565,0,0,0,-11.88865,-110.9428,-44.64333,80.19228,-106.3306,-103.7554,0.001067912,-0.1257102,0.09433498,0,0.3,0,0,0,0
6.38225E+17,-5.489471,-0.8883717,-2.895061,-0.0670338,-30.05512,144.9584,51.14867,0.07013461,-13.16786,62.70407,-7.715342,19.85565,0,0,0,-12.11081,-111.8973,-42.33173,80.19228,-106.3306,-103.7554,0.001067912,-0.1257102,0.09433498,0,0.3,0,0,0,0
6.38225E+17,-5.465911,-0.9818845,-1.400836,-3.289821,-21.70517,138.0733,51.14867,0.07013461,-13.16786,62.70407,-7.715342,19.85565,0,0,0,-12.38967,-112.2453,-38.87098,80.19228,-106.3306,-103.7554,0.001067912,-0.1257102,0.09433498,0,0.3,0,0,0,0
6.38225E+17,-5.465911,-0.9351282,-0.7237652,-4.461744,-17.5302,137.0479,51.14867,0.07013461,-13.16786,62.70407,-7.715342,19.85565,0,0,0,-12.53991,-112.1657,-37.3008,80.19228,-106.3306,-103.7554,0.001067912,-0.1257102,0.09433498,0,0.3,0,0,0,0
6.38225E+17,-5.465911,-0.8883717,-0.0700418,-6.073137,-9.326735,144.5189,51.14867,0.07013461,-13.16786,62.70407,-7.788587,19.85565,0,0,0,-12.685,-112.0674,-35.78456,80.19228,-106.3306,-103.7554,0.001067912,-0.1257102,0.09433498,0,0.3,0,0,0,0
6.38225E+17,-5.465911,-0.7247244,-0.5369871,-6.732344,-4.126328,144.9584,51.14867,0.07013461,-13.16786,62.70407,-7.788587,19.85565,0,0,0,-12.582,-111.6808,-36.86103,80.19228,-106.3306,-103.7554,0.001067912,-0.1257102,0.09433498,0,0.3,0,0,0,0
6.38225E+17,-5.465911,-0.7013461,-0.6303762,-7.09857,-1.123276,144.9584,51.14867,0.07013461,-13.16786,62.70407,-7.788587,19.78241,0,0,0,-12.56136,-111.6242,-37.07672,80.19228,-106.3306,-103.7554,0.001067912,-0.1257102,0.09433498,0,0.3,0,0,0,0
6.38225E+17,-5.465911,-0.7481025,-0.8405016,-7.757777,5.835015,144.8852,51.14867,0.07013461,-13.16786,62.70407,-7.715342,19.85565,0,0,0,-12.51465,-111.7267,-37.56487,80.19228,-106.3306,-103.7554,0.001067912,-0.1257102,0.09433498,0,0.3,0,0,0,0
6.38225E+17,-5.465911,-0.7481025,-1.44753,-7.977511,12.35384,144.8119,51.14867,0.07013461,-13.16786,62.70407,-7.715342,19.85565,0,0,0,-12.3801,-111.6985,-38.97095,80.19228,-106.3306,-103.7554,0.001067912,-0.1257102,0.09433498,0,0.3,0,0,0,0
6.38225E+17,-5.465911,-0.7948589,-2.918408,-7.757777,18.65292,144.8852,51.14867,0.07013461,-13.16786,62.70407,-7.788587,19.85565,0,0,0,-12.05412,-111.6769,-42.37759,80.19228,-106.3306,-103.7554,0.001067912,-0.1257102,0.09433498,0,0.3,0,0,0,0
6.38225E+17,-5.465911,-1.005263,-4.762842,-6.878834,23.99982,144.8852,51.14867,0.07013461,-13.16786,62.70407,-7.788587,19.85565,0,0,0,-11.64543,-111.8791,-46.64868,80.19228,-106.3306,-103.7554,0.001067912,-0.1257102,0.09433498,0,0.3,0,0,0,0
6.38225E+17,-5.465911,-1.028641,-5.930205,-6.146383,26.27042,144.8852,51.14867,0.07013461,-13.16786,62.70407,-7.715342,19.85565,0,0,0,-11.38767,-111.6803,-49.3424,80.19228,-106.3306,-103.7554,0.001067912,-0.1257102,0.09433498,0,0.3,0,0,0,0
6.38225E+17,-5.465911,-1.028641,-8.03146,-5.120951,29.27347,144.8119,51.14867,0.07013461,-13.16786,62.70407,-7.788587,19.85565,0,0,0,-10.92532,-111.086,-54.17425,80.19228,-106.3306,-103.7554,0.001067912,-0.1257102,0.09433498,0,0.3,0,0,0,0
6.38225E+17,-5.465911,-1.028641,-9.829199,-4.608234,30.88486,144.8852,51.14867,0.07013461,-13.16786,62.70407,-7.788587,19.85565,0,0,0,-10.53162,-110.4365,-58.28862,80.19228,-106.3306,-103.7554,0.001067912,-0.1257102,0.09433498,0,0.3,0,0,0,0
6.38225E+17,-5.465911,-1.028641,-10.36619,-4.754725,31.17784,144.8852,51.14867,0.07013461,-13.16786,62.70407,-7.715342,19.85565,0,0,0,-10.41442,-110.2174,-59.51344,80.19228,-106.3306,-103.7554,0.001067912,-0.1257102,0.09433498,0,0.3,0,0,0,0
6.38225E+17,-5.465911,-1.028641,-10.57631,-5.267441,31.03135,144.8119,51.14867,0.07013461,-13.16786,62.70407,-7.715342,19.85565,0,0,0,-10.36861,-110.1285,-59.99216,80.19228,-106.3306,-103.7554,0.001067912,-0.1257102,0.09433498,0,0.3,0,0,0,0
6.38225E+17,-5.465911,-1.028641,-10.57631,-5.487176,29.93268,144.8119,51.14867,0.07013461,-13.16786,62.63083,-7.788587,19.85565,0,0,0,-10.36861,-110.1285,-59.99216,80.19228,-106.3306,-103.7554,0.001067912,-0.1257102,0.09433498,0,0.3,0,0,0.000217864,0
6.38225E+17,-5.465911,-1.028641,-10.57631,-5.926647,29.05373,144.8119,51.14867,0.07013461,-13.16786,62.63083,-7.788587,19.85565,0,0,0,-10.36861,-110.1285,-59.99216,80.19228,-106.3306,-103.7554,0.001067912,-0.1257102,0.09433498,0,0.3,0,0,0.001827166,0
6.38225E+17,-5.465911,-1.028641,-10.57631,-6.292873,28.68751,144.8852,51.14867,0.07013461,-13.16786,62.70407,-7.788587,19.85565,0,0,0,-10.36861,-110.1285,-59.99216,80.19228,-106.3306,-103.7554,0.001067912,-0.1257102,0.09433498,0,0.3,0,0,0.002607385,0
6.38225E+17,-5.465911,-1.028641,-10.57631,-6.732344,27.88181,144.9584,51.14867,0.07013461,-13.16786,62.70407,-7.788587,19.85565,0,0,0,-10.36861,-110.1285,-59.99216,80.19228,-106.3306,-103.7554,0.001067912,-0.1257102,0.09433498,0,0.3,0,0,0.004121611,0
6.38225E+17,-5.465911,-1.028641,-10.45957,-7.09857,27.07611,140.7834,51.14867,0.07013461,-13.16786,62.70407,-7.715342,19.85565,0,0,0,-10.39406,-110.1781,-59.72625,80.19228,-106.3306,-103.7554,0.001067912,-0.1257102,0.09433498,0,0.3,0,0,0.005561913,0
6.38225E+17,-5.465911,-1.028641,-10.31949,-7.391551,26.63664,136.3887,51.14867,0.07013461,-13.16786,62.70407,-7.788587,19.85565,0,0,0,-10.4246,-110.2369,-59.40702,80.19228,-106.3306,-103.7554,0.001067912,-0.1257102,0.09433498,0,0.3,0,0,0.006241472,0
6.38225E+17,-5.465911,-1.005263,-9.969283,-8.343738,26.19717,129.2839,51.14867,0.07013461,-13.16786,62.63083,-7.788587,19.85565,0,0,0,-10.50112,-110.326,-58.60737,80.19228,-106.3306,-103.7554,0.001067912,-0.1257102,0.09433498,0,0.3,0,0,0.007500908,0
6.38225E+17,-5.465911,-0.8416153,-9.198823,-9.515661,25.83095,123.0581,51.14867,0.07013461,-13.16786,62.70407,-7.715342,19.85565,0,0,0,-10.67012,-110.2438,-56.84118,80.19228,-106.3306,-103.7554,0.001067912,-0.1257102,0.09433498,0,0.3,0,0,0.00858534,0
6.38225E+17,-5.371671,-0.4909423,-8.19489,-10.76083,25.31823,116.9788,51.14867,0.07013461,-13.16786,62.70407,-7.788587,19.85565,0,0,0,-10.70381,-109.781,-54.51482,80.19228,-106.3306,-103.7554,0.001067912,-0.1257102,0.09433498,0,0.3,0,0,0.009453026,0
6.38225E+17,-5.230311,-0.233782,-7.541167,-11.34679,24.95201,114.5617,51.14867,0.07013461,-13.16786,62.70407,-7.715342,19.85565,0,0,0,-10.56066,-109.3907,-52.98412,80.19228,-106.3306,-103.7554,0.001067912,-0.1257102,0.09433498,0,0.3,0,0,0.009801426,0
6.38225E+17,-4.900472,0.8416153,-5.836816,-12.15249,23.92657,110.8994,51.14867,0.07013461,-13.16786,62.63083,-7.788587,19.85565,0,0,0,-10.23175,-107.35,-49.01331,80.19228,-106.3306,-103.7554,0.001067912,-0.1257102,0.09433498,0,0.3,0,0,0.01028595,0
6.38225E+17,-4.735552,2.267686,-4.085772,-12.59196,22.90114,109.288,51.14867,0.07013461,-13.16786,62.70407,-7.788587,19.85565,0,0,0,-10.21596,-104.3847,-45.028,80.19228,-106.3306,-103.7554,0.001067912,-0.1257102,0.09433498,0,0.3,0,0,0.01044182,0
6.38225E+17,-4.688432,3.132679,-3.151881,-12.73845,22.31518,108.8485,51.14867,0.07013461,-13.16786,62.63083,-7.715342,19.85565,0,0,0,-10.28408,-102.5109,-42.95225,80.19228,-106.3306,-103.7554,0.001067912,-0.1257102,0.09433498,0,0.3,0,0,0.01036902,0
6.38225E+17,-4.523513,5.306852,-1.003932,-12.95818,20.85028,107.8963,51.14867,0.07013461,-13.16786,62.63083,-7.788587,19.85565,0,0,0,-10.28772,-97.64603,-38.31433,80.19228,-106.3306,-103.7554,0.001067912,-0.1257102,0.09433498,0,0.3,0,0,0.009862785,0
6.38225E+17,-4.075873,7.761563,1.330794,-13.32441,18.87265,107.5301,51.14867,0.07013461,-13.16786,62.70407,-7.715342,19.85565,0,0,0,-9.611469,-91.95499,-33.46667,80.19228,-106.3306,-103.7554,0.001067912,-0.1257102,0.09433498,0,0.3,0,0,0.008946376,0
6.38225E+17,-3.274835,10.16952,3.735562,-13.17792,16.89503,107.3836,51.14867,0.07013461,-13.16786,62.70407,-7.715342,19.85565,0,0,0,-7.994318,-86.17226,-28.63552,80.19228,-106.3306,-103.7554,0.001067912,-0.1257102,0.09433498,0,0.3,0,0,0.007655458,0
6.38225E+17,-2.096837,12.81126,6.327109,-12.44547,14.84417,107.3836,51.14867,0.07013461,-13.16786,62.70407,-7.788587,19.85565,0,0,0,-5.295317,-79.61872,-23.72076,80.19228,-106.3306,-103.7554,0.001067912,-0.1257102,0.09433498,0,0.3,0,0,0.006032404,0
6.38225E+17,-1.413598,14.2607,7.704598,-11.85951,13.67225,107.3836,51.14867,0.07013461,-13.16786,62.70407,-7.715342,19.85565,0,0,0,-3.629329,-75.94749,-21.2763,80.19228,-106.3306,-103.7554,0.001067912,-0.1257102,0.09433498,0,0.3,0,0,0.005093796,0
6.38225E+17,-0.1413598,17.01933,10.36619,-10.17487,11.3284,107.3836,51.14867,0.07013461,-13.16786,62.70407,-7.788587,19.85565,0,0,0,-0.3737915,-68.79265,-16.84557,80.19228,-106.3306,-103.7554,0.001067912,-0.1257102,0.09433498,0,0.3,0,0,0.002960881,0
6.38225E+17,1.177998,19.84809,13.26125,-7.977511,8.838067,107.3836,51.14867,0.07013461,-13.16786,62.70407,-7.715342,19.85565,0,0,0,3.207492,-61.16812,-12.36513,80.19228,-106.3306,-103.7554,0.001067912,-0.1257102,0.09433498,0,0.3,0,0,0.000405153,0
6.38225E+17,1.837677,21.18065,14.59204,-6.878834,7.592898,107.3104,51.14867,0.07013461,-13.16786,62.70407,-7.715342,19.85565,0,0,0,5.064732,-57.51804,-10.49405,80.19228,-106.3306,-103.7554,0.001067912,-0.1257102,0.09433498,0,0.3,0,0,0,0
6.38225E+17,3.416194,23.84577,17.32367,-4.242009,5.175808,107.2371,51.14867,0.07013461,-13.16786,62.70407,-7.715342,19.85565,0,0,0,9.633937,-50.04075,-6.962908,80.19228,-106.3306,-103.7554,0.001067912,-0.1257102,0.09433498,0,0.3,0,0,0,0
6.38225E+17,5.300992,26.44075,20.0553,-0.5065048,2.685472,106.3582,51.14867,0.07013461,-13.16786,62.70407,-7.715342,19.85565,0,0,0,15.25603,-42.5369,-3.92597,80.19228,-106.3306,-103.7554,0.001067912,-0.1257102,0.09433498,0,0.3,0,0,0,0
6.38225E+17,6.10203,27.53952,21.26936,1.397869,1.66004,105.8455,51.14867,0.07013461,-13.16786,62.70407,-7.715342,19.78241,0,0,0,17.7109,-39.26116,-2.680508,80.19228,-106.3306,-103.7554,0.001067912,-0.1257102,0.09433498,0,0.3,0,0,0,0
6.38225E+17,7.680547,29.62018,23.44065,5.279863,-0.3175794,104.6736,51.14867,0.07013461,-13.16786,62.70407,-7.715342,19.85565,0,0,0,22.58285,-33.08698,-0.8954615,80.19228,-106.3306,-103.7554,0.001067912,-0.1257102,0.09433498,0,0.3,0,0,0,0
6.38225E+17,9.117705,31.70084,25.44852,8.50265,-1.562747,102.9889,51.14867,0.07013461,-13.16786,62.70407,-7.715342,19.85565,0,0,0,27.0584,-26.98797,0.2476077,80.19228,-106.3306,-103.7554,0.001067912,-0.1257102,0.09433498,0,0.3,0,0,0,0
6.38225E+17,10.55486,34.03867,27.7599,11.72544,-2.58818,101.0845,51.14867,0.07013461,-13.16786,62.70407,-7.715342,19.85565,0,0,0,31.61852,-20.00941,1.3413,80.19228,-106.3306,-103.7554,0.001067912,-0.1257102,0.09433498,0,0.3,0,0,0,0
6.38225E+17,12.01558,36.96094,30.2814,15.24121,-3.906592,98.88718,51.14867,0.07013461,-13.16786,62.70407,-7.788587,19.85565,0,0,0,36.18005,-11.62622,1.636467,80.19228,-106.3306,-103.7554,0.001067912,-0.1257102,0.09433498,0,0.3,0,0,0,0
6.38225E+17,12.51034,38.03634,31.19195,16.26664,-4.492554,98.08149,51.14867,0.07013461,-13.16786,62.70407,-7.788587,19.85565,0,0,0,37.71108,-8.557449,1.608538,80.19228,-106.3306,-103.7554,0.001067912,-0.1257102,0.09433498,0,0.3,0,0,0,0
6.38225E+17,13.7119,40.77158,33.55002,18.61049,-6.689909,96.4701,51.14867,0.07013461,-13.16786,62.70407,-7.788587,19.85565,0,0,0,41.40763,-0.7008099,1.357763,80.19228,-106.3306,-103.7554,0.001067912,-0.1257102,0.09433498,0,0.3,0,0,0,0
6.38225E+17,14.79566,43.13279,35.93144,20.51486,-9.25349,95.29817,51.14867,0.07013461,-13.16786,62.70407,-7.715342,19.85565,0,0,0,44.83498,6.544129,1.395688,80.19228,-106.3306,-103.7554,0.001067912,-0.1257102,0.09433498,0,0.3,0,0,0,0
6.38225E+17,15.76161,45.21344,38.0327,22.12625,-11.96356,94.56573,51.14867,0.07013461,-13.16786,62.63083,-7.788587,19.85565,0,0,0,47.83479,12.95894,1.12788,80.19228,-106.3306,-103.7554,0.001067912,-0.1257102,0.09433498,0,0.3,0,0,0,0
6.38225E+17,16.23281,46.05506,38.96659,22.63897,-13.06224,94.41924,51.14867,0.07013461,-13.16786,62.70407,-7.788587,19.85565,0,0,0,49.311,15.6816,1.017491,80.19228,-106.3306,-103.7554,0.001067912,-0.1257102,0.09433498,0,0.3,0,0,0,0
6.38225E+17,17.38725,47.6214,40.67094,24.17712,-15.40608,94.27274,51.14867,0.07013461,-13.16786,62.70407,-7.788587,19.85565,0,0,0,52.82912,20.71529,0.3594899,80.19228,-106.3306,-103.7554,0.001067912,-0.1257102,0.09433498,0,0.3,0,0,0,0
6.38225E+17,18.80085,48.95396,42.04842,26.44772,-17.5302,94.71221,51.14867,0.07013461,-13.16786,62.70407,-7.788587,19.78241,0,0,0,57.00439,24.89727,-0.9088408,80.19228,-106.3306,-103.7554,0.001067912,-0.1257102,0.09433498,0,0.3,0,0,0,0
6.38225E+17,19.60189,49.4449,42.60876,27.91262,-18.40914,95.37142,51.14867,0.07013461,-13.16786,62.70407,-7.788587,19.85565,0,0,0,59.37297,26.52206,-1.628711,80.19228,-106.3306,-103.7554,0.001067912,-0.1257102,0.09433498,0,0.3,0,0,0,0
6.38225E+17,21.36888,50.02935,43.49596,31.2819,-19.28808,96.4701,51.14867,0.07013461,-13.16786,62.70407,-7.788587,19.85565,0,0,0,64.65716,28.81078,-3.100279,80.19228,-106.3306,-103.7554,0.001067912,-0.1257102,0.09433498,0,0.3,0,0,0,0
6.38225E+17,22.9474,50.28652,43.93955,33.69899,-19.21483,96.76308,51.14867,0.07013461,-13.16786,62.70407,-7.788587,19.85565,0,0,0,69.29649,29.90775,-4.68013,80.19228,-106.3306,-103.7554,0.001067912,-0.1257102,0.09433498,0,0.3,0,0,0,0
6.38225E+17,23.84268,50.35665,44.14968,34.87091,-18.84861,96.76308,51.14867,0.07013461,-13.16786,62.70407,-7.788587,19.85565,0,0,0,71.93667,30.35196,-5.576245,80.19228,-106.3306,-103.7554,0.001067912,-0.1257102,0.09433498,0,0.3,0,0,0,0
6.38225E+17,25.72748,50.45016,44.71001,37.14151,-17.67669,96.03063,51.14867,0.07013461,-13.16786,62.63083,-7.788587,19.85565,0,0,0,77.58283,31.4036,-7.342423,80.19228,-106.3306,-103.7554,0.001067912,-0.1257102,0.09433498,0,0.3,0,0,0,0
6.38225E+17,27.51804,50.45016,44.99018,39.11913,-16.79774,94.49248,51.14867,0.07013461,-13.16786,62.63083,-7.715342,19.85565,0,0,0,82.78938,31.86347,-9.435215,80.19228,-106.3306,-103.7554,0.001067912,-0.1257102,0.09433498,0,0.3,0,0,0,0
6.38225E+17,29.12011,50.4034,45.13026,40.65728,-15.9188,93.54029,51.14867,0.07013461,-13.16786,62.70407,-7.715342,19.85565,0,0,0,87.35284,32.02493,-11.53749,80.19228,-106.3306,-103.7554,0.001067912,-0.1257102,0.09433498,0,0.3,0,0,0,0
6.38225E+17,30.58083,50.23976,45.17696,42.26867,-15.1131,93.02757,51.14867,0.07013461,-13.16786,62.70407,-7.715342,19.85565,0,0,0,91.50997,31.8588,-13.49686,80.19228,-106.3306,-103.7554,0.001067912,-0.1257102,0.09433498,0,0.3,0,0,0,0
6.38225E+17,31.28763,50.12287,45.17696,43.07437,-14.67363,92.80784,51.14867,0.07013461,-13.16786,62.70407,-7.715342,19.85565,0,0,0,93.52174,31.68459,-14.45891,80.19228,-106.3306,-103.7554,0.001067912,-0.1257102,0.09433498,0,0.3,0,0,0,0
6.38225E+17,32.67767,49.70206,45.10692,44.75901,-13.6482,92.44161,51.14867,0.07013461,-13.16786,62.70407,-7.788587,19.85565,0,0,0,97.56983,30.93835,-16.23897,80.19228,-106.3306,-103.7554,0.001067912,-0.1257102,0.09433498,0,0.3,0,0,0,0
6.38225E+17,33.90279,49.04747,44.73336,46.29716,-12.69601,92.22188,51.14867,0.07013461,-13.16786,62.70407,-7.788587,19.85565,0,0,0,101.1014,29.33249,-17.9111,80.19228,-106.3306,-103.7554,0.001067912,-0.1257102,0.09433498,0,0.3,0,0,0,0
6.38225E+17,35.0101,47.76167,44.19638,47.68882,-11.52409,92.29513,51.14867,0.07013461,-13.16786,62.63083,-7.788587,19.85565,0,0,0,104.762,26.47043,-18.79055,80.19228,-106.3306,-103.7554,0.001067912,-0.1257102,0.09433498,0,0.3,0,0,0,0
6.38225E+17,35.50486,46.89668,44.03294,48.34802,-10.64515,92.51486,51.14867,0.07013461,-13.16786,62.63083,-7.788587,19.85565,0,0,0,106.7506,24.84117,-18.71808,80.19228,-106.3306,-103.7554,0.001067912,-0.1257102,0.09433498,0,0.3,0,0,0,0
6.38225E+17,36.56506,44.90953,43.75277,49.73968,-8.740773,92.80784,51.14867,0.07013461,-13.16786,62.70407,-7.715342,19.85565,0,0,0,111.1996,21.17091,-18.42874,80.19228,-106.3306,-103.7554,0.001067912,-0.1257102,0.09433498,0,0.3,0,0,0,0
6.38225E+17,37.74306,43.03927,43.00566,51.13134,-6.616664,92.95433,51.14867,0.07013461,-13.16786,62.70407,-7.715342,19.85565,0,0,0,115.3346,16.84428,-19.35605,80.19228,-106.3306,-103.7554,0.001067912,-0.1257102,0.09433498,0,0.3,0,0,0,0
6.38225E+17,38.37918,42.08076,42.49202,51.79055,-5.371496,92.95433,51.14867,0.07013461,-13.16786,62.70407,-7.715342,19.85565,0,0,0,117.3734,14.3897,-20.15106,80.19228,-106.3306,-103.7554,0.001067912,-0.1257102,0.09433498,0,0.3,0,0,0,0
6.38225E+17,39.4865,40.00011,41.27797,52.66949,-3.247386,92.95433,51.14867,0.07013461,-13.16786,62.63083,-7.715342,19.85565,0,0,0,120.8995,8.851005,-21.61672,80.19228,-106.3306,-103.7554,0.001067912,-0.1257102,0.09433498,0,0.3,0,0,0,0
6.38225E+17,40.52313,37.49864,40.34408,53.10896,-1.196521,92.95433,51.14867,0.07013461,-13.16786,62.70407,-7.715342,19.85565,0,0,0,124.833,2.890377,-22.30874,80.19228,-106.3306,-103.7554,0.001067912,-0.1257102,0.09433498,0,0.3,0,0,0,0
6.38225E+17,41.86605,34.13218,39.80709,53.91465,1.367059,92.95433,51.14867,0.07013461,-13.16786,62.70407,-7.788587,19.78241,0,0,0,130.6426,-4.266838,-22.57273,80.19228,-106.3306,-103.7554,0.001067912,-0.1257102,0.09433498,0,0.3,0,0,0,0
6.38225E+17,42.57285,31.98138,39.64366,54.50062,3.198189,92.80784,51.14867,0.07013461,-13.16786,62.70407,-7.715342,19.85565,0,0,0,134.0802,-8.705161,-22.40016,80.19228,-106.3306,-103.7554,0.001067912,-0.1257102,0.09433498,0,0.3,0,0,0,0
6.38225E+17,42.92625,30.6722,39.62031,54.86684,4.150376,92.36837,51.14867,0.07013461,-13.16786,62.70407,-7.715342,19.85565,0,0,0,136.0282,-11.34254,-22.10061,80.19228,-106.3306,-103.7554,0.001067912,-0.1257102,0.09433498,0,0.3,0,0,0,0
6.38225E+17,43.56237,28.05384,39.36349,55.37956,5.981505,91.56267,51.14867,0.07013461,-13.16786,62.70407,-7.715342,19.85565,0,0,0,139.3847,-17.03328,-21.789,80.19228,-106.3306,-103.7554,0.001067912,-0.1257102,0.09433498,0,0.3,0,0,0,0
6.38225E+17,43.96289,25.71602,38.96659,55.59929,7.592898,91.19645,51.14867,0.07013461,-13.16786,62.70407,-7.715342,19.85565,0,0,0,141.6165,-22.4693,-21.51158,80.19228,-106.3306,-103.7554,0.001067912,-0.1257102,0.09433498,0,0.3,0,0,0,0
6.38225E+17,44.15137,23.42496,38.80315,55.59929,8.691576,90.97672,51.14867,0.07013461,-13.16786,62.63083,-7.715342,19.85565,0,0,0,143.4369,-27.55714,-20.59993,80.19228,-106.3306,-103.7554,0.001067912,-0.1257102,0.09433498,0,0.3,0,0,0,0
6.38225E+17,44.22205,22.25605,38.70977,55.37956,9.131048,90.90347,51.14867,0.07013461,-13.16786,62.70407,-7.715342,19.85565,0,0,0,144.2373,-30.20036,-20.14168,80.19228,-106.3306,-103.7554,0.001067912,-0.1257102,0.09433498,0,0.3,0,0,0,0
6.38225E+17,44.29272,19.91823,38.54634,55.01333,9.643764,90.75697,51.14867,0.07013461,-13.16786,62.70407,-7.715342,19.85565,0,0,0,145.5795,-35.51413,-19.13129,80.19228,-106.3306,-103.7554,0.001067912,-0.1257102,0.09433498,0,0.3,0,0,0,0
6.38225E+17,44.29272,17.60379,38.3829,54.57386,10.30297,90.46399,51.14867,0.07013461,-13.16786,62.70407,-7.715342,19.85565,0,0,0,146.5812,-40.85081,-18.10449,80.19228,-106.3306,-103.7554,0.001067912,-0.1257102,0.09433498,0,0.3,0,0,0,0
6.38225E+17,44.29272,16.03745,38.3829,54.13439,11.03542,90.3175,51.14867,0.07013461,-13.16786,62.70407,-7.715342,19.85565,0,0,0,147.3179,-44.34022,-17.34942,80.19228,-106.3306,-103.7554,0.001067912,-0.1257102,0.09433498,0,0.3,0,0,0,0
6.38225E+17,44.29272,14.70489,38.31286,53.76817,11.62138,90.17101,51.14867,0.07013461,-13.16786,62.70407,-7.715342,19.85565,0,0,0,147.8027,-47.43174,-16.85251,80.19228,-106.3306,-103.7554,0.001067912,-0.1257102,0.09433498,0,0.3,0,0,0,0
6.38225E+17,44.19849,13.20868,38.28952,53.47519,12.28059,89.87803,51.14867,0.07013461,-13.16786,62.70407,-7.715342,19.85565,0,0,0,148.1091,-50.84478,-16.03806,80.19228,-106.3306,-103.7554,0.001067912,-0.1257102,0.09433498,0,0.3,0,0,0,0
6.38225E+17,44.05713,11.92288,38.19613,53.10896,12.79331,89.65829,51.14867,0.07013461,-13.16786,62.70407,-7.788587,19.85565,0,0,0,148.0668,-53.90015,-15.32792,80.19228,-106.3306,-103.7554,0.001067912,-0.1257102,0.09433498,0,0.3,0,0,0,0
6.38225E+17,44.01001,10.941,37.56575,52.88922,13.30602,89.14558,51.14867,0.07013461,-13.16786,62.63083,-7.715342,19.85565,0,0,0,147.4511,-57.04087,-15.71328,80.19228,-106.3306,-103.7554,0.001067912,-0.1257102,0.09433498,0,0.3,0,0,0,0
6.38225E+17,43.96289,10.6137,37.19219,52.81598,13.37927,88.8526,51.14867,0.07013461,-13.16786,62.63083,-7.715342,19.85565,0,0,0,146.9448,-58.31699,-15.98682,80.19228,-106.3306,-103.7554,0.001067912,-0.1257102,0.09433498,0,0.3,0,0,0,0
6.38225E+17,43.79797,9.561686,36.16492,52.44975,13.599,88.04691,51.14867,0.07013461,-13.16786,62.70407,-7.715342,19.85565,0,0,0,145.4753,-62.15568,-16.63894,80.19228,-106.3306,-103.7554,0.001067912,-0.1257102,0.09433498,0,0.3,0,0,0,0
6.38225E+17,43.51525,8.486288,35.11428,51.86379,13.74549,87.60744,51.14867,0.07013461,-13.16786,62.63083,-7.715342,19.85565,0,0,0,143.627,-66.05232,-17.07938,80.19228,-106.3306,-103.7554,0.001067912,-0.1257102,0.09433498,0,0.3,0,0,0,0
6.38225E+17,43.39745,7.971967,34.60065,51.42432,13.89198,87.46095,51.14867,0.07013461,-13.16786,62.70407,-7.715342,19.85565,0,0,0,142.7594,-67.92026,-17.37267,80.19228,-106.3306,-103.7554,0.001067912,-0.1257102,0.09433498,0,0.3,0,0,0,0
6.38225E+17,43.13829,7.15373,33.76015,50.69187,14.11172,87.02148,51.14867,0.07013461,-13.16786,62.70407,-7.788587,19.85565,0,0,0,141.1399,-70.90701,-17.72647,80.19228,-106.3306,-103.7554,0.001067912,-0.1257102,0.09433498,0,0.3,0,0,0,0
6.38225E+17,42.78489,6.569275,32.98969,50.17915,14.25821,86.65524,51.14867,0.07013461,-13.16786,62.70407,-7.715342,19.85565,0,0,0,139.3015,-73.24396,-17.83851,80.19228,-106.3306,-103.7554,0.001067912,-0.1257102,0.09433498,0,0.3,0,0,0,0
6.38225E+17,42.33725,6.078333,32.0558,49.73968,14.25821,86.582,51.14867,0.07013461,-13.16786,62.70407,-7.788587,19.85565,0,0,0,136.9718,-75.54817,-18.01644,80.19228,-106.3306,-103.7554,0.001067912,-0.1257102,0.09433498,0,0.3,0,0,0,0
6.38225E+17,42.07809,5.844551,31.51881,49.59319,14.18496,86.50875,51.14867,0.07013461,-13.16786,62.70407,-7.788587,19.85565,0,0,0,135.6164,-76.74768,-18.14498,80.19228,-106.3306,-103.7554,0.001067912,-0.1257102,0.09433498,0,0.3,0,0,0,0
6.38225E+17,41.34773,5.260096,30.3281,49.08047,14.03847,86.43551,51.14867,0.07013461,-13.16786,62.63083,-7.788587,19.85565,0,0,0,132.2071,-79.52565,-18.11437,80.19228,-106.3306,-103.7554,0.001067912,-0.1257102,0.09433498,0,0.3,0,0,0,0
6.38225E+17,40.49957,4.652263,29.11404,48.56776,13.96523,86.50875,51.14867,0.07013461,-13.16786,62.63083,-7.715342,19.85565,0,0,0,128.4545,-82.33586,-17.94681,80.19228,-106.3306,-103.7554,0.001067912,-0.1257102,0.09433498,0,0.3,0,0,0,0
6.38225E+17,39.9577,4.301589,28.25019,48.12829,13.89198,86.50875,51.14867,0.07013461,-13.16786,62.63083,-7.788587,19.85565,0,0,0,125.9345,-84.11446,-18.04184,80.19228,-106.3306,-103.7554,0.001067912,-0.1257102,0.09433498,0,0.3,0,0,0,0
6.38225E+17,38.85038,3.763891,26.73262,47.24934,13.89198,86.72849,51.14867,0.07013461,-13.16786,62.63083,-7.715342,19.85565,0,0,0,121.0961,-86.99318,-18.00766,80.19228,-106.3306,-103.7554,0.001067912,-0.1257102,0.09433498,0,0.3,0,0,0,0
6.38225E+17,37.27186,3.039166,24.88819,45.5647,13.74549,87.31445,51.14867,0.07013461,-13.16786,62.63083,-7.715342,19.85565,0,0,0,114.6291,-90.54587,-17.72437,80.19228,-106.3306,-103.7554,0.001067912,-0.1257102,0.09433498,0,0.3,0,0,0,0
6.38225E+17,36.3059,2.665115,23.93095,44.46603,13.74549,87.90041,51.14867,0.07013461,-13.16786,62.70407,-7.788587,19.85565,0,0,0,110.898,-92.33602,-17.41328,80.19228,-106.3306,-103.7554,0.001067912,-0.1257102,0.09433498,0,0.3,0,0,0,0
6.38225E+17,35.52842,2.524846,23.18383,43.73357,13.74549,88.26664,51.14867,0.07013461,-13.16786,62.70407,-7.788587,19.85565,0,0,0,107.922,-93.3571,-17.20751,80.19228,-106.3306,-103.7554,0.001067912,-0.1257102,0.09433498,0,0.3,0,0,0,0
6.38225E+17,33.8321,2.524846,21.36275,41.97569,13.67225,88.55962,51.14867,0.07013461,-13.16786,62.70407,-7.788587,19.78241,0,0,0,101.217,-94.96349,-17.33693,80.19228,-106.3306,-103.7554,0.001067912,-0.1257102,0.09433498,0,0.3,0,0,0,0
6.38225E+17,32.13579,2.501468,19.75179,39.77834,13.52576,88.26664,51.14867,0.07013461,-13.16786,62.70407,-7.788587,19.85565,0,0,0,94.83633,-96.33436,-17.3775,80.19228,-106.3306,-103.7554,0.001067912,-0.1257102,0.09433498,0,0.3,0,0,0,0
6.38225E+17,30.51015,2.618359,18.39765,37.50774,13.30602,85.19034,51.14867,0.07013461,-13.16786,62.70407,-7.788587,19.85565,0,0,0,88.9969,-97.09251,-17.32443,80.19228,-106.3306,-103.7554,0.001067912,-0.1257102,0.09433498,0,0.3,0,0,0,0
6.38225E+17,29.70911,2.758628,17.65053,36.18932,13.15953,82.33378,51.14867,0.07013461,-13.16786,62.63083,-7.788587,19.85565,0,0,0,86.04977,-97.30442,-17.54442,80.19228,-106.3306,-103.7554,0.001067912,-0.1257102,0.09433498,0,0.3,0,0,0,0
6.38225E+17,28.17771,3.039166,16.6466,33.33276,12.50033,75.81496,51.14867,0.07013461,-13.16786,62.63083,-7.788587,19.85565,0,0,0,80.91892,-97.34126,-17.29578,80.19228,-106.3306,-103.7554,0.001067912,-0.1257102,0.09433498,0,0.3,0,0,0,0
6.38225E+17,26.97615,3.413218,16.38978,30.69594,11.98761,69.8821,51.14867,0.07013461,-13.16786,62.70407,-7.788587,19.85565,0,0,0,77.45142,-96.64202,-16.18653,80.19228,-106.3306,-103.7554,0.001067912,-0.1257102,0.09433498,0,0.3,0,0,0,0
6.38225E+17,26.41072,3.693756,16.22635,29.67051,11.76787,66.43958,51.14867,0.07013461,-13.16786,62.63083,-7.788587,19.78241,0,0,0,75.76562,-96.09716,-15.7928,80.19228,-106.3306,-103.7554,0.001067912,-0.1257102,0.09433498,0,0.3,0,0,0,0
6.38225E+17,25.37408,4.324967,16.03957,28.05911,11.18191,58.67559,51.14867,0.07013461,-13.16786,62.70407,-7.788587,19.85565,0,0,0,72.77023,-94.75247,-14.91715,80.19228,-106.3306,-103.7554,0.001067912,-0.1257102,0.09433498,0,0.3,0,0,0,0
6.38225E+17,24.26676,5.283474,16.03957,26.66745,10.52271,50.69187,51.14867,0.07013461,-13.16786,62.70407,-7.715342,19.85565,0,0,0,69.71474,-92.52951,-13.70983,80.19228,-106.3306,-103.7554,0.001067912,-0.1257102,0.09433498,0,0.3,0,0,0,0
6.38225E+17,23.37148,6.522519,16.03957,25.42229,9.717009,42.41516,51.14867,0.07013461,-13.16786,62.63083,-7.788587,19.85565,0,0,0,67.17234,-89.66111,-12.91166,80.19228,-106.3306,-103.7554,0.001067912,-0.1257102,0.09433498,0,0.3,0,0,0,0
6.38225E+17,22.66468,7.80832,16.03957,24.54334,8.764822,31.79461,51.14867,0.07013461,-13.16786,62.63083,-7.788587,19.85565,0,0,0,65.10596,-86.69198,-12.43932,80.19228,-106.3306,-103.7554,0.001067912,-0.1257102,0.09433498,0,0.3,0,0,0,0
6.38225E+17,22.42908,8.229127,16.03957,24.25036,8.545086,27.69288,51.14867,0.07013461,-13.16786,62.70407,-7.788587,19.85565,0,0,0,64.34503,-85.66832,-12.27994,80.19228,-106.3306,-103.7554,0.001067912,-0.1257102,0.09433498,0,0.3,0,0,0,0
6.38225E+17,21.6516,9.351281,16.03957,23.73765,8.105616,18.3175,51.14867,0.07013461,-13.16786,62.70407,-7.788587,19.85565,0,0,0,62.14152,-83.14119,-11.8105,80.19228,-106.3306,-103.7554,0.001067912,-0.1257102,0.09433498,0,0.3,0,0,0,0
6.38225E+17,20.73277,10.47344,15.96953,22.71221,7.739389,11.79868,51.14867,0.07013461,-13.16786,62.70407,-7.715342,19.85565,0,0,0,59.40863,-80.61346,-11.40113,80.19228,-106.3306,-103.7554,0.001067912,-0.1257102,0.09433498,0,0.3,0,0,0,0
6.38225E+17,19.79037,11.82937,15.78275,21.61354,7.592898,7.843444,51.14867,0.07013461,-13.16786,62.63083,-7.715342,19.85565,0,0,0,56.47101,-77.63624,-11.41296,80.19228,-106.3306,-103.7554,0.001067912,-0.1257102,0.09433498,0,0.3,0,0,0,0
6.38225E+17,19.27205,12.62423,15.71271,21.17406,7.446409,6.744767,51.14867,0.07013461,-13.16786,62.70407,-7.715342,19.85565,0,0,0,54.86791,-75.87251,-11.42647,80.19228,-106.3306,-103.7554,0.001067912,-0.1257102,0.09433498,0,0.3,0,0,0,0
6.38225E+17,17.90557,14.61138,15.57263,20.14863,7.226673,5.499599,51.14867,0.07013461,-13.16786,62.70407,-7.715342,19.78241,0,0,0,50.67882,-71.46577,-11.4975,80.19228,-106.3306,-103.7554,0.001067912,-0.1257102,0.09433498,0,0.3,0,0,0,0
6.38225E+17,16.20925,16.73879,15.50258,19.1232,6.860447,5.719335,51.14867,0.07013461,-13.16786,62.70407,-7.788587,19.85565,0,0,0,45.59621,-66.74252,-11.50137,80.19228,-106.3306,-103.7554,0.001067912,-0.1257102,0.09433498,0,0.3,0,0,0,0
6.38225E+17,15.26685,17.76744,15.50258,18.39075,6.567466,6.012315,51.14867,0.07013461,-13.16786,62.70407,-7.788587,19.85565,0,0,0,42.82335,-64.45621,-11.45765,80.19228,-106.3306,-103.7554,0.001067912,-0.1257102,0.09433498,0,0.3,0,0,0,0
6.38225E+17,12.84018,20.90011,15.78275,16.33988,5.688524,6.891257,51.14867,0.07013461,-13.16786,62.70407,-7.788587,19.85565,0,0,0,35.74517,-57.40144,-11.52614,80.19228,-106.3306,-103.7554,0.001067912,-0.1257102,0.09433498,0,0.3,0,0,0,0
6.38225E+17,11.2381,23.72888,16.27304,14.80174,4.663092,8.209671,51.14867,0.07013461,-13.16786,62.63083,-7.788587,19.85565,0,0,0,31.07336,-50.99636,-11.96394,80.19228,-106.3306,-103.7554,0.001067912,-0.1257102,0.09433498,0,0.3,0,0,0,0
6.38225E+17,10.43706,25.38873,16.83338,13.99604,3.93064,9.381593,51.14867,0.07013461,-13.16786,62.70407,-7.788587,19.85565,0,0,0,28.8196,-47.11128,-11.89442,80.19228,-106.3306,-103.7554,0.001067912,-0.1257102,0.09433498,0,0.3,0,0,0,0
6.38225E+17,9.518225,28.28763,18.07078,12.97061,2.026266,12.09166,51.14867,0.07013461,-13.16786,62.70407,-7.788587,19.85565,0,0,0,26.25762,-40.22808,-11.74668,80.19228,-106.3306,-103.7554,0.001067912,-0.1257102,0.09433498,0,0.3,0,0,0,0
6.38225E+17,8.905665,30.69558,19.26149,12.60438,0.1951368,14.94823,51.14867,0.07013461,-13.16786,62.70407,-7.788587,19.85565,0,0,0,24.56124,-34.46339,-11.60661,80.19228,-106.3306,-103.7554,0.001067912,-0.1257102,0.09433498,0,0.3,0,0,0,0
6.38225E+17,8.717185,32.86975,20.21873,12.82412,-1.269767,18.53724,51.14867,0.07013461,-13.16786,62.70407,-7.788587,19.85565,0,0,0,23.95938,-29.40979,-12.0882,80.19228,-106.3306,-103.7554,0.001067912,-0.1257102,0.09433498,0,0.3,0,0,0,0
6.38225E+17,8.858545,35.30109,21.26936,13.41008,-2.441689,22.56572,51.14867,0.07013461,-13.16786,62.63083,-7.788587,19.85565,0,0,0,24.20865,-23.85753,-13.02161,80.19228,-106.3306,-103.7554,0.001067912,-0.1257102,0.09433498,0,0.3,0,0,0,0
6.38225E+17,9.023465,36.75054,21.99312,13.84955,-3.027651,24.39685,51.14867,0.07013461,-13.16786,62.63083,-7.788587,19.85565,0,0,0,24.59006,-20.50838,-13.50494,80.19228,-106.3306,-103.7554,0.001067912,-0.1257102,0.09433498,0,0.3,0,0,0,0
6.38225E+17,9.447544,40.25727,23.97764,15.09472,-4.639044,27.03368,51.14867,0.07013461,-13.16786,62.70407,-7.788587,19.85565,0,0,0,25.59948,-12.3189,-14.50844,80.19228,-106.3306,-103.7554,0.001067912,-0.1257102,0.09433498,0,0.3,0,0,0,0
6.38225E+17,9.800944,44.06791,26.52249,16.33988,-7.056135,28.2056,51.14867,0.07013461,-13.16786,62.70407,-7.788587,19.85565,0,0,0,26.44651,-3.219801,-15.25606,80.19228,-106.3306,-103.7554,0.001067912,-0.1257102,0.09433498,0,0.3,0,0,0,0
6.38225E+17,10.38994,47.69153,29.65103,17.43856,-10.05919,27.39991,51.14867,0.07013461,-13.16786,62.70407,-7.788587,19.85565,0,0,0,28.08557,6.078103,-15.17233,80.19228,-106.3306,-103.7554,0.001067912,-0.1257102,0.09433498,0,0.3,0,0,0,0
6.38225E+17,10.81402,49.35139,31.30868,17.95128,-11.59733,26.22798,51.14867,0.07013461,-13.16786,62.63083,-7.715342,19.85565,0,0,0,29.29934,10.59358,-14.96146,80.19228,-106.3306,-103.7554,0.001067912,-0.1257102,0.09433498,0,0.3,0,0,0,0
6.38225E+17,11.75642,52.32042,34.64734,19.34294,-15.03986,22.71221,51.14867,0.07013461,-13.16786,62.70407,-7.788587,19.85565,0,0,0,32.05462,19.18608,-14.32804,80.19228,-106.3306,-103.7554,0.001067912,-0.1257102,0.09433498,0,0.3,0,0,0,0
6.38225E+17,12.6517,54.23743,37.1455,20.95433,-18.1894,18.53724,51.14867,0.07013461,-13.16786,62.70407,-7.715342,19.85565,0,0,0,34.70555,25.26239,-13.74173,80.19228,-106.3306,-103.7554,0.001067912,-0.1257102,0.09433498,0,0.3,0,0,0,0
6.38225E+17,12.98154,54.65824,37.79922,21.68678,-19.28808,16.77936,51.14867,0.07013461,-13.16786,62.63083,-7.788587,19.85565,0,0,0,35.68727,26.75747,-13.54388,80.19228,-106.3306,-103.7554,0.001067912,-0.1257102,0.09433498,0,0.3,0,0,0,0
6.38225E+17,13.66478,55.24269,38.61638,22.71221,-20.53325,14.50875,51.14867,0.07013461,-13.16786,62.70407,-7.715342,19.85565,0,0,0,37.62069,28.71496,-13.6104,80.19228,-106.3306,-103.7554,0.001067912,-0.1257102,0.09433498,0,0.3,0,0,0,0
6.38225E+17,14.39514,55.68688,38.80315,23.22493,-20.31351,13.70306,51.14867,0.07013461,-13.16786,62.70407,-7.715342,19.85565,0,0,0,39.46268,29.57288,-14.59883,80.19228,-106.3306,-103.7554,0.001067912,-0.1257102,0.09433498,0,0.3,0,0,0,0
6.38225E+17,15.36109,55.92066,38.80315,23.6644,-18.70212,13.62981,51.14867,0.07013461,-13.16786,62.70407,-7.788587,19.85565,0,0,0,41.92985,29.87868,-15.71992,80.19228,-106.3306,-103.7554,0.001067912,-0.1257102,0.09433498,0,0.3,0,0,0,0
6.38225E+17,16.20925,56.13107,38.8265,24.54334,-17.60344,14.43551,51.14867,0.07013461,-13.16786,62.63083,-7.788587,19.85565,0,0,0,44.08303,30.18639,-16.70661,80.19228,-106.3306,-103.7554,0.001067912,-0.1257102,0.09433498,0,0.3,0,0,0,0
6.38225E+17,16.82181,56.29471,38.89655,25.49553,-17.09072,15.09472,51.14867,0.07013461,-13.16786,62.70407,-7.788587,19.85565,0,0,0,45.64686,30.50048,-17.36806,80.19228,-106.3306,-103.7554,0.001067912,-0.1257102,0.09433498,0,0.3,0,0,0,0
6.38225E+17,18.28253,56.59863,39.45688,27.76613,-16.35827,16.0469,51.14867,0.07013461,-13.16786,62.63083,-7.788587,19.85565,0,0,0,49.61301,31.71526,-18.18053,80.19228,-106.3306,-103.7554,0.001067912,-0.1257102,0.09433498,0,0.3,0,0,0,0
6.38225E+17,20.09665,56.90255,40.13395,30.18322,-16.7245,16.33988,51.14867,0.07013461,-13.16786,62.70407,-7.788587,19.85565,0,0,0,54.55482,33.11167,-19.24489,80.19228,-106.3306,-103.7554,0.001067912,-0.1257102,0.09433498,0,0.3,0,0,0,0
6.38225E+17,21.1804,56.87917,40.41412,31.42839,-16.94423,15.90041,51.14867,0.07013461,-13.16786,62.63083,-7.788587,19.85565,0,0,0,57.56146,33.50347,-19.79703,80.19228,-106.3306,-103.7554,0.001067912,-0.1257102,0.09433498,0,0.3,0,0,0,0
6.38225E+17,23.51284,56.83241,41.18458,33.84548,-16.94423,14.21577,51.14867,0.07013461,-13.16786,62.63083,-7.788587,19.85565,0,0,0,64.1374,34.61564,-20.93445,80.19228,-106.3306,-103.7554,0.001067912,-0.1257102,0.09433498,0,0.3,0,0,0,0
6.38225E+17,26.128,56.29471,41.86165,36.6288,-16.57801,12.67763,51.14867,0.07013461,-13.16786,62.63083,-7.788587,19.85565,0,0,0,71.77621,34.97072,-22.01756,80.19228,-106.3306,-103.7554,0.001067912,-0.1257102,0.09433498,0,0.3,0,0,0,0
6.38225E+17,28.71959,55.17256,42.18851,39.63185,-15.77231,11.87193,51.14867,0.07013461,-13.16786,62.70407,-7.788587,19.85565,0,0,0,79.62812,34.00953,-23.02426,80.19228,-106.3306,-103.7554,0.001067912,-0.1257102,0.09433498,0,0.3,0,0,0,0
6.38225E+17,30.39235,54.09716,42.30524,41.90245,-14.67363,11.94517,51.14867,0.07013461,-13.16786,62.70407,-7.788587,19.85565,0,0,0,84.97073,32.74359,-23.47659,80.19228,-106.3306,-103.7554,0.001067912,-0.1257102,0.09433498,0,0.3,0,0,0,0
6.38225E+17,31.94731,53.06852,42.14182,43.51384,-13.57495,13.33683,51.14867,0.07013461,-13.16786,62.70407,-7.788587,19.85565,0,0,0,89.74104,31.06674,-24.43999,80.19228,-106.3306,-103.7554,0.001067912,-0.1257102,0.09433498,0,0.3,0,0,0,0
6.38225E+17,33.87922,51.59569,41.79161,45.34497,-11.89032,14.80174,51.14867,0.07013461,-13.16786,62.70407,-7.788587,19.85565,0,0,0,95.71619,28.42705,-25.79765,80.19228,-106.3306,-103.7554,0.001067912,-0.1257102,0.09433498,0,0.3,0,0,0,0
6.38225E+17,34.6567,50.7307,41.58148,46.07742,-10.79164,15.24121,51.14867,0.07013461,-13.16786,62.63083,-7.788587,19.85565,0,0,0,98.32574,26.83935,-26.12008,80.19228,-106.3306,-103.7554,0.001067912,-0.1257102,0.09433498,0,0.3,0,0,0,0
6.38225E+17,36.87134,48.01883,41.04449,48.20153,-7.861832,15.90041,51.14867,0.07013461,-13.16786,62.63083,-7.788587,19.85565,0,0,0,106.0593,21.90512,-26.94499,80.19228,-106.3306,-103.7554,0.001067912,-0.1257102,0.09433498,0,0.3,0,0,0,0
6.38225E+17,37.4839,47.36424,40.74098,48.78749,-7.056135,15.82717,51.14867,0.07013461,-13.16786,62.63083,-7.788587,19.85565,0,0,0,107.9257,20.4172,-27.61665,80.19228,-106.3306,-103.7554,0.001067912,-0.1257102,0.09433498,0,0.3,0,0,0,0
6.38225E+17,38.4263,45.77452,39.87713,49.81293,-5.664476,14.94823,51.14867,0.07013461,-13.16786,62.70407,-7.788587,19.85565,0,0,0,110.9428,16.57307,-28.50697,80.19228,-106.3306,-103.7554,0.001067912,-0.1257102,0.09433498,0,0.3,0,0,0,0
6.38225E+17,39.20378,43.88089,39.10667,50.2524,-4.346064,13.70306,51.14867,0.07013461,-13.16786,62.63083,-7.788587,19.85565,0,0,0,113.9192,12.30708,-28.69004,80.19228,-106.3306,-103.7554,0.001067912,-0.1257102,0.09433498,0,0.3,0,0,0,0
6.38225E+17,40.07549,42.05739,38.59303,50.54538,-2.954405,12.60438,51.14867,0.07013461,-13.16786,62.63083,-7.788587,19.85565,0,0,0,117.2937,8.451903,-28.93832,80.19228,-106.3306,-103.7554,0.001067912,-0.1257102,0.09433498,0,0.3,0,0,0,0
6.38225E+17,40.57025,41.0755,38.35956,50.69187,-2.295199,12.09166,51.14867,0.07013461,-13.16786,62.70407,-7.788587,19.78241,0,0,0,119.2026,6.404054,-29.12777,80.19228,-106.3306,-103.7554,0.001067912,-0.1257102,0.09433498,0,0.3,0,0,0,0
6.38225E+17,41.51265,39.34552,38.07939,51.05809,-1.123276,10.91974,51.14867,0.07013461,-13.16786,62.70407,-7.715342,19.85565,0,0,0,122.8595,2.925912,-29.54437,80.19228,-106.3306,-103.7554,0.001067912,-0.1257102,0.09433498,0,0.3,0,0,0,0
6.38225E+17,42.47861,37.89607,37.96265,51.27783,0.1218917,8.868877,51.14867,0.07013461,-13.16786,62.63083,-7.788587,19.85565,0,0,0,126.4594,0.1229843,-30.24027,80.19228,-106.3306,-103.7554,0.001067912,-0.1257102,0.09433498,0,0.3,0,0,0,0
6.38225E+17,42.92625,37.28823,37.986,51.35107,0.6346079,7.550464,51.14867,0.07013461,-13.16786,62.70407,-7.788587,19.85565,0,0,0,128.1515,-0.9645215,-30.5692,80.19228,-106.3306,-103.7554,0.001067912,-0.1257102,0.09433498,0,0.3,0,0,0,0
6.38225E+17,43.96289,36.18946,38.49964,51.57081,1.440305,4.986883,51.14867,0.07013461,-13.16786,62.63083,-7.788587,19.85565,0,0,0,132.3369,-2.273852,-31.1334,80.19228,-106.3306,-103.7554,0.001067912,-0.1257102,0.09433498,0,0.3,0,0,0,0
6.38225E+17,44.90529,35.58163,39.62031,51.93703,1.879776,2.862773,51.14867,0.07013461,-13.16786,62.70407,-7.788587,19.85565,0,0,0,136.5909,-1.776483,-31.30679,80.19228,-106.3306,-103.7554,0.001067912,-0.1257102,0.09433498,0,0.3,0,0,0,0
6.38225E+17,45.75344,35.48811,41.37135,52.66949,2.026266,0.4456824,51.14867,0.07013461,-13.16786,62.70407,-7.715342,19.85565,0,0,0,140.9151,0.6928255,-31.09312,80.19228,-106.3306,-103.7554,0.001067912,-0.1257102,0.09433498,0,0.3,0,0,0,0
6.38225E+17,46.08328,35.55825,42.39864,53.10896,1.879776,-0.7262403,51.14867,0.07013461,-13.16786,62.70407,-7.715342,19.85565,0,0,0,142.9168,2.421901,-30.73779,80.19228,-106.3306,-103.7554,0.001067912,-0.1257102,0.09433498,0,0.3,0,0,0,0
6.38225E+17,46.55449,36.09594,44.47654,54.06115,1.367059,-2.923595,51.14867,0.07013461,-13.16786,62.70407,-7.715342,19.85565,0,0,0,146.0612,6.761502,-30.00682,80.19228,-106.3306,-103.7554,0.001067912,-0.1257102,0.09433498,0,0.3,0,0,0,0
6.38225E+17,46.7194,37.4285,46.62449,54.7936,0.5613627,-5.194195,51.14867,0.07013461,-13.16786,62.63083,-7.788587,19.85565,0,0,0,147.656,12.81456,-29.30042,80.19228,-106.3306,-103.7554,0.001067912,-0.1257102,0.09433498,0,0.3,0,0,0,0
6.38225E+17,46.6016,39.64943,48.46893,55.59929,-0.9035407,-7.538041,51.14867,0.07013461,-13.16786,62.70407,-7.788587,19.85565,0,0,0,147.1352,20.02456,-29.21898,80.19228,-106.3306,-103.7554,0.001067912,-0.1257102,0.09433498,0,0.3,0,0,0,0
6.38225E+17,46.366,40.81834,49.35612,55.96552,-1.782483,-8.929699,51.14867,0.07013461,-13.16786,62.70407,-7.788587,19.85565,0,0,0,146.2722,23.65769,-28.89126,80.19228,-106.3306,-103.7554,0.001067912,-0.1257102,0.09433498,0,0.3,0,0,0,0
6.38225E+17,45.56496,43.4367,51.08382,56.62473,-4.126328,-12.15249,51.14867,0.07013461,-13.16786,62.70407,-7.788587,19.85565,0,0,0,143.2267,31.26698,-27.92036,80.19228,-106.3306,-103.7554,0.001067912,-0.1257102,0.09433498,0,0.3,0,0,0,0
6.38225E+17,44.43409,46.17195,51.90097,56.91771,-6.98289,-14.9358,51.14867,0.07013461,-13.16786,62.70407,-7.788587,19.85565,0,0,0,138.1159,37.27158,-27.47842,80.19228,-106.3306,-103.7554,0.001067912,-0.1257102,0.09433498,0,0.3,0,0,0,0
6.38225E+17,43.75085,47.43437,52.08775,56.84446,-8.301303,-15.81474,51.14867,0.07013461,-13.16786,62.70407,-7.788587,19.85565,0,0,0,135.1302,39.62525,-27.19533,80.19228,-106.3306,-103.7554,0.001067912,-0.1257102,0.09433498,0,0.3,0,0,0,0
6.38225E+17,41.98385,50.09949,52.64809,56.18526,-11.30435,-17.2064,51.14867,0.07013461,-13.16786,62.70407,-7.788587,19.85565,0,0,0,128.1261,44.74607,-25.97092,80.19228,-106.3306,-103.7554,0.001067912,-0.1257102,0.09433498,0,0.3,0,0,0,0
6.38225E+17,40.00481,52.48407,52.9516,55.37956,-14.38065,-17.93885,51.14867,0.07013461,-13.16786,62.70407,-7.715342,19.85565,0,0,0,120.6234,48.77912,-24.62111,80.19228,-106.3306,-103.7554,0.001067912,-0.1257102,0.09433498,0,0.3,0,0,0,0
6.38225E+17,38.99174,53.55946,52.9516,54.94009,-15.84556,-18.15859,51.14867,0.07013461,-13.16786,62.70407,-7.715342,19.85565,0,0,0,116.8053,50.2846,-24.06491,80.19228,-106.3306,-103.7554,0.001067912,-0.1257102,0.09433498,0,0.3,0,0,0,0
6.38225E+17,36.51794,55.75702,52.97495,53.62167,-18.84861,-18.15859,51.14867,0.07013461,-13.16786,62.70407,-7.788587,19.78241,0,0,0,108.0057,53.28633,-22.4842,80.19228,-106.3306,-103.7554,0.001067912,-0.1257102,0.09433498,0,0.3,0,0,0,0
6.38225E+17,33.87922,57.67403,52.9516,51.86379,-21.63192,-18.08535,51.14867,0.07013461,-13.16786,62.70407,-7.788587,19.85565,0,0,0,99.07854,55.69138,-20.79001,80.19228,-106.3306,-103.7554,0.001067912,-0.1257102,0.09433498,0,0.3,0,0,0,0
6.38225E+17,31.00491,59.45077,52.76482,49.66644,-24.56173,-17.71912,51.14867,0.07013461,-13.16786,62.70407,-7.788587,19.85565,0,0,0,89.60194,57.50156,-19.25627,80.19228,-106.3306,-103.7554,0.001067912,-0.1257102,0.09433498,0,0.3,0,0,0,0
6.38225E+17,27.61227,60.90022,52.46131,46.22392,-27.49154,-15.88799,51.14867,0.07013461,-13.16786,62.70407,-7.788587,19.85565,0,0,0,79.06661,58.61801,-17.1884,80.19228,-106.3306,-103.7554,0.001067912,-0.1257102,0.09433498,0,0.3,0,0,0,0
6.38225E+17,26.41072,61.27427,52.39126,44.9055,-28.51697,-14.86256,51.14867,0.07013461,-13.16786,62.70407,-7.788587,19.85565,0,0,0,75.49625,58.90971,-16.33519,80.19228,-106.3306,-103.7554,0.001067912,-0.1257102,0.09433498,0,0.3,0,0,0,0
6.38225E+17,23.20656,62.09251,52.27453,41.09675,-30.71432,-11.85951,51.14867,0.07013461,-13.16786,62.70407,-7.715342,19.85565,0,0,0,66.15549,59.59796,-14.04648,80.19228,-106.3306,-103.7554,0.001067912,-0.1257102,0.09433498,0,0.3,0,0,0,0
6.38225E+17,19.93173,62.51331,52.27453,36.55555,-32.69194,-8.124002,51.14867,0.07013461,-13.16786,62.70407,-7.788587,19.85565,0,0,0,56.93718,60.05317,-11.3345,80.19228,-106.3306,-103.7554,0.001067912,-0.1257102,0.09433498,0,0.3,0,0,0,0
6.38225E+17,16.77469,62.70034,52.20449,31.72137,-34.44983,-3.949028,51.14867,0.07013461,-13.16786,62.63083,-7.788587,19.85565,0,0,0,48.06313,60.12457,-8.902718,80.19228,-106.3306,-103.7554,0.001067912,-0.1257102,0.09433498,0,0.3,0,0,0,0
6.38225E+17,15.07837,62.72372,52.18114,29.08454,-35.25552,-1.605182,51.14867,0.07013461,-13.16786,62.70407,-7.788587,19.85565,0,0,0,43.30087,60.10658,-7.628681,80.19228,-106.3306,-103.7554,0.001067912,-0.1257102,0.09433498,0,0.3,0,0,0,0
6.38225E+17,11.8271,62.65359,52.18114,23.88414,-36.50069,3.375489,51.14867,0.07013461,-13.16786,62.70407,-7.715342,19.85565,0,0,0,34.14559,60.03168,-5.289612,80.19228,-106.3306,-103.7554,0.001067912,-0.1257102,0.09433498,0,0.3,0,0,0,0
6.38225E+17,8.340226,62.34967,52.15779,17.58505,-37.67262,9.088613,51.14867,0.07013461,-13.16786,62.70407,-7.788587,19.85565,0,0,0,24.25124,59.66217,-2.926934,80.19228,-106.3306,-103.7554,0.001067912,-0.1257102,0.09433498,0,0.3,0,0,0,0
6.38225E+17,6.667469,62.09251,52.08775,14.43551,-38.03884,11.94517,51.14867,0.07013461,-13.16786,62.70407,-7.788587,19.85565,0,0,0,19.46191,59.25456,-1.862966,80.19228,-106.3306,-103.7554,0.001067912,-0.1257102,0.09433498,0,0.3,0,0,0,0
6.38225E+17,2.897875,61.08725,51.73754,5.646089,-38.47831,19.26969,51.14867,0.07013461,-13.16786,62.70407,-7.788587,19.85565,0,0,0,8.552833,57.4999,0.6094151,80.19228,-106.3306,-103.7554,0.001067912,-0.1257102,0.09433498,0,0.3,0,0,0,0
6.38225E+17,0.6832389,60.12874,51.45737,-0.7262403,-38.25858,24.17712,51.14867,0.07013461,-13.16786,62.70407,-7.788587,19.85565,0,0,0,2.035681,55.89406,2.352221,80.19228,-106.3306,-103.7554,0.001067912,-0.1257102,0.09433498,0,0.3,0,0,0,0
6.38225E+17,-1.507838,58.95983,51.31729,-7.684532,-37.52613,29.0113,51.14867,0.07013461,-13.16786,62.70407,-7.788587,19.85565,0,0,0,-4.54848,54.26038,4.446148,80.19228,-106.3306,-103.7554,0.001067912,-0.1257102,0.09433498,0,0.3,0,0,0,0
6.38225E+17,-2.450236,58.35199,51.20055,-11.12705,-37.08665,30.98892,51.14867,0.07013461,-13.16786,62.63083,-7.788587,19.85565,0,0,0,-7.434263,53.31259,5.385195,80.19228,-106.3306,-103.7554,0.001067912,-0.1257102,0.09433498,0,0.3,0,0,0,0
6.38225E+17,-3.958073,57.15971,50.7803,-16.69369,-35.91473,33.69899,51.14867,0.07013461,-13.16786,62.63083,-7.715342,19.85565,0,0,0,-12.12281,51.0721,6.856569,80.19228,-106.3306,-103.7554,0.001067912,-0.1257102,0.09433498,0,0.3,0,0,0,0
6.38225E+17,-5.371671,55.78039,50.19662,-21.30813,-34.59632,35.38363,51.14867,0.07013461,-13.16786,62.70407,-7.788587,19.78241,0,0,0,-16.61097,48.25087,8.307893,80.19228,-106.3306,-103.7554,0.001067912,-0.1257102,0.09433498,0,0.3,0,0,0,0
6.38225E+17,-6.596789,54.35432,49.44951,-24.97039,-33.20466,36.33582,51.14867,0.07013461,-13.16786,62.70407,-7.788587,19.85565,0,0,0,-20.56796,45.02184,9.500929,80.19228,-106.3306,-103.7554,0.001067912,-0.1257102,0.09433498,0,0.3,0,0,0,0
6.38225E+17,-7.397828,53.39582,48.81913,-27.02126,-32.10598,36.70204,51.14867,0.07013461,-13.16786,62.70407,-7.788587,19.85565,0,0,0,-23.16076,42.59717,10.03096,80.19228,-106.3306,-103.7554,0.001067912,-0.1257102,0.09433498,0,0.3,0,0,0,0
6.38225E+17,-8.599386,51.78272,47.79185,-29.65808,-30.3481,36.92178,51.14867,0.07013461,-13.16786,62.70407,-7.788587,19.85565,0,0,0,-27.10434,38.53115,10.88208,80.19228,-106.3306,-103.7554,0.001067912,-0.1257102,0.09433498,0,0.3,0,0,0,0
6.38225E+17,-9.965863,49.79557,46.67118,-32.00193,-28.22399,37.06827,51.14867,0.07013461,-13.16786,62.70407,-7.788587,19.85565,0,0,0,-31.68445,33.69287,11.96962,80.19228,-106.3306,-103.7554,0.001067912,-0.1257102,0.09433498,0,0.3,0,0,0,0
6.38225E+17,-10.55486,48.83707,46.08751,-33.17385,-27.12531,37.06827,51.14867,0.07013461,-13.16786,62.63083,-7.788587,19.85565,0,0,0,-33.67463,31.25524,12.37611,80.19228,-106.3306,-103.7554,0.001067912,-0.1257102,0.09433498,0,0.3,0,0,0,0
6.38225E+17,-11.61506,46.68627,44.96684,-35.00498,-24.78147,37.06827,51.14867,0.07013461,-13.16786,62.70407,-7.715342,19.85565,0,0,0,-37.39105,26.02933,13.56221,80.19228,-106.3306,-103.7554,0.001067912,-0.1257102,0.09433498,0,0.3,0,0,0,0
6.38225E+17,-12.6517,44.58223,44.0096,-36.32339,-22.80385,36.92178,51.14867,0.07013461,-13.16786,62.63083,-7.788587,19.85565,0,0,0,-41.09465,21.04422,14.7208,80.19228,-106.3306,-103.7554,0.001067912,-0.1257102,0.09433498,0,0.3,0,0,0,0
6.38225E+17,-13.52342,42.33792,42.93562,-37.56856,-20.75298,36.40906,51.14867,0.07013461,-13.16786,62.63083,-7.788587,19.85565,0,0,0,-44.29104,15.53334,15.80385,80.19228,-106.3306,-103.7554,0.001067912,-0.1257102,0.09433498,0,0.3,0,0,0,0
6.38225E+17,-13.9475,41.16902,42.46867,-38.00803,-19.6543,36.18932,51.14867,0.07013461,-13.16786,62.63083,-7.788587,19.85565,0,0,0,-45.89701,12.7668,16.45411,80.19228,-106.3306,-103.7554,0.001067912,-0.1257102,0.09433498,0,0.3,0,0,0,0
6.38225E+17,-14.86634,39.13511,41.76826,-38.74048,-17.67669,35.8231,51.14867,0.07013461,-13.16786,62.63083,-7.788587,19.85565,0,0,0,-49.3275,8.055572,17.47569,80.19228,-106.3306,-103.7554,0.001067912,-0.1257102,0.09433498,0,0.3,0,0,0,0
6.38225E+17,-15.95009,37.12459,41.53479,-39.54618,-15.9188,35.53012,51.14867,0.07013461,-13.16786,62.70407,-7.788587,19.85565,0,0,0,-53.51572,4.013836,18.89691,80.19228,-106.3306,-103.7554,0.001067912,-0.1257102,0.09433498,0,0.3,0,0,0,0
6.38225E+17,-17.34013,35.13744,41.67487,-40.64486,-14.16092,35.60336,51.14867,0.07013461,-13.16786,62.70407,-7.788587,19.85565,0,0,0,-58.92765,0.4951234,20.37923,80.19228,-106.3306,-103.7554,0.001067912,-0.1257102,0.09433498,0,0.3,0,0,0,0
6.38225E+17,-18.32965,34.03867,42.04842,-41.59705,-13.20873,35.74985,51.14867,0.07013461,-13.16786,62.70407,-7.788587,19.85565,0,0,0,-62.83828,-1.029954,21.32611,80.19228,-106.3306,-103.7554,0.001067912,-0.1257102,0.09433498,0,0.3,0,0,0,0
6.38225E+17,-18.94221,33.45421,42.39864,-42.3295,-12.69601,35.8231,51.14867,0.07013461,-13.16786,62.63083,-7.788587,19.85565,0,0,0,-65.30374,-1.61326,21.92909,80.19228,-106.3306,-103.7554,0.001067912,-0.1257102,0.09433498,0,0.3,0,0,0,0
6.38225E+17,-20.12021,32.56584,43.37922,-43.86765,-11.96356,36.04284,51.14867,0.07013461,-13.16786,62.70407,-7.715342,19.85565,0,0,0,-70.16444,-1.793869,23.17403,80.19228,-106.3306,-103.7554,0.001067912,-0.1257102,0.09433498,0,0.3,0,0,0,0
6.38225E+17,-21.39244,32.00476,44.75671,-45.62553,-11.45084,36.11608,51.14867,0.07013461,-13.16786,62.63083,-7.788587,19.85565,0,0,0,-75.49416,-0.6680989,24.36318,80.19228,-106.3306,-103.7554,0.001067912,-0.1257102,0.09433498,0,0.3,0,0,0,0
6.38225E+17,-22.005,31.86449,45.45713,-46.50447,-11.23111,36.33582,51.14867,0.07013461,-13.16786,62.63083,-7.788587,19.85565,0,0,0,-78.04592,0.2096806,24.77188,80.19228,-106.3306,-103.7554,0.001067912,-0.1257102,0.09433498,0,0.3,0,0,0,0
6.38225E+17,-23.27724,31.7476,46.9747,-48.40885,-10.93813,37.14151,51.14867,0.07013461,-13.16786,62.63083,-7.788587,19.85565,0,0,0,-83.33698,2.528337,25.36808,80.19228,-106.3306,-103.7554,0.001067912,-0.1257102,0.09433498,0,0.3,0,0,0,0
6.38225E+17,-24.4788,31.7476,48.67905,-50.23997,-10.71839,38.24019,51.14867,0.07013461,-13.16786,62.70407,-7.715342,19.85565,0,0,0,-88.4843,5.468027,26.00161,80.19228,-106.3306,-103.7554,0.001067912,-0.1257102,0.09433498,0,0.3,0,0,0,0
6.38225E+17,-25.0678,31.7476,49.56625,-51.04567,-10.64515,38.89939,51.14867,0.07013461,-13.16786,62.70407,-7.788587,19.85565,0,0,0,-91.05006,7.029275,26.30577,80.19228,-106.3306,-103.7554,0.001067912,-0.1257102,0.09433498,0,0.3,0,0,0,0
6.38225E+17,-26.52852,31.7476,52.18114,-53.38951,-10.35217,40.73053,51.14867,0.07013461,-13.16786,62.70407,-7.788587,19.78241,0,0,0,-97.69769,11.75004,27.35726,80.19228,-106.3306,-103.7554,0.001067912,-0.1257102,0.09433498,0,0.3,0,0,0,0
6.38225E+17,-27.306,31.7476,53.83879,-54.85442,-10.27892,41.97569,51.14867,0.07013461,-13.16786,62.70407,-7.788587,19.85565,0,0,0,-101.4091,14.83149,28.07611,80.19228,-106.3306,-103.7554,0.001067912,-0.1257102,0.09433498,0,0.3,0,0,0,0
6.38225E+17,-27.75363,31.7476,54.98281,-55.87985,-10.20568,42.92788,51.14867,0.07013461,-13.16786,62.70407,-7.788587,19.85565,0,0,0,-103.6622,16.99669,28.64909,80.19228,-106.3306,-103.7554,0.001067912,-0.1257102,0.09433498,0,0.3,0,0,0,0
6.38225E+17,-28.55467,31.70084,56.94398,-57.85748,-10.27892,44.68576,51.14867,0.07013461,-13.16786,62.70407,-7.715342,19.85565,0,0,0,-107.6546,20.68639,29.47481,80.19228,-106.3306,-103.7554,0.001067912,-0.1257102,0.09433498,0,0.3,0,0,0,0
6.38225E+17,-29.30859,31.44369,58.46156,-59.46887,-10.27892,46.00418,51.14867,0.07013461,-13.16786,62.70407,-7.788587,19.85565,0,0,0,-111.3255,23.16193,29.95999,80.19228,-106.3306,-103.7554,0.001067912,-0.1257102,0.09433498,0,0.3,0,0,0,0
6.38225E+17,-30.01539,30.85923,59.39544,-60.56754,-10.13243,46.73663,51.14867,0.07013461,-13.16786,62.70407,-7.715342,19.85565,0,0,0,-114.6764,23.85949,30.15224,80.19228,-106.3306,-103.7554,0.001067912,-0.1257102,0.09433498,0,0.3,0,0,0,0
6.38225E+17,-30.39235,30.36828,59.65226,-61.08026,-9.985942,46.88312,51.14867,0.07013461,-13.16786,62.70407,-7.715342,19.85565,0,0,0,-116.4277,23.39127,30.15688,80.19228,-106.3306,-103.7554,0.001067912,-0.1257102,0.09433498,0,0.3,0,0,0,0
6.38225E+17,-31.09915,29.05911,59.769,-61.81271,-9.180244,47.1761,51.14867,0.07013461,-13.16786,62.70407,-7.715342,19.85565,0,0,0,-119.7184,20.97959,30.1161,80.19228,-106.3306,-103.7554,0.001067912,-0.1257102,0.09433498,0,0.3,0,0,0,0
6.38225E+17,-31.71171,27.37588,59.74565,-62.25218,-8.008322,47.24934,51.14867,0.07013461,-13.16786,62.70407,-7.715342,19.85565,0,0,0,-122.7926,17.48079,30.37726,80.19228,-106.3306,-103.7554,0.001067912,-0.1257102,0.09433498,0,0.3,0,0,0,0
6.38225E+17,-32.04155,25.97318,59.53553,-62.47192,-7.056135,47.24934,51.14867,0.07013461,-13.16786,62.70407,-7.715342,19.85565,0,0,0,-124.5809,14.14171,30.69983,80.19228,-106.3306,-103.7554,0.001067912,-0.1257102,0.09433498,0,0.3,0,0,0,0
6.38225E+17,-32.23003,24.54711,59.06858,-62.61841,-6.177193,47.32259,51.14867,0.07013461,-13.16786,62.63083,-7.788587,19.85565,0,0,0,-125.6945,10.20564,31.01768,80.19228,-106.3306,-103.7554,0.001067912,-0.1257102,0.09433498,0,0.3,0,0,0,0
6.38225E+17,-32.32427,22.60672,58.13469,-62.39867,-5.15176,47.24934,51.14867,0.07013461,-13.16786,62.70407,-7.788587,19.85565,0,0,0,-126.3826,4.211533,31.38012,80.19228,-106.3306,-103.7554,0.001067912,-0.1257102,0.09433498,0,0.3,0,0,0,0
6.38225E+17,-32.32427,21.60146,57.43428,-62.10569,-4.712289,47.24934,51.14867,0.07013461,-13.16786,62.70407,-7.788587,19.85565,0,0,0,-126.3886,0.6646971,31.3897,80.19228,-106.3306,-103.7554,0.001067912,-0.1257102,0.09433498,0,0.3,0,0,0,0
6.38225E+17,-32.25359,18.4454,55.44976,-60.93377,-3.540367,47.10286,51.14867,0.07013461,-13.16786,62.70407,-7.715342,19.85565,0,0,0,-126.1217,-10.08456,31.51311,80.19228,-106.3306,-103.7554,0.001067912,-0.1257102,0.09433498,0,0.3,0,0,0,0
6.38225E+17,-32.20647,17.29987,54.98281,-60.56754,-3.247386,46.80988,51.14867,0.07013461,-13.16786,62.70407,-7.788587,19.85565,0,0,0,-126.063,-13.51453,31.7845,80.19228,-106.3306,-103.7554,0.001067912,-0.1257102,0.09433498,0,0.3,0,0,0,0
6.38225E+17,-32.06511,14.93867,54.09562,-59.98158,-2.58818,46.07742,51.14867,0.07013461,-13.16786,62.70407,-7.788587,19.85565,0,0,0,-125.7428,-20.47539,32.37265,80.19228,-106.3306,-103.7554,0.001067912,-0.1257102,0.09433498,0,0.3,0,0,0,0
6.38225E+17,-31.85307,12.95152,53.30181,-59.10264,-2.075463,45.34497,51.14867,0.07013461,-13.16786,62.70407,-7.788587,19.78241,0,0,0,-125.01,-26.45266,32.85423,80.19228,-106.3306,-103.7554,0.001067912,-0.1257102,0.09433498,0,0.3,0,0,0,0
6.38225E+17,-31.73527,11.96964,52.92825,-58.66317,-1.855728,45.05199,51.14867,0.07013461,-13.16786,62.63083,-7.788587,19.85565,0,0,0,-124.581,-29.37943,33.08637,80.19228,-106.3306,-103.7554,0.001067912,-0.1257102,0.09433498,0,0.3,0,0,0,0
6.38225E+17,-31.40543,10.37992,51.97101,-57.71098,-1.416257,44.53928,51.14867,0.07013461,-13.16786,62.70407,-7.788587,19.78241,0,0,0,-123.0854,-34.77534,33.25333,80.19228,-106.3306,-103.7554,0.001067912,-0.1257102,0.09433498,0,0.3,0,0,0,0
6.38225E+17,-30.95779,9.164255,50.68691,-56.6123,-1.050031,44.0998,51.14867,0.07013461,-13.16786,62.70407,-7.788587,19.78241,0,0,0,-120.793,-39.89687,33.01924,80.19228,-106.3306,-103.7554,0.001067912,-0.1257102,0.09433498,0,0.3,0,0,0,0
6.38225E+17,-30.69863,8.533044,49.96315,-56.17283,-0.9035407,43.80682,51.14867,0.07013461,-13.16786,62.70407,-7.788587,19.85565,0,0,0,-119.4473,-42.64497,32.83314,80.19228,-106.3306,-103.7554,0.001067912,-0.1257102,0.09433498,0,0.3,0,0,0,0
6.38225E+17,-29.94471,7.527781,48.23545,-54.92767,-0.5373149,43.4406,51.14867,0.07013461,-13.16786,62.70407,-7.788587,19.85565,0,0,0,-115.6388,-48.00081,32.38939,80.19228,-106.3306,-103.7554,0.001067912,-0.1257102,0.09433498,0,0.3,0,0,0,0
6.38225E+17,-28.95519,7.15373,46.15754,-53.31627,-0.3175794,43.22086,51.14867,0.07013461,-13.16786,62.63083,-7.788587,19.85565,0,0,0,-110.618,-52.41224,31.57865,80.19228,-106.3306,-103.7554,0.001067912,-0.1257102,0.09433498,0,0.3,0,0,0,0
6.38225E+17,-28.01279,7.15373,44.38315,-51.85137,-0.09784385,42.92788,51.14867,0.07013461,-13.16786,62.63083,-7.788587,19.85565,0,0,0,-105.9498,-55.34602,30.80523,80.19228,-106.3306,-103.7554,0.001067912,-0.1257102,0.09433498,0,0.3,0,0,0,0
6.38225E+17,-27.44736,7.177108,43.5193,-50.97242,-0.09784385,42.70815,51.14867,0.07013461,-13.16786,62.70407,-7.788587,19.85565,0,0,0,-103.3089,-56.68742,30.55059,80.19228,-106.3306,-103.7554,0.001067912,-0.1257102,0.09433498,0,0.3,0,0,0,0
6.38225E+17,-26.2458,7.434268,41.88499,-49.06805,-0.02459868,42.6349,51.14867,0.07013461,-13.16786,62.63083,-7.788587,19.78241,0,0,0,-97.84559,-58.67328,30.09792,80.19228,-106.3306,-103.7554,0.001067912,-0.1257102,0.09433498,0,0.3,0,0,0,0
6.38225E+17,-24.90288,8.088859,40.22734,-47.01719,-0.09784385,42.56165,51.14867,0.07013461,-13.16786,62.63083,-7.788587,19.85565,0,0,0,-91.85624,-59.69761,29.5113,80.19228,-106.3306,-103.7554,0.001067912,-0.1257102,0.09433498,0,0.3,0,0,0,0
6.38225E+17,-23.37148,9.257769,38.33621,-44.38036,-0.3908245,42.56165,51.14867,0.07013461,-13.16786,62.70407,-7.788587,19.85565,0,0,0,-85.02148,-59.79481,28.39168,80.19228,-106.3306,-103.7554,0.001067912,-0.1257102,0.09433498,0,0.3,0,0,0,0
6.38225E+17,-21.76941,10.75397,36.60851,-41.96327,-0.8302955,42.56165,51.14867,0.07013461,-13.16786,62.70407,-7.788587,19.85565,0,0,0,-78.07987,-58.81183,27.16633,80.19228,-106.3306,-103.7554,0.001067912,-0.1257102,0.09433498,0,0.3,0,0,0,0
6.38225E+17,-20.73277,11.78261,35.55789,-40.42512,-1.123276,42.48841,51.14867,0.07013461,-13.16786,62.70407,-7.788587,19.85565,0,0,0,-73.66469,-57.90408,26.26129,80.19228,-106.3306,-103.7554,0.001067912,-0.1257102,0.09433498,0,0.3,0,0,0,0
6.38225E+17,-19.06001,13.62949,33.87688,-37.71505,-1.562747,42.48841,51.14867,0.07013461,-13.16786,62.70407,-7.788587,19.85565,0,0,0,-66.59355,-55.93922,24.3957,80.19228,-106.3306,-103.7554,0.001067912,-0.1257102,0.09433498,0,0.3,0,0,0,0
6.38225E+17,-17.15165,15.99069,32.21923,-34.78524,-2.075463,42.34192,51.14867,0.07013461,-13.16786,62.63083,-7.788587,19.85565,0,0,0,-58.77014,-52.73059,22.07434,80.19228,-106.3306,-103.7554,0.001067912,-0.1257102,0.09433498,0,0.3,0,0,0,0
6.38225E+17,-16.16213,17.22974,31.51881,-33.32034,-2.441689,42.12218,51.14867,0.07013461,-13.16786,62.70407,-7.788587,19.85565,0,0,0,-54.85803,-50.82791,20.93943,80.19228,-106.3306,-103.7554,0.001067912,-0.1257102,0.09433498,0,0.3,0,0,0,0
6.38225E+17,-14.25378,19.91823,30.51488,-30.24404,-3.100896,41.75596,51.14867,0.07013461,-13.16786,62.63083,-7.788587,19.85565,0,0,0,-47.54036,-46.10117,18.78892,80.19228,-106.3306,-103.7554,0.001067912,-0.1257102,0.09433498,0,0.3,0,0,0,0
6.38225E+17,-12.5339,22.81713,29.8845,-27.38748,-3.979838,41.38973,51.14867,0.07013461,-13.16786,62.70407,-7.788587,19.85565,0,0,0,-41.09374,-40.55671,16.49426,80.19228,-106.3306,-103.7554,0.001067912,-0.1257102,0.09433498,0,0.3,0,0,0,0
6.38225E+17,-10.90826,25.71602,29.55764,-24.75066,-4.932025,40.95026,51.14867,0.07013461,-13.16786,62.70407,-7.788587,19.85565,0,0,0,-35.18368,-34.78378,14.21447,80.19228,-106.3306,-103.7554,0.001067912,-0.1257102,0.09433498,0,0.3,0,0,0,0
6.38225E+17,-9.989424,27.39925,29.4876,-23.28575,-5.444741,40.73053,51.14867,0.07013461,-13.16786,62.70407,-7.788587,19.85565,0,0,0,-31.92311,-31.36004,12.89059,80.19228,-106.3306,-103.7554,0.001067912,-0.1257102,0.09433498,0,0.3,0,0,0,0
6.38225E+17,-8.222426,30.48518,29.4876,-20.50244,-6.689909,40.43755,51.14867,0.07013461,-13.16786,62.70407,-7.788587,19.85565,0,0,0,-25.82236,-25.07563,10.34926,80.19228,-106.3306,-103.7554,0.001067912,-0.1257102,0.09433498,0,0.3,0,0,0,0
6.38225E+17,-6.33763,33.52435,29.60433,-17.42614,-8.081567,39.85158,51.14867,0.07013461,-13.16786,62.70407,-7.788587,19.78241,0,0,0,-19.54329,-18.94413,7.61134,80.19228,-106.3306,-103.7554,0.001067912,-0.1257102,0.09433498,0,0.3,0,0,0,0
6.38225E+17,-4.005194,36.93756,30.07128,-14.05686,-9.619716,38.97264,51.14867,0.07013461,-13.16786,62.63083,-7.788587,19.85565,0,0,0,-12.11173,-11.91552,4.630553,80.19228,-106.3306,-103.7554,0.001067912,-0.1257102,0.09433498,0,0.3,0,0,0,0
6.38225E+17,-1.979037,39.27538,30.44483,-11.42003,-10.71839,38.02045,51.14867,0.07013461,-13.16786,62.63083,-7.788587,19.85565,0,0,0,-5.898292,-7.196367,2.345581,80.19228,-106.3306,-103.7554,0.001067912,-0.1257102,0.09433498,0,0.3,0,0,0,0
6.38225E+17,-0.612559,40.63132,30.70166,-9.588906,-11.3776,37.288,51.14867,0.07013461,-13.16786,62.63083,-7.788587,19.78241,0,0,0,-1.809827,-4.473265,0.9259146,80.19228,-106.3306,-103.7554,0.001067912,-0.1257102,0.09433498,0,0.3,0,0,0,0
6.38225E+17,2.049716,43.08603,31.35538,-5.999893,-12.54952,35.8231,51.14867,0.07013461,-13.16786,62.63083,-7.788587,19.85565,0,0,0,5.96507,0.5657389,-1.679386,80.19228,-106.3306,-103.7554,0.001067912,-0.1257102,0.09433498,0,0.3,0,0,0,0
6.38225E+17,4.759112,45.33034,32.19588,-2.117898,-13.72145,34.2117,51.14867,0.07013461,-13.16786,62.70407,-7.788587,19.85565,0,0,0,13.67278,5.33979,-4.119751,80.19228,-106.3306,-103.7554,0.001067912,-0.1257102,0.09433498,0,0.3,0,0,0,0
6.38225E+17,6.07847,46.21871,32.59278,-0.2867693,-14.23416,33.25952,51.14867,0.07013461,-13.16786,62.63083,-7.788587,19.85565,0,0,0,17.37628,7.276781,-5.175789,80.19228,-106.3306,-103.7554,0.001067912,-0.1257102,0.09433498,0,0.3,0,0,0,0
6.38225E+17,8.882105,47.83181,33.47998,3.595225,-15.03986,31.13541,51.14867,0.07013461,-13.16786,62.70407,-7.788587,19.85565,0,0,0,25.18001,10.96161,-7.224617,80.19228,-106.3306,-103.7554,0.001067912,-0.1257102,0.09433498,0,0.3,0,0,0,0
6.38225E+17,11.75642,49.09423,34.34383,7.550464,-15.84556,28.71832,51.14867,0.07013461,-13.16786,62.70407,-7.788587,19.85565,0,0,0,33.11986,14.03157,-9.209589,80.19228,-106.3306,-103.7554,0.001067912,-0.1257102,0.09433498,0,0.3,0,0,0,0
6.38225E+17,13.21714,49.49166,34.67069,9.454838,-16.13853,27.47315,51.14867,0.07013461,-13.16786,62.70407,-7.788587,19.85565,0,0,0,37.14885,15.06579,-10.17791,80.19228,-106.3306,-103.7554,0.001067912,-0.1257102,0.09433498,0,0.3,0,0,0,0
6.38225E+17,16.68045,49.88908,35.20768,13.99604,-16.35827,24.90957,51.14867,0.07013461,-13.16786,62.70407,-7.788587,19.85565,0,0,0,46.7277,16.37993,-12.40518,80.19228,-106.3306,-103.7554,0.001067912,-0.1257102,0.09433498,0,0.3,0,0,0,0
6.38225E+17,19.13069,49.88908,35.58123,17.29207,-16.13853,22.63897,51.14867,0.07013461,-13.16786,62.70407,-7.788587,19.85565,0,0,0,53.58415,16.8835,-13.87585,80.19228,-106.3306,-103.7554,0.001067912,-0.1257102,0.09433498,0,0.3,0,0,0,0
6.38225E+17,21.5338,49.77219,35.93144,20.73459,-15.84556,19.85565,51.14867,0.07013461,-13.16786,62.63083,-7.788587,19.85565,0,0,0,60.33321,17.18429,-15.44984,80.19228,-106.3306,-103.7554,0.001067912,-0.1257102,0.09433498,0,0.3,0,0,0,0
6.38225E+17,22.54688,49.63192,36.04818,22.12625,-15.62582,18.53724,51.14867,0.07013461,-13.16786,62.70407,-7.788587,19.85565,0,0,0,63.20691,17.1328,-16.10748,80.19228,-106.3306,-103.7554,0.001067912,-0.1257102,0.09433498,0,0.3,0,0,0,0
6.38225E+17,24.40812,49.18774,36.16492,25.05606,-15.18635,16.19339,51.14867,0.07013461,-13.16786,62.63083,-7.788587,19.85565,0,0,0,68.53336,16.62028,-17.32593,80.19228,-106.3306,-103.7554,0.001067912,-0.1257102,0.09433498,0,0.3,0,0,0,0
6.38225E+17,25.98664,48.62666,36.16492,27.47315,-14.60039,14.21577,51.14867,0.07013461,-13.16786,62.63083,-7.788587,19.78241,0,0,0,73.09881,15.76197,-18.38647,80.19228,-106.3306,-103.7554,0.001067912,-0.1257102,0.09433498,0,0.3,0,0,0,0
6.38225E+17,27.306,47.85518,36.11822,29.59726,-13.86794,12.89736,51.14867,0.07013461,-13.16786,62.70407,-7.788587,19.85565,0,0,0,77.10652,14.50206,-18.99719,80.19228,-106.3306,-103.7554,0.001067912,-0.1257102,0.09433498,0,0.3,0,0,0,0
6.38225E+17,28.08347,47.20059,36.00148,30.76918,-13.35522,12.23815,51.14867,0.07013461,-13.16786,62.70407,-7.788587,19.85565,0,0,0,79.55162,13.31343,-19.25957,80.19228,-106.3306,-103.7554,0.001067912,-0.1257102,0.09433498,0,0.3,0,0,0,0
6.38225E+17,29.02587,46.24208,35.83805,32.23409,-12.69601,11.72544,51.14867,0.07013461,-13.16786,62.70407,-7.788587,19.85565,0,0,0,82.63154,11.56097,-19.43738,80.19228,-106.3306,-103.7554,0.001067912,-0.1257102,0.09433498,0,0.3,0,0,0,0
6.38225E+17,30.06251,44.97966,35.58123,33.69899,-11.89032,11.35921,51.14867,0.07013461,-13.16786,62.70407,-7.861832,19.85565,0,0,0,86.12075,9.156807,-19.55961,80.19228,-106.3306,-103.7554,0.001067912,-0.1257102,0.09433498,0,0.3,0,0,0,0
6.38225E+17,31.00491,43.74062,35.4178,34.94416,-11.08462,10.99299,51.14867,0.07013461,-13.16786,62.70407,-7.788587,19.85565,0,0,0,89.43533,6.874206,-19.53349,80.19228,-106.3306,-103.7554,0.001067912,-0.1257102,0.09433498,0,0.3,0,0,0,0
6.38225E+17,31.49967,43.01589,35.30106,35.53012,-10.5719,10.91974,51.14867,0.07013461,-13.16786,62.63083,-7.861832,19.85565,0,0,0,91.20655,5.491017,-19.5125,80.19228,-106.3306,-103.7554,0.001067912,-0.1257102,0.09433498,0,0.3,0,0,0,0
6.38225E+17,32.51274,41.49631,35.04425,36.70204,-9.473226,10.77325,51.14867,0.07013461,-13.16786,62.70407,-7.788587,19.85565,0,0,0,94.83945,2.529125,-19.55494,80.19228,-106.3306,-103.7554,0.001067912,-0.1257102,0.09433498,0,0.3,0,0,0,0
6.38225E+17,33.69075,39.60268,34.64734,37.94721,-8.228058,10.62676,51.14867,0.07013461,-13.16786,62.63083,-7.861832,19.85565,0,0,0,99.04713,-1.347342,-19.78309,80.19228,-106.3306,-103.7554,0.001067912,-0.1257102,0.09433498,0,0.3,0,0,0,0
6.38225E+17,34.23262,38.52728,34.36718,38.60641,-7.642097,10.62676,51.14867,0.07013461,-13.16786,62.70407,-7.788587,19.85565,0,0,0,101.0328,-3.660025,-19.86667,80.19228,-106.3306,-103.7554,0.001067912,-0.1257102,0.09433498,0,0.3,0,0,0,0
6.38225E+17,35.3635,35.79203,33.64341,39.85158,-6.250438,10.48027,51.14867,0.07013461,-13.16786,62.63083,-7.861832,19.85565,0,0,0,105.3608,-9.675047,-19.89283,80.19228,-106.3306,-103.7554,0.001067912,-0.1257102,0.09433498,0,0.3,0,0,0,0
6.38225E+17,36.35302,32.823,32.91964,41.09675,-4.492554,10.48027,51.14867,0.07013461,-13.16786,62.70407,-7.861832,19.85565,0,0,0,109.3825,-16.30669,-19.7322,80.19228,-106.3306,-103.7554,0.001067912,-0.1257102,0.09433498,0,0.3,0,0,0,0
6.38225E+17,37.46034,29.01235,32.21923,42.6349,-2.368444,10.70001,51.14867,0.07013461,-13.16786,62.70407,-7.861832,19.85565,0,0,0,114.1696,-24.79151,-19.34779,80.19228,-106.3306,-103.7554,0.001067912,-0.1257102,0.09433498,0,0.3,0,0,0,0
6.38225E+17,38.12002,26.58102,31.86902,43.58709,-1.196521,10.8465,51.14867,0.07013461,-13.16786,62.70407,-7.861832,19.78241,0,0,0,117.0799,-30.2293,-19.1398,80.19228,-106.3306,-103.7554,0.001067912,-0.1257102,0.09433498,0,0.3,0,0,0,0
6.38225E+17,38.56766,24.87441,31.77563,44.24629,-0.2443342,10.91974,51.14867,0.07013461,-13.16786,62.63083,-7.861832,19.85565,0,0,0,119.2019,-33.92197,-18.8554,80.19228,-106.3306,-103.7554,0.001067912,-0.1257102,0.09433498,0,0.3,0,0,0,0
6.38225E+17,39.53362,21.53132,31.77563,45.34497,1.293814,10.99299,51.14867,0.07013461,-13.16786,62.70407,-7.861832,19.85565,0,0,0,123.6562,-41.07231,-18.52227,80.19228,-106.3306,-103.7554,0.001067912,-0.1257102,0.09433498,0,0.3,0,0,0,0
6.38225E+17,40.49957,18.18824,31.77563,46.44365,2.831963,10.99299,51.14867,0.07013461,-13.16786,62.70407,-7.861832,19.85565,0,0,0,127.8808,-48.38921,-18.61853,80.19228,-106.3306,-103.7554,0.001067912,-0.1257102,0.09433498,0,0.3,0,0,0,0
6.38225E+17,41.39485,14.63475,31.89237,47.76206,4.589847,11.06623,51.14867,0.07013461,-13.16786,62.70407,-7.788587,19.85565,0,0,0,131.9023,-56.17804,-18.70916,80.19228,-106.3306,-103.7554,0.001067912,-0.1257102,0.09433498,0,0.3,0,0,0,0
6.38225E+17,41.81893,12.88139,32.03245,48.49451,5.468789,11.06623,51.14867,0.07013461,-13.16786,62.70407,-7.861832,19.85565,0,0,0,133.8377,-59.96899,-18.76016,80.19228,-106.3306,-103.7554,0.001067912,-0.1257102,0.09433498,0,0.3,0,0,0,0
6.38225E+17,42.45505,9.772089,32.33596,50.03266,7.299919,11.28597,51.14867,0.07013461,-13.16786,62.63083,-7.861832,19.85565,0,0,0,136.8531,-66.6875,-18.76565,80.19228,-106.3306,-103.7554,0.001067912,-0.1257102,0.09433498,0,0.3,0,0,0,0
6.38225E+17,42.87913,6.662788,32.52274,51.49756,8.911312,12.09166,51.14867,0.07013461,-13.16786,62.63083,-7.861832,19.85565,0,0,0,138.9099,-73.61578,-18.75595,80.19228,-106.3306,-103.7554,0.001067912,-0.1257102,0.09433498,0,0.3,0,0,0,0
6.38225E+17,42.94981,4.55875,32.56944,52.523,10.08323,12.82412,51.14867,0.07013461,-13.16786,62.70407,-7.861832,19.78241,0,0,0,139.4829,-78.43051,-18.50994,80.19228,-106.3306,-103.7554,0.001067912,-0.1257102,0.09433498,0,0.3,0,0,0,0
6.38225E+17,42.97337,2.922275,32.56944,53.25545,11.10867,13.84955,51.14867,0.07013461,-13.16786,62.70407,-7.861832,19.85565,0,0,0,139.7139,-82.231,-18.38552,80.19228,-106.3306,-103.7554,0.001067912,-0.1257102,0.09433498,0,0.3,0,0,0,0
6.38225E+17,42.94981,0.9585064,32.56944,54.35413,12.42708,15.97366,51.14867,0.07013461,-13.16786,62.70407,-7.861832,19.85565,0,0,0,139.7576,-86.79861,-18.21481,80.19228,-106.3306,-103.7554,0.001067912,-0.1257102,0.09433498,0,0.3,0,0,0,0
6.38225E+17,42.87913,0.0233782,32.56944,54.7936,12.9398,17.07234,51.14867,0.07013461,-13.16786,62.63083,-7.861832,19.85565,0,0,0,139.585,-88.97493,-18.02886,80.19228,-106.3306,-103.7554,0.001067912,-0.1257102,0.09433498,0,0.3,0,0,0,0
6.38225E+17,42.33725,-1.052019,31.42542,55.96552,14.25821,20.80784,51.14867,0.07013461,-13.16786,62.70407,-7.861832,19.85565,0,0,0,136.6212,-92.88849,-18.40119,80.19228,-106.3306,-103.7554,0.001067912,-0.1257102,0.09433498,0,0.3,0,0,0,0
6.38225E+17,41.88961,-1.052019,31.1686,56.33175,14.4047,22.1995,51.14867,0.07013461,-13.16786,62.63083,-7.861832,19.85565,0,0,0,135.1045,-93.19899,-17.7186,80.19228,-106.3306,-103.7554,0.001067912,-0.1257102,0.09433498,0,0.3,0,0,0,0
6.38225E+17,40.99433,-1.052019,30.21136,56.99095,14.84417,26.08149,51.14867,0.07013461,-13.16786,62.70407,-7.861832,19.85565,0,0,0,131.4777,-94.33607,-17.072,80.19228,-106.3306,-103.7554,0.001067912,-0.1257102,0.09433498,0,0.3,0,0,0,0
6.38225E+17,39.83989,-1.052019,28.83387,57.28393,15.2104,30.18322,51.14867,0.07013461,-13.16786,62.70407,-7.861832,19.85565,0,0,0,126.616,-95.91582,-16.59576,80.19228,-106.3306,-103.7554,0.001067912,-0.1257102,0.09433498,0,0.3,0,0,0,0
6.38225E+17,39.20378,-1.052019,28.04007,57.13744,15.35689,31.86786,51.14867,0.07013461,-13.16786,62.70407,-7.861832,19.85565,0,0,0,123.8965,-96.79559,-16.45829,80.19228,-106.3306,-103.7554,0.001067912,-0.1257102,0.09433498,0,0.3,0,0,0,0
6.38225E+17,37.8373,-1.052019,26.52249,56.40499,15.72311,34.79766,51.14867,0.07013461,-13.16786,62.70407,-7.861832,19.78241,0,0,0,118.3135,-98.41446,-16.02596,80.19228,-106.3306,-103.7554,0.001067912,-0.1257102,0.09433498,0,0.3,0,0,0,0
6.38225E+17,36.23522,-1.052019,25.14501,55.30631,16.01609,37.36125,51.14867,0.07013461,-13.16786,62.70407,-7.861832,19.85565,0,0,0,112.303,-99.81145,-15.10514,80.19228,-106.3306,-103.7554,0.001067912,-0.1257102,0.09433498,0,0.3,0,0,0,0
6.38225E+17,35.38706,-1.052019,24.44459,54.7936,16.08934,38.38668,51.14867,0.07013461,-13.16786,62.70407,-7.861832,19.85565,0,0,0,109.1653,-100.4951,-14.66602,80.19228,-106.3306,-103.7554,0.001067912,-0.1257102,0.09433498,0,0.3,0,0,0,0
6.38225E+17,33.45514,-1.052019,22.99706,53.32869,16.38232,40.51079,51.14867,0.07013461,-13.16786,62.70407,-7.861832,19.85565,0,0,0,102.2219,-101.8503,-13.64647,80.19228,-106.3306,-103.7554,0.001067912,-0.1257102,0.09433498,0,0.3,0,0,0,0
6.38225E+17,31.26407,-1.075397,21.7363,51.79055,16.60205,43.00113,51.14867,0.07013461,-13.16786,62.70407,-7.861832,19.85565,0,0,0,94.8238,-103.0213,-12.1717,80.19228,-106.3306,-103.7554,0.001067912,-0.1257102,0.09433498,0,0.3,0,0,0,0
6.38225E+17,29.12011,-1.075397,20.70902,50.2524,16.60205,45.27173,51.14867,0.07013461,-13.16786,62.70407,-7.861832,19.85565,0,0,0,87.83015,-103.8868,-10.68064,80.19228,-106.3306,-103.7554,0.001067912,-0.1257102,0.09433498,0,0.3,0,0,0,0
6.38225E+17,27.98923,-1.075397,20.19538,49.4467,16.60205,46.44365,51.14867,0.07013461,-13.16786,62.70407,-7.788587,19.85565,0,0,0,84.17558,-104.3045,-9.966981,80.19228,-106.3306,-103.7554,0.001067912,-0.1257102,0.09433498,0,0.3,0,0,0,0
6.38225E+17,25.39764,-1.075397,19.19145,47.54232,16.52881,48.64101,51.14867,0.07013461,-13.16786,62.70407,-7.788587,19.85565,0,0,0,75.98445,-105.0919,-8.310097,80.19228,-106.3306,-103.7554,0.001067912,-0.1257102,0.09433498,0,0.3,0,0,0,0
6.38225E+17,22.66468,-1.075397,18.30426,45.05199,16.30907,50.98485,51.14867,0.07013461,-13.16786,62.63083,-7.861832,19.85565,0,0,0,67.51372,-105.7555,-6.673397,80.19228,-106.3306,-103.7554,0.001067912,-0.1257102,0.09433498,0,0.3,0,0,0,0
6.38225E+17,21.13329,-1.075397,17.90735,43.80682,16.16258,52.23001,51.14867,0.07013461,-13.16786,62.70407,-7.861832,19.85565,0,0,0,62.85228,-106.0426,-5.745814,80.19228,-106.3306,-103.7554,0.001067912,-0.1257102,0.09433498,0,0.3,0,0,0,0
6.38225E+17,18.25897,-1.075397,17.41706,41.17,15.8696,54.35413,51.14867,0.07013461,-13.16786,62.70407,-7.788587,19.85565,0,0,0,54.27872,-106.3888,-3.831205,80.19228,-106.3306,-103.7554,0.001067912,-0.1257102,0.09433498,0,0.3,0,0,0,0
6.38225E+17,15.52601,-1.075397,17.23028,38.53317,15.50338,56.2585,51.14867,0.07013461,-13.16786,62.70407,-7.788587,19.78241,0,0,0,46.26148,-106.5182,-1.830107,80.19228,-106.3306,-103.7554,0.001067912,-0.1257102,0.09433498,0,0.3,0,0,0,0
6.38225E+17,14.04174,-1.075397,17.20694,36.99502,15.28364,57.13744,51.14867,0.07013461,-13.16786,62.70407,-7.788587,19.85565,0,0,0,41.92007,-106.5343,-0.7380374,80.19228,-106.3306,-103.7554,0.001067912,-0.1257102,0.09433498,0,0.3,0,0,0,0
6.38225E+17,10.83758,-1.075397,17.18359,33.47925,14.62444,58.5291,51.14867,0.07013461,-13.16786,62.70407,-7.788587,19.85565,0,0,0,32.47628,-106.5504,1.29203,80.19228,-106.3306,-103.7554,0.001067912,-0.1257102,0.09433498,0,0.3,0,0,0,0
6.38225E+17,8.434465,-1.075397,17.30033,30.4762,14.03847,59.26155,51.14867,0.07013461,-13.16786,62.70407,-7.788587,19.85565,0,0,0,25.3727,-106.4699,2.761244,80.19228,-106.3306,-103.7554,0.001067912,-0.1257102,0.09433498,0,0.3,0,0,0,0
6.38225E+17,5.677951,-1.075397,17.67388,27.10692,13.08629,59.92076,51.14867,0.07013461,-13.16786,62.63083,-7.788587,19.85565,0,0,0,17.19635,-106.2086,4.608635,80.19228,-106.3306,-103.7554,0.001067912,-0.1257102,0.09433498,0,0.3,0,0,0,0
6.38225E+17,4.335033,-1.075397,17.884,25.42229,12.64682,60.21374,51.14867,0.07013461,-13.16786,62.70407,-7.788587,19.85565,0,0,0,13.17333,-106.0593,5.428503,80.19228,-106.3306,-103.7554,0.001067912,-0.1257102,0.09433498,0,0.3,0,0,0,0
6.38225E+17,1.931917,-1.075397,18.49104,22.12625,11.76787,60.7997,51.14867,0.07013461,-13.16786,62.70407,-7.788587,19.85565,0,0,0,5.920464,-105.6183,7.169476,80.19228,-106.3306,-103.7554,0.001067912,-0.1257102,0.09433498,0,0.3,0,0,0,0
6.38225E+17,-0.3298394,-1.075397,19.12141,18.75698,10.81569,61.45891,51.14867,0.07013461,-13.16786,62.70407,-7.788587,19.78241,0,0,0,-1.018992,-105.1454,8.65517,80.19228,-106.3306,-103.7554,0.001067912,-0.1257102,0.09433498,0,0.3,0,0,0,0
6.38225E+17,-2.756516,-1.075397,19.77514,15.53419,9.717009,62.04487,51.14867,0.07013461,-13.16786,62.70407,-7.788587,19.85565,0,0,0,-8.581618,-104.6388,9.886286,80.19228,-106.3306,-103.7554,0.001067912,-0.1257102,0.09433498,0,0.3,0,0,0,0
6.38225E+17,-4.005194,-1.075397,20.19538,13.99604,9.057802,62.41109,51.14867,0.07013461,-13.16786,62.70407,-7.788587,19.85565,0,0,0,-12.52787,-104.3045,10.57389,80.19228,-106.3306,-103.7554,0.001067912,-0.1257102,0.09433498,0,0.3,0,0,0,0
6.38225E+17,-6.33763,-1.075397,21.12928,10.8465,7.959125,62.99706,51.14867,0.07013461,-13.16786,62.70407,-7.861832,19.85565,0,0,0,-20.02374,-103.5375,11.93708,80.19228,-106.3306,-103.7554,0.001067912,-0.1257102,0.09433498,0,0.3,0,0,0,0
6.38225E+17,-8.882105,-1.075397,22.27329,7.257483,6.860447,63.58302,51.14867,0.07013461,-13.16786,62.70407,-7.861832,19.85565,0,0,0,-28.38978,-102.553,13.31454,80.19228,-106.3306,-103.7554,0.001067912,-0.1257102,0.09433498,0,0.3,0,0,0,0
6.38225E+17,-11.33234,-1.075397,23.53404,3.595225,5.835015,64.02249,51.14867,0.07013461,-13.16786,62.63083,-7.861832,19.85565,0,0,0,-36.6614,-101.4111,14.58492,80.19228,-106.3306,-103.7554,0.001067912,-0.1257102,0.09433498,0,0.3,0,0,0,0
6.38225E+17,-12.46322,-1.075397,24.21111,1.910586,5.395544,64.31547,51.14867,0.07013461,-13.16786,62.70407,-7.788587,19.85565,0,0,0,-40.5757,-100.7733,15.23276,80.19228,-106.3306,-103.7554,0.001067912,-0.1257102,0.09433498,0,0.3,0,0,0,0
6.38225E+17,-14.91346,-1.075397,25.96216,-1.971408,4.296866,64.68169,51.14867,0.07013461,-13.16786,62.63083,-7.788587,19.85565,0,0,0,-49.33693,-99.04549,16.89671,80.19228,-106.3306,-103.7554,0.001067912,-0.1257102,0.09433498,0,0.3,0,0,0,0
6.38225E+17,-17.29301,-1.052019,27.99337,-5.780157,3.198189,65.26765,51.14867,0.07013461,-13.16786,62.63083,-7.788587,19.85565,0,0,0,-58.23825,-96.84663,18.71187,80.19228,-106.3306,-103.7554,0.001067912,-0.1257102,0.09433498,0,0.3,0,0,0,0
6.38225E+17,-18.40033,-1.052019,29.11404,-7.538041,2.465737,65.56064,51.14867,0.07013461,-13.16786,62.70407,-7.861832,19.85565,0,0,0,-62.56553,-95.59996,19.72531,80.19228,-106.3306,-103.7554,0.001067912,-0.1257102,0.09433498,0,0.3,0,0,0,0
6.38225E+17,-20.33225,-1.052019,31.35538,-11.2003,1.147324,66.36633,51.14867,0.07013461,-13.16786,62.70407,-7.861832,19.85565,0,0,0,-70.43623,-92.9734,21.735,80.19228,-106.3306,-103.7554,0.001067912,-0.1257102,0.09433498,0,0.3,0,0,0,0
6.38225E+17,-22.02856,-1.005263,33.78349,-15.08229,-0.2443342,67.68475,51.14867,0.07013461,-13.16786,62.70407,-7.861832,19.85565,0,0,0,-77.81911,-89.82267,23.98293,80.19228,-106.3306,-103.7554,0.001067912,-0.1257102,0.09433498,0,0.3,0,0,0,0
6.38225E+17,-23.6542,-0.8416153,36.63186,-19.25727,-1.635992,68.92992,51.14867,0.07013461,-13.16786,62.70407,-7.861832,19.85565,0,0,0,-85.41952,-85.62019,26.66448,80.19228,-106.3306,-103.7554,0.001067912,-0.1257102,0.09433498,0,0.3,0,0,0,0
6.38225E+17,-24.54948,0.1870256,38.07939,-22.11383,-2.58818,69.66236,51.14867,0.07013461,-13.16786,62.63083,-7.861832,19.85565,0,0,0,-89.57446,-81.18209,27.75425,80.19228,-106.3306,-103.7554,0.001067912,-0.1257102,0.09433498,0,0.3,0,0,0,0
6.38225E+17,-24.95,1.145532,38.77981,-23.57873,-3.174141,70.02859,51.14867,0.07013461,-13.16786,62.70407,-7.861832,19.85565,0,0,0,-91.47083,-77.93822,28.25761,80.19228,-106.3306,-103.7554,0.001067912,-0.1257102,0.09433498,0,0.3,0,0,0,0
6.38225E+17,-25.70392,3.436596,40.20399,-26.21556,-4.712289,71.12727,51.14867,0.07013461,-13.16786,62.70407,-7.788587,19.85565,0,0,0,-95.06684,-70.50268,29.14974,80.19228,-106.3306,-103.7554,0.001067912,-0.1257102,0.09433498,0,0.3,0,0,0,0
6.38225E+17,-26.5992,5.634147,41.95504,-28.77914,-6.763155,72.66542,51.14867,0.07013461,-13.16786,62.63083,-7.861832,19.85565,0,0,0,-99.33551,-62.72659,30.02538,80.19228,-106.3306,-103.7554,0.001067912,-0.1257102,0.09433498,0,0.3,0,0,0,0
6.38225E+17,-27.09396,6.569275,42.95897,-30.02431,-7.861832,73.61761,51.14867,0.07013461,-13.16786,62.70407,-7.861832,19.78241,0,0,0,-101.7246,-58.98529,30.48894,80.19228,-106.3306,-103.7554,0.001067912,-0.1257102,0.09433498,0,0.3,0,0,0,0
6.38225E+17,-28.13059,8.20575,45.13026,-32.58789,-9.766206,75.44874,51.14867,0.07013461,-13.16786,62.70407,-7.788587,19.85565,0,0,0,-106.7869,-51.69526,31.38731,80.19228,-106.3306,-103.7554,0.001067912,-0.1257102,0.09433498,0,0.3,0,0,0,0
6.38225E+17,-29.23791,10.05263,47.4183,-35.88392,-11.52409,77.27986,51.14867,0.07013461,-13.16786,62.70407,-7.861832,19.85565,0,0,0,-112.0915,-43.60346,31.9029,80.19228,-106.3306,-103.7554,0.001067912,-0.1257102,0.09433498,0,0.3,0,0,0,0
6.38225E+17,-30.15675,12.03977,49.47286,-39.10671,-12.98899,78.89126,51.14867,0.07013461,-13.16786,62.70407,-7.861832,19.85565,0,0,0,-116.4366,-35.48636,32.05593,80.19228,-106.3306,-103.7554,0.001067912,-0.1257102,0.09433498,0,0.3,0,0,0,0
6.38225E+17,-30.62795,12.90477,50.57018,-40.79135,-13.6482,79.62371,51.14867,0.07013461,-13.16786,62.70407,-7.788587,19.85565,0,0,0,-118.6952,-31.56372,32.12942,80.19228,-106.3306,-103.7554,0.001067912,-0.1257102,0.09433498,0,0.3,0,0,0,0
6.38225E+17,-31.57035,14.44773,52.60139,-44.08738,-14.67363,80.94212,51.14867,0.07013461,-13.16786,62.70407,-7.861832,19.85565,0,0,0,-123.0698,-24.37062,31.92921,80.19228,-106.3306,-103.7554,0.001067912,-0.1257102,0.09433498,0,0.3,0,0,0,0
6.38225E+17,-32.34783,15.94393,54.49252,-47.23692,-15.33284,82.04079,51.14867,0.07013461,-13.16786,62.70407,-7.861832,19.85565,0,0,0,-126.6869,-17.47012,31.67895,80.19228,-106.3306,-103.7554,0.001067912,-0.1257102,0.09433498,0,0.3,0,0,0,0
6.38225E+17,-32.72478,16.57515,55.5198,-48.62858,-15.69907,82.7,51.14867,0.07013461,-13.16786,62.63083,-7.861832,19.85565,0,0,0,-128.519,-14.10119,31.64859,80.19228,-106.3306,-103.7554,0.001067912,-0.1257102,0.09433498,0,0.3,0,0,0,0
6.38225E+17,-33.54939,17.62716,57.48097,-51.19216,-16.35827,84.16491,51.14867,0.07013461,-13.16786,62.70407,-7.788587,19.85565,0,0,0,-132.3783,-7.954972,31.27772,80.19228,-106.3306,-103.7554,0.001067912,-0.1257102,0.09433498,0,0.3,0,0,0,0
6.38225E+17,-34.4211,18.63243,59.44214,-53.53601,-16.87099,86.28902,51.14867,0.07013461,-13.16786,62.70407,-7.788587,19.85565,0,0,0,-136.3381,-1.841492,30.60947,80.19228,-106.3306,-103.7554,0.001067912,-0.1257102,0.09433498,0,0.3,0,0,0,0
6.38225E+17,-34.86874,19.05324,60.6562,-54.92767,-17.16397,87.46095,51.14867,0.07013461,-13.16786,62.70407,-7.788587,19.85565,0,0,0,-138.5139,1.533607,30.43611,80.19228,-106.3306,-103.7554,0.001067912,-0.1257102,0.09433498,0,0.3,0,0,0,0
6.38225E+17,-35.76402,19.63769,63.08431,-57.49125,-17.60344,90.02452,51.14867,0.07013461,-13.16786,62.70407,-7.788587,19.78241,0,0,0,-142.8968,7.800367,30.04373,80.19228,-106.3306,-103.7554,0.001067912,-0.1257102,0.09433498,0,0.3,0,0,0,0
6.38225E+17,-36.61218,20.22215,65.72256,-60.05483,-17.60344,92.14863,51.14867,0.07013461,-13.16786,62.70407,-7.788587,19.85565,0,0,0,-147.1233,14.61629,29.66373,80.19228,-106.3306,-103.7554,0.001067912,-0.1257102,0.09433498,0,0.3,0,0,0,0
6.38225E+17,-37.2483,21.11052,68.08063,-62.83814,-17.45695,94.34599,51.14867,0.07013461,-13.16786,62.70407,-7.861832,19.85565,0,0,0,-150.174,21.59866,29.15106,80.19228,-106.3306,-103.7554,0.001067912,-0.1257102,0.09433498,0,0.3,0,0,0,0
6.38225E+17,-37.50746,21.60146,69.2013,-64.01007,-17.38371,95.29817,51.14867,0.07013461,-13.16786,62.70407,-7.861832,19.85565,0,0,0,-151.3909,25.09187,28.89326,80.19228,-106.3306,-103.7554,0.001067912,-0.1257102,0.09433498,0,0.3,0,0,0,0
6.38225E+17,-37.97866,22.34956,71.58272,-66.35391,-17.45695,97.42229,51.14867,0.07013461,-13.16786,62.63083,-7.788587,19.85565,0,0,0,-153.7514,31.92722,28.59399,80.19228,-106.3306,-103.7554,0.001067912,-0.1257102,0.09433498,0,0.3,0,0,0,0
6.38225E+17,-38.30849,22.8405,74.17426,-68.62451,-17.74993,99.47314,51.14867,0.07013461,-13.16786,62.63083,-7.861832,19.85565,0,0,0,-155.7111,38.74589,28.75437,80.19228,-106.3306,-103.7554,0.001067912,-0.1257102,0.09433498,0,0.3,0,0,0,0
6.38225E+17,-38.59122,23.09766,76.88255,-71.1881,-17.96966,102.0367,51.14867,0.07013461,-13.16786,62.63083,-7.861832,19.85565,0,0,0,-157.5186,45.39964,29.03215,80.19228,-106.3306,-103.7554,0.001067912,-0.1257102,0.09433498,0,0.3,0,0,0,0
6.38225E+17,-38.6619,23.14442,77.6997,-71.99379,-17.89642,102.8424,51.14867,0.07013461,-13.16786,62.70407,-7.788587,19.78241,0,0,0,-157.9966,47.35495,29.13102,80.19228,-106.3306,-103.7554,0.001067912,-0.1257102,0.09433498,0,0.3,0,0,0,0
6.38225E+17,-38.82682,23.19118,79.70757,-74.04465,-17.96966,104.6736,51.14867,0.07013461,-13.16786,62.70407,-7.861832,19.85565,0,0,0,-159.1114,52.03733,29.35517,80.19228,-106.3306,-103.7554,0.001067912,-0.1257102,0.09433498,0,0.3,0,0,0,0
6.38225E+17,-38.87394,23.19118,81.29518,-75.87578,-17.89642,106.1385,51.14867,0.07013461,-13.16786,62.70407,-7.788587,19.78241,0,0,0,-159.6567,55.68156,29.69895,80.19228,-106.3306,-103.7554,0.001067912,-0.1257102,0.09433498,0,0.3,0,0,0,0
6.38225E+17,-38.92105,23.19118,82.20573,-76.90121,-17.60344,106.6512,51.14867,0.07013461,-13.16786,62.70407,-7.861832,19.85565,0,0,0,-160.0105,57.7788,29.80415,80.19228,-106.3306,-103.7554,0.001067912,-0.1257102,0.09433498,0,0.3,0,0,0,0
6.38225E+17,-38.94461,23.19118,82.32246,-77.34068,-17.31046,106.7244,51.14867,0.07013461,-13.16786,62.70407,-7.861832,19.85565,0,0,0,-160.115,58.04802,29.76678,80.19228,-106.3306,-103.7554,0.001067912,-0.1257102,0.09433498,0,0.3,0,0,0,0
6.38225E+17,-38.96818,23.19118,82.32246,-77.48718,-16.21178,104.9665,51.14867,0.07013461,-13.16786,62.70407,-7.861832,19.78241,0,0,0,-160.1964,58.04802,29.70093,80.19228,-106.3306,-103.7554,0.001067912,-0.1257102,0.09433498,0,0.3,0,0,0,0
6.38225E+17,-39.01529,23.09766,82.20573,-77.34068,-14.4539,101.1578,51.14867,0.07013461,-13.16786,62.70407,-7.861832,19.85565,0,0,0,-160.3901,57.57868,29.60716,80.19228,-106.3306,-103.7554,0.001067912,-0.1257102,0.09433498,0,0.3,0,0,0,0
6.38225E+17,-39.01529,22.74699,81.87886,-77.1942,-13.50171,98.66745,51.14867,0.07013461,-13.16786,62.70407,-7.861832,19.85565,0,0,0,-160.5239,56.07356,29.77232,80.19228,-106.3306,-103.7554,0.001067912,-0.1257102,0.09433498,0,0.3,0,0,0,0
6.38225E+17,-39.08598,21.5547,80.85158,-75.94903,-11.52409,93.76003,51.14867,0.07013461,-13.16786,62.70407,-7.861832,19.85565,0,0,0,-161.2015,51.13973,30.10763,80.19228,-106.3306,-103.7554,0.001067912,-0.1257102,0.09433498,0,0.3,0,0,0,0
6.38225E+17,-39.15665,20.61958,79.98773,-74.63062,-9.619716,89.73154,51.14867,0.07013461,-13.16786,62.70407,-7.788587,19.85565,0,0,0,-161.7294,47.12663,30.25635,80.19228,-106.3306,-103.7554,0.001067912,-0.1257102,0.09433498,0,0.3,0,0,0,0
6.38225E+17,-39.15665,19.47404,78.86706,-73.38544,-7.349115,84.9706,51.14867,0.07013461,-13.16786,62.70407,-7.788587,19.85565,0,0,0,-162.0042,42.05817,30.59392,80.19228,-106.3306,-103.7554,0.001067912,-0.1257102,0.09433498,0,0.3,0,0,0,0
6.38225E+17,-39.10954,18.88959,78.30673,-72.79948,-6.103948,82.55352,51.14867,0.07013461,-13.16786,62.70407,-7.788587,19.85565,0,0,0,-161.9597,39.49511,30.87364,80.19228,-106.3306,-103.7554,0.001067912,-0.1257102,0.09433498,0,0.3,0,0,0,0
6.38225E+17,-38.94461,17.76744,77.23276,-71.99379,-3.613612,77.35311,51.14867,0.07013461,-13.16786,62.70407,-7.788587,19.85565,0,0,0,-161.569,34.57315,31.56592,80.19228,-106.3306,-103.7554,0.001067912,-0.1257102,0.09433498,0,0.3,0,0,0,0
6.38225E+17,-38.7797,16.57515,76.04205,-71.33459,-1.269767,72.44569,51.14867,0.07013461,-13.16786,62.70407,-7.788587,19.85565,0,0,0,-161.1049,29.22578,32.16951,80.19228,-106.3306,-103.7554,0.001067912,-0.1257102,0.09433498,0,0.3,0,0,0,0
6.38225E+17,-38.59122,15.3361,74.78129,-70.74863,0.6346079,67.97772,51.14867,0.07013461,-13.16786,62.70407,-7.861832,19.85565,0,0,0,-160.4778,23.61357,32.74033,80.19228,-106.3306,-103.7554,0.001067912,-0.1257102,0.09433498,0,0.3,0,0,0,0
6.38225E+17,-38.47342,14.02692,73.49719,-70.23591,2.538982,63.65627,51.14867,0.07013461,-13.16786,62.70407,-7.861832,19.85565,0,0,0,-160.0363,17.79137,33.03498,80.19228,-106.3306,-103.7554,0.001067912,-0.1257102,0.09433498,0,0.3,0,0,0,0
6.38225E+17,-38.40274,13.27882,72.86681,-70.01617,3.491169,61.16593,51.14867,0.07013461,-13.16786,62.63083,-7.861832,19.85565,0,0,0,-159.7794,14.69507,33.22165,80.19228,-106.3306,-103.7554,0.001067912,-0.1257102,0.09433498,0,0.3,0,0,0,0
6.38225E+17,-38.30849,11.66572,72.21309,-69.79643,5.468789,56.33175,51.14867,0.07013461,-13.16786,62.63083,-7.788587,19.85565,0,0,0,-159.6673,9.578108,33.76218,80.19228,-106.3306,-103.7554,0.001067912,-0.1257102,0.09433498,0,0.3,0,0,0,0
6.38225E+17,-38.26138,9.912358,71.95628,-69.86968,7.666144,51.57081,51.14867,0.07013461,-13.16786,62.70407,-7.788587,19.85565,0,0,0,-159.8602,5.000885,34.34883,80.19228,-106.3306,-103.7554,0.001067912,-0.1257102,0.09433498,0,0.3,0,0,0,0
6.38225E+17,-38.23782,9.023986,71.83953,-70.01617,8.691576,49.30021,51.14867,0.07013461,-13.16786,62.70407,-7.788587,19.85565,0,0,0,-159.935,2.703234,34.61539,80.19228,-106.3306,-103.7554,0.001067912,-0.1257102,0.09433498,0,0.3,0,0,0,0
6.38225E+17,-38.23782,7.340756,71.86288,-70.16266,10.37621,45.49146,51.14867,0.07013461,-13.16786,62.70407,-7.788587,19.85565,0,0,0,-160.2906,-1.122656,35.0666,80.19228,-106.3306,-103.7554,0.001067912,-0.1257102,0.09433498,0,0.3,0,0,0,0
6.38225E+17,-38.23782,6.101711,71.83953,-70.38239,11.98761,42.26867,51.14867,0.07013461,-13.16786,62.70407,-7.861832,19.85565,0,0,0,-160.489,-4.038165,35.3184,80.19228,-106.3306,-103.7554,0.001067912,-0.1257102,0.09433498,0,0.3,0,0,0,0
6.38225E+17,-38.23782,5.634147,71.7228,-70.38239,12.72006,40.87702,51.14867,0.07013461,-13.16786,62.70407,-7.861832,19.85565,0,0,0,-160.5053,-5.378738,35.33907,80.19228,-106.3306,-103.7554,0.001067912,-0.1257102,0.09433498,0,0.3,0,0,0,0
6.38225E+17,-38.16714,4.745775,71.46598,-70.52889,13.96523,38.53317,51.14867,0.07013461,-13.16786,62.70407,-7.861832,19.85565,0,0,0,-160.2529,-8.004979,35.53558,80.19228,-106.3306,-103.7554,0.001067912,-0.1257102,0.09433498,0,0.3,0,0,0,0
6.38225E+17,-38.0729,4.044429,71.39594,-70.60213,15.2104,36.70204,51.14867,0.07013461,-13.16786,62.70407,-7.861832,19.85565,0,0,0,-159.9624,-9.787008,35.85649,80.19228,-106.3306,-103.7554,0.001067912,-0.1257102,0.09433498,0,0.3,0,0,0,0
6.38225E+17,-37.93154,3.436596,71.30255,-70.60213,16.74854,34.87091,51.14867,0.07013461,-13.16786,62.63083,-7.861832,19.85565,0,0,0,-159.4721,-11.4046,36.26849,80.19228,-106.3306,-103.7554,0.001067912,-0.1257102,0.09433498,0,0.3,0,0,0,0
6.38225E+17,-37.81374,3.366461,71.30255,-70.60213,17.70073,33.77223,51.14867,0.07013461,-13.16786,62.63083,-7.861832,19.85565,0,0,0,-159.057,-11.56754,36.60359,80.19228,-106.3306,-103.7554,0.001067912,-0.1257102,0.09433498,0,0.3,0,0,0,0
6.38225E+17,-37.74306,3.366461,71.30255,-70.60213,18.21345,33.11303,51.14867,0.07013461,-13.16786,62.63083,-7.861832,19.85565,0,0,0,-158.8041,-11.56754,36.79964,80.19228,-106.3306,-103.7554,0.001067912,-0.1257102,0.09433498,0,0.3,0,0,0,0
6.38225E+17,-37.62526,3.226192,71.23251,-70.67538,19.16564,31.9411,51.14867,0.07013461,-13.16786,62.63083,-7.861832,19.85565,0,0,0,-158.3615,-12.04784,37.09911,80.19228,-106.3306,-103.7554,0.001067912,-0.1257102,0.09433498,0,0.3,0,0,0,0
6.38225E+17,-37.43678,2.805384,70.99904,-70.82186,20.04458,30.84243,51.14867,0.07013461,-13.16786,62.70407,-7.861832,19.85565,0,0,0,-157.6092,-13.54,37.52021,80.19228,-106.3306,-103.7554,0.001067912,-0.1257102,0.09433498,0,0.3,0,0,0,0
6.38225E+17,-37.34254,2.571602,70.90565,-70.89511,20.48405,30.32971,51.14867,0.07013461,-13.16786,62.70407,-7.861832,19.85565,0,0,0,-157.2428,-14.28896,37.74306,80.19228,-106.3306,-103.7554,0.001067912,-0.1257102,0.09433498,0,0.3,0,0,0,0
6.38225E+17,-37.20118,1.987147,70.53209,-70.96836,21.14326,29.0113,51.14867,0.07013461,-13.16786,62.70407,-7.861832,19.85565,0,0,0,-156.593,-16.46878,37.94481,80.19228,-106.3306,-103.7554,0.001067912,-0.1257102,0.09433498,0,0.3,0,0,0,0
6.38225E+17,-37.03626,1.309179,69.92506,-70.82186,21.72922,27.69288,51.14867,0.07013461,-13.16786,62.70407,-7.861832,19.85565,0,0,0,-155.738,-19.37553,38.04943,80.19228,-106.3306,-103.7554,0.001067912,-0.1257102,0.09433498,0,0.3,0,0,0,0
6.38225E+17,-36.82422,0.4675641,69.27133,-70.30915,22.38842,26.59421,51.14867,0.07013461,-13.16786,62.63083,-7.861832,19.85565,0,0,0,-154.6734,-22.76007,38.22412,80.19228,-106.3306,-103.7554,0.001067912,-0.1257102,0.09433498,0,0.3,0,0,0,0
6.38225E+17,-36.61218,-0.3272949,68.711,-69.64995,23.04763,26.00825,51.14867,0.07013461,-13.16786,62.70407,-7.861832,19.85565,0,0,0,-153.6304,-25.82743,38.42164,80.19228,-106.3306,-103.7554,0.001067912,-0.1257102,0.09433498,0,0.3,0,0,0,0
