zeyangz2/DNN_classification_different_people_hand/zeyang_test/zeyang_right_32.csv
Timestamp,Therapist joint angle 0,Therapist joint angle 1,Therapist joint angle 2,Therapist joint angle 3,Therapist joint angle 4,Therapist joint angle 5,Patient joint angle 0,Patient joint angle 1,Patient joint angle 2,Patient joint angle 3,Patient joint angle 4,Patient joint angle 5,Virtual joint angle 0,Virtual joint angle 1,Virtual joint angle 2,Therapist position x,Therapist position y,Therapist position z,Patient position x,Patient position y,Patient position z,Virtual position x,Virtual position y,Virtual position z,Assistive Force, Obstacle Force Magnitude, Therapist Constant Force, Patient Constant Force, Recovery Factor, Assistance Level
6.38225E+17,0,0,0,0,0,0,0,0,0,0,0,0,0,0,0,0,0,0,0,0,0,0,0,0,0,0.3,0,0,0,0
6.38225E+17,-14.0653,-1.028641,2.334727,37.36125,-63.7479,-29.43835,51.14867,-0.07013461,-13.16786,62.63083,-7.935077,19.85565,0,0,0,-33.72271,-112.2832,-33.74929,80.19228,-106.657,-103.7554,0.001067912,-0.1257102,0.09433498,0,0.3,0,0,0,0
6.38225E+17,-14.0653,-1.028641,2.334727,37.36125,-63.7479,-29.43835,51.14867,-0.07013461,-13.16786,62.63083,-7.935077,19.85565,0,0,0,-33.72271,-112.2832,-33.74929,80.19228,-106.657,-103.7554,0.001067912,-0.1257102,0.09433498,0,0.3,0,0,0,0
6.38225E+17,-14.0653,-1.028641,2.334727,37.36125,-63.7479,-29.43835,51.14867,-0.07013461,-13.16786,62.63083,-7.935077,19.85565,0,0,0,-33.72271,-112.2832,-33.74929,80.19228,-106.657,-103.7554,0.001067912,-0.1257102,0.09433498,0,0.3,0,0,0,0
6.38225E+17,-14.0653,-1.028641,2.334727,37.36125,-63.67465,-29.43835,51.14867,-0.07013461,-13.16786,62.70407,-7.935077,19.85565,0,0,0,-33.72271,-112.2832,-33.74929,80.19228,-106.657,-103.7554,0.001067912,-0.1257102,0.09433498,0,0.3,0,0,0,0
6.38225E+17,-14.0653,-1.028641,2.334727,37.36125,-63.67465,-29.43835,51.14867,-0.07013461,-13.16786,62.70407,-7.935077,19.85565,0,0,0,-33.72271,-112.2832,-33.74929,80.19228,-106.657,-103.7554,0.001067912,-0.1257102,0.09433498,0,0.3,0,0,0,0
6.38225E+17,-14.0653,-1.028641,2.334727,37.36125,-63.7479,-29.43835,51.14867,-0.07013461,-13.16786,62.70407,-7.935077,19.78241,0,0,0,-33.72271,-112.2832,-33.74929,80.19228,-106.657,-103.7554,0.001067912,-0.1257102,0.09433498,0,0.3,0,0,1.14E-07,0
6.38225E+17,-14.0653,-1.028641,2.334727,37.36125,-63.67465,-29.43835,51.14867,-0.07013461,-13.16786,62.70407,-8.008322,19.85565,0,0,0,-33.72271,-112.2832,-33.74929,80.19228,-106.657,-103.7554,0.001067912,-0.1257102,0.09433498,0,0.3,0,0,1.14E-07,0
6.38225E+17,-14.0653,-1.028641,2.334727,37.36125,-63.67465,-29.43835,51.14867,-0.07013461,-13.16786,62.70407,-8.008322,19.85565,0,0,0,-33.72271,-112.2832,-33.74929,80.19228,-106.657,-103.7554,0.001067912,-0.1257102,0.09433498,0,0.3,0,0,1.14E-07,0
6.38225E+17,-14.0653,-1.028641,2.334727,37.36125,-63.7479,-29.43835,51.14867,-0.07013461,-13.16786,62.70407,-8.008322,19.85565,0,0,0,-33.72271,-112.2832,-33.74929,80.19228,-106.657,-103.7554,0.001067912,-0.1257102,0.09433498,0,0.3,0,0,1.14E-07,0
6.38225E+17,-14.0653,-1.028641,2.334727,37.36125,-63.7479,-29.43835,51.14867,-0.07013461,-13.16786,62.70407,-7.935077,19.85565,0,0,0,-33.72271,-112.2832,-33.74929,80.19228,-106.657,-103.7554,0.001067912,-0.1257102,0.09433498,0,0.3,0,0,1.14E-07,0
6.38225E+17,-14.0653,-1.028641,2.334727,37.36125,-63.7479,-29.43835,51.14867,-0.07013461,-13.16786,62.63083,-8.008322,19.85565,0,0,0,-33.72271,-112.2832,-33.74929,80.19228,-106.657,-103.7554,0.001067912,-0.1257102,0.09433498,0,0.3,0,0,1.14E-07,0
6.38225E+17,-14.0653,-1.028641,2.334727,37.36125,-63.7479,-29.43835,51.14867,-0.07013461,-13.16786,62.70407,-7.935077,19.85565,0,0,0,-33.72271,-112.2832,-33.74929,80.19228,-106.657,-103.7554,0.001067912,-0.1257102,0.09433498,0,0.3,0,0,1.14E-07,0
6.38225E+17,-14.0653,-1.028641,2.334727,37.36125,-63.67465,-29.43835,51.14867,-0.07013461,-13.16786,62.70407,-8.008322,19.78241,0,0,0,-33.72271,-112.2832,-33.74929,80.19228,-106.657,-103.7554,0.001067912,-0.1257102,0.09433498,0,0.3,0,0,2.28E-07,0
6.38225E+17,-14.0653,-1.028641,2.334727,37.36125,-63.67465,-29.43835,51.14867,-0.07013461,-13.16786,62.70407,-7.935077,19.85565,0,0,0,-33.72271,-112.2832,-33.74929,80.19228,-106.657,-103.7554,0.001067912,-0.1257102,0.09433498,0,0.3,0,0,2.28E-07,0
6.38225E+17,-14.0653,-1.028641,2.334727,37.36125,-63.67465,-29.43835,51.14867,-0.07013461,-13.16786,62.63083,-8.008322,19.78241,0,0,0,-33.72271,-112.2832,-33.74929,80.19228,-106.657,-103.7554,0.001067912,-0.1257102,0.09433498,0,0.3,0,0,2.28E-07,0
6.38225E+17,-14.0653,-1.028641,2.334727,37.36125,-63.7479,-29.43835,51.14867,-0.07013461,-13.16786,62.63083,-8.008322,19.85565,0,0,0,-33.72271,-112.2832,-33.74929,80.19228,-106.657,-103.7554,0.001067912,-0.1257102,0.09433498,0,0.3,0,0,2.28E-07,0
6.38225E+17,-14.0653,-1.028641,2.334727,37.36125,-63.7479,-29.43835,51.14867,-0.07013461,-13.16786,62.70407,-8.008322,19.85565,0,0,0,-33.72271,-112.2832,-33.74929,80.19228,-106.657,-103.7554,0.001067912,-0.1257102,0.09433498,0,0.3,0,0,2.28E-07,0
6.38225E+17,-14.0653,-1.028641,2.334727,37.36125,-63.7479,-29.43835,51.14867,-0.07013461,-13.16786,62.70407,-8.008322,19.85565,0,0,0,-33.72271,-112.2832,-33.74929,80.19228,-106.657,-103.7554,0.001067912,-0.1257102,0.09433498,0,0.3,0,0,1.14E-07,0
6.38225E+17,-14.0653,-1.028641,2.334727,37.36125,-63.67465,-29.43835,51.14867,-0.07013461,-13.16786,62.63083,-7.935077,19.85565,0,0,0,-33.72271,-112.2832,-33.74929,80.19228,-106.657,-103.7554,0.001067912,-0.1257102,0.09433498,0,0.3,0,0,1.14E-07,0
6.38225E+17,-14.0653,-1.028641,2.334727,37.36125,-63.7479,-29.43835,51.14867,-0.07013461,-13.16786,62.70407,-8.008322,19.85565,0,0,0,-33.72271,-112.2832,-33.74929,80.19228,-106.657,-103.7554,0.001067912,-0.1257102,0.09433498,0,0.3,0,0,0,0
6.38225E+17,-14.0653,-1.028641,2.334727,37.36125,-63.7479,-29.43835,51.14867,-0.07013461,-13.16786,62.70407,-7.935077,19.85565,0,0,0,-33.72271,-112.2832,-33.74929,80.19228,-106.657,-103.7554,0.001067912,-0.1257102,0.09433498,0,0.3,0,0,0,0
6.38225E+17,-14.0653,-1.028641,2.334727,37.36125,-63.67465,-29.43835,51.14867,-0.07013461,-13.16786,62.63083,-8.008322,19.78241,0,0,0,-33.72271,-112.2832,-33.74929,80.19228,-106.657,-103.7554,0.001067912,-0.1257102,0.09433498,0,0.3,0,0,0,0
6.38225E+17,-14.0653,-1.028641,2.334727,37.36125,-63.7479,-29.43835,51.14867,-0.07013461,-13.16786,62.63083,-7.935077,19.85565,0,0,0,-33.72271,-112.2832,-33.74929,80.19228,-106.657,-103.7554,0.001067912,-0.1257102,0.09433498,0,0.3,0,0,0,0
6.38225E+17,-14.0653,-1.028641,2.334727,37.36125,-63.67465,-29.43835,51.14867,-0.07013461,-13.16786,62.63083,-8.008322,19.85565,0,0,0,-33.72271,-112.2832,-33.74929,80.19228,-106.657,-103.7554,0.001067912,-0.1257102,0.09433498,0,0.3,0,0,0,0
6.38225E+17,-14.0653,-1.028641,2.334727,37.36125,-63.7479,-29.43835,51.14867,-0.07013461,-13.16786,62.70407,-8.008322,19.85565,0,0,0,-33.72271,-112.2832,-33.74929,80.19228,-106.657,-103.7554,0.001067912,-0.1257102,0.09433498,0,0.3,0,0,0,0
6.38225E+17,-14.0653,-1.028641,2.334727,37.36125,-63.7479,-29.43835,51.14867,-0.07013461,-13.16786,62.70407,-7.935077,19.85565,0,0,0,-33.72271,-112.2832,-33.74929,80.19228,-106.657,-103.7554,0.001067912,-0.1257102,0.09433498,0,0.3,0,0,0,0
6.38225E+17,-14.0653,-1.028641,2.334727,37.43449,-63.7479,-29.43835,51.14867,-0.07013461,-13.16786,62.63083,-8.008322,19.78241,0,0,0,-33.72271,-112.2832,-33.74929,80.19228,-106.657,-103.7554,0.001067912,-0.1257102,0.09433498,0,0.3,0,0,0,0
6.38225E+17,-14.0653,-1.028641,2.334727,37.36125,-63.7479,-29.43835,51.14867,-0.07013461,-13.16786,62.63083,-7.935077,19.85565,0,0,0,-33.72271,-112.2832,-33.74929,80.19228,-106.657,-103.7554,0.001067912,-0.1257102,0.09433498,0,0.3,0,0,0,0
6.38225E+17,-14.0653,-1.028641,2.334727,37.36125,-63.7479,-29.43835,51.14867,-0.07013461,-13.16786,62.63083,-8.008322,19.85565,0,0,0,-33.72271,-112.2832,-33.74929,80.19228,-106.657,-103.7554,0.001067912,-0.1257102,0.09433498,0,0.3,0,0,0,0
6.38225E+17,-14.0653,-1.028641,2.334727,37.36125,-63.7479,-29.43835,51.14867,-0.07013461,-13.16786,62.63083,-7.935077,19.85565,0,0,0,-33.72271,-112.2832,-33.74929,80.19228,-106.657,-103.7554,0.001067912,-0.1257102,0.09433498,0,0.3,0,0,0,0
6.38225E+17,-14.0653,-1.028641,2.334727,37.36125,-63.7479,-29.43835,51.14867,-0.07013461,-13.16786,62.63083,-7.935077,19.85565,0,0,0,-33.72271,-112.2832,-33.74929,80.19228,-106.657,-103.7554,0.001067912,-0.1257102,0.09433498,0,0.3,0,0,0,0
6.38225E+17,-14.0653,-1.028641,2.334727,37.36125,-63.7479,-29.43835,51.14867,-0.07013461,-13.16786,62.63083,-8.008322,19.78241,0,0,0,-33.72271,-112.2832,-33.74929,80.19228,-106.657,-103.7554,0.001067912,-0.1257102,0.09433498,0,0.3,0,0,0,0
6.38225E+17,-14.08886,-1.028641,2.311379,37.36125,-63.67465,-29.51159,51.14867,-0.07013461,-13.16786,62.63083,-8.008322,19.78241,0,0,0,-33.76483,-112.2854,-33.81583,80.19228,-106.657,-103.7554,0.001067912,-0.1257102,0.09433498,0,0.3,0,0,0,0
6.38225E+17,-14.08886,-1.028641,2.311379,37.36125,-63.67465,-29.65808,51.14867,-0.07013461,-13.16786,62.70407,-8.008322,19.85565,0,0,0,-33.76483,-112.2854,-33.81583,80.19228,-106.657,-103.7554,0.001067912,-0.1257102,0.09433498,0,0.3,0,0,0,0
6.38225E+17,-14.08886,-1.028641,2.311379,37.36125,-63.30842,-29.65808,51.14867,-0.07013461,-13.16786,62.70407,-8.008322,19.85565,0,0,0,-33.76483,-112.2854,-33.81583,80.19228,-106.657,-103.7554,0.001067912,-0.1257102,0.09433498,0,0.3,0,0,0,0
6.38225E+17,-14.0653,-1.028641,2.544852,36.77529,-63.01544,-29.3651,51.14867,-0.07013461,-13.16786,62.70407,-8.008322,19.85565,0,0,0,-33.84145,-112.2624,-33.27534,80.19228,-106.657,-103.7554,0.001067912,-0.1257102,0.09433498,0,0.3,0,0,0,0
6.38225E+17,-14.04174,-1.005263,2.591547,34.87091,-62.86895,-27.97344,51.14867,-0.07013461,-13.16786,62.70407,-7.935077,19.85565,0,0,0,-33.81248,-112.2031,-33.15517,80.19228,-106.657,-103.7554,0.001067912,-0.1257102,0.09433498,0,0.3,0,0,0,0
6.38225E+17,-14.04174,-0.8883717,2.568199,27.03368,-62.42948,-21.16164,51.14867,-0.07013461,-13.16786,62.63083,-8.008322,19.85565,0,0,0,-33.8004,-111.9336,-33.20348,80.19228,-106.657,-103.7554,0.001067912,-0.1257102,0.09433498,0,0.3,0,0,0,0
6.38225E+17,-14.04174,-0.4675641,2.544852,17.95128,-60.81809,-14.9358,51.14867,-0.07013461,-13.16786,62.70407,-8.008322,19.85565,0,0,0,-33.79004,-110.9567,-33.2449,80.19228,-106.657,-103.7554,0.001067912,-0.1257102,0.09433498,0,0.3,0,0,0,0
6.38225E+17,-14.04174,-0.2104038,2.498158,13.7763,-59.71941,-12.95818,51.14867,-0.07013461,-13.16786,62.63083,-8.008322,19.78241,0,0,0,-33.76456,-110.363,-33.34679,80.19228,-106.657,-103.7554,0.001067912,-0.1257102,0.09433498,0,0.3,0,0,0,0
6.38225E+17,-14.04174,0.5844551,2.077907,6.232051,-56.05715,-10.3946,51.14867,-0.07013461,-13.16786,62.63083,-8.008322,19.85565,0,0,0,-33.52597,-108.5521,-34.30075,80.19228,-106.657,-103.7554,0.001067912,-0.1257102,0.09433498,0,0.3,0,0,0,0
6.38225E+17,-14.04174,1.285801,0.9805852,2.716283,-52.68787,-9.881886,51.14867,-0.07013461,-13.16786,62.70407,-8.008322,19.85565,0,0,0,-32.90009,-106.9882,-36.80326,80.19228,-106.657,-103.7554,0.001067912,-0.1257102,0.09433498,0,0.3,0,0,0.000162821,0
6.38225E+17,-14.04174,1.776743,-1.330794,-0.9459759,-47.26773,-10.32136,51.14867,-0.07013461,-13.16786,62.63083,-8.008322,19.78241,0,0,0,-31.58755,-105.8295,-42.05126,80.19228,-106.657,-103.7554,0.001067912,-0.1257102,0.09433498,0,0.3,0,0,0.001196189,0
6.38225E+17,-14.04174,1.753365,-2.708283,-2.410879,-43.82521,-10.3946,51.14867,-0.07013461,-13.16786,62.70407,-8.008322,19.85565,0,0,0,-30.8106,-105.7709,-45.15779,80.19228,-106.657,-103.7554,0.001067912,-0.1257102,0.09433498,0,0.3,0,0,0.001996612,0
6.38225E+17,-14.04174,1.56634,-5.20644,-4.388499,-36.57394,-9.442415,51.14867,-0.07013461,-13.16786,62.70407,-8.008322,19.85565,0,0,0,-29.40644,-105.8048,-50.77214,80.19228,-106.657,-103.7554,0.001067912,-0.1257102,0.09433498,0,0.3,0,0,0.004083871,0
6.38225E+17,-14.04174,1.355936,-7.097569,-4.97446,-29.10293,-7.538041,51.14867,-0.07013461,-13.16786,62.70407,-8.008322,19.85565,0,0,0,-28.34776,-105.8227,-55.00513,80.19228,-106.657,-103.7554,0.001067912,-0.1257102,0.09433498,0,0.3,0,0,0.006643745,0
6.38225E+17,-14.0653,1.16891,-8.405016,-4.681479,-21.11921,-3.656047,51.14867,-0.07013461,-13.16786,62.63083,-8.008322,19.85565,0,0,0,-27.66395,-105.8474,-57.93218,80.19228,-106.657,-103.7554,0.001067912,-0.1257102,0.09433498,0,0.3,0,0,0.009433484,0
6.38225E+17,-14.0653,1.122154,-8.942002,-4.242009,-17.38371,-0.8727306,51.14867,-0.07013461,-13.16786,62.70407,-8.008322,19.85565,0,0,0,-27.36422,-105.7678,-59.12851,80.19228,-106.657,-103.7554,0.001067912,-0.1257102,0.09433498,0,0.3,0,0,0.01088405,0
6.38225E+17,-14.0653,0.9585064,-9.432296,-3.363066,-10.20568,4.327676,51.14867,-0.07013461,-13.16786,62.63083,-8.008322,19.85565,0,0,0,-27.09214,-105.9664,-60.2145,80.19228,-106.657,-103.7554,0.001067912,-0.1257102,0.09433498,0,0.3,0,0,0.01377766,0
6.38225E+17,-14.0653,0.6545897,-9.852547,-2.264389,-3.906592,7.110993,51.14867,-0.07013461,-13.16786,62.70407,-7.935077,19.85565,0,0,0,-26.86022,-106.5098,-61.1402,80.19228,-106.657,-103.7554,0.001067912,-0.1257102,0.09433498,0,0.3,0,0,0.01664574,0
6.38225E+17,-14.0653,0.350673,-9.852547,-1.238957,1.953021,8.429405,51.14867,-0.07013461,-13.16786,62.63083,-8.008322,19.85565,0,0,0,-26.86173,-107.2171,-61.13418,80.19228,-106.657,-103.7554,0.001067912,-0.1257102,0.09433498,0,0.3,0,0,0.01939739,0
6.38225E+17,-14.0653,0.2805384,-9.875894,-0.9459759,4.736337,8.50265,51.14867,-0.07013461,-13.16786,62.70407,-8.008322,19.85565,0,0,0,-26.84893,-107.371,-61.18524,80.19228,-106.657,-103.7554,0.001067912,-0.1257102,0.09433498,0,0.3,0,0,0.02072835,0
6.38225E+17,-14.0653,0.2104038,-9.875894,-0.0670338,10.15648,8.795631,51.14867,-0.07013461,-13.16786,62.63083,-8.008322,19.78241,0,0,0,-26.8491,-107.5343,-61.18456,80.19228,-106.657,-103.7554,0.001067912,-0.1257102,0.09433498,0,0.3,0,0,0.02330339,0
6.38225E+17,-14.0653,0.2104038,-9.875894,0.738663,14.62444,9.894309,51.14867,-0.07013461,-13.16786,62.70407,-8.008322,19.85565,0,0,0,-26.8491,-107.5343,-61.18456,80.19228,-106.657,-103.7554,0.001067912,-0.1257102,0.09433498,0,0.3,0,0,0.02576885,0
6.38225E+17,-14.0653,0.2104038,-9.875894,1.178134,16.96828,10.77325,51.14867,-0.07013461,-13.16786,62.70407,-8.008322,19.85565,0,0,0,-26.8491,-107.5343,-61.18456,80.19228,-106.657,-103.7554,0.001067912,-0.1257102,0.09433498,0,0.3,0,0,0.02696265,0
6.38225E+17,-14.0653,0.2104038,-9.875894,1.397869,21.58273,12.01842,51.14867,-0.07013461,-13.16786,62.63083,-8.008322,19.85565,0,0,0,-26.8491,-107.5343,-61.18456,80.19228,-106.657,-103.7554,0.001067912,-0.1257102,0.09433498,0,0.3,0,0,0.02927647,0
6.38225E+17,-14.0653,0.2104038,-9.89924,0.2259469,25.68446,12.67763,51.14867,-0.07013461,-13.16786,62.70407,-8.008322,19.85565,0,0,0,-26.8361,-107.5249,-61.23648,80.19228,-106.657,-103.7554,0.001067912,-0.1257102,0.09433498,0,0.3,0,0,0.03149907,0
6.38225E+17,-14.0653,0.2104038,-9.89924,-0.6529952,27.44234,12.82412,51.14867,-0.07013461,-13.16786,62.63083,-8.008322,19.85565,0,0,0,-26.8361,-107.5249,-61.23648,80.19228,-106.657,-103.7554,0.001067912,-0.1257102,0.09433498,0,0.3,0,0,0.03257827,0
6.38225E+17,-14.0653,0.2104038,-9.89924,-2.923595,29.63969,13.04385,51.14867,-0.07013461,-13.16786,62.63083,-8.008322,19.85565,0,0,0,-26.8361,-107.5249,-61.23648,80.19228,-106.657,-103.7554,0.001067912,-0.1257102,0.09433498,0,0.3,0,0,0.03467305,0
6.38225E+17,-14.0653,0.2104038,-10.06267,-5.120951,29.71294,13.04385,51.14867,-0.07013461,-13.16786,62.70407,-8.008322,19.85565,0,0,0,-26.74505,-107.459,-61.59986,80.19228,-106.657,-103.7554,0.001067912,-0.1257102,0.09433498,0,0.3,0,0,0.03670752,0
6.38225E+17,-14.0653,0,-10.2261,-6.732344,29.12698,12.60438,51.14867,-0.07013461,-13.16786,62.70407,-8.008322,19.85565,0,0,0,-26.65428,-107.8817,-61.96219,80.19228,-106.657,-103.7554,0.001067912,-0.1257102,0.09433498,0,0.3,0,0,0.03870641,0
6.38225E+17,-14.0653,-0.1870256,-10.2261,-7.318305,28.98049,12.53114,51.14867,-0.07013461,-13.16786,62.70407,-7.935077,19.78241,0,0,0,-26.65411,-108.317,-61.96288,80.19228,-106.657,-103.7554,0.001067912,-0.1257102,0.09433498,0,0.3,0,0,0.03967742,0
6.38225E+17,-14.0653,-0.7013461,-10.29614,-8.124002,28.76075,12.38465,51.14867,-0.07013461,-13.16786,62.70407,-8.008322,19.85565,0,0,0,-26.61287,-109.4849,-62.12748,80.19228,-106.657,-103.7554,0.001067912,-0.1257102,0.09433498,0,0.3,0,0,0.04157278,0
6.38225E+17,-14.0653,-1.028641,-10.17941,-8.856454,28.54102,11.35921,51.14867,-0.07013461,-13.16786,62.70407,-8.008322,19.85565,0,0,0,-26.67505,-110.2949,-61.87928,80.19228,-106.657,-103.7554,0.001067912,-0.1257102,0.09433498,0,0.3,0,0,0.04338901,0
6.38225E+17,-14.0653,-1.005263,-10.06267,-9.295925,28.32128,10.0408,51.14867,-0.07013461,-13.16786,62.70407,-8.008322,19.85565,0,0,0,-26.74028,-110.2882,-61.6189,80.19228,-106.657,-103.7554,0.001067912,-0.1257102,0.09433498,0,0.3,0,0,0.04425807,0
6.38225E+17,-14.0653,-1.005263,-9.619073,-10.24811,27.66208,6.671522,51.14867,-0.07013461,-13.16786,62.70407,-8.008322,19.85565,0,0,0,-26.9875,-110.4647,-60.63216,80.19228,-106.657,-103.7554,0.001067912,-0.1257102,0.09433498,0,0.3,0,0,0.04589256,0
6.38225E+17,-13.90038,-0.7948589,-8.895308,-11.34679,27.00287,4.034696,51.14867,-0.07013461,-13.16786,62.63083,-8.008322,19.85565,0,0,0,-27.07858,-110.246,-58.93361,80.19228,-106.657,-103.7554,0.001067912,-0.1257102,0.09433498,0,0.3,0,0,0.04738189,0
6.38225E+17,-13.14646,-0.1636474,-7.751292,-12.22573,26.49015,2.276812,51.14867,-0.07013461,-13.16786,62.70407,-8.008322,19.85565,0,0,0,-26.23853,-109.1624,-56.00937,80.19228,-106.657,-103.7554,0.001067912,-0.1257102,0.09433498,0,0.3,0,0,0.04875566,0
6.38225E+17,-11.77998,1.052019,-6.397151,-12.15249,26.05068,1.471115,51.14867,-0.07013461,-13.16786,62.70407,-8.008322,19.85565,0,0,0,-24.18607,-106.7214,-52.37539,80.19228,-106.657,-103.7554,0.001067912,-0.1257102,0.09433498,0,0.3,0,0,0.05010339,0
6.38225E+17,-10.86114,2.010525,-5.673386,-11.78626,25.83095,1.324624,51.14867,-0.07013461,-13.16786,62.70407,-8.008322,19.85565,0,0,0,-22.6276,-104.6685,-50.41586,80.19228,-106.657,-103.7554,0.001067912,-0.1257102,0.09433498,0,0.3,0,0,0.05079943,0
6.38225E+17,-8.858545,4.16132,-4.249202,-10.46785,25.02525,1.178134,51.14867,-0.07013461,-13.16786,62.63083,-8.008322,19.85565,0,0,0,-18.95961,-99.95692,-46.70068,80.19228,-106.657,-103.7554,0.001067912,-0.1257102,0.09433498,0,0.3,0,0,0.05226795,0
6.38225E+17,-6.502549,6.732923,-2.801672,-8.490229,23.99982,1.397869,51.14867,-0.07013461,-13.16786,62.70407,-7.935077,19.85565,0,0,0,-14.25925,-94.20647,-43.24768,80.19228,-106.657,-103.7554,0.001067912,-0.1257102,0.09433498,0,0.3,0,0,0.05388984,0
6.38225E+17,-5.324551,8.088859,-2.101254,-7.318305,23.4871,1.54436,51.14867,-0.07013461,-13.16786,62.70407,-8.008322,19.85565,0,0,0,-11.79768,-91.14683,-41.76463,80.19228,-106.657,-103.7554,0.001067912,-0.1257102,0.09433498,0,0.3,0,0,0.05475611,0
6.38225E+17,-2.803635,11.17478,-0.4435981,-4.608234,22.24193,2.057076,51.14867,-0.07013461,-13.16786,62.70407,-8.008322,19.85565,0,0,0,-6.348404,-84.15244,-38.71601,80.19228,-106.657,-103.7554,0.001067912,-0.1257102,0.09433498,0,0.3,0,0,0.05657759,0
6.38225E+17,-0.2827196,14.56462,1.44753,-1.531937,20.77703,2.569792,51.14867,-0.07013461,-13.16786,62.70407,-8.008322,19.85565,0,0,0,-0.6534748,-76.42368,-35.91824,80.19228,-106.657,-103.7554,0.001067912,-0.1257102,0.09433498,0,0.3,0,0,0.05845727,0
6.38225E+17,0.7539188,16.22447,2.404768,-0.140279,19.97133,2.789528,51.14867,-0.07013461,-13.16786,62.70407,-8.008322,19.85565,0,0,0,1.75836,-72.6244,-34.7271,80.19228,-106.657,-103.7554,0.001067912,-0.1257102,0.09433498,0,0.3,0,0,0.0593765,0
6.38225E+17,2.709396,19.80134,4.459328,2.716283,17.84722,3.082508,51.14867,-0.07013461,-13.16786,62.70407,-8.008322,19.85565,0,0,0,6.420886,-64.42269,-32.6683,80.19228,-106.657,-103.7554,0.001067912,-0.1257102,0.09433498,0,0.3,0,0,0.06110254,0
6.38225E+17,4.358593,23.21456,6.653971,4.913638,15.50338,3.155754,51.14867,-0.07013461,-13.16786,62.70407,-8.008322,19.78241,0,0,0,10.48816,-56.53847,-30.74413,80.19228,-106.657,-103.7554,0.001067912,-0.1257102,0.09433498,0,0.3,0,0,0.06259371,0
6.38225E+17,5.112512,24.94454,7.797987,5.865825,14.25821,3.155754,51.14867,-0.07013461,-13.16786,62.70407,-8.008322,19.85565,0,0,0,12.38687,-52.52772,-29.89934,80.19228,-106.657,-103.7554,0.001067912,-0.1257102,0.09433498,0,0.3,0,0,0.06322606,0
6.38225E+17,6.526109,28.45127,10.01598,7.623709,11.54814,3.155754,51.14867,-0.07013461,-13.16786,62.70407,-8.008322,19.85565,0,0,0,15.9615,-44.43822,-28.82307,80.19228,-106.657,-103.7554,0.001067912,-0.1257102,0.09433498,0,0.3,0,0,0.0642417,0
6.38225E+17,7.939706,31.56057,12.16393,9.088613,8.618331,3.155754,51.14867,-0.07013461,-13.16786,62.70407,-7.935077,19.85565,0,0,0,19.57646,-37.21078,-27.98464,80.19228,-106.657,-103.7554,0.001067912,-0.1257102,0.09433498,0,0.3,0,0,0.0649301,0
6.38225E+17,9.447544,34.41272,14.33522,10.40703,5.981505,3.155754,51.14867,-0.07013461,-13.16786,62.70407,-8.008322,19.85565,0,0,0,23.47742,-30.48521,-27.26109,80.19228,-106.657,-103.7554,0.001067912,-0.1257102,0.09433498,0,0.3,0,0,0.06533533,0
6.38225E+17,10.34282,35.90892,15.59597,11.06623,4.443357,2.936018,51.14867,-0.07013461,-13.16786,62.70407,-8.008322,19.78241,0,0,0,25.82796,-26.88068,-26.82923,80.19228,-106.657,-103.7554,0.001067912,-0.1257102,0.09433498,0,0.3,0,0,0.06542113,0
6.38225E+17,11.96846,38.2935,17.81396,12.38465,1.879776,2.350057,51.14867,-0.07013461,-13.16786,62.70407,-8.008322,19.85565,0,0,0,30.16341,-20.97086,-26.05719,80.19228,-106.657,-103.7554,0.001067912,-0.1257102,0.09433498,0,0.3,0,0,0.06538852,0
6.38225E+17,13.87682,40.44429,20.03195,14.14253,-0.4640697,1.324624,51.14867,-0.07013461,-13.16786,62.63083,-8.008322,19.85565,0,0,0,35.29477,-15.42729,-25.48259,80.19228,-106.657,-103.7554,0.001067912,-0.1257102,0.09433498,0,0.3,0,0,0.06511561,0
6.38225E+17,14.86634,41.4028,21.10593,15.09472,-1.562747,0.4456824,51.14867,-0.07013461,-13.16786,62.63083,-8.008322,19.85565,0,0,0,37.98225,-12.86356,-25.26394,80.19228,-106.657,-103.7554,0.001067912,-0.1257102,0.09433498,0,0.3,0,0,0.06489988,0
6.38225E+17,16.77469,43.01589,23.0204,17.21883,-3.467122,-1.531937,51.14867,-0.07013461,-13.16786,62.70407,-8.008322,19.85565,0,0,0,43.18989,-8.409228,-25.06949,80.19228,-106.657,-103.7554,0.001067912,-0.1257102,0.09433498,0,0.3,0,0,0.06434073,0
6.38225E+17,18.70661,44.39521,24.7481,19.1232,-5.00527,-3.729292,51.14867,-0.07013461,-13.16786,62.70407,-7.935077,19.85565,0,0,0,48.46338,-4.460605,-25.22549,80.19228,-106.657,-103.7554,0.001067912,-0.1257102,0.09433498,0,0.3,0,0,0.0636395,0
6.38225E+17,20.82701,45.70439,26.89605,21.17406,-6.323683,-6.366118,51.14867,-0.07013461,-13.16786,62.70407,-8.008322,19.85565,0,0,0,54.55889,-0.1306027,-24.92638,80.19228,-106.657,-103.7554,0.001067912,-0.1257102,0.09433498,0,0.3,0,0,0.06276645,0
6.38225E+17,22.4762,46.56938,28.50701,22.63897,-7.349115,-8.490229,51.14867,-0.07013461,-13.16786,62.63083,-8.008322,19.85565,0,0,0,59.37815,3.00728,-24.82989,80.19228,-106.657,-103.7554,0.001067912,-0.1257102,0.09433498,0,0.3,0,0,0.06173028,0
6.38225E+17,23.46572,47.06033,29.39421,23.59116,-8.008322,-9.808641,51.14867,-0.07013461,-13.16786,62.70407,-8.008322,19.78241,0,0,0,62.23553,4.788732,-24.98357,80.19228,-106.657,-103.7554,0.001067912,-0.1257102,0.09433498,0,0.3,0,0,0.06115505,0
6.38225E+17,25.4212,48.08897,31.26199,25.86176,-8.960509,-12.81169,51.14867,-0.07013461,-13.16786,62.70407,-8.008322,19.85565,0,0,0,67.9434,8.598769,-25.39806,80.19228,-106.657,-103.7554,0.001067912,-0.1257102,0.09433498,0,0.3,0,0,0.05986724,0
6.38225E+17,27.23532,48.97734,33.05973,27.98586,-9.985942,-15.81474,51.14867,-0.07013461,-13.16786,62.70407,-8.008322,19.85565,0,0,0,73.34667,12.19496,-25.84892,80.19228,-106.657,-103.7554,0.001067912,-0.1257102,0.09433498,0,0.3,0,0,0.05839998,0
6.38225E+17,28.17771,49.37476,34.13371,29.23104,-10.42541,-17.49938,51.14867,-0.07013461,-13.16786,62.63083,-8.008322,19.85565,0,0,0,76.33311,14.18275,-25.85629,80.19228,-106.657,-103.7554,0.001067912,-0.1257102,0.09433498,0,0.3,0,0,0.05757828,0
6.38225E+17,29.85047,50.07611,36.11822,31.57488,-11.30435,-20.64893,51.14867,-0.07013461,-13.16786,62.63083,-8.008322,19.78241,0,0,0,81.72042,17.89534,-25.94912,80.19228,-106.657,-103.7554,0.001067912,-0.1257102,0.09433498,0,0.3,0,0,0.05575475,0
6.38225E+17,31.42899,50.56705,37.79922,33.91872,-12.11005,-23.50549,51.14867,-0.07013461,-13.16786,62.63083,-8.008322,19.85565,0,0,0,86.78364,20.97705,-26.33719,80.19228,-106.657,-103.7554,0.001067912,-0.1257102,0.09433498,0,0.3,0,0,0.05373169,0
6.38225E+17,32.20647,50.7307,38.54634,35.0174,-12.40303,-24.89715,51.14867,-0.07013461,-13.16786,62.70407,-8.008322,19.78241,0,0,0,89.27423,22.2932,-26.62041,80.19228,-106.657,-103.7554,0.001067912,-0.1257102,0.09433498,0,0.3,0,0,0.05266235,0
6.38225E+17,34.11483,50.80084,40.34408,37.50774,-12.98899,-27.9002,51.14867,-0.07013461,-13.16786,62.70407,-8.008322,19.78241,0,0,0,95.68561,25.05463,-27.10167,80.19228,-106.657,-103.7554,0.001067912,-0.1257102,0.09433498,0,0.3,0,0,0.05039619,0
6.38225E+17,35.38706,50.77746,41.3947,39.26562,-13.20873,-29.95106,51.14867,-0.07013461,-13.16786,62.70407,-8.008322,19.78241,0,0,0,99.89335,26.62021,-27.71916,80.19228,-106.657,-103.7554,0.001067912,-0.1257102,0.09433498,0,0.3,0,0,0.04802035,0
6.38225E+17,36.14098,50.70732,41.95504,40.29105,-13.28197,-31.12299,51.14867,-0.07013461,-13.16786,62.70407,-8.008322,19.85565,0,0,0,102.3841,27.38403,-28.15702,80.19228,-106.657,-103.7554,0.001067912,-0.1257102,0.09433498,0,0.3,0,0,0.04680021,0
6.38225E+17,37.50746,50.35665,43.14575,42.26867,-13.35522,-33.61332,51.14867,-0.07013461,-13.16786,62.70407,-8.008322,19.85565,0,0,0,107.3249,28.73924,-28.5192,80.19228,-106.657,-103.7554,0.001067912,-0.1257102,0.09433498,0,0.3,0,0,0.04428948,0
6.38225E+17,38.75614,49.77219,44.42985,44.24629,-13.20873,-35.88392,51.14867,-0.07013461,-13.16786,62.70407,-8.081567,19.78241,0,0,0,112.3501,29.9341,-28.39544,80.19228,-106.657,-103.7554,0.001067912,-0.1257102,0.09433498,0,0.3,0,0,0.04166536,0
6.38225E+17,39.43937,49.42152,45.15361,45.27173,-12.98899,-37.12909,51.14867,-0.07013461,-13.16786,62.70407,-8.008322,19.85565,0,0,0,115.1652,30.59187,-28.3419,80.19228,-106.657,-103.7554,0.001067912,-0.1257102,0.09433498,0,0.3,0,0,0.04030544,0
6.38225E+17,40.42889,48.9072,46.11085,46.66338,-12.76926,-38.81373,51.14867,-0.07013461,-13.16786,62.70407,-8.008322,19.85565,0,0,0,119.1635,31.40176,-28.47638,80.19228,-106.657,-103.7554,0.001067912,-0.1257102,0.09433498,0,0.3,0,0,0.03753645,0
6.38225E+17,41.55977,47.99545,46.90466,47.9818,-12.47628,-40.27863,51.14867,-0.07013461,-13.16786,62.70407,-8.081567,19.85565,0,0,0,123.7979,31.33463,-28.71571,80.19228,-106.657,-103.7554,0.001067912,-0.1257102,0.09433498,0,0.3,0,0,0.03472722,0
6.38225E+17,42.76133,46.38236,47.27821,49.08047,-11.96356,-41.89003,51.14867,-0.07013461,-13.16786,62.70407,-8.081567,19.78241,0,0,0,128.9705,29.42014,-28.88582,80.19228,-106.657,-103.7554,0.001067912,-0.1257102,0.09433498,0,0.3,0,0,0.03197237,0
6.38225E+17,43.56237,45.0498,47.3716,49.59319,-11.30435,-42.69572,51.14867,-0.07013461,-13.16786,62.70407,-8.008322,19.85565,0,0,0,132.5392,27.41455,-28.98693,80.19228,-106.657,-103.7554,0.001067912,-0.1257102,0.09433498,0,0.3,0,0,0.03064665,0
6.38225E+17,44.48121,43.55359,47.39495,50.03266,-10.13243,-43.50142,51.14867,-0.07013461,-13.16786,62.63083,-8.008322,19.85565,0,0,0,136.4869,24.96246,-29.36877,80.19228,-106.657,-103.7554,0.001067912,-0.1257102,0.09433498,0,0.3,0,0,0.02808575,0
6.38225E+17,45.72989,41.58982,47.39495,50.54538,-8.374548,-44.52685,51.14867,-0.07013461,-13.16786,62.70407,-8.008322,19.85565,0,0,0,141.6971,21.59678,-30.21785,80.19228,-106.657,-103.7554,0.001067912,-0.1257102,0.09433498,0,0.3,0,0,0.02567262,0
6.38225E+17,46.34245,40.5378,47.39495,50.76511,-7.568851,-44.96632,51.14867,-0.07013461,-13.16786,62.70407,-8.008322,19.85565,0,0,0,144.3293,19.75072,-30.63029,80.19228,-106.657,-103.7554,0.001067912,-0.1257102,0.09433498,0,0.3,0,0,0.02452181,0
6.38225E+17,47.44976,38.2935,47.39495,51.20458,-5.884212,-45.99176,51.14867,-0.07013461,-13.16786,62.70407,-8.008322,19.85565,0,0,0,149.407,15.71559,-31.20256,80.19228,-106.657,-103.7554,0.001067912,-0.1257102,0.09433498,0,0.3,0,0,0.02233171,0
6.38225E+17,48.39216,35.86216,47.39495,51.42432,-4.126328,-46.94394,51.14867,-0.07013461,-13.16786,62.63083,-8.081567,19.85565,0,0,0,154.1931,11.20134,-31.4132,80.19228,-106.657,-103.7554,0.001067912,-0.1257102,0.09433498,0,0.3,0,0,0.02029154,0
6.38225E+17,49.26388,33.52435,47.39495,51.49756,-2.441689,-47.60315,51.14867,-0.07013461,-13.16786,62.63083,-8.081567,19.85565,0,0,0,158.6051,6.727972,-31.75406,80.19228,-106.657,-103.7554,0.001067912,-0.1257102,0.09433498,0,0.3,0,0,0.01839584,0
6.38225E+17,50.11204,31.2099,47.44164,51.49756,-0.7570504,-48.11587,51.14867,-0.07013461,-13.16786,62.70407,-8.008322,19.85565,0,0,0,162.8786,2.258569,-32.22049,80.19228,-106.657,-103.7554,0.001067912,-0.1257102,0.09433498,0,0.3,0,0,0.01663068,0
6.38225E+17,50.489,29.99424,47.51169,51.42432,0.1218917,-48.40885,51.14867,-0.07013461,-13.16786,62.63083,-8.008322,19.85565,0,0,0,164.9669,-0.05652162,-32.30857,80.19228,-106.657,-103.7554,0.001067912,-0.1257102,0.09433498,0,0.3,0,0,0.01579275,0
6.38225E+17,51.33715,26.90831,47.88524,51.42432,2.099511,-49.06805,51.14867,-0.07013461,-13.16786,62.70407,-8.008322,19.85565,0,0,0,170.0909,-5.727453,-32.26248,80.19228,-106.657,-103.7554,0.001067912,-0.1257102,0.09433498,0,0.3,0,0,0.01420068,0
6.38225E+17,51.80835,24.94454,48.23545,51.35107,3.564415,-49.87375,51.14867,-0.07013461,-13.16786,62.70407,-8.008322,19.85565,0,0,0,173.203,-9.23144,-32.09361,80.19228,-106.657,-103.7554,0.001067912,-0.1257102,0.09433498,0,0.3,0,0,0.01266482,0
6.38225E+17,52.1382,23.84577,48.46893,51.20458,4.443357,-50.38646,51.14867,-0.07013461,-13.16786,62.70407,-8.008322,19.85565,0,0,0,175.1034,-11.15433,-32.22306,80.19228,-106.657,-103.7554,0.001067912,-0.1257102,0.09433498,0,0.3,0,0,0.01191628,0
6.38225E+17,52.82143,21.97551,49.146,51.05809,6.05475,-51.4119,51.14867,-0.07013461,-13.16786,62.70407,-8.008322,19.85565,0,0,0,178.8912,-13.97781,-32.66964,80.19228,-106.657,-103.7554,0.001067912,-0.1257102,0.09433498,0,0.3,0,0,0.01041885,0
6.38225E+17,53.45755,20.43255,50.00984,51.13134,7.299919,-52.51057,51.14867,-0.07013461,-13.16786,62.70407,-8.008322,19.85565,0,0,0,182.4774,-15.7951,-33.11453,80.19228,-106.657,-103.7554,0.001067912,-0.1257102,0.09433498,0,0.3,0,0,0.008885273,0
6.38225E+17,54.09367,18.88959,50.80365,51.35107,8.325351,-53.75574,51.14867,-0.07013461,-13.16786,62.70407,-8.008322,19.85565,0,0,0,185.8999,-17.75306,-33.74965,80.19228,-106.657,-103.7554,0.001067912,-0.1257102,0.09433498,0,0.3,0,0,0.007312247,0
6.38225E+17,54.39995,18.11811,51.13051,51.42432,8.764822,-54.3417,51.14867,-0.07013461,-13.16786,62.70407,-8.008322,19.85565,0,0,0,187.4696,-18.86484,-34.1347,80.19228,-106.657,-103.7554,0.001067912,-0.1257102,0.09433498,0,0.3,0,0,0.006519577,0
6.38225E+17,54.68267,16.66866,51.76089,51.49756,9.497273,-55.51363,51.14867,-0.07013461,-13.16786,62.70407,-8.008322,19.85565,0,0,0,189.6985,-20.93662,-33.94981,80.19228,-106.657,-103.7554,0.001067912,-0.1257102,0.09433498,0,0.3,0,0,0.004931499,0
6.38225E+17,54.70623,15.24259,52.43796,51.35107,10.22972,-56.17283,51.14867,-0.07013461,-13.16786,62.63083,-8.008322,19.85565,0,0,0,191.2885,-22.88428,-32.94141,80.19228,-106.657,-103.7554,0.001067912,-0.1257102,0.09433498,0,0.3,0,0,0.003339431,0
6.38225E+17,54.70623,14.47111,52.88156,51.20458,10.96218,-56.39257,51.14867,-0.07013461,-13.16786,62.63083,-8.008322,19.85565,0,0,0,192.1754,-23.79895,-32.31361,80.19228,-106.657,-103.7554,0.001067912,-0.1257102,0.09433498,0,0.3,0,0,0.002533877,0
6.38225E+17,54.72979,14.02692,53.25511,51.13134,11.84112,-56.46581,51.14867,-0.07013461,-13.16786,62.63083,-8.008322,19.85565,0,0,0,192.8656,-24.10597,-31.94406,80.19228,-106.657,-103.7554,0.001067912,-0.1257102,0.09433498,0,0.3,0,0,0.000923566,0
6.38225E+17,54.72979,13.95679,53.76875,51.42432,12.79331,-56.53906,51.14867,-0.07013461,-13.16786,62.70407,-8.008322,19.85565,0,0,0,193.4782,-23.30325,-31.51079,80.19228,-106.657,-103.7554,0.001067912,-0.1257102,0.09433498,0,0.3,0,0,0,0
6.38225E+17,54.72979,14.07368,54.30574,51.79055,13.08629,-56.53906,51.14867,-0.07013461,-13.16786,62.70407,-8.008322,19.85565,0,0,0,194.0236,-22.02773,-31.12503,80.19228,-106.657,-103.7554,0.001067912,-0.1257102,0.09433498,0,0.3,0,0,0,0
6.38225E+17,54.72979,15.3361,55.77662,53.62167,13.45251,-56.6123,51.14867,-0.07013461,-13.16786,62.70407,-8.008322,19.85565,0,0,0,195.0161,-16.38031,-30.42307,80.19228,-106.657,-103.7554,0.001067912,-0.1257102,0.09433498,0,0.3,0,0,0,0
6.38225E+17,54.72979,15.99069,56.17352,54.42737,13.30602,-56.6123,51.14867,-0.07013461,-13.16786,62.70407,-8.008322,19.85565,0,0,0,195.1023,-14.14781,-30.36211,80.19228,-106.657,-103.7554,0.001067912,-0.1257102,0.09433498,0,0.3,0,0,0,0
6.38225E+17,54.72979,17.74406,56.66381,56.11201,12.57357,-56.83204,51.14867,-0.07013461,-13.16786,62.70407,-8.008322,19.85565,0,0,0,194.6509,-9.29209,-30.68135,80.19228,-106.657,-103.7554,0.001067912,-0.1257102,0.09433498,0,0.3,0,0,0,0
6.38225E+17,54.70623,19.96499,56.68716,57.57691,11.47489,-57.27151,51.14867,-0.07013461,-13.16786,62.70407,-8.008322,19.85565,0,0,0,193.2553,-4.355367,-31.54914,80.19228,-106.657,-103.7554,0.001067912,-0.1257102,0.09433498,0,0.3,0,0,0,0
6.38225E+17,54.68267,21.25079,56.64047,58.16287,10.81569,-57.5645,51.14867,-0.07013461,-13.16786,62.63083,-8.008322,19.85565,0,0,0,192.2909,-1.645143,-32.11311,80.19228,-106.657,-103.7554,0.001067912,-0.1257102,0.09433498,0,0.3,0,0,0,0
6.38225E+17,54.63555,23.98604,56.22021,59.11506,9.131048,-58.22369,51.14867,-0.07013461,-13.16786,62.70407,-8.008322,19.85565,0,0,0,189.7414,3.415723,-33.68493,80.19228,-106.657,-103.7554,0.001067912,-0.1257102,0.09433498,0,0.3,0,0,0,0
6.38225E+17,54.42351,27.46939,55.05285,59.62778,6.787202,-59.02939,51.14867,-0.07013461,-13.16786,62.63083,-8.008322,19.85565,0,0,0,185.1325,8.475351,-35.923,80.19228,-106.657,-103.7554,0.001067912,-0.1257102,0.09433498,0,0.3,0,0,0,0
6.38225E+17,54.18791,29.10587,54.39913,59.62778,5.542034,-59.32237,51.14867,-0.07013461,-13.16786,62.70407,-7.935077,19.85565,0,0,0,182.4102,10.587,-36.73306,80.19228,-106.657,-103.7554,0.001067912,-0.1257102,0.09433498,0,0.3,0,0,0,0
6.38225E+17,53.50467,32.40219,52.97495,59.04182,2.465737,-59.83509,51.14867,-0.07013461,-13.16786,62.70407,-8.008322,19.85565,0,0,0,176.0965,14.50821,-38.06763,80.19228,-106.657,-103.7554,0.001067912,-0.1257102,0.09433498,0,0.3,0,0,0,0
6.38225E+17,52.49159,35.605,51.10716,57.79665,-0.8302955,-60.20132,51.14867,-0.07013461,-13.16786,62.63083,-8.008322,19.85565,0,0,0,168.3381,17.25967,-39.1404,80.19228,-106.657,-103.7554,0.001067912,-0.1257102,0.09433498,0,0.3,0,0,0,0
6.38225E+17,51.36071,38.05972,48.79579,56.03876,-3.686857,-60.27456,51.14867,-0.07013461,-13.16786,62.70407,-8.008322,19.78241,0,0,0,160.3768,17.71431,-40.14275,80.19228,-106.657,-103.7554,0.001067912,-0.1257102,0.09433498,0,0.3,0,0,0,0
6.38225E+17,50.67748,39.08836,47.23152,54.7936,-5.15176,-60.20132,51.14867,-0.07013461,-13.16786,62.70407,-8.008322,19.85565,0,0,0,155.7978,16.87992,-40.72863,80.19228,-106.657,-103.7554,0.001067912,-0.1257102,0.09433498,0,0.3,0,0,0,0
6.38225E+17,49.05184,40.63132,43.47261,51.42432,-7.349115,-58.37019,51.14867,-0.07013461,-13.16786,62.70407,-8.008322,19.85565,0,0,0,145.7336,13.41353,-41.89704,80.19228,-106.657,-103.7554,0.001067912,-0.1257102,0.09433498,0,0.3,0,0,0,0
6.38225E+17,47.40264,41.30928,40.41412,47.10286,-8.374548,-54.70793,51.14867,-0.07013461,-13.16786,62.70407,-8.008322,19.85565,0,0,0,137.3752,9.84762,-42.03868,80.19228,-106.657,-103.7554,0.001067912,-0.1257102,0.09433498,0,0.3,0,0,0,0
6.38225E+17,46.64872,41.28591,39.13002,45.12524,-8.447793,-52.80355,51.14867,-0.07013461,-13.16786,62.63083,-7.935077,19.85565,0,0,0,134.0572,7.894864,-41.79419,80.19228,-106.657,-103.7554,0.001067912,-0.1257102,0.09433498,0,0.3,0,0,0,0
6.38225E+17,45.23512,40.72483,36.46843,41.46298,-7.788587,-49.1413,51.14867,-0.07013461,-13.16786,62.70407,-7.935077,19.85565,0,0,0,128.0277,3.113123,-41.36878,80.19228,-106.657,-103.7554,0.001067912,-0.1257102,0.09433498,0,0.3,0,0,0,0
6.38225E+17,44.12781,39.50917,34.41387,38.31343,-6.470173,-45.11281,51.14867,-0.07013461,-13.16786,62.70407,-8.008322,19.85565,0,0,0,124.1069,-1.823159,-40.40596,80.19228,-106.657,-103.7554,0.001067912,-0.1257102,0.09433498,0,0.3,0,0,0,0
6.38225E+17,43.82153,38.69093,33.71345,36.99502,-5.664476,-43.20844,51.14867,-0.07013461,-13.16786,62.70407,-8.008322,19.78241,0,0,0,123.3177,-4.214083,-39.85217,80.19228,-106.657,-103.7554,0.001067912,-0.1257102,0.09433498,0,0.3,0,0,0,0
6.38225E+17,43.56237,36.37648,32.68617,34.79766,-3.540367,-39.54618,51.14867,-0.07013461,-13.16786,62.70407,-8.008322,19.85565,0,0,0,123.6179,-9.794497,-38.36754,80.19228,-106.657,-103.7554,0.001067912,-0.1257102,0.09433498,0,0.3,0,0,0,0
6.38225E+17,43.68017,34.27245,32.24257,33.77223,-1.635992,-37.20233,51.14867,-0.07013461,-13.16786,62.70407,-8.008322,19.78241,0,0,0,125.2387,-14.34381,-37.20435,80.19228,-106.657,-103.7554,0.001067912,-0.1257102,0.09433498,0,0.3,0,0,0,0
6.38225E+17,44.31629,31.7476,32.14919,33.11303,0.5613627,-35.15147,51.14867,-0.07013461,-13.16786,62.70407,-8.008322,19.85565,0,0,0,128.7948,-19.38696,-36.4441,80.19228,-106.657,-103.7554,0.001067912,-0.1257102,0.09433498,0,0.3,0,0,0,0
6.38225E+17,44.90529,30.41504,32.26592,33.18628,1.806531,-34.49226,51.14867,-0.07013461,-13.16786,62.70407,-8.008322,19.85565,0,0,0,131.4365,-21.89823,-36.47824,80.19228,-106.657,-103.7554,0.001067912,-0.1257102,0.09433498,0,0.3,0,0,0,0
6.38225E+17,46.57804,28.12398,33.31655,33.99197,4.077131,-33.83306,51.14867,-0.07013461,-13.16786,62.70407,-7.935077,19.85565,0,0,0,138.6163,-25.2251,-37.16642,80.19228,-106.657,-103.7554,0.001067912,-0.1257102,0.09433498,0,0.3,0,0,0,0
6.38225E+17,48.39216,26.0667,35.30106,36.04284,5.76177,-34.56551,51.14867,-0.07013461,-13.16786,62.63083,-8.008322,19.85565,0,0,0,147.1827,-26.88424,-37.63904,80.19228,-106.657,-103.7554,0.001067912,-0.1257102,0.09433498,0,0.3,0,0,0,0
6.38225E+17,49.82932,24.75752,37.26224,38.82615,7.080183,-36.83611,51.14867,-0.07013461,-13.16786,62.63083,-8.008322,19.78241,0,0,0,154.2253,-26.93546,-38.15476,80.19228,-106.657,-103.7554,0.001067912,-0.1257102,0.09433498,0,0.3,0,0,0,0
6.38225E+17,50.39476,24.64063,37.86926,40.29105,7.446409,-38.15452,51.14867,-0.07013461,-13.16786,62.70407,-8.008322,19.78241,0,0,0,156.453,-26.32129,-38.89672,80.19228,-106.657,-103.7554,0.001067912,-0.1257102,0.09433498,0,0.3,0,0,0,0
6.38225E+17,51.078,24.75752,38.52299,42.92788,7.592898,-40.86459,51.14867,-0.07013461,-13.16786,62.70407,-8.008322,19.85565,0,0,0,158.8273,-25.13332,-40.09174,80.19228,-106.657,-103.7554,0.001067912,-0.1257102,0.09433498,0,0.3,0,0,0,0
6.38225E+17,51.1958,25.03806,38.68642,44.61252,7.666144,-42.91546,51.14867,-0.07013461,-13.16786,62.70407,-7.935077,19.85565,0,0,0,159.1081,-24.30375,-40.40454,80.19228,-106.657,-103.7554,0.001067912,-0.1257102,0.09433498,0,0.3,0,0,0,0
6.38225E+17,51.17223,25.38873,38.63972,45.12524,7.739389,-43.42817,51.14867,-0.07013461,-13.16786,62.70407,-7.935077,19.85565,0,0,0,158.7186,-23.63325,-40.61032,80.19228,-106.657,-103.7554,0.001067912,-0.1257102,0.09433498,0,0.3,0,0,0,0
6.38225E+17,50.88952,26.72129,38.0327,45.7112,7.666144,-44.08738,51.14867,-0.07013461,-13.16786,62.70407,-7.935077,19.85565,0,0,0,156.1695,-21.72342,-41.38706,80.19228,-106.657,-103.7554,0.001067912,-0.1257102,0.09433498,0,0.3,0,0,0,0
6.38225E+17,50.41832,28.1006,36.93538,45.49146,7.299919,-44.16063,51.14867,-0.07013461,-13.16786,62.63083,-8.008322,19.85565,0,0,0,152.4192,-20.42783,-42.33995,80.19228,-106.657,-103.7554,0.001067912,-0.1257102,0.09433498,0,0.3,0,0,0,0
6.38225E+17,50.06492,28.73181,36.23495,45.05199,7.006938,-44.16063,51.14867,-0.07013461,-13.16786,62.70407,-7.935077,19.85565,0,0,0,150.0993,-20.10735,-42.69124,80.19228,-106.657,-103.7554,0.001067912,-0.1257102,0.09433498,0,0.3,0,0,0,0
6.38225E+17,49.1932,29.73707,34.74073,43.73357,6.494221,-43.86765,51.14867,-0.07013461,-13.16786,62.63083,-8.008322,19.85565,0,0,0,145.1621,-20.08456,-43.01939,80.19228,-106.657,-103.7554,0.001067912,-0.1257102,0.09433498,0,0.3,0,0,0,0
6.38225E+17,47.82672,30.20464,32.87295,41.90245,6.347731,-42.40274,51.14867,-0.07013461,-13.16786,62.70407,-7.935077,19.85565,0,0,0,139.0523,-21.56045,-42.38322,80.19228,-106.657,-103.7554,0.001067912,-0.1257102,0.09433498,0,0.3,0,0,0,0
6.38225E+17,46.08328,30.18126,30.65496,39.33887,6.787202,-39.69267,51.14867,-0.07013461,-13.16786,62.63083,-7.935077,19.85565,0,0,0,132.0138,-24.32477,-41.23608,80.19228,-106.657,-103.7554,0.001067912,-0.1257102,0.09433498,0,0.3,0,0,0,0
6.38225E+17,44.24561,29.64356,28.25019,36.40906,7.88588,-36.1769,51.14867,-0.07013461,-13.16786,62.70407,-8.008322,19.78241,0,0,0,124.9049,-28.16129,-40.11191,80.19228,-106.657,-103.7554,0.001067912,-0.1257102,0.09433498,0,0.3,0,0,0,0
6.38225E+17,42.94981,28.52141,26.75597,34.06521,9.131048,-33.75981,51.14867,-0.07013461,-13.16786,62.70407,-7.935077,19.78241,0,0,0,120.7362,-32.04959,-38.64867,80.19228,-106.657,-103.7554,0.001067912,-0.1257102,0.09433498,0,0.3,0,0,0,0
6.38225E+17,42.33725,27.63304,26.12559,32.7468,10.00999,-32.58789,51.14867,-0.07013461,-13.16786,62.70407,-8.008322,19.85565,0,0,0,119.1133,-34.52711,-37.61702,80.19228,-106.657,-103.7554,0.001067912,-0.1257102,0.09433498,0,0.3,0,0,0,0
6.38225E+17,41.46553,25.48224,25.23839,30.32971,12.1341,-30.68352,51.14867,-0.07013461,-13.16786,62.70407,-7.935077,19.85565,0,0,0,117.3603,-39.89927,-35.53742,80.19228,-106.657,-103.7554,0.001067912,-0.1257102,0.09433498,0,0.3,0,0,0,0
6.38225E+17,41.34773,22.77037,25.07496,28.64507,14.25821,-29.58484,51.14867,-0.07013461,-13.16786,62.63083,-8.008322,19.85565,0,0,0,118.5637,-45.82068,-33.61832,80.19228,-106.657,-103.7554,0.001067912,-0.1257102,0.09433498,0,0.3,0,0,0,0
6.38225E+17,41.55977,20.97025,25.16835,28.13236,15.43013,-29.29186,51.14867,-0.07013461,-13.16786,62.70407,-7.935077,19.85565,0,0,0,120.2273,-49.61632,-32.74303,80.19228,-106.657,-103.7554,0.001067912,-0.1257102,0.09433498,0,0.3,0,0,0,0
6.38225E+17,42.69065,16.76217,26.0322,28.2056,17.84722,-29.07212,51.14867,-0.07013461,-13.16786,62.70407,-7.935077,19.85565,0,0,0,126.2565,-58.01321,-31.48233,80.19228,-106.657,-103.7554,0.001067912,-0.1257102,0.09433498,0,0.3,0,0,0,0
6.38225E+17,44.43409,12.20342,28.25019,29.37753,20.55729,-30.61027,51.14867,-0.07013461,-13.16786,62.70407,-7.935077,19.85565,0,0,0,135.4351,-65.92862,-30.21274,80.19228,-106.657,-103.7554,0.001067912,-0.1257102,0.09433498,0,0.3,0,0,0,0
6.38225E+17,45.35292,10.42668,29.69772,30.25646,21.65597,-31.92868,51.14867,-0.07013461,-13.16786,62.63083,-8.008322,19.85565,0,0,0,140.3069,-68.35134,-29.76108,80.19228,-106.657,-103.7554,0.001067912,-0.1257102,0.09433498,0,0.3,0,0,0,0
6.38225E+17,48.133,6.873192,34.34383,33.33276,23.63359,-35.88392,51.14867,-0.07013461,-13.16786,62.70407,-7.935077,19.85565,0,0,0,154.6154,-70.79439,-29.78222,80.19228,-106.657,-103.7554,0.001067912,-0.1257102,0.09433498,0,0.3,0,0,0,0
6.38225E+17,49.87644,5.751038,37.51905,35.96959,23.70683,-38.59399,51.14867,-0.07013461,-13.16786,62.63083,-8.008322,19.85565,0,0,0,163.5542,-69.05418,-30.50962,80.19228,-106.657,-103.7554,0.001067912,-0.1257102,0.09433498,0,0.3,0,0,0.000591994,0
6.38225E+17,51.71412,5.72766,40.76432,39.63185,22.75465,-42.03651,51.14867,-0.07013461,-13.16786,62.63083,-8.008322,19.78241,0,0,0,172.4921,-64.34118,-32.19294,80.19228,-106.657,-103.7554,0.001067912,-0.1257102,0.09433498,0,0.3,0,0,0.001157764,0
6.38225E+17,52.53872,5.914686,42.46867,41.68271,22.16869,-43.57467,51.14867,-0.07013461,-13.16786,62.70407,-8.008322,19.85565,0,0,0,176.7525,-61.27379,-32.91265,80.19228,-106.657,-103.7554,0.001067912,-0.1257102,0.09433498,0,0.3,0,0,0.001295843,0
6.38225E+17,53.81095,6.662788,45.27035,45.7112,20.70378,-46.57772,51.14867,-0.07013461,-13.16786,62.63083,-8.008322,19.85565,0,0,0,183.3557,-55.0247,-34.20774,80.19228,-106.657,-103.7554,0.001067912,-0.1257102,0.09433498,0,0.3,0,0,0.001320813,0
6.38225E+17,54.44707,8.135615,46.85796,49.00723,19.45862,-49.21454,51.14867,-0.07013461,-13.16786,62.70407,-8.008322,19.85565,0,0,0,186.5603,-48.96473,-35.01764,80.19228,-106.657,-103.7554,0.001067912,-0.1257102,0.09433498,0,0.3,0,0,0.001105543,0
6.38225E+17,54.58843,10.23965,48.11871,51.86379,18.28669,-50.89918,51.14867,-0.07013461,-13.16786,62.63083,-8.008322,19.85565,0,0,0,187.8674,-41.96797,-34.78246,80.19228,-106.657,-103.7554,0.001067912,-0.1257102,0.09433498,0,0.3,0,0,0.00068857,0
6.38225E+17,54.51775,13.04504,48.46893,54.20764,17.26126,-51.55839,51.14867,-0.07013461,-13.16786,62.70407,-8.008322,19.78241,0,0,0,187.0713,-34.96519,-35.00077,80.19228,-106.657,-103.7554,0.001067912,-0.1257102,0.09433498,0,0.3,0,0,0.000130097,0
6.38225E+17,54.42351,14.7984,48.42223,55.15982,16.6753,-51.70488,51.14867,-0.07013461,-13.16786,62.70407,-8.008322,19.78241,0,0,0,185.9945,-31.08577,-35.30639,80.19228,-106.657,-103.7554,0.001067912,-0.1257102,0.09433498,0,0.3,0,0,0,0
6.38225E+17,53.99943,19.5208,48.16541,57.13744,14.55119,-51.92461,51.14867,-0.07013461,-13.16786,62.70407,-7.935077,19.85565,0,0,0,182.0604,-21.03333,-36.07263,80.19228,-106.657,-103.7554,0.001067912,-0.1257102,0.09433498,0,0.3,0,0,0,0
6.38225E+17,53.74027,22.46645,47.88524,57.94314,13.01304,-51.99786,51.14867,-0.07013461,-13.16786,62.70407,-8.008322,19.85565,0,0,0,179.1283,-15.11818,-36.96095,80.19228,-106.657,-103.7554,0.001067912,-0.1257102,0.09433498,0,0.3,0,0,0,0
6.38225E+17,53.62247,24.7809,47.55838,58.38261,11.62138,-51.99786,51.14867,-0.07013461,-13.16786,62.70407,-8.008322,19.85565,0,0,0,176.7079,-10.74616,-38.17664,80.19228,-106.657,-103.7554,0.001067912,-0.1257102,0.09433498,0,0.3,0,0,0,0
6.38225E+17,53.52823,28.98897,47.20817,58.89533,8.545086,-52.14435,51.14867,-0.07013461,-13.16786,62.70407,-8.008322,19.85565,0,0,0,172.4892,-2.61263,-40.84621,80.19228,-106.657,-103.7554,0.001067912,-0.1257102,0.09433498,0,0.3,0,0,0,0
6.38225E+17,53.41043,32.63597,47.23152,59.18831,4.809582,-53.38951,51.14867,-0.07013461,-13.16786,62.63083,-8.008322,19.85565,0,0,0,168.7659,4.715939,-43.06105,80.19228,-106.657,-103.7554,0.001067912,-0.1257102,0.09433498,0,0.3,0,0,0,0
6.38225E+17,53.26907,35.51149,47.23152,59.26155,1.293814,-55.51363,51.14867,-0.07013461,-13.16786,62.70407,-8.008322,19.85565,0,0,0,165.4515,10.25885,-44.88725,80.19228,-106.657,-103.7554,0.001067912,-0.1257102,0.09433498,0,0.3,0,0,0,0
6.38225E+17,53.17484,37.56877,47.23152,59.04182,-2.075463,-58.29694,51.14867,-0.07013461,-13.16786,62.70407,-8.008322,19.85565,0,0,0,162.9664,14.1056,-46.32387,80.19228,-106.657,-103.7554,0.001067912,-0.1257102,0.09433498,0,0.3,0,0,0,0
6.38225E+17,53.12771,38.19999,47.20817,58.89533,-3.540367,-59.6886,51.14867,-0.07013461,-13.16786,62.70407,-7.935077,19.85565,0,0,0,162.1148,15.22519,-46.75333,80.19228,-106.657,-103.7554,0.001067912,-0.1257102,0.09433498,0,0.3,0,0,0,0
6.38225E+17,53.10415,38.5039,46.88131,58.60235,-6.103948,-61.88596,51.14867,-0.07013461,-13.16786,62.63083,-7.935077,19.78241,0,0,0,161.2992,15.22312,-47.2614,80.19228,-106.657,-103.7554,0.001067912,-0.1257102,0.09433498,0,0.3,0,0,0,0
6.38225E+17,53.08059,37.73242,46.01746,58.01638,-7.495606,-62.98463,51.14867,-0.07013461,-13.16786,62.70407,-7.935077,19.85565,0,0,0,161.0281,12.35336,-47.3614,80.19228,-106.657,-103.7554,0.001067912,-0.1257102,0.09433498,0,0.3,0,0,0,0
6.38225E+17,52.89211,35.81541,44.8034,57.21069,-7.568851,-62.98463,51.14867,-0.07013461,-13.16786,62.70407,-8.008322,19.78241,0,0,0,161.1773,6.767509,-46.41768,80.19228,-106.657,-103.7554,0.001067912,-0.1257102,0.09433498,0,0.3,0,0,0,0
6.38225E+17,52.72719,34.52961,44.10299,56.62473,-7.12938,-62.32543,51.14867,-0.07013461,-13.16786,62.70407,-7.935077,19.85565,0,0,0,161.2714,3.179741,-45.61501,80.19228,-106.657,-103.7554,0.001067912,-0.1257102,0.09433498,0,0.3,0,0,0,0
6.38225E+17,52.37379,31.37355,42.56207,55.37956,-5.517986,-59.39562,51.14867,-0.07013461,-13.16786,62.70407,-8.008322,19.85565,0,0,0,161.6093,-5.444206,-43.77628,80.19228,-106.657,-103.7554,0.001067912,-0.1257102,0.09433498,0,0.3,0,0,0,0
6.38225E+17,51.99683,27.53952,41.3947,54.06115,-3.174141,-55.66012,51.14867,-0.07013461,-13.16786,62.70407,-7.935077,19.85565,0,0,0,162.6519,-15.02971,-41.25797,80.19228,-106.657,-103.7554,0.001067912,-0.1257102,0.09433498,0,0.3,0,0,0,0
6.38225E+17,51.80835,25.22508,40.92776,53.40194,-1.709238,-53.6825,51.14867,-0.07013461,-13.16786,62.63083,-7.935077,19.85565,0,0,0,163.471,-20.57027,-39.74963,80.19228,-106.657,-103.7554,0.001067912,-0.1257102,0.09433498,0,0.3,0,0,0,0
6.38225E+17,51.4314,20.22215,40.34408,52.15677,1.66004,-50.45971,51.14867,-0.07013461,-13.16786,62.70407,-8.008322,19.85565,0,0,0,165.3309,-32.19156,-36.51632,80.19228,-106.657,-103.7554,0.001067912,-0.1257102,0.09433498,0,0.3,0,0,0,0
6.38225E+17,51.10155,14.98543,40.34408,50.69187,5.249053,-48.55533,51.14867,-0.07013461,-13.16786,62.70407,-7.935077,19.85565,0,0,0,167.4369,-43.80468,-33.25293,80.19228,-106.657,-103.7554,0.001067912,-0.1257102,0.09433498,0,0.3,0,0,0,0
6.38225E+17,50.77172,8.953853,40.57755,48.56776,9.350782,-47.60315,51.14867,-0.07013461,-13.16786,62.63083,-8.008322,19.85565,0,0,0,169.2309,-57.17838,-30.18949,80.19228,-106.657,-103.7554,0.001067912,-0.1257102,0.09433498,0,0.3,0,0,0,0
6.38225E+17,50.55968,5.143205,41.3947,46.88312,11.3284,-47.5299,51.14867,-0.07013461,-13.16786,62.70407,-7.935077,19.85565,0,0,0,170.6675,-64.73125,-27.96089,80.19228,-106.657,-103.7554,0.001067912,-0.1257102,0.09433498,0,0.3,0,0,0,0
6.38225E+17,50.41832,2.73525,42.14182,45.7112,12.50033,-47.82288,51.14867,-0.07013461,-13.16786,62.70407,-7.935077,19.78241,0,0,0,171.6168,-69.16361,-26.46861,80.19228,-106.657,-103.7554,0.001067912,-0.1257102,0.09433498,0,0.3,0,0,0,0
6.38225E+17,50.22984,-0.5610769,43.42591,43.66033,14.25821,-49.21454,51.14867,-0.07013461,-13.16786,62.70407,-7.935077,19.85565,0,0,0,172.9469,-74.80311,-24.40862,80.19228,-106.657,-103.7554,0.001067912,-0.1257102,0.09433498,0,0.3,0,0,0,0
6.38225E+17,50.30051,-1.028641,43.566,42.26867,15.50338,-50.89918,51.14867,-0.07013461,-13.16786,62.63083,-8.008322,19.85565,0,0,0,173.2947,-75.6668,-24.48064,80.19228,-106.657,-103.7554,0.001067912,-0.1257102,0.09433498,0,0.3,0,0,0,0
6.38225E+17,50.32408,-0.8416153,43.72943,41.90245,15.94285,-51.4119,51.14867,-0.07013461,-13.16786,62.70407,-7.935077,19.85565,0,0,0,173.5711,-74.96904,-24.37165,80.19228,-106.657,-103.7554,0.001067912,-0.1257102,0.09433498,0,0.3,0,0,0,0
6.38225E+17,50.32408,-0.09351282,44.28976,41.75596,16.74854,-51.92461,51.14867,-0.07013461,-13.16786,62.70407,-7.935077,19.85565,0,0,0,174.304,-72.32191,-23.76375,80.19228,-106.657,-103.7554,0.001067912,-0.1257102,0.09433498,0,0.3,0,0,0,0
6.38225E+17,50.39476,2.057282,44.45319,42.34192,17.481,-52.14435,51.14867,-0.07013461,-13.16786,62.63083,-7.935077,19.85565,0,0,0,174.6256,-67.05119,-23.86023,80.19228,-106.657,-103.7554,0.001067912,-0.1257102,0.09433498,0,0.3,0,0,0,0
6.38225E+17,50.55968,3.787269,44.42985,43.00113,17.84722,-52.14435,51.14867,-0.07013461,-13.16786,62.63083,-7.935077,19.85565,0,0,0,174.8523,-63.06826,-24.51852,80.19228,-106.657,-103.7554,0.001067912,-0.1257102,0.09433498,0,0.3,0,0,0,0
6.38225E+17,50.88952,9.608441,43.58934,45.5647,17.40775,-52.14435,51.14867,-0.07013461,-13.16786,62.70407,-7.935077,19.85565,0,0,0,173.3601,-50.97743,-27.41136,80.19228,-106.657,-103.7554,0.001067912,-0.1257102,0.09433498,0,0.3,0,0,0,0
6.38225E+17,50.93663,14.16719,42.56207,47.46908,16.01609,-51.70488,51.14867,-0.07013461,-13.16786,62.70407,-7.935077,19.85565,0,0,0,170.4234,-42.23058,-30.0315,80.19228,-106.657,-103.7554,0.001067912,-0.1257102,0.09433498,0,0.3,0,0,0,0
6.38225E+17,50.74816,19.66107,41.72157,49.73968,13.37927,-50.82594,51.14867,-0.07013461,-13.16786,62.70407,-8.008322,19.78241,0,0,0,165.9647,-31.31447,-32.74228,80.19228,-106.657,-103.7554,0.001067912,-0.1257102,0.09433498,0,0.3,0,0,0,0
6.38225E+17,50.39476,22.39632,41.41805,50.76511,11.54814,-50.45971,51.14867,-0.07013461,-13.16786,62.70407,-7.935077,19.85565,0,0,0,162.9581,-25.84171,-33.51423,80.19228,-106.657,-103.7554,0.001067912,-0.1257102,0.09433498,0,0.3,0,0,0,0
6.38225E+17,48.88692,29.43316,40.60089,52.37651,5.468789,-49.72726,51.14867,-0.07013461,-13.16786,62.70407,-7.935077,19.85565,0,0,0,152.8832,-12.36824,-34.91999,80.19228,-106.657,-103.7554,0.001067912,-0.1257102,0.09433498,0,0.3,0,0,0,0
6.38225E+17,48.29792,31.51382,40.27403,52.44975,3.271434,-49.58077,51.14867,-0.07013461,-13.16786,62.63083,-7.935077,19.85565,0,0,0,149.2377,-8.688298,-35.3743,80.19228,-106.657,-103.7554,0.001067912,-0.1257102,0.09433498,0,0.3,0,0,0,0
6.38225E+17,46.93144,35.3946,39.29345,52.01028,-1.196521,-49.50752,51.14867,-0.07013461,-13.16786,62.70407,-7.935077,19.85565,0,0,0,141.1062,-2.614351,-36.45028,80.19228,-106.657,-103.7554,0.001067912,-0.1257102,0.09433498,0,0.3,0,0,0,0
6.38225E+17,45.23512,38.43377,37.75253,50.47213,-5.591231,-49.43428,51.14867,-0.07013461,-13.16786,62.63083,-7.935077,19.85565,0,0,0,132.1319,0.8067783,-37.29819,80.19228,-106.657,-103.7554,0.001067912,-0.1257102,0.09433498,0,0.3,0,0,0,0
6.38225E+17,44.31629,39.5793,36.84199,49.30021,-7.495606,-49.28778,51.14867,-0.07013461,-13.16786,62.70407,-7.935077,19.85565,0,0,0,127.6633,1.594393,-37.60298,80.19228,-106.657,-103.7554,0.001067912,-0.1257102,0.09433498,0,0.3,0,0,0,0
6.38225E+17,42.21945,41.37942,34.53061,45.85769,-10.93813,-48.40885,51.14867,-0.07013461,-13.16786,62.63083,-7.935077,19.85565,0,0,0,118.0305,1.643137,-38.26925,80.19228,-106.657,-103.7554,0.001067912,-0.1257102,0.09433498,0,0.3,0,0,0,0
6.38225E+17,39.98125,42.19766,31.98576,41.75596,-13.13548,-46.50447,51.14867,-0.07013461,-13.16786,62.70407,-7.935077,19.85565,0,0,0,108.8628,-0.1848801,-38.52609,80.19228,-106.657,-103.7554,0.001067912,-0.1257102,0.09433498,0,0.3,0,0,0,0
6.38225E+17,38.82682,42.24441,30.70166,39.5586,-13.72145,-45.33255,51.14867,-0.07013461,-13.16786,62.70407,-7.935077,19.85565,0,0,0,104.579,-1.658846,-38.40455,80.19228,-106.657,-103.7554,0.001067912,-0.1257102,0.09433498,0,0.3,0,0,0,0
6.38225E+17,36.44726,41.9405,27.87663,34.3582,-14.30741,-42.18301,51.14867,-0.07013461,-13.16786,62.70407,-7.935077,19.85565,0,0,0,95.9689,-5.399981,-38.40548,80.19228,-106.657,-103.7554,0.001067912,-0.1257102,0.09433498,0,0.3,0,0,0,0
6.38225E+17,33.69075,40.42091,24.23446,28.35209,-13.57495,-37.71505,51.14867,-0.07013461,-13.16786,62.70407,-7.935077,19.85565,0,0,0,86.67675,-11.78447,-38.3382,80.19228,-106.657,-103.7554,0.001067912,-0.1257102,0.09433498,0,0.3,0,0,0,0
6.38225E+17,32.74835,39.55592,23.13714,26.52096,-12.98899,-35.88392,51.14867,-0.07013461,-13.16786,62.70407,-7.935077,19.85565,0,0,0,83.9614,-14.35284,-37.8091,80.19228,-106.657,-103.7554,0.001067912,-0.1257102,0.09433498,0,0.3,0,0,0,0
6.38225E+17,30.72219,36.75054,20.84911,21.3938,-10.20568,-30.46378,51.14867,-0.07013461,-13.16786,62.70407,-7.935077,19.78241,0,0,0,78.83162,-21.48079,-35.69947,80.19228,-106.657,-103.7554,0.001067912,-0.1257102,0.09433498,0,0.3,0,0,0,0
6.38225E+17,30.36879,33.66461,19.6117,16.99909,-6.689909,-25.99582,51.14867,-0.07013461,-13.16786,62.70407,-7.935077,19.85565,0,0,0,78.73898,-28.34425,-33.975,80.19228,-106.657,-103.7554,0.001067912,-0.1257102,0.09433498,0,0.3,0,0,0,0
6.38225E+17,30.86355,30.34491,19.2148,14.50875,-3.027651,-23.28575,51.14867,-0.07013461,-13.16786,62.63083,-7.935077,19.85565,0,0,0,81.54979,-35.20228,-31.8933,80.19228,-106.657,-103.7554,0.001067912,-0.1257102,0.09433498,0,0.3,0,0,0,0
6.38225E+17,32.08867,27.00183,19.30819,13.48332,1.000834,-21.82085,51.14867,-0.07013461,-13.16786,62.63083,-7.935077,19.85565,0,0,0,86.54065,-41.95614,-30.33174,80.19228,-106.657,-103.7554,0.001067912,-0.1257102,0.09433498,0,0.3,0,0,0,0
6.38225E+17,33.87922,24.21982,19.72844,13.99604,4.663092,-21.23489,51.14867,-0.07013461,-13.16786,62.63083,-7.935077,19.85565,0,0,0,92.88483,-47.46746,-30.01446,80.19228,-106.657,-103.7554,0.001067912,-0.1257102,0.09433498,0,0.3,0,0,0.000780128,0
6.38225E+17,34.98654,23.00415,20.14869,14.80174,6.274486,-21.0884,51.14867,-0.07013461,-13.16786,62.70407,-7.935077,19.85565,0,0,0,96.71783,-49.72634,-30.15355,80.19228,-106.657,-103.7554,0.001067912,-0.1257102,0.09433498,0,0.3,0,0,0.001523884,0
6.38225E+17,37.7195,20.87674,21.99312,17.6583,8.984557,-21.7476,51.14867,-0.07013461,-13.16786,62.70407,-7.935077,19.78241,0,0,0,106.7795,-52.77554,-30.29058,80.19228,-106.657,-103.7554,0.001067912,-0.1257102,0.09433498,0,0.3,0,0,0.002997712,0
6.38225E+17,40.31109,19.40391,24.60802,22.41923,11.18191,-22.62654,51.14867,-0.07013461,-13.16786,62.70407,-7.935077,19.85565,0,0,0,117.2922,-53.5866,-30.09809,80.19228,-106.657,-103.7554,0.001067912,-0.1257102,0.09433498,0,0.3,0,0,0.004358432,0
6.38225E+17,41.60689,19.17013,26.31237,27.76613,12.50033,-23.359,51.14867,-0.07013461,-13.16786,62.70407,-8.008322,19.85565,0,0,0,122.886,-52.39501,-29.97369,80.19228,-106.657,-103.7554,0.001067912,-0.1257102,0.09433498,0,0.3,0,0,0.005583697,0
6.38225E+17,41.84249,19.24026,26.59254,30.03673,12.79331,-23.65198,51.14867,-0.07013461,-13.16786,62.63083,-8.008322,19.85565,0,0,0,123.8076,-51.9504,-30.08525,80.19228,-106.657,-103.7554,0.001067912,-0.1257102,0.09433498,0,0.3,0,0,0.006170332,0
6.38225E+17,41.67757,19.3104,26.4758,33.25952,13.23278,-23.79847,51.14867,-0.07013461,-13.16786,62.63083,-7.935077,19.85565,0,0,0,123.2116,-51.91769,-29.95125,80.19228,-106.657,-103.7554,0.001067912,-0.1257102,0.09433498,0,0.3,0,0,0.007335735,0
6.38225E+17,40.87653,19.38053,25.47187,35.0174,13.74549,-23.57873,51.14867,-0.07013461,-13.16786,62.63083,-7.935077,19.85565,0,0,0,119.8547,-52.78698,-29.87137,80.19228,-106.657,-103.7554,0.001067912,-0.1257102,0.09433498,0,0.3,0,0,0.008538993,0
6.38225E+17,40.28753,19.42729,24.56132,35.38363,14.03847,-23.21251,51.14867,-0.07013461,-13.16786,62.63083,-8.008322,19.85565,0,0,0,117.1597,-53.5805,-30.13906,80.19228,-106.657,-103.7554,0.001067912,-0.1257102,0.09433498,0,0.3,0,0,0.009177393,0
6.38225E+17,38.35562,19.61431,21.71296,34.79766,14.99066,-21.30813,51.14867,-0.07013461,-13.16786,62.70407,-7.935077,19.85565,0,0,0,108.561,-55.77483,-31.16188,80.19228,-106.657,-103.7554,0.001067912,-0.1257102,0.09433498,0,0.3,0,0,0.01057779,0
6.38225E+17,35.8347,19.66107,19.05137,32.23409,16.08934,-18.96429,51.14867,-0.07013461,-13.16786,62.70407,-8.008322,19.85565,0,0,0,99.00124,-57.82959,-31.25649,80.19228,-106.657,-103.7554,0.001067912,-0.1257102,0.09433498,0,0.3,0,0,0.01211696,0
6.38225E+17,32.79546,19.66107,16.83338,28.2056,17.481,-16.47395,51.14867,-0.07013461,-13.16786,62.63083,-7.935077,19.78241,0,0,0,88.93343,-59.41974,-30.32834,80.19228,-106.657,-103.7554,0.001067912,-0.1257102,0.09433498,0,0.3,0,0,0.01372065,0
6.38225E+17,31.75883,19.66107,16.2497,26.44772,17.99371,-15.66825,51.14867,-0.07013461,-13.16786,62.63083,-7.935077,19.78241,0,0,0,85.7364,-59.80651,-29.84922,80.19228,-106.657,-103.7554,0.001067912,-0.1257102,0.09433498,0,0.3,0,0,0.01452233,0
6.38225E+17,30.36879,19.94161,15.92284,22.93195,18.9459,-14.34984,51.14867,-0.07013461,-13.16786,62.70407,-8.008322,19.85565,0,0,0,81.87,-59.40298,-28.63165,80.19228,-106.657,-103.7554,0.001067912,-0.1257102,0.09433498,0,0.3,0,0,0.01608886,0
6.38225E+17,29.77979,21.48457,16.36643,21.24731,19.01915,-12.88494,51.14867,-0.07013461,-13.16786,62.63083,-8.008322,19.85565,0,0,0,80.29114,-55.75703,-28.03903,80.19228,-106.657,-103.7554,0.001067912,-0.1257102,0.09433498,0,0.3,0,0,0.01756337,0
6.38225E+17,29.61487,22.70024,16.83338,21.02757,18.43318,-12.07924,51.14867,-0.07013461,-13.16786,62.70407,-8.008322,19.85565,0,0,0,79.87576,-52.825,-27.82818,80.19228,-106.657,-103.7554,0.001067912,-0.1257102,0.09433498,0,0.3,0,0,0.01824977,0
6.38225E+17,29.30859,26.2771,18.21087,21.32055,16.08934,-10.68758,51.14867,-0.07013461,-13.16786,62.63083,-7.935077,19.85565,0,0,0,78.93105,-44.28511,-27.74593,80.19228,-106.657,-103.7554,0.001067912,-0.1257102,0.09433498,0,0.3,0,0,0.01947492,0
6.38225E+17,28.79027,30.53193,19.86852,22.12625,12.28059,-9.881886,51.14867,-0.07013461,-13.16786,62.70407,-7.935077,19.85565,0,0,0,77.14407,-34.31807,-27.96902,80.19228,-106.657,-103.7554,0.001067912,-0.1257102,0.09433498,0,0.3,0,0,0.02046827,0
6.38225E+17,28.64891,35.53487,21.54953,22.78546,7.373164,-10.10162,51.14867,-0.07013461,-13.16786,62.63083,-7.935077,19.85565,0,0,0,75.50975,-23.1761,-30.1362,80.19228,-106.657,-103.7554,0.001067912,-0.1257102,0.09433498,0,0.3,0,0,0.02122126,0
6.38225E+17,28.64891,38.15323,22.39003,23.00519,4.223621,-11.85951,51.14867,-0.07013461,-13.16786,62.70407,-7.935077,19.85565,0,0,0,74.62769,-17.56787,-31.75071,80.19228,-106.657,-103.7554,0.001067912,-0.1257102,0.09433498,0,0.3,0,0,0.02150791,0
6.38225E+17,28.67247,42.75873,24.02434,23.37142,-2.441689,-18.8178,51.14867,-0.07013461,-13.16786,62.70407,-7.935077,19.85565,0,0,0,73.02499,-7.915234,-34.81485,80.19228,-106.657,-103.7554,0.001067912,-0.1257102,0.09433498,0,0.3,0,0,0.0219242,0
6.38225E+17,28.67247,45.40047,24.7948,23.73765,-6.763155,-24.97039,51.14867,-0.07013461,-13.16786,62.70407,-7.935077,19.85565,0,0,0,71.75644,-2.757764,-37.13456,80.19228,-106.657,-103.7554,0.001067912,-0.1257102,0.09433498,0,0.3,0,0,0.02220104,0
6.38225E+17,28.67247,46.63952,24.88819,24.03063,-8.740773,-28.26642,51.14867,-0.07013461,-13.16786,62.70407,-7.935077,19.78241,0,0,0,70.85546,-0.6639951,-38.7821,80.19228,-106.657,-103.7554,0.001067912,-0.1257102,0.09433498,0,0.3,0,0,0.02230845,0
6.38225E+17,28.83739,48.97734,24.86484,24.4701,-11.08462,-34.49226,51.14867,-0.07013461,-13.16786,62.70407,-7.935077,19.78241,0,0,0,69.26009,2.967156,-42.5609,80.19228,-106.657,-103.7554,0.001067912,-0.1257102,0.09433498,0,0.3,0,0,0.02248689,0
6.38225E+17,28.76671,51.54894,24.65471,24.83632,-12.47628,-40.57161,51.14867,-0.07013461,-13.16786,62.63083,-7.935077,19.85565,0,0,0,66.6764,6.588091,-46.89899,80.19228,-106.657,-103.7554,0.001067912,-0.1257102,0.09433498,0,0.3,0,0,0.02261379,0
6.38225E+17,28.57823,52.78798,24.3512,24.83632,-12.98899,-42.91546,51.14867,-0.07013461,-13.16786,62.63083,-8.008322,19.85565,0,0,0,64.87953,8.063809,-49.24487,80.19228,-106.657,-103.7554,0.001067912,-0.1257102,0.09433498,0,0.3,0,0,0.02266305,0
6.38225E+17,27.70651,54.89202,23.04375,24.32361,-13.57495,-45.62553,51.14867,-0.07013461,-13.16786,62.63083,-7.935077,19.85565,0,0,0,59.9264,9.730086,-54.23856,80.19228,-106.657,-103.7554,0.001067912,-0.1257102,0.09433498,0,0.3,0,0,0.02275552,0
6.38225E+17,26.17512,56.41161,21.59622,22.63897,-13.6482,-46.72421,51.14867,-0.07013461,-13.16786,62.70407,-7.935077,19.85565,0,0,0,54.19266,10.44606,-58.09513,80.19228,-106.657,-103.7554,0.001067912,-0.1257102,0.09433498,0,0.3,0,0,0.02284229,0
6.38225E+17,24.90288,56.99606,20.87246,21.3938,-13.57495,-47.01719,51.14867,-0.07013461,-13.16786,62.63083,-7.935077,19.85565,0,0,0,50.59142,10.5827,-59.37445,80.19228,-106.657,-103.7554,0.001067912,-0.1257102,0.09433498,0,0.3,0,0,0.02287558,0
6.38225E+17,20.16733,57.55714,18.65447,16.70611,-12.98899,-47.01719,51.14867,-0.07013461,-13.16786,62.70407,-7.935077,19.85565,0,0,0,39.3685,9.543214,-61.16096,80.19228,-106.657,-103.7554,0.001067912,-0.1257102,0.09433498,0,0.3,0,0,0.02290648,0
6.38225E+17,15.64381,57.22984,17.32367,11.79868,-12.40303,-45.62553,51.14867,-0.07013461,-13.16786,62.70407,-8.008322,19.85565,0,0,0,30.17074,8.176206,-60.6087,80.19228,-106.657,-103.7554,0.001067912,-0.1257102,0.09433498,0,0.3,0,0,0.02287228,0
6.38225E+17,13.05222,56.7389,16.83338,8.575896,-12.03681,-44.38036,51.14867,-0.07013461,-13.16786,62.70407,-8.008322,19.85565,0,0,0,25.23824,7.218511,-59.48392,80.19228,-106.657,-103.7554,0.001067912,-0.1257102,0.09433498,0,0.3,0,0,0.02281846,0
6.38225E+17,8.245987,54.98553,16.06292,1.178134,-11.15786,-41.15757,51.14867,-0.07013461,-13.16786,62.70407,-8.008322,19.85565,0,0,0,16.26578,4.420804,-56.11153,80.19228,-106.657,-103.7554,0.001067912,-0.1257102,0.09433498,0,0.3,0,0,0.02264036,0
6.38225E+17,5.560151,52.39055,15.19907,-5.413931,-9.692961,-37.7883,51.14867,-0.07013461,-13.16786,62.70407,-7.935077,19.85565,0,0,0,11.27237,0.3028905,-52.55627,80.19228,-106.657,-103.7554,0.001067912,-0.1257102,0.09433498,0,0.3,0,0,0.02242509,0
6.38225E+17,5.183192,49.07085,13.49472,-10.02838,-7.861832,-34.85849,51.14867,-0.07013461,-13.16786,62.63083,-7.935077,19.85565,0,0,0,10.70344,-5.569773,-50.35552,80.19228,-106.657,-103.7554,0.001067912,-0.1257102,0.09433498,0,0.3,0,0,0.02229374,0
6.38225E+17,5.395231,47.13046,12.37405,-11.27355,-6.616664,-33.61332,51.14867,-0.07013461,-13.16786,62.70407,-7.935077,19.85565,0,0,0,11.21706,-9.169368,-49.58036,80.19228,-106.657,-103.7554,0.001067912,-0.1257102,0.09433498,0,0.3,0,0,0.02228883,0
6.38225E+17,6.24339,43.71724,10.43623,-12.37222,-3.906592,-31.92868,51.14867,-0.07013461,-13.16786,62.63083,-7.935077,19.85565,0,0,0,13.10846,-15.63583,-48.52981,80.19228,-106.657,-103.7554,0.001067912,-0.1257102,0.09433498,0,0.3,0,0,0.02240765,0
6.38225E+17,7.798347,40.3274,8.661836,-12.07924,-0.9035407,-30.46378,51.14867,-0.07013461,-13.16786,62.70407,-7.935077,19.85565,0,0,0,16.51899,-22.18102,-47.73252,80.19228,-106.657,-103.7554,0.001067912,-0.1257102,0.09433498,0,0.3,0,0,0.02274104,0
6.38225E+17,9.588904,38.05972,7.634556,-10.83407,1.66004,-28.92563,51.14867,-0.07013461,-13.16786,62.70407,-7.935077,19.85565,0,0,0,20.44105,-26.61,-47.35277,80.19228,-106.657,-103.7554,0.001067912,-0.1257102,0.09433498,0,0.3,0,0,0.02300386,0
6.38225E+17,11.49726,36.63364,7.050874,-8.856454,3.857395,-27.46073,51.14867,-0.07013461,-13.16786,62.63083,-7.935077,19.85565,0,0,0,24.5918,-29.42211,-47.44787,80.19228,-106.657,-103.7554,0.001067912,-0.1257102,0.09433498,0,0.3,0,0,0.02361239,0
6.38225E+17,14.74854,35.72189,6.700665,-4.534989,6.567466,-25.19013,51.14867,-0.07013461,-13.16786,62.63083,-7.935077,19.85565,0,0,0,31.52205,-31.23253,-48.60843,80.19228,-106.657,-103.7554,0.001067912,-0.1257102,0.09433498,0,0.3,0,0,0.02439343,0
6.38225E+17,16.49197,35.69852,6.677318,-1.678428,7.592898,-24.23794,51.14867,-0.07013461,-13.16786,62.70407,-7.935077,19.85565,0,0,0,35.14418,-31.28304,-49.64418,80.19228,-106.657,-103.7554,0.001067912,-0.1257102,0.09433498,0,0.3,0,0,0.02483685,0
6.38225E+17,19.36629,35.69852,6.677318,4.254431,8.764822,-22.62654,51.14867,-0.07013461,-13.16786,62.70407,-7.935077,19.85565,0,0,0,41.05249,-31.28304,-51.55584,80.19228,-106.657,-103.7554,0.001067912,-0.1257102,0.09433498,0,0.3,0,0,0.02580352,0
6.38225E+17,21.0626,36.04919,6.677318,9.454838,9.497273,-21.60111,51.14867,-0.07013461,-13.16786,62.70407,-7.935077,19.85565,0,0,0,44.31996,-30.6217,-53.26857,80.19228,-106.657,-103.7554,0.001067912,-0.1257102,0.09433498,0,0.3,0,0,0.02683107,0
6.38225E+17,21.2982,36.96094,6.677318,13.26359,9.570518,-21.16164,51.14867,-0.07013461,-13.16786,62.63083,-7.935077,19.85565,0,0,0,44.33428,-28.91604,-54.62792,80.19228,-106.657,-103.7554,0.001067912,-0.1257102,0.09433498,0,0.3,0,0,0.02784654,0
6.38225E+17,20.73277,38.17661,6.677318,14.87498,8.984557,-20.94191,51.14867,-0.07013461,-13.16786,62.70407,-7.935077,19.85565,0,0,0,42.59916,-26.67349,-55.80928,80.19228,-106.657,-103.7554,0.001067912,-0.1257102,0.09433498,0,0.3,0,0,0.02880248,0
6.38225E+17,20.02597,38.80782,6.677318,15.02147,8.618331,-20.94191,51.14867,-0.07013461,-13.16786,62.70407,-7.935077,19.85565,0,0,0,40.89453,-25.52366,-56.15144,80.19228,-106.657,-103.7554,0.001067912,-0.1257102,0.09433498,0,0.3,0,0,0.02924705,0
6.38225E+17,17.66997,39.60268,6.537234,13.92279,7.88588,-21.38138,51.14867,-0.07013461,-13.16786,62.70407,-7.935077,19.85565,0,0,0,35.79443,-24.12768,-55.98793,80.19228,-106.657,-103.7554,0.001067912,-0.1257102,0.09433498,0,0.3,0,0,0.03004211,0
6.38225E+17,14.34802,39.76632,6.373804,10.8465,7.592898,-22.04058,51.14867,-0.07013461,-13.16786,62.70407,-7.935077,19.85565,0,0,0,29.06936,-23.87734,-54.70436,80.19228,-106.657,-103.7554,0.001067912,-0.1257102,0.09433498,0,0.3,0,0,0.03072909,0
6.38225E+17,12.79306,39.76632,6.397151,8.649141,7.592898,-22.40681,51.14867,-0.07013461,-13.16786,62.70407,-7.935077,19.85565,0,0,0,25.98675,-23.87129,-53.90473,80.19228,-106.657,-103.7554,0.001067912,-0.1257102,0.09433498,0,0.3,0,0,0.031026,0
6.38225E+17,10.01298,39.55592,7.00418,3.96145,7.739389,-22.99277,51.14867,-0.07013461,-13.16786,62.70407,-7.935077,19.85565,0,0,0,20.7036,-24.08343,-51.08945,80.19228,-106.657,-103.7554,0.001067912,-0.1257102,0.09433498,0,0.3,0,0,0.03151948,0
6.38225E+17,7.256468,38.71431,7.727945,-1.092466,7.812634,-23.21251,51.14867,-0.07013461,-13.16786,62.63083,-7.935077,19.85565,0,0,0,15.40755,-25.38679,-47.3459,80.19228,-106.657,-103.7554,0.001067912,-0.1257102,0.09433498,0,0.3,0,0,0.03189871,0
6.38225E+17,5.112512,37.17134,7.914723,-5.706912,8.105616,-23.359,51.14867,-0.07013461,-13.16786,62.63083,-7.935077,19.85565,0,0,0,11.10509,-28.15957,-44.22604,80.19228,-106.657,-103.7554,0.001067912,-0.1257102,0.09433498,0,0.3,0,0,0.03219801,0
6.38225E+17,4.287913,36.00243,7.914723,-7.977511,8.545086,-23.43224,51.14867,-0.07013461,-13.16786,62.70407,-7.935077,19.85565,0,0,0,9.438851,-30.34398,-42.4621,80.19228,-106.657,-103.7554,0.001067912,-0.1257102,0.09433498,0,0.3,0,0,0.03233324,0
6.38225E+17,3.510434,33.31394,7.868029,-11.85951,9.936745,-23.359,51.14867,-0.07013461,-13.16786,62.63083,-7.935077,19.85565,0,0,0,7.941058,-35.50534,-38.90173,80.19228,-106.657,-103.7554,0.001067912,-0.1257102,0.09433498,0,0.3,0,0,0.03260792,0
6.38225E+17,3.298395,29.9241,7.77464,-14.56958,12.28059,-22.40681,51.14867,-0.07013461,-13.16786,62.70407,-7.935077,19.85565,0,0,0,7.687501,-42.25226,-34.95943,80.19228,-106.657,-103.7554,0.001067912,-0.1257102,0.09433498,0,0.3,0,0,0.0329201,0
6.38225E+17,3.274835,26.67453,7.587861,-16.10773,15.50338,-20.50244,51.14867,-0.07013461,-13.16786,62.70407,-7.935077,19.78241,0,0,0,7.812835,-48.9686,-31.80725,80.19228,-106.657,-103.7554,0.001067912,-0.1257102,0.09433498,0,0.3,0,0,0.03327972,0
6.38225E+17,3.298395,23.96266,7.190958,-16.98667,18.65292,-19.11078,51.14867,-0.07013461,-13.16786,62.70407,-7.935077,19.78241,0,0,0,7.971558,-54.79221,-30.0306,80.19228,-106.657,-103.7554,0.001067912,-0.1257102,0.09433498,0,0.3,0,0,0.0336878,0
6.38225E+17,3.486874,22.67686,6.840749,-17.35289,20.33756,-18.74455,51.14867,-0.07013461,-13.16786,62.70407,-7.935077,19.85565,0,0,0,8.449375,-57.63981,-29.68262,80.19228,-106.657,-103.7554,0.001067912,-0.1257102,0.09433498,0,0.3,0,0,0.03391778,0
6.38225E+17,4.476392,20.64295,6.093637,-16.84018,23.41385,-18.23184,51.14867,-0.07013461,-13.16786,62.63083,-7.935077,19.85565,0,0,0,10.84434,-62.23489,-29.82992,80.19228,-106.657,-103.7554,0.001067912,-0.1257102,0.09433498,0,0.3,0,0,0.03445128,0
6.38225E+17,6.431869,19.33377,5.486608,-14.49633,25.90419,-17.2064,51.14867,-0.07013461,-13.16786,62.63083,-7.935077,19.85565,0,0,0,15.52395,-65.24079,-30.6424,80.19228,-106.657,-103.7554,0.001067912,-0.1257102,0.09433498,0,0.3,0,0,0.03511716,0
6.38225E+17,7.586308,18.95972,5.276482,-12.73845,26.92962,-16.25422,51.14867,-0.07013461,-13.16786,62.70407,-7.935077,19.85565,0,0,0,18.26866,-66.10906,-31.1827,80.19228,-106.657,-103.7554,0.001067912,-0.1257102,0.09433498,0,0.3,0,0,0.03550005,0
6.38225E+17,10.03654,18.65581,4.996315,-7.904267,28.46777,-13.69064,51.14867,-0.07013461,-13.16786,62.70407,-7.935077,19.85565,0,0,0,24.04265,-66.83701,-32.50408,80.19228,-106.657,-103.7554,0.001067912,-0.1257102,0.09433498,0,0.3,0,0,0.03636398,0
6.38225E+17,12.74594,18.60905,4.856231,-1.751673,29.34671,-11.05381,51.14867,-0.07013461,-13.16786,62.63083,-7.935077,19.85565,0,0,0,30.37325,-66.96812,-34.07535,80.19228,-106.657,-103.7554,0.001067912,-0.1257102,0.09433498,0,0.3,0,0,0.03684537,0
6.38225E+17,15.73805,18.60905,4.832884,4.986883,29.4932,-8.490229,51.14867,-0.07013461,-13.16786,62.63083,-7.935077,19.85565,0,0,0,37.32609,-66.97271,-35.89596,80.19228,-106.657,-103.7554,0.001067912,-0.1257102,0.09433498,0,0.3,0,0,0.03806186,0
6.38225E+17,17.29301,18.60905,4.832884,8.575896,29.27347,-7.464796,51.14867,-0.07013461,-13.16786,62.70407,-7.935077,19.85565,0,0,0,40.90659,-66.97271,-36.9576,80.19228,-106.657,-103.7554,0.001067912,-0.1257102,0.09433498,0,0.3,0,0,0.03872374,0
6.38225E+17,19.93173,18.60905,4.832884,14.94823,28.61426,-6.366118,51.14867,-0.07013461,-13.16786,62.63083,-7.935077,19.85565,0,0,0,46.91226,-66.97271,-38.98018,80.19228,-106.657,-103.7554,0.001067912,-0.1257102,0.09433498,0,0.3,0,0,0.04015242,0
6.38225E+17,22.19348,18.65581,4.832884,20.29512,27.51558,-5.780157,51.14867,-0.07013461,-13.16786,62.70407,-7.935077,19.85565,0,0,0,51.96814,-66.86959,-40.96454,80.19228,-106.657,-103.7554,0.001067912,-0.1257102,0.09433498,0,0.3,0,0,0.04170105,0
6.38225E+17,23.6542,18.79608,4.856231,25.1293,26.19717,-5.560421,51.14867,-0.07013461,-13.16786,62.70407,-7.935077,19.85565,0,0,0,55.17818,-66.55582,-42.37709,80.19228,-106.657,-103.7554,0.001067912,-0.1257102,0.09433498,0,0.3,0,0,0.04334249,0
6.38225E+17,23.79556,18.84283,4.856231,26.7407,25.46472,-5.487176,51.14867,-0.07013461,-13.16786,62.70407,-8.008322,19.85565,0,0,0,55.47465,-66.45282,-42.54573,80.19228,-106.657,-103.7554,0.001067912,-0.1257102,0.09433498,0,0.3,0,0,0.0441847,0
6.38225E+17,23.81912,18.88959,4.856231,29.08454,24.2928,-5.194195,51.14867,-0.07013461,-13.16786,62.70407,-7.935077,19.85565,0,0,0,55.51217,-66.34985,-42.60074,80.19228,-106.657,-103.7554,0.001067912,-0.1257102,0.09433498,0,0.3,0,0,0.04587448,0
6.38225E+17,23.74844,18.93634,4.996315,30.18322,23.41385,-5.047705,51.14867,-0.07013461,-13.16786,62.70407,-7.935077,19.85565,0,0,0,55.47361,-66.2189,-42.26733,80.19228,-106.657,-103.7554,0.001067912,-0.1257102,0.09433498,0,0.3,0,0,0.0475625,0
6.38225E+17,23.70132,18.9831,5.019662,30.32971,23.12087,-5.047705,51.14867,-0.07013461,-13.16786,62.63083,-7.935077,19.85565,0,0,0,55.37745,-66.11124,-42.20456,80.19228,-106.657,-103.7554,0.001067912,-0.1257102,0.09433498,0,0.3,0,0,0.04840232,0
6.38225E+17,23.79556,19.02986,4.646106,30.10997,22.82789,-5.047705,51.14867,-0.07013461,-13.16786,62.63083,-8.008322,19.85565,0,0,0,55.22102,-66.0816,-43.12091,80.19228,-106.657,-103.7554,0.001067912,-0.1257102,0.09433498,0,0.3,0,0,0.05008064,0
6.38225E+17,23.91336,19.33377,4.529369,29.96349,22.82789,-4.97446,51.14867,-0.07013461,-13.16786,62.63083,-8.008322,19.85565,0,0,0,55.27438,-65.43527,-43.69474,80.19228,-106.657,-103.7554,0.001067912,-0.1257102,0.09433498,0,0.3,0,0,0.05177687,0
6.38225E+17,23.96048,19.54418,4.389286,29.74375,22.82789,-5.340686,51.14867,-0.07013461,-13.16786,62.70407,-7.935077,19.85565,0,0,0,55.1787,-64.99884,-44.1862,80.19228,-106.657,-103.7554,0.001067912,-0.1257102,0.09433498,0,0.3,0,0,0.05347668,0
6.38225E+17,23.98404,19.7312,4.249202,29.52402,22.82789,-6.292873,51.14867,-0.07013461,-13.16786,62.70407,-7.935077,19.85565,0,0,0,55.03814,-64.61343,-44.63959,80.19228,-106.657,-103.7554,0.001067912,-0.1257102,0.09433498,0,0.3,0,0,0.05432779,0
6.38225E+17,23.86624,20.08188,3.688868,28.35209,22.60816,-10.10162,51.14867,-0.07013461,-13.16786,62.70407,-7.935077,19.85565,0,0,0,54.14486,-63.93631,-45.97057,80.19228,-106.657,-103.7554,0.001067912,-0.1257102,0.09433498,0,0.3,0,0,0.05603684,0
6.38225E+17,23.72488,20.40917,3.665521,26.81394,22.24193,-11.93275,51.14867,-0.07013461,-13.16786,62.70407,-7.935077,19.85565,0,0,0,53.71488,-63.22511,-46.12831,80.19228,-106.657,-103.7554,0.001067912,-0.1257102,0.09433498,0,0.3,0,0,0.05774897,0
6.38225E+17,23.72488,20.64295,3.665521,25.935,21.94895,-12.37222,51.14867,-0.07013461,-13.16786,62.70407,-7.935077,19.85565,0,0,0,53.63812,-62.71555,-46.30297,80.19228,-106.657,-103.7554,0.001067912,-0.1257102,0.09433498,0,0.3,0,0,0.05860019,0
6.38225E+17,23.72488,21.18065,3.665521,24.32361,21.14326,-12.73845,51.14867,-0.07013461,-13.16786,62.63083,-8.008322,19.85565,0,0,0,53.4584,-61.54655,-46.7119,80.19228,-106.657,-103.7554,0.001067912,-0.1257102,0.09433498,0,0.3,0,0,0.06029402,0
6.38225E+17,23.51284,21.90538,3.665521,22.93195,20.4108,-12.44547,51.14867,-0.07013461,-13.16786,62.70407,-7.935077,19.85565,0,0,0,52.76079,-59.97767,-47.08283,80.19228,-106.657,-103.7554,0.001067912,-0.1257102,0.09433498,0,0.3,0,0,0.0619728,0
6.38225E+17,22.594,23.30807,3.735562,21.83327,19.97133,-12.29898,51.14867,-0.07013461,-13.16786,62.63083,-7.935077,19.85565,0,0,0,50.38972,-56.95344,-47.26075,80.19228,-106.657,-103.7554,0.001067912,-0.1257102,0.09433498,0,0.3,0,0,0.06361572,0
6.38225E+17,20.59141,26.01994,4.43598,20.36837,19.38537,-12.15249,51.14867,-0.07013461,-13.16786,62.63083,-8.008322,19.78241,0,0,0,45.77315,-51.10203,-46.51704,80.19228,-106.657,-103.7554,0.001067912,-0.1257102,0.09433498,0,0.3,0,0,0.06516002,0
6.38225E+17,19.06001,27.82006,5.04301,19.41618,18.9459,-11.34679,51.14867,-0.07013461,-13.16786,62.63083,-7.935077,19.85565,0,0,0,42.34122,-47.24984,-45.79926,80.19228,-106.657,-103.7554,0.001067912,-0.1257102,0.09433498,0,0.3,0,0,0.06586164,0
6.38225E+17,15.12549,31.98138,6.537234,16.55962,17.55424,-8.856454,51.14867,-0.07013461,-13.16786,62.63083,-7.935077,19.85565,0,0,0,33.47573,-38.50499,-44.50255,80.19228,-106.657,-103.7554,0.001067912,-0.1257102,0.09433498,0,0.3,0,0,0.0670616,0
6.38225E+17,10.69622,36.63364,8.661836,12.38465,15.57662,-6.439363,51.14867,-0.07013461,-13.16786,62.70407,-7.935077,19.85565,0,0,0,23.58848,-28.90963,-43.46638,80.19228,-106.657,-103.7554,0.001067912,-0.1257102,0.09433498,0,0.3,0,0,0.06788266,0
6.38225E+17,6.12559,41.89374,11.81372,6.671522,12.42708,-4.534989,51.14867,-0.07013461,-13.16786,62.70407,-8.008322,19.85565,0,0,0,13.50546,-18.13081,-42.50816,80.19228,-106.657,-103.7554,0.001067912,-0.1257102,0.09433498,0,0.3,0,0,0.0683856,0
6.38225E+17,4.052313,44.41859,13.51807,3.888205,10.59595,-3.802537,51.14867,-0.07013461,-13.16786,62.63083,-8.008322,19.85565,0,0,0,8.933436,-12.9747,-42.25056,80.19228,-106.657,-103.7554,0.001067912,-0.1257102,0.09433498,0,0.3,0,0,0.06849312,0
6.38225E+17,0.2355996,49.53841,17.30033,-2.191144,6.127995,-2.630615,51.14867,-0.07013461,-13.16786,62.63083,-8.008322,19.85565,0,0,0,0.5188968,-2.508955,-42.15951,80.19228,-106.657,-103.7554,0.001067912,-0.1257102,0.09433498,0,0.3,0,0,0.06842796,0
6.38225E+17,-2.756516,54.05041,20.61563,-7.904267,1.367059,-1.751673,51.14867,-0.07013461,-13.16786,62.63083,-7.935077,19.85565,0,0,0,-6.022928,6.490599,-43.25654,80.19228,-106.657,-103.7554,0.001067912,-0.1257102,0.09433498,0,0.3,0,0,0.06801891,0
6.38225E+17,-3.887394,56.01418,22.06317,-10.54109,-0.8302955,-1.385447,51.14867,-0.07013461,-13.16786,62.63083,-8.008322,19.85565,0,0,0,-8.449461,10.33578,-44.00566,80.19228,-106.657,-103.7554,0.001067912,-0.1257102,0.09433498,0,0.3,0,0,0.06770866,0
6.38225E+17,-5.701511,59.19361,24.18777,-15.15554,-4.85878,-1.019221,51.14867,-0.07013461,-13.16786,62.70407,-7.935077,19.85565,0,0,0,-12.2127,16.2418,-46.02719,80.19228,-106.657,-103.7554,0.001067912,-0.1257102,0.09433498,0,0.3,0,0,0.06692568,0
6.38225E+17,-7.209348,61.39116,25.26174,-18.89104,-7.935077,-0.7994855,51.14867,-0.07013461,-13.16786,62.70407,-7.935077,19.85565,0,0,0,-15.1547,19.82175,-48.54542,80.19228,-106.657,-103.7554,0.001067912,-0.1257102,0.09433498,0,0.3,0,0,0.06598536,0
6.38225E+17,-7.939706,62.06913,25.33178,-20.35595,-9.033754,-0.57975,51.14867,-0.07013461,-13.16786,62.70407,-7.935077,19.85565,0,0,0,-16.50899,20.63873,-49.97873,80.19228,-106.657,-103.7554,0.001067912,-0.1257102,0.09433498,0,0.3,0,0,0.06547853,0
6.38225E+17,-9.423985,62.67696,24.7948,-22.77304,-10.20568,0.006211365,51.14867,-0.07013461,-13.16786,62.70407,-7.935077,19.85565,0,0,0,-19.17899,20.7653,-52.79934,80.19228,-106.657,-103.7554,0.001067912,-0.1257102,0.09433498,0,0.3,0,0,0.06442607,0
6.38225E+17,-10.74334,62.13927,23.0671,-24.89715,-10.5719,0.5189275,51.14867,-0.07013461,-13.16786,62.70407,-8.008322,19.85565,0,0,0,-21.35612,18.55466,-55.79272,80.19228,-106.657,-103.7554,0.001067912,-0.1257102,0.09433498,0,0.3,0,0,0.06336756,0
6.38225E+17,-11.33234,61.29765,21.75965,-25.6296,-10.27892,0.6654179,51.14867,-0.07013461,-13.16786,62.63083,-8.008322,19.85565,0,0,0,-22.29825,16.46638,-57.08506,80.19228,-106.657,-103.7554,0.001067912,-0.1257102,0.09433498,0,0.3,0,0,0.06285384,0
6.38225E+17,-12.03914,58.5624,18.49104,-27.02126,-8.447793,0.738663,51.14867,-0.07013461,-13.16786,62.70407,-8.008322,19.85565,0,0,0,-23.32842,10.6598,-58.96587,80.19228,-106.657,-103.7554,0.001067912,-0.1257102,0.09433498,0,0.3,0,0,0.06189453,0
6.38225E+17,-12.03914,55.03229,14.94225,-27.9002,-5.298251,0.8119082,51.14867,-0.07013461,-13.16786,62.63083,-8.008322,19.85565,0,0,0,-23.11242,3.786083,-59.97868,80.19228,-106.657,-103.7554,0.001067912,-0.1257102,0.09433498,0,0.3,0,0,0.06106959,0
6.38225E+17,-11.80354,51.45543,11.72033,-28.33967,-2.075463,0.8119082,51.14867,-0.07013461,-13.16786,62.63083,-8.008322,19.85565,0,0,0,-22.53835,-2.923575,-60.49831,80.19228,-106.657,-103.7554,0.001067912,-0.1257102,0.09433498,0,0.3,0,0,0.06041032,0
6.38225E+17,-11.42658,49.37476,10.03932,-28.26642,-0.2443342,0.8119082,51.14867,-0.07013461,-13.16786,62.63083,-8.008322,19.85565,0,0,0,-21.80648,-6.747592,-60.46025,80.19228,-106.657,-103.7554,0.001067912,-0.1257102,0.09433498,0,0.3,0,0,0.06014044,0
6.38225E+17,-9.494664,45.00304,6.794055,-27.53397,3.93064,0.8119082,51.14867,-0.07013461,-13.16786,62.70407,-8.008322,19.85565,0,0,0,-18.15554,-14.76589,-59.79464,80.19228,-106.657,-103.7554,0.001067912,-0.1257102,0.09433498,0,0.3,0,0,0.05974445,0
6.38225E+17,-6.05491,41.33266,4.249202,-25.33662,8.691576,0.8119082,51.14867,-0.07013461,-13.16786,62.70407,-7.935077,19.85565,0,0,0,-11.60417,-21.56513,-58.95233,80.19228,-106.657,-103.7554,0.001067912,-0.1257102,0.09433498,0,0.3,0,0,0.05958396,0
6.38225E+17,-1.908357,39.32214,3.175228,-21.38138,12.72006,0.738663,51.14867,-0.07013461,-13.16786,62.70407,-7.935077,19.78241,0,0,0,-3.68126,-25.29408,-57.86613,80.19228,-106.657,-103.7554,0.001067912,-0.1257102,0.09433498,0,0.3,0,0,0.05965653,0
6.38225E+17,2.638716,38.55066,3.315312,-15.44852,15.57662,1.397869,51.14867,-0.07013461,-13.16786,62.63083,-8.008322,19.85565,0,0,0,5.156214,-26.67226,-56.46965,80.19228,-106.657,-103.7554,0.001067912,-0.1257102,0.09433498,0,0.3,0,0,0.05990328,0
6.38225E+17,4.287913,38.52728,3.712215,-11.85951,16.52881,1.910586,51.14867,-0.07013461,-13.16786,62.70407,-8.008322,19.78241,0,0,0,8.445461,-26.65821,-55.71115,80.19228,-106.657,-103.7554,0.001067912,-0.1257102,0.09433498,0,0.3,0,0,0.06005458,0
6.38225E+17,5.583711,38.52728,4.202508,-5.853402,17.26126,2.643037,51.14867,-0.07013461,-13.16786,62.63083,-8.008322,19.85565,0,0,0,11.10128,-26.57945,-54.79796,80.19228,-106.657,-103.7554,0.001067912,-0.1257102,0.09433498,0,0.3,0,0,0.06033462,0
6.38225E+17,4.994712,38.52728,4.459328,-2.557369,17.18801,3.009263,51.14867,-0.07013461,-13.16786,62.63083,-8.008322,19.85565,0,0,0,9.985295,-26.53432,-54.09609,80.19228,-106.657,-103.7554,0.001067912,-0.1257102,0.09433498,0,0.3,0,0,0.06051181,0
6.38225E+17,4.287913,38.52728,4.646106,-1.898163,16.96828,3.082508,51.14867,-0.07013461,-13.16786,62.63083,-8.008322,19.85565,0,0,0,8.607539,-26.49981,-53.54949,80.19228,-106.657,-103.7554,0.001067912,-0.1257102,0.09433498,0,0.3,0,0,0.06055108,0
6.38225E+17,1.743437,38.52728,5.136398,-1.971408,16.45556,3.228999,51.14867,-0.07013461,-13.16786,62.70407,-7.935077,19.85565,0,0,0,3.537087,-26.40252,-52.14412,80.19228,-106.657,-103.7554,0.001067912,-0.1257102,0.09433498,0,0.3,0,0,0.06052509,0
6.38225E+17,-2.497356,38.48052,6.046942,-4.534989,15.8696,3.302244,51.14867,-0.07013461,-13.16786,62.70407,-7.935077,19.85565,0,0,0,-5.160668,-26.28119,-50.02596,80.19228,-106.657,-103.7554,0.001067912,-0.1257102,0.09433498,0,0.3,0,0,0.06031438,0
6.38225E+17,-5.065392,38.38701,6.840749,-6.80559,15.50338,3.375489,51.14867,-0.07013461,-13.16786,62.70407,-8.008322,19.85565,0,0,0,-10.63111,-26.24433,-48.41261,80.19228,-106.657,-103.7554,0.001067912,-0.1257102,0.09433498,0,0.3,0,0,0.06012123,0
6.38225E+17,-9.753823,38.12985,8.801919,-12.73845,14.62444,4.034696,51.14867,-0.07013461,-13.16786,62.70407,-8.008322,19.78241,0,0,0,-21.22773,-26.09318,-44.86126,80.19228,-106.657,-103.7554,0.001067912,-0.1257102,0.09433498,0,0.3,0,0,0.0595261,0
6.38225E+17,-13.90038,37.52202,11.08995,-19.55025,13.52576,5.206618,51.14867,-0.07013461,-13.16786,62.63083,-8.008322,19.85565,0,0,0,-31.56976,-26.2909,-40.7861,80.19228,-106.657,-103.7554,0.001067912,-0.1257102,0.09433498,0,0.3,0,0,0.0586478,0
6.38225E+17,-15.59669,37.05445,12.16393,-23.06602,13.01304,5.79258,51.14867,-0.07013461,-13.16786,62.70407,-8.008322,19.78241,0,0,0,-36.16757,-26.65292,-38.78346,80.19228,-106.657,-103.7554,0.001067912,-0.1257102,0.09433498,0,0.3,0,0,0.05810757,0
6.38225E+17,-18.23541,35.90892,13.75154,-29.73133,12.20734,6.818012,51.14867,-0.07013461,-13.16786,62.70407,-7.935077,19.85565,0,0,0,-43.717,-27.96804,-35.66041,80.19228,-106.657,-103.7554,0.001067912,-0.1257102,0.09433498,0,0.3,0,0,0.05685226,0
6.38225E+17,-19.76681,35.11406,14.70878,-35.59094,11.69463,7.257483,51.14867,-0.07013461,-13.16786,62.63083,-7.935077,19.85565,0,0,0,-48.34122,-28.92625,-33.83264,80.19228,-106.657,-103.7554,0.001067912,-0.1257102,0.09433498,0,0.3,0,0,0.05541731,0
6.38225E+17,-19.90817,35.46473,15.38585,-39.91241,11.10867,7.477218,51.14867,-0.07013461,-13.16786,62.63083,-8.008322,19.85565,0,0,0,-49.03058,-27.85096,-32.96481,80.19228,-106.657,-103.7554,0.001067912,-0.1257102,0.09433498,0,0.3,0,0,0.0538948,0
6.38225E+17,-19.62545,36.07257,15.71271,-41.15757,10.74244,7.550464,51.14867,-0.07013461,-13.16786,62.70407,-7.935077,19.85565,0,0,0,-48.33038,-26.4992,-32.81306,80.19228,-106.657,-103.7554,0.001067912,-0.1257102,0.09433498,0,0.3,0,0,0.05311923,0
6.38225E+17,-18.56525,38.22336,16.57656,-42.10976,9.350782,7.623709,51.14867,-0.07013461,-13.16786,62.70407,-8.008322,19.85565,0,0,0,-45.46677,-21.95041,-32.97667,80.19228,-106.657,-103.7554,0.001067912,-0.1257102,0.09433498,0,0.3,0,0,0.05156353,0
6.38225E+17,-17.31657,41.21577,17.884,-41.59705,7.153428,7.696954,51.14867,-0.07013461,-13.16786,62.63083,-7.935077,19.85565,0,0,0,-42.04646,-15.69269,-33.49176,80.19228,-106.657,-103.7554,0.001067912,-0.1257102,0.09433498,0,0.3,0,0,0.05000465,0
6.38225E+17,-16.72757,42.89901,18.67781,-41.08433,5.835015,7.623709,51.14867,-0.07013461,-13.16786,62.70407,-8.008322,19.85565,0,0,0,-40.40754,-12.20461,-33.89977,80.19228,-106.657,-103.7554,0.001067912,-0.1257102,0.09433498,0,0.3,0,0,0.0492183,0
6.38225E+17,-15.54957,46.40574,20.21873,-40.20539,2.685472,6.818012,51.14867,-0.07013461,-13.16786,62.70407,-7.935077,19.85565,0,0,0,-37.004,-5.205465,-35.3648,80.19228,-106.657,-103.7554,0.001067912,-0.1257102,0.09433498,0,0.3,0,0,0.04761894,0
6.38225E+17,-14.5365,50.28652,21.96978,-39.17995,-1.269767,5.133373,51.14867,-0.07013461,-13.16786,62.70407,-8.008322,19.85565,0,0,0,-33.90774,2.26308,-37.58219,80.19228,-106.657,-103.7554,0.001067912,-0.1257102,0.09433498,0,0.3,0,0,0.04597693,0
6.38225E+17,-14.23022,54.12054,23.48735,-38.52075,-6.103948,3.595225,51.14867,-0.07013461,-13.16786,62.70407,-8.008322,19.85565,0,0,0,-32.27604,9.095379,-41.07862,80.19228,-106.657,-103.7554,0.001067912,-0.1257102,0.09433498,0,0.3,0,0,0.04427854,0
6.38225E+17,-14.23022,55.38297,23.58074,-38.4475,-8.521038,2.862773,51.14867,-0.07013461,-13.16786,62.70407,-7.935077,19.85565,0,0,0,-31.7352,10.8778,-43.21127,80.19228,-106.657,-103.7554,0.001067912,-0.1257102,0.09433498,0,0.3,0,0,0.04252861,0
6.38225E+17,-14.23022,55.54661,23.13714,-38.37426,-9.692961,2.423302,51.14867,-0.07013461,-13.16786,62.63083,-7.935077,19.85565,0,0,0,-31.42508,10.68438,-44.43412,80.19228,-106.657,-103.7554,0.001067912,-0.1257102,0.09433498,0,0.3,0,0,0.04165407,0
6.38225E+17,-14.23022,54.82188,21.43279,-37.93478,-10.49866,1.764095,51.14867,-0.07013461,-13.16786,62.70407,-8.008322,19.85565,0,0,0,-30.86326,8.217199,-46.6495,80.19228,-106.657,-103.7554,0.001067912,-0.1257102,0.09433498,0,0.3,0,0,0.03995152,0
6.38225E+17,-14.23022,52.29704,18.51438,-36.9826,-9.473226,1.471115,51.14867,-0.07013461,-13.16786,62.70407,-7.935077,19.85565,0,0,0,-30.45616,2.407111,-48.25477,80.19228,-106.657,-103.7554,0.001067912,-0.1257102,0.09433498,0,0.3,0,0,0.03836401,0
6.38225E+17,-14.23022,48.1591,14.82551,-35.66418,-6.470173,1.471115,51.14867,-0.07013461,-13.16786,62.63083,-7.935077,19.85565,0,0,0,-30.25392,-6.214968,-49.05228,80.19228,-106.657,-103.7554,0.001067912,-0.1257102,0.09433498,0,0.3,0,0,0.03694776,0
6.38225E+17,-14.23022,45.61087,12.91104,-35.07822,-4.346064,1.54436,51.14867,-0.07013461,-13.16786,62.70407,-7.935077,19.78241,0,0,0,-30.25473,-11.33603,-49.04906,80.19228,-106.657,-103.7554,0.001067912,-0.1257102,0.09433498,0,0.3,0,0,0.03631415,0
6.38225E+17,-14.23022,39.7897,8.918655,-34.05279,1.074079,1.54436,51.14867,-0.07013461,-13.16786,62.70407,-8.008322,19.85565,0,0,0,-30.26997,-23.04751,-48.98896,80.19228,-106.657,-103.7554,0.001067912,-0.1257102,0.09433498,0,0.3,0,0,0.03519401,0
6.38225E+17,-14.23022,33.29056,5.183093,-32.73438,7.446409,1.69085,51.14867,-0.07013461,-13.16786,62.70407,-7.935077,19.85565,0,0,0,-30.36195,-36.26091,-48.62627,80.19228,-106.657,-103.7554,0.001067912,-0.1257102,0.09433498,0,0.3,0,0,0.03426247,0
6.38225E+17,-14.23022,28.59154,3.385354,-31.85544,12.50033,1.837341,51.14867,-0.07013461,-13.16786,62.70407,-7.935077,19.85565,0,0,0,-30.71821,-45.95102,-47.22145,80.19228,-106.657,-103.7554,0.001067912,-0.1257102,0.09433498,0,0.3,0,0,0.03386055,0
6.38225E+17,-14.23022,24.36009,2.334727,-31.19623,17.55424,2.130321,51.14867,-0.07013461,-13.16786,62.70407,-8.008322,19.85565,0,0,0,-31.19692,-54.88644,-45.33379,80.19228,-106.657,-103.7554,0.001067912,-0.1257102,0.09433498,0,0.3,0,0,0.03314689,0
6.38225E+17,-14.23022,20.03512,1.681003,-30.83001,23.41385,2.276812,51.14867,-0.07013461,-13.16786,62.63083,-8.008322,19.85565,0,0,0,-31.75776,-64.25742,-43.12231,80.19228,-106.657,-103.7554,0.001067912,-0.1257102,0.09433498,0,0.3,0,0,0.03245878,0
6.38225E+17,-14.23022,18.74932,1.634309,-30.61027,25.68446,2.276812,51.14867,-0.07013461,-13.16786,62.70407,-8.008322,19.85565,0,0,0,-31.9753,-67.08331,-42.26448,80.19228,-106.657,-103.7554,0.001067912,-0.1257102,0.09433498,0,0.3,0,0,0.03211557,0
6.38225E+17,-14.20666,18.9831,2.451463,-30.02431,29.34671,2.276812,51.14867,-0.07013461,-13.16786,62.63083,-7.935077,19.85565,0,0,0,-32.34672,-66.50063,-40.57942,80.19228,-106.657,-103.7554,0.001067912,-0.1257102,0.09433498,0,0.3,0,0,0.03104538,0
6.38225E+17,-14.20666,20.0585,2.941756,-29.80457,29.27347,2.350057,51.14867,-0.07013461,-13.16786,62.70407,-7.935077,19.85565,0,0,0,-32.42121,-64.08797,-40.28518,80.19228,-106.657,-103.7554,0.001067912,-0.1257102,0.09433498,0,0.3,0,0,0.03066763,0
6.38225E+17,-14.13598,23.84577,4.552717,-29.21861,27.51558,2.569792,51.14867,-0.07013461,-13.16786,62.70407,-7.935077,19.85565,0,0,0,-32.3723,-55.66904,-39.81214,80.19228,-106.657,-103.7554,0.001067912,-0.1257102,0.09433498,0,0.3,0,0,0.0298826,0
6.38225E+17,-14.11242,28.91884,6.934138,-28.63265,24.14631,3.009263,51.14867,-0.07013461,-13.16786,62.70407,-7.935077,19.85565,0,0,0,-32.38514,-44.54054,-39.53753,80.19228,-106.657,-103.7554,0.001067912,-0.1257102,0.09433498,0,0.3,0,0,0.02904455,0
6.38225E+17,-14.11242,31.81774,8.428363,-28.41291,21.94895,3.448734,51.14867,-0.07013461,-13.16786,62.70407,-8.008322,19.78241,0,0,0,-32.39386,-38.25518,-39.50282,80.19228,-106.657,-103.7554,0.001067912,-0.1257102,0.09433498,0,0.3,0,0,0.02859941,0
6.38225E+17,-14.11242,37.68567,11.72033,-28.11993,16.89503,4.474167,51.14867,-0.07013461,-13.16786,62.70407,-8.008322,19.85565,0,0,0,-32.33562,-25.69903,-39.73445,80.19228,-106.657,-103.7554,0.001067912,-0.1257102,0.09433498,0,0.3,0,0,0.02764107,0
6.38225E+17,-14.11242,43.38995,15.31581,-28.11993,11.47489,5.719335,51.14867,-0.07013461,-13.16786,62.70407,-8.008322,19.85565,0,0,0,-32.21608,-13.6579,-40.20996,80.19228,-106.657,-103.7554,0.001067912,-0.1257102,0.09433498,0,0.3,0,0,0.02658136,0
6.38225E+17,-14.11242,45.93817,16.97346,-28.11993,8.838067,6.525032,51.14867,-0.07013461,-13.16786,62.63083,-8.008322,19.85565,0,0,0,-32.10321,-8.367342,-40.6589,80.19228,-106.657,-103.7554,0.001067912,-0.1257102,0.09433498,0,0.3,0,0,0.0260059,0
6.38225E+17,-14.23022,50.91772,20.33547,-28.41291,3.564415,8.209671,51.14867,-0.07013461,-13.16786,62.70407,-8.008322,19.78241,0,0,0,-32.05717,1.822976,-41.94164,80.19228,-106.657,-103.7554,0.001067912,-0.1257102,0.09433498,0,0.3,0,0,0.02478383,0
6.38225E+17,-14.46582,55.9908,23.76752,-29.21861,-1.782483,9.747819,51.14867,-0.07013461,-13.16786,62.70407,-8.008322,19.85565,0,0,0,-32.05706,11.84982,-44.08874,80.19228,-106.657,-103.7554,0.001067912,-0.1257102,0.09433498,0,0.3,0,0,0.02346895,0
6.38225E+17,-14.51294,59.82482,26.52249,-30.09755,-5.591231,10.99299,51.14867,-0.07013461,-13.16786,62.70407,-8.008322,19.85565,0,0,0,-31.71954,19.31396,-45.81377,80.19228,-106.657,-103.7554,0.001067912,-0.1257102,0.09433498,0,0.3,0,0,0.02206433,0
6.38225E+17,-14.60718,61.78859,27.94668,-30.53703,-7.422361,11.79868,51.14867,-0.07013461,-13.16786,62.63083,-8.008322,19.85565,0,0,0,-31.6581,23.05999,-46.87504,80.19228,-106.657,-103.7554,0.001067912,-0.1257102,0.09433498,0,0.3,0,0,0.02133494,0
6.38225E+17,-14.98414,65.73951,30.86509,-31.70894,-11.01137,13.33683,51.14867,-0.07013461,-13.16786,62.70407,-8.008322,19.85565,0,0,0,-31.85423,30.45877,-49.33659,80.19228,-106.657,-103.7554,0.001067912,-0.1257102,0.09433498,0,0.3,0,0,0.01978928,0
6.38225E+17,-15.36109,69.08259,33.59671,-33.10061,-14.08767,15.09472,51.14867,-0.07013461,-13.16786,62.70407,-8.008322,19.85565,0,0,0,-32.15831,36.83743,-51.2896,80.19228,-106.657,-103.7554,0.001067912,-0.1257102,0.09433498,0,0.3,0,0,0.01817486,0
6.38225E+17,-15.64381,70.76582,35.09094,-34.12604,-15.69907,16.19339,51.14867,-0.07013461,-13.16786,62.70407,-8.008322,19.85565,0,0,0,-32.51763,40.14402,-52.22785,80.19228,-106.657,-103.7554,0.001067912,-0.1257102,0.09433498,0,0.3,0,0,0.01733772,0
6.38225E+17,-15.95009,73.87512,37.70583,-36.54313,-18.48238,18.09777,51.14867,-0.07013461,-13.16786,62.63083,-8.008322,19.78241,0,0,0,-32.58947,45.95248,-54.32227,80.19228,-106.657,-103.7554,0.001067912,-0.1257102,0.09433498,0,0.3,0,0,0.01560895,0
6.38225E+17,-15.97365,76.61037,39.52692,-38.88697,-20.97272,19.56267,51.14867,-0.07013461,-13.16786,62.63083,-8.008322,19.85565,0,0,0,-31.85371,50.21898,-57.06981,80.19228,-106.657,-103.7554,0.001067912,-0.1257102,0.09433498,0,0.3,0,0,0.01382875,0
6.38225E+17,-15.97365,77.61563,39.94717,-39.83916,-21.99815,20.00214,51.14867,-0.07013461,-13.16786,62.63083,-8.008322,19.85565,0,0,0,-31.43306,51.36604,-58.53934,80.19228,-106.657,-103.7554,0.001067912,-0.1257102,0.09433498,0,0.3,0,0,0.01293847,0
6.38225E+17,-15.83229,79.08846,39.7137,-40.86459,-23.75603,20.44161,51.14867,-0.07013461,-13.16786,62.63083,-8.008322,19.85565,0,0,0,-30.13228,51.71005,-62.09339,80.19228,-106.657,-103.7554,0.001067912,-0.1257102,0.09433498,0,0.3,0,0,0.01120137,0
6.38225E+17,-15.80873,79.01833,38.4296,-40.57161,-24.04902,19.63592,51.14867,-0.07013461,-13.16786,62.63083,-8.008322,19.85565,0,0,0,-29.50017,49.7954,-64.15923,80.19228,-106.657,-103.7554,0.001067912,-0.1257102,0.09433498,0,0.3,0,0,0.009588437,0
6.38225E+17,-15.85585,77.80266,36.32835,-39.47293,-23.17007,17.73154,51.14867,-0.07013461,-13.16786,62.70407,-8.008322,19.78241,0,0,0,-29.28139,46.25825,-65.25545,80.19228,-106.657,-103.7554,0.001067912,-0.1257102,0.09433498,0,0.3,0,0,0.008146306,0
6.38225E+17,-16.20925,76.72726,35.09094,-38.88697,-22.36438,16.70611,51.14867,-0.07013461,-13.16786,62.70407,-8.008322,19.85565,0,0,0,-29.94543,44.0256,-65.33926,80.19228,-106.657,-103.7554,0.001067912,-0.1257102,0.09433498,0,0.3,0,0,0.007493083,0
6.38225E+17,-17.83489,73.40756,32.0558,-38.52075,-19.28808,15.3877,51.14867,-0.07013461,-13.16786,62.70407,-8.008322,19.78241,0,0,0,-33.33942,38.12899,-64.7267,80.19228,-106.657,-103.7554,0.001067912,-0.1257102,0.09433498,0,0.3,0,0,0.006299289,0
6.38225E+17,-20.23801,69.62029,29.55764,-39.76591,-14.52714,15.02147,51.14867,-0.07013461,-13.16786,62.70407,-8.008322,19.85565,0,0,0,-38.81895,32.35719,-63.05877,80.19228,-106.657,-103.7554,0.001067912,-0.1257102,0.09433498,0,0.3,0,0,0.005241863,0
6.38225E+17,-21.91076,66.67464,27.54977,-42.10976,-9.399981,15.24121,51.14867,-0.07013461,-13.16786,62.70407,-8.008322,19.85565,0,0,0,-42.71852,27.5721,-62.14201,80.19228,-106.657,-103.7554,0.001067912,-0.1257102,0.09433498,0,0.3,0,0,0.004251253,0
6.38225E+17,-22.14636,65.48235,26.4758,-43.06195,-6.909645,15.53419,51.14867,-0.07013461,-13.16786,62.70407,-8.008322,19.85565,0,0,0,-43.27162,25.31167,-62.03173,80.19228,-106.657,-103.7554,0.001067912,-0.1257102,0.09433498,0,0.3,0,0,0.003784796,0
6.38225E+17,-21.93432,64.10303,24.72475,-43.72115,-2.661425,15.75392,51.14867,-0.07013461,-13.16786,62.63083,-8.008322,19.85565,0,0,0,-42.58997,22.18363,-62.58724,80.19228,-106.657,-103.7554,0.001067912,-0.1257102,0.09433498,0,0.3,0,0,0.002950052,0
6.38225E+17,-20.66209,64.00952,23.95429,-43.06195,0.268382,15.82717,51.14867,-0.07013461,-13.16786,62.63083,-8.008322,19.85565,0,0,0,-39.7238,21.34938,-63.01326,80.19228,-106.657,-103.7554,0.001067912,-0.1257102,0.09433498,0,0.3,0,0,0.002260114,0
6.38225E+17,-19.67257,64.38357,23.86091,-42.3295,1.147324,15.68068,51.14867,-0.07013461,-13.16786,62.63083,-8.008322,19.85565,0,0,0,-37.56802,21.64024,-63.26808,80.19228,-106.657,-103.7554,0.001067912,-0.1257102,0.09433498,0,0.3,0,0,0.001967081,0
6.38225E+17,-17.31657,65.8564,24.25781,-39.76591,1.66004,15.16796,51.14867,-0.07013461,-13.16786,62.63083,-8.008322,19.78241,0,0,0,-32.54201,23.45896,-63.97597,80.19228,-106.657,-103.7554,0.001067912,-0.1257102,0.09433498,0,0.3,0,0,0.001470636,0
6.38225E+17,-14.4187,68.6384,26.10224,-35.88392,0.4148723,14.50875,51.14867,-0.07013461,-13.16786,62.70407,-7.935077,19.85565,0,0,0,-26.70431,27.7892,-64.4843,80.19228,-106.657,-103.7554,0.001067912,-0.1257102,0.09433498,0,0.3,0,0,0.001064381,0
6.38225E+17,-13.09934,70.55542,27.66651,-33.75981,-0.9767859,14.28902,51.14867,-0.07013461,-13.16786,62.70407,-7.935077,19.85565,0,0,0,-24.09393,30.99079,-64.80711,80.19228,-106.657,-103.7554,0.001067912,-0.1257102,0.09433498,0,0.3,0,0,0.000867582,0
6.38225E+17,-11.30878,74.64661,31.89237,-29.51159,-5.517986,13.92279,51.14867,-0.07013461,-13.16786,62.63083,-7.935077,19.85565,0,0,0,-20.73906,38.72112,-64.64387,80.19228,-106.657,-103.7554,0.001067912,-0.1257102,0.09433498,0,0.3,0,0,0.000407623,0
6.38225E+17,-11.30878,77.28834,35.65128,-26.87477,-11.52409,14.06928,51.14867,-0.07013461,-13.16786,62.63083,-8.008322,19.85565,0,0,0,-20.99527,45.07409,-63.36266,80.19228,-106.657,-103.7554,0.001067912,-0.1257102,0.09433498,0,0.3,0,0,0,0
6.38225E+17,-12.98154,77.75591,37.1455,-26.14231,-16.57801,14.43551,51.14867,-0.07013461,-13.16786,62.70407,-8.008322,19.85565,0,0,0,-24.44112,47.37278,-62.32804,80.19228,-106.657,-103.7554,0.001067912,-0.1257102,0.09433498,0,0.3,0,0,0,0
6.38225E+17,-14.74854,77.47537,37.37897,-26.58179,-18.11616,15.16796,51.14867,-0.07013461,-13.16786,62.70407,-8.008322,19.85565,0,0,0,-27.97113,47.56174,-62.09716,80.19228,-106.657,-103.7554,0.001067912,-0.1257102,0.09433498,0,0.3,0,0,0,0
6.38225E+17,-19.41341,76.16618,37.47236,-29.51159,-19.28808,17.95128,51.14867,-0.07013461,-13.16786,62.70407,-8.008322,19.85565,0,0,0,-37.56319,46.99915,-61.76316,80.19228,-106.657,-103.7554,0.001067912,-0.1257102,0.09433498,0,0.3,0,0,0,0
6.38225E+17,-25.0678,73.3608,37.47236,-35.44445,-18.11616,22.1995,51.14867,-0.07013461,-13.16786,62.63083,-8.008322,19.85565,0,0,0,-50.55103,45.28341,-60.27702,80.19228,-106.657,-103.7554,0.001067912,-0.1257102,0.09433498,0,0.3,0,0,0,0
6.38225E+17,-27.306,71.91135,37.47236,-38.74048,-17.09072,24.4701,51.14867,-0.07013461,-13.16786,62.70407,-8.008322,19.85565,0,0,0,-56.21012,44.27666,-59.47283,80.19228,-106.657,-103.7554,0.001067912,-0.1257102,0.09433498,0,0.3,0,0,0,0
6.38225E+17,-30.39235,69.5034,37.5424,-45.62553,-14.4539,28.71832,51.14867,-0.07013461,-13.16786,62.70407,-8.008322,19.85565,0,0,0,-64.73196,42.52444,-57.98329,80.19228,-106.657,-103.7554,0.001067912,-0.1257102,0.09433498,0,0.3,0,0,0,0
6.38225E+17,-31.61747,68.59165,38.14943,-50.23997,-12.47628,31.72137,51.14867,-0.07013461,-13.16786,62.70407,-8.008322,19.85565,0,0,0,-68.70062,42.63244,-56.75497,80.19228,-106.657,-103.7554,0.001067912,-0.1257102,0.09433498,0,0.3,0,0,0,0
6.38225E+17,-32.04155,68.45138,38.47629,-52.14435,-11.89032,32.89329,51.14867,-0.07013461,-13.16786,62.70407,-8.008322,19.85565,0,0,0,-70.00256,42.98453,-56.50303,80.19228,-106.657,-103.7554,0.001067912,-0.1257102,0.09433498,0,0.3,0,0,0,0
6.38225E+17,-32.86615,68.38125,38.68642,-54.92767,-11.52409,34.3582,51.14867,-0.07013461,-13.16786,62.70407,-8.008322,19.85565,0,0,0,-71.89479,43.22947,-57.07346,80.19228,-106.657,-103.7554,0.001067912,-0.1257102,0.09433498,0,0.3,0,0,0,0
