zeyangz2/DNN_classification_different_people_hand/data/Frank_right_9.csv
Timestamp,Therapist joint angle 0,Therapist joint angle 1,Therapist joint angle 2,Therapist joint angle 3,Therapist joint angle 4,Therapist joint angle 5,Patient joint angle 0,Patient joint angle 1,Patient joint angle 2,Patient joint angle 3,Patient joint angle 4,Patient joint angle 5,Virtual joint angle 0,Virtual joint angle 1,Virtual joint angle 2,Therapist position x,Therapist position y,Therapist position z,Patient position x,Patient position y,Patient position z,Virtual position x,Virtual position y,Virtual position z,Assistive Force, Obstacle Force Magnitude, Therapist Constant Force, Patient Constant Force, Recovery Factor, Assistance Level,label
6.38223E+17,0,0,0,0,0,0,0,0,0,0,0,0,0,0,0,0,0,0,0,0,0,0,0,0,0,0.3,0,0,0,0,1
6.38223E+17,47.59112,-0.9818845,-1.914476,-144.2868,-6.396928,-52.21759,-17.10453,-0.4441859,-4.249202,-61.81271,-6.98289,34.57793,0,0,0,95.15533,-112.2107,-81.4342,-36.31316,-110.6672,-50.34543,0.001067912,-0.1257102,0.09433498,0,0.3,0,0,0,0,
6.38223E+17,47.59112,-0.9818845,-1.914476,-144.2868,-6.396928,-52.21759,-17.10453,-0.4441859,-4.249202,-61.88596,-6.98289,34.57793,0,0,0,95.15533,-112.2107,-81.4342,-36.31316,-110.6672,-50.34543,0.001067912,-0.1257102,0.09433498,0,0.3,0,0,0,0,
6.38223E+17,47.59112,-0.9818845,-1.914476,-144.2868,-6.396928,-52.21759,-17.10453,-0.4441859,-4.249202,-61.88596,-6.98289,34.57793,0,0,0,95.15533,-112.2107,-81.4342,-36.31316,-110.6672,-50.34543,0.001067912,-0.1257102,0.09433498,0,0.3,0,0,0,0,
6.38223E+17,47.59112,-0.9818845,-1.914476,-144.2135,-6.396928,-52.21759,-17.10453,-0.4441859,-4.249202,-61.88596,-6.98289,34.57793,0,0,0,95.15533,-112.2107,-81.4342,-36.31316,-110.6672,-50.34543,0.001067912,-0.1257102,0.09433498,0,0.3,0,0,0,0,
6.38223E+17,47.59112,-0.9818845,-1.914476,-144.2868,-6.396928,-52.29084,-17.10453,-0.4441859,-4.249202,-61.88596,-6.98289,34.57793,0,0,0,95.15533,-112.2107,-81.4342,-36.31316,-110.6672,-50.34543,0.001067912,-0.1257102,0.09433498,0,0.3,0,0,0,0,
6.38223E+17,47.59112,-0.9818845,-1.914476,-144.2868,-6.396928,-52.21759,-17.10453,-0.4441859,-4.249202,-61.81271,-6.98289,34.57793,0,0,0,95.15533,-112.2107,-81.4342,-36.31316,-110.6672,-50.34543,0.001067912,-0.1257102,0.09433498,0,0.3,0,0,0,0,
6.38223E+17,47.59112,-0.9818845,-1.914476,-144.2868,-6.396928,-52.21759,-17.10453,-0.4441859,-4.249202,-61.88596,-6.98289,34.57793,0,0,0,95.15533,-112.2107,-81.4342,-36.31316,-110.6672,-50.34543,0.001067912,-0.1257102,0.09433498,0,0.3,0,0,0,0,
6.38223E+17,47.59112,-0.9818845,-1.914476,-144.2868,-6.396928,-52.21759,-17.10453,-0.4441859,-4.249202,-61.88596,-6.98289,34.57793,0,0,0,95.15533,-112.2107,-81.4342,-36.31316,-110.6672,-50.34543,0.001067912,-0.1257102,0.09433498,0,0.3,0,0,0,0,
6.38223E+17,47.59112,-0.9818845,-1.914476,-144.2868,-6.396928,-52.21759,-17.10453,-0.4441859,-4.249202,-61.88596,-6.98289,34.57793,0,0,0,95.15533,-112.2107,-81.4342,-36.31316,-110.6672,-50.34543,0.001067912,-0.1257102,0.09433498,0,0.3,0,0,0,0,
6.38223E+17,47.59112,-0.9818845,-1.914476,-144.2868,-6.396928,-52.21759,-17.10453,-0.4441859,-4.249202,-61.88596,-6.98289,34.57793,0,0,0,95.15533,-112.2107,-81.4342,-36.31316,-110.6672,-50.34543,0.001067912,-0.1257102,0.09433498,0,0.3,0,0,1.13E-07,0,
6.38223E+17,47.59112,-0.9818845,-1.914476,-144.2868,-6.396928,-52.21759,-17.10453,-0.4441859,-4.249202,-61.88596,-6.98289,34.57793,0,0,0,95.15533,-112.2107,-81.4342,-36.31316,-110.6672,-50.34543,0.001067912,-0.1257102,0.09433498,0,0.3,0,0,1.13E-07,0,
6.38223E+17,47.59112,-0.9818845,-1.914476,-144.2868,-6.396928,-52.21759,-17.10453,-0.4441859,-4.249202,-61.88596,-6.98289,34.57793,0,0,0,95.15533,-112.2107,-81.4342,-36.31316,-110.6672,-50.34543,0.001067912,-0.1257102,0.09433498,0,0.3,0,0,2.26E-07,0,
6.38223E+17,47.59112,-0.9818845,-1.914476,-144.2135,-6.396928,-52.21759,-17.10453,-0.4441859,-4.249202,-61.88596,-6.98289,34.57793,0,0,0,95.15533,-112.2107,-81.4342,-36.31316,-110.6672,-50.34543,0.001067912,-0.1257102,0.09433498,0,0.3,0,0,2.26E-07,0,
6.38223E+17,47.59112,-0.9818845,-1.914476,-144.2868,-6.396928,-52.29084,-17.10453,-0.4441859,-4.249202,-61.88596,-6.98289,34.57793,0,0,0,95.15533,-112.2107,-81.4342,-36.31316,-110.6672,-50.34543,0.001067912,-0.1257102,0.09433498,0,0.3,0,0,3.39E-07,0,
6.38223E+17,47.59112,-0.9818845,-1.914476,-144.2868,-6.396928,-52.21759,-17.10453,-0.4441859,-4.249202,-61.88596,-6.98289,34.57793,0,0,0,95.15533,-112.2107,-81.4342,-36.31316,-110.6672,-50.34543,0.001067912,-0.1257102,0.09433498,0,0.3,0,0,3.39E-07,0,
6.38223E+17,47.59112,-0.9818845,-1.914476,-144.2868,-6.396928,-52.21759,-17.10453,-0.4441859,-4.249202,-61.88596,-6.98289,34.57793,0,0,0,95.15533,-112.2107,-81.4342,-36.31316,-110.6672,-50.34543,0.001067912,-0.1257102,0.09433498,0,0.3,0,0,3.39E-07,0,
6.38223E+17,47.59112,-0.9818845,-1.914476,-144.2868,-6.396928,-52.21759,-17.10453,-0.4441859,-4.249202,-61.88596,-6.98289,34.57793,0,0,0,95.15533,-112.2107,-81.4342,-36.31316,-110.6672,-50.34543,0.001067912,-0.1257102,0.09433498,0,0.3,0,0,4.52E-07,0,
6.38223E+17,47.59112,-0.9818845,-1.914476,-144.2868,-6.396928,-52.21759,-17.10453,-0.4441859,-4.249202,-61.88596,-6.98289,34.57793,0,0,0,95.15533,-112.2107,-81.4342,-36.31316,-110.6672,-50.34543,0.001067912,-0.1257102,0.09433498,0,0.3,0,0,4.52E-07,0,
6.38223E+17,47.59112,-0.9818845,-1.914476,-144.2868,-6.396928,-52.21759,-17.10453,-0.4441859,-4.249202,-61.88596,-6.98289,34.57793,0,0,0,95.15533,-112.2107,-81.4342,-36.31316,-110.6672,-50.34543,0.001067912,-0.1257102,0.09433498,0,0.3,0,0,4.52E-07,0,
6.38223E+17,47.59112,-0.9818845,-1.914476,-144.2868,-6.470173,-52.21759,-17.10453,-0.4441859,-4.249202,-61.88596,-6.98289,34.57793,0,0,0,95.15533,-112.2107,-81.4342,-36.31316,-110.6672,-50.34543,0.001067912,-0.1257102,0.09433498,0,0.3,0,0,4.52E-07,0,
6.38223E+17,47.59112,-0.9818845,-1.914476,-144.2868,-6.470173,-52.21759,-17.10453,-0.4441859,-4.249202,-61.88596,-6.98289,34.57793,0,0,0,95.15533,-112.2107,-81.4342,-36.31316,-110.6672,-50.34543,0.001067912,-0.1257102,0.09433498,0,0.3,0,0,4.52E-07,0,
6.38223E+17,47.59112,-0.9818845,-1.914476,-144.2868,-6.470173,-52.21759,-17.10453,-0.4441859,-4.249202,-61.88596,-6.98289,34.57793,0,0,0,95.15533,-112.2107,-81.4342,-36.31316,-110.6672,-50.34543,0.001067912,-0.1257102,0.09433498,0,0.3,0,0,5.65E-07,0,
6.38223E+17,47.59112,-0.9818845,-1.914476,-144.2868,-6.470173,-52.21759,-17.10453,-0.4441859,-4.249202,-61.88596,-6.98289,34.57793,0,0,0,95.15533,-112.2107,-81.4342,-36.31316,-110.6672,-50.34543,0.001067912,-0.1257102,0.09433498,0,0.3,0,0,5.65E-07,0,
6.38223E+17,47.59112,-0.9818845,-1.914476,-144.2868,-6.470173,-52.21759,-17.10453,-0.4441859,-4.249202,-61.88596,-6.98289,34.57793,0,0,0,95.15533,-112.2107,-81.4342,-36.31316,-110.6672,-50.34543,0.001067912,-0.1257102,0.09433498,0,0.3,0,0,5.65E-07,0,
6.38223E+17,47.59112,-0.9818845,-1.914476,-144.2135,-6.470173,-52.21759,-17.10453,-0.4441859,-4.249202,-61.88596,-6.98289,34.57793,0,0,0,95.15533,-112.2107,-81.4342,-36.31316,-110.6672,-50.34543,0.001067912,-0.1257102,0.09433498,0,0.3,0,0,5.65E-07,0,
6.38223E+17,47.59112,-0.9818845,-1.914476,-144.2868,-6.470173,-52.21759,-17.10453,-0.4441859,-4.249202,-61.88596,-6.98289,34.57793,0,0,0,95.15533,-112.2107,-81.4342,-36.31316,-110.6672,-50.34543,0.001067912,-0.1257102,0.09433498,0,0.3,0,0,5.65E-07,0,
6.38223E+17,47.59112,-0.9818845,-1.914476,-144.2868,-6.396928,-52.21759,-17.10453,-0.4441859,-4.249202,-61.88596,-6.98289,34.57793,0,0,0,95.15533,-112.2107,-81.4342,-36.31316,-110.6672,-50.34543,0.001067912,-0.1257102,0.09433498,0,0.3,0,0,5.65E-07,0,
6.38223E+17,48.2508,-1.005263,-1.914476,-144.2868,-6.396928,-52.21759,-17.10453,-0.4441859,-4.249202,-61.88596,-6.98289,34.57793,0,0,0,96.14902,-112.2651,-82.53613,-36.31316,-110.6672,-50.34543,0.001067912,-0.1257102,0.09433498,0,0.3,0,0,0,0,
6.38223E+17,49.16964,-1.005263,-1.891129,-144.2868,-6.396928,-52.21759,-17.10453,-0.4441859,-4.249202,-61.88596,-6.98289,34.57793,0,0,0,97.55386,-112.2669,-84.05351,-36.31316,-110.6672,-50.34543,0.001067912,-0.1257102,0.09433498,0,0.3,0,0,0,0,
6.38223E+17,49.45236,-0.9818845,-1.844434,-144.2868,-6.323683,-52.21759,-17.10453,-0.4441859,-4.249202,-61.88596,-6.98289,34.57793,0,0,0,98.05187,-112.216,-84.46468,-36.31316,-110.6672,-50.34543,0.001067912,-0.1257102,0.09433498,0,0.3,0,0,0,0,
6.38223E+17,49.75864,-0.9818845,-1.844434,-144.2868,-6.396928,-52.21759,-17.10453,-0.4441859,-4.249202,-61.88596,-6.98289,34.57793,0,0,0,98.49889,-112.216,-84.99002,-36.31316,-110.6672,-50.34543,0.001067912,-0.1257102,0.09433498,0,0.3,0,0,0,0,
6.38223E+17,50.06492,-0.9818845,-1.844434,-143.8473,-6.396928,-52.21759,-17.10453,-0.4441859,-4.249202,-61.81271,-6.98289,34.57793,0,0,0,98.94308,-112.216,-85.51775,-36.31316,-110.6672,-50.34543,0.001067912,-0.1257102,0.09433498,0,0.3,0,0,0,0,
6.38223E+17,50.1356,-0.9818845,-1.751045,-143.4078,-6.396928,-52.21759,-17.10453,-0.4441859,-4.249202,-61.88596,-6.98289,34.57793,0,0,0,99.21194,-112.2229,-85.50062,-36.31316,-110.6672,-50.34543,0.001067912,-0.1257102,0.09433498,0,0.3,0,0,0,0,
6.38223E+17,50.32408,-0.8883717,-1.167363,-142.5289,-6.396928,-50.09349,-17.10453,-0.4441859,-4.249202,-61.88596,-6.98289,34.57793,0,0,0,100.5319,-112.0398,-84.95815,-36.31316,-110.6672,-50.34543,0.001067912,-0.1257102,0.09433498,0,0.3,0,0,0,0,
6.38223E+17,50.86596,-0.2104038,-0.04669453,-140.6978,-6.323683,-37.27558,-17.10453,-0.4441859,-4.249202,-61.88596,-6.98289,34.57793,0,0,0,103.3508,-110.4896,-84.25706,-36.31316,-110.6672,-50.34543,0.001067912,-0.1257102,0.09433498,0,0.3,0,0,0,0,
6.38223E+17,51.03088,0.5844551,0.8171543,-139.5991,-6.616664,-27.97344,-17.10453,-0.4441859,-4.249202,-61.88596,-6.98289,34.57793,0,0,0,105.1508,-108.6262,-83.29432,-36.31316,-110.6672,-50.34543,0.001067912,-0.1257102,0.09433498,0,0.3,0,0,0,0,
6.38223E+17,51.21936,1.285801,1.587614,-138.4272,-7.056135,-21.67436,-17.10453,-0.4441859,-4.249202,-61.88596,-6.98289,34.57793,0,0,0,106.8068,-106.9565,-82.53448,-36.31316,-110.6672,-50.34543,0.001067912,-0.1257102,0.09433498,0,0.3,0,0,0,0,
6.38223E+17,51.92616,2.571602,3.268617,-134.6184,-8.081567,-13.17792,-17.10453,-0.4441859,-4.249202,-61.88596,-6.98289,34.57793,0,0,0,110.855,-103.7999,-81.51025,-36.31316,-110.6672,-50.34543,0.001067912,-0.1257102,0.09433498,0,0.3,0,0,0,0,
6.38223E+17,52.89211,3.647,5.066357,-130.0772,-9.033754,-8.636719,-17.10453,-0.4441859,-4.249202,-61.88596,-6.98289,34.57793,0,0,0,115.5228,-100.9967,-80.9558,-36.31316,-110.6672,-50.34543,0.001067912,-0.1257102,0.09433498,0,0.3,0,0,0,0,
6.38223E+17,53.81095,4.55875,7.167611,-125.6825,-9.546471,-6.292873,-17.10453,-0.4441859,-4.249202,-61.88596,-6.98289,34.57793,0,0,0,120.7111,-98.35909,-80.03823,-36.31316,-110.6672,-50.34543,0.001067912,-0.1257102,0.09433498,0,0.3,0,0,0,0,
6.38223E+17,54.28215,5.049692,8.218237,-123.6316,-9.766206,-5.560421,-17.10453,-0.4441859,-4.249202,-61.88596,-6.98289,34.57793,0,0,0,123.323,-96.89317,-79.67516,-36.31316,-110.6672,-50.34543,0.001067912,-0.1257102,0.09433498,0,0.3,0,0,0,0,
6.38223E+17,55.17743,6.38225,9.99263,-120.1159,-9.912696,-3.875783,-17.10453,-0.4441859,-4.249202,-61.88596,-6.98289,34.57793,0,0,0,127.7872,-93.15376,-79.46087,-36.31316,-110.6672,-50.34543,0.001067912,-0.1257102,0.09433498,0,0.3,0,0,0,0,
6.38223E+17,55.22455,8.112236,11.32342,-120.3356,-10.20568,-0.57975,-17.10453,-0.4441859,-4.249202,-61.88596,-6.98289,34.50468,0,0,0,129.9433,-88.5869,-78.11963,-36.31316,-110.6672,-50.34543,0.001067912,-0.1257102,0.09433498,0,0.3,0,0,0,0,
6.38223E+17,55.22455,9.094121,12.00049,-121.0681,-10.42541,0.6654179,-17.10453,-0.4441859,-4.249202,-61.88596,-6.98289,34.57793,0,0,0,130.9301,-86.00887,-77.43438,-36.31316,-110.6672,-50.34543,0.001067912,-0.1257102,0.09433498,0,0.3,0,0,0,0,
6.38223E+17,54.94183,11.17478,13.09782,-122.0935,-10.79164,2.130321,-17.10453,-0.4441859,-4.249202,-61.88596,-6.98289,34.57793,0,0,0,131.823,-80.68728,-75.84693,-36.31316,-110.6672,-50.34543,0.001067912,-0.1257102,0.09433498,0,0.3,0,0,0,0,
6.38223E+17,54.32927,12.9749,14.1251,-122.533,-10.86488,2.350057,-17.10453,-0.4441859,-4.249202,-61.88596,-6.98289,34.57793,0,0,0,132.0023,-76.02789,-73.59893,-36.31316,-110.6672,-50.34543,0.001067912,-0.1257102,0.09433498,0,0.3,0,0,0,0,
6.38223E+17,53.74027,14.70489,15.47924,-121.4343,-10.71839,2.276812,-17.10453,-0.4441859,-4.249202,-61.88596,-6.98289,34.57793,0,0,0,132.7016,-71.3134,-71.01449,-36.31316,-110.6672,-50.34543,0.001067912,-0.1257102,0.09433498,0,0.3,0,0,0,0,
6.38223E+17,53.31619,16.52839,16.81003,-120.1891,-10.20568,1.910586,-17.10453,-0.4441859,-4.249202,-61.88596,-6.98289,34.57793,0,0,0,133.4472,-66.36501,-68.94016,-36.31316,-110.6672,-50.34543,0.001067912,-0.1257102,0.09433498,0,0.3,0,0,0,0,
6.38223E+17,53.19839,17.1596,17.25363,-120.0426,-10.05919,1.764095,-17.10453,-0.4441859,-4.249202,-61.88596,-6.98289,34.57793,0,0,0,133.6921,-64.65656,-68.32966,-36.31316,-110.6672,-50.34543,0.001067912,-0.1257102,0.09433498,0,0.3,0,0,0,0,
6.38223E+17,52.82143,18.81945,18.74786,-118.5045,-9.839451,1.617605,-17.10453,-0.4441859,-4.249202,-61.88596,-6.98289,34.57793,0,0,0,134.7157,-59.90775,-66.17458,-36.31316,-110.6672,-50.34543,0.001067912,-0.1257102,0.09433498,0,0.3,0,0,0,0,
6.38223E+17,52.09107,20.40917,20.75572,-113.89,-10.42541,3.595225,-17.10453,-0.4441859,-4.249202,-61.88596,-6.98289,34.50468,0,0,0,135.8924,-54.84348,-62.52664,-36.31316,-110.6672,-50.34543,0.001067912,-0.1257102,0.09433498,0,0.3,0,0,0,0,
6.38223E+17,51.33715,21.90538,23.13714,-107.5909,-11.74383,12.3114,-17.10453,-0.4441859,-4.249202,-61.88596,-6.98289,34.57793,0,0,0,137.5207,-49.52473,-58.32145,-36.31316,-110.6672,-50.34543,0.001067912,-0.1257102,0.09433498,0,0.3,0,0,0,0,
6.38223E+17,51.03088,22.55997,24.32785,-104.5146,-12.62277,18.24426,-17.10453,-0.4441859,-4.249202,-61.88596,-6.98289,34.57793,0,0,0,138.4548,-46.99919,-56.35499,-36.31316,-110.6672,-50.34543,0.001067912,-0.1257102,0.09433498,0,0.3,0,0,0,0,
6.38223E+17,50.51255,24.03279,27.10618,-98.06907,-14.96661,33.25952,-17.10453,-0.4441859,-4.249202,-61.88596,-6.98289,34.57793,0,0,0,140.8855,-41.04528,-52.26484,-36.31316,-110.6672,-50.34543,0.001067912,-0.1257102,0.09433498,0,0.3,0,0,0,0,
6.38223E+17,49.5466,25.62251,29.86115,-90.89104,-18.92185,51.93703,-17.10453,-0.4441859,-4.249202,-61.88596,-6.98289,34.57793,0,0,0,142.0144,-34.62984,-47.25788,-36.31316,-110.6672,-50.34543,0.001067912,-0.1257102,0.09433498,0,0.3,0,0,0,0,
6.38223E+17,49.05184,26.16021,30.84174,-88.25421,-20.97272,60.06725,-17.10453,-0.4441859,-4.249202,-61.88596,-6.98289,34.57793,0,0,0,142.0382,-32.35083,-45.10354,-36.31316,-110.6672,-50.34543,0.001067912,-0.1257102,0.09433498,0,0.3,0,0,0,0,
6.38223E+17,47.7796,27.3525,33.43328,-81.14944,-29.46916,80.20967,-17.10453,-0.4441859,-4.249202,-61.88596,-6.98289,34.57793,0,0,0,142.1236,-26.66483,-39.38796,-36.31316,-110.6672,-50.34543,0.001067912,-0.1257102,0.09433498,0,0.3,0,0,0,0,
6.38223E+17,46.955,27.84344,34.88082,-77.04771,-38.99103,86.94823,-17.10453,-0.4441859,-4.249202,-61.88596,-6.98289,34.57793,0,0,0,141.9034,-23.76072,-35.81441,-36.31316,-110.6672,-50.34543,0.001067912,-0.1257102,0.09433498,0,0.3,0,0,0,0,
6.38223E+17,45.18801,28.38114,35.53454,-73.53194,-52.2484,90.97672,-17.10453,-0.4441859,-4.249202,-61.88596,-6.98289,34.57793,0,0,0,138.2128,-21.77974,-31.04128,-36.31316,-110.6672,-50.34543,0.001067912,-0.1257102,0.09433498,0,0.3,0,0,0,0,
6.38223E+17,44.62257,28.70843,35.83805,-72.5065,-55.54444,92.80784,-17.10453,-0.4441859,-4.249202,-61.81271,-6.98289,34.57793,0,0,0,136.9984,-20.69851,-29.53471,-36.31316,-110.6672,-50.34543,0.001067912,-0.1257102,0.09433498,0,0.3,0,0,0,0,
6.38223E+17,43.09117,29.33965,36.7486,-70.23591,-58.54749,95.15169,-17.10453,-0.4441859,-4.249202,-61.88596,-6.98289,34.57793,0,0,0,133.9196,-18.15955,-25.19621,-36.31316,-110.6672,-50.34543,0.001067912,-0.1257102,0.09433498,0,0.3,0,0,0,0,
6.38223E+17,42.50217,29.55005,37.1455,-69.50346,-58.91372,95.44467,-17.10453,-0.4441859,-4.249202,-61.88596,-6.98289,34.57793,0,0,0,132.777,-17.17787,-23.46031,-36.31316,-110.6672,-50.34543,0.001067912,-0.1257102,0.09433498,0,0.3,0,0,0,0,
6.38223E+17,41.15925,29.90072,38.17278,-67.67233,-60.96458,95.81089,-17.10453,-0.4441859,-4.249202,-61.88596,-7.056135,34.57793,0,0,0,130.3243,-15.00839,-19.26798,-36.31316,-110.6672,-50.34543,0.001067912,-0.1257102,0.09433498,0,0.3,0,0,0,0,
6.38223E+17,40.02837,30.08775,38.80315,-66.28067,-62.1365,95.95738,-17.10453,-0.4441859,-4.249202,-61.88596,-6.98289,34.57793,0,0,0,127.9552,-13.71833,-16.01219,-36.31316,-110.6672,-50.34543,0.001067912,-0.1257102,0.09433498,0,0.3,0,0,0,0,
6.38223E+17,39.34513,30.08775,39.01328,-65.84119,-62.57597,95.88414,-17.10453,-0.4441859,-4.249202,-61.88596,-6.98289,34.57793,0,0,0,126.3708,-13.41117,-14.20292,-36.31316,-110.6672,-50.34543,0.001067912,-0.1257102,0.09433498,0,0.3,0,0,0,0,
6.38223E+17,37.86086,30.08775,39.20006,-65.40173,-62.9422,96.25037,-17.10453,-0.4441859,-4.249202,-61.88596,-6.98289,34.57793,0,0,0,122.5426,-13.13698,-10.71499,-36.31316,-110.6672,-50.34543,0.001067912,-0.1257102,0.09433498,0,0.3,0,0,0,0,
6.38223E+17,36.21166,30.08775,39.17671,-66.35391,-63.16194,97.20255,-17.10453,-0.4441859,-4.249202,-61.88596,-6.98289,34.57793,0,0,0,117.9303,-13.17131,-7.287498,-36.31316,-110.6672,-50.34543,0.001067912,-0.1257102,0.09433498,0,0.3,0,0,0,0,
6.38223E+17,35.33994,30.08775,39.17671,-67.3061,-63.16194,97.78851,-17.10453,-0.4441859,-4.249202,-61.88596,-6.98289,34.57793,0,0,0,115.4663,-13.17131,-5.511975,-36.31316,-110.6672,-50.34543,0.001067912,-0.1257102,0.09433498,0,0.3,0,0,0,0,
6.38223E+17,33.5965,29.94748,39.01328,-69.79643,-63.23518,98.81395,-17.10453,-0.4441859,-4.249202,-61.88596,-6.98289,34.57793,0,0,0,110.3856,-13.69385,-2.184263,-36.31316,-110.6672,-50.34543,0.001067912,-0.1257102,0.09433498,0,0.3,0,0,0,0,
6.38223E+17,31.82951,29.62018,38.66307,-73.82492,-63.30842,99.54639,-17.10453,-0.4441859,-4.249202,-61.81271,-6.98289,34.57793,0,0,0,105.0742,-14.86612,0.9225418,-36.31316,-110.6672,-50.34543,0.001067912,-0.1257102,0.09433498,0,0.3,0,0,0,0,
6.38223E+17,29.92115,29.33965,38.28952,-78.73235,-63.30842,101.3043,-17.10453,-0.4441859,-4.249202,-61.88596,-6.98289,34.50468,0,0,0,99.19971,-15.97545,4.016303,-36.31316,-110.6672,-50.34543,0.001067912,-0.1257102,0.09433498,0,0.3,0,0,0,0,
6.38223E+17,28.86095,29.19938,37.89261,-81.36917,-63.30842,102.7692,-17.10453,-0.4441859,-4.249202,-61.88596,-6.98289,34.57793,0,0,0,95.71957,-16.83011,5.325345,-36.31316,-110.6672,-50.34543,0.001067912,-0.1257102,0.09433498,0,0.3,0,0,0,0,
6.38223E+17,26.34004,28.70843,36.81864,-88.69369,-63.30842,105.113,-17.10453,-0.4441859,-4.249202,-61.88596,-6.98289,34.57793,0,0,0,87.35186,-19.34652,8.082565,-36.31316,-110.6672,-50.34543,0.001067912,-0.1257102,0.09433498,0,0.3,0,0,0,0,
6.38223E+17,22.4762,28.00709,35.8147,-93.52787,-63.30842,106.5047,-17.10453,-0.4441859,-4.249202,-61.88596,-6.98289,34.57793,0,0,0,74.84097,-22.16674,12.54454,-36.31316,-110.6672,-50.34543,0.001067912,-0.1257102,0.09433498,0,0.3,0,0,0,0,
6.38223E+17,19.74325,27.23561,35.67462,-94.26032,-63.30842,107.2371,-17.10453,-0.4441859,-4.249202,-61.88596,-6.98289,34.57793,0,0,0,66.32243,-23.94809,16.44175,-36.31316,-110.6672,-50.34543,0.001067912,-0.1257102,0.09433498,0,0.3,0,0,0,0,
6.38223E+17,17.99981,26.69791,35.58123,-95.359,-63.30842,107.5301,-17.10453,-0.4441859,-4.249202,-61.88596,-6.98289,34.57793,0,0,0,60.79039,-25.19007,18.74569,-36.31316,-110.6672,-50.34543,0.001067912,-0.1257102,0.09433498,0,0.3,0,0,0,0,
6.38223E+17,14.67786,25.80954,35.18433,-102.6103,-63.30842,107.7499,-17.10453,-0.4441859,-4.249202,-61.88596,-6.98289,34.57793,0,0,0,49.8876,-27.57924,22.11009,-36.31316,-110.6672,-50.34543,0.001067912,-0.1257102,0.09433498,0,0.3,0,0,0,0,
6.38223E+17,11.52082,24.94454,34.48391,-115.5747,-63.30842,107.8231,-17.10453,-0.4441859,-4.249202,-61.88596,-6.98289,34.57793,0,0,0,39.2278,-30.32929,24.10281,-36.31316,-110.6672,-50.34543,0.001067912,-0.1257102,0.09433498,0,0.3,0,0,0,0,
6.38223E+17,10.0601,24.47698,34.34383,-123.1922,-63.30842,107.8963,-17.10453,-0.4441859,-4.249202,-61.88596,-6.98289,34.57793,0,0,0,34.34161,-31.50211,25.22334,-36.31316,-110.6672,-50.34543,0.001067912,-0.1257102,0.09433498,0,0.3,0,0,0,0,
6.38223E+17,7.586308,23.49509,34.34383,-143.5543,-62.9422,107.8963,-17.10453,-0.4441859,-4.249202,-61.88596,-6.98289,34.57793,0,0,0,26.07715,-33.58998,27.44604,-36.31316,-110.6672,-50.34543,0.001067912,-0.1257102,0.09433498,0,0.3,0,0,0,0,
6.38223E+17,5.536591,22.51321,34.92751,-156.4455,-61.99001,107.8963,-17.10453,-0.4441859,-4.249202,-61.81271,-6.98289,34.57793,0,0,0,19.25149,-34.92137,30.25484,-36.31316,-110.6672,-50.34543,0.001067912,-0.1257102,0.09433498,0,0.3,0,0,0,0,
6.38223E+17,3.698914,21.78849,36.32835,-157.1779,-60.15888,107.8963,-17.10453,-0.4441859,-4.249202,-61.88596,-6.98289,34.57793,0,0,0,13.08471,-34.58445,34.04914,-36.31316,-110.6672,-50.34543,0.001067912,-0.1257102,0.09433498,0,0.3,0,0,0,0,
6.38223E+17,2.615156,21.50795,37.986,-157.2512,-58.401,107.8231,-17.10453,-0.4441859,-4.249202,-61.88596,-6.98289,34.57793,0,0,0,9.405469,-32.86114,37.5725,-36.31316,-110.6672,-50.34543,0.001067912,-0.1257102,0.09433498,0,0.3,0,0,0,0,
6.38223E+17,1.602077,21.50795,39.78374,-157.2512,-56.49662,107.6766,-17.10453,-0.4441859,-4.249202,-61.88596,-6.98289,34.57793,0,0,0,5.854211,-30.23468,40.9621,-36.31316,-110.6672,-50.34543,0.001067912,-0.1257102,0.09433498,0,0.3,0,0,0,0,
6.38223E+17,0.02355996,21.60146,42.77219,-157.2512,-54.29927,107.1639,-17.10453,-0.4441859,-4.249202,-61.81271,-6.98289,34.57793,0,0,0,0.08821879,-25.44427,46.19042,-36.31316,-110.6672,-50.34543,0.001067912,-0.1257102,0.09433498,0,0.3,0,0,0,0,
6.38223E+17,-0.8245987,21.81186,44.54658,-157.2512,-53.20059,106.9442,-17.10453,-0.4441859,-4.249202,-61.88596,-6.98289,34.57793,0,0,0,-3.12794,-22.13839,48.97437,-36.31316,-110.6672,-50.34543,0.001067912,-0.1257102,0.09433498,0,0.3,0,0,0,0,
6.38223E+17,-3.015675,22.20929,49.91645,-157.1779,-50.49052,106.4314,-17.10453,-0.4441859,-4.249202,-61.88596,-6.98289,34.57793,0,0,0,-11.8625,-12.1095,56.82135,-36.31316,-110.6672,-50.34543,0.001067912,-0.1257102,0.09433498,0,0.3,0,0,0,0,
6.38223E+17,-3.628234,22.23267,51.41068,-157.2512,-49.9778,106.4314,-17.10453,-0.4441859,-4.249202,-61.88596,-6.98289,34.57793,0,0,0,-14.40732,-9.369456,58.86103,-36.31316,-110.6672,-50.34543,0.001067912,-0.1257102,0.09433498,0,0.3,0,0,0,0,
6.38223E+17,-4.829792,22.4197,54.189,-157.3244,-49.3186,106.285,-17.10453,-0.4441859,-4.249202,-61.88596,-7.056135,34.57793,0,0,0,-19.48388,-3.816747,62.23943,-36.31316,-110.6672,-50.34543,0.001067912,-0.1257102,0.09433498,0,0.3,0,0,0,0,
6.38223E+17,-6.12559,22.60672,57.57436,-157.3244,-47.85369,106.285,-17.10453,-0.4441859,-4.249202,-61.88596,-6.98289,34.57793,0,0,0,-25.14719,3.107339,65.96766,-36.31316,-110.6672,-50.34543,0.001067912,-0.1257102,0.09433498,0,0.3,0,0,0,0,
6.38223E+17,-6.526109,22.91064,59.02188,-157.3244,-46.68177,106.285,-17.10453,-0.4441859,-4.249202,-61.88596,-6.98289,34.57793,0,0,0,-26.95464,6.62583,67.27317,-36.31316,-110.6672,-50.34543,0.001067912,-0.1257102,0.09433498,0,0.3,0,0,0,0,
6.38223E+17,-6.785269,23.84577,61.8469,-157.3977,-43.60548,106.285,-17.10453,-0.4441859,-4.249202,-61.88596,-6.98289,34.57793,0,0,0,-28.30136,14.3418,69.51245,-36.31316,-110.6672,-50.34543,0.001067912,-0.1257102,0.09433498,0,0.3,0,0,0,0,
6.38223E+17,-6.620349,25.13157,64.50849,-157.3244,-40.74891,106.285,-17.10453,-0.4441859,-4.249202,-61.88596,-6.98289,34.57793,0,0,0,-27.79579,22.59271,71.13702,-36.31316,-110.6672,-50.34543,0.001067912,-0.1257102,0.09433498,0,0.3,0,0,0,0,
6.38223E+17,-6.526109,26.18359,65.86263,-157.3244,-39.13752,106.285,-17.10453,-0.4441859,-4.249202,-61.88596,-6.98289,34.57793,0,0,0,-27.43168,27.66029,71.44321,-36.31316,-110.6672,-50.34543,0.001067912,-0.1257102,0.09433498,0,0.3,0,0,0,0,
6.38223E+17,-6.45543,28.45127,68.45419,-157.3244,-35.91473,105.0398,-17.10453,-0.4441859,-4.249202,-61.88596,-6.98289,34.50468,0,0,0,-27.12677,37.9073,71.39661,-36.31316,-110.6672,-50.34543,0.001067912,-0.1257102,0.09433498,0,0.3,0,0,0,0,
6.38223E+17,-6.45543,29.94748,72.1664,-157.3244,-31.66651,99.47314,-17.10453,-0.4441859,-4.249202,-61.88596,-6.98289,34.57793,0,0,0,-27.263,49.08018,72.60062,-36.31316,-110.6672,-50.34543,0.001067912,-0.1257102,0.09433498,0,0.3,0,0,0,0,
6.38223E+17,-6.36119,31.30341,74.7346,-157.3244,-28.00425,94.05301,-17.10453,-0.4441859,-4.249202,-61.88596,-6.98289,34.57793,0,0,0,-26.87716,57.52486,72.73938,-36.31316,-110.6672,-50.34543,0.001067912,-0.1257102,0.09433498,0,0.3,0,0,0,0,
6.38223E+17,-6.29051,32.09827,75.71518,-157.3977,-26.75908,92.36837,-17.10453,-0.4441859,-4.249202,-61.88596,-6.98289,34.57793,0,0,0,-26.53699,61.30552,72.3846,-36.31316,-110.6672,-50.34543,0.001067912,-0.1257102,0.09433498,0,0.3,0,0,0,0,
6.38223E+17,-6.10203,33.85164,77.16271,-157.3244,-25.66041,90.61049,-17.10453,-0.4441859,-4.249202,-61.88596,-6.98289,34.57793,0,0,0,-25.59281,68.00375,71.04768,-36.31316,-110.6672,-50.34543,0.001067912,-0.1257102,0.09433498,0,0.3,0,0,0,0,
6.38223E+17,-5.65439,35.9323,78.28338,-157.3244,-25.0012,89.87803,-17.10453,-0.4441859,-4.249202,-61.88596,-6.98289,34.57793,0,0,0,-23.50342,74.52407,69.03578,-36.31316,-110.6672,-50.34543,0.001067912,-0.1257102,0.09433498,0,0.3,0,0,0,0,
6.38223E+17,-4.853352,38.31688,79.12389,-157.3244,-23.97577,89.58505,-17.10453,-0.4441859,-4.249202,-61.81271,-6.98289,34.57793,0,0,0,-19.93144,80.86706,66.3856,-36.31316,-110.6672,-50.34543,0.001067912,-0.1257102,0.09433498,0,0.3,0,0,0,0,
6.38223E+17,-4.170113,40.79496,79.38071,-157.3244,-22.65736,89.43856,-17.10453,-0.4441859,-4.249202,-61.88596,-6.98289,34.57793,0,0,0,-16.87196,85.90071,63.05485,-36.31316,-110.6672,-50.34543,0.001067912,-0.1257102,0.09433498,0,0.3,0,0,0,0,
6.38223E+17,-3.934513,41.98725,79.38071,-157.3977,-21.85166,89.43856,-17.10453,-0.4441859,-4.249202,-61.88596,-6.98289,34.57793,0,0,0,-15.79439,87.98246,61.29185,-36.31316,-110.6672,-50.34543,0.001067912,-0.1257102,0.09433498,0,0.3,0,0,0,0,
6.38223E+17,-3.463314,44.39521,79.35736,-157.3977,-19.80079,89.36532,-17.10453,-0.4441859,-4.249202,-61.88596,-6.98289,34.57793,0,0,0,-13.673,92.01468,57.5755,-36.31316,-110.6672,-50.34543,0.001067912,-0.1257102,0.09433498,0,0.3,0,0,0,0,
6.38223E+17,-2.591596,46.99019,79.40405,-157.3977,-18.11616,89.29208,-17.10453,-0.4441859,-4.249202,-61.88596,-6.98289,34.57793,0,0,0,-10.03974,96.3398,53.46025,-36.31316,-110.6672,-50.34543,0.001067912,-0.1257102,0.09433498,0,0.3,0,0,0,0,
6.38223E+17,-1.979037,48.57991,79.45075,-157.3977,-17.89642,89.29208,-17.10453,-0.4441859,-4.249202,-61.88596,-6.98289,34.57793,0,0,0,-7.573862,98.93256,50.8363,-36.31316,-110.6672,-50.34543,0.001067912,-0.1257102,0.09433498,0,0.3,0,0,0,0,
6.38223E+17,-0.7774788,51.73597,79.45075,-157.3244,-18.04291,89.29208,-17.10453,-0.4441859,-4.249202,-61.88596,-6.98289,34.57793,0,0,0,-2.899427,103.638,45.30826,-36.31316,-110.6672,-50.34543,0.001067912,-0.1257102,0.09433498,0,0.3,0,0,0,0,
6.38223E+17,0.7539188,54.9154,79.45075,-157.3977,-17.67669,89.36532,-17.10453,-0.4441859,-4.249202,-61.88596,-6.98289,34.57793,0,0,0,2.733489,108.0571,39.37574,-36.31316,-110.6672,-50.34543,0.001067912,-0.1257102,0.09433498,0,0.3,0,0,0,0,
6.38223E+17,1.554958,56.34147,79.45075,-157.3977,-17.16397,89.36532,-17.10453,-0.4441859,-4.249202,-61.88596,-6.98289,34.57793,0,0,0,5.562954,109.9308,36.5788,-36.31316,-110.6672,-50.34543,0.001067912,-0.1257102,0.09433498,0,0.3,0,0,0,0,
6.38223E+17,3.274835,59.12348,79.35736,-157.3977,-16.13853,89.29208,-17.10453,-0.4441859,-4.249202,-61.88596,-6.98289,34.57793,0,0,0,11.39597,113.1735,30.81421,-36.31316,-110.6672,-50.34543,0.001067912,-0.1257102,0.09433498,0,0.3,0,0,0,0,
6.38223E+17,5.395231,61.64833,79.19392,-157.3977,-14.96661,89.29208,-17.10453,-0.4441859,-4.249202,-61.88596,-6.98289,34.57793,0,0,0,18.27017,115.7034,25.10006,-36.31316,-110.6672,-50.34543,0.001067912,-0.1257102,0.09433498,0,0.3,0,0,0,0,
6.38223E+17,6.549669,62.72372,79.19392,-157.3977,-14.30741,89.36532,-17.10453,-0.4441859,-4.249202,-61.88596,-6.98289,34.57793,0,0,0,21.91147,116.8712,22.49346,-36.31316,-110.6672,-50.34543,0.001067912,-0.1257102,0.09433498,0,0.3,0,0,0,0,
6.38223E+17,10.4135,64.85114,79.17058,-157.3244,-11.59733,89.29208,-17.10453,-0.4441859,-4.249202,-61.88596,-6.98289,34.57793,0,0,0,33.91703,119.0048,16.2044,-36.31316,-110.6672,-50.34543,0.001067912,-0.1257102,0.09433498,0,0.3,0,0,0,0,
6.38223E+17,11.16742,65.20181,79.17058,-157.2512,-10.5719,89.29208,-17.10453,-0.4441859,-4.249202,-61.81271,-6.98289,34.57793,0,0,0,36.19917,119.3493,15.0163,-36.31316,-110.6672,-50.34543,0.001067912,-0.1257102,0.09433498,0,0.3,0,0,0,0,
6.38223E+17,12.08626,66.13693,79.19392,-156.7384,-7.349115,89.29208,-17.10453,-0.4441859,-4.249202,-61.88596,-6.98289,34.57793,0,0,0,38.7219,120.2994,12.48307,-36.31316,-110.6672,-50.34543,0.001067912,-0.1257102,0.09433498,0,0.3,0,0,0,0,
6.38223E+17,12.5339,67.79679,79.19392,-155.1271,-3.686857,89.36532,-17.10453,-0.4441859,-4.249202,-61.88596,-6.98289,34.50468,0,0,0,39.362,121.8108,8.704718,-36.31316,-110.6672,-50.34543,0.001067912,-0.1257102,0.09433498,0,0.3,0,0,0,0,
6.38223E+17,12.69882,68.38125,79.21727,-155.1271,-2.514934,89.36532,-17.10453,-0.4441859,-4.249202,-61.88596,-6.98289,34.57793,0,0,0,39.59629,122.3718,7.369488,-36.31316,-110.6672,-50.34543,0.001067912,-0.1257102,0.09433498,0,0.3,0,0,0,0,
6.38223E+17,13.05222,69.87746,79.12389,-155.5665,-0.02459868,89.29208,-17.10453,-0.4441859,-4.249202,-61.88596,-6.98289,34.57793,0,0,0,39.93533,123.3989,3.912507,-36.31316,-110.6672,-50.34543,0.001067912,-0.1257102,0.09433498,0,0.3,0,0,0,0,
6.38223E+17,13.45274,71.06974,78.68028,-154.1749,1.51355,89.29208,-17.10453,-0.4441859,-4.249202,-61.88596,-6.98289,34.57793,0,0,0,40.48387,123.3132,0.8923322,-36.31316,-110.6672,-50.34543,0.001067912,-0.1257102,0.09433498,0,0.3,0,0,0,0,
6.38223E+17,13.73546,71.72433,78.72698,-153.5889,2.465737,89.36532,-17.10453,-0.4441859,-4.249202,-61.88596,-6.98289,34.57793,0,0,0,40.9807,123.9058,-0.691402,-36.31316,-110.6672,-50.34543,0.001067912,-0.1257102,0.09433498,0,0.3,0,0,0,0,
6.38223E+17,13.64122,71.88798,78.56355,-153.5889,2.685472,89.29208,-17.10453,-0.4441859,-4.249202,-61.88596,-6.98289,34.57793,0,0,0,40.60188,123.6518,-1.048624,-36.31316,-110.6672,-50.34543,0.001067912,-0.1257102,0.09433498,0,0.3,0,0,0,0,
6.38223E+17,13.1229,72.14513,77.44288,-154.2481,2.465737,88.55962,-17.10453,-0.4441859,-4.249202,-61.88596,-6.98289,34.57793,0,0,0,38.83443,121.2854,-1.770556,-36.31316,-110.6672,-50.34543,0.001067912,-0.1257102,0.09433498,0,0.3,0,0,0,0,
6.38223E+17,12.22762,72.23865,76.55569,-155.9328,1.806531,87.24121,-17.10453,-0.4441859,-4.249202,-61.88596,-6.98289,34.57793,0,0,0,36.08464,119.34,-1.840593,-36.31316,-110.6672,-50.34543,0.001067912,-0.1257102,0.09433498,0,0.3,0,0,0,0,
6.38223E+17,11.49726,72.21527,75.83192,-156.1525,1.367059,86.36227,-17.10453,-0.4441859,-4.249202,-61.88596,-6.98289,34.57793,0,0,0,33.88944,117.6876,-1.737298,-36.31316,-110.6672,-50.34543,0.001067912,-0.1257102,0.09433498,0,0.3,0,0,0,0,
6.38223E+17,10.43706,72.23865,73.52054,-152.8564,0.1218917,83.87193,-17.10453,-0.4441859,-4.249202,-61.88596,-6.98289,34.57793,0,0,0,30.53391,112.5163,-2.587764,-36.31316,-110.6672,-50.34543,0.001067912,-0.1257102,0.09433498,0,0.3,0,0,0,0,
6.38223E+17,9.259066,72.26203,70.62548,-146.7771,-1.855728,78.81802,-17.10453,-0.4441859,-4.249202,-61.88596,-6.98289,34.57793,0,0,0,26.77764,106.1228,-4.092947,-36.31316,-110.6672,-50.34543,0.001067912,-0.1257102,0.09433498,0,0.3,0,0,0,0,
6.38223E+17,8.293106,72.21527,67.96389,-140.771,-4.053083,72.07946,-17.10453,-0.4441859,-4.249202,-61.88596,-6.98289,34.57793,0,0,0,23.7038,100.2956,-5.729379,-36.31316,-110.6672,-50.34543,0.001067912,-0.1257102,0.09433498,0,0.3,0,0,0,0,
6.38223E+17,7.680547,72.21527,64.9054,-137.0355,-6.543418,64.82819,-17.10453,-0.4441859,-4.249202,-61.88596,-6.98289,34.57793,0,0,0,21.58357,93.7717,-8.305259,-36.31316,-110.6672,-50.34543,0.001067912,-0.1257102,0.09433498,0,0.3,0,0,0,0,
6.38223E+17,7.515628,72.21527,63.48121,-136.2298,-7.642097,61.67865,-17.10453,-0.4441859,-4.249202,-61.88596,-6.98289,34.57793,0,0,0,20.93408,90.78771,-9.674345,-36.31316,-110.6672,-50.34543,0.001067912,-0.1257102,0.09433498,0,0.3,0,0,0,0,
6.38223E+17,7.256468,72.14513,60.84298,-135.8636,-10.64515,53.69492,-17.10453,-0.4441859,-4.249202,-61.88596,-6.98289,34.57793,0,0,0,19.87363,85.3086,-12.27122,-36.31316,-110.6672,-50.34543,0.001067912,-0.1257102,0.09433498,0,0.3,0,0,0,0,
6.38223E+17,6.973749,72.00487,58.29812,-136.8158,-14.67363,42.6349,-17.10453,-0.4441859,-4.249202,-61.88596,-6.98289,34.57793,0,0,0,18.77676,80.10152,-14.84411,-36.31316,-110.6672,-50.34543,0.001067912,-0.1257102,0.09433498,0,0.3,0,0,0,0,
6.38223E+17,6.855949,71.65419,55.23963,-138.1342,-19.80079,26.52096,-17.10453,-0.4441859,-4.249202,-61.88596,-6.98289,34.57793,0,0,0,18.08807,73.89348,-17.90853,-36.31316,-110.6672,-50.34543,0.001067912,-0.1257102,0.09433498,0,0.3,0,0,0,0,
6.38223E+17,6.738149,71.37366,53.72206,-138.3539,-22.80385,17.21883,-17.10453,-0.4441859,-4.249202,-61.88596,-6.98289,34.57793,0,0,0,17.61062,70.81177,-19.29447,-36.31316,-110.6672,-50.34543,0.001067912,-0.1257102,0.09433498,0,0.3,0,0,0,0,
6.38223E+17,6.05491,70.62555,51.41068,-136.7425,-27.93101,-0.2135241,-17.10453,-0.4441859,-4.249202,-61.88596,-6.98289,34.57793,0,0,0,15.66072,65.97356,-20.70942,-36.31316,-110.6672,-50.34543,0.001067912,-0.1257102,0.09433498,0,0.3,0,0,0,0,
6.38223E+17,5.206751,69.59691,49.65963,-134.5452,-31.37353,-10.17487,-17.10453,-0.4441859,-4.249202,-61.88596,-6.98289,34.57793,0,0,0,13.44277,62.013,-20.83137,-36.31316,-110.6672,-50.34543,0.001067912,-0.1257102,0.09433498,0,0.3,0,0,0,0,
6.38223E+17,5.088952,69.08259,48.84248,-132.7873,-32.98492,-13.32441,-17.10453,-0.4441859,-4.249202,-61.81271,-6.98289,34.57793,0,0,0,13.12868,60.14988,-20.92493,-36.31316,-110.6672,-50.34543,0.001067912,-0.1257102,0.09433498,0,0.3,0,0,0,0,
6.38223E+17,5.041832,68.05395,47.32491,-129.6377,-35.98798,-18.8178,-17.10453,-0.4441859,-4.249202,-61.88596,-6.98289,34.57793,0,0,0,12.99593,56.64697,-21.04465,-36.31316,-110.6672,-50.34543,0.001067912,-0.1257102,0.09433498,0,0.3,0,0,0,0,
6.38223E+17,4.806232,66.48761,45.55051,-125.1698,-39.50375,-26.36205,-17.10453,-0.4441859,-4.249202,-61.88596,-6.98289,34.57793,0,0,0,12.43337,52.2461,-20.47784,-36.31316,-110.6672,-50.34543,0.001067912,-0.1257102,0.09433498,0,0.3,0,0,0,0,
6.38223E+17,4.193673,64.61736,44.0096,-119.0904,-43.75196,-38.81373,-17.10453,-0.4441859,-4.249202,-61.81271,-6.98289,34.57793,0,0,0,10.95537,47.91863,-18.94034,-36.31316,-110.6672,-50.34543,0.001067912,-0.1257102,0.09433498,0,0.3,0,0,0,0,
6.38223E+17,3.463314,63.44844,43.28583,-116.0874,-46.75502,-47.01719,-17.10453,-0.4441859,-4.249202,-61.88596,-6.98289,34.57793,0,0,0,9.124103,45.5648,-17.58813,-36.31316,-110.6672,-50.34543,0.001067912,-0.1257102,0.09433498,0,0.3,0,0,0,0,
6.38223E+17,2.968555,62.79386,42.88893,-115.062,-48.36641,-50.23997,-17.10453,-0.4441859,-4.249202,-61.88596,-6.98289,34.57793,0,0,0,7.85736,44.245,-16.83162,-36.31316,-110.6672,-50.34543,0.001067912,-0.1257102,0.09433498,0,0.3,0,0,0,0,
6.38223E+17,2.167516,61.6717,42.21186,-114.5492,-51.36946,-51.85137,-17.10453,-0.4441859,-4.249202,-61.88596,-6.98289,34.57793,0,0,0,5.781815,41.96266,-15.58735,-36.31316,-110.6672,-50.34543,0.001067912,-0.1257102,0.09433498,0,0.3,0,0,0,0,
6.38223E+17,1.531397,61.32103,41.90834,-114.8422,-53.42033,-51.63163,-17.10453,-0.4441859,-4.249202,-61.88596,-6.98289,34.57793,0,0,0,4.090618,41.09996,-15.33988,-36.31316,-110.6672,-50.34543,0.001067912,-0.1257102,0.09433498,0,0.3,0,0,0,0,
6.38223E+17,1.272238,61.36778,41.88499,-114.769,-54.37251,-51.4119,-17.10453,-0.4441859,-4.249202,-61.88596,-6.98289,34.57793,0,0,0,3.395466,41.11585,-15.45884,-36.31316,-110.6672,-50.34543,0.001067912,-0.1257102,0.09433498,0,0.3,0,0,0,0,
6.38223E+17,0.6596789,61.64833,42.14182,-113.7435,-55.91066,-51.11892,-17.10453,-0.4441859,-4.249202,-61.81271,-6.98289,34.57793,0,0,0,1.759224,41.82738,-15.56102,-36.31316,-110.6672,-50.34543,0.001067912,-0.1257102,0.09433498,0,0.3,0,0,0,0,
6.38223E+17,-0.09423985,61.8821,42.95897,-112.2786,-57.08258,-51.04567,-17.10453,-0.4441859,-4.249202,-61.81271,-6.98289,34.57793,0,0,0,-0.2528391,43.37087,-14.62942,-36.31316,-110.6672,-50.34543,0.001067912,-0.1257102,0.09433498,0,0.3,0,0,0,0,
6.38223E+17,-0.6596789,61.90548,43.5193,-111.4729,-57.52206,-50.97242,-17.10453,-0.4441859,-4.249202,-61.88596,-6.98289,34.57793,0,0,0,-1.780221,44.28989,-13.7374,-36.31316,-110.6672,-50.34543,0.001067912,-0.1257102,0.09433498,0,0.3,0,0,0,0,
6.38223E+17,-2.308876,61.81197,44.89679,-110.8137,-58.03477,-52.43733,-17.10453,-0.4441859,-4.249202,-61.88596,-6.98289,34.57793,0,0,0,-6.329537,46.42259,-11.36477,-36.31316,-110.6672,-50.34543,0.001067912,-0.1257102,0.09433498,0,0.3,0,0,0,0,
6.38223E+17,-3.604674,61.46129,45.55051,-110.6672,-58.10802,-55.22065,-17.10453,-0.4441859,-4.249202,-61.88596,-6.98289,34.57793,0,0,0,-9.990513,47.11489,-9.761787,-36.31316,-110.6672,-50.34543,0.001067912,-0.1257102,0.09433498,0,0.3,0,0,0,0,
6.38223E+17,-5.230311,60.85346,46.90466,-111.3264,-57.74179,-57.93071,-17.10453,-0.4441859,-4.249202,-61.88596,-6.98289,34.57793,0,0,0,-14.79718,48.70817,-6.703873,-36.31316,-110.6672,-50.34543,0.001067912,-0.1257102,0.09433498,0,0.3,0,0,0,0,
6.38223E+17,-5.96067,60.64306,47.76851,-111.9856,-57.22908,-58.58992,-17.10453,-0.4441859,-4.249202,-61.88596,-6.98289,34.57793,0,0,0,-17.04231,49.9473,-5.125556,-36.31316,-110.6672,-50.34543,0.001067912,-0.1257102,0.09433498,0,0.3,0,0,0,0,
6.38223E+17,-7.444948,59.98847,49.30943,-112.7914,-56.1304,-59.24913,-17.10453,-0.4441859,-4.249202,-61.88596,-6.98289,34.57793,0,0,0,-21.7437,51.88037,-1.95491,-36.31316,-110.6672,-50.34543,0.001067912,-0.1257102,0.09433498,0,0.3,0,0,0,0,
6.38223E+17,-9.070585,59.00658,50.57018,-113.0843,-54.95848,-59.61535,-17.10453,-0.4441859,-4.249202,-61.88596,-6.98289,34.57793,0,0,0,-27.06352,52.96621,1.170423,-36.31316,-110.6672,-50.34543,0.001067912,-0.1257102,0.09433498,0,0.3,0,0,0,0,
6.38223E+17,-10.90826,57.81429,51.34064,-112.3519,-53.42033,-61.1535,-17.10453,-0.4441859,-4.249202,-61.88596,-6.98289,34.57793,0,0,0,-33.14684,52.90531,3.6455,-36.31316,-110.6672,-50.34543,0.001067912,-0.1257102,0.09433498,0,0.3,0,0,0,0,
6.38223E+17,-13.2407,56.36485,51.69085,-110.7405,-52.02867,-66.72014,-17.10453,-0.4441859,-4.249202,-61.81271,-6.98289,34.57793,0,0,0,-40.88397,51.7105,5.404464,-36.31316,-110.6672,-50.34543,0.001067912,-0.1257102,0.09433498,0,0.3,0,0,0,0,
6.38223E+17,-14.56006,55.71026,51.92432,-110.3743,-51.36946,-70.01617,-17.10453,-0.4441859,-4.249202,-61.88596,-6.98289,34.57793,0,0,0,-45.27597,51.28647,5.96523,-36.31316,-110.6672,-50.34543,0.001067912,-0.1257102,0.09433498,0,0.3,0,0,0,0,
6.38223E+17,-17.62285,54.51797,52.18114,-110.594,-49.24535,-76.82797,-17.10453,-0.4441859,-4.249202,-61.88596,-6.98289,34.57793,0,0,0,-55.32543,50.17075,5.816821,-36.31316,-110.6672,-50.34543,0.001067912,-0.1257102,0.09433498,0,0.3,0,0,0,0,
6.38223E+17,-20.99193,53.86338,52.20449,-111.6927,-47.048,-85.25117,-17.10453,-0.4441859,-4.249202,-61.88596,-6.98289,34.57793,0,0,0,-65.9197,49.32231,3.449062,-36.31316,-110.6672,-50.34543,0.001067912,-0.1257102,0.09433498,0,0.3,0,0,0,0,
6.38223E+17,-22.66468,53.37244,52.20449,-113.0843,-45.94932,-89.86562,-17.10453,-0.4441859,-4.249202,-61.88596,-6.98289,34.57793,0,0,0,-71.26106,48.64455,2.300447,-36.31316,-110.6672,-50.34543,0.001067912,-0.1257102,0.09433498,0,0.3,0,0,0,0,
6.38223E+17,-25.27984,51.73597,52.15779,-117.5523,-43.89846,-99.16775,-17.10453,-0.4441859,-4.249202,-61.88596,-6.98289,34.57793,0,0,0,-80.23596,46.24303,1.545197,-36.31316,-110.6672,-50.34543,0.001067912,-0.1257102,0.09433498,0,0.3,0,0,0,0,
6.38223E+17,-27.23532,49.51503,52.39126,-119.8961,-41.40812,-110.1545,-17.10453,-0.4441859,-4.249202,-61.88596,-6.98289,34.50468,0,0,0,-87.96722,43.39389,2.556497,-36.31316,-110.6672,-50.34543,0.001067912,-0.1257102,0.09433498,0,0.3,0,0,0,0,
6.38223E+17,-28.62535,47.22397,53.51193,-120.0426,-38.55156,-116.9663,-17.10453,-0.4441859,-4.249202,-61.88596,-6.98289,34.57793,0,0,0,-94.74934,41.93348,5.249758,-36.31316,-110.6672,-50.34543,0.001067912,-0.1257102,0.09433498,0,0.3,0,0,0,0,
6.38223E+17,-29.07299,45.93817,54.189,-121.1413,-36.86692,-118.1382,-17.10453,-0.4441859,-4.249202,-61.88596,-6.98289,34.57793,0,0,0,-97.61062,41.14908,7.216375,-36.31316,-110.6672,-50.34543,0.001067912,-0.1257102,0.09433498,0,0.3,0,0,0,0,
6.38223E+17,-29.96827,43.62373,54.86607,-123.5584,-33.64413,-118.5777,-17.10453,-0.4441859,-4.249202,-61.88596,-7.056135,34.57793,0,0,0,-102.6939,38.60921,9.748792,-36.31316,-110.6672,-50.34543,0.001067912,-0.1257102,0.09433498,0,0.3,0,0,0,0,
6.38223E+17,-31.80595,39.71957,54.51587,-121.2878,-29.10293,-123.3387,-17.10453,-0.4441859,-4.249202,-61.88596,-6.98289,34.57793,0,0,0,-111.2875,31.15805,11.09676,-36.31316,-110.6672,-50.34543,0.001067912,-0.1257102,0.09433498,0,0.3,0,0,0,0,
6.38223E+17,-32.67767,37.56877,54.25905,-116.3804,-26.53935,-127.0742,-17.10453,-0.4441859,-4.249202,-61.88596,-6.98289,34.57793,0,0,0,-115.5044,26.76266,11.72099,-36.31316,-110.6672,-50.34543,0.001067912,-0.1257102,0.09433498,0,0.3,0,0,0,0,
6.38223E+17,-33.66718,34.78677,54.04892,-108.7629,-22.58411,-131.3956,-17.10453,-0.4441859,-4.249202,-61.88596,-6.98289,34.57793,0,0,0,-120.5568,21.14034,12.64175,-36.31316,-110.6672,-50.34543,0.001067912,-0.1257102,0.09433498,0,0.3,0,0,0,0,
6.38223E+17,-34.04414,33.68799,53.53528,-105.2471,-20.89947,-134.3987,-17.10453,-0.4441859,-4.249202,-61.88596,-6.98289,34.57793,0,0,0,-122.1551,18.06165,12.45171,-36.31316,-110.6672,-50.34543,0.001067912,-0.1257102,0.09433498,0,0.3,0,0,0,0,
6.38223E+17,-34.49178,30.39166,50.89704,-94.33356,-18.04291,-141.9429,-17.10453,-0.4441859,-4.249202,-61.88596,-6.98289,34.57793,0,0,0,-123.7382,6.706902,11.74547,-36.31316,-110.6672,-50.34543,0.001067912,-0.1257102,0.09433498,0,0.3,0,0,0,0,
6.38223E+17,-34.44466,29.43316,50.07989,-91.69674,-17.38371,-141.9429,-17.10453,-0.4441859,-4.249202,-61.81271,-6.98289,34.57793,0,0,0,-123.5348,3.306018,11.76671,-36.31316,-110.6672,-50.34543,0.001067912,-0.1257102,0.09433498,0,0.3,0,0,0,0,
6.38223E+17,-34.37398,27.11872,47.60507,-85.83713,-15.84556,-141.7964,-17.10453,-0.4441859,-4.249202,-61.88596,-6.98289,34.57793,0,0,0,-122.6131,-5.773815,10.89643,-36.31316,-110.6672,-50.34543,0.001067912,-0.1257102,0.09433498,0,0.3,0,0,0,0,
6.38223E+17,-33.87922,24.85103,45.247,-79.31831,-14.08767,-141.8697,-17.10453,-0.4441859,-4.249202,-61.88596,-6.98289,34.57793,0,0,0,-120.241,-14.49359,10.72773,-36.31316,-110.6672,-50.34543,0.001067912,-0.1257102,0.09433498,0,0.3,0,0,0,0,
6.38223E+17,-33.2431,23.7055,44.38315,-75.80254,-13.20873,-141.8697,-17.10453,-0.4441859,-4.249202,-61.88596,-6.98289,34.57793,0,0,0,-118.0645,-18.34091,11.77562,-36.31316,-110.6672,-50.34543,0.001067912,-0.1257102,0.09433498,0,0.3,0,0,0,0,
6.38223E+17,-31.59391,21.48457,43.00566,-69.5767,-10.93813,-141.8697,-17.10453,-0.4441859,-4.249202,-61.88596,-6.98289,34.57793,0,0,0,-112.6576,-25.32751,14.81603,-36.31316,-110.6672,-50.34543,0.001067912,-0.1257102,0.09433498,0,0.3,0,0,0,0,
6.38223E+17,-29.73267,19.59093,40.97445,-63.64384,-8.008322,-141.9429,-17.10453,-0.4441859,-4.249202,-61.88596,-6.98289,34.57793,0,0,0,-105.6734,-32.61694,16.66998,-36.31316,-110.6672,-50.34543,0.001067912,-0.1257102,0.09433498,0,0.3,0,0,0,0,
6.38223E+17,-27.77719,18.4454,39.62031,-58.80966,-5.444741,-141.9429,-17.10453,-0.4441859,-4.249202,-61.88596,-6.98289,34.57793,0,0,0,-98.58314,-37.17575,18.81009,-36.31316,-110.6672,-50.34543,0.001067912,-0.1257102,0.09433498,0,0.3,0,0,0,0,
6.38223E+17,-26.66988,17.90771,38.98993,-56.46581,-4.126328,-141.9429,-17.10453,-0.4441859,-4.249202,-61.88596,-6.98289,34.57793,0,0,0,-94.61349,-39.29409,20.01466,-36.31316,-110.6672,-50.34543,0.001067912,-0.1257102,0.09433498,0,0.3,0,0,0,0,
6.38223E+17,-24.0076,17.27649,36.7486,-51.4119,-1.489502,-141.9429,-17.10453,-0.4441859,-4.249202,-61.88596,-6.98289,34.57793,0,0,0,-84.26741,-43.89645,20.85015,-36.31316,-110.6672,-50.34543,0.001067912,-0.1257102,0.09433498,0,0.3,0,0,0,0,
6.38223E+17,-21.48668,17.25311,34.39052,-46.87069,0.5613627,-141.9429,-17.10453,-0.4441859,-4.249202,-61.81271,-6.98289,34.57793,0,0,0,-74.23495,-47.14061,20.2349,-36.31316,-110.6672,-50.34543,0.001067912,-0.1257102,0.09433498,0,0.3,0,0,0,0,
6.38223E+17,-20.09665,17.27649,33.12977,-44.52685,1.586795,-141.8697,-17.10453,-0.4441859,-4.249202,-61.81271,-6.98289,34.57793,0,0,0,-68.79459,-48.71924,19.67416,-36.31316,-110.6672,-50.34543,0.001067912,-0.1257102,0.09433498,0,0.3,0,0,0,0,
6.38223E+17,-16.93961,17.44014,30.14132,-39.91241,3.710905,-141.7964,-17.10453,-0.4441859,-4.249202,-61.88596,-6.98289,34.57793,0,0,0,-56.57688,-52.00346,17.40463,-36.31316,-110.6672,-50.34543,0.001067912,-0.1257102,0.09433498,0,0.3,0,0,0,0,
6.38223E+17,-12.39254,18.21162,25.75204,-34.19928,5.981505,-141.7964,-17.10453,-0.4441859,-4.249202,-61.88596,-6.98289,34.57793,0,0,0,-39.61835,-55.0805,11.95654,-36.31316,-110.6672,-50.34543,0.001067912,-0.1257102,0.09433498,0,0.3,0,0,0,0,
6.38223E+17,-7.350708,19.49742,21.80634,-27.46073,8.105616,-141.8697,-17.10453,-0.4441859,-4.249202,-61.88596,-6.98289,34.57793,0,0,0,-22.42048,-55.95061,5.448677,-36.31316,-110.6672,-50.34543,0.001067912,-0.1257102,0.09433498,0,0.3,0,0,0,0,
6.38223E+17,-1.814117,20.85336,18.88794,-19.91648,10.15648,-141.9429,-17.10453,-0.4441859,-4.249202,-61.88596,-6.98289,34.57793,0,0,0,-5.311501,-55.34999,-0.6514157,-36.31316,-110.6672,-50.34543,0.001067912,-0.1257102,0.09433498,0,0.3,0,0,0,0,
6.38223E+17,1.342918,21.64822,17.90735,-15.7415,11.10867,-141.9429,-17.10453,-0.4441859,-4.249202,-61.88596,-6.98289,34.57793,0,0,0,3.865721,-54.34612,-3.448676,-36.31316,-110.6672,-50.34543,0.001067912,-0.1257102,0.09433498,0,0.3,0,0,0,0,
6.38223E+17,8.128186,23.05091,16.73999,-6.585854,12.42708,-141.9429,-17.10453,-0.4441859,-4.249202,-61.88596,-6.98289,34.57793,0,0,0,22.77929,-52.13581,-8.856852,-36.31316,-110.6672,-50.34543,0.001067912,-0.1257102,0.09433498,0,0.3,0,0,0,0,
6.38223E+17,15.26685,24.82765,16.81003,4.181186,13.01304,-141.9429,-17.10453,-0.4441859,-4.249202,-61.88596,-6.98289,34.57793,0,0,0,42.02241,-48.30946,-14.39208,-36.31316,-110.6672,-50.34543,0.001067912,-0.1257102,0.09433498,0,0.3,0,0,0,0,
6.38223E+17,21.5338,26.86156,18.21087,14.65524,12.50033,-141.9429,-17.10453,-0.4441859,-4.249202,-61.88596,-6.98289,34.57793,0,0,0,58.96129,-43.06851,-18.92663,-36.31316,-110.6672,-50.34543,0.001067912,-0.1257102,0.09433498,0,0.3,0,0,0,0,
6.38223E+17,24.4788,27.79668,19.26149,20.00214,11.98761,-141.9429,-17.10453,-0.4441859,-4.249202,-61.88596,-6.98289,34.57793,0,0,0,67.10586,-40.34962,-20.95513,-36.31316,-110.6672,-50.34543,0.001067912,-0.1257102,0.09433498,0,0.3,0,0,0,0,
6.38223E+17,29.70911,29.52667,22.01647,30.03673,10.74244,-142.0162,-17.10453,-0.4441859,-4.249202,-61.88596,-6.98289,34.57793,0,0,0,82.27932,-34.5569,-24.15228,-36.31316,-110.6672,-50.34543,0.001067912,-0.1257102,0.09433498,0,0.3,0,0,0,0,
6.38223E+17,33.47871,31.16315,24.7948,38.67966,9.424027,-142.0162,-17.10453,-0.4441859,-4.249202,-61.81271,-6.98289,34.57793,0,0,0,93.79324,-28.70169,-26.52938,-36.31316,-110.6672,-50.34543,0.001067912,-0.1257102,0.09433498,0,0.3,0,0,0,0,
6.38223E+17,34.93942,31.91125,26.0322,42.12218,8.838067,-142.0162,-17.10453,-0.4441859,-4.249202,-61.88596,-6.98289,34.57793,0,0,0,98.34616,-25.98184,-27.58059,-36.31316,-110.6672,-50.34543,0.001067912,-0.1257102,0.09433498,0,0.3,0,0,0,0,
6.38223E+17,37.6017,33.82826,28.34358,48.42127,7.592898,-141.9429,-17.10453,-0.4441859,-4.249202,-61.88596,-6.98289,34.57793,0,0,0,106.2207,-19.77687,-30.4281,-36.31316,-110.6672,-50.34543,0.001067912,-0.1257102,0.09433498,0,0.3,0,0,0,0,
6.38223E+17,39.29802,36.02581,30.37479,52.96247,6.347731,-142.0162,-17.10453,-0.4441859,-4.249202,-61.88596,-6.98289,34.57793,0,0,0,111.0118,-13.26612,-32.71047,-36.31316,-110.6672,-50.34543,0.001067912,-0.1257102,0.09433498,0,0.3,0,0,0,0,
6.38223E+17,40.33466,38.66755,32.82626,56.55148,4.443357,-142.0162,-17.10453,-0.4441859,-4.249202,-61.88596,-6.98289,34.57793,0,0,0,114.1788,-5.389293,-33.87996,-36.31316,-110.6672,-50.34543,0.001067912,-0.1257102,0.09433498,0,0.3,0,0,0,0,
6.38223E+17,40.42889,40.56118,34.43722,58.16287,2.685472,-141.9429,-17.10453,-0.4441859,-4.249202,-61.88596,-6.98289,34.57793,0,0,0,114.6019,0.08220109,-33.8307,-36.31316,-110.6672,-50.34543,0.001067912,-0.1257102,0.09433498,0,0.3,0,0,0,0,
6.38223E+17,40.42889,41.73009,35.51119,58.74884,1.440305,-142.0162,-17.10453,-0.4441859,-4.249202,-61.88596,-6.98289,34.57793,0,0,0,114.7693,3.563571,-33.6342,-36.31316,-110.6672,-50.34543,0.001067912,-0.1257102,0.09433498,0,0.3,0,0,0,0,
6.38223E+17,40.52313,43.92765,37.61245,59.11506,-1.343012,-142.0162,-17.10453,-0.4441859,-4.249202,-61.88596,-6.98289,34.57793,0,0,0,115.2839,10.22733,-33.48024,-36.31316,-110.6672,-50.34543,0.001067912,-0.1257102,0.09433498,0,0.3,0,0,0,0,
6.38223E+17,40.61737,46.17195,39.48022,59.04182,-4.419309,-142.0162,-17.10453,-0.4441859,-4.249202,-61.88596,-6.98289,34.57793,0,0,0,115.3124,16.62613,-33.8953,-36.31316,-110.6672,-50.34543,0.001067912,-0.1257102,0.09433498,0,0.3,0,0,0,0,
6.38223E+17,40.61737,47.27073,40.39077,58.89533,-6.030703,-142.0162,-17.10453,-0.4441859,-4.249202,-61.88596,-6.98289,34.57793,0,0,0,115.1582,19.73959,-34.07507,-36.31316,-110.6672,-50.34543,0.001067912,-0.1257102,0.09433498,0,0.3,0,0,0,0,
6.38223E+17,40.57025,49.16436,42.09512,58.45585,-8.814018,-142.0894,-17.10453,-0.4441859,-4.249202,-61.81271,-6.98289,34.57793,0,0,0,114.8502,25.29098,-34.21111,-36.31316,-110.6672,-50.34543,0.001067912,-0.1257102,0.09433498,0,0.3,0,0,0,0,
6.38223E+17,40.31109,49.95922,43.33253,58.08963,-10.93813,-142.0894,-17.10453,-0.4441859,-4.249202,-61.88596,-6.98289,34.57793,0,0,0,114.7003,28.44443,-33.15312,-36.31316,-110.6672,-50.34543,0.001067912,-0.1257102,0.09433498,0,0.3,0,0,0,0,
6.38223E+17,39.91058,49.93584,43.35587,57.50367,-11.52409,-142.0894,-17.10453,-0.4441859,-4.249202,-61.88596,-6.98289,34.57793,0,0,0,113.8045,28.44671,-32.29237,-36.31316,-110.6672,-50.34543,0.001067912,-0.1257102,0.09433498,0,0.3,0,0,0,0,
6.38223E+17,39.32158,50.09949,43.84616,54.86684,-11.96356,-142.0894,-17.10453,-0.4441859,-4.249202,-61.88596,-6.98289,34.57793,0,0,0,112.7385,29.47838,-30.71618,-36.31316,-110.6672,-50.34543,0.001067912,-0.1257102,0.09433498,0,0.3,0,0,0,0,
6.38223E+17,39.36869,50.56705,44.45319,53.91465,-12.25654,-142.0894,-17.10453,-0.4441859,-4.249202,-61.88596,-6.98289,34.57793,0,0,0,112.9634,31.15706,-30.67285,-36.31316,-110.6672,-50.34543,0.001067912,-0.1257102,0.09433498,0,0.3,0,0,0,0,
6.38223E+17,40.09905,51.36191,45.97077,53.9879,-12.98899,-142.0894,-17.10453,-0.4441859,-4.249202,-61.81271,-6.98289,34.57793,0,0,0,115.3862,34.8288,-31.31985,-36.31316,-110.6672,-50.34543,0.001067912,-0.1257102,0.09433498,0,0.3,0,0,0,0,
6.38223E+17,40.40533,51.45543,46.5778,54.50062,-13.20873,-142.0162,-17.10453,-0.4441859,-4.249202,-61.88596,-6.98289,34.57793,0,0,0,116.6398,35.98552,-31.32454,-36.31316,-110.6672,-50.34543,0.001067912,-0.1257102,0.09433498,0,0.3,0,0,0,0,
6.38223E+17,40.97078,51.36191,48.32884,55.89228,-13.35522,-142.0894,-17.10453,-0.4441859,-4.249202,-61.81271,-6.98289,34.50468,0,0,0,119.9047,38.85209,-30.27323,-36.31316,-110.6672,-50.34543,0.001067912,-0.1257102,0.09433498,0,0.3,0,0,0,0,
6.38223E+17,41.55977,51.22165,51.41068,57.94314,-13.50171,-142.0894,-17.10453,-0.4441859,-4.249202,-61.88596,-6.98289,34.57793,0,0,0,124.5533,44.13136,-27.86371,-36.31316,-110.6672,-50.34543,0.001067912,-0.1257102,0.09433498,0,0.3,0,0,0,0,
6.38223E+17,41.79537,50.96449,53.25511,59.3348,-13.6482,-142.2359,-17.10453,-0.4441859,-4.249202,-61.88596,-6.98289,34.57793,0,0,0,127.1885,47.15332,-26.07426,-36.31316,-110.6672,-50.34543,0.001067912,-0.1257102,0.09433498,0,0.3,0,0,0,0,
6.38223E+17,42.19589,50.23976,56.89729,62.48434,-14.30741,-142.0162,-17.10453,-0.4441859,-4.249202,-61.88596,-6.98289,34.57793,0,0,0,132.3144,53.03183,-22.40655,-36.31316,-110.6672,-50.34543,0.001067912,-0.1257102,0.09433498,0,0.3,0,0,0,0,
6.38223E+17,42.33725,49.32801,60.30599,65.78037,-15.1131,-141.064,-17.10453,-0.4441859,-4.249202,-61.88596,-6.98289,34.57793,0,0,0,136.5486,58.4324,-18.4809,-36.31316,-110.6672,-50.34543,0.001067912,-0.1257102,0.09433498,0,0.3,0,0,0,0,
6.38223E+17,42.33725,49.04747,61.30993,66.87905,-15.77231,-138.4272,-17.10453,-0.4441859,-4.249202,-61.88596,-6.98289,34.57793,0,0,0,137.6489,60.04542,-17.27322,-36.31316,-110.6672,-50.34543,0.001067912,-0.1257102,0.09433498,0,0.3,0,0,0,0,
6.38223E+17,41.98385,49.11761,61.9403,66.1466,-18.92185,-123.5584,-17.10453,-0.4441859,-4.249202,-61.81271,-6.98289,34.57793,0,0,0,137.0984,61.44319,-16.00049,-36.31316,-110.6672,-50.34543,0.001067912,-0.1257102,0.09433498,0,0.3,0,0,0,0,
6.38223E+17,40.85297,49.16436,62.08038,59.48129,-23.46305,-102.537,-17.10453,-0.4441859,-4.249202,-61.88596,-6.98289,34.57793,0,0,0,134.1111,61.80228,-13.27088,-36.31316,-110.6672,-50.34543,0.001067912,-0.1257102,0.09433498,0,0.3,0,0,0,0,
6.38223E+17,39.32158,49.16436,62.43059,47.46908,-26.68584,-81.36917,-17.10453,-0.4441859,-4.249202,-61.88596,-6.98289,34.57793,0,0,0,130.1592,62.52364,-9.448644,-36.31316,-110.6672,-50.34543,0.001067912,-0.1257102,0.09433498,0,0.3,0,0,0,0,
6.38223E+17,37.74306,49.21112,63.1777,32.67356,-26.68584,-59.02939,-17.10453,-0.4441859,-4.249202,-61.81271,-6.98289,34.57793,0,0,0,126.1686,64.14136,-5.360181,-36.31316,-110.6672,-50.34543,0.001067912,-0.1257102,0.09433498,0,0.3,0,0,0,0,
6.38223E+17,37.20118,49.32801,63.90147,25.86176,-25.73365,-49.1413,-17.10453,-0.4441859,-4.249202,-61.81271,-6.98289,34.57793,0,0,0,124.9507,65.82689,-3.740606,-36.31316,-110.6672,-50.34543,0.001067912,-0.1257102,0.09433498,0,0.3,0,0,0,0,
6.38223E+17,36.98914,50.07611,64.78866,16.0469,-23.38981,-34.34578,-17.10453,-0.4441859,-4.249202,-61.88596,-6.98289,34.57793,0,0,0,124.0795,68.81425,-3.625948,-36.31316,-110.6672,-50.34543,0.001067912,-0.1257102,0.09433498,0,0.3,0,0,0,0,
6.38223E+17,37.27186,51.19827,65.30231,11.94517,-21.63192,-25.99582,-17.10453,-0.4441859,-4.249202,-61.88596,-6.98289,34.57793,0,0,0,123.9734,71.55448,-5.445668,-36.31316,-110.6672,-50.34543,0.001067912,-0.1257102,0.09433498,0,0.3,0,0,0,0,
6.38223E+17,37.41322,51.94637,65.30231,11.5057,-21.19245,-23.57873,-17.10453,-0.4441859,-4.249202,-61.88596,-6.98289,34.57793,0,0,0,123.5463,72.63663,-6.835405,-36.31316,-110.6672,-50.34543,0.001067912,-0.1257102,0.09433498,0,0.3,0,0,0,0,
6.38223E+17,37.46034,54.21405,64.64858,12.23815,-21.04596,-21.23489,-17.10453,-0.4441859,-4.249202,-61.88596,-6.98289,34.57793,0,0,0,120.7215,74.42814,-10.79703,-36.31316,-110.6672,-50.34543,0.001067912,-0.1257102,0.09433498,0,0.3,0,0,0,0,
6.38223E+17,37.22474,56.48174,63.71469,13.92279,-21.41219,-21.96734,-17.10453,-0.4441859,-4.249202,-61.88596,-6.98289,34.57793,0,0,0,116.8737,75.47231,-14.51259,-36.31316,-110.6672,-50.34543,0.001067912,-0.1257102,0.09433498,0,0.3,0,0,0,0,
6.38223E+17,37.03626,58.25848,62.50063,16.26664,-21.41219,-24.97039,-17.10453,-0.4441859,-4.249202,-61.88596,-6.98289,34.57793,0,0,0,113.4997,75.18198,-17.92899,-36.31316,-110.6672,-50.34543,0.001067912,-0.1257102,0.09433498,0,0.3,0,0,0,0,
6.38223E+17,37.0127,58.95983,61.33327,17.29207,-20.38675,-26.28881,-17.10453,-0.4441859,-4.249202,-61.88596,-6.98289,34.57793,0,0,0,111.8291,73.6352,-20.01621,-36.31316,-110.6672,-50.34543,0.001067912,-0.1257102,0.09433498,0,0.3,0,0,0,0,
6.38223E+17,36.82422,59.26375,58.95185,18.90347,-14.60039,-24.89715,-17.10453,-0.4441859,-4.249202,-61.88596,-6.98289,34.57793,0,0,0,109.323,69.19183,-22.34365,-36.31316,-110.6672,-50.34543,0.001067912,-0.1257102,0.09433498,0,0.3,0,0,0,0,
6.38223E+17,36.37658,59.1001,58.27478,20.51486,-6.543418,-19.03753,-17.10453,-0.4441859,-4.249202,-61.88596,-6.98289,34.57793,0,0,0,107.8862,67.65148,-21.89141,-36.31316,-110.6672,-50.34543,0.001067912,-0.1257102,0.09433498,0,0.3,0,0,0,0,
6.38223E+17,35.9525,59.21699,58.15804,21.32055,-2.514934,-14.05686,-17.10453,-0.4441859,-4.249202,-61.81271,-6.98289,34.57793,0,0,0,106.5781,67.56001,-21.40183,-36.31316,-110.6672,-50.34543,0.001067912,-0.1257102,0.09433498,0,0.3,0,0,0,0,
6.38223E+17,34.25618,60.24563,57.87787,22.12625,4.882828,-1.751673,-17.10453,-0.4441859,-4.249202,-61.88596,-6.98289,34.57793,0,0,0,100.8231,68.21364,-20.30573,-36.31316,-110.6672,-50.34543,0.001067912,-0.1257102,0.09433498,0,0.3,0,0,0,0,
6.38223E+17,32.08867,61.50805,57.66774,21.83327,9.497273,9.381593,-17.10453,-0.4441859,-4.249202,-61.81271,-6.98289,34.57793,0,0,0,93.64975,69.22987,-18.99389,-36.31316,-110.6672,-50.34543,0.001067912,-0.1257102,0.09433498,0,0.3,0,0,0,0,
6.38223E+17,29.63843,62.46656,57.34089,21.10082,12.79331,20.73459,-17.10453,-0.4441859,-4.249202,-61.88596,-6.98289,34.57793,0,0,0,86.00286,69.63598,-17.19375,-36.31316,-110.6672,-50.34543,0.001067912,-0.1257102,0.09433498,0,0.3,0,0,0,0,
6.38223E+17,27.63584,62.56007,56.40699,20.14863,14.69768,29.96349,-17.10453,-0.4441859,-4.249202,-61.88596,-6.98289,34.57793,0,0,0,80.02769,67.91618,-15.50404,-36.31316,-110.6672,-50.34543,0.001067912,-0.1257102,0.09433498,0,0.3,0,0,0,0,
6.38223E+17,26.43428,62.56007,55.70658,19.70916,15.8696,35.16389,-17.10453,-0.4441859,-4.249202,-61.88596,-6.98289,34.57793,0,0,0,76.39977,66.56384,-14.67455,-36.31316,-110.6672,-50.34543,0.001067912,-0.1257102,0.09433498,0,0.3,0,0,0,0,
6.38223E+17,23.32436,62.56007,54.04892,18.24426,18.65292,46.07742,-17.10453,-0.4441859,-4.249202,-61.88596,-6.98289,34.57793,0,0,0,67.07133,63.40836,-12.79421,-36.31316,-110.6672,-50.34543,0.001067912,-0.1257102,0.09433498,0,0.3,0,0,0,0,
6.38223E+17,19.81393,62.51331,51.64415,15.53419,21.80246,55.23307,-17.10453,-0.4441859,-4.249202,-61.88596,-6.98289,34.57793,0,0,0,56.30778,58.8977,-12.06833,-36.31316,-110.6672,-50.34543,0.001067912,-0.1257102,0.09433498,0,0.3,0,0,0,0,
6.38223E+17,17.78777,62.44318,49.77637,13.70306,23.85333,59.92076,-17.10453,-0.4441859,-4.249202,-61.81271,-6.98289,34.57793,0,0,0,49.95044,55.45799,-12.65843,-36.31316,-110.6672,-50.34543,0.001067912,-0.1257102,0.09433498,0,0.3,0,0,0,0,
6.38223E+17,13.28782,62.27954,46.67118,8.35616,27.66208,67.39177,-17.10453,-0.4441859,-4.249202,-61.88596,-6.98289,34.57793,0,0,0,36.55221,49.89241,-13.57628,-36.31316,-110.6672,-50.34543,0.001067912,-0.1257102,0.09433498,0,0.3,0,0,0,0,
6.38223E+17,7.704108,62.23278,44.17303,0.8119082,31.69056,72.73866,-17.10453,-0.4441859,-4.249202,-61.88596,-6.98289,34.57793,0,0,0,20.78519,45.70065,-14.7024,-36.31316,-110.6672,-50.34543,0.001067912,-0.1257102,0.09433498,0,0.3,0,0,0,0,
6.38223E+17,2.214636,62.46656,42.88893,-8.783209,35.20633,75.30224,-17.10453,-0.4441859,-4.249202,-61.88596,-6.98289,34.57793,0,0,0,5.889144,43.8948,-16.06538,-36.31316,-110.6672,-50.34543,0.001067912,-0.1257102,0.09433498,0,0.3,0,0,0,0,
6.38223E+17,-0.2355996,62.77048,42.65545,-13.69064,36.45149,75.59522,-17.10453,-0.4441859,-4.249202,-61.88596,-6.98289,34.57793,0,0,0,-0.6224361,43.85111,-16.97979,-36.31316,-110.6672,-50.34543,0.001067912,-0.1257102,0.09433498,0,0.3,0,0,0,0,
6.38223E+17,-4.853352,63.7056,42.60876,-23.359,37.69667,74.42331,-17.10453,-0.4441859,-4.249202,-61.88596,-6.98289,34.57793,0,0,0,-12.63572,44.7575,-19.53722,-36.31316,-110.6672,-50.34543,0.001067912,-0.1257102,0.09433498,0,0.3,0,0,0,0,
6.38223E+17,-8.316667,65.29533,42.49202,-32.00193,36.45149,70.76105,-17.10453,-0.4441859,-4.249202,-61.88596,-6.98289,34.57793,0,0,0,-21.09036,46.16654,-24.07463,-36.31316,-110.6672,-50.34543,0.001067912,-0.1257102,0.09433498,0,0.3,0,0,0,0,
6.38223E+17,-10.50774,67.4695,42.77219,-39.10671,32.71599,65.78037,-17.10453,-0.4441859,-4.249202,-61.88596,-6.98289,34.57793,0,0,0,-25.83292,48.63531,-29.07305,-36.31316,-110.6672,-50.34543,0.001067912,-0.1257102,0.09433498,0,0.3,0,0,0,0,
6.38223E+17,-10.60198,69.48002,42.93562,-42.62248,28.68751,62.63083,-17.10453,-0.4441859,-4.249202,-61.88596,-6.98289,34.57793,0,0,0,-25.31244,50.6108,-33.12006,-36.31316,-110.6672,-50.34543,0.001067912,-0.1257102,0.09433498,0,0.3,0,0,0,0,
6.38223E+17,-10.46062,70.60218,42.93562,-43.42817,26.19717,61.09268,-17.10453,-0.4441859,-4.249202,-61.88596,-6.98289,34.57793,0,0,0,-24.53303,51.50228,-35.47201,-36.31316,-110.6672,-50.34543,0.001067912,-0.1257102,0.09433498,0,0.3,0,0,0,0,
6.38223E+17,-10.13078,72.6127,42.93562,-44.01414,20.92352,58.23612,-17.10453,-0.4441859,-4.249202,-61.88596,-6.98289,34.57793,0,0,0,-22.9867,52.97864,-39.70378,-36.31316,-110.6672,-50.34543,0.001067912,-0.1257102,0.09433498,0,0.3,0,0,0,0,
6.38223E+17,-9.306185,74.66998,42.93562,-43.94089,15.43013,55.52605,-17.10453,-0.4441859,-4.249202,-61.88596,-6.98289,34.50468,0,0,0,-20.39001,54.32714,-43.91986,-36.31316,-110.6672,-50.34543,0.001067912,-0.1257102,0.09433498,0,0.3,0,0,0,0,
6.38223E+17,-8.717185,75.58173,42.93562,-43.35493,12.50033,54.20764,-17.10453,-0.4441859,-4.249202,-61.88596,-6.98289,34.57793,0,0,0,-18.79899,54.87184,-45.74402,-36.31316,-110.6672,-50.34543,0.001067912,-0.1257102,0.09433498,0,0.3,0,0,0,0,
6.38223E+17,-7.468508,76.86753,42.98232,-41.30406,7.006938,52.15677,-17.10453,-0.4441859,-4.249202,-61.88596,-6.98289,34.57793,0,0,0,-15.75527,55.65847,-48.16639,-36.31316,-110.6672,-50.34543,0.001067912,-0.1257102,0.09433498,0,0.3,0,0,0,0,
6.38223E+17,-5.489471,77.49874,43.00566,-38.74048,2.172756,50.98485,-17.10453,-0.4441859,-4.249202,-61.88596,-6.98289,34.57793,0,0,0,-11.46224,56.02141,-49.08032,-36.31316,-110.6672,-50.34543,0.001067912,-0.1257102,0.09433498,0,0.3,0,0,0,0,
6.38223E+17,-4.028753,77.84942,42.98232,-36.83611,-0.09784385,50.61862,-17.10453,-0.4441859,-4.249202,-61.88596,-6.98289,34.57793,0,0,0,-8.359336,56.15858,-49.6619,-36.31316,-110.6672,-50.34543,0.001067912,-0.1257102,0.09433498,0,0.3,0,0,0,0,
6.38223E+17,-0.04711992,78.64427,42.98232,-31.26948,-5.078516,50.2524,-17.10453,-0.4441859,-4.249202,-61.88596,-6.98289,34.57793,0,0,0,-0.09636113,56.53541,-51.17908,-36.31316,-110.6672,-50.34543,0.001067912,-0.1257102,0.09433498,0,0.3,0,0,0,0,
6.38223E+17,2.638716,78.71442,42.84223,-25.55635,-8.447793,50.10591,-17.10453,-0.4441859,-4.249202,-61.88596,-6.98289,34.57793,0,0,0,5.375955,56.34546,-51.70169,-36.31316,-110.6672,-50.34543,0.001067912,-0.1257102,0.09433498,0,0.3,0,0,0,0,
6.38223E+17,4.217233,78.66766,42.74884,-21.89409,-10.20568,50.10591,-17.10453,-0.4441859,-4.249202,-61.81271,-6.98289,34.57793,0,0,0,8.583325,56.17646,-51.94669,-36.31316,-110.6672,-50.34543,0.001067912,-0.1257102,0.09433498,0,0.3,0,0,0,0,
6.38223E+17,7.916147,78.45725,42.49202,-14.20335,-12.91575,50.03266,-17.10453,-0.4441859,-4.249202,-61.88596,-6.98289,34.57793,0,0,0,16.08054,55.67461,-52.70316,-36.31316,-110.6672,-50.34543,0.001067912,-0.1257102,0.09433498,0,0.3,0,0,0,0,
6.38223E+17,11.49726,78.10658,42.14182,-6.439363,-15.40608,49.88617,-17.10453,-0.4441859,-4.249202,-61.88596,-6.98289,34.57793,0,0,0,23.31178,54.96012,-53.74089,-36.31316,-110.6672,-50.34543,0.001067912,-0.1257102,0.09433498,0,0.3,0,0,0,0,
6.38223E+17,13.02866,77.89617,42.02508,-2.70386,-16.43152,49.4467,-17.10453,-0.4441859,-4.249202,-61.88596,-6.98289,34.57793,0,0,0,26.42888,54.67623,-54.13461,-36.31316,-110.6672,-50.34543,0.001067912,-0.1257102,0.09433498,0,0.3,0,0,0,0,
6.38223E+17,15.92653,77.68577,41.74491,3.595225,-18.04291,48.71425,-17.10453,-0.4441859,-4.249202,-61.88596,-6.98289,34.57793,0,0,0,32.16747,54.13733,-55.62337,-36.31316,-110.6672,-50.34543,0.001067912,-0.1257102,0.09433498,0,0.3,0,0,0,0,
6.38223E+17,19.20137,77.12469,40.97445,9.454838,-18.92185,48.42127,-17.10453,-0.4441859,-4.249202,-61.81271,-6.98289,34.57793,0,0,0,38.531,52.6677,-57.71254,-36.31316,-110.6672,-50.34543,0.001067912,-0.1257102,0.09433498,0,0.3,0,0,0,0,
6.38223E+17,22.54688,76.21294,40.27403,14.94823,-18.48238,48.56776,-17.10453,-0.4441859,-4.249202,-61.88596,-6.98289,34.57793,0,0,0,45.23912,51.11704,-59.38536,-36.31316,-110.6672,-50.34543,0.001067912,-0.1257102,0.09433498,0,0.3,0,0,0,0,
6.38223E+17,24.62016,75.39471,39.64366,18.75698,-17.38371,49.15372,-17.10453,-0.4441859,-4.249202,-61.88596,-6.98289,34.57793,0,0,0,49.45222,49.70777,-60.43731,-36.31316,-110.6672,-50.34543,0.001067912,-0.1257102,0.09433498,0,0.3,0,0,0,0,
6.38223E+17,26.4814,74.27255,38.52299,23.15168,-15.40608,50.03266,-17.10453,-0.4441859,-4.249202,-61.88596,-6.98289,34.57793,0,0,0,53.15225,47.38016,-61.65633,-36.31316,-110.6672,-50.34543,0.001067912,-0.1257102,0.09433498,0,0.3,0,0,0,0,
6.38223E+17,28.22483,72.98676,37.23889,26.88719,-12.11005,51.86379,-17.10453,-0.4441859,-4.249202,-61.81271,-6.98289,34.57793,0,0,0,56.61601,44.7017,-62.87138,-36.31316,-110.6672,-50.34543,0.001067912,-0.1257102,0.09433498,0,0.3,0,0,0,0,
6.38223E+17,29.28503,72.58932,36.81864,28.13236,-10.20568,53.10896,-17.10453,-0.4441859,-4.249202,-61.88596,-6.98289,34.57793,0,0,0,58.60822,43.83897,-63.84742,-36.31316,-110.6672,-50.34543,0.001067912,-0.1257102,0.09433498,0,0.3,0,0,0,0,
6.38223E+17,33.0075,71.77108,35.30106,31.79461,-4.419309,57.65016,-17.10453,-0.4441859,-4.249202,-61.88596,-6.98289,34.57793,0,0,0,64.70153,41.17722,-68.74695,-36.31316,-110.6672,-50.34543,0.001067912,-0.1257102,0.09433498,0,0.3,0,0,0,0,
6.38223E+17,33.78498,71.28014,34.36718,32.82005,-2.73467,58.82208,-17.10453,-0.4441859,-4.249202,-61.81271,-6.98289,34.57793,0,0,0,65.65768,39.57364,-70.21611,-36.31316,-110.6672,-50.34543,0.001067912,-0.1257102,0.09433498,0,0.3,0,0,0,0,
6.38223E+17,34.46822,69.7138,31.47211,33.91872,1.220569,60.57997,-17.10453,-0.4441859,-4.249202,-61.88596,-6.98289,34.57793,0,0,0,65.56722,34.69517,-72.83566,-36.31316,-110.6672,-50.34543,0.001067912,-0.1257102,0.09433498,0,0.3,0,0,0,0,
6.38223E+17,34.44466,67.02531,27.54977,33.33276,6.05475,62.11811,-17.10453,-0.4441859,-4.249202,-61.88596,-6.98289,34.57793,0,0,0,64.32495,27.89297,-74.5627,-36.31316,-110.6672,-50.34543,0.001067912,-0.1257102,0.09433498,0,0.3,0,0,0,0,
6.38223E+17,33.38446,62.79386,22.85697,31.20865,12.50033,63.36329,-17.10453,-0.4441859,-4.249202,-61.88596,-6.98289,34.57793,0,0,0,62.04896,19.06813,-74.19227,-36.31316,-110.6672,-50.34543,0.001067912,-0.1257102,0.09433498,0,0.3,0,0,0,0,
6.38223E+17,32.08867,59.98847,20.66233,29.30428,16.82179,63.80275,-17.10453,-0.4441859,-4.249202,-61.88596,-6.98289,34.57793,0,0,0,60.42863,14.04864,-71.97616,-36.31316,-110.6672,-50.34543,0.001067912,-0.1257102,0.09433498,0,0.3,0,0,0,0,
6.38223E+17,31.16983,58.32861,19.89187,28.05911,19.60511,64.02249,-17.10453,-0.4441859,-4.249202,-61.88596,-6.98289,34.57793,0,0,0,59.72149,11.44678,-69.6208,-36.31316,-110.6672,-50.34543,0.001067912,-0.1257102,0.09433498,0,0.3,0,0,0,0,
6.38223E+17,29.04943,54.86864,19.44827,25.71527,25.02525,64.16898,-17.10453,-0.4441859,-4.249202,-61.88596,-6.98289,34.57793,0,0,0,58.81942,6.666905,-62.45252,-36.31316,-110.6672,-50.34543,0.001067912,-0.1257102,0.09433498,0,0.3,0,0,0,0,
6.38223E+17,25.96308,51.8061,19.6584,23.81089,29.34671,64.38871,-17.10453,-0.4441859,-4.249202,-61.88596,-6.98289,34.57793,0,0,0,55.73707,2.57509,-53.88491,-36.31316,-110.6672,-50.34543,0.001067912,-0.1257102,0.09433498,0,0.3,0,0,0,0,
6.38223E+17,21.86364,49.18774,19.68175,21.46704,33.3752,65.56064,-17.10453,-0.4441859,-4.249202,-61.88596,-6.98289,34.57793,0,0,0,49.18157,-1.28277,-45.78232,-36.31316,-110.6672,-50.34543,0.001067912,-0.1257102,0.09433498,0,0.3,0,0,0,0,
6.38223E+17,19.48409,47.80843,19.51831,20.00214,35.13308,66.87905,-17.10453,-0.4441859,-4.249202,-61.81271,-6.98289,34.57793,0,0,0,44.73264,-3.537544,-41.91734,-36.31316,-110.6672,-50.34543,0.001067912,-0.1257102,0.09433498,0,0.3,0,0,0,0,
6.38223E+17,14.11242,44.86277,19.49497,16.48637,38.42912,70.61456,-17.10453,-0.4441859,-4.249202,-61.88596,-6.98289,34.57793,0,0,0,33.89666,-8.288572,-33.52539,-36.31316,-110.6672,-50.34543,0.001067912,-0.1257102,0.09433498,0,0.3,0,0,0,0,
6.38223E+17,7.374268,41.96388,19.68175,10.99299,41.87164,73.7641,-17.10453,-0.4441859,-4.249202,-61.88596,-6.98289,34.57793,0,0,0,18.49093,-13.04335,-25.47533,-36.31316,-110.6672,-50.34543,0.001067912,-0.1257102,0.09433498,0,0.3,0,0,0,0,
6.38223E+17,2.520916,40.3274,20.26543,5.133373,43.99575,75.08251,-17.10453,-0.4441859,-4.249202,-61.88596,-6.98289,34.57793,0,0,0,6.503001,-15.44734,-20.64413,-36.31316,-110.6672,-50.34543,0.001067912,-0.1257102,0.09433498,0,0.3,0,0,0,0,
6.38223E+17,-1.625637,39.15849,20.98919,-1.312202,45.38741,75.81496,-17.10453,-0.4441859,-4.249202,-61.88596,-6.98289,34.57793,0,0,0,-4.288381,-16.94574,-17.24608,-36.31316,-110.6672,-50.34543,0.001067912,-0.1257102,0.09433498,0,0.3,0,0,0,0,
6.38223E+17,-6.36119,38.52728,22.43672,-8.856454,45.68039,77.13338,-17.10453,-0.4441859,-4.249202,-61.88596,-6.98289,34.57793,0,0,0,-17.19728,-16.84361,-14.08963,-36.31316,-110.6672,-50.34543,0.001067912,-0.1257102,0.09433498,0,0.3,0,0,0,0,
6.38223E+17,-8.764306,38.5039,23.34727,-12.59196,44.94794,78.37854,-17.10453,-0.4441859,-4.249202,-61.81271,-6.909645,34.57793,0,0,0,-23.95292,-16.06184,-12.98342,-36.31316,-110.6672,-50.34543,0.001067912,-0.1257102,0.09433498,0,0.3,0,0,0,0,
6.38223E+17,-14.93702,38.59741,25.56526,-22.62654,41.50541,82.33378,-17.10453,-0.4441859,-4.249202,-61.88596,-6.98289,34.57793,0,0,0,-41.69613,-13.75465,-12.05088,-36.31316,-110.6672,-50.34543,0.001067912,-0.1257102,0.09433498,0,0.3,0,0,0,0,
6.38223E+17,-16.53909,38.73769,26.26567,-25.55635,40.187,83.13947,-17.10453,-0.4441859,-4.249202,-61.88596,-6.98289,34.57793,0,0,0,-46.40894,-12.78731,-12.06769,-36.31316,-110.6672,-50.34543,0.001067912,-0.1257102,0.09433498,0,0.3,0,0,0,0,
6.38223E+17,-19.22493,39.25201,27.47973,-31.26948,37.55017,84.45789,-17.10453,-0.4441859,-4.249202,-61.88596,-6.98289,34.57793,0,0,0,-54.26316,-10.5798,-12.74543,-36.31316,-110.6672,-50.34543,0.001067912,-0.1257102,0.09433498,0,0.3,0,0,0,0,
6.38223E+17,-20.99193,40.28064,28.67044,-36.76286,35.13308,85.70306,-17.10453,-0.4441859,-4.249202,-61.88596,-6.98289,34.57793,0,0,0,-59.36278,-7.435407,-13.63951,-36.31316,-110.6672,-50.34543,0.001067912,-0.1257102,0.09433498,0,0.3,0,0,0,0,
6.38223E+17,-21.39244,40.93523,29.32417,-39.03346,34.0344,86.14253,-17.10453,-0.4441859,-4.249202,-61.88596,-6.98289,34.57793,0,0,0,-60.56651,-5.54125,-13.74248,-36.31316,-110.6672,-50.34543,0.001067912,-0.1257102,0.09433498,0,0.3,0,0,0,0,
6.38223E+17,-21.62804,42.6886,30.725,-42.91546,31.61732,88.04691,-17.10453,-0.4441859,-4.249202,-61.88596,-6.98289,34.57793,0,0,0,-61.23942,-0.8684924,-13.8978,-36.31316,-110.6672,-50.34543,0.001067912,-0.1257102,0.09433498,0,0.3,0,0,0,0,
6.38223E+17,-21.62804,45.89141,32.77956,-44.96632,28.98049,91.70916,-17.10453,-0.4441859,-4.249202,-61.88596,-6.98289,34.57793,0,0,0,-60.81973,6.982914,-14.95629,-36.31316,-110.6672,-50.34543,0.001067912,-0.1257102,0.09433498,0,0.3,0,0,0,0,
6.38223E+17,-21.62804,50.77746,35.25437,-45.55228,25.39147,97.12931,-17.10453,-0.4441859,-4.249202,-61.88596,-6.98289,34.50468,0,0,0,-59.44908,17.7624,-18.41322,-36.31316,-110.6672,-50.34543,0.001067912,-0.1257102,0.09433498,0,0.3,0,0,0,0,
6.38223E+17,-21.58092,53.74649,36.7019,-45.62553,22.82789,100.4253,-17.10453,-0.4441859,-4.249202,-61.88596,-6.98289,34.57793,0,0,0,-58.31875,23.97042,-20.91024,-36.31316,-110.6672,-50.34543,0.001067912,-0.1257102,0.09433498,0,0.3,0,0,0,0,
6.38223E+17,-20.82701,59.82482,40.9978,-45.84526,16.60205,107.1639,-17.10453,-0.4441859,-4.249202,-61.88596,-6.98289,34.57793,0,0,0,-54.93543,37.98621,-23.93654,-36.31316,-110.6672,-50.34543,0.001067912,-0.1257102,0.09433498,0,0.3,0,0,0,0,
6.38223E+17,-19.53121,65.22519,45.34039,-46.79745,10.30297,113.3165,-17.10453,-0.4441859,-4.249202,-61.88596,-6.98289,34.57793,0,0,0,-50.39273,50.69586,-26.29126,-36.31316,-110.6672,-50.34543,0.001067912,-0.1257102,0.09433498,0,0.3,0,0,0,0,
6.38223E+17,-18.56525,67.98382,47.23152,-47.6764,7.006938,115.8068,-17.10453,-0.4441859,-4.249202,-61.88596,-6.98289,34.57793,0,0,0,-47.08314,56.42619,-28.16408,-36.31316,-110.6672,-50.34543,0.001067912,-0.1257102,0.09433498,0,0.3,0,0,0,0,
6.38223E+17,-15.71449,73.57121,51.03712,-49.36103,0.4148723,118.4436,-17.10453,-0.4441859,-4.249202,-61.88596,-6.98289,34.57793,0,0,0,-38.29768,67.40287,-32.23383,-36.31316,-110.6672,-50.34543,0.001067912,-0.1257102,0.09433498,0,0.3,0,0,0,0,
6.38223E+17,-11.96846,78.50401,55.23963,-50.45971,-5.884212,120.7142,-17.10453,-0.4441859,-4.249202,-61.88596,-6.98289,34.57793,0,0,0,-28.2296,77.99592,-35.17976,-36.31316,-110.6672,-50.34543,0.001067912,-0.1257102,0.09433498,0,0.3,0,0,0,0,
6.38223E+17,-7.774787,82.66533,58.76507,-50.82594,-12.62277,123.2778,-17.10453,-0.4441859,-4.249202,-61.88596,-7.056135,34.57793,0,0,0,-17.72769,86.46041,-38.50984,-36.31316,-110.6672,-50.34543,0.001067912,-0.1257102,0.09433498,0,0.3,0,0,0,0,
6.38223E+17,-3.062795,85.61098,61.98699,-50.23997,-19.21483,124.1568,-17.10453,-0.4441859,-4.249202,-61.88596,-6.98289,34.57793,0,0,0,-6.83545,93.67818,-40.60089,-36.31316,-110.6672,-50.34543,0.001067912,-0.1257102,0.09433498,0,0.3,0,0,0,0,
6.38223E+17,-0.3769594,86.68638,63.29443,-49.58077,-22.58411,124.3765,-17.10453,-0.4441859,-4.249202,-61.88596,-6.98289,34.57793,0,0,0,-0.8344519,96.5488,-41.51967,-36.31316,-110.6672,-50.34543,0.001067912,-0.1257102,0.09433498,0,0.3,0,0,0,0,
6.38223E+17,5.371671,88.43974,64.9054,-46.43123,-29.02968,124.1568,-17.10453,-0.4441859,-4.249202,-61.81271,-6.98289,34.57793,0,0,0,11.64526,100.0949,-44.50247,-36.31316,-110.6672,-50.34543,0.001067912,-0.1257102,0.09433498,0,0.3,0,0,0,0,
6.38223E+17,11.28522,89.37487,65.62917,-39.54618,-34.96254,118.2972,-17.10453,-0.4441859,-4.249202,-61.88596,-6.98289,34.57793,0,0,0,24.05511,101.6664,-47.8041,-36.31316,-110.6672,-50.34543,0.001067912,-0.1257102,0.09433498,0,0.3,0,0,0,0,
6.38223E+17,13.38206,89.51514,65.90933,-36.03041,-36.86692,114.9279,-17.10453,-0.4441859,-4.249202,-61.88596,-6.98289,34.57793,0,0,0,28.43599,102.2642,-48.8222,-36.31316,-110.6672,-50.34543,0.001067912,-0.1257102,0.09433498,0,0.3,0,0,0,0,
6.38223E+17,18.14117,89.79568,66.04942,-25.92258,-40.16295,105.8455,-17.10453,-0.4441859,-4.249202,-61.88596,-6.98289,34.57793,0,0,0,38.09281,102.5659,-52.08787,-36.31316,-110.6672,-50.34543,0.001067912,-0.1257102,0.09433498,0,0.3,0,0,0,0,
6.38223E+17,21.76941,90.19311,65.7459,-14.56958,-41.7011,96.61659,-17.10453,-0.4441859,-4.249202,-61.88596,-6.98289,34.57793,0,0,0,44.92376,101.9212,-55.8584,-36.31316,-110.6672,-50.34543,0.001067912,-0.1257102,0.09433498,0,0.3,0,0,0,0,
6.38223E+17,23.8898,90.75419,64.08825,-5.413931,-41.77435,89.87803,-17.10453,-0.4441859,-4.249202,-61.88596,-6.98289,34.57793,0,0,0,47.86398,98.41632,-60.28686,-36.31316,-110.6672,-50.34543,0.001067912,-0.1257102,0.09433498,0,0.3,0,0,0,0,
6.38223E+17,24.73796,91.175,62.68741,-2.337634,-41.11514,87.90041,-17.10453,-0.4441859,-4.249202,-61.88596,-6.98289,34.57793,0,0,0,48.43743,95.485,-63.22299,-36.31316,-110.6672,-50.34543,0.001067912,-0.1257102,0.09433498,0,0.3,0,0,0,0,
6.38223E+17,26.92904,91.96985,60.14256,1.910586,-38.77129,84.89736,-17.10453,-0.4441859,-4.249202,-61.88596,-6.98289,34.57793,0,0,0,50.30044,90.23373,-69.32683,-36.31316,-110.6672,-50.34543,0.001067912,-0.1257102,0.09433498,0,0.3,0,0,0,0,
6.38223E+17,29.37927,92.03999,57.85452,4.913638,-36.3542,82.26054,-17.10453,-0.4441859,-4.249202,-61.88596,-6.98289,34.57793,0,0,0,53.06234,85.66385,-74.09981,-36.31316,-110.6672,-50.34543,0.001067912,-0.1257102,0.09433498,0,0.3,0,0,0,0,
6.38223E+17,30.48659,91.85296,56.57042,6.232051,-35.03579,80.79563,-17.10453,-0.4441859,-4.249202,-61.81271,-6.98289,34.57793,0,0,0,54.27348,83.16621,-76.16259,-36.31316,-110.6672,-50.34543,0.001067912,-0.1257102,0.09433498,0,0.3,0,0,0,0,
6.38223E+17,32.53631,91.43215,54.51587,8.282915,-32.25247,78.59828,-17.10453,-0.4441859,-4.249202,-61.88596,-6.98289,34.57793,0,0,0,56.60751,79.25167,-79.61814,-36.31316,-110.6672,-50.34543,0.001067912,-0.1257102,0.09433498,0,0.3,0,0,0,0,
6.38223E+17,33.78498,91.175,53.30181,9.967555,-30.20161,77.4996,-17.10453,-0.4441859,-4.249202,-61.88596,-6.98289,34.57793,0,0,0,57.93486,76.98202,-81.75885,-36.31316,-110.6672,-50.34543,0.001067912,-0.1257102,0.09433498,0,0.3,0,0,0,0,
6.38223E+17,33.92635,91.01134,52.67143,10.8465,-29.17617,77.13338,-17.10453,-0.4441859,-4.249202,-61.88596,-6.98289,34.57793,0,0,0,57.86792,75.81779,-82.31893,-36.31316,-110.6672,-50.34543,0.001067912,-0.1257102,0.09433498,0,0.3,0,0,0,0,
6.38223E+17,33.73786,90.40351,50.75696,11.57895,-27.2718,76.6939,-17.10453,-0.4441859,-4.249202,-61.88596,-6.98289,34.57793,0,0,0,56.83702,72.33797,-83.24837,-36.31316,-110.6672,-50.34543,0.001067912,-0.1257102,0.09433498,0,0.3,0,0,0,0,
6.38223E+17,33.5965,89.2346,48.28215,11.43246,-25.07445,76.47417,-17.10453,-0.4441859,-4.249202,-61.88596,-7.056135,34.57793,0,0,0,56.06331,67.94861,-83.95676,-36.31316,-110.6672,-50.34543,0.001067912,-0.1257102,0.09433498,0,0.3,0,0,0,0,
6.38223E+17,33.54939,87.4111,46.69453,11.35921,-23.02358,76.54742,-17.10453,-0.4441859,-4.249202,-61.88596,-6.98289,34.57793,0,0,0,56.9584,65.10075,-82.45619,-36.31316,-110.6672,-50.34543,0.001067912,-0.1257102,0.09433498,0,0.3,0,0,0,0,
6.38223E+17,33.14886,84.79274,44.38315,11.5057,-21.2657,77.42635,-17.10453,-0.4441859,-4.249202,-61.88596,-6.98289,34.57793,0,0,0,57.62063,60.84729,-80.1247,-36.31316,-110.6672,-50.34543,0.001067912,-0.1257102,0.09433498,0,0.3,0,0,0,0,
6.38223E+17,32.91327,83.08614,42.74884,11.43246,-20.09377,78.08556,-17.10453,-0.4441859,-4.249202,-61.88596,-6.98289,34.57793,0,0,0,57.90594,57.80658,-78.88647,-36.31316,-110.6672,-50.34543,0.001067912,-0.1257102,0.09433498,0,0.3,0,0,0,0,
6.38223E+17,32.84259,79.34563,39.01328,11.13948,-17.09072,79.55046,-17.10453,-0.4441859,-4.249202,-61.88596,-6.98289,34.57793,0,0,0,58.89637,50.78813,-77.10973,-36.31316,-110.6672,-50.34543,0.001067912,-0.1257102,0.09433498,0,0.3,0,0,0,0,
6.38223E+17,32.93682,75.46484,34.74073,10.91974,-13.13548,81.01537,-17.10453,-0.4441859,-4.249202,-61.88596,-6.98289,34.57793,0,0,0,59.51424,42.85306,-76.4845,-36.31316,-110.6672,-50.34543,0.001067912,-0.1257102,0.09433498,0,0.3,0,0,0,0,
6.38223E+17,33.0075,73.47769,32.54609,10.91974,-10.71839,81.82106,-17.10453,-0.4441859,-4.249202,-61.81271,-6.98289,34.50468,0,0,0,59.73856,38.78528,-76.38705,-36.31316,-110.6672,-50.34543,0.001067912,-0.1257102,0.09433498,0,0.3,0,0,0,0,
6.38223E+17,33.14886,69.7138,28.53036,11.28597,-5.810967,83.43246,-17.10453,-0.4441859,-4.249202,-61.88596,-6.98289,34.57793,0,0,0,60.10874,31.2721,-76.31505,-36.31316,-110.6672,-50.34543,0.001067912,-0.1257102,0.09433498,0,0.3,0,0,0,0,
6.38223E+17,33.50227,66.3941,25.51856,11.65219,-1.269767,84.3114,-17.10453,-0.4441859,-4.249202,-61.88596,-6.98289,34.57793,0,0,0,61.18409,25.20033,-75.91886,-36.31316,-110.6672,-50.34543,0.001067912,-0.1257102,0.09433498,0,0.3,0,0,0,0,
6.38223E+17,33.9499,63.07439,22.50677,12.3114,3.124943,84.82411,-17.10453,-0.4441859,-4.249202,-61.88596,-6.98289,34.57793,0,0,0,62.23046,19.05091,-75.91532,-36.31316,-110.6672,-50.34543,0.001067912,-0.1257102,0.09433498,0,0.3,0,0,0,0,
6.38223E+17,34.0677,61.22752,20.80241,12.82412,5.175808,85.1171,-17.10453,-0.4441859,-4.249202,-61.88596,-6.98289,34.57793,0,0,0,62.48412,15.57932,-75.9492,-36.31316,-110.6672,-50.34543,0.001067912,-0.1257102,0.09433498,0,0.3,0,0,0,0,
6.38223E+17,33.97346,56.92593,17.30033,13.62981,9.277537,85.9228,-17.10453,-0.4441859,-4.249202,-61.88596,-6.98289,34.57793,0,0,0,62.82565,7.775601,-75.11402,-36.31316,-110.6672,-50.34543,0.001067912,-0.1257102,0.09433498,0,0.3,0,0,0,0,
6.38223E+17,33.57294,51.54894,13.82158,13.99604,14.33146,87.31445,-17.10453,-0.4441859,-4.249202,-61.88596,-6.98289,34.57793,0,0,0,63.47334,-1.707103,-72.71701,-36.31316,-110.6672,-50.34543,0.001067912,-0.1257102,0.09433498,0,0.3,0,0,0,0,
6.38223E+17,33.38446,45.70439,10.24945,14.43551,21.94895,89.14558,-17.10453,-0.4441859,-4.249202,-61.88596,-6.98289,34.57793,0,0,0,64.29935,-12.4273,-70.77735,-36.31316,-110.6672,-50.34543,0.001067912,-0.1257102,0.09433498,0,0.3,0,0,0,0,
6.38223E+17,32.53631,41.73009,8.475058,15.53419,27.73532,92.44161,-17.10453,-0.4441859,-4.249202,-61.88596,-6.98289,34.50468,0,0,0,64.09397,-19.78308,-67.88316,-36.31316,-110.6672,-50.34543,0.001067912,-0.1257102,0.09433498,0,0.3,0,0,0,0,
6.38223E+17,31.54679,39.60268,7.494472,16.48637,31.03135,95.37142,-17.10453,-0.4441859,-4.249202,-61.81271,-6.98289,34.57793,0,0,0,62.85498,-23.85556,-65.96776,-36.31316,-110.6672,-50.34543,0.001067912,-0.1257102,0.09433498,0,0.3,0,0,0,0,
6.38223E+17,28.74315,35.95568,5.533302,17.73154,36.81772,100.7916,-17.10453,-0.4441859,-4.249202,-61.88596,-6.98289,34.57793,0,0,0,58.09136,-31.08095,-62.43341,-36.31316,-110.6672,-50.34543,0.001067912,-0.1257102,0.09433498,0,0.3,0,0,0,0,
6.38223E+17,24.99712,33.8984,4.576064,17.07234,41.21243,104.2341,-17.10453,-0.4441859,-4.249202,-61.81271,-6.98289,34.57793,0,0,0,51.26788,-35.20271,-58.39124,-36.31316,-110.6672,-50.34543,0.001067912,-0.1257102,0.09433498,0,0.3,0,0,0,0,
6.38223E+17,22.85316,33.40745,4.132466,15.68068,42.97031,105.2595,-17.10453,-0.4441859,-4.249202,-61.81271,-6.98289,34.57793,0,0,0,46.9645,-36.23222,-56.91542,-36.31316,-110.6672,-50.34543,0.001067912,-0.1257102,0.09433498,0,0.3,0,0,0,0,
6.38223E+17,18.40033,32.96326,3.548784,11.72544,45.09443,106.1385,-17.10453,-0.4441859,-4.249202,-61.88596,-6.98289,34.57793,0,0,0,37.92191,-37.1884,-54.35471,-36.31316,-110.6672,-50.34543,0.001067912,-0.1257102,0.09433498,0,0.3,0,0,0,0,
6.38223E+17,13.17002,33.0334,3.642174,6.305296,45.46065,106.5047,-17.10453,-0.4441859,-4.249202,-61.88596,-6.98289,34.57793,0,0,0,27.40144,-37.03786,-51.24775,-36.31316,-110.6672,-50.34543,0.001067912,-0.1257102,0.09433498,0,0.3,0,0,0,0,
6.38223E+17,10.31926,33.08016,3.782257,2.936018,45.09443,106.5779,-17.10453,-0.4441859,-4.249202,-61.81271,-6.98289,34.57793,0,0,0,21.59115,-36.92555,-49.76819,-36.31316,-110.6672,-50.34543,0.001067912,-0.1257102,0.09433498,0,0.3,0,0,0,0,
6.38223E+17,4.052313,33.26719,3.945688,-6.732344,43.40979,105.699,-17.10453,-0.4441859,-4.249202,-61.88596,-6.98289,34.57793,0,0,0,8.527613,-36.53558,-47.97894,-36.31316,-110.6672,-50.34543,0.001067912,-0.1257102,0.09433498,0,0.3,0,0,0,0,
6.38223E+17,0.9895183,33.92177,4.179161,-13.54414,41.94488,103.7946,-17.10453,-0.4441859,-4.249202,-61.88596,-6.98289,34.57793,0,0,0,2.07876,-35.22807,-47.99614,-36.31316,-110.6672,-50.34543,0.001067912,-0.1257102,0.09433498,0,0.3,0,0,0,0,
6.38223E+17,-0.3298394,34.62312,4.506022,-17.2064,40.91945,102.6959,-17.10453,-0.4441859,-4.249202,-61.81271,-6.98289,34.57793,0,0,0,-0.692026,-33.82158,-48.14083,-36.31316,-110.6672,-50.34543,0.001067912,-0.1257102,0.09433498,0,0.3,0,0,0,0,
6.38223E+17,-2.167516,36.49338,5.673386,-22.69979,38.64885,101.3775,-17.10453,-0.4441859,-4.249202,-61.88596,-6.98289,34.57793,0,0,0,-4.553157,-30.03957,-48.05,-36.31316,-110.6672,-50.34543,0.001067912,-0.1257102,0.09433498,0,0.3,0,0,0,0,
6.38223E+17,-3.086355,39.11173,7.214305,-25.92258,36.52474,100.938,-17.10453,-0.4441859,-4.249202,-61.81271,-6.98289,34.57793,0,0,0,-6.472485,-24.82251,-48.30959,-36.31316,-110.6672,-50.34543,0.001067912,-0.1257102,0.09433498,0,0.3,0,0,0,0,
6.38223E+17,-3.510434,42.78211,9.105433,-27.16775,34.0344,101.1578,-17.10453,-0.4441859,-4.249202,-61.88596,-7.056135,34.57793,0,0,0,-7.284816,-17.74669,-49.59921,-36.31316,-110.6672,-50.34543,0.001067912,-0.1257102,0.09433498,0,0.3,0,0,0,0,
6.38223E+17,-3.746034,47.24735,11.74367,-27.0945,30.59188,102.8424,-17.10453,-0.4441859,-4.249202,-61.88596,-6.98289,34.57793,0,0,0,-7.687455,-9.290994,-50.93757,-36.31316,-110.6672,-50.34543,0.001067912,-0.1257102,0.09433498,0,0.3,0,0,0,0,
6.38223E+17,-3.887394,49.67868,13.33129,-26.80152,28.39453,104.1608,-17.10453,-0.4441859,-4.249202,-61.88596,-6.98289,34.57793,0,0,0,-7.934495,-4.736907,-51.58403,-36.31316,-110.6672,-50.34543,0.001067912,-0.1257102,0.09433498,0,0.3,0,0,0,0,
6.38223E+17,-4.335033,54.14392,16.92677,-26.4353,23.85333,106.6512,-17.10453,-0.4441859,-4.249202,-61.88596,-6.98289,34.57793,0,0,0,-8.838908,3.85599,-51.74987,-36.31316,-110.6672,-50.34543,0.001067912,-0.1257102,0.09433498,0,0.3,0,0,0,0,
6.38223E+17,-4.947592,58.37537,21.03589,-26.65503,19.01915,108.3358,-17.10453,-0.4441859,-4.249202,-61.88596,-6.98289,34.57793,0,0,0,-10.15862,12.43475,-51.00022,-36.31316,-110.6672,-50.34543,0.001067912,-0.1257102,0.09433498,0,0.3,0,0,0,0,
6.38223E+17,-5.536591,61.92886,24.39789,-28.04669,14.69768,108.8485,-17.10453,-0.4441859,-4.249202,-61.88596,-6.98289,34.57793,0,0,0,-11.36871,19.57155,-51.06653,-36.31316,-110.6672,-50.34543,0.001067912,-0.1257102,0.09433498,0,0.3,0,0,0,0,
6.38223E+17,-5.607271,63.79912,26.00885,-29.14537,12.72006,108.995,-17.10453,-0.4441859,-4.249202,-61.81271,-6.98289,34.50468,0,0,0,-11.46637,23.15335,-51.55956,-36.31316,-110.6672,-50.34543,0.001067912,-0.1257102,0.09433498,0,0.3,0,0,0,0,
6.38223E+17,-5.395231,67.93706,29.20743,-31.56245,8.764822,109.0683,-17.10453,-0.4441859,-4.249202,-61.88596,-6.98289,34.57793,0,0,0,-10.82804,30.53929,-53.69942,-36.31316,-110.6672,-50.34543,0.001067912,-0.1257102,0.09433498,0,0.3,0,0,0,0,
6.38223E+17,-5.088952,71.53731,32.07914,-33.68657,4.956073,108.995,-17.10453,-0.4441859,-4.249202,-61.88596,-6.98289,34.57793,0,0,0,-10.02789,36.84698,-55.74451,-36.31316,-110.6672,-50.34543,0.001067912,-0.1257102,0.09433498,0,0.3,0,0,0,0,
6.38223E+17,-4.924032,73.1504,33.50333,-34.63876,3.124943,108.9218,-17.10453,-0.4441859,-4.249202,-61.88596,-6.98289,34.57793,0,0,0,-9.635829,39.78074,-56.50417,-36.31316,-110.6672,-50.34543,0.001067912,-0.1257102,0.09433498,0,0.3,0,0,0,0,
6.38223E+17,-4.499953,76.00254,36.00148,-36.83611,-0.171089,108.4823,-17.10453,-0.4441859,-4.249202,-61.88596,-6.98289,34.57793,0,0,0,-8.680506,44.85998,-58.05254,-36.31316,-110.6672,-50.34543,0.001067912,-0.1257102,0.09433498,0,0.3,0,0,0,0,
6.38223E+17,-3.392634,78.80792,38.00935,-39.03346,-3.174141,107.4569,-17.10453,-0.4441859,-4.249202,-61.88596,-6.98289,34.57793,0,0,0,-6.39115,49.09611,-60.54061,-36.31316,-110.6672,-50.34543,0.001067912,-0.1257102,0.09433498,0,0.3,0,0,0,0,
6.38223E+17,-0.5418791,82.08087,39.2701,-40.35188,-6.836399,105.9187,-17.10453,-0.4441859,-4.249202,-61.88596,-6.98289,34.57793,0,0,0,-0.9720332,52.19266,-65.57479,-36.31316,-110.6672,-50.34543,0.001067912,-0.1257102,0.09433498,0,0.3,0,0,0,0,
6.38223E+17,1.719877,83.67059,39.7137,-39.76591,-8.814018,104.7468,-17.10453,-0.4441859,-4.249202,-61.88596,-6.98289,34.57793,0,0,0,2.99846,53.3081,-68.48969,-36.31316,-110.6672,-50.34543,0.001067912,-0.1257102,0.09433498,0,0.3,0,0,0,0,
6.38223E+17,3.345515,84.6291,39.94717,-38.88697,-10.13243,103.7214,-17.10453,-0.4441859,-4.249202,-61.81271,-6.98289,34.57793,0,0,0,5.725029,53.88353,-70.41376,-36.31316,-110.6672,-50.34543,0.001067912,-0.1257102,0.09433498,0,0.3,0,0,0,0,
6.38223E+17,7.185789,86.3357,40.25069,-36.61637,-12.47628,101.524,-17.10453,-0.4441859,-4.249202,-61.81271,-6.98289,34.57793,0,0,0,11.84379,54.65137,-74.40936,-36.31316,-110.6672,-50.34543,0.001067912,-0.1257102,0.09433498,0,0.3,0,0,0,0,
6.38223E+17,11.8271,87.50462,40.34408,-32.66114,-14.67363,98.59421,-17.10453,-0.4441859,-4.249202,-61.88596,-6.98289,34.50468,0,0,0,18.8836,54.9381,-78.1724,-36.31316,-110.6672,-50.34543,0.001067912,-0.1257102,0.09433498,0,0.3,0,0,0,0,
6.38223E+17,16.42129,87.83191,40.62424,-27.75371,-16.87099,95.29817,-17.10453,-0.4441859,-4.249202,-61.88596,-6.98289,34.57793,0,0,0,25.971,55.39244,-80.22903,-36.31316,-110.6672,-50.34543,0.001067912,-0.1257102,0.09433498,0,0.3,0,0,0,0,
6.38223E+17,18.40033,87.80853,40.64759,-24.97039,-17.74993,93.90652,-17.10453,-0.4441859,-4.249202,-61.88596,-6.98289,34.57793,0,0,0,29.02884,55.42575,-81.08775,-36.31316,-110.6672,-50.34543,0.001067912,-0.1257102,0.09433498,0,0.3,0,0,0,0,
6.38223E+17,21.76941,87.59813,40.64759,-19.477,-19.28808,90.90347,-17.10453,-0.4441859,-4.249202,-61.88596,-6.98289,34.57793,0,0,0,34.28833,55.40613,-82.49011,-36.31316,-110.6672,-50.34543,0.001067912,-0.1257102,0.09433498,0,0.3,0,0,0,0,
6.38223E+17,24.38456,87.17731,40.67094,-15.15554,-20.38675,88.04691,-17.10453,-0.4441859,-4.249202,-61.88596,-6.98289,34.57793,0,0,0,38.59111,55.3969,-83.21539,-36.31316,-110.6672,-50.34543,0.001067912,-0.1257102,0.09433498,0,0.3,0,0,0,0,
6.38223E+17,26.0102,86.73314,40.74098,-13.25116,-20.89947,86.80173,-17.10453,-0.4441859,-4.249202,-61.81271,-6.98289,34.57793,0,0,0,41.49766,55.4483,-83.3056,-36.31316,-110.6672,-50.34543,0.001067912,-0.1257102,0.09433498,0,0.3,0,0,0,0,
6.38223E+17,29.87403,85.23693,40.62424,-8.929699,-21.55868,84.53114,-17.10453,-0.4441859,-4.249202,-61.88596,-6.98289,34.57793,0,0,0,48.76167,55.02739,-83.46185,-36.31316,-110.6672,-50.34543,0.001067912,-0.1257102,0.09433498,0,0.3,0,0,0,0,
6.38223E+17,33.19599,83.43681,40.32073,-3.436311,-21.48543,82.7,-17.10453,-0.4441859,-4.249202,-61.88596,-6.98289,34.57793,0,0,0,55.58703,54.15546,-83.39112,-36.31316,-110.6672,-50.34543,0.001067912,-0.1257102,0.09433498,0,0.3,0,0,0,0,
6.38223E+17,34.32687,82.68871,40.1573,-1.019221,-21.33894,81.89431,-17.10453,-0.4441859,-4.249202,-61.88596,-6.98289,34.57793,0,0,0,58.06389,53.69946,-83.31718,-36.31316,-110.6672,-50.34543,0.001067912,-0.1257102,0.09433498,0,0.3,0,0,0,0,
6.38223E+17,36.1881,80.88859,39.57362,4.767147,-20.53325,79.7702,-17.10453,-0.4441859,-4.249202,-61.88596,-6.98289,34.57793,0,0,0,62.62764,52.23035,-82.74289,-36.31316,-110.6672,-50.34543,0.001067912,-0.1257102,0.09433498,0,0.3,0,0,0,0,
6.38223E+17,36.87134,80.4444,39.59696,5.719335,-20.31351,79.33073,-17.10453,-0.4441859,-4.249202,-61.81271,-6.98289,34.57793,0,0,0,64.28121,52.09732,-82.6462,-36.31316,-110.6672,-50.34543,0.001067912,-0.1257102,0.09433498,0,0.3,0,0,0,0,
6.38223E+17,39.10954,78.90144,39.50357,8.50265,-19.72755,78.45178,-17.10453,-0.4441859,-4.249202,-61.88596,-6.98289,34.57793,0,0,0,69.70203,51.31517,-82.61082,-36.31316,-110.6672,-50.34543,0.001067912,-0.1257102,0.09433498,0,0.3,0,0,0,0,
6.38223E+17,40.94721,77.35847,39.29345,12.3114,-18.48238,77.79259,-17.10453,-0.4441859,-4.249202,-61.88596,-6.98289,34.57793,0,0,0,74.47108,50.26613,-82.52125,-36.31316,-110.6672,-50.34543,0.001067912,-0.1257102,0.09433498,0,0.3,0,0,0,0,
6.38223E+17,41.72469,76.61037,39.15337,14.06928,-17.74993,77.4996,-17.10453,-0.4441859,-4.249202,-61.88596,-6.98289,34.57793,0,0,0,76.58978,49.66784,-82.46207,-36.31316,-110.6672,-50.34543,0.001067912,-0.1257102,0.09433498,0,0.3,0,0,0,0,
6.38223E+17,43.60949,74.83363,38.47629,17.29207,-16.50476,76.91364,-17.10453,-0.4441859,-4.249202,-61.88596,-6.98289,34.57793,0,0,0,81.2903,47.66031,-83.01508,-36.31316,-110.6672,-50.34543,0.001067912,-0.1257102,0.09433498,0,0.3,0,0,0,0,
6.38223E+17,45.6592,72.4958,37.75253,20.22188,-14.82012,76.10795,-17.10453,-0.4441859,-4.249202,-61.88596,-6.98289,34.57793,0,0,0,87.07664,45.09037,-83.25435,-36.31316,-110.6672,-50.34543,0.001067912,-0.1257102,0.09433498,0,0.3,0,0,0,0,
6.38223E+17,46.93144,69.73718,36.32835,22.78546,-12.8425,75.44874,-17.10453,-0.4441859,-4.249202,-61.88596,-6.98289,34.57793,0,0,0,91.44923,41.01602,-82.8674,-36.31316,-110.6672,-50.34543,0.001067912,-0.1257102,0.09433498,0,0.3,0,0,0,0,
6.38223E+17,47.40264,68.31111,35.4645,23.59116,-11.59733,75.229,-17.10453,-0.4441859,-4.249202,-61.81271,-6.98289,34.57793,0,0,0,93.2315,38.64912,-82.62717,-36.31316,-110.6672,-50.34543,0.001067912,-0.1257102,0.09433498,0,0.3,0,0,0,0,
6.38223E+17,48.32148,64.66412,33.66676,25.05606,-7.861832,75.00926,-17.10453,-0.4441859,-4.249202,-61.88596,-6.98289,34.57793,0,0,0,97.83315,32.88969,-81.24961,-36.31316,-110.6672,-50.34543,0.001067912,-0.1257102,0.09433498,0,0.3,0,0,0,0,
6.38223E+17,48.4864,62.04575,32.59278,25.86176,-4.785534,74.93602,-17.10453,-0.4441859,-4.249202,-61.88596,-6.98289,34.57793,0,0,0,100.5943,28.79094,-79.30913,-36.31316,-110.6672,-50.34543,0.001067912,-0.1257102,0.09433498,0,0.3,0,0,0,0,
6.38223E+17,48.4864,60.68982,31.96241,26.30123,-2.954405,75.00926,-17.10453,-0.4441859,-4.249202,-61.88596,-6.98289,34.57793,0,0,0,101.7395,26.49528,-78.29543,-36.31316,-110.6672,-50.34543,0.001067912,-0.1257102,0.09433498,0,0.3,0,0,0,0,
6.38223E+17,48.39216,58.30524,30.35144,26.66745,0.1218917,75.59522,-17.10453,-0.4441859,-4.249202,-61.81271,-6.98289,34.57793,0,0,0,102.7674,21.73873,-77.08367,-36.31316,-110.6672,-50.34543,0.001067912,-0.1257102,0.09433498,0,0.3,0,0,0,0,
6.38223E+17,47.85028,56.13107,27.89998,26.96043,3.198189,76.6939,-17.10453,-0.4441859,-4.249202,-61.88596,-6.98289,34.57793,0,0,0,101.3587,16.22228,-76.60551,-36.31316,-110.6672,-50.34543,0.001067912,-0.1257102,0.09433498,0,0.3,0,0,0,0,
6.38223E+17,46.8372,53.51271,24.67806,26.52096,6.127995,78.3053,-17.10453,-0.4441859,-4.249202,-61.88596,-6.98289,34.57793,0,0,0,98.45034,9.391006,-76.0192,-36.31316,-110.6672,-50.34543,0.001067912,-0.1257102,0.09433498,0,0.3,0,0,0,0,
6.38223E+17,45.61209,50.35665,21.22267,25.42229,9.350782,80.13642,-17.10453,-0.4441859,-4.249202,-61.88596,-6.98289,34.57793,0,0,0,95.29462,1.727306,-75.06998,-36.31316,-110.6672,-50.34543,0.001067912,-0.1257102,0.09433498,0,0.3,0,0,0,0,
6.38223E+17,44.9524,48.74355,19.6584,24.76308,10.88893,81.08862,-17.10453,-0.4441859,-4.249202,-61.88596,-6.98289,34.57793,0,0,0,93.82259,-1.979758,-74.37141,-36.31316,-110.6672,-50.34543,0.001067912,-0.1257102,0.09433498,0,0.3,0,0,0,0,
6.38223E+17,43.30321,45.84466,16.55321,23.73765,14.18496,83.21272,-17.10453,-0.4441859,-4.249202,-61.88596,-6.98289,34.57793,0,0,0,89.76839,-8.800924,-73.10078,-36.31316,-110.6672,-50.34543,0.001067912,-0.1257102,0.09433498,0,0.3,0,0,0,0,
6.38223E+17,40.78229,43.29643,13.86828,22.8587,17.40775,85.77631,-17.10453,-0.4441859,-4.249202,-61.88596,-6.98289,34.57793,0,0,0,84.27213,-14.66493,-70.65878,-36.31316,-110.6672,-50.34543,0.001067912,-0.1257102,0.09433498,0,0.3,0,0,0,0,
6.38223E+17,39.13309,42.19766,12.74761,22.41923,18.79941,87.3877,-17.10453,-0.4441859,-4.249202,-61.88596,-6.98289,34.57793,0,0,0,80.91926,-17.14323,-68.8963,-36.31316,-110.6672,-50.34543,0.001067912,-0.1257102,0.09433498,0,0.3,0,0,0,0,
6.38223E+17,34.96298,40.28064,10.6697,21.3938,21.43624,91.1232,-17.10453,-0.4441859,-4.249202,-61.88596,-6.98289,34.57793,0,0,0,72.44479,-21.47944,-64.74573,-36.31316,-110.6672,-50.34543,0.001067912,-0.1257102,0.09433498,0,0.3,0,0,0,0,
6.38223E+17,30.76931,39.18187,9.502337,19.78241,23.4871,95.29817,-17.10453,-0.4441859,-4.249202,-61.88596,-6.98289,34.57793,0,0,0,64.14223,-23.92189,-60.61926,-36.31316,-110.6672,-50.34543,0.001067912,-0.1257102,0.09433498,0,0.3,0,0,0,0,
6.38223E+17,27.16464,38.99485,9.198823,17.6583,24.80551,99.47314,-17.10453,-0.4441859,-4.249202,-61.88596,-6.98289,34.57793,0,0,0,57.04917,-24.37451,-57.17559,-36.31316,-110.6672,-50.34543,0.001067912,-0.1257102,0.09433498,0,0.3,0,0,0,0,
6.38223E+17,25.539,38.92471,9.152128,16.70611,24.87876,101.0845,-17.10453,-0.4441859,-4.249202,-61.88596,-6.98289,34.57793,0,0,0,53.8703,-24.51877,-55.60611,-36.31316,-110.6672,-50.34543,0.001067912,-0.1257102,0.09433498,0,0.3,0,0,0,0,
6.38223E+17,21.5338,38.27012,8.638489,14.65524,24.43929,104.3073,-17.10453,-0.4441859,-4.249202,-61.88596,-6.98289,34.57793,0,0,0,45.77927,-25.89429,-52.33334,-36.31316,-110.6672,-50.34543,0.001067912,-0.1257102,0.09433498,0,0.3,0,0,0,0,
6.38223E+17,16.91605,36.91418,7.704598,12.09166,24.07306,107.0906,-17.10453,-0.4441859,-4.249202,-61.88596,-6.98289,34.57793,0,0,0,36.22457,-28.70374,-49.24088,-36.31316,-110.6672,-50.34543,0.001067912,-0.1257102,0.09433498,0,0.3,0,0,0,0,
6.38223E+17,14.48938,36.04919,7.307694,10.26054,24.07306,108.0428,-17.10453,-0.4441859,-4.249202,-61.88596,-6.98289,34.57793,0,0,0,31.21924,-30.44309,-47.54174,-36.31316,-110.6672,-50.34543,0.001067912,-0.1257102,0.09433498,0,0.3,0,0,0,0,
6.38223E+17,10.0601,34.57636,7.00418,5.646089,24.58578,109.7275,-17.10453,-0.4441859,-4.249202,-61.81271,-6.98289,34.57793,0,0,0,22.01985,-33.32817,-44.23073,-36.31316,-110.6672,-50.34543,0.001067912,-0.1257102,0.09433498,0,0.3,0,0,0,0,
6.38223E+17,5.701511,34.15556,7.541167,0.8119082,25.31823,111.5586,-17.10453,-0.4441859,-4.249202,-61.81271,-6.98289,34.57793,0,0,0,12.70138,-33.97839,-41.13252,-36.31316,-110.6672,-50.34543,0.001067912,-0.1257102,0.09433498,0,0.3,0,0,0,0,
6.38223E+17,1.342918,34.17893,8.685184,-4.388499,25.46472,112.6573,-17.10453,-0.4441859,-4.249202,-61.88596,-6.98289,34.57793,0,0,0,3.057375,-33.55761,-37.93054,-36.31316,-110.6672,-50.34543,0.001067912,-0.1257102,0.09433498,0,0.3,0,0,0,0,
6.38223E+17,-1.036638,34.20231,9.502337,-7.24506,25.39147,113.3165,-17.10453,-0.4441859,-4.249202,-61.88596,-6.98289,34.57793,0,0,0,-2.393588,-33.21202,-36.06902,-36.31316,-110.6672,-50.34543,0.001067912,-0.1257102,0.09433498,0,0.3,0,0,0,0,
6.38223E+17,-4.924032,34.57636,11.20669,-13.32441,25.09849,114.6349,-17.10453,-0.4441859,-4.249202,-61.88596,-6.98289,34.57793,0,0,0,-11.64889,-31.78067,-33.13798,-36.31316,-110.6672,-50.34543,0.001067912,-0.1257102,0.09433498,0,0.3,0,0,0,0,
6.38223E+17,-7.327148,35.65176,12.77096,-18.52482,24.51253,115.3673,-17.10453,-0.4441859,-4.249202,-61.88596,-6.98289,34.57793,0,0,0,-17.57865,-28.97711,-31.64116,-36.31316,-110.6672,-50.34543,0.001067912,-0.1257102,0.09433498,0,0.3,0,0,0,0,
6.38223E+17,-8.293106,36.42324,13.51807,-20.86866,24.07306,115.7336,-17.10453,-0.4441859,-4.249202,-61.88596,-6.98289,34.57793,0,0,0,-19.97271,-27.12977,-31.32667,-36.31316,-110.6672,-50.34543,0.001067912,-0.1257102,0.09433498,0,0.3,0,0,0,0,
6.38223E+17,-10.13078,37.9662,15.03564,-24.38443,23.12087,116.9055,-17.10453,-0.4441859,-4.249202,-61.88596,-6.98289,34.57793,0,0,0,-24.57672,-23.39826,-30.80517,-36.31316,-110.6672,-50.34543,0.001067912,-0.1257102,0.09433498,0,0.3,0,0,0,0,
6.38223E+17,-12.48678,39.50917,16.92677,-27.24099,21.94895,118.0042,-17.10453,-0.4441859,-4.249202,-61.88596,-6.98289,34.57793,0,0,0,-30.63915,-19.38548,-29.99464,-36.31316,-110.6672,-50.34543,0.001067912,-0.1257102,0.09433498,0,0.3,0,0,0,0,
6.38223E+17,-14.96058,41.02874,18.98133,-30.1708,20.77703,118.8831,-17.10453,-0.4441859,-4.249202,-61.88596,-6.98289,34.57793,0,0,0,-37.16649,-15.21309,-29.26002,-36.31316,-110.6672,-50.34543,0.001067912,-0.1257102,0.09433498,0,0.3,0,0,0,0,
6.38223E+17,-17.15165,42.85225,21.24601,-33.54007,19.23888,119.7621,-17.10453,-0.4441859,-4.249202,-61.88596,-6.98289,34.57793,0,0,0,-43.08005,-10.24393,-28.76398,-36.31316,-110.6672,-50.34543,0.001067912,-0.1257102,0.09433498,0,0.3,0,0,0,0,
6.38223E+17,-17.97625,43.78737,22.39003,-35.00498,18.35994,120.2015,-17.10453,-0.4441859,-4.249202,-61.88596,-6.98289,34.57793,0,0,0,-45.38647,-7.670975,-28.46753,-36.31316,-110.6672,-50.34543,0.001067912,-0.1257102,0.09433498,0,0.3,0,0,0,0,
6.38223E+17,-19.43697,45.84466,24.86484,-38.00803,16.52881,121.3735,-17.10453,-0.4441859,-4.249202,-61.88596,-6.98289,34.57793,0,0,0,-49.57047,-1.966294,-27.87638,-36.31316,-110.6672,-50.34543,0.001067912,-0.1257102,0.09433498,0,0.3,0,0,0,0,
6.38223E+17,-20.56785,48.11234,27.12952,-40.64486,14.77092,122.6919,-17.10453,-0.4441859,-4.249202,-61.88596,-6.98289,34.57793,0,0,0,-52.64199,3.944565,-28.05925,-36.31316,-110.6672,-50.34543,0.001067912,-0.1257102,0.09433498,0,0.3,0,0,0,0,
6.38223E+17,-20.99193,49.37476,28.22684,-41.81678,13.81874,123.2046,-17.10453,-0.4441859,-4.249202,-61.88596,-6.98289,34.57793,0,0,0,-53.69785,7.068319,-28.40337,-36.31316,-110.6672,-50.34543,0.001067912,-0.1257102,0.09433498,0,0.3,0,0,0,0,
6.38223E+17,-21.48668,52.15677,30.51488,-43.72115,11.91436,123.8638,-17.10453,-0.4441859,-4.249202,-61.88596,-6.98289,34.57793,0,0,0,-54.76719,13.7748,-29.22058,-36.31316,-110.6672,-50.34543,0.001067912,-0.1257102,0.09433498,0,0.3,0,0,0,0,
6.38223E+17,-21.6516,55.40634,32.82626,-45.47904,9.717009,124.523,-17.10453,-0.4441859,-4.249202,-61.88596,-6.98289,34.57793,0,0,0,-54.6056,21.06717,-30.7941,-36.31316,-110.6672,-50.34543,0.001067912,-0.1257102,0.09433498,0,0.3,0,0,0,0,
6.38223E+17,-21.6516,58.42213,34.85747,-46.65096,7.519653,124.816,-17.10453,-0.4441859,-4.249202,-61.88596,-6.98289,34.57793,0,0,0,-53.88469,27.53091,-32.61012,-36.31316,-110.6672,-50.34543,0.001067912,-0.1257102,0.09433498,0,0.3,0,0,0,0,
6.38223E+17,-21.6516,60.01184,36.00148,-47.16368,6.420976,124.9625,-17.10453,-0.4441859,-4.249202,-61.88596,-6.98289,34.57793,0,0,0,-53.51241,30.96789,-33.54794,-36.31316,-110.6672,-50.34543,0.001067912,-0.1257102,0.09433498,0,0.3,0,0,0,0,
6.38223E+17,-21.43956,63.26142,38.0327,-47.96938,4.370111,125.4752,-17.10453,-0.4441859,-4.249202,-61.81271,-6.98289,34.57793,0,0,0,-51.96055,37.40633,-36.03133,-36.31316,-110.6672,-50.34543,0.001067912,-0.1257102,0.09433498,0,0.3,0,0,0,0,
6.38223E+17,-20.70921,67.09544,40.36742,-48.55533,2.099511,125.8414,-17.10453,-0.4441859,-4.249202,-61.88596,-6.98289,34.57793,0,0,0,-48.89521,44.58569,-39.01543,-36.31316,-110.6672,-50.34543,0.001067912,-0.1257102,0.09433498,0,0.3,0,0,0,0,
6.38223E+17,-19.46053,71.30352,43.16909,-48.92156,-0.7570504,126.3541,-17.10453,-0.4441859,-4.249202,-61.88596,-6.98289,34.57793,0,0,0,-44.63572,52.40593,-42.0261,-36.31316,-110.6672,-50.34543,0.001067912,-0.1257102,0.09433498,0,0.3,0,0,0,0,
