zeyangz2/DNN_classification_different_people_hand/data/Frank_right_6.csv
Timestamp,Therapist joint angle 0,Therapist joint angle 1,Therapist joint angle 2,Therapist joint angle 3,Therapist joint angle 4,Therapist joint angle 5,Patient joint angle 0,Patient joint angle 1,Patient joint angle 2,Patient joint angle 3,Patient joint angle 4,Patient joint angle 5,Virtual joint angle 0,Virtual joint angle 1,Virtual joint angle 2,Therapist position x,Therapist position y,Therapist position z,Patient position x,Patient position y,Patient position z,Virtual position x,Virtual position y,Virtual position z,Assistive Force, Obstacle Force Magnitude, Therapist Constant Force, Patient Constant Force, Recovery Factor, Assistance Level,label
6.38223E+17,0,0,0,0,0,0,0,0,0,0,0,0,0,0,0,0,0,0,0,0,0,0,0,0,0,0.3,0,0,0,0,1
6.38223E+17,30.79287,-0.9818845,-10.48292,-95.28575,-9.033754,-62.39867,-4.617752,-0.4441859,0.1400836,-35.15147,-8.447793,45.12524,0,0,0,55.83603,-110.0594,-74.65768,-10.76163,-111.0334,-35.11188,0.001067912,-0.1257102,0.09433498,0,0.3,0,0,0,0,
6.38223E+17,30.79287,-0.9818845,-10.48292,-95.28575,-9.033754,-62.39867,-4.617752,-0.4441859,0.1400836,-35.22471,-8.447793,45.05199,0,0,0,55.83603,-110.0594,-74.65768,-10.76163,-111.0334,-35.11188,0.001067912,-0.1257102,0.09433498,0,0.3,0,0,0,0,
6.38223E+17,30.79287,-0.9818845,-10.48292,-95.28575,-9.033754,-62.39867,-4.617752,-0.4441859,0.1400836,-35.15147,-8.447793,45.05199,0,0,0,55.83603,-110.0594,-74.65768,-10.76163,-111.0334,-35.11188,0.001067912,-0.1257102,0.09433498,0,0.3,0,0,0,0,
6.38223E+17,30.79287,-0.9818845,-10.48292,-95.28575,-9.033754,-62.39867,-4.617752,-0.4441859,0.1400836,-35.15147,-8.447793,45.05199,0,0,0,55.83603,-110.0594,-74.65768,-10.76163,-111.0334,-35.11188,0.001067912,-0.1257102,0.09433498,0,0.3,0,0,0,0,
6.38223E+17,30.79287,-0.9818845,-10.48292,-95.28575,-9.033754,-62.39867,-4.617752,-0.4441859,0.1400836,-35.15147,-8.447793,45.05199,0,0,0,55.83603,-110.0594,-74.65768,-10.76163,-111.0334,-35.11188,0.001067912,-0.1257102,0.09433498,0,0.3,0,0,9.85E-08,0,
6.38223E+17,30.79287,-0.9818845,-10.48292,-95.28575,-9.033754,-62.39867,-4.617752,-0.4441859,0.1400836,-35.22471,-8.447793,45.05199,0,0,0,55.83603,-110.0594,-74.65768,-10.76163,-111.0334,-35.11188,0.001067912,-0.1257102,0.09433498,0,0.3,0,0,9.85E-08,0,
6.38223E+17,30.79287,-0.9818845,-10.48292,-95.28575,-9.033754,-62.39867,-4.617752,-0.4441859,0.1400836,-35.15147,-8.521038,45.05199,0,0,0,55.83603,-110.0594,-74.65768,-10.76163,-111.0334,-35.11188,0.001067912,-0.1257102,0.09433498,0,0.3,0,0,1.97E-07,0,
6.38223E+17,30.79287,-0.9818845,-10.48292,-95.28575,-9.033754,-62.39867,-4.617752,-0.4441859,0.1400836,-35.15147,-8.447793,45.05199,0,0,0,55.83603,-110.0594,-74.65768,-10.76163,-111.0334,-35.11188,0.001067912,-0.1257102,0.09433498,0,0.3,0,0,1.97E-07,0,
6.38223E+17,30.79287,-0.9818845,-10.48292,-95.28575,-9.106999,-62.39867,-4.617752,-0.4441859,0.1400836,-35.15147,-8.447793,45.05199,0,0,0,55.83603,-110.0594,-74.65768,-10.76163,-111.0334,-35.11188,0.001067912,-0.1257102,0.09433498,0,0.3,0,0,1.97E-07,0,
6.38223E+17,30.79287,-0.9818845,-10.48292,-95.28575,-9.033754,-62.39867,-4.617752,-0.4441859,0.1400836,-35.15147,-8.447793,45.12524,0,0,0,55.83603,-110.0594,-74.65768,-10.76163,-111.0334,-35.11188,0.001067912,-0.1257102,0.09433498,0,0.3,0,0,1.97E-07,0,
6.38223E+17,30.79287,-0.9818845,-10.48292,-95.28575,-9.033754,-62.39867,-4.617752,-0.4441859,0.1400836,-35.15147,-8.447793,45.12524,0,0,0,55.83603,-110.0594,-74.65768,-10.76163,-111.0334,-35.11188,0.001067912,-0.1257102,0.09433498,0,0.3,0,0,1.97E-07,0,
6.38223E+17,30.79287,-0.9818845,-10.48292,-95.28575,-9.033754,-62.39867,-4.617752,-0.4441859,0.1400836,-35.15147,-8.447793,45.12524,0,0,0,55.83603,-110.0594,-74.65768,-10.76163,-111.0334,-35.11188,0.001067912,-0.1257102,0.09433498,0,0.3,0,0,2.95E-07,0,
6.38223E+17,30.79287,-0.9818845,-10.48292,-95.28575,-9.033754,-62.39867,-4.617752,-0.4441859,0.1400836,-35.15147,-8.447793,45.12524,0,0,0,55.83603,-110.0594,-74.65768,-10.76163,-111.0334,-35.11188,0.001067912,-0.1257102,0.09433498,0,0.3,0,0,2.95E-07,0,
6.38223E+17,30.79287,-0.9818845,-10.48292,-95.28575,-9.033754,-62.39867,-4.617752,-0.4441859,0.1400836,-35.15147,-8.447793,45.05199,0,0,0,55.83603,-110.0594,-74.65768,-10.76163,-111.0334,-35.11188,0.001067912,-0.1257102,0.09433498,0,0.3,0,0,2.95E-07,0,
6.38223E+17,30.79287,-0.9818845,-10.48292,-95.28575,-9.033754,-62.39867,-4.617752,-0.4441859,0.1400836,-35.15147,-8.447793,45.05199,0,0,0,55.83603,-110.0594,-74.65768,-10.76163,-111.0334,-35.11188,0.001067912,-0.1257102,0.09433498,0,0.3,0,0,1.97E-07,0,
6.38223E+17,30.79287,-0.9818845,-10.48292,-95.28575,-8.960509,-62.39867,-4.617752,-0.4441859,0.1400836,-35.15147,-8.447793,45.05199,0,0,0,55.83603,-110.0594,-74.65768,-10.76163,-111.0334,-35.11188,0.001067912,-0.1257102,0.09433498,0,0.3,0,0,9.85E-08,0,
6.38223E+17,30.79287,-0.9818845,-10.48292,-95.28575,-9.033754,-62.39867,-4.617752,-0.4441859,0.1400836,-35.15147,-8.447793,45.05199,0,0,0,55.83603,-110.0594,-74.65768,-10.76163,-111.0334,-35.11188,0.001067912,-0.1257102,0.09433498,0,0.3,0,0,0,0,
6.38223E+17,30.79287,-0.9818845,-10.48292,-95.28575,-9.033754,-62.39867,-4.617752,-0.4441859,0.1400836,-35.15147,-8.447793,45.12524,0,0,0,55.83603,-110.0594,-74.65768,-10.76163,-111.0334,-35.11188,0.001067912,-0.1257102,0.09433498,0,0.3,0,0,0,0,
6.38223E+17,30.79287,-0.9818845,-10.48292,-95.28575,-9.033754,-62.39867,-4.617752,-0.4441859,0.1400836,-35.15147,-8.447793,45.05199,0,0,0,55.83603,-110.0594,-74.65768,-10.76163,-111.0334,-35.11188,0.001067912,-0.1257102,0.09433498,0,0.3,0,0,0,0,
6.38223E+17,30.79287,-0.9818845,-10.48292,-95.28575,-9.033754,-62.39867,-4.617752,-0.4441859,0.1400836,-35.15147,-8.447793,45.12524,0,0,0,55.83603,-110.0594,-74.65768,-10.76163,-111.0334,-35.11188,0.001067912,-0.1257102,0.09433498,0,0.3,0,0,0,0,
6.38223E+17,30.79287,-0.9818845,-10.48292,-95.359,-9.033754,-62.39867,-4.617752,-0.4441859,0.1400836,-35.22471,-8.447793,45.05199,0,0,0,55.83603,-110.0594,-74.65768,-10.76163,-111.0334,-35.11188,0.001067912,-0.1257102,0.09433498,0,0.3,0,0,0,0,
6.38223E+17,30.79287,-0.9818845,-10.48292,-95.28575,-9.033754,-62.39867,-4.617752,-0.4441859,0.1400836,-35.15147,-8.447793,44.97874,0,0,0,55.83603,-110.0594,-74.65768,-10.76163,-111.0334,-35.11188,0.001067912,-0.1257102,0.09433498,0,0.3,0,0,0,0,
6.38223E+17,30.79287,-0.9818845,-10.48292,-95.359,-9.033754,-62.39867,-4.617752,-0.4441859,0.1400836,-35.15147,-8.447793,45.05199,0,0,0,55.83603,-110.0594,-74.65768,-10.76163,-111.0334,-35.11188,0.001067912,-0.1257102,0.09433498,0,0.3,0,0,0,0,
6.38223E+17,30.79287,-0.9818845,-10.48292,-95.28575,-9.033754,-62.39867,-4.617752,-0.4441859,0.1400836,-35.15147,-8.447793,45.05199,0,0,0,55.83603,-110.0594,-74.65768,-10.76163,-111.0334,-35.11188,0.001067912,-0.1257102,0.09433498,0,0.3,0,0,0,0,
6.38223E+17,30.79287,-0.9818845,-10.48292,-95.28575,-9.033754,-62.39867,-4.617752,-0.4441859,0.1400836,-35.15147,-8.521038,45.05199,0,0,0,55.83603,-110.0594,-74.65768,-10.76163,-111.0334,-35.11188,0.001067912,-0.1257102,0.09433498,0,0.3,0,0,0,0,
6.38223E+17,30.79287,-0.9818845,-10.48292,-95.28575,-9.033754,-62.39867,-4.617752,-0.4441859,0.1400836,-35.15147,-8.447793,45.12524,0,0,0,55.83603,-110.0594,-74.65768,-10.76163,-111.0334,-35.11188,0.001067912,-0.1257102,0.09433498,0,0.3,0,0,0,0,
6.38223E+17,30.79287,-0.9818845,-10.52962,-95.28575,-9.033754,-62.39867,-4.617752,-0.4441859,0.1400836,-35.22471,-8.447793,45.05199,0,0,0,55.78133,-110.0396,-74.74947,-10.76163,-111.0334,-35.11188,0.001067912,-0.1257102,0.09433498,0,0.3,0,0,0,0,
6.38223E+17,30.76931,-1.005263,-10.76309,-95.28575,-9.033754,-63.20437,-4.617752,-0.4441859,0.1400836,-35.15147,-8.447793,45.12524,0,0,0,55.46915,-109.9936,-75.1862,-10.76163,-111.0334,-35.11188,0.001067912,-0.1257102,0.09433498,0,0.3,0,0,1.04E-05,0,
6.38223E+17,30.76931,-1.005263,-10.85648,-95.28575,-9.033754,-73.45869,-4.617752,-0.4441859,0.1400836,-35.22471,-8.521038,45.05199,0,0,0,55.35993,-109.9528,-75.36964,-10.76163,-111.0334,-35.11188,0.001067912,-0.1257102,0.09433498,0,0.3,0,0,2.97E-05,0,
6.38223E+17,30.76931,-1.005263,-10.83313,-95.50549,-8.887264,-84.15249,-4.617752,-0.4441859,0.1400836,-35.15147,-8.447793,45.12524,0,0,0,55.38723,-109.9631,-75.32379,-10.76163,-111.0334,-35.11188,0.001067912,-0.1257102,0.09433498,0,0.3,0,0,4.79E-05,0,
6.38223E+17,30.76931,-0.9818845,-10.80978,-95.72523,-8.740773,-85.98362,-4.617752,-0.4441859,0.1400836,-35.15147,-8.447793,45.05199,0,0,0,55.41502,-109.9189,-75.27712,-10.76163,-111.0334,-35.11188,0.001067912,-0.1257102,0.09433498,0,0.3,0,0,6.47E-05,0,
6.38223E+17,30.76931,-0.9818845,-10.80978,-95.79847,-9.033754,-79.97752,-4.617752,-0.4441859,0.1400836,-35.15147,-8.447793,45.05199,0,0,0,55.41502,-109.9189,-75.27712,-10.76163,-111.0334,-35.11188,0.001067912,-0.1257102,0.09433498,0,0.3,0,0,8.04E-05,0,
6.38223E+17,30.76931,-0.9818845,-10.80978,-95.79847,-9.180244,-75.07008,-4.617752,-0.4441859,0.1400836,-35.15147,-8.447793,45.05199,0,0,0,55.41502,-109.9189,-75.27712,-10.76163,-111.0334,-35.11188,0.001067912,-0.1257102,0.09433498,0,0.3,0,0,9.49E-05,0,
6.38223E+17,30.76931,-0.9818845,-10.80978,-95.79847,-9.180244,-73.67843,-4.617752,-0.4441859,0.1400836,-35.15147,-8.447793,45.05199,0,0,0,55.41502,-109.9189,-75.27712,-10.76163,-111.0334,-35.11188,0.001067912,-0.1257102,0.09433498,0,0.3,0,0,0.000101942,0,
6.38223E+17,30.76931,-0.9818845,-10.78644,-95.72523,-9.180244,-72.72624,-4.617752,-0.4441859,0.1400836,-35.15147,-8.521038,45.05199,0,0,0,55.44233,-109.929,-75.23125,-10.76163,-111.0334,-35.11188,0.001067912,-0.1257102,0.09433498,0,0.3,0,0,0.000115337,0,
6.38223E+17,30.76931,-0.9818845,-10.76309,-95.72523,-9.106999,-72.94598,-4.617752,-0.4441859,0.1400836,-35.22471,-8.447793,45.12524,0,0,0,55.46964,-109.9392,-75.18539,-10.76163,-111.0334,-35.11188,0.001067912,-0.1257102,0.09433498,0,0.3,0,0,0.000128043,0,
6.38223E+17,30.62795,-1.005263,-10.76309,-95.79847,-9.033754,-78.6591,-4.617752,-0.4441859,0.1400836,-35.15147,-8.447793,45.12524,0,0,0,55.23913,-109.9936,-75.04963,-10.76163,-111.0334,-35.11188,0.001067912,-0.1257102,0.09433498,0,0.3,0,0,0.000191966,0,
6.38223E+17,30.15675,-1.005263,-11.0666,-95.87171,-8.740773,-89.3529,-4.617752,-0.4441859,0.1400836,-35.15147,-8.447793,45.12524,0,0,0,54.12152,-109.8598,-75.19825,-10.76163,-111.0334,-35.11188,0.001067912,-0.1257102,0.09433498,0,0.3,0,0,0.000540144,0,
6.38223E+17,29.80335,-1.005263,-11.13665,-95.87171,-8.521038,-93.52787,-4.617752,-0.4441859,0.1400836,-35.22471,-8.447793,45.12524,0,0,0,53.46643,-109.8285,-75.005,-10.76163,-111.0334,-35.11188,0.001067912,-0.1257102,0.09433498,0,0.3,0,0,0.00087207,0,
6.38223E+17,28.95519,-1.005263,-11.1133,-95.94496,-8.228058,-96.97039,-4.617752,-0.4441859,0.1400836,-35.15147,-8.447793,45.05199,0,0,0,52.10463,-109.8389,-74.17714,-10.76163,-111.0334,-35.11188,0.001067912,-0.1257102,0.09433498,0,0.3,0,0,0.001936599,0,
6.38223E+17,28.31907,-1.005263,-10.92652,-96.09145,-8.154812,-97.84933,-4.617752,-0.4441859,0.1400836,-35.15147,-8.447793,45.05199,0,0,0,51.25832,-109.922,-73.22884,-10.76163,-111.0334,-35.11188,0.001067912,-0.1257102,0.09433498,0,0.3,0,0,0.003420123,0,
6.38223E+17,27.96567,-1.005263,-10.2261,-96.45767,-8.081567,-96.1647,-4.617752,-0.4441859,0.1400836,-35.15147,-8.521038,45.05199,0,0,0,51.4221,-110.2212,-71.49917,-10.76163,-111.0334,-35.11188,0.001067912,-0.1257102,0.09433498,0,0.3,0,0,0.005104477,0,
6.38223E+17,27.68295,-1.005263,-8.568447,-96.67741,-8.081567,-89.93885,-4.617752,-0.4441859,0.1400836,-35.15147,-8.447793,45.05199,0,0,0,52.71181,-110.8512,-67.87617,-10.76163,-111.0334,-35.11188,0.001067912,-0.1257102,0.09433498,0,0.3,0,0,0.006921011,0,
6.38223E+17,27.51804,-0.9818845,-7.00418,-96.82391,-7.935077,-82.17487,-4.617752,-0.4441859,0.1400836,-35.22471,-8.447793,45.05199,0,0,0,54.08936,-111.29,-64.52512,-10.76163,-111.0334,-35.11188,0.001067912,-0.1257102,0.09433498,0,0.3,0,0,0.008761775,0,
6.38223E+17,27.49447,-0.9818845,-6.280415,-96.89715,-7.861832,-77.63367,-4.617752,-0.4441859,0.1400836,-35.15147,-8.447793,45.05199,0,0,0,54.8191,-111.4848,-63.01869,-10.76163,-111.0334,-35.11188,0.001067912,-0.1257102,0.09433498,0,0.3,0,0,0.009639656,0,
6.38223E+17,27.47091,-0.9818845,-4.389286,-96.1647,-7.715342,-68.33153,-4.617752,-0.4441859,0.1400836,-35.15147,-8.447793,45.05199,0,0,0,56.79726,-111.894,-59.10812,-10.76163,-111.0334,-35.11188,0.001067912,-0.1257102,0.09433498,0,0.3,0,0,0.01123891,0,
6.38223E+17,27.4238,-0.8883717,-1.821087,-94.5533,-7.568851,-57.418,-4.617752,-0.4441859,0.1400836,-35.15147,-8.447793,45.12524,0,0,0,59.45768,-112.0002,-53.76101,-10.76163,-111.0334,-35.11188,0.001067912,-0.1257102,0.09433498,0,0.3,0,0,0.01252653,0,
6.38223E+17,27.4238,-0.4909423,0.1167363,-92.79542,-7.422361,-48.70182,-4.617752,-0.4441859,0.1400836,-35.15147,-8.447793,45.12524,0,0,0,61.53968,-111.1423,-49.7485,-10.76163,-111.0334,-35.11188,0.001067912,-0.1257102,0.09433498,0,0.3,0,0,0.01341653,0,
6.38223E+17,27.47091,0.04675641,2.194643,-90.37833,-6.98289,-43.50142,-4.617752,-0.4441859,0.1400836,-35.15147,-8.447793,45.05199,0,0,0,63.86975,-109.7934,-45.50513,-10.76163,-111.0334,-35.11188,0.001067912,-0.1257102,0.09433498,0,0.3,0,0,0.01385099,0,
6.38223E+17,27.47091,0.3974294,3.432048,-88.98667,-6.543418,-41.67029,-4.617752,-0.4441859,0.1400836,-35.15147,-8.447793,45.05199,0,0,0,65.19517,-108.8359,-42.95587,-10.76163,-111.0334,-35.11188,0.001067912,-0.1257102,0.09433498,0,0.3,0,0,0.0138502,0,
6.38223E+17,27.47091,1.192288,6.210372,-86.49634,-4.639044,-37.71505,-4.617752,-0.4441859,0.1400836,-35.15147,-8.447793,45.05199,0,0,0,68.15536,-106.4427,-37.26233,-10.76163,-111.0334,-35.11188,0.001067912,-0.1257102,0.09433498,0,0.3,0,0,0.01329971,0,
6.38223E+17,27.6594,1.753365,9.338906,-84.15249,-1.635992,-33.68657,-4.617752,-0.4441859,0.1400836,-35.15147,-8.447793,45.12524,0,0,0,71.91925,-104.1524,-31.1278,-10.76163,-111.0334,-35.11188,0.001067912,-0.1257102,0.09433498,0,0.3,0,0,0.01177492,0,
6.38223E+17,28.15415,2.150795,12.44409,-80.63672,2.465737,-30.02431,-4.617752,-0.4441859,0.1400836,-35.15147,-8.521038,45.05199,0,0,0,76.43482,-101.8626,-25.52536,-10.76163,-111.0334,-35.11188,0.001067912,-0.1257102,0.09433498,0,0.3,0,0,0.008988115,0,
6.38223E+17,28.34263,2.361199,13.96167,-78.29288,4.956073,-28.11993,-4.617752,-0.4441859,0.1400836,-35.15147,-8.447793,45.12524,0,0,0,78.52751,-100.5666,-22.7682,-10.76163,-111.0334,-35.11188,0.001067912,-0.1257102,0.09433498,0,0.3,0,0,0.007127455,0,
6.38223E+17,28.57823,2.73525,16.99681,-72.36002,9.497273,-23.65198,-4.617752,-0.4441859,0.1400836,-35.22471,-8.447793,45.05199,0,0,0,82.36312,-97.81181,-17.14869,-10.76163,-111.0334,-35.11188,0.001067912,-0.1257102,0.09433498,0,0.3,0,0,0.002531998,0,
6.38223E+17,28.69603,3.132679,19.54166,-64.66927,13.52576,-17.42614,-4.617752,-0.4441859,0.1400836,-35.15147,-8.447793,45.05199,0,0,0,85.35146,-95.03149,-12.42674,-10.76163,-111.0334,-35.11188,0.001067912,-0.1257102,0.09433498,0,0.3,0,0,0,0,
6.38223E+17,28.76671,3.459974,22.20325,-55.1474,16.16258,-8.343738,-4.617752,-0.4441859,0.1400836,-35.15147,-8.447793,45.12524,0,0,0,88.30788,-92.06415,-7.497267,-10.76163,-111.0334,-35.11188,0.001067912,-0.1257102,0.09433498,0,0.3,0,0,0,0,
6.38223E+17,28.97875,3.950917,25.79873,-45.2593,16.96828,4.474167,-4.617752,-0.4441859,0.1400836,-35.15147,-8.447793,45.05199,0,0,0,92.56986,-87.52073,-1.203393,-10.76163,-111.0334,-35.11188,0.001067912,-0.1257102,0.09433498,0,0.3,0,0,0,0,
6.38223E+17,28.97875,4.371724,29.55764,-38.81373,16.74854,16.99909,-4.617752,-0.4441859,0.1400836,-35.15147,-8.447793,45.05199,0,0,0,96.28825,-82.48095,5.510633,-10.76163,-111.0334,-35.11188,0.001067912,-0.1257102,0.09433498,0,0.3,0,0,0,0,
6.38223E+17,28.97875,4.511993,31.09856,-36.54313,16.30907,22.05301,-4.617752,-0.4441859,0.1400836,-35.15147,-8.447793,45.05199,0,0,0,97.7757,-80.3446,8.196405,-10.76163,-111.0334,-35.11188,0.001067912,-0.1257102,0.09433498,0,0.3,0,0,0,0,
6.38223E+17,28.97875,4.605506,34.04031,-32.80762,14.77092,29.67051,-4.617752,-0.4441859,0.1400836,-35.15147,-8.447793,45.05199,0,0,0,100.5625,-76.44237,13.22825,-10.76163,-111.0334,-35.11188,0.001067912,-0.1257102,0.09433498,0,0.3,0,0,0,0,
6.38223E+17,28.97875,4.605506,35.74466,-30.46378,13.08629,34.06521,-4.617752,-0.4441859,0.1400836,-35.15147,-8.521038,45.12524,0,0,0,102.1387,-74.17335,16.07438,-10.76163,-111.0334,-35.11188,0.001067912,-0.1257102,0.09433498,0,0.3,0,0,0,0,
6.38223E+17,29.21435,4.605506,37.42567,-28.26642,10.00999,39.92483,-4.617752,-0.4441859,0.1400836,-35.22471,-8.521038,45.05199,0,0,0,104.4295,-71.8416,18.39465,-10.76163,-111.0334,-35.11188,0.001067912,-0.1257102,0.09433498,0,0.3,0,0,0,0,
6.38223E+17,29.63843,4.324967,39.64366,-26.58179,7.080183,45.12524,-4.617752,-0.4441859,0.1400836,-35.15147,-8.447793,45.05199,0,0,0,107.8307,-69.27679,21.17023,-10.76163,-111.0334,-35.11188,0.001067912,-0.1257102,0.09433498,0,0.3,0,0,0,0,
6.38223E+17,29.85047,4.067808,40.76432,-25.84933,5.835015,48.20153,-4.617752,-0.4441859,0.1400836,-35.15147,-8.447793,45.12524,0,0,0,109.5446,-68.19007,22.53559,-10.76163,-111.0334,-35.11188,0.001067912,-0.1257102,0.09433498,0,0.3,0,0,0,0,
6.38223E+17,30.43947,3.740513,42.21186,-24.60417,3.271434,54.94009,-4.617752,-0.4441859,0.1400836,-35.15147,-8.447793,45.05199,0,0,0,112.8059,-66.71828,23.6199,-10.76163,-111.0334,-35.11188,0.001067912,-0.1257102,0.09433498,0,0.3,0,0,0,0,
6.38223E+17,31.00491,3.576865,43.19244,-23.21251,0.7810982,62.77732,-4.617752,-0.4441859,0.1400836,-35.22471,-8.447793,45.05199,0,0,0,115.5713,-65.55063,23.95567,-10.76163,-111.0334,-35.11188,0.001067912,-0.1257102,0.09433498,0,0.3,0,0,0,0,
6.38223E+17,31.28763,3.530109,44.73336,-21.82085,-1.196521,68.49045,-4.617752,-0.4441859,0.1400836,-35.22471,-8.447793,45.12524,0,0,0,117.8629,-63.16971,25.59475,-10.76163,-111.0334,-35.11188,0.001067912,-0.1257102,0.09433498,0,0.3,0,0,0,0,
6.38223E+17,31.49967,3.530109,45.87738,-20.72217,-2.73467,72.00621,-4.617752,-0.4441859,0.1400836,-35.15147,-8.447793,45.05199,0,0,0,119.5583,-61.27701,26.75392,-10.76163,-111.0334,-35.11188,0.001067912,-0.1257102,0.09433498,0,0.3,0,0,0,0,
6.38223E+17,31.78239,3.530109,46.9747,-19.55025,-4.053083,74.86278,-4.617752,-0.4441859,0.1400836,-35.15147,-8.447793,45.05199,0,0,0,121.4467,-59.42677,27.658,-10.76163,-111.0334,-35.11188,0.001067912,-0.1257102,0.09433498,0,0.3,0,0,0,0,
6.38223E+17,31.99443,3.530109,47.72181,-18.96429,-4.639044,75.74171,-4.617752,-0.4441859,0.1400836,-35.15147,-8.447793,45.05199,0,0,0,122.7955,-58.1479,28.20637,-10.76163,-111.0334,-35.11188,0.001067912,-0.1257102,0.09433498,0,0.3,0,0,0,0,
6.38223E+17,32.84259,3.530109,49.5429,-17.35289,-5.737722,78.01232,-4.617752,-0.4441859,0.1400836,-35.15147,-8.447793,45.12524,0,0,0,127.2106,-54.96719,28.72043,-10.76163,-111.0334,-35.11188,0.001067912,-0.1257102,0.09433498,0,0.3,0,0,0,0,
6.38223E+17,34.0677,3.413218,51.41068,-15.00905,-7.056135,83.35921,-4.617752,-0.4441859,0.1400836,-35.15147,-8.447793,45.12524,0,0,0,132.9539,-51.8857,28.26072,-10.76163,-111.0334,-35.11188,0.001067912,-0.1257102,0.09433498,0,0.3,0,0,0,0,
6.38223E+17,35.50486,3.38984,53.06834,-12.006,-8.521038,90.90347,-4.617752,-0.4441859,0.1400836,-35.15147,-8.447793,45.05199,0,0,0,139.2171,-48.89006,26.79012,-10.76163,-111.0334,-35.11188,0.001067912,-0.1257102,0.09433498,0,0.3,0,0,0,0,
6.38223E+17,37.15406,3.38984,55.09955,-8.124002,-9.766206,94.56573,-4.617752,-0.4441859,0.1400836,-35.15147,-8.447793,45.12524,0,0,0,146.4503,-45.06162,24.91272,-10.76163,-111.0334,-35.11188,0.001067912,-0.1257102,0.09433498,0,0.3,0,0,0,0,
6.38223E+17,37.90798,3.38984,56.01009,-6.219628,-10.20568,95.29817,-4.617752,-0.4441859,0.1400836,-35.15147,-8.447793,45.05199,0,0,0,149.717,-43.314,23.91472,-10.76163,-111.0334,-35.11188,0.001067912,-0.1257102,0.09433498,0,0.3,0,0,0,0,
6.38223E+17,39.2509,3.413218,57.52766,-2.630615,-11.01137,96.03063,-4.617752,-0.4441859,0.1400836,-35.22471,-8.447793,45.05199,0,0,0,155.4044,-40.30538,21.84947,-10.76163,-111.0334,-35.11188,0.001067912,-0.1257102,0.09433498,0,0.3,0,0,0,0,
6.38223E+17,40.82941,3.576865,58.78841,1.251379,-11.45084,96.25037,-4.617752,-0.4441859,0.1400836,-35.15147,-8.447793,45.05199,0,0,0,161.5818,-37.43259,18.65015,-10.76163,-111.0334,-35.11188,0.001067912,-0.1257102,0.09433498,0,0.3,0,0,0,0,
6.38223E+17,42.52573,4.231455,59.79235,5.206618,-11.67058,95.29817,-4.617752,-0.4441859,0.1400836,-35.15147,-8.447793,45.05199,0,0,0,167.783,-33.90378,14.58799,-10.76163,-111.0334,-35.11188,0.001067912,-0.1257102,0.09433498,0,0.3,0,0,0,0,
6.38223E+17,43.27965,4.652263,60.2126,7.184238,-11.89032,94.63897,-4.617752,-0.4441859,0.1400836,-35.15147,-8.447793,45.12524,0,0,0,170.4588,-32.08027,12.66525,-10.76163,-111.0334,-35.11188,0.001067912,-0.1257102,0.09433498,0,0.3,0,0,0,0,
6.38223E+17,44.66969,5.540634,61.0531,10.99299,-12.40303,93.17406,-4.617752,-0.4441859,0.1400836,-35.15147,-8.447793,45.05199,0,0,0,175.345,-28.31608,9.028544,-10.76163,-111.0334,-35.11188,0.001067912,-0.1257102,0.09433498,0,0.3,0,0,0,0,
6.38223E+17,45.84768,6.452384,61.8469,14.14253,-13.13548,91.78241,-4.617752,-0.4441859,0.1400836,-35.15147,-8.447793,45.12524,0,0,0,179.4291,-24.58288,5.846854,-10.76163,-111.0334,-35.11188,0.001067912,-0.1257102,0.09433498,0,0.3,0,0,0,0,
6.38223E+17,46.97857,7.457647,62.87419,16.77936,-13.79469,91.1232,-4.617752,-0.4441859,0.1400836,-35.15147,-8.447793,45.12524,0,0,0,183.4359,-20.14246,2.835104,-10.76163,-111.0334,-35.11188,0.001067912,-0.1257102,0.09433498,0,0.3,0,0,0,0,
6.38223E+17,48.08588,8.930473,64.29837,19.48943,-14.38065,90.75697,-4.617752,-0.4441859,0.1400836,-35.15147,-8.447793,45.05199,0,0,0,187.4435,-13.78116,-0.08317129,-10.76163,-111.0334,-35.11188,0.001067912,-0.1257102,0.09433498,0,0.3,0,0,0,0,
6.38223E+17,48.41572,9.561686,64.83536,20.51486,-14.60039,90.61049,-4.617752,-0.4441859,0.1400836,-35.15147,-8.447793,45.05199,0,0,0,188.634,-11.20252,-0.9654557,-10.76163,-111.0334,-35.11188,0.001067912,-0.1257102,0.09433498,0,0.3,0,0,0,0,
6.38223E+17,49.1932,11.43194,66.32958,23.15168,-15.40608,89.65829,-4.617752,-0.4441859,0.1400836,-35.15147,-8.447793,45.05199,0,0,0,191.3758,-3.756212,-3.119218,-10.76163,-111.0334,-35.11188,0.001067912,-0.1257102,0.09433498,0,0.3,0,0,0,0,
6.38223E+17,49.71152,13.48922,68.01058,26.00825,-16.50476,88.77935,-4.617752,-0.4441859,0.1400836,-35.15147,-8.447793,45.05199,0,0,0,193.2325,4.524602,-4.543681,-10.76163,-111.0334,-35.11188,0.001067912,-0.1257102,0.09433498,0,0.3,0,0,0,0,
6.38223E+17,49.80576,15.56988,69.27133,28.86481,-17.89642,88.33988,-4.617752,-0.4441859,0.1400836,-35.15147,-8.447793,45.05199,0,0,0,193.39,11.94467,-4.956053,-10.76163,-111.0334,-35.11188,0.001067912,-0.1257102,0.09433498,0,0.3,0,0,0,0,
6.38223E+17,49.59372,17.79081,69.9484,31.42839,-19.14159,88.19339,-4.617752,-0.4441859,0.1400836,-35.15147,-8.521038,45.05199,0,0,0,192.0724,18.37291,-4.847252,-10.76163,-111.0334,-35.11188,0.001067912,-0.1257102,0.09433498,0,0.3,0,0,0,0,
6.38223E+17,49.09896,20.29228,70.13519,33.33276,-20.46,88.04691,-4.617752,-0.4441859,0.1400836,-35.15147,-8.447793,45.05199,0,0,0,189.33,24.28441,-4.341191,-10.76163,-111.0334,-35.11188,0.001067912,-0.1257102,0.09433498,0,0.3,0,0,0,0,
6.38223E+17,48.79268,21.64822,70.11184,34.13846,-21.04596,88.04691,-4.617752,-0.4441859,0.1400836,-35.15147,-8.521038,45.12524,0,0,0,187.587,27.18003,-4.08765,-10.76163,-111.0334,-35.11188,0.001067912,-0.1257102,0.09433498,0,0.3,0,0,0,0,
6.38223E+17,48.08588,23.98604,69.9484,35.31038,-22.29113,88.04691,-4.617752,-0.4441859,0.1400836,-35.15147,-8.447793,45.12524,0,0,0,183.8797,31.83744,-3.282325,-10.76163,-111.0334,-35.11188,0.001067912,-0.1257102,0.09433498,0,0.3,0,0,0,0,
6.38223E+17,47.14348,25.97318,69.90171,36.04284,-23.82928,88.04691,-4.617752,-0.4441859,0.1400836,-35.15147,-8.447793,45.05199,0,0,0,179.681,35.92741,-1.634056,-10.76163,-111.0334,-35.11188,0.001067912,-0.1257102,0.09433498,0,0.3,0,0,0,0,
6.38223E+17,45.91837,27.82006,69.90171,36.4823,-25.58716,88.41313,-4.617752,-0.4441859,0.1400836,-35.22471,-8.447793,45.05199,0,0,0,174.6786,39.76068,0.8168256,-10.76163,-111.0334,-35.11188,0.001067912,-0.1257102,0.09433498,0,0.3,0,0,0,0,
6.38223E+17,44.45765,29.24613,69.90171,36.70204,-27.56478,89.36532,-4.617752,-0.4441859,0.1400836,-35.15147,-8.447793,45.05199,0,0,0,169.1992,42.67651,4.083113,-10.76163,-111.0334,-35.11188,0.001067912,-0.1257102,0.09433498,0,0.3,0,0,0,0,
6.38223E+17,42.76133,30.39166,69.90171,36.33582,-29.83538,90.68373,-4.617752,-0.4441859,0.1400836,-35.15147,-8.521038,45.05199,0,0,0,163.1206,44.98959,8.042847,-10.76163,-111.0334,-35.11188,0.001067912,-0.1257102,0.09433498,0,0.3,0,0,0,0,
6.38223E+17,41.79537,30.90598,69.90171,35.89634,-30.93406,91.41618,-4.617752,-0.4441859,0.1400836,-35.15147,-8.447793,45.12524,0,0,0,159.717,46.0194,10.31279,-10.76163,-111.0334,-35.11188,0.001067912,-0.1257102,0.09433498,0,0.3,0,0,0,0,
6.38223E+17,39.76921,31.7476,69.90171,34.28495,-33.35115,93.17406,-4.617752,-0.4441859,0.1400836,-35.22471,-8.521038,45.05199,0,0,0,152.6489,47.6926,15.06524,-10.76163,-111.0334,-35.11188,0.001067912,-0.1257102,0.09433498,0,0.3,0,0,0,0,
6.38223E+17,37.43678,32.2853,69.9484,31.86786,-35.98798,96.03063,-4.617752,-0.4441859,0.1400836,-35.15147,-8.521038,45.05199,0,0,0,144.6773,48.85576,20.62852,-10.76163,-111.0334,-35.11188,0.001067912,-0.1257102,0.09433498,0,0.3,0,0,0,0,
6.38223E+17,34.8923,32.40219,69.83167,28.86481,-38.47831,100.2056,-4.617752,-0.4441859,0.1400836,-35.22471,-8.447793,45.12524,0,0,0,136.0083,48.83047,26.66912,-10.76163,-111.0334,-35.11188,0.001067912,-0.1257102,0.09433498,0,0.3,0,0,0,0,
6.38223E+17,32.06511,32.37881,69.45811,25.05606,-40.74891,106.1385,-4.617752,-0.4441859,0.1400836,-35.22471,-8.447793,45.12524,0,0,0,126.0786,47.96941,32.90863,-10.76163,-111.0334,-35.11188,0.001067912,-0.1257102,0.09433498,0,0.3,0,0,0,0,
6.38223E+17,30.48659,32.26192,69.08456,22.63897,-41.92084,110.1669,-4.617752,-0.4441859,0.1400836,-35.22471,-8.447793,45.05199,0,0,0,120.4044,46.92637,36.16548,-10.76163,-111.0334,-35.11188,0.001067912,-0.1257102,0.09433498,0,0.3,0,0,0,0,
6.38223E+17,27.09396,31.56057,67.80046,16.0469,-43.60548,121.1537,-4.617752,-0.4441859,0.1400836,-35.15147,-8.447793,45.05199,0,0,0,107.9834,42.76127,42.72292,-10.76163,-111.0334,-35.11188,0.001067912,-0.1257102,0.09433498,0,0.3,0,0,0,0,
6.38223E+17,23.8898,30.18126,66.51636,8.06318,-44.41117,133.9716,-4.617752,-0.4441859,0.1400836,-35.15147,-8.447793,45.05199,0,0,0,96.2141,37.25174,48.87386,-10.76163,-111.0334,-35.11188,0.001067912,-0.1257102,0.09433498,0,0.3,0,0,0,0,
6.38223E+17,21.2982,28.61492,65.349,-0.4332596,-44.04494,143.64,-4.617752,-0.4441859,0.1400836,-35.15147,-8.447793,45.05199,0,0,0,86.54113,31.59509,53.63707,-10.76163,-111.0334,-35.11188,0.001067912,-0.1257102,0.09433498,0,0.3,0,0,0,0,
6.38223E+17,20.26157,27.7733,64.76532,-4.242009,-43.60548,144.7387,-4.617752,-0.4441859,0.1400836,-35.15147,-8.447793,45.05199,0,0,0,82.63292,28.63699,55.49716,-10.76163,-111.0334,-35.11188,0.001067912,-0.1257102,0.09433498,0,0.3,0,0,0,0,
6.38223E+17,18.75373,26.18359,63.38783,-10.76083,-42.21382,144.8852,-4.617752,-0.4441859,0.1400836,-35.22471,-8.447793,45.05199,0,0,0,76.80309,22.45652,57.85623,-10.76163,-111.0334,-35.11188,0.001067912,-0.1257102,0.09433498,0,0.3,0,0,0,0,
6.38223E+17,17.88201,24.92117,61.66013,-15.59501,-40.38269,144.8852,-4.617752,-0.4441859,0.1400836,-35.15147,-8.521038,45.12524,0,0,0,73.17225,16.23845,58.43908,-10.76163,-111.0334,-35.11188,0.001067912,-0.1257102,0.09433498,0,0.3,0,0,0,0,
6.38223E+17,17.57573,23.79901,59.44214,-19.03753,-38.18533,144.8852,-4.617752,-0.4441859,0.1400836,-35.15147,-8.521038,45.05199,0,0,0,71.51785,9.364419,57.4346,-10.76163,-111.0334,-35.11188,0.001067912,-0.1257102,0.09433498,0,0.3,0,0,0,0,
6.38223E+17,17.74065,22.51321,56.64047,-21.16164,-35.76824,145.0316,-4.617752,-0.4441859,0.1400836,-35.22471,-8.447793,45.05199,0,0,0,71.47445,1.081277,55.06167,-10.76163,-111.0334,-35.11188,0.001067912,-0.1257102,0.09433498,0,0.3,0,0,0,0,
6.38223E+17,18.42389,21.08714,53.30181,-22.40681,-32.6187,144.8852,-4.617752,-0.4441859,0.1400836,-35.15147,-8.447793,45.05199,0,0,0,73.11359,-8.362292,51.13196,-10.76163,-111.0334,-35.11188,0.001067912,-0.1257102,0.09433498,0,0.3,0,0,0,0,
6.38223E+17,18.89509,20.29228,51.76089,-22.62654,-31.0073,143.7865,-4.617752,-0.4441859,0.1400836,-35.15147,-8.447793,45.05199,0,0,0,74.42129,-12.93926,49.0776,-10.76163,-111.0334,-35.11188,0.001067912,-0.1257102,0.09433498,0,0.3,0,0,0,0,
6.38223E+17,19.86105,18.4454,48.88918,-22.11383,-27.56478,139.758,-4.617752,-0.4441859,0.1400836,-35.15147,-8.447793,45.12524,0,0,0,77.11095,-22.13792,45.11998,-10.76163,-111.0334,-35.11188,0.001067912,-0.1257102,0.09433498,0,0.3,0,0,0,0,
6.38223E+17,20.75632,16.69204,46.41436,-21.16164,-24.19551,135.9492,-4.617752,-0.4441859,0.1400836,-35.15147,-8.447793,45.05199,0,0,0,79.49855,-30.28478,41.41293,-10.76163,-111.0334,-35.11188,0.001067912,-0.1257102,0.09433498,0,0.3,0,0,0,0,
6.38223E+17,21.51024,15.96731,45.10692,-19.98972,-20.38675,132.7997,-4.617752,-0.4441859,0.1400836,-35.22471,-8.521038,45.12524,0,0,0,81.64722,-34.08346,38.81491,-10.76163,-111.0334,-35.11188,0.001067912,-0.1257102,0.09433498,0,0.3,0,0,0,0,
6.38223E+17,22.2406,15.99069,44.07964,-19.11078,-17.5302,130.4559,-4.617752,-0.4441859,0.1400836,-35.15147,-8.521038,45.05199,0,0,0,83.6312,-35.7097,36.16758,-10.76163,-111.0334,-35.11188,0.001067912,-0.1257102,0.09433498,0,0.3,0,0,0,0,
6.38223E+17,22.64112,15.92056,43.35587,-18.67131,-16.35827,128.991,-4.617752,-0.4441859,0.1400836,-35.15147,-8.521038,45.05199,0,0,0,84.6074,-37.0308,34.49575,-10.76163,-111.0334,-35.11188,0.001067912,-0.1257102,0.09433498,0,0.3,0,0,0,0,
6.38223E+17,23.63064,15.40624,42.42198,-17.64587,-14.30741,126.3541,-4.617752,-0.4441859,0.1400836,-35.22471,-8.447793,45.12524,0,0,0,87.58904,-39.66262,31.84151,-10.76163,-111.0334,-35.11188,0.001067912,-0.1257102,0.09433498,0,0.3,0,0,0,0,
6.38223E+17,24.64372,14.77502,42.00173,-16.32746,-12.62277,125.3287,-4.617752,-0.4441859,0.1400836,-35.22471,-8.447793,45.05199,0,0,0,90.97227,-41.73818,29.95077,-10.76163,-111.0334,-35.11188,0.001067912,-0.1257102,0.09433498,0,0.3,0,0,0,0,
6.38223E+17,25.7746,14.56462,41.74491,-14.78931,-10.93813,124.23,-4.617752,-0.4441859,0.1400836,-35.15147,-8.447793,45.05199,0,0,0,94.72866,-42.61088,27.82757,-10.76163,-111.0334,-35.11188,0.001067912,-0.1257102,0.09433498,0,0.3,0,0,0,0,
6.38223E+17,27.18819,14.54124,41.8383,-13.17792,-9.546471,122.4721,-4.617752,-0.4441859,0.1400836,-35.15147,-8.447793,45.05199,0,0,0,99.61971,-42.51869,25.58727,-10.76163,-111.0334,-35.11188,0.001067912,-0.1257102,0.09433498,0,0.3,0,0,0,0,
6.38223E+17,29.04943,14.54124,42.42198,-11.05381,-8.667529,121.0805,-4.617752,-0.4441859,0.1400836,-35.15147,-8.447793,45.05199,0,0,0,106.3552,-41.60742,23.13013,-10.76163,-111.0334,-35.11188,0.001067912,-0.1257102,0.09433498,0,0.3,0,0,0,0,
6.38223E+17,29.96827,14.54124,42.6788,-9.735395,-8.228058,120.7142,-4.617752,-0.4441859,0.1400836,-35.15147,-8.447793,45.05199,0,0,0,109.6321,-41.20322,21.78145,-10.76163,-111.0334,-35.11188,0.001067912,-0.1257102,0.09433498,0,0.3,0,0,0,0,
6.38223E+17,31.87663,14.54124,43.09905,-6.878834,-7.495606,119.4691,-4.617752,-0.4441859,0.1400836,-35.15147,-8.521038,45.05199,0,0,0,116.2813,-40.53755,18.63369,-10.76163,-111.0334,-35.11188,0.001067912,-0.1257102,0.09433498,0,0.3,0,0,0,0,
6.38223E+17,33.90279,14.56462,43.84616,-3.949028,-6.836399,117.2717,-4.617752,-0.4441859,0.1400836,-35.15147,-8.447793,45.05199,0,0,0,123.5158,-39.28857,15.44155,-10.76163,-111.0334,-35.11188,0.001067912,-0.1257102,0.09433498,0,0.3,0,0,0,0,
6.38223E+17,35.7169,14.56462,44.42985,-1.458692,-6.470173,114.4152,-4.617752,-0.4441859,0.1400836,-35.15147,-8.447793,45.12524,0,0,0,129.8413,-38.34256,12.23084,-10.76163,-111.0334,-35.11188,0.001067912,-0.1257102,0.09433498,0,0.3,0,0,0,0,
6.38223E+17,36.68286,14.56462,44.89679,-0.140279,-6.396928,112.7305,-4.617752,-0.4441859,0.1400836,-35.22471,-8.447793,45.12524,0,0,0,133.3289,-37.57863,10.63614,-10.76163,-111.0334,-35.11188,0.001067912,-0.1257102,0.09433498,0,0.3,0,0,0,0,
6.38223E+17,38.28493,14.56462,46.06416,2.716283,-6.689909,109.8007,-4.617752,-0.4441859,0.1400836,-35.15147,-8.447793,45.05199,0,0,0,139.4611,-35.64147,8.333848,-10.76163,-111.0334,-35.11188,0.001067912,-0.1257102,0.09433498,0,0.3,0,0,0,0,
6.38223E+17,39.51006,14.77502,47.53503,5.499599,-7.27587,107.3104,-4.617752,-0.4441859,0.1400836,-35.22471,-8.447793,45.05199,0,0,0,144.6188,-32.67233,7.023947,-10.76163,-111.0334,-35.11188,0.001067912,-0.1257102,0.09433498,0,0.3,0,0,0,0,
6.38223E+17,40.52313,15.59326,48.72574,8.35616,-8.374548,105.4793,-4.617752,-0.4441859,0.1400836,-35.15147,-8.447793,45.05199,0,0,0,148.5746,-28.77085,5.466396,-10.76163,-111.0334,-35.11188,0.001067912,-0.1257102,0.09433498,0,0.3,0,0,0,0,
6.38223E+17,40.90009,16.10758,49.16934,9.601329,-8.960509,104.7468,-4.617752,-0.4441859,0.1400836,-35.15147,-8.447793,45.05199,0,0,0,149.9449,-26.84078,4.750526,-10.76163,-111.0334,-35.11188,0.001067912,-0.1257102,0.09433498,0,0.3,0,0,0,0,
6.38223E+17,41.55977,17.13622,50.10323,11.94517,-10.20568,103.4284,-4.617752,-0.4441859,0.1400836,-35.15147,-8.521038,45.05199,0,0,0,152.4074,-22.89069,3.553554,-10.76163,-111.0334,-35.11188,0.001067912,-0.1257102,0.09433498,0,0.3,0,0,0,0,
6.38223E+17,42.05453,17.95446,50.99043,13.99604,-11.30435,102.403,-4.617752,-0.4441859,0.1400836,-35.15147,-8.447793,45.12524,0,0,0,154.3805,-19.48059,2.779074,-10.76163,-111.0334,-35.11188,0.001067912,-0.1257102,0.09433498,0,0.3,0,0,0,0,
6.38223E+17,42.29013,18.95972,52.34457,15.82717,-12.62277,100.938,-4.617752,-0.4441859,0.1400836,-35.15147,-8.447793,45.05199,0,0,0,155.8997,-14.78916,3.040841,-10.76163,-111.0334,-35.11188,0.001067912,-0.1257102,0.09433498,0,0.3,0,0,0,0,
6.38223E+17,42.29013,20.17539,53.88549,17.58505,-14.08767,99.91262,-4.617752,-0.4441859,0.1400836,-35.22471,-8.447793,45.05199,0,0,0,156.7105,-9.254865,3.932169,-10.76163,-111.0334,-35.11188,0.001067912,-0.1257102,0.09433498,0,0.3,0,0,0,0,
6.38223E+17,42.24301,20.78322,54.77269,18.39075,-14.89337,99.47314,-4.617752,-0.4441859,0.1400836,-35.15147,-8.447793,45.12524,0,0,0,157.0455,-6.25218,4.58595,-10.76163,-111.0334,-35.11188,0.001067912,-0.1257102,0.09433498,0,0.3,0,0,0,0,
6.38223E+17,42.03097,21.90538,56.47704,20.07539,-16.94423,98.81395,-4.617752,-0.4441859,0.1400836,-35.22471,-8.447793,45.05199,0,0,0,157.2674,-0.5458297,6.123392,-10.76163,-111.0334,-35.11188,0.001067912,-0.1257102,0.09433498,0,0.3,0,0,0,0,
6.38223E+17,41.74825,22.51321,57.6444,21.46704,-18.84861,98.15474,-4.617752,-0.4441859,0.1400836,-35.15147,-8.447793,45.05199,0,0,0,157.0322,3.044004,7.600513,-10.76163,-111.0334,-35.11188,0.001067912,-0.1257102,0.09433498,0,0.3,0,0,0,0,
6.38223E+17,41.51265,22.48983,58.18139,22.34599,-20.31351,97.05606,-4.617752,-0.4441859,0.1400836,-35.15147,-8.447793,45.12524,0,0,0,156.7612,4.052599,8.757459,-10.76163,-111.0334,-35.11188,0.001067912,-0.1257102,0.09433498,0,0.3,0,0,0,0,
6.38223E+17,41.08857,22.04565,58.0413,22.78546,-21.04596,95.95738,-4.617752,-0.4441859,0.1400836,-35.15147,-8.447793,45.05199,0,0,0,155.5903,2.819078,10.07832,-10.76163,-111.0334,-35.11188,0.001067912,-0.1257102,0.09433498,0,0.3,0,0,0,0,
6.38223E+17,40.24041,20.87674,57.13076,22.8587,-20.97272,95.37142,-4.617752,-0.4441859,0.1400836,-35.15147,-8.447793,45.05199,0,0,0,152.8412,-1.501771,12.25458,-10.76163,-111.0334,-35.11188,0.001067912,-0.1257102,0.09433498,0,0.3,0,0,0,0,
6.38223E+17,39.69854,20.2689,56.43034,22.56572,-20.60649,95.22493,-4.617752,-0.4441859,0.1400836,-35.15147,-8.447793,45.05199,0,0,0,150.8734,-4.189955,13.38734,-10.76163,-111.0334,-35.11188,0.001067912,-0.1257102,0.09433498,0,0.3,0,0,0,0,
6.38223E+17,38.4263,19.33377,54.56256,21.83327,-19.06834,96.25037,-4.617752,-0.4441859,0.1400836,-35.15147,-8.521038,45.12524,0,0,0,145.729,-9.819882,15.34095,-10.76163,-111.0334,-35.11188,0.001067912,-0.1257102,0.09433498,0,0.3,0,0,0,0,
6.38223E+17,36.8949,18.30513,52.15779,20.73459,-17.31046,98.59421,-4.617752,-0.4441859,0.1400836,-35.15147,-8.447793,45.12524,0,0,0,139.2264,-16.57652,17.11652,-10.76163,-111.0334,-35.11188,0.001067912,-0.1257102,0.09433498,0,0.3,0,0,0,0,
6.38223E+17,34.96298,16.90244,49.9398,18.68373,-15.1131,101.4508,-4.617752,-0.4441859,0.1400836,-35.22471,-8.447793,45.05199,0,0,0,131.601,-23.70243,19.85444,-10.76163,-111.0334,-35.11188,0.001067912,-0.1257102,0.09433498,0,0.3,0,0,0,0,
6.38223E+17,34.13838,16.38812,49.23938,17.6583,-14.16092,102.7692,-4.617752,-0.4441859,0.1400836,-35.22471,-8.447793,45.05199,0,0,0,128.4783,-26.09052,21.13802,-10.76163,-111.0334,-35.11188,0.001067912,-0.1257102,0.09433498,0,0.3,0,0,0,0,
6.38223E+17,32.27715,15.56988,47.74516,15.75392,-12.47628,106.3582,-4.617752,-0.4441859,0.1400836,-35.22471,-8.447793,45.05199,0,0,0,121.3053,-30.52551,23.7056,-10.76163,-111.0334,-35.11188,0.001067912,-0.1257102,0.09433498,0,0.3,0,0,0,0,
6.38223E+17,29.87403,14.61138,46.32097,13.70306,-10.93813,110.4599,-4.617752,-0.4441859,0.1400836,-35.15147,-8.447793,45.05199,0,0,0,112.3098,-35.1048,27.1677,-10.76163,-111.0334,-35.11188,0.001067912,-0.1257102,0.09433498,0,0.3,0,0,0,0,
6.38223E+17,26.99972,13.16193,45.34039,11.06623,-9.399981,114.6349,-4.617752,-0.4441859,0.1400836,-35.15147,-8.447793,45.05199,0,0,0,102.0098,-40.01653,31.85803,-10.76163,-111.0334,-35.11188,0.001067912,-0.1257102,0.09433498,0,0.3,0,0,0,0,
6.38223E+17,24.07828,11.73586,45.01353,7.696954,-8.081567,118.6634,-4.617752,-0.4441859,0.1400836,-35.15147,-8.521038,45.05199,0,0,0,91.74645,-43.79702,36.96054,-10.76163,-111.0334,-35.11188,0.001067912,-0.1257102,0.09433498,0,0.3,0,0,0,0,
6.38223E+17,22.42908,11.17478,44.89679,5.499599,-7.495606,120.934,-4.617752,-0.4441859,0.1400836,-35.15147,-8.447793,45.12524,0,0,0,85.82522,-45.26882,39.57795,-10.76163,-111.0334,-35.11188,0.001067912,-0.1257102,0.09433498,0,0.3,0,0,0,0,
6.38223E+17,18.98933,10.70722,44.87344,0.5189275,-6.763155,125.1822,-4.617752,-0.4441859,0.1400836,-35.15147,-8.447793,45.12524,0,0,0,73.24981,-46.37559,44.51168,-10.76163,-111.0334,-35.11188,0.001067912,-0.1257102,0.09433498,0,0.3,0,0,0,0,
6.38223E+17,15.90297,10.70722,45.34039,-5.487176,-6.763155,126.9401,-4.617752,-0.4441859,0.1400836,-35.15147,-8.447793,45.12524,0,0,0,61.89305,-45.60569,48.88444,-10.76163,-111.0334,-35.11188,0.001067912,-0.1257102,0.09433498,0,0.3,0,0,0,0,
6.38223E+17,13.52342,10.75397,46.29763,-12.07924,-7.27587,127.2331,-4.617752,-0.4441859,0.1400836,-35.15147,-8.447793,45.05199,0,0,0,53.17863,-43.9011,52.75676,-10.76163,-111.0334,-35.11188,0.001067912,-0.1257102,0.09433498,0,0.3,0,0,0,0,
6.38223E+17,11.99202,10.91762,47.20817,-18.08535,-8.081567,127.9655,-4.617752,-0.4441859,0.1400836,-35.15147,-8.447793,45.05199,0,0,0,47.53741,-41.98339,55.4492,-10.76163,-111.0334,-35.11188,0.001067912,-0.1257102,0.09433498,0,0.3,0,0,0,0,
6.38223E+17,11.42658,11.17478,47.60507,-20.72217,-8.521038,128.405,-4.617752,-0.4441859,0.1400836,-35.22471,-8.447793,45.05199,0,0,0,45.42765,-40.71593,56.40782,-10.76163,-111.0334,-35.11188,0.001067912,-0.1257102,0.09433498,0,0.3,0,0,0,0,
6.38223E+17,10.57842,12.27356,48.60901,-25.55635,-9.473226,128.698,-4.617752,-0.4441859,0.1400836,-35.15147,-8.447793,45.05199,0,0,0,42.28669,-36.47274,58.07851,-10.76163,-111.0334,-35.11188,0.001067912,-0.1257102,0.09433498,0,0.3,0,0,0,0,
6.38223E+17,10.20146,13.76976,49.47286,-30.02431,-10.64515,129.0642,-4.617752,-0.4441859,0.1400836,-35.15147,-8.447793,45.05199,0,0,0,40.89053,-31.56184,58.87671,-10.76163,-111.0334,-35.11188,0.001067912,-0.1257102,0.09433498,0,0.3,0,0,0,0,
6.38223E+17,10.22502,15.3361,50.4301,-33.54007,-11.96356,129.2839,-4.617752,-0.4441859,0.1400836,-35.22471,-8.447793,45.05199,0,0,0,41.07582,-26.328,59.36915,-10.76163,-111.0334,-35.11188,0.001067912,-0.1257102,0.09433498,0,0.3,0,0,0,0,
6.38223E+17,10.55486,17.27649,51.80758,-36.39664,-13.57495,130.4559,-4.617752,-0.4441859,0.1400836,-35.15147,-8.447793,45.12524,0,0,0,42.52243,-19.49819,59.86075,-10.76163,-111.0334,-35.11188,0.001067912,-0.1257102,0.09433498,0,0.3,0,0,0,0,
6.38223E+17,10.90826,18.37527,52.57804,-37.6418,-14.67363,131.1883,-4.617752,-0.4441859,0.1400836,-35.15147,-8.447793,45.05199,0,0,0,43.98908,-15.64698,59.90479,-10.76163,-111.0334,-35.11188,0.001067912,-0.1257102,0.09433498,0,0.3,0,0,0,0,
6.38223E+17,12.01558,20.82998,54.51587,-39.47293,-17.31046,133.2392,-4.617752,-0.4441859,0.1400836,-35.15147,-8.447793,45.05199,0,0,0,48.55077,-6.637943,59.75839,-10.76163,-111.0334,-35.11188,0.001067912,-0.1257102,0.09433498,0,0.3,0,0,0,0,
6.38223E+17,13.68834,23.14442,56.85059,-40.35188,-20.53325,135.9492,-4.617752,-0.4441859,0.1400836,-35.15147,-8.447793,45.12524,0,0,0,55.43645,2.844234,59.26081,-10.76163,-111.0334,-35.11188,0.001067912,-0.1257102,0.09433498,0,0.3,0,0,0,0,
6.38223E+17,15.95009,25.17833,59.20866,-39.32644,-24.56173,138.7326,-4.617752,-0.4441859,0.1400836,-35.15147,-8.447793,45.12524,0,0,0,64.64196,11.81843,57.82666,-10.76163,-111.0334,-35.11188,0.001067912,-0.1257102,0.09433498,0,0.3,0,0,0,0,
6.38223E+17,18.58881,26.79142,61.73017,-36.46988,-29.10293,139.6848,-4.617752,-0.4441859,0.1400836,-35.15147,-8.447793,45.05199,0,0,0,75.3838,20.29887,55.79324,-10.76163,-111.0334,-35.11188,0.001067912,-0.1257102,0.09433498,0,0.3,0,0,0,0,
6.38223E+17,20.26157,27.42263,63.34113,-33.9063,-32.03274,139.758,-4.617752,-0.4441859,0.1400836,-35.15147,-8.447793,45.05199,0,0,0,82.26163,24.93325,54.49136,-10.76163,-111.0334,-35.11188,0.001067912,-0.1257102,0.09433498,0,0.3,0,0,0,0,
6.38223E+17,22.92384,27.98371,65.86263,-28.85239,-36.42745,138.2198,-4.617752,-0.4441859,0.1400836,-35.15147,-8.447793,45.05199,0,0,0,93.26742,31.39032,52.18883,-10.76163,-111.0334,-35.11188,0.001067912,-0.1257102,0.09433498,0,0.3,0,0,0,0,
6.38223E+17,25.86884,28.19411,68.24406,-21.60111,-40.96865,131.9208,-4.617752,-0.4441859,0.1400836,-35.15147,-8.447793,45.05199,0,0,0,105.3171,36.92589,48.84249,-10.76163,-111.0334,-35.11188,0.001067912,-0.1257102,0.09433498,0,0.3,0,0,0,0,
6.38223E+17,27.21176,28.17073,69.08456,-17.35289,-42.79977,127.7458,-4.617752,-0.4441859,0.1400836,-35.15147,-8.447793,45.05199,0,0,0,110.7155,38.70003,46.97041,-10.76163,-111.0334,-35.11188,0.001067912,-0.1257102,0.09433498,0,0.3,0,0,0,0,
6.38223E+17,29.26147,28.00709,69.57485,-8.856454,-45.50985,119.5423,-4.617752,-0.4441859,0.1400836,-35.15147,-8.447793,45.12524,0,0,0,118.6305,39.43166,43.38056,-10.76163,-111.0334,-35.11188,0.001067912,-0.1257102,0.09433498,0,0.3,0,0,0,0,
6.38223E+17,30.25099,27.44601,69.57485,-3.143331,-46.68177,114.0489,-4.617752,-0.4441859,0.1400836,-35.15147,-8.447793,45.05199,0,0,0,122.5754,38.27576,41.82511,-10.76163,-111.0334,-35.11188,0.001067912,-0.1257102,0.09433498,0,0.3,0,0,0,0,
6.38223E+17,30.41591,27.16547,69.55151,-1.605182,-46.9015,112.5108,-4.617752,-0.4441859,0.1400836,-35.22471,-8.447793,45.05199,0,0,0,123.3219,37.64467,41.71336,-10.76163,-111.0334,-35.11188,0.001067912,-0.1257102,0.09433498,0,0.3,0,0,0,0,
6.38223E+17,30.39235,26.76804,69.36472,-0.7262403,-46.9015,111.1191,-4.617752,-0.4441859,0.1400836,-35.15147,-8.447793,45.05199,0,0,0,123.3705,36.4132,41.99429,-10.76163,-111.0334,-35.11188,0.001067912,-0.1257102,0.09433498,0,0.3,0,0,0,0,
6.38223E+17,30.10963,26.58102,69.2013,-1.165711,-46.60852,110.8261,-4.617752,-0.4441859,0.1400836,-35.22471,-8.521038,45.05199,0,0,0,122.3616,35.66847,42.65312,-10.76163,-111.0334,-35.11188,0.001067912,-0.1257102,0.09433498,0,0.3,0,0,0,0,
6.38223E+17,29.42639,26.32386,69.01452,-1.605182,-46.16905,111.4121,-4.617752,-0.4441859,0.1400836,-35.15147,-8.447793,45.05199,0,0,0,119.8916,34.72649,44.19441,-10.76163,-111.0334,-35.11188,0.001067912,-0.1257102,0.09433498,0,0.3,0,0,0,0,
6.38223E+17,28.24839,25.87967,68.59427,-2.923595,-45.65634,114.0489,-4.617752,-0.4441859,0.1400836,-35.15147,-8.447793,45.05199,0,0,0,115.5446,32.88621,46.70343,-10.76163,-111.0334,-35.11188,0.001067912,-0.1257102,0.09433498,0,0.3,0,0,0,0,
6.38223E+17,27.4238,25.45886,68.19736,-4.388499,-45.21687,116.3195,-4.617752,-0.4441859,0.1400836,-35.15147,-8.447793,45.05199,0,0,0,112.4765,31.14462,48.41869,-10.76163,-111.0334,-35.11188,0.001067912,-0.1257102,0.09433498,0,0.3,0,0,0,0,
6.38223E+17,25.37408,24.07955,67.05334,-9.515661,-43.60548,122.1059,-4.617752,-0.4441859,0.1400836,-35.15147,-8.447793,45.12524,0,0,0,104.7934,25.76773,52.60234,-10.76163,-111.0334,-35.11188,0.001067912,-0.1257102,0.09433498,0,0.3,0,0,0,0,
6.38223E+17,23.60708,22.93402,65.65251,-15.96124,-40.96865,127.0866,-4.617752,-0.4441859,0.1400836,-35.15147,-8.447793,45.05199,0,0,0,97.83267,20.33645,55.50473,-10.76163,-111.0334,-35.11188,0.001067912,-0.1257102,0.09433498,0,0.3,0,0,0,0,
6.38223E+17,21.6516,21.74173,64.18163,-20.94191,-37.74586,130.8953,-4.617752,-0.4441859,0.1400836,-35.15147,-8.447793,45.05199,0,0,0,89.99081,14.6694,58.34411,-10.76163,-111.0334,-35.11188,0.001067912,-0.1257102,0.09433498,0,0.3,0,0,0,0,
6.38223E+17,19.60189,20.82998,63.2244,-25.19013,-34.66956,133.5322,-4.617752,-0.4441859,0.1400836,-35.22471,-8.447793,45.12524,0,0,0,81.75246,10.6949,61.21363,-10.76163,-111.0334,-35.11188,0.001067912,-0.1257102,0.09433498,0,0.3,0,0,0,0,
6.38223E+17,18.63593,20.54944,62.80414,-27.46073,-33.05817,134.1181,-4.617752,-0.4441859,0.1400836,-35.15147,-8.447793,45.05199,0,0,0,77.80266,9.212488,62.35725,-10.76163,-111.0334,-35.11188,0.001067912,-0.1257102,0.09433498,0,0.3,0,0,0,0,
6.38223E+17,17.12809,19.98837,62.57067,-31.41597,-30.56783,135.8027,-4.617752,-0.4441859,0.1400836,-35.15147,-8.447793,45.05199,0,0,0,71.76476,7.504702,64.51868,-10.76163,-111.0334,-35.11188,0.001067912,-0.1257102,0.09433498,0,0.3,0,0,0,0,
6.38223E+17,15.99721,19.17013,62.57067,-34.19928,-28.80995,138.0001,-4.617752,-0.4441859,0.1400836,-35.15147,-8.447793,45.12524,0,0,0,67.3307,5.710467,66.50315,-10.76163,-111.0334,-35.11188,0.001067912,-0.1257102,0.09433498,0,0.3,0,0,0,0,
6.38223E+17,15.26685,18.00122,62.59402,-35.95716,-27.41829,140.4172,-4.617752,-0.4441859,0.1400836,-35.15147,-8.447793,45.05199,0,0,0,64.5665,3.18011,68.20293,-10.76163,-111.0334,-35.11188,0.001067912,-0.1257102,0.09433498,0,0.3,0,0,0,0,
6.38223E+17,14.58362,17.25311,62.64072,-36.39664,-26.09988,142.5413,-4.617752,-0.4441859,0.1400836,-35.15147,-8.447793,45.05199,0,0,0,61.88648,1.617241,69.51467,-10.76163,-111.0334,-35.11188,0.001067912,-0.1257102,0.09433498,0,0.3,0,0,0,0,
6.38223E+17,14.1831,17.04271,62.7808,-36.46988,-25.58716,144.3724,-4.617752,-0.4441859,0.1400836,-35.22471,-8.447793,45.05199,0,0,0,60.29422,1.439061,70.22637,-10.76163,-111.0334,-35.11188,0.001067912,-0.1257102,0.09433498,0,0.3,0,0,0,0,
6.38223E+17,13.33494,16.92582,63.41117,-37.20233,-24.78147,144.8852,-4.617752,-0.4441859,0.1400836,-35.15147,-8.447793,45.05199,0,0,0,56.9275,2.487209,71.81604,-10.76163,-111.0334,-35.11188,0.001067912,-0.1257102,0.09433498,0,0.3,0,0,0,0,
6.38223E+17,12.79306,16.92582,64.04155,-38.88697,-24.41524,144.8852,-4.617752,-0.4441859,0.1400836,-35.22471,-8.447793,45.12524,0,0,0,54.79741,3.802768,72.97701,-10.76163,-111.0334,-35.11188,0.001067912,-0.1257102,0.09433498,0,0.3,0,0,0,0,
6.38223E+17,12.69882,16.92582,64.18163,-39.91241,-24.26875,144.9584,-4.617752,-0.4441859,0.1400836,-35.22471,-8.447793,45.12524,0,0,0,54.43169,4.09608,73.20567,-10.76163,-111.0334,-35.11188,0.001067912,-0.1257102,0.09433498,0,0.3,0,0,0,0,
6.38223E+17,12.67526,16.97258,64.71862,-41.59705,-24.12226,144.8119,-4.617752,-0.4441859,0.1400836,-35.15147,-8.447793,45.05199,0,0,0,54.44367,5.327735,73.72298,-10.76163,-111.0334,-35.11188,0.001067912,-0.1257102,0.09433498,0,0.3,0,0,0,0,
6.38223E+17,12.72238,17.53365,65.60582,-42.9887,-24.48849,144.8852,-4.617752,-0.4441859,0.1400836,-35.22471,-8.447793,45.05199,0,0,0,54.74845,8.448662,74.14636,-10.76163,-111.0334,-35.11188,0.001067912,-0.1257102,0.09433498,0,0.3,0,0,0,0,
6.38223E+17,12.84018,18.14149,66.11945,-43.7944,-24.85471,144.8119,-4.617752,-0.4441859,0.1400836,-35.15147,-8.447793,45.05199,0,0,0,55.25924,10.88624,74.08741,-10.76163,-111.0334,-35.11188,0.001067912,-0.1257102,0.09433498,0,0.3,0,0,0,0,
6.38223E+17,13.64122,20.03512,67.35686,-45.62553,-26.53935,144.8852,-4.617752,-0.4441859,0.1400836,-35.15147,-8.447793,45.05199,0,0,0,58.57153,17.69673,72.9959,-10.76163,-111.0334,-35.11188,0.001067912,-0.1257102,0.09433498,0,0.3,0,0,0,0,
6.38223E+17,14.86634,21.83524,68.45419,-46.21149,-29.17617,144.8852,-4.617752,-0.4441859,0.1400836,-35.15147,-8.447793,45.05199,0,0,0,63.58068,23.97591,71.17004,-10.76163,-111.0334,-35.11188,0.001067912,-0.1257102,0.09433498,0,0.3,0,0,0,0,
6.38223E+17,16.27993,22.9574,69.87837,-45.33255,-32.47221,144.9584,-4.617752,-0.4441859,0.1400836,-35.15147,-8.447793,45.05199,0,0,0,69.52168,29.48841,69.70506,-10.76163,-111.0334,-35.11188,0.001067912,-0.1257102,0.09433498,0,0.3,0,0,0,0,
6.38223E+17,17.03385,23.3782,70.55544,-44.74659,-34.15685,144.9584,-4.617752,-0.4441859,0.1400836,-35.15147,-8.447793,45.12524,0,0,0,72.69135,31.87161,68.91122,-10.76163,-111.0334,-35.11188,0.001067912,-0.1257102,0.09433498,0,0.3,0,0,0,0,
6.38223E+17,18.68305,24.14968,71.46598,-42.9887,-37.52613,144.8852,-4.617752,-0.4441859,0.1400836,-35.22471,-8.521038,45.05199,0,0,0,79.47871,35.51875,66.6887,-10.76163,-111.0334,-35.11188,0.001067912,-0.1257102,0.09433498,0,0.3,0,0,0,0,
6.38223E+17,20.59141,24.82765,72.11971,-39.98565,-40.60242,144.9584,-4.617752,-0.4441859,0.1400836,-35.15147,-8.447793,45.12524,0,0,0,87.19881,38.39999,63.74437,-10.76163,-111.0334,-35.11188,0.001067912,-0.1257102,0.09433498,0,0.3,0,0,0,0,
6.38223E+17,22.9474,25.29522,72.46991,-35.15147,-43.38574,144.5922,-4.617752,-0.4441859,0.1400836,-35.15147,-8.447793,45.12524,0,0,0,96.58303,40.16221,59.76737,-10.76163,-111.0334,-35.11188,0.001067912,-0.1257102,0.09433498,0,0.3,0,0,0,0,
6.38223E+17,25.86884,25.36535,72.46991,-27.0945,-45.5831,136.0225,-4.617752,-0.4441859,0.1400836,-35.15147,-8.447793,45.05199,0,0,0,108.0534,40.30975,54.48556,-10.76163,-111.0334,-35.11188,0.001067912,-0.1257102,0.09433498,0,0.3,0,0,0,0,
6.38223E+17,27.47091,25.29522,72.37653,-21.89409,-46.2423,130.7488,-4.617752,-0.4441859,0.1400836,-35.15147,-8.447793,45.05199,0,0,0,114.2431,39.955,51.38123,-10.76163,-111.0334,-35.11188,0.001067912,-0.1257102,0.09433498,0,0.3,0,0,0,0,
6.38223E+17,30.29811,25.01468,72.07301,-11.2003,-46.9015,120.934,-4.617752,-0.4441859,0.1400836,-35.15147,-8.447793,45.05199,0,0,0,124.9733,38.69133,45.53231,-10.76163,-111.0334,-35.11188,0.001067912,-0.1257102,0.09433498,0,0.3,0,0,0,0,
6.38223E+17,33.14886,24.31333,71.3259,-0.140279,-46.46204,110.6064,-4.617752,-0.4441859,0.1400836,-35.15147,-8.447793,45.05199,0,0,0,135.5298,35.55707,39.1653,-10.76163,-111.0334,-35.11188,0.001067912,-0.1257102,0.09433498,0,0.3,0,0,0,0,
6.38223E+17,35.66978,22.88726,69.87837,9.601329,-44.48441,101.3775,-4.617752,-0.4441859,0.1400836,-35.15147,-8.521038,45.05199,0,0,0,144.6484,29.33806,33.1738,-10.76163,-111.0334,-35.11188,0.001067912,-0.1257102,0.09433498,0,0.3,0,0,0,0,
6.38223E+17,36.63574,22.02227,69.03786,12.89736,-43.01951,98.22798,-4.617752,-0.4441859,0.1400836,-35.15147,-8.447793,45.12524,0,0,0,148.0745,25.64575,30.77286,-10.76163,-111.0334,-35.11188,0.001067912,-0.1257102,0.09433498,0,0.3,0,0,0,0,
6.38223E+17,38.1907,20.0585,66.86657,17.73154,-39.35725,93.90652,-4.617752,-0.4441859,0.1400836,-35.15147,-8.521038,45.12524,0,0,0,153.265,16.69658,26.48019,-10.76163,-111.0334,-35.11188,0.001067912,-0.1257102,0.09433498,0,0.3,0,0,0,0,
6.38223E+17,39.20378,17.81419,64.67193,20.36837,-35.18228,91.48943,-4.617752,-0.4441859,0.1400836,-35.22471,-8.447793,45.12524,0,0,0,156.4322,7.098677,23.42902,-10.76163,-111.0334,-35.11188,0.001067912,-0.1257102,0.09433498,0,0.3,0,0,0,0,
6.38223E+17,39.74566,15.73353,62.64072,21.46704,-31.08055,90.09777,-4.617752,-0.4441859,0.1400836,-35.15147,-8.447793,45.05199,0,0,0,157.7912,-1.773808,21.40257,-10.76163,-111.0334,-35.11188,0.001067912,-0.1257102,0.09433498,0,0.3,0,0,0,0,
6.38223E+17,39.76921,13.60611,60.53946,21.3938,-27.12531,89.43856,-4.617752,-0.4441859,0.1400836,-35.15147,-8.447793,45.05199,0,0,0,157.183,-10.8647,20.5131,-10.76163,-111.0334,-35.11188,0.001067912,-0.1257102,0.09433498,0,0.3,0,0,0,0,
6.38223E+17,39.62786,12.53072,59.67561,21.10082,-25.14769,89.21883,-4.617752,-0.4441859,0.1400836,-35.15147,-8.447793,45.05199,0,0,0,156.4384,-15.04575,20.56448,-10.76163,-111.0334,-35.11188,0.001067912,-0.1257102,0.09433498,0,0.3,0,0,0,0,
6.38223E+17,39.10954,10.6137,58.0413,20.14863,-21.55868,89.14558,-4.617752,-0.4441859,0.1400836,-35.15147,-8.447793,45.05199,0,0,0,154.0468,-22.67193,21.14008,-10.76163,-111.0334,-35.11188,0.001067912,-0.1257102,0.09433498,0,0.3,0,0,0,0,
6.38223E+17,38.1907,9.000608,56.31361,18.75698,-18.26265,89.51181,-4.617752,-0.4441859,0.1400836,-35.15147,-8.521038,45.05199,0,0,0,150.0361,-29.75023,22.37564,-10.76163,-111.0334,-35.11188,0.001067912,-0.1257102,0.09433498,0,0.3,0,0,0,0,
6.38223E+17,36.87134,7.270621,54.6326,17.07234,-15.25959,90.90347,-4.617752,-0.4441859,0.1400836,-35.15147,-8.447793,45.05199,0,0,0,144.6163,-36.95904,24.46158,-10.76163,-111.0334,-35.11188,0.001067912,-0.1257102,0.09433498,0,0.3,0,0,0,0,
6.38223E+17,35.31638,6.101711,52.97495,14.87498,-12.54952,92.80784,-4.617752,-0.4441859,0.1400836,-35.15147,-8.447793,45.05199,0,0,0,138.197,-42.77432,26.71429,-10.76163,-111.0334,-35.11188,0.001067912,-0.1257102,0.09433498,0,0.3,0,0,0,0,
6.38223E+17,34.49178,5.72766,51.97101,13.70306,-11.08462,94.12625,-4.617752,-0.4441859,0.1400836,-35.15147,-8.521038,45.12524,0,0,0,134.6202,-45.49327,27.58383,-10.76163,-111.0334,-35.11188,0.001067912,-0.1257102,0.09433498,0,0.3,0,0,0,0,
6.38223E+17,32.72478,5.026314,49.9398,11.13948,-8.740773,96.17712,-4.617752,-0.4441859,0.1400836,-35.22471,-8.447793,45.05199,0,0,0,126.9875,-50.78978,29.26523,-10.76163,-111.0334,-35.11188,0.001067912,-0.1257102,0.09433498,0,0.3,0,0,0,0,
6.38223E+17,30.69863,3.974295,49.02925,8.06318,-6.616664,97.86176,-4.617752,-0.4441859,0.1400836,-35.22471,-8.447793,45.05199,0,0,0,119.3165,-54.84172,32.61281,-10.76163,-111.0334,-35.11188,0.001067912,-0.1257102,0.09433498,0,0.3,0,0,0,0,
6.38223E+17,28.60179,3.553487,48.6557,4.693902,-4.85878,100.2788,-4.617752,-0.4441859,0.1400836,-35.15147,-8.447793,45.05199,0,0,0,111.6405,-56.47358,36.39795,-10.76163,-111.0334,-35.11188,0.001067912,-0.1257102,0.09433498,0,0.3,0,0,0,0,
6.38223E+17,26.17512,3.459974,48.42223,1.104889,-3.686857,103.2819,-4.617752,-0.4441859,0.1400836,-35.15147,-8.447793,45.05199,0,0,0,102.7184,-57.09803,40.63034,-10.76163,-111.0334,-35.11188,0.001067912,-0.1257102,0.09433498,0,0.3,0,0,0,0,
6.38223E+17,24.76152,3.459974,48.37553,-0.57975,-3.174141,104.8933,-4.617752,-0.4441859,0.1400836,-35.15147,-8.447793,45.05199,0,0,0,97.50146,-57.17929,43.03523,-10.76163,-111.0334,-35.11188,0.001067912,-0.1257102,0.09433498,0,0.3,0,0,0,0,
6.38223E+17,21.41601,3.576865,48.56231,-4.97446,-2.58818,108.4823,-4.617752,-0.4441859,0.1400836,-35.15147,-8.447793,45.05199,0,0,0,85.09862,-56.58234,48.61766,-10.76163,-111.0334,-35.11188,0.001067912,-0.1257102,0.09433498,0,0.3,0,0,0,0,
6.38223E+17,17.83489,4.278211,49.23938,-10.61434,-2.58818,111.4121,-4.617752,-0.4441859,0.1400836,-35.15147,-8.447793,45.05199,0,0,0,71.66334,-53.76639,54.38905,-10.76163,-111.0334,-35.11188,0.001067912,-0.1257102,0.09433498,0,0.3,0,0,0,0,
6.38223E+17,15.10193,5.72766,50.4301,-16.03448,-3.100896,114.7814,-4.617752,-0.4441859,0.1400836,-35.15147,-8.447793,45.12524,0,0,0,61.35045,-48.28817,58.99435,-10.76163,-111.0334,-35.11188,0.001067912,-0.1257102,0.09433498,0,0.3,0,0,0,0,
6.38223E+17,13.90038,6.709544,51.20055,-18.96429,-3.613612,117.1985,-4.617752,-0.4441859,0.1400836,-35.15147,-8.521038,45.05199,0,0,0,56.78235,-44.62651,61.09035,-10.76163,-111.0334,-35.11188,0.001067912,-0.1257102,0.09433498,0,0.3,0,0,0,0,
6.38223E+17,12.20406,8.72007,53.16172,-24.38443,-5.225006,121.4467,-4.617752,-0.4441859,0.1400836,-35.22471,-8.447793,45.05199,0,0,0,50.4244,-36.38431,64.79211,-10.76163,-111.0334,-35.11188,0.001067912,-0.1257102,0.09433498,0,0.3,0,0,0,0,
6.38223E+17,11.28522,10.7306,55.30967,-29.14537,-7.715342,125.3287,-4.617752,-0.4441859,0.1400836,-35.22471,-8.447793,45.05199,0,0,0,47.09629,-27.71631,67.66071,-10.76163,-111.0334,-35.11188,0.001067912,-0.1257102,0.09433498,0,0.3,0,0,0,0,
6.38223E+17,11.14386,11.66572,56.24356,-30.9765,-9.106999,126.8668,-4.617752,-0.4441859,0.1400836,-35.15147,-8.447793,45.05199,0,0,0,46.66843,-23.78418,68.56087,-10.76163,-111.0334,-35.11188,0.001067912,-0.1257102,0.09433498,0,0.3,0,0,0,0,
6.38223E+17,11.3559,13.76976,58.01796,-34.05279,-11.89032,129.2839,-4.617752,-0.4441859,0.1400836,-35.15147,-8.447793,45.12524,0,0,0,47.77391,-15.5392,69.52698,-10.76163,-111.0334,-35.11188,0.001067912,-0.1257102,0.09433498,0,0.3,0,0,0,0,
6.38223E+17,12.15694,16.38812,59.18532,-36.39664,-15.03986,130.7488,-4.617752,-0.4441859,0.1400836,-35.15147,-8.447793,45.05199,0,0,0,51.05909,-7.336555,68.66988,-10.76163,-111.0334,-35.11188,0.001067912,-0.1257102,0.09433498,0,0.3,0,0,0,0,
6.38223E+17,13.87682,19.24026,59.95578,-37.71505,-18.40914,131.1883,-4.617752,-0.4441859,0.1400836,-35.22471,-8.447793,45.05199,0,0,0,57.88058,0.528735,65.94104,-10.76163,-111.0334,-35.11188,0.001067912,-0.1257102,0.09433498,0,0.3,0,0,0,0,
6.38223E+17,15.05481,20.64295,60.23594,-37.56856,-20.02053,131.4081,-4.617752,-0.4441859,0.1400836,-35.15147,-8.447793,45.05199,0,0,0,62.48025,4.16278,63.94032,-10.76163,-111.0334,-35.11188,0.001067912,-0.1257102,0.09433498,0,0.3,0,0,0,0,
6.38223E+17,18.02337,23.1678,60.91301,-35.66418,-23.75603,131.6278,-4.617752,-0.4441859,0.1400836,-35.15147,-8.447793,45.05199,0,0,0,73.98751,10.98691,59.04452,-10.76163,-111.0334,-35.11188,0.001067912,-0.1257102,0.09433498,0,0.3,0,0,0,0,
6.38223E+17,21.34533,24.94454,61.82356,-31.48921,-27.63803,131.0418,-4.617752,-0.4441859,0.1400836,-35.15147,-8.447793,45.12524,0,0,0,86.79601,16.62283,53.75096,-10.76163,-111.0334,-35.11188,0.001067912,-0.1257102,0.09433498,0,0.3,0,0,0,0,
6.38223E+17,22.99452,25.45886,62.2905,-28.77914,-29.5424,129.2839,-4.617752,-0.4441859,0.1400836,-35.15147,-8.521038,45.05199,0,0,0,93.15194,18.66597,51.16056,-10.76163,-111.0334,-35.11188,0.001067912,-0.1257102,0.09433498,0,0.3,0,0,0,0,
6.38223E+17,26.22224,25.80954,62.8275,-22.5533,-32.83843,124.3765,-4.617752,-0.4441859,0.1400836,-35.15147,-8.447793,45.12524,0,0,0,105.4621,20.51096,45.76739,-10.76163,-111.0334,-35.11188,0.001067912,-0.1257102,0.09433498,0,0.3,0,0,0,0,
6.38223E+17,29.21435,25.66927,62.73411,-16.18097,-35.10904,118.1507,-4.617752,-0.4441859,0.1400836,-35.15147,-8.447793,45.05199,0,0,0,116.5156,20.0236,40.0075,-10.76163,-111.0334,-35.11188,0.001067912,-0.1257102,0.09433498,0,0.3,0,0,0,0,
6.38223E+17,32.06511,25.2017,62.43059,-10.02838,-36.42745,111.2656,-4.617752,-0.4441859,0.1400836,-35.22471,-8.447793,45.05199,0,0,0,126.8094,18.41383,34.07522,-10.76163,-111.0334,-35.11188,0.001067912,-0.1257102,0.09433498,0,0.3,0,0,0,0,
6.38223E+17,34.60958,24.36009,62.36055,-4.022273,-37.08665,104.3073,-4.617752,-0.4441859,0.1400836,-35.15147,-8.447793,45.12524,0,0,0,136.0944,16.49098,28.85951,-10.76163,-111.0334,-35.11188,0.001067912,-0.1257102,0.09433498,0,0.3,0,0,0,0,
6.38223E+17,36.5415,23.02753,62.24381,1.69085,-37.45288,98.15474,-4.617752,-0.4441859,0.1400836,-35.15147,-8.447793,45.05199,0,0,0,143.3322,13.41052,25.05923,-10.76163,-111.0334,-35.11188,0.001067912,-0.1257102,0.09433498,0,0.3,0,0,0,0,
6.38223E+17,37.20118,22.27943,61.8936,3.96145,-37.45288,96.25037,-4.617752,-0.4441859,0.1400836,-35.15147,-8.447793,45.12524,0,0,0,145.7241,11.0836,23.62623,-10.76163,-111.0334,-35.11188,0.001067912,-0.1257102,0.09433498,0,0.3,0,0,0,0,
6.38223E+17,38.30849,20.85336,60.84298,7.110993,-36.79367,94.1995,-4.617752,-0.4441859,0.1400836,-35.22471,-8.447793,45.05199,0,0,0,149.4368,5.850823,20.81213,-10.76163,-111.0334,-35.11188,0.001067912,-0.1257102,0.09433498,0,0.3,0,0,0,0,
6.38223E+17,39.53362,19.54418,59.13863,9.235103,-35.5485,93.3938,-4.617752,-0.4441859,0.1400836,-35.15147,-8.447793,45.12524,0,0,0,152.8539,-0.4435233,16.85518,-10.76163,-111.0334,-35.11188,0.001067912,-0.1257102,0.09433498,0,0.3,0,0,0,0,
6.38223E+17,40.85297,17.62716,57.15411,10.99299,-33.93711,93.10082,-4.617752,-0.4441859,0.1400836,-35.15147,-8.447793,45.12524,0,0,0,156.4135,-8.595265,12.51851,-10.76163,-111.0334,-35.11188,0.001067912,-0.1257102,0.09433498,0,0.3,0,0,0,0,
6.38223E+17,41.91317,14.96205,54.70264,12.3114,-31.59327,93.17406,-4.617752,-0.4441859,0.1400836,-35.22471,-8.447793,45.12524,0,0,0,158.7608,-19.2741,8.509974,-10.76163,-111.0334,-35.11188,0.001067912,-0.1257102,0.09433498,0,0.3,0,0,0,0,
6.38223E+17,42.40793,13.53598,53.53528,12.67763,-30.20161,93.17406,-4.617752,-0.4441859,0.1400836,-35.15147,-8.447793,45.05199,0,0,0,159.7591,-24.69224,6.559904,-10.76163,-111.0334,-35.11188,0.001067912,-0.1257102,0.09433498,0,0.3,0,0,0,0,
6.38223E+17,43.16185,10.68384,52.01771,12.60438,-27.19856,93.32056,-4.617752,-0.4441859,0.1400836,-35.22471,-8.447793,45.05199,0,0,0,161.5377,-33.99429,3.899896,-10.76163,-111.0334,-35.11188,0.001067912,-0.1257102,0.09433498,0,0.3,0,0,0,0,
6.38223E+17,43.58593,8.112236,50.92039,12.01842,-24.70822,93.32056,-4.617752,-0.4441859,0.1400836,-35.15147,-8.447793,45.05199,0,0,0,162.3851,-41.89642,2.25506,-10.76163,-111.0334,-35.11188,0.001067912,-0.1257102,0.09433498,0,0.3,0,0,0,0,
6.38223E+17,43.65661,6.195224,49.79972,11.06623,-22.87709,93.32056,-4.617752,-0.4441859,0.1400836,-35.15147,-8.447793,45.05199,0,0,0,161.8303,-48.33162,1.252742,-10.76163,-111.0334,-35.11188,0.001067912,-0.1257102,0.09433498,0,0.3,0,0,0,0,
6.38223E+17,43.63305,5.493878,49.21603,10.55352,-22.07139,93.32056,-4.617752,-0.4441859,0.1400836,-35.15147,-8.447793,45.12524,0,0,0,161.2666,-50.98853,0.8011324,-10.76163,-111.0334,-35.11188,0.001067912,-0.1257102,0.09433498,0,0.3,0,0,0,0,
6.38223E+17,43.39745,4.324967,48.30549,9.528083,-20.89947,93.32056,-4.617752,-0.4441859,0.1400836,-35.15147,-8.447793,45.12524,0,0,0,159.7699,-55.29256,0.6169504,-10.76163,-111.0334,-35.11188,0.001067912,-0.1257102,0.09433498,0,0.3,0,0,0,0,
6.38223E+17,42.85557,2.898897,47.93193,8.35616,-20.09377,93.32056,-4.617752,-0.4441859,0.1400836,-35.15147,-8.521038,45.05199,0,0,0,157.9122,-59.25222,1.848201,-10.76163,-111.0334,-35.11188,0.001067912,-0.1257102,0.09433498,0,0.3,0,0,0,0,
6.38223E+17,42.45505,2.08066,47.97863,7.623709,-19.80079,93.32056,-4.617752,-0.4441859,0.1400836,-35.15147,-8.447793,45.05199,0,0,0,156.8235,-61.07406,3.062636,-10.76163,-111.0334,-35.11188,0.001067912,-0.1257102,0.09433498,0,0.3,0,0,0,0,
6.38223E+17,41.39485,1.052019,48.00198,6.08556,-19.6543,93.32056,-4.617752,-0.4441859,0.1400836,-35.15147,-8.447793,45.05199,0,0,0,153.6924,-63.42682,6.011351,-10.76163,-111.0334,-35.11188,0.001067912,-0.1257102,0.09433498,0,0.3,0,0,0,0,
6.38223E+17,40.12262,0.116891,47.90859,4.254431,-19.87404,93.61353,-4.617752,-0.4441859,0.1400836,-35.15147,-8.447793,45.05199,0,0,0,149.7036,-65.7645,9.286455,-10.76163,-111.0334,-35.11188,0.001067912,-0.1257102,0.09433498,0,0.3,0,0,0,0,
6.38223E+17,38.23782,-0.7948589,48.00198,1.54436,-20.16702,93.90652,-4.617752,-0.4441859,0.1400836,-35.15147,-8.447793,45.05199,0,0,0,143.8625,-67.72504,14.21857,-10.76163,-111.0334,-35.11188,0.001067912,-0.1257102,0.09433498,0,0.3,0,0,0,0,
6.38223E+17,37.22474,-0.9818845,48.00198,-0.0670338,-20.38675,93.97977,-4.617752,-0.4441859,0.1400836,-35.15147,-8.447793,45.05199,0,0,0,140.608,-68.16027,16.72824,-10.76163,-111.0334,-35.11188,0.001067912,-0.1257102,0.09433498,0,0.3,0,0,0,0,
6.38223E+17,35.31638,-0.9818845,48.00198,-3.729292,-20.82623,94.05301,-4.617752,-0.4441859,0.1400836,-35.15147,-8.447793,45.05199,0,0,0,134.3668,-68.16027,21.30797,-10.76163,-111.0334,-35.11188,0.001067912,-0.1257102,0.09433498,0,0.3,0,0,0,0,
6.38223E+17,33.40803,-1.005263,47.8619,-7.538041,-21.04596,93.97977,-4.617752,-0.4441859,0.1400836,-35.15147,-8.447793,45.05199,0,0,0,127.8556,-68.4567,25.49418,-10.76163,-111.0334,-35.11188,0.001067912,-0.1257102,0.09433498,0,0.3,0,0,0,0,
6.38223E+17,31.52323,-0.9818845,47.69846,-10.54109,-20.67974,94.71221,-4.617752,-0.4441859,0.1400836,-35.15147,-8.447793,45.05199,0,0,0,121.2778,-68.68398,29.3774,-10.76163,-111.0334,-35.11188,0.001067912,-0.1257102,0.09433498,0,0.3,0,0,0,0,
6.38223E+17,30.48659,-0.9818845,47.65177,-12.006,-20.16702,95.81089,-4.617752,-0.4441859,0.1400836,-35.15147,-8.447793,45.12524,0,0,0,117.6436,-68.76434,31.47611,-10.76163,-111.0334,-35.11188,0.001067912,-0.1257102,0.09433498,0,0.3,0,0,0,0,
6.38223E+17,28.46043,-0.9585064,47.65177,-14.49633,-18.48238,98.66745,-4.617752,-0.4441859,0.1400836,-35.15147,-8.447793,45.05199,0,0,0,110.5055,-68.70993,35.51136,-10.76163,-111.0334,-35.11188,0.001067912,-0.1257102,0.09433498,0,0.3,0,0,0,0,
6.38223E+17,26.62276,-0.5376987,47.76851,-16.98667,-16.50476,101.3043,-4.617752,-0.4441859,0.1400836,-35.15147,-8.447793,45.12524,0,0,0,103.9989,-67.52965,39.12507,-10.76163,-111.0334,-35.11188,0.001067912,-0.1257102,0.09433498,0,0.3,0,0,0,0,
6.38223E+17,25.75104,-0.1870256,47.8619,-17.93885,-15.47933,102.403,-4.617752,-0.4441859,0.1400836,-35.15147,-8.447793,45.05199,0,0,0,100.896,-66.55245,40.81939,-10.76163,-111.0334,-35.11188,0.001067912,-0.1257102,0.09433498,0,0.3,0,0,0,0,
6.38223E+17,24.07828,0.5376987,47.97863,-19.62349,-13.72145,104.3806,-4.617752,-0.4441859,0.1400836,-35.15147,-8.447793,45.05199,0,0,0,94.81933,-64.6641,43.83702,-10.76163,-111.0334,-35.11188,0.001067912,-0.1257102,0.09433498,0,0.3,0,0,0,0,
6.38223E+17,22.28772,1.145532,48.56231,-21.30813,-12.25654,105.6257,-4.617752,-0.4441859,0.1400836,-35.15147,-8.447793,45.05199,0,0,0,88.47807,-62.23578,47.51357,-10.76163,-111.0334,-35.11188,0.001067912,-0.1257102,0.09433498,0,0.3,0,0,0,0,
6.38223E+17,21.46313,1.613096,48.98256,-22.26032,-11.52409,106.1385,-4.617752,-0.4441859,0.1400836,-35.22471,-8.447793,45.05199,0,0,0,85.5886,-60.41228,49.34008,-10.76163,-111.0334,-35.11188,0.001067912,-0.1257102,0.09433498,0,0.3,0,0,0,0,
6.38223E+17,19.55477,2.548224,49.77637,-24.0182,-10.42541,107.7499,-4.617752,-0.4441859,0.1400836,-35.15147,-8.447793,45.05199,0,0,0,78.66798,-56.83501,53.12849,-10.76163,-111.0334,-35.11188,0.001067912,-0.1257102,0.09433498,0,0.3,0,0,0,0,
6.38223E+17,17.17521,3.085923,50.57018,-25.77609,-9.546471,110.2402,-4.617752,-0.4441859,0.1400836,-35.15147,-8.521038,45.05199,0,0,0,69.73579,-54.16624,57.27547,-10.76163,-111.0334,-35.11188,0.001067912,-0.1257102,0.09433498,0,0.3,0,0,0,0,
6.38223E+17,14.84277,3.343083,51.59746,-27.68046,-8.740773,112.4375,-4.617752,-0.4441859,0.1400836,-35.15147,-8.521038,45.12524,0,0,0,60.87178,-51.70843,61.34595,-10.76163,-111.0334,-35.11188,0.001067912,-0.1257102,0.09433498,0,0.3,0,0,0,0,
6.38223E+17,12.86374,3.763891,52.78817,-29.95106,-8.008322,114.7082,-4.617752,-0.4441859,0.1400836,-35.15147,-8.447793,45.12524,0,0,0,53.26788,-48.54146,64.90803,-10.76163,-111.0334,-35.11188,0.001067912,-0.1257102,0.09433498,0,0.3,0,0,0,0,
6.38223E+17,11.99202,4.137942,53.16172,-30.9765,-7.642097,116.0266,-4.617752,-0.4441859,0.1400836,-35.15147,-8.447793,45.12524,0,0,0,49.80929,-46.97885,66.14487,-10.76163,-111.0334,-35.11188,0.001067912,-0.1257102,0.09433498,0,0.3,0,0,0,0,
6.38223E+17,10.31926,4.792531,53.62867,-32.66114,-7.056135,118.5169,-4.617752,-0.4441859,0.1400836,-35.15147,-8.447793,45.05199,0,0,0,43.03777,-44.58757,68.01978,-10.76163,-111.0334,-35.11188,0.001067912,-0.1257102,0.09433498,0,0.3,0,0,0,0,
6.38223E+17,8.670066,5.189961,54.00222,-33.83306,-6.470173,121.3735,-4.617752,-0.4441859,0.1400836,-35.15147,-8.447793,45.05199,0,0,0,36.28247,-42.96439,69.58836,-10.76163,-111.0334,-35.11188,0.001067912,-0.1257102,0.09433498,0,0.3,0,0,0,0,
6.38223E+17,7.821907,5.376987,54.189,-34.19928,-6.030703,123.0581,-4.617752,-0.4441859,0.1400836,-35.15147,-8.447793,45.05199,0,0,0,32.78563,-42.17884,70.31221,-10.76163,-111.0334,-35.11188,0.001067912,-0.1257102,0.09433498,0,0.3,0,0,0,0,
6.38223E+17,5.86643,5.891307,54.65595,-34.712,-5.298251,126.8668,-4.617752,-0.4441859,0.1400836,-35.15147,-8.447793,45.05199,0,0,0,24.6753,-40.10371,71.80403,-10.76163,-111.0334,-35.11188,0.001067912,-0.1257102,0.09433498,0,0.3,0,0,0,0,
6.38223E+17,4.287913,6.288737,55.0762,-35.3712,-4.785534,130.0896,-4.617752,-0.4441859,0.1400836,-35.15147,-8.447793,45.05199,0,0,0,18.0852,-38.38406,72.85607,-10.76163,-111.0334,-35.11188,0.001067912,-0.1257102,0.09433498,0,0.3,0,0,0,0,
6.38223E+17,2.850755,6.803057,55.58984,-36.25014,-4.492554,131.9208,-4.617752,-0.4441859,0.1400836,-35.15147,-8.447793,45.12524,0,0,0,12.05698,-36.21163,73.77662,-10.76163,-111.0334,-35.11188,0.001067912,-0.1257102,0.09433498,0,0.3,0,0,0,0,
6.38223E+17,1.672757,7.223865,56.08013,-37.56856,-4.712289,133.2392,-4.617752,-0.4441859,0.1400836,-35.22471,-8.521038,45.12524,0,0,0,7.091885,-34.29539,74.49433,-10.76163,-111.0334,-35.11188,0.001067912,-0.1257102,0.09433498,0,0.3,0,0,0,0,
6.38223E+17,1.177998,7.364134,56.31361,-38.4475,-4.932025,133.6786,-4.617752,-0.4441859,0.1400836,-35.22471,-8.521038,45.12524,0,0,0,5.000006,-33.52005,74.80732,-10.76163,-111.0334,-35.11188,0.001067912,-0.1257102,0.09433498,0,0.3,0,0,0,0,
6.38223E+17,0.7067988,7.434268,56.61712,-39.98565,-5.371496,134.4843,-4.617752,-0.4441859,0.1400836,-35.22471,-8.447793,45.12524,0,0,0,3.004693,-32.76936,75.20941,-10.76163,-111.0334,-35.11188,0.001067912,-0.1257102,0.09433498,0,0.3,0,0,0,0,
6.38223E+17,0.8245987,7.434268,56.64047,-41.08433,-5.444741,134.7041,-4.617752,-0.4441859,0.1400836,-35.15147,-8.447793,45.05199,0,0,0,3.505873,-32.72398,75.2326,-10.76163,-111.0334,-35.11188,0.001067912,-0.1257102,0.09433498,0,0.3,0,0,0,0,
6.38223E+17,1.107318,7.434268,56.61712,-41.45055,-5.371496,134.7773,-4.617752,-0.4441859,0.1400836,-35.15147,-8.447793,45.05199,0,0,0,4.707179,-32.76936,75.18246,-10.76163,-111.0334,-35.11188,0.001067912,-0.1257102,0.09433498,0,0.3,0,0,0,0,
6.38223E+17,2.214636,7.434268,56.47704,-41.59705,-5.225006,134.7041,-4.617752,-0.4441859,0.1400836,-35.15147,-8.447793,45.05199,0,0,0,9.405655,-33.04138,74.86642,-10.76163,-111.0334,-35.11188,0.001067912,-0.1257102,0.09433498,0,0.3,0,0,0,0,
6.38223E+17,4.429273,7.457647,56.19687,-40.49837,-5.00527,134.0449,-4.617752,-0.4441859,0.1400836,-35.15147,-8.447793,45.05199,0,0,0,18.7688,-33.53014,73.9539,-10.76163,-111.0334,-35.11188,0.001067912,-0.1257102,0.09433498,0,0.3,0,0,0,0,
6.38223E+17,5.86643,7.527781,56.19687,-39.39969,-5.00527,133.3124,-4.617752,-0.4441859,0.1400836,-35.15147,-8.521038,45.05199,0,0,0,24.83783,-33.36831,73.38577,-10.76163,-111.0334,-35.11188,0.001067912,-0.1257102,0.09433498,0,0.3,0,0,0,0,
6.38223E+17,9.588904,7.995345,56.19687,-36.10366,-5.225006,130.8221,-4.617752,-0.4441859,0.1400836,-35.15147,-8.447793,45.05199,0,0,0,40.45533,-32.29007,71.11829,-10.76163,-111.0334,-35.11188,0.001067912,-0.1257102,0.09433498,0,0.3,0,0,0,0,
6.38223E+17,13.5941,8.72007,56.3603,-31.48921,-6.030703,127.3063,-4.617752,-0.4441859,0.1400836,-35.15147,-8.447793,45.05199,0,0,0,57.07465,-30.3049,67.67471,-10.76163,-111.0334,-35.11188,0.001067912,-0.1257102,0.09433498,0,0.3,0,0,0,0,
6.38223E+17,17.29301,9.211012,56.64047,-26.4353,-7.422361,123.7905,-4.617752,-0.4441859,0.1400836,-35.15147,-8.447793,45.05199,0,0,0,72.23656,-28.63251,63.67457,-10.76163,-111.0334,-35.11188,0.001067912,-0.1257102,0.09433498,0,0.3,0,0,0,0,
6.38223E+17,20.37937,9.327903,57.06072,-21.82085,-9.033754,118.6634,-4.617752,-0.4441859,0.1400836,-35.15147,-8.447793,45.12524,0,0,0,84.79521,-27.5451,59.90902,-10.76163,-111.0334,-35.11188,0.001067912,-0.1257102,0.09433498,0,0.3,0,0,0,0,
6.38223E+17,21.98145,9.49155,57.45762,-19.84323,-9.766206,115.6603,-4.617752,-0.4441859,0.1400836,-35.15147,-8.447793,45.12524,0,0,0,91.3074,-26.39237,57.85464,-10.76163,-111.0334,-35.11188,0.001067912,-0.1257102,0.09433498,0,0.3,0,0,0,0,
6.38223E+17,25.3034,10.12276,58.46156,-15.66825,-11.30435,110.6064,-4.617752,-0.4441859,0.1400836,-35.15147,-8.447793,45.05199,0,0,0,104.6846,-22.96416,53.07801,-10.76163,-111.0334,-35.11188,0.001067912,-0.1257102,0.09433498,0,0.3,0,0,0,0,
6.38223E+17,28.31907,11.24492,59.72231,-11.05381,-12.91575,106.6512,-4.617752,-0.4441859,0.1400836,-35.15147,-8.447793,45.05199,0,0,0,116.6741,-17.88024,48.16458,-10.76163,-111.0334,-35.11188,0.001067912,-0.1257102,0.09433498,0,0.3,0,0,0,0,
6.38223E+17,31.00491,12.60085,61.0064,-6.585854,-14.38065,102.8424,-4.617752,-0.4441859,0.1400836,-35.15147,-8.521038,45.05199,0,0,0,127.1171,-12.19499,43.16729,-10.76163,-111.0334,-35.11188,0.001067912,-0.1257102,0.09433498,0,0.3,0,0,0,0,
6.38223E+17,33.8321,14.00354,62.54733,-2.484124,-16.13853,98.30123,-4.617752,-0.4441859,0.1400836,-35.15147,-8.447793,45.05199,0,0,0,137.9212,-5.858171,37.42477,-10.76163,-111.0334,-35.11188,0.001067912,-0.1257102,0.09433498,0,0.3,0,0,0,0,
6.38223E+17,35.3635,14.7984,63.6213,-0.3600145,-17.01748,95.95738,-4.617752,-0.4441859,0.1400836,-35.15147,-8.521038,45.05199,0,0,0,143.7598,-1.837599,34.21288,-10.76163,-111.0334,-35.11188,0.001067912,-0.1257102,0.09433498,0,0.3,0,0,0,0,
6.38223E+17,38.21426,16.52839,65.62917,4.474167,-18.92185,91.34293,-4.617752,-0.4441859,0.1400836,-35.15147,-8.447793,45.12524,0,0,0,154.2226,6.261139,27.53166,-10.76163,-111.0334,-35.11188,0.001067912,-0.1257102,0.09433498,0,0.3,0,0,0,0,
6.38223E+17,40.24041,18.4454,67.61369,9.381593,-20.75298,87.16796,-4.617752,-0.4441859,0.1400836,-35.15147,-8.447793,45.12524,0,0,0,161.3696,14.75576,22.33214,-10.76163,-111.0334,-35.11188,0.001067912,-0.1257102,0.09433498,0,0.3,0,0,0,0,
6.38223E+17,41.11213,19.54418,68.68765,11.57895,-21.41219,85.41007,-4.617752,-0.4441859,0.1400836,-35.15147,-8.447793,45.12524,0,0,0,164.3163,19.49373,19.9288,-10.76163,-111.0334,-35.11188,0.001067912,-0.1257102,0.09433498,0,0.3,0,0,0,0,
6.38223E+17,42.78489,21.90538,70.99904,15.68068,-23.09683,82.11404,-4.617752,-0.4441859,0.1400836,-35.22471,-8.447793,45.05199,0,0,0,169.6805,29.68289,14.98522,-10.76163,-111.0334,-35.11188,0.001067912,-0.1257102,0.09433498,0,0.3,0,0,0,0,
6.38223E+17,43.96289,24.36009,73.33376,19.78241,-24.85471,79.03775,-4.617752,-0.4441859,0.1400836,-35.15147,-8.447793,45.05199,0,0,0,173.0109,40.10861,11.04043,-10.76163,-111.0334,-35.11188,0.001067912,-0.1257102,0.09433498,0,0.3,0,0,0,0,
6.38223E+17,44.31629,25.64589,74.291,21.97976,-25.73365,77.79259,-4.617752,-0.4441859,0.1400836,-35.15147,-8.447793,45.12524,0,0,0,173.6644,44.9602,9.509299,-10.76163,-111.0334,-35.11188,0.001067912,-0.1257102,0.09433498,0,0.3,0,0,0,0,
6.38223E+17,44.48121,28.47465,75.1782,25.86176,-27.41829,75.88821,-4.617752,-0.4441859,0.1400836,-35.15147,-8.447793,45.05199,0,0,0,172.4581,52.81451,7.259858,-10.76163,-111.0334,-35.11188,0.001067912,-0.1257102,0.09433498,0,0.3,0,0,0,0,
6.38223E+17,44.26917,31.39693,75.48171,28.27885,-29.17617,74.86278,-4.617752,-0.4441859,0.1400836,-35.15147,-8.447793,45.05199,0,0,0,169.563,59.39114,5.594883,-10.76163,-111.0334,-35.11188,0.001067912,-0.1257102,0.09433498,0,0.3,0,0,0,0,
6.38223E+17,43.86865,34.22569,75.94866,30.40295,-30.93406,74.42331,-4.617752,-0.4441859,0.1400836,-35.15147,-8.447793,45.05199,0,0,0,166.0567,65.97704,4.397586,-10.76163,-111.0334,-35.11188,0.001067912,-0.1257102,0.09433498,0,0.3,0,0,0,0,
6.38223E+17,43.56237,35.27771,76.04205,31.20865,-31.73976,74.27681,-4.617752,-0.4441859,0.1400836,-35.15147,-8.447793,45.12524,0,0,0,164.2054,68.19964,4.309571,-10.76163,-111.0334,-35.11188,0.001067912,-0.1257102,0.09433498,0,0.3,0,0,0,0,
6.38223E+17,42.43149,37.59215,76.25217,32.67356,-33.79062,74.27681,-4.617752,-0.4441859,0.1400836,-35.22471,-8.447793,45.12524,0,0,0,158.6864,73.00787,5.24207,-10.76163,-111.0334,-35.11188,0.001067912,-0.1257102,0.09433498,0,0.3,0,0,0,0,
6.38223E+17,41.15925,39.50917,76.27552,33.11303,-35.91473,75.08251,-4.617752,-0.4441859,0.1400836,-35.15147,-8.447793,45.05199,0,0,0,152.9716,76.54976,6.638976,-10.76163,-111.0334,-35.11188,0.001067912,-0.1257102,0.09433498,0,0.3,0,0,0,0,
6.38223E+17,39.74566,41.12226,76.3689,32.67356,-38.11209,76.76715,-4.617752,-0.4441859,0.1400836,-35.15147,-8.447793,45.05199,0,0,0,147.088,79.62349,8.531359,-10.76163,-111.0334,-35.11188,0.001067912,-0.1257102,0.09433498,0,0.3,0,0,0,0,
6.38223E+17,39.06242,41.80023,76.43895,32.23409,-39.13752,77.57285,-4.617752,-0.4441859,0.1400836,-35.15147,-8.447793,45.05199,0,0,0,144.3341,80.96441,9.491284,-10.76163,-111.0334,-35.11188,0.001067912,-0.1257102,0.09433498,0,0.3,0,0,0,0,
6.38223E+17,37.67238,43.08603,76.43895,30.91567,-40.96865,79.55046,-4.617752,-0.4441859,0.1400836,-35.15147,-8.447793,45.05199,0,0,0,138.7433,83.17272,11.34177,-10.76163,-111.0334,-35.11188,0.001067912,-0.1257102,0.09433498,0,0.3,0,0,0,0,
6.38223E+17,36.02318,44.46534,76.43895,29.74375,-42.14057,81.82106,-4.617752,-0.4441859,0.1400836,-35.15147,-8.447793,45.05199,0,0,0,132.2081,85.49062,13.46416,-10.76163,-111.0334,-35.11188,0.001067912,-0.1257102,0.09433498,0,0.3,0,0,0,0,
6.38223E+17,33.69075,46.49924,76.29887,28.13236,-43.23925,85.48332,-4.617752,-0.4441859,0.1400836,-35.15147,-8.447793,45.05199,0,0,0,122.7844,88.49253,15.82189,-10.76163,-111.0334,-35.11188,0.001067912,-0.1257102,0.09433498,0,0.3,0,0,0,0,
6.38223E+17,30.91067,48.74355,76.15878,24.90957,-44.55766,91.04996,-4.617752,-0.4441859,0.1400836,-35.15147,-8.521038,45.12524,0,0,0,111.6852,91.69635,18.18357,-10.76163,-111.0334,-35.11188,0.001067912,-0.1257102,0.09433498,0,0.3,0,0,0,0,
6.38223E+17,29.49707,49.72544,76.15878,22.78546,-45.29012,94.56573,-4.617752,-0.4441859,0.1400836,-35.15147,-8.447793,45.05199,0,0,0,106.1973,93.18851,19.37557,-10.76163,-111.0334,-35.11188,0.001067912,-0.1257102,0.09433498,0,0.3,0,0,0,0,
6.38223E+17,26.74056,51.08138,76.15878,17.36532,-46.60852,102.7692,-4.617752,-0.4441859,0.1400836,-35.15147,-8.447793,45.12524,0,0,0,95.9523,95.19991,22.09398,-10.76163,-111.0334,-35.11188,0.001067912,-0.1257102,0.09433498,0,0.3,0,0,0,0,
6.38223E+17,23.91336,51.59569,76.18213,11.28597,-47.56071,112.4375,-4.617752,-0.4441859,0.1400836,-35.15147,-8.447793,45.12524,0,0,0,86.06847,96.00047,25.75232,-10.76163,-111.0334,-35.11188,0.001067912,-0.1257102,0.09433498,0,0.3,0,0,0,0,
6.38223E+17,20.92125,51.64245,76.13544,4.254431,-48.07343,124.3033,-4.617752,-0.4441859,0.1400836,-35.15147,-8.447793,45.12524,0,0,0,75.77953,95.96251,29.87639,-10.76163,-111.0334,-35.11188,0.001067912,-0.1257102,0.09433498,0,0.3,0,0,0,0,
6.38223E+17,17.92913,51.40867,75.92531,-4.022273,-48.29316,138.5128,-4.617752,-0.4441859,0.1400836,-35.22471,-8.521038,45.05199,0,0,0,65.42388,95.14941,33.85469,-10.76163,-111.0334,-35.11188,0.001067912,-0.1257102,0.09433498,0,0.3,0,0,0,0,
6.38223E+17,16.42129,51.10475,75.66849,-8.783209,-48.29316,143.8597,-4.617752,-0.4441859,0.1400836,-35.15147,-8.447793,45.05199,0,0,0,60.19498,94.12729,35.89473,-10.76163,-111.0334,-35.11188,0.001067912,-0.1257102,0.09433498,0,0.3,0,0,0,0,
6.38223E+17,13.38206,50.02935,74.47778,-18.74455,-47.19449,144.8852,-4.617752,-0.4441859,0.1400836,-35.15147,-8.447793,45.05199,0,0,0,49.5635,89.85986,39.98516,-10.76163,-111.0334,-35.11188,0.001067912,-0.1257102,0.09433498,0,0.3,0,0,0,0,
6.38223E+17,10.86114,48.76693,72.58665,-25.55635,-45.14362,144.8852,-4.617752,-0.4441859,0.1400836,-35.15147,-8.447793,45.05199,0,0,0,40.53735,83.72707,42.92905,-10.76163,-111.0334,-35.11188,0.001067912,-0.1257102,0.09433498,0,0.3,0,0,0,0,
6.38223E+17,8.387346,47.17721,70.22857,-30.39053,-42.21382,144.9584,-4.617752,-0.4441859,0.1400836,-35.15147,-8.521038,45.05199,0,0,0,31.5259,76.04871,45.46975,-10.76163,-111.0334,-35.11188,0.001067912,-0.1257102,0.09433498,0,0.3,0,0,0,0,
6.38223E+17,7.421387,46.26546,68.89778,-32.07517,-40.74891,145.0316,-4.617752,-0.4441859,0.1400836,-35.15147,-8.521038,45.05199,0,0,0,27.97663,71.69173,46.43035,-10.76163,-111.0334,-35.11188,0.001067912,-0.1257102,0.09433498,0,0.3,0,0,0,0,
6.38223E+17,5.701511,44.18481,65.7459,-34.19928,-37.30639,144.8852,-4.617752,-0.4441859,0.1400836,-35.15147,-8.447793,45.12524,0,0,0,21.57837,61.51355,47.77971,-10.76163,-111.0334,-35.11188,0.001067912,-0.1257102,0.09433498,0,0.3,0,0,0,0,
6.38223E+17,4.335033,41.73009,63.27109,-34.93173,-33.79062,144.9584,-4.617752,-0.4441859,0.1400836,-35.15147,-8.521038,45.05199,0,0,0,16.52502,52.13396,49.64298,-10.76163,-111.0334,-35.11188,0.001067912,-0.1257102,0.09433498,0,0.3,0,0,0,0,
6.38223E+17,3.463314,39.41565,61.07645,-35.22471,-30.86081,144.9584,-4.617752,-0.4441859,0.1400836,-35.15147,-8.447793,45.05199,0,0,0,13.27422,43.52577,50.98628,-10.76163,-111.0334,-35.11188,0.001067912,-0.1257102,0.09433498,0,0.3,0,0,0,0,
6.38223E+17,2.944995,36.98432,58.20473,-34.712,-27.56478,144.8852,-4.617752,-0.4441859,0.1400836,-35.22471,-8.521038,45.05199,0,0,0,11.29575,33.31269,51.21864,-10.76163,-111.0334,-35.11188,0.001067912,-0.1257102,0.09433498,0,0.3,0,0,0,0,
6.38223E+17,2.732955,35.69852,56.99068,-33.97955,-26.02663,144.8119,-4.617752,-0.4441859,0.1400836,-35.15147,-8.447793,45.12524,0,0,0,10.49546,28.5166,51.51789,-10.76163,-111.0334,-35.11188,0.001067912,-0.1257102,0.09433498,0,0.3,0,0,0,0,
6.38223E+17,2.214636,33.22043,54.67929,-32.36815,-23.24332,144.8119,-4.617752,-0.4441859,0.1400836,-35.22471,-8.447793,45.05199,0,0,0,8.515409,19.3107,51.84599,-10.76163,-111.0334,-35.11188,0.001067912,-0.1257102,0.09433498,0,0.3,0,0,0,0,
6.38223E+17,1.696317,30.60207,51.78423,-31.04974,-20.02053,144.9584,-4.617752,-0.4441859,0.1400836,-35.15147,-8.447793,45.05199,0,0,0,6.499083,8.741225,51.10261,-10.76163,-111.0334,-35.11188,0.001067912,-0.1257102,0.09433498,0,0.3,0,0,0,0,
6.38223E+17,1.649197,28.21749,49.4962,-29.65808,-16.87099,144.8852,-4.617752,-0.4441859,0.1400836,-35.15147,-8.521038,45.05199,0,0,0,6.299843,-0.2100982,50.4563,-10.76163,-111.0334,-35.11188,0.001067912,-0.1257102,0.09433498,0,0.3,0,0,0,0,
6.38223E+17,1.649197,27.18885,48.63235,-28.99888,-15.33284,144.8852,-4.617752,-0.4441859,0.1400836,-35.15147,-8.447793,45.05199,0,0,0,6.293962,-3.848512,50.25204,-10.76163,-111.0334,-35.11188,0.001067912,-0.1257102,0.09433498,0,0.3,0,0,0,0,
6.38223E+17,1.719877,25.55238,47.18483,-27.9002,-12.91575,144.8852,-4.617752,-0.4441859,0.1400836,-35.22471,-8.521038,45.12524,0,0,0,6.546621,-9.760756,49.67783,-10.76163,-111.0334,-35.11188,0.001067912,-0.1257102,0.09433498,0,0.3,0,0,0,0,
6.38223E+17,2.026157,24.47698,45.99411,-26.87477,-10.86488,144.9584,-4.617752,-0.4441859,0.1400836,-35.22471,-8.521038,45.05199,0,0,0,7.682094,-14.04196,48.79414,-10.76163,-111.0334,-35.11188,0.001067912,-0.1257102,0.09433498,0,0.3,0,0,0,0,
6.38223E+17,2.473796,23.7055,45.10692,-25.77609,-8.814018,144.1527,-4.617752,-0.4441859,0.1400836,-35.22471,-8.447793,45.05199,0,0,0,9.347565,-17.15512,48.01512,-10.76163,-111.0334,-35.11188,0.001067912,-0.1257102,0.09433498,0,0.3,0,0,0,0,
6.38223E+17,2.921435,23.47172,44.75671,-24.67741,-7.422361,142.1751,-4.617752,-0.4441859,0.1400836,-35.15147,-8.447793,45.12524,0,0,0,11.01936,-18.22941,47.57665,-10.76163,-111.0334,-35.11188,0.001067912,-0.1257102,0.09433498,0,0.3,0,0,0,0,
6.38223E+17,3.180595,23.40158,44.61663,-24.16469,-6.836399,141.0032,-4.617752,-0.4441859,0.1400836,-35.15147,-8.447793,45.05199,0,0,0,11.98666,-18.60845,47.35799,-10.76163,-111.0334,-35.11188,0.001067912,-0.1257102,0.09433498,0,0.3,0,0,0,0,
6.38223E+17,3.816714,23.28469,44.47654,-22.77304,-5.884212,138.2198,-4.617752,-0.4441859,0.1400836,-35.15147,-8.521038,45.05199,0,0,0,14.37246,-19.08694,47.08733,-10.76163,-111.0334,-35.11188,0.001067912,-0.1257102,0.09433498,0,0.3,0,0,0,0,
6.38223E+17,4.547072,23.21456,44.47654,-20.64893,-5.15176,135.3633,-4.617752,-0.4441859,0.1400836,-35.15147,-8.447793,45.05199,0,0,0,17.12254,-19.23692,46.95086,-10.76163,-111.0334,-35.11188,0.001067912,-0.1257102,0.09433498,0,0.3,0,0,0,0,
6.38223E+17,4.829792,22.70024,44.38315,-18.8178,-4.785534,133.5322,-4.617752,-0.4441859,0.1400836,-35.15147,-8.447793,45.05199,0,0,0,18.21094,-20.49129,47.17432,-10.76163,-111.0334,-35.11188,0.001067912,-0.1257102,0.09433498,0,0.3,0,0,0,0,
6.38223E+17,4.876912,22.11578,44.33646,-18.0121,-4.492554,132.1405,-4.617752,-0.4441859,0.1400836,-35.15147,-8.521038,45.05199,0,0,0,18.42566,-21.82481,47.5985,-10.76163,-111.0334,-35.11188,0.001067912,-0.1257102,0.09433498,0,0.3,0,0,0,0,
6.38223E+17,4.806232,20.52606,44.31311,-16.40071,-3.613612,129.7234,-4.617752,-0.4441859,0.1400836,-35.15147,-8.521038,45.05199,0,0,0,18.26871,-25.30935,48.92281,-10.76163,-111.0334,-35.11188,0.001067912,-0.1257102,0.09433498,0,0.3,0,0,0,0,
6.38223E+17,4.405713,19.02986,44.31311,-14.9358,-2.368444,128.6247,-4.617752,-0.4441859,0.1400836,-35.15147,-8.447793,45.05199,0,0,0,16.83997,-28.5861,50.22001,-10.76163,-111.0334,-35.11188,0.001067912,-0.1257102,0.09433498,0,0.3,0,0,0,0,
6.38223E+17,3.392634,17.51027,44.31311,-13.83713,-1.050031,128.4782,-4.617752,-0.4441859,0.1400836,-35.15147,-8.447793,45.12524,0,0,0,13.03849,-31.94439,51.59034,-10.76163,-111.0334,-35.11188,0.001067912,-0.1257102,0.09433498,0,0.3,0,0,0,0,
6.38223E+17,1.931917,16.36474,44.31311,-13.54414,0.1951368,128.405,-4.617752,-0.4441859,0.1400836,-35.15147,-8.447793,45.12524,0,0,0,7.453813,-34.49481,52.6275,-10.76163,-111.0334,-35.11188,0.001067912,-0.1257102,0.09433498,0,0.3,0,0,0,0,
6.38223E+17,1.013078,15.92056,44.31311,-13.69064,1.000834,128.405,-4.617752,-0.4441859,0.1400836,-35.15147,-8.447793,45.05199,0,0,0,3.914325,-35.48784,53.006,-10.76163,-111.0334,-35.11188,0.001067912,-0.1257102,0.09433498,0,0.3,0,0,0,0,
6.38223E+17,-1.107318,15.21921,44.24307,-15.00905,2.246002,128.4782,-4.617752,-0.4441859,0.1400836,-35.15147,-8.447793,45.12524,0,0,0,-4.284617,-37.17405,53.32062,-10.76163,-111.0334,-35.11188,0.001067912,-0.1257102,0.09433498,0,0.3,0,0,0,0,
6.38223E+17,-2.756516,15.00881,44.05629,-16.76693,3.051698,129.5769,-4.617752,-0.4441859,0.1400836,-35.15147,-8.521038,45.05199,0,0,0,-10.65365,-37.94959,52.92147,-10.76163,-111.0334,-35.11188,0.001067912,-0.1257102,0.09433498,0,0.3,0,0,0,0,
6.38223E+17,-3.628234,14.93867,43.9629,-17.79236,3.417924,130.5291,-4.617752,-0.4441859,0.1400836,-35.22471,-8.521038,45.05199,0,0,0,-14.01157,-38.25829,52.61985,-10.76163,-111.0334,-35.11188,0.001067912,-0.1257102,0.09433498,0,0.3,0,0,0,0,
6.38223E+17,-5.183192,14.91529,43.89286,-19.84323,4.150376,132.2137,-4.617752,-0.4441859,0.1400836,-35.15147,-8.521038,45.05199,0,0,0,-19.99326,-38.42396,52.0553,-10.76163,-111.0334,-35.11188,0.001067912,-0.1257102,0.09433498,0,0.3,0,0,0,0,
6.38223E+17,-6.549669,14.91529,43.89286,-21.7476,4.882828,134.5576,-4.617752,-0.4441859,0.1400836,-35.15147,-8.521038,45.05199,0,0,0,-25.24364,-38.42396,51.51583,-10.76163,-111.0334,-35.11188,0.001067912,-0.1257102,0.09433498,0,0.3,0,0,0,0,
6.38223E+17,-8.033947,14.91529,43.98625,-23.13926,5.395544,137.0479,-4.617752,-0.4441859,0.1400836,-35.15147,-8.447793,45.12524,0,0,0,-30.95215,-38.27314,50.94316,-10.76163,-111.0334,-35.11188,0.001067912,-0.1257102,0.09433498,0,0.3,0,0,0,0,
6.38223E+17,-8.999906,14.91529,44.10299,-23.87171,5.615279,137.9269,-4.617752,-0.4441859,0.1400836,-35.15147,-8.447793,45.05199,0,0,0,-34.67522,-38.08425,50.58308,-10.76163,-111.0334,-35.11188,0.001067912,-0.1257102,0.09433498,0,0.3,0,0,0,0,
6.38223E+17,-11.09674,14.91529,44.54658,-25.84933,5.76177,139.0988,-4.617752,-0.4441859,0.1400836,-35.22471,-8.521038,45.05199,0,0,0,-42.8046,-37.36287,49.89255,-10.76163,-111.0334,-35.11188,0.001067912,-0.1257102,0.09433498,0,0.3,0,0,0,0,
6.38223E+17,-12.86374,14.91529,44.96684,-28.11993,5.468789,141.8821,-4.617752,-0.4441859,0.1400836,-35.15147,-8.447793,45.05199,0,0,0,-49.66839,-36.6742,49.14601,-10.76163,-111.0334,-35.11188,0.001067912,-0.1257102,0.09433498,0,0.3,0,0,0,0,
6.38223E+17,-14.4187,14.96205,45.31704,-29.87782,5.322299,144.6654,-4.617752,-0.4441859,0.1400836,-35.15147,-8.447793,45.12524,0,0,0,-55.68819,-35.99129,48.24776,-10.76163,-111.0334,-35.11188,0.001067912,-0.1257102,0.09433498,0,0.3,0,0,0,0,
6.38223E+17,-15.2433,15.07894,45.66725,-30.61027,5.395544,144.8119,-4.617752,-0.4441859,0.1400836,-35.15147,-8.447793,45.05199,0,0,0,-58.93127,-35.14726,47.90714,-10.76163,-111.0334,-35.11188,0.001067912,-0.1257102,0.09433498,0,0.3,0,0,0,0,
6.38223E+17,-16.98673,15.75691,46.48441,-32.14842,5.468789,144.8119,-4.617752,-0.4441859,0.1400836,-35.15147,-8.447793,45.12524,0,0,0,-65.74628,-32.25635,46.87466,-10.76163,-111.0334,-35.11188,0.001067912,-0.1257102,0.09433498,0,0.3,0,0,0,0,
6.38223E+17,-18.75373,16.85568,47.60507,-33.61332,5.615279,144.8852,-4.617752,-0.4441859,0.1400836,-35.15147,-8.447793,45.05199,0,0,0,-72.69205,-27.89306,45.74809,-10.76163,-111.0334,-35.11188,0.001067912,-0.1257102,0.09433498,0,0.3,0,0,0,0,
6.38223E+17,-20.33225,18.0246,48.95922,-35.22471,5.688524,144.8852,-4.617752,-0.4441859,0.1400836,-35.15147,-8.447793,45.12524,0,0,0,-79.0076,-22.94523,44.86642,-10.76163,-111.0334,-35.11188,0.001067912,-0.1257102,0.09433498,0,0.3,0,0,0,0,
6.38223E+17,-21.0626,18.72594,49.72968,-36.03041,5.76177,144.8119,-4.617752,-0.4441859,0.1400836,-35.15147,-8.447793,45.05199,0,0,0,-81.95394,-20.0358,44.45202,-10.76163,-111.0334,-35.11188,0.001067912,-0.1257102,0.09433498,0,0.3,0,0,0,0,
6.38223E+17,-22.38196,20.2689,51.2239,-37.86154,5.76177,144.9584,-4.617752,-0.4441859,0.1400836,-35.22471,-8.447793,45.12524,0,0,0,-87.21832,-13.96828,43.44672,-10.76163,-111.0334,-35.11188,0.001067912,-0.1257102,0.09433498,0,0.3,0,0,0,0,
6.38223E+17,-23.23012,21.92875,52.5547,-39.69267,5.76177,145.0316,-4.617752,-0.4441859,0.1400836,-35.15147,-8.447793,45.12524,0,0,0,-90.54939,-7.9273,42.61118,-10.76163,-111.0334,-35.11188,0.001067912,-0.1257102,0.09433498,0,0.3,0,0,0,0,
6.38223E+17,-23.58352,23.12104,53.3485,-40.57161,5.76177,144.8852,-4.617752,-0.4441859,0.1400836,-35.22471,-8.447793,45.05199,0,0,0,-91.8689,-3.889578,42.09455,-10.76163,-111.0334,-35.11188,0.001067912,-0.1257102,0.09433498,0,0.3,0,0,0,0,
6.38223E+17,-23.98404,25.43548,54.91277,-41.96327,5.395544,144.9584,-4.617752,-0.4441859,0.1400836,-35.22471,-8.447793,45.05199,0,0,0,-93.30459,3.970459,41.37274,-10.76163,-111.0334,-35.11188,0.001067912,-0.1257102,0.09433498,0,0.3,0,0,0,0,
6.38223E+17,-24.07828,27.91357,56.59377,-43.06195,4.516602,144.8852,-4.617752,-0.4441859,0.1400836,-35.15147,-8.447793,45.05199,0,0,0,-93.49139,12.35765,40.86537,-10.76163,-111.0334,-35.11188,0.001067912,-0.1257102,0.09433498,0,0.3,0,0,0,0,
6.38223E+17,-24.07828,30.34491,58.43821,-44.08738,3.564415,144.8119,-4.617752,-0.4441859,0.1400836,-35.15147,-8.447793,45.05199,0,0,0,-93.30823,20.92121,40.45548,-10.76163,-111.0334,-35.11188,0.001067912,-0.1257102,0.09433498,0,0.3,0,0,0,0,
6.38223E+17,-23.93692,32.63597,60.70289,-45.55228,2.246002,144.8119,-4.617752,-0.4441859,0.1400836,-35.15147,-8.447793,45.05199,0,0,0,-92.74581,30.01232,40.57925,-10.76163,-111.0334,-35.11188,0.001067912,-0.1257102,0.09433498,0,0.3,0,0,0,0,
6.38223E+17,-23.74844,33.75813,61.75352,-46.28474,1.440305,144.8852,-4.617752,-0.4441859,0.1400836,-35.15147,-8.447793,45.05199,0,0,0,-91.95613,34.34105,40.65163,-10.76163,-111.0334,-35.11188,0.001067912,-0.1257102,0.09433498,0,0.3,0,0,0,0,
6.38223E+17,-23.04164,36.30635,63.50457,-47.60315,-0.09784385,144.8852,-4.617752,-0.4441859,0.1400836,-35.15147,-8.447793,45.05199,0,0,0,-88.77189,42.81589,40.36158,-10.76163,-111.0334,-35.11188,0.001067912,-0.1257102,0.09433498,0,0.3,0,0,0,0,
6.38223E+17,-22.005,39.15849,65.11552,-48.70182,-2.075463,144.8852,-4.617752,-0.4441859,0.1400836,-35.15147,-8.447793,45.12524,0,0,0,-84.06843,51.44387,39.67435,-10.76163,-111.0334,-35.11188,0.001067912,-0.1257102,0.09433498,0,0.3,0,0,0,0,
6.38223E+17,-20.61497,42.03401,66.30624,-49.43428,-4.199574,144.8852,-4.617752,-0.4441859,0.1400836,-35.15147,-8.447793,45.12524,0,0,0,-77.86555,59.05092,38.64375,-10.76163,-111.0334,-35.11188,0.001067912,-0.1257102,0.09433498,0,0.3,0,0,0,0,
6.38223E+17,-18.65949,45.37709,67.54364,-49.8005,-7.056135,144.9584,-4.617752,-0.4441859,0.1400836,-35.15147,-8.447793,45.05199,0,0,0,-69.39831,67.32424,37.15683,-10.76163,-111.0334,-35.11188,0.001067912,-0.1257102,0.09433498,0,0.3,0,0,0,0,
6.38223E+17,-17.64641,46.94343,68.10397,-49.65401,-8.374548,144.8852,-4.617752,-0.4441859,0.1400836,-35.22471,-8.447793,45.05199,0,0,0,-65.10613,71.05684,36.31517,-10.76163,-111.0334,-35.11188,0.001067912,-0.1257102,0.09433498,0,0.3,0,0,0,0,
6.38223E+17,-15.2433,50.02935,69.13126,-49.28778,-11.3776,144.8852,-4.617752,-0.4441859,0.1400836,-35.15147,-8.374548,45.12524,0,0,0,-55.28264,78.04288,34.51794,-10.76163,-111.0334,-35.11188,0.001067912,-0.1257102,0.09433498,0,0.3,0,0,0,0,
6.38223E+17,-12.43966,52.8815,70.20523,-48.48209,-14.60039,144.8852,-4.617752,-0.4441859,0.1400836,-35.15147,-8.447793,45.05199,0,0,0,-44.36239,84.52258,32.75787,-10.76163,-111.0334,-35.11188,0.001067912,-0.1257102,0.09433498,0,0.3,0,0,0,0,
6.38223E+17,-9.282625,55.49986,70.64883,-47.01719,-18.1894,144.9584,-4.617752,-0.4441859,0.1400836,-35.15147,-8.521038,45.12524,0,0,0,-32.47818,89.06055,30.36029,-10.76163,-111.0334,-35.11188,0.001067912,-0.1257102,0.09433498,0,0.3,0,0,0,0,
6.38223E+17,-7.562747,56.64539,70.64883,-45.99176,-19.87404,144.8852,-4.617752,-0.4441859,0.1400836,-35.15147,-8.447793,45.12524,0,0,0,-26.20851,90.54859,29.05263,-10.76163,-111.0334,-35.11188,0.001067912,-0.1257102,0.09433498,0,0.3,0,0,0,0,
6.38223E+17,-3.910954,58.49226,70.71887,-42.76897,-23.09683,144.9584,-4.617752,-0.4441859,0.1400836,-35.15147,-8.447793,45.12524,0,0,0,-13.33843,93.00751,26.75549,-10.76163,-111.0334,-35.11188,0.001067912,-0.1257102,0.09433498,0,0.3,0,0,0,0,
6.38223E+17,-0.1177998,59.80144,70.71887,-38.52075,-26.09988,144.1527,-4.617752,-0.4441859,0.1400836,-35.15147,-8.447793,45.12524,0,0,0,-0.3966939,94.57009,24.59476,-10.76163,-111.0334,-35.11188,0.001067912,-0.1257102,0.09433498,0,0.3,0,0,0,0,
6.38223E+17,3.439754,60.75995,70.60213,-33.54007,-28.73671,139.172,-4.617752,-0.4441859,0.1400836,-35.15147,-8.447793,45.05199,0,0,0,11.45487,95.41965,22.22388,-10.76163,-111.0334,-35.11188,0.001067912,-0.1257102,0.09433498,0,0.3,0,0,0,0,
6.38223E+17,7.138669,61.41454,70.60213,-27.38748,-30.86081,133.3124,-4.617752,-0.4441859,0.1400836,-35.15147,-8.447793,45.05199,0,0,0,23.55985,96.15622,19.76464,-10.76163,-111.0334,-35.11188,0.001067912,-0.1257102,0.09433498,0,0.3,0,0,0,0,
6.38223E+17,8.999906,61.57819,70.55544,-24.16469,-31.66651,130.0896,-4.617752,-0.4441859,0.1400836,-35.15147,-8.447793,45.05199,0,0,0,29.59919,96.23548,18.53391,-10.76163,-111.0334,-35.11188,0.001067912,-0.1257102,0.09433498,0,0.3,0,0,0,0,
6.38223E+17,12.55746,61.6717,70.55544,-17.79236,-32.76519,123.6441,-4.617752,-0.4441859,0.1400836,-35.15147,-8.447793,45.12524,0,0,0,41.09687,96.33891,16.15021,-10.76163,-111.0334,-35.11188,0.001067912,-0.1257102,0.09433498,0,0.3,0,0,0,0,
6.38223E+17,16.16213,61.62495,70.55544,-11.05381,-33.35115,116.9788,-4.617752,-0.4441859,0.1400836,-35.15147,-8.447793,45.05199,0,0,0,52.64211,96.28724,13.29333,-10.76163,-111.0334,-35.11188,0.001067912,-0.1257102,0.09433498,0,0.3,0,0,0,0,
6.38223E+17,17.71709,61.60157,70.53209,-7.977511,-33.4244,114.1222,-4.617752,-0.4441859,0.1400836,-35.15147,-8.447793,45.05199,0,0,0,57.56082,96.21014,11.82632,-10.76163,-111.0334,-35.11188,0.001067912,-0.1257102,0.09433498,0,0.3,0,0,0,0,
6.38223E+17,21.03905,61.46129,70.39201,-1.605182,-33.4244,107.9696,-4.617752,-0.4441859,0.1400836,-35.15147,-8.447793,45.05199,0,0,0,67.96858,95.74726,8.354199,-10.76163,-111.0334,-35.11188,0.001067912,-0.1257102,0.09433498,0,0.3,0,0,0,0,
6.38223E+17,24.10184,61.20414,70.27527,3.375489,-33.05817,102.8424,-4.617752,-0.4441859,0.1400836,-35.15147,-8.447793,45.05199,0,0,0,77.48998,95.20429,4.866104,-10.76163,-111.0334,-35.11188,0.001067912,-0.1257102,0.09433498,0,0.3,0,0,0,0,
6.38223E+17,27.09396,60.83008,70.18188,7.696954,-32.54545,98.00825,-4.617752,-0.4441859,0.1400836,-35.22471,-8.447793,45.05199,0,0,0,86.73933,94.57793,1.197613,-10.76163,-111.0334,-35.11188,0.001067912,-0.1257102,0.09433498,0,0.3,0,0,0,0,
6.38223E+17,30.15675,60.29239,70.15854,11.65219,-31.73976,93.17406,-4.617752,-0.4441859,0.1400836,-35.22471,-8.521038,45.05199,0,0,0,96.21267,93.91174,-2.752685,-10.76163,-111.0334,-35.11188,0.001067912,-0.1257102,0.09433498,0,0.3,0,0,0,0,
6.38223E+17,31.71171,59.91833,70.20523,13.48332,-31.22704,90.75697,-4.617752,-0.4441859,0.1400836,-35.15147,-8.447793,45.05199,0,0,0,101.0869,93.58009,-4.751076,-10.76163,-111.0334,-35.11188,0.001067912,-0.1257102,0.09433498,0,0.3,0,0,0,0,
6.38223E+17,34.84518,58.91307,70.25192,16.99909,-29.98187,86.06928,-4.617752,-0.4441859,0.1400836,-35.15147,-8.447793,45.05199,0,0,0,111.0503,92.49194,-8.83814,-10.76163,-111.0334,-35.11188,0.001067912,-0.1257102,0.09433498,0,0.3,0,0,0,0,
6.38223E+17,37.7195,57.72078,70.62548,20.14863,-28.66346,81.52808,-4.617752,-0.4441859,0.1400836,-35.15147,-8.447793,45.05199,0,0,0,120.5321,91.85375,-12.50935,-10.76163,-111.0334,-35.11188,0.001067912,-0.1257102,0.09433498,0,0.3,0,0,0,0,
6.38223E+17,40.33466,56.48174,70.85895,23.07844,-27.49154,77.42635,-4.617752,-0.4441859,0.1400836,-35.15147,-8.447793,45.05199,0,0,0,129.2003,90.80044,-16.18893,-10.76163,-111.0334,-35.11188,0.001067912,-0.1257102,0.09433498,0,0.3,0,0,0,0,
6.38223E+17,41.55977,55.73364,70.99904,24.4701,-26.83233,75.37549,-4.617752,-0.4441859,0.1400836,-35.15147,-8.447793,45.05199,0,0,0,133.4535,90.13766,-17.82495,-10.76163,-111.0334,-35.11188,0.001067912,-0.1257102,0.09433498,0,0.3,0,0,0,0,
6.38223E+17,43.96289,54.05041,71.44263,27.10692,-25.44067,71.71323,-4.617752,-0.4441859,0.1400836,-35.15147,-8.521038,45.05199,0,0,0,142.1031,88.86216,-21.00708,-10.76163,-111.0334,-35.11188,0.001067912,-0.1257102,0.09433498,0,0.3,0,0,0,0,
6.38223E+17,45.94193,52.18015,71.41929,29.45077,-24.04902,68.49045,-4.617752,-0.4441859,0.1400836,-35.22471,-8.521038,45.05199,0,0,0,149.5961,86.19817,-23.59342,-10.76163,-111.0334,-35.11188,0.001067912,-0.1257102,0.09433498,0,0.3,0,0,0,0,
6.38223E+17,47.6618,49.79557,70.92899,31.35514,-22.58411,65.78037,-4.617752,-0.4441859,0.1400836,-35.22471,-8.447793,45.12524,0,0,0,156.7884,81.62481,-25.49231,-10.76163,-111.0334,-35.11188,0.001067912,-0.1257102,0.09433498,0,0.3,0,0,0,0,
6.38223E+17,48.91048,47.45775,69.87837,32.45382,-20.97272,64.02249,-4.617752,-0.4441859,0.1400836,-35.15147,-8.447793,45.05199,0,0,0,162.3233,75.72517,-26.79859,-10.76163,-111.0334,-35.11188,0.001067912,-0.1257102,0.09433498,0,0.3,0,0,0,0,
6.38223E+17,49.38168,46.19533,68.94447,32.7468,-19.94728,63.36329,-4.617752,-0.4441859,0.1400836,-35.15147,-8.447793,45.12524,0,0,0,164.5282,71.68021,-27.24095,-10.76163,-111.0334,-35.11188,0.001067912,-0.1257102,0.09433498,0,0.3,0,0,0,0,
6.38223E+17,50.11204,43.41333,66.95996,32.96654,-17.82317,62.48434,-4.617752,-0.4441859,0.1400836,-35.22471,-8.447793,45.05199,0,0,0,168.4839,62.80588,-27.53569,-10.76163,-111.0334,-35.11188,0.001067912,-0.1257102,0.09433498,0,0.3,0,0,0,0,
6.38223E+17,50.46544,40.42091,64.92875,32.67356,-15.47933,61.97163,-4.617752,-0.4441859,0.1400836,-35.15147,-8.447793,45.05199,0,0,0,171.4511,53.30745,-26.84283,-10.76163,-111.0334,-35.11188,0.001067912,-0.1257102,0.09433498,0,0.3,0,0,0,0,
6.38223E+17,50.489,37.35837,62.59402,32.01435,-12.98899,61.89838,-4.617752,-0.4441859,0.1400836,-35.15147,-8.447793,45.05199,0,0,0,173.108,42.88657,-25.59493,-10.76163,-111.0334,-35.11188,0.001067912,-0.1257102,0.09433498,0,0.3,0,0,0,0,
6.38223E+17,50.41832,35.86216,61.37996,31.64813,-11.45084,61.89838,-4.617752,-0.4441859,0.1400836,-35.15147,-8.447793,45.05199,0,0,0,173.5095,37.5969,-24.90388,-10.76163,-111.0334,-35.11188,0.001067912,-0.1257102,0.09433498,0,0.3,0,0,0,0,
6.38223E+17,50.0178,33.40745,58.83511,30.98892,-8.521038,62.48434,-4.617752,-0.4441859,0.1400836,-35.22471,-8.447793,45.05199,0,0,0,172.7287,27.76209,-23.50483,-10.76163,-111.0334,-35.11188,0.001067912,-0.1257102,0.09433498,0,0.3,0,0,0,0,
6.38223E+17,49.0754,30.90598,55.75327,30.25646,-5.444741,64.02249,-4.617752,-0.4441859,0.1400836,-35.15147,-8.447793,45.05199,0,0,0,169.7362,16.79893,-21.19231,-10.76163,-111.0334,-35.11188,0.001067912,-0.1257102,0.09433498,0,0.3,0,0,0,0,
6.38223E+17,47.75604,28.61492,52.88156,29.15779,-2.514934,66.29308,-4.617752,-0.4441859,0.1400836,-35.15147,-8.447793,45.12524,0,0,0,165.3764,6.742029,-18.16451,-10.76163,-111.0334,-35.11188,0.001067912,-0.1257102,0.09433498,0,0.3,0,0,0,0,
6.38223E+17,47.0728,27.60966,51.64415,28.49858,-1.123276,67.46501,-4.617752,-0.4441859,0.1400836,-35.15147,-8.447793,45.12524,0,0,0,163.0903,2.400944,-16.65278,-10.76163,-111.0334,-35.11188,0.001067912,-0.1257102,0.09433498,0,0.3,0,0,0,0,
6.38223E+17,45.70633,25.83291,49.30943,27.25341,1.147324,70.24833,-4.617752,-0.4441859,0.1400836,-35.15147,-8.447793,45.12524,0,0,0,158.2822,-5.483665,-13.92294,-10.76163,-111.0334,-35.11188,0.001067912,-0.1257102,0.09433498,0,0.3,0,0,0,0,
6.38223E+17,44.10425,24.14968,46.90466,25.86176,3.198189,72.88515,-4.617752,-0.4441859,0.1400836,-35.22471,-8.447793,45.05199,0,0,0,152.4539,-13.20024,-11.05306,-10.76163,-111.0334,-35.11188,0.001067912,-0.1257102,0.09433498,0,0.3,0,0,0,0,
