zeyangz2/DNN_classification_different_people_hand/data/Frank_right_8.csv
Timestamp,Therapist joint angle 0,Therapist joint angle 1,Therapist joint angle 2,Therapist joint angle 3,Therapist joint angle 4,Therapist joint angle 5,Patient joint angle 0,Patient joint angle 1,Patient joint angle 2,Patient joint angle 3,Patient joint angle 4,Patient joint angle 5,Virtual joint angle 0,Virtual joint angle 1,Virtual joint angle 2,Therapist position x,Therapist position y,Therapist position z,Patient position x,Patient position y,Patient position z,Virtual position x,Virtual position y,Virtual position z,Assistive Force, Obstacle Force Magnitude, Therapist Constant Force, Patient Constant Force, Recovery Factor, Assistance Level,label
6.38223E+17,0,0,0,0,0,0,0,0,0,0,0,0,0,0,0,0,0,0,0,0,0,0,0,0,0,0.3,0,0,0,0,1
6.38223E+17,28.62535,-0.9818845,-10.99656,-77.1942,-6.250438,-22.5533,-17.10453,-0.4441859,-4.249202,-61.88596,-6.98289,34.57793,0,0,0,51.68984,-109.8366,-73.64386,-36.31316,-110.6672,-50.34543,0.001067912,-0.1257102,0.09433498,0,0.3,0,0,0,0,
6.38223E+17,28.62535,-0.9818845,-10.99656,-77.1942,-6.250438,-22.62654,-17.10453,-0.4441859,-4.249202,-61.81271,-6.98289,34.57793,0,0,0,51.68984,-109.8366,-73.64386,-36.31316,-110.6672,-50.34543,0.001067912,-0.1257102,0.09433498,0,0.3,0,0,0,0,
6.38223E+17,28.62535,-0.9818845,-10.99656,-77.1942,-6.250438,-22.62654,-17.10453,-0.4441859,-4.249202,-61.81271,-7.056135,34.57793,0,0,0,51.68984,-109.8366,-73.64386,-36.31316,-110.6672,-50.34543,0.001067912,-0.1257102,0.09433498,0,0.3,0,0,0,0,
6.38223E+17,28.62535,-0.9818845,-10.99656,-77.1942,-6.250438,-22.5533,-17.10453,-0.4441859,-4.249202,-61.88596,-7.056135,34.57793,0,0,0,51.68984,-109.8366,-73.64386,-36.31316,-110.6672,-50.34543,0.001067912,-0.1257102,0.09433498,0,0.3,0,0,0,0,
6.38223E+17,28.62535,-0.9818845,-10.99656,-77.1942,-6.250438,-22.62654,-17.10453,-0.4441859,-4.249202,-61.88596,-7.056135,34.57793,0,0,0,51.68984,-109.8366,-73.64386,-36.31316,-110.6672,-50.34543,0.001067912,-0.1257102,0.09433498,0,0.3,0,0,0,0,
6.38223E+17,28.62535,-0.9818845,-10.99656,-77.1942,-6.250438,-22.62654,-17.10453,-0.4441859,-4.249202,-61.88596,-7.056135,34.57793,0,0,0,51.68984,-109.8366,-73.64386,-36.31316,-110.6672,-50.34543,0.001067912,-0.1257102,0.09433498,0,0.3,0,0,0,0,
6.38223E+17,28.62535,-0.9818845,-10.99656,-77.1942,-6.250438,-22.62654,-17.10453,-0.4441859,-4.249202,-61.88596,-7.056135,34.57793,0,0,0,51.68984,-109.8366,-73.64386,-36.31316,-110.6672,-50.34543,0.001067912,-0.1257102,0.09433498,0,0.3,0,0,0,0,
6.38223E+17,28.62535,-0.9818845,-10.99656,-77.1942,-6.250438,-22.62654,-17.10453,-0.4441859,-4.249202,-61.81271,-6.98289,34.57793,0,0,0,51.68984,-109.8366,-73.64386,-36.31316,-110.6672,-50.34543,0.001067912,-0.1257102,0.09433498,0,0.3,0,0,0,0,
6.38223E+17,28.62535,-0.9818845,-10.99656,-77.1942,-6.250438,-22.62654,-17.10453,-0.4441859,-4.249202,-61.88596,-7.056135,34.57793,0,0,0,51.68984,-109.8366,-73.64386,-36.31316,-110.6672,-50.34543,0.001067912,-0.1257102,0.09433498,0,0.3,0,0,0,0,
6.38223E+17,28.62535,-0.9818845,-10.99656,-77.1942,-6.250438,-22.5533,-17.10453,-0.4441859,-4.249202,-61.88596,-7.056135,34.57793,0,0,0,51.68984,-109.8366,-73.64386,-36.31316,-110.6672,-50.34543,0.001067912,-0.1257102,0.09433498,0,0.3,0,0,0,0,
6.38223E+17,28.62535,-0.9818845,-10.99656,-77.1942,-6.250438,-22.62654,-17.10453,-0.4441859,-4.249202,-61.81271,-7.056135,34.57793,0,0,0,51.68984,-109.8366,-73.64386,-36.31316,-110.6672,-50.34543,0.001067912,-0.1257102,0.09433498,0,0.3,0,0,0,0,
6.38223E+17,28.62535,-0.9818845,-10.99656,-77.1942,-6.250438,-22.62654,-17.10453,-0.4441859,-4.249202,-61.88596,-6.98289,34.57793,0,0,0,51.68984,-109.8366,-73.64386,-36.31316,-110.6672,-50.34543,0.001067912,-0.1257102,0.09433498,0,0.3,0,0,0,0,
6.38223E+17,28.62535,-0.9818845,-10.99656,-77.1942,-6.250438,-22.5533,-17.10453,-0.4441859,-4.249202,-61.88596,-6.98289,34.57793,0,0,0,51.68984,-109.8366,-73.64386,-36.31316,-110.6672,-50.34543,0.001067912,-0.1257102,0.09433498,0,0.3,0,0,0,0,
6.38223E+17,28.62535,-0.9818845,-10.99656,-77.1942,-6.250438,-22.5533,-17.10453,-0.4441859,-4.249202,-61.81271,-6.98289,34.57793,0,0,0,51.68984,-109.8366,-73.64386,-36.31316,-110.6672,-50.34543,0.001067912,-0.1257102,0.09433498,0,0.3,0,0,0,0,
6.38223E+17,28.62535,-0.9818845,-10.99656,-77.1942,-6.250438,-22.62654,-17.10453,-0.4441859,-4.249202,-61.88596,-7.056135,34.57793,0,0,0,51.68984,-109.8366,-73.64386,-36.31316,-110.6672,-50.34543,0.001067912,-0.1257102,0.09433498,0,0.3,0,0,0,0,
6.38223E+17,28.62535,-0.9818845,-10.99656,-77.1942,-6.250438,-22.5533,-17.10453,-0.4441859,-4.249202,-61.88596,-7.056135,34.57793,0,0,0,51.68984,-109.8366,-73.64386,-36.31316,-110.6672,-50.34543,0.001067912,-0.1257102,0.09433498,0,0.3,0,0,0,0,
6.38223E+17,28.62535,-0.9818845,-10.99656,-77.1942,-6.250438,-22.5533,-17.10453,-0.4441859,-4.249202,-61.88596,-6.98289,34.57793,0,0,0,51.68984,-109.8366,-73.64386,-36.31316,-110.6672,-50.34543,0.001067912,-0.1257102,0.09433498,0,0.3,0,0,0,0,
6.38223E+17,28.62535,-0.9818845,-10.99656,-77.1942,-6.250438,-22.62654,-17.10453,-0.4441859,-4.249202,-61.88596,-6.98289,34.57793,0,0,0,51.68984,-109.8366,-73.64386,-36.31316,-110.6672,-50.34543,0.001067912,-0.1257102,0.09433498,0,0.3,0,0,0,0,
6.38223E+17,28.62535,-0.9818845,-10.99656,-77.1942,-6.250438,-22.5533,-17.10453,-0.4441859,-4.249202,-61.88596,-6.98289,34.57793,0,0,0,51.68984,-109.8366,-73.64386,-36.31316,-110.6672,-50.34543,0.001067912,-0.1257102,0.09433498,0,0.3,0,0,0,0,
6.38223E+17,28.62535,-0.9818845,-10.99656,-77.1942,-6.323683,-22.62654,-17.10453,-0.4441859,-4.249202,-61.88596,-7.056135,34.57793,0,0,0,51.68984,-109.8366,-73.64386,-36.31316,-110.6672,-50.34543,0.001067912,-0.1257102,0.09433498,0,0.3,0,0,8.38E-08,0,
6.38223E+17,28.62535,-0.9818845,-10.99656,-77.1942,-6.250438,-22.5533,-17.10453,-0.4441859,-4.249202,-61.88596,-6.98289,34.57793,0,0,0,51.68984,-109.8366,-73.64386,-36.31316,-110.6672,-50.34543,0.001067912,-0.1257102,0.09433498,0,0.3,0,0,8.38E-08,0,
6.38223E+17,28.62535,-0.9818845,-10.99656,-77.1942,-6.250438,-22.5533,-17.10453,-0.4441859,-4.249202,-61.81271,-7.056135,34.57793,0,0,0,51.68984,-109.8366,-73.64386,-36.31316,-110.6672,-50.34543,0.001067912,-0.1257102,0.09433498,0,0.3,0,0,8.38E-08,0,
6.38223E+17,28.62535,-0.9818845,-10.99656,-77.1942,-6.250438,-22.5533,-17.10453,-0.4441859,-4.249202,-61.88596,-6.98289,34.57793,0,0,0,51.68984,-109.8366,-73.64386,-36.31316,-110.6672,-50.34543,0.001067912,-0.1257102,0.09433498,0,0.3,0,0,1.68E-07,0,
6.38223E+17,28.62535,-0.9818845,-10.99656,-77.1942,-6.250438,-22.5533,-17.10453,-0.4441859,-4.249202,-61.88596,-7.056135,34.57793,0,0,0,51.68984,-109.8366,-73.64386,-36.31316,-110.6672,-50.34543,0.001067912,-0.1257102,0.09433498,0,0.3,0,0,1.68E-07,0,
6.38223E+17,28.57823,-0.9818845,-11.01991,-77.1942,-6.250438,-22.48005,-17.10453,-0.4441859,-4.249202,-61.88596,-7.056135,34.57793,0,0,0,51.58642,-109.8263,-73.64822,-36.31316,-110.6672,-50.34543,0.001067912,-0.1257102,0.09433498,0,0.3,0,0,2.54E-05,0,
6.38223E+17,27.89499,-1.005263,-11.04326,-77.1942,-6.177193,-17.64587,-17.10453,-0.4441859,-4.249202,-61.88596,-6.98289,34.57793,0,0,0,50.42809,-109.8703,-73.08778,-36.31316,-110.6672,-50.34543,0.001067912,-0.1257102,0.09433498,0,0.3,0,0,0.000499723,0,
6.38223E+17,27.37668,-1.005263,-11.04326,-77.41393,-6.323683,-13.25116,-17.10453,-0.4441859,-4.249202,-61.88596,-7.056135,34.57793,0,0,0,49.56426,-109.8703,-72.6355,-36.31316,-110.6672,-50.34543,0.001067912,-0.1257102,0.09433498,0,0.3,0,0,0.001040928,0,
6.38223E+17,26.50496,-1.005263,-11.04326,-77.8534,-6.616664,-2.777105,-17.10453,-0.4441859,-4.249202,-61.88596,-6.98289,34.57793,0,0,0,48.10234,-109.8703,-71.89252,-36.31316,-110.6672,-50.34543,0.001067912,-0.1257102,0.09433498,0,0.3,0,0,0.002620046,0,
6.38223E+17,25.96308,-0.9818845,-11.04326,-78.14638,-6.836399,13.84955,-17.10453,-0.4441859,-4.249202,-61.88596,-7.056135,34.57793,0,0,0,47.18837,-109.8159,-71.44106,-36.31316,-110.6672,-50.34543,0.001067912,-0.1257102,0.09433498,0,0.3,0,0,0.004596142,0,
6.38223E+17,25.86884,-0.9818845,-11.01991,-78.07314,-6.763155,24.76308,-17.10453,-0.4441859,-4.249202,-61.81271,-6.98289,34.57793,0,0,0,47.05218,-109.8263,-71.31558,-36.31316,-110.6672,-50.34543,0.001067912,-0.1257102,0.09433498,0,0.3,0,0,0.00559852,0,
6.38223E+17,25.72748,-0.9818845,-11.01991,-77.41393,-6.689909,33.25952,-17.10453,-0.4441859,-4.249202,-61.88596,-7.056135,34.57793,0,0,0,46.81263,-109.8263,-71.19979,-36.31316,-110.6672,-50.34543,0.001067912,-0.1257102,0.09433498,0,0.3,0,0,0.007561711,0,
6.38223E+17,25.37408,-0.9818845,-10.97322,-75.87578,-6.396928,39.77834,-17.10453,-0.4441859,-4.249202,-61.88596,-7.056135,34.57793,0,0,0,46.25824,-109.847,-70.81651,-36.31316,-110.6672,-50.34543,0.001067912,-0.1257102,0.09433498,0,0.3,0,0,0.009592615,0,
6.38223E+17,25.13848,-0.9818845,-10.97322,-74.9236,-6.323683,41.97569,-17.10453,-0.4441859,-4.249202,-61.81271,-6.98289,34.57793,0,0,0,45.85679,-109.847,-70.62712,-36.31316,-110.6672,-50.34543,0.001067912,-0.1257102,0.09433498,0,0.3,0,0,0.01067645,0,
6.38223E+17,24.64372,-0.9818845,-10.97322,-72.72624,-6.103948,45.05199,-17.10453,-0.4441859,-4.249202,-61.88596,-7.056135,34.57793,0,0,0,45.01124,-109.847,-70.23479,-36.31316,-110.6672,-50.34543,0.001067912,-0.1257102,0.09433498,0,0.3,0,0,0.01299581,0,
6.38223E+17,24.10184,-0.9818845,-10.97322,-71.0416,-6.030703,46.66338,-17.10453,-0.4441859,-4.249202,-61.88596,-7.056135,34.57793,0,0,0,44.08131,-109.847,-69.81349,-36.31316,-110.6672,-50.34543,0.001067912,-0.1257102,0.09433498,0,0.3,0,0,0.01554378,0,
6.38223E+17,23.46572,-0.9818845,-10.97322,-69.13722,-5.884212,47.61557,-17.10453,-0.4441859,-4.249202,-61.88596,-7.056135,34.57793,0,0,0,42.98463,-109.847,-69.33016,-36.31316,-110.6672,-50.34543,0.001067912,-0.1257102,0.09433498,0,0.3,0,0,0.01829858,0,
6.38223E+17,22.9474,-0.9818845,-10.94987,-67.15961,-5.664476,48.05504,-17.10453,-0.4441859,-4.249202,-61.88596,-6.98289,34.57793,0,0,0,42.10791,-109.8573,-68.89624,-36.31316,-110.6672,-50.34543,0.001067912,-0.1257102,0.09433498,0,0.3,0,0,0.02124748,0,
6.38223E+17,22.92384,-0.9818845,-10.94987,-66.06093,-5.591231,48.20153,-17.10453,-0.4441859,-4.249202,-61.81271,-6.98289,34.57793,0,0,0,42.06701,-109.8573,-68.87894,-36.31316,-110.6672,-50.34543,0.001067912,-0.1257102,0.09433498,0,0.3,0,0,0.02269385,0,
6.38223E+17,23.11232,-0.9818845,-10.90317,-62.69165,-5.371496,48.42127,-17.10453,-0.4441859,-4.249202,-61.88596,-6.98289,34.57793,0,0,0,42.43589,-109.8779,-68.91972,-36.31316,-110.6672,-50.34543,0.001067912,-0.1257102,0.09433498,0,0.3,0,0,0.02534498,0,
6.38223E+17,23.04164,-0.9585064,-10.45957,-59.32237,-5.225006,50.17915,-17.10453,-0.4441859,-4.249202,-61.81271,-6.98289,34.57793,0,0,0,42.71065,-110.0149,-67.933,-36.31316,-110.6672,-50.34543,0.001067912,-0.1257102,0.09433498,0,0.3,0,0,0.02780782,0,
6.38223E+17,22.9474,-0.9585064,-10.20275,-58.00396,-5.15176,51.79055,-17.10453,-0.4441859,-4.249202,-61.88596,-6.98289,34.57793,0,0,0,42.77469,-110.1221,-67.32139,-36.31316,-110.6672,-50.34543,0.001067912,-0.1257102,0.09433498,0,0.3,0,0,0.02900294,0,
6.38223E+17,22.38196,-0.9351282,-9.689116,-56.02634,-4.419309,55.89228,-17.10453,-0.4441859,-4.249202,-61.81271,-7.056135,34.57793,0,0,0,42.22429,-110.2741,-65.81458,-36.31316,-110.6672,-50.34543,0.001067912,-0.1257102,0.09433498,0,0.3,0,0,0.03147147,0,
6.38223E+17,21.5338,-0.9351282,-8.638489,-55.00091,-2.221954,61.53215,-17.10453,-0.4441859,-4.249202,-61.88596,-7.056135,34.57793,0,0,0,41.58793,-110.6636,-62.95529,-36.31316,-110.6672,-50.34543,0.001067912,-0.1257102,0.09433498,0,0.3,0,0,0.03413023,0,
6.38223E+17,20.40293,-0.9351282,-7.377736,-54.56144,0.5613627,68.12422,-17.10453,-0.4441859,-4.249202,-61.88596,-7.056135,34.57793,0,0,0,40.51268,-111.0723,-59.43172,-36.31316,-110.6672,-50.34543,0.001067912,-0.1257102,0.09433498,0,0.3,0,0,0.03705021,0,
6.38223E+17,19.67257,-0.9351282,-6.794055,-54.48819,2.246002,70.98078,-17.10453,-0.4441859,-4.249202,-61.88596,-7.056135,34.57793,0,0,0,39.57485,-111.2399,-57.65476,-36.31316,-110.6672,-50.34543,0.001067912,-0.1257102,0.09433498,0,0.3,0,0,0.03867995,0,
6.38223E+17,18.11761,-0.9351282,-5.790122,-53.97548,5.249053,74.71628,-17.10453,-0.4441859,-4.249202,-61.88596,-6.98289,34.57793,0,0,0,37.27868,-111.496,-54.41433,-36.31316,-110.6672,-50.34543,0.001067912,-0.1257102,0.09433498,0,0.3,0,0,0.04233405,0,
6.38223E+17,15.92653,-0.9351282,-4.879579,-52.21759,8.105616,76.76715,-17.10453,-0.4441859,-4.249202,-61.88596,-6.98289,34.57793,0,0,0,33.47441,-111.693,-51.04339,-36.31316,-110.6672,-50.34543,0.001067912,-0.1257102,0.09433498,0,0.3,0,0,0.04670954,0,
6.38223E+17,14.67786,-0.9351282,-4.365939,-50.31322,9.277537,76.32768,-17.10453,-0.4441859,-4.249202,-61.88596,-6.98289,34.57793,0,0,0,31.21205,-111.7894,-49.18911,-36.31316,-110.6672,-50.34543,0.001067912,-0.1257102,0.09433498,0,0.3,0,0,0.0516093,0,
6.38223E+17,13.68834,-0.9351282,-3.432048,-49.28778,9.717009,75.229,-17.10453,-0.4441859,-4.249202,-61.88596,-6.98289,34.57793,0,0,0,29.6627,-111.9372,-46.56098,-36.31316,-110.6672,-50.34543,0.001067912,-0.1257102,0.09433498,0,0.3,0,0,0.0542565,0,
6.38223E+17,11.63862,-0.9351282,-1.424183,-49.06805,9.8635,73.7641,-17.10453,-0.4441859,-4.249202,-61.88596,-6.98289,34.57793,0,0,0,26.22958,-112.1351,-41.00529,-36.31316,-110.6672,-50.34543,0.001067912,-0.1257102,0.09433498,0,0.3,0,0,0.05993161,0,
6.38223E+17,10.22502,-0.9351282,0.2334726,-50.38646,10.00999,74.05708,-17.10453,-0.4441859,-4.249202,-61.88596,-7.056135,34.57793,0,0,0,23.76487,-112.1752,-36.60057,-36.31316,-110.6672,-50.34543,0.001067912,-0.1257102,0.09433498,0,0.3,0,0,0.06581264,0,
6.38223E+17,9.023465,-0.9351282,1.424183,-51.33865,10.44946,75.52198,-17.10453,-0.4441859,-4.249202,-61.88596,-7.056135,34.57793,0,0,0,21.4315,-112.1351,-33.39457,-36.31316,-110.6672,-50.34543,0.001067912,-0.1257102,0.09433498,0,0.3,0,0,0.07179607,0,
6.38223E+17,8.316667,-0.9351282,2.124601,-51.70488,10.81569,76.54742,-17.10453,-0.4441859,-4.249202,-61.88596,-7.056135,34.57793,0,0,0,20.00078,-112.0846,-31.52825,-36.31316,-110.6672,-50.34543,0.001067912,-0.1257102,0.09433498,0,0.3,0,0,0.07482717,0,
6.38223E+17,6.785269,-0.9117499,3.712215,-52.43733,11.62138,79.03775,-17.10453,-0.4441859,-4.249202,-61.88596,-7.056135,34.57793,0,0,0,16.7732,-111.8421,-27.37748,-36.31316,-110.6672,-50.34543,0.001067912,-0.1257102,0.09433498,0,0.3,0,0,0.08098114,0,
6.38223E+17,5.324551,-0.8883717,5.509954,-53.16978,12.57357,82.26054,-17.10453,-0.4441859,-4.249202,-61.88596,-6.98289,34.57793,0,0,0,13.56121,-111.4514,-22.84252,-36.31316,-110.6672,-50.34543,0.001067912,-0.1257102,0.09433498,0,0.3,0,0,0.08710855,0,
6.38223E+17,4.664873,-0.8649935,6.513887,-53.53601,13.01304,84.09167,-17.10453,-0.4441859,-4.249202,-61.88596,-6.98289,34.57793,0,0,0,12.07408,-111.1523,-20.37923,-36.31316,-110.6672,-50.34543,0.001067912,-0.1257102,0.09433498,0,0.3,0,0,0.09010538,0,
6.38223E+17,3.581114,-0.8416153,8.70853,-54.3417,13.67225,88.04691,-17.10453,-0.4441859,-4.249202,-61.88596,-6.98289,34.57793,0,0,0,9.589463,-110.4214,-15.12391,-36.31316,-110.6672,-50.34543,0.001067912,-0.1257102,0.09433498,0,0.3,0,0,0.09577555,0,
6.38223E+17,2.803635,-0.7948589,10.87983,-55.00091,14.18496,92.44161,-17.10453,-0.4441859,-4.249202,-61.88596,-7.056135,34.57793,0,0,0,7.753072,-109.453,-10.03279,-36.31316,-110.6672,-50.34543,0.001067912,-0.1257102,0.09433498,0,0.3,0,0,0.1008568,0,
6.38223E+17,2.497356,-0.7948589,11.9538,-55.1474,14.47795,94.49248,-17.10453,-0.4441859,-4.249202,-61.81271,-7.056135,34.57793,0,0,0,7.013425,-108.9582,-7.545865,-36.31316,-110.6672,-50.34543,0.001067912,-0.1257102,0.09433498,0,0.3,0,0,0.1031333,0,
6.38223E+17,1.602077,-0.7948589,15.64267,-55.51363,15.13715,100.4253,-17.10453,-0.4441859,-4.249202,-61.88596,-7.056135,34.57793,0,0,0,4.733081,-106.9109,0.877087,-36.31316,-110.6672,-50.34543,0.001067912,-0.1257102,0.09433498,0,0.3,0,0,0.1087223,0,
6.38223E+17,1.413598,-0.7948589,16.62325,-55.51363,15.13715,101.8902,-17.10453,-0.4441859,-4.249202,-61.81271,-6.98289,34.57793,0,0,0,4.230452,-106.2767,3.083383,-36.31316,-110.6672,-50.34543,0.001067912,-0.1257102,0.09433498,0,0.3,0,0,0.1101792,0,
6.38223E+17,1.248678,-0.7247244,18.63112,-55.36714,14.84417,105.5525,-17.10453,-0.4441859,-4.249202,-61.88596,-7.056135,34.57793,0,0,0,3.834078,-104.6985,7.54941,-36.31316,-110.6672,-50.34543,0.001067912,-0.1257102,0.09433498,0,0.3,0,0,0.1124587,0,
6.38223E+17,1.578517,-0.5143204,19.6584,-54.63469,14.55119,108.9218,-17.10453,-0.4441859,-4.249202,-61.88596,-6.98289,34.57793,0,0,0,4.908988,-103.4247,9.787484,-36.31316,-110.6672,-50.34543,0.001067912,-0.1257102,0.09433498,0,0.3,0,0,0.1140932,0,
6.38223E+17,2.214636,-0.2805384,20.54559,-52.73031,14.55119,111.7051,-17.10453,-0.4441859,-4.249202,-61.88596,-6.98289,34.57793,0,0,0,6.96147,-102.171,11.66338,-36.31316,-110.6672,-50.34543,0.001067912,-0.1257102,0.09433498,0,0.3,0,0,0.1151731,0,
6.38223E+17,2.450236,-0.2104038,21.45614,-51.55839,14.47795,114.0489,-17.10453,-0.4441859,-4.249202,-61.88596,-7.056135,34.57793,0,0,0,7.786232,-101.2483,13.61053,-36.31316,-110.6672,-50.34543,0.001067912,-0.1257102,0.09433498,0,0.3,0,0,0.1153985,0,
6.38223E+17,2.685836,0.0233782,23.74417,-49.36103,14.18496,120.4945,-17.10453,-0.4441859,-4.249202,-61.88596,-6.98289,34.57793,0,0,0,8.764782,-98.65784,18.48837,-36.31316,-110.6672,-50.34543,0.001067912,-0.1257102,0.09433498,0,0.3,0,0,0.1149603,0,
6.38223E+17,2.944995,0.5376987,25.49521,-47.89613,13.52576,124.816,-17.10453,-0.4441859,-4.249202,-61.88596,-7.056135,34.57793,0,0,0,9.799833,-95.76312,22.14082,-36.31316,-110.6672,-50.34543,0.001067912,-0.1257102,0.09433498,0,0.3,0,0,0.1138945,0,
6.38223E+17,3.227715,0.8416153,26.17229,-47.23692,13.23278,125.6949,-17.10453,-0.4441859,-4.249202,-61.81271,-6.98289,34.57793,0,0,0,10.81904,-94.36916,23.49771,-36.31316,-110.6672,-50.34543,0.001067912,-0.1257102,0.09433498,0,0.3,0,0,0.1131024,0,
6.38223E+17,4.452833,1.192288,27.50308,-45.77202,12.35384,126.1344,-17.10453,-0.4441859,-4.249202,-61.88596,-6.98289,34.57793,0,0,0,15.13185,-92.15486,25.96337,-36.31316,-110.6672,-50.34543,0.001067912,-0.1257102,0.09433498,0,0.3,0,0,0.1109198,0,
6.38223E+17,5.96067,1.285801,28.22684,-44.08738,11.54814,126.2076,-17.10453,-0.4441859,-4.249202,-61.88596,-7.056135,34.57793,0,0,0,20.39387,-91.14996,26.97434,-36.31316,-110.6672,-50.34543,0.001067912,-0.1257102,0.09433498,0,0.3,0,0,0.1080619,0,
6.38223E+17,6.926629,1.285801,28.57705,-42.91546,11.18191,126.4274,-17.10453,-0.4441859,-4.249202,-61.88596,-7.056135,34.57793,0,0,0,23.77028,-90.76227,27.31451,-36.31316,-110.6672,-50.34543,0.001067912,-0.1257102,0.09433498,0,0.3,0,0,0.1063525,0,
6.38223E+17,9.094145,1.332558,29.16073,-40.27863,10.37621,126.9401,-17.10453,-0.4441859,-4.249202,-61.88596,-7.056135,34.57793,0,0,0,31.34119,-89.9976,27.44772,-36.31316,-110.6672,-50.34543,0.001067912,-0.1257102,0.09433498,0,0.3,0,0,0.102364,0,
6.38223E+17,11.3559,1.42607,29.41755,-37.7883,9.790254,127.0133,-17.10453,-0.4441859,-4.249202,-61.81271,-6.98289,34.57793,0,0,0,39.14552,-89.48761,26.56428,-36.31316,-110.6672,-50.34543,0.001067912,-0.1257102,0.09433498,0,0.3,0,0,0.09768435,0,
6.38223E+17,14.5365,1.659852,29.65103,-34.63876,9.424027,127.0133,-17.10453,-0.4441859,-4.249202,-61.88596,-6.98289,34.57793,0,0,0,50.0147,-88.67585,24.53557,-36.31316,-110.6672,-50.34543,0.001067912,-0.1257102,0.09433498,0,0.3,0,0,0.09212715,0,
6.38223E+17,18.32965,1.940391,29.90785,-30.39053,9.570518,127.0133,-17.10453,-0.4441859,-4.249202,-61.81271,-7.056135,34.57793,0,0,0,62.82212,-87.72638,21.27732,-36.31316,-110.6672,-50.34543,0.001067912,-0.1257102,0.09433498,0,0.3,0,0,0.08541705,0,
6.38223E+17,20.19089,2.127417,30.14132,-27.97344,9.643764,127.5261,-17.10453,-0.4441859,-4.249202,-61.88596,-6.98289,34.57793,0,0,0,69.10493,-87.01948,19.56393,-36.31316,-110.6672,-50.34543,0.001067912,-0.1257102,0.09433498,0,0.3,0,0,0.0816085,0,
6.38223E+17,23.93692,2.641737,30.95848,-22.11383,9.790254,129.6502,-17.10453,-0.4441859,-4.249202,-61.81271,-6.98289,34.57793,0,0,0,81.87878,-84.85681,16.09898,-36.31316,-110.6672,-50.34543,0.001067912,-0.1257102,0.09433498,0,0.3,0,0,0.07299866,0,
6.38223E+17,27.49447,3.506731,31.93906,-16.62044,9.8635,130.5291,-17.10453,-0.4441859,-4.249202,-61.88596,-7.056135,34.57793,0,0,0,94.01525,-81.65585,12.29415,-36.31316,-110.6672,-50.34543,0.001067912,-0.1257102,0.09433498,0,0.3,0,0,0.06300236,0,
6.38223E+17,30.72219,4.792531,32.84961,-11.2003,10.00999,131.1151,-17.10453,-0.4441859,-4.249202,-61.88596,-7.056135,34.57793,0,0,0,104.8407,-77.53586,8.066213,-36.31316,-110.6672,-50.34543,0.001067912,-0.1257102,0.09433498,0,0.3,0,0,0.05197033,0,
6.38223E+17,32.41851,5.610769,33.45663,-8.416983,10.08323,131.1883,-17.10453,-0.4441859,-4.249202,-61.88596,-7.056135,34.57793,0,0,0,110.5586,-74.86673,5.738133,-36.31316,-110.6672,-50.34543,0.001067912,-0.1257102,0.09433498,0,0.3,0,0,0.04600592,0,
6.38223E+17,35.74046,7.457647,34.85747,-3.143331,9.790254,131.2616,-17.10453,-0.4441859,-4.249202,-61.88596,-7.056135,34.57793,0,0,0,121.7508,-68.76592,0.8318701,-36.31316,-110.6672,-50.34543,0.001067912,-0.1257102,0.09433498,0,0.3,0,0,0.03315727,0,
6.38223E+17,39.01529,9.421416,36.51513,2.130321,9.277537,131.1883,-17.10453,-0.4441859,-4.249202,-61.88596,-7.056135,34.57793,0,0,0,132.7669,-61.99468,-4.486008,-36.31316,-110.6672,-50.34543,0.001067912,-0.1257102,0.09433498,0,0.3,0,0,0.01905617,0,
6.38223E+17,40.66449,10.52019,37.5891,4.840393,8.911312,131.1883,-17.10453,-0.4441859,-4.249202,-61.88596,-6.98289,34.57793,0,0,0,138.4393,-57.96999,-7.197609,-36.31316,-110.6672,-50.34543,0.001067912,-0.1257102,0.09433498,0,0.3,0,0,0.01150913,0,
6.38223E+17,43.27965,12.81126,39.83044,10.11404,8.03237,131.1151,-17.10453,-0.4441859,-4.249202,-61.88596,-6.98289,34.57793,0,0,0,147.6993,-49.48621,-11.50369,-36.31316,-110.6672,-50.34543,0.001067912,-0.1257102,0.09433498,0,0.3,0,0,0,0,
6.38223E+17,44.9524,15.14908,41.76826,14.65524,7.006938,130.2361,-17.10453,-0.4441859,-4.249202,-61.88596,-7.056135,34.57793,0,0,0,153.6983,-41.25991,-14.39615,-36.31316,-110.6672,-50.34543,0.001067912,-0.1257102,0.09433498,0,0.3,0,0,0,0,
6.38223E+17,45.84768,18.30513,43.47261,18.3175,5.542034,128.6247,-17.10453,-0.4441859,-4.249202,-61.81271,-6.98289,34.57793,0,0,0,156.6626,-31.54031,-16.25575,-36.31316,-110.6672,-50.34543,0.001067912,-0.1257102,0.09433498,0,0.3,0,0,0,0,
6.38223E+17,46.15396,20.78322,44.78006,20.07539,4.516602,127.8923,-17.10453,-0.4441859,-4.249202,-61.88596,-7.056135,34.57793,0,0,0,157.6573,-23.98695,-16.91878,-36.31316,-110.6672,-50.34543,0.001067912,-0.1257102,0.09433498,0,0.3,0,0,0,0,
6.38223E+17,46.27176,22.25605,45.64391,21.02757,3.78415,127.6725,-17.10453,-0.4441859,-4.249202,-61.88596,-6.98289,34.57793,0,0,0,158.0832,-19.37125,-17.13333,-36.31316,-110.6672,-50.34543,0.001067912,-0.1257102,0.09433498,0,0.3,0,0,0,0,
6.38223E+17,46.24821,25.50562,47.25487,23.15168,1.806531,127.3796,-17.10453,-0.4441859,-4.249202,-61.88596,-7.056135,34.57793,0,0,0,157.6756,-9.739304,-17.39902,-36.31316,-110.6672,-50.34543,0.001067912,-0.1257102,0.09433498,0,0.3,0,0,0,0,
6.38223E+17,45.89481,28.68506,48.63235,25.20255,-0.5373149,127.3063,-17.10453,-0.4441859,-4.249202,-61.88596,-7.056135,34.57793,0,0,0,155.8637,-0.7721469,-17.28017,-36.31316,-110.6672,-50.34543,0.001067912,-0.1257102,0.09433498,0,0.3,0,0,0,0,
6.38223E+17,45.40005,30.55531,49.37947,26.59421,-2.148709,127.2331,-17.10453,-0.4441859,-4.249202,-61.88596,-7.056135,34.57793,0,0,0,153.8338,4.324107,-16.64955,-36.31316,-110.6672,-50.34543,0.001067912,-0.1257102,0.09433498,0,0.3,0,0,0,0,
6.38223E+17,44.31629,32.98664,49.9398,27.98586,-4.419309,127.1598,-17.10453,-0.4441859,-4.249202,-61.88596,-6.98289,34.57793,0,0,0,149.4454,10.12854,-15.29466,-36.31316,-110.6672,-50.34543,0.001067912,-0.1257102,0.09433498,0,0.3,0,0,0,0,
6.38223E+17,42.57285,35.65176,50.40675,28.71832,-7.202625,127.3063,-17.10453,-0.4441859,-4.249202,-61.88596,-6.98289,34.57793,0,0,0,142.8249,16.08563,-12.88134,-36.31316,-110.6672,-50.34543,0.001067912,-0.1257102,0.09433498,0,0.3,0,0,0,0,
6.38223E+17,40.78229,37.98958,51.36399,28.71832,-10.20568,128.112,-17.10453,-0.4441859,-4.249202,-61.88596,-7.056135,34.57793,0,0,0,136.6856,22.16951,-9.899265,-36.31316,-110.6672,-50.34543,0.001067912,-0.1257102,0.09433498,0,0.3,0,0,0,0,
6.38223E+17,39.43937,39.39227,52.0644,28.57183,-12.1833,129.5769,-17.10453,-0.4441859,-4.249202,-61.88596,-6.98289,34.57793,0,0,0,132.2798,25.99712,-7.535416,-36.31316,-110.6672,-50.34543,0.001067912,-0.1257102,0.09433498,0,0.3,0,0,0,0,
6.38223E+17,37.64882,40.84172,52.36792,28.35209,-14.60039,132.4335,-17.10453,-0.4441859,-4.249202,-61.88596,-7.056135,34.57793,0,0,0,126.127,29.13511,-4.85905,-36.31316,-110.6672,-50.34543,0.001067912,-0.1257102,0.09433498,0,0.3,0,0,0,0,
6.38223E+17,34.91586,42.33792,52.32122,27.03368,-17.60344,137.0479,-17.10453,-0.4441859,-4.249202,-61.88596,-7.056135,34.57793,0,0,0,116.8272,31.65344,-0.9809447,-36.31316,-110.6672,-50.34543,0.001067912,-0.1257102,0.09433498,0,0.3,0,0,0,0,
6.38223E+17,33.54939,42.89901,52.32122,25.86176,-18.92185,139.465,-17.10453,-0.4441859,-4.249202,-61.88596,-7.056135,34.57793,0,0,0,112.314,32.61438,1.020563,-36.31316,-110.6672,-50.34543,0.001067912,-0.1257102,0.09433498,0,0.3,0,0,0,0,
6.38223E+17,29.33215,44.16143,52.08775,21.46704,-22.36438,144.8119,-17.10453,-0.4441859,-4.249202,-61.88596,-7.056135,34.57793,0,0,0,98.40026,34.31516,6.766881,-36.31316,-110.6672,-50.34543,0.001067912,-0.1257102,0.09433498,0,0.3,0,0,0,0,
6.38223E+17,28.13059,44.32507,51.78423,20.00214,-23.17007,144.8852,-17.10453,-0.4441859,-4.249202,-61.88596,-7.056135,34.57793,0,0,0,94.37586,34.03185,8.173365,-36.31316,-110.6672,-50.34543,0.001067912,-0.1257102,0.09433498,0,0.3,0,0,0,0,
6.38223E+17,25.23272,44.46534,50.64022,15.90041,-24.56173,144.9584,-17.10453,-0.4441859,-4.249202,-61.88596,-7.056135,34.57793,0,0,0,84.52249,32.18974,11.00352,-36.31316,-110.6672,-50.34543,0.001067912,-0.1257102,0.09433498,0,0.3,0,0,0,0,
6.38223E+17,22.49976,44.46534,49.0993,11.13948,-25.07445,144.9584,-17.10453,-0.4441859,-4.249202,-61.88596,-6.98289,34.57793,0,0,0,74.99007,29.44778,12.69417,-36.31316,-110.6672,-50.34543,0.001067912,-0.1257102,0.09433498,0,0.3,0,0,0,0,
6.38223E+17,19.22493,44.34845,47.11478,4.620657,-24.48849,144.9584,-17.10453,-0.4441859,-4.249202,-61.88596,-6.98289,34.57793,0,0,0,63.57257,25.81543,13.95013,-36.31316,-110.6672,-50.34543,0.001067912,-0.1257102,0.09433498,0,0.3,0,0,0,0,
6.38223E+17,17.24589,44.13805,46.04081,0.5921727,-23.75603,144.8852,-17.10453,-0.4441859,-4.249202,-61.88596,-6.98289,34.57793,0,0,0,56.83105,23.64919,14.72224,-36.31316,-110.6672,-50.34543,0.001067912,-0.1257102,0.09433498,0,0.3,0,0,0,0,
6.38223E+17,15.95009,44.02116,45.52717,-2.191144,-23.09683,144.9584,-17.10453,-0.4441859,-4.249202,-61.88596,-6.98289,34.57793,0,0,0,52.49944,22.59697,15.34101,-36.31316,-110.6672,-50.34543,0.001067912,-0.1257102,0.09433498,0,0.3,0,0,0,0,
6.38223E+17,13.4763,43.99778,45.13026,-7.538041,-21.77841,144.8119,-17.10453,-0.4441859,-4.249202,-61.88596,-7.056135,34.57793,0,0,0,44.37942,21.90091,16.84104,-36.31316,-110.6672,-50.34543,0.001067912,-0.1257102,0.09433498,0,0.3,0,0,0,0,
6.38223E+17,11.28522,44.06791,45.17696,-12.51871,-20.60649,144.8119,-17.10453,-0.4441859,-4.249202,-61.88596,-6.98289,34.57793,0,0,0,37.25951,22.09531,18.36626,-36.31316,-110.6672,-50.34543,0.001067912,-0.1257102,0.09433498,0,0.3,0,0,0,0,
6.38223E+17,9.235504,44.3017,45.59721,-17.05991,-19.21483,144.8852,-17.10453,-0.4441859,-4.249202,-61.88596,-7.056135,34.57793,0,0,0,30.60683,23.18176,19.88315,-36.31316,-110.6672,-50.34543,0.001067912,-0.1257102,0.09433498,0,0.3,0,0,0,0,
6.38223E+17,8.175306,44.5121,45.90073,-19.33051,-18.40914,144.9584,-17.10453,-0.4441859,-4.249202,-61.88596,-7.056135,34.57793,0,0,0,27.1401,24.03757,20.56598,-36.31316,-110.6672,-50.34543,0.001067912,-0.1257102,0.09433498,0,0.3,0,0,0,0,
6.38223E+17,6.07847,45.09655,46.50775,-23.87171,-17.09072,145.0316,-17.10453,-0.4441859,-4.249202,-61.88596,-7.056135,34.57793,0,0,0,20.21181,26.02246,21.45161,-36.31316,-110.6672,-50.34543,0.001067912,-0.1257102,0.09433498,0,0.3,0,0,0,0,
6.38223E+17,4.287913,45.63425,46.81127,-28.19318,-15.9188,144.8852,-17.10453,-0.4441859,-4.249202,-61.88596,-6.98289,34.57793,0,0,0,14.24106,27.41545,21.58591,-36.31316,-110.6672,-50.34543,0.001067912,-0.1257102,0.09433498,0,0.3,0,0,0,0,
6.38223E+17,3.204155,45.98492,46.99805,-31.12299,-14.82012,145.0316,-17.10453,-0.4441859,-4.249202,-61.88596,-7.056135,34.57793,0,0,0,10.62995,28.30178,21.53354,-36.31316,-110.6672,-50.34543,0.001067912,-0.1257102,0.09433498,0,0.3,0,0,0,0,
6.38223E+17,2.450236,46.3356,47.16148,-33.54007,-13.57495,144.4457,-17.10453,-0.4441859,-4.249202,-61.88596,-6.98289,34.57793,0,0,0,8.116452,29.14563,21.32761,-36.31316,-110.6672,-50.34543,0.001067912,-0.1257102,0.09433498,0,0.3,0,0,0,0,
6.38223E+17,1.814117,47.411,48.02533,-36.61637,-11.81707,141.3694,-17.10453,-0.4441859,-4.249202,-61.88596,-7.056135,34.57793,0,0,0,5.995219,32.34111,20.93544,-36.31316,-110.6672,-50.34543,0.001067912,-0.1257102,0.09433498,0,0.3,0,0,0,0,
6.38223E+17,1.649197,48.41626,48.6557,-38.00803,-11.15786,140.9299,-17.10453,-0.4441859,-4.249202,-61.81271,-6.98289,34.57793,0,0,0,5.428452,35.00534,20.19112,-36.31316,-110.6672,-50.34543,0.001067912,-0.1257102,0.09433498,0,0.3,0,0,0,0,
6.38223E+17,1.837677,52.85812,50.24332,-42.10976,-10.86488,140.4172,-17.10453,-0.4441859,-4.249202,-61.88596,-7.056135,34.57793,0,0,0,5.869429,44.36784,14.58649,-36.31316,-110.6672,-50.34543,0.001067912,-0.1257102,0.09433498,0,0.3,0,0,0,0,
6.38223E+17,2.073277,54.02703,50.54683,-42.9887,-11.01137,139.9045,-17.10453,-0.4441859,-4.249202,-61.88596,-7.056135,34.57793,0,0,0,6.558844,46.53248,12.82702,-36.31316,-110.6672,-50.34543,0.001067912,-0.1257102,0.09433498,0,0.3,0,0,0,0,
6.38223E+17,3.345515,57.20647,51.20055,-44.52685,-11.96356,138.8058,-17.10453,-0.4441859,-4.249202,-61.88596,-7.056135,34.57793,0,0,0,10.27958,51.89109,7.499472,-36.31316,-110.6672,-50.34543,0.001067912,-0.1257102,0.09433498,0,0.3,0,0,0,0,
6.38223E+17,5.465911,60.40928,51.34064,-44.81983,-13.42846,137.9269,-17.10453,-0.4441859,-4.249202,-61.88596,-7.056135,34.57793,0,0,0,16.19099,56.00554,0.8549957,-36.31316,-110.6672,-50.34543,0.001067912,-0.1257102,0.09433498,0,0.3,0,0,0,0,
6.38223E+17,8.340226,63.75236,51.34064,-43.7944,-15.18635,136.0225,-17.10453,-0.4441859,-4.249202,-61.81271,-6.98289,34.57793,0,0,0,23.65835,59.64813,-6.971179,-36.31316,-110.6672,-50.34543,0.001067912,-0.1257102,0.09433498,0,0.3,0,0,0,0,
6.38223E+17,9.918744,65.20181,51.34064,-43.06195,-16.35827,134.9238,-17.10453,-0.4441859,-4.249202,-61.88596,-7.056135,34.57793,0,0,0,27.57049,61.10162,-10.68279,-36.31316,-110.6672,-50.34543,0.001067912,-0.1257102,0.09433498,0,0.3,0,0,0,0,
6.38223E+17,13.78258,67.93706,51.08382,-40.49837,-18.84861,132.4335,-17.10453,-0.4441859,-4.249202,-61.88596,-6.98289,34.57793,0,0,0,36.65166,63.16684,-18.93503,-36.31316,-110.6672,-50.34543,0.001067912,-0.1257102,0.09433498,0,0.3,0,0,0,0,
6.38223E+17,18.14117,69.87746,50.64022,-36.90935,-21.04596,128.112,-17.10453,-0.4441859,-4.249202,-61.81271,-7.056135,34.57793,0,0,0,46.38623,63.99121,-26.77573,-36.31316,-110.6672,-50.34543,0.001067912,-0.1257102,0.09433498,0,0.3,0,0,0,0,
6.38223E+17,20.42649,70.53204,50.3834,-34.63876,-22.14464,125.9147,-17.10453,-0.4441859,-4.249202,-61.88596,-7.056135,34.57793,0,0,0,51.36177,64.04586,-30.43754,-36.31316,-110.6672,-50.34543,0.001067912,-0.1257102,0.09433498,0,0.3,0,0,0,0,
6.38223E+17,25.63324,71.3269,49.65963,-28.41291,-24.26875,120.4945,-17.10453,-0.4441859,-4.249202,-61.88596,-6.98289,34.57793,0,0,0,62.4408,63.3595,-38.21978,-36.31316,-110.6672,-50.34543,0.001067912,-0.1257102,0.09433498,0,0.3,0,0,0,0,
6.38223E+17,29.23791,71.37366,49.0526,-23.06602,-25.22094,116.3195,-17.10453,-0.4441859,-4.249202,-61.88596,-7.056135,34.57793,0,0,0,69.99897,62.32231,-43.29596,-36.31316,-110.6672,-50.34543,0.001067912,-0.1257102,0.09433498,0,0.3,0,0,0,0,
6.38223E+17,31.09915,71.30352,48.72574,-19.98972,-25.58716,113.8292,-17.10453,-0.4441859,-4.249202,-61.88596,-7.056135,34.57793,0,0,0,73.84519,61.69691,-45.93132,-36.31316,-110.6672,-50.34543,0.001067912,-0.1257102,0.09433498,0,0.3,0,0,0,0,
6.38223E+17,34.3033,70.83595,47.83855,-14.2766,-26.02663,108.7753,-17.10453,-0.4441859,-4.249202,-61.88596,-6.98289,34.57793,0,0,0,80.37793,59.80262,-50.53495,-36.31316,-110.6672,-50.34543,0.001067912,-0.1257102,0.09433498,0,0.3,0,0,0,0,
6.38223E+17,36.61218,69.80731,46.08751,-9.808641,-26.09988,104.6736,-17.10453,-0.4441859,-4.249202,-61.81271,-6.98289,34.57793,0,0,0,84.74474,56.01783,-54.29178,-36.31316,-110.6672,-50.34543,0.001067912,-0.1257102,0.09433498,0,0.3,0,0,0,0,
6.38223E+17,38.33206,68.24097,43.23914,-6.80559,-25.58716,101.524,-17.10453,-0.4441859,-4.249202,-61.88596,-7.056135,34.57793,0,0,0,87.31682,50.05338,-57.91482,-36.31316,-110.6672,-50.34543,0.001067912,-0.1257102,0.09433498,0,0.3,0,0,0,0,
6.38223E+17,39.55717,66.0668,39.59696,-5.047705,-24.19551,99.25342,-17.10453,-0.4441859,-4.249202,-61.88596,-6.98289,34.57793,0,0,0,88.58,42.48199,-61.11207,-36.31316,-110.6672,-50.34543,0.001067912,-0.1257102,0.09433498,0,0.3,0,0,0,0,
6.38223E+17,40.05193,64.52384,37.35563,-4.534989,-23.38981,98.30123,-17.10453,-0.4441859,-4.249202,-61.88596,-7.056135,34.57793,0,0,0,88.97426,37.73574,-62.50959,-36.31316,-110.6672,-50.34543,0.001067912,-0.1257102,0.09433498,0,0.3,0,0,0,0,
6.38223E+17,40.52313,60.80671,33.05973,-3.802537,-21.11921,96.76308,-17.10453,-0.4441859,-4.249202,-61.81271,-6.98289,34.57793,0,0,0,89.52755,28.00082,-63.61237,-36.31316,-110.6672,-50.34543,0.001067912,-0.1257102,0.09433498,0,0.3,0,0,0,0,
6.38223E+17,40.78229,56.10769,29.23078,-3.289821,-17.5302,95.22493,-17.10453,-0.4441859,-4.249202,-61.88596,-7.056135,34.57793,0,0,0,91.10586,17.67292,-62.73688,-36.31316,-110.6672,-50.34543,0.001067912,-0.1257102,0.09433498,0,0.3,0,0,0,0,
6.38223E+17,40.90009,53.84,27.73655,-2.99684,-15.77231,94.78546,-17.10453,-0.4441859,-4.249202,-61.81271,-7.056135,34.57793,0,0,0,92.15108,12.98545,-61.96822,-36.31316,-110.6672,-50.34543,0.001067912,-0.1257102,0.09433498,0,0.3,0,0,0,0,
6.38223E+17,41.15925,48.93058,24.93488,-2.191144,-11.08462,94.34599,-17.10453,-0.4441859,-4.249202,-61.88596,-7.056135,34.57793,0,0,0,94.65974,2.964332,-60.06575,-36.31316,-110.6672,-50.34543,0.001067912,-0.1257102,0.09433498,0,0.3,0,0,0,0,
6.38223E+17,41.22993,44.65237,23.16049,-1.312202,-6.689909,94.1995,-17.10453,-0.4441859,-4.249202,-61.88596,-6.98289,34.57793,0,0,0,97.08987,-5.534043,-57.56196,-36.31316,-110.6672,-50.34543,0.001067912,-0.1257102,0.09433498,0,0.3,0,0,0,0,
6.38223E+17,41.22993,42.61847,22.60015,-0.9459759,-4.565799,94.1995,-17.10453,-0.4441859,-4.249202,-61.88596,-7.056135,34.57793,0,0,0,98.45081,-9.466907,-56.00901,-36.31316,-110.6672,-50.34543,0.001067912,-0.1257102,0.09433498,0,0.3,0,0,0,0,
6.38223E+17,41.22993,38.85457,22.08651,-0.2135241,-0.9035407,94.71221,-17.10453,-0.4441859,-4.249202,-61.88596,-7.056135,34.57793,0,0,0,101.4891,-16.55783,-52.54202,-36.31316,-110.6672,-50.34543,0.001067912,-0.1257102,0.09433498,0,0.3,0,0,0,0,
6.38223E+17,41.22993,35.25433,22.03982,0.4456824,2.465737,95.29817,-17.10453,-0.4441859,-4.249202,-61.88596,-6.98289,34.57793,0,0,0,104.75,-23.28468,-48.82112,-36.31316,-110.6672,-50.34543,0.001067912,-0.1257102,0.09433498,0,0.3,0,0,0,0,
6.38223E+17,41.22993,31.77098,22.20325,0.8851534,5.468789,95.81089,-17.10453,-0.4441859,-4.249202,-61.88596,-7.056135,34.57793,0,0,0,107.9319,-29.89985,-45.19027,-36.31316,-110.6672,-50.34543,0.001067912,-0.1257102,0.09433498,0,0.3,0,0,0,0,
6.38223E+17,41.22993,30.2514,22.41338,1.031644,6.640712,95.95738,-17.10453,-0.4441859,-4.249202,-61.81271,-6.98289,34.57793,0,0,0,109.431,-32.74529,-43.47968,-36.31316,-110.6672,-50.34543,0.001067912,-0.1257102,0.09433498,0,0.3,0,0,0,0,
6.38223E+17,41.32417,27.44601,23.25388,1.178134,9.057802,96.10387,-17.10453,-0.4441859,-4.249202,-61.88596,-7.056135,34.57793,0,0,0,112.9067,-37.70455,-39.94028,-36.31316,-110.6672,-50.34543,0.001067912,-0.1257102,0.09433498,0,0.3,0,0,0,0,
6.38223E+17,42.05453,25.24846,25.02827,1.471115,10.96218,96.10387,-17.10453,-0.4441859,-4.249202,-61.88596,-7.056135,34.57793,0,0,0,118.5789,-40.59863,-36.90655,-36.31316,-110.6672,-50.34543,0.001067912,-0.1257102,0.09433498,0,0.3,0,0,0,0,
6.38223E+17,42.69065,24.50036,26.31237,1.910586,11.62138,95.95738,-17.10453,-0.4441859,-4.249202,-61.88596,-7.056135,34.57793,0,0,0,122.3539,-40.88361,-35.71297,-36.31316,-110.6672,-50.34543,0.001067912,-0.1257102,0.09433498,0,0.3,0,0,0,0,
6.38223E+17,44.08069,23.72888,29.20743,3.81496,11.98761,95.88414,-17.10453,-0.4441859,-4.249202,-61.88596,-6.98289,34.57793,0,0,0,130.1932,-39.38446,-33.91038,-36.31316,-110.6672,-50.34543,0.001067912,-0.1257102,0.09433498,0,0.3,0,0,0,0,
6.38223E+17,45.02308,23.65874,31.93906,6.305296,11.47489,96.32361,-17.10453,-0.4441859,-4.249202,-61.88596,-6.98289,34.57793,0,0,0,136.3049,-36.30051,-32.15492,-36.31316,-110.6672,-50.34543,0.001067912,-0.1257102,0.09433498,0,0.3,0,0,0,0,
6.38223E+17,45.23512,23.68212,33.22316,7.623709,11.10867,96.83633,-17.10453,-0.4441859,-4.249202,-61.81271,-6.98289,34.57793,0,0,0,138.5804,-34.64137,-30.90233,-36.31316,-110.6672,-50.34543,0.001067912,-0.1257102,0.09433498,0,0.3,0,0,0,0,
6.38223E+17,45.51785,23.75225,35.76801,9.894309,10.22972,97.71527,-17.10453,-0.4441859,-4.249202,-61.88596,-6.98289,34.57793,0,0,0,142.6926,-31.13782,-28.21372,-36.31316,-110.6672,-50.34543,0.001067912,-0.1257102,0.09433498,0,0.3,0,0,0,0,
6.38223E+17,45.87124,24.28995,38.56968,12.53114,9.277537,99.25342,-17.10453,-0.4441859,-4.249202,-61.88596,-6.98289,34.57793,0,0,0,146.9178,-26.05563,-25.83373,-36.31316,-110.6672,-50.34543,0.001067912,-0.1257102,0.09433498,0,0.3,0,0,0,0,
6.38223E+17,46.366,25.7394,41.72157,15.90041,8.178861,102.5494,-17.10453,-0.4441859,-4.249202,-61.88596,-6.98289,34.57793,0,0,0,151.1685,-18.26975,-24.22306,-36.31316,-110.6672,-50.34543,0.001067912,-0.1257102,0.09433498,0,0.3,0,0,0,0,
6.38223E+17,46.6016,27.7733,43.75277,18.90347,7.080183,104.7468,-17.10453,-0.4441859,-4.249202,-61.88596,-7.056135,34.57793,0,0,0,152.7342,-10.83507,-23.92451,-36.31316,-110.6672,-50.34543,0.001067912,-0.1257102,0.09433498,0,0.3,0,0,0,0,
6.38223E+17,46.6016,29.22275,44.82675,20.80784,6.201241,106.1385,-17.10453,-0.4441859,-4.249202,-61.81271,-7.056135,34.57793,0,0,0,152.8648,-6.12507,-23.80106,-36.31316,-110.6672,-50.34543,0.001067912,-0.1257102,0.09433498,0,0.3,0,0,0,0,
6.38223E+17,46.55449,32.75286,47.25487,24.90957,4.223621,108.702,-17.10453,-0.4441859,-4.249202,-61.88596,-7.056135,34.57793,0,0,0,152.523,4.984786,-23.88644,-36.31316,-110.6672,-50.34543,0.001067912,-0.1257102,0.09433498,0,0.3,0,0,0,0,
6.38223E+17,45.98904,36.63364,49.5429,29.30428,1.440305,111.0459,-17.10453,-0.4441859,-4.249202,-61.88596,-7.056135,34.57793,0,0,0,149.9359,16.39148,-23.50315,-36.31316,-110.6672,-50.34543,0.001067912,-0.1257102,0.09433498,0,0.3,0,0,0,0,
6.38223E+17,45.32936,38.66755,50.40675,31.57488,-0.3175794,111.9981,-17.10453,-0.4441859,-4.249202,-61.88596,-6.98289,34.57793,0,0,0,147.1216,21.67876,-22.91022,-36.31316,-110.6672,-50.34543,0.001067912,-0.1257102,0.09433498,0,0.3,0,0,0,0,
6.38223E+17,43.39745,42.05739,50.80365,34.79766,-4.053083,113.756,-17.10453,-0.4441859,-4.249202,-61.88596,-6.98289,34.57793,0,0,0,139.0278,28.40325,-21.31913,-36.31316,-110.6672,-50.34543,0.001067912,-0.1257102,0.09433498,0,0.3,0,0,0,0,
6.38223E+17,40.94721,44.39521,50.00984,36.18932,-7.422361,116.2463,-17.10453,-0.4441859,-4.249202,-61.88596,-7.056135,34.57793,0,0,0,129.4012,30.94396,-19.2137,-36.31316,-110.6672,-50.34543,0.001067912,-0.1257102,0.09433498,0,0.3,0,0,0,0,
6.38223E+17,39.4865,45.23682,49.23938,36.11608,-9.033754,118.1507,-17.10453,-0.4441859,-4.249202,-61.88596,-7.056135,34.57793,0,0,0,123.9408,30.9674,-17.92552,-36.31316,-110.6672,-50.34543,0.001067912,-0.1257102,0.09433498,0,0.3,0,0,0,0,
6.38223E+17,35.5991,46.42911,46.1342,33.99197,-11.89032,125.3287,-17.10453,-0.4441859,-4.249202,-61.88596,-7.056135,34.57793,0,0,0,109.4672,27.55726,-15.44277,-36.31316,-110.6672,-50.34543,0.001067912,-0.1257102,0.09433498,0,0.3,0,0,0,0,
6.38223E+17,32.88971,46.52262,43.21579,31.42839,-12.76926,131.2616,-17.10453,-0.4441859,-4.249202,-61.88596,-7.056135,34.65118,0,0,0,99.40862,22.9321,-14.62711,-36.31316,-110.6672,-50.34543,0.001067912,-0.1257102,0.09433498,0,0.3,0,0,0,0,
6.38223E+17,29.35571,46.17195,39.41019,27.32666,-12.8425,137.4874,-17.10453,-0.4441859,-4.249202,-61.88596,-7.056135,34.57793,0,0,0,86.77271,16.52256,-14.07453,-36.31316,-110.6672,-50.34543,0.001067912,-0.1257102,0.09433498,0,0.3,0,0,0,0,
6.38223E+17,27.23532,45.75114,37.37897,24.90957,-12.54952,140.1242,-17.10453,-0.4441859,-4.249202,-61.88596,-7.056135,34.57793,0,0,0,79.63184,12.90581,-13.63781,-36.31316,-110.6672,-50.34543,0.001067912,-0.1257102,0.09433498,0,0.3,0,0,0,0,
6.38223E+17,22.90028,44.74588,33.85353,19.56267,-11.52409,144.0795,-17.10453,-0.4441859,-4.249202,-61.88596,-7.056135,34.57793,0,0,0,65.76096,6.481137,-12.67414,-36.31316,-110.6672,-50.34543,0.001067912,-0.1257102,0.09433498,0,0.3,0,0,0,0,
6.38223E+17,18.75373,43.60035,30.81839,13.92279,-9.912696,144.8119,-17.10453,-0.4441859,-4.249202,-61.88596,-6.98289,34.57793,0,0,0,53.01085,0.7909743,-12.21846,-36.31316,-110.6672,-50.34543,0.001067912,-0.1257102,0.09433498,0,0.3,0,0,0,0,
6.38223E+17,16.89249,42.87563,29.51094,11.43246,-8.887264,144.8852,-17.10453,-0.4441859,-4.249202,-61.88596,-6.98289,34.57793,0,0,0,47.48317,-1.966826,-11.99082,-36.31316,-110.6672,-50.34543,0.001067912,-0.1257102,0.09433498,0,0.3,0,0,0,0,
6.38223E+17,13.4763,40.77158,27.19957,6.598277,-7.056135,144.8852,-17.10453,-0.4441859,-4.249202,-61.88596,-7.056135,34.57793,0,0,0,37.73937,-8.17057,-10.86724,-36.31316,-110.6672,-50.34543,0.001067912,-0.1257102,0.09433498,0,0.3,0,0,0,0,
6.38223E+17,11.21454,38.64417,25.77538,3.009263,-5.00527,144.8852,-17.10453,-0.4441859,-4.249202,-61.88596,-6.98289,34.57793,0,0,0,31.53315,-13.45777,-9.307828,-36.31316,-110.6672,-50.34543,0.001067912,-0.1257102,0.09433498,0,0.3,0,0,0,0,
6.38223E+17,10.01298,37.2181,24.81814,1.471115,-3.686857,144.8119,-17.10453,-0.4441859,-4.249202,-61.81271,-7.056135,34.57793,0,0,0,28.19568,-17.02757,-8.655966,-36.31316,-110.6672,-50.34543,0.001067912,-0.1257102,0.09433498,0,0.3,0,0,0,0,
6.38223E+17,9.235504,35.83878,23.95429,0.5189275,-2.514934,144.8119,-17.10453,-0.4441859,-4.249202,-61.81271,-7.056135,34.57793,0,0,0,26.03895,-20.43721,-8.209496,-36.31316,-110.6672,-50.34543,0.001067912,-0.1257102,0.09433498,0,0.3,0,0,0,0,
6.38223E+17,8.505146,33.96853,23.11379,0.07945653,-0.9035407,144.8119,-17.10453,-0.4441859,-4.249202,-61.88596,-7.056135,34.57793,0,0,0,24.09865,-24.78796,-7.201145,-36.31316,-110.6672,-50.34543,0.001067912,-0.1257102,0.09433498,0,0.3,0,0,0,0,
6.38223E+17,7.468508,31.91125,22.31999,-0.0670338,0.8543434,144.8852,-17.10453,-0.4441859,-4.249202,-61.88596,-7.056135,34.57793,0,0,0,21.29613,-29.51958,-5.899893,-36.31316,-110.6672,-50.34543,0.001067912,-0.1257102,0.09433498,0,0.3,0,0,0,0,
6.38223E+17,5.79575,29.3864,21.19932,-0.5065048,2.905208,144.8852,-17.10453,-0.4441859,-4.249202,-61.88596,-7.056135,34.57793,0,0,0,16.60284,-35.54151,-4.777396,-36.31316,-110.6672,-50.34543,0.001067912,-0.1257102,0.09433498,0,0.3,0,0,0,0,
6.38223E+17,4.617752,27.91357,20.73237,-0.9459759,4.150376,144.8852,-17.10453,-0.4441859,-4.249202,-61.88596,-7.056135,34.57793,0,0,0,13.28714,-38.93845,-3.844027,-36.31316,-110.6672,-50.34543,0.001067912,-0.1257102,0.09433498,0,0.3,0,0,0,0,
6.38223E+17,1.413598,24.75752,20.61563,-2.630615,7.153428,144.8852,-17.10453,-0.4441859,-4.249202,-61.88596,-6.98289,34.65118,0,0,0,4.145592,-45.61657,-0.3554305,-36.31316,-110.6672,-50.34543,0.001067912,-0.1257102,0.09433498,0,0.3,0,0,0,0,
6.38223E+17,-2.450236,22.79375,21.03589,-5.413931,9.8635,144.9584,-17.10453,-0.4441859,-4.249202,-61.88596,-6.98289,34.57793,0,0,0,-7.302085,-49.45121,2.296261,-36.31316,-110.6672,-50.34543,0.001067912,-0.1257102,0.09433498,0,0.3,0,0,0,0,
6.38223E+17,-4.853352,21.97551,21.783,-7.757777,11.18191,144.8852,-17.10453,-0.4441859,-4.249202,-61.88596,-6.98289,34.57793,0,0,0,-14.64918,-50.57734,4.175652,-36.31316,-110.6672,-50.34543,0.001067912,-0.1257102,0.09433498,0,0.3,0,0,0,0,
6.38223E+17,-9.164824,20.99363,24.04768,-12.95818,12.79331,144.8852,-17.10453,-0.4441859,-4.249202,-61.88596,-6.98289,34.57793,0,0,0,-28.48444,-50.65159,8.204958,-36.31316,-110.6672,-50.34543,0.001067912,-0.1257102,0.09433498,0,0.3,0,0,0,0,
6.38223E+17,-13.42918,20.08188,27.40969,-19.69674,13.30602,144.9584,-17.10453,-0.4441859,-4.249202,-61.81271,-6.98289,34.57793,0,0,0,-43.34365,-49.24239,13.17747,-36.31316,-110.6672,-50.34543,0.001067912,-0.1257102,0.09433498,0,0.3,0,0,0,0,
6.38223E+17,-16.63333,19.94161,30.56157,-26.4353,13.08629,144.9584,-17.10453,-0.4441859,-4.249202,-61.81271,-7.056135,34.57793,0,0,0,-55.2907,-45.9948,16.72563,-36.31316,-110.6672,-50.34543,0.001067912,-0.1257102,0.09433498,0,0.3,0,0,0,0,
6.38223E+17,-17.92913,20.03512,32.14919,-29.73133,12.9398,144.9584,-17.10453,-0.4441859,-4.249202,-61.81271,-7.056135,34.57793,0,0,0,-60.41028,-43.86765,18.35922,-36.31316,-110.6672,-50.34543,0.001067912,-0.1257102,0.09433498,0,0.3,0,0,0,0,
6.38223E+17,-20.54428,20.64295,35.20768,-35.81068,12.86655,144.8852,-17.10453,-0.4441859,-4.249202,-61.81271,-7.056135,34.57793,0,0,0,-70.77237,-38.59433,20.4942,-36.31316,-110.6672,-50.34543,0.001067912,-0.1257102,0.09433498,0,0.3,0,0,0,0,
6.38223E+17,-22.52332,21.92875,37.33228,-40.57161,12.72006,144.8852,-17.10453,-0.4441859,-4.249202,-61.88596,-6.98289,34.57793,0,0,0,-78.36259,-32.88084,20.61642,-36.31316,-110.6672,-50.34543,0.001067912,-0.1257102,0.09433498,0,0.3,0,0,0,0,
6.38223E+17,-23.4186,23.07429,38.35956,-43.42817,12.57357,144.8119,-17.10453,-0.4441859,-4.249202,-61.88596,-6.98289,34.57793,0,0,0,-81.65045,-28.95086,20.16512,-36.31316,-110.6672,-50.34543,0.001067912,-0.1257102,0.09433498,0,0.3,0,0,0,0,
6.38223E+17,-24.1254,26.11345,39.34014,-48.70182,12.28059,144.8852,-17.10453,-0.4441859,-4.249202,-61.88596,-7.056135,34.57793,0,0,0,-83.49306,-21.08839,18.0793,-36.31316,-110.6672,-50.34543,0.001067912,-0.1257102,0.09433498,0,0.3,0,0,0,0,
6.38223E+17,-23.51284,30.48518,39.34014,-52.73031,11.54814,144.9584,-17.10453,-0.4441859,-4.249202,-61.81271,-6.98289,34.57793,0,0,0,-79.57124,-12.13188,14.53923,-36.31316,-110.6672,-50.34543,0.001067912,-0.1257102,0.09433498,0,0.3,0,0,0,0,
6.38223E+17,-21.81652,36.28297,39.34014,-55.66012,9.8635,144.8852,-17.10453,-0.4441859,-4.249202,-61.88596,-7.056135,34.57793,0,0,0,-71.3643,-0.8693785,9.924342,-36.31316,-110.6672,-50.34543,0.001067912,-0.1257102,0.09433498,0,0.3,0,0,0,0,
6.38223E+17,-18.87153,41.58982,39.34014,-56.75879,6.933692,144.8852,-17.10453,-0.4441859,-4.249202,-61.88596,-6.98289,34.57793,0,0,0,-59.60105,8.734456,6.013099,-36.31316,-110.6672,-50.34543,0.001067912,-0.1257102,0.09433498,0,0.3,0,0,0,0,
6.38223E+17,-17.10453,43.55359,39.34014,-56.46581,5.249053,144.8852,-17.10453,-0.4441859,-4.249202,-61.88596,-7.056135,34.57793,0,0,0,-53.28686,12.10013,4.812912,-36.31316,-110.6672,-50.34543,0.001067912,-0.1257102,0.09433498,0,0.3,0,0,0,0,
6.38223E+17,-13.02866,46.70965,39.22341,-54.56144,1.66004,144.8852,-17.10453,-0.4441859,-4.249202,-61.88596,-6.98289,34.57793,0,0,0,-39.62324,17.10949,2.886311,-36.31316,-110.6672,-50.34543,0.001067912,-0.1257102,0.09433498,0,0.3,0,0,0,0,
6.38223E+17,-8.646505,49.07085,38.84985,-51.19216,-1.635992,143.8597,-17.10453,-0.4441859,-4.249202,-61.88596,-7.056135,34.57793,0,0,0,-25.70912,20.24664,0.7153934,-36.31316,-110.6672,-50.34543,0.001067912,-0.1257102,0.09433498,0,0.3,0,0,0,0,
6.38223E+17,-6.47899,49.93584,38.66307,-49.1413,-3.174141,141.8821,-17.10453,-0.4441859,-4.249202,-61.88596,-7.056135,34.57793,0,0,0,-19.08546,21.28187,-0.2911638,-36.31316,-110.6672,-50.34543,0.001067912,-0.1257102,0.09433498,0,0.3,0,0,0,0,
6.38223E+17,-2.143956,50.66056,38.17278,-44.16063,-6.250438,138.3663,-17.10453,-0.4441859,-4.249202,-61.88596,-6.98289,34.57793,0,0,0,-6.24556,21.65025,-1.519561,-36.31316,-110.6672,-50.34543,0.001067912,-0.1257102,0.09433498,0,0.3,0,0,0,0,
6.38223E+17,1.766997,50.07611,37.23889,-39.10671,-8.301303,135.29,-17.10453,-0.4441859,-4.249202,-61.88596,-7.056135,34.57793,0,0,0,5.127104,19.45328,-2.153745,-36.31316,-110.6672,-50.34543,0.001067912,-0.1257102,0.09433498,0,0.3,0,0,0,0,
6.38223E+17,3.533994,49.32801,36.56182,-36.54313,-9.033754,134.1181,-17.10453,-0.4441859,-4.249202,-61.88596,-6.98289,34.57793,0,0,0,10.25351,17.38104,-2.323199,-36.31316,-110.6672,-50.34543,0.001067912,-0.1257102,0.09433498,0,0.3,0,0,0,0,
6.38223E+17,6.832388,47.22397,35.13763,-31.78219,-9.546471,131.1883,-17.10453,-0.4441859,-4.249202,-61.88596,-6.98289,34.57793,0,0,0,19.90421,12.1809,-2.227021,-36.31316,-110.6672,-50.34543,0.001067912,-0.1257102,0.09433498,0,0.3,0,0,0,0,
6.38223E+17,9.895184,44.23156,33.66676,-27.02126,-9.25349,128.5515,-17.10453,-0.4441859,-4.249202,-61.88596,-6.98289,34.57793,0,0,0,29.12329,5.38562,-1.398187,-36.31316,-110.6672,-50.34543,0.001067912,-0.1257102,0.09433498,0,0.3,0,0,0,0,
6.38223E+17,12.13338,41.02874,32.42935,-22.48005,-7.715342,127.0133,-17.10453,-0.4441859,-4.249202,-61.88596,-7.056135,34.57793,0,0,0,36.17481,-1.668556,-0.08791286,-36.31316,-110.6672,-50.34543,0.001067912,-0.1257102,0.09433498,0,0.3,0,0,0,0,
6.38223E+17,13.92394,37.35837,30.65496,-18.37833,-5.444741,125.6217,-17.10453,-0.4441859,-4.249202,-61.88596,-7.056135,34.57793,0,0,0,41.86657,-10.44821,0.5223919,-36.31316,-110.6672,-50.34543,0.001067912,-0.1257102,0.09433498,0,0.3,0,0,0,0,
6.38223E+17,14.86634,34.48285,29.13739,-16.32746,-3.613612,123.7905,-17.10453,-0.4441859,-4.249202,-61.81271,-7.056135,34.57793,0,0,0,44.86004,-17.62781,0.645961,-36.31316,-110.6672,-50.34543,0.001067912,-0.1257102,0.09433498,0,0.3,0,0,0,0,
6.38223E+17,15.26685,32.75286,28.27354,-15.52176,-2.368444,122.4721,-17.10453,-0.4441859,-4.249202,-61.81271,-6.98289,34.57793,0,0,0,46.16291,-21.94629,0.777518,-36.31316,-110.6672,-50.34543,0.001067912,-0.1257102,0.09433498,0,0.3,0,0,0,0,
6.38223E+17,15.66737,29.29289,26.59254,-14.64282,0.1218917,119.8353,-17.10453,-0.4441859,-4.249202,-61.88596,-6.98289,34.57793,0,0,0,47.52694,-30.64853,1.102825,-36.31316,-110.6672,-50.34543,0.001067912,-0.1257102,0.09433498,0,0.3,0,0,0,0,
6.38223E+17,15.87941,25.66927,25.12166,-15.08229,3.124943,116.2463,-17.10453,-0.4441859,-4.249202,-61.88596,-7.056135,34.57793,0,0,0,48.37551,-39.62223,1.705427,-36.31316,-110.6672,-50.34543,0.001067912,-0.1257102,0.09433498,0,0.3,0,0,0,0,
6.38223E+17,16.16213,24.10293,24.65471,-15.52176,4.589847,114.3419,-17.10453,-0.4441859,-4.249202,-61.88596,-6.98289,34.57793,0,0,0,49.36663,-43.38649,1.991184,-36.31316,-110.6672,-50.34543,0.001067912,-0.1257102,0.09433498,0,0.3,0,0,0,0,
6.38223E+17,17.36369,21.04038,23.95429,-16.76693,7.299919,110.4599,-17.10453,-0.4441859,-4.249202,-61.88596,-6.98289,34.57793,0,0,0,53.30079,-50.63842,2.11149,-36.31316,-110.6672,-50.34543,0.001067912,-0.1257102,0.09433498,0,0.3,0,0,0,0,
6.38223E+17,19.97885,18.39865,23.83756,-16.98667,9.936745,106.5047,-17.10453,-0.4441859,-4.249202,-61.81271,-6.98289,34.57793,0,0,0,61.64685,-56.53576,1.218075,-36.31316,-110.6672,-50.34543,0.001067912,-0.1257102,0.09433498,0,0.3,0,0,0,0,
6.38223E+17,21.60448,17.4869,23.95429,-16.40071,10.96218,104.9665,-17.10453,-0.4441859,-4.249202,-61.81271,-7.056135,34.57793,0,0,0,66.76466,-58.44448,0.2397127,-36.31316,-110.6672,-50.34543,0.001067912,-0.1257102,0.09433498,0,0.3,0,0,0,0,
6.38223E+17,26.55208,16.6219,25.77538,-13.10467,12.86655,102.6959,-17.10453,-0.4441859,-4.249202,-61.88596,-6.98289,34.57793,0,0,0,83.03866,-58.58704,-2.178623,-36.31316,-110.6672,-50.34543,0.001067912,-0.1257102,0.09433498,0,0.3,0,0,0,0,
6.38223E+17,30.25099,17.01933,28.32023,-9.442415,12.86655,101.9635,-17.10453,-0.4441859,-4.249202,-61.88596,-7.056135,34.57793,0,0,0,96.10841,-55.00853,-3.556726,-36.31316,-110.6672,-50.34543,0.001067912,-0.1257102,0.09433498,0,0.3,0,0,0,0,
6.38223E+17,34.82162,17.93108,32.73286,-3.509557,11.98761,101.0113,-17.10453,-0.4441859,-4.249202,-61.88596,-6.98289,34.57793,0,0,0,113.6212,-47.76928,-5.002021,-36.31316,-110.6672,-50.34543,0.001067912,-0.1257102,0.09433498,0,0.3,0,0,0,0,
6.38223E+17,36.82422,18.46878,35.4178,-0.2135241,11.10867,100.4253,-17.10453,-0.4441859,-4.249202,-61.88596,-6.98289,34.57793,0,0,0,122.1277,-43.07962,-5.242255,-36.31316,-110.6672,-50.34543,0.001067912,-0.1257102,0.09433498,0,0.3,0,0,0,0,
6.38223E+17,39.60429,19.66107,40.67094,6.525032,8.618331,99.03368,-17.10453,-0.4441859,-4.249202,-61.88596,-6.98289,34.65118,0,0,0,135.4532,-32.92497,-4.640234,-36.31316,-110.6672,-50.34543,0.001067912,-0.1257102,0.09433498,0,0.3,0,0,0,0,
6.38223E+17,40.85297,21.04038,44.8034,12.16491,5.835015,97.64202,-17.10453,-0.4441859,-4.249202,-61.81271,-6.98289,34.57793,0,0,0,142.8781,-23.38958,-3.13324,-36.31316,-110.6672,-50.34543,0.001067912,-0.1257102,0.09433498,0,0.3,0,0,0,0,
6.38223E+17,41.11213,21.81186,46.5778,14.43551,4.150376,97.05606,-17.10453,-0.4441859,-4.249202,-61.88596,-6.98289,34.57793,0,0,0,145.0894,-18.76313,-2.102023,-36.31316,-110.6672,-50.34543,0.001067912,-0.1257102,0.09433498,0,0.3,0,0,0,0,
6.38223E+17,41.27705,23.28469,49.56625,17.51181,1.000834,96.25037,-17.10453,-0.4441859,-4.249202,-61.81271,-7.056135,34.57793,0,0,0,147.7658,-10.42334,-0.01581561,-36.31316,-110.6672,-50.34543,0.001067912,-0.1257102,0.09433498,0,0.3,0,0,0,0,
6.38223E+17,41.22993,24.75752,52.36792,19.78241,-2.075463,95.81089,-17.10453,-0.4441859,-4.249202,-61.88596,-7.056135,34.57793,0,0,0,149.4139,-2.227842,2.144289,-36.31316,-110.6672,-50.34543,0.001067912,-0.1257102,0.09433498,0,0.3,0,0,0,0,
6.38223E+17,40.99433,25.78616,54.25905,21.32055,-4.346064,95.73765,-17.10453,-0.4441859,-4.249202,-61.81271,-7.056135,34.57793,0,0,0,149.766,3.466454,3.970459,-36.31316,-110.6672,-50.34543,0.001067912,-0.1257102,0.09433498,0,0.3,0,0,0,0,
6.38223E+17,40.45245,26.74467,56.01009,22.78546,-6.543418,95.66441,-17.10453,-0.4441859,-4.249202,-61.88596,-6.98289,34.57793,0,0,0,149.0005,8.810635,6.400651,-36.31316,-110.6672,-50.34543,0.001067912,-0.1257102,0.09433498,0,0.3,0,0,0,0,
6.38223E+17,39.15665,27.82006,57.80783,24.4701,-9.25349,95.59116,-17.10453,-0.4441859,-4.249202,-61.88596,-6.98289,34.57793,0,0,0,145.7286,14.54033,10.60715,-36.31316,-110.6672,-50.34543,0.001067912,-0.1257102,0.09433498,0,0.3,0,0,0,0,
6.38223E+17,37.38966,28.77857,59.25536,25.1293,-11.45084,96.25037,-17.10453,-0.4441859,-4.249202,-61.88596,-7.056135,34.57793,0,0,0,140.5669,19.37793,15.57262,-36.31316,-110.6672,-50.34543,0.001067912,-0.1257102,0.09433498,0,0.3,0,0,0,0,
6.38223E+17,35.43418,29.87734,60.25929,25.20255,-13.42846,98.30123,-17.10453,-0.4441859,-4.249202,-61.88596,-7.056135,34.57793,0,0,0,134.1651,23.62593,20.20035,-36.31316,-110.6672,-50.34543,0.001067912,-0.1257102,0.09433498,0,0.3,0,0,0,0,
6.38223E+17,34.39754,30.39166,60.53946,24.98281,-14.52714,99.54639,-17.10453,-0.4441859,-4.249202,-61.88596,-7.056135,34.57793,0,0,0,130.5744,25.22813,22.36667,-36.31316,-110.6672,-50.34543,0.001067912,-0.1257102,0.09433498,0,0.3,0,0,0,0,
6.38223E+17,32.27715,31.11639,60.56281,24.03063,-16.57801,102.3297,-17.10453,-0.4441859,-4.249202,-61.88596,-6.98289,34.57793,0,0,0,122.9823,26.72496,26.36063,-36.31316,-110.6672,-50.34543,0.001067912,-0.1257102,0.09433498,0,0.3,0,0,0,0,
6.38223E+17,30.20387,31.2099,60.1659,22.8587,-17.89642,105.8455,-17.10453,-0.4441859,-4.249202,-61.88596,-7.056135,34.57793,0,0,0,115.5712,26.10828,30.19027,-36.31316,-110.6672,-50.34543,0.001067912,-0.1257102,0.09433498,0,0.3,0,0,0,0,
6.38223E+17,29.09655,31.2099,59.62892,22.27274,-18.33589,107.8231,-17.10453,-0.4441859,-4.249202,-61.88596,-7.056135,34.57793,0,0,0,111.4079,25.02707,31.8389,-36.31316,-110.6672,-50.34543,0.001067912,-0.1257102,0.09433498,0,0.3,0,0,0,0,
6.38223E+17,26.29292,31.2099,57.62106,20.51486,-18.40914,113.0968,-17.10453,-0.4441859,-4.249202,-61.88596,-7.056135,34.57793,0,0,0,100.4051,21.03748,34.86743,-36.31316,-110.6672,-50.34543,0.001067912,-0.1257102,0.09433498,0,0.3,0,0,0,0,
6.38223E+17,23.3008,31.2099,55.16959,17.95128,-17.5302,118.9564,-17.10453,-0.4441859,-4.249202,-61.88596,-7.056135,34.57793,0,0,0,88.41153,16.28585,36.93138,-36.31316,-110.6672,-50.34543,0.001067912,-0.1257102,0.09433498,0,0.3,0,0,0,0,
6.38223E+17,21.81652,31.18653,53.95553,16.26664,-16.94423,121.8129,-17.10453,-0.4441859,-4.249202,-61.88596,-7.056135,34.57793,0,0,0,82.46617,13.9372,37.65781,-36.31316,-110.6672,-50.34543,0.001067912,-0.1257102,0.09433498,0,0.3,0,0,0,0,
6.38223E+17,18.89509,30.9995,51.7142,12.60438,-15.84556,126.7936,-17.10453,-0.4441859,-4.249202,-61.88596,-7.056135,34.57793,0,0,0,70.91182,9.407717,38.82442,-36.31316,-110.6672,-50.34543,0.001067912,-0.1257102,0.09433498,0,0.3,0,0,0,0,
6.38223E+17,15.99721,30.60207,49.77637,8.795631,-14.60039,130.9686,-17.10453,-0.4441859,-4.249202,-61.88596,-7.056135,34.57793,0,0,0,59.69133,5.121035,39.85661,-36.31316,-110.6672,-50.34543,0.001067912,-0.1257102,0.09433498,0,0.3,0,0,0,0,
6.38223E+17,14.6543,30.36828,49.00591,6.964502,-13.94118,132.7997,-17.10453,-0.4441859,-4.249202,-61.88596,-7.056135,34.57793,0,0,0,54.56992,3.29084,40.33623,-36.31316,-110.6672,-50.34543,0.001067912,-0.1257102,0.09433498,0,0.3,0,0,0,0,
6.38223E+17,11.68574,29.87734,47.23152,3.082508,-12.47628,136.9014,-17.10453,-0.4441859,-4.249202,-61.88596,-7.056135,34.57793,0,0,0,43.24704,-0.7720379,40.74409,-36.31316,-110.6672,-50.34543,0.001067912,-0.1257102,0.09433498,0,0.3,0,0,0,0,
6.38223E+17,8.245987,29.29289,45.17696,-0.5065048,-11.15786,141.0764,-17.10453,-0.4441859,-4.249202,-61.88596,-6.98289,34.57793,0,0,0,30.24539,-5.4063,40.35178,-36.31316,-110.6672,-50.34543,0.001067912,-0.1257102,0.09433498,0,0.3,0,0,0,0,
6.38223E+17,4.382153,28.33438,43.23914,-4.461744,-9.106999,144.7387,-17.10453,-0.4441859,-4.249202,-61.88596,-6.98289,34.57793,0,0,0,15.94831,-10.50548,39.76424,-36.31316,-110.6672,-50.34543,0.001067912,-0.1257102,0.09433498,0,0.3,0,0,0,0,
6.38223E+17,0.2355996,26.69791,41.55813,-8.783209,-6.98289,144.8852,-17.10453,-0.4441859,-4.249202,-61.81271,-6.98289,34.57793,0,0,0,0.8536257,-16.5212,39.24318,-36.31316,-110.6672,-50.34543,0.001067912,-0.1257102,0.09433498,0,0.3,0,0,0,0,
6.38223E+17,-4.358593,24.31333,40.36742,-14.20335,-4.565799,144.8852,-17.10453,-0.4441859,-4.249202,-61.88596,-7.056135,34.57793,0,0,0,-15.79946,-23.34654,38.94065,-36.31316,-110.6672,-50.34543,0.001067912,-0.1257102,0.09433498,0,0.3,0,0,0,0,
6.38223E+17,-6.761709,22.93402,39.99387,-17.27965,-3.393876,144.8852,-17.10453,-0.4441859,-4.249202,-61.88596,-7.056135,34.57793,0,0,0,-24.55051,-26.8486,38.7137,-36.31316,-110.6672,-50.34543,0.001067912,-0.1257102,0.09433498,0,0.3,0,0,0,0,
6.38223E+17,-13.78258,17.79081,40.18064,-28.63265,0.4881175,144.8119,-17.10453,-0.4441859,-4.249202,-61.88596,-7.056135,34.57793,0,0,0,-50.74719,-37.78716,38.5271,-36.31316,-110.6672,-50.34543,0.001067912,-0.1257102,0.09433498,0,0.3,0,0,0,0,
6.38223E+17,-15.31397,16.38812,40.32073,-32.36815,1.66004,144.8852,-17.10453,-0.4441859,-4.249202,-61.88596,-6.98289,34.57793,0,0,0,-56.57689,-40.6969,38.26228,-36.31316,-110.6672,-50.34543,0.001067912,-0.1257102,0.09433498,0,0.3,0,0,0,0,
6.38223E+17,-17.38725,14.63475,40.1106,-39.76591,4.296866,144.0795,-17.10453,-0.4441859,-4.249202,-61.88596,-7.056135,34.57793,0,0,0,-64.2291,-44.94465,36.76524,-36.31316,-110.6672,-50.34543,0.001067912,-0.1257102,0.09433498,0,0.3,0,0,0,0,
6.38223E+17,-18.63593,14.63475,39.57362,-44.74659,6.494221,143.1273,-17.10453,-0.4441859,-4.249202,-61.88596,-6.98289,34.57793,0,0,0,-68.37704,-45.74535,34.40759,-36.31316,-110.6672,-50.34543,0.001067912,-0.1257102,0.09433498,0,0.3,0,0,0,0,
6.38223E+17,-19.41341,14.77502,39.76039,-46.35798,7.373164,143.054,-17.10453,-0.4441859,-4.249202,-61.88596,-6.98289,34.57793,0,0,0,-71.20567,-45.1521,33.69854,-36.31316,-110.6672,-50.34543,0.001067912,-0.1257102,0.09433498,0,0.3,0,0,0,0,
6.38223E+17,-21.1804,15.59326,41.13788,-49.1413,8.618331,143.1273,-17.10453,-0.4441859,-4.249202,-61.88596,-7.056135,34.57793,0,0,0,-78.10322,-41.23434,33.21656,-36.31316,-110.6672,-50.34543,0.001067912,-0.1257102,0.09433498,0,0.3,0,0,0,0,
6.38223E+17,-22.80604,17.18298,43.14575,-52.36408,9.131048,143.1273,-17.10453,-0.4441859,-4.249202,-61.81271,-7.056135,34.57793,0,0,0,-84.72842,-34.54953,33.15145,-36.31316,-110.6672,-50.34543,0.001067912,-0.1257102,0.09433498,0,0.3,0,0,0,0,
6.38223E+17,-23.32436,18.30513,44.21972,-54.41495,9.204292,143.2005,-17.10453,-0.4441859,-4.249202,-61.88596,-7.056135,34.57793,0,0,0,-86.94833,-30.33579,33.30571,-36.31316,-110.6672,-50.34543,0.001067912,-0.1257102,0.09433498,0,0.3,0,0,0,0,
6.38223E+17,-23.63064,20.82998,45.80734,-58.58992,9.131048,143.1273,-17.10453,-0.4441859,-4.249202,-61.81271,-6.98289,34.57793,0,0,0,-88.28325,-22.186,33.42817,-36.31316,-110.6672,-50.34543,0.001067912,-0.1257102,0.09433498,0,0.3,0,0,0,0,
6.38223E+17,-23.183,24.36009,46.34432,-62.39867,8.545086,143.1273,-17.10453,-0.4441859,-4.249202,-61.88596,-6.98289,34.57793,0,0,0,-85.80293,-13.7017,32.00737,-36.31316,-110.6672,-50.34543,0.001067912,-0.1257102,0.09433498,0,0.3,0,0,0,0,
6.38223E+17,-22.005,27.79668,46.18089,-64.88901,7.666144,142.5413,-17.10453,-0.4441859,-4.249202,-61.88596,-6.98289,34.57793,0,0,0,-80.24998,-6.793556,30.22576,-36.31316,-110.6672,-50.34543,0.001067912,-0.1257102,0.09433498,0,0.3,0,0,0,0,
6.38223E+17,-21.01549,29.3864,45.97077,-65.62146,6.933692,142.0286,-17.10453,-0.4441859,-4.249202,-61.88596,-7.056135,34.57793,0,0,0,-76.05209,-3.897185,29.61253,-36.31316,-110.6672,-50.34543,0.001067912,-0.1257102,0.09433498,0,0.3,0,0,0,0,
6.38223E+17,-18.54169,32.42557,45.20031,-65.54821,5.322299,141.9554,-17.10453,-0.4441859,-4.249202,-61.88596,-6.98289,34.57793,0,0,0,-65.88243,0.8902727,28.07675,-36.31316,-110.6672,-50.34543,0.001067912,-0.1257102,0.09433498,0,0.3,0,0,0,0,
6.38223E+17,-15.50245,35.3946,44.19638,-63.79033,3.344679,141.8821,-17.10453,-0.4441859,-4.249202,-61.81271,-6.98289,34.57793,0,0,0,-53.90108,4.980986,25.9787,-36.31316,-110.6672,-50.34543,0.001067912,-0.1257102,0.09433498,0,0.3,0,0,0,0,
6.38223E+17,-11.96846,38.17661,43.42591,-60.64079,1.074079,141.8089,-17.10453,-0.4441859,-4.249202,-61.88596,-6.98289,34.57793,0,0,0,-40.74772,8.924682,23.87319,-36.31316,-110.6672,-50.34543,0.001067912,-0.1257102,0.09433498,0,0.3,0,0,0,0,
6.38223E+17,-8.245987,40.42091,42.79554,-56.75879,-1.416257,141.7356,-17.10453,-0.4441859,-4.249202,-61.88596,-6.98289,34.57793,0,0,0,-27.55383,11.96392,21.77926,-36.31316,-110.6672,-50.34543,0.001067912,-0.1257102,0.09433498,0,0.3,0,0,0,0,
6.38223E+17,-6.26695,41.21577,42.42198,-54.56144,-2.73467,141.4426,-17.10453,-0.4441859,-4.249202,-61.88596,-7.056135,34.57793,0,0,0,-20.76965,12.77534,20.77933,-36.31316,-110.6672,-50.34543,0.001067912,-0.1257102,0.09433498,0,0.3,0,0,0,0,
6.38223E+17,-2.191077,42.12752,41.79161,-49.1413,-5.298251,140.051,-17.10453,-0.4441859,-4.249202,-61.81271,-6.98289,34.57793,0,0,0,-7.178743,13.37666,19.27978,-36.31316,-110.6672,-50.34543,0.001067912,-0.1257102,0.09433498,0,0.3,0,0,0,0,
6.38223E+17,1.672757,42.22104,41.4414,-43.7944,-7.27587,137.5606,-17.10453,-0.4441859,-4.249202,-61.88596,-7.056135,34.57793,0,0,0,5.45905,12.99663,18.58189,-36.31316,-110.6672,-50.34543,0.001067912,-0.1257102,0.09433498,0,0.3,0,0,0,0,
6.38223E+17,3.628234,42.22104,41.41805,-41.01108,-7.935077,136.3155,-17.10453,-0.4441859,-4.249202,-61.88596,-6.98289,34.57793,0,0,0,11.83195,12.96068,18.24609,-36.31316,-110.6672,-50.34543,0.001067912,-0.1257102,0.09433498,0,0.3,0,0,0,0,
6.38223E+17,7.916147,42.19766,41.4414,-35.3712,-9.25349,133.3857,-17.10453,-0.4441859,-4.249202,-61.88596,-6.98289,34.57793,0,0,0,25.76096,12.95633,16.9157,-36.31316,-110.6672,-50.34543,0.001067912,-0.1257102,0.09433498,0,0.3,0,0,0,0,
6.38223E+17,12.34542,41.84698,41.51144,-29.73133,-10.42541,128.991,-17.10453,-0.4441859,-4.249202,-61.88596,-6.98289,34.57793,0,0,0,40.13472,12.45799,15.02594,-36.31316,-110.6672,-50.34543,0.001067912,-0.1257102,0.09433498,0,0.3,0,0,0,0,
6.38223E+17,14.6543,41.4028,41.62818,-26.50854,-11.15786,126.6471,-17.10453,-0.4441859,-4.249202,-61.88596,-7.056135,34.57793,0,0,0,47.71488,11.86549,14.12119,-36.31316,-110.6672,-50.34543,0.001067912,-0.1257102,0.09433498,0,0.3,0,0,0,0,
6.38223E+17,19.01289,39.71957,42.09512,-19.55025,-12.32979,122.1059,-17.10453,-0.4441859,-4.249202,-61.88596,-7.056135,34.57793,0,0,0,62.53796,9.61463,13.1408,-36.31316,-110.6672,-50.34543,0.001067912,-0.1257102,0.09433498,0,0.3,0,0,0,0,
6.38223E+17,22.45264,37.7558,42.46867,-13.17792,-12.8425,118.9564,-17.10453,-0.4441859,-4.249202,-61.81271,-6.98289,34.57793,0,0,0,74.65246,6.634673,12.29916,-36.31316,-110.6672,-50.34543,0.001067912,-0.1257102,0.09433498,0,0.3,0,0,0,0,
6.38223E+17,25.56256,35.67514,42.53872,-7.09857,-12.62277,115.8068,-17.10453,-0.4441859,-4.249202,-61.88596,-6.98289,34.57793,0,0,0,85.64402,2.863191,10.70305,-36.31316,-110.6672,-50.34543,0.001067912,-0.1257102,0.09433498,0,0.3,0,0,0,0,
6.38223E+17,28.43687,33.8984,42.53872,-1.385447,-11.74383,113.3897,-17.10453,-0.4441859,-4.249202,-61.88596,-7.056135,34.57793,0,0,0,95.63832,-0.5328227,8.257629,-36.31316,-110.6672,-50.34543,0.001067912,-0.1257102,0.09433498,0,0.3,0,0,0,0,
6.38223E+17,30.53371,33.22043,42.77219,2.350057,-10.93813,111.8516,-17.10453,-0.4441859,-4.249202,-61.88596,-7.056135,34.57793,0,0,0,102.6823,-1.47951,5.735625,-36.31316,-110.6672,-50.34543,0.001067912,-0.1257102,0.09433498,0,0.3,0,0,0,0,
6.38223E+17,31.80595,33.10354,43.02901,4.254431,-10.49866,110.9726,-17.10453,-0.4441859,-4.249202,-61.81271,-6.98289,34.57793,0,0,0,106.8314,-1.300366,3.911436,-36.31316,-110.6672,-50.34543,0.001067912,-0.1257102,0.09433498,0,0.3,0,0,0,0,
6.38223E+17,34.37398,33.08016,43.89286,8.35616,-9.912696,109.1415,-17.10453,-0.4441859,-4.249202,-61.88596,-7.056135,34.57793,0,0,0,115.2831,0.0369913,0.1807742,-36.31316,-110.6672,-50.34543,0.001067912,-0.1257102,0.09433498,0,0.3,0,0,0,0,
6.38223E+17,36.70642,33.10354,45.57386,12.60438,-9.473226,107.0906,-17.10453,-0.4441859,-4.249202,-61.88596,-7.056135,34.57793,0,0,0,123.6897,2.83603,-2.446284,-36.31316,-110.6672,-50.34543,0.001067912,-0.1257102,0.09433498,0,0.3,0,0,0,0,
6.38223E+17,37.76662,33.22043,46.69453,14.72849,-9.25349,106.285,-17.10453,-0.4441859,-4.249202,-61.88596,-7.056135,34.57793,0,0,0,127.7541,4.944192,-3.452165,-36.31316,-110.6672,-50.34543,0.001067912,-0.1257102,0.09433498,0,0.3,0,0,0,0,
6.38223E+17,39.60429,33.96853,49.146,19.1232,-8.740773,105.0398,-17.10453,-0.4441859,-4.249202,-61.81271,-6.98289,34.57793,0,0,0,134.7995,10.62889,-5.430287,-36.31316,-110.6672,-50.34543,0.001067912,-0.1257102,0.09433498,0,0.3,0,0,0,0,
6.38223E+17,40.82941,35.74527,50.87369,23.37142,-8.814018,104.4538,-17.10453,-0.4441859,-4.249202,-61.88596,-6.98289,34.57793,0,0,0,138.3963,17.10264,-8.182596,-36.31316,-110.6672,-50.34543,0.001067912,-0.1257102,0.09433498,0,0.3,0,0,0,0,
6.38223E+17,41.32417,36.84405,51.78423,25.34904,-9.033754,104.3073,-17.10453,-0.4441859,-4.249202,-61.88596,-7.056135,34.57793,0,0,0,139.6491,20.81827,-9.525994,-36.31316,-110.6672,-50.34543,0.001067912,-0.1257102,0.09433498,0,0.3,0,0,0,0,
6.38223E+17,42.19589,39.48579,54.58591,30.03673,-10.05919,103.5016,-17.10453,-0.4441859,-4.249202,-61.88596,-6.98289,34.57793,0,0,0,142.1218,30.87162,-11.58891,-36.31316,-110.6672,-50.34543,0.001067912,-0.1257102,0.09433498,0,0.3,0,0,0,0,
6.38223E+17,42.45505,41.21577,56.50039,32.82005,-11.23111,102.2565,-17.10453,-0.4441859,-4.249202,-61.88596,-7.056135,34.57793,0,0,0,142.7714,37.6138,-12.29677,-36.31316,-110.6672,-50.34543,0.001067912,-0.1257102,0.09433498,0,0.3,0,0,0,0,
6.38223E+17,42.38437,43.38995,58.57829,36.04284,-12.98899,100.5718,-17.10453,-0.4441859,-4.249202,-61.88596,-6.98289,34.57793,0,0,0,142.0327,45.43636,-12.7191,-36.31316,-110.6672,-50.34543,0.001067912,-0.1257102,0.09433498,0,0.3,0,0,0,0,
6.38223E+17,42.19589,44.44196,59.23202,37.65423,-13.94118,99.83938,-17.10453,-0.4441859,-4.249202,-61.88596,-6.98289,34.57793,0,0,0,140.9071,48.50296,-12.92871,-36.31316,-110.6672,-50.34543,0.001067912,-0.1257102,0.09433498,0,0.3,0,0,0,0,
6.38223E+17,41.51265,46.17195,59.58222,40.21781,-15.9188,98.96043,-17.10453,-0.4441859,-4.249202,-61.88596,-6.98289,34.57793,0,0,0,137.4217,52.03624,-13.09212,-36.31316,-110.6672,-50.34543,0.001067912,-0.1257102,0.09433498,0,0.3,0,0,0,0,
6.38223E+17,40.61737,47.71491,59.58222,41.75596,-17.74993,98.52097,-17.10453,-0.4441859,-4.249202,-61.88596,-6.98289,34.57793,0,0,0,133.2709,54.48787,-12.95557,-36.31316,-110.6672,-50.34543,0.001067912,-0.1257102,0.09433498,0,0.3,0,0,0,0,
6.38223E+17,39.55717,49.21112,59.58222,42.6349,-19.14159,98.81395,-17.10453,-0.4441859,-4.249202,-61.88596,-6.98289,34.57793,0,0,0,128.7129,56.79691,-12.52586,-36.31316,-110.6672,-50.34543,0.001067912,-0.1257102,0.09433498,0,0.3,0,0,0,0,
6.38223E+17,38.16714,50.91772,59.55888,43.29411,-20.82623,100.4253,-17.10453,-0.4441859,-4.249202,-61.81271,-6.98289,34.57793,0,0,0,122.996,59.29966,-11.86535,-36.31316,-110.6672,-50.34543,0.001067912,-0.1257102,0.09433498,0,0.3,0,0,0,0,
6.38223E+17,37.41322,51.59569,59.44214,43.4406,-21.63192,101.524,-17.10453,-0.4441859,-4.249202,-61.88596,-7.056135,34.57793,0,0,0,120.0948,60.05306,-11.34755,-36.31316,-110.6672,-50.34543,0.001067912,-0.1257102,0.09433498,0,0.3,0,0,0,0,
6.38223E+17,35.62266,52.67109,58.76507,43.36735,-23.60954,104.2341,-17.10453,-0.4441859,-4.249202,-61.88596,-6.98289,34.57793,0,0,0,113.5084,60.23717,-9.935569,-36.31316,-110.6672,-50.34543,0.001067912,-0.1257102,0.09433498,0,0.3,0,0,0,0,
6.38223E+17,33.5965,53.23217,57.50431,41.53622,-25.58716,107.6766,-17.10453,-0.4441859,-4.249202,-61.88596,-7.056135,34.57793,0,0,0,106.4027,58.53193,-8.179851,-36.31316,-110.6672,-50.34543,0.001067912,-0.1257102,0.09433498,0,0.3,0,0,0,0,
6.38223E+17,32.53631,53.44257,56.8039,40.3643,-26.31961,109.9472,-17.10453,-0.4441859,-4.249202,-61.88596,-6.98289,34.57793,0,0,0,102.7341,57.45479,-7.315064,-36.31316,-110.6672,-50.34543,0.001067912,-0.1257102,0.09433498,0,0.3,0,0,0,0,
6.38223E+17,30.15675,53.79325,55.23963,37.21476,-27.56478,115.5871,-17.10453,-0.4441859,-4.249202,-61.88596,-7.056135,34.57793,0,0,0,94.60724,54.91998,-5.515878,-36.31316,-110.6672,-50.34543,0.001067912,-0.1257102,0.09433498,0,0.3,0,0,0,0,
6.38223E+17,27.21176,53.91014,53.23177,33.18628,-28.44372,122.9116,-17.10453,-0.4441859,-4.249202,-61.88596,-6.98289,34.57793,0,0,0,84.76701,51.28876,-3.494433,-36.31316,-110.6672,-50.34543,0.001067912,-0.1257102,0.09433498,0,0.3,0,0,0,0,
6.38223E+17,23.72488,53.51271,50.40675,27.61964,-29.17617,131.6278,-17.10453,-0.4441859,-4.249202,-61.88596,-7.056135,34.57793,0,0,0,73.2485,45.57351,-1.681945,-36.31316,-110.6672,-50.34543,0.001067912,-0.1257102,0.09433498,0,0.3,0,0,0,0,
6.38223E+17,21.98145,53.04515,49.02925,24.25036,-29.32266,136.0225,-17.10453,-0.4441859,-4.249202,-61.88596,-6.98289,34.57793,0,0,0,67.69452,42.47717,-0.643823,-36.31316,-110.6672,-50.34543,0.001067912,-0.1257102,0.09433498,0,0.3,0,0,0,0,
6.38223E+17,19.06001,51.64245,46.78792,17.21883,-29.02968,144.0062,-17.10453,-0.4441859,-4.249202,-61.88596,-7.056135,34.57793,0,0,0,58.76133,36.61201,1.726414,-36.31316,-110.6672,-50.34543,0.001067912,-0.1257102,0.09433498,0,0.3,0,0,0,0,
6.38223E+17,16.51553,48.95396,44.45319,9.821064,-27.93101,144.8852,-17.10453,-0.4441859,-4.249202,-61.88596,-6.98289,34.57793,0,0,0,51.44098,28.73192,5.139131,-36.31316,-110.6672,-50.34543,0.001067912,-0.1257102,0.09433498,0,0.3,0,0,0,0,
6.38223E+17,15.47889,47.27073,43.02901,6.598277,-26.75908,144.9584,-17.10453,-0.4441859,-4.249202,-61.81271,-6.98289,34.57793,0,0,0,48.43306,23.82469,6.544135,-36.31316,-110.6672,-50.34543,0.001067912,-0.1257102,0.09433498,0,0.3,0,0,0,0,
6.38223E+17,14.96058,46.14857,41.97839,4.767147,-25.88014,144.8852,-17.10453,-0.4441859,-4.249202,-61.88596,-7.056135,34.50468,0,0,0,46.87432,20.38182,7.070099,-36.31316,-110.6672,-50.34543,0.001067912,-0.1257102,0.09433498,0,0.3,0,0,0,0,
6.38223E+17,14.1831,43.92765,39.87713,2.057076,-23.75603,144.8852,-17.10453,-0.4441859,-4.249202,-61.88596,-7.056135,34.57793,0,0,0,44.48053,13.52587,7.653655,-36.31316,-110.6672,-50.34543,0.001067912,-0.1257102,0.09433498,0,0.3,0,0,0,0,
6.38223E+17,13.3585,41.49631,37.86926,-0.140279,-21.55868,144.8119,-17.10453,-0.4441859,-4.249202,-61.88596,-6.98289,34.57793,0,0,0,41.9892,6.435663,8.470229,-36.31316,-110.6672,-50.34543,0.001067912,-0.1257102,0.09433498,0,0.3,0,0,0,0,
6.38223E+17,12.86374,40.21051,36.72525,-1.165711,-20.16702,144.8852,-17.10453,-0.4441859,-4.249202,-61.88596,-6.98289,34.57793,0,0,0,40.42503,2.55881,8.669669,-36.31316,-110.6672,-50.34543,0.001067912,-0.1257102,0.09433498,0,0.3,0,0,0,0,
6.38223E+17,11.54438,37.35837,34.15705,-3.656047,-17.16397,144.8119,-17.10453,-0.4441859,-4.249202,-61.88596,-6.98289,34.57793,0,0,0,36.19598,-6.080777,8.856227,-36.31316,-110.6672,-50.34543,0.001067912,-0.1257102,0.09433498,0,0.3,0,0,0,0,
6.38223E+17,10.48418,34.50623,32.63948,-6.585854,-13.94118,144.8852,-17.10453,-0.4441859,-4.249202,-61.81271,-6.98289,34.57793,0,0,0,33.08316,-13.39928,10.42618,-36.31316,-110.6672,-50.34543,0.001067912,-0.1257102,0.09433498,0,0.3,0,0,0,0,
6.38223E+17,9.942304,32.2853,32.19588,-8.783209,-10.79164,144.9584,-17.10453,-0.4441859,-4.249202,-61.81271,-6.98289,34.57793,0,0,0,31.73163,-18.26801,12.67482,-36.31316,-110.6672,-50.34543,0.001067912,-0.1257102,0.09433498,0,0.3,0,0,0,0,
6.38223E+17,9.683144,31.2099,32.0558,-9.588906,-9.399981,144.9584,-17.10453,-0.4441859,-4.249202,-61.88596,-7.056135,34.57793,0,0,0,31.08757,-20.56973,13.8425,-36.31316,-110.6672,-50.34543,0.001067912,-0.1257102,0.09433498,0,0.3,0,0,0,0,
6.38223E+17,9.188385,29.45654,31.79898,-10.54109,-7.202625,144.8119,-17.10453,-0.4441859,-4.249202,-61.88596,-7.056135,34.57793,0,0,0,29.76124,-24.40783,15.63774,-36.31316,-110.6672,-50.34543,0.001067912,-0.1257102,0.09433498,0,0.3,0,0,0,0,
6.38223E+17,8.693625,28.05384,31.70559,-10.98056,-5.517986,144.8119,-17.10453,-0.4441859,-4.249202,-61.81271,-7.056135,34.57793,0,0,0,28.38082,-27.38418,17.2576,-36.31316,-110.6672,-50.34543,0.001067912,-0.1257102,0.09433498,0,0.3,0,0,0,0,
6.38223E+17,8.340226,27.30574,31.58885,-11.12705,-4.785534,144.8852,-17.10453,-0.4441859,-4.249202,-61.88596,-7.056135,34.57793,0,0,0,27.31923,-29.06859,18.00052,-36.31316,-110.6672,-50.34543,0.001067912,-0.1257102,0.09433498,0,0.3,0,0,0,0,
6.38223E+17,7.350708,25.38873,31.35538,-11.63977,-3.247386,144.9584,-17.10453,-0.4441859,-4.249202,-61.88596,-7.056135,34.57793,0,0,0,24.29101,-33.35027,19.94864,-36.31316,-110.6672,-50.34543,0.001067912,-0.1257102,0.09433498,0,0.3,0,0,0,0,
6.38223E+17,6.36119,23.26131,31.33203,-12.44547,-1.782483,144.8119,-17.10453,-0.4441859,-4.249202,-61.81271,-6.98289,34.57793,0,0,0,21.25638,-37.89006,22.32078,-36.31316,-110.6672,-50.34543,0.001067912,-0.1257102,0.09433498,0,0.3,0,0,0,0,
6.38223E+17,5.88999,22.13916,31.30868,-12.95818,-0.9767859,144.8119,-17.10453,-0.4441859,-4.249202,-61.88596,-6.98289,34.57793,0,0,0,19.78627,-40.32765,23.44551,-36.31316,-110.6672,-50.34543,0.001067912,-0.1257102,0.09433498,0,0.3,0,0,0,0,
6.38223E+17,5.371671,20.31566,31.40207,-13.91037,0.7810982,144.8852,-17.10453,-0.4441859,-4.249202,-61.88596,-6.98289,34.57793,0,0,0,18.21166,-44.17044,25.33126,-36.31316,-110.6672,-50.34543,0.001067912,-0.1257102,0.09433498,0,0.3,0,0,0,0,
6.38223E+17,5.465911,19.45066,31.51881,-14.56958,2.026266,144.8852,-17.10453,-0.4441859,-4.249202,-61.88596,-7.056135,34.57793,0,0,0,18.61749,-45.92179,26.21332,-36.31316,-110.6672,-50.34543,0.001067912,-0.1257102,0.09433498,0,0.3,0,0,0,0,
6.38223E+17,5.465911,19.24026,31.51881,-14.56958,2.465737,144.8852,-17.10453,-0.4441859,-4.249202,-61.88596,-7.056135,34.57793,0,0,0,18.63294,-46.38384,26.3748,-36.31316,-110.6672,-50.34543,0.001067912,-0.1257102,0.09433498,0,0.3,0,0,0,0,
6.38223E+17,5.418791,18.58567,31.28534,-14.56958,3.198189,144.8852,-17.10453,-0.4441859,-4.249202,-61.88596,-7.056135,34.57793,0,0,0,18.47563,-48.1082,26.41994,-36.31316,-110.6672,-50.34543,0.001067912,-0.1257102,0.09433498,0,0.3,0,0,0,0,
6.38223E+17,5.206751,17.41676,31.23864,-14.42309,4.370111,144.8119,-17.10453,-0.4441859,-4.249202,-61.81271,-7.056135,34.57793,0,0,0,17.82257,-50.7519,27.23172,-36.31316,-110.6672,-50.34543,0.001067912,-0.1257102,0.09433498,0,0.3,0,0,0,0,
6.38223E+17,4.971152,16.27123,31.23864,-14.49633,5.76177,144.8852,-17.10453,-0.4441859,-4.249202,-61.88596,-6.98289,34.57793,0,0,0,17.08513,-53.30358,28.07298,-36.31316,-110.6672,-50.34543,0.001067912,-0.1257102,0.09433498,0,0.3,0,0,0,0,
6.38223E+17,4.994712,15.38286,31.23864,-14.9358,7.226673,144.8119,-17.10453,-0.4441859,-4.249202,-61.88596,-6.98289,34.57793,0,0,0,17.215,-55.29277,28.6277,-36.31316,-110.6672,-50.34543,0.001067912,-0.1257102,0.09433498,0,0.3,0,0,0,0,
6.38223E+17,5.253871,15.10232,31.02851,-15.37527,8.178861,144.8119,-17.10453,-0.4441859,-4.249202,-61.88596,-6.98289,34.57793,0,0,0,18.08317,-56.17558,28.3019,-36.31316,-110.6672,-50.34543,0.001067912,-0.1257102,0.09433498,0,0.3,0,0,0,0,
6.38223E+17,5.513031,15.05556,30.95848,-15.59501,8.691576,144.8119,-17.10453,-0.4441859,-4.249202,-61.88596,-7.056135,34.57793,0,0,0,18.96177,-56.36459,28.10719,-36.31316,-110.6672,-50.34543,0.001067912,-0.1257102,0.09433498,0,0.3,0,0,0,0,
6.38223E+17,6.14915,15.03218,30.93513,-15.7415,8.984557,144.9584,-17.10453,-0.4441859,-4.249202,-61.88596,-7.056135,34.57793,0,0,0,21.13822,-56.44508,27.85227,-36.31316,-110.6672,-50.34543,0.001067912,-0.1257102,0.09433498,0,0.3,0,0,0,0,
6.38223E+17,6.714589,15.03218,30.98182,-15.66825,8.618331,144.8852,-17.10453,-0.4441859,-4.249202,-61.88596,-7.056135,34.57793,0,0,0,23.08433,-56.38918,27.72666,-36.31316,-110.6672,-50.34543,0.001067912,-0.1257102,0.09433498,0,0.3,0,0,0,0,
6.38223E+17,6.973749,15.03218,30.95848,-15.52176,8.325351,144.8852,-17.10453,-0.4441859,-4.249202,-61.81271,-6.98289,34.57793,0,0,0,23.96533,-56.41714,27.574,-36.31316,-110.6672,-50.34543,0.001067912,-0.1257102,0.09433498,0,0.3,0,0,0,0,
6.38223E+17,7.444948,15.00881,31.02851,-15.37527,7.88588,143.054,-17.10453,-0.4441859,-4.249202,-61.81271,-7.056135,34.57793,0,0,0,25.59571,-56.38575,27.52283,-36.31316,-110.6672,-50.34543,0.001067912,-0.1257102,0.09433498,0,0.3,0,0,0,0,
6.38223E+17,8.033947,14.96205,31.23864,-15.81474,7.592898,136.2422,-17.10453,-0.4441859,-4.249202,-61.88596,-7.056135,34.57793,0,0,0,27.67032,-56.23801,27.69172,-36.31316,-110.6672,-50.34543,0.001067912,-0.1257102,0.09433498,0,0.3,0,0,0,0,
6.38223E+17,8.410906,14.93867,31.70559,-16.18097,7.446409,133.7519,-17.10453,-0.4441859,-4.249202,-61.88596,-7.056135,34.57793,0,0,0,29.09714,-55.7232,28.43624,-36.31316,-110.6672,-50.34543,0.001067912,-0.1257102,0.09433498,0,0.3,0,0,0,0,
6.38223E+17,9.423985,14.75165,32.84961,-16.84018,7.006938,132.6532,-17.10453,-0.4441859,-4.249202,-61.88596,-7.056135,34.57793,0,0,0,32.95875,-54.7221,30.22176,-36.31316,-110.6672,-50.34543,0.001067912,-0.1257102,0.09433498,0,0.3,0,0,0,0,
6.38223E+17,9.942304,14.75165,33.6901,-16.84018,6.787202,132.3602,-17.10453,-0.4441859,-4.249202,-61.88596,-6.98289,34.57793,0,0,0,35.03612,-53.64898,31.52645,-36.31316,-110.6672,-50.34543,0.001067912,-0.1257102,0.09433498,0,0.3,0,0,0,0,
6.38223E+17,10.13078,14.7984,34.74073,-17.2064,6.787202,129.5037,-17.10453,-0.4441859,-4.249202,-61.88596,-6.98289,34.57793,0,0,0,36.04422,-52.16882,33.37328,-36.31316,-110.6672,-50.34543,0.001067912,-0.1257102,0.09433498,0,0.3,0,0,0,0,
6.38223E+17,10.13078,14.89192,35.37111,-17.64587,6.933692,127.8923,-17.10453,-0.4441859,-4.249202,-61.88596,-6.98289,34.57793,0,0,0,36.24566,-51.11576,34.50064,-36.31316,-110.6672,-50.34543,0.001067912,-0.1257102,0.09433498,0,0.3,0,0,0,0,
6.38223E+17,9.518225,15.1257,37.00542,-19.62349,7.226673,124.23,-17.10453,-0.4441859,-4.249202,-61.81271,-6.98289,34.57793,0,0,0,34.55924,-48.34444,37.7651,-36.31316,-110.6672,-50.34543,0.001067912,-0.1257102,0.09433498,0,0.3,0,0,0,0,
6.38223E+17,9.070585,15.17245,37.42567,-20.35595,7.299919,122.6919,-17.10453,-0.4441859,-4.249202,-61.88596,-7.056135,34.57793,0,0,0,33.06618,-47.64784,38.7699,-36.31316,-110.6672,-50.34543,0.001067912,-0.1257102,0.09433498,0,0.3,0,0,0,0,
6.38223E+17,7.821907,15.19583,38.77981,-22.33356,7.226673,120.4945,-17.10453,-0.4441859,-4.249202,-61.88596,-6.98289,34.57793,0,0,0,28.88038,-45.65059,41.88407,-36.31316,-110.6672,-50.34543,0.001067912,-0.1257102,0.09433498,0,0.3,0,0,0,0,
6.38223E+17,6.172709,15.19583,41.11454,-24.97039,6.713957,119.1029,-17.10453,-0.4441859,-4.249202,-61.81271,-7.056135,34.57793,0,0,0,23.26579,-42.16187,46.7695,-36.31316,-110.6672,-50.34543,0.001067912,-0.1257102,0.09433498,0,0.3,0,0,0,0,
6.38223E+17,3.816714,15.21921,44.33646,-28.92563,5.835015,118.5901,-17.10453,-0.4441859,-4.249202,-61.88596,-6.98289,34.57793,0,0,0,14.76861,-37.02227,53.02552,-36.31316,-110.6672,-50.34543,0.001067912,-0.1257102,0.09433498,0,0.3,0,0,0,0,
6.38223E+17,2.073277,15.38286,46.34432,-32.22166,5.175808,118.5169,-17.10453,-0.4441859,-4.249202,-61.88596,-7.056135,34.57793,0,0,0,8.141829,-33.33112,56.55429,-36.31316,-110.6672,-50.34543,0.001067912,-0.1257102,0.09433498,0,0.3,0,0,0,0,
6.38223E+17,1.107318,15.64002,47.23152,-34.27253,4.809582,118.4436,-17.10453,-0.4441859,-4.249202,-61.88596,-6.98289,34.57793,0,0,0,4.373384,-31.24951,57.91309,-36.31316,-110.6672,-50.34543,0.001067912,-0.1257102,0.09433498,0,0.3,0,0,0,0,
6.38223E+17,-0.4947592,16.31799,48.74909,-38.37426,4.150376,118.5169,-17.10453,-0.4441859,-4.249202,-61.88596,-7.056135,34.57793,0,0,0,-1.970823,-27.10827,59.87621,-36.31316,-110.6672,-50.34543,0.001067912,-0.1257102,0.09433498,0,0.3,0,0,0,0,
6.38223E+17,-1.884797,16.85568,50.03319,-41.5238,3.857395,119.7621,-17.10453,-0.4441859,-4.249202,-61.88596,-6.98289,34.57793,0,0,0,-7.558864,-23.6401,61.34836,-36.31316,-110.6672,-50.34543,0.001067912,-0.1257102,0.09433498,0,0.3,0,0,0,0,
6.38223E+17,-2.662276,17.04271,50.45344,-42.9887,3.857395,120.8607,-17.10453,-0.4441859,-4.249202,-61.81271,-6.98289,34.57793,0,0,0,-10.69814,-22.4718,61.72273,-36.31316,-110.6672,-50.34543,0.001067912,-0.1257102,0.09433498,0,0.3,0,0,0,0,
6.38223E+17,-3.981634,17.55703,50.73361,-45.40579,4.296866,122.4721,-17.10453,-0.4441859,-4.249202,-61.81271,-6.98289,34.57793,0,0,0,-15.99678,-20.82511,61.47324,-36.31316,-110.6672,-50.34543,0.001067912,-0.1257102,0.09433498,0,0.3,0,0,0,0,
6.38223E+17,-4.947592,18.65581,50.7803,-47.16368,5.542034,123.7173,-17.10453,-0.4441859,-4.249202,-61.81271,-6.98289,34.57793,0,0,0,-19.80633,-18.31033,60.44761,-36.31316,-110.6672,-50.34543,0.001067912,-0.1257102,0.09433498,0,0.3,0,0,0,0,
6.38223E+17,-5.395231,19.40391,50.75696,-47.89613,6.201241,124.5962,-17.10453,-0.4441859,-4.249202,-61.88596,-6.98289,34.57793,0,0,0,-21.53664,-16.70645,59.68648,-36.31316,-110.6672,-50.34543,0.001067912,-0.1257102,0.09433498,0,0.3,0,0,0,0,
6.38223E+17,-6.502549,21.25079,50.827,-49.28778,7.592898,126.8668,-17.10453,-0.4441859,-4.249202,-61.81271,-7.056135,34.57793,0,0,0,-25.78204,-12.54959,57.84655,-36.31316,-110.6672,-50.34543,0.001067912,-0.1257102,0.09433498,0,0.3,0,0,0,0,
6.38223E+17,-6.973749,22.13916,50.87369,-50.23997,7.959125,128.4782,-17.10453,-0.4441859,-4.249202,-61.88596,-7.056135,34.57793,0,0,0,-27.55691,-10.54419,56.93632,-36.31316,-110.6672,-50.34543,0.001067912,-0.1257102,0.09433498,0,0.3,0,0,0,0,
6.38223E+17,-7.256468,22.55997,50.99043,-50.75269,8.105616,130.9686,-17.10453,-0.4441859,-4.249202,-61.88596,-7.056135,34.57793,0,0,0,-28.64281,-9.427437,56.59803,-36.31316,-110.6672,-50.34543,0.001067912,-0.1257102,0.09433498,0,0.3,0,0,0,0,
6.38223E+17,-7.303588,22.67686,51.15386,-50.75269,8.252106,132.5067,-17.10453,-0.4441859,-4.249202,-61.88596,-7.056135,34.57793,0,0,0,-28.84488,-8.880407,56.70768,-36.31316,-110.6672,-50.34543,0.001067912,-0.1257102,0.09433498,0,0.3,0,0,0,0,
6.38223E+17,-7.397828,23.72888,51.99436,-49.8005,8.105616,136.3887,-17.10453,-0.4441859,-4.249202,-61.88596,-6.98289,34.57793,0,0,0,-29.24734,-5.097533,56.90895,-36.31316,-110.6672,-50.34543,0.001067912,-0.1257102,0.09433498,0,0.3,0,0,0,0,
6.38223E+17,-7.444948,24.36009,52.32122,-49.43428,7.812634,138.0733,-17.10453,-0.4441859,-4.249202,-61.88596,-6.98289,34.57793,0,0,0,-29.4155,-3.155177,56.75407,-36.31316,-110.6672,-50.34543,0.001067912,-0.1257102,0.09433498,0,0.3,0,0,0,0,
6.38223E+17,-7.586308,25.92643,52.71812,-48.92156,6.713957,140.5637,-17.10453,-0.4441859,-4.249202,-61.81271,-6.98289,34.57793,0,0,0,-29.84051,0.8778498,55.70267,-36.31316,-110.6672,-50.34543,0.001067912,-0.1257102,0.09433498,0,0.3,0,0,0,0,
6.38223E+17,-7.586308,26.60439,52.81152,-48.48209,5.322299,141.1496,-17.10453,-0.4441859,-4.249202,-61.81271,-6.98289,34.57793,0,0,0,-29.76569,2.465877,55.14089,-36.31316,-110.6672,-50.34543,0.001067912,-0.1257102,0.09433498,0,0.3,0,0,0,0,
6.38223E+17,-7.586308,26.30048,52.508,-47.82288,4.223621,141.2961,-17.10453,-0.4441859,-4.249202,-61.88596,-7.056135,34.57793,0,0,0,-29.75072,1.270978,55.0285,-36.31316,-110.6672,-50.34543,0.001067912,-0.1257102,0.09433498,0,0.3,0,0,0,0,
6.38223E+17,-7.586308,25.92643,52.15779,-47.38342,3.857395,141.1496,-17.10453,-0.4441859,-4.249202,-61.81271,-6.98289,34.57793,0,0,0,-29.73556,-0.1559141,54.91462,-36.31316,-110.6672,-50.34543,0.001067912,-0.1257102,0.09433498,0,0.3,0,0,0,0,
6.38223E+17,-7.609867,25.64589,51.87762,-47.23692,3.78415,141.1496,-17.10453,-0.4441859,-4.249202,-61.88596,-6.98289,34.57793,0,0,0,-29.81183,-1.257776,54.78615,-36.31316,-110.6672,-50.34543,0.001067912,-0.1257102,0.09433498,0,0.3,0,0,0,0,
6.38223E+17,-7.633427,24.96792,51.17721,-46.72421,3.63766,139.9777,-17.10453,-0.4441859,-4.249202,-61.88596,-6.98289,34.57793,0,0,0,-29.85846,-3.960485,54.4372,-36.31316,-110.6672,-50.34543,0.001067912,-0.1257102,0.09433498,0,0.3,0,0,0,0,
6.38223E+17,-7.727668,24.31333,50.45344,-46.35798,3.63766,137.9269,-17.10453,-0.4441859,-4.249202,-61.88596,-7.056135,34.57793,0,0,0,-30.16716,-6.6509,53.96257,-36.31316,-110.6672,-50.34543,0.001067912,-0.1257102,0.09433498,0,0.3,0,0,0,0,
6.38223E+17,-7.845467,24.00941,49.56625,-46.13824,4.223621,136.8282,-17.10453,-0.4441859,-4.249202,-61.88596,-7.056135,34.57793,0,0,0,-30.48255,-8.878254,52.87233,-36.31316,-110.6672,-50.34543,0.001067912,-0.1257102,0.09433498,0,0.3,0,0,0,0,
6.38223E+17,-7.845467,24.00941,49.21603,-46.065,4.589847,136.7549,-17.10453,-0.4441859,-4.249202,-61.88596,-7.056135,34.57793,0,0,0,-30.41014,-9.497034,52.34677,-36.31316,-110.6672,-50.34543,0.001067912,-0.1257102,0.09433498,0,0.3,0,0,0,0,
6.38223E+17,-7.869027,24.03279,48.37553,-45.55228,5.542034,136.7549,-17.10453,-0.4441859,-4.249202,-61.88596,-6.98289,34.57793,0,0,0,-30.32143,-10.91909,51.03583,-36.31316,-110.6672,-50.34543,0.001067912,-0.1257102,0.09433498,0,0.3,0,0,0,0,
6.38223E+17,-7.845467,24.19644,47.72181,-45.11281,6.494221,136.7549,-17.10453,-0.4441859,-4.249202,-61.81271,-6.98289,34.57793,0,0,0,-30.07114,-11.70299,49.88654,-36.31316,-110.6672,-50.34543,0.001067912,-0.1257102,0.09433498,0,0.3,0,0,0,0,
6.38223E+17,-7.845467,24.61725,46.99805,-44.89308,7.226673,136.7549,-17.10453,-0.4441859,-4.249202,-61.88596,-7.056135,34.57793,0,0,0,-29.86014,-12.05027,48.35527,-36.31316,-110.6672,-50.34543,0.001067912,-0.1257102,0.09433498,0,0.3,0,0,0,0,
6.38223E+17,-7.821907,24.80427,46.55445,-44.81983,7.592898,136.7549,-17.10453,-0.4441859,-4.249202,-61.81271,-7.056135,34.57793,0,0,0,-29.65004,-12.40716,47.48678,-36.31316,-110.6672,-50.34543,0.001067912,-0.1257102,0.09433498,0,0.3,0,0,0,0,
6.38223E+17,-7.633427,25.13157,46.25093,-44.74659,8.105616,136.6817,-17.10453,-0.4441859,-4.249202,-61.88596,-7.056135,34.57793,0,0,0,-28.83245,-12.22818,46.78165,-36.31316,-110.6672,-50.34543,0.001067912,-0.1257102,0.09433498,0,0.3,0,0,0,0,
6.38223E+17,-7.256468,25.15495,46.32097,-44.74659,7.88588,136.7549,-17.10453,-0.4441859,-4.249202,-61.88596,-6.98289,34.57793,0,0,0,-27.42775,-12.0611,47.05551,-36.31316,-110.6672,-50.34543,0.001067912,-0.1257102,0.09433498,0,0.3,0,0,0,0,
6.38223E+17,-6.33763,25.08481,46.29763,-44.52685,7.153428,138.2931,-17.10453,-0.4441859,-4.249202,-61.88596,-7.056135,34.57793,0,0,0,-23.97347,-12.24818,47.49921,-36.31316,-110.6672,-50.34543,0.001067912,-0.1257102,0.09433498,0,0.3,0,0,0,0,
6.38223E+17,-5.772191,25.01468,46.22758,-44.30712,6.713957,139.6115,-17.10453,-0.4441859,-4.249202,-61.81271,-6.98289,34.57793,0,0,0,-21.83779,-12.51384,47.68192,-36.31316,-110.6672,-50.34543,0.001067912,-0.1257102,0.09433498,0,0.3,0,0,0,0,
6.38223E+17,-4.240793,24.68738,45.76064,-43.06195,5.688524,140.9299,-17.10453,-0.4441859,-4.249202,-61.88596,-6.98289,34.57793,0,0,0,-16.02443,-13.98672,47.75468,-36.31316,-110.6672,-50.34543,0.001067912,-0.1257102,0.09433498,0,0.3,0,0,0,0,
6.38223E+17,-2.026157,24.50036,44.99018,-40.93784,4.663092,141.2961,-17.10453,-0.4441859,-4.249202,-61.88596,-7.056135,34.57793,0,0,0,-7.623386,-15.65875,47.13471,-36.31316,-110.6672,-50.34543,0.001067912,-0.1257102,0.09433498,0,0.3,0,0,0,0,
6.38223E+17,-0.7067988,24.4536,44.42985,-39.54618,4.223621,141.2961,-17.10453,-0.4441859,-4.249202,-61.81271,-6.98289,34.57793,0,0,0,-2.648931,-16.67526,46.37146,-36.31316,-110.6672,-50.34543,0.001067912,-0.1257102,0.09433498,0,0.3,0,0,0,0,
6.38223E+17,1.837677,24.19644,43.23914,-36.32339,3.857395,141.2961,-17.10453,-0.4441859,-4.249202,-61.88596,-6.98289,34.57793,0,0,0,6.830017,-19.13991,44.52581,-36.31316,-110.6672,-50.34543,0.001067912,-0.1257102,0.09433498,0,0.3,0,0,0,0,
6.38223E+17,4.287913,23.75225,42.25855,-32.66114,3.78415,141.1496,-17.10453,-0.4441859,-4.249202,-61.88596,-7.056135,34.57793,0,0,0,15.83067,-21.63363,42.78687,-36.31316,-110.6672,-50.34543,0.001067912,-0.1257102,0.09433498,0,0.3,0,0,0,0,
6.38223E+17,6.761709,23.09766,41.46474,-28.92563,3.78415,140.6369,-17.10453,-0.4441859,-4.249202,-61.88596,-7.056135,34.57793,0,0,0,24.83841,-24.26444,41.1419,-36.31316,-110.6672,-50.34543,0.001067912,-0.1257102,0.09433498,0,0.3,0,0,0,0,
6.38223E+17,7.986827,22.79375,41.18458,-26.94801,3.78415,140.1975,-17.10453,-0.4441859,-4.249202,-61.88596,-7.056135,34.57793,0,0,0,29.2821,-25.34638,40.3511,-36.31316,-110.6672,-50.34543,0.001067912,-0.1257102,0.09433498,0,0.3,0,0,0,0,
6.38223E+17,10.6491,22.51321,40.81102,-22.69979,3.857395,138.4396,-17.10453,-0.4441859,-4.249202,-61.88596,-6.98289,34.65118,0,0,0,38.86961,-26.51929,38.368,-36.31316,-110.6672,-50.34543,0.001067912,-0.1257102,0.09433498,0,0.3,0,0,0,0,
6.38223E+17,13.0051,22.48983,40.74098,-19.11078,4.150376,136.5352,-17.10453,-0.4441859,-4.249202,-61.81271,-6.98289,34.57793,0,0,0,47.31149,-26.67603,36.4954,-36.31316,-110.6672,-50.34543,0.001067912,-0.1257102,0.09433498,0,0.3,0,0,0,0,
6.38223E+17,15.52601,22.55997,40.9978,-15.88799,4.516602,134.3379,-17.10453,-0.4441859,-4.249202,-61.88596,-6.98289,34.57793,0,0,0,56.37989,-26.13414,34.59146,-36.31316,-110.6672,-50.34543,0.001067912,-0.1257102,0.09433498,0,0.3,0,0,0,0,
6.38223E+17,16.79825,22.65348,41.18458,-14.49633,4.736337,133.0194,-17.10453,-0.4441859,-4.249202,-61.88596,-6.98289,34.57793,0,0,0,60.94239,-25.6475,33.52319,-36.31316,-110.6672,-50.34543,0.001067912,-0.1257102,0.09433498,0,0.3,0,0,0,0,
6.38223E+17,19.62545,22.8405,41.67487,-11.56653,5.102563,129.8699,-17.10453,-0.4441859,-4.249202,-61.88596,-6.98289,34.57793,0,0,0,71.0562,-24.49101,30.91889,-36.31316,-110.6672,-50.34543,0.001067912,-0.1257102,0.09433498,0,0.3,0,0,0,0,
6.38223E+17,22.38196,23.02753,42.74884,-8.563474,4.663092,127.5261,-17.10453,-0.4441859,-4.249202,-61.88596,-6.98289,34.57793,0,0,0,81.19753,-22.41076,28.82611,-36.31316,-110.6672,-50.34543,0.001067912,-0.1257102,0.09433498,0,0.3,0,0,0,0,
6.38223E+17,24.7144,23.12104,44.07964,-6.073137,3.93064,125.4752,-17.10453,-0.4441859,-4.249202,-61.88596,-6.98289,34.57793,0,0,0,90.0598,-20.08192,27.32449,-36.31316,-110.6672,-50.34543,0.001067912,-0.1257102,0.09433498,0,0.3,0,0,0,0,
6.38223E+17,25.70392,23.12104,44.82675,-5.047705,3.710905,124.3033,-17.10453,-0.4441859,-4.249202,-61.88596,-7.056135,34.57793,0,0,0,93.9639,-18.86418,26.85841,-36.31316,-110.6672,-50.34543,0.001067912,-0.1257102,0.09433498,0,0.3,0,0,0,0,
6.38223E+17,27.75363,23.14442,46.55445,-2.85035,3.124943,121.7397,-17.10453,-0.4441859,-4.249202,-61.81271,-6.98289,34.57793,0,0,0,102.1837,-15.93689,25.83941,-36.31316,-110.6672,-50.34543,0.001067912,-0.1257102,0.09433498,0,0.3,0,0,0,0,
6.38223E+17,29.33215,23.19118,48.09537,-0.8727306,2.172756,119.5423,-17.10453,-0.4441859,-4.249202,-61.88596,-7.056135,34.57793,0,0,0,108.6641,-13.20022,25.03279,-36.31316,-110.6672,-50.34543,0.001067912,-0.1257102,0.09433498,0,0.3,0,0,0,0,
6.38223E+17,30.01539,23.23793,49.146,0.07945653,1.66004,118.7366,-17.10453,-0.4441859,-4.249202,-61.81271,-6.98289,34.57793,0,0,0,111.7495,-11.26546,25.08574,-36.31316,-110.6672,-50.34543,0.001067912,-0.1257102,0.09433498,0,0.3,0,0,0,0,
6.38223E+17,31.14627,23.33145,51.36399,1.617605,0.268382,117.2717,-17.10453,-0.4441859,-4.249202,-61.88596,-7.056135,34.57793,0,0,0,117.2079,-7.096632,25.59349,-36.31316,-110.6672,-50.34543,0.001067912,-0.1257102,0.09433498,0,0.3,0,0,0,0,
6.38223E+17,32.11223,23.42496,53.81545,2.789528,-1.416257,115.8801,-17.10453,-0.4441859,-4.249202,-61.88596,-6.98289,34.57793,0,0,0,122.2573,-2.365272,26.45254,-36.31316,-110.6672,-50.34543,0.001067912,-0.1257102,0.09433498,0,0.3,0,0,0,0,
6.38223E+17,32.74835,23.44834,55.4731,3.521979,-2.368444,115.2209,-17.10453,-0.4441859,-4.249202,-61.88596,-6.98289,34.57793,0,0,0,125.6084,0.8310473,26.94256,-36.31316,-110.6672,-50.34543,0.001067912,-0.1257102,0.09433498,0,0.3,0,0,0,0,
6.38223E+17,34.02058,23.61198,58.71837,5.353109,-4.785534,113.9025,-17.10453,-0.4441859,-4.249202,-61.81271,-6.98289,34.57793,0,0,0,132.1238,7.520772,27.37985,-36.31316,-110.6672,-50.34543,0.001067912,-0.1257102,0.09433498,0,0.3,0,0,0,0,
6.38223E+17,34.63314,23.89252,61.30993,7.184238,-7.12938,113.0235,-17.10453,-0.4441859,-4.249202,-61.88596,-6.98289,34.57793,0,0,0,135.7724,13.34217,28.21988,-36.31316,-110.6672,-50.34543,0.001067912,-0.1257102,0.09433498,0,0.3,0,0,0,0,
6.38223E+17,34.91586,24.66401,63.80808,8.722386,-9.692961,112.3643,-17.10453,-0.4441859,-4.249202,-61.88596,-6.98289,34.57793,0,0,0,137.8516,20.13851,29.13907,-36.31316,-110.6672,-50.34543,0.001067912,-0.1257102,0.09433498,0,0.3,0,0,0,0,
6.38223E+17,34.96298,25.13157,64.64858,9.308348,-10.93813,112.1446,-17.10453,-0.4441859,-4.249202,-61.88596,-7.056135,34.57793,0,0,0,138.2388,22.88717,29.34719,-36.31316,-110.6672,-50.34543,0.001067912,-0.1257102,0.09433498,0,0.3,0,0,0,0,
6.38223E+17,34.96298,26.01994,65.97938,9.967555,-13.35522,111.7783,-17.10453,-0.4441859,-4.249202,-61.88596,-6.98289,34.57793,0,0,0,138.4686,27.56631,29.67579,-36.31316,-110.6672,-50.34543,0.001067912,-0.1257102,0.09433498,0,0.3,0,0,0,0,
6.38223E+17,35.08078,26.37061,67.56699,10.18729,-15.99205,111.4854,-17.10453,-0.4441859,-4.249202,-61.81271,-6.98289,34.57793,0,0,0,139.5058,31.69407,30.28831,-36.31316,-110.6672,-50.34543,0.001067912,-0.1257102,0.09433498,0,0.3,0,0,0,0,
6.38223E+17,35.17502,26.39399,68.33745,10.26054,-17.16397,111.2656,-17.10453,-0.4441859,-4.249202,-61.88596,-6.98289,34.57793,0,0,0,140.2062,33.40483,30.58902,-36.31316,-110.6672,-50.34543,0.001067912,-0.1257102,0.09433498,0,0.3,0,0,0,0,
6.38223E+17,35.29282,26.39399,69.43477,10.33378,-19.06834,110.6797,-17.10453,-0.4441859,-4.249202,-61.88596,-7.056135,34.57793,0,0,0,141.1464,35.78724,31.05121,-36.31316,-110.6672,-50.34543,0.001067912,-0.1257102,0.09433498,0,0.3,0,0,0,0,
6.38223E+17,35.41062,26.39399,69.85503,10.33378,-20.53325,110.3134,-17.10453,-0.4441859,-4.249202,-61.88596,-7.056135,34.57793,0,0,0,141.7532,36.70425,31.03788,-36.31316,-110.6672,-50.34543,0.001067912,-0.1257102,0.09433498,0,0.3,0,0,0,0,
6.38223E+17,35.55198,26.34723,69.69159,10.33378,-21.11921,110.2402,-17.10453,-0.4441859,-4.249202,-61.88596,-6.98289,34.57793,0,0,0,142.1964,36.24985,30.61987,-36.31316,-110.6672,-50.34543,0.001067912,-0.1257102,0.09433498,0,0.3,0,0,0,0,
6.38223E+17,35.64622,26.34723,69.48147,10.33378,-21.11921,110.1669,-17.10453,-0.4441859,-4.249202,-61.88596,-6.98289,34.57793,0,0,0,142.424,35.79152,30.24711,-36.31316,-110.6672,-50.34543,0.001067912,-0.1257102,0.09433498,0,0.3,0,0,0,0,
6.38223E+17,35.76402,26.30048,68.80439,10.48027,-20.89947,110.1669,-17.10453,-0.4441859,-4.249202,-61.81271,-7.056135,34.57793,0,0,0,142.5323,34.22144,29.53777,-36.31316,-110.6672,-50.34543,0.001067912,-0.1257102,0.09433498,0,0.3,0,0,0,0,
6.38223E+17,35.78758,26.23034,67.66038,10.70001,-20.16702,110.0937,-17.10453,-0.4441859,-4.249202,-61.88596,-7.056135,34.57793,0,0,0,142.0785,31.60237,28.73679,-36.31316,-110.6672,-50.34543,0.001067912,-0.1257102,0.09433498,0,0.3,0,0,0,0,
6.38223E+17,35.78758,26.23034,66.91327,10.8465,-19.14159,110.1669,-17.10453,-0.4441859,-4.249202,-61.88596,-7.056135,34.57793,0,0,0,141.6859,29.9984,28.19216,-36.31316,-110.6672,-50.34543,0.001067912,-0.1257102,0.09433498,0,0.3,0,0,0,0,
6.38223E+17,35.78758,26.23034,66.56306,10.91974,-18.40914,110.1669,-17.10453,-0.4441859,-4.249202,-61.88596,-7.056135,34.57793,0,0,0,141.4977,29.24959,27.93104,-36.31316,-110.6672,-50.34543,0.001067912,-0.1257102,0.09433498,0,0.3,0,0,0,0,
6.38223E+17,35.78758,26.23034,65.97938,11.06623,-17.09072,110.2402,-17.10453,-0.4441859,-4.249202,-61.88596,-6.98289,34.57793,0,0,0,141.178,28.00598,27.4876,-36.31316,-110.6672,-50.34543,0.001067912,-0.1257102,0.09433498,0,0.3,0,0,0,0,
6.38223E+17,35.78758,26.23034,65.349,11.21272,-16.13853,110.3867,-17.10453,-0.4441859,-4.249202,-61.88596,-6.98289,34.57793,0,0,0,140.8245,26.66921,26.99717,-36.31316,-110.6672,-50.34543,0.001067912,-0.1257102,0.09433498,0,0.3,0,0,0,0,
6.38223E+17,35.76402,26.23034,64.99879,11.21272,-15.77231,110.4599,-17.10453,-0.4441859,-4.249202,-61.81271,-6.98289,34.57793,0,0,0,140.5441,25.92946,26.77737,-36.31316,-110.6672,-50.34543,0.001067912,-0.1257102,0.09433498,0,0.3,0,0,0,0,
6.38223E+17,35.76402,26.16021,63.94816,11.28597,-15.03986,110.6797,-17.10453,-0.4441859,-4.249202,-61.81271,-7.056135,34.57793,0,0,0,139.9704,23.57649,25.98083,-36.31316,-110.6672,-50.34543,0.001067912,-0.1257102,0.09433498,0,0.3,0,0,0,0,
6.38223E+17,35.76402,26.04332,62.05703,11.28597,-14.01443,111.0459,-17.10453,-0.4441859,-4.249202,-61.81271,-6.98289,34.57793,0,0,0,138.8727,19.41059,24.45677,-36.31316,-110.6672,-50.34543,0.001067912,-0.1257102,0.09433498,0,0.3,0,0,0,0,
6.38223E+17,35.69334,25.76278,59.67561,11.28597,-12.54952,111.6319,-17.10453,-0.4441859,-4.249202,-61.81271,-7.056135,34.57793,0,0,0,137.2269,13.9823,22.66827,-36.31316,-110.6672,-50.34543,0.001067912,-0.1257102,0.09433498,0,0.3,0,0,0,0,
6.38223E+17,35.62266,25.43548,58.29812,11.28597,-11.59733,112.1446,-17.10453,-0.4441859,-4.249202,-61.88596,-6.98289,34.65118,0,0,0,136.2208,10.54773,21.76226,-36.31316,-110.6672,-50.34543,0.001067912,-0.1257102,0.09433498,0,0.3,0,0,0,0,
6.38223E+17,35.50486,24.96792,56.82725,11.28597,-10.35217,112.584,-17.10453,-0.4441859,-4.249202,-61.88596,-7.056135,34.57793,0,0,0,135.0323,6.673982,20.9244,-36.31316,-110.6672,-50.34543,0.001067912,-0.1257102,0.09433498,0,0.3,0,0,0,0,
6.38223E+17,35.22214,24.28995,54.81938,11.21272,-8.594284,112.9503,-17.10453,-0.4441859,-4.249202,-61.88596,-6.98289,34.57793,0,0,0,132.9621,1.373739,19.98118,-36.31316,-110.6672,-50.34543,0.001067912,-0.1257102,0.09433498,0,0.3,0,0,0,0,
6.38223E+17,34.72738,23.30807,52.92825,10.91974,-6.763155,113.0235,-17.10453,-0.4441859,-4.249202,-61.88596,-6.98289,34.57793,0,0,0,130.378,-4.272093,19.74759,-36.31316,-110.6672,-50.34543,0.001067912,-0.1257102,0.09433498,0,0.3,0,0,0,0,
6.38223E+17,34.39754,22.77037,52.0644,10.70001,-5.957458,113.0968,-17.10453,-0.4441859,-4.249202,-61.88596,-6.98289,34.57793,0,0,0,128.8782,-7.018667,19.88917,-36.31316,-110.6672,-50.34543,0.001067912,-0.1257102,0.09433498,0,0.3,0,0,0,0,
6.38223E+17,33.57294,21.39106,49.79972,10.18729,-3.979838,113.6827,-17.10453,-0.4441859,-4.249202,-61.88596,-6.98289,34.57793,0,0,0,124.9863,-14.08535,19.96229,-36.31316,-110.6672,-50.34543,0.001067912,-0.1257102,0.09433498,0,0.3,0,0,0,0,
6.38223E+17,32.72478,19.77796,47.53503,9.381593,-2.002218,114.0489,-17.10453,-0.4441859,-4.249202,-61.81271,-6.98289,34.57793,0,0,0,121.0169,-21.55739,19.97391,-36.31316,-110.6672,-50.34543,0.001067912,-0.1257102,0.09433498,0,0.3,0,0,0,0,
6.38223E+17,31.78239,17.95446,45.71395,8.136425,0.1951368,114.1954,-17.10453,-0.4441859,-4.249202,-61.88596,-7.056135,34.57793,0,0,0,117.0928,-28.65384,20.63108,-36.31316,-110.6672,-50.34543,0.001067912,-0.1257102,0.09433498,0,0.3,0,0,0,0,
6.38223E+17,31.28763,17.06609,44.8501,7.403974,1.000834,114.1954,-17.10453,-0.4441859,-4.249202,-61.88596,-7.056135,34.57793,0,0,0,115.045,-32.05423,20.95786,-36.31316,-110.6672,-50.34543,0.001067912,-0.1257102,0.09433498,0,0.3,0,0,0,0,
