zeyangz2/DNN_classification_different_people_hand/data/frank_right_20.csv
Timestamp,Therapist joint angle 0,Therapist joint angle 1,Therapist joint angle 2,Therapist joint angle 3,Therapist joint angle 4,Therapist joint angle 5,Patient joint angle 0,Patient joint angle 1,Patient joint angle 2,Patient joint angle 3,Patient joint angle 4,Patient joint angle 5,Virtual joint angle 0,Virtual joint angle 1,Virtual joint angle 2,Therapist position x,Therapist position y,Therapist position z,Patient position x,Patient position y,Patient position z,Virtual position x,Virtual position y,Virtual position z,Assistive Force, Obstacle Force Magnitude, Therapist Constant Force, Patient Constant Force, Recovery Factor, Assistance Level,label
6.38224E+17,0,0,0,0,0,0,0,0,0,0,0,0,0,0,0,0,0,0,0,0,0,0,0,0,0,0.3,0,0,0,0,1
6.38224E+17,40.5467,1.613096,-6.23372,-97.04363,-10.20568,-57.12502,-17.01029,-0.4441859,-4.27255,-61.51973,-6.98289,34.57793,0,0,0,77.23935,-105.4577,-78.06344,-36.10317,-110.6632,-50.33768,0.001067912,-0.1257102,0.09433498,0,0.3,0,0,0,0,
6.38224E+17,40.5467,1.613096,-6.23372,-97.04363,-10.20568,-57.12502,-17.01029,-0.4441859,-4.27255,-61.51973,-6.98289,34.57793,0,0,0,77.23935,-105.4577,-78.06344,-36.10317,-110.6632,-50.33768,0.001067912,-0.1257102,0.09433498,0,0.3,0,0,0,0,
6.38224E+17,40.5467,1.613096,-6.23372,-97.04363,-10.20568,-57.12502,-17.01029,-0.4441859,-4.27255,-61.51973,-6.909645,34.57793,0,0,0,77.23935,-105.4577,-78.06344,-36.10317,-110.6632,-50.33768,0.001067912,-0.1257102,0.09433498,0,0.3,0,0,6.53E-08,0,
6.38224E+17,40.5467,1.613096,-6.23372,-97.04363,-10.20568,-57.12502,-17.01029,-0.4441859,-4.27255,-61.51973,-6.98289,34.57793,0,0,0,77.23935,-105.4577,-78.06344,-36.10317,-110.6632,-50.33768,0.001067912,-0.1257102,0.09433498,0,0.3,0,0,6.53E-08,0,
6.38224E+17,40.5467,1.613096,-6.23372,-97.04363,-10.20568,-57.12502,-17.01029,-0.4441859,-4.27255,-61.44649,-6.909645,34.57793,0,0,0,77.23935,-105.4577,-78.06344,-36.10317,-110.6632,-50.33768,0.001067912,-0.1257102,0.09433498,0,0.3,0,0,0,0,
6.38224E+17,40.5467,1.613096,-6.23372,-97.04363,-10.13243,-57.12502,-17.01029,-0.4441859,-4.27255,-61.51973,-6.98289,34.57793,0,0,0,77.23935,-105.4577,-78.06344,-36.10317,-110.6632,-50.33768,0.001067912,-0.1257102,0.09433498,0,0.3,0,0,6.53E-08,0,
6.38224E+17,40.5467,1.613096,-6.23372,-97.04363,-10.13243,-57.12502,-17.01029,-0.4441859,-4.27255,-61.44649,-6.98289,34.57793,0,0,0,77.23935,-105.4577,-78.06344,-36.10317,-110.6632,-50.33768,0.001067912,-0.1257102,0.09433498,0,0.3,0,0,6.53E-08,0,
6.38224E+17,40.5467,1.613096,-6.23372,-97.04363,-10.20568,-57.12502,-17.01029,-0.4441859,-4.27255,-61.51973,-6.98289,34.57793,0,0,0,77.23935,-105.4577,-78.06344,-36.10317,-110.6632,-50.33768,0.001067912,-0.1257102,0.09433498,0,0.3,0,0,6.53E-08,0,
6.38224E+17,40.5467,1.613096,-6.23372,-97.04363,-10.20568,-57.12502,-17.01029,-0.4441859,-4.27255,-61.51973,-6.98289,34.57793,0,0,0,77.23935,-105.4577,-78.06344,-36.10317,-110.6632,-50.33768,0.001067912,-0.1257102,0.09433498,0,0.3,0,0,6.53E-08,0,
6.38224E+17,40.5467,1.613096,-6.23372,-97.04363,-10.20568,-57.12502,-17.01029,-0.4441859,-4.27255,-61.51973,-6.98289,34.57793,0,0,0,77.23935,-105.4577,-78.06344,-36.10317,-110.6632,-50.33768,0.001067912,-0.1257102,0.09433498,0,0.3,0,0,0,0,
6.38224E+17,40.5467,1.613096,-6.23372,-97.04363,-10.20568,-57.12502,-17.01029,-0.4441859,-4.27255,-61.51973,-6.98289,34.57793,0,0,0,77.23935,-105.4577,-78.06344,-36.10317,-110.6632,-50.33768,0.001067912,-0.1257102,0.09433498,0,0.3,0,0,0,0,
6.38224E+17,40.5467,1.613096,-6.23372,-97.04363,-10.20568,-57.12502,-17.01029,-0.4441859,-4.27255,-61.44649,-6.909645,34.57793,0,0,0,77.23935,-105.4577,-78.06344,-36.10317,-110.6632,-50.33768,0.001067912,-0.1257102,0.09433498,0,0.3,0,0,0,0,
6.38224E+17,40.5467,1.613096,-6.23372,-97.04363,-10.20568,-57.12502,-17.01029,-0.4441859,-4.27255,-61.51973,-6.98289,34.57793,0,0,0,77.23935,-105.4577,-78.06344,-36.10317,-110.6632,-50.33768,0.001067912,-0.1257102,0.09433498,0,0.3,0,0,0,0,
6.38224E+17,40.5467,1.613096,-6.23372,-97.04363,-10.13243,-57.12502,-17.01029,-0.4441859,-4.27255,-61.51973,-6.98289,34.57793,0,0,0,77.23935,-105.4577,-78.06344,-36.10317,-110.6632,-50.33768,0.001067912,-0.1257102,0.09433498,0,0.3,0,0,0,0,
6.38224E+17,40.5467,1.613096,-6.23372,-97.04363,-10.13243,-57.12502,-17.01029,-0.4441859,-4.27255,-61.44649,-6.909645,34.57793,0,0,0,77.23935,-105.4577,-78.06344,-36.10317,-110.6632,-50.33768,0.001067912,-0.1257102,0.09433498,0,0.3,0,0,0,0,
6.38224E+17,40.5467,1.613096,-6.23372,-97.04363,-10.13243,-57.12502,-17.01029,-0.4441859,-4.27255,-61.44649,-6.98289,34.57793,0,0,0,77.23935,-105.4577,-78.06344,-36.10317,-110.6632,-50.33768,0.001067912,-0.1257102,0.09433498,0,0.3,0,0,0,0,
6.38224E+17,40.5467,1.613096,-6.23372,-97.04363,-10.13243,-57.12502,-17.01029,-0.4441859,-4.27255,-61.44649,-6.98289,34.57793,0,0,0,77.23935,-105.4577,-78.06344,-36.10317,-110.6632,-50.33768,0.001067912,-0.1257102,0.09433498,0,0.3,0,0,0,0,
6.38224E+17,40.5467,1.613096,-6.23372,-97.04363,-10.13243,-57.12502,-17.01029,-0.4441859,-4.27255,-61.51973,-6.98289,34.57793,0,0,0,77.23935,-105.4577,-78.06344,-36.10317,-110.6632,-50.33768,0.001067912,-0.1257102,0.09433498,0,0.3,0,0,0,0,
6.38224E+17,40.5467,1.613096,-6.23372,-97.04363,-10.13243,-57.12502,-17.01029,-0.4441859,-4.27255,-61.51973,-6.98289,34.57793,0,0,0,77.23935,-105.4577,-78.06344,-36.10317,-110.6632,-50.33768,0.001067912,-0.1257102,0.09433498,0,0.3,0,0,0,0,
6.38224E+17,40.5467,1.589718,-6.23372,-97.04363,-10.20568,-57.12502,-17.01029,-0.4441859,-4.27255,-61.44649,-6.98289,34.57793,0,0,0,77.24033,-105.5121,-78.06229,-36.10317,-110.6632,-50.33768,0.001067912,-0.1257102,0.09433498,0,0.3,0,0,0,0,
6.38224E+17,40.5467,1.589718,-6.23372,-97.04363,-10.13243,-57.12502,-17.01029,-0.4441859,-4.27255,-61.44649,-6.98289,34.57793,0,0,0,77.24033,-105.5121,-78.06229,-36.10317,-110.6632,-50.33768,0.001067912,-0.1257102,0.09433498,0,0.3,0,0,7.19E-07,0,
6.38224E+17,40.5467,1.589718,-6.23372,-97.04363,-10.20568,-57.12502,-17.01029,-0.4441859,-4.27255,-61.51973,-6.98289,34.57793,0,0,0,77.24033,-105.5121,-78.06229,-36.10317,-110.6632,-50.33768,0.001067912,-0.1257102,0.09433498,0,0.3,0,0,1.37E-06,0,
6.38224E+17,40.5467,1.589718,-6.23372,-97.04363,-10.13243,-57.12502,-17.01029,-0.4441859,-4.27255,-61.51973,-6.98289,34.57793,0,0,0,77.24033,-105.5121,-78.06229,-36.10317,-110.6632,-50.33768,0.001067912,-0.1257102,0.09433498,0,0.3,0,0,1.96E-06,0,
6.38224E+17,40.5467,1.589718,-6.23372,-97.04363,-10.13243,-57.12502,-17.01029,-0.4441859,-4.27255,-61.51973,-6.98289,34.57793,0,0,0,77.24033,-105.5121,-78.06229,-36.10317,-110.6632,-50.33768,0.001067912,-0.1257102,0.09433498,0,0.3,0,0,2.29E-06,0,
6.38224E+17,40.5467,1.589718,-6.23372,-97.04363,-10.13243,-57.12502,-17.01029,-0.4441859,-4.27255,-61.51973,-6.98289,34.57793,0,0,0,77.24033,-105.5121,-78.06229,-36.10317,-110.6632,-50.33768,0.001067912,-0.1257102,0.09433498,0,0.3,0,0,2.81E-06,0,
6.38224E+17,40.5467,1.589718,-6.23372,-97.04363,-10.20568,-57.12502,-17.01029,-0.4441859,-4.27255,-61.44649,-6.98289,34.57793,0,0,0,77.24033,-105.5121,-78.06229,-36.10317,-110.6632,-50.33768,0.001067912,-0.1257102,0.09433498,0,0.3,0,0,3.27E-06,0,
6.38224E+17,40.26397,1.285801,-6.840749,-96.82391,-10.13243,-57.12502,-17.01029,-0.4441859,-4.27255,-61.51973,-6.98289,34.57793,0,0,0,75.89819,-106.0584,-78.73976,-36.10317,-110.6632,-50.33768,0.001067912,-0.1257102,0.09433498,0,0.3,0,0,0.000214903,0,
6.38224E+17,38.40274,-0.6779679,-8.101501,-95.13927,-10.20568,-59.17588,-17.01029,-0.4441859,-4.27255,-61.51973,-6.98289,34.57793,0,0,0,71.15554,-110.247,-78.58286,-36.10317,-110.6632,-50.33768,0.001067912,-0.1257102,0.09433498,0,0.3,0,0,0.001871285,0,
6.38224E+17,35.97606,-0.9585064,-8.124848,-94.40681,-9.180244,-66.64689,-17.01029,-0.4441859,-4.27255,-61.44649,-6.98289,34.57793,0,0,0,67.25384,-110.8922,-75.70165,-36.10317,-110.6632,-50.33768,0.001067912,-0.1257102,0.09433498,0,0.3,0,0,0.004917022,0,
6.38224E+17,33.62006,-1.005263,-7.564514,-94.5533,-8.228058,-79.31831,-17.01029,-0.4441859,-4.27255,-61.44649,-6.98289,34.57793,0,0,0,64.10265,-111.179,-71.94102,-36.10317,-110.6632,-50.33768,0.001067912,-0.1257102,0.09433498,0,0.3,0,0,0.00908587,0,
6.38224E+17,32.74835,-0.9818845,-7.167611,-94.77303,-7.861832,-82.98056,-17.01029,-0.4441859,-4.27255,-61.44649,-6.909645,34.57793,0,0,0,63.12457,-111.243,-70.20564,-36.10317,-110.6632,-50.33768,0.001067912,-0.1257102,0.09433498,0,0.3,0,0,0.01139127,0,
6.38224E+17,31.71171,-0.9818845,-6.49054,-95.28575,-7.349115,-83.63977,-17.01029,-0.4441859,-4.27255,-61.44649,-6.909645,34.57793,0,0,0,62.16107,-111.4304,-67.74863,-36.10317,-110.6632,-50.33768,0.001067912,-0.1257102,0.09433498,0,0.3,0,0,0.01610495,0,
6.38224E+17,30.86355,-0.9585064,-5.369871,-95.65198,-7.202625,-77.41393,-17.01029,-0.4441859,-4.27255,-61.51973,-6.909645,34.57793,0,0,0,61.9964,-111.6455,-64.61184,-36.10317,-110.6632,-50.33768,0.001067912,-0.1257102,0.09433498,0,0.3,0,0,0.02071131,0,
6.38224E+17,28.22483,-0.9585064,-3.151881,-95.65198,-6.98289,-70.08942,-17.01029,-0.4441859,-4.27255,-61.51973,-6.98289,34.57793,0,0,0,59.58922,-112.029,-57.33214,-36.10317,-110.6632,-50.33768,0.001067912,-0.1257102,0.09433498,0,0.3,0,0,0.02564107,0,
6.38224E+17,25.13848,-0.9585064,-1.424183,-96.09145,-6.836399,-63.79033,-17.01029,-0.4441859,-4.27255,-61.44649,-6.98289,34.57793,0,0,0,55.23221,-112.1895,-50.64769,-36.10317,-110.6632,-50.33768,0.001067912,-0.1257102,0.09433498,0,0.3,0,0,0.0314326,0,
6.38224E+17,23.11232,-0.9351282,-0.4435981,-97.04363,-6.763155,-58.51668,-17.01029,-0.4441859,-4.27255,-61.51973,-6.98289,34.57793,0,0,0,51.9323,-112.1723,-46.66895,-36.10317,-110.6632,-50.33768,0.001067912,-0.1257102,0.09433498,0,0.3,0,0,0.0348306,0,
6.38224E+17,19.22493,-0.9117499,1.260752,-99.60722,-6.689909,-48.18911,-17.01029,-0.4441859,-4.27255,-61.51973,-6.98289,34.57793,0,0,0,44.86971,-112.0896,-39.68203,-36.10317,-110.6632,-50.33768,0.001067912,-0.1257102,0.09433498,0,0.3,0,0,0.04260609,0,
6.38224E+17,15.57313,-0.6078333,2.754977,-101.5116,-6.543418,-40.20539,-17.01029,-0.4441859,-4.27255,-61.51973,-6.98289,34.57793,0,0,0,37.51895,-111.2605,-33.72855,-36.10317,-110.6632,-50.33768,0.001067912,-0.1257102,0.09433498,0,0.3,0,0,0.05150234,0,
6.38224E+17,13.75902,-0.3272949,3.735562,-101.9511,-6.470173,-37.05584,-17.01029,-0.4441859,-4.27255,-61.51973,-6.98289,34.57793,0,0,0,33.78162,-110.4784,-30.38997,-36.10317,-110.6632,-50.33768,0.001067912,-0.1257102,0.09433498,0,0.3,0,0,0.05630041,0,
6.38224E+17,10.31926,0.3740513,6.023595,-102.4638,-5.591231,-30.75676,-17.01029,-0.4441859,-4.27255,-61.44649,-6.909645,34.57793,0,0,0,26.39357,-108.3932,-23.39261,-36.10317,-110.6632,-50.33768,0.001067912,-0.1257102,0.09433498,0,0.3,0,0,0.0663423,0,
6.38224E+17,7.185789,0.9818845,8.70853,-102.9765,-2.514934,-21.96734,-17.01029,-0.4441859,-4.27255,-61.44649,-6.909645,34.57793,0,0,0,19.20346,-106.1775,-16.03511,-36.10317,-110.6632,-50.33768,0.001067912,-0.1257102,0.09433498,0,0.3,0,0,0.07661961,0,
6.38224E+17,5.79575,1.192288,10.03932,-102.6835,0.1218917,-16.76693,-17.01029,-0.4441859,-4.27255,-61.51973,-6.98289,34.57793,0,0,0,15.81055,-105.1835,-12.5831,-36.10317,-110.6632,-50.33768,0.001067912,-0.1257102,0.09433498,0,0.3,0,0,0.0817128,0,
6.38224E+17,2.968555,1.285801,13.21455,-97.70284,10.37621,0.4456824,-17.01029,-0.4441859,-4.27255,-61.44649,-6.98289,34.57793,0,0,0,8.482855,-103.4767,-4.769818,-36.10317,-110.6632,-50.33768,0.001067912,-0.1257102,0.09433498,0,0.3,0,0,0.0915522,0,
6.38224E+17,1.790557,1.332558,13.84493,-91.11078,17.33451,13.62981,-17.01029,-0.4441859,-4.27255,-61.44649,-6.98289,34.57793,0,0,0,5.162591,-103.0247,-3.206764,-36.10317,-110.6632,-50.33768,0.001067912,-0.1257102,0.09433498,0,0.3,0,0,0.1010217,0,
6.38224E+17,0.5418791,1.519583,15.61932,-78.6591,25.39147,35.60336,-17.01029,-0.4441859,-4.27255,-61.44649,-6.98289,34.57793,0,0,0,1.600263,-101.5394,0.8493026,-36.10317,-110.6632,-50.33768,0.001067912,-0.1257102,0.09433498,0,0.3,0,0,0.1100713,0,
6.38224E+17,-0.09423985,1.519583,18.44434,-74.26439,28.39453,46.59014,-17.01029,-0.4441859,-4.27255,-61.44649,-6.98289,34.57793,0,0,0,-0.2886497,-99.61375,7.142573,-36.10317,-110.6632,-50.33768,0.001067912,-0.1257102,0.09433498,0,0.3,0,0,0.1138517,0,
6.38224E+17,-1.649197,1.776743,23.44065,-69.06399,33.08222,67.31852,-17.01029,-0.4441859,-4.27255,-61.51973,-6.98289,34.57793,0,0,0,-5.362636,-94.86044,17.9052,-36.10317,-110.6632,-50.33768,0.001067912,-0.1257102,0.09433498,0,0.3,0,0,0.1198622,0,
6.38224E+17,-3.439754,3.039166,26.33572,-66.28067,36.45149,82.26054,-17.01029,-0.4441859,-4.27255,-61.51973,-6.98289,34.57793,0,0,0,-11.53903,-89.08958,23.62402,-36.10317,-110.6632,-50.33768,0.001067912,-0.1257102,0.09433498,0,0.3,0,0,0.1245322,0,
6.38224E+17,-5.159632,5.447122,28.83387,-64.52278,38.42912,91.41618,-17.01029,-0.4441859,-4.27255,-61.51973,-6.98289,34.50468,0,0,0,-17.72167,-80.80898,27.91027,-36.10317,-110.6632,-50.33768,0.001067912,-0.1257102,0.09433498,0,0.3,0,0,0.1281015,0,
6.38224E+17,-6.926629,8.135615,32.0091,-63.93682,38.7221,99.61964,-17.01029,-0.4441859,-4.27255,-61.44649,-6.98289,34.57793,0,0,0,-24.44413,-70.85475,32.86129,-36.10317,-110.6632,-50.33768,0.001067912,-0.1257102,0.09433498,0,0.3,0,0,0.1302054,0,
6.38224E+17,-7.821907,9.421416,33.64341,-64.01007,38.42912,103.2819,-17.01029,-0.4441859,-4.27255,-61.44649,-6.98289,34.57793,0,0,0,-27.95789,-65.83542,35.16879,-36.10317,-110.6632,-50.33768,0.001067912,-0.1257102,0.09433498,0,0.3,0,0,0.130658,0,
6.38224E+17,-9.565345,12.62423,37.23889,-64.59603,37.25719,109.9472,-17.01029,-0.4441859,-4.27255,-61.44649,-6.98289,34.50468,0,0,0,-35.03271,-53.66809,39.54044,-36.10317,-110.6632,-50.33768,0.001067912,-0.1257102,0.09433498,0,0.3,0,0,0.1300043,0,
6.38224E+17,-10.8847,16.50501,40.64759,-65.62146,35.49931,116.759,-17.01029,-0.4441859,-4.27255,-61.51973,-6.98289,34.57793,0,0,0,-40.5463,-39.94209,42.50711,-36.10317,-110.6632,-50.33768,0.001067912,-0.1257102,0.09433498,0,0.3,0,0,0.1277428,0,
6.38224E+17,-11.30878,18.63243,42.42198,-66.06093,34.32739,120.348,-17.01029,-0.4441859,-4.27255,-61.44649,-6.909645,34.57793,0,0,0,-42.41896,-32.48377,43.76694,-36.10317,-110.6632,-50.33768,0.001067912,-0.1257102,0.09433498,0,0.3,0,0,0.1258642,0,
6.38224E+17,-11.49726,23.09766,45.78399,-66.64689,31.47083,126.0611,-17.01029,-0.4441859,-4.27255,-61.51973,-6.98289,34.57793,0,0,0,-43.49871,-17.33052,45.50533,-36.10317,-110.6632,-50.33768,0.001067912,-0.1257102,0.09433498,0,0.3,0,0,0.1206439,0,
6.38224E+17,-11.0025,28.14736,48.18876,-66.5004,27.88181,131.2616,-17.01029,-0.4441859,-4.27255,-61.51973,-6.98289,34.57793,0,0,0,-41.4094,-2.644973,44.63326,-36.10317,-110.6632,-50.33768,0.001067912,-0.1257102,0.09433498,0,0.3,0,0,0.1138258,0,
6.38224E+17,-10.4135,30.81247,49.146,-65.84119,25.68446,133.2392,-17.01029,-0.4441859,-4.27255,-61.44649,-6.98289,34.57793,0,0,0,-38.93204,4.427099,43.49283,-36.10317,-110.6632,-50.33768,0.001067912,-0.1257102,0.09433498,0,0.3,0,0,0.1099329,0,
6.38224E+17,-8.929225,35.74527,50.96708,-64.59603,21.28975,136.462,-17.01029,-0.4441859,-4.27255,-61.51973,-6.98289,34.57793,0,0,0,-32.87656,17.27136,40.89699,-36.10317,-110.6632,-50.33768,0.001067912,-0.1257102,0.09433498,0,0.3,0,0,0.1012677,0,
6.38224E+17,-6.549669,40.77158,52.36792,-63.57059,16.30907,138.6593,-17.01029,-0.4441859,-4.27255,-61.51973,-6.98289,34.57793,0,0,0,-23.56512,29.01156,36.89637,-36.10317,-110.6632,-50.33768,0.001067912,-0.1257102,0.09433498,0,0.3,0,0,0.09156716,0,
6.38224E+17,-5.136071,43.13279,52.71812,-62.91139,13.96523,139.465,-17.01029,-0.4441859,-4.27255,-61.51973,-6.98289,34.57793,0,0,0,-18.21016,33.74527,34.2502,-36.10317,-110.6632,-50.33768,0.001067912,-0.1257102,0.09433498,0,0.3,0,0,0.08644608,0,
6.38224E+17,-1.413598,48.27599,53.18507,-60.86052,8.471841,140.1975,-17.01029,-0.4441859,-4.27255,-61.44649,-6.98289,34.57793,0,0,0,-4.823044,42.9694,27.09739,-36.10317,-110.6632,-50.33768,0.001067912,-0.1257102,0.09433498,0,0.3,0,0,0.07555934,0,
6.38224E+17,2.426676,52.39055,53.25511,-58.44344,3.124943,140.1975,-17.01029,-0.4441859,-4.27255,-61.44649,-6.98289,34.57793,0,0,0,7.970008,49.21136,19.71579,-36.10317,-110.6632,-50.33768,0.001067912,-0.1257102,0.09433498,0,0.3,0,0,0.064336,0,
6.38224E+17,4.358593,54.05041,53.13838,-57.19827,0.4881175,139.6848,-17.01029,-0.4441859,-4.27255,-61.44649,-6.98289,34.57793,0,0,0,14.05802,51.30674,16.09281,-36.10317,-110.6632,-50.33768,0.001067912,-0.1257102,0.09433498,0,0.3,0,0,0.058616,0,
6.38224E+17,8.410906,56.41161,52.13445,-54.63469,-4.419309,136.3887,-17.01029,-0.4441859,-4.27255,-61.44649,-6.98289,34.57793,0,0,0,26.18928,52.58333,8.770128,-36.10317,-110.6632,-50.33768,0.001067912,-0.1257102,0.09433498,0,0.3,0,0,0.04718032,0,
6.38224E+17,12.58102,57.32335,49.5429,-50.67944,-7.788587,132.1405,-17.01029,-0.4441859,-4.27255,-61.44649,-6.98289,34.57793,0,0,0,37.7831,49.06686,0.9452906,-36.10317,-110.6632,-50.33768,0.001067912,-0.1257102,0.09433498,0,0.3,0,0,0.03618867,0,
6.38224E+17,16.09145,56.94931,45.55051,-45.62553,-9.180244,127.0866,-17.01029,-0.4441859,-4.27255,-61.44649,-6.98289,34.57793,0,0,0,46.54285,41.74006,-7.008194,-36.10317,-110.6632,-50.33768,0.001067912,-0.1257102,0.09433498,0,0.3,0,0,0.02613358,0,
6.38224E+17,17.50505,56.27134,42.88893,-42.84221,-9.180244,124.4498,-17.01029,-0.4441859,-4.27255,-61.51973,-6.98289,34.57793,0,0,0,49.56995,36.55191,-11.18253,-36.10317,-110.6632,-50.33768,0.001067912,-0.1257102,0.09433498,0,0.3,0,0,0.02162958,0,
6.38224E+17,19.74325,53.55946,36.81864,-37.56856,-7.27587,119.1029,-17.01029,-0.4441859,-4.27255,-61.51973,-6.98289,34.57793,0,0,0,53.75262,23.87504,-18.58105,-36.10317,-110.6632,-50.33768,0.001067912,-0.1257102,0.09433498,0,0.3,0,0,0.01391144,0,
6.38224E+17,21.39244,47.99545,29.37086,-32.73438,-3.393876,114.1222,-17.01029,-0.4441859,-4.27255,-61.44649,-6.909645,34.57793,0,0,0,56.40532,6.231638,-24.36469,-36.10317,-110.6632,-50.33768,0.001067912,-0.1257102,0.09433498,0,0.3,0,0,0.008131416,0,
6.38224E+17,21.58092,43.62373,25.44852,-30.75676,-0.9035407,112.4375,-17.01029,-0.4441859,-4.27255,-61.44649,-6.909645,34.57793,0,0,0,56.58124,-5.060532,-25.30297,-36.10317,-110.6632,-50.33768,0.001067912,-0.1257102,0.09433498,0,0.3,0,0,0.003947087,0,
6.38224E+17,21.2982,36.30635,21.68961,-29.07212,4.223621,110.5332,-17.01029,-0.4441859,-4.27255,-61.51973,-6.98289,34.50468,0,0,0,56.93325,-21.6019,-22.31023,-36.10317,-110.6632,-50.33768,0.001067912,-0.1257102,0.09433498,0,0.3,0,0,0.001480933,0,
6.38224E+17,21.13329,31.79436,20.56894,-28.77914,8.252106,110.0205,-17.01029,-0.4441859,-4.27255,-61.44649,-6.98289,34.57793,0,0,0,57.75489,-31.24056,-18.93321,-36.10317,-110.6632,-50.33768,0.001067912,-0.1257102,0.09433498,0,0.3,0,0,0.000777372,0,
6.38224E+17,21.01549,25.24846,19.86852,-28.99888,14.99066,109.7275,-17.01029,-0.4441859,-4.27255,-61.44649,-6.98289,34.57793,0,0,0,59.50634,-45.18264,-13.45582,-36.10317,-110.6632,-50.33768,0.001067912,-0.1257102,0.09433498,0,0.3,0,0,0,0,
6.38224E+17,21.01549,19.54418,19.84518,-29.3651,21.94895,109.7275,-17.01029,-0.4441859,-4.27255,-61.44649,-6.98289,34.57793,0,0,0,61.30129,-57.47074,-8.783594,-36.10317,-110.6632,-50.33768,0.001067912,-0.1257102,0.09433498,0,0.3,0,0,0,0,
6.38224E+17,20.92125,16.92582,19.93857,-29.21861,25.17174,110.2402,-17.01029,-0.4441859,-4.27255,-61.51973,-6.98289,34.57793,0,0,0,61.7926,-63.18421,-6.711051,-36.10317,-110.6632,-50.33768,0.001067912,-0.1257102,0.09433498,0,0.3,0,0,0,0,
6.38224E+17,20.35581,13.06842,20.42886,-28.5594,30.07917,111.0459,-17.01029,-0.4441859,-4.27255,-61.44649,-6.909645,34.57793,0,0,0,61.37495,-71.46078,-2.927299,-36.10317,-110.6632,-50.33768,0.001067912,-0.1257102,0.09433498,0,0.3,0,0,0,0,
6.38224E+17,19.17781,10.87086,20.4989,-27.9002,33.52169,111.2656,-17.01029,-0.4441859,-4.27255,-61.51973,-6.98289,34.57793,0,0,0,58.35974,-76.40685,-0.5544313,-36.10317,-110.6632,-50.33768,0.001067912,-0.1257102,0.09433498,0,0.3,0,0,0.000260039,0,
6.38224E+17,18.21185,10.30979,20.4522,-27.68046,34.69361,111.3389,-17.01029,-0.4441859,-4.27255,-61.44649,-6.98289,34.57793,0,0,0,55.56587,-77.72846,0.5368344,-36.10317,-110.6632,-50.33768,0.001067912,-0.1257102,0.09433498,0,0.3,0,0,0.00069631,0,
6.38224E+17,15.31397,9.88898,20.4522,-27.97344,36.305,111.3389,-17.01029,-0.4441859,-4.27255,-61.51973,-6.98289,34.57793,0,0,0,47.00195,-78.69267,3.295693,-36.10317,-110.6632,-50.33768,0.001067912,-0.1257102,0.09433498,0,0.3,0,0,0.002090891,0,
6.38224E+17,11.77998,9.959114,20.70902,-30.1708,37.25719,111.4121,-17.01029,-0.4441859,-4.27255,-61.44649,-6.98289,34.57793,0,0,0,36.4407,-78.32177,6.386776,-36.10317,-110.6632,-50.33768,0.001067912,-0.1257102,0.09433498,0,0.3,0,0,0.004245207,0,
6.38224E+17,8.410906,10.37992,21.68961,-33.83306,37.1107,111.3389,-17.01029,-0.4441859,-4.27255,-61.44649,-6.909645,34.57793,0,0,0,26.3948,-76.5325,10.16011,-36.10317,-110.6632,-50.33768,0.001067912,-0.1257102,0.09433498,0,0.3,0,0,0.00691653,0,
6.38224E+17,5.418791,12.2268,22.76358,-38.52075,36.37825,111.7051,-17.01029,-0.4441859,-4.27255,-61.51973,-6.909645,34.57793,0,0,0,17.1798,-71.37215,12.75927,-36.10317,-110.6632,-50.33768,0.001067912,-0.1257102,0.09433498,0,0.3,0,0,0.009814252,0,
6.38224E+17,4.452833,13.32558,23.16049,-40.42512,35.79229,112.4375,-17.01029,-0.4441859,-4.27255,-61.51973,-6.98289,34.57793,0,0,0,14.14628,-68.51784,13.30733,-36.10317,-110.6632,-50.33768,0.001067912,-0.1257102,0.09433498,0,0.3,0,0,0.01125697,0,
6.38224E+17,2.756516,16.29461,23.88425,-44.6001,34.1809,115.2209,-17.01029,-0.4441859,-4.27255,-61.44649,-6.98289,34.57793,0,0,0,8.752003,-61.16575,13.42511,-36.10317,-110.6632,-50.33768,0.001067912,-0.1257102,0.09433498,0,0.3,0,0,0.01401099,0,
6.38224E+17,1.931917,19.75458,24.42124,-47.60315,31.98354,118.4436,-17.01029,-0.4441859,-4.27255,-61.51973,-6.98289,34.57793,0,0,0,6.089543,-52.998,12.18203,-36.10317,-110.6632,-50.33768,0.001067912,-0.1257102,0.09433498,0,0.3,0,0,0.01644142,0,
6.38224E+17,1.625637,23.44834,24.88819,-49.50752,29.41996,122.0327,-17.01029,-0.4441859,-4.27255,-61.44649,-6.98289,34.57793,0,0,0,5.062661,-44.55299,10.03621,-36.10317,-110.6632,-50.33768,0.001067912,-0.1257102,0.09433498,0,0.3,0,0,0.01840905,0,
6.38224E+17,1.625637,25.34197,25.1917,-50.16673,27.73532,123.6441,-17.01029,-0.4441859,-4.27255,-61.44649,-6.98289,34.57793,0,0,0,5.02918,-40.24044,8.856466,-36.10317,-110.6632,-50.33768,0.001067912,-0.1257102,0.09433498,0,0.3,0,0,0.01919582,0,
6.38224E+17,1.672757,28.56816,26.00885,-50.89918,24.58578,126.4274,-17.01029,-0.4441859,-4.27255,-61.51973,-6.98289,34.57793,0,0,0,5.125637,-32.72665,7.164966,-36.10317,-110.6632,-50.33768,0.001067912,-0.1257102,0.09433498,0,0.3,0,0,0.02035741,0,
6.38224E+17,1.837677,31.09301,26.82601,-51.26541,20.99677,130.4559,-17.01029,-0.4441859,-4.27255,-61.44649,-6.909645,34.57793,0,0,0,5.591705,-26.78323,5.930481,-36.10317,-110.6632,-50.33768,0.001067912,-0.1257102,0.09433498,0,0.3,0,0,0.02102341,0,
6.38224E+17,1.955477,31.81774,27.05948,-51.26541,19.23888,132.4335,-17.01029,-0.4441859,-4.27255,-61.44649,-6.98289,34.57793,0,0,0,5.936507,-25.09818,5.523067,-36.10317,-110.6632,-50.33768,0.001067912,-0.1257102,0.09433498,0,0.3,0,0,0.02123479,0,
6.38224E+17,2.167516,31.72422,27.24626,-51.04567,15.94285,134.1914,-17.01029,-0.4441859,-4.27255,-61.44649,-6.98289,34.57793,0,0,0,6.598897,-25.08482,6.000941,-36.10317,-110.6632,-50.33768,0.001067912,-0.1257102,0.09433498,0,0.3,0,0,0.02159294,0,
6.38224E+17,2.426676,30.74234,27.08283,-50.67944,14.03847,134.8506,-17.01029,-0.4441859,-4.27255,-61.44649,-6.98289,34.57793,0,0,0,7.423291,-27.21247,6.815071,-36.10317,-110.6632,-50.33768,0.001067912,-0.1257102,0.09433498,0,0.3,0,0,0.0220006,0,
6.38224E+17,2.568036,29.97086,26.82601,-50.6062,13.37927,134.9971,-17.01029,-0.4441859,-4.27255,-61.51973,-6.98289,34.57793,0,0,0,7.87222,-29.03276,7.170482,-36.10317,-110.6632,-50.33768,0.001067912,-0.1257102,0.09433498,0,0.3,0,0,0.02227305,0,
6.38224E+17,2.874315,27.58628,25.79873,-50.45971,12.64682,134.9971,-17.01029,-0.4441859,-4.27255,-61.44649,-6.909645,34.57793,0,0,0,8.836864,-34.95657,7.653738,-36.10317,-110.6632,-50.33768,0.001067912,-0.1257102,0.09433498,0,0.3,0,0,0.02309013,0,
6.38224E+17,3.486874,24.33671,24.44459,-50.02024,13.23278,135.0703,-17.01029,-0.4441859,-4.27255,-61.51973,-6.98289,34.57793,0,0,0,10.7458,-43.09346,8.005323,-36.10317,-110.6632,-50.33768,0.001067912,-0.1257102,0.09433498,0,0.3,0,0,0.024351,0,
6.38224E+17,4.499953,21.25079,22.76358,-49.21454,14.62444,134.9971,-17.01029,-0.4441859,-4.27255,-61.44649,-6.98289,34.57793,0,0,0,13.79921,-51.28045,6.98748,-36.10317,-110.6632,-50.33768,0.001067912,-0.1257102,0.09433498,0,0.3,0,0,0.02603619,0,
6.38224E+17,6.21983,18.0246,20.91915,-47.89613,16.60205,134.7041,-17.01029,-0.4441859,-4.27255,-61.44649,-6.98289,34.57793,0,0,0,18.89708,-59.94841,5.041624,-36.10317,-110.6632,-50.33768,0.001067912,-0.1257102,0.09433498,0,0.3,0,0,0.02805745,0,
6.38224E+17,7.539187,16.50501,20.0553,-46.94394,17.84722,134.1914,-17.01029,-0.4441859,-4.27255,-61.51973,-6.98289,34.57793,0,0,0,22.77504,-64.0293,3.734032,-36.10317,-110.6632,-50.33768,0.001067912,-0.1257102,0.09433498,0,0.3,0,0,0.02911374,0,
6.38224E+17,11.45014,14.00354,18.56108,-43.28168,20.63054,133.6054,-17.01029,-0.4441859,-4.27255,-61.44649,-6.98289,34.57793,0,0,0,34.11171,-70.79549,0.06441789,-36.10317,-110.6632,-50.33768,0.001067912,-0.1257102,0.09433498,0,0.3,0,0,0.0310265,0,
6.38224E+17,15.97365,12.64761,18.02409,-37.27558,23.78008,136.169,-17.01029,-0.4441859,-4.27255,-61.44649,-6.98289,34.57793,0,0,0,47.1616,-74.25852,-3.592056,-36.10317,-110.6632,-50.33768,0.001067912,-0.1257102,0.09433498,0,0.3,0,0,0.0322649,0,
6.38224E+17,18.21185,12.29694,18.02409,-33.75981,25.31823,139.0988,-17.01029,-0.4441859,-4.27255,-61.44649,-6.98289,34.57793,0,0,0,53.61516,-75.05542,-5.392163,-36.10317,-110.6632,-50.33768,0.001067912,-0.1257102,0.09433498,0,0.3,0,0,0.03258556,0,
6.38224E+17,23.25368,12.53072,18.42099,-24.89715,28.39453,144.3724,-17.01029,-0.4441859,-4.27255,-61.51973,-6.98289,34.57793,0,0,0,68.02917,-74.23517,-10.03586,-36.10317,-110.6632,-50.33768,0.001067912,-0.1257102,0.09433498,0,0.3,0,0,0.03242768,0,
6.38224E+17,28.03635,13.32558,19.37823,-15.37527,30.2989,144.8119,-17.01029,-0.4441859,-4.27255,-61.51973,-6.98289,34.57793,0,0,0,81.78814,-71.7105,-14.76405,-36.10317,-110.6632,-50.33768,0.001067912,-0.1257102,0.09433498,0,0.3,0,0,0.03116361,0,
6.38224E+17,32.41851,14.47111,20.96585,-5.999893,31.47083,144.9584,-17.01029,-0.4441859,-4.27255,-61.51973,-6.909645,34.57793,0,0,0,94.80032,-67.84835,-19.07519,-36.10317,-110.6632,-50.33768,0.001067912,-0.1257102,0.09433498,0,0.3,0,0,0.02879485,0,
6.38224E+17,34.35042,15.21921,21.94643,-1.678428,31.83705,144.8852,-17.01029,-0.4441859,-4.27255,-61.44649,-6.98289,34.57793,0,0,0,100.7256,-65.33055,-20.97063,-36.10317,-110.6632,-50.33768,0.001067912,-0.1257102,0.09433498,0,0.3,0,0,0.02721117,0,
6.38224E+17,37.55458,17.34663,23.9076,5.93907,31.98354,144.9584,-17.01029,-0.4441859,-4.27255,-61.51973,-6.98289,34.57793,0,0,0,110.5218,-58.80006,-24.59896,-36.10317,-110.6632,-50.33768,0.001067912,-0.1257102,0.09433498,0,0.3,0,0,0.02335376,0,
6.38224E+17,40.35821,20.61958,26.45245,12.38465,30.95811,144.8119,-17.01029,-0.4441859,-4.27255,-61.51973,-6.909645,34.57793,0,0,0,119.2871,-49.07811,-27.98081,-36.10317,-110.6632,-50.33768,0.001067912,-0.1257102,0.09433498,0,0.3,0,0,0.01857307,0,
6.38224E+17,43.04405,25.31859,29.60433,18.17101,28.54102,144.8119,-17.01029,-0.4441859,-4.27255,-61.44649,-6.98289,34.57793,0,0,0,127.2407,-35.56488,-32.11115,-36.10317,-110.6632,-50.33768,0.001067912,-0.1257102,0.09433498,0,0.3,0,0,0.01286404,0,
6.38224E+17,44.7168,29.43316,32.52274,22.27274,25.61121,143.8597,-17.01029,-0.4441859,-4.27255,-61.44649,-6.98289,34.57793,0,0,0,132.1592,-23.55857,-34.87788,-36.10317,-110.6632,-50.33768,0.001067912,-0.1257102,0.09433498,0,0.3,0,0,0.006376596,0,
6.38224E+17,45.42361,31.79436,34.39052,24.54334,23.41385,142.6878,-17.01029,-0.4441859,-4.27255,-61.51973,-6.98289,34.57793,0,0,0,134.3856,-16.43295,-35.93697,-36.10317,-110.6632,-50.33768,0.001067912,-0.1257102,0.09433498,0,0.3,0,0,0.002823192,0,
6.38224E+17,46.22464,36.72716,37.986,28.71832,18.72616,141.0764,-17.01029,-0.4441859,-4.27255,-61.44649,-6.909645,34.57793,0,0,0,136.4341,-2.007309,-37.62699,-36.10317,-110.6632,-50.33768,0.001067912,-0.1257102,0.09433498,0,0.3,0,0,0,0,
6.38224E+17,46.15396,41.49631,40.76432,32.16084,13.45251,140.7102,-17.01029,-0.4441859,-4.27255,-61.44649,-6.909645,34.57793,0,0,0,134.8288,10.70443,-38.84566,-36.10317,-110.6632,-50.33768,0.001067912,-0.1257102,0.09433498,0,0.3,0,0,0,0,
6.38224E+17,45.70633,43.9744,41.90834,33.62574,10.44946,140.4904,-17.01029,-0.4441859,-4.27255,-61.44649,-6.909645,34.57793,0,0,0,132.4427,16.69885,-39.13316,-36.10317,-110.6632,-50.33768,0.001067912,-0.1257102,0.09433498,0,0.3,0,0,0,0,
6.38224E+17,44.08069,47.80843,42.86558,35.60336,4.516602,139.6115,-17.01029,-0.4441859,-4.27255,-61.44649,-6.909645,34.57793,0,0,0,125.4119,24.41035,-38.84761,-36.10317,-110.6632,-50.33768,0.001067912,-0.1257102,0.09433498,0,0.3,0,0,0,0,
6.38224E+17,41.22993,50.5203,42.49202,35.89634,-1.709238,139.3185,-17.01029,-0.4441859,-4.27255,-61.44649,-6.98289,34.57793,0,0,0,115.2477,27.94771,-36.84229,-36.10317,-110.6632,-50.33768,0.001067912,-0.1257102,0.09433498,0,0.3,0,0,0,0,
6.38224E+17,39.18022,51.54894,41.86165,35.0174,-4.85878,140.1242,-17.01029,-0.4441859,-4.27255,-61.44649,-6.98289,34.57793,0,0,0,108.6075,28.46813,-35.0901,-36.10317,-110.6632,-50.33768,0.001067912,-0.1257102,0.09433498,0,0.3,0,0,0,0,
6.38224E+17,35.03366,52.5542,40.46081,31.72137,-9.546471,144.5922,-17.01029,-0.4441859,-4.27255,-61.44649,-6.98289,34.57793,0,0,0,96.21937,27.76107,-31.10618,-36.10317,-110.6632,-50.33768,0.001067912,-0.1257102,0.09433498,0,0.3,0,0,0,0,
6.38224E+17,31.66459,52.74123,39.22341,28.13236,-12.11005,144.8852,-17.01029,-0.4441859,-4.27255,-61.44649,-6.98289,34.57793,0,0,0,86.64519,26.1801,-27.86535,-36.10317,-110.6632,-50.33768,0.001067912,-0.1257102,0.09433498,0,0.3,0,0,0,0,
6.38224E+17,27.35312,52.50745,37.19219,22.8587,-14.38065,144.8852,-17.01029,-0.4441859,-4.27255,-61.44649,-6.98289,34.57793,0,0,0,74.33054,22.92597,-24.6642,-36.10317,-110.6632,-50.33768,0.001067912,-0.1257102,0.09433498,0,0.3,0,0,0,0,
6.38224E+17,25.20916,52.15677,36.11822,19.70916,-15.1131,144.9584,-17.01029,-0.4441859,-4.27255,-61.51973,-6.98289,34.57793,0,0,0,68.32426,20.93501,-23.21379,-36.10317,-110.6632,-50.33768,0.001067912,-0.1257102,0.09433498,0,0.3,0,0,0,0,
6.38224E+17,21.0626,50.56705,34.11036,12.23815,-15.62582,144.8852,-17.01029,-0.4441859,-4.27255,-61.44649,-6.98289,34.57793,0,0,0,57.31579,15.937,-19.52353,-36.10317,-110.6632,-50.33768,0.001067912,-0.1257102,0.09433498,0,0.3,0,0,0,0,
6.38224E+17,17.95269,48.20586,32.56944,3.888205,-15.25959,144.7387,-17.01029,-0.4441859,-4.27255,-61.51973,-6.98289,34.57793,0,0,0,49.51959,10.38897,-15.51509,-36.10317,-110.6632,-50.33768,0.001067912,-0.1257102,0.09433498,0,0.3,0,0,0,0,
6.38224E+17,15.80873,45.42385,30.98182,-3.436311,-14.01443,144.8852,-17.01029,-0.4441859,-4.27255,-61.44649,-6.98289,34.57793,0,0,0,44.19763,4.012594,-12.24972,-36.10317,-110.6632,-50.33768,0.001067912,-0.1257102,0.09433498,0,0.3,0,0,0,0,
6.38224E+17,14.8899,43.71724,29.97789,-6.732344,-13.06224,145.0316,-17.01029,-0.4441859,-4.27255,-61.51973,-6.98289,34.57793,0,0,0,41.88753,-0.002035809,-10.81329,-36.10317,-110.6632,-50.33768,0.001067912,-0.1257102,0.09433498,0,0.3,0,0,0,0,
6.38224E+17,13.68834,40.63132,28.32023,-11.05381,-11.01137,144.9584,-17.01029,-0.4441859,-4.27255,-61.44649,-6.909645,34.57793,0,0,0,38.91847,-7.203253,-8.558676,-36.10317,-110.6632,-50.33768,0.001067912,-0.1257102,0.09433498,0,0.3,0,0,0,0,
6.38224E+17,13.09934,37.45188,26.61588,-13.91037,-8.154812,144.8852,-17.01029,-0.4441859,-4.27255,-61.51973,-6.98289,34.50468,0,0,0,37.53239,-14.77945,-7.055707,-36.10317,-110.6632,-50.33768,0.001067912,-0.1257102,0.09433498,0,0.3,0,0,0,0,
6.38224E+17,13.02866,34.36596,25.05162,-14.78931,-5.225006,144.9584,-17.01029,-0.4441859,-4.27255,-61.44649,-6.909645,34.57793,0,0,0,37.5442,-22.18236,-6.098508,-36.10317,-110.6632,-50.33768,0.001067912,-0.1257102,0.09433498,0,0.3,0,0,0,0,
6.38224E+17,13.05222,32.79962,24.3512,-14.78931,-3.760103,144.8852,-17.01029,-0.4441859,-4.27255,-61.44649,-6.98289,34.50468,0,0,0,37.73183,-25.9005,-5.592362,-36.10317,-110.6632,-50.33768,0.001067912,-0.1257102,0.09433498,0,0.3,0,0,0,0,
6.38224E+17,13.02866,29.29289,23.464,-14.42309,-0.7570504,144.7387,-17.01029,-0.4441859,-4.27255,-61.44649,-6.98289,34.57793,0,0,0,38.18811,-33.72863,-3.315779,-36.10317,-110.6632,-50.33768,0.001067912,-0.1257102,0.09433498,0,0.3,0,0,0,0,
6.38224E+17,12.86374,25.57575,22.71689,-13.91037,2.319247,144.8119,-17.01029,-0.4441859,-4.27255,-61.44649,-6.98289,34.57793,0,0,0,38.24405,-42.08754,-0.8807279,-36.10317,-110.6632,-50.33768,0.001067912,-0.1257102,0.09433498,0,0.3,0,0,0,0,
6.38224E+17,12.67526,23.54185,22.20325,-13.61739,3.93064,144.8852,-17.01029,-0.4441859,-4.27255,-61.44649,-6.98289,34.57793,0,0,0,37.88221,-46.84949,0.08574039,-36.10317,-110.6632,-50.33768,0.001067912,-0.1257102,0.09433498,0,0.3,0,0,0,0,
6.38224E+17,12.20406,19.09999,21.43279,-13.10467,7.666144,144.8852,-17.01029,-0.4441859,-4.27255,-61.44649,-6.909645,34.57793,0,0,0,36.93822,-57.14394,2.437428,-36.10317,-110.6632,-50.33768,0.001067912,-0.1257102,0.09433498,0,0.3,0,0,0,0,
6.38224E+17,11.8271,14.28408,21.19932,-12.6652,11.47489,144.8852,-17.01029,-0.4441859,-4.27255,-61.51973,-6.909645,34.57793,0,0,0,36.36968,-68.07454,5.331414,-36.10317,-110.6632,-50.33768,0.001067912,-0.1257102,0.09433498,0,0.3,0,0,0,0,
6.38224E+17,11.56794,7.995345,21.57287,-12.22573,16.30907,144.8852,-17.01029,-0.4441859,-4.27255,-61.44649,-6.909645,34.57793,0,0,0,36.31283,-82.11092,9.056198,-36.10317,-110.6632,-50.33768,0.001067912,-0.1257102,0.09433498,0,0.3,0,0,0,0,
6.38224E+17,11.0025,4.652263,22.46007,-12.07924,18.65292,144.8852,-17.01029,-0.4441859,-4.27255,-61.44649,-6.909645,34.50468,0,0,0,35.08919,-89.06911,12.12614,-36.10317,-110.6632,-50.33768,0.001067912,-0.1257102,0.09433498,0,0.3,0,0,0,0,
6.38224E+17,9.989424,2.641737,23.32392,-12.29898,20.19107,144.7387,-17.01029,-0.4441859,-4.27255,-61.44649,-6.98289,34.57793,0,0,0,32.26568,-92.9566,14.83552,-36.10317,-110.6632,-50.33768,0.001067912,-0.1257102,0.09433498,0,0.3,0,0,0,0,
6.38224E+17,6.384749,0.2104038,25.37848,-14.71607,22.60816,144.5922,-17.01029,-0.4441859,-4.27255,-61.44649,-6.909645,34.57793,0,0,0,21.1847,-96.64155,20.97077,-36.10317,-110.6632,-50.33768,0.001067912,-0.1257102,0.09433498,0,0.3,0,0,0,0,
6.38224E+17,2.049716,-0.04675641,27.78325,-20.13621,23.70683,139.9777,-17.01029,-0.4441859,-4.27255,-61.51973,-6.98289,34.57793,0,0,0,6.992675,-94.73588,27.03303,-36.10317,-110.6632,-50.33768,0.001067912,-0.1257102,0.09433498,0,0.3,0,0,0,0,
6.38224E+17,-2.544476,1.893635,31.09856,-27.60722,23.4871,137.6339,-17.01029,-0.4441859,-4.27255,-61.44649,-6.98289,34.57793,0,0,0,-8.974605,-86.42851,33.60471,-36.10317,-110.6632,-50.33768,0.001067912,-0.1257102,0.09433498,0,0.3,0,0,0,0,
6.38224E+17,-4.523513,3.530109,32.70952,-31.48921,23.12087,137.4874,-17.01029,-0.4441859,-4.27255,-61.51973,-6.98289,34.57793,0,0,0,-16.18034,-80.64272,36.16762,-36.10317,-110.6632,-50.33768,0.001067912,-0.1257102,0.09433498,0,0.3,0,0,0,0,
6.38224E+17,-7.751227,8.158993,36.3517,-40.13214,21.43624,137.5606,-17.01029,-0.4441859,-4.27255,-61.44649,-6.98289,34.57793,0,0,0,-28.46371,-65.12417,40.76384,-36.10317,-110.6632,-50.33768,0.001067912,-0.1257102,0.09433498,0,0.3,0,0,0,0,
6.38224E+17,-9.895184,13.72301,39.80709,-48.04262,18.87265,139.6848,-17.01029,-0.4441859,-4.27255,-61.51973,-6.909645,34.57793,0,0,0,-36.93229,-47.45567,43.36757,-36.10317,-110.6632,-50.33768,0.001067912,-0.1257102,0.09433498,0,0.3,0,0,0,0,
6.38224E+17,-10.6491,18.72594,41.86165,-54.12197,16.38232,142.1018,-17.01029,-0.4441859,-4.27255,-61.44649,-6.98289,34.57793,0,0,0,-39.77792,-32.771,43.19858,-36.10317,-110.6632,-50.33768,0.001067912,-0.1257102,0.09433498,0,0.3,0,0,0,0,
6.38224E+17,-10.81402,22.60672,42.81889,-57.85748,14.25821,144.4457,-17.01029,-0.4441859,-4.27255,-61.44649,-6.909645,34.57793,0,0,0,-40.10223,-23.20278,41.59409,-36.10317,-110.6632,-50.33768,0.001067912,-0.1257102,0.09433498,0,0.3,0,0,0,0,
6.38224E+17,-11.07318,27.82006,43.40257,-61.44649,10.96218,144.8119,-17.01029,-0.4441859,-4.27255,-61.44649,-6.909645,34.57793,0,0,0,-40.24952,-11.30067,37.31302,-36.10317,-110.6632,-50.33768,0.001067912,-0.1257102,0.09433498,0,0.3,0,0,0,0,
6.38224E+17,-11.37946,29.76045,43.40257,-62.54516,9.497273,144.7387,-17.01029,-0.4441859,-4.27255,-61.51973,-6.98289,34.57793,0,0,0,-40.91922,-7.343037,34.96283,-36.10317,-110.6632,-50.33768,0.001067912,-0.1257102,0.09433498,0,0.3,0,0,0,0,
6.38224E+17,-14.98414,32.72948,43.33253,-64.81577,5.981505,144.8852,-17.01029,-0.4441859,-4.27255,-61.44649,-6.98289,34.57793,0,0,0,-52.66368,-1.547783,28.41144,-36.10317,-110.6632,-50.33768,0.001067912,-0.1257102,0.09433498,0,0.3,0,0,0,0,
6.38224E+17,-16.86893,32.05152,43.21579,-65.84119,5.395544,144.8119,-17.01029,-0.4441859,-4.27255,-61.51973,-6.98289,34.57793,0,0,0,-59.29454,-3.066422,27.19246,-36.10317,-110.6632,-50.33768,0.001067912,-0.1257102,0.09433498,0,0.3,0,0,0,0,
6.38224E+17,-20.56785,28.59154,41.8383,-68.40478,5.688524,144.9584,-17.01029,-0.4441859,-4.27255,-61.51973,-6.98289,34.57793,0,0,0,-72.38415,-12.18351,24.55354,-36.10317,-110.6632,-50.33768,0.001067912,-0.1257102,0.09433498,0,0.3,0,0,0,0,
6.38224E+17,-22.87672,23.26131,39.41019,-69.86968,8.398596,144.8119,-17.01029,-0.4441859,-4.27255,-61.44649,-6.98289,34.57793,0,0,0,-80.53728,-27.01569,22.52476,-36.10317,-110.6632,-50.33768,0.001067912,-0.1257102,0.09433498,0,0.3,0,0,0,0,
6.38224E+17,-23.11232,21.27416,38.54634,-69.50346,10.22972,144.8119,-17.01029,-0.4441859,-4.27255,-61.51973,-6.98289,34.57793,0,0,0,-81.39587,-32.5601,22.36627,-36.10317,-110.6632,-50.33768,0.001067912,-0.1257102,0.09433498,0,0.3,0,0,0,0,
6.38224E+17,-22.19348,19.70782,36.58516,-67.45258,14.33146,144.8119,-17.01029,-0.4441859,-4.27255,-61.51973,-6.909645,34.57793,0,0,0,-77.4425,-38.75749,21.47878,-36.10317,-110.6632,-50.33768,0.001067912,-0.1257102,0.09433498,0,0.3,0,0,0,0,
6.38224E+17,-19.86105,20.71309,35.30106,-64.30305,17.33451,144.9584,-17.01029,-0.4441859,-4.27255,-61.51973,-6.98289,34.50468,0,0,0,-68.55619,-38.31615,21.43742,-36.10317,-110.6632,-50.33768,0.001067912,-0.1257102,0.09433498,0,0.3,0,0,0,0,
6.38224E+17,-18.65949,21.3443,34.83412,-62.54516,17.92047,144.8852,-17.01029,-0.4441859,-4.27255,-61.44649,-6.98289,34.57793,0,0,0,-64.1081,-37.56931,21.49111,-36.10317,-110.6632,-50.33768,0.001067912,-0.1257102,0.09433498,0,0.3,0,0,0,0,
6.38224E+17,-15.69093,22.11578,33.7368,-58.44344,17.84722,144.7387,-17.01029,-0.4441859,-4.27255,-61.51973,-6.98289,34.57793,0,0,0,-53.44014,-37.34001,21.88492,-36.10317,-110.6632,-50.33768,0.001067912,-0.1257102,0.09433498,0,0.3,0,0,0,0,
6.38224E+17,-11.68574,22.58335,32.84961,-52.65706,16.89503,144.8119,-17.01029,-0.4441859,-4.27255,-61.44649,-6.98289,34.50468,0,0,0,-39.58892,-37.46699,23.05755,-36.10317,-110.6632,-50.33768,0.001067912,-0.1257102,0.09433498,0,0.3,0,0,0,0,
6.38224E+17,-8.175306,22.70024,32.66283,-45.77202,15.57662,144.8852,-17.01029,-0.4441859,-4.27255,-61.44649,-6.98289,34.57793,0,0,0,-27.72782,-37.45111,24.65692,-36.10317,-110.6632,-50.33768,0.001067912,-0.1257102,0.09433498,0,0.3,0,0,0,0,
6.38224E+17,-6.785269,22.67686,32.73286,-42.10976,14.77092,144.8852,-17.01029,-0.4441859,-4.27255,-61.44649,-6.98289,34.57793,0,0,0,-23.05631,-37.41324,25.42981,-36.10317,-110.6632,-50.33768,0.001067912,-0.1257102,0.09433498,0,0.3,0,0,0,0,
6.38224E+17,-5.677951,22.34956,33.66676,-35.73743,13.08629,144.9584,-17.01029,-0.4441859,-4.27255,-61.51973,-6.98289,34.57793,0,0,0,-19.51598,-36.92681,27.93922,-36.10317,-110.6632,-50.33768,0.001067912,-0.1257102,0.09433498,0,0.3,0,0,0,0,
6.38224E+17,-6.785269,21.46119,35.72132,-31.26948,11.25516,144.8119,-17.01029,-0.4441859,-4.27255,-61.51973,-6.909645,34.57793,0,0,0,-23.86128,-36.12349,32.19522,-36.10317,-110.6632,-50.33768,0.001067912,-0.1257102,0.09433498,0,0.3,0,0,0,0,
6.38224E+17,-10.24858,20.0585,38.68642,-29.87782,9.497273,144.8852,-17.01029,-0.4441859,-4.27255,-61.44649,-6.98289,34.57793,0,0,0,-37.11623,-35.00385,36.93442,-36.10317,-110.6632,-50.33768,0.001067912,-0.1257102,0.09433498,0,0.3,0,0,0,0,
6.38224E+17,-15.26685,18.09473,43.00566,-32.00193,7.959125,144.7387,-17.01029,-0.4441859,-4.27255,-61.44649,-6.909645,34.57793,0,0,0,-57.3261,-32.74998,41.67623,-36.10317,-110.6632,-50.33768,0.001067912,-0.1257102,0.09433498,0,0.3,0,0,0,0,
6.38224E+17,-18.14117,16.92582,45.73729,-34.05279,7.226673,144.7387,-17.01029,-0.4441859,-4.27255,-61.44649,-6.909645,34.57793,0,0,0,-69.4555,-30.89891,43.63344,-36.10317,-110.6632,-50.33768,0.001067912,-0.1257102,0.09433498,0,0.3,0,0,0,0,
6.38224E+17,-23.98404,14.44773,51.97101,-40.20539,6.127995,144.8852,-17.01029,-0.4441859,-4.27255,-61.44649,-6.98289,34.50468,0,0,0,-95.18697,-25.53123,45.60382,-36.10317,-110.6632,-50.33768,0.001067912,-0.1257102,0.09433498,0,0.3,0,0,0,0,
6.38224E+17,-29.09655,12.2268,57.99461,-47.38342,5.468789,144.8852,-17.01029,-0.4441859,-4.27255,-61.51973,-6.98289,34.57793,0,0,0,-118.364,-19.08425,44.33833,-36.10317,-110.6632,-50.33768,0.001067912,-0.1257102,0.09433498,0,0.3,0,0,0,0,
6.38224E+17,-31.42899,11.33843,60.42272,-50.89918,5.395544,144.8852,-17.01029,-0.4441859,-4.27255,-61.51973,-6.98289,34.57793,0,0,0,-128.6504,-16.25404,42.17356,-36.10317,-110.6632,-50.33768,0.001067912,-0.1257102,0.09433498,0,0.3,0,0,0,0,
6.38224E+17,-35.41062,10.12276,63.41117,-56.97853,6.05475,144.8852,-17.01029,-0.4441859,-4.27255,-61.44649,-6.98289,34.57793,0,0,0,-145.1601,-12.89811,35.82998,-36.10317,-110.6632,-50.33768,0.001067912,-0.1257102,0.09433498,0,0.3,0,0,0,0,
6.38224E+17,-38.47342,9.865602,63.66799,-61.44649,7.88588,144.8852,-17.01029,-0.4441859,-4.27255,-61.51973,-6.98289,34.57793,0,0,0,-156.0925,-12.95244,28.07219,-36.10317,-110.6632,-50.33768,0.001067912,-0.1257102,0.09433498,0,0.3,0,0,0,0,
6.38224E+17,-40.82941,9.608441,63.38783,-64.59603,10.74244,144.8852,-17.01029,-0.4441859,-4.27255,-61.44649,-6.909645,34.57793,0,0,0,-163.9113,-14.12602,21.34611,-36.10317,-110.6632,-50.33768,0.001067912,-0.1257102,0.09433498,0,0.3,0,0,0,0,
6.38224E+17,-41.53621,9.538307,63.29443,-65.47498,11.84112,144.8119,-17.01029,-0.4441859,-4.27255,-61.51973,-6.98289,34.57793,0,0,0,-166.1922,-14.48123,19.25705,-36.10317,-110.6632,-50.33768,0.001067912,-0.1257102,0.09433498,0,0.3,0,0,0,0,
6.38224E+17,-42.87913,9.468172,63.10766,-67.01311,14.62444,144.8852,-17.01029,-0.4441859,-4.27255,-61.51973,-6.909645,34.57793,0,0,0,-170.4283,-15.03024,15.18673,-36.10317,-110.6632,-50.33768,0.001067912,-0.1257102,0.09433498,0,0.3,0,0,0,0,
6.38224E+17,-43.49169,9.444795,63.10766,-67.96531,16.89503,144.8119,-17.01029,-0.4441859,-4.27255,-61.44649,-6.98289,34.57793,0,0,0,-172.3869,-15.08391,13.36069,-36.10317,-110.6632,-50.33768,0.001067912,-0.1257102,0.09433498,0,0.3,0,0,0,0,
6.38224E+17,-43.58593,9.444795,63.10766,-68.55127,18.65292,144.8852,-17.01029,-0.4441859,-4.27255,-61.44649,-6.909645,34.57793,0,0,0,-172.6855,-15.08391,13.0769,-36.10317,-110.6632,-50.33768,0.001067912,-0.1257102,0.09433498,0,0.3,0,0,0,0,
6.38224E+17,-43.49169,9.444795,63.10766,-68.771,19.09239,144.8119,-17.01029,-0.4441859,-4.27255,-61.44649,-6.98289,34.57793,0,0,0,-172.3869,-15.08391,13.36069,-36.10317,-110.6632,-50.33768,0.001067912,-0.1257102,0.09433498,0,0.3,0,0,0,0,
6.38224E+17,-42.83201,9.351281,62.96758,-69.13722,19.97133,144.8119,-17.01029,-0.4441859,-4.27255,-61.51973,-6.98289,34.57793,0,0,0,-170.207,-15.58922,15.25104,-36.10317,-110.6632,-50.33768,0.001067912,-0.1257102,0.09433498,0,0.3,0,0,0,0,
6.38224E+17,-41.20637,8.790204,62.40724,-69.35696,20.11782,144.8852,-17.01029,-0.4441859,-4.27255,-61.44649,-6.98289,34.57793,0,0,0,-164.6714,-18.03746,19.71043,-36.10317,-110.6632,-50.33768,0.001067912,-0.1257102,0.09433498,0,0.3,0,0,0,0,
6.38224E+17,-37.53102,7.597916,60.79628,-68.25829,20.33756,144.8852,-17.01029,-0.4441859,-4.27255,-61.44649,-6.909645,34.57793,0,0,0,-151.4321,-24.08206,28.77916,-36.10317,-110.6632,-50.33768,0.001067912,-0.1257102,0.09433498,0,0.3,0,0,0,0,
6.38224E+17,-34.75095,7.317377,59.20866,-67.15961,20.70378,144.9584,-17.01029,-0.4441859,-4.27255,-61.51973,-6.98289,34.57793,0,0,0,-140.688,-27.92941,34.44379,-36.10317,-110.6632,-50.33768,0.001067912,-0.1257102,0.09433498,0,0.3,0,0,0,0,
6.38224E+17,-26.5992,8.042102,53.97888,-64.66927,22.53491,144.8852,-17.01029,-0.4441859,-4.27255,-61.51973,-6.909645,34.57793,0,0,0,-107.4109,-36.41516,46.15203,-36.10317,-110.6632,-50.33768,0.001067912,-0.1257102,0.09433498,0,0.3,0,0,0,0,
6.38224E+17,-15.73805,9.842223,48.09537,-61.1535,25.09849,144.8852,-17.01029,-0.4441859,-4.27255,-61.51973,-6.98289,34.57793,0,0,0,-62.55715,-42.91923,53.63807,-36.10317,-110.6632,-50.33768,0.001067912,-0.1257102,0.09433498,0,0.3,0,0,0,0,
6.38224E+17,-10.08366,10.30979,46.04081,-58.8829,25.97744,144.8119,-17.01029,-0.4441859,-4.27255,-61.51973,-6.98289,34.57793,0,0,0,-39.77725,-45.34866,55.32758,-36.10317,-110.6632,-50.33768,0.001067912,-0.1257102,0.09433498,0,0.3,0,0,0,0,
6.38224E+17,0.8245987,10.076,45.10692,-51.63163,25.83095,144.8852,-17.01029,-0.4441859,-4.27255,-61.44649,-6.98289,34.50468,0,0,0,3.249042,-47.4364,57.38838,-36.10317,-110.6632,-50.33768,0.001067912,-0.1257102,0.09433498,0,0.3,0,0,0,0,
6.38224E+17,6.973749,10.16952,46.22758,-44.52685,23.85333,144.8852,-17.01029,-0.4441859,-4.27255,-61.44649,-6.909645,34.57793,0,0,0,27.62742,-45.35652,57.51277,-36.10317,-110.6632,-50.33768,0.001067912,-0.1257102,0.09433498,0,0.3,0,0,0,0,
6.38224E+17,11.04962,10.77735,47.88524,-38.15452,20.63054,144.8852,-17.01029,-0.4441859,-4.27255,-61.44649,-6.98289,34.57793,0,0,0,44.06574,-41.14135,57.30501,-36.10317,-110.6632,-50.33768,0.001067912,-0.1257102,0.09433498,0,0.3,0,0,0,0,
6.38224E+17,12.22762,11.31505,48.58566,-35.73743,18.79941,144.8852,-17.01029,-0.4441859,-4.27255,-61.51973,-6.909645,34.57793,0,0,0,48.87474,-38.6972,57.17822,-36.10317,-110.6632,-50.33768,0.001067912,-0.1257102,0.09433498,0,0.3,0,0,0,0,
6.38224E+17,13.7119,12.85801,49.68298,-33.24709,15.64987,144.8852,-17.01029,-0.4441859,-4.27255,-61.51973,-6.98289,34.57793,0,0,0,54.91796,-33.25448,56.72942,-36.10317,-110.6632,-50.33768,0.001067912,-0.1257102,0.09433498,0,0.3,0,0,0,0,
6.38224E+17,14.84277,14.96205,49.79972,-32.00193,13.08629,144.8852,-17.01029,-0.4441859,-4.27255,-61.44649,-6.909645,34.57793,0,0,0,59.09293,-28.29409,54.63355,-36.10317,-110.6632,-50.33768,0.001067912,-0.1257102,0.09433498,0,0.3,0,0,0,0,
6.38224E+17,15.36109,16.55177,49.72968,-31.19623,10.88893,144.8852,-17.01029,-0.4441859,-4.27255,-61.44649,-6.909645,34.57793,0,0,0,60.81363,-24.85778,53.01952,-36.10317,-110.6632,-50.33768,0.001067912,-0.1257102,0.09433498,0,0.3,0,0,0,0,
6.38224E+17,15.85585,17.1596,49.82306,-31.19623,10.00999,144.8852,-17.01029,-0.4441859,-4.27255,-61.51973,-6.909645,34.57793,0,0,0,62.64918,-23.33793,52.22656,-36.10317,-110.6632,-50.33768,0.001067912,-0.1257102,0.09433498,0,0.3,0,0,0,0,
6.38224E+17,18.75373,18.25838,49.77637,-31.26948,8.252106,144.9584,-17.01029,-0.4441859,-4.27255,-61.44649,-6.98289,34.57793,0,0,0,73.44788,-20.98487,47.97422,-36.10317,-110.6632,-50.33768,0.001067912,-0.1257102,0.09433498,0,0.3,0,0,0,0,
6.38224E+17,24.361,18.67918,49.89311,-29.07212,6.420976,144.0062,-17.01029,-0.4441859,-4.27255,-61.44649,-6.98289,34.57793,0,0,0,94.1776,-19.84831,39.63958,-36.10317,-110.6632,-50.33768,0.001067912,-0.1257102,0.09433498,0,0.3,0,0,0,0,
6.38224E+17,31.61747,19.14675,51.2706,-22.91953,4.003886,136.9014,-17.01029,-0.4441859,-4.27255,-61.44649,-6.909645,34.57793,0,0,0,120.5769,-16.3422,27.5112,-36.10317,-110.6632,-50.33768,0.001067912,-0.1257102,0.09433498,0,0.3,0,0,0,0,
6.38224E+17,34.82162,19.70782,52.78817,-19.03753,2.685472,133.6786,-17.01029,-0.4441859,-4.27255,-61.44649,-6.98289,34.57793,0,0,0,132.3287,-12.32643,21.89284,-36.10317,-110.6632,-50.33768,0.001067912,-0.1257102,0.09433498,0,0.3,0,0,0,0,
6.38224E+17,40.21685,22.30281,57.06072,-8.929699,-0.9035407,127.3796,-17.01029,-0.4441859,-4.27255,-61.44649,-6.909645,34.57793,0,0,0,151.9212,1.447461,11.31725,-36.10317,-110.6632,-50.33768,0.001067912,-0.1257102,0.09433498,0,0.3,0,0,0,0,
6.38224E+17,42.76133,27.16547,60.30599,0.6654179,-5.298251,122.6186,-17.01029,-0.4441859,-4.27255,-61.51973,-6.98289,34.57793,0,0,0,159.1988,18.17521,3.801953,-36.10317,-110.6632,-50.33768,0.001067912,-0.1257102,0.09433498,0,0.3,0,0,0,0,
6.38224E+17,43.35033,30.32153,61.75352,4.986883,-7.642097,121.4467,-17.01029,-0.4441859,-4.27255,-61.44649,-6.98289,34.57793,0,0,0,159.6557,27.56205,0.7746036,-36.10317,-110.6632,-50.33768,0.001067912,-0.1257102,0.09433498,0,0.3,0,0,0,0,
6.38224E+17,43.70373,37.80256,64.69527,12.75087,-13.35522,119.7621,-17.01029,-0.4441859,-4.27255,-61.51973,-6.98289,34.57793,0,0,0,156.0936,48.08773,-5.028695,-36.10317,-110.6632,-50.33768,0.001067912,-0.1257102,0.09433498,0,0.3,0,0,0,0,
6.38224E+17,43.20897,44.23156,67.26347,18.83022,-19.6543,116.2463,-17.01029,-0.4441859,-4.27255,-61.51973,-6.909645,34.57793,0,0,0,149.6234,64.83062,-9.067219,-36.10317,-110.6632,-50.33768,0.001067912,-0.1257102,0.09433498,0,0.3,0,0,0,0,
6.38224E+17,42.64353,47.20059,68.64096,22.34599,-23.90252,112.6573,-17.01029,-0.4441859,-4.27255,-61.51973,-6.909645,34.57793,0,0,0,145.5087,72.62627,-10.35161,-36.10317,-110.6632,-50.33768,0.001067912,-0.1257102,0.09433498,0,0.3,0,0,0,0,
6.38224E+17,41.53621,50.38003,69.08456,27.32666,-30.27485,106.285,-17.01029,-0.4441859,-4.27255,-61.44649,-6.909645,34.57793,0,0,0,138.9841,78.46372,-11.45696,-36.10317,-110.6632,-50.33768,0.001067912,-0.1257102,0.09433498,0,0.3,0,0,0,0,
6.38224E+17,40.28753,52.64771,65.79259,29.817,-34.59632,102.7692,-17.01029,-0.4441859,-4.27255,-61.44649,-6.98289,34.50468,0,0,0,130.9604,74.67365,-13.85869,-36.10317,-110.6632,-50.33768,0.001067912,-0.1257102,0.09433498,0,0.3,0,0,0,0,
6.38224E+17,39.06242,53.44257,59.93243,27.69288,-35.47526,104.9665,-17.01029,-0.4441859,-4.27255,-61.44649,-6.98289,34.57793,0,0,0,122.7771,63.65361,-17.07014,-36.10317,-110.6632,-50.33768,0.001067912,-0.1257102,0.09433498,0,0.3,0,0,0,0,
6.38224E+17,38.61478,53.16203,56.43034,25.64202,-34.66956,107.4569,-17.01029,-0.4441859,-4.27255,-61.51973,-6.98289,34.57793,0,0,0,119.2367,56.33864,-19.06372,-36.10317,-110.6632,-50.33768,0.001067912,-0.1257102,0.09433498,0,0.3,0,0,0,0,
6.38224E+17,38.21426,50.66056,49.65963,21.61354,-30.78757,110.8994,-17.01029,-0.4441859,-4.27255,-61.51973,-6.98289,34.57793,0,0,0,115.1676,40.16239,-22.07302,-36.10317,-110.6632,-50.33768,0.001067912,-0.1257102,0.09433498,0,0.3,0,0,0,0,
6.38224E+17,38.21426,46.07844,45.31704,19.26969,-25.29418,112.0713,-17.01029,-0.4441859,-4.27255,-61.44649,-6.98289,34.57793,0,0,0,115.8734,25.6312,-21.1766,-36.10317,-110.6632,-50.33768,0.001067912,-0.1257102,0.09433498,0,0.3,0,0,0,0,
6.38224E+17,38.1907,43.2263,43.19244,18.68373,-21.9249,112.584,-17.01029,-0.4441859,-4.27255,-61.44649,-6.98289,34.57793,0,0,0,116.5073,17.45896,-20.2461,-36.10317,-110.6632,-50.33768,0.001067912,-0.1257102,0.09433498,0,0.3,0,0,0,0,
6.38224E+17,37.90798,37.4285,40.57755,18.75698,-14.67363,113.6095,-17.01029,-0.4441859,-4.27255,-61.44649,-6.909645,34.57793,0,0,0,118.3546,3.113431,-16.36052,-36.10317,-110.6632,-50.33768,0.001067912,-0.1257102,0.09433498,0,0.3,0,0,0,0,
6.38224E+17,36.04674,31.46706,38.66307,19.70916,-6.250438,116.6858,-17.01029,-0.4441859,-4.27255,-61.44649,-6.909645,34.57793,0,0,0,115.9523,-11.1643,-9.028856,-36.10317,-110.6632,-50.33768,0.001067912,-0.1257102,0.09433498,0,0.3,0,0,0,0,
6.38224E+17,34.23262,29.19938,36.77194,19.9289,-2.661425,119.1029,-17.01029,-0.4441859,-4.27255,-61.44649,-6.98289,34.57793,0,0,0,110.3913,-18.41181,-6.112849,-36.10317,-110.6632,-50.33768,0.001067912,-0.1257102,0.09433498,0,0.3,0,0,0,0,
6.38224E+17,32.67767,27.96033,35.72132,19.48943,-0.5373149,119.8353,-17.01029,-0.4441859,-4.27255,-61.44649,-6.98289,34.50468,0,0,0,105.6284,-22.38988,-3.675743,-36.10317,-110.6632,-50.33768,0.001067912,-0.1257102,0.09433498,0,0.3,0,0,0,0,
6.38224E+17,28.64891,26.4875,33.7368,17.43856,2.905208,120.8607,-17.01029,-0.4441859,-4.27255,-61.51973,-6.98289,34.57793,0,0,0,92.72978,-28.06909,1.38353,-36.10317,-110.6632,-50.33768,0.001067912,-0.1257102,0.09433498,0,0.3,0,0,0,0,
6.38224E+17,23.27724,25.94981,32.33596,13.26359,5.102563,122.8384,-17.01029,-0.4441859,-4.27255,-61.44649,-6.98289,34.57793,0,0,0,75.57117,-30.96915,7.316344,-36.10317,-110.6632,-50.33768,0.001067912,-0.1257102,0.09433498,0,0.3,0,0,0,0,
6.38224E+17,16.27993,26.32386,31.96241,6.671522,6.494221,125.0357,-17.01029,-0.4441859,-4.27255,-61.51973,-6.98289,34.57793,0,0,0,53.2943,-30.65024,14.13954,-36.10317,-110.6632,-50.33768,0.001067912,-0.1257102,0.09433498,0,0.3,0,0,0,0,
6.38224E+17,12.15694,27.18885,32.54609,1.69085,7.080183,126.2076,-17.01029,-0.4441859,-4.27255,-61.51973,-6.98289,34.57793,0,0,0,40.08686,-28.12765,17.73606,-36.10317,-110.6632,-50.33768,0.001067912,-0.1257102,0.09433498,0,0.3,0,0,0,0,
6.38224E+17,5.018272,30.71896,35.8614,-10.17487,7.006938,129.2839,-17.01029,-0.4441859,-4.27255,-61.51973,-6.98289,34.57793,0,0,0,16.86127,-16.60287,23.66986,-36.10317,-110.6632,-50.33768,0.001067912,-0.1257102,0.09433498,0,0.3,0,0,0,0,
6.38224E+17,0.7774788,36.23622,41.16123,-23.359,5.102563,133.0927,-17.01029,-0.4441859,-4.27255,-61.44649,-6.909645,34.57793,0,0,0,2.650416,1.781324,26.9587,-36.10317,-110.6632,-50.33768,0.001067912,-0.1257102,0.09433498,0,0.3,0,0,0,0,
6.38224E+17,0.09423985,39.29876,43.79947,-29.3651,3.63766,135.4365,-17.01029,-0.4441859,-4.27255,-61.44649,-6.98289,34.50468,0,0,0,0.3215407,11.56153,27.13956,-36.10317,-110.6632,-50.33768,0.001067912,-0.1257102,0.09433498,0,0.3,0,0,0,0,
6.38224E+17,0.7774788,46.73303,49.51955,-38.81373,-0.5373149,144.1527,-17.01029,-0.4441859,-4.27255,-61.44649,-6.909645,34.50468,0,0,0,2.616506,33.88191,24.45985,-36.10317,-110.6632,-50.33768,0.001067912,-0.1257102,0.09433498,0,0.3,0,0,0,0,
6.38224E+17,3.039235,54.26081,55.21629,-43.7944,-6.763155,144.8119,-17.01029,-0.4441859,-4.27255,-61.44649,-6.98289,34.57793,0,0,0,9.936499,55.51456,18.79754,-36.10317,-110.6632,-50.33768,0.001067912,-0.1257102,0.09433498,0,0.3,0,0,0,0,
6.38224E+17,4.358593,57.32335,57.41092,-45.2593,-10.20568,144.8119,-17.01029,-0.4441859,-4.27255,-61.44649,-6.909645,34.57793,0,0,0,14.01032,63.77116,15.46688,-36.10317,-110.6632,-50.33768,0.001067912,-0.1257102,0.09433498,0,0.3,0,0,0,0,
6.38224E+17,7.115108,61.8821,60.39938,-47.09043,-16.28502,144.9584,-17.01029,-0.4441859,-4.27255,-61.44649,-6.98289,34.57793,0,0,0,22.14581,75.09358,9.065779,-36.10317,-110.6632,-50.33768,0.001067912,-0.1257102,0.09433498,0,0.3,0,0,0,0,
6.38224E+17,10.01298,65.03816,61.07645,-47.09043,-20.82623,144.8119,-17.01029,-0.4441859,-4.27255,-61.44649,-6.98289,34.57793,0,0,0,30.07841,79.74996,2.007377,-36.10317,-110.6632,-50.33768,0.001067912,-0.1257102,0.09433498,0,0.3,0,0,0,0,
6.38224E+17,12.58102,67.44612,59.62892,-45.11281,-22.87709,144.9584,-17.01029,-0.4441859,-4.27255,-61.51973,-6.98289,34.57793,0,0,0,36.201,79.07974,-6.143643,-36.10317,-110.6632,-50.33768,0.001067912,-0.1257102,0.09433498,0,0.3,0,0,0,0,
6.38224E+17,13.78258,68.6384,58.15804,-43.50142,-23.17007,144.8852,-17.01029,-0.4441859,-4.27255,-61.44649,-6.909645,34.57793,0,0,0,38.55998,77.18634,-11.15554,-36.10317,-110.6632,-50.33768,0.001067912,-0.1257102,0.09433498,0,0.3,0,0,0,0,
6.38224E+17,15.59669,70.15799,54.51587,-39.98565,-22.80385,144.8852,-17.01029,-0.4441859,-4.27255,-61.44649,-6.909645,34.57793,0,0,0,41.3638,71.37662,-20.16849,-36.10317,-110.6632,-50.33768,0.001067912,-0.1257102,0.09433498,0,0.3,0,0,0,0,
6.38224E+17,16.49197,70.11123,50.12658,-36.9826,-21.63192,141.5891,-17.01029,-0.4441859,-4.27255,-61.51973,-6.98289,34.57793,0,0,0,41.93098,63.25647,-26.72053,-36.10317,-110.6632,-50.33768,0.001067912,-0.1257102,0.09433498,0,0.3,0,0,0,0,
6.38224E+17,16.51553,69.48002,47.48834,-35.66418,-20.53325,139.6115,-17.01029,-0.4441859,-4.27255,-61.44649,-6.909645,34.57793,0,0,0,41.23166,58.12898,-29.29271,-36.10317,-110.6632,-50.33768,0.001067912,-0.1257102,0.09433498,0,0.3,0,0,0,0,
6.38224E+17,16.02077,66.62788,41.16123,-33.68657,-17.23721,134.8506,-17.01029,-0.4441859,-4.27255,-61.44649,-6.98289,34.57793,0,0,0,38.8225,45.36439,-33.14488,-36.10317,-110.6632,-50.33768,0.001067912,-0.1257102,0.09433498,0,0.3,0,0,0,0,
6.38224E+17,15.21973,61.90548,35.06759,-32.14842,-12.69601,130.0164,-17.01029,-0.4441859,-4.27255,-61.44649,-6.909645,34.57793,0,0,0,36.59903,31.84401,-33.82636,-36.10317,-110.6632,-50.33768,0.001067912,-0.1257102,0.09433498,0,0.3,0,0,0,0,
6.38224E+17,14.4187,55.03229,29.37086,-31.48921,-6.030703,126.5739,-17.01029,-0.4441859,-4.27255,-61.44649,-6.98289,34.57793,0,0,0,35.31596,16.41737,-30.98953,-36.10317,-110.6632,-50.33768,0.001067912,-0.1257102,0.09433498,0,0.3,0,0,0,0,
6.38224E+17,14.27734,48.6968,25.44852,-31.70894,0.4148723,124.0835,-17.01029,-0.4441859,-4.27255,-61.51973,-6.98289,34.57793,0,0,0,35.83753,3.114871,-27.52105,-36.10317,-110.6632,-50.33768,0.001067912,-0.1257102,0.09433498,0,0.3,0,0,0,0,
6.38224E+17,14.46582,44.81602,23.65078,-32.07517,4.516602,121.8129,-17.01029,-0.4441859,-4.27255,-61.51973,-6.98289,34.57793,0,0,0,36.99318,-4.81019,-24.9551,-36.10317,-110.6632,-50.33768,0.001067912,-0.1257102,0.09433498,0,0.3,0,0,0,0,
6.38224E+17,15.45534,38.43377,21.47948,-32.73438,12.28059,116.759,-17.01029,-0.4441859,-4.27255,-61.51973,-6.909645,34.57793,0,0,0,40.84853,-17.84704,-20.60782,-36.10317,-110.6632,-50.33768,0.001067912,-0.1257102,0.09433498,0,0.3,0,0,0,0,
6.38224E+17,17.10453,33.45421,20.98919,-32.29491,19.45862,112.4375,-17.01029,-0.4441859,-4.27255,-61.51973,-6.909645,34.57793,0,0,0,46.771,-27.64006,-16.36126,-36.10317,-110.6632,-50.33768,0.001067912,-0.1257102,0.09433498,0,0.3,0,0,0,0,
6.38224E+17,18.21185,32.02814,21.15262,-31.70894,22.31518,111.0459,-17.01029,-0.4441859,-4.27255,-61.51973,-6.98289,34.57793,0,0,0,50.37141,-30.29495,-15.25122,-36.10317,-110.6632,-50.33768,0.001067912,-0.1257102,0.09433498,0,0.3,0,0,0,0,
6.38224E+17,21.22752,30.71896,21.85304,-29.58484,26.70989,109.1415,-17.01029,-0.4441859,-4.27255,-61.44649,-6.98289,34.57793,0,0,0,59.47954,-32.29885,-15.22082,-36.10317,-110.6632,-50.33768,0.001067912,-0.1257102,0.09433498,0,0.3,0,0,0,0,
6.38224E+17,25.60968,30.78909,23.58074,-25.48311,28.61426,107.4569,-17.01029,-0.4441859,-4.27255,-61.51973,-6.98289,34.57793,0,0,0,72.5731,-30.6058,-16.94389,-36.10317,-110.6632,-50.33768,0.001067912,-0.1257102,0.09433498,0,0.3,0,0,0,0,
6.38224E+17,30.25099,31.04625,26.70927,-19.62349,28.54102,106.4314,-17.01029,-0.4441859,-4.27255,-61.44649,-6.98289,34.57793,0,0,0,87.75184,-26.9988,-17.88541,-36.10317,-110.6632,-50.33768,0.001067912,-0.1257102,0.09433498,0,0.3,0,0,0,0,
6.38224E+17,33.21954,31.35017,29.62768,-14.78931,27.95506,106.0652,-17.01029,-0.4441859,-4.27255,-61.44649,-6.98289,34.57793,0,0,0,98.50567,-23.18769,-17.92958,-36.10317,-110.6632,-50.33768,0.001067912,-0.1257102,0.09433498,0,0.3,0,0,0,0,
6.38224E+17,36.23522,32.05152,33.12977,-9.002944,26.5634,105.992,-17.01029,-0.4441859,-4.27255,-61.44649,-6.98289,34.57793,0,0,0,109.8884,-17.55555,-18.40008,-36.10317,-110.6632,-50.33768,0.001067912,-0.1257102,0.09433498,0,0.3,0,0,0,0,
6.38224E+17,39.18022,33.50097,37.12215,-2.117898,24.14631,106.0652,-17.01029,-0.4441859,-4.27255,-61.44649,-6.98289,34.57793,0,0,0,121.0938,-9.37404,-19.76966,-36.10317,-110.6632,-50.33768,0.001067912,-0.1257102,0.09433498,0,0.3,0,0,0,0,
6.38224E+17,40.45245,34.41272,38.9199,0.9583986,22.75465,106.1385,-17.01029,-0.4441859,-4.27255,-61.44649,-6.98289,34.57793,0,0,0,125.7323,-5.03688,-20.88877,-36.10317,-110.6632,-50.33768,0.001067912,-0.1257102,0.09433498,0,0.3,0,0,0,0,
6.38224E+17,42.69065,36.70378,42.32859,6.671522,19.31213,105.9187,-17.01029,-0.4441859,-4.27255,-61.51973,-6.909645,34.57793,0,0,0,133.3751,4.465357,-23.76542,-36.10317,-110.6632,-50.33768,0.001067912,-0.1257102,0.09433498,0,0.3,0,0,0,0,
6.38224E+17,44.85817,39.25201,45.85403,12.23815,15.57662,104.6003,-17.01029,-0.4441859,-4.27255,-61.51973,-6.909645,34.57793,0,0,0,140.3302,14.84809,-27.32331,-36.10317,-110.6632,-50.33768,0.001067912,-0.1257102,0.09433498,0,0.3,0,0,0,0,
6.38224E+17,46.69584,41.70671,49.47286,17.6583,11.62138,101.4508,-17.01029,-0.4441859,-4.27255,-61.44649,-6.909645,34.57793,0,0,0,146.2089,25.41821,-30.54964,-36.10317,-110.6632,-50.33768,0.001067912,-0.1257102,0.09433498,0,0.3,0,0,0,0,
6.38224E+17,47.92096,43.88089,53.93219,23.37142,7.519653,97.42229,-17.01029,-0.4441859,-4.27255,-61.44649,-6.98289,34.57793,0,0,0,151.3432,37.27428,-31.70142,-36.10317,-110.6632,-50.33768,0.001067912,-0.1257102,0.09433498,0,0.3,0,0,0,0,
6.38224E+17,48.3686,44.90953,56.8039,26.66745,5.249053,94.8587,-17.01029,-0.4441859,-4.27255,-61.44649,-6.98289,34.57793,0,0,0,153.9931,44.48372,-31.47757,-36.10317,-110.6632,-50.33768,0.001067912,-0.1257102,0.09433498,0,0.3,0,0,0,0,
6.38224E+17,48.4864,46.84992,61.9403,33.25952,1.220569,90.46399,-17.01029,-0.4441859,-4.27255,-61.51973,-6.98289,34.57793,0,0,0,156.4056,57.91077,-29.90785,-36.10317,-110.6632,-50.33768,0.001067912,-0.1257102,0.09433498,0,0.3,0,0,0,0,
6.38224E+17,47.92096,49.2345,65.18556,39.85158,-2.368444,87.31445,-17.01029,-0.4441859,-4.27255,-61.51973,-6.98289,34.57793,0,0,0,154.4643,68.3833,-28.88343,-36.10317,-110.6632,-50.33768,0.001067912,-0.1257102,0.09433498,0,0.3,0,0,0,0,
6.38224E+17,47.49688,50.66056,65.97938,42.70815,-4.199574,86.43551,-17.01029,-0.4441859,-4.27255,-61.51973,-6.98289,34.57793,0,0,0,152.1179,72.20125,-28.94443,-36.10317,-110.6632,-50.33768,0.001067912,-0.1257102,0.09433498,0,0.3,0,0,0,0,
6.38224E+17,46.6016,53.53609,66.1895,46.5169,-7.202625,85.48332,-17.01029,-0.4441859,-4.27255,-61.44649,-6.909645,34.57793,0,0,0,146.2285,76.75912,-30.07629,-36.10317,-110.6632,-50.33768,0.001067912,-0.1257102,0.09433498,0,0.3,0,0,0,0,
6.38224E+17,45.37648,56.59863,65.11552,48.71425,-9.839451,85.41007,-17.01029,-0.4441859,-4.27255,-61.44649,-6.98289,34.57793,0,0,0,138.3467,78.56286,-31.80954,-36.10317,-110.6632,-50.33768,0.001067912,-0.1257102,0.09433498,0,0.3,0,0,0,0,
6.38224E+17,43.77441,59.70793,62.99092,49.22696,-12.40303,87.60744,-17.01029,-0.4441859,-4.27255,-61.44649,-6.98289,34.50468,0,0,0,128.7263,77.93465,-33.99532,-36.10317,-110.6632,-50.33768,0.001067912,-0.1257102,0.09433498,0,0.3,0,0,0,0,
6.38224E+17,42.94981,61.11063,61.63678,48.71425,-13.6482,89.29208,-17.01029,-0.4441859,-4.27255,-61.44649,-6.98289,34.57793,0,0,0,123.8475,76.75597,-35.3063,-36.10317,-110.6632,-50.33768,0.001067912,-0.1257102,0.09433498,0,0.3,0,0,0,0,
6.38224E+17,41.51265,63.14453,58.81176,46.59014,-15.99205,93.02757,-17.01029,-0.4441859,-4.27255,-61.44649,-6.909645,34.57793,0,0,0,115.5346,73.26257,-37.81999,-36.10317,-110.6632,-50.33768,0.001067912,-0.1257102,0.09433498,0,0.3,0,0,0,0,
6.38224E+17,40.49957,63.96276,55.21629,43.29411,-17.09072,97.49553,-17.01029,-0.4441859,-4.27255,-61.44649,-6.98289,34.57793,0,0,0,109.143,67.09264,-40.55799,-36.10317,-110.6632,-50.33768,0.001067912,-0.1257102,0.09433498,0,0.3,0,0,0,0,
6.38224E+17,40.35821,63.61209,53.90884,41.38973,-16.57801,100.2788,-17.01029,-0.4441859,-4.27255,-61.44649,-6.98289,34.57793,0,0,0,108.1591,64.25295,-41.07556,-36.10317,-110.6632,-50.33768,0.001067912,-0.1257102,0.09433498,0,0.3,0,0,0,0,
6.38224E+17,40.47601,63.30818,53.93219,40.3643,-16.13853,101.817,-17.01029,-0.4441859,-4.27255,-61.44649,-6.98289,34.57793,0,0,0,108.8521,63.98082,-40.7925,-36.10317,-110.6632,-50.33768,0.001067912,-0.1257102,0.09433498,0,0.3,0,0,0,0,
6.38224E+17,41.22993,62.77048,55.02951,39.63185,-15.55258,103.4284,-17.01029,-0.4441859,-4.27255,-61.51973,-6.98289,34.57793,0,0,0,112.2341,65.49209,-40.28107,-36.10317,-110.6632,-50.33768,0.001067912,-0.1257102,0.09433498,0,0.3,0,0,0,0,
6.38224E+17,42.03097,61.74184,56.52373,41.02351,-15.18635,103.5749,-17.01029,-0.4441859,-4.27255,-61.44649,-6.98289,34.57793,0,0,0,116.7417,67.25304,-38.83607,-36.10317,-110.6632,-50.33768,0.001067912,-0.1257102,0.09433498,0,0.3,0,0,0,0,
6.38224E+17,42.24301,60.1755,57.43428,43.07437,-14.82012,102.6959,-17.01029,-0.4441859,-4.27255,-61.44649,-6.909645,34.57793,0,0,0,120.1391,67.2603,-36.0547,-36.10317,-110.6632,-50.33768,0.001067912,-0.1257102,0.09433498,0,0.3,0,0,0,0,
6.38224E+17,42.24301,59.42739,57.52766,43.95331,-14.30741,102.403,-17.01029,-0.4441859,-4.27255,-61.44649,-6.909645,34.57793,0,0,0,121.2293,66.56779,-34.85418,-36.10317,-110.6632,-50.33768,0.001067912,-0.1257102,0.09433498,0,0.3,0,0,0,0,
6.38224E+17,42.21945,58.18835,57.50431,45.12524,-13.06224,102.1832,-17.01029,-0.4441859,-4.27255,-61.44649,-6.909645,34.57793,0,0,0,122.8125,65.02847,-32.99909,-36.10317,-110.6632,-50.33768,0.001067912,-0.1257102,0.09433498,0,0.3,0,0,0,0,
6.38224E+17,42.26657,57.29997,58.06465,45.85769,-11.89032,102.3297,-17.01029,-0.4441859,-4.27255,-61.44649,-6.98289,34.57793,0,0,0,124.5673,65.02834,-31.29172,-36.10317,-110.6632,-50.33768,0.001067912,-0.1257102,0.09433498,0,0.3,0,0,0,0,
6.38224E+17,42.69065,57.13633,59.79235,46.22392,-11.52409,103.0622,-17.01029,-0.4441859,-4.27255,-61.44649,-6.909645,34.57793,0,0,0,127.2026,68.26611,-30.45677,-36.10317,-110.6632,-50.33768,0.001067912,-0.1257102,0.09433498,0,0.3,0,0,0,0,
6.38224E+17,43.46813,57.11295,62.19712,47.32259,-11.81707,103.4284,-17.01029,-0.4441859,-4.27255,-61.51973,-6.909645,34.57793,0,0,0,130.9602,73.13108,-30.19287,-36.10317,-110.6632,-50.33768,0.001067912,-0.1257102,0.09433498,0,0.3,0,0,0,0,
6.38224E+17,44.57545,56.64539,65.20892,49.88617,-12.69601,103.1354,-17.01029,-0.4441859,-4.27255,-61.44649,-6.909645,34.57793,0,0,0,136.4246,78.81997,-29.88845,-36.10317,-110.6632,-50.33768,0.001067912,-0.1257102,0.09433498,0,0.3,0,0,0,0,
6.38224E+17,44.99953,56.17782,66.07276,51.35107,-12.98899,102.4762,-17.01029,-0.4441859,-4.27255,-61.44649,-6.98289,34.57793,0,0,0,138.6731,80.04948,-29.67462,-36.10317,-110.6632,-50.33768,0.001067912,-0.1257102,0.09433498,0,0.3,0,0,0,0,
6.38224E+17,45.91837,54.44784,66.04942,53.84141,-12.76926,100.7916,-17.01029,-0.4441859,-4.27255,-61.51973,-6.98289,34.57793,0,0,0,143.2414,77.70851,-29.62841,-36.10317,-110.6632,-50.33768,0.001067912,-0.1257102,0.09433498,0,0.3,0,0,0,0,
6.38224E+17,46.15396,53.93351,65.65251,53.9879,-12.47628,100.5718,-17.01029,-0.4441859,-4.27255,-61.44649,-6.98289,34.57793,0,0,0,144.2382,76.16524,-29.80792,-36.10317,-110.6632,-50.33768,0.001067912,-0.1257102,0.09433498,0,0.3,0,0,0,0,
6.38224E+17,46.64872,52.64771,64.62523,53.76817,-11.67058,100.4253,-17.01029,-0.4441859,-4.27255,-61.44649,-6.909645,34.57793,0,0,0,146.4427,72.20715,-30.10175,-36.10317,-110.6632,-50.33768,0.001067912,-0.1257102,0.09433498,0,0.3,0,0,0,0,
6.38224E+17,47.21416,50.45016,63.41117,52.88922,-10.42541,100.2788,-17.01029,-0.4441859,-4.27255,-61.44649,-6.909645,34.57793,0,0,0,149.8308,66.4869,-29.67392,-36.10317,-110.6632,-50.33768,0.001067912,-0.1257102,0.09433498,0,0.3,0,0,0,0,
6.38224E+17,47.52044,49.16436,62.94423,52.30326,-9.473226,100.2788,-17.01029,-0.4441859,-4.27255,-61.44649,-6.909645,34.57793,0,0,0,151.8942,63.58581,-29.26425,-36.10317,-110.6632,-50.33768,0.001067912,-0.1257102,0.09433498,0,0.3,0,0,0,0,
6.38224E+17,48.41572,45.93817,62.17377,50.76511,-7.12938,100.2788,-17.01029,-0.4441859,-4.27255,-61.44649,-6.98289,34.57793,0,0,0,157.5744,56.92728,-28.52619,-36.10317,-110.6632,-50.33768,0.001067912,-0.1257102,0.09433498,0,0.3,0,0,0,0,
6.38224E+17,49.71152,42.03401,62.01034,49.00723,-4.346064,100.2788,-17.01029,-0.4441859,-4.27255,-61.44649,-6.98289,34.57793,0,0,0,165.373,50.05458,-28.16068,-36.10317,-110.6632,-50.33768,0.001067912,-0.1257102,0.09433498,0,0.3,0,0,0,0,
6.38224E+17,51.12512,37.80256,62.99092,47.46908,-1.489502,99.61964,-17.01029,-0.4441859,-4.27255,-61.44649,-6.98289,34.57793,0,0,0,174.5202,44.5274,-27.65623,-36.10317,-110.6632,-50.33768,0.001067912,-0.1257102,0.09433498,0,0.3,0,0,0,0,
6.38224E+17,51.73767,35.72189,63.97151,46.88312,-0.3175794,98.59421,-17.01029,-0.4441859,-4.27255,-61.44649,-6.98289,34.57793,0,0,0,179.09,42.69021,-27.10438,-36.10317,-110.6632,-50.33768,0.001067912,-0.1257102,0.09433498,0,0.3,0,0,0,0,
6.38224E+17,52.89211,31.56057,66.95996,46.15067,2.099511,95.66441,-17.01029,-0.4441859,-4.27255,-61.44649,-6.98289,34.57793,0,0,0,188.4803,40.95558,-25.76265,-36.10317,-110.6632,-50.33768,0.001067912,-0.1257102,0.09433498,0,0.3,0,0,0,0,
6.38224E+17,53.48111,29.22275,69.73828,46.22392,3.93064,93.02757,-17.01029,-0.4441859,-4.27255,-61.44649,-6.909645,34.57793,0,0,0,194.0653,42.27201,-24.65018,-36.10317,-110.6632,-50.33768,0.001067912,-0.1257102,0.09433498,0,0.3,0,0,0,0,
6.38224E+17,53.69315,28.56816,71.3259,46.59014,4.809582,91.63592,-17.01029,-0.4441859,-4.27255,-61.44649,-6.98289,34.57793,0,0,0,196.1814,44.42185,-24.20432,-36.10317,-110.6632,-50.33768,0.001067912,-0.1257102,0.09433498,0,0.3,0,0,0,0,
6.38224E+17,53.88163,28.68506,74.50112,48.05504,6.201241,89.36532,-17.01029,-0.4441859,-4.27255,-61.51973,-6.98289,34.57793,0,0,0,198.303,51.72358,-23.64757,-36.10317,-110.6632,-50.33768,0.001067912,-0.1257102,0.09433498,0,0.3,0,0,0,0,
6.38224E+17,53.69315,29.85397,77.39619,50.39889,6.933692,88.26664,-17.01029,-0.4441859,-4.27255,-61.44649,-6.98289,34.57793,0,0,0,198.0722,60.63237,-22.81504,-36.10317,-110.6632,-50.33768,0.001067912,-0.1257102,0.09433498,0,0.3,0,0,0,0,
6.38224E+17,53.43399,30.92937,78.70364,51.93703,6.860447,87.82717,-17.01029,-0.4441859,-4.27255,-61.51973,-6.98289,34.50468,0,0,0,196.901,65.76823,-22.2996,-36.10317,-110.6632,-50.33768,0.001067912,-0.1257102,0.09433498,0,0.3,0,0,0,0,
6.38224E+17,52.65651,33.64123,80.96832,55.23307,6.420976,87.24121,-17.01029,-0.4441859,-4.27255,-61.44649,-6.909645,34.57793,0,0,0,192.9605,76.29131,-21.12188,-36.10317,-110.6632,-50.33768,0.001067912,-0.1257102,0.09433498,0,0.3,0,0,0,0,
6.38224E+17,51.57275,36.77391,82.97619,58.82208,5.468789,86.80173,-17.01029,-0.4441859,-4.27255,-61.44649,-6.98289,34.57793,0,0,0,187.3599,86.87488,-19.70523,-36.10317,-110.6632,-50.33768,0.001067912,-0.1257102,0.09433498,0,0.3,0,0,0,0,
6.38224E+17,50.22984,39.90659,84.28363,62.70407,4.370111,86.65524,-17.01029,-0.4441859,-4.27255,-61.51973,-6.98289,34.57793,0,0,0,180.6084,95.61687,-18.03201,-36.10317,-110.6632,-50.33768,0.001067912,-0.1257102,0.09433498,0,0.3,0,0,0,0,
6.38224E+17,49.40524,41.98725,84.40037,64.97468,3.63766,86.65524,-17.01029,-0.4441859,-4.27255,-61.51973,-6.98289,34.57793,0,0,0,176.0371,99.54469,-17.49589,-36.10317,-110.6632,-50.33768,0.001067912,-0.1257102,0.09433498,0,0.3,0,0,0,0,
6.38224E+17,48.29792,44.74588,84.35367,67.68475,2.538982,87.16796,-17.01029,-0.4441859,-4.27255,-61.44649,-6.98289,34.57793,0,0,0,169.7897,104.1036,-17.06182,-36.10317,-110.6632,-50.33768,0.001067912,-0.1257102,0.09433498,0,0.3,0,0,0,0,
6.38224E+17,46.93144,47.92532,84.14355,70.98078,1.147324,89.14558,-17.01029,-0.4441859,-4.27255,-61.44649,-6.909645,34.57793,0,0,0,162.1878,108.7254,-16.74423,-36.10317,-110.6632,-50.33768,0.001067912,-0.1257102,0.09433498,0,0.3,0,0,0,0,
6.38224E+17,46.38956,49.60855,83.88673,72.51893,0.268382,90.46399,-17.01029,-0.4441859,-4.27255,-61.51973,-6.98289,34.57793,0,0,0,158.5685,110.713,-17.29214,-36.10317,-110.6632,-50.33768,0.001067912,-0.1257102,0.09433498,0,0.3,0,0,0,0,
6.38224E+17,45.72989,52.8815,82.48589,75.15575,-1.928973,92.44161,-17.01029,-0.4441859,-4.27255,-61.44649,-6.98289,34.57793,0,0,0,152.2888,112.2436,-19.89253,-36.10317,-110.6632,-50.33768,0.001067912,-0.1257102,0.09433498,0,0.3,0,0,0,0,
6.38224E+17,45.6592,55.6635,80.12782,76.10795,-4.639044,93.76003,-17.01029,-0.4441859,-4.27255,-61.44649,-6.909645,34.57793,0,0,0,147.7535,110.5993,-23.95789,-36.10317,-110.6632,-50.33768,0.001067912,-0.1257102,0.09433498,0,0.3,0,0,0,0,
6.38224E+17,46.0126,57.44025,78.35342,75.30224,-7.495606,94.49248,-17.01029,-0.4441859,-4.27255,-61.44649,-6.909645,34.57793,0,0,0,145.6042,108.8215,-27.80354,-36.10317,-110.6632,-50.33768,0.001067912,-0.1257102,0.09433498,0,0.3,0,0,0,0,
6.38224E+17,46.31889,57.86105,77.65301,74.71628,-8.667529,94.63897,-17.01029,-0.4441859,-4.27255,-61.51973,-6.98289,34.57793,0,0,0,145.51,107.7511,-29.38933,-36.10317,-110.6632,-50.33768,0.001067912,-0.1257102,0.09433498,0,0.3,0,0,0,0,
6.38224E+17,47.11992,57.81429,76.55569,73.54436,-10.20568,94.78546,-17.01029,-0.4441859,-4.27255,-61.44649,-6.98289,34.57793,0,0,0,147.0884,105.2037,-31.76234,-36.10317,-110.6632,-50.33768,0.001067912,-0.1257102,0.09433498,0,0.3,0,0,0,0,
6.38224E+17,48.20368,57.15971,74.82799,71.78648,-10.86488,95.07844,-17.01029,-0.4441859,-4.27255,-61.44649,-6.98289,34.57793,0,0,0,149.8624,100.4887,-34.37486,-36.10317,-110.6632,-50.33768,0.001067912,-0.1257102,0.09433498,0,0.3,0,0,0,0,
6.38224E+17,49.5466,55.92066,71.95628,69.00316,-10.93813,95.59116,-17.01029,-0.4441859,-4.27255,-61.51973,-6.98289,34.57793,0,0,0,153.3383,92.49461,-37.60225,-36.10317,-110.6632,-50.33768,0.001067912,-0.1257102,0.09433498,0,0.3,0,0,0,0,
6.38224E+17,50.18272,55.05567,70.43871,67.31852,-10.71839,96.03063,-17.01029,-0.4441859,-4.27255,-61.51973,-6.98289,34.57793,0,0,0,155.1802,88.01058,-38.97939,-36.10317,-110.6632,-50.33768,0.001067912,-0.1257102,0.09433498,0,0.3,0,0,0,0,
6.38224E+17,51.29004,52.83474,67.45025,63.50977,-9.766206,96.98281,-17.01029,-0.4441859,-4.27255,-61.44649,-6.98289,34.57793,0,0,0,158.9623,78.47834,-40.95176,-36.10317,-110.6632,-50.33768,0.001067912,-0.1257102,0.09433498,0,0.3,0,0,0,0,
6.38224E+17,52.16175,49.63192,64.34506,59.55453,-7.935077,97.56878,-17.01029,-0.4441859,-4.27255,-61.44649,-6.909645,34.57793,0,0,0,163.1411,67.21536,-41.63025,-36.10317,-110.6632,-50.33768,0.001067912,-0.1257102,0.09433498,0,0.3,0,0,0,0,
6.38224E+17,52.51515,47.85518,62.89753,57.57691,-6.836399,97.78851,-17.01029,-0.4441859,-4.27255,-61.51973,-6.909645,34.57793,0,0,0,165.1986,61.47049,-41.65807,-36.10317,-110.6632,-50.33768,0.001067912,-0.1257102,0.09433498,0,0.3,0,0,0,0,
6.38224E+17,53.08059,43.55359,59.769,53.47519,-3.906592,97.93501,-17.01029,-0.4441859,-4.27255,-61.44649,-6.98289,34.57793,0,0,0,169.3761,48.09246,-41.08909,-36.10317,-110.6632,-50.33768,0.001067912,-0.1257102,0.09433498,0,0.3,0,0,0,0,
6.38224E+17,53.19839,38.92471,57.06072,49.66644,-0.6838052,97.93501,-17.01029,-0.4441859,-4.27255,-61.51973,-6.98289,34.50468,0,0,0,172.6791,34.62456,-39.16198,-36.10317,-110.6632,-50.33768,0.001067912,-0.1257102,0.09433498,0,0.3,0,0,0,0,
6.38224E+17,52.72719,33.64123,54.25905,45.49146,4.223621,97.86176,-17.01029,-0.4441859,-4.27255,-61.44649,-6.909645,34.57793,0,0,0,174.4727,19.33207,-35.56826,-36.10317,-110.6632,-50.33768,0.001067912,-0.1257102,0.09433498,0,0.3,0,0,0,0,
6.38224E+17,51.99683,30.9995,52.46131,42.6349,7.592898,97.86176,-17.01029,-0.4441859,-4.27255,-61.44649,-6.909645,34.57793,0,0,0,173.3885,10.77956,-32.86861,-36.10317,-110.6632,-50.33768,0.001067912,-0.1257102,0.09433498,0,0.3,0,0,0,0,
6.38224E+17,51.29004,29.76045,50.94373,40.95026,9.497273,98.22798,-17.01029,-0.4441859,-4.27255,-61.44649,-6.909645,34.57793,0,0,0,171.134,5.519986,-31.1969,-36.10317,-110.6632,-50.33768,0.001067912,-0.1257102,0.09433498,0,0.3,0,0,0,0,
6.38224E+17,49.35812,28.12398,47.30156,37.14151,13.30602,100.8648,-17.01029,-0.4441859,-4.27255,-61.51973,-6.98289,34.57793,0,0,0,163.6028,-4.221265,-27.91783,-36.10317,-110.6632,-50.33768,0.001067912,-0.1257102,0.09433498,0,0.3,0,0,0,0,
6.38224E+17,47.0728,27.5629,44.05629,32.60031,17.18801,104.4538,-17.01029,-0.4441859,-4.27255,-61.44649,-6.909645,34.57793,0,0,0,154.456,-10.77891,-24.68397,-36.10317,-110.6632,-50.33768,0.001067912,-0.1257102,0.09433498,0,0.3,0,0,0,0,
6.38224E+17,45.94193,27.5629,42.77219,30.54945,18.87265,106.6512,-17.01029,-0.4441859,-4.27255,-61.44649,-6.909645,34.50468,0,0,0,150.0304,-12.83285,-23.17317,-36.10317,-110.6632,-50.33768,0.001067912,-0.1257102,0.09433498,0,0.3,0,0,0,0,
6.38224E+17,43.23253,27.93695,40.46081,26.66745,21.87571,111.4121,-17.01029,-0.4441859,-4.27255,-61.51973,-6.98289,34.57793,0,0,0,139.9679,-15.63491,-19.46878,-36.10317,-110.6632,-50.33768,0.001067912,-0.1257102,0.09433498,0,0.3,0,0,0,0,
6.38224E+17,40.26397,29.76045,37.51905,22.56572,24.58578,116.759,-17.01029,-0.4441859,-4.27255,-61.44649,-6.909645,34.57793,0,0,0,127.3074,-16.22507,-18.04275,-36.10317,-110.6632,-50.33768,0.001067912,-0.1257102,0.09433498,0,0.3,0,0,0,0,
6.38224E+17,37.31898,33.40745,34.5773,18.3175,26.05068,121.227,-17.01029,-0.4441859,-4.27255,-61.44649,-6.98289,34.57793,0,0,0,113.3666,-13.02414,-19.63728,-36.10317,-110.6632,-50.33768,0.001067912,-0.1257102,0.09433498,0,0.3,0,0,0,0,
6.38224E+17,35.05722,36.70378,33.17647,15.31445,25.97744,124.4498,-17.01029,-0.4441859,-4.27255,-61.44649,-6.909645,34.57793,0,0,0,103.3239,-8.56214,-21.10139,-36.10317,-110.6632,-50.33768,0.001067912,-0.1257102,0.09433498,0,0.3,0,0,0,0,
6.38224E+17,32.37139,40.88848,32.54609,12.16491,25.02525,128.991,-17.01029,-0.4441859,-4.27255,-61.51973,-6.98289,34.57793,0,0,0,92.38412,-1.769164,-22.61509,-36.10317,-110.6632,-50.33768,0.001067912,-0.1257102,0.09433498,0,0.3,0,0,0,0,
6.38224E+17,28.60179,47.43437,33.01303,7.843444,22.09544,135.8027,-17.01029,-0.4441859,-4.27255,-61.51973,-6.98289,34.57793,0,0,0,77.9621,9.742484,-25.36803,-36.10317,-110.6632,-50.33768,0.001067912,-0.1257102,0.09433498,0,0.3,0,0,0,0,
6.38224E+17,26.29292,51.19827,34.1804,5.206618,19.7516,139.3185,-17.01029,-0.4441859,-4.27255,-61.51973,-6.98289,34.57793,0,0,0,70.19896,16.95535,-26.26898,-36.10317,-110.6632,-50.33768,0.001067912,-0.1257102,0.09433498,0,0.3,0,0,0,0,
6.38224E+17,20.56785,60.24563,40.22734,-3.289821,10.08323,144.5922,-17.01029,-0.4441859,-4.27255,-61.51973,-6.909645,34.57793,0,0,0,53.50536,37.30814,-25.75839,-36.10317,-110.6632,-50.33768,0.001067912,-0.1257102,0.09433498,0,0.3,0,0,0,0,
6.38224E+17,19.38985,62.58345,43.26248,-6.366118,5.835015,144.8119,-17.01029,-0.4441859,-4.27255,-61.44649,-6.909645,34.57793,0,0,0,50.72607,44.61409,-24.22399,-36.10317,-110.6632,-50.33768,0.001067912,-0.1257102,0.09433498,0,0.3,0,0,0,0,
6.38224E+17,18.37677,66.02005,49.33278,-11.12705,-2.661425,144.7387,-17.01029,-0.4441859,-4.27255,-61.51973,-6.98289,34.57793,0,0,0,48.97399,58.29077,-20.92922,-36.10317,-110.6632,-50.33768,0.001067912,-0.1257102,0.09433498,0,0.3,0,0,0,0,
6.38224E+17,18.28253,67.93706,54.46917,-14.49633,-11.15786,144.8119,-17.01029,-0.4441859,-4.27255,-61.44649,-6.98289,34.57793,0,0,0,49.75649,69.43987,-17.74625,-36.10317,-110.6632,-50.33768,0.001067912,-0.1257102,0.09433498,0,0.3,0,0,0,0,
6.38224E+17,18.32965,68.40462,56.82725,-15.88799,-15.47933,144.8119,-17.01029,-0.4441859,-4.27255,-61.44649,-6.909645,34.57793,0,0,0,50.53648,74.37517,-15.80665,-36.10317,-110.6632,-50.33768,0.001067912,-0.1257102,0.09433498,0,0.3,0,0,0,0,
6.38224E+17,18.49457,68.52151,59.83904,-17.93885,-22.80385,144.8119,-17.01029,-0.4441859,-4.27255,-61.44649,-6.909645,34.57793,0,0,0,52.06226,80.44036,-12.70327,-36.10317,-110.6632,-50.33768,0.001067912,-0.1257102,0.09433498,0,0.3,0,0,0,0,
6.38224E+17,18.56525,68.00719,60.30599,-19.18402,-27.78452,144.9584,-17.01029,-0.4441859,-4.27255,-61.44649,-6.98289,34.57793,0,0,0,52.78087,80.93893,-11.19958,-36.10317,-110.6632,-50.33768,0.001067912,-0.1257102,0.09433498,0,0.3,0,0,0,0,
6.38224E+17,18.56525,67.72665,59.97913,-19.40376,-29.17617,144.8119,-17.01029,-0.4441859,-4.27255,-61.51973,-6.98289,34.57793,0,0,0,52.85285,80.03317,-10.98526,-36.10317,-110.6632,-50.33768,0.001067912,-0.1257102,0.09433498,0,0.3,0,0,0,0,
6.38224E+17,18.56525,67.23571,59.06858,-19.33051,-30.71432,144.8852,-17.01029,-0.4441859,-4.27255,-61.51973,-6.909645,34.57793,0,0,0,52.84671,77.76918,-11.00357,-36.10317,-110.6632,-50.33768,0.001067912,-0.1257102,0.09433498,0,0.3,0,0,0,0,
6.38224E+17,18.49457,66.55774,57.08406,-18.8178,-30.49459,144.9584,-17.01029,-0.4441859,-4.27255,-61.51973,-6.98289,34.57793,0,0,0,52.33824,73.23004,-11.8782,-36.10317,-110.6632,-50.33768,0.001067912,-0.1257102,0.09433498,0,0.3,0,0,0,0,
6.38224E+17,18.32965,66.18369,55.75327,-18.67131,-29.76214,144.8852,-17.01029,-0.4441859,-4.27255,-61.51973,-6.98289,34.57793,0,0,0,51.59971,70.3008,-12.59731,-36.10317,-110.6632,-50.33768,0.001067912,-0.1257102,0.09433498,0,0.3,0,0,0,0,
6.38224E+17,17.92913,65.13168,52.08775,-18.74455,-26.90557,144.8852,-17.01029,-0.4441859,-4.27255,-61.51973,-6.909645,34.57793,0,0,0,49.65007,62.39791,-14.89723,-36.10317,-110.6632,-50.33768,0.001067912,-0.1257102,0.09433498,0,0.3,0,0,0,0,
6.38224E+17,17.62285,63.65885,48.30549,-19.11078,-23.24332,145.0316,-17.01029,-0.4441859,-4.27255,-61.44649,-6.98289,34.57793,0,0,0,48.05917,54.15508,-17.05767,-36.10317,-110.6632,-50.33768,0.001067912,-0.1257102,0.09433498,0,0.3,0,0,0,0,
6.38224E+17,17.43437,62.70034,46.20424,-19.33051,-20.89947,144.9584,-17.01029,-0.4441859,-4.27255,-61.44649,-6.98289,34.57793,0,0,0,47.16324,49.5573,-18.1677,-36.10317,-110.6632,-50.33768,0.001067912,-0.1257102,0.09433498,0,0.3,0,0,0,0,
6.38224E+17,17.12809,60.66644,42.65545,-19.76999,-15.99205,144.9584,-17.01029,-0.4441859,-4.27255,-61.44649,-6.98289,34.57793,0,0,0,45.85022,41.53105,-19.57113,-36.10317,-110.6632,-50.33768,0.001067912,-0.1257102,0.09433498,0,0.3,0,0,0,0,
6.38224E+17,16.91605,58.42213,39.62031,-20.2827,-10.79164,144.8852,-17.01029,-0.4441859,-4.27255,-61.51973,-6.98289,34.57793,0,0,0,45.06156,34.23696,-20.1842,-36.10317,-110.6632,-50.33768,0.001067912,-0.1257102,0.09433498,0,0.3,0,0,0,0,
6.38224E+17,16.75113,55.75702,36.49178,-20.86866,-5.810967,144.8119,-17.01029,-0.4441859,-4.27255,-61.44649,-6.98289,34.57793,0,0,0,44.48336,26.37923,-20.55857,-36.10317,-110.6632,-50.33768,0.001067912,-0.1257102,0.09433498,0,0.3,0,0,0,0,
6.38224E+17,16.77469,54.14392,34.92751,-21.0884,-3.393876,144.8119,-17.01029,-0.4441859,-4.27255,-61.51973,-6.98289,34.57793,0,0,0,44.57798,22.09835,-20.46456,-36.10317,-110.6632,-50.33768,0.001067912,-0.1257102,0.09433498,0,0.3,0,0,0,0,
6.38224E+17,17.05741,50.42678,31.86902,-21.60111,2.026266,144.9584,-17.01029,-0.4441859,-4.27255,-61.51973,-6.98289,34.57793,0,0,0,45.57127,12.8892,-19.82554,-36.10317,-110.6632,-50.33768,0.001067912,-0.1257102,0.09433498,0,0.3,0,0,0,0,
6.38224E+17,17.43437,46.45249,29.16073,-21.82085,7.153428,144.2992,-17.01029,-0.4441859,-4.27255,-61.44649,-6.98289,34.57793,0,0,0,46.99389,3.553809,-18.70695,-36.10317,-110.6632,-50.33768,0.001067912,-0.1257102,0.09433498,0,0.3,0,0,0,0,
6.38224E+17,17.74065,44.04454,27.82994,-21.96734,9.790254,142.9808,-17.01029,-0.4441859,-4.27255,-61.44649,-6.909645,34.57793,0,0,0,48.17637,-1.869132,-17.76243,-36.10317,-110.6632,-50.33768,0.001067912,-0.1257102,0.09433498,0,0.3,0,0,0,0,
6.38224E+17,19.15425,38.8312,25.79873,-21.82085,15.8696,139.6115,-17.01029,-0.4441859,-4.27255,-61.44649,-6.909645,34.57793,0,0,0,53.1262,-13.09461,-15.3992,-36.10317,-110.6632,-50.33768,0.001067912,-0.1257102,0.09433498,0,0.3,0,0,0,0,
6.38224E+17,21.84008,34.20231,24.7481,-20.50244,22.38842,136.6085,-17.01029,-0.4441859,-4.27255,-61.51973,-6.98289,34.57793,0,0,0,61.7967,-22.79448,-14.16015,-36.10317,-110.6632,-50.33768,0.001067912,-0.1257102,0.09433498,0,0.3,0,0,0,0,
6.38224E+17,26.2458,30.78909,24.77145,-17.42614,27.36909,132.9462,-17.01029,-0.4441859,-4.27255,-61.44649,-6.98289,34.50468,0,0,0,75.36756,-29.47087,-15.49143,-36.10317,-110.6632,-50.33768,0.001067912,-0.1257102,0.09433498,0,0.3,0,0,0,0,
6.38224E+17,31.28763,28.56816,26.14894,-12.88494,30.44539,129.2107,-17.01029,-0.4441859,-4.27255,-61.44649,-6.98289,34.57793,0,0,0,91.34193,-32.58333,-18.04581,-36.10317,-110.6632,-50.33768,0.001067912,-0.1257102,0.09433498,0,0.3,0,0,0,0,
6.38224E+17,33.99702,27.58628,27.50308,-9.66215,31.54407,127.819,-17.01029,-0.4441859,-4.27255,-61.44649,-6.98289,34.57793,0,0,0,100.5187,-33.17736,-19.30822,-36.10317,-110.6632,-50.33768,0.001067912,-0.1257102,0.09433498,0,0.3,0,0,0,0,
6.38224E+17,39.34513,25.97318,31.1219,-2.191144,32.64275,123.7905,-17.01029,-0.4441859,-4.27255,-61.51973,-6.98289,34.57793,0,0,0,119.7005,-32.40619,-22.33942,-36.10317,-110.6632,-50.33768,0.001067912,-0.1257102,0.09433498,0,0.3,0,0,0,0,
6.38224E+17,43.96289,24.9913,35.83805,5.133373,31.9103,118.0774,-17.01029,-0.4441859,-4.27255,-61.44649,-6.98289,34.57793,0,0,0,138.103,-28.41574,-25.15461,-36.10317,-110.6632,-50.33768,0.001067912,-0.1257102,0.09433498,0,0.3,0,0,0,0,
6.38224E+17,45.82413,24.94454,38.26617,8.575896,31.03135,115.8068,-17.01029,-0.4441859,-4.27255,-61.44649,-6.98289,34.57793,0,0,0,145.9484,-25.10957,-26.54088,-36.10317,-110.6632,-50.33768,0.001067912,-0.1257102,0.09433498,0,0.3,0,0,0,0,
6.38224E+17,48.93404,25.48224,43.44926,15.46094,28.54102,111.1191,-17.01029,-0.4441859,-4.27255,-61.44649,-6.98289,34.57793,0,0,0,159.9015,-16.08858,-29.02625,-36.10317,-110.6632,-50.33768,0.001067912,-0.1257102,0.09433498,0,0.3,0,0,0,0,
6.38224E+17,51.00732,26.51088,48.58566,21.61354,25.61121,106.6512,-17.01029,-0.4441859,-4.27255,-61.51973,-6.909645,34.57793,0,0,0,170.4717,-5.337826,-30.34076,-36.10317,-110.6632,-50.33768,0.001067912,-0.1257102,0.09433498,0,0.3,0,0,0,0,
6.38224E+17,52.30311,28.38114,53.88549,27.47315,22.31518,102.6227,-17.01029,-0.4441859,-4.27255,-61.51973,-6.98289,34.57793,0,0,0,178.0704,8.139251,-30.73701,-36.10317,-110.6632,-50.33768,0.001067912,-0.1257102,0.09433498,0,0.3,0,0,0,0,
6.38224E+17,52.77431,29.90072,56.85059,30.62269,20.33756,100.938,-17.01029,-0.4441859,-4.27255,-61.44649,-6.909645,34.57793,0,0,0,180.9473,16.9058,-30.87565,-36.10317,-110.6632,-50.33768,0.001067912,-0.1257102,0.09433498,0,0.3,0,0,0,0,
6.38224E+17,53.03347,33.17367,61.37996,35.8231,16.96828,98.88718,-17.01029,-0.4441859,-4.27255,-61.44649,-6.98289,34.57793,0,0,0,182.7066,32.44177,-30.83801,-36.10317,-110.6632,-50.33768,0.001067912,-0.1257102,0.09433498,0,0.3,0,0,0,0,
6.38224E+17,52.84499,37.4285,65.83929,41.17,13.15953,97.20255,-17.01029,-0.4441859,-4.27255,-61.44649,-6.98289,34.57793,0,0,0,181.3692,49.81644,-30.90766,-36.10317,-110.6632,-50.33768,0.001067912,-0.1257102,0.09433498,0,0.3,0,0,0,0,
6.38224E+17,51.94971,42.50157,70.62548,47.1761,8.325351,95.29817,-17.01029,-0.4441859,-4.27255,-61.51973,-6.98289,34.57793,0,0,0,176.4814,69.2049,-30.218,-36.10317,-110.6632,-50.33768,0.001067912,-0.1257102,0.09433498,0,0.3,0,0,0,0,
6.38224E+17,51.40784,44.20818,72.1664,49.22696,6.567466,94.71221,-17.01029,-0.4441859,-4.27255,-61.44649,-6.98289,34.57793,0,0,0,173.9302,75.49169,-29.54231,-36.10317,-110.6632,-50.33768,0.001067912,-0.1257102,0.09433498,0,0.3,0,0,0,0,
6.38224E+17,49.52304,48.67342,75.27159,54.64711,1.733285,93.10082,-17.01029,-0.4441859,-4.27255,-61.51973,-6.98289,34.57793,0,0,0,165.0846,89.58765,-27.46922,-36.10317,-110.6632,-50.33768,0.001067912,-0.1257102,0.09433498,0,0.3,0,0,0,0,
6.38224E+17,47.37908,52.97501,75.87862,58.96857,-3.100896,92.22188,-17.01029,-0.4441859,-4.27255,-61.51973,-6.98289,34.57793,0,0,0,154.248,97.27869,-26.40776,-36.10317,-110.6632,-50.33768,0.001067912,-0.1257102,0.09433498,0,0.3,0,0,0,0,
6.38224E+17,45.18801,57.08957,74.52448,61.45891,-7.935077,92.07539,-17.01029,-0.4441859,-4.27255,-61.44649,-6.909645,34.57793,0,0,0,142.5714,99.71877,-26.71121,-36.10317,-110.6632,-50.33768,0.001067912,-0.1257102,0.09433498,0,0.3,0,0,0,0,
6.38224E+17,44.01001,59.05334,73.54388,61.97163,-10.27892,92.7346,-17.01029,-0.4441859,-4.27255,-61.44649,-6.909645,34.57793,0,0,0,136.4983,99.94165,-27.05128,-36.10317,-110.6632,-50.33768,0.001067912,-0.1257102,0.09433498,0,0.3,0,0,0,0,
6.38224E+17,41.96029,62.30291,71.34924,61.82513,-14.74688,95.95738,-17.01029,-0.4441859,-4.27255,-61.44649,-6.909645,34.57793,0,0,0,125.9189,98.77522,-28.30781,-36.10317,-110.6632,-50.33768,0.001067912,-0.1257102,0.09433498,0,0.3,0,0,0,0,
6.38224E+17,40.05193,64.96803,67.73042,60.21374,-18.48238,101.8902,-17.01029,-0.4441859,-4.27255,-61.44649,-6.98289,34.57793,0,0,0,115.7155,93.6397,-30.69925,-36.10317,-110.6632,-50.33768,0.001067912,-0.1257102,0.09433498,0,0.3,0,0,0,0,
6.38224E+17,39.22733,65.8564,65.55912,58.67559,-19.87404,105.6257,-17.01029,-0.4441859,-4.27255,-61.44649,-6.98289,34.57793,0,0,0,111.2667,89.86086,-32.05638,-36.10317,-110.6632,-50.33768,0.001067912,-0.1257102,0.09433498,0,0.3,0,0,0,0,
6.38224E+17,37.34254,67.09544,59.60557,52.88922,-21.99815,116.2463,-17.01029,-0.4441859,-4.27255,-61.51973,-6.98289,34.57793,0,0,0,101.2515,78.71752,-35.64295,-36.10317,-110.6632,-50.33768,0.001067912,-0.1257102,0.09433498,0,0.3,0,0,0,0,
6.38224E+17,36.16454,67.25909,55.16959,46.44365,-22.43762,124.1568,-17.01029,-0.4441859,-4.27255,-61.44649,-6.98289,34.57793,0,0,0,95.01195,70.17091,-38.36392,-36.10317,-110.6632,-50.33768,0.001067912,-0.1257102,0.09433498,0,0.3,0,0,0,0,
6.38224E+17,35.7169,67.16558,52.20449,38.97264,-21.85166,130.0896,-17.01029,-0.4441859,-4.27255,-61.51973,-6.98289,34.57793,0,0,0,91.72516,64.52647,-40.78036,-36.10317,-110.6632,-50.33768,0.001067912,-0.1257102,0.09433498,0,0.3,0,0,0,0,
6.38224E+17,35.78758,67.1422,51.69085,36.18932,-21.48543,131.1883,-17.01029,-0.4441859,-4.27255,-61.44649,-6.909645,34.57793,0,0,0,91.48088,63.56401,-41.45066,-36.10317,-110.6632,-50.33768,0.001067912,-0.1257102,0.09433498,0,0.3,0,0,0,0,
6.38224E+17,36.16454,67.04869,51.6208,32.38057,-20.82623,131.994,-17.01029,-0.4441859,-4.27255,-61.44649,-6.909645,34.57793,0,0,0,92.37242,63.35145,-41.97506,-36.10317,-110.6632,-50.33768,0.001067912,-0.1257102,0.09433498,0,0.3,0,0,0,0,
6.38224E+17,36.21166,66.97855,51.76089,30.84243,-20.38675,132.1405,-17.01029,-0.4441859,-4.27255,-61.51973,-6.909645,34.57793,0,0,0,92.68449,63.54353,-41.76676,-36.10317,-110.6632,-50.33768,0.001067912,-0.1257102,0.09433498,0,0.3,0,0,0,0,
6.38224E+17,36.16454,66.9318,52.18114,29.96349,-20.09377,132.1405,-17.01029,-0.4441859,-4.27255,-61.51973,-6.98289,34.57793,0,0,0,92.99503,64.27138,-41.12327,-36.10317,-110.6632,-50.33768,0.001067912,-0.1257102,0.09433498,0,0.3,0,0,0,0,
6.38224E+17,36.11742,66.86166,52.60139,29.74375,-20.02053,132.1405,-17.01029,-0.4441859,-4.27255,-61.44649,-6.909645,34.57793,0,0,0,93.3307,64.98216,-40.44337,-36.10317,-110.6632,-50.33768,0.001067912,-0.1257102,0.09433498,0,0.3,0,0,0,0,
6.38224E+17,35.92894,66.74477,53.53528,29.59726,-20.38675,132.0673,-17.01029,-0.4441859,-4.27255,-61.44649,-6.98289,34.57793,0,0,0,93.82249,66.6124,-38.87705,-36.10317,-110.6632,-50.33768,0.001067912,-0.1257102,0.09433498,0,0.3,0,0,0,0,
6.38224E+17,35.57554,66.67464,54.6326,29.74375,-20.97272,132.0673,-17.01029,-0.4441859,-4.27255,-61.44649,-6.98289,34.57793,0,0,0,93.9809,68.61618,-36.9604,-36.10317,-110.6632,-50.33768,0.001067912,-0.1257102,0.09433498,0,0.3,0,0,0,0,
6.38224E+17,35.0101,66.67464,56.59377,30.40295,-21.9249,132.0673,-17.01029,-0.4441859,-4.27255,-61.51973,-6.98289,34.57793,0,0,0,94.1586,72.38275,-33.92803,-36.10317,-110.6632,-50.33768,0.001067912,-0.1257102,0.09433498,0,0.3,0,0,0,0,
6.38224E+17,34.72738,66.67464,57.71444,31.06216,-22.58411,132.0673,-17.01029,-0.4441859,-4.27255,-61.44649,-6.98289,34.57793,0,0,0,94.30005,74.57399,-32.3024,-36.10317,-110.6632,-50.33768,0.001067912,-0.1257102,0.09433498,0,0.3,0,0,0,0,
6.38224E+17,34.27974,66.62788,60.6562,33.33276,-24.19551,131.9208,-17.01029,-0.4441859,-4.27255,-61.44649,-6.909645,34.57793,0,0,0,95.26575,80.41029,-28.58953,-36.10317,-110.6632,-50.33768,0.001067912,-0.1257102,0.09433498,0,0.3,0,0,0,0,
6.38224E+17,33.12531,66.44086,63.5746,36.99502,-26.24637,130.5291,-17.01029,-0.4441859,-4.27255,-61.51973,-6.98289,34.57793,0,0,0,94.38459,86.23997,-23.70402,-36.10317,-110.6632,-50.33768,0.001067912,-0.1257102,0.09433498,0,0.3,0,0,0,0,
6.38224E+17,32.13579,66.3941,64.48515,39.19238,-27.34505,130.0164,-17.01029,-0.4441859,-4.27255,-61.44649,-6.98289,34.57793,0,0,0,92.41922,88.10162,-21.22535,-36.10317,-110.6632,-50.33768,0.001067912,-0.1257102,0.09433498,0,0.3,0,0,0,0,
6.38224E+17,29.96827,66.46423,64.76532,41.8292,-29.68889,129.9431,-17.01029,-0.4441859,-4.27255,-61.51973,-6.98289,34.57793,0,0,0,86.85351,88.75604,-17.72274,-36.10317,-110.6632,-50.33768,0.001067912,-0.1257102,0.09433498,0,0.3,0,0,0,0,
6.38224E+17,27.6594,66.6045,64.69527,41.68271,-31.88625,132.7265,-17.01029,-0.4441859,-4.27255,-61.44649,-6.98289,34.57793,0,0,0,80.54342,88.73862,-14.67287,-36.10317,-110.6632,-50.33768,0.001067912,-0.1257102,0.09433498,0,0.3,0,0,0,0,
6.38224E+17,25.44476,66.62788,64.69527,39.48536,-34.66956,138.0001,-17.01029,-0.4441859,-4.27255,-61.44649,-6.98289,34.57793,0,0,0,74.52325,88.76022,-11.72031,-36.10317,-110.6632,-50.33768,0.001067912,-0.1257102,0.09433498,0,0.3,0,0,0,0,
6.38224E+17,24.5966,66.62788,64.69527,37.87396,-36.20771,140.4172,-17.01029,-0.4441859,-4.27255,-61.51973,-6.98289,34.57793,0,0,0,72.19655,88.76022,-10.63433,-36.10317,-110.6632,-50.33768,0.001067912,-0.1257102,0.09433498,0,0.3,0,0,0,0,
6.38224E+17,24.31388,66.62788,64.69527,36.77529,-37.08665,141.5159,-17.01029,-0.4441859,-4.27255,-61.51973,-6.98289,34.57793,0,0,0,71.41744,88.76022,-10.28,-36.10317,-110.6632,-50.33768,0.001067912,-0.1257102,0.09433498,0,0.3,0,0,0,0,
6.38224E+17,24.26676,66.62788,64.64858,35.31038,-37.9656,142.4681,-17.01029,-0.4441859,-4.27255,-61.44649,-6.98289,34.57793,0,0,0,71.26832,88.66199,-10.26371,-36.10317,-110.6632,-50.33768,0.001067912,-0.1257102,0.09433498,0,0.3,0,0,0,0,
6.38224E+17,24.361,66.65126,64.4618,34.43144,-38.47831,142.8343,-17.01029,-0.4441859,-4.27255,-61.51973,-6.909645,34.57793,0,0,0,71.4306,88.29102,-10.59678,-36.10317,-110.6632,-50.33768,0.001067912,-0.1257102,0.09433498,0,0.3,0,0,0,0,
6.38224E+17,24.40812,66.65126,64.29837,33.91872,-38.6248,143.2005,-17.01029,-0.4441859,-4.27255,-61.44649,-6.909645,34.57793,0,0,0,71.49234,87.94805,-10.80535,-36.10317,-110.6632,-50.33768,0.001067912,-0.1257102,0.09433498,0,0.3,0,0,0,0,
6.38224E+17,24.40812,66.72139,63.83142,32.30733,-38.69805,144.5189,-17.01029,-0.4441859,-4.27255,-61.44649,-6.909645,34.57793,0,0,0,71.23399,87.03533,-11.37468,-36.10317,-110.6632,-50.33768,0.001067912,-0.1257102,0.09433498,0,0.3,0,0,0,0,
6.38224E+17,24.40812,66.79153,62.92088,29.08454,-38.77129,144.8119,-17.01029,-0.4441859,-4.27255,-61.44649,-6.98289,34.57793,0,0,0,70.77958,85.20528,-12.37605,-36.10317,-110.6632,-50.33768,0.001067912,-0.1257102,0.09433498,0,0.3,0,0,0,0,
6.38224E+17,24.40812,66.8149,62.3839,26.52096,-38.69805,144.7387,-17.01029,-0.4441859,-4.27255,-61.44649,-6.909645,34.57793,0,0,0,70.52166,84.11662,-12.94441,-36.10317,-110.6632,-50.33768,0.001067912,-0.1257102,0.09433498,0,0.3,0,0,0,0,
6.38224E+17,24.43168,66.90842,61.35661,20.44161,-38.47831,144.8852,-17.01029,-0.4441859,-4.27255,-61.44649,-6.98289,34.57793,0,0,0,70.03655,82.09368,-14.18191,-36.10317,-110.6632,-50.33768,0.001067912,-0.1257102,0.09433498,0,0.3,0,0,0,0,
6.38224E+17,24.90288,67.07206,60.2126,14.14253,-37.81911,144.7387,-17.01029,-0.4441859,-4.27255,-61.44649,-6.909645,34.57793,0,0,0,70.6072,79.91872,-16.25981,-36.10317,-110.6632,-50.33768,0.001067912,-0.1257102,0.09433498,0,0.3,0,0,0,0,
6.38224E+17,25.7746,67.07206,57.45762,9.454838,-36.42745,144.8119,-17.01029,-0.4441859,-4.27255,-61.44649,-6.909645,34.57793,0,0,0,71.47018,74.43269,-20.3394,-36.10317,-110.6632,-50.33768,0.001067912,-0.1257102,0.09433498,0,0.3,0,0,0,0,
6.38224E+17,26.19868,66.83829,54.98281,7.623709,-34.8893,144.8119,-17.01029,-0.4441859,-4.27255,-61.44649,-6.909645,34.57793,0,0,0,71.37103,69.43259,-23.29647,-36.10317,-110.6632,-50.33768,0.001067912,-0.1257102,0.09433498,0,0.3,0,0,0,0,
6.38224E+17,26.52852,65.78626,49.33278,4.547412,-30.71432,144.8119,-17.01029,-0.4441859,-4.27255,-61.44649,-6.909645,34.57793,0,0,0,69.60457,58.06863,-28.91865,-36.10317,-110.6632,-50.33768,0.001067912,-0.1257102,0.09433498,0,0.3,0,0,0,0,
6.38224E+17,26.50496,63.68222,43.70608,0.8851534,-24.78147,144.8119,-17.01029,-0.4441859,-4.27255,-61.51973,-6.909645,34.57793,0,0,0,67.5036,46.48024,-32.98804,-36.10317,-110.6632,-50.33768,0.001067912,-0.1257102,0.09433498,0,0.3,0,0,0,0,
6.38224E+17,26.26936,62.34967,41.06784,-0.8727306,-21.55868,144.5922,-17.01029,-0.4441859,-4.27255,-61.44649,-6.98289,34.57793,0,0,0,66.16254,40.93406,-34.29984,-36.10317,-110.6632,-50.33768,0.001067912,-0.1257102,0.09433498,0,0.3,0,0,0,0,
6.38224E+17,25.46832,59.24037,35.60458,-4.388499,-15.40608,143.2738,-17.01029,-0.4441859,-4.27255,-61.44649,-6.909645,34.57793,0,0,0,62.71078,29.5196,-36.68681,-36.10317,-110.6632,-50.33768,0.001067912,-0.1257102,0.09433498,0,0.3,0,0,0,0,
6.38224E+17,24.85576,54.9154,29.76777,-8.197248,-8.447793,139.0255,-17.01029,-0.4441859,-4.27255,-61.44649,-6.909645,34.57793,0,0,0,60.04657,16.71708,-38.72874,-36.10317,-110.6632,-50.33768,0.001067912,-0.1257102,0.09433498,0,0.3,0,0,0,0,
6.38224E+17,24.8322,48.65004,23.88425,-11.56653,0.7810982,135.6563,-17.01029,-0.4441859,-4.27255,-61.51973,-6.98289,34.57793,0,0,0,59.6727,1.523684,-39.39681,-36.10317,-110.6632,-50.33768,0.001067912,-0.1257102,0.09433498,0,0.3,0,0,0,0,
6.38224E+17,24.90288,44.95628,21.26936,-12.6652,6.420976,134.1181,-17.01029,-0.4441859,-4.27255,-61.51973,-6.98289,34.57793,0,0,0,60.10419,-6.696194,-38.88364,-36.10317,-110.6632,-50.33768,0.001067912,-0.1257102,0.09433498,0,0.3,0,0,0,0,
6.38224E+17,25.16204,42.89901,20.26543,-13.17792,9.936745,132.7997,-17.01029,-0.4441859,-4.27255,-61.44649,-6.98289,34.57793,0,0,0,61.17255,-10.97296,-38.12784,-36.10317,-110.6632,-50.33768,0.001067912,-0.1257102,0.09433498,0,0.3,0,0,0,0,
6.38224E+17,25.8924,39.69619,19.42492,-13.32441,16.74854,130.8221,-17.01029,-0.4441859,-4.27255,-61.44649,-6.98289,34.57793,0,0,0,64.172,-17.2366,-36.14832,-36.10317,-110.6632,-50.33768,0.001067912,-0.1257102,0.09433498,0,0.3,0,0,0,0,
6.38224E+17,27.18819,38.31688,19.70509,-12.73845,21.80246,129.3572,-17.01029,-0.4441859,-4.27255,-61.44649,-6.98289,34.57793,0,0,0,68.34913,-19.51275,-35.28955,-36.10317,-110.6632,-50.33768,0.001067912,-0.1257102,0.09433498,0,0.3,0,0,0,0,
6.38224E+17,29.80335,38.19999,20.82576,-10.76083,24.87876,127.8923,-17.01029,-0.4441859,-4.27255,-61.51973,-6.909645,34.57793,0,0,0,75.64895,-18.82297,-36.2774,-36.10317,-110.6632,-50.33768,0.001067912,-0.1257102,0.09433498,0,0.3,0,0,0,0,
6.38224E+17,33.78498,38.19999,23.0671,-6.732344,25.90419,126.8668,-17.01029,-0.4441859,-4.27255,-61.44649,-6.909645,34.57793,0,0,0,87.32743,-16.87349,-37.82785,-36.10317,-110.6632,-50.33768,0.001067912,-0.1257102,0.09433498,0,0.3,0,0,0,0,
6.38224E+17,38.7797,38.05972,26.26567,-0.7262403,25.53797,125.1822,-17.01029,-0.4441859,-4.27255,-61.44649,-6.98289,34.50468,0,0,0,102.7224,-14.02391,-40.4963,-36.10317,-110.6632,-50.33768,0.001067912,-0.1257102,0.09433498,0,0.3,0,0,0,0,
6.38224E+17,41.22993,37.82593,28.06341,2.643037,24.95201,123.8638,-17.01029,-0.4441859,-4.27255,-61.44649,-6.909645,34.57793,0,0,0,110.7683,-12.54286,-41.95363,-36.10317,-110.6632,-50.33768,0.001067912,-0.1257102,0.09433498,0,0.3,0,0,0,0,
6.38224E+17,46.4838,36.77391,32.8963,10.55352,23.41385,120.1283,-17.01029,-0.4441859,-4.27255,-61.51973,-6.98289,34.57793,0,0,0,129.9805,-8.786817,-44.93329,-36.10317,-110.6632,-50.33768,0.001067912,-0.1257102,0.09433498,0,0.3,0,0,0,0,
6.38224E+17,50.41832,35.58163,38.66307,18.75698,21.65597,116.0998,-17.01029,-0.4441859,-4.27255,-61.51973,-6.98289,34.57793,0,0,0,147.7934,-3.182789,-46.16425,-36.10317,-110.6632,-50.33768,0.001067912,-0.1257102,0.09433498,0,0.3,0,0,0,0,
6.38224E+17,51.83192,35.25433,41.58148,23.15168,20.70378,114.0489,-17.01029,-0.4441859,-4.27255,-61.51973,-6.98289,34.57793,0,0,0,155.1927,0.5730538,-46.36529,-36.10317,-110.6632,-50.33768,0.001067912,-0.1257102,0.09433498,0,0.3,0,0,0,0,
6.38224E+17,53.45755,35.30109,46.60114,30.32971,18.79941,110.5332,-17.01029,-0.4441859,-4.27255,-61.51973,-6.98289,34.57793,0,0,0,165.2796,8.78819,-45.85995,-36.10317,-110.6632,-50.33768,0.001067912,-0.1257102,0.09433498,0,0.3,0,0,0,0,
6.38224E+17,53.92875,35.83878,51.31729,35.67661,16.96828,107.4569,-17.01029,-0.4441859,-4.27255,-61.44649,-6.909645,34.57793,0,0,0,171.5166,18.0826,-43.40971,-36.10317,-110.6632,-50.33768,0.001067912,-0.1257102,0.09433498,0,0.3,0,0,0,0,
6.38224E+17,53.95231,36.30635,54.00222,37.94721,16.01609,106.1385,-17.01029,-0.4441859,-4.27255,-61.51973,-6.98289,34.57793,0,0,0,174.1142,23.92989,-41.6271,-36.10317,-110.6632,-50.33768,0.001067912,-0.1257102,0.09433498,0,0.3,0,0,0,0,
6.38224E+17,53.76383,37.66228,59.34875,41.75596,14.18496,104.0876,-17.01029,-0.4441859,-4.27255,-61.44649,-6.909645,34.57793,0,0,0,177.6771,36.84435,-38.13772,-36.10317,-110.6632,-50.33768,0.001067912,-0.1257102,0.09433498,0,0.3,0,0,0,0,
6.38224E+17,53.15127,39.69619,65.16222,45.93093,11.62138,102.0367,-17.01029,-0.4441859,-4.27255,-61.51973,-6.98289,34.57793,0,0,0,178.9458,52.50912,-34.24392,-36.10317,-110.6632,-50.33768,0.001067912,-0.1257102,0.09433498,0,0.3,0,0,0,0,
6.38224E+17,51.52563,42.59509,71.20916,51.93703,8.03237,99.98587,-17.01029,-0.4441859,-4.27255,-61.44649,-6.909645,34.57793,0,0,0,175.6867,70.64904,-28.7308,-36.10317,-110.6632,-50.33768,0.001067912,-0.1257102,0.09433498,0,0.3,0,0,0,0,
