zeyangz2/DNN_classification_different_people_hand/data/frank_right_22.csv
Timestamp,Therapist joint angle 0,Therapist joint angle 1,Therapist joint angle 2,Therapist joint angle 3,Therapist joint angle 4,Therapist joint angle 5,Patient joint angle 0,Patient joint angle 1,Patient joint angle 2,Patient joint angle 3,Patient joint angle 4,Patient joint angle 5,Virtual joint angle 0,Virtual joint angle 1,Virtual joint angle 2,Therapist position x,Therapist position y,Therapist position z,Patient position x,Patient position y,Patient position z,Virtual position x,Virtual position y,Virtual position z,Assistive Force, Obstacle Force Magnitude, Therapist Constant Force, Patient Constant Force, Recovery Factor, Assistance Level,label
6.38224E+17,0,0,0,0,0,0,0,0,0,0,0,0,0,0,0,0,0,0,0,0,0,0,0,0,0,0.3,0,0,0,0,1
6.38224E+17,32.72478,5.376987,-7.611208,-81.95513,-12.91575,-56.24608,-16.98673,-0.4441859,-4.27255,-61.51973,-6.98289,34.57793,0,0,0,62.22408,-96.32912,-71.5182,-36.05464,-110.6632,-50.32285,0.001067912,-0.1257102,0.09433498,0,0.3,0,0,0,0,
6.38224E+17,32.72478,5.376987,-7.611208,-81.95513,-12.91575,-56.24608,-16.98673,-0.4441859,-4.27255,-61.44649,-6.98289,34.57793,0,0,0,62.22408,-96.32912,-71.5182,-36.05464,-110.6632,-50.32285,0.001067912,-0.1257102,0.09433498,0,0.3,0,0,0,0,
6.38224E+17,32.72478,5.376987,-7.611208,-81.95513,-12.91575,-56.24608,-16.98673,-0.4441859,-4.27255,-61.44649,-6.98289,34.57793,0,0,0,62.22408,-96.32912,-71.5182,-36.05464,-110.6632,-50.32285,0.001067912,-0.1257102,0.09433498,0,0.3,0,0,0,0,
6.38224E+17,32.72478,5.376987,-7.611208,-81.95513,-12.91575,-56.24608,-16.98673,-0.4441859,-4.27255,-61.44649,-6.909645,34.57793,0,0,0,62.22408,-96.32912,-71.5182,-36.05464,-110.6632,-50.32285,0.001067912,-0.1257102,0.09433498,0,0.3,0,0,0,0,
6.38224E+17,32.72478,5.376987,-7.611208,-81.95513,-12.91575,-56.24608,-16.98673,-0.4441859,-4.27255,-61.44649,-6.98289,34.57793,0,0,0,62.22408,-96.32912,-71.5182,-36.05464,-110.6632,-50.32285,0.001067912,-0.1257102,0.09433498,0,0.3,0,0,0,0,
6.38224E+17,32.72478,5.376987,-7.611208,-81.95513,-12.91575,-56.24608,-16.98673,-0.4441859,-4.27255,-61.44649,-6.98289,34.57793,0,0,0,62.22408,-96.32912,-71.5182,-36.05464,-110.6632,-50.32285,0.001067912,-0.1257102,0.09433498,0,0.3,0,0,0,0,
6.38224E+17,32.72478,5.376987,-7.611208,-81.95513,-12.91575,-56.31932,-16.98673,-0.4441859,-4.27255,-61.51973,-6.98289,34.57793,0,0,0,62.22408,-96.32912,-71.5182,-36.05464,-110.6632,-50.32285,0.001067912,-0.1257102,0.09433498,0,0.3,0,0,0,0,
6.38224E+17,32.72478,5.376987,-7.611208,-81.95513,-12.91575,-56.24608,-16.98673,-0.4441859,-4.27255,-61.51973,-6.98289,34.57793,0,0,0,62.22408,-96.32912,-71.5182,-36.05464,-110.6632,-50.32285,0.001067912,-0.1257102,0.09433498,0,0.3,0,0,7.51E-08,0,
6.38224E+17,32.72478,5.376987,-7.611208,-81.95513,-12.91575,-56.24608,-16.98673,-0.4441859,-4.27255,-61.51973,-6.98289,34.57793,0,0,0,62.22408,-96.32912,-71.5182,-36.05464,-110.6632,-50.32285,0.001067912,-0.1257102,0.09433498,0,0.3,0,0,1.50E-07,0,
6.38224E+17,32.72478,5.376987,-7.611208,-81.95513,-12.91575,-56.24608,-16.98673,-0.4441859,-4.27255,-61.51973,-6.98289,34.57793,0,0,0,62.22408,-96.32912,-71.5182,-36.05464,-110.6632,-50.32285,0.001067912,-0.1257102,0.09433498,0,0.3,0,0,1.50E-07,0,
6.38224E+17,32.72478,5.376987,-7.611208,-81.95513,-12.91575,-56.24608,-16.98673,-0.4441859,-4.27255,-61.51973,-6.98289,34.57793,0,0,0,62.22408,-96.32912,-71.5182,-36.05464,-110.6632,-50.32285,0.001067912,-0.1257102,0.09433498,0,0.3,0,0,2.25E-07,0,
6.38224E+17,32.72478,5.376987,-7.611208,-81.95513,-12.91575,-56.24608,-16.98673,-0.4441859,-4.27255,-61.51973,-6.98289,34.57793,0,0,0,62.22408,-96.32912,-71.5182,-36.05464,-110.6632,-50.32285,0.001067912,-0.1257102,0.09433498,0,0.3,0,0,1.50E-07,0,
6.38224E+17,32.72478,5.376987,-7.611208,-81.95513,-12.91575,-56.24608,-16.98673,-0.4441859,-4.27255,-61.44649,-6.98289,34.57793,0,0,0,62.22408,-96.32912,-71.5182,-36.05464,-110.6632,-50.32285,0.001067912,-0.1257102,0.09433498,0,0.3,0,0,2.25E-07,0,
6.38224E+17,32.72478,5.376987,-7.611208,-81.95513,-12.98899,-56.24608,-16.98673,-0.4441859,-4.27255,-61.44649,-6.98289,34.57793,0,0,0,62.22408,-96.32912,-71.5182,-36.05464,-110.6632,-50.32285,0.001067912,-0.1257102,0.09433498,0,0.3,0,0,2.25E-07,0,
6.38224E+17,32.72478,5.376987,-7.611208,-81.95513,-12.91575,-56.24608,-16.98673,-0.4441859,-4.27255,-61.44649,-6.98289,34.57793,0,0,0,62.22408,-96.32912,-71.5182,-36.05464,-110.6632,-50.32285,0.001067912,-0.1257102,0.09433498,0,0.3,0,0,2.25E-07,0,
6.38224E+17,32.72478,5.376987,-7.611208,-81.95513,-12.91575,-56.24608,-16.98673,-0.4441859,-4.27255,-61.51973,-6.98289,34.57793,0,0,0,62.22408,-96.32912,-71.5182,-36.05464,-110.6632,-50.32285,0.001067912,-0.1257102,0.09433498,0,0.3,0,0,3.01E-07,0,
6.38224E+17,32.72478,5.376987,-7.611208,-81.95513,-12.91575,-56.24608,-16.98673,-0.4441859,-4.27255,-61.44649,-6.98289,34.57793,0,0,0,62.22408,-96.32912,-71.5182,-36.05464,-110.6632,-50.32285,0.001067912,-0.1257102,0.09433498,0,0.3,0,0,3.01E-07,0,
6.38224E+17,32.72478,5.353609,-7.611208,-81.95513,-12.91575,-56.24608,-16.98673,-0.4441859,-4.27255,-61.44649,-6.98289,34.57793,0,0,0,62.22683,-96.38329,-71.51392,-36.05464,-110.6632,-50.32285,0.001067912,-0.1257102,0.09433498,0,0.3,0,0,2.18E-06,0,
6.38224E+17,32.72478,5.353609,-7.611208,-81.95513,-12.98899,-56.24608,-16.98673,-0.4441859,-4.27255,-61.51973,-6.98289,34.57793,0,0,0,62.22683,-96.38329,-71.51392,-36.05464,-110.6632,-50.32285,0.001067912,-0.1257102,0.09433498,0,0.3,0,0,5.56E-06,0,
6.38224E+17,32.72478,5.353609,-7.611208,-81.95513,-12.98899,-56.24608,-16.98673,-0.4441859,-4.27255,-61.51973,-6.98289,34.57793,0,0,0,62.22683,-96.38329,-71.51392,-36.05464,-110.6632,-50.32285,0.001067912,-0.1257102,0.09433498,0,0.3,0,0,7.14E-06,0,
6.38224E+17,32.72478,5.353609,-7.611208,-81.95513,-12.91575,-56.24608,-16.98673,-0.4441859,-4.27255,-61.44649,-6.98289,34.57793,0,0,0,62.22683,-96.38329,-71.51392,-36.05464,-110.6632,-50.32285,0.001067912,-0.1257102,0.09433498,0,0.3,0,0,1.13E-05,0,
6.38224E+17,32.72478,5.353609,-7.611208,-81.95513,-12.91575,-56.24608,-16.98673,-0.4441859,-4.27255,-61.44649,-6.909645,34.57793,0,0,0,62.22683,-96.38329,-71.51392,-36.05464,-110.6632,-50.32285,0.001067912,-0.1257102,0.09433498,0,0.3,0,0,1.25E-05,0,
6.38224E+17,32.72478,5.353609,-7.611208,-81.95513,-12.91575,-56.24608,-16.98673,-0.4441859,-4.27255,-61.44649,-6.98289,34.57793,0,0,0,62.22683,-96.38329,-71.51392,-36.05464,-110.6632,-50.32285,0.001067912,-0.1257102,0.09433498,0,0.3,0,0,1.48E-05,0,
6.38224E+17,32.72478,5.353609,-7.611208,-81.95513,-12.91575,-56.24608,-16.98673,-0.4441859,-4.27255,-61.51973,-6.98289,34.57793,0,0,0,62.22683,-96.38329,-71.51392,-36.05464,-110.6632,-50.32285,0.001067912,-0.1257102,0.09433498,0,0.3,0,0,1.68E-05,0,
6.38224E+17,32.72478,5.353609,-7.611208,-81.95513,-12.98899,-56.24608,-16.98673,-0.4441859,-4.27255,-61.44649,-6.98289,34.57793,0,0,0,62.22683,-96.38329,-71.51392,-36.05464,-110.6632,-50.32285,0.001067912,-0.1257102,0.09433498,0,0.3,0,0,1.77E-05,0,
6.38224E+17,32.72478,5.353609,-7.611208,-81.95513,-12.98899,-56.24608,-16.98673,-0.4441859,-4.27255,-61.44649,-6.98289,34.57793,0,0,0,62.22683,-96.38329,-71.51392,-36.05464,-110.6632,-50.32285,0.001067912,-0.1257102,0.09433498,0,0.3,0,0,1.94E-05,0,
6.38224E+17,32.67767,5.260096,-7.564514,-81.95513,-12.91575,-56.39257,-16.98673,-0.4441859,-4.27255,-61.44649,-6.98289,34.57793,0,0,0,62.2162,-96.61435,-71.35516,-36.05464,-110.6632,-50.32285,0.001067912,-0.1257102,0.09433498,0,0.3,0,0,3.68E-05,0,
6.38224E+17,32.3007,4.932801,-7.42443,-82.10162,-12.8425,-59.46887,-16.98673,-0.4441859,-4.27255,-61.44649,-6.98289,34.57793,0,0,0,61.7856,-97.41561,-70.61751,-36.05464,-110.6632,-50.32285,0.001067912,-0.1257102,0.09433498,0,0.3,0,0,0.00019142,0,
6.38224E+17,31.19339,3.927538,-7.190958,-82.68758,-12.32979,-69.86968,-16.98673,-0.4441859,-4.27255,-61.51973,-6.98289,34.57793,0,0,0,60.25812,-99.81735,-68.8261,-36.05464,-110.6632,-50.32285,0.001067912,-0.1257102,0.09433498,0,0.3,0,0,0.001114941,0,
6.38224E+17,30.43947,2.875519,-7.190958,-83.05381,-11.74383,-71.99379,-16.98673,-0.4441859,-4.27255,-61.44649,-6.98289,34.57793,0,0,0,59.01697,-102.2615,-67.9166,-36.05464,-110.6632,-50.32285,0.001067912,-0.1257102,0.09433498,0,0.3,0,0,0.002651113,0,
6.38224E+17,30.32167,2.501468,-7.237653,-83.27354,-11.23111,-67.52583,-16.98673,-0.4441859,-4.27255,-61.44649,-6.909645,34.57793,0,0,0,58.77654,-103.1174,-67.85329,-36.05464,-110.6632,-50.32285,0.001067912,-0.1257102,0.09433498,0,0.3,0,0,0.004292761,0,
6.38224E+17,30.25099,2.665115,-6.887444,-83.27354,-11.08462,-63.05788,-16.98673,-0.4441859,-4.27255,-61.44649,-6.98289,34.57793,0,0,0,59.05138,-102.8372,-67.09695,-36.05464,-110.6632,-50.32285,0.001067912,-0.1257102,0.09433498,0,0.3,0,0,0.005049803,0,
6.38224E+17,29.12011,3.880782,-5.299829,-81.51566,-11.08462,-52.29084,-16.98673,-0.4441859,-4.27255,-61.44649,-6.909645,34.57793,0,0,0,58.75084,-100.4047,-62.88271,-36.05464,-110.6632,-50.32285,0.001067912,-0.1257102,0.09433498,0,0.3,0,0,0.006599497,0,
6.38224E+17,26.05732,5.143205,-2.054559,-79.90427,-11.08462,-45.91851,-16.98673,-0.4441859,-4.27255,-61.44649,-6.98289,34.57793,0,0,0,56.24078,-97.96007,-53.33149,-36.05464,-110.6632,-50.32285,0.001067912,-0.1257102,0.09433498,0,0.3,0,0,0.008863937,0,
6.38224E+17,22.40552,5.306852,1.050627,-81.29592,-10.71839,-41.30406,-16.98673,-0.4441859,-4.27255,-61.51973,-6.98289,34.57793,0,0,0,51.54172,-97.64408,-43.33461,-36.05464,-110.6632,-50.32285,0.001067912,-0.1257102,0.09433498,0,0.3,0,0,0.0123216,0,
6.38224E+17,18.61237,5.423743,3.198575,-82.68758,-8.887264,-38.22777,-16.98673,-0.4441859,-4.27255,-61.44649,-6.98289,34.57793,0,0,0,44.74469,-97.1879,-35.48872,-36.05464,-110.6632,-50.32285,0.001067912,-0.1257102,0.09433498,0,0.3,0,0,0.01719591,0,
6.38224E+17,16.39773,5.634147,4.856231,-82.90732,-7.422361,-37.34882,-16.98673,-0.4441859,-4.27255,-61.51973,-6.98289,34.57793,0,0,0,40.65019,-96.42953,-30.21232,-36.05464,-110.6632,-50.32285,0.001067912,-0.1257102,0.09433498,0,0.3,0,0,0.02015677,0,
6.38224E+17,12.74594,6.288737,9.198823,-81.36917,-4.053083,-35.66418,-16.98673,-0.4441859,-4.27255,-61.44649,-6.909645,34.57793,0,0,0,33.94698,-93.67805,-18.27653,-36.05464,-110.6632,-50.32285,0.001067912,-0.1257102,0.09433498,0,0.3,0,0,0.02623076,0,
6.38224E+17,9.376864,7.060217,13.26125,-77.04771,-0.2443342,-33.10061,-16.98673,-0.4441859,-4.27255,-61.51973,-6.98289,34.57793,0,0,0,26.5455,-90.05375,-7.598815,-36.05464,-110.6632,-50.32285,0.001067912,-0.1257102,0.09433498,0,0.3,0,0,0.03213857,0,
6.38224E+17,7.845467,7.387512,15.59597,-75.14333,1.586795,-32.29491,-16.98673,-0.4441859,-4.27255,-61.44649,-6.98289,34.57793,0,0,0,22.94519,-87.94418,-1.828871,-36.05464,-110.6632,-50.32285,0.001067912,-0.1257102,0.09433498,0,0.3,0,0,0.03479464,0,
6.38224E+17,4.075873,7.574538,21.22267,-73.60519,4.809582,-31.04974,-16.98673,-0.4441859,-4.27255,-61.51973,-6.98289,34.57793,0,0,0,12.82651,-83.37865,11.65181,-36.05464,-110.6632,-50.32285,0.001067912,-0.1257102,0.09433498,0,0.3,0,0,0.03907087,0,
6.38224E+17,0.6596789,7.784942,26.98944,-72.79948,7.959125,-26.14231,-16.98673,-0.4441859,-4.27255,-61.44649,-6.98289,34.57793,0,0,0,2.21791,-77.41393,24.27594,-36.05464,-110.6632,-50.32285,0.001067912,-0.1257102,0.09433498,0,0.3,0,0,0.0416818,0,
6.38224E+17,-2.096837,8.72007,33.99362,-72.94598,10.30297,-18.0121,-16.98673,-0.4441859,-4.27255,-61.44649,-6.98289,34.57793,0,0,0,-7.55058,-66.99366,37.87647,-36.05464,-110.6632,-50.32285,0.001067912,-0.1257102,0.09433498,0,0.3,0,0,0.04120362,0,
6.38224E+17,-3.157035,9.655198,37.5424,-73.67843,10.81569,-13.54414,-16.98673,-0.4441859,-4.27255,-61.44649,-6.98289,34.57793,0,0,0,-11.71495,-60.01829,44.04486,-36.05464,-110.6632,-50.32285,0.001067912,-0.1257102,0.09433498,0,0.3,0,0,0.03958939,0,
6.38224E+17,-4.122993,12.4372,43.21579,-75.58281,10.81569,-5.120951,-16.98673,-0.4441859,-4.27255,-61.51973,-6.98289,34.57793,0,0,0,-15.92763,-45.11329,52.60844,-36.05464,-110.6632,-50.32285,0.001067912,-0.1257102,0.09433498,0,0.3,0,0,0.0338748,0,
6.38224E+17,-4.193673,16.15434,47.55838,-76.09552,9.790254,3.96145,-16.98673,-0.4441859,-4.27255,-61.44649,-6.98289,34.57793,0,0,0,-16.56296,-29.53833,57.53603,-36.05464,-110.6632,-50.32285,0.001067912,-0.1257102,0.09433498,0,0.3,0,0,0.02526765,0,
6.38224E+17,-3.698914,21.3443,52.13445,-76.16876,7.739389,14.50875,-16.98673,-0.4441859,-4.27255,-61.51973,-6.98289,34.57793,0,0,0,-14.80435,-9.966063,60.64909,-36.05464,-110.6632,-50.32285,0.001067912,-0.1257102,0.09433498,0,0.3,0,0,0.0137541,0,
6.38224E+17,-2.732955,25.06143,54.00222,-76.242,6.05475,20.36837,-16.98673,-0.4441859,-4.27255,-61.51973,-6.98289,34.50468,0,0,0,-10.90374,1.458724,60.07101,-36.05464,-110.6632,-50.32285,0.001067912,-0.1257102,0.09433498,0,0.3,0,0,0.00045729,0,
6.38224E+17,-1.931917,27.84344,54.81938,-76.02227,4.663092,24.03063,-16.98673,-0.4441859,-4.27255,-61.51973,-6.98289,34.57793,0,0,0,-7.649368,8.801685,58.42498,-36.05464,-110.6632,-50.32285,0.001067912,-0.1257102,0.09433498,0,0.3,0,0,0,0,
6.38224E+17,0.4240793,33.68799,56.26691,-75.14333,1.293814,29.67051,-16.98673,-0.4441859,-4.27255,-61.51973,-6.98289,34.57793,0,0,0,1.642062,23.26269,53.49884,-36.05464,-110.6632,-50.32285,0.001067912,-0.1257102,0.09433498,0,0.3,0,0,0,0,
6.38224E+17,3.581114,39.5793,57.03737,-73.89817,-3.686857,34.50468,-16.98673,-0.4441859,-4.27255,-61.44649,-6.909645,34.57793,0,0,0,13.40816,35.7587,45.89355,-36.05464,-110.6632,-50.32285,0.001067912,-0.1257102,0.09433498,0,0.3,0,0,0,0,
6.38224E+17,5.371671,42.03401,57.13076,-73.23896,-6.616664,36.18932,-16.98673,-0.4441859,-4.27255,-61.51973,-6.98289,34.57793,0,0,0,19.75744,40.26518,41.77072,-36.05464,-110.6632,-50.32285,0.001067912,-0.1257102,0.09433498,0,0.3,0,0,0,0,
6.38224E+17,9.541784,45.96155,57.10741,-71.48107,-12.54952,38.24019,-16.98673,-0.4441859,-4.27255,-61.44649,-6.98289,34.57793,0,0,0,33.92745,46.79395,33.48812,-36.05464,-110.6632,-50.32285,0.001067912,-0.1257102,0.09433498,0,0.3,0,0,0,0,
6.38224E+17,14.5365,48.67342,56.68716,-68.99074,-19.21483,38.82615,-16.98673,-0.4441859,-4.27255,-61.51973,-6.98289,34.57793,0,0,0,50.07287,50.25306,24.75991,-36.05464,-110.6632,-50.32285,0.001067912,-0.1257102,0.09433498,0,0.3,0,0,0,0,
6.38224E+17,19.38985,49.81895,54.91277,-64.66927,-25.51392,36.84853,-16.98673,-0.4441859,-4.27255,-61.51973,-6.98289,34.57793,0,0,0,64.79044,48.57803,15.73652,-36.05464,-110.6632,-50.32285,0.001067912,-0.1257102,0.09433498,0,0.3,0,0,0,0,
6.38224E+17,22.75892,49.67868,53.20842,-59.02939,-29.76214,32.38057,-16.98673,-0.4441859,-4.27255,-61.51973,-6.98289,34.57793,0,0,0,74.69253,45.15562,9.693721,-36.05464,-110.6632,-50.32285,0.001067912,-0.1257102,0.09433498,0,0.3,0,0,0,0,
6.38224E+17,25.35052,48.88382,51.24725,-51.92461,-32.83843,25.86176,-16.98673,-0.4441859,-4.27255,-61.44649,-6.909645,34.57793,0,0,0,82.06998,40.34103,4.874911,-36.05464,-110.6632,-50.32285,0.001067912,-0.1257102,0.09433498,0,0.3,0,0,0,0,
6.38224E+17,27.47091,47.29411,48.09537,-42.47599,-35.10904,15.97366,-16.98673,-0.4441859,-4.27255,-61.51973,-6.909645,34.57793,0,0,0,87.5034,32.27806,-0.04898934,-36.05464,-110.6632,-50.32285,0.001067912,-0.1257102,0.09433498,0,0.3,0,0,0,0,
6.38224E+17,27.94211,46.28884,46.15754,-38.22777,-35.40202,10.91974,-16.98673,-0.4441859,-4.27255,-61.44649,-6.909645,34.57793,0,0,0,88.24578,27.37114,-1.97855,-36.05464,-110.6632,-50.32285,0.001067912,-0.1257102,0.09433498,0,0.3,0,0,0,0,
6.38224E+17,28.05991,42.31455,40.01722,-28.77914,-33.05817,-0.6529952,-16.98673,-0.4441859,-4.27255,-61.44649,-6.98289,34.57793,0,0,0,86.71886,10.99499,-5.666175,-36.05464,-110.6632,-50.32285,0.001067912,-0.1257102,0.09433498,0,0.3,0,0,0,0,
6.38224E+17,28.03635,40.42091,37.5891,-26.14231,-31.37353,-2.99684,-16.98673,-0.4441859,-4.27255,-61.51973,-6.98289,34.57793,0,0,0,85.95109,4.146546,-6.946646,-36.05464,-110.6632,-50.32285,0.001067912,-0.1257102,0.09433498,0,0.3,0,0,0,0,
6.38224E+17,28.17771,35.83878,33.36324,-20.79542,-26.17312,-6.439363,-16.98673,-0.4441859,-4.27255,-61.51973,-6.98289,34.57793,0,0,0,85.67632,-9.946731,-8.414988,-36.05464,-110.6632,-50.32285,0.001067912,-0.1257102,0.09433498,0,0.3,0,0,0,0,
6.38224E+17,28.20127,31.5372,31.05186,-16.18097,-20.09377,-8.197248,-16.98673,-0.4441859,-4.27255,-61.51973,-6.98289,34.57793,0,0,0,86.21482,-21.14206,-7.568612,-36.05464,-110.6632,-50.32285,0.001067912,-0.1257102,0.09433498,0,0.3,0,0,0,0,
6.38224E+17,28.05991,29.80721,30.2814,-14.49633,-17.5302,-8.636719,-16.98673,-0.4441859,-4.27255,-61.44649,-6.98289,34.57793,0,0,0,86.05849,-25.51959,-6.905019,-36.05464,-110.6632,-50.32285,0.001067912,-0.1257102,0.09433498,0,0.3,0,0,0,0,
6.38224E+17,27.4238,26.30048,28.55371,-11.63977,-12.11005,-9.002944,-16.98673,-0.4441859,-4.27255,-61.51973,-6.98289,34.57793,0,0,0,84.41525,-34.69603,-5.661878,-36.05464,-110.6632,-50.32285,0.001067912,-0.1257102,0.09433498,0,0.3,0,0,0,0,
6.38224E+17,25.91596,23.12104,27.01279,-10.32136,-7.27587,-8.929699,-16.98673,-0.4441859,-4.27255,-61.44649,-6.98289,34.57793,0,0,0,80.07022,-43.08901,-3.568702,-36.05464,-110.6632,-50.32285,0.001067912,-0.1257102,0.09433498,0,0.3,0,0,0,0,
6.38224E+17,24.76152,21.64822,26.45245,-10.24811,-5.15176,-8.563474,-16.98673,-0.4441859,-4.27255,-61.44649,-6.98289,34.57793,0,0,0,76.79296,-46.8451,-1.861233,-36.05464,-110.6632,-50.32285,0.001067912,-0.1257102,0.09433498,0,0.3,0,0,0,0,
6.38224E+17,21.51024,19.02986,26.12559,-11.34679,-1.489502,-6.659099,-16.98673,-0.4441859,-4.27255,-61.44649,-6.98289,34.57793,0,0,0,67.75343,-52.89555,3.561962,-36.05464,-110.6632,-50.32285,0.001067912,-0.1257102,0.09433498,0,0.3,0,0,0,0,
6.38224E+17,16.58621,16.64528,26.12559,-14.78931,1.440305,-2.85035,-16.98673,-0.4441859,-4.27255,-61.44649,-6.98289,34.57793,0,0,0,53.2326,-58.17824,10.37228,-36.05464,-110.6632,-50.32285,0.001067912,-0.1257102,0.09433498,0,0.3,0,0,0,0,
6.38224E+17,10.97894,14.51786,26.94275,-20.64893,3.710905,-0.2867693,-16.98673,-0.4441859,-4.27255,-61.44649,-6.98289,34.57793,0,0,0,36.0924,-62.09773,17.69433,-36.05464,-110.6632,-50.32285,0.001067912,-0.1257102,0.09433498,0,0.3,0,0,0,0,
6.38224E+17,7.963267,13.46585,28.13346,-24.31118,4.589847,0.738663,-16.98673,-0.4441859,-4.27255,-61.51973,-6.98289,34.57793,0,0,0,26.67722,-63.19228,22.35531,-36.05464,-110.6632,-50.32285,0.001067912,-0.1257102,0.09433498,0,0.3,0,0,0,0,
6.38224E+17,2.473796,11.24492,31.96241,-32.00193,5.542034,3.155754,-16.98673,-0.4441859,-4.27255,-61.51973,-6.98289,34.57793,0,0,0,8.692081,-63.77987,32.84287,-36.05464,-110.6632,-50.32285,0.001067912,-0.1257102,0.09433498,0,0.3,0,0,0,0,
6.38224E+17,-2.167516,8.392776,39.01328,-42.76897,5.615279,6.818012,-16.98673,-0.4441859,-4.27255,-61.51973,-6.98289,34.57793,0,0,0,-8.16432,-60.79942,47.36137,-36.05464,-110.6632,-50.32285,0.001067912,-0.1257102,0.09433498,0,0.3,0,0,0,0,
6.38224E+17,-3.321954,7.457647,42.30524,-48.11587,5.395544,9.894309,-16.98673,-0.4441859,-4.27255,-61.51973,-6.909645,34.57793,0,0,0,-12.86282,-57.96366,53.25426,-36.05464,-110.6632,-50.32285,0.001067912,-0.1257102,0.09433498,0,0.3,0,0,0,0,
6.38224E+17,-3.675354,7.247243,43.91621,-51.11892,5.102563,12.67763,-16.98673,-0.4441859,-4.27255,-61.44649,-6.98289,34.57793,0,0,0,-14.40889,-55.88707,55.96468,-36.05464,-110.6632,-50.32285,0.001067912,-0.1257102,0.09433498,0,0.3,0,0,0,0,
6.38224E+17,-3.769594,7.247243,45.80734,-54.3417,4.443357,18.02452,-16.98673,-0.4441859,-4.27255,-61.51973,-6.909645,34.57793,0,0,0,-14.98292,-52.78246,59.05355,-36.05464,-110.6632,-50.32285,0.001067912,-0.1257102,0.09433498,0,0.3,0,0,0,0,
6.38224E+17,-3.675354,7.247243,46.85796,-55.80661,3.857395,23.00519,-16.98673,-0.4441859,-4.27255,-61.51973,-6.98289,34.57793,0,0,0,-14.71709,-51.01371,60.76274,-36.05464,-110.6632,-50.32285,0.001067912,-0.1257102,0.09433498,0,0.3,0,0,0,0,
6.38224E+17,-3.157035,7.15373,46.92801,-56.75879,3.124943,26.15474,-16.98673,-0.4441859,-4.27255,-61.44649,-6.98289,34.57793,0,0,0,-12.65152,-51.11061,61.02497,-36.05464,-110.6632,-50.32285,0.001067912,-0.1257102,0.09433498,0,0.3,0,0,0,0,
6.38224E+17,-2.568036,6.779679,46.67118,-56.90528,2.758718,27.03368,-16.98673,-0.4441859,-4.27255,-61.44649,-6.98289,34.57793,0,0,0,-10.27932,-52.41047,60.83963,-36.05464,-110.6632,-50.32285,0.001067912,-0.1257102,0.09433498,0,0.3,0,0,0,0,
6.38224E+17,-0.5654391,5.423743,45.64391,-55.73336,2.758718,27.98586,-16.98673,-0.4441859,-4.27255,-61.51973,-6.909645,34.57793,0,0,0,-2.251024,-57.27272,59.73827,-36.05464,-110.6632,-50.32285,0.001067912,-0.1257102,0.09433498,0,0.3,0,0,0,0,
6.38224E+17,2.332436,3.740513,44.75671,-51.85137,3.051698,28.86481,-16.98673,-0.4441859,-4.27255,-61.51973,-6.98289,34.57793,0,0,0,9.236586,-62.64275,58.41935,-36.05464,-110.6632,-50.32285,0.001067912,-0.1257102,0.09433498,0,0.3,0,0,0,0,
6.38224E+17,4.806232,2.665115,43.98625,-47.82288,3.63766,29.89024,-16.98673,-0.4441859,-4.27255,-61.51973,-6.98289,34.57793,0,0,0,18.92022,-66.39565,56.67141,-36.05464,-110.6632,-50.32285,0.001067912,-0.1257102,0.09433498,0,0.3,0,0,0,0,
6.38224E+17,8.033947,1.987147,42.86558,-43.20844,4.589847,30.69594,-16.98673,-0.4441859,-4.27255,-61.51973,-6.98289,34.57793,0,0,0,31.30413,-69.76516,53.43692,-36.05464,-110.6632,-50.32285,0.001067912,-0.1257102,0.09433498,0,0.3,0,0,0,0,
6.38224E+17,13.2407,1.729987,41.46474,-35.95716,5.981505,31.20865,-16.98673,-0.4441859,-4.27255,-61.44649,-6.98289,34.57793,0,0,0,50.75307,-72.55184,47.34753,-36.05464,-110.6632,-50.32285,0.001067912,-0.1257102,0.09433498,0,0.3,0,0,0,0,
6.38224E+17,15.92653,1.729987,41.13788,-32.07517,6.640712,31.20865,-16.98673,-0.4441859,-4.27255,-61.51973,-6.98289,34.50468,0,0,0,60.64797,-73.05395,44.18276,-36.05464,-110.6632,-50.32285,0.001067912,-0.1257102,0.09433498,0,0.3,0,0,0,0,
6.38224E+17,25.44476,2.197551,41.69822,-17.71912,8.178861,27.32666,-16.98673,-0.4441859,-4.27255,-61.51973,-6.98289,34.57793,0,0,0,95.36188,-71.10365,32.07743,-36.05464,-110.6632,-50.32285,0.001067912,-0.1257102,0.09433498,0,0.3,0,0,0,0,
6.38224E+17,28.20127,2.548224,42.30524,-13.17792,8.325351,25.27579,-16.98673,-0.4441859,-4.27255,-61.44649,-6.98289,34.57793,0,0,0,105.3706,-69.34282,28.15487,-36.05464,-110.6632,-50.32285,0.001067912,-0.1257102,0.09433498,0,0.3,0,0,0,0,
6.38224E+17,33.73786,4.044429,44.56993,-3.143331,8.105616,20.00214,-16.98673,-0.4441859,-4.27255,-61.44649,-6.98289,34.57793,0,0,0,125.8524,-62.24263,20.08782,-36.05464,-110.6632,-50.32285,0.001067912,-0.1257102,0.09433498,0,0.3,0,0,0,0,
6.38224E+17,38.52053,6.89657,46.81127,6.818012,7.666144,14.21577,-16.98673,-0.4441859,-4.27255,-61.44649,-6.98289,34.57793,0,0,0,143.0006,-51.90292,11.29425,-36.05464,-110.6632,-50.32285,0.001067912,-0.1257102,0.09433498,0,0.3,0,0,0,0,
6.38224E+17,40.38177,8.649935,47.74516,10.77325,7.446409,11.43246,-16.98673,-0.4441859,-4.27255,-61.44649,-6.98289,34.57793,0,0,0,149.3577,-46.26301,7.257801,-36.05464,-110.6632,-50.32285,0.001067912,-0.1257102,0.09433498,0,0.3,0,0,0,0,
6.38224E+17,43.58593,13.44247,49.61294,18.75698,6.933692,6.232051,-16.98673,-0.4441859,-4.27255,-61.44649,-6.98289,34.57793,0,0,0,159.4454,-32.05413,-0.8335111,-36.05464,-110.6632,-50.32285,0.001067912,-0.1257102,0.09433498,0,0.3,0,0,0,0,
6.38224E+17,45.777,19.56756,51.10716,25.56878,5.981505,2.130321,-16.98673,-0.4441859,-4.27255,-61.51973,-6.98289,34.57793,0,0,0,164.4222,-15.71457,-8.327923,-36.05464,-110.6632,-50.32285,0.001067912,-0.1257102,0.09433498,0,0.3,0,0,0,0,
6.38224E+17,46.64872,23.42496,52.04106,29.0113,5.175808,0.5921727,-16.98673,-0.4441859,-4.27255,-61.51973,-6.909645,34.57793,0,0,0,165.4283,-5.660162,-12.17853,-36.05464,-110.6632,-50.32285,0.001067912,-0.1257102,0.09433498,0,0.3,0,0,0,0,
6.38224E+17,47.544,31.5372,54.11897,35.09065,2.831963,-1.605182,-16.98673,-0.4441859,-4.27255,-61.51973,-6.98289,34.57793,0,0,0,163.5688,14.94198,-18.69774,-36.05464,-110.6632,-50.32285,0.001067912,-0.1257102,0.09433498,0,0.3,0,0,0,0,
6.38224E+17,47.14348,40.72483,56.54708,41.38973,-1.928973,-3.875783,-16.98673,-0.4441859,-4.27255,-61.44649,-6.98289,34.57793,0,0,0,155.6422,36.84172,-23.93835,-36.05464,-110.6632,-50.32285,0.001067912,-0.1257102,0.09433498,0,0.3,0,0,0,0,
6.38224E+17,45.23512,48.3695,58.43821,45.93093,-7.935077,-5.853402,-16.98673,-0.4441859,-4.27255,-61.44649,-6.98289,34.57793,0,0,0,143.571,53.22396,-25.95251,-36.05464,-110.6632,-50.32285,0.001067912,-0.1257102,0.09433498,0,0.3,0,0,0,0,
6.38224E+17,43.79797,51.59569,58.9285,47.61557,-11.23111,-6.585854,-16.98673,-0.4441859,-4.27255,-61.44649,-6.98289,34.57793,0,0,0,136.3855,59.02638,-26.11843,-36.05464,-110.6632,-50.32285,0.001067912,-0.1257102,0.09433498,0,0.3,0,0,0,0,
6.38224E+17,39.58073,57.53376,59.02188,49.30021,-18.77536,-7.464796,-16.98673,-0.4441859,-4.27255,-61.44649,-6.98289,34.57793,0,0,0,118.4567,67.22179,-25.06241,-36.05464,-110.6632,-50.32285,0.001067912,-0.1257102,0.09433498,0,0.3,0,0,0,0,
6.38224E+17,33.92635,61.41454,57.92457,47.61557,-26.31961,-5.999893,-16.98673,-0.4441859,-4.27255,-61.44649,-6.98289,34.57793,0,0,0,98.67564,69.63167,-21.6509,-36.05464,-110.6632,-50.32285,0.001067912,-0.1257102,0.09433498,0,0.3,0,0,0,0,
6.38224E+17,27.25887,62.91074,55.35637,39.85158,-33.79062,1.54436,-16.98673,-0.4441859,-4.27255,-61.51973,-6.98289,34.57793,0,0,0,78.05992,66.26573,-16.84495,-36.05464,-110.6632,-50.32285,0.001067912,-0.1257102,0.09433498,0,0.3,0,0,0,0,
6.38224E+17,20.63853,61.83535,52.32122,26.37447,-38.55156,15.46094,-16.98673,-0.4441859,-4.27255,-61.51973,-6.98289,34.57793,0,0,0,59.38501,59.40262,-10.68073,-36.05464,-110.6632,-50.32285,0.001067912,-0.1257102,0.09433498,0,0.3,0,0,0,0,
6.38224E+17,17.55217,60.29239,50.3834,18.09777,-39.65023,23.73765,-16.98673,-0.4441859,-4.27255,-61.44649,-6.909645,34.57793,0,0,0,50.90815,54.14297,-7.401127,-36.05464,-110.6632,-50.32285,0.001067912,-0.1257102,0.09433498,0,0.3,0,0,0,0,
6.38224E+17,13.52342,56.2012,46.25093,3.96145,-38.47831,36.84853,-16.98673,-0.4441859,-4.27255,-61.51973,-6.909645,34.57793,0,0,0,39.87217,41.95164,-2.569009,-36.05464,-110.6632,-50.32285,0.001067912,-0.1257102,0.09433498,0,0.3,0,0,0,0,
6.38224E+17,12.27474,51.2684,43.05236,-4.901215,-34.96254,45.12524,-16.98673,-0.4441859,-4.27255,-61.44649,-6.98289,34.57793,0,0,0,37.09163,29.93153,2.128636,-36.05464,-110.6632,-50.32285,0.001067912,-0.1257102,0.09433498,0,0.3,0,0,0,0,
6.38224E+17,12.43966,48.76693,42.25855,-6.659099,-33.13141,47.76206,-16.98673,-0.4441859,-4.27255,-61.51973,-6.98289,34.57793,0,0,0,38.25037,24.93911,5.050262,-36.05464,-110.6632,-50.32285,0.001067912,-0.1257102,0.09433498,0,0.3,0,0,0,0,
6.38224E+17,13.26426,43.83413,41.4414,-6.146383,-29.83538,51.7173,-16.98673,-0.4441859,-4.27255,-61.44649,-6.98289,34.57793,0,0,0,42.32067,15.74104,11.17919,-36.05464,-110.6632,-50.32285,0.001067912,-0.1257102,0.09433498,0,0.3,0,0,0,0,
6.38224E+17,14.34802,38.78444,39.90048,-2.85035,-26.39286,54.06115,-16.98673,-0.4441859,-4.27255,-61.44649,-6.98289,34.57793,0,0,0,46.95661,4.578629,15.22521,-36.05464,-110.6632,-50.32285,0.001067912,-0.1257102,0.09433498,0,0.3,0,0,0,0,
6.38224E+17,16.02077,33.68799,38.31286,1.104889,-21.9249,55.15982,-16.98673,-0.4441859,-4.27255,-61.44649,-6.98289,34.57793,0,0,0,53.43848,-7.316123,17.75745,-36.05464,-110.6632,-50.32285,0.001067912,-0.1257102,0.09433498,0,0.3,0,0,0,0,
6.38224E+17,17.15165,31.02288,38.14943,3.448734,-19.21483,55.30631,-16.98673,-0.4441859,-4.27255,-61.44649,-6.98289,34.57793,0,0,0,57.99188,-12.7908,19.55265,-36.05464,-110.6632,-50.32285,0.001067912,-0.1257102,0.09433498,0,0.3,0,0,0,0,
6.38224E+17,19.36629,26.04332,38.14943,8.50265,-14.08767,54.72035,-16.98673,-0.4441859,-4.27255,-61.51973,-6.98289,34.57793,0,0,0,67.04485,-22.96937,22.39231,-36.05464,-110.6632,-50.32285,0.001067912,-0.1257102,0.09433498,0,0.3,0,0,0,0,
6.38224E+17,21.13329,20.29228,39.13002,13.92279,-8.447793,52.88922,-16.98673,-0.4441859,-4.27255,-61.44649,-6.909645,34.57793,0,0,0,75.435,-33.8447,26.80672,-36.05464,-110.6632,-50.32285,0.001067912,-0.1257102,0.09433498,0,0.3,0,0,0,0,
6.38224E+17,21.34533,14.68151,41.11454,17.6583,-3.027651,49.88617,-16.98673,-0.4441859,-4.27255,-61.44649,-6.909645,34.57793,0,0,0,78.86988,-43.31844,33.4689,-36.05464,-110.6632,-50.32285,0.001067912,-0.1257102,0.09433498,0,0.3,0,0,0,0,
6.38224E+17,21.0626,13.13855,41.55813,18.24426,-1.269767,48.86074,-16.98673,-0.4441859,-4.27255,-61.44649,-6.909645,34.57793,0,0,0,78.46191,-46.12221,35.3846,-36.05464,-110.6632,-50.32285,0.001067912,-0.1257102,0.09433498,0,0.3,0,0,0,0,
6.38224E+17,19.55477,10.35654,42.30524,17.87803,2.978453,45.93093,-16.98673,-0.4441859,-4.27255,-61.51973,-6.98289,34.57793,0,0,0,73.9479,-51.29885,39.83976,-36.05464,-110.6632,-50.32285,0.001067912,-0.1257102,0.09433498,0,0.3,0,0,0,0,
6.38224E+17,16.93961,9.561686,42.46867,15.16796,6.127995,43.95331,-16.98673,-0.4441859,-4.27255,-61.51973,-6.909645,34.57793,0,0,0,64.54684,-52.86449,43.57179,-36.05464,-110.6632,-50.32285,0.001067912,-0.1257102,0.09433498,0,0.3,0,0,0,0,
6.38224E+17,12.13338,9.795467,42.49202,8.795631,9.350782,42.85464,-16.98673,-0.4441859,-4.27255,-61.51973,-6.98289,34.57793,0,0,0,46.55294,-52.29143,48.1845,-36.05464,-110.6632,-50.32285,0.001067912,-0.1257102,0.09433498,0,0.3,0,0,0,0,
6.38224E+17,9.447544,10.26303,42.74884,4.327676,10.59595,42.56165,-16.98673,-0.4441859,-4.27255,-61.44649,-6.98289,34.57793,0,0,0,36.39619,-50.81512,50.37502,-36.05464,-110.6632,-50.32285,0.001067912,-0.1257102,0.09433498,0,0.3,0,0,0,0,
6.38224E+17,4.240793,12.0164,44.14968,-6.146383,12.42708,42.12218,-16.98673,-0.4441859,-4.27255,-61.44649,-6.909645,34.57793,0,0,0,16.51346,-44.56929,54.34961,-36.05464,-110.6632,-50.32285,0.001067912,-0.1257102,0.09433498,0,0.3,0,0,0,0,
6.38224E+17,-0.4947592,15.71015,47.13813,-21.23489,13.15953,41.24324,-16.98673,-0.4441859,-4.27255,-61.44649,-6.98289,34.57793,0,0,0,-1.952506,-31.25178,57.7551,-36.05464,-110.6632,-50.32285,0.001067912,-0.1257102,0.09433498,0,0.3,0,0,0,0,
6.38224E+17,-2.403116,21.71835,48.7024,-36.10366,12.42708,40.21781,-16.98673,-0.4441859,-4.27255,-61.51973,-6.98289,34.57793,0,0,0,-9.395202,-15.31162,55.52172,-36.05464,-110.6632,-50.32285,0.001067912,-0.1257102,0.09433498,0,0.3,0,0,0,0,
6.38224E+17,-2.026157,27.23561,48.58566,-44.16063,10.6692,39.92483,-16.98673,-0.4441859,-4.27255,-61.44649,-6.909645,34.57793,0,0,0,-7.727738,-3.833266,50.08435,-36.05464,-110.6632,-50.32285,0.001067912,-0.1257102,0.09433498,0,0.3,0,0,0,0,
6.38224E+17,-0.3769594,33.64123,48.56231,-49.87375,7.519653,39.77834,-16.98673,-0.4441859,-4.27255,-61.44649,-6.909645,34.57793,0,0,0,-1.388107,8.972965,42.63163,-36.05464,-110.6632,-50.32285,0.001067912,-0.1257102,0.09433498,0,0.3,0,0,0,0,
6.38224E+17,3.298395,41.00537,48.63235,-52.8768,1.51355,39.92483,-16.98673,-0.4441859,-4.27255,-61.44649,-6.98289,34.50468,0,0,0,11.54803,22.71546,32.02693,-36.05464,-110.6632,-50.32285,0.001067912,-0.1257102,0.09433498,0,0.3,0,0,0,0,
6.38224E+17,5.88999,44.34845,48.63235,-52.73031,-2.075463,39.99807,-16.98673,-0.4441859,-4.27255,-61.44649,-6.98289,34.57793,0,0,0,20.05539,28.43491,26.05417,-36.05464,-110.6632,-50.32285,0.001067912,-0.1257102,0.09433498,0,0.3,0,0,0,0,
6.38224E+17,11.77998,49.49166,48.72574,-49.50752,-9.473226,39.77834,-16.98673,-0.4441859,-4.27255,-61.44649,-6.98289,34.57793,0,0,0,38.14399,36.77132,14.55421,-36.05464,-110.6632,-50.32285,0.001067912,-0.1257102,0.09433498,0,0.3,0,0,0,0,
6.38224E+17,18.49457,52.39055,48.56231,-41.81678,-16.87099,37.43449,-16.98673,-0.4441859,-4.27255,-61.44649,-6.98289,34.57793,0,0,0,57.52676,40.73669,3.63353,-36.05464,-110.6632,-50.32285,0.001067912,-0.1257102,0.09433498,0,0.3,0,0,0,0,
6.38224E+17,24.80864,52.53082,47.8619,-29.87782,-22.43762,32.08759,-16.98673,-0.4441859,-4.27255,-61.51973,-6.98289,34.57793,0,0,0,75.52786,39.72015,-4.957435,-36.05464,-110.6632,-50.32285,0.001067912,-0.1257102,0.09433498,0,0.3,0,0,0,0,
6.38224E+17,29.52063,51.03462,46.43771,-17.42614,-24.63498,24.68983,-16.98673,-0.4441859,-4.27255,-61.51973,-6.98289,34.57793,0,0,0,88.93215,35.13591,-11.29493,-36.05464,-110.6632,-50.32285,0.001067912,-0.1257102,0.09433498,0,0.3,0,0,0,0,
6.38224E+17,31.38187,49.86571,45.64391,-12.07924,-24.48849,20.95433,-16.98673,-0.4441859,-4.27255,-61.44649,-6.98289,34.57793,0,0,0,94.41076,32.07377,-13.57023,-36.05464,-110.6632,-50.32285,0.001067912,-0.1257102,0.09433498,0,0.3,0,0,0,0,
6.38224E+17,34.86874,46.49924,44.61663,-2.117898,-22.65736,13.62981,-16.98673,-0.4441859,-4.27255,-61.51973,-6.98289,34.57793,0,0,0,106.0232,25.15596,-16.1925,-36.05464,-110.6632,-50.32285,0.001067912,-0.1257102,0.09433498,0,0.3,0,0,0,0,
6.38224E+17,37.62526,42.36131,44.28976,6.891257,-18.84861,8.282915,-16.98673,-0.4441859,-4.27255,-61.44649,-6.909645,34.57793,0,0,0,117.0015,17.74743,-16.55898,-36.05464,-110.6632,-50.32285,0.001067912,-0.1257102,0.09433498,0,0.3,0,0,0,0,
6.38224E+17,39.20378,37.89607,44.26641,14.21577,-14.16092,5.426354,-16.98673,-0.4441859,-4.27255,-61.44649,-6.98289,34.57793,0,0,0,125.3464,9.765508,-14.68079,-36.05464,-110.6632,-50.32285,0.001067912,-0.1257102,0.09433498,0,0.3,0,0,0,0,
6.38224E+17,39.43937,35.37122,44.35981,17.36532,-11.30435,4.620657,-16.98673,-0.4441859,-4.27255,-61.44649,-6.98289,34.57793,0,0,0,128.3033,5.202176,-12.36966,-36.05464,-110.6632,-50.32285,0.001067912,-0.1257102,0.09433498,0,0.3,0,0,0,0,
6.38224E+17,39.41582,30.97612,44.26641,21.24731,-5.957458,3.741715,-16.98673,-0.4441859,-4.27255,-61.44649,-6.98289,34.57793,0,0,0,131.6934,-3.509521,-8.113985,-36.05464,-110.6632,-50.32285,0.001067912,-0.1257102,0.09433498,0,0.3,0,0,0,0,
6.38224E+17,39.10954,26.18359,44.14968,23.15168,-1.123276,3.375489,-16.98673,-0.4441859,-4.27255,-61.51973,-6.98289,34.57793,0,0,0,134.0771,-13.49111,-3.424243,-36.05464,-110.6632,-50.32285,0.001067912,-0.1257102,0.09433498,0,0.3,0,0,0,0,
6.38224E+17,38.56766,23.23793,44.38315,23.59116,1.586795,3.155754,-16.98673,-0.4441859,-4.27255,-61.51973,-6.98289,34.50468,0,0,0,134.5405,-19.33907,0.3812022,-36.05464,-110.6632,-50.32285,0.001067912,-0.1257102,0.09433498,0,0.3,0,0,0,0,
6.38224E+17,36.49438,18.51554,44.42985,22.56572,6.567466,3.009263,-16.98673,-0.4441859,-4.27255,-61.44649,-6.98289,34.57793,0,0,0,130.7231,-29.52945,8.348315,-36.05464,-110.6632,-50.32285,0.001067912,-0.1257102,0.09433498,0,0.3,0,0,0,0,
6.38224E+17,32.98395,14.61138,43.21579,19.04996,11.10867,2.936018,-16.98673,-0.4441859,-4.27255,-61.51973,-6.98289,34.57793,0,0,0,119.9586,-40.19374,16.48341,-36.05464,-110.6632,-50.32285,0.001067912,-0.1257102,0.09433498,0,0.3,0,0,0,0,
6.38224E+17,28.50755,12.10991,42.07177,13.70306,14.84417,3.082508,-16.98673,-0.4441859,-4.27255,-61.51973,-6.98289,34.57793,0,0,0,104.874,-47.66133,24.74323,-36.05464,-110.6632,-50.32285,0.001067912,-0.1257102,0.09433498,0,0.3,0,0,0,0,
6.38224E+17,22.52332,11.17478,41.16123,5.353109,18.35994,4.107941,-16.98673,-0.4441859,-4.27255,-61.44649,-6.98289,34.57793,0,0,0,83.733,-51.20037,33.56684,-36.05464,-110.6632,-50.32285,0.001067912,-0.1257102,0.09433498,0,0.3,0,0,0,0,
6.38224E+17,19.69613,11.12803,40.97445,0.8851534,19.60511,5.133373,-16.98673,-0.4441859,-4.27255,-61.44649,-6.98289,34.57793,0,0,0,73.56841,-51.59272,37.16235,-36.05464,-110.6632,-50.32285,0.001067912,-0.1257102,0.09433498,0,0.3,0,0,0,0,
6.38224E+17,13.5941,11.45532,41.34801,-9.149435,21.65597,7.91669,-16.98673,-0.4441859,-4.27255,-61.44649,-6.98289,34.57793,0,0,0,51.42455,-50.27349,44.30946,-36.05464,-110.6632,-50.32285,0.001067912,-0.1257102,0.09433498,0,0.3,0,0,0,0,
6.38224E+17,8.081067,13.55936,42.2352,-19.18402,22.46167,10.8465,-16.98673,-0.4441859,-4.27255,-61.44649,-6.98289,34.50468,0,0,0,30.82337,-44.11699,48.74054,-36.05464,-110.6632,-50.32285,0.001067912,-0.1257102,0.09433498,0,0.3,0,0,0,0,
6.38224E+17,3.816714,17.74406,42.60876,-29.58484,21.65597,13.48332,-16.98673,-0.4441859,-4.27255,-61.51973,-6.98289,34.57793,0,0,0,14.46341,-34.15427,48.4507,-36.05464,-110.6632,-50.32285,0.001067912,-0.1257102,0.09433498,0,0.3,0,0,0,0,
6.38224E+17,2.568036,20.24553,42.77219,-34.63876,20.4108,14.36226,-16.98673,-0.4441859,-4.27255,-61.51973,-6.98289,34.57793,0,0,0,9.663124,-28.39191,47.10083,-36.05464,-110.6632,-50.32285,0.001067912,-0.1257102,0.09433498,0,0.3,0,0,0,0,
6.38224E+17,1.766997,25.38873,42.84223,-42.84221,16.96828,16.12015,-16.98673,-0.4441859,-4.27255,-61.51973,-6.98289,34.57793,0,0,0,6.510712,-17.25127,42.6962,-36.05464,-110.6632,-50.32285,0.001067912,-0.1257102,0.09433498,0,0.3,0,0,0,0,
6.38224E+17,2.662276,30.57869,42.98232,-47.96938,12.35384,18.68373,-16.98673,-0.4441859,-4.27255,-61.44649,-6.909645,34.57793,0,0,0,9.555418,-6.366104,37.14753,-36.05464,-110.6632,-50.32285,0.001067912,-0.1257102,0.09433498,0,0.3,0,0,0,0,
6.38224E+17,3.392634,32.75286,43.33253,-49.21454,9.8635,20.07539,-16.98673,-0.4441859,-4.27255,-61.51973,-6.98289,34.57793,0,0,0,12.05208,-1.502017,34.95098,-36.05464,-110.6632,-50.32285,0.001067912,-0.1257102,0.09433498,0,0.3,0,0,0,0,
6.38224E+17,5.065392,36.51675,44.45319,-50.23997,4.296866,23.29818,-16.98673,-0.4441859,-4.27255,-61.44649,-6.909645,34.57793,0,0,0,17.70794,7.512689,31.42636,-36.05464,-110.6632,-50.32285,0.001067912,-0.1257102,0.09433498,0,0.3,0,0,0,0,
6.38224E+17,6.714589,39.32214,45.48048,-49.87375,-1.269767,26.52096,-16.98673,-0.4441859,-4.27255,-61.44649,-6.909645,34.57793,0,0,0,23.17883,14.35254,28.5293,-36.05464,-110.6632,-50.32285,0.001067912,-0.1257102,0.09433498,0,0.3,0,0,0,0,
6.38224E+17,7.916147,41.16902,46.5311,-48.40885,-7.12938,29.74375,-16.98673,-0.4441859,-4.27255,-61.51973,-6.98289,34.57793,0,0,0,27.15367,19.3924,26.93169,-36.05464,-110.6632,-50.32285,0.001067912,-0.1257102,0.09433498,0,0.3,0,0,0,0,
6.38224E+17,7.916147,41.56644,47.18483,-47.74964,-10.35217,31.50163,-16.98673,-0.4441859,-4.27255,-61.44649,-6.98289,34.50468,0,0,0,27.21276,21.19674,27.35669,-36.05464,-110.6632,-50.32285,0.001067912,-0.1257102,0.09433498,0,0.3,0,0,0,0,
6.38224E+17,7.774787,41.58982,47.30156,-47.74964,-11.59733,32.23409,-16.98673,-0.4441859,-4.27255,-61.44649,-6.98289,34.57793,0,0,0,26.7499,21.43692,27.57021,-36.05464,-110.6632,-50.32285,0.001067912,-0.1257102,0.09433498,0,0.3,0,0,0,0,
6.38224E+17,7.374268,41.33266,46.9747,-48.04262,-13.06224,33.03978,-16.98673,-0.4441859,-4.27255,-61.51973,-6.98289,34.57793,0,0,0,25.36415,20.43078,27.63222,-36.05464,-110.6632,-50.32285,0.001067912,-0.1257102,0.09433498,0,0.3,0,0,0,0,
6.38224E+17,6.879509,40.6547,46.36767,-48.48209,-13.50171,33.47925,-16.98673,-0.4441859,-4.27255,-61.51973,-6.98289,34.57793,0,0,0,23.67874,18.21211,27.90909,-36.05464,-110.6632,-50.32285,0.001067912,-0.1257102,0.09433498,0,0.3,0,0,0,0,
6.38224E+17,6.502549,40.18713,46.06416,-48.77507,-13.35522,33.5525,-16.98673,-0.4441859,-4.27255,-61.51973,-6.98289,34.57793,0,0,0,22.41157,16.87368,28.27603,-36.05464,-110.6632,-50.32285,0.001067912,-0.1257102,0.09433498,0,0.3,0,0,0,0,
6.38224E+17,5.607271,39.27538,45.45713,-49.72726,-12.54952,33.62574,-16.98673,-0.4441859,-4.27255,-61.44649,-6.98289,34.57793,0,0,0,19.37279,14.2296,28.97113,-36.05464,-110.6632,-50.32285,0.001067912,-0.1257102,0.09433498,0,0.3,0,0,0,0,
6.38224E+17,4.924032,38.08309,44.59328,-50.89918,-11.45084,33.18628,-16.98673,-0.4441859,-4.27255,-61.44649,-6.909645,34.57793,0,0,0,17.04534,10.64111,29.50014,-36.05464,-110.6632,-50.32285,0.001067912,-0.1257102,0.09433498,0,0.3,0,0,0,0,
6.38224E+17,4.264353,36.07257,43.65939,-51.85137,-9.619716,32.45382,-16.98673,-0.4441859,-4.27255,-61.51973,-6.98289,34.57793,0,0,0,14.86005,5.394789,30.94062,-36.05464,-110.6632,-50.32285,0.001067912,-0.1257102,0.09433498,0,0.3,0,0,0,0,
6.38224E+17,3.887394,33.45421,42.65545,-52.43733,-7.495606,31.79461,-16.98673,-0.4441859,-4.27255,-61.51973,-6.98289,34.57793,0,0,0,13.66857,-1.209238,32.79996,-36.05464,-110.6632,-50.32285,0.001067912,-0.1257102,0.09433498,0,0.3,0,0,0,0,
6.38224E+17,3.863834,29.90072,41.62818,-52.36408,-4.85878,31.20865,-16.98673,-0.4441859,-4.27255,-61.51973,-6.98289,34.57793,0,0,0,13.75901,-9.850531,35.36932,-36.05464,-110.6632,-50.32285,0.001067912,-0.1257102,0.09433498,0,0.3,0,0,0,0,
6.38224E+17,4.335033,23.51847,40.85772,-51.11892,0.268382,30.91567,-16.98673,-0.4441859,-4.27255,-61.51973,-6.98289,34.57793,0,0,0,15.83639,-24.29486,40.55871,-36.05464,-110.6632,-50.32285,0.001067912,-0.1257102,0.09433498,0,0.3,0,0,0,0,
6.38224E+17,4.782672,19.63769,40.83437,-50.16673,3.710905,30.91567,-16.98673,-0.4441859,-4.27255,-61.51973,-6.98289,34.57793,0,0,0,17.74152,-32.72791,43.69718,-36.05464,-110.6632,-50.32285,0.001067912,-0.1257102,0.09433498,0,0.3,0,0,0,0,
6.38224E+17,6.47899,12.25018,40.81102,-47.38342,10.88893,30.98892,-16.98673,-0.4441859,-4.27255,-61.44649,-6.98289,34.57793,0,0,0,24.5387,-49.28423,47.72784,-36.05464,-110.6632,-50.32285,0.001067912,-0.1257102,0.09433498,0,0.3,0,0,0,0,
6.38224E+17,9.683144,5.751038,40.76432,-42.54923,17.99371,30.4762,-16.98673,-0.4441859,-4.27255,-61.44649,-6.98289,34.57793,0,0,0,36.96174,-64.28704,48.26881,-36.05464,-110.6632,-50.32285,0.001067912,-0.1257102,0.09433498,0,0.3,0,0,0,0,
6.38224E+17,13.5941,1.706609,40.71763,-36.76286,23.19412,28.49858,-16.98673,-0.4441859,-4.27255,-61.51973,-6.98289,34.57793,0,0,0,51.77488,-73.74908,45.7582,-36.05464,-110.6632,-50.32285,0.001067912,-0.1257102,0.09433498,0,0.3,0,0,0,0,
6.38224E+17,16.02077,0.5844551,40.74098,-33.61332,25.02525,27.32666,-16.98673,-0.4441859,-4.27255,-61.44649,-6.909645,34.57793,0,0,0,60.81974,-76.32476,43.46377,-36.05464,-110.6632,-50.32285,0.001067912,-0.1257102,0.09433498,0,0.3,0,0,0,0,
6.38224E+17,21.5338,0.2805384,40.88106,-26.28881,27.44234,24.4701,-16.98673,-0.4441859,-4.27255,-61.51973,-6.909645,34.57793,0,0,0,80.98035,-76.81899,36.87542,-36.05464,-110.6632,-50.32285,0.001067912,-0.1257102,0.09433498,0,0.3,0,0,0,0,
6.38224E+17,27.6594,1.589718,42.21186,-17.86561,27.80857,20.36837,-16.98673,-0.4441859,-4.27255,-61.44649,-6.909645,34.57793,0,0,0,103.4702,-71.71832,29.07147,-36.05464,-110.6632,-50.32285,0.001067912,-0.1257102,0.09433498,0,0.3,0,0,0,0,
6.38224E+17,33.69075,4.535372,45.13026,-7.904267,26.49015,15.68068,-16.98673,-0.4441859,-4.27255,-61.44649,-6.98289,34.57793,0,0,0,126.1628,-60.18348,20.88942,-36.05464,-110.6632,-50.32285,0.001067912,-0.1257102,0.09433498,0,0.3,0,0,0,0,
6.38224E+17,36.56506,6.89657,47.09144,-2.191144,25.31823,13.26359,-16.98673,-0.4441859,-4.27255,-61.44649,-6.909645,34.57793,0,0,0,137.0526,-51.42641,16.42673,-36.05464,-110.6632,-50.32285,0.001067912,-0.1257102,0.09433498,0,0.3,0,0,0,0,
6.38224E+17,40.52313,12.85801,50.31336,9.015368,22.24193,9.015368,-16.98673,-0.4441859,-4.27255,-61.51973,-6.98289,34.57793,0,0,0,151.1496,-32.13063,8.478786,-36.05464,-110.6632,-50.32285,0.001067912,-0.1257102,0.09433498,0,0.3,0,0,0,0,
6.38224E+17,42.76133,20.43255,52.32122,20.07539,18.06696,5.572844,-16.98673,-0.4441859,-4.27255,-61.44649,-6.98289,34.57793,0,0,0,156.497,-11.60497,0.8803848,-36.05464,-110.6632,-50.32285,0.001067912,-0.1257102,0.09433498,0,0.3,0,0,0,0,
6.38224E+17,43.23253,24.50036,52.99829,24.90957,15.64987,4.327676,-16.98673,-0.4441859,-4.27255,-61.44649,-6.98289,34.57793,0,0,0,156.0605,-1.605106,-2.351348,-36.05464,-110.6632,-50.32285,0.001067912,-0.1257102,0.09433498,0,0.3,0,0,0,0,
6.38224E+17,43.06761,32.58922,54.6326,32.89329,9.790254,2.130321,-16.98673,-0.4441859,-4.27255,-61.51973,-6.98289,34.57793,0,0,0,150.9777,17.98866,-6.828825,-36.05464,-110.6632,-50.32285,0.001067912,-0.1257102,0.09433498,0,0.3,0,0,0,0,
6.38224E+17,41.58333,39.76632,56.92064,38.67966,2.831963,0.299192,-16.98673,-0.4441859,-4.27255,-61.44649,-6.909645,34.57793,0,0,0,142.1908,35.86593,-8.102778,-36.05464,-110.6632,-50.32285,0.001067912,-0.1257102,0.09433498,0,0.3,0,0,0,0,
6.38224E+17,37.8373,46.68627,60.32933,43.58709,-7.495606,-1.751673,-16.98673,-0.4441859,-4.27255,-61.44649,-6.98289,34.57793,0,0,0,127.1886,54.36648,-4.599688,-36.05464,-110.6632,-50.32285,0.001067912,-0.1257102,0.09433498,0,0.3,0,0,0,0,
6.38224E+17,34.70382,49.70206,61.91695,45.5647,-14.16092,-2.484124,-16.98673,-0.4441859,-4.27255,-61.51973,-6.98289,34.57793,0,0,0,116.085,62.28029,-0.7259018,-36.05464,-110.6632,-50.32285,0.001067912,-0.1257102,0.09433498,0,0.3,0,0,0,0,
6.38224E+17,32.51274,51.12813,62.47728,45.93093,-18.33589,-2.630615,-16.98673,-0.4441859,-4.27255,-61.44649,-6.98289,34.57793,0,0,0,108.5436,65.54875,1.94571,-36.05464,-110.6632,-50.32285,0.001067912,-0.1257102,0.09433498,0,0.3,0,0,0,0,
6.38224E+17,27.61227,52.95163,62.85084,44.24629,-27.12531,-1.092466,-16.98673,-0.4441859,-4.27255,-61.44649,-6.98289,34.57793,0,0,0,92.23351,68.93151,7.984424,-36.05464,-110.6632,-50.32285,0.001067912,-0.1257102,0.09433498,0,0.3,0,0,0,0,
6.38224E+17,22.87672,53.0919,62.96758,39.19238,-34.81605,5.133373,-16.98673,-0.4441859,-4.27255,-61.51973,-6.98289,34.50468,0,0,0,77.30775,69.36977,14.87071,-36.05464,-110.6632,-50.32285,0.001067912,-0.1257102,0.09433498,0,0.3,0,0,0,0,
6.38224E+17,19.13069,52.22691,62.22046,31.9411,-40.45593,15.53419,-16.98673,-0.4441859,-4.27255,-61.51973,-6.98289,34.57793,0,0,0,65.43427,66.60501,20.28607,-36.05464,-110.6632,-50.32285,0.001067912,-0.1257102,0.09433498,0,0.3,0,0,0,0,
6.38224E+17,17.83489,51.50218,61.33327,27.83937,-42.50679,21.61354,-16.98673,-0.4441859,-4.27255,-61.44649,-6.98289,34.57793,0,0,0,61.25898,63.74408,22.05095,-36.05464,-110.6632,-50.32285,0.001067912,-0.1257102,0.09433498,0,0.3,0,0,0,0,
6.38224E+17,16.65689,49.9826,59.06858,19.78241,-44.26468,32.7468,-16.98673,-0.4441859,-4.27255,-61.51973,-6.98289,34.57793,0,0,0,57.36584,56.93253,23.38428,-36.05464,-110.6632,-50.32285,0.001067912,-0.1257102,0.09433498,0,0.3,0,0,0,0,
6.38224E+17,16.96317,48.60329,57.2008,14.80174,-43.53223,39.77834,-16.98673,-0.4441859,-4.27255,-61.44649,-6.98289,34.57793,0,0,0,58.43039,51.14714,23.20749,-36.05464,-110.6632,-50.32285,0.001067912,-0.1257102,0.09433498,0,0.3,0,0,0,0,
6.38224E+17,17.85845,47.6214,55.56649,13.04385,-42.06733,42.78139,-16.98673,-0.4441859,-4.27255,-61.51973,-6.98289,34.57793,0,0,0,61.29227,46.45391,21.8861,-36.05464,-110.6632,-50.32285,0.001067912,-0.1257102,0.09433498,0,0.3,0,0,0,0,
6.38224E+17,19.36629,46.26546,53.7921,12.75087,-39.79673,44.39278,-16.98673,-0.4441859,-4.27255,-61.44649,-6.909645,34.57793,0,0,0,66.24978,40.93002,20.13034,-36.05464,-110.6632,-50.32285,0.001067912,-0.1257102,0.09433498,0,0.3,0,0,0,0,
6.38224E+17,22.1228,44.20818,52.69478,14.80174,-35.695,44.24629,-16.98673,-0.4441859,-4.27255,-61.44649,-6.98289,34.57793,0,0,0,75.94215,35.5124,18.45964,-36.05464,-110.6632,-50.32285,0.001067912,-0.1257102,0.09433498,0,0.3,0,0,0,0,
6.38224E+17,24.92644,42.22104,52.67143,18.83022,-31.44678,42.56165,-16.98673,-0.4441859,-4.27255,-61.44649,-6.98289,34.57793,0,0,0,86.30941,32.09877,17.36327,-36.05464,-110.6632,-50.32285,0.001067912,-0.1257102,0.09433498,0,0.3,0,0,0,0,
6.38224E+17,27.61227,40.44429,53.16172,22.93195,-27.2718,39.70509,-16.98673,-0.4441859,-4.27255,-61.44649,-6.98289,34.57793,0,0,0,96.50167,29.90415,16.14439,-36.05464,-110.6632,-50.32285,0.001067912,-0.1257102,0.09433498,0,0.3,0,0,0,0,
6.38224E+17,28.90807,39.60268,53.95553,24.61659,-25.58716,37.80072,-16.98673,-0.4441859,-4.27255,-61.44649,-6.98289,34.57793,0,0,0,101.7886,29.89042,15.9783,-36.05464,-110.6632,-50.32285,0.001067912,-0.1257102,0.09433498,0,0.3,0,0,0,0,
6.38224E+17,31.52323,37.61553,56.26691,28.86481,-22.65736,32.52707,-16.98673,-0.4441859,-4.27255,-61.51973,-6.98289,34.57793,0,0,0,113.2105,30.68893,16.22468,-36.05464,-110.6632,-50.32285,0.001067912,-0.1257102,0.09433498,0,0.3,0,0,0,0,
6.38224E+17,33.47871,35.58163,58.25143,33.11303,-19.87404,26.59421,-16.98673,-0.4441859,-4.27255,-61.51973,-6.98289,34.57793,0,0,0,122.3774,30.77352,16.69148,-36.05464,-110.6632,-50.32285,0.001067912,-0.1257102,0.09433498,0,0.3,0,0,0,0,
6.38224E+17,34.23262,34.76339,58.81176,34.79766,-18.62887,23.51791,-16.98673,-0.4441859,-4.27255,-61.51973,-6.98289,34.57793,0,0,0,125.8017,30.32918,16.535,-36.05464,-110.6632,-50.32285,0.001067912,-0.1257102,0.09433498,0,0.3,0,0,0,0,
6.38224E+17,35.38706,33.31394,59.23202,37.14151,-16.7245,18.17101,-16.98673,-0.4441859,-4.27255,-61.44649,-6.98289,34.57793,0,0,0,130.8861,28.3724,15.91273,-36.05464,-110.6632,-50.32285,0.001067912,-0.1257102,0.09433498,0,0.3,0,0,0,0,
6.38224E+17,36.21166,31.25666,59.27871,38.38668,-14.89337,13.99604,-16.98673,-0.4441859,-4.27255,-61.44649,-6.98289,34.57793,0,0,0,135.068,24.41816,16.11822,-36.05464,-110.6632,-50.32285,0.001067912,-0.1257102,0.09433498,0,0.3,0,0,0,0,
6.38224E+17,36.51794,29.85397,59.27871,38.60641,-13.86794,12.23815,-16.98673,-0.4441859,-4.27255,-61.44649,-6.909645,34.57793,0,0,0,137.0397,21.60693,16.72733,-36.05464,-110.6632,-50.32285,0.001067912,-0.1257102,0.09433498,0,0.3,0,0,0,0,
6.38224E+17,36.87134,26.76804,59.25536,38.53317,-11.45084,9.601329,-16.98673,-0.4441859,-4.27255,-61.44649,-6.909645,34.57793,0,0,0,140.2055,15.23791,18.58092,-36.05464,-110.6632,-50.32285,0.001067912,-0.1257102,0.09433498,0,0.3,0,0,0,0,
6.38224E+17,36.80066,23.47172,58.88181,37.72747,-8.667529,8.136425,-16.98673,-0.4441859,-4.27255,-61.44649,-6.98289,34.57793,0,0,0,141.6578,7.546835,21.00335,-36.05464,-110.6632,-50.32285,0.001067912,-0.1257102,0.09433498,0,0.3,0,0,0,0,
6.38224E+17,36.44726,20.54944,58.43821,35.96959,-5.884212,7.477218,-16.98673,-0.4441859,-4.27255,-61.44649,-6.98289,34.57793,0,0,0,141.6823,0.3601483,23.49172,-36.05464,-110.6632,-50.32285,0.001067912,-0.1257102,0.09433498,0,0.3,0,0,0,0,
6.38224E+17,36.1881,19.21688,58.27478,34.87091,-4.565799,7.330729,-16.98673,-0.4441859,-4.27255,-61.51973,-6.98289,34.57793,0,0,0,141.3181,-2.880115,24.82084,-36.05464,-110.6632,-50.32285,0.001067912,-0.1257102,0.09433498,0,0.3,0,0,0,0,
6.38224E+17,35.41062,17.29987,58.18139,32.38057,-2.295199,7.184238,-16.98673,-0.4441859,-4.27255,-61.44649,-6.98289,34.57793,0,0,0,139.4275,-7.30172,27.76656,-36.05464,-110.6632,-50.32285,0.001067912,-0.1257102,0.09433498,0,0.3,0,0,0,0,
6.38224E+17,34.46822,17.04271,58.01796,30.18322,-0.8302955,7.843444,-16.98673,-0.4441859,-4.27255,-61.51973,-6.98289,34.57793,0,0,0,136.1693,-8.196476,30.01319,-36.05464,-110.6632,-50.32285,0.001067912,-0.1257102,0.09433498,0,0.3,0,0,0,0,
6.38224E+17,33.45514,17.04271,57.99461,28.79156,0.04864649,9.088613,-16.98673,-0.4441859,-4.27255,-61.51973,-6.98289,34.57793,0,0,0,132.625,-8.24256,32.36573,-36.05464,-110.6632,-50.32285,0.001067912,-0.1257102,0.09433498,0,0.3,0,0,0,0,
6.38224E+17,32.06511,17.04271,57.43428,27.83937,0.4881175,9.967555,-16.98673,-0.4441859,-4.27255,-61.51973,-6.98289,34.57793,0,0,0,127.3471,-9.345055,34.93361,-36.05464,-110.6632,-50.32285,0.001067912,-0.1257102,0.09433498,0,0.3,0,0,0,0,
6.38224E+17,31.16983,17.04271,56.89729,27.39991,0.707853,10.48027,-16.98673,-0.4441859,-4.27255,-61.44649,-6.98289,34.57793,0,0,0,123.8046,-10.39517,36.31877,-36.05464,-110.6632,-50.32285,0.001067912,-0.1257102,0.09433498,0,0.3,0,0,0,0,
6.38224E+17,28.88451,16.85568,55.30967,25.86176,1.293814,12.45789,-16.98673,-0.4441859,-4.27255,-61.44649,-6.98289,34.57793,0,0,0,114.6107,-13.87848,39.39962,-36.05464,-110.6632,-50.32285,0.001067912,-0.1257102,0.09433498,0,0.3,0,0,0,0,
6.38224E+17,25.96308,15.73353,53.83879,23.37142,2.099511,16.12015,-16.98673,-0.4441859,-4.27255,-61.44649,-6.98289,34.57793,0,0,0,103.3256,-19.1747,43.84575,-36.05464,-110.6632,-50.32285,0.001067912,-0.1257102,0.09433498,0,0.3,0,0,0,0,
6.38224E+17,24.17252,14.93867,53.04499,21.54029,2.612227,18.17101,-16.98673,-0.4441859,-4.27255,-61.44649,-6.98289,34.57793,0,0,0,96.39457,-22.44276,46.41307,-36.05464,-110.6632,-50.32285,0.001067912,-0.1257102,0.09433498,0,0.3,0,0,0,0,
6.38224E+17,19.90817,13.62949,50.73361,15.82717,4.223621,23.07844,-16.98673,-0.4441859,-4.27255,-61.51973,-6.98289,34.65118,0,0,0,79.28381,-29.62788,50.57159,-36.05464,-110.6632,-50.32285,0.001067912,-0.1257102,0.09433498,0,0.3,0,0,0,0,
6.38224E+17,14.79566,13.58274,48.30549,7.110993,6.494221,27.76613,-16.98673,-0.4441859,-4.27255,-61.44649,-6.98289,34.57793,0,0,0,58.52961,-34.03178,53.24373,-36.05464,-110.6632,-50.32285,0.001067912,-0.1257102,0.09433498,0,0.3,0,0,0,0,
6.38224E+17,12.20406,13.81652,47.46499,1.837341,7.592898,29.52402,-16.98673,-0.4441859,-4.27255,-61.44649,-6.98289,34.57793,0,0,0,48.14551,-34.95424,54.25545,-36.05464,-110.6632,-50.32285,0.001067912,-0.1257102,0.09433498,0,0.3,0,0,0,0,
6.38224E+17,7.020868,14.56462,46.78792,-10.98056,9.497273,31.9411,-16.98673,-0.4441859,-4.27255,-61.51973,-6.909645,34.57793,0,0,0,27.65515,-34.42109,56.20695,-36.05464,-110.6632,-50.32285,0.001067912,-0.1257102,0.09433498,0,0.3,0,0,0,0,
6.38224E+17,3.416194,15.99069,46.90466,-24.31118,10.00999,33.18628,-16.98673,-0.4441859,-4.27255,-61.51973,-6.98289,34.57793,0,0,0,13.44107,-31.02123,56.81394,-36.05464,-110.6632,-50.32285,0.001067912,-0.1257102,0.09433498,0,0.3,0,0,0,0,
6.38224E+17,2.096837,17.44014,47.16148,-35.22471,9.350782,33.84548,-16.98673,-0.4441859,-4.27255,-61.51973,-6.98289,34.57793,0,0,0,8.23249,-27.35304,56.50126,-36.05464,-110.6632,-50.32285,0.001067912,-0.1257102,0.09433498,0,0.3,0,0,0,0,
6.38224E+17,2.120397,18.35189,47.65177,-41.74353,8.105616,34.57793,-16.98673,-0.4441859,-4.27255,-61.51973,-6.98289,34.57793,0,0,0,8.329396,-24.49368,56.618,-36.05464,-110.6632,-50.32285,0.001067912,-0.1257102,0.09433498,0,0.3,0,0,0,0,
6.38224E+17,2.191077,18.58567,47.83855,-43.20844,7.519653,35.09065,-16.98673,-0.4441859,-4.27255,-61.44649,-6.98289,34.50468,0,0,0,8.611495,-23.65584,56.72741,-36.05464,-110.6632,-50.32285,0.001067912,-0.1257102,0.09433498,0,0.3,0,0,0,0,
6.38224E+17,2.450236,18.86621,47.8152,-45.40579,6.420976,36.18932,-16.98673,-0.4441859,-4.27255,-61.44649,-6.909645,34.57793,0,0,0,9.61895,-23.07775,56.44028,-36.05464,-110.6632,-50.32285,0.001067912,-0.1257102,0.09433498,0,0.3,0,0,0,0,
6.38224E+17,3.157035,18.79608,46.5311,-46.28474,5.90826,36.6288,-16.98673,-0.4441859,-4.27255,-61.44649,-6.98289,34.57793,0,0,0,12.28217,-25.42408,54.32864,-36.05464,-110.6632,-50.32285,0.001067912,-0.1257102,0.09433498,0,0.3,0,0,0,0,
6.38224E+17,5.183192,18.39865,44.14968,-44.81983,5.835015,36.55555,-16.98673,-0.4441859,-4.27255,-61.44649,-6.98289,34.57793,0,0,0,19.82219,-30.24283,50.16937,-36.05464,-110.6632,-50.32285,0.001067912,-0.1257102,0.09433498,0,0.3,0,0,0,0,
6.38224E+17,6.596789,18.04797,42.88893,-43.35493,6.127995,36.11608,-16.98673,-0.4441859,-4.27255,-61.51973,-6.98289,34.57793,0,0,0,24.99179,-33.03855,47.75377,-36.05464,-110.6632,-50.32285,0.001067912,-0.1257102,0.09433498,0,0.3,0,0,0,0,
6.38224E+17,10.50774,17.25311,39.94717,-38.66724,7.080183,33.40601,-16.98673,-0.4441859,-4.27255,-61.51973,-6.98289,34.57793,0,0,0,38.83923,-39.33028,41.04979,-36.05464,-110.6632,-50.32285,0.001067912,-0.1257102,0.09433498,0,0.3,0,0,0,0,
6.38224E+17,14.86634,16.45825,37.96265,-32.58789,8.252106,28.13236,-16.98673,-0.4441859,-4.27255,-61.44649,-6.98289,34.57793,0,0,0,53.85712,-44.00444,34.5396,-36.05464,-110.6632,-50.32285,0.001067912,-0.1257102,0.09433498,0,0.3,0,0,0,0,
6.38224E+17,17.29301,16.20109,37.5424,-29.21861,8.838067,24.98281,-16.98673,-0.4441859,-4.27255,-61.44649,-6.98289,34.57793,0,0,0,62.21947,-45.17765,31.49959,-36.05464,-110.6632,-50.32285,0.001067912,-0.1257102,0.09433498,0,0.3,0,0,0,0,
6.38224E+17,23.3008,16.10758,37.82257,-20.20946,9.277537,18.09777,-16.98673,-0.4441859,-4.27255,-61.44649,-6.98289,34.57793,0,0,0,83.02282,-44.98811,24.4194,-36.05464,-110.6632,-50.32285,0.001067912,-0.1257102,0.09433498,0,0.3,0,0,0,0,
6.38224E+17,27.77719,16.20109,38.84985,-13.25116,8.984557,14.43551,-16.98673,-0.4441859,-4.27255,-61.44649,-6.98289,34.57793,0,0,0,98.66065,-43.29607,18.95725,-36.05464,-110.6632,-50.32285,0.001067912,-0.1257102,0.09433498,0,0.3,0,0,0,0,
6.38224E+17,33.0075,16.20109,41.53479,-4.461744,7.959125,11.21272,-16.98673,-0.4441859,-4.27255,-61.44649,-6.98289,34.57793,0,0,0,117.9248,-39.26367,13.18615,-36.05464,-110.6632,-50.32285,0.001067912,-0.1257102,0.09433498,0,0.3,0,0,0,0,
6.38224E+17,35.38706,16.20109,43.566,0.2259469,7.153428,9.308348,-16.98673,-0.4441859,-4.27255,-61.51973,-6.98289,34.57793,0,0,0,127.377,-36.06696,10.97256,-36.05464,-110.6632,-50.32285,0.001067912,-0.1257102,0.09433498,0,0.3,0,0,0,0,
6.38224E+17,38.85038,16.24785,48.14206,8.722386,5.542034,5.646089,-16.98673,-0.4441859,-4.27255,-61.44649,-6.98289,34.57793,0,0,0,142.6099,-28.32219,8.701981,-36.05464,-110.6632,-50.32285,0.001067912,-0.1257102,0.09433498,0,0.3,0,0,0,0,
6.38224E+17,41.37129,16.52839,53.13838,16.70611,3.857395,2.130321,-16.98673,-0.4441859,-4.27255,-61.51973,-6.98289,34.57793,0,0,0,155.0102,-18.7078,7.652278,-36.05464,-110.6632,-50.32285,0.001067912,-0.1257102,0.09433498,0,0.3,0,0,0,0,
6.38224E+17,42.94981,17.76744,57.22415,24.10387,2.246002,-0.3600145,-16.98673,-0.4441859,-4.27255,-61.44649,-6.98289,34.57793,0,0,0,162.9191,-8.147244,6.666472,-36.05464,-110.6632,-50.32285,0.001067912,-0.1257102,0.09433498,0,0.3,0,0,0,0,
6.38224E+17,43.56237,18.91297,58.83511,27.54639,1.586795,-1.019221,-16.98673,-0.4441859,-4.27255,-61.51973,-6.98289,34.57793,0,0,0,165.5708,-2.436057,5.745302,-36.05464,-110.6632,-50.32285,0.001067912,-0.1257102,0.09433498,0,0.3,0,0,0,0,
6.38224E+17,44.38697,21.48457,61.40331,34.13846,0.1951368,-1.312202,-16.98673,-0.4441859,-4.27255,-61.44649,-6.98289,34.57793,0,0,0,168.6965,8.362722,3.995653,-36.05464,-110.6632,-50.32285,0.001067912,-0.1257102,0.09433498,0,0.3,0,0,0,0,
6.38224E+17,44.50476,23.68212,63.69135,39.99807,-1.343012,-0.0670338,-16.98673,-0.4441859,-4.27255,-61.44649,-6.98289,34.57793,0,0,0,169.3946,17.81002,3.998488,-36.05464,-110.6632,-50.32285,0.001067912,-0.1257102,0.09433498,0,0.3,0,0,0,0,
6.38224E+17,44.38697,25.27184,64.69527,44.97874,-2.58818,2.130321,-16.98673,-0.4441859,-4.27255,-61.51973,-6.98289,34.57793,0,0,0,168.6791,23.28079,3.977825,-36.05464,-110.6632,-50.32285,0.001067912,-0.1257102,0.09433498,0,0.3,0,0,0,0,
6.38224E+17,44.15137,25.69264,64.43845,46.95637,-2.954405,3.66847,-16.98673,-0.4441859,-4.27255,-61.44649,-6.98289,34.57793,0,0,0,167.4968,23.6251,4.183465,-36.05464,-110.6632,-50.32285,0.001067912,-0.1257102,0.09433498,0,0.3,0,0,0,0,
6.38224E+17,43.56237,25.85629,62.92088,48.64101,-3.320631,6.818012,-16.98673,-0.4441859,-4.27255,-61.44649,-6.98289,34.57793,0,0,0,164.521,20.80235,4.641408,-36.05464,-110.6632,-50.32285,0.001067912,-0.1257102,0.09433498,0,0.3,0,0,0,0,
6.38224E+17,43.13829,25.85629,60.11921,47.90855,-3.320631,9.821064,-16.98673,-0.4441859,-4.27255,-61.51973,-6.98289,34.57793,0,0,0,161.1102,15.07141,3.585685,-36.05464,-110.6632,-50.32285,0.001067912,-0.1257102,0.09433498,0,0.3,0,0,0,0,
6.38224E+17,43.06761,25.78616,58.34481,46.80988,-3.100896,11.13948,-16.98673,-0.4441859,-4.27255,-61.51973,-6.98289,34.57793,0,0,0,159.504,11.37618,2.292938,-36.05464,-110.6632,-50.32285,0.001067912,-0.1257102,0.09433498,0,0.3,0,0,0,0,
6.38224E+17,42.92625,24.87441,55.26298,43.95331,-2.368444,12.97061,-16.98673,-0.4441859,-4.27255,-61.44649,-6.98289,34.57793,0,0,0,157.0266,3.456845,0.4755274,-36.05464,-110.6632,-50.32285,0.001067912,-0.1257102,0.09433498,0,0.3,0,0,0,0,
6.38224E+17,42.31369,22.65348,52.46131,40.29105,-1.416257,13.92279,-16.98673,-0.4441859,-4.27255,-61.51973,-6.98289,34.57793,0,0,0,154.0264,-6.539097,0.8415502,-36.05464,-110.6632,-50.32285,0.001067912,-0.1257102,0.09433498,0,0.3,0,0,0,0,
6.38224E+17,40.24041,19.00648,48.72574,33.62574,0.9275885,14.43551,-16.98673,-0.4441859,-4.27255,-61.44649,-6.98289,34.57793,0,0,0,146.1893,-21.18743,4.394427,-36.05464,-110.6632,-50.32285,0.001067912,-0.1257102,0.09433498,0,0.3,0,0,0,0,
6.38224E+17,38.26138,17.18298,46.50775,28.86481,2.685472,14.50875,-16.98673,-0.4441859,-4.27255,-61.51973,-6.909645,34.57793,0,0,0,138.7982,-29.03417,7.64273,-36.05464,-110.6632,-50.32285,0.001067912,-0.1257102,0.09433498,0,0.3,0,0,0,0,
6.38224E+17,36.23522,16.29461,44.66332,24.61659,4.296866,14.582,-16.98673,-0.4441859,-4.27255,-61.44649,-6.98289,34.57793,0,0,0,131.0653,-34.08028,10.49721,-36.05464,-110.6632,-50.32285,0.001067912,-0.1257102,0.09433498,0,0.3,0,0,0,0,
6.38224E+17,31.64103,16.48163,40.78767,15.75392,7.592898,14.87498,-16.98673,-0.4441859,-4.27255,-61.44649,-6.98289,34.57793,0,0,0,112.779,-39.78158,14.67581,-36.05464,-110.6632,-50.32285,0.001067912,-0.1257102,0.09433498,0,0.3,0,0,0,0,
6.38224E+17,26.5992,18.39865,37.00542,5.426354,10.59595,15.82717,-16.98673,-0.4441859,-4.27255,-61.44649,-6.98289,34.57793,0,0,0,92.59206,-41.05165,16.55856,-36.05464,-110.6632,-50.32285,0.001067912,-0.1257102,0.09433498,0,0.3,0,0,0,0,
6.38224E+17,22.26416,20.92349,34.48391,-5.120951,12.28059,16.70611,-16.98673,-0.4441859,-4.27255,-61.44649,-6.98289,34.57793,0,0,0,75.79672,-38.94635,16.79126,-36.05464,-110.6632,-50.32285,0.001067912,-0.1257102,0.09433498,0,0.3,0,0,0,0,
6.38224E+17,20.77989,22.37294,33.80684,-10.02838,12.42708,16.8526,-16.98673,-0.4441859,-4.27255,-61.51973,-6.98289,34.57793,0,0,0,70.07145,-36.69542,16.30964,-36.05464,-110.6632,-50.32285,0.001067912,-0.1257102,0.09433498,0,0.3,0,0,0,0,
6.38224E+17,19.20137,25.78616,33.3399,-18.08535,11.54814,17.07234,-16.98673,-0.4441859,-4.27255,-61.44649,-6.909645,34.57793,0,0,0,63.59444,-30.04485,14.25433,-36.05464,-110.6632,-50.32285,0.001067912,-0.1257102,0.09433498,0,0.3,0,0,0,0,
6.38224E+17,19.41341,28.98897,33.59671,-22.48005,9.424027,17.21883,-16.98673,-0.4441859,-4.27255,-61.44649,-6.909645,34.57793,0,0,0,63.29593,-23.09736,11.25438,-36.05464,-110.6632,-50.32285,0.001067912,-0.1257102,0.09433498,0,0.3,0,0,0,0,
6.38224E+17,19.93173,30.6722,34.06366,-23.72522,7.88588,17.21883,-16.98673,-0.4441859,-4.27255,-61.44649,-6.98289,34.57793,0,0,0,64.56154,-19.09398,9.691193,-36.05464,-110.6632,-50.32285,0.001067912,-0.1257102,0.09433498,0,0.3,0,0,0,0,
6.38224E+17,21.34533,33.43083,35.4178,-24.38443,4.370111,17.58505,-16.98673,-0.4441859,-4.27255,-61.44649,-6.98289,34.57793,0,0,0,68.63665,-11.85678,7.283246,-36.05464,-110.6632,-50.32285,0.001067912,-0.1257102,0.09433498,0,0.3,0,0,0,0,
6.38224E+17,22.97096,35.13744,36.77194,-23.65198,0.6346079,18.39075,-16.98673,-0.4441859,-4.27255,-61.44649,-6.98289,34.57793,0,0,0,73.71225,-6.718407,5.550163,-36.05464,-110.6632,-50.32285,0.001067912,-0.1257102,0.09433498,0,0.3,0,0,0,0,
6.38224E+17,23.79556,35.53487,37.21554,-22.84628,-1.050031,18.90347,-16.98673,-0.4441859,-4.27255,-61.51973,-6.98289,34.57793,0,0,0,76.32415,-5.342598,4.736326,-36.05464,-110.6632,-50.32285,0.001067912,-0.1257102,0.09433498,0,0.3,0,0,0,0,
6.38224E+17,25.86884,35.30109,37.28558,-19.40376,-4.492554,20.14863,-16.98673,-0.4441859,-4.27255,-61.51973,-6.98289,34.57793,0,0,0,82.73023,-5.68734,2.262282,-36.05464,-110.6632,-50.32285,0.001067912,-0.1257102,0.09433498,0,0.3,0,0,0,0,
6.38224E+17,26.22224,35.02055,36.98207,-18.52482,-4.85878,20.36837,-16.98673,-0.4441859,-4.27255,-61.44649,-6.98289,34.57793,0,0,0,83.69829,-6.647568,1.580864,-36.05464,-110.6632,-50.32285,0.001067912,-0.1257102,0.09433498,0,0.3,0,0,0,0,
6.38224E+17,26.88192,33.73475,35.95479,-16.69369,-5.15176,20.51486,-16.98673,-0.4441859,-4.27255,-61.44649,-6.98289,34.57793,0,0,0,85.54386,-10.53846,0.3981479,-36.05464,-110.6632,-50.32285,0.001067912,-0.1257102,0.09433498,0,0.3,0,0,0,0,
6.38224E+17,27.63584,31.39693,35.32441,-15.30203,-4.272818,20.66135,-16.98673,-0.4441859,-4.27255,-61.44649,-6.98289,34.57793,0,0,0,88.56218,-15.97858,0.7960792,-36.05464,-110.6632,-50.32285,0.001067912,-0.1257102,0.09433498,0,0.3,0,0,0,0,
6.38224E+17,28.76671,28.6383,35.55789,-13.83713,-2.295199,20.66135,-16.98673,-0.4441859,-4.27255,-61.51973,-6.98289,34.57793,0,0,0,93.64185,-21.22221,2.218565,-36.05464,-110.6632,-50.32285,0.001067912,-0.1257102,0.09433498,0,0.3,0,0,0,0,
6.38224E+17,29.40283,27.39925,35.97814,-12.95818,-1.123276,20.51486,-16.98673,-0.4441859,-4.27255,-61.44649,-6.98289,34.57793,0,0,0,96.58444,-23.19622,3.039967,-36.05464,-110.6632,-50.32285,0.001067912,-0.1257102,0.09433498,0,0.3,0,0,0,0,
6.38224E+17,30.76931,25.24846,37.1455,-11.12705,1.000834,20.00214,-16.98673,-0.4441859,-4.27255,-61.51973,-6.98289,34.57793,0,0,0,102.8961,-26.06421,4.470189,-36.05464,-110.6632,-50.32285,0.001067912,-0.1257102,0.09433498,0,0.3,0,0,0,0,
6.38224E+17,32.63055,24.05617,38.84985,-8.709964,2.538982,19.34294,-16.98673,-0.4441859,-4.27255,-61.51973,-6.98289,34.57793,0,0,0,110.7644,-26.14424,4.644226,-36.05464,-110.6632,-50.32285,0.001067912,-0.1257102,0.09433498,0,0.3,0,0,0,0,
6.38224E+17,33.8321,23.77563,40.04056,-6.878834,3.271434,19.1232,-16.98673,-0.4441859,-4.27255,-61.44649,-6.98289,34.57793,0,0,0,115.7065,-24.98045,4.281025,-36.05464,-110.6632,-50.32285,0.001067912,-0.1257102,0.09433498,0,0.3,0,0,0,0,
6.38224E+17,36.28234,23.77563,43.05236,-1.751673,3.564415,18.75698,-16.98673,-0.4441859,-4.27255,-61.44649,-6.98289,34.57793,0,0,0,126.0851,-20.332,3.405037,-36.05464,-110.6632,-50.32285,0.001067912,-0.1257102,0.09433498,0,0.3,0,0,0,0,
6.38224E+17,38.23782,23.86915,46.39102,3.375489,3.271434,18.61049,-16.98673,-0.4441859,-4.27255,-61.44649,-6.98289,34.57793,0,0,0,135.2348,-14.66594,3.26952,-36.05464,-110.6632,-50.32285,0.001067912,-0.1257102,0.09433498,0,0.3,0,0,0,0,
6.38224E+17,39.10954,24.07955,48.32884,6.525032,2.831963,18.46399,-16.98673,-0.4441859,-4.27255,-61.51973,-6.98289,34.57793,0,0,0,139.6316,-10.90093,3.408289,-36.05464,-110.6632,-50.32285,0.001067912,-0.1257102,0.09433498,0,0.3,0,0,0,0,
6.38224E+17,40.40533,25.08481,52.76482,13.55657,1.440305,18.39075,-16.98673,-0.4441859,-4.27255,-61.44649,-6.98289,34.57793,0,0,0,147.1006,-0.8035139,4.460065,-36.05464,-110.6632,-50.32285,0.001067912,-0.1257102,0.09433498,0,0.3,0,0,0,0,
6.38224E+17,40.92365,26.79142,56.73386,20.51486,-0.61056,18.09777,-16.98673,-0.4441859,-4.27255,-61.44649,-6.98289,34.57793,0,0,0,151.0116,10.31037,5.837201,-36.05464,-110.6632,-50.32285,0.001067912,-0.1257102,0.09433498,0,0.3,0,0,0,0,
6.38224E+17,40.85297,28.94222,60.11921,27.54639,-3.100896,17.87803,-16.98673,-0.4441859,-4.27255,-61.51973,-6.98289,34.57793,0,0,0,151.9643,21.44712,7.37364,-36.05464,-110.6632,-50.32285,0.001067912,-0.1257102,0.09433498,0,0.3,0,0,0,0,
6.38224E+17,40.07549,31.35017,61.59008,34.13846,-5.957458,17.6583,-16.98673,-0.4441859,-4.27255,-61.51973,-6.98289,34.57793,0,0,0,148.8274,29.28284,8.541731,-36.05464,-110.6632,-50.32285,0.001067912,-0.1257102,0.09433498,0,0.3,0,0,0,0,
6.38224E+17,39.43937,32.56584,61.37996,36.99502,-7.422361,17.80479,-16.98673,-0.4441859,-4.27255,-61.44649,-6.909645,34.57793,0,0,0,145.7547,31.25358,8.846288,-36.05464,-110.6632,-50.32285,0.001067912,-0.1257102,0.09433498,0,0.3,0,0,0,0,
6.38224E+17,38.12002,34.17893,59.34875,40.21781,-9.619716,18.46399,-16.98673,-0.4441859,-4.27255,-61.44649,-6.98289,34.57793,0,0,0,138.9183,30.27995,8.691708,-36.05464,-110.6632,-50.32285,0.001067912,-0.1257102,0.09433498,0,0.3,0,0,0,0,
6.38224E+17,36.84778,34.81015,55.77662,40.14456,-11.01137,20.66135,-16.98673,-0.4441859,-4.27255,-61.44649,-6.98289,34.57793,0,0,0,131.7805,24.47522,7.49878,-36.05464,-110.6632,-50.32285,0.001067912,-0.1257102,0.09433498,0,0.3,0,0,0,0,
6.38224E+17,36.40014,34.76339,53.93219,39.33887,-11.15786,21.97976,-16.98673,-0.4441859,-4.27255,-61.44649,-6.909645,34.57793,0,0,0,128.9731,20.87587,6.584034,-36.05464,-110.6632,-50.32285,0.001067912,-0.1257102,0.09433498,0,0.3,0,0,0,0,
6.38224E+17,35.8347,34.03867,49.84641,36.84853,-10.86488,25.05606,-16.98673,-0.4441859,-4.27255,-61.44649,-6.98289,34.57793,0,0,0,124.3632,12.00371,3.863894,-36.05464,-110.6632,-50.32285,0.001067912,-0.1257102,0.09433498,0,0.3,0,0,0,0,
6.38224E+17,35.03366,31.86449,46.18089,33.77223,-9.106999,27.54639,-16.98673,-0.4441859,-4.27255,-61.51973,-6.98289,34.57793,0,0,0,120.2478,1.41769,3.167132,-36.05464,-110.6632,-50.32285,0.001067912,-0.1257102,0.09433498,0,0.3,0,0,0,0,
6.38224E+17,33.05463,28.311,42.39864,28.93805,-6.250438,29.0113,-16.98673,-0.4441859,-4.27255,-61.51973,-6.98289,34.57793,0,0,0,113.0778,-11.88295,5.411586,-36.05464,-110.6632,-50.32285,0.001067912,-0.1257102,0.09433498,0,0.3,0,0,0,0,
6.38224E+17,31.57035,26.46413,40.67094,25.78851,-4.492554,29.45077,-16.98673,-0.4441859,-4.27255,-61.44649,-6.98289,34.57793,0,0,0,107.9983,-18.36556,7.402497,-36.05464,-110.6632,-50.32285,0.001067912,-0.1257102,0.09433498,0,0.3,0,0,0,0,
6.38224E+17,27.58871,23.44834,37.68249,17.21883,0.04864649,30.03673,-16.98673,-0.4441859,-4.27255,-61.44649,-6.98289,34.50468,0,0,0,94.40858,-29.12168,12.32362,-36.05464,-110.6632,-50.32285,0.001067912,-0.1257102,0.09433498,0,0.3,0,0,0,0,
6.38224E+17,22.92384,22.53659,35.30106,6.671522,4.736337,30.32971,-16.98673,-0.4441859,-4.27255,-61.44649,-6.98289,34.57793,0,0,0,77.9895,-34.37102,16.06289,-36.05464,-110.6632,-50.32285,0.001067912,-0.1257102,0.09433498,0,0.3,0,0,0,0,
6.38224E+17,17.52861,23.12104,34.11036,-5.633667,8.838067,30.4762,-16.98673,-0.4441859,-4.27255,-61.44649,-6.98289,34.57793,0,0,0,59.45939,-34.69513,19.90326,-36.05464,-110.6632,-50.32285,0.001067912,-0.1257102,0.09433498,0,0.3,0,0,0,0,
6.38224E+17,13.78258,24.57049,34.36718,-14.13011,10.15648,30.4762,-16.98673,-0.4441859,-4.27255,-61.44649,-6.98289,34.57793,0,0,0,46.82583,-31.27344,22.54119,-36.05464,-110.6632,-50.32285,0.001067912,-0.1257102,0.09433498,0,0.3,0,0,0,0,
6.38224E+17,11.7093,26.16021,34.81077,-19.62349,10.22972,30.4762,-16.98673,-0.4441859,-4.27255,-61.51973,-6.98289,34.57793,0,0,0,39.74002,-27.34424,23.39056,-36.05464,-110.6632,-50.32285,0.001067912,-0.1257102,0.09433498,0,0.3,0,0,0,0,
6.38224E+17,9.494664,29.99424,36.04818,-29.21861,8.838067,30.54945,-16.98673,-0.4441859,-4.27255,-61.51973,-6.98289,34.57793,0,0,0,31.99532,-17.80309,22.95594,-36.05464,-110.6632,-50.32285,0.001067912,-0.1257102,0.09433498,0,0.3,0,0,0,0,
6.38224E+17,9.565345,34.15556,37.28558,-35.88392,5.688524,30.62269,-16.98673,-0.4441859,-4.27255,-61.44649,-6.98289,34.57793,0,0,0,31.76071,-7.878477,20.12382,-36.05464,-110.6632,-50.32285,0.001067912,-0.1257102,0.09433498,0,0.3,0,0,0,0,
6.38224E+17,10.1779,36.07257,38.0327,-37.93478,3.564415,30.76918,-16.98673,-0.4441859,-4.27255,-61.51973,-6.98289,34.57793,0,0,0,33.56364,-3.16663,18.60251,-36.05464,-110.6632,-50.32285,0.001067912,-0.1257102,0.09433498,0,0.3,0,0,0,0,
6.38224E+17,12.22762,39.34552,39.43353,-39.39969,-1.196521,31.13541,-16.98673,-0.4441859,-4.27255,-61.51973,-6.98289,34.57793,0,0,0,39.7808,4.898819,15.21503,-36.05464,-110.6632,-50.32285,0.001067912,-0.1257102,0.09433498,0,0.3,0,0,0,0,
6.38224E+17,15.2433,41.8236,40.18064,-38.15452,-6.030703,31.2819,-16.98673,-0.4441859,-4.27255,-61.51973,-6.98289,34.57793,0,0,0,48.74767,10.39178,10.53689,-36.05464,-110.6632,-50.32285,0.001067912,-0.1257102,0.09433498,0,0.3,0,0,0,0,
6.38224E+17,18.70661,43.36657,40.41412,-34.34578,-10.20568,30.62269,-16.98673,-0.4441859,-4.27255,-61.51973,-6.98289,34.57793,0,0,0,58.81853,13.38673,5.355886,-36.05464,-110.6632,-50.32285,0.001067912,-0.1257102,0.09433498,0,0.3,0,0,0,0,
6.38224E+17,21.34533,43.88089,40.36742,-30.24404,-12.76926,28.79156,-16.98673,-0.4441859,-4.27255,-61.44649,-6.98289,34.57793,0,0,0,66.42251,14.18282,1.617522,-36.05464,-110.6632,-50.32285,0.001067912,-0.1257102,0.09433498,0,0.3,0,0,0,0,
6.38224E+17,24.31388,43.64711,39.92382,-24.45767,-14.74688,26.37447,-16.98673,-0.4441859,-4.27255,-61.44649,-6.98289,34.57793,0,0,0,74.96565,13.12423,-2.426665,-36.05464,-110.6632,-50.32285,0.001067912,-0.1257102,0.09433498,0,0.3,0,0,0,0,
6.38224E+17,28.41331,41.91712,39.05998,-16.25422,-15.33284,22.1995,-16.98673,-0.4441859,-4.27255,-61.51973,-6.98289,34.57793,0,0,0,87.19827,8.890609,-7.169694,-36.05464,-110.6632,-50.32285,0.001067912,-0.1257102,0.09433498,0,0.3,0,0,0,0,
6.38224E+17,30.34523,40.3274,38.68642,-11.93275,-15.03986,19.9289,-16.98673,-0.4441859,-4.27255,-61.51973,-6.98289,34.57793,0,0,0,93.46973,5.557889,-8.685197,-36.05464,-110.6632,-50.32285,0.001067912,-0.1257102,0.09433498,0,0.3,0,0,0,0,
6.38224E+17,34.1855,35.62838,38.75646,-2.557369,-12.54952,15.68068,-16.98673,-0.4441859,-4.27255,-61.44649,-6.98289,34.57793,0,0,0,107.8052,-2.958385,-9.633132,-36.05464,-110.6632,-50.32285,0.001067912,-0.1257102,0.09433498,0,0.3,0,0,0,0,
6.38224E+17,36.80066,30.41504,39.38684,5.79258,-8.447793,12.97061,-16.98673,-0.4441859,-4.27255,-61.44649,-6.98289,34.57793,0,0,0,119.5766,-12.20367,-8.512488,-36.05464,-110.6632,-50.32285,0.001067912,-0.1257102,0.09433498,0,0.3,0,0,0,0,
6.38224E+17,37.9551,25.08481,40.20399,11.94517,-3.760103,11.21272,-16.98673,-0.4441859,-4.27255,-61.51973,-6.98289,34.57793,0,0,0,127.2227,-21.96122,-5.249064,-36.05464,-110.6632,-50.32285,0.001067912,-0.1257102,0.09433498,0,0.3,0,0,0,0,
6.38224E+17,37.90798,19.98837,41.30132,15.46094,1.220569,10.62676,-16.98673,-0.4441859,-4.27255,-61.44649,-6.98289,34.57793,0,0,0,131.0694,-31.24612,-0.03231636,-36.05464,-110.6632,-50.32285,0.001067912,-0.1257102,0.09433498,0,0.3,0,0,0,0,
6.38224E+17,37.62526,17.76744,41.48809,16.26664,3.564415,10.40703,-16.98673,-0.4441859,-4.27255,-61.44649,-6.98289,34.57793,0,0,0,131.4573,-35.84931,2.195182,-36.05464,-110.6632,-50.32285,0.001067912,-0.1257102,0.09433498,0,0.3,0,0,0,0,
6.38224E+17,36.63574,14.33084,41.16123,16.55962,7.88588,10.33378,-16.98673,-0.4441859,-4.27255,-61.44649,-6.98289,34.57793,0,0,0,129.4708,-44.03708,5.75564,-36.05464,-110.6632,-50.32285,0.001067912,-0.1257102,0.09433498,0,0.3,0,0,0,0,
6.38224E+17,34.53891,11.50208,40.06391,14.94823,11.40165,10.70001,-16.98673,-0.4441859,-4.27255,-61.44649,-6.98289,34.57793,0,0,0,122.749,-52.11591,9.991344,-36.05464,-110.6632,-50.32285,0.001067912,-0.1257102,0.09433498,0,0.3,0,0,0,0,
6.38224E+17,32.81903,10.45006,39.15337,13.19034,13.30602,11.21272,-16.98673,-0.4441859,-4.27255,-61.44649,-6.98289,34.57793,0,0,0,116.7089,-55.87061,12.61479,-36.05464,-110.6632,-50.32285,0.001067912,-0.1257102,0.09433498,0,0.3,0,0,0,0,
6.38224E+17,28.93163,9.37466,36.86533,8.209671,16.60205,12.60438,-16.98673,-0.4441859,-4.27255,-61.51973,-6.98289,34.57793,0,0,0,102.3505,-61.61504,16.81601,-36.05464,-110.6632,-50.32285,0.001067912,-0.1257102,0.09433498,0,0.3,0,0,0,0,
6.38224E+17,24.1254,9.094121,34.67069,0.8851534,19.45862,14.14253,-16.98673,-0.4441859,-4.27255,-61.44649,-6.98289,34.57793,0,0,0,84.82526,-65.24486,21.05392,-36.05464,-110.6632,-50.32285,0.001067912,-0.1257102,0.09433498,0,0.3,0,0,0,0,
6.38224E+17,18.96577,9.37466,33.55002,-7.611286,21.87571,15.3877,-16.98673,-0.4441859,-4.27255,-61.51973,-6.98289,34.57793,0,0,0,66.71239,-66.06305,25.77353,-36.05464,-110.6632,-50.32285,0.001067912,-0.1257102,0.09433498,0,0.3,0,0,0,0,
6.38224E+17,16.44485,9.701954,33.3399,-12.15249,22.82789,16.0469,-16.98673,-0.4441859,-4.27255,-61.44649,-6.909645,34.57793,0,0,0,57.95823,-65.58137,28.00751,-36.05464,-110.6632,-50.32285,0.001067912,-0.1257102,0.09433498,0,0.3,0,0,0,0,
6.38224E+17,11.99202,10.7306,33.45663,-21.23489,23.78008,17.14558,-16.98673,-0.4441859,-4.27255,-61.51973,-6.909645,34.57793,0,0,0,42.49731,-63.07574,31.72113,-36.05464,-110.6632,-50.32285,0.001067912,-0.1257102,0.09433498,0,0.3,0,0,0,0,
6.38224E+17,8.693625,13.13855,33.97027,-31.34272,23.04763,17.80479,-16.98673,-0.4441859,-4.27255,-61.51973,-6.98289,34.57793,0,0,0,30.89075,-56.9295,33.67226,-36.05464,-110.6632,-50.32285,0.001067912,-0.1257102,0.09433498,0,0.3,0,0,0,0,
6.38224E+17,8.245987,14.54124,34.08701,-34.93173,22.24193,18.24426,-16.98673,-0.4441859,-4.27255,-61.44649,-6.98289,34.50468,0,0,0,29.23176,-53.6077,33.35744,-36.05464,-110.6632,-50.32285,0.001067912,-0.1257102,0.09433498,0,0.3,0,0,0,0,
6.38224E+17,8.387346,16.90244,34.27379,-37.93478,20.63054,19.19645,-16.98673,-0.4441859,-4.27255,-61.51973,-6.98289,34.57793,0,0,0,29.56459,-48.07401,32.16742,-36.05464,-110.6632,-50.32285,0.001067912,-0.1257102,0.09433498,0,0.3,0,0,0,0,
6.38224E+17,8.575826,18.25838,34.48391,-38.52075,19.67835,19.9289,-16.98673,-0.4441859,-4.27255,-61.44649,-6.98289,34.57793,0,0,0,30.1421,-44.78952,31.52568,-36.05464,-110.6632,-50.32285,0.001067912,-0.1257102,0.09433498,0,0.3,0,0,0,0,
6.38224E+17,8.858545,23.40158,35.88475,-39.03346,16.38232,23.29818,-16.98673,-0.4441859,-4.27255,-61.51973,-6.98289,34.57793,0,0,0,30.88305,-31.72682,29.80292,-36.05464,-110.6632,-50.32285,0.001067912,-0.1257102,0.09433498,0,0.3,0,0,0,0,
6.38224E+17,8.858545,25.41211,36.72525,-39.10671,14.99066,24.76308,-16.98673,-0.4441859,-4.27255,-61.51973,-6.98289,34.57793,0,0,0,30.82807,-26.3077,29.45016,-36.05464,-110.6632,-50.32285,0.001067912,-0.1257102,0.09433498,0,0.3,0,0,0,0,
6.38224E+17,8.999906,29.83059,38.96659,-39.03346,11.40165,28.49858,-16.98673,-0.4441859,-4.27255,-61.51973,-6.98289,34.57793,0,0,0,31.21469,-13.99809,28.73393,-36.05464,-110.6632,-50.32285,0.001067912,-0.1257102,0.09433498,0,0.3,0,0,0,0,
6.38224E+17,9.659584,34.48285,41.90834,-38.59399,6.787202,32.67356,-16.98673,-0.4441859,-4.27255,-61.51973,-6.909645,34.57793,0,0,0,33.38929,-0.3936052,27.81849,-36.05464,-110.6632,-50.32285,0.001067912,-0.1257102,0.09433498,0,0.3,0,0,0,0,
6.38224E+17,10.24858,36.86742,43.61269,-38.00803,4.077131,34.94416,-16.98673,-0.4441859,-4.27255,-61.51973,-6.98289,34.57793,0,0,0,35.34643,6.807455,27.14592,-36.05464,-110.6632,-50.32285,0.001067912,-0.1257102,0.09433498,0,0.3,0,0,0,0,
6.38224E+17,11.77998,41.28591,47.32491,-36.25014,-2.368444,39.99807,-16.98673,-0.4441859,-4.27255,-61.51973,-6.909645,34.57793,0,0,0,40.47208,20.9466,25.71765,-36.05464,-110.6632,-50.32285,0.001067912,-0.1257102,0.09433498,0,0.3,0,0,0,0,
6.38224E+17,14.01818,44.69912,50.73361,-33.32034,-9.766206,44.24629,-16.98673,-0.4441859,-4.27255,-61.44649,-6.98289,34.57793,0,0,0,47.96818,32.74544,23.78018,-36.05464,-110.6632,-50.32285,0.001067912,-0.1257102,0.09433498,0,0.3,0,0,0,0,
6.38224E+17,16.58621,46.77979,53.86214,-28.99888,-17.23721,46.73663,-16.98673,-0.4441859,-4.27255,-61.44649,-6.98289,34.57793,0,0,0,56.80956,41.88524,22.38152,-36.05464,-110.6632,-50.32285,0.001067912,-0.1257102,0.09433498,0,0.3,0,0,0,0,
6.38224E+17,17.62285,47.27073,55.26298,-26.21556,-20.53325,47.46908,-16.98673,-0.4441859,-4.27255,-61.51973,-6.98289,34.57793,0,0,0,60.57013,45.3204,22.32736,-36.05464,-110.6632,-50.32285,0.001067912,-0.1257102,0.09433498,0,0.3,0,0,0,0,
6.38224E+17,19.53121,47.52789,57.76114,-19.98972,-26.61259,47.9818,-16.98673,-0.4441859,-4.27255,-61.51973,-6.98289,34.57793,0,0,0,67.81142,50.57419,22.81258,-36.05464,-110.6632,-50.32285,0.001067912,-0.1257102,0.09433498,0,0.3,0,0,0,0,
6.38224E+17,22.09924,47.48113,60.25929,-12.59196,-31.22704,46.44365,-16.98673,-0.4441859,-4.27255,-61.44649,-6.98289,34.57793,0,0,0,77.46483,55.48457,22.4301,-36.05464,-110.6632,-50.32285,0.001067912,-0.1257102,0.09433498,0,0.3,0,0,0,0,
6.38224E+17,23.48928,47.34086,61.40331,-7.831022,-33.05817,44.61252,-16.98673,-0.4441859,-4.27255,-61.51973,-6.98289,34.57793,0,0,0,82.68307,57.58853,21.90536,-36.05464,-110.6632,-50.32285,0.001067912,-0.1257102,0.09433498,0,0.3,0,0,0,0,
6.38224E+17,26.38716,46.82654,63.41117,5.353109,-35.5485,38.53317,-16.98673,-0.4441859,-4.27255,-61.51973,-6.98289,34.57793,0,0,0,93.5474,60.91482,20.20614,-36.05464,-110.6632,-50.32285,0.001067912,-0.1257102,0.09433498,0,0.3,0,0,0,0,
6.38224E+17,29.14367,45.89141,63.6213,24.03063,-35.47526,29.817,-16.98673,-0.4441859,-4.27255,-61.51973,-6.98289,34.57793,0,0,0,103.3804,59.85054,17.0552,-36.05464,-110.6632,-50.32285,0.001067912,-0.1257102,0.09433498,0,0.3,0,0,0,0,
6.38224E+17,30.53371,44.88615,61.73017,33.47925,-33.64413,26.52096,-16.98673,-0.4441859,-4.27255,-61.44649,-6.98289,34.57793,0,0,0,107.6674,54.29731,14.18727,-36.05464,-110.6632,-50.32285,0.001067912,-0.1257102,0.09433498,0,0.3,0,0,0,0,
6.38224E+17,31.31119,43.92765,60.14256,37.94721,-31.88625,25.42229,-16.98673,-0.4441859,-4.27255,-61.51973,-6.98289,34.50468,0,0,0,110.0128,49.47402,12.50967,-36.05464,-110.6632,-50.32285,0.001067912,-0.1257102,0.09433498,0,0.3,0,0,0,0,
6.38224E+17,32.72478,41.21577,56.29026,43.07437,-27.2718,25.56878,-16.98673,-0.4441859,-4.27255,-61.44649,-6.98289,34.57793,0,0,0,114.1966,37.20649,9.360381,-36.05464,-110.6632,-50.32285,0.001067912,-0.1257102,0.09433498,0,0.3,0,0,0,0,
6.38224E+17,34.0677,37.9662,52.0644,43.80682,-21.9249,27.98586,-16.98673,-0.4441859,-4.27255,-61.44649,-6.98289,34.57793,0,0,0,117.8059,23.40617,5.860083,-36.05464,-110.6632,-50.32285,0.001067912,-0.1257102,0.09433498,0,0.3,0,0,0,0,
6.38224E+17,34.75095,35.86216,50.10323,43.29411,-18.9951,29.23104,-16.98673,-0.4441859,-4.27255,-61.44649,-6.98289,34.57793,0,0,0,119.917,15.93987,4.503615,-36.05464,-110.6632,-50.32285,0.001067912,-0.1257102,0.09433498,0,0.3,0,0,0,0,
6.38224E+17,35.88182,31.39693,47.23152,41.17,-12.8425,30.84243,-16.98673,-0.4441859,-4.27255,-61.51973,-6.98289,34.57793,0,0,0,124.0908,2.270868,3.189315,-36.05464,-110.6632,-50.32285,0.001067912,-0.1257102,0.09433498,0,0.3,0,0,0,0,
6.38224E+17,36.8949,26.86156,45.6906,38.53317,-6.616664,31.57488,-16.98673,-0.4441859,-4.27255,-61.51973,-6.98289,34.57793,0,0,0,128.7052,-9.546976,3.101055,-36.05464,-110.6632,-50.32285,0.001067912,-0.1257102,0.09433498,0,0.3,0,0,0,0,
6.38224E+17,37.69594,22.37294,45.43378,36.26257,-1.269767,30.98892,-16.98673,-0.4441859,-4.27255,-61.44649,-6.98289,34.57793,0,0,0,133.4939,-19.46861,4.396267,-36.05464,-110.6632,-50.32285,0.001067912,-0.1257102,0.09433498,0,0.3,0,0,0,0,
6.38224E+17,37.79018,20.10526,45.247,35.31038,1.147324,30.4762,-16.98673,-0.4441859,-4.27255,-61.44649,-6.909645,34.57793,0,0,0,134.7621,-24.69682,5.44583,-36.05464,-110.6632,-50.32285,0.001067912,-0.1257102,0.09433498,0,0.3,0,0,0,0,
6.38224E+17,37.34254,15.80367,44.61663,32.7468,5.76177,29.23104,-16.98673,-0.4441859,-4.27255,-61.44649,-6.909645,34.57793,0,0,0,134.6418,-35.25472,8.120621,-36.05464,-110.6632,-50.32285,0.001067912,-0.1257102,0.09433498,0,0.3,0,0,0,0,
6.38224E+17,36.14098,12.57747,42.86558,29.30428,9.643764,28.2056,-16.98673,-0.4441859,-4.27255,-61.51973,-6.98289,34.57793,0,0,0,130.2607,-45.35088,10.01385,-36.05464,-110.6632,-50.32285,0.001067912,-0.1257102,0.09433498,0,0.3,0,0,0,0,
6.38224E+17,35.26926,11.31505,41.55813,27.25341,11.25516,27.83937,-16.98673,-0.4441859,-4.27255,-61.44649,-6.909645,34.50468,0,0,0,126.5818,-50.26978,10.63143,-36.05464,-110.6632,-50.32285,0.001067912,-0.1257102,0.09433498,0,0.3,0,0,0,0,
6.38224E+17,31.38187,7.901833,38.26617,20.14863,16.30907,27.47315,-16.98673,-0.4441859,-4.27255,-61.44649,-6.98289,34.57793,0,0,0,111.7869,-63.01626,14.91677,-36.05464,-110.6632,-50.32285,0.001067912,-0.1257102,0.09433498,0,0.3,0,0,0,0,
6.38224E+17,29.96827,7.177108,37.47236,17.73154,17.62749,27.54639,-16.98673,-0.4441859,-4.27255,-61.44649,-6.98289,34.57793,0,0,0,106.6139,-65.82249,16.547,-36.05464,-110.6632,-50.32285,0.001067912,-0.1257102,0.09433498,0,0.3,0,0,0,0,
6.38224E+17,26.03376,6.265358,35.8147,11.94517,20.19107,27.83937,-16.98673,-0.4441859,-4.27255,-61.44649,-6.98289,34.57793,0,0,0,92.42605,-70.23241,20.86846,-36.05464,-110.6632,-50.32285,0.001067912,-0.1257102,0.09433498,0,0.3,0,0,0,0,
6.38224E+17,20.99193,6.452384,34.29713,4.400921,22.6814,28.42534,-16.98673,-0.4441859,-4.27255,-61.51973,-6.98289,34.57793,0,0,0,74.38634,-71.82843,25.51472,-36.05464,-110.6632,-50.32285,0.001067912,-0.1257102,0.09433498,0,0.3,0,0,0,0,
6.38224E+17,15.2433,7.527781,33.66676,-5.413931,24.43929,28.79156,-16.98673,-0.4441859,-4.27255,-61.44649,-6.98289,34.57793,0,0,0,54.19399,-70.16422,30.52298,-36.05464,-110.6632,-50.32285,0.001067912,-0.1257102,0.09433498,0,0.3,0,0,0,0,
6.38224E+17,10.2957,9.701954,33.66676,-16.03448,25.09849,28.86481,-16.98673,-0.4441859,-4.27255,-61.44649,-6.98289,34.50468,0,0,0,36.70491,-65.16145,33.71019,-36.05464,-110.6632,-50.32285,0.001067912,-0.1257102,0.09433498,0,0.3,0,0,0,0,
6.38224E+17,6.408309,13.55936,34.06366,-25.92258,23.99982,28.86481,-16.98673,-0.4441859,-4.27255,-61.51973,-6.98289,34.57793,0,0,0,22.80527,-55.85498,34.6977,-36.05464,-110.6632,-50.32285,0.001067912,-0.1257102,0.09433498,0,0.3,0,0,0,0,
6.38224E+17,5.136071,15.78029,34.50726,-30.09755,22.90114,28.93805,-16.98673,-0.4441859,-4.27255,-61.44649,-6.98289,34.57793,0,0,0,18.25058,-50.27324,34.6999,-36.05464,-110.6632,-50.32285,0.001067912,-0.1257102,0.09433498,0,0.3,0,0,0,0,
6.38224E+17,3.769594,21.04038,36.18826,-37.27558,19.53186,29.45077,-16.98673,-0.4441859,-4.27255,-61.51973,-6.98289,34.57793,0,0,0,13.35889,-36.39819,34.40484,-36.05464,-110.6632,-50.32285,0.001067912,-0.1257102,0.09433498,0,0.3,0,0,0,0,
6.38224E+17,3.746034,26.44075,38.21947,-42.18301,15.13715,31.50163,-16.98673,-0.4441859,-4.27255,-61.44649,-6.98289,34.57793,0,0,0,13.19103,-22.03895,33.11996,-36.05464,-110.6632,-50.32285,0.001067912,-0.1257102,0.09433498,0,0.3,0,0,0,0,
6.38224E+17,4.028753,28.87208,39.34014,-43.64791,12.86655,32.67356,-16.98673,-0.4441859,-4.27255,-61.51973,-6.98289,34.57793,0,0,0,14.14333,-15.39358,32.46075,-36.05464,-110.6632,-50.32285,0.001067912,-0.1257102,0.09433498,0,0.3,0,0,0,0,
6.38224E+17,5.136071,34.1088,42.02508,-45.47904,7.373164,35.8231,-16.98673,-0.4441859,-4.27255,-61.44649,-6.98289,34.57793,0,0,0,17.87583,-0.9311326,30.53055,-36.05464,-110.6632,-50.32285,0.001067912,-0.1257102,0.09433498,0,0.3,0,0,0,0,
6.38224E+17,6.761709,38.66755,44.52324,-45.69878,1.293814,38.82615,-16.98673,-0.4441859,-4.27255,-61.51973,-6.98289,34.57793,0,0,0,23.26813,11.59311,27.89784,-36.05464,-110.6632,-50.32285,0.001067912,-0.1257102,0.09433498,0,0.3,0,0,0,0,
6.38224E+17,7.798347,40.6547,45.76064,-45.47904,-1.855728,39.92483,-16.98673,-0.4441859,-4.27255,-61.51973,-6.98289,34.57793,0,0,0,26.68991,17.19474,26.53293,-36.05464,-110.6632,-50.32285,0.001067912,-0.1257102,0.09433498,0,0.3,0,0,0,0,
6.38224E+17,10.13078,43.92765,47.8619,-44.67334,-8.008322,41.75596,-16.98673,-0.4441859,-4.27255,-61.44649,-6.98289,34.57793,0,0,0,34.28626,26.39431,23.53477,-36.05464,-110.6632,-50.32285,0.001067912,-0.1257102,0.09433498,0,0.3,0,0,0,0,
6.38224E+17,12.46322,45.91479,48.56231,-43.20844,-14.01443,42.92788,-16.98673,-0.4441859,-4.27255,-61.44649,-6.98289,34.57793,0,0,0,41.59674,30.88438,19.85246,-36.05464,-110.6632,-50.32285,0.001067912,-0.1257102,0.09433498,0,0.3,0,0,0,0,
6.38224E+17,15.0077,46.45249,47.65177,-40.42512,-18.11616,42.78139,-16.98673,-0.4441859,-4.27255,-61.51973,-6.98289,34.57793,0,0,0,49.3107,30.17331,15.58124,-36.05464,-110.6632,-50.32285,0.001067912,-0.1257102,0.09433498,0,0.3,0,0,0,0,
6.38224E+17,17.90557,46.17195,45.48048,-35.15147,-20.38675,40.80377,-16.98673,-0.4441859,-4.27255,-61.51973,-6.98289,34.57793,0,0,0,57.6235,26.05287,9.996491,-36.05464,-110.6632,-50.32285,0.001067912,-0.1257102,0.09433498,0,0.3,0,0,0,0,
6.38224E+17,19.31917,44.76926,42.42198,-30.83001,-20.53325,38.53317,-16.98673,-0.4441859,-4.27255,-61.44649,-6.98289,34.57793,0,0,0,61.08039,18.82368,5.881331,-36.05464,-110.6632,-50.32285,0.001067912,-0.1257102,0.09433498,0,0.3,0,0,0,0,
6.38224E+17,19.79037,42.85225,39.97052,-28.26642,-19.50781,36.84853,-16.98673,-0.4441859,-4.27255,-61.44649,-6.909645,34.57793,0,0,0,62.10344,11.84656,4.239967,-36.05464,-110.6632,-50.32285,0.001067912,-0.1257102,0.09433498,0,0.3,0,0,0,0,
6.38224E+17,20.54428,37.82593,36.16492,-24.53092,-15.47933,33.40601,-16.98673,-0.4441859,-4.27255,-61.44649,-6.98289,34.57793,0,0,0,64.5789,-2.527528,3.96798,-36.05464,-110.6632,-50.32285,0.001067912,-0.1257102,0.09433498,0,0.3,0,0,0,0,
6.38224E+17,20.94481,32.37881,33.59671,-22.26032,-9.326735,30.69594,-16.98673,-0.4441859,-4.27255,-61.51973,-6.98289,34.57793,0,0,0,66.63424,-16.31342,5.739209,-36.05464,-110.6632,-50.32285,0.001067912,-0.1257102,0.09433498,0,0.3,0,0,0,0,
6.38224E+17,20.94481,29.78383,32.54609,-21.67436,-6.250438,29.817,-16.98673,-0.4441859,-4.27255,-61.44649,-6.98289,34.57793,0,0,0,67.01624,-22.81976,6.737226,-36.05464,-110.6632,-50.32285,0.001067912,-0.1257102,0.09433498,0,0.3,0,0,0,0,
6.38224E+17,21.20397,24.47698,31.26199,-21.16164,0.6346079,27.83937,-16.98673,-0.4441859,-4.27255,-61.51973,-6.98289,34.50468,0,0,0,68.9263,-35.38744,9.316137,-36.05464,-110.6632,-50.32285,0.001067912,-0.1257102,0.09433498,0,0.3,0,0,0,0,
6.38224E+17,21.8872,19.75458,31.02851,-21.01515,7.006938,25.935,-16.98673,-0.4441859,-4.27255,-61.44649,-6.98289,34.57793,0,0,0,72.40868,-45.84783,11.88856,-36.05464,-110.6632,-50.32285,0.001067912,-0.1257102,0.09433498,0,0.3,0,0,0,0,
6.38224E+17,23.08876,15.68677,31.1686,-20.13621,12.57357,24.54334,-16.98673,-0.4441859,-4.27255,-61.44649,-6.98289,34.57793,0,0,0,77.41159,-54.69573,13.23763,-36.05464,-110.6632,-50.32285,0.001067912,-0.1257102,0.09433498,0,0.3,0,0,0,0,
6.38224E+17,24.50236,13.34895,31.49546,-18.74455,16.08934,22.93195,-16.98673,-0.4441859,-4.27255,-61.51973,-6.98289,34.57793,0,0,0,82.70283,-59.56709,13.10499,-36.05464,-110.6632,-50.32285,0.001067912,-0.1257102,0.09433498,0,0.3,0,0,0,0,
6.38224E+17,26.10444,11.89951,31.86902,-17.2064,18.35994,21.3938,-16.98673,-0.4441859,-4.27255,-61.44649,-6.98289,34.57793,0,0,0,88.39354,-62.40226,12.04831,-36.05464,-110.6632,-50.32285,0.001067912,-0.1257102,0.09433498,0,0.3,0,0,0,0,
6.38224E+17,29.33215,10.6137,33.22316,-13.98362,20.4108,18.90347,-16.98673,-0.4441859,-4.27255,-61.44649,-6.98289,34.57793,0,0,0,99.99811,-63.64174,9.61047,-36.05464,-110.6632,-50.32285,0.001067912,-0.1257102,0.09433498,0,0.3,0,0,0,0,
6.38224E+17,31.19339,10.42668,34.27379,-11.78626,20.92352,17.80479,-16.98673,-0.4441859,-4.27255,-61.51973,-6.98289,34.57793,0,0,0,106.8195,-62.71128,8.075923,-36.05464,-110.6632,-50.32285,0.001067912,-0.1257102,0.09433498,0,0.3,0,0,0,0,
6.38224E+17,35.97606,10.82411,38.10274,-4.97446,20.92352,15.60743,-16.98673,-0.4441859,-4.27255,-61.51973,-6.98289,34.57793,0,0,0,125.2815,-56.54144,4.236745,-36.05464,-110.6632,-50.32285,0.001067912,-0.1257102,0.09433498,0,0.3,0,0,0,0,
6.38224E+17,40.47601,13.16193,43.16909,3.595225,19.45862,13.62981,-16.98673,-0.4441859,-4.27255,-61.51973,-6.98289,34.57793,0,0,0,143.5088,-43.54288,-0.1802206,-36.05464,-110.6632,-50.32285,0.001067912,-0.1257102,0.09433498,0,0.3,0,0,0,0,
6.38224E+17,43.72729,17.41676,48.46893,13.19034,16.52881,11.13948,-16.98673,-0.4441859,-4.27255,-61.44649,-6.98289,34.57793,0,0,0,156.951,-25.15023,-4.266667,-36.05464,-110.6632,-50.32285,0.001067912,-0.1257102,0.09433498,0,0.3,0,0,0,0,
6.38224E+17,45.21157,23.02753,53.65202,23.15168,12.28059,7.770199,-16.98673,-0.4441859,-4.27255,-61.51973,-6.909645,34.57793,0,0,0,163.3253,-3.521963,-6.226439,-36.05464,-110.6632,-50.32285,0.001067912,-0.1257102,0.09433498,0,0.3,0,0,0,0,
6.38224E+17,45.35292,25.97318,56.22021,27.83937,9.643764,6.158805,-16.98673,-0.4441859,-4.27255,-61.51973,-6.98289,34.57793,0,0,0,164.1451,7.607772,-6.214695,-36.05464,-110.6632,-50.32285,0.001067912,-0.1257102,0.09433498,0,0.3,0,0,0,0,
6.38224E+17,44.85817,31.2099,61.19318,36.04284,4.223621,3.228999,-16.98673,-0.4441859,-4.27255,-61.44649,-6.98289,34.57793,0,0,0,162.8654,28.19286,-4.676267,-36.05464,-110.6632,-50.32285,0.001067912,-0.1257102,0.09433498,0,0.3,0,0,0,0,
6.38224E+17,43.42101,36.28297,65.11552,43.36735,-1.635992,0.2259469,-16.98673,-0.4441859,-4.27255,-61.44649,-6.909645,34.50468,0,0,0,157.0353,46.15066,-2.411759,-36.05464,-110.6632,-50.32285,0.001067912,-0.1257102,0.09433498,0,0.3,0,0,0,0,
6.38224E+17,42.40793,38.62079,66.32958,46.5169,-4.639044,-1.165711,-16.98673,-0.4441859,-4.27255,-61.44649,-6.98289,34.57793,0,0,0,152.6291,53.04547,-1.246256,-36.05464,-110.6632,-50.32285,0.001067912,-0.1257102,0.09433498,0,0.3,0,0,0,0,
6.38224E+17,39.83989,43.03927,66.93661,51.35107,-10.71839,-3.070086,-16.98673,-0.4441859,-4.27255,-61.44649,-6.98289,34.57793,0,0,0,141.0413,62.12154,0.693495,-36.05464,-110.6632,-50.32285,0.001067912,-0.1257102,0.09433498,0,0.3,0,0,0,0,
6.38224E+17,36.8949,46.96681,65.60582,53.54843,-16.57801,-3.729292,-16.98673,-0.4441859,-4.27255,-61.51973,-6.98289,34.57793,0,0,0,127.5419,65.74817,1.551337,-36.05464,-110.6632,-50.32285,0.001067912,-0.1257102,0.09433498,0,0.3,0,0,0,0,
6.38224E+17,33.54939,50.28652,63.50457,52.74273,-22.51087,-2.117898,-16.98673,-0.4441859,-4.27255,-61.51973,-6.98289,34.57793,0,0,0,113.0446,66.43841,2.122362,-36.05464,-110.6632,-50.32285,0.001067912,-0.1257102,0.09433498,0,0.3,0,0,0,0,
6.38224E+17,31.71171,51.59569,62.73411,51.42432,-25.36743,-0.57975,-16.98673,-0.4441859,-4.27255,-61.51973,-6.98289,34.57793,0,0,0,105.85,66.75892,2.957399,-36.05464,-110.6632,-50.32285,0.001067912,-0.1257102,0.09433498,0,0.3,0,0,0,0,
6.38224E+17,27.87143,53.46595,61.12315,47.8353,-30.71432,4.693902,-16.98673,-0.4441859,-4.27255,-61.51973,-6.98289,34.57793,0,0,0,91.69917,66.09861,5.048597,-36.05464,-110.6632,-50.32285,0.001067912,-0.1257102,0.09433498,0,0.3,0,0,0,0,
6.38224E+17,22.85316,54.07378,57.15411,39.63185,-35.84149,16.55962,-16.98673,-0.4441859,-4.27255,-61.44649,-6.98289,34.57793,0,0,0,73.8968,59.00671,6.987942,-36.05464,-110.6632,-50.32285,0.001067912,-0.1257102,0.09433498,0,0.3,0,0,0,0,
6.38224E+17,20.16733,53.60622,54.02557,32.45382,-37.08665,25.34904,-16.98673,-0.4441859,-4.27255,-61.44649,-6.98289,34.50468,0,0,0,64.48383,52.35817,7.220796,-36.05464,-110.6632,-50.32285,0.001067912,-0.1257102,0.09433498,0,0.3,0,0,0,0,
6.38224E+17,18.56525,52.8815,51.80758,26.88719,-37.01341,31.57488,-16.98673,-0.4441859,-4.27255,-61.44649,-6.98289,34.50468,0,0,0,58.98933,47.23094,7.285555,-36.05464,-110.6632,-50.32285,0.001067912,-0.1257102,0.09433498,0,0.3,0,0,0,0,
6.38224E+17,16.77469,50.87097,47.55838,16.26664,-34.74281,42.12218,-16.98673,-0.4441859,-4.27255,-61.51973,-6.98289,34.57793,0,0,0,52.68865,36.80343,6.442225,-36.05464,-110.6632,-50.32285,0.001067912,-0.1257102,0.09433498,0,0.3,0,0,0,0,
6.38224E+17,17.17521,48.39288,43.40257,9.015368,-30.49459,48.56776,-16.98673,-0.4441859,-4.27255,-61.44649,-6.98289,34.57793,0,0,0,53.20456,26.17325,3.789751,-36.05464,-110.6632,-50.32285,0.001067912,-0.1257102,0.09433498,0,0.3,0,0,0,0,
6.38224E+17,19.01289,45.0498,39.22341,5.79258,-25.07445,51.35107,-16.98673,-0.4441859,-4.27255,-61.44649,-6.98289,34.57793,0,0,0,58.16296,14.4202,0.4441504,-36.05464,-110.6632,-50.32285,0.001067912,-0.1257102,0.09433498,0,0.3,0,0,0,0,
6.38224E+17,20.07309,43.03927,37.26224,5.060128,-22.07139,51.35107,-16.98673,-0.4441859,-4.27255,-61.51973,-6.98289,34.57793,0,0,0,61.16233,8.23168,-0.9725175,-36.05464,-110.6632,-50.32285,0.001067912,-0.1257102,0.09433498,0,0.3,0,0,0,0,
6.38224E+17,22.90028,36.93756,32.38266,3.448734,-12.8425,47.76206,-16.98673,-0.4441859,-4.27255,-61.51973,-6.98289,34.57793,0,0,0,69.26637,-9.126823,-4.375784,-36.05464,-110.6632,-50.32285,0.001067912,-0.1257102,0.09433498,0,0.3,0,0,0,0,
6.38224E+17,25.11492,32.05152,29.86115,2.057076,-6.470173,43.36735,-16.98673,-0.4441859,-4.27255,-61.44649,-6.909645,34.57793,0,0,0,76.15156,-21.52934,-5.893957,-36.05464,-110.6632,-50.32285,0.001067912,-0.1257102,0.09433498,0,0.3,0,0,0,0,
6.38224E+17,26.57564,28.84871,29.02065,1.397869,-2.58818,40.29105,-16.98673,-0.4441859,-4.27255,-61.44649,-6.98289,34.57793,0,0,0,81.19579,-28.91607,-6.033401,-36.05464,-110.6632,-50.32285,0.001067912,-0.1257102,0.09433498,0,0.3,0,0,0,0,
6.38224E+17,29.73267,22.46645,28.83387,0.9583986,4.809582,34.2117,-16.98673,-0.4441859,-4.27255,-61.44649,-6.98289,34.57793,0,0,0,93.01125,-42.5088,-5.499752,-36.05464,-110.6632,-50.32285,0.001067912,-0.1257102,0.09433498,0,0.3,0,0,0,0,
6.38224E+17,33.21954,16.22447,29.8378,2.057076,11.62138,27.91262,-16.98673,-0.4441859,-4.27255,-61.44649,-6.98289,34.57793,0,0,0,106.4947,-55.06461,-5.730149,-36.05464,-110.6632,-50.32285,0.001067912,-0.1257102,0.09433498,0,0.3,0,0,0,0,
6.38224E+17,36.87134,10.75397,32.61613,4.107941,16.38232,20.00214,-16.98673,-0.4441859,-4.27255,-61.44649,-6.98289,34.57793,0,0,0,121.7349,-64.08873,-6.045268,-36.05464,-110.6632,-50.32285,0.001067912,-0.1257102,0.09433498,0,0.3,0,0,0,0,
6.38224E+17,40.59381,7.668051,37.51905,7.770199,19.16564,12.16491,-16.98673,-0.4441859,-4.27255,-61.51973,-6.98289,34.57793,0,0,0,138.8389,-64.6233,-6.328475,-36.05464,-110.6632,-50.32285,0.001067912,-0.1257102,0.09433498,0,0.3,0,0,0,0,
6.38224E+17,41.98385,7.364134,39.55027,9.674574,19.60511,9.747819,-16.98673,-0.4441859,-4.27255,-61.51973,-6.98289,34.57793,0,0,0,145.2638,-62.37957,-6.926717,-36.05464,-110.6632,-50.32285,0.001067912,-0.1257102,0.09433498,0,0.3,0,0,0,0,
6.38224E+17,45.02308,8.20575,45.03687,15.3877,19.09239,4.767147,-16.98673,-0.4441859,-4.27255,-61.51973,-6.98289,34.57793,0,0,0,160.1097,-51.84917,-8.369287,-36.05464,-110.6632,-50.32285,0.001067912,-0.1257102,0.09433498,0,0.3,0,0,0,0,
6.38224E+17,46.8372,9.935737,50.24332,20.36837,17.481,1.324624,-16.98673,-0.4441859,-4.27255,-61.51973,-6.98289,34.57793,0,0,0,170.5842,-38.92248,-8.36904,-36.05464,-110.6632,-50.32285,0.001067912,-0.1257102,0.09433498,0,0.3,0,0,0,0,
6.38224E+17,48.20368,13.20868,56.45369,26.81394,14.91741,-1.898163,-16.98673,-0.4441859,-4.27255,-61.44649,-6.98289,34.57793,0,0,0,179.6412,-19.87039,-7.753023,-36.05464,-110.6632,-50.32285,0.001067912,-0.1257102,0.09433498,0,0.3,0,0,0,0,
6.38224E+17,48.53352,15.1257,59.13863,29.96349,13.45251,-3.070086,-16.98673,-0.4441859,-4.27255,-61.51973,-6.98289,34.50468,0,0,0,182.2397,-10.25756,-7.307872,-36.05464,-110.6632,-50.32285,0.001067912,-0.1257102,0.09433498,0,0.3,0,0,0,0,
6.38224E+17,48.50996,20.01174,64.50849,37.06827,9.936745,-5.413931,-16.98673,-0.4441859,-4.27255,-61.44649,-6.98289,34.57793,0,0,0,184.0219,11.59326,-5.598159,-36.05464,-110.6632,-50.32285,0.001067912,-0.1257102,0.09433498,0,0.3,0,0,0,0,
6.38224E+17,47.59112,24.9913,68.711,44.24629,6.274486,-6.80559,-16.98673,-0.4441859,-4.27255,-61.44649,-6.98289,34.57793,0,0,0,180.9809,31.2721,-3.040305,-36.05464,-110.6632,-50.32285,0.001067912,-0.1257102,0.09433498,0,0.3,0,0,0,0,
6.38224E+17,46.8372,27.25899,70.25192,47.68882,4.370111,-7.24506,-16.98673,-0.4441859,-4.27255,-61.44649,-6.98289,34.57793,0,0,0,178.0119,39.36909,-1.403064,-36.05464,-110.6632,-50.32285,0.001067912,-0.1257102,0.09433498,0,0.3,0,0,0,0,
6.38224E+17,44.7168,31.98138,71.90958,54.13439,0.04864649,-7.611286,-16.98673,-0.4441859,-4.27255,-61.44649,-6.909645,34.57793,0,0,0,168.7721,52.57047,2.098812,-36.05464,-110.6632,-50.32285,0.001067912,-0.1257102,0.09433498,0,0.3,0,0,0,0,
6.38224E+17,43.02049,35.67514,71.37259,57.7234,-3.247386,-7.464796,-16.98673,-0.4441859,-4.27255,-61.51973,-6.98289,34.57793,0,0,0,160.1193,58.52454,3.233897,-36.05464,-110.6632,-50.32285,0.001067912,-0.1257102,0.09433498,0,0.3,0,0,0,0,
6.38224E+17,41.88961,37.84931,70.55544,59.18831,-5.371496,-6.80559,-16.98673,-0.4441859,-4.27255,-61.51973,-6.98289,34.57793,0,0,0,154.2655,60.78031,3.644492,-36.05464,-110.6632,-50.32285,0.001067912,-0.1257102,0.09433498,0,0.3,0,0,0,0,
6.38224E+17,39.91058,41.28591,68.7577,60.65321,-9.106999,-4.534989,-16.98673,-0.4441859,-4.27255,-61.51973,-6.98289,34.57793,0,0,0,144.0324,63.02216,3.846213,-36.05464,-110.6632,-50.32285,0.001067912,-0.1257102,0.09433498,0,0.3,0,0,0,0,
6.38224E+17,37.81374,44.58223,65.95602,60.50672,-13.28197,-0.9459759,-16.98673,-0.4441859,-4.27255,-61.44649,-6.98289,34.57793,0,0,0,132.8932,62.62085,2.89003,-36.05464,-110.6632,-50.32285,0.001067912,-0.1257102,0.09433498,0,0.3,0,0,0,0,
6.38224E+17,35.50486,47.45775,61.70683,58.23612,-17.38371,4.327676,-16.98673,-0.4441859,-4.27255,-61.44649,-6.98289,34.57793,0,0,0,120.5576,58.3938,0.6351795,-36.05464,-110.6632,-50.32285,0.001067912,-0.1257102,0.09433498,0,0.3,0,0,0,0,
6.38224E+17,32.93682,49.51503,56.47704,53.10896,-20.82623,11.79868,-16.98673,-0.4441859,-4.27255,-61.44649,-6.909645,34.57793,0,0,0,107.5175,51.12749,-2.38722,-36.05464,-110.6632,-50.32285,0.001067912,-0.1257102,0.09433498,0,0.3,0,0,0,0,
6.38224E+17,31.61747,50.05273,54.00222,49.73968,-22.07139,15.90041,-16.98673,-0.4441859,-4.27255,-61.51973,-6.98289,34.57793,0,0,0,101.4453,47.2039,-3.565681,-36.05464,-110.6632,-50.32285,0.001067912,-0.1257102,0.09433498,0,0.3,0,0,0,0,
6.38224E+17,28.53111,50.35665,49.61294,41.09675,-23.60954,25.42229,-16.98673,-0.4441859,-4.27255,-61.44649,-6.98289,34.57793,0,0,0,89.15019,39.62975,-4.368179,-36.05464,-110.6632,-50.32285,0.001067912,-0.1257102,0.09433498,0,0.3,0,0,0,0,
6.38224E+17,25.70392,50.30989,46.78792,32.38057,-23.75603,34.2117,-16.98673,-0.4441859,-4.27255,-61.44649,-6.98289,34.57793,0,0,0,79.08926,34.65929,-4.04339,-36.05464,-110.6632,-50.32285,0.001067912,-0.1257102,0.09433498,0,0.3,0,0,0,0,
6.38224E+17,23.23012,50.23976,45.62056,24.68983,-23.38981,41.38973,-16.98673,-0.4441859,-4.27255,-61.44649,-6.98289,34.57793,0,0,0,71.23155,32.5939,-2.395336,-36.05464,-110.6632,-50.32285,0.001067912,-0.1257102,0.09433498,0,0.3,0,0,0,0,
6.38224E+17,22.16992,50.14624,45.57386,21.76003,-23.24332,43.73357,-16.98673,-0.4441859,-4.27255,-61.51973,-6.98289,34.57793,0,0,0,68.18311,32.37692,-1.021343,-36.05464,-110.6632,-50.32285,0.001067912,-0.1257102,0.09433498,0,0.3,0,0,0,0,
6.38224E+17,19.06001,50.07611,46.04081,14.87498,-23.09683,47.46908,-16.98673,-0.4441859,-4.27255,-61.51973,-6.98289,34.57793,0,0,0,59.29314,33.05145,3.265677,-36.05464,-110.6632,-50.32285,0.001067912,-0.1257102,0.09433498,0,0.3,0,0,0,0,
6.38224E+17,15.59669,50.23976,47.93193,5.719335,-23.46305,50.17915,-16.98673,-0.4441859,-4.27255,-61.44649,-6.909645,34.57793,0,0,0,49.54625,36.51359,9.144275,-36.05464,-110.6632,-50.32285,0.001067912,-0.1257102,0.09433498,0,0.3,0,0,0,0,
6.38224E+17,13.99462,50.4034,49.51955,0.4456824,-23.82928,51.27783,-16.98673,-0.4441859,-4.27255,-61.51973,-6.98289,34.57793,0,0,0,45.08307,39.5337,12.54071,-36.05464,-110.6632,-50.32285,0.001067912,-0.1257102,0.09433498,0,0.3,0,0,0,0,
