zeyangz2/DNN_classification_different_people_hand/data/frank_right_25.csv
Timestamp,Therapist joint angle 0,Therapist joint angle 1,Therapist joint angle 2,Therapist joint angle 3,Therapist joint angle 4,Therapist joint angle 5,Patient joint angle 0,Patient joint angle 1,Patient joint angle 2,Patient joint angle 3,Patient joint angle 4,Patient joint angle 5,Virtual joint angle 0,Virtual joint angle 1,Virtual joint angle 2,Therapist position x,Therapist position y,Therapist position z,Patient position x,Patient position y,Patient position z,Virtual position x,Virtual position y,Virtual position z,Assistive Force, Obstacle Force Magnitude, Therapist Constant Force, Patient Constant Force, Recovery Factor, Assistance Level,label
6.38224E+17,0,0,0,0,0,0,0,0,0,0,0,0,0,0,0,0,0,0,0,0,0,0,0,0,0,0.3,0,0,0,0,1
6.38224E+17,38.16714,1.917013,-3.455395,-122.1667,-10.71839,-43.50142,-16.98673,-0.4441859,-4.27255,-61.51973,-6.909645,34.57793,0,0,0,77.39187,-105.2968,-69.88631,-36.05464,-110.6632,-50.32285,0.001067912,-0.1257102,0.09433498,0,0.3,0,0,0,0,
6.38224E+17,38.16714,1.917013,-3.455395,-122.1667,-10.64515,-43.50142,-16.98673,-0.4441859,-4.27255,-61.51973,-6.98289,34.50468,0,0,0,77.39187,-105.2968,-69.88631,-36.05464,-110.6632,-50.32285,0.001067912,-0.1257102,0.09433498,0,0.3,0,0,0,0,
6.38224E+17,38.16714,1.917013,-3.455395,-122.1667,-10.71839,-43.50142,-16.98673,-0.4441859,-4.27255,-61.51973,-6.909645,34.57793,0,0,0,77.39187,-105.2968,-69.88631,-36.05464,-110.6632,-50.32285,0.001067912,-0.1257102,0.09433498,0,0.3,0,0,0,0,
6.38224E+17,38.16714,1.917013,-3.455395,-122.1667,-10.64515,-43.50142,-16.98673,-0.4441859,-4.27255,-61.51973,-6.98289,34.57793,0,0,0,77.39187,-105.2968,-69.88631,-36.05464,-110.6632,-50.32285,0.001067912,-0.1257102,0.09433498,0,0.3,0,0,6.62E-08,0,
6.38224E+17,38.16714,1.917013,-3.455395,-122.1667,-10.71839,-43.50142,-16.98673,-0.4441859,-4.27255,-61.51973,-6.909645,34.57793,0,0,0,77.39187,-105.2968,-69.88631,-36.05464,-110.6632,-50.32285,0.001067912,-0.1257102,0.09433498,0,0.3,0,0,6.62E-08,0,
6.38224E+17,38.16714,1.917013,-3.455395,-122.1667,-10.71839,-43.50142,-16.98673,-0.4441859,-4.27255,-61.44649,-6.98289,34.50468,0,0,0,77.39187,-105.2968,-69.88631,-36.05464,-110.6632,-50.32285,0.001067912,-0.1257102,0.09433498,0,0.3,0,0,0,0,
6.38224E+17,38.16714,1.917013,-3.455395,-122.1667,-10.71839,-43.50142,-16.98673,-0.4441859,-4.27255,-61.51973,-6.98289,34.57793,0,0,0,77.39187,-105.2968,-69.88631,-36.05464,-110.6632,-50.32285,0.001067912,-0.1257102,0.09433498,0,0.3,0,0,6.62E-08,0,
6.38224E+17,38.16714,1.917013,-3.455395,-122.1667,-10.64515,-43.50142,-16.98673,-0.4441859,-4.27255,-61.44649,-6.909645,34.57793,0,0,0,77.39187,-105.2968,-69.88631,-36.05464,-110.6632,-50.32285,0.001067912,-0.1257102,0.09433498,0,0.3,0,0,6.62E-08,0,
6.38224E+17,38.16714,1.917013,-3.455395,-122.1667,-10.71839,-43.50142,-16.98673,-0.4441859,-4.27255,-61.44649,-6.98289,34.57793,0,0,0,77.39187,-105.2968,-69.88631,-36.05464,-110.6632,-50.32285,0.001067912,-0.1257102,0.09433498,0,0.3,0,0,6.62E-08,0,
6.38224E+17,38.16714,1.917013,-3.455395,-122.0935,-10.64515,-43.50142,-16.98673,-0.4441859,-4.27255,-61.44649,-6.98289,34.57793,0,0,0,77.39187,-105.2968,-69.88631,-36.05464,-110.6632,-50.32285,0.001067912,-0.1257102,0.09433498,0,0.3,0,0,6.62E-08,0,
6.38224E+17,38.16714,1.917013,-3.455395,-122.1667,-10.64515,-43.50142,-16.98673,-0.4441859,-4.27255,-61.44649,-6.909645,34.57793,0,0,0,77.39187,-105.2968,-69.88631,-36.05464,-110.6632,-50.32285,0.001067912,-0.1257102,0.09433498,0,0.3,0,0,0,0,
6.38224E+17,38.16714,1.917013,-3.455395,-122.1667,-10.64515,-43.50142,-16.98673,-0.4441859,-4.27255,-61.44649,-6.909645,34.57793,0,0,0,77.39187,-105.2968,-69.88631,-36.05464,-110.6632,-50.32285,0.001067912,-0.1257102,0.09433498,0,0.3,0,0,0,0,
6.38224E+17,38.16714,1.917013,-3.455395,-122.0935,-10.64515,-43.50142,-16.98673,-0.4441859,-4.27255,-61.51973,-6.98289,34.57793,0,0,0,77.39187,-105.2968,-69.88631,-36.05464,-110.6632,-50.32285,0.001067912,-0.1257102,0.09433498,0,0.3,0,0,0,0,
6.38224E+17,38.16714,1.917013,-3.455395,-122.1667,-10.71839,-43.50142,-16.98673,-0.4441859,-4.27255,-61.44649,-6.909645,34.57793,0,0,0,77.39187,-105.2968,-69.88631,-36.05464,-110.6632,-50.32285,0.001067912,-0.1257102,0.09433498,0,0.3,0,0,0,0,
6.38224E+17,38.16714,1.917013,-3.455395,-122.1667,-10.71839,-43.50142,-16.98673,-0.4441859,-4.27255,-61.44649,-6.98289,34.57793,0,0,0,77.39187,-105.2968,-69.88631,-36.05464,-110.6632,-50.32285,0.001067912,-0.1257102,0.09433498,0,0.3,0,0,0,0,
6.38224E+17,38.16714,1.917013,-3.455395,-122.1667,-10.71839,-43.50142,-16.98673,-0.4441859,-4.27255,-61.51973,-6.98289,34.57793,0,0,0,77.39187,-105.2968,-69.88631,-36.05464,-110.6632,-50.32285,0.001067912,-0.1257102,0.09433498,0,0.3,0,0,0,0,
6.38224E+17,38.16714,1.917013,-3.455395,-122.1667,-10.71839,-43.50142,-16.98673,-0.4441859,-4.27255,-61.44649,-6.98289,34.57793,0,0,0,77.39187,-105.2968,-69.88631,-36.05464,-110.6632,-50.32285,0.001067912,-0.1257102,0.09433498,0,0.3,0,0,0,0,
6.38224E+17,38.16714,1.917013,-3.455395,-122.1667,-10.71839,-43.50142,-16.98673,-0.4441859,-4.27255,-61.44649,-6.98289,34.57793,0,0,0,77.39187,-105.2968,-69.88631,-36.05464,-110.6632,-50.32285,0.001067912,-0.1257102,0.09433498,0,0.3,0,0,0,0,
6.38224E+17,38.16714,1.917013,-3.455395,-122.0935,-10.64515,-43.50142,-16.98673,-0.4441859,-4.27255,-61.51973,-6.98289,34.57793,0,0,0,77.39187,-105.2968,-69.88631,-36.05464,-110.6632,-50.32285,0.001067912,-0.1257102,0.09433498,0,0.3,0,0,0,0,
6.38224E+17,38.16714,1.917013,-3.455395,-122.1667,-10.64515,-43.50142,-16.98673,-0.4441859,-4.27255,-61.51973,-6.98289,34.57793,0,0,0,77.39187,-105.2968,-69.88631,-36.05464,-110.6632,-50.32285,0.001067912,-0.1257102,0.09433498,0,0.3,0,0,0,0,
6.38224E+17,38.16714,1.917013,-3.455395,-122.1667,-10.64515,-43.50142,-16.98673,-0.4441859,-4.27255,-61.44649,-6.909645,34.57793,0,0,0,77.39187,-105.2968,-69.88631,-36.05464,-110.6632,-50.32285,0.001067912,-0.1257102,0.09433498,0,0.3,0,0,0,0,
6.38224E+17,38.16714,1.917013,-3.455395,-122.1667,-10.64515,-43.50142,-16.98673,-0.4441859,-4.27255,-61.51973,-6.98289,34.57793,0,0,0,77.39187,-105.2968,-69.88631,-36.05464,-110.6632,-50.32285,0.001067912,-0.1257102,0.09433498,0,0.3,0,0,0,0,
6.38224E+17,38.16714,1.917013,-3.455395,-122.1667,-10.71839,-43.50142,-16.98673,-0.4441859,-4.27255,-61.44649,-6.909645,34.57793,0,0,0,77.39187,-105.2968,-69.88631,-36.05464,-110.6632,-50.32285,0.001067912,-0.1257102,0.09433498,0,0.3,0,0,0,0,
6.38224E+17,38.16714,1.917013,-3.455395,-122.1667,-10.64515,-43.50142,-16.98673,-0.4441859,-4.27255,-61.51973,-6.98289,34.57793,0,0,0,77.39187,-105.2968,-69.88631,-36.05464,-110.6632,-50.32285,0.001067912,-0.1257102,0.09433498,0,0.3,0,0,0,0,
6.38224E+17,38.16714,1.917013,-3.455395,-122.1667,-10.64515,-43.50142,-16.98673,-0.4441859,-4.27255,-61.51973,-6.98289,34.57793,0,0,0,77.39187,-105.2968,-69.88631,-36.05464,-110.6632,-50.32285,0.001067912,-0.1257102,0.09433498,0,0.3,0,0,0,0,
6.38224E+17,38.16714,1.917013,-3.455395,-122.0935,-10.64515,-43.50142,-16.98673,-0.4441859,-4.27255,-61.44649,-6.98289,34.57793,0,0,0,77.39187,-105.2968,-69.88631,-36.05464,-110.6632,-50.32285,0.001067912,-0.1257102,0.09433498,0,0.3,0,0,0,0,
6.38224E+17,38.16714,1.917013,-3.455395,-122.1667,-10.71839,-43.50142,-16.98673,-0.4441859,-4.27255,-61.44649,-6.98289,34.57793,0,0,0,77.39187,-105.2968,-69.88631,-36.05464,-110.6632,-50.32285,0.001067912,-0.1257102,0.09433498,0,0.3,0,0,0,0,
6.38224E+17,38.16714,1.917013,-3.455395,-122.1667,-10.71839,-43.50142,-16.98673,-0.4441859,-4.27255,-61.44649,-6.98289,34.57793,0,0,0,77.39187,-105.2968,-69.88631,-36.05464,-110.6632,-50.32285,0.001067912,-0.1257102,0.09433498,0,0.3,0,0,0,0,
6.38224E+17,38.16714,1.917013,-3.455395,-122.1667,-10.71839,-43.50142,-16.98673,-0.4441859,-4.27255,-61.51973,-6.98289,34.57793,0,0,0,77.39187,-105.2968,-69.88631,-36.05464,-110.6632,-50.32285,0.001067912,-0.1257102,0.09433498,0,0.3,0,0,0,0,
6.38224E+17,38.16714,1.917013,-3.455395,-122.1667,-10.64515,-43.50142,-16.98673,-0.4441859,-4.27255,-61.51973,-6.98289,34.57793,0,0,0,77.39187,-105.2968,-69.88631,-36.05464,-110.6632,-50.32285,0.001067912,-0.1257102,0.09433498,0,0.3,0,0,0,0,
6.38224E+17,38.16714,1.917013,-3.455395,-122.1667,-10.71839,-43.50142,-16.98673,-0.4441859,-4.27255,-61.51973,-6.98289,34.57793,0,0,0,77.39187,-105.2968,-69.88631,-36.05464,-110.6632,-50.32285,0.001067912,-0.1257102,0.09433498,0,0.3,0,0,0,0,
6.38224E+17,38.16714,1.917013,-3.455395,-122.1667,-10.71839,-43.50142,-16.98673,-0.4441859,-4.27255,-61.51973,-6.909645,34.57793,0,0,0,77.39187,-105.2968,-69.88631,-36.05464,-110.6632,-50.32285,0.001067912,-0.1257102,0.09433498,0,0.3,0,0,0,0,
6.38224E+17,36.23522,1.332558,-3.525437,-120.5553,-10.64515,-43.50142,-16.98673,-0.4441859,-4.27255,-61.51973,-6.98289,34.57793,0,0,0,73.9551,-106.6465,-67.43339,-36.05464,-110.6632,-50.32285,0.001067912,-0.1257102,0.09433498,0,0.3,0,0,0.000653536,0,
6.38224E+17,33.97346,0.5376987,-3.665521,-117.6255,-10.64515,-43.50142,-16.98673,-0.4441859,-4.27255,-61.44649,-6.909645,34.57793,0,0,0,69.74987,-108.4758,-64.83819,-36.05464,-110.6632,-50.32285,0.001067912,-0.1257102,0.09433498,0,0.3,0,0,0.001903145,0,
6.38224E+17,30.18031,-0.350673,-3.665521,-109.8615,-10.49866,-43.28168,-16.98673,-0.4441859,-4.27255,-61.51973,-6.98289,34.57793,0,0,0,62.75098,-110.5434,-60.44775,-36.05464,-110.6632,-50.32285,0.001067912,-0.1257102,0.09433498,0,0.3,0,0,0.005945706,0,
6.38224E+17,27.306,-0.4909423,-3.665521,-103.4892,-9.839451,-41.15757,-16.98673,-0.4441859,-4.27255,-61.44649,-6.98289,34.57793,0,0,0,57.26015,-110.8698,-57.43896,-36.05464,-110.6632,-50.32285,0.001067912,-0.1257102,0.09433498,0,0.3,0,0,0.01144058,0,
6.38224E+17,25.1856,-0.4909423,-3.665521,-101.2186,-9.25349,-27.82695,-16.98673,-0.4441859,-4.27255,-61.44649,-6.98289,34.57793,0,0,0,53.1173,-110.8698,-55.39631,-36.05464,-110.6632,-50.32285,0.001067912,-0.1257102,0.09433498,0,0.3,0,0,0.01786916,0,
6.38224E+17,23.79556,-0.5844551,-3.618826,-100.7059,-8.960509,-17.64587,-16.98673,-0.4441859,-4.27255,-61.51973,-6.98289,34.57793,0,0,0,50.40453,-111.0943,-54.04364,-36.05464,-110.6632,-50.32285,0.001067912,-0.1257102,0.09433498,0,0.3,0,0,0.02471752,0,
6.38224E+17,23.3008,-0.7247244,-3.385354,-100.6326,-8.887264,-17.49938,-16.98673,-0.4441859,-4.27255,-61.51973,-6.98289,34.57793,0,0,0,49.62867,-111.454,-53.11795,-36.05464,-110.6632,-50.32285,0.001067912,-0.1257102,0.09433498,0,0.3,0,0,0.02817082,0,
6.38224E+17,22.40552,-1.005263,-2.031212,-100.1199,-8.594284,-22.77304,-16.98673,-0.4441859,-4.27255,-61.51973,-6.909645,34.57793,0,0,0,49.01826,-112.2557,-49.4553,-36.05464,-110.6632,-50.32285,0.001067912,-0.1257102,0.09433498,0,0.3,0,0,0.03490909,0,
6.38224E+17,21.8872,-0.8649935,-1.727698,-99.53397,-8.081567,-28.04669,-16.98673,-0.4441859,-4.27255,-61.44649,-6.98289,34.57793,0,0,0,48.20588,-111.9525,-48.35667,-36.05464,-110.6632,-50.32285,0.001067912,-0.1257102,0.09433498,0,0.3,0,0,0.04146153,0,
6.38224E+17,21.81652,-0.8883717,-1.727698,-99.09451,-7.935077,-28.11993,-16.98673,-0.4441859,-4.27255,-61.51973,-6.909645,34.57793,0,0,0,48.05751,-112.0069,-48.29806,-36.05464,-110.6632,-50.32285,0.001067912,-0.1257102,0.09433498,0,0.3,0,0,0.04463354,0,
6.38224E+17,21.72228,-0.8883717,-1.307447,-97.92258,-7.861832,-21.89409,-16.98673,-0.4441859,-4.27255,-61.44649,-6.98289,34.57793,0,0,0,48.22186,-112.0328,-47.31087,-36.05464,-110.6632,-50.32285,0.001067912,-0.1257102,0.09433498,0,0.3,0,0,0.05069835,0,
6.38224E+17,21.32176,-0.8416153,0.6070289,-95.79847,-7.788587,-15.15554,-16.98673,-0.4441859,-4.27255,-61.44649,-6.98289,34.57793,0,0,0,48.9952,-111.9512,-42.82471,-36.05464,-110.6632,-50.32285,0.001067912,-0.1257102,0.09433498,0,0.3,0,0,0.05624565,0,
6.38224E+17,19.27205,-0.8182371,2.404768,-92.79542,-7.935077,-10.17487,-16.98673,-0.4441859,-4.27255,-61.51973,-6.98289,34.57793,0,0,0,45.85492,-111.7869,-37.20383,-36.05464,-110.6632,-50.32285,0.001067912,-0.1257102,0.09433498,0,0.3,0,0,0.06181488,0,
6.38224E+17,17.55217,-0.8182371,3.852299,-92.2827,-8.008322,-7.831022,-16.98673,-0.4441859,-4.27255,-61.44649,-6.98289,34.57793,0,0,0,42.91263,-111.603,-32.67941,-36.05464,-110.6632,-50.32285,0.001067912,-0.1257102,0.09433498,0,0.3,0,0,0.06480266,0,
6.38224E+17,14.01818,-0.8416153,7.307694,-94.33356,-7.935077,-4.022273,-16.98673,-0.4441859,-4.27255,-61.51973,-6.98289,34.57793,0,0,0,36.40651,-110.8755,-22.52858,-36.05464,-110.6632,-50.32285,0.001067912,-0.1257102,0.09433498,0,0.3,0,0,0.07109307,0,
6.38224E+17,10.50774,-0.8416153,10.62301,-98.65503,-8.008322,-1.898163,-16.98673,-0.4441859,-4.27255,-61.51973,-6.98289,34.57793,0,0,0,28.79928,-109.6733,-13.08009,-36.05464,-110.6632,-50.32285,0.001067912,-0.1257102,0.09433498,0,0.3,0,0,0.07770853,0,
6.38224E+17,7.115108,-0.8416153,14.9189,-103.7822,-9.912696,-0.6529952,-16.98673,-0.4441859,-4.27255,-61.44649,-6.909645,34.57793,0,0,0,20.76773,-107.4636,-1.974365,-36.05464,-110.6632,-50.32285,0.001067912,-0.1257102,0.09433498,0,0.3,0,0,0.08421152,0,
6.38224E+17,5.489471,-0.8416153,17.5338,-106.8585,-11.30435,-0.3600145,-16.98673,-0.4441859,-4.27255,-61.44649,-6.98289,34.57793,0,0,0,16.59843,-105.7632,4.363992,-36.05464,-110.6632,-50.32285,0.001067912,-0.1257102,0.09433498,0,0.3,0,0,0.09019748,0,
6.38224E+17,3.298395,-0.7714807,21.05923,-112.1321,-13.13548,-0.140279,-16.98673,-0.4441859,-4.27255,-61.44649,-6.909645,34.57793,0,0,0,10.42869,-102.889,12.60469,-36.05464,-110.6632,-50.32285,0.001067912,-0.1257102,0.09433498,0,0.3,0,0,0.09540194,0,
6.38224E+17,2.261756,-0.7714807,22.78693,-114.769,-13.6482,0.006211365,-16.98673,-0.4441859,-4.27255,-61.51973,-6.98289,34.50468,0,0,0,7.300407,-101.3877,16.49096,-36.05464,-110.6632,-50.32285,0.001067912,-0.1257102,0.09433498,0,0.3,0,0,0.09772221,0,
6.38224E+17,0.3062795,-0.7714807,26.80266,-120.1891,-14.01443,1.397869,-16.98673,-0.4441859,-4.27255,-61.51973,-6.98289,34.57793,0,0,0,1.034195,-97.46902,25.1152,-36.05464,-110.6632,-50.32285,0.001067912,-0.1257102,0.09433498,0,0.3,0,0,0.1015378,0,
6.38224E+17,-1.531397,-0.3974294,30.7717,-125.4628,-13.35522,4.474167,-16.98673,-0.4441859,-4.27255,-61.44649,-6.98289,34.57793,0,0,0,-5.386937,-92.15099,33.14912,-36.05464,-110.6632,-50.32285,0.001067912,-0.1257102,0.09433498,0,0.3,0,0,0.1041297,0,
6.38224E+17,-3.439754,0.6078333,34.88082,-129.9307,-12.1833,8.136425,-16.98673,-0.4441859,-4.27255,-61.44649,-6.98289,34.57793,0,0,0,-12.57588,-84.62815,40.87391,-36.05464,-110.6632,-50.32285,0.001067912,-0.1257102,0.09433498,0,0.3,0,0,0.1054794,0,
6.38224E+17,-5.088952,1.8235,39.50357,-134.1057,-9.839451,12.53114,-16.98673,-0.4441859,-4.27255,-61.51973,-6.98289,34.57793,0,0,0,-19.34684,-75.29755,48.90017,-36.05464,-110.6632,-50.32285,0.001067912,-0.1257102,0.09433498,0,0.3,0,0,0.1052693,0,
6.38224E+17,-5.819311,2.641737,42.21186,-136.0833,-8.081567,15.68068,-16.98673,-0.4441859,-4.27255,-61.51973,-6.98289,34.57793,0,0,0,-22.59032,-69.27156,53.30447,-36.05464,-110.6632,-50.32285,0.001067912,-0.1257102,0.09433498,0,0.3,0,0,0.1044557,0,
6.38224E+17,-7.138669,4.465237,48.56231,-140.1118,-3.979838,23.51791,-16.98673,-0.4441859,-4.27255,-61.51973,-6.909645,34.57793,0,0,0,-28.94456,-54.51985,62.75905,-36.05464,-110.6632,-50.32285,0.001067912,-0.1257102,0.09433498,0,0.3,0,0,0.1008423,0,
6.38224E+17,-8.198866,6.195224,54.25905,-143.5543,0.4148723,31.06216,-16.98673,-0.4441859,-4.27255,-61.44649,-6.909645,34.57793,0,0,0,-34.34132,-40.15194,69.99564,-36.05464,-110.6632,-50.32285,0.001067912,-0.1257102,0.09433498,0,0.3,0,0,0.09538108,0,
6.38224E+17,-8.646505,7.130352,56.78055,-143.6276,2.758718,35.16389,-16.98673,-0.4441859,-4.27255,-61.51973,-6.98289,34.57793,0,0,0,-36.66386,-33.15308,72.75471,-36.05464,-110.6632,-50.32285,0.001067912,-0.1257102,0.09433498,0,0.3,0,0,0.09194379,0,
6.38224E+17,-9.376864,9.140878,61.63678,-139.0131,7.812634,47.46908,-16.98673,-0.4441859,-4.27255,-61.44649,-6.98289,34.57793,0,0,0,-40.5687,-18.81486,77.32127,-36.05464,-110.6632,-50.32285,0.001067912,-0.1257102,0.09433498,0,0.3,0,0,0.08380757,0,
6.38224E+17,-9.871624,11.64235,64.76532,-131.0294,11.69463,65.26765,-16.98673,-0.4441859,-4.27255,-61.44649,-6.98289,34.57793,0,0,0,-43.07131,-6.590427,79.16116,-36.05464,-110.6632,-50.32285,0.001067912,-0.1257102,0.09433498,0,0.3,0,0,0.07441941,0,
6.38224E+17,-10.10722,13.16193,65.95602,-125.6825,13.30602,77.71934,-16.98673,-0.4441859,-4.27255,-61.51973,-6.98289,34.57793,0,0,0,-44.15816,-0.6174983,79.3716,-36.05464,-110.6632,-50.32285,0.001067912,-0.1257102,0.09433498,0,0.3,0,0,0.0693553,0,
6.38224E+17,-10.2957,16.48163,66.91327,-114.9887,14.25821,107.4569,-16.98673,-0.4441859,-4.27255,-61.44649,-6.909645,34.57793,0,0,0,-44.77881,8.892698,78.15695,-36.05464,-110.6632,-50.32285,0.001067912,-0.1257102,0.09433498,0,0.3,0,0,0.05883954,0,
6.38224E+17,-10.01298,20.52606,66.91327,-103.1962,12.72006,136.3887,-16.98673,-0.4441859,-4.27255,-61.51973,-6.98289,34.57793,0,0,0,-43.04259,17.81721,75.43363,-36.05464,-110.6632,-50.32285,0.001067912,-0.1257102,0.09433498,0,0.3,0,0,0.04801959,0,
6.38224E+17,-9.306185,25.7394,67.54364,-90.96429,8.984557,144.8852,-16.98673,-0.4441859,-4.27255,-61.51973,-6.98289,34.57793,0,0,0,-39.35334,30.32407,71.80399,-36.05464,-110.6632,-50.32285,0.001067912,-0.1257102,0.09433498,0,0.3,0,0,0.03672869,0,
6.38224E+17,-8.999906,29.24613,67.70707,-87.44852,6.933692,144.8852,-16.98673,-0.4441859,-4.27255,-61.44649,-6.909645,34.57793,0,0,0,-37.50238,37.91454,68.43323,-36.05464,-110.6632,-50.32285,0.001067912,-0.1257102,0.09433498,0,0.3,0,0,0.02515312,0,
6.38224E+17,-8.670066,31.72422,67.66038,-86.05686,5.468789,144.8852,-16.98673,-0.4441859,-4.27255,-61.44649,-6.909645,34.57793,0,0,0,-35.6914,42.78381,65.71213,-36.05464,-110.6632,-50.32285,0.001067912,-0.1257102,0.09433498,0,0.3,0,0,0.01926786,0,
6.38224E+17,-7.727668,36.32973,67.4269,-84.51871,2.319247,144.8119,-16.98673,-0.4441859,-4.27255,-61.44649,-6.909645,34.57793,0,0,0,-31.00268,51.16274,60.1198,-36.05464,-110.6632,-50.32285,0.001067912,-0.1257102,0.09433498,0,0.3,0,0,0.007377236,0,
6.38224E+17,-6.21983,40.28064,67.19343,-82.68758,-1.050031,144.8852,-16.98673,-0.4441859,-4.27255,-61.44649,-6.909645,34.57793,0,0,0,-24.33994,57.87576,54.98305,-36.05464,-110.6632,-50.32285,0.001067912,-0.1257102,0.09433498,0,0.3,0,0,0,0,
6.38224E+17,-4.382153,43.83413,66.95996,-79.75778,-4.199574,144.8119,-16.98673,-0.4441859,-4.27255,-61.44649,-6.909645,34.57793,0,0,0,-16.72616,63.51484,49.91466,-36.05464,-110.6632,-50.32285,0.001067912,-0.1257102,0.09433498,0,0.3,0,0,0,0,
6.38224E+17,-3.392634,45.44723,66.81988,-77.99989,-5.810967,144.8119,-16.98673,-0.4441859,-4.27255,-61.44649,-6.98289,34.57793,0,0,0,-12.79067,65.88618,47.40993,-36.05464,-110.6632,-50.32285,0.001067912,-0.1257102,0.09433498,0,0.3,0,0,0,0,
6.38224E+17,-1.248678,48.29937,66.37627,-74.26439,-8.594284,144.8852,-16.98673,-0.4441859,-4.27255,-61.44649,-6.909645,34.57793,0,0,0,-4.595554,69.47609,42.48434,-36.05464,-110.6632,-50.32285,0.001067912,-0.1257102,0.09433498,0,0.3,0,0,0,0,
6.38224E+17,1.036638,50.9411,64.78866,-70.08942,-11.15786,144.9584,-16.98673,-0.4441859,-4.27255,-61.51973,-6.98289,34.57793,0,0,0,3.70291,70.09455,36.29031,-36.05464,-110.6632,-50.32285,0.001067912,-0.1257102,0.09433498,0,0.3,0,0,0,0,
6.38224E+17,2.120397,51.96975,63.69135,-67.81882,-12.03681,144.8852,-16.98673,-0.4441859,-4.27255,-61.51973,-6.98289,34.57793,0,0,0,7.462474,69.28625,33.20337,-36.05464,-110.6632,-50.32285,0.001067912,-0.1257102,0.09433498,0,0.3,0,0,0,0,
6.38224E+17,4.547072,53.74649,60.28264,-62.32543,-13.28197,144.8852,-16.98673,-0.4441859,-4.27255,-61.51973,-6.98289,34.57793,0,0,0,15.43305,64.78005,25.707,-36.05464,-110.6632,-50.32285,0.001067912,-0.1257102,0.09433498,0,0.3,0,0,0,0,
6.38224E+17,6.950189,54.9154,56.12683,-56.24608,-13.42846,144.8119,-16.98673,-0.4441859,-4.27255,-61.44649,-6.909645,34.57793,0,0,0,22.67231,58.14739,17.63777,-36.05464,-110.6632,-50.32285,0.001067912,-0.1257102,0.09433498,0,0.3,0,0,0,0,
6.38224E+17,8.175306,55.28945,53.88549,-53.02329,-13.20873,144.8852,-16.98673,-0.4441859,-4.27255,-61.51973,-6.98289,34.57793,0,0,0,26.11676,54.37231,13.44274,-36.05464,-110.6632,-50.32285,0.001067912,-0.1257102,0.09433498,0,0.3,0,0,0,0,
6.38224E+17,12.69882,54.07378,45.97077,-42.9887,-12.11005,144.8119,-16.98673,-0.4441859,-4.27255,-61.51973,-6.98289,34.57793,0,0,0,38.27587,38.65164,1.509748,-36.05464,-110.6632,-50.32285,0.001067912,-0.1257102,0.09433498,0,0.3,0,0,0,0,
6.38224E+17,15.76161,52.06326,41.97839,-38.30101,-11.59733,144.8119,-16.98673,-0.4441859,-4.27255,-61.44649,-6.98289,34.57793,0,0,0,46.49682,29.38979,-3.612529,-36.05464,-110.6632,-50.32285,0.001067912,-0.1257102,0.09433498,0,0.3,0,0,0,0,
6.38224E+17,17.76421,50.4034,40.13395,-35.22471,-10.49866,144.8852,-16.98673,-0.4441859,-4.27255,-61.44649,-6.98289,34.50468,0,0,0,52.15653,24.15164,-5.552115,-36.05464,-110.6632,-50.32285,0.001067912,-0.1257102,0.09433498,0,0.3,0,0,0,0,
6.38224E+17,22.14636,46.92005,37.28558,-28.7059,-7.056135,144.7387,-16.98673,-0.4441859,-4.27255,-61.44649,-6.98289,34.57793,0,0,0,64.78761,14.65231,-9.167002,-36.05464,-110.6632,-50.32285,0.001067912,-0.1257102,0.09433498,0,0.3,0,0,0,0,
6.38224E+17,27.80075,44.44196,36.21161,-21.01515,-3.027651,140.6369,-16.98673,-0.4441859,-4.27255,-61.51973,-6.98289,34.57793,0,0,0,81.14661,9.127664,-14.44668,-36.05464,-110.6632,-50.32285,0.001067912,-0.1257102,0.09433498,0,0.3,0,0,0,0,
6.38224E+17,30.53371,43.81075,36.305,-17.05991,-1.489502,138.3663,-16.98673,-0.4441859,-4.27255,-61.44649,-6.98289,34.57793,0,0,0,89.00126,8.201704,-17.45892,-36.05464,-110.6632,-50.32285,0.001067912,-0.1257102,0.09433498,0,0.3,0,0,0,0,
6.38224E+17,36.51794,43.4367,38.45295,-7.831022,0.8543434,132.7997,-16.98673,-0.4441859,-4.27255,-61.51973,-6.909645,34.57793,0,0,0,106.9686,10.60623,-23.8849,-36.05464,-110.6632,-50.32285,0.001067912,-0.1257102,0.09433498,0,0.3,0,0,0,0,
6.38224E+17,42.12521,43.55359,43.61269,2.423302,1.000834,126.8668,-16.98673,-0.4441859,-4.27255,-61.44649,-6.98289,34.57793,0,0,0,126.5207,18.68457,-28.45052,-36.05464,-110.6632,-50.32285,0.001067912,-0.1257102,0.09433498,0,0.3,0,0,0,0,
6.38224E+17,44.24561,43.67049,46.67118,7.257483,0.3416272,123.8638,-16.98673,-0.4441859,-4.27255,-61.51973,-6.98289,34.57793,0,0,0,134.9823,23.92682,-29.76559,-36.05464,-110.6632,-50.32285,0.001067912,-0.1257102,0.09433498,0,0.3,0,0,0,0,
6.38224E+17,47.99164,44.39521,54.70264,18.17101,-2.514934,115.5871,-16.98673,-0.4441859,-4.27255,-61.44649,-6.98289,34.57793,0,0,0,151.6695,39.58984,-31.74611,-36.05464,-110.6632,-50.32285,0.001067912,-0.1257102,0.09433498,0,0.3,0,0,0,0,
6.38224E+17,49.71152,45.4706,61.61344,26.66745,-6.177193,107.9696,-16.98673,-0.4441859,-4.27255,-61.44649,-6.98289,34.57793,0,0,0,160.8216,55.017,-32.01896,-36.05464,-110.6632,-50.32285,0.001067912,-0.1257102,0.09433498,0,0.3,0,0,0,0,
6.38224E+17,50.22984,46.70965,69.06121,35.8231,-10.93813,99.47314,-16.98673,-0.4441859,-4.27255,-61.44649,-6.98289,34.57793,0,0,0,166.007,72.75856,-30.1846,-36.05464,-110.6632,-50.32285,0.001067912,-0.1257102,0.09433498,0,0.3,0,0,0,0,
6.38224E+17,50.08848,47.29411,72.72674,40.21781,-13.50171,95.66441,-16.98673,-0.4441859,-4.27255,-61.51973,-6.98289,34.57793,0,0,0,167.044,81.74603,-28.62245,-36.05464,-110.6632,-50.32285,0.001067912,-0.1257102,0.09433498,0,0.3,0,0,0,0,
6.38224E+17,48.8398,48.50977,79.00715,48.86074,-18.26265,88.26664,-16.98673,-0.4441859,-4.27255,-61.51973,-6.98289,34.57793,0,0,0,165.0646,97.81026,-24.04926,-36.05464,-110.6632,-50.32285,0.001067912,-0.1257102,0.09433498,0,0.3,0,0,0,0,
6.38224E+17,46.69584,50.21638,83.11626,56.84446,-22.65736,82.40703,-16.98673,-0.4441859,-4.27255,-61.51973,-6.909645,34.57793,0,0,0,158.4384,109.8423,-19.02345,-36.05464,-110.6632,-50.32285,0.001067912,-0.1257102,0.09433498,0,0.3,0,0,0,0,
6.38224E+17,43.91577,52.29704,85.54439,63.21679,-26.53935,78.59828,-16.98673,-0.4441859,-4.27255,-61.51973,-6.98289,34.57793,0,0,0,148.7769,118.4959,-13.83303,-36.05464,-110.6632,-50.32285,0.001067912,-0.1257102,0.09433498,0,0.3,0,0,0,0,
6.38224E+17,42.38437,53.48933,86.12807,66.1466,-28.44372,77.42635,-16.98673,-0.4441859,-4.27255,-61.44649,-6.909645,34.57793,0,0,0,143.1691,121.5249,-11.47395,-36.05464,-110.6632,-50.32285,0.001067912,-0.1257102,0.09433498,0,0.3,0,0,0,0,
6.38224E+17,39.34513,55.80377,86.26814,70.6878,-32.25247,76.0347,-16.98673,-0.4441859,-4.27255,-61.51973,-6.98289,34.57793,0,0,0,131.8787,124.9668,-7.484393,-36.05464,-110.6632,-50.32285,0.001067912,-0.1257102,0.09433498,0,0.3,0,0,0,0,
6.38224E+17,36.49438,57.20647,86.08137,73.69085,-35.91473,75.37549,-16.98673,-0.4441859,-4.27255,-61.44649,-6.909645,34.57793,0,0,0,122.0786,126.3346,-3.336445,-36.05464,-110.6632,-50.32285,0.001067912,-0.1257102,0.09433498,0,0.3,0,0,0,0,
6.38224E+17,35.22214,57.55714,85.8479,74.86278,-37.59937,75.15575,-16.98673,-0.4441859,-4.27255,-61.44649,-6.98289,34.57793,0,0,0,117.9662,126.2325,-1.25944,-36.05464,-110.6632,-50.32285,0.001067912,-0.1257102,0.09433498,0,0.3,0,0,0,0,
6.38224E+17,33.10175,57.90781,85.17083,76.32768,-40.8954,75.37549,-16.98673,-0.4441859,-4.27255,-61.51973,-6.98289,34.57793,0,0,0,111.2589,125.0973,2.309372,-36.05464,-110.6632,-50.32285,0.001067912,-0.1257102,0.09433498,0,0.3,0,0,0,0,
6.38224E+17,31.66459,57.93119,84.16689,76.18118,-43.82521,76.25443,-16.98673,-0.4441859,-4.27255,-61.44649,-6.98289,34.50468,0,0,0,106.8055,122.7998,4.822104,-36.05464,-110.6632,-50.32285,0.001067912,-0.1257102,0.09433498,0,0.3,0,0,0,0,
6.38224E+17,31.19339,57.90781,82.36916,74.13033,-46.2423,78.3053,-16.98673,-0.4441859,-4.27255,-61.51973,-6.98289,34.57793,0,0,0,105.1476,118.6158,5.314493,-36.05464,-110.6632,-50.32285,0.001067912,-0.1257102,0.09433498,0,0.3,0,0,0,0,
6.38224E+17,31.31119,57.79092,81.08505,71.93297,-46.97475,80.35616,-16.98673,-0.4441859,-4.27255,-61.51973,-6.98289,34.57793,0,0,0,105.4006,115.5136,4.927342,-36.05464,-110.6632,-50.32285,0.001067912,-0.1257102,0.09433498,0,0.3,0,0,0,0,
6.38224E+17,32.23003,57.18309,77.83979,65.85361,-47.41422,87.09471,-16.98673,-0.4441859,-4.27255,-61.51973,-6.98289,34.57793,0,0,0,108.0654,107.3286,3.05567,-36.05464,-110.6632,-50.32285,0.001067912,-0.1257102,0.09433498,0,0.3,0,0,0,0,
6.38224E+17,33.87922,55.80377,73.59058,58.60235,-45.50985,96.32361,-16.98673,-0.4441859,-4.27255,-61.44649,-6.98289,34.57793,0,0,0,113.0858,95.97487,0.07136593,-36.05464,-110.6632,-50.32285,0.001067912,-0.1257102,0.09433498,0,0.3,0,0,0,0,
6.38224E+17,35.99962,53.16203,68.54758,51.27783,-40.82215,105.0398,-16.98673,-0.4441859,-4.27255,-61.51973,-6.909645,34.57793,0,0,0,119.9437,81.30466,-3.259375,-36.05464,-110.6632,-50.32285,0.001067912,-0.1257102,0.09433498,0,0.3,0,0,0,0,
6.38224E+17,37.27186,50.33327,65.37234,46.59014,-36.50069,108.995,-16.98673,-0.4441859,-4.27255,-61.44649,-6.909645,34.57793,0,0,0,124.959,70.42931,-4.150669,-36.05464,-110.6632,-50.32285,0.001067912,-0.1257102,0.09433498,0,0.3,0,0,0,0,
6.38224E+17,37.93154,48.48639,63.80808,44.31954,-33.86386,110.3867,-16.98673,-0.4441859,-4.27255,-61.51973,-6.98289,34.57793,0,0,0,127.8873,64.34432,-4.257894,-36.05464,-110.6632,-50.32285,0.001067912,-0.1257102,0.09433498,0,0.3,0,0,0,0,
6.38224E+17,38.85038,45.00304,61.16984,40.87702,-28.44372,112.1446,-16.98673,-0.4441859,-4.27255,-61.44649,-6.98289,34.57793,0,0,0,132.4265,53.34433,-3.940843,-36.05464,-110.6632,-50.32285,0.001067912,-0.1257102,0.09433498,0,0.3,0,0,0,0,
6.38224E+17,38.96818,42.36131,58.90515,38.31343,-23.68279,113.3897,-16.98673,-0.4441859,-4.27255,-61.44649,-6.98289,34.57793,0,0,0,133.7792,44.33224,-2.958744,-36.05464,-110.6632,-50.32285,0.001067912,-0.1257102,0.09433498,0,0.3,0,0,0,0,
6.38224E+17,38.7797,41.37942,57.73779,37.14151,-21.41219,114.2687,-16.98673,-0.4441859,-4.27255,-61.44649,-6.98289,34.57793,0,0,0,133.2961,40.31847,-2.442787,-36.05464,-110.6632,-50.32285,0.001067912,-0.1257102,0.09433498,0,0.3,0,0,0,0,
6.38224E+17,38.14358,39.92997,55.0762,35.0174,-17.74993,116.3928,-16.98673,-0.4441859,-4.27255,-61.51973,-6.98289,34.57793,0,0,0,130.6866,32.59974,-1.939983,-36.05464,-110.6632,-50.32285,0.001067912,-0.1257102,0.09433498,0,0.3,0,0,0,0,
6.38224E+17,37.15406,38.55066,52.13445,32.67356,-14.89337,118.6634,-16.98673,-0.4441859,-4.27255,-61.51973,-6.98289,34.57793,0,0,0,126.5665,24.6029,-1.326894,-36.05464,-110.6632,-50.32285,0.001067912,-0.1257102,0.09433498,0,0.3,0,0,0,0,
6.38224E+17,36.51794,37.73242,50.4301,31.2819,-13.28197,119.9818,-16.98673,-0.4441859,-4.27255,-61.51973,-6.98289,34.57793,0,0,0,123.9279,20.01031,-0.9807224,-36.05464,-110.6632,-50.32285,0.001067912,-0.1257102,0.09433498,0,0.3,0,0,0,0,
6.38224E+17,34.7745,34.95041,45.99411,27.69288,-8.740773,123.5708,-16.98673,-0.4441859,-4.27255,-61.51973,-6.909645,34.57793,0,0,0,117.0437,7.099305,0.2138469,-36.05464,-110.6632,-50.32285,0.001067912,-0.1257102,0.09433498,0,0.3,0,0,0,0,
6.38224E+17,33.05463,32.65935,42.79554,25.56878,-5.15176,127.1598,-16.98673,-0.4441859,-4.27255,-61.51973,-6.909645,34.57793,0,0,0,110.6489,-2.538519,1.67933,-36.05464,-110.6632,-50.32285,0.001067912,-0.1257102,0.09433498,0,0.3,0,0,0,0,
6.38224E+17,29.94471,29.85397,38.8732,22.93195,-0.3908245,133.0927,-16.98673,-0.4441859,-4.27255,-61.44649,-6.98289,34.50468,0,0,0,99.50555,-14.08745,4.38339,-36.05464,-110.6632,-50.32285,0.001067912,-0.1257102,0.09433498,0,0.3,0,0,0,0,
6.38224E+17,27.75363,28.68506,36.98207,21.10082,2.319247,137.3409,-16.98673,-0.4441859,-4.27255,-61.51973,-6.98289,34.57793,0,0,0,91.83157,-19.16586,6.166252,-36.05464,-110.6632,-50.32285,0.001067912,-0.1257102,0.09433498,0,0.3,0,0,0,0,
6.38224E+17,22.26416,27.32912,34.15705,16.33988,7.226673,144.0795,-16.98673,-0.4441859,-4.27255,-61.51973,-6.98289,34.57793,0,0,0,73.25107,-25.77622,10.57324,-36.05464,-110.6632,-50.32285,0.001067912,-0.1257102,0.09433498,0,0.3,0,0,0,0,
6.38224E+17,15.99721,27.60966,33.10642,9.161857,11.03542,144.8852,-16.98673,-0.4441859,-4.27255,-61.44649,-6.98289,34.57793,0,0,0,52.63782,-26.55118,15.25359,-36.05464,-110.6632,-50.32285,0.001067912,-0.1257102,0.09433498,0,0.3,0,0,0,0,
6.38224E+17,9.447544,29.7137,33.55002,0.2259469,13.08629,144.8119,-16.98673,-0.4441859,-4.27255,-61.44649,-6.98289,34.57793,0,0,0,31.1077,-21.68728,18.59355,-36.05464,-110.6632,-50.32285,0.001067912,-0.1257102,0.09433498,0,0.3,0,0,0,0,
6.38224E+17,3.392634,33.2438,35.79136,-9.881886,12.64682,144.8852,-16.98673,-0.4441859,-4.27255,-61.51973,-6.909645,34.57793,0,0,0,11.21509,-11.71428,20.83232,-36.05464,-110.6632,-50.32285,0.001067912,-0.1257102,0.09433498,0,0.3,0,0,0,0,
6.38224E+17,1.083758,34.95041,37.47236,-15.15554,11.47489,144.7387,-16.98673,-0.4441859,-4.27255,-61.44649,-6.909645,34.57793,0,0,0,3.601747,-6.090961,22.04331,-36.05464,-110.6632,-50.32285,0.001067912,-0.1257102,0.09433498,0,0.3,0,0,0,0,
6.38224E+17,-1.884797,37.49864,41.25462,-24.97039,8.105616,144.7387,-16.98673,-0.4441859,-4.27255,-61.51973,-6.909645,34.57793,0,0,0,-6.371691,4.275071,25.27263,-36.05464,-110.6632,-50.32285,0.001067912,-0.1257102,0.09433498,0,0.3,0,0,0,0,
6.38224E+17,-2.591596,39.11173,43.70608,-31.92868,4.882828,144.8119,-16.98673,-0.4441859,-4.27255,-61.44649,-6.909645,34.57793,0,0,0,-8.844699,11.07392,27.0579,-36.05464,-110.6632,-50.32285,0.001067912,-0.1257102,0.09433498,0,0.3,0,0,0,0,
6.38224E+17,-2.426676,40.02348,44.47654,-34.41902,3.271434,144.7387,-16.98673,-0.4441859,-4.27255,-61.44649,-6.909645,34.57793,0,0,0,-8.279502,13.95738,27.01883,-36.05464,-110.6632,-50.32285,0.001067912,-0.1257102,0.09433498,0,0.3,0,0,0,0,
6.38224E+17,-1.837677,41.8236,45.90073,-36.83611,0.4148723,144.8119,-16.98673,-0.4441859,-4.27255,-61.44649,-6.909645,34.57793,0,0,0,-6.257621,19.47429,26.68555,-36.05464,-110.6632,-50.32285,0.001067912,-0.1257102,0.09433498,0,0.3,0,0,0,0,
6.38224E+17,-1.743437,43.85751,48.16541,-38.15452,-2.441689,144.8852,-16.98673,-0.4441859,-4.27255,-61.51973,-6.98289,34.57793,0,0,0,-5.948188,26.80175,27.06908,-36.05464,-110.6632,-50.32285,0.001067912,-0.1257102,0.09433498,0,0.3,0,0,0,0,
6.38224E+17,-1.743437,44.90953,49.21603,-39.10671,-3.979838,144.8119,-16.98673,-0.4441859,-4.27255,-61.44649,-6.98289,34.50468,0,0,0,-5.945193,30.3883,26.97068,-36.05464,-110.6632,-50.32285,0.001067912,-0.1257102,0.09433498,0,0.3,0,0,0,0,
6.38224E+17,-1.295798,46.94343,50.96708,-41.01108,-7.056135,144.8852,-16.98673,-0.4441859,-4.27255,-61.51973,-6.98289,34.57793,0,0,0,-4.40125,36.80678,26.22513,-36.05464,-110.6632,-50.32285,0.001067912,-0.1257102,0.09433498,0,0.3,0,0,0,0,
6.38224E+17,-0.1884797,49.16436,52.39126,-42.3295,-10.20568,144.9584,-16.98673,-0.4441859,-4.27255,-61.44649,-6.98289,34.57793,0,0,0,-0.6343499,42.86211,24.48478,-36.05464,-110.6632,-50.32285,0.001067912,-0.1257102,0.09433498,0,0.3,0,0,0,0,
6.38224E+17,1.248678,51.82948,54.04892,-42.76897,-13.86794,144.8119,-16.98673,-0.4441859,-4.27255,-61.51973,-6.98289,34.57793,0,0,0,4.148293,49.8974,21.96493,-36.05464,-110.6632,-50.32285,0.001067912,-0.1257102,0.09433498,0,0.3,0,0,0,0,
6.38224E+17,2.073277,53.51271,55.28632,-42.91546,-16.28502,144.8119,-16.98673,-0.4441859,-4.27255,-61.51973,-6.98289,34.57793,0,0,0,6.834334,54.62231,20.43696,-36.05464,-110.6632,-50.32285,0.001067912,-0.1257102,0.09433498,0,0.3,0,0,0,0,
6.38224E+17,3.321954,55.73364,57.17745,-43.28168,-19.87404,144.7387,-16.98673,-0.4441859,-4.27255,-61.51973,-6.98289,34.57793,0,0,0,10.84427,61.27341,18.47818,-36.05464,-110.6632,-50.32285,0.001067912,-0.1257102,0.09433498,0,0.3,0,0,0,0,
6.38224E+17,3.981634,56.62201,58.15804,-43.50142,-21.63192,144.7387,-16.98673,-0.4441859,-4.27255,-61.44649,-6.98289,34.50468,0,0,0,12.96005,64.35262,17.84504,-36.05464,-110.6632,-50.32285,0.001067912,-0.1257102,0.09433498,0,0.3,0,0,0,0,
6.38224E+17,5.418791,58.58578,60.42272,-44.01414,-25.95339,144.8119,-16.98673,-0.4441859,-4.27255,-61.44649,-6.98289,34.57793,0,0,0,17.51559,71.33259,16.29926,-36.05464,-110.6632,-50.32285,0.001067912,-0.1257102,0.09433498,0,0.3,0,0,0,0,
6.38224E+17,5.93711,59.26375,61.26323,-44.38036,-27.56478,144.8852,-16.98673,-0.4441859,-4.27255,-61.44649,-6.98289,34.57793,0,0,0,19.14405,73.85533,15.73699,-36.05464,-110.6632,-50.32285,0.001067912,-0.1257102,0.09433498,0,0.3,0,0,0,0,
6.38224E+17,7.303588,60.50279,62.92088,-45.62553,-30.3481,144.9584,-16.98673,-0.4441859,-4.27255,-61.51973,-6.98289,34.57793,0,0,0,23.44103,78.71148,14.54498,-36.05464,-110.6632,-50.32285,0.001067912,-0.1257102,0.09433498,0,0.3,0,0,0,0,
6.38224E+17,9.188385,61.55481,64.27502,-46.50447,-33.20466,144.8852,-16.98673,-0.4441859,-4.27255,-61.44649,-6.909645,34.57793,0,0,0,29.32549,82.72026,12.94391,-36.05464,-110.6632,-50.32285,0.001067912,-0.1257102,0.09433498,0,0.3,0,0,0,0,
6.38224E+17,10.24858,61.97561,64.83536,-46.43123,-34.74281,144.8852,-16.98673,-0.4441859,-4.27255,-61.51973,-6.98289,34.57793,0,0,0,32.6211,84.36121,12.07254,-36.05464,-110.6632,-50.32285,0.001067912,-0.1257102,0.09433498,0,0.3,0,0,0,0,
6.38224E+17,12.20406,62.67696,65.53577,-45.33255,-37.67262,144.8852,-16.98673,-0.4441859,-4.27255,-61.44649,-6.909645,34.57793,0,0,0,38.59768,86.59894,10.11011,-36.05464,-110.6632,-50.32285,0.001067912,-0.1257102,0.09433498,0,0.3,0,0,0,0,
6.38224E+17,13.99462,63.2848,66.02607,-43.57467,-40.2362,144.8119,-16.98673,-0.4441859,-4.27255,-61.51973,-6.909645,34.57793,0,0,0,43.96344,88.28227,8.048315,-36.05464,-110.6632,-50.32285,0.001067912,-0.1257102,0.09433498,0,0.3,0,0,0,0,
6.38224E+17,15.69093,63.75236,66.51636,-40.86459,-42.50679,144.8119,-16.98673,-0.4441859,-4.27255,-61.51973,-6.98289,34.57793,0,0,0,49.02668,89.81214,6.173951,-36.05464,-110.6632,-50.32285,0.001067912,-0.1257102,0.09433498,0,0.3,0,0,0,0,
6.38224E+17,16.56265,64.00952,66.70313,-39.17995,-43.60548,144.8119,-16.98673,-0.4441859,-4.27255,-61.44649,-6.98289,34.50468,0,0,0,51.57217,90.47461,5.058189,-36.05464,-110.6632,-50.32285,0.001067912,-0.1257102,0.09433498,0,0.3,0,0,0,0,
6.38224E+17,18.40033,64.40695,66.77318,-35.15147,-45.50985,143.933,-16.98673,-0.4441859,-4.27255,-61.44649,-6.909645,34.57793,0,0,0,56.86394,91.02683,2.586025,-36.05464,-110.6632,-50.32285,0.001067912,-0.1257102,0.09433498,0,0.3,0,0,0,0,
6.38224E+17,20.33225,64.54722,66.6331,-30.31729,-46.75502,138.7326,-16.98673,-0.4441859,-4.27255,-61.44649,-6.98289,34.57793,0,0,0,62.44703,90.86805,0.1747137,-36.05464,-110.6632,-50.32285,0.001067912,-0.1257102,0.09433498,0,0.3,0,0,0,0,
6.38224E+17,21.46313,64.52384,66.5864,-26.72828,-47.19449,135.2168,-16.98673,-0.4441859,-4.27255,-61.44649,-6.98289,34.57793,0,0,0,65.76311,90.74491,-1.085017,-36.05464,-110.6632,-50.32285,0.001067912,-0.1257102,0.09433498,0,0.3,0,0,0,0,
6.38224E+17,23.183,64.50047,66.51636,-19.69674,-47.7072,128.991,-16.98673,-0.4441859,-4.27255,-61.44649,-6.98289,34.57793,0,0,0,70.74741,90.57195,-3.148598,-36.05464,-110.6632,-50.32285,0.001067912,-0.1257102,0.09433498,0,0.3,0,0,0,0,
6.38224E+17,24.64372,64.52384,66.23619,-13.76388,-47.92694,124.4498,-16.98673,-0.4441859,-4.27255,-61.51973,-6.98289,34.57793,0,0,0,74.80622,89.99794,-5.287885,-36.05464,-110.6632,-50.32285,0.001067912,-0.1257102,0.09433498,0,0.3,0,0,0,0,
6.38224E+17,26.08088,64.40695,65.7459,-8.490229,-47.92694,119.9085,-16.98673,-0.4441859,-4.27255,-61.51973,-6.909645,34.57793,0,0,0,78.77617,88.83829,-7.411888,-36.05464,-110.6632,-50.32285,0.001067912,-0.1257102,0.09433498,0,0.3,0,0,0,0,
6.38224E+17,27.14108,64.07965,64.9521,-3.070086,-47.56071,115.3673,-16.98673,-0.4441859,-4.27255,-61.51973,-6.98289,34.57793,0,0,0,81.70196,86.82816,-8.972227,-36.05464,-110.6632,-50.32285,0.001067912,-0.1257102,0.09433498,0,0.3,0,0,0,0,
6.38224E+17,27.32955,63.91601,64.48515,-1.312202,-47.19449,114.2687,-16.98673,-0.4441859,-4.27255,-61.44649,-6.98289,34.57793,0,0,0,82.16988,85.67851,-9.350059,-36.05464,-110.6632,-50.32285,0.001067912,-0.1257102,0.09433498,0,0.3,0,0,0,0,
6.38224E+17,27.37668,63.65885,63.29443,1.178134,-46.09581,113.0968,-16.98673,-0.4441859,-4.27255,-61.44649,-6.909645,34.57793,0,0,0,81.98671,82.92574,-10.02388,-36.05464,-110.6632,-50.32285,0.001067912,-0.1257102,0.09433498,0,0.3,0,0,0,0,
6.38224E+17,27.11752,63.51858,62.08038,2.276812,-44.63091,112.8038,-16.98673,-0.4441859,-4.27255,-61.44649,-6.909645,34.57793,0,0,0,80.81205,80.26999,-10.54838,-36.05464,-110.6632,-50.32285,0.001067912,-0.1257102,0.09433498,0,0.3,0,0,0,0,
6.38224E+17,26.97615,63.4952,61.4967,2.423302,-43.82521,112.9503,-16.98673,-0.4441859,-4.27255,-61.51973,-6.98289,34.57793,0,0,0,80.15327,79.04864,-10.87839,-36.05464,-110.6632,-50.32285,0.001067912,-0.1257102,0.09433498,0,0.3,0,0,0,0,
6.38224E+17,26.83479,63.4952,60.53946,2.057076,-42.28706,114.0489,-16.98673,-0.4441859,-4.27255,-61.44649,-6.98289,34.57793,0,0,0,79.27721,77.09978,-11.64433,-36.05464,-110.6632,-50.32285,0.001067912,-0.1257102,0.09433498,0,0.3,0,0,0,0,
6.38224E+17,26.9526,63.4952,60.23594,1.69085,-40.96865,114.6349,-16.98673,-0.4441859,-4.27255,-61.44649,-6.98289,34.57793,0,0,0,79.44102,76.48564,-12.1188,-36.05464,-110.6632,-50.32285,0.001067912,-0.1257102,0.09433498,0,0.3,0,0,0,0,
6.38224E+17,27.23532,63.4952,60.23594,1.324624,-40.16295,114.7814,-16.98673,-0.4441859,-4.27255,-61.51973,-6.98289,34.57793,0,0,0,80.21096,76.48564,-12.51269,-36.05464,-110.6632,-50.32285,0.001067912,-0.1257102,0.09433498,0,0.3,0,0,0,0,
6.38224E+17,27.40023,63.47182,60.23594,1.178134,-39.94322,114.7814,-16.98673,-0.4441859,-4.27255,-61.44649,-6.98289,34.57793,0,0,0,80.68159,76.46135,-12.70099,-36.05464,-110.6632,-50.32285,0.001067912,-0.1257102,0.09433498,0,0.3,0,0,0,0,
6.38224E+17,27.84787,63.37831,60.23594,1.178134,-39.72348,114.7814,-16.98673,-0.4441859,-4.27255,-61.51973,-6.98289,34.57793,0,0,0,81.98609,76.36398,-13.16397,-36.05464,-110.6632,-50.32285,0.001067912,-0.1257102,0.09433498,0,0.3,0,0,0,0,
6.38224E+17,28.24839,63.1679,60.25929,1.54436,-39.57699,114.6349,-16.98673,-0.4441859,-4.27255,-61.44649,-6.909645,34.57793,0,0,0,83.28867,76.19093,-13.33183,-36.05464,-110.6632,-50.32285,0.001067912,-0.1257102,0.09433498,0,0.3,0,0,0,0,
6.38224E+17,29.19079,62.7471,60.42272,2.496547,-39.57699,113.0968,-16.98673,-0.4441859,-4.27255,-61.44649,-6.98289,34.57793,0,0,0,86.34425,76.07619,-13.79683,-36.05464,-110.6632,-50.32285,0.001067912,-0.1257102,0.09433498,0,0.3,0,0,0,0,
6.38224E+17,29.73267,62.48994,60.63285,3.155754,-39.57699,112.0713,-16.98673,-0.4441859,-4.27255,-61.44649,-6.909645,34.57793,0,0,0,88.18497,76.22668,-13.94991,-36.05464,-110.6632,-50.32285,0.001067912,-0.1257102,0.09433498,0,0.3,0,0,0,0,
6.38224E+17,31.26407,61.62495,61.45,6.012315,-39.57699,108.7753,-16.98673,-0.4441859,-4.27255,-61.44649,-6.98289,34.50468,0,0,0,93.68067,76.94738,-14.05447,-36.05464,-110.6632,-50.32285,0.001067912,-0.1257102,0.09433498,0,0.3,0,0,0,0,
6.38224E+17,32.98395,60.57293,62.12708,10.40703,-39.4305,104.6736,-16.98673,-0.4441859,-4.27255,-61.44649,-6.98289,34.57793,0,0,0,99.8418,77.15266,-14.51275,-36.05464,-110.6632,-50.32285,0.001067912,-0.1257102,0.09433498,0,0.3,0,0,0,0,
6.38224E+17,34.6567,59.61442,62.43059,14.72849,-38.99103,101.0113,-16.98673,-0.4441859,-4.27255,-61.44649,-6.98289,34.57793,0,0,0,105.5764,76.66575,-15.63184,-36.05464,-110.6632,-50.32285,0.001067912,-0.1257102,0.09433498,0,0.3,0,0,0,0,
6.38224E+17,35.55198,59.17023,62.64072,16.8526,-38.47831,99.03368,-16.98673,-0.4441859,-4.27255,-61.51973,-6.98289,34.57793,0,0,0,108.5982,76.57331,-16.39271,-36.05464,-110.6632,-50.32285,0.001067912,-0.1257102,0.09433498,0,0.3,0,0,0,0,
6.38224E+17,37.34254,58.44551,63.5746,20.73459,-37.67262,95.37142,-16.98673,-0.4441859,-4.27255,-61.44649,-6.98289,34.57793,0,0,0,114.7648,77.63821,-17.93145,-36.05464,-110.6632,-50.32285,0.001067912,-0.1257102,0.09433498,0,0.3,0,0,0,0,
6.38224E+17,39.20378,57.487,65.46573,25.64202,-37.01341,91.04996,-16.98673,-0.4441859,-4.27255,-61.44649,-6.98289,34.57793,0,0,0,121.9818,80.42809,-18.80564,-36.05464,-110.6632,-50.32285,0.001067912,-0.1257102,0.09433498,0,0.3,0,0,0,0,
6.38224E+17,40.02837,56.87917,66.5864,28.35209,-36.72043,88.77935,-16.98673,-0.4441859,-4.27255,-61.51973,-6.98289,34.57793,0,0,0,125.5676,82.04459,-18.85477,-36.05464,-110.6632,-50.32285,0.001067912,-0.1257102,0.09433498,0,0.3,0,0,0,0,
6.38224E+17,41.55977,55.31283,69.66824,34.87091,-36.06122,83.57895,-16.98673,-0.4441859,-4.27255,-61.44649,-6.909645,34.57793,0,0,0,133.2976,86.66672,-18.00078,-36.05464,-110.6632,-50.32285,0.001067912,-0.1257102,0.09433498,0,0.3,0,0,0,0,
6.38224E+17,42.24301,54.21405,72.23644,39.99807,-35.62175,79.91669,-16.98673,-0.4441859,-4.27255,-61.44649,-6.909645,34.57793,0,0,0,137.7965,90.84078,-16.61073,-36.05464,-110.6632,-50.32285,0.001067912,-0.1257102,0.09433498,0,0.3,0,0,0,0,
6.38224E+17,42.47861,53.65298,73.70732,43.00113,-35.40202,77.71934,-16.98673,-0.4441859,-4.27255,-61.51973,-6.98289,34.50468,0,0,0,139.8091,93.34515,-15.66078,-36.05464,-110.6632,-50.32285,0.001067912,-0.1257102,0.09433498,0,0.3,0,0,0,0,
6.38224E+17,42.69065,52.71785,75.99535,48.12829,-35.03579,73.91058,-16.98673,-0.4441859,-4.27255,-61.44649,-6.98289,34.57793,0,0,0,142.4981,97.18077,-13.87575,-36.05464,-110.6632,-50.32285,0.001067912,-0.1257102,0.09433498,0,0.3,0,0,0,0,
6.38224E+17,42.87913,51.68921,77.41953,52.15677,-34.59632,71.12727,-16.98673,-0.4441859,-4.27255,-61.44649,-6.98289,34.57793,0,0,0,144.8113,98.93932,-12.40064,-36.05464,-110.6632,-50.32285,0.001067912,-0.1257102,0.09433498,0,0.3,0,0,0,0,
6.38224E+17,43.11473,50.77746,77.6997,54.72035,-33.93711,69.44263,-16.98673,-0.4441859,-4.27255,-61.44649,-6.909645,34.57793,0,0,0,146.6781,98.2474,-11.68711,-36.05464,-110.6632,-50.32285,0.001067912,-0.1257102,0.09433498,0,0.3,0,0,0,0,
6.38224E+17,43.37389,50.07611,77.27945,56.03876,-33.05817,68.56369,-16.98673,-0.4441859,-4.27255,-61.44649,-6.98289,34.57793,0,0,0,148.1038,96.25265,-11.5916,-36.05464,-110.6632,-50.32285,0.001067912,-0.1257102,0.09433498,0,0.3,0,0,0,0,
6.38224E+17,43.44457,49.74882,76.88255,56.18526,-32.6187,68.4172,-16.98673,-0.4441859,-4.27255,-61.51973,-6.909645,34.57793,0,0,0,148.5558,94.86176,-11.50124,-36.05464,-110.6632,-50.32285,0.001067912,-0.1257102,0.09433498,0,0.3,0,0,0,0,
6.38224E+17,43.53881,49.02409,76.04205,55.89228,-31.44678,69.07641,-16.98673,-0.4441859,-4.27255,-61.44649,-6.909645,34.57793,0,0,0,149.3801,91.86197,-11.14956,-36.05464,-110.6632,-50.32285,0.001067912,-0.1257102,0.09433498,0,0.3,0,0,0,0,
6.38224E+17,43.53881,48.29937,75.29494,54.94009,-30.3481,70.32157,-16.98673,-0.4441859,-4.27255,-61.51973,-6.98289,34.57793,0,0,0,149.956,89.06319,-10.54353,-36.05464,-110.6632,-50.32285,0.001067912,-0.1257102,0.09433498,0,0.3,0,0,0,0,
6.38224E+17,43.53881,48.01883,74.92138,54.35413,-29.98187,70.98078,-16.98673,-0.4441859,-4.27255,-61.51973,-6.98289,34.57793,0,0,0,150.1372,87.78744,-10.35289,-36.05464,-110.6632,-50.32285,0.001067912,-0.1257102,0.09433498,0,0.3,0,0,0,0,
6.38224E+17,43.49169,47.411,74.05753,53.10896,-29.39591,72.1527,-16.98673,-0.4441859,-4.27255,-61.44649,-6.98289,34.57793,0,0,0,150.3575,84.89835,-9.860248,-36.05464,-110.6632,-50.32285,0.001067912,-0.1257102,0.09433498,0,0.3,0,0,0,0,
6.38224E+17,43.42101,46.7564,73.31042,51.86379,-28.88319,73.32462,-16.98673,-0.4441859,-4.27255,-61.44649,-6.98289,34.57793,0,0,0,150.593,82.19218,-9.219318,-36.05464,-110.6632,-50.32285,0.001067912,-0.1257102,0.09433498,0,0.3,0,0,0,0,
6.38224E+17,43.32677,46.14857,73.14698,50.69187,-28.51697,74.20357,-16.98673,-0.4441859,-4.27255,-61.44649,-6.98289,34.57793,0,0,0,150.9593,80.85335,-8.305787,-36.05464,-110.6632,-50.32285,0.001067912,-0.1257102,0.09433498,0,0.3,0,0,0,0,
6.38224E+17,43.30321,45.96155,73.19368,50.17915,-28.37048,74.42331,-16.98673,-0.4441859,-4.27255,-61.44649,-6.98289,34.57793,0,0,0,151.13,80.6553,-7.992752,-36.05464,-110.6632,-50.32285,0.001067912,-0.1257102,0.09433498,0,0.3,0,0,0,0,
6.38224E+17,43.25609,45.86803,73.28707,49.59319,-28.29723,74.64304,-16.98673,-0.4441859,-4.27255,-61.51973,-6.98289,34.57793,0,0,0,151.1481,80.712,-7.709013,-36.05464,-110.6632,-50.32285,0.001067912,-0.1257102,0.09433498,0,0.3,0,0,0,0,
6.38224E+17,43.23253,45.84466,73.42715,49.37346,-28.44372,74.71628,-16.98673,-0.4441859,-4.27255,-61.51973,-6.909645,34.57793,0,0,0,151.1728,80.98647,-7.550395,-36.05464,-110.6632,-50.32285,0.001067912,-0.1257102,0.09433498,0,0.3,0,0,0,0,
6.38224E+17,43.23253,45.84466,73.42715,49.37346,-28.51697,74.71628,-16.98673,-0.4441859,-4.27255,-61.51973,-6.98289,34.57793,0,0,0,151.1728,80.98647,-7.550395,-36.05464,-110.6632,-50.32285,0.001067912,-0.1257102,0.09433498,0,0.3,0,0,0,0,
6.38224E+17,43.23253,45.84466,73.40381,49.22696,-28.51697,74.71628,-16.98673,-0.4441859,-4.27255,-61.51973,-6.98289,34.57793,0,0,0,151.1621,80.93439,-7.561696,-36.05464,-110.6632,-50.32285,0.001067912,-0.1257102,0.09433498,0,0.3,0,0,0,0,
6.38224E+17,43.23253,45.84466,73.38046,49.22696,-28.51697,74.71628,-16.98673,-0.4441859,-4.27255,-61.44649,-6.909645,34.57793,0,0,0,151.1515,80.88232,-7.573011,-36.05464,-110.6632,-50.32285,0.001067912,-0.1257102,0.09433498,0,0.3,0,0,0,0,
6.38224E+17,43.25609,45.84466,73.14698,49.22696,-28.44372,74.71628,-16.98673,-0.4441859,-4.27255,-61.44649,-6.98289,34.50468,0,0,0,151.1104,80.36196,-7.749139,-36.05464,-110.6632,-50.32285,0.001067912,-0.1257102,0.09433498,0,0.3,0,0,0,0,
6.38224E+17,43.25609,45.84466,72.82012,49.22696,-28.44372,74.78953,-16.98673,-0.4441859,-4.27255,-61.44649,-6.98289,34.57793,0,0,0,150.9578,79.63453,-7.911278,-36.05464,-110.6632,-50.32285,0.001067912,-0.1257102,0.09433498,0,0.3,0,0,0,0,
6.38224E+17,43.25609,45.72776,71.74615,49.08047,-28.0775,75.15575,-16.98673,-0.4441859,-4.27255,-61.44649,-6.98289,34.57793,0,0,0,150.5702,77.06384,-8.323238,-36.05464,-110.6632,-50.32285,0.001067912,-0.1257102,0.09433498,0,0.3,0,0,0,0,
6.38224E+17,43.23253,45.49398,70.04179,48.27478,-27.2718,76.54742,-16.98673,-0.4441859,-4.27255,-61.51973,-6.98289,34.57793,0,0,0,149.8814,72.93517,-8.923984,-36.05464,-110.6632,-50.32285,0.001067912,-0.1257102,0.09433498,0,0.3,0,0,0,0,
6.38224E+17,43.23253,45.28358,68.99117,47.61557,-26.61259,77.4996,-16.98673,-0.4441859,-4.27255,-61.51973,-6.98289,34.57793,0,0,0,149.5341,70.30067,-9.293416,-36.05464,-110.6632,-50.32285,0.001067912,-0.1257102,0.09433498,0,0.3,0,0,0,0,
6.38224E+17,43.23253,44.55886,66.79652,45.93093,-25.07445,79.91669,-16.98673,-0.4441859,-4.27255,-61.44649,-6.98289,34.57793,0,0,0,149.0334,64.37432,-9.826028,-36.05464,-110.6632,-50.32285,0.001067912,-0.1257102,0.09433498,0,0.3,0,0,0,0,
6.38224E+17,43.23253,43.55359,64.29837,43.00113,-22.95034,82.91974,-16.98673,-0.4441859,-4.27255,-61.51973,-6.98289,34.57793,0,0,0,148.4993,57.40066,-10.39407,-36.05464,-110.6632,-50.32285,0.001067912,-0.1257102,0.09433498,0,0.3,0,0,0,0,
6.38224E+17,43.20897,43.27305,63.6213,41.68271,-22.14464,83.87193,-16.98673,-0.4441859,-4.27255,-61.44649,-6.909645,34.57793,0,0,0,148.268,55.51053,-10.51017,-36.05464,-110.6632,-50.32285,0.001067912,-0.1257102,0.09433498,0,0.3,0,0,0,0,
6.38224E+17,43.16185,43.03927,62.87419,40.3643,-21.11921,84.82411,-16.98673,-0.4441859,-4.27255,-61.51973,-6.909645,34.57793,0,0,0,147.8573,53.56092,-10.68775,-36.05464,-110.6632,-50.32285,0.001067912,-0.1257102,0.09433498,0,0.3,0,0,0,0,
6.38224E+17,43.04405,42.96914,62.31385,39.92483,-20.75298,85.33684,-16.98673,-0.4441859,-4.27255,-61.51973,-6.909645,34.57793,0,0,0,147.1991,52.28379,-10.74142,-36.05464,-110.6632,-50.32285,0.001067912,-0.1257102,0.09433498,0,0.3,0,0,0,0,
6.38224E+17,42.14877,42.19766,58.18139,37.87396,-18.92185,88.26664,-16.98673,-0.4441859,-4.27255,-61.44649,-6.909645,34.57793,0,0,0,142.3316,42.61353,-11.09779,-36.05464,-110.6632,-50.32285,0.001067912,-0.1257102,0.09433498,0,0.3,0,0,0,0,
6.38224E+17,41.84249,41.51969,56.59377,36.99502,-17.96966,89.58505,-16.98673,-0.4441859,-4.27255,-61.44649,-6.98289,34.57793,0,0,0,140.8629,38.32599,-11.03832,-36.05464,-110.6632,-50.32285,0.001067912,-0.1257102,0.09433498,0,0.3,0,0,0,0,
6.38224E+17,41.08857,39.41565,53.69871,34.50468,-15.40608,92.44161,-16.98673,-0.4441859,-4.27255,-61.44649,-6.98289,34.57793,0,0,0,138.3391,29.07208,-9.705103,-36.05464,-110.6632,-50.32285,0.001067912,-0.1257102,0.09433498,0,0.3,0,0,0,0,
6.38224E+17,40.59381,37.24148,51.7142,31.9411,-12.40303,95.0052,-16.98673,-0.4441859,-4.27255,-61.51973,-6.909645,34.57793,0,0,0,137.185,21.42856,-8.258568,-36.05464,-110.6632,-50.32285,0.001067912,-0.1257102,0.09433498,0,0.3,0,0,0,0,
6.38224E+17,40.40533,36.30635,51.08382,30.76918,-10.71839,96.03063,-16.98673,-0.4441859,-4.27255,-61.44649,-6.909645,34.57793,0,0,0,136.9088,18.53868,-7.513016,-36.05464,-110.6632,-50.32285,0.001067912,-0.1257102,0.09433498,0,0.3,0,0,0,0,
6.38224E+17,40.05193,35.32447,50.64022,29.0113,-8.154812,97.12931,-16.98673,-0.4441859,-4.27255,-61.51973,-6.909645,34.57793,0,0,0,136.3553,15.88482,-6.146836,-36.05464,-110.6632,-50.32285,0.001067912,-0.1257102,0.09433498,0,0.3,0,0,0,0,
6.38224E+17,39.67498,35.605,50.94373,27.98586,-6.543418,97.64202,-16.98673,-0.4441859,-4.27255,-61.51973,-6.909645,34.57793,0,0,0,135.3285,16.96396,-5.201129,-36.05464,-110.6632,-50.32285,0.001067912,-0.1257102,0.09433498,0,0.3,0,0,0,0,
6.38224E+17,39.51006,36.11932,51.41068,27.61964,-6.250438,97.86176,-16.98673,-0.4441859,-4.27255,-61.51973,-6.909645,34.57793,0,0,0,134.8456,18.78075,-4.827672,-36.05464,-110.6632,-50.32285,0.001067912,-0.1257102,0.09433498,0,0.3,0,0,0,0,
6.38224E+17,39.39226,37.94283,53.16172,27.47315,-6.616664,97.86176,-16.98673,-0.4441859,-4.27255,-61.44649,-6.909645,34.57793,0,0,0,134.4692,25.39244,-4.599429,-36.05464,-110.6632,-50.32285,0.001067912,-0.1257102,0.09433498,0,0.3,0,0,0,0,
6.38224E+17,39.53362,40.84172,56.45369,28.93805,-8.740773,98.00825,-16.98673,-0.4441859,-4.27255,-61.44649,-6.98289,34.57793,0,0,0,134.9579,36.86647,-4.828562,-36.05464,-110.6632,-50.32285,0.001067912,-0.1257102,0.09433498,0,0.3,0,0,0,0,
6.38224E+17,39.34513,43.46008,59.25536,31.50163,-11.59733,97.71527,-16.98673,-0.4441859,-4.27255,-61.51973,-6.98289,34.57793,0,0,0,134.0261,46.90445,-4.865068,-36.05464,-110.6632,-50.32285,0.001067912,-0.1257102,0.09433498,0,0.3,0,0,0,0,
6.38224E+17,39.03886,44.60561,60.32933,33.11303,-13.50171,97.27579,-16.98673,-0.4441859,-4.27255,-61.51973,-6.98289,34.57793,0,0,0,132.7752,50.98131,-4.613496,-36.05464,-110.6632,-50.32285,0.001067912,-0.1257102,0.09433498,0,0.3,0,0,0,0,
6.38224E+17,38.21426,45.93817,61.07645,35.74985,-17.01748,96.54334,-16.98673,-0.4441859,-4.27255,-61.51973,-6.98289,34.57793,0,0,0,129.5684,54.68025,-3.78227,-36.05464,-110.6632,-50.32285,0.001067912,-0.1257102,0.09433498,0,0.3,0,0,0,0,
6.38224E+17,37.6017,45.89141,60.53946,36.92178,-19.14159,96.10387,-16.98673,-0.4441859,-4.27255,-61.44649,-6.909645,34.57793,0,0,0,127.4773,53.5135,-2.827475,-36.05464,-110.6632,-50.32285,0.001067912,-0.1257102,0.09433498,0,0.3,0,0,0,0,
6.38224E+17,37.41322,44.93291,59.48883,36.92178,-19.72755,96.32361,-16.98673,-0.4441859,-4.27255,-61.44649,-6.98289,34.57793,0,0,0,127.1549,49.82957,-2.117806,-36.05464,-110.6632,-50.32285,0.001067912,-0.1257102,0.09433498,0,0.3,0,0,0,0,
6.38224E+17,37.29542,43.2263,57.83118,36.33582,-18.9951,97.42229,-16.98673,-0.4441859,-4.27255,-61.51973,-6.909645,34.57793,0,0,0,127.2712,43.68132,-1.254939,-36.05464,-110.6632,-50.32285,0.001067912,-0.1257102,0.09433498,0,0.3,0,0,0,0,
6.38224E+17,37.22474,42.10415,56.78055,35.89634,-18.11616,98.08149,-16.98673,-0.4441859,-4.27255,-61.44649,-6.909645,34.50468,0,0,0,127.3367,39.70311,-0.7404023,-36.05464,-110.6632,-50.32285,0.001067912,-0.1257102,0.09433498,0,0.3,0,0,0,0,
6.38224E+17,36.98914,39.64943,54.53922,34.50468,-15.69907,99.54639,-16.98673,-0.4441859,-4.27255,-61.51973,-6.98289,34.50468,0,0,0,127.1254,31.07668,0.4176735,-36.05464,-110.6632,-50.32285,0.001067912,-0.1257102,0.09433498,0,0.3,0,0,0,0,
6.38224E+17,36.49438,36.91418,51.85428,32.7468,-12.62277,101.4508,-16.98673,-0.4441859,-4.27255,-61.44649,-6.98289,34.57793,0,0,0,125.7825,21.07698,1.670201,-36.05464,-110.6632,-50.32285,0.001067912,-0.1257102,0.09433498,0,0.3,0,0,0,0,
6.38224E+17,36.0703,35.46473,50.4301,31.72137,-10.71839,102.403,-16.98673,-0.4441859,-4.27255,-61.51973,-6.909645,34.57793,0,0,0,124.469,15.77339,2.525639,-36.05464,-110.6632,-50.32285,0.001067912,-0.1257102,0.09433498,0,0.3,0,0,0,0,
6.38224E+17,34.82162,32.77624,47.69846,29.30428,-6.763155,104.2341,-16.98673,-0.4441859,-4.27255,-61.44649,-6.98289,34.57793,0,0,0,120.3414,5.79144,4.65925,-36.05464,-110.6632,-50.32285,0.001067912,-0.1257102,0.09433498,0,0.3,0,0,0,0,
6.38224E+17,33.21954,30.53193,45.41043,26.37447,-3.174141,105.9187,-16.98673,-0.4441859,-4.27255,-61.51973,-6.98289,34.57793,0,0,0,114.953,-2.520553,7.185897,-36.05464,-110.6632,-50.32285,0.001067912,-0.1257102,0.09433498,0,0.3,0,0,0,0,
6.38224E+17,31.52323,28.98897,43.77612,23.59116,-0.2443342,107.6034,-16.98673,-0.4441859,-4.27255,-61.51973,-6.98289,34.57793,0,0,0,109.2222,-8.308269,9.722398,-36.05464,-110.6632,-50.32285,0.001067912,-0.1257102,0.09433498,0,0.3,0,0,0,0,
6.38224E+17,30.60439,28.52141,43.23914,22.1995,0.9275885,108.2626,-16.98673,-0.4441859,-4.27255,-61.51973,-6.98289,34.57793,0,0,0,106.1576,-10.12269,11.1214,-36.05464,-110.6632,-50.32285,0.001067912,-0.1257102,0.09433498,0,0.3,0,0,0,0,
6.38224E+17,28.67247,28.28763,42.74884,19.48943,2.612227,109.9472,-16.98673,-0.4441859,-4.27255,-61.51973,-6.909645,34.57793,0,0,0,99.77071,-11.37943,14.09296,-36.05464,-110.6632,-50.32285,0.001067912,-0.1257102,0.09433498,0,0.3,0,0,0,0,
6.38224E+17,26.64632,28.49803,42.74884,17.07234,3.710905,112.4375,-16.98673,-0.4441859,-4.27255,-61.51973,-6.909645,34.57793,0,0,0,93.1535,-10.94864,17.29824,-36.05464,-110.6632,-50.32285,0.001067912,-0.1257102,0.09433498,0,0.3,0,0,0,0,
6.38224E+17,25.72748,28.80194,42.74884,16.0469,3.93064,113.756,-16.98673,-0.4441859,-4.27255,-61.51973,-6.909645,34.50468,0,0,0,90.01723,-10.32791,18.46267,-36.05464,-110.6632,-50.32285,0.001067912,-0.1257102,0.09433498,0,0.3,0,0,0,0,
6.38224E+17,23.8898,29.87734,42.65545,14.28902,4.003886,117.5647,-16.98673,-0.4441859,-4.27255,-61.44649,-6.98289,34.57793,0,0,0,83.41888,-8.293517,19.98593,-36.05464,-110.6632,-50.32285,0.001067912,-0.1257102,0.09433498,0,0.3,0,0,0,0,
6.38224E+17,22.19348,31.63071,42.56207,12.67763,3.564415,121.227,-16.98673,-0.4441859,-4.27255,-61.51973,-6.98289,34.57793,0,0,0,76.95859,-4.933901,20.29259,-36.05464,-110.6632,-50.32285,0.001067912,-0.1257102,0.09433498,0,0.3,0,0,0,0,
6.38224E+17,21.43956,32.63597,42.56207,11.87193,2.978453,122.8384,-16.98673,-0.4441859,-4.27255,-61.44649,-6.98289,34.57793,0,0,0,74.01491,-2.952686,20.13057,-36.05464,-110.6632,-50.32285,0.001067912,-0.1257102,0.09433498,0,0.3,0,0,0,0,
6.38224E+17,19.93173,35.02055,42.70215,9.967555,1.440305,125.7682,-16.98673,-0.4441859,-4.27255,-61.44649,-6.98289,34.57793,0,0,0,68.05825,1.878118,19.33405,-36.05464,-110.6632,-50.32285,0.001067912,-0.1257102,0.09433498,0,0.3,0,0,0,0,
6.38224E+17,18.21185,37.38175,42.88893,7.696954,-0.7570504,128.6247,-16.98673,-0.4441859,-4.27255,-61.44649,-6.98289,34.57793,0,0,0,61.48,6.607678,18.51221,-36.05464,-110.6632,-50.32285,0.001067912,-0.1257102,0.09433498,0,0.3,0,0,0,0,
6.38224E+17,15.69093,39.15849,43.21579,4.693902,-3.174141,132.58,-16.98673,-0.4441859,-4.27255,-61.51973,-6.98289,34.57793,0,0,0,52.65923,10.37341,19.10503,-36.05464,-110.6632,-50.32285,0.001067912,-0.1257102,0.09433498,0,0.3,0,0,0,0,
6.38224E+17,14.23022,39.85984,43.5193,2.789528,-4.199574,134.8506,-16.98673,-0.4441859,-4.27255,-61.44649,-6.98289,34.57793,0,0,0,47.73455,12.11783,19.87764,-36.05464,-110.6632,-50.32285,0.001067912,-0.1257102,0.09433498,0,0.3,0,0,0,0,
6.38224E+17,10.46062,40.98199,44.28976,-1.678428,-6.616664,142.5413,-16.98673,-0.4441859,-4.27255,-61.51973,-6.98289,34.57793,0,0,0,35.18349,15.34957,22.21393,-36.05464,-110.6632,-50.32285,0.001067912,-0.1257102,0.09433498,0,0.3,0,0,0,0,
6.38224E+17,4.311473,41.30928,45.92407,-8.929699,-8.740773,144.8119,-16.98673,-0.4441859,-4.27255,-61.44649,-6.909645,34.57793,0,0,0,14.73256,18.61773,27.06336,-36.05464,-110.6632,-50.32285,0.001067912,-0.1257102,0.09433498,0,0.3,0,0,0,0,
6.38224E+17,0.3298394,41.09888,47.3716,-15.08229,-9.619716,144.8852,-16.98673,-0.4441859,-4.27255,-61.44649,-6.909645,34.57793,0,0,0,1.143309,20.69898,30.2499,-36.05464,-110.6632,-50.32285,0.001067912,-0.1257102,0.09433498,0,0.3,0,0,0,0,
6.38224E+17,-2.167516,40.74821,48.44558,-19.40376,-10.05919,144.8119,-16.98673,-0.4441859,-4.27255,-61.51973,-6.909645,34.57793,0,0,0,-7.595015,21.93714,32.3196,-36.05464,-110.6632,-50.32285,0.001067912,-0.1257102,0.09433498,0,0.3,0,0,0,0,
6.38224E+17,-6.172709,39.67281,50.73361,-28.7059,-10.49866,144.8119,-16.98673,-0.4441859,-4.27255,-61.51973,-6.98289,34.57793,0,0,0,-22.13752,24.0802,36.33732,-36.05464,-110.6632,-50.32285,0.001067912,-0.1257102,0.09433498,0,0.3,0,0,0,0,
6.38224E+17,-8.717185,38.64417,51.73754,-36.46988,-10.49866,144.9584,-16.98673,-0.4441859,-4.27255,-61.44649,-6.98289,34.57793,0,0,0,-31.6536,24.04571,38.09304,-36.05464,-110.6632,-50.32285,0.001067912,-0.1257102,0.09433498,0,0.3,0,0,0,0,
6.38224E+17,-9.706704,38.17661,51.78423,-39.69267,-10.42541,144.8852,-16.98673,-0.4441859,-4.27255,-61.51973,-6.98289,34.57793,0,0,0,-35.33938,23.27837,38.24833,-36.05464,-110.6632,-50.32285,0.001067912,-0.1257102,0.09433498,0,0.3,0,0,0,0,
6.38224E+17,-11.30878,37.56877,51.31729,-44.38036,-9.106999,144.8119,-16.98673,-0.4441859,-4.27255,-61.51973,-6.98289,34.57793,0,0,0,-41.1394,21.31056,37.36852,-36.05464,-110.6632,-50.32285,0.001067912,-0.1257102,0.09433498,0,0.3,0,0,0,0,
6.38224E+17,-12.72238,37.2181,50.31336,-47.5299,-7.27587,144.9584,-16.98673,-0.4441859,-4.27255,-61.44649,-6.98289,34.57793,0,0,0,-45.98588,18.85107,35.33447,-36.05464,-110.6632,-50.32285,0.001067912,-0.1257102,0.09433498,0,0.3,0,0,0,0,
6.38224E+17,-13.90038,37.12459,48.98256,-49.50752,-5.078516,144.8119,-16.98673,-0.4441859,-4.27255,-61.51973,-6.98289,34.57793,0,0,0,-49.71344,16.31732,32.52701,-36.05464,-110.6632,-50.32285,0.001067912,-0.1257102,0.09433498,0,0.3,0,0,0,0,
6.38224E+17,-14.51294,37.12459,48.00198,-50.53296,-3.613612,144.8852,-16.98673,-0.4441859,-4.27255,-61.51973,-6.98289,34.57793,0,0,0,-51.47915,14.60827,30.51985,-36.05464,-110.6632,-50.32285,0.001067912,-0.1257102,0.09433498,0,0.3,0,0,0,0,
6.38224E+17,-14.93702,37.24148,47.02139,-51.33865,-2.148709,144.9584,-16.98673,-0.4441859,-4.27255,-61.44649,-6.98289,34.57793,0,0,0,-52.50997,13.1421,28.48513,-36.05464,-110.6632,-50.32285,0.001067912,-0.1257102,0.09433498,0,0.3,0,0,0,0,
6.38224E+17,-15.31397,37.89607,45.45713,-51.85137,-0.3175794,144.8852,-16.98673,-0.4441859,-4.27255,-61.44649,-6.98289,34.57793,0,0,0,-52.89349,11.72031,24.81091,-36.05464,-110.6632,-50.32285,0.001067912,-0.1257102,0.09433498,0,0.3,0,0,0,0,
6.38224E+17,-15.36109,38.36363,44.47654,-51.77813,0.5613627,144.8852,-16.98673,-0.4441859,-4.27255,-61.51973,-6.98289,34.57793,0,0,0,-52.44661,10.9635,22.56245,-36.05464,-110.6632,-50.32285,0.001067912,-0.1257102,0.09433498,0,0.3,0,0,0,0,
6.38224E+17,-14.93702,40.09362,41.30132,-50.31322,2.099511,144.8852,-16.98673,-0.4441859,-4.27255,-61.51973,-6.98289,34.57793,0,0,0,-48.98038,9.053469,15.25435,-36.05464,-110.6632,-50.32285,0.001067912,-0.1257102,0.09433498,0,0.3,0,0,0,0,
6.38224E+17,-14.4187,40.6547,40.41412,-49.72726,2.392492,144.8119,-16.98673,-0.4441859,-4.27255,-61.51973,-6.98289,34.57793,0,0,0,-46.71793,8.697519,13.35816,-36.05464,-110.6632,-50.32285,0.001067912,-0.1257102,0.09433498,0,0.3,0,0,0,0,
6.38224E+17,-12.72238,41.96388,39.10667,-47.82288,2.831963,144.9584,-16.98673,-0.4441859,-4.27255,-61.51973,-6.98289,34.57793,0,0,0,-40.36044,9.040069,10.4178,-36.05464,-110.6632,-50.32285,0.001067912,-0.1257102,0.09433498,0,0.3,0,0,0,0,
6.38224E+17,-10.60198,43.57697,38.24282,-45.11281,2.319247,144.8852,-16.98673,-0.4441859,-4.27255,-61.44649,-6.909645,34.57793,0,0,0,-32.96067,10.53959,7.740085,-36.05464,-110.6632,-50.32285,0.001067912,-0.1257102,0.09433498,0,0.3,0,0,0,0,
6.38224E+17,-9.471104,44.39521,37.89261,-43.42817,1.953021,144.8852,-16.98673,-0.4441859,-4.27255,-61.51973,-6.98289,34.57793,0,0,0,-29.15567,11.40721,6.418851,-36.05464,-110.6632,-50.32285,0.001067912,-0.1257102,0.09433498,0,0.3,0,0,0,0,
6.38224E+17,-6.808829,46.14857,37.26224,-39.47293,0.6346079,144.8852,-16.98673,-0.4441859,-4.27255,-61.44649,-6.98289,34.57793,0,0,0,-20.52485,13.38422,3.551275,-36.05464,-110.6632,-50.32285,0.001067912,-0.1257102,0.09433498,0,0.3,0,0,0,0,
6.38224E+17,-4.193673,47.55127,36.77194,-35.22471,-0.6838052,144.8852,-16.98673,-0.4441859,-4.27255,-61.44649,-6.909645,34.57793,0,0,0,-12.4193,14.92987,1.024742,-36.05464,-110.6632,-50.32285,0.001067912,-0.1257102,0.09433498,0,0.3,0,0,0,0,
6.38224E+17,-2.827195,48.13572,36.63186,-33.02736,-1.489502,144.9584,-16.98673,-0.4441859,-4.27255,-61.44649,-6.98289,34.57793,0,0,0,-8.314012,15.64796,0.004515093,-36.05464,-110.6632,-50.32285,0.001067912,-0.1257102,0.09433498,0,0.3,0,0,0,0,
6.38224E+17,-0.4240793,49.02409,36.60851,-29.14537,-2.73467,144.8852,-16.98673,-0.4441859,-4.27255,-61.51973,-6.98289,34.50468,0,0,0,-1.235798,16.9834,-1.388936,-36.05464,-110.6632,-50.32285,0.001067912,-0.1257102,0.09433498,0,0.3,0,0,0,0,
6.38224E+17,1.955477,49.93584,36.93538,-25.40986,-3.833347,144.8119,-16.98673,-0.4441859,-4.27255,-61.44649,-6.98289,34.57793,0,0,0,5.663099,18.81748,-2.484728,-36.05464,-110.6632,-50.32285,0.001067912,-0.1257102,0.09433498,0,0.3,0,0,0,0,
6.38224E+17,4.217233,50.91772,37.79922,-21.7476,-5.078516,144.8119,-16.98673,-0.4441859,-4.27255,-61.44649,-6.98289,34.57793,0,0,0,12.1925,21.49352,-3.00059,-36.05464,-110.6632,-50.32285,0.001067912,-0.1257102,0.09433498,0,0.3,0,0,0,0,
6.38224E+17,5.277431,51.45543,38.35956,-20.13621,-5.591231,144.8852,-16.98673,-0.4441859,-4.27255,-61.44649,-6.98289,34.57793,0,0,0,15.25459,23.08222,-3.203274,-36.05464,-110.6632,-50.32285,0.001067912,-0.1257102,0.09433498,0,0.3,0,0,0,0,
6.38224E+17,7.562747,52.78798,39.85378,-16.84018,-7.349115,144.9584,-16.98673,-0.4441859,-4.27255,-61.44649,-6.98289,34.57793,0,0,0,21.86078,27.17991,-3.694526,-36.05464,-110.6632,-50.32285,0.001067912,-0.1257102,0.09433498,0,0.3,0,0,0,0,
6.38224E+17,9.824504,54.30756,41.72157,-13.91037,-9.180244,144.8852,-16.98673,-0.4441859,-4.27255,-61.51973,-6.98289,34.50468,0,0,0,28.41804,32.1208,-4.245554,-36.05464,-110.6632,-50.32285,0.001067912,-0.1257102,0.09433498,0,0.3,0,0,0,0,
6.38224E+17,12.10982,55.78039,43.72943,-11.05381,-11.08462,144.8119,-16.98673,-0.4441859,-4.27255,-61.44649,-6.909645,34.57793,0,0,0,35.07,37.2552,-4.899758,-36.05464,-110.6632,-50.32285,0.001067912,-0.1257102,0.09433498,0,0.3,0,0,0,0,
6.38224E+17,14.58362,57.15971,45.92407,-8.050756,-13.28197,144.2992,-16.98673,-0.4441859,-4.27255,-61.51973,-6.909645,34.57793,0,0,0,42.33055,42.629,-5.649796,-36.05464,-110.6632,-50.32285,0.001067912,-0.1257102,0.09433498,0,0.3,0,0,0,0,
6.38224E+17,15.76161,57.74416,46.92801,-6.659099,-14.38065,143.1273,-16.98673,-0.4441859,-4.27255,-61.51973,-6.98289,34.57793,0,0,0,45.7925,45.0536,-6.107951,-36.05464,-110.6632,-50.32285,0.001067912,-0.1257102,0.09433498,0,0.3,0,0,0,0,
6.38224E+17,18.16473,58.79618,49.02925,-3.289821,-16.94423,140.2707,-16.98673,-0.4441859,-4.27255,-61.44649,-6.98289,34.57793,0,0,0,52.92634,49.97415,-7.03903,-36.05464,-110.6632,-50.32285,0.001067912,-0.1257102,0.09433498,0,0.3,0,0,0,0,
6.38224E+17,20.33225,59.5209,51.08382,-0.2135241,-19.21483,137.3409,-16.98673,-0.4441859,-4.27255,-61.51973,-6.98289,34.57793,0,0,0,59.55294,54.50475,-7.635535,-36.05464,-110.6632,-50.32285,0.001067912,-0.1257102,0.09433498,0,0.3,0,0,0,0,
6.38224E+17,21.41601,59.80144,52.20449,1.397869,-20.31351,135.876,-16.98673,-0.4441859,-4.27255,-61.51973,-6.98289,34.57793,0,0,0,62.96725,56.87983,-7.808519,-36.05464,-110.6632,-50.32285,0.001067912,-0.1257102,0.09433498,0,0.3,0,0,0,0,
6.38224E+17,23.5364,60.29239,54.77269,4.693902,-22.29113,133.0194,-16.98673,-0.4441859,-4.27255,-61.51973,-6.98289,34.57793,0,0,0,69.88879,62.25404,-7.895632,-36.05464,-110.6632,-50.32285,0.001067912,-0.1257102,0.09433498,0,0.3,0,0,0,0,
6.38224E+17,25.68036,60.54955,57.55101,8.282915,-24.70822,129.2107,-16.98673,-0.4441859,-4.27255,-61.51973,-6.98289,34.57793,0,0,0,77.17719,67.91992,-7.846863,-36.05464,-110.6632,-50.32285,0.001067912,-0.1257102,0.09433498,0,0.3,0,0,0,0,
6.38224E+17,26.717,60.54955,58.90515,10.48027,-25.88014,127.1598,-16.98673,-0.4441859,-4.27255,-61.51973,-6.98289,34.57793,0,0,0,80.81438,70.59922,-7.787151,-36.05464,-110.6632,-50.32285,0.001067912,-0.1257102,0.09433498,0,0.3,0,0,0,0,
6.38224E+17,28.55467,60.36252,61.35661,14.87498,-28.15074,122.9849,-16.98673,-0.4441859,-4.27255,-61.51973,-6.98289,34.57793,0,0,0,87.46088,75.33184,-7.633018,-36.05464,-110.6632,-50.32285,0.001067912,-0.1257102,0.09433498,0,0.3,0,0,0,0,
6.38224E+17,30.15675,59.6378,63.06097,19.34294,-30.12836,118.8099,-16.98673,-0.4441859,-4.27255,-61.51973,-6.98289,34.57793,0,0,0,93.5829,77.99751,-7.278932,-36.05464,-110.6632,-50.32285,0.001067912,-0.1257102,0.09433498,0,0.3,0,0,0,0,
6.38224E+17,31.35831,58.60916,63.6213,23.29818,-31.08055,115.2209,-16.98673,-0.4441859,-4.27255,-61.44649,-6.98289,34.57793,0,0,0,98.31367,77.9344,-7.022493,-36.05464,-110.6632,-50.32285,0.001067912,-0.1257102,0.09433498,0,0.3,0,0,0,0,
6.38224E+17,32.32427,57.20647,63.38783,26.88719,-31.44678,112.5108,-16.98673,-0.4441859,-4.27255,-61.44649,-6.909645,34.57793,0,0,0,102.3686,75.7137,-6.570564,-36.05464,-110.6632,-50.32285,0.001067912,-0.1257102,0.09433498,0,0.3,0,0,0,0,
6.38224E+17,32.53631,56.69214,63.08431,27.69288,-31.22704,111.9248,-16.98673,-0.4441859,-4.27255,-61.51973,-6.98289,34.57793,0,0,0,103.3352,74.43015,-6.372832,-36.05464,-110.6632,-50.32285,0.001067912,-0.1257102,0.09433498,0,0.3,0,0,0,0,
6.38224E+17,33.05463,55.10242,61.63678,29.30428,-30.12836,111.0459,-16.98673,-0.4441859,-4.27255,-61.44649,-6.909645,34.57793,0,0,0,105.6148,69.37131,-6.056444,-36.05464,-110.6632,-50.32285,0.001067912,-0.1257102,0.09433498,0,0.3,0,0,0,0,
6.38224E+17,33.64362,52.95163,59.23202,30.10997,-27.78452,110.7529,-16.98673,-0.4441859,-4.27255,-61.44649,-6.98289,34.57793,0,0,0,107.992,61.56335,-6.077213,-36.05464,-110.6632,-50.32285,0.001067912,-0.1257102,0.09433498,0,0.3,0,0,0,0,
6.38224E+17,34.16194,50.54368,56.96733,30.4762,-25.0012,110.7529,-16.98673,-0.4441859,-4.27255,-61.44649,-6.909645,34.57793,0,0,0,110.3627,53.61939,-5.724015,-36.05464,-110.6632,-50.32285,0.001067912,-0.1257102,0.09433498,0,0.3,0,0,0,0,
6.38224E+17,34.35042,49.37476,55.75327,30.62269,-23.46305,110.7529,-16.98673,-0.4441859,-4.27255,-61.51973,-6.98289,34.57793,0,0,0,111.189,49.51685,-5.660697,-36.05464,-110.6632,-50.32285,0.001067912,-0.1257102,0.09433498,0,0.3,0,0,0,0,
6.38224E+17,34.39754,47.0837,53.20842,30.54945,-20.24026,110.9726,-16.98673,-0.4441859,-4.27255,-61.51973,-6.909645,34.57793,0,0,0,111.6255,41.14466,-5.310066,-36.05464,-110.6632,-50.32285,0.001067912,-0.1257102,0.09433498,0,0.3,0,0,0,0,
6.38224E+17,34.16194,44.55886,50.45344,29.67051,-17.16397,111.7051,-16.98673,-0.4441859,-4.27255,-61.51973,-6.98289,34.57793,0,0,0,111.0956,32.00928,-4.644017,-36.05464,-110.6632,-50.32285,0.001067912,-0.1257102,0.09433498,0,0.3,0,0,0,0,
6.38224E+17,33.97346,43.46008,49.30943,29.08454,-15.77231,112.1446,-16.98673,-0.4441859,-4.27255,-61.44649,-6.909645,34.57793,0,0,0,110.5906,28.13397,-4.228811,-36.05464,-110.6632,-50.32285,0.001067912,-0.1257102,0.09433498,0,0.3,0,0,0,0,
6.38224E+17,33.31378,41.28591,47.20817,27.47315,-12.54952,113.8292,-16.98673,-0.4441859,-4.27255,-61.51973,-6.909645,34.57793,0,0,0,108.7785,20.74703,-2.837401,-36.05464,-110.6632,-50.32285,0.001067912,-0.1257102,0.09433498,0,0.3,0,0,0,0,
6.38224E+17,32.84259,40.84172,46.71788,26.30123,-10.27892,114.8546,-16.98673,-0.4441859,-4.27255,-61.44649,-6.98289,34.57793,0,0,0,107.3596,19.13353,-2.032155,-36.05464,-110.6632,-50.32285,0.001067912,-0.1257102,0.09433498,0,0.3,0,0,0,0,
6.38224E+17,32.70123,40.95861,46.78792,25.64202,-9.180244,115.3673,-16.98673,-0.4441859,-4.27255,-61.51973,-6.98289,34.57793,0,0,0,106.913,19.4579,-1.82369,-36.05464,-110.6632,-50.32285,0.001067912,-0.1257102,0.09433498,0,0.3,0,0,0,0,
6.38224E+17,32.63055,41.58982,47.18483,25.1293,-8.154812,116.2463,-16.98673,-0.4441859,-4.27255,-61.44649,-6.98289,34.57793,0,0,0,106.5247,21.23744,-1.977369,-36.05464,-110.6632,-50.32285,0.001067912,-0.1257102,0.09433498,0,0.3,0,0,0,0,
6.38224E+17,32.55987,42.12752,47.20817,25.56878,-7.861832,116.9055,-16.98673,-0.4441859,-4.27255,-61.51973,-6.98289,34.57793,0,0,0,105.8899,22.20936,-2.518795,-36.05464,-110.6632,-50.32285,0.001067912,-0.1257102,0.09433498,0,0.3,0,0,0,0,
6.38224E+17,32.41851,42.29117,46.74123,26.15474,-7.422361,117.4915,-16.98673,-0.4441859,-4.27255,-61.44649,-6.98289,34.57793,0,0,0,104.9457,21.69699,-3.100016,-36.05464,-110.6632,-50.32285,0.001067912,-0.1257102,0.09433498,0,0.3,0,0,0,0,
6.38224E+17,32.32427,42.29117,46.25093,26.44772,-7.202625,117.8577,-16.98673,-0.4441859,-4.27255,-61.51973,-6.98289,34.57793,0,0,0,104.2537,20.86932,-3.591434,-36.05464,-110.6632,-50.32285,0.001067912,-0.1257102,0.09433498,0,0.3,0,0,0,0,
6.38224E+17,31.97087,42.19766,45.20031,26.44772,-6.689909,118.3704,-16.98673,-0.4441859,-4.27255,-61.51973,-6.909645,34.57793,0,0,0,102.4092,18.95743,-4.275469,-36.05464,-110.6632,-50.32285,0.001067912,-0.1257102,0.09433498,0,0.3,0,0,0,0,
6.38224E+17,31.47611,41.87036,44.47654,25.935,-6.030703,118.8099,-16.98673,-0.4441859,-4.27255,-61.44649,-6.909645,34.57793,0,0,0,100.6312,17.20391,-3.980987,-36.05464,-110.6632,-50.32285,0.001067912,-0.1257102,0.09433498,0,0.3,0,0,0,0,
6.38224E+17,30.83999,41.4028,44.05629,25.27579,-5.371496,119.3226,-16.98673,-0.4441859,-4.27255,-61.44649,-6.909645,34.50468,0,0,0,98.81174,15.70791,-2.854495,-36.05464,-110.6632,-50.32285,0.001067912,-0.1257102,0.09433498,0,0.3,0,0,0,0,
6.38224E+17,29.77979,40.77158,43.58934,24.32361,-4.785534,119.9818,-16.98673,-0.4441859,-4.27255,-61.51973,-6.98289,34.57793,0,0,0,95.82277,13.84815,-0.8970782,-36.05464,-110.6632,-50.32285,0.001067912,-0.1257102,0.09433498,0,0.3,0,0,0,0,
6.38224E+17,27.80075,39.97673,42.77219,22.63897,-3.906592,121.3735,-16.98673,-0.4441859,-4.27255,-61.44649,-6.98289,34.50468,0,0,0,89.89493,11.13739,2.14546,-36.05464,-110.6632,-50.32285,0.001067912,-0.1257102,0.09433498,0,0.3,0,0,0,0,
6.38224E+17,26.62276,39.60268,42.37529,21.54029,-3.320631,122.4721,-16.98673,-0.4441859,-4.27255,-61.51973,-6.909645,34.57793,0,0,0,86.31562,9.843493,3.847464,-36.05464,-110.6632,-50.32285,0.001067912,-0.1257102,0.09433498,0,0.3,0,0,0,0,
6.38224E+17,22.45264,38.73769,41.3947,17.58505,-2.148709,127.2331,-16.98673,-0.4441859,-4.27255,-61.44649,-6.909645,34.57793,0,0,0,73.40199,6.75907,9.273193,-36.05464,-110.6632,-50.32285,0.001067912,-0.1257102,0.09433498,0,0.3,0,0,0,0,
6.38224E+17,20.70921,38.62079,41.16123,15.97366,-1.782483,129.7234,-16.98673,-0.4441859,-4.27255,-61.51973,-6.98289,34.57793,0,0,0,67.87971,6.188215,11.20121,-36.05464,-110.6632,-50.32285,0.001067912,-0.1257102,0.09433498,0,0.3,0,0,0,0,
6.38224E+17,16.91605,38.64417,40.97445,12.75087,-1.416257,135.8027,-16.98673,-0.4441859,-4.27255,-61.44649,-6.909645,34.57793,0,0,0,55.74762,5.945137,14.95238,-36.05464,-110.6632,-50.32285,0.001067912,-0.1257102,0.09433498,0,0.3,0,0,0,0,
6.38224E+17,12.0627,38.87795,41.04449,9.015368,-1.709238,144.0062,-16.98673,-0.4441859,-4.27255,-61.51973,-6.98289,34.57793,0,0,0,39.99383,6.476377,18.79889,-36.05464,-110.6632,-50.32285,0.001067912,-0.1257102,0.09433498,0,0.3,0,0,0,0,
6.38224E+17,9.376864,39.15849,41.32466,6.525032,-2.148709,144.6654,-16.98673,-0.4441859,-4.27255,-61.51973,-6.98289,34.57793,0,0,0,31.19317,7.413035,20.54601,-36.05464,-110.6632,-50.32285,0.001067912,-0.1257102,0.09433498,0,0.3,0,0,0,0,
6.38224E+17,3.746034,39.92997,42.56207,0.3724372,-3.613612,144.9584,-16.98673,-0.4441859,-4.27255,-61.44649,-6.909645,34.57793,0,0,0,12.57374,10.72252,23.69193,-36.05464,-110.6632,-50.32285,0.001067912,-0.1257102,0.09433498,0,0.3,0,0,0,0,
6.38224E+17,-1.554958,40.84172,44.94349,-7.391551,-6.250438,144.8852,-16.98673,-0.4441859,-4.27255,-61.44649,-6.98289,34.57793,0,0,0,-5.29369,16.17147,26.65962,-36.05464,-110.6632,-50.32285,0.001067912,-0.1257102,0.09433498,0,0.3,0,0,0,0,
6.38224E+17,-4.005194,41.12226,46.62449,-11.85951,-7.715342,144.8119,-16.98673,-0.4441859,-4.27255,-61.44649,-6.98289,34.50468,0,0,0,-13.78648,19.46832,28.54944,-36.05464,-110.6632,-50.32285,0.001067912,-0.1257102,0.09433498,0,0.3,0,0,0,0,
6.38224E+17,-7.727668,41.16902,49.5429,-21.23489,-10.64515,144.8119,-16.98673,-0.4441859,-4.27255,-61.44649,-6.98289,34.57793,0,0,0,-27.14129,24.60401,31.66386,-36.05464,-110.6632,-50.32285,0.001067912,-0.1257102,0.09433498,0,0.3,0,0,0,0,
6.38224E+17,-10.24858,41.4028,53.02164,-32.14842,-12.98899,144.9584,-16.98673,-0.4441859,-4.27255,-61.51973,-6.98289,34.57793,0,0,0,-36.74945,31.32902,34.90585,-36.05464,-110.6632,-50.32285,0.001067912,-0.1257102,0.09433498,0,0.3,0,0,0,0,
6.38224E+17,-11.14386,42.36131,55.58984,-38.81373,-14.01443,144.8852,-16.98673,-0.4441859,-4.27255,-61.51973,-6.98289,34.57793,0,0,0,-40.30696,37.84384,36.26705,-36.05464,-110.6632,-50.32285,0.001067912,-0.1257102,0.09433498,0,0.3,0,0,0,0,
6.38224E+17,-11.49726,43.31981,57.2008,-42.18301,-14.4539,144.8119,-16.98673,-0.4441859,-4.27255,-61.51973,-6.98289,34.57793,0,0,0,-41.67952,42.6022,36.56153,-36.05464,-110.6632,-50.32285,0.001067912,-0.1257102,0.09433498,0,0.3,0,0,0,0,
6.38224E+17,-11.75642,45.61087,60.39938,-48.48209,-15.55258,144.8852,-16.98673,-0.4441859,-4.27255,-61.44649,-6.98289,34.57793,0,0,0,-42.6306,52.77423,36.4894,-36.05464,-110.6632,-50.32285,0.001067912,-0.1257102,0.09433498,0,0.3,0,0,0,0,
6.38224E+17,-11.26166,48.18248,62.8275,-54.70793,-16.79774,144.8119,-16.98673,-0.4441859,-4.27255,-61.51973,-6.909645,34.57793,0,0,0,-40.53153,61.83494,35.19924,-36.05464,-110.6632,-50.32285,0.001067912,-0.1257102,0.09433498,0,0.3,0,0,0,0,
6.38224E+17,-10.79046,49.49166,63.66799,-57.12502,-17.38371,144.7387,-16.98673,-0.4441859,-4.27255,-61.44649,-6.909645,34.57793,0,0,0,-38.5916,65.5872,34.13737,-36.05464,-110.6632,-50.32285,0.001067912,-0.1257102,0.09433498,0,0.3,0,0,0,0,
6.38224E+17,-9.565345,52.41393,65.25561,-61.37324,-18.55563,144.8852,-16.98673,-0.4441859,-4.27255,-61.44649,-6.909645,34.57793,0,0,0,-33.64051,73.20518,31.27889,-36.05464,-110.6632,-50.32285,0.001067912,-0.1257102,0.09433498,0,0.3,0,0,0,0,
6.38224E+17,-7.609867,55.85053,65.79259,-64.66927,-20.46,144.8852,-16.98673,-0.4441859,-4.27255,-61.51973,-6.98289,34.57793,0,0,0,-26.01937,79.0283,26.40022,-36.05464,-110.6632,-50.32285,0.001067912,-0.1257102,0.09433498,0,0.3,0,0,0,0,
6.38224E+17,-6.384749,57.487,65.67587,-65.47498,-21.48543,144.8852,-16.98673,-0.4441859,-4.27255,-61.44649,-6.98289,34.57793,0,0,0,-21.48324,80.87334,23.63868,-36.05464,-110.6632,-50.32285,0.001067912,-0.1257102,0.09433498,0,0.3,0,0,0,0,
6.38224E+17,-2.921435,61.04049,65.3957,-64.59603,-24.92796,144.8119,-16.98673,-0.4441859,-4.27255,-61.44649,-6.909645,34.57793,0,0,0,-9.470068,84.50603,17.2179,-36.05464,-110.6632,-50.32285,0.001067912,-0.1257102,0.09433498,0,0.3,0,0,0,0,
6.38224E+17,0.1413598,63.02763,65.51243,-62.61841,-27.78452,144.9584,-16.98673,-0.4441859,-4.27255,-61.44649,-6.98289,34.57793,0,0,0,0.4486282,86.92188,13.48709,-36.05464,-110.6632,-50.32285,0.001067912,-0.1257102,0.09433498,0,0.3,0,0,0,0,
6.38224E+17,4.452833,64.87452,65.51243,-58.58992,-31.813,144.8119,-16.98673,-0.4441859,-4.27255,-61.51973,-6.98289,34.57793,0,0,0,13.81777,88.8094,9.088824,-36.05464,-110.6632,-50.32285,0.001067912,-0.1257102,0.09433498,0,0.3,0,0,0,0,
6.38224E+17,6.903069,65.45897,65.51243,-55.58687,-34.15685,144.8852,-16.98673,-0.4441859,-4.27255,-61.44649,-6.909645,34.57793,0,0,0,21.24257,89.38068,7.110338,-36.05464,-110.6632,-50.32285,0.001067912,-0.1257102,0.09433498,0,0.3,0,0,0,0,
6.38224E+17,11.49726,65.83302,65.48908,-47.82288,-38.47831,141.8821,-16.98673,-0.4441859,-4.27255,-61.51973,-6.98289,34.57793,0,0,0,35.06575,89.69023,4.045836,-36.05464,-110.6632,-50.32285,0.001067912,-0.1257102,0.09433498,0,0.3,0,0,0,0,
6.38224E+17,15.59669,65.76289,65.32565,-38.4475,-41.84759,133.6054,-16.98673,-0.4441859,-4.27255,-61.44649,-6.909645,34.57793,0,0,0,47.29766,89.27745,1.088929,-36.05464,-110.6632,-50.32285,0.001067912,-0.1257102,0.09433498,0,0.3,0,0,0,0,
6.38224E+17,19.13069,65.36546,64.8587,-28.33967,-43.89846,124.3765,-16.98673,-0.4441859,-4.27255,-61.44649,-6.98289,34.57793,0,0,0,57.77804,87.90913,-1.78555,-36.05464,-110.6632,-50.32285,0.001067912,-0.1257102,0.09433498,0,0.3,0,0,0,0,
6.38224E+17,22.75892,64.33681,63.69135,-17.35289,-44.85064,114.3419,-16.98673,-0.4441859,-4.27255,-61.44649,-6.98289,34.50468,0,0,0,68.58496,84.44415,-4.864817,-36.05464,-110.6632,-50.32285,0.001067912,-0.1257102,0.09433498,0,0.3,0,0,0,0,
6.38224E+17,24.50236,63.51858,62.64072,-11.85951,-44.70415,109.3612,-16.98673,-0.4441859,-4.27255,-61.44649,-6.909645,34.57793,0,0,0,73.77874,81.42529,-6.474988,-36.05464,-110.6632,-50.32285,0.001067912,-0.1257102,0.09433498,0,0.3,0,0,0,0,
6.38224E+17,27.84787,61.04049,59.83904,-1.824918,-42.65329,100.7183,-16.98673,-0.4441859,-4.27255,-61.51973,-6.98289,34.57793,0,0,0,84.01891,73.02703,-9.31618,-36.05464,-110.6632,-50.32285,0.001067912,-0.1257102,0.09433498,0,0.3,0,0,0,0,
6.38224E+17,30.67507,57.25322,56.45369,6.232051,-38.6248,94.63897,-16.98673,-0.4441859,-4.27255,-61.51973,-6.909645,34.57793,0,0,0,93.49953,61.81595,-10.72264,-36.05464,-110.6632,-50.32285,0.001067912,-0.1257102,0.09433498,0,0.3,0,0,0,0,
6.38224E+17,31.80595,54.86864,54.46917,9.161857,-36.06122,92.7346,-16.98673,-0.4441859,-4.27255,-61.44649,-6.909645,34.57793,0,0,0,97.63873,54.91314,-10.91133,-36.05464,-110.6632,-50.32285,0.001067912,-0.1257102,0.09433498,0,0.3,0,0,0,0,
6.38224E+17,33.57294,49.14098,50.31336,13.26359,-29.90863,90.75697,-16.98673,-0.4441859,-4.27255,-61.44649,-6.98289,34.57793,0,0,0,104.9905,39.04972,-10.1646,-36.05464,-110.6632,-50.32285,0.001067912,-0.1257102,0.09433498,0,0.3,0,0,0,0,
6.38224E+17,34.53891,42.71198,46.71788,15.46094,-22.65736,89.95128,-16.98673,-0.4441859,-4.27255,-61.51973,-6.98289,34.50468,0,0,0,110.5918,22.37949,-7.671835,-36.05464,-110.6632,-50.32285,0.001067912,-0.1257102,0.09433498,0,0.3,0,0,0,0,
6.38224E+17,34.79806,36.3531,44.0096,16.55962,-15.03986,89.58505,-16.98673,-0.4441859,-4.27255,-61.51973,-6.98289,34.57793,0,0,0,114.1635,6.486088,-4.078462,-36.05464,-110.6632,-50.32285,0.001067912,-0.1257102,0.09433498,0,0.3,0,0,0,0,
6.38224E+17,34.79806,33.36069,42.77219,16.8526,-11.30435,89.51181,-16.98673,-0.4441859,-4.27255,-61.44649,-6.98289,34.57793,0,0,0,115.2405,-1.206621,-2.528741,-36.05464,-110.6632,-50.32285,0.001067912,-0.1257102,0.09433498,0,0.3,0,0,0,0,
6.38224E+17,34.44466,27.67979,40.32073,17.21883,-4.639044,89.36532,-16.98673,-0.4441859,-4.27255,-61.51973,-6.98289,34.57793,0,0,0,115.5967,-16.37557,0.1927593,-36.05464,-110.6632,-50.32285,0.001067912,-0.1257102,0.09433498,0,0.3,0,0,0,0,
6.38224E+17,32.81903,21.06376,38.21947,16.77936,3.051698,89.29208,-16.98673,-0.4441859,-4.27255,-61.44649,-6.98289,34.57793,0,0,0,112.1589,-33.48911,5.559673,-36.05464,-110.6632,-50.32285,0.001067912,-0.1257102,0.09433498,0,0.3,0,0,0,0,
6.38224E+17,31.49967,18.04797,37.0988,15.90041,6.713957,89.36532,-16.98673,-0.4441859,-4.27255,-61.44649,-6.98289,34.57793,0,0,0,108.2734,-41.6959,8.33848,-36.05464,-110.6632,-50.32285,0.001067912,-0.1257102,0.09433498,0,0.3,0,0,0,0,
6.38224E+17,30.41591,16.15434,36.11822,14.87498,8.911312,89.36532,-16.98673,-0.4441859,-4.27255,-61.44649,-6.909645,34.57793,0,0,0,104.6408,-47.26906,9.89249,-36.05464,-110.6632,-50.32285,0.001067912,-0.1257102,0.09433498,0,0.3,0,0,0,0,
6.38224E+17,27.96567,12.95152,34.06366,12.38465,13.15953,89.29208,-16.98673,-0.4441859,-4.27255,-61.51973,-6.98289,34.57793,0,0,0,95.96849,-57.23196,12.40164,-36.05464,-110.6632,-50.32285,0.001067912,-0.1257102,0.09433498,0,0.3,0,0,0,0,
6.38224E+17,25.25628,10.87086,32.14919,9.381593,16.60205,89.29208,-16.98673,-0.4441859,-4.27255,-61.44649,-6.98289,34.57793,0,0,0,86.15104,-64.40355,14.26448,-36.05464,-110.6632,-50.32285,0.001067912,-0.1257102,0.09433498,0,0.3,0,0,0,0,
6.38224E+17,22.07568,9.678576,30.51488,5.93907,19.45862,89.58505,-16.98673,-0.4441859,-4.27255,-61.51973,-6.909645,34.50468,0,0,0,74.85126,-69.11176,16.2111,-36.05464,-110.6632,-50.32285,0.001067912,-0.1257102,0.09433498,0,0.3,0,0,0,0,
6.38224E+17,20.40293,9.281147,29.81446,3.96145,20.70378,90.17101,-16.98673,-0.4441859,-4.27255,-61.44649,-6.909645,34.57793,0,0,0,68.99361,-70.84323,17.13924,-36.05464,-110.6632,-50.32285,0.001067912,-0.1257102,0.09433498,0,0.3,0,0,0,0,
6.38224E+17,16.86893,8.766827,28.34358,0.1527017,22.97438,92.00214,-16.98673,-0.4441859,-4.27255,-61.51973,-6.98289,34.57793,0,0,0,56.61506,-73.68918,18.35601,-36.05464,-110.6632,-50.32285,0.001067912,-0.1257102,0.09433498,0,0.3,0,0,0,0,
6.38224E+17,13.45274,8.72007,26.84936,-3.729292,24.87876,94.1995,-16.98673,-0.4441859,-4.27255,-61.51973,-6.98289,34.57793,0,0,0,44.67578,-75.40768,18.41657,-36.05464,-110.6632,-50.32285,0.001067912,-0.1257102,0.09433498,0,0.3,0,0,0,0,
6.38224E+17,11.73286,8.72007,26.0789,-5.706912,25.68446,95.51791,-16.98673,-0.4441859,-4.27255,-61.44649,-6.98289,34.57793,0,0,0,38.7238,-76.20678,18.10158,-36.05464,-110.6632,-50.32285,0.001067912,-0.1257102,0.09433498,0,0.3,0,0,0,0,
6.38224E+17,8.646505,8.72007,24.65471,-8.783209,26.78313,98.37447,-16.98673,-0.4441859,-4.27255,-61.44649,-6.98289,34.57793,0,0,0,28.17863,-77.62677,16.95512,-36.05464,-110.6632,-50.32285,0.001067912,-0.1257102,0.09433498,0,0.3,0,0,0,0,
6.38224E+17,5.536591,8.72007,23.39396,-11.12705,27.07611,101.231,-16.98673,-0.4441859,-4.27255,-61.44649,-6.98289,34.57793,0,0,0,17.82546,-78.82136,15.54343,-36.05464,-110.6632,-50.32285,0.001067912,-0.1257102,0.09433498,0,0.3,0,0,0,0,
6.38224E+17,1.884797,8.32264,22.81028,-13.54414,26.34366,103.4284,-16.98673,-0.4441859,-4.27255,-61.51973,-6.909645,34.57793,0,0,0,6.040011,-80.26914,15.19355,-36.05464,-110.6632,-50.32285,0.001067912,-0.1257102,0.09433498,0,0.3,0,0,0,0,
6.38224E+17,-3.675354,7.060217,23.5107,-19.11078,24.80551,104.1608,-16.98673,-0.4441859,-4.27255,-61.51973,-6.909645,34.57793,0,0,0,-11.89335,-82.53966,16.8033,-36.05464,-110.6632,-50.32285,0.001067912,-0.1257102,0.09433498,0,0.3,0,0,0,0,
6.38224E+17,-5.98423,6.429006,24.3512,-22.33356,23.99982,103.3551,-16.98673,-0.4441859,-4.27255,-61.51973,-6.98289,34.57793,0,0,0,-19.54729,-83.20508,18.1237,-36.05464,-110.6632,-50.32285,0.001067912,-0.1257102,0.09433498,0,0.3,0,0,0,0,
6.38224E+17,-10.69622,5.283474,27.03613,-31.70894,21.72922,98.7407,-16.98673,-0.4441859,-4.27255,-61.44649,-6.909645,34.57793,0,0,0,-35.89502,-83.1482,21.6877,-36.05464,-110.6632,-50.32285,0.001067912,-0.1257102,0.09433498,0,0.3,0,0,0,0,
6.38224E+17,-13.90038,4.956179,29.74442,-41.59705,19.16564,93.90652,-16.98673,-0.4441859,-4.27255,-61.51973,-6.98289,34.57793,0,0,0,-47.8092,-80.91015,24.83256,-36.05464,-110.6632,-50.32285,0.001067912,-0.1257102,0.09433498,0,0.3,0,0,0,0,
6.38224E+17,-15.0077,5.002935,31.07521,-45.77202,18.06696,92.36837,-16.98673,-0.4441859,-4.27255,-61.44649,-6.909645,34.57793,0,0,0,-52.22279,-79.23399,26.44345,-36.05464,-110.6632,-50.32285,0.001067912,-0.1257102,0.09433498,0,0.3,0,0,0,0,
6.38224E+17,-16.53909,5.166583,34.08701,-52.14435,16.30907,91.56267,-16.98673,-0.4441859,-4.27255,-61.44649,-6.98289,34.57793,0,0,0,-59.08155,-75.0804,30.60738,-36.05464,-110.6632,-50.32285,0.001067912,-0.1257102,0.09433498,0,0.3,0,0,0,0,
6.38224E+17,-17.66997,5.914686,37.79922,-56.6123,15.13715,94.41924,-16.98673,-0.4441859,-4.27255,-61.44649,-6.98289,34.57793,0,0,0,-65.06847,-68.27689,35.90601,-36.05464,-110.6632,-50.32285,0.001067912,-0.1257102,0.09433498,0,0.3,0,0,0,0,
6.38224E+17,-18.91865,7.200486,42.11847,-59.83509,13.96523,99.32666,-16.98673,-0.4441859,-4.27255,-61.44649,-6.98289,34.57793,0,0,0,-71.89101,-58.84935,41.40366,-36.05464,-110.6632,-50.32285,0.001067912,-0.1257102,0.09433498,0,0.3,0,0,0,0,
6.38224E+17,-19.50765,7.80832,44.49989,-61.51973,13.23278,101.5973,-16.98673,-0.4441859,-4.27255,-61.51973,-6.98289,34.57793,0,0,0,-75.32842,-53.64528,44.28069,-36.05464,-110.6632,-50.32285,0.001067912,-0.1257102,0.09433498,0,0.3,0,0,0,0,
6.38224E+17,-20.42649,8.533044,49.65963,-65.84119,11.3284,105.6257,-16.98673,-0.4441859,-4.27255,-61.51973,-6.98289,34.57793,0,0,0,-81.49794,-43.1846,50.48167,-36.05464,-110.6632,-50.32285,0.001067912,-0.1257102,0.09433498,0,0.3,0,0,0,0,
6.38224E+17,-20.77989,8.556422,53.3952,-68.84425,9.790254,108.7753,-16.98673,-0.4441859,-4.27255,-61.51973,-6.98289,34.57793,0,0,0,-84.76191,-36.32531,55.02349,-36.05464,-110.6632,-50.32285,0.001067912,-0.1257102,0.09433498,0,0.3,0,0,0,0,
6.38224E+17,-20.94481,8.556422,55.4731,-70.23591,9.057802,110.6797,-16.98673,-0.4441859,-4.27255,-61.44649,-6.98289,34.57793,0,0,0,-86.40997,-32.3916,57.40546,-36.05464,-110.6632,-50.32285,0.001067912,-0.1257102,0.09433498,0,0.3,0,0,0,0,
6.38224E+17,-21.10972,8.556422,59.51218,-72.94598,7.519653,114.3419,-16.98673,-0.4441859,-4.27255,-61.44649,-6.98289,34.57793,0,0,0,-88.87852,-24.46556,61.86772,-36.05464,-110.6632,-50.32285,0.001067912,-0.1257102,0.09433498,0,0.3,0,0,0,0,
6.38224E+17,-21.0626,8.579801,63.13101,-75.80254,6.201241,117.4915,-16.98673,-0.4441859,-4.27255,-61.44649,-6.909645,34.57793,0,0,0,-90.1386,-17.02375,65.70437,-36.05464,-110.6632,-50.32285,0.001067912,-0.1257102,0.09433498,0,0.3,0,0,0,0,
6.38224E+17,-20.80345,8.626557,66.35294,-78.29288,5.029318,120.4945,-16.98673,-0.4441859,-4.27255,-61.44649,-6.98289,34.57793,0,0,0,-90.20949,-10.13527,69.08514,-36.05464,-110.6632,-50.32285,0.001067912,-0.1257102,0.09433498,0,0.3,0,0,0,0,
6.38224E+17,-20.45005,9.000608,68.57092,-80.49023,4.223621,123.3511,-16.98673,-0.4441859,-4.27255,-61.44649,-6.98289,34.57793,0,0,0,-89.38795,-4.507395,71.36586,-36.05464,-110.6632,-50.32285,0.001067912,-0.1257102,0.09433498,0,0.3,0,0,0,0,
6.38224E+17,-20.21445,9.398038,69.10791,-81.14944,3.857395,124.523,-16.98673,-0.4441859,-4.27255,-61.44649,-6.98289,34.57793,0,0,0,-88.50628,-2.42881,72.01599,-36.05464,-110.6632,-50.32285,0.001067912,-0.1257102,0.09433498,0,0.3,0,0,0,0,
6.38224E+17,-19.69613,10.4033,70.08849,-81.36917,2.758718,128.6247,-16.98673,-0.4441859,-4.27255,-61.51973,-6.98289,34.57793,0,0,0,-86.4608,2.014985,73.17709,-36.05464,-110.6632,-50.32285,0.001067912,-0.1257102,0.09433498,0,0.3,0,0,0,0,
6.38224E+17,-18.94221,11.61897,71.27921,-80.70996,1.51355,133.6054,-16.98673,-0.4441859,-4.27255,-61.44649,-6.909645,34.57793,0,0,0,-83.39745,7.407392,74.64973,-36.05464,-110.6632,-50.32285,0.001067912,-0.1257102,0.09433498,0,0.3,0,0,0,0,
6.38224E+17,-18.02337,13.11517,72.72674,-80.05076,0.1951368,138.6593,-16.98673,-0.4441859,-4.27255,-61.51973,-6.98289,34.57793,0,0,0,-79.58127,14.01281,76.23646,-36.05464,-110.6632,-50.32285,0.001067912,-0.1257102,0.09433498,0,0.3,0,0,0,0,
6.38224E+17,-17.50505,14.02692,73.59058,-79.90427,-0.4640697,140.4172,-16.98673,-0.4441859,-4.27255,-61.51973,-6.909645,34.57793,0,0,0,-77.39085,17.99981,77.02701,-36.05464,-110.6632,-50.32285,0.001067912,-0.1257102,0.09433498,0,0.3,0,0,0,0,
6.38224E+17,-16.27993,16.17772,75.08481,-80.124,-2.148709,143.5667,-16.98673,-0.4441859,-4.27255,-61.51973,-6.98289,34.57793,0,0,0,-72.02442,26.18083,78.27492,-36.05464,-110.6632,-50.32285,0.001067912,-0.1257102,0.09433498,0,0.3,0,0,0,0,
6.38224E+17,-14.79566,18.53891,76.11208,-80.63672,-4.272818,144.8852,-16.98673,-0.4441859,-4.27255,-61.51973,-6.98289,34.57793,0,0,0,-65.34521,33.74135,79.04765,-36.05464,-110.6632,-50.32285,0.001067912,-0.1257102,0.09433498,0,0.3,0,0,0,0,
6.38224E+17,-13.99462,19.7312,76.81251,-80.85645,-5.664476,144.8119,-16.98673,-0.4441859,-4.27255,-61.51973,-6.98289,34.57793,0,0,0,-61.75244,37.94776,79.42468,-36.05464,-110.6632,-50.32285,0.001067912,-0.1257102,0.09433498,0,0.3,0,0,0,0,
6.38224E+17,-12.34542,21.83524,78.65694,-81.44242,-8.228058,144.8852,-16.98673,-0.4441859,-4.27255,-61.44649,-6.98289,34.57793,0,0,0,-54.4194,46.72036,80.29278,-36.05464,-110.6632,-50.32285,0.001067912,-0.1257102,0.09433498,0,0.3,0,0,0,0,
6.38224E+17,-10.6491,23.56523,80.36129,-82.46785,-10.5719,144.8852,-16.98673,-0.4441859,-4.27255,-61.44649,-6.98289,34.57793,0,0,0,-46.88157,54.33493,80.97753,-36.05464,-110.6632,-50.32285,0.001067912,-0.1257102,0.09433498,0,0.3,0,0,0,0,
6.38224E+17,-8.363786,25.71602,82.41585,-83.78626,-13.50171,144.8119,-16.98673,-0.4441859,-4.27255,-61.51973,-6.98289,34.57793,0,0,0,-36.70275,63.61221,81.29229,-36.05464,-110.6632,-50.32285,0.001067912,-0.1257102,0.09433498,0,0.3,0,0,0,0,
6.38224E+17,-6.855949,27.0252,83.7233,-84.88493,-15.69907,144.8119,-16.98673,-0.4441859,-4.27255,-61.51973,-6.909645,34.57793,0,0,0,-30.00331,69.36271,81.19248,-36.05464,-110.6632,-50.32285,0.001067912,-0.1257102,0.09433498,0,0.3,0,0,0,0,
6.38224E+17,-5.86643,27.82006,84.49376,-85.83713,-17.09072,144.8852,-16.98673,-0.4441859,-4.27255,-61.44649,-6.98289,34.57793,0,0,0,-25.62109,72.78846,81.00898,-36.05464,-110.6632,-50.32285,0.001067912,-0.1257102,0.09433498,0,0.3,0,0,0,0,
6.38224E+17,-3.628234,29.52667,85.66112,-87.81474,-19.94728,144.8119,-16.98673,-0.4441859,-4.27255,-61.44649,-6.98289,34.57793,0,0,0,-15.75724,78.98005,80.1501,-36.05464,-110.6632,-50.32285,0.001067912,-0.1257102,0.09433498,0,0.3,0,0,0,0,
6.38224E+17,-1.366478,31.39693,85.94128,-88.84018,-22.7306,144.7387,-16.98673,-0.4441859,-4.27255,-61.44649,-6.98289,34.50468,0,0,0,-5.886468,83.38219,78.42009,-36.05464,-110.6632,-50.32285,0.001067912,-0.1257102,0.09433498,0,0.3,0,0,0,0,
6.38224E+17,-0.1177998,32.65935,85.94128,-89.13316,-24.48849,144.8119,-16.98673,-0.4441859,-4.27255,-61.44649,-6.909645,34.57793,0,0,0,-0.5042983,85.87307,76.93159,-36.05464,-110.6632,-50.32285,0.001067912,-0.1257102,0.09433498,0,0.3,0,0,0,0,
6.38224E+17,2.214636,34.95041,85.94128,-89.42614,-28.00425,144.8119,-16.98673,-0.4441859,-4.27255,-61.51973,-6.98289,34.57793,0,0,0,9.363821,90.30351,73.78465,-36.05464,-110.6632,-50.32285,0.001067912,-0.1257102,0.09433498,0,0.3,0,0,0,0,
6.38224E+17,4.240793,36.72716,85.94128,-89.64587,-31.30029,144.8119,-16.98673,-0.4441859,-4.27255,-61.51973,-6.98289,34.57793,0,0,0,17.73978,93.65564,70.88775,-36.05464,-110.6632,-50.32285,0.001067912,-0.1257102,0.09433498,0,0.3,0,0,0,0,
6.38224E+17,6.19627,38.08309,85.94128,-89.79237,-34.30334,144.8852,-16.98673,-0.4441859,-4.27255,-61.44649,-6.98289,34.57793,0,0,0,25.68603,96.16242,68.23736,-36.05464,-110.6632,-50.32285,0.001067912,-0.1257102,0.09433498,0,0.3,0,0,0,0,
6.38224E+17,7.492068,38.90133,85.94128,-89.86562,-36.28096,144.9584,-16.98673,-0.4441859,-4.27255,-61.51973,-6.909645,34.57793,0,0,0,30.8751,97.65294,66.42083,-36.05464,-110.6632,-50.32285,0.001067912,-0.1257102,0.09433498,0,0.3,0,0,0,0,
6.38224E+17,8.717185,39.71957,85.94128,-89.49938,-38.25858,144.8852,-16.98673,-0.4441859,-4.27255,-61.44649,-6.98289,34.57793,0,0,0,35.70477,99.12638,64.51452,-36.05464,-110.6632,-50.32285,0.001067912,-0.1257102,0.09433498,0,0.3,0,0,0,0,
6.38224E+17,10.24858,41.0755,85.94128,-88.40071,-40.8954,144.8852,-16.98673,-0.4441859,-4.27255,-61.51973,-6.98289,34.57793,0,0,0,41.55138,101.5297,61.46459,-36.05464,-110.6632,-50.32285,0.001067912,-0.1257102,0.09433498,0,0.3,0,0,0,0,
6.38224E+17,10.93182,41.75347,85.94128,-87.66826,-42.06733,144.9584,-16.98673,-0.4441859,-4.27255,-61.44649,-6.98289,34.57793,0,0,0,44.0909,102.713,59.92794,-36.05464,-110.6632,-50.32285,0.001067912,-0.1257102,0.09433498,0,0.3,0,0,0,0,
6.38224E+17,13.19358,43.92765,85.96463,-85.4709,-45.36336,144.8119,-16.98673,-0.4441859,-4.27255,-61.51973,-6.98289,34.57793,0,0,0,52.28112,106.4773,54.6641,-36.05464,-110.6632,-50.32285,0.001067912,-0.1257102,0.09433498,0,0.3,0,0,0,0,
6.38224E+17,13.99462,44.81602,85.96463,-84.8117,-46.53528,144.8119,-16.98673,-0.4441859,-4.27255,-61.44649,-6.909645,34.57793,0,0,0,55.04416,107.9553,52.50844,-36.05464,-110.6632,-50.32285,0.001067912,-0.1257102,0.09433498,0,0.3,0,0,0,0,
6.38224E+17,15.50245,46.77979,85.94128,-83.8595,-48.80588,144.8852,-16.98673,-0.4441859,-4.27255,-61.44649,-6.98289,34.57793,0,0,0,59.95997,111.0874,47.82271,-36.05464,-110.6632,-50.32285,0.001067912,-0.1257102,0.09433498,0,0.3,0,0,0,0,
6.38224E+17,17.01029,48.81369,85.87125,-83.56653,-50.7835,144.9584,-16.98673,-0.4441859,-4.27255,-61.51973,-6.98289,34.57793,0,0,0,64.59834,114.1046,42.80598,-36.05464,-110.6632,-50.32285,0.001067912,-0.1257102,0.09433498,0,0.3,0,0,0,0,
6.38224E+17,17.97625,49.81895,85.82455,-83.42004,-51.88218,144.8852,-16.98673,-0.4441859,-4.27255,-61.44649,-6.98289,34.57793,0,0,0,67.59892,115.5213,39.99189,-36.05464,-110.6632,-50.32285,0.001067912,-0.1257102,0.09433498,0,0.3,0,0,0,0,
6.38224E+17,20.12021,51.36191,85.75451,-82.90732,-54.00629,144.8119,-16.98673,-0.4441859,-4.27255,-61.51973,-6.98289,34.57793,0,0,0,74.38723,117.6385,34.70074,-36.05464,-110.6632,-50.32285,0.001067912,-0.1257102,0.09433498,0,0.3,0,0,0,0,
6.38224E+17,22.61756,52.64771,85.47434,-79.24506,-56.86285,140.7834,-16.98673,-0.4441859,-4.27255,-61.44649,-6.909645,34.57793,0,0,0,82.23804,118.8305,29.04366,-36.05464,-110.6632,-50.32285,0.001067912,-0.1257102,0.09433498,0,0.3,0,0,0,0,
6.38224E+17,23.8898,53.13866,85.3576,-75.80254,-58.47424,136.462,-16.98673,-0.4441859,-4.27255,-61.51973,-6.98289,34.57793,0,0,0,86.22266,119.2491,26.31604,-36.05464,-110.6632,-50.32285,0.001067912,-0.1257102,0.09433498,0,0.3,0,0,0,0,
6.38224E+17,25.7746,53.86338,84.54045,-65.62146,-61.03782,125.9879,-16.98673,-0.4441859,-4.27255,-61.51973,-6.909645,34.57793,0,0,0,91.91618,118.3579,22.00308,-36.05464,-110.6632,-50.32285,0.001067912,-0.1257102,0.09433498,0,0.3,0,0,0,0,
6.38224E+17,27.61227,54.79851,83.13961,-50.89918,-62.35624,112.5108,-16.98673,-0.4441859,-4.27255,-61.51973,-6.909645,34.57793,0,0,0,96.99152,116.3856,17.0809,-36.05464,-110.6632,-50.32285,0.001067912,-0.1257102,0.09433498,0,0.3,0,0,0,0,
6.38224E+17,29.35571,55.28945,81.34187,-33.61332,-62.79571,98.15474,-16.98673,-0.4441859,-4.27255,-61.44649,-6.98289,34.57793,0,0,0,101.8522,112.8946,12.73563,-36.05464,-110.6632,-50.32285,0.001067912,-0.1257102,0.09433498,0,0.3,0,0,0,0,
6.38224E+17,30.41591,55.33621,79.96439,-23.13926,-62.57597,89.73154,-16.98673,-0.4441859,-4.27255,-61.51973,-6.909645,34.57793,0,0,0,104.8764,109.7932,10.29389,-36.05464,-110.6632,-50.32285,0.001067912,-0.1257102,0.09433498,0,0.3,0,0,0,0,
6.38224E+17,33.0075,54.93878,76.83585,-2.923595,-59.8659,73.39787,-16.98673,-0.4441859,-4.27255,-61.44649,-6.98289,34.57793,0,0,0,112.4628,102.1328,4.77786,-36.05464,-110.6632,-50.32285,0.001067912,-0.1257102,0.09433498,0,0.3,0,0,0,0,
6.38224E+17,35.55198,53.81662,72.70339,11.28597,-54.44576,62.70407,-16.98673,-0.4441859,-4.27255,-61.51973,-6.98289,34.57793,0,0,0,119.8035,91.33359,-0.7135898,-36.05464,-110.6632,-50.32285,0.001067912,-0.1257102,0.09433498,0,0.3,0,0,0,0,
6.38224E+17,37.4839,52.32042,68.68765,17.95128,-48.07343,57.94314,-16.98673,-0.4441859,-4.27255,-61.51973,-6.98289,34.57793,0,0,0,125.2008,80.42239,-5.090203,-36.05464,-110.6632,-50.32285,0.001067912,-0.1257102,0.09433498,0,0.3,0,0,0,0,
6.38224E+17,38.94461,50.28652,64.99879,20.66135,-41.40812,56.84446,-16.98673,-0.4441859,-4.27255,-61.44649,-6.98289,34.57793,0,0,0,129.5221,69.57068,-8.086971,-36.05464,-110.6632,-50.32285,0.001067912,-0.1257102,0.09433498,0,0.3,0,0,0,0,
6.38224E+17,39.41582,49.16436,63.50457,21.10082,-38.33182,56.99095,-16.98673,-0.4441859,-4.27255,-61.44649,-6.98289,34.57793,0,0,0,131.1417,64.7501,-8.7853,-36.05464,-110.6632,-50.32285,0.001067912,-0.1257102,0.09433498,0,0.3,0,0,0,0,
6.38224E+17,39.98125,47.01357,61.23988,21.02757,-32.6187,58.16287,-16.98673,-0.4441859,-4.27255,-61.44649,-6.98289,34.57793,0,0,0,133.533,56.73704,-9.105745,-36.05464,-110.6632,-50.32285,0.001067912,-0.1257102,0.09433498,0,0.3,0,0,0,0,
6.38224E+17,40.26397,45.19007,60.02582,20.5881,-27.71127,59.48129,-16.98673,-0.4441859,-4.27255,-61.51973,-6.98289,34.57793,0,0,0,135.398,51.33202,-8.490471,-36.05464,-110.6632,-50.32285,0.001067912,-0.1257102,0.09433498,0,0.3,0,0,0,0,
6.38224E+17,40.33466,44.5121,59.67561,20.29512,-25.8069,60.14049,-16.98673,-0.4441859,-4.27255,-61.44649,-6.909645,34.57793,0,0,0,136.0504,49.50857,-8.121388,-36.05464,-110.6632,-50.32285,0.001067912,-0.1257102,0.09433498,0,0.3,0,0,0,0,
6.38224E+17,40.42889,43.57697,59.41879,19.85565,-22.58411,61.38566,-16.98673,-0.4441859,-4.27255,-61.51973,-6.98289,34.57793,0,0,0,137.0986,47.42892,-7.424222,-36.05464,-110.6632,-50.32285,0.001067912,-0.1257102,0.09433498,0,0.3,0,0,0,0,
6.38224E+17,40.52313,42.87563,59.46548,19.78241,-20.38675,62.26461,-16.98673,-0.4441859,-4.27255,-61.51973,-6.98289,34.57793,0,0,0,138.1254,46.33312,-6.75815,-36.05464,-110.6632,-50.32285,0.001067912,-0.1257102,0.09433498,0,0.3,0,0,0,0,
6.38224E+17,40.61737,42.45482,59.53553,19.9289,-19.43457,62.70407,-16.98673,-0.4441859,-4.27255,-61.44649,-6.98289,34.57793,0,0,0,138.8769,45.75341,-6.418925,-36.05464,-110.6632,-50.32285,0.001067912,-0.1257102,0.09433498,0,0.3,0,0,0,0,
6.38224E+17,41.27705,41.33266,60.72623,20.66135,-17.74993,63.14355,-16.98673,-0.4441859,-4.27255,-61.51973,-6.98289,34.57793,0,0,0,142.793,46.21243,-5.680777,-36.05464,-110.6632,-50.32285,0.001067912,-0.1257102,0.09433498,0,0.3,0,0,0,0,
6.38224E+17,42.29013,39.95335,63.43452,23.22493,-16.50476,63.36329,-16.98673,-0.4441859,-4.27255,-61.44649,-6.98289,34.57793,0,0,0,149.0395,49.3457,-4.501062,-36.05464,-110.6632,-50.32285,0.001067912,-0.1257102,0.09433498,0,0.3,0,0,0,0,
6.38224E+17,43.20897,38.92471,67.31017,27.76613,-15.77231,62.85057,-16.98673,-0.4441859,-4.27255,-61.51973,-6.909645,34.57793,0,0,0,155.2621,55.69488,-3.064491,-36.05464,-110.6632,-50.32285,0.001067912,-0.1257102,0.09433498,0,0.3,0,0,0,0,
6.38224E+17,43.82153,38.57404,71.79285,33.91872,-15.99205,60.28699,-16.98673,-0.4441859,-4.27255,-61.44649,-6.98289,34.57793,0,0,0,159.8972,64.83142,-1.736131,-36.05464,-110.6632,-50.32285,0.001067912,-0.1257102,0.09433498,0,0.3,0,0,0,0,
6.38224E+17,44.01001,38.59741,74.96807,38.82615,-16.87099,56.91771,-16.98673,-0.4441859,-4.27255,-61.51973,-6.98289,34.57793,0,0,0,161.8892,71.95435,-0.7674477,-36.05464,-110.6632,-50.32285,0.001067912,-0.1257102,0.09433498,0,0.3,0,0,0,0,
6.38224E+17,44.01001,38.62079,76.64907,41.8292,-17.5302,54.42737,-16.98673,-0.4441859,-4.27255,-61.44649,-6.909645,34.57793,0,0,0,162.532,75.78969,-0.1020434,-36.05464,-110.6632,-50.32285,0.001067912,-0.1257102,0.09433498,0,0.3,0,0,0,0,
6.38224E+17,43.91577,38.69093,79.33401,46.80988,-18.62887,49.22696,-16.98673,-0.4441859,-4.27255,-61.51973,-6.98289,34.57793,0,0,0,163.086,82.02876,1.028084,-36.05464,-110.6632,-50.32285,0.001067912,-0.1257102,0.09433498,0,0.3,0,0,0,0,
6.38224E+17,43.70373,38.85457,81.17844,51.05809,-19.36132,44.75901,-16.98673,-0.4441859,-4.27255,-61.44649,-6.98289,34.57793,0,0,0,162.7952,86.55633,1.983231,-36.05464,-110.6632,-50.32285,0.001067912,-0.1257102,0.09433498,0,0.3,0,0,0,0,
6.38224E+17,43.60949,38.87795,82.20573,52.88922,-19.6543,42.78139,-16.98673,-0.4441859,-4.27255,-61.44649,-6.98289,34.50468,0,0,0,162.7295,88.96445,2.476178,-36.05464,-110.6632,-50.32285,0.001067912,-0.1257102,0.09433498,0,0.3,0,0,0,0,
