zeyangz2/DNN_classification_different_people_hand/data/frank_right_24.csv
Timestamp,Therapist joint angle 0,Therapist joint angle 1,Therapist joint angle 2,Therapist joint angle 3,Therapist joint angle 4,Therapist joint angle 5,Patient joint angle 0,Patient joint angle 1,Patient joint angle 2,Patient joint angle 3,Patient joint angle 4,Patient joint angle 5,Virtual joint angle 0,Virtual joint angle 1,Virtual joint angle 2,Therapist position x,Therapist position y,Therapist position z,Patient position x,Patient position y,Patient position z,Virtual position x,Virtual position y,Virtual position z,Assistive Force, Obstacle Force Magnitude, Therapist Constant Force, Patient Constant Force, Recovery Factor, Assistance Level,label
6.38224E+17,0,0,0,0,0,0,0,0,0,0,0,0,0,0,0,0,0,0,0,0,0,0,0,0,0,0.3,0,0,0,0,1
6.38224E+17,14.86634,0.116891,-7.681251,-129.0518,-10.71839,-72.21353,-16.98673,-0.4441859,-4.27255,-61.51973,-6.98289,34.57793,0,0,0,29.6399,-108.5314,-56.69109,-36.05464,-110.6632,-50.32285,0.001067912,-0.1257102,0.09433498,0,0.3,0,0,0,0,
6.38224E+17,14.86634,0.116891,-7.681251,-129.0518,-10.71839,-72.21353,-16.98673,-0.4441859,-4.27255,-61.44649,-6.98289,34.57793,0,0,0,29.6399,-108.5314,-56.69109,-36.05464,-110.6632,-50.32285,0.001067912,-0.1257102,0.09433498,0,0.3,0,0,0,0,
6.38224E+17,14.86634,0.116891,-7.681251,-129.0518,-10.71839,-72.21353,-16.98673,-0.4441859,-4.27255,-61.51973,-6.98289,34.57793,0,0,0,29.6399,-108.5314,-56.69109,-36.05464,-110.6632,-50.32285,0.001067912,-0.1257102,0.09433498,0,0.3,0,0,0,0,
6.38224E+17,14.86634,0.116891,-7.681251,-129.0518,-10.71839,-72.21353,-16.98673,-0.4441859,-4.27255,-61.44649,-6.909645,34.57793,0,0,0,29.6399,-108.5314,-56.69109,-36.05464,-110.6632,-50.32285,0.001067912,-0.1257102,0.09433498,0,0.3,0,0,0,0,
6.38224E+17,14.86634,0.116891,-7.681251,-129.0518,-10.71839,-72.21353,-16.98673,-0.4441859,-4.27255,-61.51973,-6.909645,34.57793,0,0,0,29.6399,-108.5314,-56.69109,-36.05464,-110.6632,-50.32285,0.001067912,-0.1257102,0.09433498,0,0.3,0,0,0,0,
6.38224E+17,14.86634,0.116891,-7.681251,-129.0518,-10.71839,-72.28677,-16.98673,-0.4441859,-4.27255,-61.51973,-6.98289,34.57793,0,0,0,29.6399,-108.5314,-56.69109,-36.05464,-110.6632,-50.32285,0.001067912,-0.1257102,0.09433498,0,0.3,0,0,1.16E-07,0,
6.38224E+17,14.86634,0.116891,-7.681251,-129.0518,-10.71839,-72.28677,-16.98673,-0.4441859,-4.27255,-61.44649,-6.909645,34.57793,0,0,0,29.6399,-108.5314,-56.69109,-36.05464,-110.6632,-50.32285,0.001067912,-0.1257102,0.09433498,0,0.3,0,0,1.16E-07,0,
6.38224E+17,14.86634,0.116891,-7.681251,-129.0518,-10.71839,-72.21353,-16.98673,-0.4441859,-4.27255,-61.44649,-6.909645,34.57793,0,0,0,29.6399,-108.5314,-56.69109,-36.05464,-110.6632,-50.32285,0.001067912,-0.1257102,0.09433498,0,0.3,0,0,1.16E-07,0,
6.38224E+17,14.86634,0.116891,-7.681251,-129.0518,-10.71839,-72.21353,-16.98673,-0.4441859,-4.27255,-61.51973,-6.98289,34.57793,0,0,0,29.6399,-108.5314,-56.69109,-36.05464,-110.6632,-50.32285,0.001067912,-0.1257102,0.09433498,0,0.3,0,0,1.16E-07,0,
6.38224E+17,14.86634,0.116891,-7.681251,-129.0518,-10.71839,-72.21353,-16.98673,-0.4441859,-4.27255,-61.44649,-6.909645,34.57793,0,0,0,29.6399,-108.5314,-56.69109,-36.05464,-110.6632,-50.32285,0.001067912,-0.1257102,0.09433498,0,0.3,0,0,1.16E-07,0,
6.38224E+17,14.86634,0.116891,-7.681251,-129.0518,-10.71839,-72.21353,-16.98673,-0.4441859,-4.27255,-61.44649,-6.98289,34.57793,0,0,0,29.6399,-108.5314,-56.69109,-36.05464,-110.6632,-50.32285,0.001067912,-0.1257102,0.09433498,0,0.3,0,0,1.16E-07,0,
6.38224E+17,14.86634,0.116891,-7.681251,-129.0518,-10.71839,-72.21353,-16.98673,-0.4441859,-4.27255,-61.51973,-6.98289,34.57793,0,0,0,29.6399,-108.5314,-56.69109,-36.05464,-110.6632,-50.32285,0.001067912,-0.1257102,0.09433498,0,0.3,0,0,1.16E-07,0,
6.38224E+17,14.86634,0.116891,-7.681251,-129.0518,-10.71839,-72.28677,-16.98673,-0.4441859,-4.27255,-61.44649,-6.909645,34.57793,0,0,0,29.6399,-108.5314,-56.69109,-36.05464,-110.6632,-50.32285,0.001067912,-0.1257102,0.09433498,0,0.3,0,0,2.31E-07,0,
6.38224E+17,14.86634,0.116891,-7.681251,-129.0518,-10.71839,-72.21353,-16.98673,-0.4441859,-4.27255,-61.51973,-6.98289,34.57793,0,0,0,29.6399,-108.5314,-56.69109,-36.05464,-110.6632,-50.32285,0.001067912,-0.1257102,0.09433498,0,0.3,0,0,2.31E-07,0,
6.38224E+17,14.86634,0.116891,-7.681251,-129.0518,-10.71839,-72.21353,-16.98673,-0.4441859,-4.27255,-61.51973,-6.909645,34.57793,0,0,0,29.6399,-108.5314,-56.69109,-36.05464,-110.6632,-50.32285,0.001067912,-0.1257102,0.09433498,0,0.3,0,0,2.31E-07,0,
6.38224E+17,14.86634,0.116891,-7.681251,-129.0518,-10.71839,-72.28677,-16.98673,-0.4441859,-4.27255,-61.44649,-6.98289,34.57793,0,0,0,29.6399,-108.5314,-56.69109,-36.05464,-110.6632,-50.32285,0.001067912,-0.1257102,0.09433498,0,0.3,0,0,2.31E-07,0,
6.38224E+17,14.86634,0.116891,-7.681251,-129.0518,-10.71839,-72.21353,-16.98673,-0.4441859,-4.27255,-61.51973,-6.98289,34.57793,0,0,0,29.6399,-108.5314,-56.69109,-36.05464,-110.6632,-50.32285,0.001067912,-0.1257102,0.09433498,0,0.3,0,0,2.31E-07,0,
6.38224E+17,14.86634,0.116891,-7.681251,-129.0518,-10.71839,-72.28677,-16.98673,-0.4441859,-4.27255,-61.44649,-6.98289,34.57793,0,0,0,29.6399,-108.5314,-56.69109,-36.05464,-110.6632,-50.32285,0.001067912,-0.1257102,0.09433498,0,0.3,0,0,2.31E-07,0,
6.38224E+17,14.84277,0.04675641,-7.681251,-129.0518,-10.79164,-72.5065,-16.98673,-0.4441859,-4.27255,-61.44649,-6.98289,34.57793,0,0,0,29.59404,-108.6946,-56.67868,-36.05464,-110.6632,-50.32285,0.001067912,-0.1257102,0.09433498,0,0.3,0,0,2.40E-05,0,
6.38224E+17,14.74854,-0.1402692,-7.564514,-129.1983,-10.79164,-76.75472,-16.98673,-0.4441859,-4.27255,-61.51973,-6.98289,34.57793,0,0,0,29.47879,-109.166,-56.37009,-36.05464,-110.6632,-50.32285,0.001067912,-0.1257102,0.09433498,0,0.3,0,0,0.000115879,0,
6.38224E+17,14.34802,-0.9585064,-6.74736,-130.8829,-10.49866,-99.09451,-16.98673,-0.4441859,-4.27255,-61.44649,-6.909645,34.57793,0,0,0,29.15839,-111.3071,-54.35629,-36.05464,-110.6632,-50.32285,0.001067912,-0.1257102,0.09433498,0,0.3,0,0,0.000765864,0,
6.38224E+17,14.32446,-0.9818845,-6.724013,-131.1026,-10.27892,-100.8524,-16.98673,-0.4441859,-4.27255,-61.44649,-6.98289,34.57793,0,0,0,29.12464,-111.3679,-54.29292,-36.05464,-110.6632,-50.32285,0.001067912,-0.1257102,0.09433498,0,0.3,0,0,0.001037711,0,
6.38224E+17,14.20666,-0.9585064,-6.840749,-131.1759,-9.985942,-97.04363,-16.98673,-0.4441859,-4.27255,-61.51973,-6.98289,34.57793,0,0,0,28.82409,-111.2814,-54.49393,-36.05464,-110.6632,-50.32285,0.001067912,-0.1257102,0.09433498,0,0.3,0,0,0.001654076,0,
6.38224E+17,13.54698,-0.9585064,-6.934138,-130.7364,-9.912696,-87.96124,-16.98673,-0.4441859,-4.27255,-61.51973,-6.98289,34.57793,0,0,0,27.46077,-111.2553,-54.37939,-36.05464,-110.6632,-50.32285,0.001067912,-0.1257102,0.09433498,0,0.3,0,0,0.002986857,0,
6.38224E+17,12.62814,-0.9818845,-6.934138,-130.6632,-9.912696,-83.05381,-16.98673,-0.4441859,-4.27255,-61.51973,-6.909645,34.57793,0,0,0,25.6294,-111.3097,-53.95459,-36.05464,-110.6632,-50.32285,0.001067912,-0.1257102,0.09433498,0,0.3,0,0,0.004411486,0,
6.38224E+17,9.965863,-0.9818845,-6.280415,-132.2746,-9.766206,-76.97446,-16.98673,-0.4441859,-4.27255,-61.51973,-6.909645,34.57793,0,0,0,20.54977,-111.4848,-51.39904,-36.05464,-110.6632,-50.32285,0.001067912,-0.1257102,0.09433498,0,0.3,0,0,0.009594034,0,
6.38224E+17,7.586308,-0.9818845,-5.626691,-136.889,-9.839451,-74.70387,-16.98673,-0.4441859,-4.27255,-61.44649,-6.98289,34.57793,0,0,0,15.87613,-111.6426,-49.14667,-36.05464,-110.6632,-50.32285,0.001067912,-0.1257102,0.09433498,0,0.3,0,0,0.01757628,0,
6.38224E+17,6.832388,-0.9818845,-5.486608,-138.6469,-9.692961,-72.94598,-16.98673,-0.4441859,-4.27255,-61.44649,-6.98289,34.57793,0,0,0,14.34488,-111.6742,-48.6259,-36.05464,-110.6632,-50.32285,0.001067912,-0.1257102,0.09433498,0,0.3,0,0,0.02643472,0,
6.38224E+17,6.926629,-0.9818845,-5.299829,-138.7934,-9.692961,-72.06703,-16.98673,-0.4441859,-4.27255,-61.44649,-6.909645,34.57793,0,0,0,14.59398,-111.715,-48.22003,-36.05464,-110.6632,-50.32285,0.001067912,-0.1257102,0.09433498,0,0.3,0,0,0.03055009,0,
6.38224E+17,6.973749,-1.005263,-5.136398,-138.9399,-9.766206,-70.96836,-16.98673,-0.4441859,-4.27255,-61.44649,-6.98289,34.57793,0,0,0,14.73864,-111.804,-47.85702,-36.05464,-110.6632,-50.32285,0.001067912,-0.1257102,0.09433498,0,0.3,0,0,0.03818799,0,
6.38224E+17,6.549669,-1.005263,-4.459328,-138.9399,-9.766206,-70.67538,-16.98673,-0.4441859,-4.27255,-61.44649,-6.98289,34.57793,0,0,0,14.02552,-111.9358,-46.1912,-36.05464,-110.6632,-50.32285,0.001067912,-0.1257102,0.09433498,0,0.3,0,0,0.04549558,0,
6.38224E+17,6.14915,-1.005263,-3.572132,-139.2328,-9.619716,-70.60213,-16.98673,-0.4441859,-4.27255,-61.51973,-6.98289,34.57793,0,0,0,13.39188,-112.0804,-44.04823,-36.05464,-110.6632,-50.32285,0.001067912,-0.1257102,0.09433498,0,0.3,0,0,0.04912145,0,
6.38224E+17,5.418791,-1.005263,-1.634309,-141.2105,-8.521038,-70.52889,-16.98673,-0.4441859,-4.27255,-61.44649,-6.909645,34.57793,0,0,0,12.23179,-112.2853,-39.40254,-36.05464,-110.6632,-50.32285,0.001067912,-0.1257102,0.09433498,0,0.3,0,0,0.05615027,0,
6.38224E+17,5.230311,-1.005263,0.1167363,-143.0416,-7.349115,-70.52889,-16.98673,-0.4441859,-4.27255,-61.51973,-6.909645,34.57793,0,0,0,12.17901,-112.3392,-35.30511,-36.05464,-110.6632,-50.32285,0.001067912,-0.1257102,0.09433498,0,0.3,0,0,0.06234719,0,
6.38224E+17,4.735552,-0.9818845,1.330794,-143.9938,-6.543418,-69.94292,-16.98673,-0.4441859,-4.27255,-61.51973,-6.98289,34.57793,0,0,0,11.26303,-112.2492,-32.38829,-36.05464,-110.6632,-50.32285,0.001067912,-0.1257102,0.09433498,0,0.3,0,0,0.06793132,0,
6.38224E+17,4.193673,-0.9818845,2.591547,-144.5065,-5.737722,-69.13722,-16.98673,-0.4441859,-4.27255,-61.44649,-6.98289,34.57793,0,0,0,10.19112,-112.1487,-29.36321,-36.05464,-110.6632,-50.32285,0.001067912,-0.1257102,0.09433498,0,0.3,0,0,0.07315015,0,
6.38224E+17,4.052313,-0.9818845,3.24527,-144.7262,-5.298251,-68.69775,-16.98673,-0.4441859,-4.27255,-61.44649,-6.909645,34.50468,0,0,0,9.955562,-112.0713,-27.8228,-36.05464,-110.6632,-50.32285,0.001067912,-0.1257102,0.09433498,0,0.3,0,0,0.07550915,0,
6.38224E+17,3.816714,-0.8416153,4.412633,-144.7262,-4.639044,-67.23285,-16.98673,-0.4441859,-4.27255,-61.44649,-6.909645,34.57793,0,0,0,9.558424,-111.5634,-25.07307,-36.05464,-110.6632,-50.32285,0.001067912,-0.1257102,0.09433498,0,0.3,0,0,0.07970344,0,
6.38224E+17,3.533994,-0.5376987,5.673386,-144.7262,-4.053083,-64.66927,-16.98673,-0.4441859,-4.27255,-61.44649,-6.98289,34.57793,0,0,0,9.032018,-110.5982,-22.10186,-36.05464,-110.6632,-50.32285,0.001067912,-0.1257102,0.09433498,0,0.3,0,0,0.08316871,0,
6.38224E+17,3.274835,-0.2805384,6.74736,-144.653,-3.686857,-62.69165,-16.98673,-0.4441859,-4.27255,-61.44649,-6.98289,34.57793,0,0,0,8.512613,-109.7293,-19.57743,-36.05464,-110.6632,-50.32285,0.001067912,-0.1257102,0.09433498,0,0.3,0,0,0.0860394,0,
6.38224E+17,3.109915,-0.2571602,7.307694,-144.7262,-3.540367,-61.29999,-16.98673,-0.4441859,-4.27255,-61.44649,-6.98289,34.57793,0,0,0,8.154585,-109.5154,-18.26088,-36.05464,-110.6632,-50.32285,0.001067912,-0.1257102,0.09433498,0,0.3,0,0,0.08726185,0,
6.38224E+17,2.709396,-0.2571602,8.28828,-144.7995,-3.027651,-58.95615,-16.98673,-0.4441859,-4.27255,-61.51973,-6.98289,34.57793,0,0,0,7.212096,-109.2057,-15.94899,-36.05464,-110.6632,-50.32285,0.001067912,-0.1257102,0.09433498,0,0.3,0,0,0.0894022,0,
6.38224E+17,2.450236,-0.2571602,9.22217,-145.0925,-2.58818,-56.6123,-16.98673,-0.4441859,-4.27255,-61.44649,-6.909645,34.57793,0,0,0,6.614524,-108.8749,-13.77171,-36.05464,-110.6632,-50.32285,0.001067912,-0.1257102,0.09433498,0,0.3,0,0,0.09107857,0,
6.38224E+17,2.403116,-0.2571602,9.759157,-145.239,-2.368444,-55.29389,-16.98673,-0.4441859,-4.27255,-61.44649,-6.98289,34.57793,0,0,0,6.539083,-108.6688,-12.53473,-36.05464,-110.6632,-50.32285,0.001067912,-0.1257102,0.09433498,0,0.3,0,0,0.0916857,0,
6.38224E+17,2.191077,-0.2571602,11.20669,-145.3122,-2.002218,-52.51057,-16.98673,-0.4441859,-4.27255,-61.44649,-6.909645,34.50468,0,0,0,6.08905,-108.0559,-9.201365,-36.05464,-110.6632,-50.32285,0.001067912,-0.1257102,0.09433498,0,0.3,0,0,0.09230183,0,
6.38224E+17,2.026157,-0.2571602,12.7943,-145.3855,-1.562747,-48.92156,-16.98673,-0.4441859,-4.27255,-61.51973,-6.98289,34.57793,0,0,0,5.758714,-107.2876,-5.572618,-36.05464,-110.6632,-50.32285,0.001067912,-0.1257102,0.09433498,0,0.3,0,0,0.09200029,0,
6.38224E+17,1.931917,-0.2571602,14.47531,-145.0925,-1.123276,-43.7944,-16.98673,-0.4441859,-4.27255,-61.44649,-6.98289,34.57793,0,0,0,5.619143,-106.3654,-1.763561,-36.05464,-110.6632,-50.32285,0.001067912,-0.1257102,0.09433498,0,0.3,0,0,0.09074965,0,
6.38224E+17,1.931917,-0.07013461,15.66602,-144.5798,-0.8302955,-39.98565,-16.98673,-0.4441859,-4.27255,-61.44649,-6.98289,34.57793,0,0,0,5.709394,-105.2096,0.9120535,-36.05464,-110.6632,-50.32285,0.001067912,-0.1257102,0.09433498,0,0.3,0,0,0.08871184,0,
6.38224E+17,1.908357,0.116891,16.2497,-144.2868,-0.6838052,-37.86154,-16.98673,-0.4441859,-4.27255,-61.44649,-6.98289,34.57793,0,0,0,5.683282,-104.4008,2.219589,-36.05464,-110.6632,-50.32285,0.001067912,-0.1257102,0.09433498,0,0.3,0,0,0.08742636,0,
6.38224E+17,1.837677,0.4909423,17.44041,-142.7486,-0.61056,-34.712,-16.98673,-0.4441859,-4.27255,-61.44649,-6.98289,34.57793,0,0,0,5.557769,-102.7272,4.872789,-36.05464,-110.6632,-50.32285,0.001067912,-0.1257102,0.09433498,0,0.3,0,0,0.08438203,0,
6.38224E+17,1.719877,0.5610769,18.7712,-141.2105,-0.61056,-32.4414,-16.98673,-0.4441859,-4.27255,-61.44649,-6.98289,34.57793,0,0,0,5.289922,-101.6014,7.824881,-36.05464,-110.6632,-50.32285,0.001067912,-0.1257102,0.09433498,0,0.3,0,0,0.08068257,0,
6.38224E+17,1.602077,0.5610769,19.42492,-140.5513,-0.5373149,-31.48921,-16.98673,-0.4441859,-4.27255,-61.51973,-6.98289,34.57793,0,0,0,4.967892,-101.1036,9.272546,-36.05464,-110.6632,-50.32285,0.001067912,-0.1257102,0.09433498,0,0.3,0,0,0.07861812,0,
6.38224E+17,1.060198,0.5610769,21.05923,-139.3061,-0.3175794,-29.80457,-16.98673,-0.4441859,-4.27255,-61.44649,-6.909645,34.57793,0,0,0,3.353847,-99.78765,12.87962,-36.05464,-110.6632,-50.32285,0.001067912,-0.1257102,0.09433498,0,0.3,0,0,0.0740725,0,
6.38224E+17,0.2355996,0.5610769,22.90367,-138.9399,0.4148723,-28.85239,-16.98673,-0.4441859,-4.27255,-61.51973,-6.98289,34.57793,0,0,0,0.7617074,-98.18092,16.88958,-36.05464,-110.6632,-50.32285,0.001067912,-0.1257102,0.09433498,0,0.3,0,0,0.06896176,0,
6.38224E+17,-0.8010387,0.5610769,24.91153,-138.8666,2.026266,-28.41291,-16.98673,-0.4441859,-4.27255,-61.51973,-6.98289,34.50468,0,0,0,-2.649451,-96.28719,21.14456,-36.05464,-110.6632,-50.32285,0.001067912,-0.1257102,0.09433498,0,0.3,0,0,0.06325931,0,
6.38224E+17,-1.696317,0.5610769,26.45245,-138.7201,3.344679,-28.26642,-16.98673,-0.4441859,-4.27255,-61.51973,-6.98289,34.57793,0,0,0,-5.705637,-94.73301,24.31056,-36.05464,-110.6632,-50.32285,0.001067912,-0.1257102,0.09433498,0,0.3,0,0,0.06009512,0,
6.38224E+17,-2.897875,0.5610769,28.62375,-138.8666,5.029318,-28.19318,-16.98673,-0.4441859,-4.27255,-61.51973,-6.98289,34.57793,0,0,0,-9.970922,-92.39674,28.62348,-36.05464,-110.6632,-50.32285,0.001067912,-0.1257102,0.09433498,0,0.3,0,0,0.05333463,0,
6.38224E+17,-3.981634,0.6312115,31.00517,-139.4526,6.274486,-27.97344,-16.98673,-0.4441859,-4.27255,-61.44649,-6.98289,34.57793,0,0,0,-14.1211,-89.39396,33.32846,-36.05464,-110.6632,-50.32285,0.001067912,-0.1257102,0.09433498,0,0.3,0,0,0.04568789,0,
6.38224E+17,-4.476392,0.7481025,32.14919,-139.6723,6.640712,-27.75371,-16.98673,-0.4441859,-4.27255,-61.44649,-6.98289,34.57793,0,0,0,-15.94509,-87.81175,35.32439,-36.05464,-110.6632,-50.32285,0.001067912,-0.1257102,0.09433498,0,0.3,0,0,0.04154941,0,
6.38224E+17,-5.489471,1.192288,34.53061,-139.6723,7.226673,-27.0945,-16.98673,-0.4441859,-4.27255,-61.51973,-6.98289,34.57793,0,0,0,-19.98493,-83.73214,39.60199,-36.05464,-110.6632,-50.32285,0.001067912,-0.1257102,0.09433498,0,0.3,0,0,0.03259132,0,
6.38224E+17,-6.314069,1.870256,36.84199,-139.3061,7.739389,-26.36205,-16.98673,-0.4441859,-4.27255,-61.44649,-6.98289,34.57793,0,0,0,-23.45146,-79.01691,43.59348,-36.05464,-110.6632,-50.32285,0.001067912,-0.1257102,0.09433498,0,0.3,0,0,0.02262596,0,
6.38224E+17,-6.973749,3.062545,38.89655,-138.7201,7.592898,-25.70284,-16.98673,-0.4441859,-4.27255,-61.44649,-6.909645,34.57793,0,0,0,-26.33387,-73.30941,46.93757,-36.05464,-110.6632,-50.32285,0.001067912,-0.1257102,0.09433498,0,0.3,0,0,0.01170573,0,
6.38224E+17,-7.397828,4.722397,40.64759,-136.0833,7.373164,-24.8239,-16.98673,-0.4441859,-4.27255,-61.51973,-6.98289,34.57793,0,0,0,-28.29613,-66.84827,49.58283,-36.05464,-110.6632,-50.32285,0.001067912,-0.1257102,0.09433498,0,0.3,0,0,0,0,
6.38224E+17,-7.562747,5.447122,41.55813,-134.2522,7.226673,-24.38443,-16.98673,-0.4441859,-4.27255,-61.44649,-6.909645,34.57793,0,0,0,-29.1138,-63.77502,50.93526,-36.05464,-110.6632,-50.32285,0.001067912,-0.1257102,0.09433498,0,0.3,0,0,0,0,
6.38224E+17,-7.986827,6.779679,44.21972,-130.5167,6.787202,-23.72522,-16.98673,-0.4441859,-4.27255,-61.44649,-6.98289,34.57793,0,0,0,-31.32072,-56.47582,54.88087,-36.05464,-110.6632,-50.32285,0.001067912,-0.1257102,0.09433498,0,0.3,0,0,0,0,
6.38224E+17,-8.316667,8.018724,47.11478,-127.2939,6.933692,-23.13926,-16.98673,-0.4441859,-4.27255,-61.51973,-6.98289,34.57793,0,0,0,-33.23257,-48.79704,58.98804,-36.05464,-110.6632,-50.32285,0.001067912,-0.1257102,0.09433498,0,0.3,0,0,0,0,
6.38224E+17,-8.410906,8.626557,48.58566,-125.829,7.080183,-21.89409,-16.98673,-0.4441859,-4.27255,-61.44649,-6.98289,34.57793,0,0,0,-33.91252,-44.85932,61.00302,-36.05464,-110.6632,-50.32285,0.001067912,-0.1257102,0.09433498,0,0.3,0,0,0,0,
6.38224E+17,-8.505146,9.678576,51.15386,-122.533,7.446409,-15.30203,-16.98673,-0.4441859,-4.27255,-61.51973,-6.98289,34.57793,0,0,0,-34.80184,-37.87238,64.37155,-36.05464,-110.6632,-50.32285,0.001067912,-0.1257102,0.09433498,0,0.3,0,0,0,0,
6.38224E+17,-8.481586,11.29167,53.48859,-119.0904,7.299919,-3.875783,-16.98673,-0.4441859,-4.27255,-61.44649,-6.909645,34.57793,0,0,0,-35.09521,-29.88056,66.99492,-36.05464,-110.6632,-50.32285,0.001067912,-0.1257102,0.09433498,0,0.3,0,0,0,0,
6.38224E+17,-8.410906,12.27356,54.60926,-117.6255,7.006938,2.350057,-16.98673,-0.4441859,-4.27255,-61.51973,-6.98289,34.57793,0,0,0,-34.96059,-25.53212,68.0912,-36.05464,-110.6632,-50.32285,0.001067912,-0.1257102,0.09433498,0,0.3,0,0,0,0,
6.38224E+17,-8.269547,14.49449,56.92064,-114.0365,5.76177,17.80479,-16.98673,-0.4441859,-4.27255,-61.44649,-6.909645,34.57793,0,0,0,-34.64032,-16.05671,69.98753,-36.05464,-110.6632,-50.32285,0.001067912,-0.1257102,0.09433498,0,0.3,0,0,0,0,
6.38224E+17,-8.198866,16.71542,59.11527,-109.6418,4.150376,34.65118,-16.98673,-0.4441859,-4.27255,-61.44649,-6.909645,34.57793,0,0,0,-34.53379,-6.746327,71.33146,-36.05464,-110.6632,-50.32285,0.001067912,-0.1257102,0.09433498,0,0.3,0,0,0,0,
6.38224E+17,-8.033947,19.33377,61.70683,-102.9033,2.172756,52.08353,-16.98673,-0.4441859,-4.27255,-61.44649,-6.909645,34.57793,0,0,0,-33.99643,4.292594,72.51166,-36.05464,-110.6632,-50.32285,0.001067912,-0.1257102,0.09433498,0,0.3,0,0,0,0,
6.38224E+17,-7.892587,20.99363,62.68741,-98.72827,1.293814,59.70102,-16.98673,-0.4441859,-4.27255,-61.44649,-6.98289,34.57793,0,0,0,-33.3654,9.937558,72.33022,-36.05464,-110.6632,-50.32285,0.001067912,-0.1257102,0.09433498,0,0.3,0,0,0,0,
6.38224E+17,-7.704108,22.11578,62.87419,-95.57873,0.8543434,64.24223,-16.98673,-0.4441859,-4.27255,-61.44649,-6.98289,34.57793,0,0,0,-32.47151,12.75314,71.68488,-36.05464,-110.6632,-50.32285,0.001067912,-0.1257102,0.09433498,0,0.3,0,0,0,0,
6.38224E+17,-7.468508,24.33671,63.31779,-89.20641,0.5613627,73.69085,-16.98673,-0.4441859,-4.27255,-61.51973,-6.98289,34.57793,0,0,0,-31.28,18.42359,70.25854,-36.05464,-110.6632,-50.32285,0.001067912,-0.1257102,0.09433498,0,0.3,0,0,0,0,
6.38224E+17,-7.067988,26.53426,64.50849,-83.20029,-0.171089,82.40703,-16.98673,-0.4441859,-4.27255,-61.51973,-6.98289,34.57793,0,0,0,-29.49095,25.53102,69.50085,-36.05464,-110.6632,-50.32285,0.001067912,-0.1257102,0.09433498,0,0.3,0,0,0,0,
6.38224E+17,-6.47899,28.70843,65.88599,-79.24506,-1.196521,88.70612,-16.98673,-0.4441859,-4.27255,-61.51973,-6.98289,34.57793,0,0,0,-26.93138,32.92438,68.79681,-36.05464,-110.6632,-50.32285,0.001067912,-0.1257102,0.09433498,0,0.3,0,0,0,0,
6.38224E+17,-6.07847,29.90072,66.46967,-77.99989,-1.928973,91.1232,-16.98673,-0.4441859,-4.27255,-61.51973,-6.98289,34.57793,0,0,0,-25.18727,36.58687,68.17433,-36.05464,-110.6632,-50.32285,0.001067912,-0.1257102,0.09433498,0,0.3,0,0,0,0,
6.38224E+17,-4.994712,32.65935,67.59034,-76.46174,-3.467122,94.8587,-16.98673,-0.4441859,-4.27255,-61.44649,-6.98289,34.57793,0,0,0,-20.50755,44.47488,66.30176,-36.05464,-110.6632,-50.32285,0.001067912,-0.1257102,0.09433498,0,0.3,0,0,0,0,
6.38224E+17,-3.439754,35.76865,69.31803,-75.80254,-5.737722,98.52097,-16.98673,-0.4441859,-4.27255,-61.44649,-6.98289,34.57793,0,0,0,-13.97702,54.19831,64.18463,-36.05464,-110.6632,-50.32285,0.001067912,-0.1257102,0.09433498,0,0.3,0,0,0,0,
6.38224E+17,-1.837677,38.19999,70.95234,-75.87578,-7.935077,101.4508,-16.98673,-0.4441859,-4.27255,-61.51973,-6.98289,34.57793,0,0,0,-7.40267,62.29535,62.37406,-36.05464,-110.6632,-50.32285,0.001067912,-0.1257102,0.09433498,0,0.3,0,0,0,0,
6.38224E+17,-0.612559,40.07024,72.02631,-76.242,-9.326735,103.4284,-16.98673,-0.4441859,-4.27255,-61.51973,-6.98289,34.57793,0,0,0,-2.447047,68.04173,60.52608,-36.05464,-110.6632,-50.32285,0.001067912,-0.1257102,0.09433498,0,0.3,0,0,0,0,
6.38224E+17,1.602077,43.38995,73.12363,-76.75472,-11.67058,107.1639,-16.98673,-0.4441859,-4.27255,-61.44649,-6.98289,34.57793,0,0,0,6.276876,76.24361,56.07412,-36.05464,-110.6632,-50.32285,0.001067912,-0.1257102,0.09433498,0,0.3,0,0,0,0,
6.38224E+17,2.780076,45.19007,73.31042,-76.53499,-12.91575,109.1415,-16.98673,-0.4441859,-4.27255,-61.44649,-6.98289,34.50468,0,0,0,10.75357,79.65865,53.10103,-36.05464,-110.6632,-50.32285,0.001067912,-0.1257102,0.09433498,0,0.3,0,0,0,0,
6.38224E+17,6.47899,50.91772,73.45049,-75.21658,-17.5302,112.8038,-16.98673,-0.4441859,-4.27255,-61.51973,-6.98289,34.57793,0,0,0,23.90993,88.87791,42.19114,-36.05464,-110.6632,-50.32285,0.001067912,-0.1257102,0.09433498,0,0.3,0,0,0,0,
6.38224E+17,7.633427,52.53082,73.56724,-74.99684,-18.84861,113.5362,-16.98673,-0.4441859,-4.27255,-61.51973,-6.909645,34.57793,0,0,0,27.76568,91.46394,38.82205,-36.05464,-110.6632,-50.32285,0.001067912,-0.1257102,0.09433498,0,0.3,0,0,0,0,
6.38224E+17,10.67266,55.94404,73.56724,-74.55737,-21.85166,114.4152,-16.98673,-0.4441859,-4.27255,-61.51973,-6.98289,34.57793,0,0,0,37.51723,96.1059,30.72491,-36.05464,-110.6632,-50.32285,0.001067912,-0.1257102,0.09433498,0,0.3,0,0,0,0,
6.38224E+17,14.34802,59.14686,72.89016,-72.79948,-25.95339,114.6349,-16.98673,-0.4441859,-4.27255,-61.44649,-6.909645,34.57793,0,0,0,48.53017,98.59676,21.37698,-36.05464,-110.6632,-50.32285,0.001067912,-0.1257102,0.09433498,0,0.3,0,0,0,0,
6.38224E+17,16.13857,60.40928,72.39987,-70.96836,-28.0775,114.1222,-16.98673,-0.4441859,-4.27255,-61.51973,-6.98289,34.57793,0,0,0,53.6344,98.9865,17.00229,-36.05464,-110.6632,-50.32285,0.001067912,-0.1257102,0.09433498,0,0.3,0,0,0,0,
6.38224E+17,20.21445,62.53669,71.58272,-64.37629,-32.98492,109.8007,-16.98673,-0.4441859,-4.27255,-61.44649,-6.909645,34.57793,0,0,0,64.96688,99.54234,8.087513,-36.05464,-110.6632,-50.32285,0.001067912,-0.1257102,0.09433498,0,0.3,0,0,0,0,
6.38224E+17,24.10184,63.89263,70.83561,-55.1474,-37.81911,103.4284,-16.98673,-0.4441859,-4.27255,-61.51973,-6.98289,34.57793,0,0,0,75.4,99.31833,0.1942938,-36.05464,-110.6632,-50.32285,0.001067912,-0.1257102,0.09433498,0,0.3,0,0,0,0,
6.38224E+17,27.98923,64.59397,69.24799,-43.20844,-41.11514,96.32361,-16.98673,-0.4441859,-4.27255,-61.44649,-6.98289,34.57793,0,0,0,85.37129,96.55466,-7.717145,-36.05464,-110.6632,-50.32285,0.001067912,-0.1257102,0.09433498,0,0.3,0,0,0,0,
6.38224E+17,30.01539,64.66412,68.19736,-35.88392,-41.84759,92.80784,-16.98673,-0.4441859,-4.27255,-61.44649,-6.98289,34.57793,0,0,0,90.47956,94.34608,-11.73197,-36.05464,-110.6632,-50.32285,0.001067912,-0.1257102,0.09433498,0,0.3,0,0,0,0,
6.38224E+17,33.8321,64.50047,65.95602,-21.0884,-41.04189,87.68068,-16.98673,-0.4441859,-4.27255,-61.44649,-6.909645,34.57793,0,0,0,99.76453,89.3784,-19.50401,-36.05464,-110.6632,-50.32285,0.001067912,-0.1257102,0.09433498,0,0.3,0,0,0,0,
6.38224E+17,36.56506,64.05627,63.99486,-10.76083,-38.47831,84.53114,-16.98673,-0.4441859,-4.27255,-61.51973,-6.98289,34.57793,0,0,0,106.1528,84.79399,-25.23281,-36.05464,-110.6632,-50.32285,0.001067912,-0.1257102,0.09433498,0,0.3,0,0,0,0,
6.38224E+17,37.8373,63.77574,62.94423,-6.659099,-36.79367,83.57895,-16.98673,-0.4441859,-4.27255,-61.51973,-6.909645,34.57793,0,0,0,108.994,82.3192,-28.02444,-36.05464,-110.6632,-50.32285,0.001067912,-0.1257102,0.09433498,0,0.3,0,0,0,0,
6.38224E+17,40.19329,63.26142,60.95971,-1.092466,-33.4244,82.48027,-16.98673,-0.4441859,-4.27255,-61.51973,-6.98289,34.57793,0,0,0,113.9604,77.70934,-33.46407,-36.05464,-110.6632,-50.32285,0.001067912,-0.1257102,0.09433498,0,0.3,0,0,0,0,
6.38224E+17,42.26657,62.81723,59.23202,2.423302,-30.42134,82.04079,-16.98673,-0.4441859,-4.27255,-61.51973,-6.909645,34.57793,0,0,0,118.0371,73.7551,-38.47676,-36.05464,-110.6632,-50.32285,0.001067912,-0.1257102,0.09433498,0,0.3,0,0,0,0,
6.38224E+17,44.05713,62.04575,57.48097,5.426354,-27.85776,82.8465,-16.98673,-0.4441859,-4.27255,-61.44649,-6.909645,34.57793,0,0,0,121.6576,69.45476,-42.62098,-36.05464,-110.6632,-50.32285,0.001067912,-0.1257102,0.09433498,0,0.3,0,0,0,0,
6.38224E+17,45.14088,60.68982,55.40306,7.989935,-25.51392,85.19034,-16.98673,-0.4441859,-4.27255,-61.51973,-6.98289,34.57793,0,0,0,124.0824,63.91274,-44.87633,-36.05464,-110.6632,-50.32285,0.001067912,-0.1257102,0.09433498,0,0.3,0,0,0,0,
6.38224E+17,46.22464,58.67929,53.25511,9.674574,-23.02358,89.21883,-16.98673,-0.4441859,-4.27255,-61.44649,-6.98289,34.50468,0,0,0,127.2074,57.48999,-46.46751,-36.05464,-110.6632,-50.32285,0.001067912,-0.1257102,0.09433498,0,0.3,0,0,0,0,
6.38224E+17,48.0152,55.94404,50.80365,12.16491,-18.9951,93.90652,-16.98673,-0.4441859,-4.27255,-61.44649,-6.98289,34.57793,0,0,0,132.3266,49.55475,-49.26612,-36.05464,-110.6632,-50.32285,0.001067912,-0.1257102,0.09433498,0,0.3,0,0,0,0,
6.38224E+17,49.49948,53.91014,49.42616,14.65524,-15.40608,95.37142,-16.98673,-0.4441859,-4.27255,-61.44649,-6.98289,34.57793,0,0,0,136.7494,44.37485,-51.55285,-36.05464,-110.6632,-50.32285,0.001067912,-0.1257102,0.09433498,0,0.3,0,0,0,0,
6.38224E+17,50.489,52.92825,49.07595,16.33988,-13.13548,95.73765,-16.98673,-0.4441859,-4.27255,-61.44649,-6.98289,34.57793,0,0,0,139.7513,42.39548,-53.10284,-36.05464,-110.6632,-50.32285,0.001067912,-0.1257102,0.09433498,0,0.3,0,0,0,0,
6.38224E+17,52.30311,51.64245,48.53897,20.51486,-9.25349,95.95738,-16.98673,-0.4441859,-4.27255,-61.51973,-6.98289,34.57793,0,0,0,144.5515,39.62442,-56.64048,-36.05464,-110.6632,-50.32285,0.001067912,-0.1257102,0.09433498,0,0.3,0,0,0,0,
6.38224E+17,53.41043,50.9411,47.65177,24.68983,-6.616664,95.88414,-16.98673,-0.4441859,-4.27255,-61.44649,-6.98289,34.57793,0,0,0,146.5987,37.06688,-59.5176,-36.05464,-110.6632,-50.32285,0.001067912,-0.1257102,0.09433498,0,0.3,0,0,0,0,
6.38224E+17,53.88163,50.70732,47.46499,26.44772,-5.444741,95.88414,-16.98673,-0.4441859,-4.27255,-61.51973,-6.909645,34.57793,0,0,0,147.5925,36.40237,-60.65119,-36.05464,-110.6632,-50.32285,0.001067912,-0.1257102,0.09433498,0,0.3,0,0,0,0,
6.38224E+17,54.77691,50.61381,47.46499,29.37753,-3.686857,96.4701,-16.98673,-0.4441859,-4.27255,-61.51973,-6.98289,34.57793,0,0,0,149.3948,36.26441,-62.87337,-36.05464,-110.6632,-50.32285,0.001067912,-0.1257102,0.09433498,0,0.3,0,0,0,0,
6.38224E+17,55.05963,50.91772,47.69846,31.72137,-2.295199,96.76308,-16.98673,-0.4441859,-4.27255,-61.44649,-6.98289,34.57793,0,0,0,149.7648,37.11294,-63.71569,-36.05464,-110.6632,-50.32285,0.001067912,-0.1257102,0.09433498,0,0.3,0,0,0,0,
6.38224E+17,55.05963,51.36191,48.16541,32.7468,-1.635992,96.98281,-16.98673,-0.4441859,-4.27255,-61.44649,-6.909645,34.57793,0,0,0,149.7018,38.56833,-63.7597,-36.05464,-110.6632,-50.32285,0.001067912,-0.1257102,0.09433498,0,0.3,0,0,0,0,
6.38224E+17,55.05963,53.0919,49.96315,35.38363,-1.562747,98.08149,-16.98673,-0.4441859,-4.27255,-61.44649,-6.98289,34.57793,0,0,0,149.3401,44.19522,-64.01236,-36.05464,-110.6632,-50.32285,0.001067912,-0.1257102,0.09433498,0,0.3,0,0,0,0,
6.38224E+17,55.05963,54.705,51.55077,37.43449,-2.58818,98.52097,-16.98673,-0.4441859,-4.27255,-61.51973,-6.98289,34.57793,0,0,0,148.7697,49.26883,-64.4109,-36.05464,-110.6632,-50.32285,0.001067912,-0.1257102,0.09433498,0,0.3,0,0,0,0,
6.38224E+17,54.80047,57.06619,54.25905,40.3643,-4.85878,98.66745,-16.98673,-0.4441859,-4.27255,-61.44649,-6.909645,34.57793,0,0,0,147.6868,57.37794,-64.17027,-36.05464,-110.6632,-50.32285,0.001067912,-0.1257102,0.09433498,0,0.3,0,0,0,0,
6.38224E+17,54.37639,58.35199,55.77662,41.97569,-6.396928,98.7407,-16.98673,-0.4441859,-4.27255,-61.51973,-6.98289,34.57793,0,0,0,146.5013,61.87038,-63.37403,-36.05464,-110.6632,-50.32285,0.001067912,-0.1257102,0.09433498,0,0.3,0,0,0,0,
6.38224E+17,52.9628,60.75995,58.36817,45.12524,-10.13243,97.93501,-16.98673,-0.4441859,-4.27255,-61.44649,-6.98289,34.57793,0,0,0,142.6274,69.77204,-60.72723,-36.05464,-110.6632,-50.32285,0.001067912,-0.1257102,0.09433498,0,0.3,0,0,0,0,
6.38224E+17,51.078,62.60683,60.07252,47.54232,-14.30741,96.76308,-16.98673,-0.4441859,-4.27255,-61.51973,-6.98289,34.50468,0,0,0,137.6459,75.2187,-57.19645,-36.05464,-110.6632,-50.32285,0.001067912,-0.1257102,0.09433498,0,0.3,0,0,0,0,
6.38224E+17,48.81624,64.0329,60.91301,49.15372,-18.48238,96.17712,-16.98673,-0.4441859,-4.27255,-61.51973,-6.98289,34.57793,0,0,0,131.6452,78.41138,-53.1692,-36.05464,-110.6632,-50.32285,0.001067912,-0.1257102,0.09433498,0,0.3,0,0,0,0,
6.38224E+17,46.69584,64.73425,60.91301,49.59319,-22.14464,95.95738,-16.98673,-0.4441859,-4.27255,-61.51973,-6.909645,34.57793,0,0,0,126.2224,79.1171,-49.38677,-36.05464,-110.6632,-50.32285,0.001067912,-0.1257102,0.09433498,0,0.3,0,0,0,0,
6.38224E+17,45.75344,64.87452,60.67955,49.51994,-23.82928,95.88414,-16.98673,-0.4441859,-4.27255,-61.44649,-6.98289,34.57793,0,0,0,123.8471,78.78176,-47.71796,-36.05464,-110.6632,-50.32285,0.001067912,-0.1257102,0.09433498,0,0.3,0,0,0,0,
6.38224E+17,43.93933,64.75762,59.62892,48.42127,-26.53935,96.32361,-16.98673,-0.4441859,-4.27255,-61.44649,-6.98289,34.57793,0,0,0,119.2927,76.54511,-44.55677,-36.05464,-110.6632,-50.32285,0.001067912,-0.1257102,0.09433498,0,0.3,0,0,0,0,
6.38224E+17,42.33725,64.40695,57.43428,45.27173,-29.02968,98.30123,-16.98673,-0.4441859,-4.27255,-61.51973,-6.98289,34.57793,0,0,0,114.4858,71.83849,-42.69597,-36.05464,-110.6632,-50.32285,0.001067912,-0.1257102,0.09433498,0,0.3,0,0,0,0,
6.38224E+17,41.72469,64.1498,56.05679,42.85464,-29.76214,99.69289,-16.98673,-0.4441859,-4.27255,-61.51973,-6.98289,34.57793,0,0,0,112.3247,68.89783,-42.38882,-36.05464,-110.6632,-50.32285,0.001067912,-0.1257102,0.09433498,0,0.3,0,0,0,0,
6.38224E+17,40.99433,63.2848,53.04499,36.6288,-30.56783,103.1354,-16.98673,-0.4441859,-4.27255,-61.51973,-6.98289,34.57793,0,0,0,109.2275,62.29678,-42.67301,-36.05464,-110.6632,-50.32285,0.001067912,-0.1257102,0.09433498,0,0.3,0,0,0,0,
6.38224E+17,41.04145,61.74184,50.07989,30.98892,-29.90863,105.4793,-16.98673,-0.4441859,-4.27255,-61.51973,-6.98289,34.57793,0,0,0,108.606,55.23457,-43.59554,-36.05464,-110.6632,-50.32285,0.001067912,-0.1257102,0.09433498,0,0.3,0,0,0,0,
6.38224E+17,41.37129,59.17023,46.34432,27.10692,-27.71127,107.6034,-16.98673,-0.4441859,-4.27255,-61.51973,-6.909645,34.57793,0,0,0,108.935,45.80225,-44.6626,-36.05464,-110.6632,-50.32285,0.001067912,-0.1257102,0.09433498,0,0.3,0,0,0,0,
6.38224E+17,41.51265,57.53376,44.38315,25.78851,-25.95339,109.0683,-16.98673,-0.4441859,-4.27255,-61.51973,-6.909645,34.57793,0,0,0,109.2633,40.55608,-44.90524,-36.05464,-110.6632,-50.32285,0.001067912,-0.1257102,0.09433498,0,0.3,0,0,0,0,
6.38224E+17,41.63045,53.91014,40.67094,23.88414,-21.33894,112.3643,-16.98673,-0.4441859,-4.27255,-61.51973,-6.909645,34.57793,0,0,0,109.9165,29.96804,-44.68049,-36.05464,-110.6632,-50.32285,0.001067912,-0.1257102,0.09433498,0,0.3,0,0,0,0,
6.38224E+17,41.55977,49.18774,36.93538,22.27274,-14.60039,115.3673,-16.98673,-0.4441859,-4.27255,-61.44649,-6.98289,34.57793,0,0,0,110.9784,17.68815,-43.17508,-36.05464,-110.6632,-50.32285,0.001067912,-0.1257102,0.09433498,0,0.3,0,0,0,0,
6.38224E+17,41.39485,46.19533,34.83412,21.32055,-9.839451,116.3928,-16.98673,-0.4441859,-4.27255,-61.44649,-6.98289,34.57793,0,0,0,111.4032,10.1343,-41.96503,-36.05464,-110.6632,-50.32285,0.001067912,-0.1257102,0.09433498,0,0.3,0,0,0,0,
6.38224E+17,41.27705,44.41859,33.52667,20.66135,-6.98289,116.6858,-16.98673,-0.4441859,-4.27255,-61.51973,-6.98289,34.57793,0,0,0,111.4216,5.516609,-41.41894,-36.05464,-110.6632,-50.32285,0.001067912,-0.1257102,0.09433498,0,0.3,0,0,0,0,
6.38224E+17,41.04145,41.35604,31.26199,19.41618,-2.075463,116.9788,-16.98673,-0.4441859,-4.27255,-61.44649,-6.98289,34.57793,0,0,0,111.1614,-2.528852,-40.66016,-36.05464,-110.6632,-50.32285,0.001067912,-0.1257102,0.09433498,0,0.3,0,0,0,0,
6.38224E+17,40.47601,38.69093,29.4876,17.87803,2.612227,117.052,-16.98673,-0.4441859,-4.27255,-61.51973,-6.98289,34.57793,0,0,0,110.1723,-9.366519,-39.24537,-36.05464,-110.6632,-50.32285,0.001067912,-0.1257102,0.09433498,0,0.3,0,0,0,0,
6.38224E+17,39.43937,37.07783,27.97002,15.97366,6.640712,117.052,-16.98673,-0.4441859,-4.27255,-61.51973,-6.98289,34.57793,0,0,0,107.3156,-14.02717,-37.88478,-36.05464,-110.6632,-50.32285,0.001067912,-0.1257102,0.09433498,0,0.3,0,0,0,0,
6.38224E+17,38.5441,36.56351,27.10618,14.65524,8.545086,117.052,-16.98673,-0.4441859,-4.27255,-61.51973,-6.98289,34.57793,0,0,0,104.6001,-15.91494,-37.05714,-36.05464,-110.6632,-50.32285,0.001067912,-0.1257102,0.09433498,0,0.3,0,0,0,0,
6.38224E+17,36.56506,36.32973,25.37848,11.43246,11.10867,117.052,-16.98673,-0.4441859,-4.27255,-61.51973,-6.909645,34.57793,0,0,0,98.04777,-18.13053,-36.16023,-36.05464,-110.6632,-50.32285,0.001067912,-0.1257102,0.09433498,0,0.3,0,0,0,0,
6.38224E+17,34.37398,36.42324,23.25388,7.110993,13.01304,117.052,-16.98673,-0.4441859,-4.27255,-61.44649,-6.98289,34.57793,0,0,0,90.30533,-19.99131,-36.33384,-36.05464,-110.6632,-50.32285,0.001067912,-0.1257102,0.09433498,0,0.3,0,0,0,0,
6.38224E+17,32.86615,36.63364,21.64292,3.375489,14.25821,117.052,-16.98673,-0.4441859,-4.27255,-61.44649,-6.98289,34.50468,0,0,0,84.7616,-21.02945,-37.1586,-36.05464,-110.6632,-50.32285,0.001067912,-0.1257102,0.09433498,0,0.3,0,0,0,0,
6.38224E+17,31.66459,37.19472,20.28877,-0.2135241,15.28364,116.9788,-16.98673,-0.4441859,-4.27255,-61.44649,-6.909645,34.57793,0,0,0,80.03535,-21.11305,-38.5824,-36.05464,-110.6632,-50.32285,0.001067912,-0.1257102,0.09433498,0,0.3,0,0,0,0,
6.38224E+17,30.53371,38.2935,18.7712,-5.120951,15.57662,116.2463,-16.98673,-0.4441859,-4.27255,-61.44649,-6.98289,34.57793,0,0,0,74.97222,-20.27161,-41.24348,-36.05464,-110.6632,-50.32285,0.001067912,-0.1257102,0.09433498,0,0.3,0,0,0,0,
6.38224E+17,30.20387,38.94809,18.23421,-7.171815,15.35689,115.6603,-16.98673,-0.4441859,-4.27255,-61.44649,-6.909645,34.57793,0,0,0,73.16465,-19.47794,-42.66008,-36.05464,-110.6632,-50.32285,0.001067912,-0.1257102,0.09433498,0,0.3,0,0,0,0,
6.38224E+17,29.28503,42.10415,17.74392,-12.15249,13.37927,113.0235,-16.98673,-0.4441859,-4.27255,-61.51973,-6.98289,34.57793,0,0,0,68.27434,-14.24775,-46.61205,-36.05464,-110.6632,-50.32285,0.001067912,-0.1257102,0.09433498,0,0.3,0,0,0,0,
6.38224E+17,28.69603,43.71724,17.90735,-13.54414,11.98761,111.9248,-16.98673,-0.4441859,-4.27255,-61.44649,-6.98289,34.57793,0,0,0,65.96583,-11.38168,-47.84113,-36.05464,-110.6632,-50.32285,0.001067912,-0.1257102,0.09433498,0,0.3,0,0,0,0,
6.38224E+17,27.56516,46.8733,18.35095,-16.69369,8.252106,108.0428,-16.98673,-0.4441859,-4.27255,-61.51973,-6.98289,34.57793,0,0,0,61.61303,-5.893939,-50.32036,-36.05464,-110.6632,-50.32285,0.001067912,-0.1257102,0.09433498,0,0.3,0,0,0,0,
6.38224E+17,27.14108,49.79557,19.58836,-19.76999,3.78415,101.9635,-16.98673,-0.4441859,-4.27255,-61.51973,-6.98289,34.57793,0,0,0,59.66262,-0.4369005,-51.96485,-36.05464,-110.6632,-50.32285,0.001067912,-0.1257102,0.09433498,0,0.3,0,0,0,0,
6.38224E+17,27.16464,51.17488,20.63898,-20.94191,1.367059,99.47314,-16.98673,-0.4441859,-4.27255,-61.51973,-6.98289,34.57793,0,0,0,59.62809,2.446495,-52.14991,-36.05464,-110.6632,-50.32285,0.001067912,-0.1257102,0.09433498,0,0.3,0,0,0,0,
6.38224E+17,27.306,53.41919,22.60015,-22.40681,-3.027651,97.05606,-16.98673,-0.4441859,-4.27255,-61.44649,-6.98289,34.57793,0,0,0,59.96537,7.322393,-52.19905,-36.05464,-110.6632,-50.32285,0.001067912,-0.1257102,0.09433498,0,0.3,0,0,0,0,
6.38224E+17,27.89499,55.54661,24.58467,-23.359,-6.763155,96.17712,-16.98673,-0.4441859,-4.27255,-61.51973,-6.98289,34.57793,0,0,0,61.251,12.04715,-52.64254,-36.05464,-110.6632,-50.32285,0.001067912,-0.1257102,0.09433498,0,0.3,0,0,0,0,
6.38224E+17,28.93163,57.53376,26.70927,-23.50549,-10.13243,95.88414,-16.98673,-0.4441859,-4.27255,-61.44649,-6.98289,34.50468,0,0,0,63.62418,16.73707,-53.24525,-36.05464,-110.6632,-50.32285,0.001067912,-0.1257102,0.09433498,0,0.3,0,0,0,0,
6.38224E+17,29.66199,58.42213,27.7599,-23.28575,-11.74383,95.73765,-16.98673,-0.4441859,-4.27255,-61.51973,-6.98289,34.57793,0,0,0,65.29464,18.95239,-53.69965,-36.05464,-110.6632,-50.32285,0.001067912,-0.1257102,0.09433498,0,0.3,0,0,0,0,
6.38224E+17,31.24051,59.91833,30.04793,-21.96734,-14.89337,95.73765,-16.98673,-0.4441859,-4.27255,-61.51973,-6.98289,34.57793,0,0,0,69.29495,23.31067,-54.11279,-36.05464,-110.6632,-50.32285,0.001067912,-0.1257102,0.09433498,0,0.3,0,0,0,0,
6.38224E+17,32.70123,60.99373,32.03245,-19.69674,-17.45695,96.54334,-16.98673,-0.4441859,-4.27255,-61.44649,-6.909645,34.57793,0,0,0,73.14606,26.92629,-54.41867,-36.05464,-110.6632,-50.32285,0.001067912,-0.1257102,0.09433498,0,0.3,0,0,0,0,
6.38224E+17,33.50227,61.50805,33.15312,-18.45157,-18.62887,97.20255,-16.98673,-0.4441859,-4.27255,-61.51973,-6.98289,34.57793,0,0,0,75.36536,28.90697,-54.49514,-36.05464,-110.6632,-50.32285,0.001067912,-0.1257102,0.09433498,0,0.3,0,0,0,0,
6.38224E+17,35.33994,62.58345,35.83805,-15.52176,-20.97272,98.52097,-16.98673,-0.4441859,-4.27255,-61.44649,-6.98289,34.57793,0,0,0,80.67762,33.61892,-54.57317,-36.05464,-110.6632,-50.32285,0.001067912,-0.1257102,0.09433498,0,0.3,0,0,0,0,
6.38224E+17,37.27186,63.35493,37.93931,-12.006,-23.5363,99.39991,-16.98673,-0.4441859,-4.27255,-61.51973,-6.98289,34.57793,0,0,0,85.86741,37.37032,-55.51799,-36.05464,-110.6632,-50.32285,0.001067912,-0.1257102,0.09433498,0,0.3,0,0,0,0,
6.38224E+17,39.69854,63.68222,40.1573,-7.611286,-25.95339,99.76613,-16.98673,-0.4441859,-4.27255,-61.44649,-6.98289,34.57793,0,0,0,92.69288,40.96181,-56.69508,-36.05464,-110.6632,-50.32285,0.001067912,-0.1257102,0.09433498,0,0.3,0,0,0,0,
6.38224E+17,41.93673,63.54195,41.81495,-2.557369,-27.78452,99.91262,-16.98673,-0.4441859,-4.27255,-61.44649,-6.98289,34.57793,0,0,0,99.12442,43.34701,-58.0164,-36.05464,-110.6632,-50.32285,0.001067912,-0.1257102,0.09433498,0,0.3,0,0,0,0,
6.38224E+17,42.99693,63.35493,42.32859,0.07945653,-28.51697,99.91262,-16.98673,-0.4441859,-4.27255,-61.51973,-6.98289,34.57793,0,0,0,102.0196,43.95346,-58.93557,-36.05464,-110.6632,-50.32285,0.001067912,-0.1257102,0.09433498,0,0.3,0,0,0,0,
6.38224E+17,44.83461,62.93412,42.79554,4.620657,-29.61565,99.98587,-16.98673,-0.4441859,-4.27255,-61.51973,-6.98289,34.57793,0,0,0,106.6563,44.2461,-61.07616,-36.05464,-110.6632,-50.32285,0.001067912,-0.1257102,0.09433498,0,0.3,0,0,0,0,
6.38224E+17,46.64872,62.2094,42.7255,8.429405,-30.12836,99.91262,-16.98673,-0.4441859,-4.27255,-61.51973,-6.98289,34.57793,0,0,0,111.0004,43.35846,-63.56079,-36.05464,-110.6632,-50.32285,0.001067912,-0.1257102,0.09433498,0,0.3,0,0,0,0,
6.38224E+17,47.544,61.71846,42.46867,10.26054,-30.27485,99.91262,-16.98673,-0.4441859,-4.27255,-61.44649,-6.98289,34.57793,0,0,0,113.0436,42.41684,-64.92418,-36.05464,-110.6632,-50.32285,0.001067912,-0.1257102,0.09433498,0,0.3,0,0,0,0,
6.38224E+17,48.91048,60.45603,41.27797,13.41008,-29.98187,99.91262,-16.98673,-0.4441859,-4.27255,-61.51973,-6.98289,34.57793,0,0,0,115.8611,39.1466,-67.31525,-36.05464,-110.6632,-50.32285,0.001067912,-0.1257102,0.09433498,0,0.3,0,0,0,0,
6.38224E+17,50.1356,58.65591,39.48022,15.68068,-28.88319,99.91262,-16.98673,-0.4441859,-4.27255,-61.51973,-6.98289,34.57793,0,0,0,118.3207,34.31334,-69.54336,-36.05464,-110.6632,-50.32285,0.001067912,-0.1257102,0.09433498,0,0.3,0,0,0,0,
6.38224E+17,50.74816,57.53376,38.45295,16.55962,-27.85776,99.91262,-16.98673,-0.4441859,-4.27255,-61.51973,-6.98289,34.57793,0,0,0,119.6477,31.42951,-70.58734,-36.05464,-110.6632,-50.32285,0.001067912,-0.1257102,0.09433498,0,0.3,0,0,0,0,
6.38224E+17,51.83192,54.75175,36.2583,17.95128,-25.29418,99.91262,-16.98673,-0.4441859,-4.27255,-61.44649,-6.909645,34.57793,0,0,0,122.5104,24.72355,-72.0543,-36.05464,-110.6632,-50.32285,0.001067912,-0.1257102,0.09433498,0,0.3,0,0,0,0,
6.38224E+17,52.37379,51.29178,34.22709,19.04996,-21.55868,99.91262,-16.98673,-0.4441859,-4.27255,-61.51973,-6.98289,34.57793,0,0,0,125.4521,17.15269,-71.64745,-36.05464,-110.6632,-50.32285,0.001067912,-0.1257102,0.09433498,0,0.3,0,0,0,0,
6.38224E+17,52.44447,49.53841,33.31655,19.34294,-19.50781,99.83938,-16.98673,-0.4441859,-4.27255,-61.44649,-6.909645,34.57793,0,0,0,126.6679,13.37441,-70.95913,-36.05464,-110.6632,-50.32285,0.001067912,-0.1257102,0.09433498,0,0.3,0,0,0,0,
6.38224E+17,52.46804,45.51736,31.5655,19.41618,-14.74688,100.2056,-16.98673,-0.4441859,-4.27255,-61.44649,-6.98289,34.57793,0,0,0,129.4536,4.870429,-68.90199,-36.05464,-110.6632,-50.32285,0.001067912,-0.1257102,0.09433498,0,0.3,0,0,0,0,
6.38224E+17,52.44447,41.28591,30.51488,19.1232,-9.033754,102.0367,-16.98673,-0.4441859,-4.27255,-61.51973,-6.98289,34.57793,0,0,0,133.1151,-3.544095,-66.00212,-36.05464,-110.6632,-50.32285,0.001067912,-0.1257102,0.09433498,0,0.3,0,0,0,0,
6.38224E+17,52.32668,37.05445,30.49153,18.68373,-3.393876,104.9665,-16.98673,-0.4441859,-4.27255,-61.44649,-6.98289,34.57793,0,0,0,137.7897,-11.20504,-61.95646,-36.05464,-110.6632,-50.32285,0.001067912,-0.1257102,0.09433498,0,0.3,0,0,0,0,
6.38224E+17,52.27955,35.04393,30.725,18.61049,-0.3908245,106.5779,-16.98673,-0.4441859,-4.27255,-61.44649,-6.909645,34.57793,0,0,0,140.2501,-14.71144,-59.87242,-36.05464,-110.6632,-50.32285,0.001067912,-0.1257102,0.09433498,0,0.3,0,0,0,0,
6.38224E+17,52.256,31.81774,31.07521,18.46399,5.102563,108.995,-16.98673,-0.4441859,-4.27255,-61.51973,-6.909645,34.57793,0,0,0,144.0292,-20.55837,-56.85474,-36.05464,-110.6632,-50.32285,0.001067912,-0.1257102,0.09433498,0,0.3,0,0,0,0,
6.38224E+17,52.256,29.50329,31.58885,18.46399,9.643764,110.3867,-16.98673,-0.4441859,-4.27255,-61.44649,-6.909645,34.57793,0,0,0,147.0087,-24.57003,-54.54832,-36.05464,-110.6632,-50.32285,0.001067912,-0.1257102,0.09433498,0,0.3,0,0,0,0,
6.38224E+17,52.256,28.6383,32.07914,18.61049,11.69463,110.7529,-16.98673,-0.4441859,-4.27255,-61.44649,-6.98289,34.57793,0,0,0,148.5488,-25.72769,-53.35611,-36.05464,-110.6632,-50.32285,0.001067912,-0.1257102,0.09433498,0,0.3,0,0,0,0,
6.38224E+17,52.30311,27.28236,33.38659,19.26969,15.28364,111.1191,-16.98673,-0.4441859,-4.27255,-61.51973,-6.98289,34.50468,0,0,0,151.8394,-26.8697,-51.00837,-36.05464,-110.6632,-50.32285,0.001067912,-0.1257102,0.09433498,0,0.3,0,0,0,0,
6.38224E+17,52.56227,26.58102,35.37111,20.14863,17.70073,111.1924,-16.98673,-0.4441859,-4.27255,-61.44649,-6.909645,34.57793,0,0,0,155.9822,-25.71706,-48.92976,-36.05464,-110.6632,-50.32285,0.001067912,-0.1257102,0.09433498,0,0.3,0,0,0,0,
6.38224E+17,53.24551,26.4875,38.80315,22.34599,19.60511,111.2656,-16.98673,-0.4441859,-4.27255,-61.51973,-6.98289,34.57793,0,0,0,162.5776,-21.09566,-46.92774,-36.05464,-110.6632,-50.32285,0.001067912,-0.1257102,0.09433498,0,0.3,0,0,0,0,
6.38224E+17,53.50467,26.53426,41.11454,24.39685,19.82484,111.2656,-16.98673,-0.4441859,-4.27255,-61.51973,-6.98289,34.57793,0,0,0,166.4007,-17.54361,-45.24097,-36.05464,-110.6632,-50.32285,0.001067912,-0.1257102,0.09433498,0,0.3,0,0,0,0,
6.38224E+17,53.71671,26.65115,42.86558,26.00825,19.82484,111.2656,-16.98673,-0.4441859,-4.27255,-61.51973,-6.98289,34.57793,0,0,0,169.1986,-14.57401,-44.13723,-36.05464,-110.6632,-50.32285,0.001067912,-0.1257102,0.09433498,0,0.3,0,0,0,0,
6.38224E+17,54.23503,27.32912,46.76458,29.67051,19.38537,111.2656,-16.98673,-0.4441859,-4.27255,-61.51973,-6.98289,34.57793,0,0,0,174.9566,-6.773311,-42.32982,-36.05464,-110.6632,-50.32285,0.001067912,-0.1257102,0.09433498,0,0.3,0,0,0,0,
6.38224E+17,54.42351,28.70843,50.19662,34.2117,18.1402,111.2656,-16.98673,-0.4441859,-4.27255,-61.44649,-6.909645,34.57793,0,0,0,178.4496,2.040349,-40.70334,-36.05464,-110.6632,-50.32285,0.001067912,-0.1257102,0.09433498,0,0.3,0,0,0,0,
6.38224E+17,54.42351,30.76572,52.76482,38.89939,16.38232,111.2656,-16.98673,-0.4441859,-4.27255,-61.51973,-6.98289,34.57793,0,0,0,179.5454,10.87387,-39.9195,-36.05464,-110.6632,-50.32285,0.001067912,-0.1257102,0.09433498,0,0.3,0,0,0,0,
6.38224E+17,54.16435,33.68799,55.49645,43.4406,14.33146,111.2656,-16.98673,-0.4441859,-4.27255,-61.44649,-6.909645,34.57793,0,0,0,179.0423,21.77817,-39.05118,-36.05464,-110.6632,-50.32285,0.001067912,-0.1257102,0.09433498,0,0.3,0,0,0,0,
6.38224E+17,53.88163,35.46473,56.82725,45.93093,13.08629,111.3389,-16.98673,-0.4441859,-4.27255,-61.44649,-6.98289,34.57793,0,0,0,177.8997,27.75541,-38.53591,-36.05464,-110.6632,-50.32285,0.001067912,-0.1257102,0.09433498,0,0.3,0,0,0,0,
6.38224E+17,53.12771,39.18187,58.78841,50.39889,10.37621,111.3389,-16.98673,-0.4441859,-4.27255,-61.44649,-6.909645,34.57793,0,0,0,173.9261,38.49644,-37.89412,-36.05464,-110.6632,-50.32285,0.001067912,-0.1257102,0.09433498,0,0.3,0,0,0,0,
6.38224E+17,52.06751,43.60035,59.97913,54.50062,7.080183,111.2656,-16.98673,-0.4441859,-4.27255,-61.44649,-6.909645,34.57793,0,0,0,167.234,48.59428,-38.00953,-36.05464,-110.6632,-50.32285,0.001067912,-0.1257102,0.09433498,0,0.3,0,0,0,0,
6.38224E+17,50.70104,48.55653,60.07252,57.86989,2.905208,111.2656,-16.98673,-0.4441859,-4.27255,-61.44649,-6.909645,34.57793,0,0,0,157.7346,56.78159,-39.25046,-36.05464,-110.6632,-50.32285,0.001067912,-0.1257102,0.09433498,0,0.3,0,0,0,0,
6.38224E+17,49.87644,51.10475,59.93243,59.11506,0.3416272,110.9726,-16.98673,-0.4441859,-4.27255,-61.44649,-6.98289,34.57793,0,0,0,152.2707,60.32452,-40.01914,-36.05464,-110.6632,-50.32285,0.001067912,-0.1257102,0.09433498,0,0.3,0,0,0,0,
6.38224E+17,47.94452,55.94404,59.25536,60.7997,-5.444741,109.9472,-16.98673,-0.4441859,-4.27255,-61.44649,-6.98289,34.57793,0,0,0,140.5431,65.65907,-41.55778,-36.05464,-110.6632,-50.32285,0.001067912,-0.1257102,0.09433498,0,0.3,0,0,0,0,
6.38224E+17,45.68277,60.1755,57.97126,60.87295,-12.03681,108.995,-16.98673,-0.4441859,-4.27255,-61.51973,-6.98289,34.57793,0,0,0,128.3381,68.31672,-43.03474,-36.05464,-110.6632,-50.32285,0.001067912,-0.1257102,0.09433498,0,0.3,0,0,0,0,
6.38224E+17,44.55189,61.78859,57.10741,60.21374,-15.25959,108.5555,-16.98673,-0.4441859,-4.27255,-61.44649,-6.98289,34.57793,0,0,0,122.7796,68.44144,-43.63466,-36.05464,-110.6632,-50.32285,0.001067912,-0.1257102,0.09433498,0,0.3,0,0,0,0,
6.38224E+17,42.59641,63.93939,55.00616,57.28393,-21.04596,108.1893,-16.98673,-0.4441859,-4.27255,-61.44649,-6.909645,34.57793,0,0,0,113.5894,66.6676,-44.80687,-36.05464,-110.6632,-50.32285,0.001067912,-0.1257102,0.09433498,0,0.3,0,0,0,0,
6.38224E+17,40.80585,64.82776,52.36792,52.81598,-25.58716,108.995,-16.98673,-0.4441859,-4.27255,-61.51973,-6.98289,34.57793,0,0,0,106.0793,62.61417,-45.48127,-36.05464,-110.6632,-50.32285,0.001067912,-0.1257102,0.09433498,0,0.3,0,0,0,0,
6.38224E+17,39.10954,64.82776,48.32884,46.15067,-28.29723,114.5617,-16.98673,-0.4441859,-4.27255,-61.51973,-6.98289,34.57793,0,0,0,98.6125,55.37784,-47.04859,-36.05464,-110.6632,-50.32285,0.001067912,-0.1257102,0.09433498,0,0.3,0,0,0,0,
6.38224E+17,38.09645,64.33681,45.48048,41.09675,-28.44372,118.8831,-16.98673,-0.4441859,-4.27255,-61.44649,-6.98289,34.57793,0,0,0,94.29496,50.04709,-48.07586,-36.05464,-110.6632,-50.32285,0.001067912,-0.1257102,0.09433498,0,0.3,0,0,0,0,
6.38224E+17,37.57814,63.86925,43.75277,37.94721,-28.22399,121.0072,-16.98673,-0.4441859,-4.27255,-61.44649,-6.98289,34.57793,0,0,0,92.0546,46.74771,-48.72026,-36.05464,-110.6632,-50.32285,0.001067912,-0.1257102,0.09433498,0,0.3,0,0,0,0,
6.38224E+17,36.84778,62.46656,40.04056,30.76918,-26.4661,123.937,-16.98673,-0.4441859,-4.27255,-61.51973,-6.98289,34.57793,0,0,0,88.41319,39.50562,-50.37088,-36.05464,-110.6632,-50.32285,0.001067912,-0.1257102,0.09433498,0,0.3,0,0,0,0,
6.38224E+17,37.1305,60.90022,37.21554,25.27579,-24.12226,124.6695,-16.98673,-0.4441859,-4.27255,-61.44649,-6.98289,34.57793,0,0,0,87.83122,33.67238,-52.3447,-36.05464,-110.6632,-50.32285,0.001067912,-0.1257102,0.09433498,0,0.3,0,0,0,0,
6.38224E+17,37.67238,59.75469,35.72132,22.93195,-22.58411,124.7427,-16.98673,-0.4441859,-4.27255,-61.44649,-6.909645,34.57793,0,0,0,88.63097,30.28558,-53.56059,-36.05464,-110.6632,-50.32285,0.001067912,-0.1257102,0.09433498,0,0.3,0,0,0,0,
6.38224E+17,38.75614,57.58052,33.62006,20.80784,-19.6543,124.816,-16.98673,-0.4441859,-4.27255,-61.44649,-6.98289,34.57793,0,0,0,90.97411,24.87262,-55.02346,-36.05464,-110.6632,-50.32285,0.001067912,-0.1257102,0.09433498,0,0.3,0,0,0,0,
6.38224E+17,39.86345,54.82188,31.63554,19.9289,-16.28502,124.816,-16.98673,-0.4441859,-4.27255,-61.44649,-6.909645,34.57793,0,0,0,94.07346,18.81121,-55.69346,-36.05464,-110.6632,-50.32285,0.001067912,-0.1257102,0.09433498,0,0.3,0,0,0,0,
6.38224E+17,40.66449,51.99313,30.02458,19.70916,-12.76926,124.6695,-16.98673,-0.4441859,-4.27255,-61.51973,-6.98289,34.57793,0,0,0,96.98552,12.96551,-55.45249,-36.05464,-110.6632,-50.32285,0.001067912,-0.1257102,0.09433498,0,0.3,0,0,0,0,
6.38224E+17,41.13569,49.53841,28.67044,19.56267,-9.546471,124.23,-16.98673,-0.4441859,-4.27255,-61.44649,-6.98289,34.57793,0,0,0,99.01439,7.807713,-54.99031,-36.05464,-110.6632,-50.32285,0.001067912,-0.1257102,0.09433498,0,0.3,0,0,0,0,
6.38224E+17,41.58333,47.10708,27.26961,19.34294,-6.250438,123.2778,-16.98673,-0.4441859,-4.27255,-61.51973,-6.98289,34.57793,0,0,0,100.7909,2.516275,-54.75998,-36.05464,-110.6632,-50.32285,0.001067912,-0.1257102,0.09433498,0,0.3,0,0,0,0,
6.38224E+17,42.38437,43.764,25.93881,18.90347,-2.002218,121.6664,-16.98673,-0.4441859,-4.27255,-61.44649,-6.98289,34.57793,0,0,0,104.2386,-4.329751,-54.13165,-36.05464,-110.6632,-50.32285,0.001067912,-0.1257102,0.09433498,0,0.3,0,0,0,0,
6.38224E+17,42.92625,41.8236,25.75204,18.90347,0.1951368,121.1537,-16.98673,-0.4441859,-4.27255,-61.51973,-6.98289,34.57793,0,0,0,107.1371,-7.833,-53.16265,-36.05464,-110.6632,-50.32285,0.001067912,-0.1257102,0.09433498,0,0.3,0,0,0,0,
6.38224E+17,45.02308,35.74527,26.54584,20.5881,6.860447,120.641,-16.98673,-0.4441859,-4.27255,-61.51973,-6.98289,34.57793,0,0,0,118.7185,-18.04109,-49.72709,-36.05464,-110.6632,-50.32285,0.001067912,-0.1257102,0.09433498,0,0.3,0,0,0,0,
6.38224E+17,45.75344,33.68799,27.12952,21.90652,9.057802,120.641,-16.98673,-0.4441859,-4.27255,-61.51973,-6.909645,34.57793,0,0,0,123.0426,-21.36331,-48.50166,-36.05464,-110.6632,-50.32285,0.001067912,-0.1257102,0.09433498,0,0.3,0,0,0,0,
6.38224E+17,46.8372,29.69032,28.36693,25.05606,13.599,120.5678,-16.98673,-0.4441859,-4.27255,-61.51973,-6.98289,34.57793,0,0,0,130.7108,-27.93789,-45.76404,-36.05464,-110.6632,-50.32285,0.001067912,-0.1257102,0.09433498,0,0.3,0,0,0,0,
6.38224E+17,47.23772,26.01994,30.04793,27.76613,17.55424,120.5678,-16.98673,-0.4441859,-4.27255,-61.44649,-6.909645,34.57793,0,0,0,137.0014,-33.58017,-41.65274,-36.05464,-110.6632,-50.32285,0.001067912,-0.1257102,0.09433498,0,0.3,0,0,0,0,
6.38224E+17,47.23772,24.52374,30.91178,28.71832,19.53186,120.5678,-16.98673,-0.4441859,-4.27255,-61.51973,-6.909645,34.57793,0,0,0,139.3649,-35.70927,-39.46701,-36.05464,-110.6632,-50.32285,0.001067912,-0.1257102,0.09433498,0,0.3,0,0,0,0,
6.38224E+17,47.23772,22.48983,31.86902,29.817,22.82789,120.348,-16.98673,-0.4441859,-4.27255,-61.44649,-6.98289,34.57793,0,0,0,142.1473,-38.88949,-36.89392,-36.05464,-110.6632,-50.32285,0.001067912,-0.1257102,0.09433498,0,0.3,0,0,0,0,
6.38224E+17,47.16704,21.29754,32.0558,29.96349,25.02525,119.4691,-16.98673,-0.4441859,-4.27255,-61.51973,-6.98289,34.50468,0,0,0,143.0142,-41.23412,-35.76448,-36.05464,-110.6632,-50.32285,0.001067912,-0.1257102,0.09433498,0,0.3,0,0,0,0,
6.38224E+17,47.09636,21.04038,32.0558,29.74375,25.7577,118.8831,-16.98673,-0.4441859,-4.27255,-61.44649,-6.909645,34.57793,0,0,0,143.0089,-41.79225,-35.44102,-36.05464,-110.6632,-50.32285,0.001067912,-0.1257102,0.09433498,0,0.3,0,0,0,0,
6.38224E+17,46.79008,20.78322,31.93906,29.0113,26.63664,118.0042,-16.98673,-0.4441859,-4.27255,-61.44649,-6.909645,34.57793,0,0,0,142.2841,-42.4953,-34.68995,-36.05464,-110.6632,-50.32285,0.001067912,-0.1257102,0.09433498,0,0.3,0,0,0,0,
6.38224E+17,46.13041,20.2689,31.5655,27.91262,26.78313,117.4915,-16.98673,-0.4441859,-4.27255,-61.44649,-6.98289,34.57793,0,0,0,140.5054,-44.07386,-33.28211,-36.05464,-110.6632,-50.32285,0.001067912,-0.1257102,0.09433498,0,0.3,0,0,0,0,
6.38224E+17,45.58852,19.63769,31.30868,27.10692,26.92962,117.345,-16.98673,-0.4441859,-4.27255,-61.44649,-6.98289,34.57793,0,0,0,139.2156,-45.76649,-31.96539,-36.05464,-110.6632,-50.32285,0.001067912,-0.1257102,0.09433498,0,0.3,0,0,0,0,
6.38224E+17,44.45765,18.0246,30.7717,25.49553,27.44234,117.1985,-16.98673,-0.4441859,-4.27255,-61.44649,-6.98289,34.57793,0,0,0,136.5955,-49.96416,-29.14375,-36.05464,-110.6632,-50.32285,0.001067912,-0.1257102,0.09433498,0,0.3,0,0,0,0,
6.38224E+17,42.90269,15.59326,29.39421,23.15168,28.68751,117.052,-16.98673,-0.4441859,-4.27255,-61.51973,-6.98289,34.57793,0,0,0,131.9931,-56.98763,-26.32183,-36.05464,-110.6632,-50.32285,0.001067912,-0.1257102,0.09433498,0,0.3,0,0,0,0,
6.38224E+17,40.99433,12.81126,27.33965,19.78241,30.2989,115.8068,-16.98673,-0.4441859,-4.27255,-61.51973,-6.98289,34.57793,0,0,0,125.4723,-65.53572,-23.98182,-36.05464,-110.6632,-50.32285,0.001067912,-0.1257102,0.09433498,0,0.3,0,0,0,0,
6.38224E+17,38.70901,10.09938,25.96216,14.72849,31.76381,112.584,-16.98673,-0.4441859,-4.27255,-61.44649,-6.98289,34.57793,0,0,0,118.6077,-73.15903,-20.35116,-36.05464,-110.6632,-50.32285,0.001067912,-0.1257102,0.09433498,0,0.3,0,0,0,0,
6.38224E+17,36.80066,8.06548,25.02827,9.015368,33.08222,108.995,-16.98673,-0.4441859,-4.27255,-61.44649,-6.98289,34.57793,0,0,0,112.8858,-78.76868,-17.4561,-36.05464,-110.6632,-50.32285,0.001067912,-0.1257102,0.09433498,0,0.3,0,0,0,0,
6.38224E+17,35.97606,7.457647,24.42124,6.158805,33.74142,107.4569,-16.98673,-0.4441859,-4.27255,-61.44649,-6.909645,34.57793,0,0,0,110.0609,-80.76131,-16.73103,-36.05464,-110.6632,-50.32285,0.001067912,-0.1257102,0.09433498,0,0.3,0,0,0,0,
6.38224E+17,34.25618,6.990083,22.90367,1.104889,34.76685,105.406,-16.98673,-0.4441859,-4.27255,-61.51973,-6.98289,34.50468,0,0,0,103.7168,-83.25838,-16.05676,-36.05464,-110.6632,-50.32285,0.001067912,-0.1257102,0.09433498,0,0.3,0,0,0,0,
6.38224E+17,32.01799,7.036839,21.19932,-3.949028,35.35282,103.5749,-16.98673,-0.4441859,-4.27255,-61.44649,-6.909645,34.57793,0,0,0,95.73384,-84.63958,-15.25079,-36.05464,-110.6632,-50.32285,0.001067912,-0.1257102,0.09433498,0,0.3,0,0,0,0,
6.38224E+17,30.76931,7.060217,20.42886,-6.512609,35.57256,102.6227,-16.98673,-0.4441859,-4.27255,-61.51973,-6.98289,34.57793,0,0,0,91.51391,-85.22276,-14.64686,-36.05464,-110.6632,-50.32285,0.001067912,-0.1257102,0.09433498,0,0.3,0,0,0,0,
6.38224E+17,28.13059,7.41089,18.74786,-12.15249,35.6458,100.7916,-16.98673,-0.4441859,-4.27255,-61.51973,-6.909645,34.57793,0,0,0,82.55443,-85.72471,-13.93778,-36.05464,-110.6632,-50.32285,0.001067912,-0.1257102,0.09433498,0,0.3,0,0,0,0,
6.38224E+17,25.60968,7.925211,17.27698,-18.0121,35.13308,98.88718,-16.98673,-0.4441859,-4.27255,-61.51973,-6.98289,34.57793,0,0,0,74.20669,-85.59693,-13.5358,-36.05464,-110.6632,-50.32285,0.001067912,-0.1257102,0.09433498,0,0.3,0,0,0,0,
6.38224E+17,24.361,8.182371,16.73999,-20.79542,34.76685,97.78851,-16.98673,-0.4441859,-4.27255,-61.51973,-6.909645,34.57793,0,0,0,70.28783,-85.3699,-13.12056,-36.05464,-110.6632,-50.32285,0.001067912,-0.1257102,0.09433498,0,0.3,0,0,0,0,
6.38224E+17,22.09924,8.907095,15.94618,-25.92258,33.74142,95.81089,-16.98673,-0.4441859,-4.27255,-61.44649,-6.909645,34.57793,0,0,0,63.34572,-84.22177,-12.34239,-36.05464,-110.6632,-50.32285,0.001067912,-0.1257102,0.09433498,0,0.3,0,0,0,0,
6.38224E+17,19.83749,9.88898,15.24576,-30.46378,32.5695,93.83327,-16.98673,-0.4441859,-4.27255,-61.44649,-6.98289,34.57793,0,0,0,56.4801,-82.4055,-11.79196,-36.05464,-110.6632,-50.32285,0.001067912,-0.1257102,0.09433498,0,0.3,0,0,0,0,
6.38224E+17,17.57573,10.70722,15.01229,-34.712,30.95811,90.97672,-16.98673,-0.4441859,-4.27255,-61.44649,-6.98289,34.57793,0,0,0,49.99636,-80.67365,-10.50955,-36.05464,-110.6632,-50.32285,0.001067912,-0.1257102,0.09433498,0,0.3,0,0,0,0,
6.38224E+17,15.26685,11.82937,15.05899,-39.76591,28.98049,87.16796,-16.98673,-0.4441859,-4.27255,-61.44649,-6.98289,34.57793,0,0,0,43.49018,-78.08415,-9.014578,-36.05464,-110.6632,-50.32285,0.001067912,-0.1257102,0.09433498,0,0.3,0,0,0,0,
6.38224E+17,13.7119,13.23206,15.08233,-43.06195,27.44234,84.67763,-16.98673,-0.4441859,-4.27255,-61.51973,-6.98289,34.57793,0,0,0,38.99502,-74.88325,-8.530235,-36.05464,-110.6632,-50.32285,0.001067912,-0.1257102,0.09433498,0,0.3,0,0,0,0,
6.38224E+17,12.74594,14.2607,15.08233,-44.96632,26.34366,83.35921,-16.98673,-0.4441859,-4.27255,-61.51973,-6.98289,34.57793,0,0,0,36.16967,-72.55779,-8.450416,-36.05464,-110.6632,-50.32285,0.001067912,-0.1257102,0.09433498,0,0.3,0,0,0,0,
6.38224E+17,10.95538,16.38812,15.08233,-48.04262,24.2928,81.08862,-16.98673,-0.4441859,-4.27255,-61.51973,-6.98289,34.57793,0,0,0,30.90711,-67.78277,-8.682971,-36.05464,-110.6632,-50.32285,0.001067912,-0.1257102,0.09433498,0,0.3,0,0,0,0,
6.38224E+17,9.047026,18.58567,15.19907,-50.89918,21.94895,78.08556,-16.98673,-0.4441859,-4.27255,-61.44649,-6.98289,34.57793,0,0,0,25.37249,-62.8339,-9.000947,-36.05464,-110.6632,-50.32285,0.001067912,-0.1257102,0.09433498,0,0.3,0,0,0,0,
6.38224E+17,8.057507,19.68445,15.33915,-52.21759,20.55729,76.0347,-16.98673,-0.4441859,-4.27255,-61.44649,-6.909645,34.57793,0,0,0,22.54342,-60.33208,-9.105104,-36.05464,-110.6632,-50.32285,0.001067912,-0.1257102,0.09433498,0,0.3,0,0,0,0,
6.38224E+17,6.573229,21.5547,15.78275,-54.85442,17.99371,72.44569,-16.98673,-0.4441859,-4.27255,-61.51973,-6.98289,34.57793,0,0,0,18.34938,-55.98132,-9.109311,-36.05464,-110.6632,-50.32285,0.001067912,-0.1257102,0.09433498,0,0.3,0,0,0,0,
6.38224E+17,5.772191,23.33145,16.31974,-56.83204,15.94285,70.39482,-16.98673,-0.4441859,-4.27255,-61.51973,-6.98289,34.57793,0,0,0,16.08338,-51.81393,-9.243982,-36.05464,-110.6632,-50.32285,0.001067912,-0.1257102,0.09433498,0,0.3,0,0,0,0,
6.38224E+17,5.465911,24.4536,16.6466,-57.71098,14.99066,69.80886,-16.98673,-0.4441859,-4.27255,-61.51973,-6.98289,34.57793,0,0,0,15.20137,-49.21023,-9.487095,-36.05464,-110.6632,-50.32285,0.001067912,-0.1257102,0.09433498,0,0.3,0,0,0,0,
6.38224E+17,5.065392,27.25899,17.65053,-59.24913,12.57357,69.07641,-16.98673,-0.4441859,-4.27255,-61.51973,-6.98289,34.57793,0,0,0,14.03623,-42.64629,-9.996887,-36.05464,-110.6632,-50.32285,0.001067912,-0.1257102,0.09433498,0,0.3,0,0,0,0,
6.38224E+17,4.829792,29.03573,18.51438,-60.64079,10.44946,68.4172,-16.98673,-0.4441859,-4.27255,-61.51973,-6.98289,34.57793,0,0,0,13.38165,-38.37626,-9.979824,-36.05464,-110.6632,-50.32285,0.001067912,-0.1257102,0.09433498,0,0.3,0,0,0,0,
6.38224E+17,4.664873,30.57869,19.35488,-62.03245,7.88588,67.90449,-16.98673,-0.4441859,-4.27255,-61.44649,-6.98289,34.57793,0,0,0,12.93105,-34.6256,-9.876878,-36.05464,-110.6632,-50.32285,0.001067912,-0.1257102,0.09433498,0,0.3,0,0,0,0,
6.38224E+17,4.594193,31.06963,19.68175,-62.61841,6.787202,67.68475,-16.98673,-0.4441859,-4.27255,-61.44649,-6.98289,34.57793,0,0,0,12.74609,-33.39022,-9.729931,-36.05464,-110.6632,-50.32285,0.001067912,-0.1257102,0.09433498,0,0.3,0,0,0,0,
6.38224E+17,4.429273,31.63071,20.19538,-64.01007,5.322299,67.68475,-16.98673,-0.4441859,-4.27255,-61.51973,-6.98289,34.57793,0,0,0,12.32378,-31.86737,-9.250831,-36.05464,-110.6632,-50.32285,0.001067912,-0.1257102,0.09433498,0,0.3,0,0,0,0,
6.38224E+17,4.240793,31.91125,20.4989,-65.32848,4.589847,68.27071,-16.98673,-0.4441859,-4.27255,-61.51973,-6.98289,34.57793,0,0,0,11.8239,-31.06666,-8.893483,-36.05464,-110.6632,-50.32285,0.001067912,-0.1257102,0.09433498,0,0.3,0,0,0,0,
6.38224E+17,4.052313,31.958,20.63898,-66.42715,4.296866,68.92992,-16.98673,-0.4441859,-4.27255,-61.44649,-6.98289,34.57793,0,0,0,11.31679,-30.85976,-8.608385,-36.05464,-110.6632,-50.32285,0.001067912,-0.1257102,0.09433498,0,0.3,0,0,0,0,
6.38224E+17,3.863834,31.98138,20.70902,-67.3061,4.150376,69.44263,-16.98673,-0.4441859,-4.27255,-61.44649,-6.98289,34.57793,0,0,0,10.79959,-30.75605,-8.448594,-36.05464,-110.6632,-50.32285,0.001067912,-0.1257102,0.09433498,0,0.3,0,0,0,0,
6.38224E+17,3.769594,31.98138,20.77907,-67.74557,4.150376,69.66236,-16.98673,-0.4441859,-4.27255,-61.44649,-6.98289,34.57793,0,0,0,10.54659,-30.69831,-8.27893,-36.05464,-110.6632,-50.32285,0.001067912,-0.1257102,0.09433498,0,0.3,0,0,0,0,
6.38224E+17,3.628234,31.98138,20.82576,-68.33153,4.223621,69.8821,-16.98673,-0.4441859,-4.27255,-61.51973,-6.98289,34.57793,0,0,0,10.15806,-30.65972,-8.152008,-36.05464,-110.6632,-50.32285,0.001067912,-0.1257102,0.09433498,0,0.3,0,0,0,0,
6.38224E+17,3.510434,32.26192,20.96585,-68.771,4.003886,69.95535,-16.98673,-0.4441859,-4.27255,-61.51973,-6.98289,34.57793,0,0,0,9.826065,-29.99046,-8.173966,-36.05464,-110.6632,-50.32285,0.001067912,-0.1257102,0.09433498,0,0.3,0,0,0,0,
6.38224E+17,3.486874,32.35543,20.96585,-68.99074,3.93064,70.02859,-16.98673,-0.4441859,-4.27255,-61.51973,-6.98289,34.57793,0,0,0,9.753125,-29.80651,-8.286049,-36.05464,-110.6632,-50.32285,0.001067912,-0.1257102,0.09433498,0,0.3,0,0,0,0,
6.38224E+17,3.486874,32.37881,20.9425,-69.50346,3.417924,70.02859,-16.98673,-0.4441859,-4.27255,-61.44649,-6.909645,34.57793,0,0,0,9.748267,-29.77999,-8.365774,-36.05464,-110.6632,-50.32285,0.001067912,-0.1257102,0.09433498,0,0.3,0,0,0,0,
6.38224E+17,3.533994,32.35543,20.9425,-69.94292,2.612227,69.95535,-16.98673,-0.4441859,-4.27255,-61.44649,-6.909645,34.57793,0,0,0,9.88163,-29.82594,-8.344772,-36.05464,-110.6632,-50.32285,0.001067912,-0.1257102,0.09433498,0,0.3,0,0,0,0,
6.38224E+17,3.533994,32.2853,20.9425,-70.08942,2.246002,69.95535,-16.98673,-0.4441859,-4.27255,-61.44649,-6.98289,34.57793,0,0,0,9.88701,-29.96389,-8.257667,-36.05464,-110.6632,-50.32285,0.001067912,-0.1257102,0.09433498,0,0.3,0,0,0,0,
6.38224E+17,3.533994,32.16841,20.96585,-70.38239,1.586795,69.95535,-16.98673,-0.4441859,-4.27255,-61.51973,-6.98289,34.57793,0,0,0,9.89908,-30.17459,-8.062217,-36.05464,-110.6632,-50.32285,0.001067912,-0.1257102,0.09433498,0,0.3,0,0,0,0,
6.38224E+17,3.533994,32.00476,20.9425,-70.52889,1.000834,69.95535,-16.98673,-0.4441859,-4.27255,-61.51973,-6.98289,34.57793,0,0,0,9.908423,-30.51672,-7.91093,-36.05464,-110.6632,-50.32285,0.001067912,-0.1257102,0.09433498,0,0.3,0,0,0,0,
6.38224E+17,3.533994,31.35017,20.61563,-70.67538,0.5613627,69.8821,-16.98673,-0.4441859,-4.27255,-61.44649,-6.98289,34.57793,0,0,0,9.913897,-32.08311,-7.822316,-36.05464,-110.6632,-50.32285,0.001067912,-0.1257102,0.09433498,0,0.3,0,0,0,0,
6.38224E+17,3.533994,30.71896,20.14869,-70.74863,0.5613627,69.73561,-16.98673,-0.4441859,-4.27255,-61.44649,-6.98289,34.50468,0,0,0,9.897787,-33.72039,-8.083154,-36.05464,-110.6632,-50.32285,0.001067912,-0.1257102,0.09433498,0,0.3,0,0,0,0,
6.38224E+17,3.533994,30.18126,19.75179,-70.74863,0.7810982,69.66236,-16.98673,-0.4441859,-4.27255,-61.44649,-6.98289,34.57793,0,0,0,9.883357,-35.11441,-8.316813,-36.05464,-110.6632,-50.32285,0.001067912,-0.1257102,0.09433498,0,0.3,0,0,0,0,
6.38224E+17,3.557554,28.80194,18.88794,-70.67538,1.733285,69.66236,-16.98673,-0.4441859,-4.27255,-61.51973,-6.98289,34.57793,0,0,0,9.929495,-38.57375,-8.637225,-36.05464,-110.6632,-50.32285,0.001067912,-0.1257102,0.09433498,0,0.3,0,0,0,0,
6.38224E+17,3.581114,26.95507,17.76727,-69.86968,3.417924,69.58913,-16.98673,-0.4441859,-4.27255,-61.51973,-6.909645,34.57793,0,0,0,9.966058,-43.19328,-9.106462,-36.05464,-110.6632,-50.32285,0.001067912,-0.1257102,0.09433498,0,0.3,0,0,0,0,
6.38224E+17,3.769594,24.68738,16.90342,-68.771,5.835015,69.51588,-16.98673,-0.4441859,-4.27255,-61.51973,-6.98289,34.57793,0,0,0,10.5148,-48.54288,-8.761431,-36.05464,-110.6632,-50.32285,0.001067912,-0.1257102,0.09433498,0,0.3,0,0,0,0,
6.38224E+17,4.005194,23.54185,16.88007,-68.18504,7.373164,69.58913,-16.98673,-0.4441859,-4.27255,-61.44649,-6.909645,34.57793,0,0,0,11.24338,-50.99207,-7.771288,-36.05464,-110.6632,-50.32285,0.001067912,-0.1257102,0.09433498,0,0.3,0,0,0,0,
6.38224E+17,4.405713,21.25079,16.88007,-67.23285,10.22972,70.02859,-16.98673,-0.4441859,-4.27255,-61.51973,-6.909645,34.57793,0,0,0,12.52166,-55.92175,-5.828313,-36.05464,-110.6632,-50.32285,0.001067912,-0.1257102,0.09433498,0,0.3,0,0,0,0,
6.38224E+17,4.853352,19.33377,16.88007,-65.91444,13.15953,71.20052,-16.98673,-0.4441859,-4.27255,-61.51973,-6.98289,34.50468,0,0,0,13.92192,-60.10629,-4.38938,-36.05464,-110.6632,-50.32285,0.001067912,-0.1257102,0.09433498,0,0.3,0,0,0,0,
6.38224E+17,5.018272,18.60905,16.85673,-65.25523,14.62444,72.22594,-16.98673,-0.4441859,-4.27255,-61.44649,-6.909645,34.57793,0,0,0,14.43722,-61.71715,-3.935692,-36.05464,-110.6632,-50.32285,0.001067912,-0.1257102,0.09433498,0,0.3,0,0,0,0,
6.38224E+17,5.371671,17.4869,16.85673,-64.37629,16.96828,73.69085,-16.98673,-0.4441859,-4.27255,-61.44649,-6.98289,34.57793,0,0,0,15.52679,-64.2003,-3.222295,-36.05464,-110.6632,-50.32285,0.001067912,-0.1257102,0.09433498,0,0.3,0,0,0,0,
6.38224E+17,6.05491,16.59852,16.85673,-63.79033,18.57967,74.56979,-16.98673,-0.4441859,-4.27255,-61.44649,-6.98289,34.57793,0,0,0,17.55867,-66.17708,-2.816592,-36.05464,-110.6632,-50.32285,0.001067912,-0.1257102,0.09433498,0,0.3,0,0,0,0,
6.38224E+17,6.573229,16.13096,16.85673,-63.42411,19.38537,74.86278,-16.98673,-0.4441859,-4.27255,-61.44649,-6.98289,34.57793,0,0,0,19.09051,-67.2212,-2.677618,-36.05464,-110.6632,-50.32285,0.001067912,-0.1257102,0.09433498,0,0.3,0,0,0,0,
6.38224E+17,8.905665,14.61138,16.73999,-61.22675,21.58273,76.91364,-16.98673,-0.4441859,-4.27255,-61.51973,-6.98289,34.57793,0,0,0,25.92199,-70.70978,-2.922632,-36.05464,-110.6632,-50.32285,0.001067912,-0.1257102,0.09433498,0,0.3,0,0,0,0,
6.38224E+17,9.636024,14.23733,16.73999,-60.12807,22.38842,77.71934,-16.98673,-0.4441859,-4.27255,-61.51973,-6.98289,34.57793,0,0,0,28.06486,-71.5529,-3.052696,-36.05464,-110.6632,-50.32285,0.001067912,-0.1257102,0.09433498,0,0.3,0,0,0,0,
6.38224E+17,11.37946,13.5126,16.73999,-57.34475,24.51253,79.69696,-16.98673,-0.4441859,-4.27255,-61.44649,-6.98289,34.57793,0,0,0,33.16068,-73.1904,-3.586533,-36.05464,-110.6632,-50.32285,0.001067912,-0.1257102,0.09433498,0,0.3,0,0,0,0,
6.38224E+17,13.21714,13.09179,16.73999,-54.48819,26.5634,81.2351,-16.98673,-0.4441859,-4.27255,-61.44649,-6.909645,34.57793,0,0,0,38.47879,-74.1435,-4.515295,-36.05464,-110.6632,-50.32285,0.001067912,-0.1257102,0.09433498,0,0.3,0,0,0,0,
6.38224E+17,14.01818,12.9749,16.76334,-53.02329,27.44234,81.74782,-16.98673,-0.4441859,-4.27255,-61.44649,-6.98289,34.57793,0,0,0,40.79295,-74.39288,-4.959244,-36.05464,-110.6632,-50.32285,0.001067912,-0.1257102,0.09433498,0,0.3,0,0,0,0,
6.38224E+17,15.78517,12.9749,16.90342,-50.16673,29.12698,82.62676,-16.98673,-0.4441859,-4.27255,-61.44649,-6.98289,34.57793,0,0,0,45.8966,-74.29847,-5.994498,-36.05464,-110.6632,-50.32285,0.001067912,-0.1257102,0.09433498,0,0.3,0,0,0,0,
6.38224E+17,17.64641,12.99828,17.11355,-47.31017,30.37215,83.21272,-16.98673,-0.4441859,-4.27255,-61.51973,-6.98289,34.57793,0,0,0,51.28359,-74.1024,-7.136832,-36.05464,-110.6632,-50.32285,0.001067912,-0.1257102,0.09433498,0,0.3,0,0,0,0,
6.38224E+17,19.57833,13.02166,17.4871,-44.38036,31.25109,83.72543,-16.98673,-0.4441859,-4.27255,-61.44649,-6.98289,34.57793,0,0,0,56.9633,-73.79084,-8.186789,-36.05464,-110.6632,-50.32285,0.001067912,-0.1257102,0.09433498,0,0.3,0,0,0,0,
6.38224E+17,20.54428,13.06842,17.76727,-42.91546,31.54407,83.87193,-16.98673,-0.4441859,-4.27255,-61.51973,-6.98289,34.57793,0,0,0,59.86476,-73.48737,-8.610938,-36.05464,-110.6632,-50.32285,0.001067912,-0.1257102,0.09433498,0,0.3,0,0,0,0,
6.38224E+17,23.93692,13.37233,18.56108,-38.96022,32.05679,84.3114,-16.98673,-0.4441859,-4.27255,-61.51973,-6.98289,34.57793,0,0,0,69.85948,-72.22285,-10.97698,-36.05464,-110.6632,-50.32285,0.001067912,-0.1257102,0.09433498,0,0.3,0,0,0,0,
6.38224E+17,26.45784,13.39571,18.7712,-35.51769,32.34977,84.53114,-16.98673,-0.4441859,-4.27255,-61.51973,-6.98289,34.50468,0,0,0,76.9146,-72.01339,-13.79846,-36.05464,-110.6632,-50.32285,0.001067912,-0.1257102,0.09433498,0,0.3,0,0,0,0,
6.38224E+17,29.63843,13.76976,19.79848,-30.09755,33.22871,84.67763,-16.98673,-0.4441859,-4.27255,-61.51973,-6.98289,34.50468,0,0,0,86.38605,-70.37756,-16.52027,-36.05464,-110.6632,-50.32285,0.001067912,-0.1257102,0.09433498,0,0.3,0,0,0,0,
6.38224E+17,31.16983,14.12043,20.56894,-26.87477,33.59494,84.75087,-16.98673,-0.4441859,-4.27255,-61.51973,-6.98289,34.57793,0,0,0,91.1821,-68.96677,-17.61137,-36.05464,-110.6632,-50.32285,0.001067912,-0.1257102,0.09433498,0,0.3,0,0,0,0,
6.38224E+17,33.69075,15.07894,21.89973,-20.94191,34.10765,84.82411,-16.98673,-0.4441859,-4.27255,-61.51973,-6.98289,34.57793,0,0,0,99.01346,-65.68624,-19.83362,-36.05464,-110.6632,-50.32285,0.001067912,-0.1257102,0.09433498,0,0.3,0,0,0,0,
6.38224E+17,35.92894,16.31799,22.95036,-15.15554,34.32739,84.9706,-16.98673,-0.4441859,-4.27255,-61.44649,-6.909645,34.57793,0,0,0,105.6065,-61.97733,-22.61534,-36.05464,-110.6632,-50.32285,0.001067912,-0.1257102,0.09433498,0,0.3,0,0,0,0,
6.38224E+17,38.16714,17.62716,24.3045,-9.36917,34.1809,85.77631,-16.98673,-0.4441859,-4.27255,-61.51973,-6.98289,34.50468,0,0,0,112.4521,-57.80003,-25.28008,-36.05464,-110.6632,-50.32285,0.001067912,-0.1257102,0.09433498,0,0.3,0,0,0,0,
6.38224E+17,39.2509,18.30513,25.05162,-6.292873,33.96116,86.36227,-16.98673,-0.4441859,-4.27255,-61.44649,-6.909645,34.57793,0,0,0,115.8298,-55.57309,-26.58597,-36.05464,-110.6632,-50.32285,0.001067912,-0.1257102,0.09433498,0,0.3,0,0,0,0,
6.38224E+17,41.18281,19.77796,26.42911,0.006211365,33.22871,87.68068,-16.98673,-0.4441859,-4.27255,-61.51973,-6.98289,34.57793,0,0,0,121.7082,-50.94059,-29.23968,-36.05464,-110.6632,-50.32285,0.001067912,-0.1257102,0.09433498,0,0.3,0,0,0,0,
6.38224E+17,42.90269,21.22741,27.66651,5.865825,32.13003,88.70612,-16.98673,-0.4441859,-4.27255,-61.44649,-6.98289,34.57793,0,0,0,126.7702,-46.47135,-31.94184,-36.05464,-110.6632,-50.32285,0.001067912,-0.1257102,0.09433498,0,0.3,0,0,0,0,
6.38224E+17,44.26917,22.79375,28.71714,11.28597,30.51864,89.07233,-16.98673,-0.4441859,-4.27255,-61.44649,-6.909645,34.57793,0,0,0,130.5378,-41.93649,-34.43884,-36.05464,-110.6632,-50.32285,0.001067912,-0.1257102,0.09433498,0,0.3,0,0,0,0,
6.38224E+17,44.78749,23.65874,29.09069,13.70306,29.63969,89.21883,-16.98673,-0.4441859,-4.27255,-61.44649,-6.98289,34.57793,0,0,0,131.7207,-39.66626,-35.64848,-36.05464,-110.6632,-50.32285,0.001067912,-0.1257102,0.09433498,0,0.3,0,0,0,0,
6.38224E+17,45.56496,25.99656,29.32417,17.6583,27.66208,89.36532,-16.98673,-0.4441859,-4.27255,-61.51973,-6.98289,34.57793,0,0,0,132.2167,-34.4633,-38.71534,-36.05464,-110.6632,-50.32285,0.001067912,-0.1257102,0.09433498,0,0.3,0,0,0,0,
6.38224E+17,45.84768,28.52141,29.34751,20.36837,25.31823,89.07233,-16.98673,-0.4441859,-4.27255,-61.44649,-6.98289,34.50468,0,0,0,130.9578,-29.21338,-41.21095,-36.05464,-110.6632,-50.32285,0.001067912,-0.1257102,0.09433498,0,0.3,0,0,0,0,
6.38224E+17,45.89481,29.83059,29.4409,21.46704,23.99982,88.77935,-16.98673,-0.4441859,-4.27255,-61.51973,-6.98289,34.57793,0,0,0,130.1318,-26.44636,-42.22066,-36.05464,-110.6632,-50.32285,0.001067912,-0.1257102,0.09433498,0,0.3,0,0,0,0,
6.38224E+17,45.89481,32.56584,30.04793,23.15168,21.43624,88.26664,-16.98673,-0.4441859,-4.27255,-61.51973,-6.98289,34.57793,0,0,0,128.6449,-20.30058,-43.66178,-36.05464,-110.6632,-50.32285,0.001067912,-0.1257102,0.09433498,0,0.3,0,0,0,0,
6.38224E+17,45.70633,35.51149,30.84174,24.83632,18.65292,87.60744,-16.98673,-0.4441859,-4.27255,-61.51973,-6.98289,34.57793,0,0,0,126.6276,-13.68402,-44.80655,-36.05464,-110.6632,-50.32285,0.001067912,-0.1257102,0.09433498,0,0.3,0,0,0,0,
6.38224E+17,45.02308,38.59741,31.82232,26.52096,15.28364,87.24121,-16.98673,-0.4441859,-4.27255,-61.51973,-6.98289,34.57793,0,0,0,123.4633,-6.766165,-44.98611,-36.05464,-110.6632,-50.32285,0.001067912,-0.1257102,0.09433498,0,0.3,0,0,0,0,
6.38224E+17,44.10425,40.77158,32.19588,27.47315,12.72006,87.16796,-16.98673,-0.4441859,-4.27255,-61.51973,-6.98289,34.57793,0,0,0,119.7336,-2.411402,-44.81284,-36.05464,-110.6632,-50.32285,0.001067912,-0.1257102,0.09433498,0,0.3,0,0,0,0,
6.38224E+17,43.39745,41.96388,32.21923,27.76613,11.25516,87.31445,-16.98673,-0.4441859,-4.27255,-61.51973,-6.909645,34.57793,0,0,0,116.9722,-0.2999409,-44.64435,-36.05464,-110.6632,-50.32285,0.001067912,-0.1257102,0.09433498,0,0.3,0,0,0,0,
6.38224E+17,40.12262,45.98492,32.19588,26.44772,6.201241,89.07233,-16.98673,-0.4441859,-4.27255,-61.51973,-6.98289,34.57793,0,0,0,105.4982,6.404619,-43.16721,-36.05464,-110.6632,-50.32285,0.001067912,-0.1257102,0.09433498,0,0.3,0,0,0,0,
6.38224E+17,39.2509,46.89668,32.21923,25.71527,5.029318,89.58505,-16.98673,-0.4441859,-4.27255,-61.44649,-6.909645,34.57793,0,0,0,102.6376,7.895845,-42.73186,-36.05464,-110.6632,-50.32285,0.001067912,-0.1257102,0.09433498,0,0.3,0,0,0,0,
6.38224E+17,37.1305,48.88382,32.21923,23.81089,2.465737,90.61049,-16.98673,-0.4441859,-4.27255,-61.51973,-6.98289,34.57793,0,0,0,95.84855,10.99692,-41.75562,-36.05464,-110.6632,-50.32285,0.001067912,-0.1257102,0.09433498,0,0.3,0,0,0,0,
6.38224E+17,34.79806,50.68394,32.12584,21.3938,-0.171089,91.19645,-16.98673,-0.4441859,-4.27255,-61.51973,-6.98289,34.57793,0,0,0,88.68639,13.58618,-40.7378,-36.05464,-110.6632,-50.32285,0.001067912,-0.1257102,0.09433498,0,0.3,0,0,0,0,
6.38224E+17,33.57294,51.40867,31.98576,19.85565,-1.489502,91.26969,-16.98673,-0.4441859,-4.27255,-61.51973,-6.98289,34.57793,0,0,0,85.05952,14.47356,-40.19388,-36.05464,-110.6632,-50.32285,0.001067912,-0.1257102,0.09433498,0,0.3,0,0,0,0,
6.38224E+17,30.81643,52.69447,31.65889,15.53419,-4.199574,91.41618,-16.98673,-0.4441859,-4.27255,-61.51973,-6.98289,34.57793,0,0,0,77.25782,15.91268,-38.83325,-36.05464,-110.6632,-50.32285,0.001067912,-0.1257102,0.09433498,0,0.3,0,0,0,0,
6.38224E+17,28.97875,53.37244,31.40207,12.23815,-5.884212,91.41618,-16.98673,-0.4441859,-4.27255,-61.44649,-6.98289,34.57793,0,0,0,72.20712,16.54897,-37.97092,-36.05464,-110.6632,-50.32285,0.001067912,-0.1257102,0.09433498,0,0.3,0,0,0,0,
6.38224E+17,27.87143,53.67635,31.23864,10.26054,-6.763155,91.48943,-16.98673,-0.4441859,-4.27255,-61.51973,-6.98289,34.57793,0,0,0,69.25623,16.77174,-37.38989,-36.05464,-110.6632,-50.32285,0.001067912,-0.1257102,0.09433498,0,0.3,0,0,0,0,
6.38224E+17,25.51544,53.95689,30.70166,6.158805,-8.154812,91.48943,-16.98673,-0.4441859,-4.27255,-61.44649,-6.909645,34.57793,0,0,0,63.12554,16.51408,-36.09628,-36.05464,-110.6632,-50.32285,0.001067912,-0.1257102,0.09433498,0,0.3,0,0,0,0,
6.38224E+17,22.87672,53.93351,29.95454,1.54436,-8.814018,91.48943,-16.98673,-0.4441859,-4.27255,-61.51973,-6.98289,34.57793,0,0,0,56.40355,15.60404,-34.6726,-36.05464,-110.6632,-50.32285,0.001067912,-0.1257102,0.09433498,0,0.3,0,0,0,0,
6.38224E+17,21.51024,53.88676,29.51094,-1.092466,-9.106999,91.48943,-16.98673,-0.4441859,-4.27255,-61.44649,-6.909645,34.57793,0,0,0,52.90319,15.0279,-34.1178,-36.05464,-110.6632,-50.32285,0.001067912,-0.1257102,0.09433498,0,0.3,0,0,0,0,
6.38224E+17,18.87153,53.53609,28.41362,-6.659099,-9.25349,91.48943,-16.98673,-0.4441859,-4.27255,-61.51973,-6.98289,34.57793,0,0,0,46.15737,13.30819,-33.31644,-36.05464,-110.6632,-50.32285,0.001067912,-0.1257102,0.09433498,0,0.3,0,0,0,0,
6.38224E+17,16.68045,52.62434,27.19957,-12.81169,-8.374548,90.53724,-16.98673,-0.4441859,-4.27255,-61.44649,-6.909645,34.57793,0,0,0,40.73056,10.71544,-32.41948,-36.05464,-110.6632,-50.32285,0.001067912,-0.1257102,0.09433498,0,0.3,0,0,0,0,
6.38224E+17,15.52601,51.64245,25.89212,-18.67131,-7.202625,88.19339,-16.98673,-0.4441859,-4.27255,-61.44649,-6.98289,34.57793,0,0,0,37.73792,7.952821,-32.51101,-36.05464,-110.6632,-50.32285,0.001067912,-0.1257102,0.09433498,0,0.3,0,0,0,0,
6.38224E+17,15.21973,50.89435,24.77145,-21.89409,-6.323683,86.36227,-16.98673,-0.4441859,-4.27255,-61.44649,-6.98289,34.57793,0,0,0,36.74893,5.747508,-33.27536,-36.05464,-110.6632,-50.32285,0.001067912,-0.1257102,0.09433498,0,0.3,0,0,0,0,
6.38224E+17,15.03126,49.77219,23.20718,-24.31118,-5.078516,84.3114,-16.98673,-0.4441859,-4.27255,-61.44649,-6.98289,34.57793,0,0,0,35.96317,2.600306,-34.4259,-36.05464,-110.6632,-50.32285,0.001067912,-0.1257102,0.09433498,0,0.3,0,0,0,0,
6.38224E+17,14.8899,47.83181,21.03589,-26.14231,-3.174141,82.48027,-16.98673,-0.4441859,-4.27255,-61.51973,-6.909645,34.57793,0,0,0,35.30288,-2.276996,-35.57779,-36.05464,-110.6632,-50.32285,0.001067912,-0.1257102,0.09433498,0,0.3,0,0,0,0,
6.38224E+17,14.7721,46.6629,19.89187,-26.72828,-2.075463,81.89431,-16.98673,-0.4441859,-4.27255,-61.51973,-6.98289,34.57793,0,0,0,34.90313,-5.054612,-35.98595,-36.05464,-110.6632,-50.32285,0.001067912,-0.1257102,0.09433498,0,0.3,0,0,0,0,
6.38224E+17,14.1831,43.17954,16.59991,-28.19318,1.440305,80.42941,-16.98673,-0.4441859,-4.27255,-61.51973,-6.98289,34.57793,0,0,0,33.16043,-13.19274,-37.13849,-36.05464,-110.6632,-50.32285,0.001067912,-0.1257102,0.09433498,0,0.3,0,0,0,0,
6.38224E+17,13.85326,42.12752,15.66602,-28.92563,2.685472,79.33073,-16.98673,-0.4441859,-4.27255,-61.44649,-6.909645,34.57793,0,0,0,32.30182,-15.59742,-37.36624,-36.05464,-110.6632,-50.32285,0.001067912,-0.1257102,0.09433498,0,0.3,0,0,0,0,
6.38224E+17,13.07578,40.18713,13.75154,-30.75676,5.029318,76.40092,-16.98673,-0.4441859,-4.27255,-61.44649,-6.909645,34.57793,0,0,0,30.21891,-20.12871,-38.24283,-36.05464,-110.6632,-50.32285,0.001067912,-0.1257102,0.09433498,0,0.3,0,0,0,0,
6.38224E+17,12.20406,38.17661,11.88376,-32.95412,7.080183,72.07946,-16.98673,-0.4441859,-4.27255,-61.44649,-6.909645,34.57793,0,0,0,27.9649,-24.72,-39.05157,-36.05464,-110.6632,-50.32285,0.001067912,-0.1257102,0.09433498,0,0.3,0,0,0,0,
6.38224E+17,11.75642,37.05445,11.15999,-34.12604,7.959125,69.66236,-16.98673,-0.4441859,-4.27255,-61.44649,-6.909645,34.57793,0,0,0,26.94237,-27.12521,-38.89233,-36.05464,-110.6632,-50.32285,0.001067912,-0.1257102,0.09433498,0,0.3,0,0,0,0,
6.38224E+17,10.8847,34.57636,9.852547,-36.46988,9.8635,65.48739,-16.98673,-0.4441859,-4.27255,-61.44649,-6.98289,34.57793,0,0,0,25.04201,-32.3566,-38.12144,-36.05464,-110.6632,-50.32285,0.001067912,-0.1257102,0.09433498,0,0.3,0,0,0,0,
6.38224E+17,9.730264,31.39693,8.871961,-39.17995,11.76787,61.45891,-16.98673,-0.4441859,-4.27255,-61.51973,-6.98289,34.57793,0,0,0,22.7134,-38.934,-35.89242,-36.05464,-110.6632,-50.32285,0.001067912,-0.1257102,0.09433498,0,0.3,0,0,0,0,
6.38224E+17,9.141265,29.80721,8.475058,-40.64486,12.72006,59.70102,-16.98673,-0.4441859,-4.27255,-61.44649,-6.98289,34.57793,0,0,0,21.50471,-42.2578,-34.70798,-36.05464,-110.6632,-50.32285,0.001067912,-0.1257102,0.09433498,0,0.3,0,0,0,0,
6.38224E+17,8.010387,26.72129,7.961418,-43.64791,14.99066,56.33175,-16.98673,-0.4441859,-4.27255,-61.51973,-6.98289,34.57793,0,0,0,19.17194,-48.75377,-32.11377,-36.05464,-110.6632,-50.32285,0.001067912,-0.1257102,0.09433498,0,0.3,0,0,0,0,
6.38224E+17,6.596789,23.63536,7.938071,-46.79745,17.55424,53.32869,-16.98673,-0.4441859,-4.27255,-61.44649,-6.909645,34.57793,0,0,0,16.15004,-55.26028,-28.70077,-36.05464,-110.6632,-50.32285,0.001067912,-0.1257102,0.09433498,0,0.3,0,0,0,0,
6.38224E+17,4.853352,21.20403,7.984766,-50.02024,19.60511,50.9116,-16.98673,-0.4441859,-4.27255,-61.51973,-6.909645,34.57793,0,0,0,12.08555,-60.4758,-26.01657,-36.05464,-110.6632,-50.32285,0.001067912,-0.1257102,0.09433498,0,0.3,0,0,0,0,
6.38224E+17,3.910954,20.17539,8.124848,-51.55839,20.33756,49.66644,-16.98673,-0.4441859,-4.27255,-61.44649,-6.909645,34.57793,0,0,0,9.822639,-62.66974,-24.67113,-36.05464,-110.6632,-50.32285,0.001067912,-0.1257102,0.09433498,0,0.3,0,0,0,0,
6.38224E+17,1.931917,18.37527,8.475058,-55.07415,21.36299,46.88312,-16.98673,-0.4441859,-4.27255,-61.44649,-6.98289,34.57793,0,0,0,4.928809,-66.50666,-22.22936,-36.05464,-110.6632,-50.32285,0.001067912,-0.1257102,0.09433498,0,0.3,0,0,0,0,
6.38224E+17,-0.1649197,17.06609,8.591794,-58.73641,21.87571,43.66033,-16.98673,-0.4441859,-4.27255,-61.51973,-6.98289,34.57793,0,0,0,-0.424274,-69.36868,-20.95077,-36.05464,-110.6632,-50.32285,0.001067912,-0.1257102,0.09433498,0,0.3,0,0,0,0,
6.38224E+17,-2.544476,16.71542,8.942002,-61.73947,21.36299,39.33887,-16.98673,-0.4441859,-4.27255,-61.51973,-6.909645,34.57793,0,0,0,-6.590088,-70.0254,-20.05383,-36.05464,-110.6632,-50.32285,0.001067912,-0.1257102,0.09433498,0,0.3,0,0,0,0,
6.38224E+17,-4.617752,16.71542,10.15606,-65.18199,20.04458,33.84548,-16.98673,-0.4441859,-4.27255,-61.51973,-6.98289,34.57793,0,0,0,-12.1751,-69.55666,-17.61198,-36.05464,-110.6632,-50.32285,0.001067912,-0.1257102,0.09433498,0,0.3,0,0,0,0,
6.38224E+17,-5.206751,16.71542,10.62301,-66.57365,19.38537,31.79461,-16.98673,-0.4441859,-4.27255,-61.51973,-6.98289,34.57793,0,0,0,-13.82102,-69.36068,-16.68057,-36.05464,-110.6632,-50.32285,0.001067912,-0.1257102,0.09433498,0,0.3,0,0,0,0,
6.38224E+17,-5.98423,16.80893,11.34677,-68.84425,18.50643,29.52402,-16.98673,-0.4441859,-4.27255,-61.51973,-6.909645,34.57793,0,0,0,-16.04362,-68.83131,-15.2999,-36.05464,-110.6632,-50.32285,0.001067912,-0.1257102,0.09433498,0,0.3,0,0,0,0,
6.38224E+17,-6.761709,17.06609,11.90711,-70.23591,17.92047,29.67051,-16.98673,-0.4441859,-4.27255,-61.44649,-6.909645,34.57793,0,0,0,-18.24877,-67.99593,-14.43636,-36.05464,-110.6632,-50.32285,0.001067912,-0.1257102,0.09433498,0,0.3,0,0,0,0,
6.38224E+17,-7.185789,17.27649,12.37405,-70.74863,17.481,30.25646,-16.98673,-0.4441859,-4.27255,-61.51973,-6.909645,34.57793,0,0,0,-19.50228,-67.29951,-13.66497,-36.05464,-110.6632,-50.32285,0.001067912,-0.1257102,0.09433498,0,0.3,0,0,0,0,
6.38224E+17,-8.104627,18.21162,13.58811,-71.99379,16.6753,31.72137,-16.98673,-0.4441859,-4.27255,-61.51973,-6.909645,34.57793,0,0,0,-22.27497,-64.59195,-11.92843,-36.05464,-110.6632,-50.32285,0.001067912,-0.1257102,0.09433498,0,0.3,0,0,0,0,
6.38224E+17,-8.787866,19.89485,14.9656,-73.38544,15.8696,33.18628,-16.98673,-0.4441859,-4.27255,-61.44649,-6.909645,34.57793,0,0,0,-24.41792,-60.09856,-10.39858,-36.05464,-110.6632,-50.32285,0.001067912,-0.1257102,0.09433498,0,0.3,0,0,0,0,
6.38224E+17,-9.588904,22.06903,16.66995,-74.63062,14.77092,34.50468,-16.98673,-0.4441859,-4.27255,-61.44649,-6.98289,34.57793,0,0,0,-26.95765,-54.29301,-8.778844,-36.05464,-110.6632,-50.32285,0.001067912,-0.1257102,0.09433498,0,0.3,0,0,0,0,
6.38224E+17,-10.01298,23.54185,17.74392,-75.43631,14.03847,35.31038,-16.98673,-0.4441859,-4.27255,-61.44649,-6.909645,34.57793,0,0,0,-28.32212,-50.3938,-7.939828,-36.05464,-110.6632,-50.32285,0.001067912,-0.1257102,0.09433498,0,0.3,0,0,0,0,
6.38224E+17,-10.74334,26.4875,19.98526,-76.82797,12.57357,36.77529,-16.98673,-0.4441859,-4.27255,-61.44649,-6.909645,34.50468,0,0,0,-30.74432,-42.49529,-6.312241,-36.05464,-110.6632,-50.32285,0.001067912,-0.1257102,0.09433498,0,0.3,0,0,0,0,
6.38224E+17,-11.42658,28.98897,22.53011,-78.6591,10.59595,38.02045,-16.98673,-0.4441859,-4.27255,-61.44649,-6.98289,34.57793,0,0,0,-33.23104,-35.19559,-3.936129,-36.05464,-110.6632,-50.32285,0.001067912,-0.1257102,0.09433498,0,0.3,0,0,0,0,
6.38224E+17,-12.01558,31.02288,24.88819,-81.07619,8.398596,39.19238,-16.98673,-0.4441859,-4.27255,-61.51973,-6.98289,34.57793,0,0,0,-35.47264,-28.88994,-1.687189,-36.05464,-110.6632,-50.32285,0.001067912,-0.1257102,0.09433498,0,0.3,0,0,0,0,
6.38224E+17,-12.25118,32.00476,26.26567,-82.54109,7.226673,40.07132,-16.98673,-0.4441859,-4.27255,-61.51973,-6.98289,34.57793,0,0,0,-36.51781,-25.55771,-0.1758705,-36.05464,-110.6632,-50.32285,0.001067912,-0.1257102,0.09433498,0,0.3,0,0,0,0,
6.38224E+17,-12.34542,32.40219,26.75597,-83.20029,6.787202,40.65728,-16.98673,-0.4441859,-4.27255,-61.44649,-6.98289,34.57793,0,0,0,-36.9073,-24.26569,0.2797953,-36.05464,-110.6632,-50.32285,0.001067912,-0.1257102,0.09433498,0,0.3,0,0,0,0,
6.38224E+17,-12.48678,32.58922,26.94275,-83.93275,6.420976,41.8292,-16.98673,-0.4441859,-4.27255,-61.51973,-6.98289,34.57793,0,0,0,-37.35652,-23.70222,0.3385764,-36.05464,-110.6632,-50.32285,0.001067912,-0.1257102,0.09433498,0,0.3,0,0,0,0,
6.38224E+17,-12.60458,32.56584,26.94275,-84.15249,6.347731,42.78139,-16.98673,-0.4441859,-4.27255,-61.44649,-6.98289,34.57793,0,0,0,-37.70966,-23.74807,0.2900058,-36.05464,-110.6632,-50.32285,0.001067912,-0.1257102,0.09433498,0,0.3,0,0,0,0,
6.38224E+17,-12.62814,32.4957,26.8727,-84.22573,6.420976,43.14762,-16.98673,-0.4441859,-4.27255,-61.44649,-6.909645,34.57793,0,0,0,-37.76641,-23.95947,0.2182899,-36.05464,-110.6632,-50.32285,0.001067912,-0.1257102,0.09433498,0,0.3,0,0,0,0,
6.38224E+17,-12.58102,31.958,26.49915,-84.07924,6.640712,43.58709,-16.98673,-0.4441859,-4.27255,-61.44649,-6.909645,34.57793,0,0,0,-37.60393,-25.40856,0.1424716,-36.05464,-110.6632,-50.32285,0.001067912,-0.1257102,0.09433498,0,0.3,0,0,0,0,
6.38224E+17,-12.2983,30.85923,26.0789,-83.71302,7.153428,43.80682,-16.98673,-0.4441859,-4.27255,-61.51973,-6.98289,34.57793,0,0,0,-36.86914,-28.02429,0.7712662,-36.05464,-110.6632,-50.32285,0.001067912,-0.1257102,0.09433498,0,0.3,0,0,0,0,
6.38224E+17,-12.01558,30.15788,25.70534,-83.42004,7.592898,43.80682,-16.98673,-0.4441859,-4.27255,-61.51973,-6.98289,34.57793,0,0,0,-36.04387,-29.81026,0.9966403,-36.05464,-110.6632,-50.32285,0.001067912,-0.1257102,0.09433498,0,0.3,0,0,0,0,
6.38224E+17,-10.97894,28.70843,23.74417,-81.95513,8.764822,43.73357,-16.98673,-0.4441859,-4.27255,-61.44649,-6.98289,34.57793,0,0,0,-32.50034,-34.65723,-0.8215358,-36.05464,-110.6632,-50.32285,0.001067912,-0.1257102,0.09433498,0,0.3,0,0,0,0,
6.38224E+17,-9.471104,26.72129,21.68961,-78.80559,10.52271,43.66033,-16.98673,-0.4441859,-4.27255,-61.51973,-6.98289,34.57793,0,0,0,-27.70894,-40.59782,-2.253333,-36.05464,-110.6632,-50.32285,0.001067912,-0.1257102,0.09433498,0,0.3,0,0,0,0,
6.38224E+17,-7.751227,24.61725,19.86852,-75.43631,12.57357,43.58709,-16.98673,-0.4441859,-4.27255,-61.44649,-6.909645,34.50468,0,0,0,-22.46304,-46.5148,-3.321131,-36.05464,-110.6632,-50.32285,0.001067912,-0.1257102,0.09433498,0,0.3,0,0,0,0,
6.38224E+17,-6.761709,23.63536,18.88794,-73.60519,13.74549,43.58709,-16.98673,-0.4441859,-4.27255,-61.44649,-6.909645,34.57793,0,0,0,-19.46622,-49.35762,-4.168156,-36.05464,-110.6632,-50.32285,0.001067912,-0.1257102,0.09433498,0,0.3,0,0,0,0,
6.38224E+17,-4.806232,22.0924,17.30033,-70.01617,16.08934,43.4406,-16.98673,-0.4441859,-4.27255,-61.44649,-6.98289,34.57793,0,0,0,-13.67516,-53.81401,-5.709,-36.05464,-110.6632,-50.32285,0.001067912,-0.1257102,0.09433498,0,0.3,0,0,0,0,
6.38224E+17,-2.403116,20.40917,16.15631,-66.13418,18.50643,43.4406,-16.98673,-0.4441859,-4.27255,-61.44649,-6.909645,34.57793,0,0,0,-6.796219,-58.23141,-6.407632,-36.05464,-110.6632,-50.32285,0.001067912,-0.1257102,0.09433498,0,0.3,0,0,0,0,
6.38224E+17,-0.9895183,19.54418,15.68936,-63.93682,19.89809,43.4406,-16.98673,-0.4441859,-4.27255,-61.44649,-6.98289,34.57793,0,0,0,-2.792954,-60.42159,-6.6465,-36.05464,-110.6632,-50.32285,0.001067912,-0.1257102,0.09433498,0,0.3,0,0,0,0,
6.38224E+17,1.837677,18.32851,14.59204,-59.61535,22.97438,43.51384,-16.98673,-0.4441859,-4.27255,-61.44649,-6.98289,34.57793,0,0,0,5.136672,-63.7648,-8.251823,-36.05464,-110.6632,-50.32285,0.001067912,-0.1257102,0.09433498,0,0.3,0,0,0,0,
6.38224E+17,4.570632,17.4869,13.72819,-55.07415,25.83095,43.51384,-16.98673,-0.4441859,-4.27255,-61.44649,-6.98289,34.57793,0,0,0,12.65712,-66.12049,-10.02168,-36.05464,-110.6632,-50.32285,0.001067912,-0.1257102,0.09433498,0,0.3,0,0,0,0,
6.38224E+17,7.704108,16.85568,13.47137,-49.8005,28.39453,43.58709,-16.98673,-0.4441859,-4.27255,-61.51973,-6.98289,34.57793,0,0,0,21.27303,-67.66463,-11.09618,-36.05464,-110.6632,-50.32285,0.001067912,-0.1257102,0.09433498,0,0.3,0,0,0,0,
6.38224E+17,10.13078,16.55177,13.47137,-45.62553,29.93268,43.51384,-16.98673,-0.4441859,-4.27255,-61.51973,-6.909645,34.57793,0,0,0,27.94797,-68.34211,-11.93779,-36.05464,-110.6632,-50.32285,0.001067912,-0.1257102,0.09433498,0,0.3,0,0,0,0,
6.38224E+17,12.1805,16.48163,13.47137,-41.81678,30.88486,43.51384,-16.98673,-0.4441859,-4.27255,-61.44649,-6.909645,34.57793,0,0,0,33.53422,-68.49861,-12.99211,-36.05464,-110.6632,-50.32285,0.001067912,-0.1257102,0.09433498,0,0.3,0,0,0,0,
6.38224E+17,13.28782,16.50501,13.47137,-39.91241,31.32433,43.4406,-16.98673,-0.4441859,-4.27255,-61.51973,-6.909645,34.57793,0,0,0,36.52672,-68.44643,-13.68421,-36.05464,-110.6632,-50.32285,0.001067912,-0.1257102,0.09433498,0,0.3,0,0,0,0,
6.38224E+17,15.36109,16.52839,13.47137,-37.05584,31.83705,42.26867,-16.98673,-0.4441859,-4.27255,-61.44649,-6.98289,34.57793,0,0,0,42.09415,-68.39427,-15.12182,-36.05464,-110.6632,-50.32285,0.001067912,-0.1257102,0.09433498,0,0.3,0,0,0,0,
6.38224E+17,17.34013,16.45825,13.40133,-34.85849,31.98354,38.45993,-16.98673,-0.4441859,-4.27255,-61.44649,-6.98289,34.57793,0,0,0,47.32716,-68.58867,-16.774,-36.05464,-110.6632,-50.32285,0.001067912,-0.1257102,0.09433498,0,0.3,0,0,0,0,
6.38224E+17,19.17781,16.4115,13.40133,-33.02736,31.69056,32.89329,-16.98673,-0.4441859,-4.27255,-61.51973,-6.98289,34.57793,0,0,0,52.17367,-68.69304,-18.34057,-36.05464,-110.6632,-50.32285,0.001067912,-0.1257102,0.09433498,0,0.3,0,0,0,0,
6.38224E+17,20.02597,16.4115,13.47137,-32.07517,31.32433,30.40295,-16.98673,-0.4441859,-4.27255,-61.44649,-6.98289,34.57793,0,0,0,54.44278,-68.65516,-18.98034,-36.05464,-110.6632,-50.32285,0.001067912,-0.1257102,0.09433498,0,0.3,0,0,0,0,
6.38224E+17,21.41601,16.43488,13.6815,-30.46378,30.73837,27.10692,-16.98673,-0.4441859,-4.27255,-61.44649,-6.98289,34.57793,0,0,0,58.21819,-68.48817,-19.91676,-36.05464,-110.6632,-50.32285,0.001067912,-0.1257102,0.09433498,0,0.3,0,0,0,0,
6.38224E+17,22.42908,16.4115,13.84493,-29.43835,30.15241,25.1293,-16.98673,-0.4441859,-4.27255,-61.44649,-6.98289,34.57793,0,0,0,60.98031,-68.44987,-20.61357,-36.05464,-110.6632,-50.32285,0.001067912,-0.1257102,0.09433498,0,0.3,0,0,0,0,
6.38224E+17,22.97096,16.4115,13.93832,-29.07212,29.4932,24.10387,-16.98673,-0.4441859,-4.27255,-61.51973,-6.98289,34.57793,0,0,0,62.45713,-68.39768,-21.00263,-36.05464,-110.6632,-50.32285,0.001067912,-0.1257102,0.09433498,0,0.3,0,0,0,0,
6.38224E+17,23.13588,16.4115,13.89162,-29.07212,29.12698,23.29818,-16.98673,-0.4441859,-4.27255,-61.44649,-6.909645,34.57793,0,0,0,62.83955,-68.42382,-21.28003,-36.05464,-110.6632,-50.32285,0.001067912,-0.1257102,0.09433498,0,0.3,0,0,0,0,
6.38224E+17,23.15944,16.4115,13.79823,-29.58484,28.0283,20.88108,-16.98673,-0.4441859,-4.27255,-61.51973,-6.909645,34.57793,0,0,0,62.81702,-68.47583,-21.49991,-36.05464,-110.6632,-50.32285,0.001067912,-0.1257102,0.09433498,0,0.3,0,0,0,0,
6.38224E+17,23.11232,16.4115,13.79823,-30.68352,27.00287,17.87803,-16.98673,-0.4441859,-4.27255,-61.44649,-6.98289,34.57793,0,0,0,62.69623,-68.47583,-21.4483,-36.05464,-110.6632,-50.32285,0.001067912,-0.1257102,0.09433498,0,0.3,0,0,0,0,
6.38224E+17,23.11232,16.4115,13.79823,-31.26948,26.49015,16.41313,-16.98673,-0.4441859,-4.27255,-61.44649,-6.98289,34.57793,0,0,0,62.69623,-68.47583,-21.4483,-36.05464,-110.6632,-50.32285,0.001067912,-0.1257102,0.09433498,0,0.3,0,0,0,0,
6.38224E+17,23.0652,16.48163,13.79823,-32.36815,25.31823,13.33683,-16.98673,-0.4441859,-4.27255,-61.51973,-6.909645,34.57793,0,0,0,62.55729,-68.31928,-21.43931,-36.05464,-110.6632,-50.32285,0.001067912,-0.1257102,0.09433498,0,0.3,0,0,0,0,
6.38224E+17,22.75892,16.80893,13.79823,-33.24709,24.43929,10.77325,-16.98673,-0.4441859,-4.27255,-61.44649,-6.98289,34.57793,0,0,0,61.68666,-67.58945,-21.30821,-36.05464,-110.6632,-50.32285,0.001067912,-0.1257102,0.09433498,0,0.3,0,0,0,0,
6.38224E+17,22.005,17.62716,13.70484,-34.05279,23.34061,8.50265,-16.98673,-0.4441859,-4.27255,-61.51973,-6.98289,34.57793,0,0,0,59.45623,-65.82212,-21.22765,-36.05464,-110.6632,-50.32285,0.001067912,-0.1257102,0.09433498,0,0.3,0,0,0,0,
6.38224E+17,21.2982,18.37527,13.6348,-34.712,22.46167,6.744767,-16.98673,-0.4441859,-4.27255,-61.44649,-6.98289,34.57793,0,0,0,57.38389,-64.20475,-21.15431,-36.05464,-110.6632,-50.32285,0.001067912,-0.1257102,0.09433498,0,0.3,0,0,0,0,
6.38224E+17,20.73277,18.91297,13.6348,-35.15147,21.80246,5.646089,-16.98673,-0.4441859,-4.27255,-61.51973,-6.98289,34.57793,0,0,0,55.78685,-63.01899,-20.96934,-36.05464,-110.6632,-50.32285,0.001067912,-0.1257102,0.09433498,0,0.3,0,0,0,0,
6.38224E+17,19.50765,20.2689,13.6348,-36.25014,20.48405,4.107941,-16.98673,-0.4441859,-4.27255,-61.51973,-6.909645,34.57793,0,0,0,52.26965,-60.04595,-20.80765,-36.05464,-110.6632,-50.32285,0.001067912,-0.1257102,0.09433498,0,0.3,0,0,0,0,
6.38224E+17,18.09405,22.18591,13.6348,-37.34882,18.79941,3.448734,-16.98673,-0.4441859,-4.27255,-61.51973,-6.909645,34.57793,0,0,0,48.11226,-55.88721,-21.09857,-36.05464,-110.6632,-50.32285,0.001067912,-0.1257102,0.09433498,0,0.3,0,0,0,0,
6.38224E+17,17.31657,23.28469,13.6348,-37.86154,17.92047,3.302244,-16.98673,-0.4441859,-4.27255,-61.51973,-6.909645,34.50468,0,0,0,45.81559,-53.52866,-21.4028,-36.05464,-110.6632,-50.32285,0.001067912,-0.1257102,0.09433498,0,0.3,0,0,0,0,
6.38224E+17,15.45534,25.7394,13.72819,-38.52075,16.52881,3.81496,-16.98673,-0.4441859,-4.27255,-61.44649,-6.98289,34.57793,0,0,0,40.44339,-48.27946,-22.07311,-36.05464,-110.6632,-50.32285,0.001067912,-0.1257102,0.09433498,0,0.3,0,0,0,0,
6.38224E+17,12.72238,28.19411,13.96167,-39.69267,14.99066,5.79258,-16.98673,-0.4441859,-4.27255,-61.51973,-6.98289,34.57793,0,0,0,32.96845,-43.05792,-22.3234,-36.05464,-110.6632,-50.32285,0.001067912,-0.1257102,0.09433498,0,0.3,0,0,0,0,
6.38224E+17,10.97894,29.26951,14.19514,-40.79135,14.03847,6.964502,-16.98673,-0.4441859,-4.27255,-61.44649,-6.909645,34.57793,0,0,0,28.38172,-40.73106,-22.05167,-36.05464,-110.6632,-50.32285,0.001067912,-0.1257102,0.09433498,0,0.3,0,0,0,0,
6.38224E+17,6.29051,31.32679,15.05899,-44.45361,11.98761,9.894309,-16.98673,-0.4441859,-4.27255,-61.51973,-6.98289,34.57793,0,0,0,16.27721,-36.08946,-20.68865,-36.05464,-110.6632,-50.32285,0.001067912,-0.1257102,0.09433498,0,0.3,0,0,0,0,
6.38224E+17,2.992115,31.98138,15.73606,-47.89613,10.52271,11.28597,-16.98673,-0.4441859,-4.27255,-61.51973,-6.909645,34.57793,0,0,0,7.791962,-34.37423,-19.27798,-36.05464,-110.6632,-50.32285,0.001067912,-0.1257102,0.09433498,0,0.3,0,0,0,0,
6.38224E+17,-0.5183191,32.09827,16.6466,-52.8768,8.911312,12.23815,-16.98673,-0.4441859,-4.27255,-61.51973,-6.98289,34.57793,0,0,0,-1.367489,-33.55269,-17.18987,-36.05464,-110.6632,-50.32285,0.001067912,-0.1257102,0.09433498,0,0.3,0,0,0,0,
6.38224E+17,-2.049716,32.09827,17.02016,-55.51363,8.325351,12.53114,-16.98673,-0.4441859,-4.27255,-61.51973,-6.98289,34.57793,0,0,0,-5.43648,-33.30092,-16.44878,-36.05464,-110.6632,-50.32285,0.001067912,-0.1257102,0.09433498,0,0.3,0,0,0,0,
6.38224E+17,-4.806232,32.09827,18.07078,-60.05483,7.519653,12.89736,-16.98673,-0.4441859,-4.27255,-61.51973,-6.909645,34.57793,0,0,0,-12.93072,-32.56379,-14.56275,-36.05464,-110.6632,-50.32285,0.001067912,-0.1257102,0.09433498,0,0.3,0,0,0,0,
6.38224E+17,-6.832388,32.0749,19.26149,-64.37629,7.080183,13.26359,-16.98673,-0.4441859,-4.27255,-61.51973,-6.909645,34.50468,0,0,0,-18.67567,-31.72295,-12.48059,-36.05464,-110.6632,-50.32285,0.001067912,-0.1257102,0.09433498,0,0.3,0,0,0,0,
6.38224E+17,-8.717185,32.05152,20.4522,-67.89206,7.006938,14.50875,-16.98673,-0.4441859,-4.27255,-61.51973,-6.98289,34.57793,0,0,0,-24.19151,-30.82776,-10.57428,-36.05464,-110.6632,-50.32285,0.001067912,-0.1257102,0.09433498,0,0.3,0,0,0,0,
6.38224E+17,-10.31926,32.05152,21.61957,-71.26134,7.080183,15.46094,-16.98673,-0.4441859,-4.27255,-61.44649,-6.98289,34.57793,0,0,0,-29.04738,-29.85254,-8.817503,-36.05464,-110.6632,-50.32285,0.001067912,-0.1257102,0.09433498,0,0.3,0,0,0,0,
6.38224E+17,-11.0025,32.05152,22.01647,-72.79948,7.080183,15.68068,-16.98673,-0.4441859,-4.27255,-61.44649,-6.98289,34.57793,0,0,0,-31.11133,-29.50922,-8.333404,-36.05464,-110.6632,-50.32285,0.001067912,-0.1257102,0.09433498,0,0.3,0,0,0,0,
6.38224E+17,-12.32186,32.05152,22.48342,-75.94903,7.080183,15.90041,-16.98673,-0.4441859,-4.27255,-61.51973,-6.909645,34.57793,0,0,0,-35.00213,-29.09772,-8.109493,-36.05464,-110.6632,-50.32285,0.001067912,-0.1257102,0.09433498,0,0.3,0,0,0,0,
6.38224E+17,-13.42918,31.958,22.85697,-78.87884,7.080183,16.0469,-16.98673,-0.4441859,-4.27255,-61.44649,-6.98289,34.57793,0,0,0,-38.30537,-28.94718,-7.92334,-36.05464,-110.6632,-50.32285,0.001067912,-0.1257102,0.09433498,0,0.3,0,0,0,0,
6.38224E+17,-13.85326,31.84111,23.0204,-80.41698,7.080183,16.0469,-16.98673,-0.4441859,-4.27255,-61.51973,-6.98289,34.57793,0,0,0,-39.61001,-29.0299,-7.731573,-36.05464,-110.6632,-50.32285,0.001067912,-0.1257102,0.09433498,0,0.3,0,0,0,0,
6.38224E+17,-13.9475,31.5372,23.04375,-82.61434,7.153428,15.82717,-16.98673,-0.4441859,-4.27255,-61.44649,-6.98289,34.57793,0,0,0,-39.97575,-29.61052,-7.387793,-36.05464,-110.6632,-50.32285,0.001067912,-0.1257102,0.09433498,0,0.3,0,0,0,0,
6.38224E+17,-13.61766,31.39693,23.04375,-83.63977,7.153428,15.82717,-16.98673,-0.4441859,-4.27255,-61.44649,-6.909645,34.57793,0,0,0,-39.0886,-29.88897,-6.994704,-36.05464,-110.6632,-50.32285,0.001067912,-0.1257102,0.09433498,0,0.3,0,0,0,0,
6.38224E+17,-13.38206,31.35017,23.04375,-83.8595,7.299919,15.97366,-16.98673,-0.4441859,-4.27255,-61.51973,-6.98289,34.57793,0,0,0,-38.43789,-29.98188,-6.780221,-36.05464,-110.6632,-50.32285,0.001067912,-0.1257102,0.09433498,0,0.3,0,0,0,0,
6.38224E+17,-12.72238,31.13977,23.0204,-84.006,7.446409,16.0469,-16.98673,-0.4441859,-4.27255,-61.44649,-6.909645,34.57793,0,0,0,-36.62006,-30.42181,-6.149395,-36.05464,-110.6632,-50.32285,0.001067912,-0.1257102,0.09433498,0,0.3,0,0,0,0,
6.38224E+17,-11.49726,30.76572,22.67019,-84.006,7.739389,16.33988,-16.98673,-0.4441859,-4.27255,-61.44649,-6.909645,34.50468,0,0,0,-33.08326,-31.48484,-5.700801,-36.05464,-110.6632,-50.32285,0.001067912,-0.1257102,0.09433498,0,0.3,0,0,0,0,
6.38224E+17,-8.670066,29.59681,21.17597,-82.76083,8.03237,16.41313,-16.98673,-0.4441859,-4.27255,-61.44649,-6.909645,34.57793,0,0,0,-24.74036,-35.13491,-6.104139,-36.05464,-110.6632,-50.32285,0.001067912,-0.1257102,0.09433498,0,0.3,0,0,0,0,
6.38224E+17,-6.502549,28.26425,19.68175,-81.00294,8.105616,16.33988,-16.98673,-0.4441859,-4.27255,-61.51973,-6.98289,34.57793,0,0,0,-18.38716,-39.06303,-7.031777,-36.05464,-110.6632,-50.32285,0.001067912,-0.1257102,0.09433498,0,0.3,0,0,0,0,
6.38224E+17,-4.759112,26.79142,18.44434,-79.09857,8.178861,16.41313,-16.98673,-0.4441859,-4.27255,-61.51973,-6.98289,34.57793,0,0,0,-13.37631,-43.04331,-7.680825,-36.05464,-110.6632,-50.32285,0.001067912,-0.1257102,0.09433498,0,0.3,0,0,0,0,
6.38224E+17,-1.342918,23.54185,16.83338,-74.55737,9.204292,16.33988,-16.98673,-0.4441859,-4.27255,-61.44649,-6.98289,34.57793,0,0,0,-3.770129,-51.02358,-7.526343,-36.05464,-110.6632,-50.32285,0.001067912,-0.1257102,0.09433498,0,0.3,0,0,0,0,
6.38224E+17,1.554958,20.71309,16.83338,-70.38239,11.18191,16.26664,-16.98673,-0.4441859,-4.27255,-61.51973,-6.98289,34.57793,0,0,0,4.432563,-57.12172,-5.062707,-36.05464,-110.6632,-50.32285,0.001067912,-0.1257102,0.09433498,0,0.3,0,0,0,0,
6.38224E+17,3.958073,19.14675,17.13689,-67.23285,12.86655,15.3877,-16.98673,-0.4441859,-4.27255,-61.51973,-6.909645,34.57793,0,0,0,11.40771,-60.34242,-3.478555,-36.05464,-110.6632,-50.32285,0.001067912,-0.1257102,0.09433498,0,0.3,0,0,0,0,
6.38224E+17,5.277431,18.79608,17.18359,-65.91444,13.599,14.72849,-16.98673,-0.4441859,-4.27255,-61.44649,-6.98289,34.57793,0,0,0,15.23482,-61.08218,-3.417326,-36.05464,-110.6632,-50.32285,0.001067912,-0.1257102,0.09433498,0,0.3,0,0,0,0,
6.38224E+17,8.222426,18.42202,17.27698,-63.42411,14.62444,13.19034,-16.98673,-0.4441859,-4.27255,-61.44649,-6.909645,34.57793,0,0,0,23.7579,-61.84284,-3.937459,-36.05464,-110.6632,-50.32285,0.001067912,-0.1257102,0.09433498,0,0.3,0,0,0,0,
