zeyangz2/DNN_classification_different_people_hand/data/frank_right_23.csv
Timestamp,Therapist joint angle 0,Therapist joint angle 1,Therapist joint angle 2,Therapist joint angle 3,Therapist joint angle 4,Therapist joint angle 5,Patient joint angle 0,Patient joint angle 1,Patient joint angle 2,Patient joint angle 3,Patient joint angle 4,Patient joint angle 5,Virtual joint angle 0,Virtual joint angle 1,Virtual joint angle 2,Therapist position x,Therapist position y,Therapist position z,Patient position x,Patient position y,Patient position z,Virtual position x,Virtual position y,Virtual position z,Assistive Force, Obstacle Force Magnitude, Therapist Constant Force, Patient Constant Force, Recovery Factor, Assistance Level,label
6.38224E+17,0,0,0,0,0,0,0,0,0,0,0,0,0,0,0,0,0,0,0,0,0,0,0,0,0,0.3,0,0,0,0,1
6.38224E+17,50.15916,-0.0233782,-2.754977,-43.64791,-7.935077,-59.32237,-16.98673,-0.4441859,-4.27255,-61.51973,-6.98289,34.57793,0,0,0,97.46838,-109.9003,-87.02464,-36.05464,-110.6632,-50.32285,0.001067912,-0.1257102,0.09433498,0,0.3,0,0,0,0,
6.38224E+17,50.15916,-0.0233782,-2.754977,-43.57467,-7.935077,-59.32237,-16.98673,-0.4441859,-4.27255,-61.44649,-6.98289,34.57793,0,0,0,97.46838,-109.9003,-87.02464,-36.05464,-110.6632,-50.32285,0.001067912,-0.1257102,0.09433498,0,0.3,0,0,0,0,
6.38224E+17,50.15916,-0.0233782,-2.754977,-43.57467,-7.935077,-59.32237,-16.98673,-0.4441859,-4.27255,-61.51973,-6.98289,34.57793,0,0,0,97.46838,-109.9003,-87.02464,-36.05464,-110.6632,-50.32285,0.001067912,-0.1257102,0.09433498,0,0.3,0,0,0,0,
6.38224E+17,50.15916,-0.0233782,-2.754977,-43.57467,-8.008322,-59.32237,-16.98673,-0.4441859,-4.27255,-61.44649,-6.98289,34.57793,0,0,0,97.46838,-109.9003,-87.02464,-36.05464,-110.6632,-50.32285,0.001067912,-0.1257102,0.09433498,0,0.3,0,0,0,0,
6.38224E+17,50.15916,-0.0233782,-2.754977,-43.64791,-8.008322,-59.32237,-16.98673,-0.4441859,-4.27255,-61.51973,-6.98289,34.57793,0,0,0,97.46838,-109.9003,-87.02464,-36.05464,-110.6632,-50.32285,0.001067912,-0.1257102,0.09433498,0,0.3,0,0,0,0,
6.38224E+17,50.15916,-0.0233782,-2.754977,-43.64791,-8.008322,-59.32237,-16.98673,-0.4441859,-4.27255,-61.44649,-6.98289,34.57793,0,0,0,97.46838,-109.9003,-87.02464,-36.05464,-110.6632,-50.32285,0.001067912,-0.1257102,0.09433498,0,0.3,0,0,0,0,
6.38224E+17,50.15916,-0.0233782,-2.754977,-43.64791,-8.008322,-59.32237,-16.98673,-0.4441859,-4.27255,-61.44649,-6.98289,34.50468,0,0,0,97.46838,-109.9003,-87.02464,-36.05464,-110.6632,-50.32285,0.001067912,-0.1257102,0.09433498,0,0.3,0,0,0,0,
6.38224E+17,50.15916,-0.0233782,-2.73163,-43.64791,-8.228058,-56.02634,-16.98673,-0.4441859,-4.27255,-61.44649,-6.98289,34.57793,0,0,0,97.51005,-109.9029,-86.98986,-36.05464,-110.6632,-50.32285,0.001067912,-0.1257102,0.09433498,0,0.3,0,0,0,0,
6.38224E+17,50.15916,-0.0233782,-2.73163,-43.57467,-8.447793,-51.92461,-16.98673,-0.4441859,-4.27255,-61.44649,-6.909645,34.57793,0,0,0,97.51005,-109.9029,-86.98986,-36.05464,-110.6632,-50.32285,0.001067912,-0.1257102,0.09433498,0,0.3,0,0,0,0,
6.38224E+17,50.15916,-0.0233782,-2.73163,-43.57467,-8.521038,-50.89918,-16.98673,-0.4441859,-4.27255,-61.51973,-6.98289,34.57793,0,0,0,97.51005,-109.9029,-86.98986,-36.05464,-110.6632,-50.32285,0.001067912,-0.1257102,0.09433498,0,0.3,0,0,0,0,
6.38224E+17,50.15916,-0.0233782,-2.73163,-43.50142,-8.594284,-49.58077,-16.98673,-0.4441859,-4.27255,-61.44649,-6.98289,34.57793,0,0,0,97.51005,-109.9029,-86.98986,-36.05464,-110.6632,-50.32285,0.001067912,-0.1257102,0.09433498,0,0.3,0,0,0,0,
6.38224E+17,50.15916,-0.0233782,-2.73163,-43.50142,-8.594284,-49.06805,-16.98673,-0.4441859,-4.27255,-61.44649,-6.98289,34.57793,0,0,0,97.51005,-109.9029,-86.98986,-36.05464,-110.6632,-50.32285,0.001067912,-0.1257102,0.09433498,0,0.3,0,0,0,0,
6.38224E+17,50.15916,-0.0233782,-2.73163,-43.50142,-8.594284,-48.84832,-16.98673,-0.4441859,-4.27255,-61.44649,-6.98289,34.57793,0,0,0,97.51005,-109.9029,-86.98986,-36.05464,-110.6632,-50.32285,0.001067912,-0.1257102,0.09433498,0,0.3,0,0,0,0,
6.38224E+17,50.15916,-0.0233782,-2.73163,-43.50142,-8.594284,-48.77507,-16.98673,-0.4441859,-4.27255,-61.51973,-6.909645,34.57793,0,0,0,97.51005,-109.9029,-86.98986,-36.05464,-110.6632,-50.32285,0.001067912,-0.1257102,0.09433498,0,0.3,0,0,0,0,
6.38224E+17,50.15916,-0.0233782,-2.73163,-43.50142,-8.521038,-48.62858,-16.98673,-0.4441859,-4.27255,-61.51973,-6.98289,34.57793,0,0,0,97.51005,-109.9029,-86.98986,-36.05464,-110.6632,-50.32285,0.001067912,-0.1257102,0.09433498,0,0.3,0,0,0,0,
6.38224E+17,50.15916,-0.0233782,-2.73163,-43.50142,-8.521038,-48.62858,-16.98673,-0.4441859,-4.27255,-61.44649,-6.98289,34.57793,0,0,0,97.51005,-109.9029,-86.98986,-36.05464,-110.6632,-50.32285,0.001067912,-0.1257102,0.09433498,0,0.3,0,0,0,0,
6.38224E+17,50.15916,-0.0233782,-2.73163,-43.50142,-8.521038,-48.62858,-16.98673,-0.4441859,-4.27255,-61.51973,-6.909645,34.57793,0,0,0,97.51005,-109.9029,-86.98986,-36.05464,-110.6632,-50.32285,0.001067912,-0.1257102,0.09433498,0,0.3,0,0,0,0,
6.38224E+17,50.15916,-0.0233782,-2.73163,-43.50142,-8.521038,-48.62858,-16.98673,-0.4441859,-4.27255,-61.44649,-6.98289,34.57793,0,0,0,97.51005,-109.9029,-86.98986,-36.05464,-110.6632,-50.32285,0.001067912,-0.1257102,0.09433498,0,0.3,0,0,0,0,
6.38224E+17,50.15916,-0.04675641,-2.73163,-43.50142,-8.521038,-48.62858,-16.98673,-0.4441859,-4.27255,-61.44649,-6.98289,34.57793,0,0,0,97.51003,-109.9573,-86.98988,-36.05464,-110.6632,-50.32285,0.001067912,-0.1257102,0.09433498,0,0.3,0,0,0,0,
6.38224E+17,49.26388,-0.5610769,-3.268617,-43.06195,-8.374548,-45.62553,-16.98673,-0.4441859,-4.27255,-61.51973,-6.98289,34.57793,0,0,0,95.27637,-111.0889,-86.29483,-36.05464,-110.6632,-50.32285,0.001067912,-0.1257102,0.09433498,0,0.3,0,0,0.000478334,0,
6.38224E+17,48.39216,-0.9818845,-3.455395,-42.62248,-8.081567,-40.35188,-16.98673,-0.4441859,-4.27255,-61.51973,-6.98289,34.57793,0,0,0,93.68265,-112.0427,-85.15173,-36.05464,-110.6632,-50.32285,0.001067912,-0.1257102,0.09433498,0,0.3,0,0,0.001804246,0,
6.38224E+17,47.92096,-0.9818845,-3.432048,-42.47599,-7.788587,-36.61637,-16.98673,-0.4441859,-4.27255,-61.44649,-6.909645,34.57793,0,0,0,93.03552,-112.046,-84.34776,-36.05464,-110.6632,-50.32285,0.001067912,-0.1257102,0.09433498,0,0.3,0,0,0.002701521,0,
6.38224E+17,47.52044,-0.9585064,-3.432048,-42.62248,-7.495606,-30.9765,-16.98673,-0.4441859,-4.27255,-61.51973,-6.98289,34.57793,0,0,0,92.44672,-111.9916,-83.69884,-36.05464,-110.6632,-50.32285,0.001067912,-0.1257102,0.09433498,0,0.3,0,0,0.004587639,0,
6.38224E+17,47.52044,-0.9585064,-3.432048,-42.9887,-7.202625,-28.26642,-16.98673,-0.4441859,-4.27255,-61.51973,-6.98289,34.57793,0,0,0,92.44672,-111.9916,-83.69884,-36.05464,-110.6632,-50.32285,0.001067912,-0.1257102,0.09433498,0,0.3,0,0,0.006331281,0,
6.38224E+17,47.52044,-0.9585064,-3.432048,-43.13519,-6.98289,-26.87477,-16.98673,-0.4441859,-4.27255,-61.44649,-6.909645,34.57793,0,0,0,92.44672,-111.9916,-83.69884,-36.05464,-110.6632,-50.32285,0.001067912,-0.1257102,0.09433498,0,0.3,0,0,0.00791647,0,
6.38224E+17,47.52044,-0.9585064,-3.432048,-43.20844,-6.909645,-26.4353,-16.98673,-0.4441859,-4.27255,-61.44649,-6.909645,34.50468,0,0,0,92.44672,-111.9916,-83.69884,-36.05464,-110.6632,-50.32285,0.001067912,-0.1257102,0.09433498,0,0.3,0,0,0.008656174,0,
6.38224E+17,47.52044,-0.9585064,-3.432048,-43.20844,-6.836399,-25.99582,-16.98673,-0.4441859,-4.27255,-61.44649,-6.98289,34.50468,0,0,0,92.44672,-111.9916,-83.69884,-36.05464,-110.6632,-50.32285,0.001067912,-0.1257102,0.09433498,0,0.3,0,0,0.01004126,0,
6.38224E+17,47.47332,-0.9585064,-3.432048,-43.28168,-6.836399,-25.77609,-16.98673,-0.4441859,-4.27255,-61.44649,-6.98289,34.57793,0,0,0,92.37708,-111.9916,-83.62284,-36.05464,-110.6632,-50.32285,0.001067912,-0.1257102,0.09433498,0,0.3,0,0,0.01132596,0,
6.38224E+17,47.37908,-0.9585064,-3.432048,-43.28168,-6.763155,-25.70284,-16.98673,-0.4441859,-4.27255,-61.44649,-6.909645,34.57793,0,0,0,92.23759,-111.9916,-83.47102,-36.05464,-110.6632,-50.32285,0.001067912,-0.1257102,0.09433498,0,0.3,0,0,0.01196098,0,
6.38224E+17,47.16704,-0.9818845,-3.50209,-43.42817,-6.763155,-25.77609,-16.98673,-0.4441859,-4.27255,-61.44649,-6.98289,34.57793,0,0,0,91.80284,-112.0361,-83.24149,-36.05464,-110.6632,-50.32285,0.001067912,-0.1257102,0.09433498,0,0.3,0,0,0.01325428,0,
6.38224E+17,47.11992,-0.9818845,-3.595479,-43.50142,-6.689909,-26.58179,-16.98673,-0.4441859,-4.27255,-61.44649,-6.98289,34.57793,0,0,0,91.57385,-112.0226,-83.31364,-36.05464,-110.6632,-50.32285,0.001067912,-0.1257102,0.09433498,0,0.3,0,0,0.01453722,0,
6.38224E+17,47.09636,-0.9818845,-3.572132,-43.28168,-6.616664,-27.0945,-16.98673,-0.4441859,-4.27255,-61.51973,-6.98289,34.57793,0,0,0,91.5786,-112.026,-83.23907,-36.05464,-110.6632,-50.32285,0.001067912,-0.1257102,0.09433498,0,0.3,0,0,0.01514745,0,
6.38224E+17,46.17752,-0.8182371,-2.801672,-41.37731,-6.836399,-26.80152,-16.98673,-0.4441859,-4.27255,-61.44649,-6.98289,34.57793,0,0,0,91.49804,-111.7449,-80.53761,-36.05464,-110.6632,-50.32285,0.001067912,-0.1257102,0.09433498,0,0.3,0,0,0.01702145,0,
6.38224E+17,45.777,-0.6078333,-2.194643,-41.30406,-7.056135,-25.11688,-16.98673,-0.4441859,-4.27255,-61.51973,-6.98289,34.57793,0,0,0,91.89782,-111.3168,-78.91148,-36.05464,-110.6632,-50.32285,0.001067912,-0.1257102,0.09433498,0,0.3,0,0,0.01763476,0,
6.38224E+17,44.7168,-0.07013461,-0.6770707,-42.18301,-7.12938,-17.2064,-16.98673,-0.4441859,-4.27255,-61.44649,-6.98289,34.57793,0,0,0,92.71669,-110.1539,-74.71221,-36.05464,-110.6632,-50.32285,0.001067912,-0.1257102,0.09433498,0,0.3,0,0,0.01879264,0,
6.38224E+17,42.97337,0.1636474,0.4669453,-43.7944,-6.836399,-6.659099,-16.98673,-0.4441859,-4.27255,-61.44649,-6.909645,34.57793,0,0,0,91.63956,-109.6147,-69.98698,-36.05464,-110.6632,-50.32285,0.001067912,-0.1257102,0.09433498,0,0.3,0,0,0.02019205,0,
6.38224E+17,41.96029,0.1870256,0.9572379,-44.74659,-6.763155,-2.264389,-16.98673,-0.4441859,-4.27255,-61.44649,-6.909645,34.57793,0,0,0,90.64891,-109.5461,-67.53376,-36.05464,-110.6632,-50.32285,0.001067912,-0.1257102,0.09433498,0,0.3,0,0,0.02107323,0,
6.38224E+17,39.43937,0.2571602,2.241338,-46.65096,-6.470173,3.66847,-16.98673,-0.4441859,-4.27255,-61.44649,-6.98289,34.57793,0,0,0,88.02424,-109.2995,-61.33756,-36.05464,-110.6632,-50.32285,0.001067912,-0.1257102,0.09433498,0,0.3,0,0,0.02327736,0,
6.38224E+17,36.23522,0.3740513,4.039077,-49.43428,-5.664476,8.136425,-16.98673,-0.4441859,-4.27255,-61.51973,-6.98289,34.57793,0,0,0,84.37379,-108.7982,-53.2164,-36.05464,-110.6632,-50.32285,0.001067912,-0.1257102,0.09433498,0,0.3,0,0,0.02618471,0,
6.38224E+17,32.48919,0.3740513,6.023595,-53.16978,-3.686857,12.53114,-16.98673,-0.4441859,-4.27255,-61.44649,-6.909645,34.57793,0,0,0,79.14262,-108.3932,-44.06923,-36.05464,-110.6632,-50.32285,0.001067912,-0.1257102,0.09433498,0,0.3,0,0,0.02991001,0,
6.38224E+17,30.34523,0.3974294,6.934138,-55.51363,-2.295199,14.72849,-16.98673,-0.4441859,-4.27255,-61.51973,-6.98289,34.57793,0,0,0,75.50143,-108.0997,-39.37862,-36.05464,-110.6632,-50.32285,0.001067912,-0.1257102,0.09433498,0,0.3,0,0,0.03216945,0,
6.38224E+17,24.73796,0.3974294,8.778571,-60.56754,1.147324,19.19645,-16.98673,-0.4441859,-4.27255,-61.44649,-6.909645,34.57793,0,0,0,64.3179,-107.5129,-28.75654,-36.05464,-110.6632,-50.32285,0.001067912,-0.1257102,0.09433498,0,0.3,0,0,0.03782736,0,
6.38224E+17,20.33225,0.4208077,10.13271,-64.01007,4.003886,21.68678,-16.98673,-0.4441859,-4.27255,-61.51973,-6.909645,34.57793,0,0,0,54.48453,-106.9408,-21.31355,-36.05464,-110.6632,-50.32285,0.001067912,-0.1257102,0.09433498,0,0.3,0,0,0.04474584,0,
6.38224E+17,17.95269,0.4675641,10.92652,-65.62146,5.395544,22.56572,-16.98673,-0.4441859,-4.27255,-61.44649,-6.98289,34.57793,0,0,0,48.89233,-106.4943,-17.45105,-36.05464,-110.6632,-50.32285,0.001067912,-0.1257102,0.09433498,0,0.3,0,0,0.04865107,0,
6.38224E+17,13.2407,0.7247244,12.95773,-68.771,7.88588,23.6644,-16.98673,-0.4441859,-4.27255,-61.44649,-6.98289,34.57793,0,0,0,37.38903,-104.9177,-9.448821,-36.05464,-110.6632,-50.32285,0.001067912,-0.1257102,0.09433498,0,0.3,0,0,0.05716786,0,
6.38224E+17,8.929225,1.145532,15.19907,-72.72624,9.277537,24.25036,-16.98673,-0.4441859,-4.27255,-61.44649,-6.98289,34.57793,0,0,0,26.12011,-102.6696,-2.105279,-36.05464,-110.6632,-50.32285,0.001067912,-0.1257102,0.09433498,0,0.3,0,0,0.06624606,0,
6.38224E+17,6.855949,1.379314,16.31974,-74.99684,9.570518,24.39685,-16.98673,-0.4441859,-4.27255,-61.44649,-6.98289,34.57793,0,0,0,20.38689,-101.4172,1.211164,-36.05464,-110.6632,-50.32285,0.001067912,-0.1257102,0.09433498,0,0.3,0,0,0.07091039,0,
6.38224E+17,2.944995,2.08066,18.42099,-79.31831,9.570518,24.68983,-16.98673,-0.4441859,-4.27255,-61.44649,-6.98289,34.57793,0,0,0,9.011579,-98.32573,6.818592,-36.05464,-110.6632,-50.32285,0.001067912,-0.1257102,0.09433498,0,0.3,0,0,0.08033657,0,
6.38224E+17,-0.1413598,3.179435,20.33547,-81.00294,8.838067,24.61659,-16.98673,-0.4441859,-4.27255,-61.44649,-6.98289,34.57793,0,0,0,-0.4428263,-94.29282,11.13548,-36.05464,-110.6632,-50.32285,0.001067912,-0.1257102,0.09433498,0,0.3,0,0,0.08958716,0,
6.38224E+17,-2.709396,4.886045,22.71689,-79.75778,8.471841,23.07844,-16.98673,-0.4441859,-4.27255,-61.51973,-6.909645,34.57793,0,0,0,-8.714849,-88.29729,15.80616,-36.05464,-110.6632,-50.32285,0.001067912,-0.1257102,0.09433498,0,0.3,0,0,0.09818587,0,
6.38224E+17,-4.217233,6.966705,25.00492,-79.02532,8.764822,21.76003,-16.98673,-0.4441859,-4.27255,-61.44649,-6.909645,34.57793,0,0,0,-13.879,-81.32694,19.87097,-36.05464,-110.6632,-50.32285,0.001067912,-0.1257102,0.09433498,0,0.3,0,0,0.1019309,0,
6.38224E+17,-5.230311,8.813582,26.80266,-78.95209,9.131048,21.76003,-16.98673,-0.4441859,-4.27255,-61.44649,-6.98289,34.50468,0,0,0,-17.49399,-75.24162,22.75643,-36.05464,-110.6632,-50.32285,0.001067912,-0.1257102,0.09433498,0,0.3,0,0,0.1087741,0,
6.38224E+17,-6.431869,11.57221,29.62768,-77.92664,10.59595,23.59116,-16.98673,-0.4441859,-4.27255,-61.44649,-6.909645,34.57793,0,0,0,-22.01926,-65.81493,26.97529,-36.05464,-110.6632,-50.32285,0.001067912,-0.1257102,0.09433498,0,0.3,0,0,0.1142563,0,
6.38224E+17,-6.926629,13.16193,31.35538,-77.04771,11.40165,25.64202,-16.98673,-0.4441859,-4.27255,-61.51973,-6.98289,34.57793,0,0,0,-24.02738,-60.16076,29.43078,-36.05464,-110.6632,-50.32285,0.001067912,-0.1257102,0.09433498,0,0.3,0,0,0.1163912,0,
6.38224E+17,-8.151747,19.14675,37.07546,-74.85035,12.64682,33.84548,-16.98673,-0.4441859,-4.27255,-61.44649,-6.98289,34.57793,0,0,0,-29.26166,-39.30496,35.9304,-36.05464,-110.6632,-50.32285,0.001067912,-0.1257102,0.09433498,0,0.3,0,0,0.1200623,0,
6.38224E+17,-8.316667,21.20403,38.89655,-74.33764,12.50033,36.6288,-16.98673,-0.4441859,-4.27255,-61.44649,-6.98289,34.50468,0,0,0,-30.09385,-32.20239,37.51665,-36.05464,-110.6632,-50.32285,0.001067912,-0.1257102,0.09433498,0,0.3,0,0,0.1203543,0,
6.38224E+17,-8.245987,26.0667,42.56207,-73.67843,11.54814,42.12218,-16.98673,-0.4441859,-4.27255,-61.44649,-6.98289,34.57793,0,0,0,-30.11638,-16.27201,39.46154,-36.05464,-110.6632,-50.32285,0.001067912,-0.1257102,0.09433498,0,0.3,0,0,0.1195503,0,
6.38224E+17,-7.586308,31.16315,46.22758,-73.3122,9.497273,46.95637,-16.98673,-0.4441859,-4.27255,-61.44649,-6.98289,34.57793,0,0,0,-27.77669,0.104575,40.20679,-36.05464,-110.6632,-50.32285,0.001067912,-0.1257102,0.09433498,0,0.3,0,0,0.1169757,0,
6.38224E+17,-7.044428,33.66461,47.74516,-73.38544,8.252106,49.15372,-16.98673,-0.4441859,-4.27255,-61.44649,-6.98289,34.57793,0,0,0,-25.71583,7.601515,39.75441,-36.05464,-110.6632,-50.32285,0.001067912,-0.1257102,0.09433498,0,0.3,0,0,0.1150824,0,
6.38224E+17,-5.159632,38.97147,50.24332,-73.60519,5.029318,53.32869,-16.98673,-0.4441859,-4.27255,-61.44649,-6.98289,34.57793,0,0,0,-18.54279,21.9371,37.00383,-36.05464,-110.6632,-50.32285,0.001067912,-0.1257102,0.09433498,0,0.3,0,0,0.1102833,0,
6.38224E+17,-2.214636,44.23156,51.38733,-72.94598,1.220569,57.13744,-16.98673,-0.4441859,-4.27255,-61.51973,-6.909645,34.57793,0,0,0,-7.718805,33.15223,31.24697,-36.05464,-110.6632,-50.32285,0.001067912,-0.1257102,0.09433498,0,0.3,0,0,0.1044754,0,
6.38224E+17,-0.3298394,46.80317,51.43402,-72.06703,-1.050031,58.82208,-16.98673,-0.4441859,-4.27255,-61.44649,-6.98289,34.57793,0,0,0,-1.125699,37.43056,27.19089,-36.05464,-110.6632,-50.32285,0.001067912,-0.1257102,0.09433498,0,0.3,0,0,0.10132,0,
6.38224E+17,3.910954,51.50218,51.06047,-69.43021,-5.810967,60.7997,-16.98673,-0.4441859,-4.27255,-61.51973,-6.98289,34.57793,0,0,0,12.73606,43.9035,17.94443,-36.05464,-110.6632,-50.32285,0.001067912,-0.1257102,0.09433498,0,0.3,0,0,0.09467231,0,
6.38224E+17,9.541784,55.80377,50.29001,-65.18199,-11.45084,61.53215,-16.98673,-0.4441859,-4.27255,-61.44649,-6.98289,34.57793,0,0,0,29.42877,48.44855,6.724989,-36.05464,-110.6632,-50.32285,0.001067912,-0.1257102,0.09433498,0,0.3,0,0,0.08758292,0,
6.38224E+17,14.79566,58.07146,49.23938,-60.42105,-16.50476,59.84751,-16.98673,-0.4441859,-4.27255,-61.44649,-6.98289,34.57793,0,0,0,43.80373,49.46103,-2.508621,-36.05464,-110.6632,-50.32285,0.001067912,-0.1257102,0.09433498,0,0.3,0,0,0.08017707,0,
6.38224E+17,17.36369,58.49226,48.2588,-57.5645,-18.77536,58.16287,-16.98673,-0.4441859,-4.27255,-61.44649,-6.98289,34.57793,0,0,0,50.49266,48.26012,-6.869172,-36.05464,-110.6632,-50.32285,0.001067912,-0.1257102,0.09433498,0,0.3,0,0,0.07645673,0,
6.38224E+17,22.9474,58.00132,45.15361,-49.94699,-22.36438,52.74273,-16.98673,-0.4441859,-4.27255,-61.51973,-6.98289,34.57793,0,0,0,64.41199,42.3993,-16.21671,-36.05464,-110.6632,-50.32285,0.001067912,-0.1257102,0.09433498,0,0.3,0,0,0.06918813,0,
6.38224E+17,28.41331,56.17782,42.09512,-40.86459,-23.97577,45.85769,-16.98673,-0.4441859,-4.27255,-61.44649,-6.98289,34.57793,0,0,0,77.85406,35.18296,-24.44186,-36.05464,-110.6632,-50.32285,0.001067912,-0.1257102,0.09433498,0,0.3,0,0,0.06211824,0,
6.38224E+17,32.86615,52.81136,38.84985,-30.68352,-23.68279,38.67966,-16.98673,-0.4441859,-4.27255,-61.44649,-6.909645,34.57793,0,0,0,89.13503,25.73127,-30.38955,-36.05464,-110.6632,-50.32285,0.001067912,-0.1257102,0.09433498,0,0.3,0,0,0.05530543,0,
6.38224E+17,35.8347,47.87856,35.60458,-21.45462,-21.48543,31.79461,-16.98673,-0.4441859,-4.27255,-61.51973,-6.98289,34.57793,0,0,0,97.81278,13.83824,-32.90221,-36.05464,-110.6632,-50.32285,0.001067912,-0.1257102,0.09433498,0,0.3,0,0,0.04896589,0,
6.38224E+17,36.84778,45.28358,34.55396,-17.71912,-19.58106,29.23104,-16.98673,-0.4441859,-4.27255,-61.51973,-6.98289,34.57793,0,0,0,101.6228,8.282169,-32.7439,-36.05464,-110.6632,-50.32285,0.001067912,-0.1257102,0.09433498,0,0.3,0,0,0.04596619,0,
6.38224E+17,38.63834,40.88848,33.64341,-11.78626,-15.55258,26.15474,-16.98673,-0.4441859,-4.27255,-61.51973,-6.909645,34.57793,0,0,0,109.0765,-0.3746902,-31.89952,-36.05464,-110.6632,-50.32285,0.001067912,-0.1257102,0.09433498,0,0.3,0,0,0.04008702,0,
6.38224E+17,40.31109,37.59215,32.66283,-7.391551,-11.52409,24.61659,-16.98673,-0.4441859,-4.27255,-61.44649,-6.98289,34.57793,0,0,0,114.9163,-7.563799,-32.89856,-36.05464,-110.6632,-50.32285,0.001067912,-0.1257102,0.09433498,0,0.3,0,0,0.03432278,0,
6.38224E+17,41.15925,36.02581,31.98576,-5.633667,-9.912696,23.59116,-16.98673,-0.4441859,-4.27255,-61.44649,-6.98289,34.57793,0,0,0,117.4698,-11.32503,-33.97262,-36.05464,-110.6632,-50.32285,0.001067912,-0.1257102,0.09433498,0,0.3,0,0,0.03150952,0,
6.38224E+17,42.97337,32.65935,31.1219,-2.557369,-6.98289,20.00214,-16.98673,-0.4441859,-4.27255,-61.44649,-6.909645,34.57793,0,0,0,123.5096,-18.84546,-35.77866,-36.05464,-110.6632,-50.32285,0.001067912,-0.1257102,0.09433498,0,0.3,0,0,0.02594692,0,
6.38224E+17,44.97597,29.57343,31.49546,0.299192,-4.272818,16.12015,-16.98673,-0.4441859,-4.27255,-61.51973,-6.98289,34.57793,0,0,0,131.215,-24.54172,-37.02491,-36.05464,-110.6632,-50.32285,0.001067912,-0.1257102,0.09433498,0,0.3,0,0,0.02019436,0,
6.38224E+17,47.33196,27.32912,32.96634,3.521979,-1.489502,13.19034,-16.98673,-0.4441859,-4.27255,-61.51973,-6.98289,34.57793,0,0,0,140.4614,-27.30824,-38.88091,-36.05464,-110.6632,-50.32285,0.001067912,-0.1257102,0.09433498,0,0.3,0,0,0.01395101,0,
6.38224E+17,48.6042,26.51088,34.22709,5.426354,-0.2443342,12.01842,-16.98673,-0.4441859,-4.27255,-61.44649,-6.98289,34.57793,0,0,0,145.7816,-27.3826,-39.8452,-36.05464,-110.6632,-50.32285,0.001067912,-0.1257102,0.09433498,0,0.3,0,0,0.01054196,0,
6.38224E+17,51.05444,25.66927,37.51905,9.894309,1.51355,9.747819,-16.98673,-0.4441859,-4.27255,-61.51973,-6.909645,34.57793,0,0,0,156.64,-24.65269,-41.75166,-36.05464,-110.6632,-50.32285,0.001067912,-0.1257102,0.09433498,0,0.3,0,0,0.003003,0,
6.38224E+17,53.45755,25.59913,41.65152,15.02147,2.392492,7.330729,-16.98673,-0.4441859,-4.27255,-61.44649,-6.909645,34.57793,0,0,0,167.8211,-18.67241,-43.97641,-36.05464,-110.6632,-50.32285,0.001067912,-0.1257102,0.09433498,0,0.3,0,0,0,0,
6.38224E+17,55.29523,26.01994,46.81127,21.17406,2.612227,5.353109,-16.98673,-0.4441859,-4.27255,-61.44649,-6.98289,34.57793,0,0,0,178.4441,-9.416738,-44.76747,-36.05464,-110.6632,-50.32285,0.001067912,-0.1257102,0.09433498,0,0.3,0,0,0,0,
6.38224E+17,55.34235,26.41737,48.53897,23.44467,2.538982,4.840393,-16.98673,-0.4441859,-4.27255,-61.44649,-6.98289,34.57793,0,0,0,180.4365,-5.614134,-43.60703,-36.05464,-110.6632,-50.32285,0.001067912,-0.1257102,0.09433498,0,0.3,0,0,0,0,
6.38224E+17,55.31879,27.63304,52.34457,28.27885,2.612227,4.327676,-16.98673,-0.4441859,-4.27255,-61.44649,-6.98289,34.57793,0,0,0,183.9658,3.733623,-41.05528,-36.05464,-110.6632,-50.32285,0.001067912,-0.1257102,0.09433498,0,0.3,0,0,0,0,
6.38224E+17,55.24811,30.32153,56.15017,32.82005,2.685472,4.840393,-16.98673,-0.4441859,-4.27255,-61.44649,-6.98289,34.57793,0,0,0,185.5694,16.39366,-39.60683,-36.05464,-110.6632,-50.32285,0.001067912,-0.1257102,0.09433498,0,0.3,0,0,0,0,
6.38224E+17,54.89471,34.78677,58.97519,38.45993,1.220569,5.719335,-16.98673,-0.4441859,-4.27255,-61.51973,-6.98289,34.57793,0,0,0,183.0829,30.69955,-39.6519,-36.05464,-110.6632,-50.32285,0.001067912,-0.1257102,0.09433498,0,0.3,0,0,0,0,
6.38224E+17,54.42351,36.79729,59.65226,40.87702,-0.09784385,5.93907,-16.98673,-0.4441859,-4.27255,-61.44649,-6.909645,34.57793,0,0,0,180.4467,35.85009,-39.27481,-36.05464,-110.6632,-50.32285,0.001067912,-0.1257102,0.09433498,0,0.3,0,0,0,0,
6.38224E+17,52.91567,40.60794,59.97913,44.9055,-3.540367,6.232051,-16.98673,-0.4441859,-4.27255,-61.51973,-6.98289,34.57793,0,0,0,172.8698,43.4277,-37.68393,-36.05464,-110.6632,-50.32285,0.001067912,-0.1257102,0.09433498,0,0.3,0,0,0,0,
6.38224E+17,51.05444,43.57697,59.769,46.88312,-6.836399,7.623709,-16.98673,-0.4441859,-4.27255,-61.44649,-6.98289,34.57793,0,0,0,164.7416,48.13189,-35.20381,-36.05464,-110.6632,-50.32285,0.001067912,-0.1257102,0.09433498,0,0.3,0,0,0,0,
6.38224E+17,50.04136,44.86277,59.69896,47.46908,-8.228058,8.722386,-16.98673,-0.4441859,-4.27255,-61.44649,-6.98289,34.57793,0,0,0,160.6991,50.13573,-33.705,-36.05464,-110.6632,-50.32285,0.001067912,-0.1257102,0.09433498,0,0.3,0,0,0,0,
6.38224E+17,47.28484,47.87856,59.58222,48.20153,-11.52409,12.45789,-16.98673,-0.4441859,-4.27255,-61.44649,-6.98289,34.57793,0,0,0,150.2046,54.74373,-29.67159,-36.05464,-110.6632,-50.32285,0.001067912,-0.1257102,0.09433498,0,0.3,0,0,0,0,
6.38224E+17,44.74036,50.5203,59.23202,48.12829,-14.60039,16.0469,-16.98673,-0.4441859,-4.27255,-61.44649,-6.98289,34.57793,0,0,0,140.3321,58.05927,-26.74029,-36.05464,-110.6632,-50.32285,0.001067912,-0.1257102,0.09433498,0,0.3,0,0,0,0,
6.38224E+17,43.16185,51.94637,58.90515,47.76206,-16.50476,18.09777,-16.98673,-0.4441859,-4.27255,-61.51973,-6.909645,34.57793,0,0,0,134.3402,59.48489,-25.10114,-36.05464,-110.6632,-50.32285,0.001067912,-0.1257102,0.09433498,0,0.3,0,0,0,0,
6.38224E+17,39.65141,54.42446,57.69109,46.00418,-20.38675,22.56572,-16.98673,-0.4441859,-4.27255,-61.51973,-6.98289,34.57793,0,0,0,121.4234,60.53671,-21.84225,-36.05464,-110.6632,-50.32285,0.001067912,-0.1257102,0.09433498,0,0.3,0,0,0,0,
6.38224E+17,35.38706,56.22458,54.81938,41.53622,-24.41524,28.64507,-16.98673,-0.4441859,-4.27255,-61.51973,-6.98289,34.57793,0,0,0,106.0482,57.3632,-19.05435,-36.05464,-110.6632,-50.32285,0.001067912,-0.1257102,0.09433498,0,0.3,0,0,0,0,
6.38224E+17,30.74575,56.62201,50.50013,34.13846,-26.83233,36.84853,-16.98673,-0.4441859,-4.27255,-61.44649,-6.98289,34.57793,0,0,0,90.10938,49.88437,-16.86419,-36.05464,-110.6632,-50.32285,0.001067912,-0.1257102,0.09433498,0,0.3,0,0,0,0,
6.38224E+17,26.15156,55.82715,45.2937,24.68983,-27.05207,46.59014,-16.98673,-0.4441859,-4.27255,-61.44649,-6.909645,34.57793,0,0,0,74.78435,39.86858,-16.0432,-36.05464,-110.6632,-50.32285,0.001067912,-0.1257102,0.09433498,0,0.3,0,0,0,0,
6.38224E+17,22.09924,53.67635,39.2701,14.87498,-24.78147,54.06115,-16.98673,-0.4441859,-4.27255,-61.51973,-6.98289,34.57793,0,0,0,61.47184,27.55229,-16.95739,-36.05464,-110.6632,-50.32285,0.001067912,-0.1257102,0.09433498,0,0.3,0,0,0,0,
6.38224E+17,18.44745,48.93058,32.47605,3.96145,-19.14159,58.60235,-16.98673,-0.4441859,-4.27255,-61.44649,-6.909645,34.57793,0,0,0,50.37933,11.38826,-17.32186,-36.05464,-110.6632,-50.32285,0.001067912,-0.1257102,0.09433498,0,0.3,0,0,0,0,
6.38224E+17,17.22233,44.95628,28.6004,-1.824918,-13.79469,60.28699,-16.98673,-0.4441859,-4.27255,-61.44649,-6.98289,34.57793,0,0,0,46.83961,0.4921349,-17.24418,-36.05464,-110.6632,-50.32285,0.001067912,-0.1257102,0.09433498,0,0.3,0,0,0,0,
6.38224E+17,17.10453,42.85225,26.54584,-3.949028,-10.5719,60.7997,-16.98673,-0.4441859,-4.27255,-61.44649,-6.98289,34.57793,0,0,0,46.28095,-5.249174,-17.95374,-36.05464,-110.6632,-50.32285,0.001067912,-0.1257102,0.09433498,0,0.3,0,0,0,0,
6.38224E+17,17.78777,38.71431,22.81028,-5.999893,-3.979838,61.38566,-16.98673,-0.4441859,-4.27255,-61.44649,-6.98289,34.57793,0,0,0,47.57942,-16.16909,-20.0487,-36.05464,-110.6632,-50.32285,0.001067912,-0.1257102,0.09433498,0,0.3,0,0,0,0,
6.38224E+17,19.50765,34.41272,19.96191,-5.926647,2.246002,61.38566,-16.98673,-0.4441859,-4.27255,-61.44649,-6.98289,34.57793,0,0,0,51.93897,-26.62554,-21.74108,-36.05464,-110.6632,-50.32285,0.001067912,-0.1257102,0.09433498,0,0.3,0,0,0,0,
6.38224E+17,20.68565,32.02814,18.88794,-5.413931,5.395544,61.31242,-16.98673,-0.4441859,-4.27255,-61.51973,-6.98289,34.57793,0,0,0,55.18334,-32.09931,-22.2008,-36.05464,-110.6632,-50.32285,0.001067912,-0.1257102,0.09433498,0,0.3,0,0,0,0,
6.38224E+17,23.15944,28.56816,18.3743,-3.729292,11.10867,61.16593,-16.98673,-0.4441859,-4.27255,-61.51973,-6.909645,34.57793,0,0,0,62.5921,-39.43299,-22.02571,-36.05464,-110.6632,-50.32285,0.001067912,-0.1257102,0.09433498,0,0.3,0,0,0,0,
6.38224E+17,25.75104,26.37061,18.88794,-0.2867693,16.01609,61.16593,-16.98673,-0.4441859,-4.27255,-61.44649,-6.909645,34.57793,0,0,0,70.66143,-43.58874,-21.86047,-36.05464,-110.6632,-50.32285,0.001067912,-0.1257102,0.09433498,0,0.3,0,0,0,0,
6.38224E+17,27.77719,24.57049,19.58836,3.375489,19.09239,60.43347,-16.98673,-0.4441859,-4.27255,-61.44649,-6.98289,34.57793,0,0,0,77.35341,-46.83386,-21.49455,-36.05464,-110.6632,-50.32285,0.001067912,-0.1257102,0.09433498,0,0.3,0,0,0,0,
6.38224E+17,28.90807,23.30807,20.07865,5.426354,20.63054,58.96857,-16.98673,-0.4441859,-4.27255,-61.44649,-6.909645,34.57793,0,0,0,81.33192,-49.13205,-21.06652,-36.05464,-110.6632,-50.32285,0.001067912,-0.1257102,0.09433498,0,0.3,0,0,0,0,
6.38224E+17,30.25099,21.76511,20.91915,6.964502,22.16869,55.81903,-16.98673,-0.4441859,-4.27255,-61.51973,-6.98289,34.50468,0,0,0,86.37782,-51.76377,-20.24139,-36.05464,-110.6632,-50.32285,0.001067912,-0.1257102,0.09433498,0,0.3,0,0,0,0,
6.38224E+17,32.15935,19.94161,22.31999,7.989935,23.4871,51.42432,-16.98673,-0.4441859,-4.27255,-61.44649,-6.98289,34.57793,0,0,0,93.67944,-54.5284,-19.35524,-36.05464,-110.6632,-50.32285,0.001067912,-0.1257102,0.09433498,0,0.3,0,0,0,0,
6.38224E+17,33.26667,18.93634,23.23053,8.35616,23.85333,49.15372,-16.98673,-0.4441859,-4.27255,-61.44649,-6.98289,34.57793,0,0,0,98.0402,-55.91428,-18.90866,-36.05464,-110.6632,-50.32285,0.001067912,-0.1257102,0.09433498,0,0.3,0,0,0,0,
6.38224E+17,35.85826,17.01933,26.0789,9.161857,23.92657,45.93093,-16.98673,-0.4441859,-4.27255,-61.44649,-6.98289,34.57793,0,0,0,109.0327,-57.39279,-17.49598,-36.05464,-110.6632,-50.32285,0.001067912,-0.1257102,0.09433498,0,0.3,0,0,0,0,
6.38224E+17,38.61478,15.96731,29.27747,10.99299,23.4871,43.51384,-16.98673,-0.4441859,-4.27255,-61.51973,-6.98289,34.57793,0,0,0,120.7089,-56.28298,-17.22052,-36.05464,-110.6632,-50.32285,0.001067912,-0.1257102,0.09433498,0,0.3,0,0,0,0,
6.38224E+17,40.82941,16.03745,31.72893,13.55657,22.75465,41.53622,-16.98673,-0.4441859,-4.27255,-61.51973,-6.98289,34.57793,0,0,0,129.6432,-53.23025,-18.31264,-36.05464,-110.6632,-50.32285,0.001067912,-0.1257102,0.09433498,0,0.3,0,0,0,0,
6.38224E+17,41.91317,16.36474,32.96634,14.94823,22.09544,40.07132,-16.98673,-0.4441859,-4.27255,-61.44649,-6.909645,34.57793,0,0,0,133.9411,-50.95786,-19.1392,-36.05464,-110.6632,-50.32285,0.001067912,-0.1257102,0.09433498,0,0.3,0,0,0,0,
6.38224E+17,43.91577,17.34663,35.39445,17.43856,20.70378,36.33582,-16.98673,-0.4441859,-4.27255,-61.44649,-6.98289,34.57793,0,0,0,141.8562,-45.59623,-21.02072,-36.05464,-110.6632,-50.32285,0.001067912,-0.1257102,0.09433498,0,0.3,0,0,0,0,
6.38224E+17,45.87124,18.58567,38.24282,20.07539,18.87265,32.23409,-16.98673,-0.4441859,-4.27255,-61.44649,-6.909645,34.57793,0,0,0,149.9713,-38.88074,-22.87166,-36.05464,-110.6632,-50.32285,0.001067912,-0.1257102,0.09433498,0,0.3,0,0,0,0,
6.38224E+17,47.99164,20.36242,42.32859,23.59116,16.74854,27.39991,-16.98673,-0.4441859,-4.27255,-61.44649,-6.98289,34.57793,0,0,0,159.6158,-28.83492,-24.58913,-36.05464,-110.6632,-50.32285,0.001067912,-0.1257102,0.09433498,0,0.3,0,0,0,0,
6.38224E+17,49.00472,21.29754,45.10692,25.71527,15.50338,24.90957,-16.98673,-0.4441859,-4.27255,-61.44649,-6.98289,34.57793,0,0,0,165.0755,-22.33235,-24.87589,-36.05464,-110.6632,-50.32285,0.001067912,-0.1257102,0.09433498,0,0.3,0,0,0,0,
6.38224E+17,50.51255,23.12104,52.0644,31.13541,12.64682,19.70916,-16.98673,-0.4441859,-4.27255,-61.44649,-6.98289,34.57793,0,0,0,175.8174,-6.267092,-23.48201,-36.05464,-110.6632,-50.32285,0.001067912,-0.1257102,0.09433498,0,0.3,0,0,0,0,
6.38224E+17,50.93663,24.85103,59.60557,37.94721,9.570518,15.53419,-16.98673,-0.4441859,-4.27255,-61.51973,-6.98289,34.57793,0,0,0,183.2615,11.9233,-19.61188,-36.05464,-110.6632,-50.32285,0.001067912,-0.1257102,0.09433498,0,0.3,0,0,0,0,
6.38224E+17,50.44188,27.00183,66.04942,44.9055,6.860447,11.87193,-16.98673,-0.4441859,-4.27255,-61.44649,-6.98289,34.57793,0,0,0,185.5606,29.76017,-15.06922,-36.05464,-110.6632,-50.32285,0.001067912,-0.1257102,0.09433498,0,0.3,0,0,0,0,
6.38224E+17,49.9,28.28763,68.64096,48.27478,5.76177,10.48027,-16.98673,-0.4441859,-4.27255,-61.44649,-6.98289,34.57793,0,0,0,184.8175,37.97676,-12.71919,-36.05464,-110.6632,-50.32285,0.001067912,-0.1257102,0.09433498,0,0.3,0,0,0,0,
6.38224E+17,48.55708,31.16315,71.86288,54.20764,3.78415,9.015368,-16.98673,-0.4441859,-4.27255,-61.51973,-6.98289,34.57793,0,0,0,180.5311,50.84472,-8.949895,-36.05464,-110.6632,-50.32285,0.001067912,-0.1257102,0.09433498,0,0.3,0,0,0,0,
6.38224E+17,46.43668,35.13744,73.77736,60.87295,1.66004,8.868877,-16.98673,-0.4441859,-4.27255,-61.44649,-6.98289,34.57793,0,0,0,171.799,62.84416,-4.957654,-36.05464,-110.6632,-50.32285,0.001067912,-0.1257102,0.09433498,0,0.3,0,0,0,0,
6.38224E+17,44.92884,37.54539,73.8007,64.24223,0.4148723,9.894309,-16.98673,-0.4441859,-4.27255,-61.44649,-6.909645,34.57793,0,0,0,165.1055,67.41025,-2.833914,-36.05464,-110.6632,-50.32285,0.001067912,-0.1257102,0.09433498,0,0.3,0,0,0,0,
6.38224E+17,43.84509,39.06498,73.59058,66.29308,-0.4640697,11.13948,-16.98673,-0.4441859,-4.27255,-61.51973,-6.909645,34.57793,0,0,0,160.3318,69.71609,-1.42074,-36.05464,-110.6632,-50.32285,0.001067912,-0.1257102,0.09433498,0,0.3,0,0,0,0,
6.38224E+17,41.55977,41.98725,72.42323,69.8821,-2.441689,14.50875,-16.98673,-0.4441859,-4.27255,-61.44649,-6.909645,34.57793,0,0,0,150.0895,72.287,0.9391451,-36.05464,-110.6632,-50.32285,0.001067912,-0.1257102,0.09433498,0,0.3,0,0,0,0,
6.38224E+17,38.96818,44.86277,70.69552,72.66542,-4.85878,18.39075,-16.98673,-0.4441859,-4.27255,-61.44649,-6.98289,34.57793,0,0,0,138.5886,73.33265,2.987179,-36.05464,-110.6632,-50.32285,0.001067912,-0.1257102,0.09433498,0,0.3,0,0,0,0,
6.38224E+17,36.1881,47.48113,68.24406,74.49654,-7.861832,22.56572,-16.98673,-0.4441859,-4.27255,-61.44649,-6.98289,34.57793,0,0,0,126.3384,72.20958,4.344734,-36.05464,-110.6632,-50.32285,0.001067912,-0.1257102,0.09433498,0,0.3,0,0,0,0,
6.38224E+17,34.75095,48.57991,66.84322,75.00926,-9.619716,24.68983,-16.98673,-0.4441859,-4.27255,-61.51973,-6.98289,34.57793,0,0,0,120.1737,70.9067,4.873631,-36.05464,-110.6632,-50.32285,0.001067912,-0.1257102,0.09433498,0,0.3,0,0,0,0,
6.38224E+17,31.71171,50.5203,64.08825,75.44874,-13.50171,29.08454,-16.98673,-0.4441859,-4.27255,-61.51973,-6.98289,34.57793,0,0,0,107.6147,68.00405,5.813425,-36.05464,-110.6632,-50.32285,0.001067912,-0.1257102,0.09433498,0,0.3,0,0,0,0,
6.38224E+17,28.50755,52.15677,60.98306,75.52198,-17.82317,33.69899,-16.98673,-0.4441859,-4.27255,-61.51973,-6.98289,34.57793,0,0,0,94.70181,63.97163,6.014208,-36.05464,-110.6632,-50.32285,0.001067912,-0.1257102,0.09433498,0,0.3,0,0,0,0,
6.38224E+17,25.93952,53.16203,57.99461,74.35006,-21.63192,37.58098,-16.98673,-0.4441859,-4.27255,-61.44649,-6.98289,34.57793,0,0,0,84.43607,59.3992,5.23443,-36.05464,-110.6632,-50.32285,0.001067912,-0.1257102,0.09433498,0,0.3,0,0,0,0,
6.38224E+17,23.44216,53.74649,55.19294,71.63998,-25.58716,41.90245,-16.98673,-0.4441859,-4.27255,-61.44649,-6.98289,34.57793,0,0,0,74.92942,54.7664,4.452704,-36.05464,-110.6632,-50.32285,0.001067912,-0.1257102,0.09433498,0,0.3,0,0,0,0,
6.38224E+17,19.76681,53.74649,51.2706,65.70713,-30.93406,49.59319,-16.98673,-0.4441859,-4.27255,-61.44649,-6.98289,34.57793,0,0,0,61.8505,47.45505,3.759144,-36.05464,-110.6632,-50.32285,0.001067912,-0.1257102,0.09433498,0,0.3,0,0,0,0,
6.38224E+17,17.97625,53.46595,49.37947,62.11811,-33.20466,53.9879,-16.98673,-0.4441859,-4.27255,-61.51973,-6.98289,34.57793,0,0,0,55.73759,43.68013,3.434905,-36.05464,-110.6632,-50.32285,0.001067912,-0.1257102,0.09433498,0,0.3,0,0,0,0,
6.38224E+17,12.27474,51.33854,42.56207,44.97874,-38.11209,74.56979,-16.98673,-0.4441859,-4.27255,-61.51973,-6.98289,34.57793,0,0,0,36.88656,29.25816,1.186127,-36.05464,-110.6632,-50.32285,0.001067912,-0.1257102,0.09433498,0,0.3,0,0,0,0,
6.38224E+17,10.86114,50.26314,40.43747,38.53317,-38.11209,81.67458,-16.98673,-0.4441859,-4.27255,-61.44649,-6.909645,34.57793,0,0,0,32.36066,24.40001,0.3124493,-36.05464,-110.6632,-50.32285,0.001067912,-0.1257102,0.09433498,0,0.3,0,0,0,0,
6.38224E+17,8.528707,47.38762,36.37504,25.78851,-35.76824,93.10082,-16.98673,-0.4441859,-4.27255,-61.44649,-6.98289,34.57793,0,0,0,25.11814,14.12199,-0.854663,-36.05464,-110.6632,-50.32285,0.001067912,-0.1257102,0.09433498,0,0.3,0,0,0,0,
6.38224E+17,6.502549,43.62373,33.12977,15.46094,-31.08055,99.39991,-16.98673,-0.4441859,-4.27255,-61.51973,-6.98289,34.57793,0,0,0,19.18535,3.67881,-0.02889519,-36.05464,-110.6632,-50.32285,0.001067912,-0.1257102,0.09433498,0,0.3,0,0,0,0,
6.38224E+17,5.324551,41.73009,32.07914,10.8465,-28.0775,101.3043,-16.98673,-0.4441859,-4.27255,-61.51973,-6.98289,34.57793,0,0,0,15.80694,-0.8787481,1.253465,-36.05464,-110.6632,-50.32285,0.001067912,-0.1257102,0.09433498,0,0.3,0,0,0,0,
6.38224E+17,2.520916,39.64943,32.31261,3.082508,-22.21789,103.2087,-16.98673,-0.4441859,-4.27255,-61.44649,-6.98289,34.57793,0,0,0,7.651264,-4.260869,5.436922,-36.05464,-110.6632,-50.32285,0.001067912,-0.1257102,0.09433498,0,0.3,0,0,0,0,
6.38224E+17,-0.9423984,39.25201,35.11428,-4.095518,-18.62887,104.1608,-16.98673,-0.4441859,-4.27255,-61.44649,-6.98289,34.57793,0,0,0,-2.959947,-1.356275,11.59212,-36.05464,-110.6632,-50.32285,0.001067912,-0.1257102,0.09433498,0,0.3,0,0,0,0,
6.38224E+17,-4.594193,39.15849,39.55027,-12.07924,-17.23721,105.7722,-16.98673,-0.4441859,-4.27255,-61.51973,-6.98289,34.57793,0,0,0,-15.08333,4.734537,19.35611,-36.05464,-110.6632,-50.32285,0.001067912,-0.1257102,0.09433498,0,0.3,0,0,0,0,
6.38224E+17,-6.33763,39.15849,42.39864,-16.91342,-16.87099,106.5779,-16.98673,-0.4441859,-4.27255,-61.44649,-6.98289,34.57793,0,0,0,-21.33956,9.081056,23.78434,-36.05464,-110.6632,-50.32285,0.001067912,-0.1257102,0.09433498,0,0.3,0,0,0,0,
6.38224E+17,-9.117705,39.15849,49.26273,-28.19318,-16.50476,108.0428,-16.98673,-0.4441859,-4.27255,-61.44649,-6.909645,34.57793,0,0,0,-32.39629,20.53315,33.50738,-36.05464,-110.6632,-50.32285,0.001067912,-0.1257102,0.09433498,0,0.3,0,0,0,0,
6.38224E+17,-10.36638,39.25201,55.63654,-38.30101,-16.06529,110.1669,-16.98673,-0.4441859,-4.27255,-61.51973,-6.98289,34.57793,0,0,0,-38.38869,32.45669,41.50692,-36.05464,-110.6632,-50.32285,0.001067912,-0.1257102,0.09433498,0,0.3,0,0,0,0,
6.38224E+17,-10.6491,39.41565,59.27871,-44.38036,-15.84556,111.8516,-16.98673,-0.4441859,-4.27255,-61.44649,-6.98289,34.57793,0,0,0,-40.22161,39.89595,45.55826,-36.05464,-110.6632,-50.32285,0.001067912,-0.1257102,0.09433498,0,0.3,0,0,0,0,
6.38224E+17,-10.50774,40.21051,66.09611,-55.22065,-15.33284,114.6349,-16.98673,-0.4441859,-4.27255,-61.44649,-6.909645,34.57793,0,0,0,-40.80466,55.40656,51.64631,-36.05464,-110.6632,-50.32285,0.001067912,-0.1257102,0.09433498,0,0.3,0,0,0,0,
6.38224E+17,-9.518225,41.00537,72.75008,-65.47498,-14.89337,117.052,-16.98673,-0.4441859,-4.27255,-61.51973,-6.98289,34.57793,0,0,0,-37.69978,71.30126,56.49564,-36.05464,-110.6632,-50.32285,0.001067912,-0.1257102,0.09433498,0,0.3,0,0,0,0,
6.38224E+17,-7.539187,42.10415,78.40012,-75.72929,-14.23416,119.3958,-16.98673,-0.4441859,-4.27255,-61.44649,-6.98289,34.57793,0,0,0,-30.11957,85.94508,59.22794,-36.05464,-110.6632,-50.32285,0.001067912,-0.1257102,0.09433498,0,0.3,0,0,0,0,
6.38224E+17,-4.806232,44.18481,82.41585,-84.88493,-13.86794,121.6664,-16.98673,-0.4441859,-4.27255,-61.51973,-6.98289,34.57793,0,0,0,-19.08719,98.69178,58.65712,-36.05464,-110.6632,-50.32285,0.001067912,-0.1257102,0.09433498,0,0.3,0,0,0,0,
6.38224E+17,-3.251275,45.65763,83.86338,-88.84018,-14.16092,122.9849,-16.98673,-0.4441859,-4.27255,-61.51973,-6.98289,34.57793,0,0,0,-12.80569,104.4637,57.07668,-36.05464,-110.6632,-50.32285,0.001067912,-0.1257102,0.09433498,0,0.3,0,0,0,0,
6.38224E+17,0.3298394,48.46302,86.31484,-96.53092,-15.47933,125.6949,-16.98673,-0.4441859,-4.27255,-61.44649,-6.98289,34.57793,0,0,0,1.275116,114.5953,53.14544,-36.05464,-110.6632,-50.32285,0.001067912,-0.1257102,0.09433498,0,0.3,0,0,0,0,
6.38224E+17,4.005194,50.7307,88.3694,-104.8076,-17.82317,129.0642,-16.98673,-0.4441859,-4.27255,-61.51973,-6.98289,34.57793,0,0,0,15.20581,122.7923,48.82035,-36.05464,-110.6632,-50.32285,0.001067912,-0.1257102,0.09433498,0,0.3,0,0,0,0,
6.38224E+17,5.748631,51.64245,89.16321,-108.6896,-18.9951,130.6023,-16.98673,-0.4441859,-4.27255,-61.44649,-6.98289,34.50468,0,0,0,21.64434,125.9694,46.65166,-36.05464,-110.6632,-50.32285,0.001067912,-0.1257102,0.09433498,0,0.3,0,0,0,0,
6.38224E+17,9.447544,53.37244,90.30723,-117.0396,-21.48543,132.287,-16.98673,-0.4441859,-4.27255,-61.44649,-6.98289,34.57793,0,0,0,34.94739,131.0825,41.66836,-36.05464,-110.6632,-50.32285,0.001067912,-0.1257102,0.09433498,0,0.3,0,0,0,0,
6.38224E+17,12.86374,55.19594,90.77417,-124.2176,-24.41524,133.3857,-16.98673,-0.4441859,-4.27255,-61.44649,-6.98289,34.57793,0,0,0,46.63057,134.6466,35.84352,-36.05464,-110.6632,-50.32285,0.001067912,-0.1257102,0.09433498,0,0.3,0,0,0,0,
6.38224E+17,14.44226,55.9908,90.91425,-127.6601,-26.09988,134.2646,-16.98673,-0.4441859,-4.27255,-61.44649,-6.98289,34.57793,0,0,0,51.8559,136.0179,32.9988,-36.05464,-110.6632,-50.32285,0.001067912,-0.1257102,0.09433498,0,0.3,0,0,0,0,
6.38224E+17,17.08097,57.37011,91.00764,-134.0325,-29.17617,135.5098,-16.98673,-0.4441859,-4.27255,-61.44649,-6.98289,34.57793,0,0,0,60.28165,137.9986,27.83035,-36.05464,-110.6632,-50.32285,0.001067912,-0.1257102,0.09433498,0,0.3,0,0,0,0,
6.38224E+17,19.34273,58.93645,91.00764,-138.4272,-31.88625,135.583,-16.98673,-0.4441859,-4.27255,-61.51973,-6.98289,34.57793,0,0,0,66.95126,139.9221,22.37669,-36.05464,-110.6632,-50.32285,0.001067912,-0.1257102,0.09433498,0,0.3,0,0,0,0,
6.38224E+17,20.87413,60.50279,91.00764,-142.8219,-33.71738,134.1914,-16.98673,-0.4441859,-4.27255,-61.44649,-6.909645,34.57793,0,0,0,70.90277,141.7602,17.5779,-36.05464,-110.6632,-50.32285,0.001067912,-0.1257102,0.09433498,0,0.3,0,0,0,0,
6.38224E+17,21.36888,62.67696,90.84422,-147.8025,-34.8893,130.0164,-16.98673,-0.4441859,-4.27255,-61.51973,-6.98289,34.57793,0,0,0,70.88625,143.7872,12.81992,-36.05464,-110.6632,-50.32285,0.001067912,-0.1257102,0.09433498,0,0.3,0,0,0,0,
6.38224E+17,21.20397,63.4952,90.61074,-148.535,-35.10904,128.9177,-16.98673,-0.4441859,-4.27255,-61.51973,-6.98289,34.57793,0,0,0,69.75279,144.1059,11.44652,-36.05464,-110.6632,-50.32285,0.001067912,-0.1257102,0.09433498,0,0.3,0,0,0,0,
6.38224E+17,19.90817,66.34734,89.34999,-149.7802,-35.76824,126.2076,-16.98673,-0.4441859,-4.27255,-61.44649,-6.909645,34.50468,0,0,0,63.62164,143.985,7.324601,-36.05464,-110.6632,-50.32285,0.001067912,-0.1257102,0.09433498,0,0.3,0,0,0,0,
6.38224E+17,16.53909,69.5034,87.8791,-146.8504,-36.57394,123.0581,-16.98673,-0.4441859,-4.27255,-61.44649,-6.98289,34.57793,0,0,0,51.22667,143.323,4.15604,-36.05464,-110.6632,-50.32285,0.001067912,-0.1257102,0.09433498,0,0.3,0,0,0,0,
6.38224E+17,10.97894,72.37891,86.1981,-138.2807,-36.57394,117.345,-16.98673,-0.4441859,-4.27255,-61.44649,-6.98289,34.57793,0,0,0,33.02835,141.6011,1.900185,-36.05464,-110.6632,-50.32285,0.001067912,-0.1257102,0.09433498,0,0.3,0,0,0,0,
6.38224E+17,7.586308,73.64133,85.19418,-132.5675,-36.06122,113.3897,-16.98673,-0.4441859,-4.27255,-61.51973,-6.98289,34.57793,0,0,0,22.50129,140.1297,0.5972776,-36.05464,-110.6632,-50.32285,0.001067912,-0.1257102,0.09433498,0,0.3,0,0,0,0,
6.38224E+17,0.8245987,75.27782,83.02287,-121.1413,-33.86386,104.82,-16.98673,-0.4441859,-4.27255,-61.51973,-6.909645,34.57793,0,0,0,2.392596,136.1236,-2.116145,-36.05464,-110.6632,-50.32285,0.001067912,-0.1257102,0.09433498,0,0.3,0,0,0,0,
6.38224E+17,-5.607271,75.60511,81.06171,-111.4729,-30.56783,97.42229,-16.98673,-0.4441859,-4.27255,-61.44649,-6.98289,34.57793,0,0,0,-16.11048,131.7948,-4.257049,-36.05464,-110.6632,-50.32285,0.001067912,-0.1257102,0.09433498,0,0.3,0,0,0,0,
6.38224E+17,-8.528707,75.30119,80.03443,-107.5909,-28.73671,94.78546,-16.98673,-0.4441859,-4.27255,-61.44649,-6.98289,34.57793,0,0,0,-24.49611,129.2588,-5.002604,-36.05464,-110.6632,-50.32285,0.001067912,-0.1257102,0.09433498,0,0.3,0,0,0,0,
6.38224E+17,-14.96058,73.75823,77.53627,-100.6326,-24.48849,90.3175,-16.98673,-0.4441859,-4.27255,-61.51973,-6.909645,34.57793,0,0,0,-43.24192,122.5982,-6.523648,-36.05464,-110.6632,-50.32285,0.001067912,-0.1257102,0.09433498,0,0.3,0,0,0,0,
6.38224E+17,-19.53121,72.05163,75.55175,-97.11688,-20.46,86.94823,-16.98673,-0.4441859,-4.27255,-61.44649,-6.909645,34.57793,0,0,0,-56.90991,116.9389,-7.91914,-36.05464,-110.6632,-50.32285,0.001067912,-0.1257102,0.09433498,0,0.3,0,0,0,0,
6.38224E+17,-23.98404,69.99434,73.0536,-94.5533,-15.55258,82.91974,-16.98673,-0.4441859,-4.27255,-61.44649,-6.98289,34.57793,0,0,0,-70.39475,109.785,-10.1222,-36.05464,-110.6632,-50.32285,0.001067912,-0.1257102,0.09433498,0,0.3,0,0,0,0,
6.38224E+17,-25.82172,69.03584,71.93292,-93.67436,-13.20873,81.08862,-16.98673,-0.4441859,-4.27255,-61.44649,-6.98289,34.57793,0,0,0,-76.00108,106.517,-11.28617,-36.05464,-110.6632,-50.32285,0.001067912,-0.1257102,0.09433498,0,0.3,0,0,0,0,
6.38224E+17,-29.26147,66.67464,69.69159,-92.42919,-8.887264,78.45178,-16.98673,-0.4441859,-4.27255,-61.44649,-6.98289,34.57793,0,0,0,-86.93768,99.51923,-13.18448,-36.05464,-110.6632,-50.32285,0.001067912,-0.1257102,0.09433498,0,0.3,0,0,0,0,
6.38224E+17,-32.55987,63.42507,66.86657,-91.69674,-4.492554,75.44874,-16.98673,-0.4441859,-4.27255,-61.44649,-6.98289,34.57793,0,0,0,-98.10178,90.22186,-14.71552,-36.05464,-110.6632,-50.32285,0.001067912,-0.1257102,0.09433498,0,0.3,0,0,0,0,
6.38224E+17,-35.26926,59.56767,63.92481,-91.33051,-0.2443342,71.93297,-16.98673,-0.4441859,-4.27255,-61.44649,-6.98289,34.57793,0,0,0,-108.1633,79.71407,-15.41152,-36.05464,-110.6632,-50.32285,0.001067912,-0.1257102,0.09433498,0,0.3,0,0,0,0,
6.38224E+17,-36.47082,57.32335,62.54733,-91.47701,2.026266,69.95535,-16.98673,-0.4441859,-4.27255,-61.51973,-6.98289,34.57793,0,0,0,-113.1341,74.11836,-15.29508,-36.05464,-110.6632,-50.32285,0.001067912,-0.1257102,0.09433498,0,0.3,0,0,0,0,
6.38224E+17,-38.40274,51.89961,59.93243,-92.57568,7.299919,65.12117,-16.98673,-0.4441859,-4.27255,-61.44649,-6.98289,34.57793,0,0,0,-122.801,61.47608,-13.4289,-36.05464,-110.6632,-50.32285,0.001067912,-0.1257102,0.09433498,0,0.3,0,0,0,0,
6.38224E+17,-39.51006,47.34086,59.09193,-94.04059,12.50033,60.65321,-16.98673,-0.4441859,-4.27255,-61.44649,-6.98289,34.57793,0,0,0,-130.2813,52.91849,-10.36267,-36.05464,-110.6632,-50.32285,0.001067912,-0.1257102,0.09433498,0,0.3,0,0,0,0,
6.38224E+17,-40.38177,43.81075,58.62498,-96.38443,16.60205,57.28393,-16.98673,-0.4441859,-4.27255,-61.51973,-6.909645,34.50468,0,0,0,-136.1066,46.23836,-8.322203,-36.05464,-110.6632,-50.32285,0.001067912,-0.1257102,0.09433498,0,0.3,0,0,0,0,
6.38224E+17,-40.71161,41.84698,58.06465,-97.55635,18.28669,55.59929,-16.98673,-0.4441859,-4.27255,-61.51973,-6.98289,34.57793,0,0,0,-138.6056,41.7765,-7.27213,-36.05464,-110.6632,-50.32285,0.001067912,-0.1257102,0.09433498,0,0.3,0,0,0,0,
6.38224E+17,-41.04145,38.01296,57.08406,-99.16775,21.07001,52.23001,-16.98673,-0.4441859,-4.27255,-61.51973,-6.98289,34.57793,0,0,0,-142.4871,33.00877,-4.67667,-36.05464,-110.6632,-50.32285,0.001067912,-0.1257102,0.09433498,0,0.3,0,0,0,0,
6.38224E+17,-41.37129,34.76339,56.12683,-100.0467,23.92657,49.08047,-16.98673,-0.4441859,-4.27255,-61.44649,-6.98289,34.57793,0,0,0,-145.5816,25.06119,-3.053216,-36.05464,-110.6632,-50.32285,0.001067912,-0.1257102,0.09433498,0,0.3,0,0,0,0,
6.38224E+17,-41.41841,33.45421,56.03344,-100.0467,25.09849,47.8353,-16.98673,-0.4441859,-4.27255,-61.44649,-6.98289,34.57793,0,0,0,-146.7676,22.35806,-1.982672,-36.05464,-110.6632,-50.32285,0.001067912,-0.1257102,0.09433498,0,0.3,0,0,0,0,
6.38224E+17,-41.32417,31.93463,57.29419,-99.68047,26.92962,46.59014,-16.98673,-0.4441859,-4.27255,-61.44649,-6.909645,34.57793,0,0,0,-148.8199,21.83323,0.9040813,-36.05464,-110.6632,-50.32285,0.001067912,-0.1257102,0.09433498,0,0.3,0,0,0,0,
6.38224E+17,-40.80585,31.79436,60.14256,-99.38748,28.24804,46.07742,-16.98673,-0.4441859,-4.27255,-61.51973,-6.98289,34.57793,0,0,0,-149.6446,27.22093,4.979115,-36.05464,-110.6632,-50.32285,0.001067912,-0.1257102,0.09433498,0,0.3,0,0,0,0,
6.38224E+17,-39.4865,33.10354,65.25561,-99.38748,29.20022,47.39584,-16.98673,-0.4441859,-4.27255,-61.44649,-6.98289,34.57793,0,0,0,-148.0441,40.36317,11.3281,-36.05464,-110.6632,-50.32285,0.001067912,-0.1257102,0.09433498,0,0.3,0,0,0,0,
6.38224E+17,-38.26138,35.1842,68.54758,-99.16775,29.56645,49.59319,-16.98673,-0.4441859,-4.27255,-61.44649,-6.98289,34.57793,0,0,0,-144.3466,51.41728,14.67808,-36.05464,-110.6632,-50.32285,0.001067912,-0.1257102,0.09433498,0,0.3,0,0,0,0,
6.38224E+17,-37.3661,37.05445,70.43871,-99.09451,29.34671,51.42432,-16.98673,-0.4441859,-4.27255,-61.44649,-6.98289,34.57793,0,0,0,-140.8478,59.0556,16.09736,-36.05464,-110.6632,-50.32285,0.001067912,-0.1257102,0.09433498,0,0.3,0,0,0,0,
6.38224E+17,-34.98654,42.17428,74.08087,-99.16775,28.17479,55.74578,-16.98673,-0.4441859,-4.27255,-61.44649,-6.98289,34.57793,0,0,0,-130.194,76.30431,17.67929,-36.05464,-110.6632,-50.32285,0.001067912,-0.1257102,0.09433498,0,0.3,0,0,0,0,
6.38224E+17,-31.92375,48.79031,76.92924,-99.75371,25.97744,59.92076,-16.98673,-0.4441859,-4.27255,-61.51973,-6.98289,34.57793,0,0,0,-115.1432,93.51201,16.46444,-36.05464,-110.6632,-50.32285,0.001067912,-0.1257102,0.09433498,0,0.3,0,0,0,0,
6.38224E+17,-29.92115,52.64771,78.42347,-100.1932,24.2928,62.11811,-16.98673,-0.4441859,-4.27255,-61.44649,-6.98289,34.57793,0,0,0,-105.5191,102.5924,14.9967,-36.05464,-110.6632,-50.32285,0.001067912,-0.1257102,0.09433498,0,0.3,0,0,0,0,
6.38224E+17,-25.25628,59.87158,81.45861,-101.8778,20.11782,66.43958,-16.98673,-0.4441859,-4.27255,-61.51973,-6.98289,34.57793,0,0,0,-84.82356,118.8791,11.45061,-36.05464,-110.6632,-50.32285,0.001067912,-0.1257102,0.09433498,0,0.3,0,0,0,0,
6.38224E+17,-19.48409,66.23045,84.28363,-103.7822,15.06391,71.20052,-16.98673,-0.4441859,-4.27255,-61.44649,-6.98289,34.57793,0,0,0,-62.1844,132.1062,7.408442,-36.05464,-110.6632,-50.32285,0.001067912,-0.1257102,0.09433498,0,0.3,0,0,0,0,
6.38224E+17,-12.25118,71.70095,86.54831,-106.126,8.691576,76.40092,-16.98673,-0.4441859,-4.27255,-61.51973,-6.98289,34.57793,0,0,0,-37.12971,141.928,2.642095,-36.05464,-110.6632,-50.32285,0.001067912,-0.1257102,0.09433498,0,0.3,0,0,0,0,
6.38224E+17,-5.65439,75.09079,87.66898,-108.2501,2.612227,81.2351,-16.98673,-0.4441859,-4.27255,-61.44649,-6.909645,34.57793,0,0,0,-16.50821,146.787,-1.616209,-36.05464,-110.6632,-50.32285,0.001067912,-0.1257102,0.09433498,0,0.3,0,0,0,0,
6.38224E+17,0.4947592,77.21821,87.9725,-110.301,-3.540367,85.9228,-16.98673,-0.4441859,-4.27255,-61.44649,-6.98289,34.57793,0,0,0,1.405519,148.6777,-5.587378,-36.05464,-110.6632,-50.32285,0.001067912,-0.1257102,0.09433498,0,0.3,0,0,0,0,
6.38224E+17,9.541784,78.8313,87.66898,-113.8168,-12.62277,92.51486,-16.98673,-0.4441859,-4.27255,-61.44649,-6.98289,34.57793,0,0,0,26.36842,148.7508,-11.48139,-36.05464,-110.6632,-50.32285,0.001067912,-0.1257102,0.09433498,0,0.3,0,0,0,0,
6.38224E+17,14.37158,78.94819,87.0386,-116.7466,-17.60344,96.32361,-16.98673,-0.4441859,-4.27255,-61.44649,-6.98289,34.57793,0,0,0,39.39943,147.3377,-14.58272,-36.05464,-110.6632,-50.32285,0.001067912,-0.1257102,0.09433498,0,0.3,0,0,0,0,
6.38224E+17,28.10703,76.44672,81.17844,-127.0742,-35.10904,108.1893,-16.98673,-0.4441859,-4.27255,-61.51973,-6.98289,34.57793,0,0,0,76.80345,132.5363,-24.5524,-36.05464,-110.6632,-50.32285,0.001067912,-0.1257102,0.09433498,0,0.3,0,0,0,0,
6.38224E+17,31.57035,74.52972,78.68028,-126.7812,-41.11514,110.2402,-16.98673,-0.4441859,-4.27255,-61.44649,-6.909645,34.57793,0,0,0,87.07893,125.6942,-26.64095,-36.05464,-110.6632,-50.32285,0.001067912,-0.1257102,0.09433498,0,0.3,0,0,0,0,
6.38224E+17,36.25878,69.29299,75.27159,-114.4027,-52.98085,108.1161,-16.98673,-0.4441859,-4.27255,-61.44649,-6.98289,34.57793,0,0,0,104.1629,114.1831,-26.33536,-36.05464,-110.6632,-50.32285,0.001067912,-0.1257102,0.09433498,0,0.3,0,0,0,0,
6.38224E+17,38.63834,64.17316,73.07694,-93.7476,-58.76722,95.0052,-16.98673,-0.4441859,-4.27255,-61.51973,-6.98289,34.57793,0,0,0,115.9326,104.5638,-23.32281,-36.05464,-110.6632,-50.32285,0.001067912,-0.1257102,0.09433498,0,0.3,0,0,0,0,
6.38224E+17,39.67498,61.57819,72.04967,-80.70996,-60.30537,84.89736,-16.98673,-0.4441859,-4.27255,-61.51973,-6.98289,34.57793,0,0,0,121.5116,99.52951,-21.85848,-36.05464,-110.6632,-50.32285,0.001067912,-0.1257102,0.09433498,0,0.3,0,0,0,0,
6.38224E+17,41.53621,56.85579,69.38808,-50.82594,-60.96458,59.92076,-16.98673,-0.4441859,-4.27255,-61.44649,-6.98289,34.57793,0,0,0,131.1086,88.0595,-20.34733,-36.05464,-110.6632,-50.32285,0.001067912,-0.1257102,0.09433498,0,0.3,0,0,0,0,
6.38224E+17,42.10165,53.32568,67.17008,-29.3651,-58.84047,42.48841,-16.98673,-0.4441859,-4.27255,-61.44649,-6.909645,34.57793,0,0,0,135.7985,78.56311,-18.06757,-36.05464,-110.6632,-50.32285,0.001067912,-0.1257102,0.09433498,0,0.3,0,0,0,0,
6.38224E+17,42.10165,51.82948,66.5864,-24.16469,-57.37556,38.89939,-16.98673,-0.4441859,-4.27255,-61.44649,-6.909645,34.57793,0,0,0,137.2949,75.19771,-16.41152,-36.05464,-110.6632,-50.32285,0.001067912,-0.1257102,0.09433498,0,0.3,0,0,0,0,
6.38224E+17,42.12521,49.35139,66.67979,-21.01515,-54.37251,37.288,-16.98673,-0.4441859,-4.27255,-61.44649,-6.98289,34.57793,0,0,0,140.4039,71.73598,-13.09928,-36.05464,-110.6632,-50.32285,0.001067912,-0.1257102,0.09433498,0,0.3,0,0,0,0,
6.38224E+17,42.19589,47.50451,68.26741,-21.67436,-52.46814,38.53317,-16.98673,-0.4441859,-4.27255,-61.44649,-6.98289,34.50468,0,0,0,143.7059,72.29681,-9.841602,-36.05464,-110.6632,-50.32285,0.001067912,-0.1257102,0.09433498,0,0.3,0,0,0,0,
6.38224E+17,42.19589,46.84992,69.52816,-23.43224,-52.02867,40.43755,-16.98673,-0.4441859,-4.27255,-61.44649,-6.98289,34.57793,0,0,0,145.166,73.9987,-8.231118,-36.05464,-110.6632,-50.32285,0.001067912,-0.1257102,0.09433498,0,0.3,0,0,0,0,
6.38224E+17,42.17233,46.77979,69.97176,-24.45767,-52.02867,41.68271,-16.98673,-0.4441859,-4.27255,-61.44649,-6.98289,34.57793,0,0,0,145.42,74.8556,-7.818396,-36.05464,-110.6632,-50.32285,0.001067912,-0.1257102,0.09433498,0,0.3,0,0,0,0,
6.38224E+17,41.88961,46.8733,70.62548,-25.99582,-52.17516,44.02656,-16.98673,-0.4441859,-4.27255,-61.51973,-6.98289,34.57793,0,0,0,144.8626,76.43691,-6.839123,-36.05464,-110.6632,-50.32285,0.001067912,-0.1257102,0.09433498,0,0.3,0,0,0,0,
6.38224E+17,41.06501,47.71491,71.27921,-27.82695,-52.2484,46.80988,-16.98673,-0.4441859,-4.27255,-61.44649,-6.98289,34.57793,0,0,0,141.9038,79.20358,-5.481936,-36.05464,-110.6632,-50.32285,0.001067912,-0.1257102,0.09433498,0,0.3,0,0,0,0,
6.38224E+17,39.81633,50.30989,72.44656,-32.14842,-52.10191,52.66949,-16.98673,-0.4441859,-4.27255,-61.44649,-6.98289,34.57793,0,0,0,135.9435,85.74643,-5.280101,-36.05464,-110.6632,-50.32285,0.001067912,-0.1257102,0.09433498,0,0.3,0,0,0,0,
6.38224E+17,38.61478,54.02703,73.87075,-40.20539,-52.02867,61.16593,-16.98673,-0.4441859,-4.27255,-61.44649,-6.98289,34.57793,0,0,0,128.8299,94.22407,-7.052956,-36.05464,-110.6632,-50.32285,0.001067912,-0.1257102,0.09433498,0,0.3,0,0,0,0,
6.38224E+17,38.02578,56.01418,74.71125,-44.96632,-52.02867,65.92686,-16.98673,-0.4441859,-4.27255,-61.44649,-6.909645,34.57793,0,0,0,125.157,98.75839,-8.304838,-36.05464,-110.6632,-50.32285,0.001067912,-0.1257102,0.09433498,0,0.3,0,0,0,0,
6.38224E+17,36.61218,60.31576,76.57903,-55.58687,-51.95542,76.25443,-16.98673,-0.4441859,-4.27255,-61.44649,-6.909645,34.57793,0,0,0,116.742,108.2491,-11.22659,-36.05464,-110.6632,-50.32285,0.001067912,-0.1257102,0.09433498,0,0.3,0,0,0,0,
6.38224E+17,34.49178,65.34208,78.35342,-68.33153,-51.88218,87.90041,-16.98673,-0.4441859,-4.27255,-61.44649,-6.98289,34.57793,0,0,0,105.4644,117.6205,-14.85117,-36.05464,-110.6632,-50.32285,0.001067912,-0.1257102,0.09433498,0,0.3,0,0,0,0,
6.38224E+17,31.78239,70.39178,79.8243,-81.14944,-50.85675,99.25342,-16.98673,-0.4441859,-4.27255,-61.44649,-6.98289,34.57793,0,0,0,92.69981,125.4083,-18.73783,-36.05464,-110.6632,-50.32285,0.001067912,-0.1257102,0.09433498,0,0.3,0,0,0,0,
6.38224E+17,30.10963,72.98676,80.22121,-86.42309,-50.05105,103.6481,-16.98673,-0.4441859,-4.27255,-61.44649,-6.98289,34.57793,0,0,0,85.49715,128.2154,-20.91679,-36.05464,-110.6632,-50.32285,0.001067912,-0.1257102,0.09433498,0,0.3,0,0,0,0,
6.38224E+17,25.60968,77.91955,80.43134,-92.50243,-47.7072,108.3358,-16.98673,-0.4441859,-4.27255,-61.44649,-6.98289,34.57793,0,0,0,68.89998,131.5802,-24.60696,-36.05464,-110.6632,-50.32285,0.001067912,-0.1257102,0.09433498,0,0.3,0,0,0,0,
6.38224E+17,19.22493,82.78222,80.15116,-93.96734,-43.89846,109.7275,-16.98673,-0.4441859,-4.27255,-61.44649,-6.98289,34.57793,0,0,0,48.77884,132.8339,-28.47224,-36.05464,-110.6632,-50.32285,0.001067912,-0.1257102,0.09433498,0,0.3,0,0,0,0,
6.38224E+17,15.52601,84.81612,79.80096,-93.96734,-41.62786,109.581,-16.98673,-0.4441859,-4.27255,-61.44649,-6.909645,34.57793,0,0,0,38.35564,132.5425,-30.28748,-36.05464,-110.6632,-50.32285,0.001067912,-0.1257102,0.09433498,0,0.3,0,0,0,0,
6.38224E+17,5.98423,87.90205,78.11996,-92.72218,-36.13447,107.3104,-16.98673,-0.4441859,-4.27255,-61.51973,-6.98289,34.57793,0,0,0,14.11353,129.1587,-33.71228,-36.05464,-110.6632,-50.32285,0.001067912,-0.1257102,0.09433498,0,0.3,0,0,0,0,
6.38224E+17,-4.099433,88.53326,74.59451,-89.57263,-28.80995,102.8424,-16.98673,-0.4441859,-4.27255,-61.44649,-6.909645,34.57793,0,0,0,-9.434362,121.2321,-36.7156,-36.05464,-110.6632,-50.32285,0.001067912,-0.1257102,0.09433498,0,0.3,0,0,0,0,
6.38224E+17,-14.08886,86.35909,68.78104,-85.91037,-19.36132,96.68983,-16.98673,-0.4441859,-4.27255,-61.44649,-6.909645,34.57793,0,0,0,-32.32156,108.1671,-39.56646,-36.05464,-110.6632,-50.32285,0.001067912,-0.1257102,0.09433498,0,0.3,0,0,0,0,
6.38224E+17,-16.91605,85.09666,66.60975,-84.88493,-16.06529,94.41924,-16.98673,-0.4441859,-4.27255,-61.44649,-6.98289,34.57793,0,0,0,-38.92882,103.2731,-40.34912,-36.05464,-110.6632,-50.32285,0.001067912,-0.1257102,0.09433498,0,0.3,0,0,0,0,
6.38224E+17,-22.7118,80.58467,60.84298,-83.12706,-7.715342,87.16796,-16.98673,-0.4441859,-4.27255,-61.44649,-6.98289,34.57793,0,0,0,-53.38459,89.93481,-40.80383,-36.05464,-110.6632,-50.32285,0.001067912,-0.1257102,0.09433498,0,0.3,0,0,0,0,
6.38224E+17,-24.92644,75.86227,56.03344,-82.68758,-0.61056,80.35616,-16.98673,-0.4441859,-4.27255,-61.44649,-6.98289,34.57793,0,0,0,-60.3383,78.15717,-38.51917,-36.05464,-110.6632,-50.32285,0.001067912,-0.1257102,0.09433498,0,0.3,0,0,0,0,
6.38224E+17,-25.3034,71.42041,51.06047,-82.17487,5.468789,74.86278,-16.98673,-0.4441859,-4.27255,-61.44649,-6.98289,34.57793,0,0,0,-62.49146,65.93961,-36.16859,-36.05464,-110.6632,-50.32285,0.001067912,-0.1257102,0.09433498,0,0.3,0,0,0,0,
6.38224E+17,-25.25628,69.62029,48.72574,-81.51566,8.03237,72.37244,-16.98673,-0.4441859,-4.27255,-61.44649,-6.98289,34.57793,0,0,0,-62.57444,60.3868,-35.71089,-36.05464,-110.6632,-50.32285,0.001067912,-0.1257102,0.09433498,0,0.3,0,0,0,0,
6.38224E+17,-25.16204,67.18896,45.78399,-80.49023,11.54814,68.05097,-16.98673,-0.4441859,-4.27255,-61.44649,-6.909645,34.57793,0,0,0,-62.61747,53.27681,-35.05194,-36.05464,-110.6632,-50.32285,0.001067912,-0.1257102,0.09433498,0,0.3,0,0,0,0,
6.38224E+17,-25.1856,65.17844,43.65939,-80.49023,13.45251,63.14355,-16.98673,-0.4441859,-4.27255,-61.44649,-6.98289,34.57793,0,0,0,-62.99883,47.90811,-34.38328,-36.05464,-110.6632,-50.32285,0.001067912,-0.1257102,0.09433498,0,0.3,0,0,0,0,
6.38224E+17,-25.1856,64.19655,42.6788,-80.70996,13.81874,60.50672,-16.98673,-0.4441859,-4.27255,-61.51973,-6.98289,34.57793,0,0,0,-63.16961,45.3697,-34.02011,-36.05464,-110.6632,-50.32285,0.001067912,-0.1257102,0.09433498,0,0.3,0,0,0,0,
6.38224E+17,-24.97356,61.13401,39.62031,-81.36917,13.81874,51.49756,-16.98673,-0.4441859,-4.27255,-61.44649,-6.909645,34.57793,0,0,0,-63.0823,37.41361,-32.90642,-36.05464,-110.6632,-50.32285,0.001067912,-0.1257102,0.09433498,0,0.3,0,0,0,0,
6.38224E+17,-24.57304,59.1001,37.5891,-81.44242,13.45251,45.78444,-16.98673,-0.4441859,-4.27255,-61.44649,-6.909645,34.57793,0,0,0,-62.30445,32.10577,-32.09593,-36.05464,-110.6632,-50.32285,0.001067912,-0.1257102,0.09433498,0,0.3,0,0,0,0,
6.38224E+17,-24.0076,57.29997,35.90809,-81.07619,13.23278,41.53622,-16.98673,-0.4441859,-4.27255,-61.44649,-6.98289,34.57793,0,0,0,-61.13002,27.55743,-31.09872,-36.05464,-110.6632,-50.32285,0.001067912,-0.1257102,0.09433498,0,0.3,0,0,0,0,
6.38224E+17,-21.8872,53.23217,32.54609,-79.68453,13.08629,34.2117,-16.98673,-0.4441859,-4.27255,-61.44649,-6.909645,34.57793,0,0,0,-56.49831,17.76378,-27.71527,-36.05464,-110.6632,-50.32285,0.001067912,-0.1257102,0.09433498,0,0.3,0,0,0,0,
6.38224E+17,-18.44745,48.22923,29.02065,-76.75472,13.67225,29.30428,-16.98673,-0.4441859,-4.27255,-61.44649,-6.98289,34.57793,0,0,0,-48.57994,6.197332,-22.71611,-36.05464,-110.6632,-50.32285,0.001067912,-0.1257102,0.09433498,0,0.3,0,0,0,0,
6.38224E+17,-14.25378,42.89901,25.30844,-72.57975,15.50338,26.22798,-16.98673,-0.4441859,-4.27255,-61.44649,-6.98289,34.57793,0,0,0,-38.08785,-6.428588,-18.42015,-36.05464,-110.6632,-50.32285,0.001067912,-0.1257102,0.09433498,0,0.3,0,0,0,0,
6.38224E+17,-12.15694,40.51442,23.76752,-70.30915,16.6753,24.76308,-16.98673,-0.4441859,-4.27255,-61.51973,-6.98289,34.57793,0,0,0,-32.66715,-12.06094,-16.70679,-36.05464,-110.6632,-50.32285,0.001067912,-0.1257102,0.09433498,0,0.3,0,0,0,0,
6.38224E+17,-7.209348,35.9323,21.29271,-65.25523,19.45862,21.46704,-16.98673,-0.4441859,-4.27255,-61.51973,-6.909645,34.57793,0,0,0,-19.62727,-22.64356,-13.18776,-36.05464,-110.6632,-50.32285,0.001067912,-0.1257102,0.09433498,0,0.3,0,0,0,0,
6.38224E+17,-1.295798,31.63071,20.33547,-59.17588,23.12087,18.97671,-16.98673,-0.4441859,-4.27255,-61.44649,-6.909645,34.57793,0,0,0,-3.615564,-31.75444,-8.509284,-36.05464,-110.6632,-50.32285,0.001067912,-0.1257102,0.09433498,0,0.3,0,0,0,0,
6.38224E+17,1.790557,29.85397,20.42886,-55.73336,25.02525,18.39075,-16.98673,-0.4441859,-4.27255,-61.44649,-6.909645,34.57793,0,0,0,5.068077,-35.23269,-6.230118,-36.05464,-110.6632,-50.32285,0.001067912,-0.1257102,0.09433498,0,0.3,0,0,0,0,
6.38224E+17,7.609867,27.65641,21.29271,-48.55533,28.24804,17.58505,-16.98673,-0.4441859,-4.27255,-61.51973,-6.98289,34.50468,0,0,0,22.05416,-39.00034,-3.278648,-36.05464,-110.6632,-50.32285,0.001067912,-0.1257102,0.09433498,0,0.3,0,0,0,0,
6.38224E+17,13.73546,26.30048,22.81028,-40.7181,30.2989,17.21883,-16.98673,-0.4441859,-4.27255,-61.51973,-6.98289,34.57793,0,0,0,40.65988,-40.48664,-2.003923,-36.05464,-110.6632,-50.32285,0.001067912,-0.1257102,0.09433498,0,0.3,0,0,0,0,
6.38224E+17,19.74325,25.45886,25.12166,-32.51464,31.1046,16.99909,-16.98673,-0.4441859,-4.27255,-61.44649,-6.98289,34.57793,0,0,0,59.79621,-40.06398,-1.742025,-36.05464,-110.6632,-50.32285,0.001067912,-0.1257102,0.09433498,0,0.3,0,0,0,0,
6.38224E+17,26.17512,24.89779,28.6471,-22.69979,30.51864,16.99909,-16.98673,-0.4441859,-4.27255,-61.44649,-6.909645,34.57793,0,0,0,81.55631,-37.53607,-2.42382,-36.05464,-110.6632,-50.32285,0.001067912,-0.1257102,0.09433498,0,0.3,0,0,0,0,
6.38224E+17,28.60179,24.82765,30.14132,-18.8178,30.00592,16.99909,-16.98673,-0.4441859,-4.27255,-61.44649,-6.98289,34.57793,0,0,0,89.99194,-35.97733,-3.305399,-36.05464,-110.6632,-50.32285,0.001067912,-0.1257102,0.09433498,0,0.3,0,0,0,0,
6.38224E+17,34.11483,24.75752,34.55396,-9.735395,28.17479,16.8526,-16.98673,-0.4441859,-4.27255,-61.51973,-6.98289,34.57793,0,0,0,110.3351,-30.63189,-5.476474,-36.05464,-110.6632,-50.32285,0.001067912,-0.1257102,0.09433498,0,0.3,0,0,0,0,
6.38224E+17,39.29802,24.75752,40.32073,-0.57975,25.7577,15.60743,-16.98673,-0.4441859,-4.27255,-61.51973,-6.98289,34.57793,0,0,0,131.3448,-22.47645,-7.866644,-36.05464,-110.6632,-50.32285,0.001067912,-0.1257102,0.09433498,0,0.3,0,0,0,0,
6.38224E+17,43.96289,24.7809,48.14206,9.894309,22.6814,13.1171,-16.98673,-0.4441859,-4.27255,-61.44649,-6.909645,34.57793,0,0,0,152.9931,-9.739015,-9.715521,-36.05464,-110.6632,-50.32285,0.001067912,-0.1257102,0.09433498,0,0.3,0,0,0,0,
6.38224E+17,44.99953,24.82765,50.52348,12.75087,21.72922,12.01842,-16.98673,-0.4441859,-4.27255,-61.44649,-6.98289,34.57793,0,0,0,158.3595,-5.436501,-9.987874,-36.05464,-110.6632,-50.32285,0.001067912,-0.1257102,0.09433498,0,0.3,0,0,0,0,
6.38224E+17,47.82672,25.29522,58.76507,21.24731,18.87265,7.843444,-16.98673,-0.4441859,-4.27255,-61.44649,-6.98289,34.57793,0,0,0,173.855,11.17967,-10.85559,-36.05464,-110.6632,-50.32285,0.001067912,-0.1257102,0.09433498,0,0.3,0,0,0,0,
6.38224E+17,49.59372,26.41737,67.68372,29.52402,16.01609,2.789528,-16.98673,-0.4441859,-4.27255,-61.51973,-6.98289,34.57793,0,0,0,184.8747,32.04278,-10.97431,-36.05464,-110.6632,-50.32285,0.001067912,-0.1257102,0.09433498,0,0.3,0,0,0,0,
6.38224E+17,50.04136,27.11872,72.63335,33.84548,14.47795,-0.2135241,-16.98673,-0.4441859,-4.27255,-61.44649,-6.98289,34.57793,0,0,0,188.5313,44.33266,-10.38526,-36.05464,-110.6632,-50.32285,0.001067912,-0.1257102,0.09433498,0,0.3,0,0,0,0,
6.38224E+17,49.82932,29.3864,82.85944,43.88007,11.03542,-8.124002,-16.98673,-0.4441859,-4.27255,-61.44649,-6.98289,34.57793,0,0,0,189.8912,72.20853,-8.045964,-36.05464,-110.6632,-50.32285,0.001067912,-0.1257102,0.09433498,0,0.3,0,0,0,0,
6.38224E+17,48.74556,32.14503,88.27601,51.57081,8.471841,-14.56958,-16.98673,-0.4441859,-4.27255,-61.44649,-6.98289,34.57793,0,0,0,185.0886,90.28896,-6.006282,-36.05464,-110.6632,-50.32285,0.001067912,-0.1257102,0.09433498,0,0.3,0,0,0,0,
6.38224E+17,46.8372,36.11932,92.10497,59.84751,5.835015,-21.45462,-16.98673,-0.4441859,-4.27255,-61.44649,-6.98289,34.57793,0,0,0,175.7732,106.8537,-3.502643,-36.05464,-110.6632,-50.32285,0.001067912,-0.1257102,0.09433498,0,0.3,0,0,0,0,
6.38224E+17,45.72989,37.87269,93.59919,63.29004,4.663092,-24.16469,-16.98673,-0.4441859,-4.27255,-61.44649,-6.909645,34.57793,0,0,0,170.6724,113.586,-1.971448,-36.05464,-110.6632,-50.32285,0.001067912,-0.1257102,0.09433498,0,0.3,0,0,0,0,
6.38224E+17,43.27965,41.16902,95.65375,70.10184,2.319247,-28.41291,-16.98673,-0.4441859,-4.27255,-61.51973,-6.98289,34.57793,0,0,0,159.7926,124.2691,1.338462,-36.05464,-110.6632,-50.32285,0.001067912,-0.1257102,0.09433498,0,0.3,0,0,0,0,
6.38224E+17,40.42889,44.48872,96.61098,76.32768,-0.3908245,-31.12299,-16.98673,-0.4441859,-4.27255,-61.44649,-6.909645,34.50468,0,0,0,147.5954,132.1498,4.896886,-36.05464,-110.6632,-50.32285,0.001067912,-0.1257102,0.09433498,0,0.3,0,0,0,0,
6.38224E+17,37.55458,47.66816,96.77441,81.3816,-3.174141,-32.4414,-16.98673,-0.4441859,-4.27255,-61.44649,-6.909645,34.50468,0,0,0,135.4468,137.66,7.820045,-36.05464,-110.6632,-50.32285,0.001067912,-0.1257102,0.09433498,0,0.3,0,0,0,0,
6.38224E+17,35.85826,49.35139,96.77441,83.87193,-5.00527,-32.88087,-16.98673,-0.4441859,-4.27255,-61.44649,-6.98289,34.57793,0,0,0,128.4536,140.2552,9.374095,-36.05464,-110.6632,-50.32285,0.001067912,-0.1257102,0.09433498,0,0.3,0,0,0,0,
6.38224E+17,32.3007,52.41393,96.82111,88.8526,-8.447793,-34.05279,-16.98673,-0.4441859,-4.27255,-61.44649,-6.98289,34.57793,0,0,0,114.2165,144.8596,12.31764,-36.05464,-110.6632,-50.32285,0.001067912,-0.1257102,0.09433498,0,0.3,0,0,0,0,
6.38224E+17,28.36619,54.84526,96.58764,95.29817,-12.47628,-35.81068,-16.98673,-0.4441859,-4.27255,-61.44649,-6.98289,34.57793,0,0,0,99.41608,147.6752,15.77577,-36.05464,-110.6632,-50.32285,0.001067912,-0.1257102,0.09433498,0,0.3,0,0,0,0,
6.38224E+17,24.26676,56.50512,95.91057,101.5973,-16.7245,-37.86154,-16.98673,-0.4441859,-4.27255,-61.44649,-6.98289,34.57793,0,0,0,84.75835,148.2871,19.65969,-36.05464,-110.6632,-50.32285,0.001067912,-0.1257102,0.09433498,0,0.3,0,0,0,0,
6.38224E+17,22.14636,57.15971,95.56036,105.0398,-18.77536,-39.10671,-16.98673,-0.4441859,-4.27255,-61.51973,-6.98289,34.57793,0,0,0,77.29402,148.3096,21.56123,-36.05464,-110.6632,-50.32285,0.001067912,-0.1257102,0.09433498,0,0.3,0,0,0,0,
6.38224E+17,17.66997,58.37537,94.32295,114.4884,-23.46305,-42.91546,-16.98673,-0.4441859,-4.27255,-61.44649,-6.98289,34.57793,0,0,0,61.58485,146.9494,24.97061,-36.05464,-110.6632,-50.32285,0.001067912,-0.1257102,0.09433498,0,0.3,0,0,0,0,
6.38224E+17,14.86634,59.45077,91.28781,119.5423,-28.0775,-46.57772,-16.98673,-0.4441859,-4.27255,-61.51973,-6.98289,34.57793,0,0,0,51.59399,141.187,26.01399,-36.05464,-110.6632,-50.32285,0.001067912,-0.1257102,0.09433498,0,0.3,0,0,0,0,
6.38224E+17,13.7119,60.12874,89.42003,119.7621,-30.71432,-47.74964,-16.98673,-0.4441859,-4.27255,-61.51973,-6.909645,34.57793,0,0,0,47.35073,137.6342,25.71538,-36.05464,-110.6632,-50.32285,0.001067912,-0.1257102,0.09433498,0,0.3,0,0,0,0,
6.38224E+17,11.40302,61.97561,85.00739,119.6888,-37.30639,-48.84832,-16.98673,-0.4441859,-4.27255,-61.44649,-6.98289,34.57793,0,0,0,38.65176,129.4593,23.28921,-36.05464,-110.6632,-50.32285,0.001067912,-0.1257102,0.09433498,0,0.3,0,0,0,0,
6.38224E+17,9.989424,63.7056,81.48196,119.6888,-44.7774,-49.21454,-16.98673,-0.4441859,-4.27255,-61.51973,-6.98289,34.50468,0,0,0,33.12356,123.1503,19.70605,-36.05464,-110.6632,-50.32285,0.001067912,-0.1257102,0.09433498,0,0.3,0,0,0,0,
6.38224E+17,9.518225,65.34208,78.96045,118.7366,-51.29622,-49.43428,-16.98673,-0.4441859,-4.27255,-61.44649,-6.98289,34.57793,0,0,0,30.84253,119.0057,15.59822,-36.05464,-110.6632,-50.32285,0.001067912,-0.1257102,0.09433498,0,0.3,0,0,0,0,
6.38224E+17,9.376864,66.62788,76.88255,113.463,-54.29927,-47.6764,-16.98673,-0.4441859,-4.27255,-61.51973,-6.909645,34.57793,0,0,0,29.77837,115.4948,11.97842,-36.05464,-110.6632,-50.32285,0.001067912,-0.1257102,0.09433498,0,0.3,0,0,0,0,
6.38224E+17,9.188385,67.49287,75.1782,106.5779,-56.27689,-43.20844,-16.98673,-0.4441859,-4.27255,-61.44649,-6.98289,34.57793,0,0,0,28.73606,112.4302,9.299971,-36.05464,-110.6632,-50.32285,0.001067912,-0.1257102,0.09433498,0,0.3,0,0,0,0,
6.38224E+17,8.811425,68.82543,72.84347,86.80173,-59.8659,-24.0182,-16.98673,-0.4441859,-4.27255,-61.44649,-6.98289,34.57793,0,0,0,26.89642,108.3608,5.161437,-36.05464,-110.6632,-50.32285,0.001067912,-0.1257102,0.09433498,0,0.3,0,0,0,0,
6.38224E+17,8.929225,69.73718,70.08849,60.7997,-61.25756,9.381593,-16.98673,-0.4441859,-4.27255,-61.44649,-6.909645,34.57793,0,0,0,26.62872,103.0327,1.131826,-36.05464,-110.6632,-50.32285,0.001067912,-0.1257102,0.09433498,0,0.3,0,0,0,0,
6.38224E+17,8.929225,70.34502,68.59427,47.90855,-60.81809,26.52096,-16.98673,-0.4441859,-4.27255,-61.51973,-6.98289,34.57793,0,0,0,26.2319,100.2616,-1.393764,-36.05464,-110.6632,-50.32285,0.001067912,-0.1257102,0.09433498,0,0.3,0,0,0,0,
6.38224E+17,9.282625,71.35027,65.32565,27.54639,-58.18126,51.35107,-16.98673,-0.4441859,-4.27255,-61.51973,-6.909645,34.57793,0,0,0,26.42449,94.02962,-6.677852,-36.05464,-110.6632,-50.32285,0.001067912,-0.1257102,0.09433498,0,0.3,0,0,0,0,
6.38224E+17,10.36638,72.4023,63.24775,14.72849,-54.66549,64.09573,-16.98673,-0.4441859,-4.27255,-61.44649,-6.909645,34.57793,0,0,0,28.68138,90.43427,-11.55942,-36.05464,-110.6632,-50.32285,0.001067912,-0.1257102,0.09433498,0,0.3,0,0,0,0,
6.38224E+17,12.13338,73.52444,61.66013,9.235103,-51.88218,69.36938,-16.98673,-0.4441859,-4.27255,-61.51973,-6.98289,34.57793,0,0,0,32.61837,87.92341,-16.6302,-36.05464,-110.6632,-50.32285,0.001067912,-0.1257102,0.09433498,0,0.3,0,0,0,0,
6.38224E+17,13.92394,74.1089,60.32933,8.50265,-49.90456,69.58913,-16.98673,-0.4441859,-4.27255,-61.51973,-6.98289,34.57793,0,0,0,36.66735,85.59378,-20.44913,-36.05464,-110.6632,-50.32285,0.001067912,-0.1257102,0.09433498,0,0.3,0,0,0,0,
6.38224E+17,16.27993,74.38944,58.83511,9.747819,-47.48747,67.75799,-16.98673,-0.4441859,-4.27255,-61.44649,-6.98289,34.57793,0,0,0,42.04657,82.77213,-24.37478,-36.05464,-110.6632,-50.32285,0.001067912,-0.1257102,0.09433498,0,0.3,0,0,0,0,
6.38224E+17,19.48409,74.41282,57.15411,13.1171,-43.9717,64.16898,-16.98673,-0.4441859,-4.27255,-61.51973,-6.98289,34.57793,0,0,0,49.3191,79.4692,-28.95414,-36.05464,-110.6632,-50.32285,0.001067912,-0.1257102,0.09433498,0,0.3,0,0,0,0,
6.38224E+17,21.13329,74.38944,56.38364,14.94823,-42.14057,62.26461,-16.98673,-0.4441859,-4.27255,-61.51973,-6.98289,34.57793,0,0,0,52.97507,77.95466,-31.29899,-36.05464,-110.6632,-50.32285,0.001067912,-0.1257102,0.09433498,0,0.3,0,0,0,0,
6.38224E+17,24.87932,74.06215,54.6326,18.53724,-38.11209,57.79665,-16.98673,-0.4441859,-4.27255,-61.44649,-6.98289,34.57793,0,0,0,61.1535,74.38876,-36.48144,-36.05464,-110.6632,-50.32285,0.001067912,-0.1257102,0.09433498,0,0.3,0,0,0,0,
6.38224E+17,28.71959,73.19716,53.06834,21.90652,-34.23009,53.47519,-16.98673,-0.4441859,-4.27255,-61.51973,-6.909645,34.57793,0,0,0,69.74433,70.88168,-41.06273,-36.05464,-110.6632,-50.32285,0.001067912,-0.1257102,0.09433498,0,0.3,0,0,0,0,
6.38224E+17,32.86615,71.60744,51.55077,25.56878,-29.90863,49.00723,-16.98673,-0.4441859,-4.27255,-61.44649,-6.909645,34.57793,0,0,0,79.50761,66.96825,-45.29056,-36.05464,-110.6632,-50.32285,0.001067912,-0.1257102,0.09433498,0,0.3,0,0,0,0,
6.38224E+17,36.8949,69.22286,49.89311,29.30428,-25.29418,44.97874,-16.98673,-0.4441859,-4.27255,-61.51973,-6.98289,34.57793,0,0,0,89.62953,62.12173,-48.95253,-36.05464,-110.6632,-50.32285,0.001067912,-0.1257102,0.09433498,0,0.3,0,0,0,0,
6.38224E+17,38.8975,67.70328,49.0993,31.13541,-22.80385,43.00113,-16.98673,-0.4441859,-4.27255,-61.51973,-6.909645,34.50468,0,0,0,95.0593,59.41869,-50.53118,-36.05464,-110.6632,-50.32285,0.001067912,-0.1257102,0.09433498,0,0.3,0,0,0,0,
6.38224E+17,42.69065,63.65885,47.30156,34.65118,-17.45695,39.26562,-16.98673,-0.4441859,-4.27255,-61.44649,-6.98289,34.57793,0,0,0,106.5693,52.42408,-52.82408,-36.05464,-110.6632,-50.32285,0.001067912,-0.1257102,0.09433498,0,0.3,0,0,0,0,
6.38224E+17,45.91837,58.60916,45.80734,37.87396,-11.52409,36.11608,-16.98673,-0.4441859,-4.27255,-61.44649,-6.98289,34.57793,0,0,0,118.5782,44.22737,-53.51341,-36.05464,-110.6632,-50.32285,0.001067912,-0.1257102,0.09433498,0,0.3,0,0,0,0,
6.38224E+17,47.28484,55.61674,45.45713,39.41211,-8.521038,34.72442,-16.98673,-0.4441859,-4.27255,-61.44649,-6.98289,34.57793,0,0,0,125.1608,39.8635,-52.79362,-36.05464,-110.6632,-50.32285,0.001067912,-0.1257102,0.09433498,0,0.3,0,0,0,0,
6.38224E+17,49.52304,48.9072,45.66725,41.97569,-2.661425,32.01435,-16.98673,-0.4441859,-4.27255,-61.51973,-6.98289,34.57793,0,0,0,139.227,30.66048,-49.53572,-36.05464,-110.6632,-50.32285,0.001067912,-0.1257102,0.09433498,0,0.3,0,0,0,0,
6.38224E+17,50.88952,42.01063,47.18483,43.88007,3.564415,28.93805,-16.98673,-0.4441859,-4.27255,-61.44649,-6.98289,34.57793,0,0,0,152.7813,21.96754,-44.14154,-36.05464,-110.6632,-50.32285,0.001067912,-0.1257102,0.09433498,0,0.3,0,0,0,0,
6.38224E+17,51.66699,35.53487,49.28608,44.97874,8.984557,25.78851,-16.98673,-0.4441859,-4.27255,-61.51973,-6.909645,34.57793,0,0,0,164.4074,13.87091,-38.35501,-36.05464,-110.6632,-50.32285,0.001067912,-0.1257102,0.09433498,0,0.3,0,0,0,0,
6.38224E+17,51.83192,32.58922,50.50013,45.27173,11.47489,24.03063,-16.98673,-0.4441859,-4.27255,-61.44649,-6.909645,34.57793,0,0,0,169.2305,10.35315,-35.33129,-36.05464,-110.6632,-50.32285,0.001067912,-0.1257102,0.09433498,0,0.3,0,0,0,0,
6.38224E+17,51.83192,26.4875,53.32516,45.34497,15.94285,19.70916,-16.98673,-0.4441859,-4.27255,-61.51973,-6.98289,34.57793,0,0,0,177.9207,3.178084,-28.50064,-36.05464,-110.6632,-50.32285,0.001067912,-0.1257102,0.09433498,0,0.3,0,0,0,0,
6.38224E+17,51.21936,20.29228,55.0762,44.61252,20.19107,15.09472,-16.98673,-0.4441859,-4.27255,-61.44649,-6.909645,34.57793,0,0,0,182.7337,-6.744059,-21.52998,-36.05464,-110.6632,-50.32285,0.001067912,-0.1257102,0.09433498,0,0.3,0,0,0,0,
6.38224E+17,50.41832,16.9492,54.65595,43.51384,22.46167,13.1171,-16.98673,-0.4441859,-4.27255,-61.44649,-6.909645,34.57793,0,0,0,182.1439,-14.91629,-17.76554,-36.05464,-110.6632,-50.32285,0.001067912,-0.1257102,0.09433498,0,0.3,0,0,0,0,
6.38224E+17,49.71152,14.98543,53.72206,42.34192,23.78008,12.16491,-16.98673,-0.4441859,-4.27255,-61.51973,-6.98289,34.57793,0,0,0,180.2614,-21.07282,-15.53952,-36.05464,-110.6632,-50.32285,0.001067912,-0.1257102,0.09433498,0,0.3,0,0,0,0,
6.38224E+17,47.6618,11.1514,49.77637,39.11913,26.78313,11.21272,-16.98673,-0.4441859,-4.27255,-61.44649,-6.98289,34.57793,0,0,0,171.97,-36.97359,-11.65963,-36.05464,-110.6632,-50.32285,0.001067912,-0.1257102,0.09433498,0,0.3,0,0,0,0,
6.38224E+17,44.99953,7.668051,45.99411,34.50468,29.4932,10.77325,-16.98673,-0.4441859,-4.27255,-61.51973,-6.98289,34.57793,0,0,0,161.2699,-51.49918,-7.077409,-36.05464,-110.6632,-50.32285,0.001067912,-0.1257102,0.09433498,0,0.3,0,0,0,0,
6.38224E+17,41.88961,4.675641,43.05236,29.0113,32.27652,10.70001,-16.98673,-0.4441859,-4.27255,-61.44649,-6.909645,34.57793,0,0,0,149.5241,-63.22287,-1.64191,-36.05464,-110.6632,-50.32285,0.001067912,-0.1257102,0.09433498,0,0.3,0,0,0,0,
6.38224E+17,40.12262,3.483352,41.93169,26.22798,33.59494,10.8465,-16.98673,-0.4441859,-4.27255,-61.51973,-6.98289,34.57793,0,0,0,143.2004,-67.75253,1.56973,-36.05464,-110.6632,-50.32285,0.001067912,-0.1257102,0.09433498,0,0.3,0,0,0,0,
6.38224E+17,36.6593,1.8235,40.43747,20.36837,36.15851,11.57895,-16.98673,-0.4441859,-4.27255,-61.51973,-6.909645,34.57793,0,0,0,131.2182,-73.90131,7.954014,-36.05464,-110.6632,-50.32285,0.001067912,-0.1257102,0.09433498,0,0.3,0,0,0,0,
6.38224E+17,33.29023,1.005263,39.15337,14.87498,38.5756,13.1171,-16.98673,-0.4441859,-4.27255,-61.44649,-6.98289,34.57793,0,0,0,119.396,-77.71789,13.48058,-36.05464,-110.6632,-50.32285,0.001067912,-0.1257102,0.09433498,0,0.3,0,0,0,0,
6.38224E+17,30.74575,0.5376987,38.24282,10.99299,39.96726,14.28902,-16.98673,-0.4441859,-4.27255,-61.51973,-6.98289,34.57793,0,0,0,110.3679,-80.13094,17.19302,-36.05464,-110.6632,-50.32285,0.001067912,-0.1257102,0.09433498,0,0.3,0,0,0,0,
6.38224E+17,28.27195,-0.0233782,37.56575,7.550464,41.06594,15.24121,-16.98673,-0.4441859,-4.27255,-61.44649,-6.98289,34.57793,0,0,0,101.6704,-82.40485,20.69397,-36.05464,-110.6632,-50.32285,0.001067912,-0.1257102,0.09433498,0,0.3,0,0,0,0,
6.38224E+17,24.45524,-0.7948589,36.81864,2.496547,41.94488,16.12015,-16.98673,-0.4441859,-4.27255,-61.51973,-6.909645,34.57793,0,0,0,88.28242,-85.25143,25.76981,-36.05464,-110.6632,-50.32285,0.001067912,-0.1257102,0.09433498,0,0.3,0,0,0,0,
6.38224E+17,20.70921,-0.9818845,35.58123,-2.923595,42.53085,16.48637,-16.98673,-0.4441859,-4.27255,-61.44649,-6.98289,34.57793,0,0,0,74.58697,-87.38753,28.94281,-36.05464,-110.6632,-50.32285,0.001067912,-0.1257102,0.09433498,0,0.3,0,0,0,0,
6.38224E+17,16.35061,-0.9818845,34.06366,-8.856454,42.97031,16.70611,-16.98673,-0.4441859,-4.27255,-61.51973,-6.98289,34.57793,0,0,0,58.56108,-89.40437,31.25856,-36.05464,-110.6632,-50.32285,0.001067912,-0.1257102,0.09433498,0,0.3,0,0,0,0,
6.38224E+17,14.51294,-0.9818845,33.50333,-11.56653,43.11681,16.63286,-16.98673,-0.4441859,-4.27255,-61.51973,-6.98289,34.57793,0,0,0,51.85829,-90.12952,31.98452,-36.05464,-110.6632,-50.32285,0.001067912,-0.1257102,0.09433498,0,0.3,0,0,0,0,
6.38224E+17,10.60198,-0.9585064,32.66283,-17.42614,43.2633,16.0469,-16.98673,-0.4441859,-4.27255,-61.51973,-6.98289,34.57793,0,0,0,37.77211,-91.1429,33.44489,-36.05464,-110.6632,-50.32285,0.001067912,-0.1257102,0.09433498,0,0.3,0,0,0,0,
6.38224E+17,6.431869,-0.9585064,32.14919,-23.21251,43.33654,15.31445,-16.98673,-0.4441859,-4.27255,-61.51973,-6.98289,34.57793,0,0,0,22.88494,-91.78355,34.65443,-36.05464,-110.6632,-50.32285,0.001067912,-0.1257102,0.09433498,0,0.3,0,0,0,0,
6.38224E+17,1.884797,-0.9117499,32.26592,-28.7059,43.2633,15.16796,-16.98673,-0.4441859,-4.27255,-61.44649,-6.909645,34.57793,0,0,0,6.726722,-91.52995,36.0613,-36.05464,-110.6632,-50.32285,0.001067912,-0.1257102,0.09433498,0,0.3,0,0,0,0,
6.38224E+17,-0.6361189,-0.7948589,32.59278,-31.70894,42.97031,15.24121,-16.98673,-0.4441859,-4.27255,-61.51973,-6.98289,34.57793,0,0,0,-2.277805,-90.84997,36.80546,-36.05464,-110.6632,-50.32285,0.001067912,-0.1257102,0.09433498,0,0.3,0,0,0,0,
6.38224E+17,-5.65439,-0.4208077,33.40994,-39.10671,41.79839,17.80479,-16.98673,-0.4441859,-4.27255,-61.44649,-6.909645,34.57793,0,0,0,-20.37278,-88.9436,37.41623,-36.05464,-110.6632,-50.32285,0.001067912,-0.1257102,0.09433498,0,0.3,0,0,0,0,
6.38224E+17,-9.800944,-0.0233782,33.7368,-46.79745,40.11375,26.30123,-16.98673,-0.4441859,-4.27255,-61.44649,-6.98289,34.50468,0,0,0,-35.30647,-87.59795,36.0326,-36.05464,-110.6632,-50.32285,0.001067912,-0.1257102,0.09433498,0,0.3,0,0,0,0,
6.38224E+17,-11.45014,0,33.7368,-50.6062,39.30806,33.69899,-16.98673,-0.4441859,-4.27255,-61.51973,-6.98289,34.57793,0,0,0,-41.17397,-87.54354,34.93184,-36.05464,-110.6632,-50.32285,0.001067912,-0.1257102,0.09433498,0,0.3,0,0,0,0,
6.38224E+17,-13.40562,0,33.7368,-56.02634,38.35587,45.85769,-16.98673,-0.4441859,-4.27255,-61.44649,-6.98289,34.57793,0,0,0,-48.08656,-87.54354,33.40848,-36.05464,-110.6632,-50.32285,0.001067912,-0.1257102,0.09433498,0,0.3,0,0,0,0,
6.38224E+17,-14.27734,0,33.7368,-58.07721,38.20938,51.93703,-16.98673,-0.4441859,-4.27255,-61.44649,-6.98289,34.57793,0,0,0,-51.1505,-87.54354,32.65355,-36.05464,-110.6632,-50.32285,0.001067912,-0.1257102,0.09433498,0,0.3,0,0,0,0,
6.38224E+17,-15.2433,0,33.7368,-59.76185,38.64885,55.74578,-16.98673,-0.4441859,-4.27255,-61.51973,-6.98289,34.57793,0,0,0,-54.53182,-87.54354,31.76267,-36.05464,-110.6632,-50.32285,0.001067912,-0.1257102,0.09433498,0,0.3,0,0,0,0,
6.38224E+17,-15.76161,-0.0233782,33.7368,-60.71403,38.86858,56.91771,-16.98673,-0.4441859,-4.27255,-61.44649,-6.98289,34.57793,0,0,0,-56.33985,-87.59795,31.26117,-36.05464,-110.6632,-50.32285,0.001067912,-0.1257102,0.09433498,0,0.3,0,0,0,0,
6.38224E+17,-16.89249,-0.0233782,33.7368,-62.47192,39.30806,58.23612,-16.98673,-0.4441859,-4.27255,-61.51973,-6.909645,34.50468,0,0,0,-60.26846,-87.59795,30.11035,-36.05464,-110.6632,-50.32285,0.001067912,-0.1257102,0.09433498,0,0.3,0,0,0,0,
6.38224E+17,-18.61237,0.0233782,33.85353,-64.59603,39.67428,58.89533,-16.98673,-0.4441859,-4.27255,-61.51973,-6.98289,34.57793,0,0,0,-66.26976,-87.33801,28.42608,-36.05464,-110.6632,-50.32285,0.001067912,-0.1257102,0.09433498,0,0.3,0,0,0,0,
6.38224E+17,-20.40293,0.1636474,34.67069,-66.93987,39.67428,58.74884,-16.98673,-0.4441859,-4.27255,-61.44649,-6.909645,34.57793,0,0,0,-72.93365,-85.94086,27.73203,-36.05464,-110.6632,-50.32285,0.001067912,-0.1257102,0.09433498,0,0.3,0,0,0,0,
6.38224E+17,-21.1804,0.2805384,35.30106,-68.18504,39.52779,58.08963,-16.98673,-0.4441859,-4.27255,-61.51973,-6.98289,34.57793,0,0,0,-76.02151,-84.82759,27.84415,-36.05464,-110.6632,-50.32285,0.001067912,-0.1257102,0.09433498,0,0.3,0,0,0,0,
6.38224E+17,-22.87672,0.8416153,36.16492,-70.67538,39.16157,56.99095,-16.98673,-0.4441859,-4.27255,-61.44649,-6.98289,34.57793,0,0,0,-82.42542,-82.34766,26.99965,-36.05464,-110.6632,-50.32285,0.001067912,-0.1257102,0.09433498,0,0.3,0,0,0,0,
6.38224E+17,-24.99712,1.542961,36.93538,-73.23896,38.5756,56.40499,-16.98673,-0.4441859,-4.27255,-61.44649,-6.98289,34.57793,0,0,0,-90.19117,-79.64785,25.09099,-36.05464,-110.6632,-50.32285,0.001067912,-0.1257102,0.09433498,0,0.3,0,0,0,0,
6.38224E+17,-27.37668,2.267686,38.35956,-76.09552,37.47693,56.2585,-16.98673,-0.4441859,-4.27255,-61.44649,-6.98289,34.57793,0,0,0,-99.32592,-75.93754,23.46021,-36.05464,-110.6632,-50.32285,0.001067912,-0.1257102,0.09433498,0,0.3,0,0,0,0,
6.38224E+17,-28.34263,2.501468,39.38684,-77.78016,36.74448,55.96552,-16.98673,-0.4441859,-4.27255,-61.44649,-6.98289,34.57793,0,0,0,-103.4183,-73.89341,23.37679,-36.05464,-110.6632,-50.32285,0.001067912,-0.1257102,0.09433498,0,0.3,0,0,0,0,
6.38224E+17,-29.96827,2.758628,41.74491,-81.14944,35.35282,55.08658,-16.98673,-0.4441859,-4.27255,-61.44649,-6.98289,34.57793,0,0,0,-110.8845,-69.7267,23.95344,-36.05464,-110.6632,-50.32285,0.001067912,-0.1257102,0.09433498,0,0.3,0,0,0,0,
6.38224E+17,-31.47611,2.828763,43.566,-83.56653,34.32739,54.57386,-16.98673,-0.4441859,-4.27255,-61.51973,-6.98289,34.57793,0,0,0,-117.5297,-66.69189,23.62061,-36.05464,-110.6632,-50.32285,0.001067912,-0.1257102,0.09433498,0,0.3,0,0,0,0,
6.38224E+17,-32.11223,2.828763,44.33646,-84.44547,33.96116,54.7936,-16.98673,-0.4441859,-4.27255,-61.44649,-6.98289,34.57793,0,0,0,-120.3399,-65.44736,23.39739,-36.05464,-110.6632,-50.32285,0.001067912,-0.1257102,0.09433498,0,0.3,0,0,0,0,
6.38224E+17,-33.40803,2.805384,45.85403,-85.83713,33.08222,56.40499,-16.98673,-0.4441859,-4.27255,-61.51973,-6.98289,34.57793,0,0,0,-126.0196,-63.00014,22.71053,-36.05464,-110.6632,-50.32285,0.001067912,-0.1257102,0.09433498,0,0.3,0,0,0,0,
6.38224E+17,-34.56246,2.73525,47.39495,-87.30203,32.20328,58.30937,-16.98673,-0.4441859,-4.27255,-61.44649,-6.909645,34.57793,0,0,0,-131.2451,-60.55647,22.16753,-36.05464,-110.6632,-50.32285,0.001067912,-0.1257102,0.09433498,0,0.3,0,0,0,0,
6.38224E+17,-35.52842,2.688493,48.60901,-89.20641,30.95811,60.28699,-16.98673,-0.4441859,-4.27255,-61.44649,-6.98289,34.57793,0,0,0,-135.5399,-58.56532,21.47067,-36.05464,-110.6632,-50.32285,0.001067912,-0.1257102,0.09433498,0,0.3,0,0,0,0,
6.38224E+17,-35.99962,2.618359,49.40281,-89.93885,30.37215,61.82513,-16.98673,-0.4441859,-4.27255,-61.44649,-6.98289,34.57793,0,0,0,-137.8132,-57.33393,21.33617,-36.05464,-110.6632,-50.32285,0.001067912,-0.1257102,0.09433498,0,0.3,0,0,0,0,
6.38224E+17,-36.28234,2.548224,49.86976,-90.37833,30.07917,62.63083,-16.98673,-0.4441859,-4.27255,-61.44649,-6.98289,34.57793,0,0,0,-139.1683,-56.66894,21.22713,-36.05464,-110.6632,-50.32285,0.001067912,-0.1257102,0.09433498,0,0.3,0,0,0,0,
6.38224E+17,-36.7771,2.244308,50.21997,-91.55025,29.34671,63.65627,-16.98673,-0.4441859,-4.27255,-61.51973,-6.98289,34.57793,0,0,0,-141.1312,-56.75086,20.46128,-36.05464,-110.6632,-50.32285,0.001067912,-0.1257102,0.09433498,0,0.3,0,0,0,0,
6.38224E+17,-37.1305,1.776743,50.24332,-91.91647,28.98049,64.53521,-16.98673,-0.4441859,-4.27255,-61.44649,-6.909645,34.57793,0,0,0,-142.3371,-57.79663,19.64535,-36.05464,-110.6632,-50.32285,0.001067912,-0.1257102,0.09433498,0,0.3,0,0,0,0,
6.38224E+17,-37.15406,1.262423,50.21997,-91.40376,28.76075,65.04792,-16.98673,-0.4441859,-4.27255,-61.44649,-6.98289,34.57793,0,0,0,-142.4126,-59.035,19.5844,-36.05464,-110.6632,-50.32285,0.001067912,-0.1257102,0.09433498,0,0.3,0,0,0,0,
6.38224E+17,-37.08338,1.16891,50.19662,-91.11078,28.76075,65.19441,-16.98673,-0.4441859,-4.27255,-61.51973,-6.909645,34.57793,0,0,0,-142.1625,-59.29434,19.73588,-36.05464,-110.6632,-50.32285,0.001067912,-0.1257102,0.09433498,0,0.3,0,0,0,0,
6.38224E+17,-36.63574,0.8883717,49.91645,-90.59806,28.834,65.48739,-16.98673,-0.4441859,-4.27255,-61.44649,-6.98289,34.57793,0,0,0,-140.4459,-60.44708,20.51428,-36.05464,-110.6632,-50.32285,0.001067912,-0.1257102,0.09433498,0,0.3,0,0,0,0,
6.38224E+17,-35.5991,0.07013461,49.07595,-89.64587,29.20022,65.56064,-16.98673,-0.4441859,-4.27255,-61.44649,-6.98289,34.57793,0,0,0,-136.2757,-63.83875,22.00415,-36.05464,-110.6632,-50.32285,0.001067912,-0.1257102,0.09433498,0,0.3,0,0,0,0,
6.38224E+17,-34.16194,-0.8182371,48.00198,-87.88799,30.07917,65.56064,-16.98673,-0.4441859,-4.27255,-61.44649,-6.98289,34.57793,0,0,0,-130.5217,-67.77944,23.98156,-36.05464,-110.6632,-50.32285,0.001067912,-0.1257102,0.09433498,0,0.3,0,0,0,0,
6.38224E+17,-32.63055,-1.005263,46.60114,-85.83713,30.95811,65.48739,-16.98673,-0.4441859,-4.27255,-61.44649,-6.98289,34.57793,0,0,0,-124.1392,-70.61071,25.53327,-36.05464,-110.6632,-50.32285,0.001067912,-0.1257102,0.09433498,0,0.3,0,0,0,0,
6.38224E+17,-30.06251,-1.005263,44.68667,-82.02838,32.42301,65.70713,-16.98673,-0.4441859,-4.27255,-61.44649,-6.909645,34.57793,0,0,0,-113.7671,-73.79646,28.20478,-36.05464,-110.6632,-50.32285,0.001067912,-0.1257102,0.09433498,0,0.3,0,0,0,0,
6.38224E+17,-28.64891,-1.005263,43.72943,-80.05076,33.15546,65.92686,-16.98673,-0.4441859,-4.27255,-61.51973,-6.98289,34.57793,0,0,0,-108.1179,-75.34986,29.55009,-36.05464,-110.6632,-50.32285,0.001067912,-0.1257102,0.09433498,0,0.3,0,0,0,0,
6.38224E+17,-24.1254,-1.005263,40.27403,-73.89817,35.86554,66.51283,-16.98673,-0.4441859,-4.27255,-61.44649,-6.909645,34.57793,0,0,0,-89.73076,-80.73042,32.00728,-36.05464,-110.6632,-50.32285,0.001067912,-0.1257102,0.09433498,0,0.3,0,0,0,0,
6.38224E+17,-22.68824,-1.005263,39.17671,-71.99379,36.74448,66.58607,-16.98673,-0.4441859,-4.27255,-61.51973,-6.909645,34.57793,0,0,0,-83.91984,-82.36262,32.38252,-36.05464,-110.6632,-50.32285,0.001067912,-0.1257102,0.09433498,0,0.3,0,0,0,0,
6.38224E+17,-19.74325,-1.005263,36.79529,-68.18504,38.50236,66.73256,-16.98673,-0.4441859,-4.27255,-61.44649,-6.98289,34.57793,0,0,0,-72.02036,-85.77362,32.31768,-36.05464,-110.6632,-50.32285,0.001067912,-0.1257102,0.09433498,0,0.3,0,0,0,0,
6.38224E+17,-16.46841,-1.005263,33.43328,-64.66927,39.89402,65.92686,-16.98673,-0.4441859,-4.27255,-61.44649,-6.98289,34.57793,0,0,0,-58.62526,-90.27383,29.96698,-36.05464,-110.6632,-50.32285,0.001067912,-0.1257102,0.09433498,0,0.3,0,0,0,0,
6.38224E+17,-14.32446,-1.005263,31.35538,-62.69165,40.47998,64.60844,-16.98673,-0.4441859,-4.27255,-61.44649,-6.98289,34.57793,0,0,0,-50.15485,-92.8646,28.065,-36.05464,-110.6632,-50.32285,0.001067912,-0.1257102,0.09433498,0,0.3,0,0,0,0,
6.38224E+17,-9.588904,-1.005263,28.13346,-58.44344,41.28568,61.82513,-16.98673,-0.4441859,-4.27255,-61.44649,-6.98289,34.50468,0,0,0,-32.68383,-96.58445,25.11623,-36.05464,-110.6632,-50.32285,0.001067912,-0.1257102,0.09433498,0,0.3,0,0,0,0,
6.38224E+17,-5.018272,-1.005263,26.70927,-53.53601,42.01813,60.06725,-16.98673,-0.4441859,-4.27255,-61.44649,-6.98289,34.57793,0,0,0,-16.90559,-98.1109,24.17463,-36.05464,-110.6632,-50.32285,0.001067912,-0.1257102,0.09433498,0,0.3,0,0,0,0,
6.38224E+17,-2.921435,-1.005263,26.56919,-51.11892,42.31111,59.11506,-16.98673,-0.4441859,-4.27255,-61.44649,-6.98289,34.57793,0,0,0,-9.835224,-98.25709,24.37322,-36.05464,-110.6632,-50.32285,0.001067912,-0.1257102,0.09433498,0,0.3,0,0,0,0,
6.38224E+17,1.554958,-0.9818845,26.52249,-46.21149,42.67733,57.0642,-16.98673,-0.4441859,-4.27255,-61.44649,-6.98289,34.57793,0,0,0,5.233891,-98.25125,24.45672,-36.05464,-110.6632,-50.32285,0.001067912,-0.1257102,0.09433498,0,0.3,0,0,0,0,
6.38224E+17,6.36119,-0.9818845,26.52249,-41.37731,42.89707,53.03571,-16.98673,-0.4441859,-4.27255,-61.51973,-6.909645,34.57793,0,0,0,21.37004,-98.25125,23.34023,-36.05464,-110.6632,-50.32285,0.001067912,-0.1257102,0.09433498,0,0.3,0,0,0,0,
6.38224E+17,11.30878,-0.9818845,26.63923,-36.76286,42.97031,48.12829,-16.98673,-0.4441859,-4.27255,-61.51973,-6.909645,34.57793,0,0,0,37.87029,-98.12968,21.02121,-36.05464,-110.6632,-50.32285,0.001067912,-0.1257102,0.09433498,0,0.3,0,0,0,0,
6.38224E+17,13.87682,-0.9585064,26.9194,-34.27253,42.97031,46.15067,-16.98673,-0.4441859,-4.27255,-61.51973,-6.98289,34.57793,0,0,0,46.45699,-97.78149,19.70025,-36.05464,-110.6632,-50.32285,0.001067912,-0.1257102,0.09433498,0,0.3,0,0,0,0,
6.38224E+17,19.38985,-0.8649935,27.94668,-28.26642,42.75058,42.6349,-16.98673,-0.4441859,-4.27255,-61.51973,-6.98289,34.57793,0,0,0,65.01413,-96.46238,16.37209,-36.05464,-110.6632,-50.32285,0.001067912,-0.1257102,0.09433498,0,0.3,0,0,0,0,
6.38224E+17,24.54948,-0.7013461,29.74442,-22.04058,42.01813,39.33887,-16.98673,-0.4441859,-4.27255,-61.44649,-6.909645,34.50468,0,0,0,82.88771,-94.06303,13.11503,-36.05464,-110.6632,-50.32285,0.001067912,-0.1257102,0.09433498,0,0.3,0,0,0,0,
6.38224E+17,29.85047,-0.5610769,32.52274,-15.44852,40.55322,35.67661,-16.98673,-0.4441859,-4.27255,-61.44649,-6.909645,34.57793,0,0,0,102.0548,-90.39363,9.48432,-36.05464,-110.6632,-50.32285,0.001067912,-0.1257102,0.09433498,0,0.3,0,0,0,0,
6.38224E+17,34.93942,-0.0233782,35.95479,-8.343738,38.42912,32.01435,-16.98673,-0.4441859,-4.27255,-61.44649,-6.98289,34.57793,0,0,0,121.2118,-84.64864,5.148506,-36.05464,-110.6632,-50.32285,0.001067912,-0.1257102,0.09433498,0,0.3,0,0,0,0,
6.38224E+17,37.20118,0.3974294,37.5891,-4.97446,37.25719,30.10997,-16.98673,-0.4441859,-4.27255,-61.51973,-6.98289,34.57793,0,0,0,129.8046,-81.39233,2.653976,-36.05464,-110.6632,-50.32285,0.001067912,-0.1257102,0.09433498,0,0.3,0,0,0,0,
6.38224E+17,41.39485,1.706609,41.13788,2.276812,34.62037,26.22798,-16.98673,-0.4441859,-4.27255,-61.51973,-6.98289,34.57793,0,0,0,146.1471,-73.10833,-2.548624,-36.05464,-110.6632,-50.32285,0.001067912,-0.1257102,0.09433498,0,0.3,0,0,0,0,
6.38224E+17,44.74036,3.530109,44.78006,9.308348,31.76381,21.61354,-16.98673,-0.4441859,-4.27255,-61.44649,-6.909645,34.57793,0,0,0,159.8032,-63.09319,-7.091866,-36.05464,-110.6632,-50.32285,0.001067912,-0.1257102,0.09433498,0,0.3,0,0,0,0,
6.38224E+17,46.15396,4.839288,46.67118,12.75087,30.22566,18.97671,-16.98673,-0.4441859,-4.27255,-61.44649,-6.909645,34.57793,0,0,0,165.7883,-56.90312,-9.108853,-36.05464,-110.6632,-50.32285,0.001067912,-0.1257102,0.09433498,0,0.3,0,0,0,0,
6.38224E+17,48.20368,8.018724,49.79972,18.53724,27.36909,14.65524,-16.98673,-0.4441859,-4.27255,-61.44649,-6.909645,34.57793,0,0,0,174.3753,-44.1204,-12.46062,-36.05464,-110.6632,-50.32285,0.001067912,-0.1257102,0.09433498,0,0.3,0,0,0,0,
6.38224E+17,49.80576,11.85275,53.44189,24.25036,24.58578,10.48027,-16.98673,-0.4441859,-4.27255,-61.51973,-6.98289,34.50468,0,0,0,181.5091,-28.68858,-14.99418,-36.05464,-110.6632,-50.32285,0.001067912,-0.1257102,0.09433498,0,0.3,0,0,0,0,
6.38224E+17,51.14867,16.06083,57.71444,29.67051,21.87571,7.110993,-16.98673,-0.4441859,-4.27255,-61.44649,-6.909645,34.50468,0,0,0,187.5907,-10.98517,-17.24634,-36.05464,-110.6632,-50.32285,0.001067912,-0.1257102,0.09433498,0,0.3,0,0,0,0,
6.38224E+17,51.64344,18.16486,59.8157,32.16084,20.48405,5.865825,-16.98673,-0.4441859,-4.27255,-61.51973,-6.98289,34.50468,0,0,0,189.7471,-2.123969,-18.19237,-36.05464,-110.6632,-50.32285,0.001067912,-0.1257102,0.09433498,0,0.3,0,0,0,0,
6.38224E+17,52.23243,22.48983,64.20498,37.50774,17.70073,3.96145,-16.98673,-0.4441859,-4.27255,-61.44649,-6.98289,34.57793,0,0,0,192.3061,16.33134,-19.35636,-36.05464,-110.6632,-50.32285,0.001067912,-0.1257102,0.09433498,0,0.3,0,0,0,0,
6.38224E+17,52.37379,27.0252,68.66431,42.70815,14.69768,2.203566,-16.98673,-0.4441859,-4.27255,-61.44649,-6.909645,34.57793,0,0,0,192.4585,35.42495,-19.99674,-36.05464,-110.6632,-50.32285,0.001067912,-0.1257102,0.09433498,0,0.3,0,0,0,0,
6.38224E+17,52.02039,32.14503,73.59058,48.49451,11.03542,-0.2135241,-16.98673,-0.4441859,-4.27255,-61.44649,-6.98289,34.57793,0,0,0,189.8265,56.6295,-20.15008,-36.05464,-110.6632,-50.32285,0.001067912,-0.1257102,0.09433498,0,0.3,0,0,0,0,
6.38224E+17,51.40784,36.44662,76.62572,52.81598,8.325351,-1.824918,-16.98673,-0.4441859,-4.27255,-61.44649,-6.98289,34.57793,0,0,0,185.2419,71.72438,-20.51481,-36.05464,-110.6632,-50.32285,0.001067912,-0.1257102,0.09433498,0,0.3,0,0,0,0,
6.38224E+17,50.93663,38.97147,77.72305,55.08658,6.860447,-2.557369,-16.98673,-0.4441859,-4.27255,-61.44649,-6.98289,34.57793,0,0,0,181.6695,78.86306,-20.90399,-36.05464,-110.6632,-50.32285,0.001067912,-0.1257102,0.09433498,0,0.3,0,0,0,0,
6.38224E+17,49.68796,44.7225,78.91376,59.55453,3.564415,-3.582802,-16.98673,-0.4441859,-4.27255,-61.51973,-6.98289,34.57793,0,0,0,172.0348,91.54352,-22.39173,-36.05464,-110.6632,-50.32285,0.001067912,-0.1257102,0.09433498,0,0.3,0,0,0,0,
6.38224E+17,48.133,50.80084,78.72698,63.29004,-0.2443342,-3.875783,-16.98673,-0.4441859,-4.27255,-61.44649,-6.98289,34.57793,0,0,0,160.152,100.6222,-24.82025,-36.05464,-110.6632,-50.32285,0.001067912,-0.1257102,0.09433498,0,0.3,0,0,0,0,
6.38224E+17,47.16704,54.02703,78.40012,64.90143,-2.441689,-3.949028,-16.98673,-0.4441859,-4.27255,-61.51973,-6.98289,34.57793,0,0,0,153.2361,104.4559,-26.28803,-36.05464,-110.6632,-50.32285,0.001067912,-0.1257102,0.09433498,0,0.3,0,0,0,0,
6.38224E+17,44.85817,59.73131,77.86314,67.24528,-6.909645,-3.875783,-16.98673,-0.4441859,-4.27255,-61.44649,-6.98289,34.50468,0,0,0,139.3676,110.484,-28.29073,-36.05464,-110.6632,-50.32285,0.001067912,-0.1257102,0.09433498,0,0.3,0,0,0,0,
6.38224E+17,41.88961,65.59924,76.4156,69.07641,-12.1833,-2.777105,-16.98673,-0.4441859,-4.27255,-61.44649,-6.98289,34.57793,0,0,0,123.3295,113.468,-30.84687,-36.05464,-110.6632,-50.32285,0.001067912,-0.1257102,0.09433498,0,0.3,0,0,0,0,
6.38224E+17,40.35821,68.31111,75.15485,69.36938,-14.82012,-1.678428,-16.98673,-0.4441859,-4.27255,-61.44649,-6.98289,34.50468,0,0,0,115.3835,113.0941,-32.57437,-36.05464,-110.6632,-50.32285,0.001067912,-0.1257102,0.09433498,0,0.3,0,0,0,0,
6.38224E+17,36.1881,74.29593,70.97569,67.24528,-22.21789,2.130321,-16.98673,-0.4441859,-4.27255,-61.44649,-6.98289,34.57793,0,0,0,95.74553,108.2544,-37.4733,-36.05464,-110.6632,-50.32285,0.001067912,-0.1257102,0.09433498,0,0.3,0,0,0,0,
6.38224E+17,33.29023,77.12469,67.3802,63.36329,-27.2718,6.891257,-16.98673,-0.4441859,-4.27255,-61.44649,-6.98289,34.57793,0,0,0,83.8726,102.0589,-40.61868,-36.05464,-110.6632,-50.32285,0.001067912,-0.1257102,0.09433498,0,0.3,0,0,0,0,
6.38224E+17,30.08607,78.87806,61.26323,55.08658,-32.25247,16.70611,-16.98673,-0.4441859,-4.27255,-61.51973,-6.98289,34.57793,0,0,0,71.51012,90.08267,-44.91943,-36.05464,-110.6632,-50.32285,0.001067912,-0.1257102,0.09433498,0,0.3,0,0,0,0,
6.38224E+17,28.83739,78.94819,57.92457,50.03266,-33.4244,22.41923,-16.98673,-0.4441859,-4.27255,-61.51973,-6.98289,34.57793,0,0,0,66.82948,83.41336,-46.97533,-36.05464,-110.6632,-50.32285,0.001067912,-0.1257102,0.09433498,0,0.3,0,0,0,0,
6.38224E+17,26.64632,77.84942,50.87369,38.31343,-33.35115,34.65118,-16.98673,-0.4441859,-4.27255,-61.51973,-6.98289,34.50468,0,0,0,58.98203,69.56454,-50.80304,-36.05464,-110.6632,-50.32285,0.001067912,-0.1257102,0.09433498,0,0.3,0,0,0,0,
6.38224E+17,25.39764,75.74538,44.63997,27.54639,-30.27485,44.24629,-16.98673,-0.4441859,-4.27255,-61.44649,-6.98289,34.57793,0,0,0,54.26986,57.71096,-54.04577,-36.05464,-110.6632,-50.32285,0.001067912,-0.1257102,0.09433498,0,0.3,0,0,0,0,
6.38224E+17,25.44476,72.93999,39.43353,18.90347,-25.66041,49.73968,-16.98673,-0.4441859,-4.27255,-61.44649,-6.98289,34.57793,0,0,0,53.19936,47.83787,-56.53792,-36.05464,-110.6632,-50.32285,0.001067912,-0.1257102,0.09433498,0,0.3,0,0,0,0,
6.38224E+17,26.08088,70.15799,35.44115,13.26359,-20.67974,52.15677,-16.98673,-0.4441859,-4.27255,-61.44649,-6.98289,34.57793,0,0,0,53.89446,40.14151,-58.24471,-36.05464,-110.6632,-50.32285,0.001067912,-0.1257102,0.09433498,0,0.3,0,0,0,0,
6.38224E+17,26.45784,68.6384,33.50333,11.13948,-18.11616,52.44975,-16.98673,-0.4441859,-4.27255,-61.51973,-6.98289,34.50468,0,0,0,54.43612,36.34448,-58.96653,-36.05464,-110.6632,-50.32285,0.001067912,-0.1257102,0.09433498,0,0.3,0,0,0,0,
6.38224E+17,27.32955,65.06154,29.8378,7.989935,-12.8425,51.49756,-16.98673,-0.4441859,-4.27255,-61.44649,-6.98289,34.57793,0,0,0,56.27474,28.59383,-59.45753,-36.05464,-110.6632,-50.32285,0.001067912,-0.1257102,0.09433498,0,0.3,0,0,0,0,
6.38224E+17,28.29551,60.87684,26.45245,6.158805,-7.642097,49.73968,-16.98673,-0.4441859,-4.27255,-61.51973,-6.909645,34.57793,0,0,0,58.92123,20.45247,-58.90088,-36.05464,-110.6632,-50.32285,0.001067912,-0.1257102,0.09433498,0,0.3,0,0,0,0,
6.38224E+17,28.76671,58.21173,24.56132,5.499599,-5.00527,48.71425,-16.98673,-0.4441859,-4.27255,-61.51973,-6.909645,34.57793,0,0,0,60.48066,15.41349,-58.18452,-36.05464,-110.6632,-50.32285,0.001067912,-0.1257102,0.09433498,0,0.3,0,0,0,0,
6.38224E+17,29.82691,51.92299,21.17597,4.474167,0.268382,45.78444,-16.98673,-0.4441859,-4.27255,-61.51973,-6.909645,34.57793,0,0,0,64.86357,3.975199,-55.21506,-36.05464,-110.6632,-50.32285,0.001067912,-0.1257102,0.09433498,0,0.3,0,0,0,0,
6.38224E+17,31.33475,44.46534,18.79455,3.888205,6.05475,42.48841,-16.98673,-0.4441859,-4.27255,-61.44649,-6.98289,34.57793,0,0,0,71.83305,-9.481066,-50.36664,-36.05464,-110.6632,-50.32285,0.001067912,-0.1257102,0.09433498,0,0.3,0,0,0,0,
6.38224E+17,32.18291,40.72483,18.28091,3.888205,8.984557,40.95026,-16.98673,-0.4441859,-4.27255,-61.51973,-6.98289,34.57793,0,0,0,76.10567,-16.26871,-47.41625,-36.05464,-110.6632,-50.32285,0.001067912,-0.1257102,0.09433498,0,0.3,0,0,0,0,
6.38224E+17,34.3033,32.93989,18.46769,4.327676,15.2104,37.80072,-16.98673,-0.4441859,-4.27255,-61.51973,-6.98289,34.57793,0,0,0,86.8772,-30.62256,-41.00856,-36.05464,-110.6632,-50.32285,0.001067912,-0.1257102,0.09433498,0,0.3,0,0,0,0,
6.38224E+17,36.21166,25.48224,20.28877,5.572844,21.07001,35.38363,-16.98673,-0.4441859,-4.27255,-61.44649,-6.98289,34.57793,0,0,0,98.43224,-44.35521,-33.91681,-36.05464,-110.6632,-50.32285,0.001067912,-0.1257102,0.09433498,0,0.3,0,0,0,0,
6.38224E+17,37.62526,16.59852,24.56132,6.964502,27.07611,32.01435,-16.98673,-0.4441859,-4.27255,-61.44649,-6.909645,34.57793,0,0,0,111.8563,-59.84083,-23.23402,-36.05464,-110.6632,-50.32285,0.001067912,-0.1257102,0.09433498,0,0.3,0,0,0,0,
6.38224E+17,38.09645,12.62423,27.45638,7.257483,29.12698,29.67051,-16.98673,-0.4441859,-4.27255,-61.44649,-6.98289,34.57793,0,0,0,118.2211,-65.8353,-17.55783,-36.05464,-110.6632,-50.32285,0.001067912,-0.1257102,0.09433498,0,0.3,0,0,0,0,
6.38224E+17,38.37918,10.49681,29.30082,7.184238,30.22566,28.05911,-16.98673,-0.4441859,-4.27255,-61.51973,-6.98289,34.57793,0,0,0,121.9246,-68.64569,-14.40458,-36.05464,-110.6632,-50.32285,0.001067912,-0.1257102,0.09433498,0,0.3,0,0,0,0,
6.38224E+17,38.8975,7.691429,32.56944,6.891257,31.61732,25.05606,-16.98673,-0.4441859,-4.27255,-61.51973,-6.909645,34.57793,0,0,0,128.057,-71.18204,-9.633054,-36.05464,-110.6632,-50.32285,0.001067912,-0.1257102,0.09433498,0,0.3,0,0,0,0,
6.38224E+17,39.58073,7.200486,34.55396,6.671522,31.83705,22.56572,-16.98673,-0.4441859,-4.27255,-61.44649,-6.98289,34.57793,0,0,0,132.487,-69.76174,-8.091023,-36.05464,-110.6632,-50.32285,0.001067912,-0.1257102,0.09433498,0,0.3,0,0,0,0,
6.38224E+17,40.85297,7.457647,36.93538,7.110993,31.17784,20.14863,-16.98673,-0.4441859,-4.27255,-61.44649,-6.909645,34.50468,0,0,0,138.905,-65.93056,-7.727531,-36.05464,-110.6632,-50.32285,0.001067912,-0.1257102,0.09433498,0,0.3,0,0,0,0,
6.38224E+17,41.79537,7.644672,38.59303,7.770199,30.51864,18.90347,-16.98673,-0.4441859,-4.27255,-61.44649,-6.909645,34.57793,0,0,0,143.5224,-63.13643,-7.80278,-36.05464,-110.6632,-50.32285,0.001067912,-0.1257102,0.09433498,0,0.3,0,0,0,0,
6.38224E+17,44.24561,7.995345,43.35587,10.0408,28.61426,16.48637,-16.98673,-0.4441859,-4.27255,-61.51973,-6.98289,34.57793,0,0,0,156.0152,-55.06126,-8.171328,-36.05464,-110.6632,-50.32285,0.001067912,-0.1257102,0.09433498,0,0.3,0,0,0,0,
