zeyangz2/DNN_classification_different_people_hand/data/frank_right_19.csv
Timestamp,Therapist joint angle 0,Therapist joint angle 1,Therapist joint angle 2,Therapist joint angle 3,Therapist joint angle 4,Therapist joint angle 5,Patient joint angle 0,Patient joint angle 1,Patient joint angle 2,Patient joint angle 3,Patient joint angle 4,Patient joint angle 5,Virtual joint angle 0,Virtual joint angle 1,Virtual joint angle 2,Therapist position x,Therapist position y,Therapist position z,Patient position x,Patient position y,Patient position z,Virtual position x,Virtual position y,Virtual position z,Assistive Force, Obstacle Force Magnitude, Therapist Constant Force, Patient Constant Force, Recovery Factor, Assistance Level,label
6.38224E+17,0,0,0,0,0,0,0,0,0,0,0,0,0,0,0,0,0,0,0,0,0,0,0,0,0,0.3,0,0,0,0,1
6.38224E+17,41.25349,7.270621,3.291965,-6.80559,5.175808,19.48943,-17.01029,-0.4441859,-4.27255,-61.44649,-6.98289,34.57793,0,0,0,92.27216,-92.90372,-63.14671,-36.10317,-110.6632,-50.33768,0.001067912,-0.1257102,0.09433498,0,0.3,0,0,0,0,
6.38224E+17,41.25349,7.270621,3.291965,-6.80559,5.175808,19.41618,-17.01029,-0.4441859,-4.27255,-61.51973,-6.98289,34.57793,0,0,0,92.27216,-92.90372,-63.14671,-36.10317,-110.6632,-50.33768,0.001067912,-0.1257102,0.09433498,0,0.3,0,0,0,0,
6.38224E+17,41.25349,7.270621,3.291965,-6.80559,5.249053,19.41618,-17.01029,-0.4441859,-4.27255,-61.44649,-6.909645,34.57793,0,0,0,92.27216,-92.90372,-63.14671,-36.10317,-110.6632,-50.33768,0.001067912,-0.1257102,0.09433498,0,0.3,0,0,0,0,
6.38224E+17,41.25349,7.270621,3.291965,-6.80559,5.175808,19.41618,-17.01029,-0.4441859,-4.27255,-61.44649,-6.98289,34.57793,0,0,0,92.27216,-92.90372,-63.14671,-36.10317,-110.6632,-50.33768,0.001067912,-0.1257102,0.09433498,0,0.3,0,0,0,0,
6.38224E+17,41.25349,7.270621,3.291965,-6.80559,5.175808,19.41618,-17.01029,-0.4441859,-4.27255,-61.44649,-6.98289,34.57793,0,0,0,92.27216,-92.90372,-63.14671,-36.10317,-110.6632,-50.33768,0.001067912,-0.1257102,0.09433498,0,0.3,0,0,0,0,
6.38224E+17,41.25349,7.270621,3.291965,-6.80559,5.249053,19.41618,-17.01029,-0.4441859,-4.27255,-61.44649,-6.98289,34.57793,0,0,0,92.27216,-92.90372,-63.14671,-36.10317,-110.6632,-50.33768,0.001067912,-0.1257102,0.09433498,0,0.3,0,0,0,0,
6.38224E+17,41.25349,7.270621,3.291965,-6.80559,5.249053,19.41618,-17.01029,-0.4441859,-4.27255,-61.44649,-6.98289,34.57793,0,0,0,92.27216,-92.90372,-63.14671,-36.10317,-110.6632,-50.33768,0.001067912,-0.1257102,0.09433498,0,0.3,0,0,0,0,
6.38224E+17,41.25349,7.270621,3.291965,-6.80559,5.249053,19.41618,-17.01029,-0.4441859,-4.27255,-61.44649,-6.98289,34.57793,0,0,0,92.27216,-92.90372,-63.14671,-36.10317,-110.6632,-50.33768,0.001067912,-0.1257102,0.09433498,0,0.3,0,0,0,0,
6.38224E+17,41.25349,7.270621,3.291965,-6.80559,5.249053,19.41618,-17.01029,-0.4441859,-4.27255,-61.44649,-6.98289,34.57793,0,0,0,92.27216,-92.90372,-63.14671,-36.10317,-110.6632,-50.33768,0.001067912,-0.1257102,0.09433498,0,0.3,0,0,0,0,
6.38224E+17,41.25349,7.270621,3.291965,-6.80559,5.175808,19.41618,-17.01029,-0.4441859,-4.27255,-61.51973,-6.98289,34.57793,0,0,0,92.27216,-92.90372,-63.14671,-36.10317,-110.6632,-50.33768,0.001067912,-0.1257102,0.09433498,0,0.3,0,0,0,0,
6.38224E+17,41.25349,7.270621,3.291965,-6.80559,5.175808,19.41618,-17.01029,-0.4441859,-4.27255,-61.44649,-6.98289,34.57793,0,0,0,92.27216,-92.90372,-63.14671,-36.10317,-110.6632,-50.33768,0.001067912,-0.1257102,0.09433498,0,0.3,0,0,0,0,
6.38224E+17,41.25349,7.270621,3.291965,-6.80559,5.249053,19.41618,-17.01029,-0.4441859,-4.27255,-61.51973,-6.909645,34.57793,0,0,0,92.27216,-92.90372,-63.14671,-36.10317,-110.6632,-50.33768,0.001067912,-0.1257102,0.09433498,0,0.3,0,0,0,0,
6.38224E+17,41.25349,7.270621,3.291965,-6.80559,5.249053,19.41618,-17.01029,-0.4441859,-4.27255,-61.51973,-6.98289,34.57793,0,0,0,92.27216,-92.90372,-63.14671,-36.10317,-110.6632,-50.33768,0.001067912,-0.1257102,0.09433498,0,0.3,0,0,0,0,
6.38224E+17,41.25349,7.270621,3.291965,-6.80559,5.249053,19.41618,-17.01029,-0.4441859,-4.27255,-61.44649,-6.98289,34.57793,0,0,0,92.27216,-92.90372,-63.14671,-36.10317,-110.6632,-50.33768,0.001067912,-0.1257102,0.09433498,0,0.3,0,0,0,0,
6.38224E+17,41.25349,7.270621,3.291965,-6.80559,5.175808,19.41618,-17.01029,-0.4441859,-4.27255,-61.51973,-6.98289,34.57793,0,0,0,92.27216,-92.90372,-63.14671,-36.10317,-110.6632,-50.33768,0.001067912,-0.1257102,0.09433498,0,0.3,0,0,0,0,
6.38224E+17,41.25349,7.270621,3.291965,-6.80559,5.249053,19.41618,-17.01029,-0.4441859,-4.27255,-61.44649,-6.98289,34.57793,0,0,0,92.27216,-92.90372,-63.14671,-36.10317,-110.6632,-50.33768,0.001067912,-0.1257102,0.09433498,0,0.3,0,0,0,0,
6.38224E+17,41.25349,7.270621,3.291965,-6.80559,5.175808,19.41618,-17.01029,-0.4441859,-4.27255,-61.44649,-6.98289,34.57793,0,0,0,92.27216,-92.90372,-63.14671,-36.10317,-110.6632,-50.33768,0.001067912,-0.1257102,0.09433498,0,0.3,0,0,0,0,
6.38224E+17,41.25349,7.270621,3.315312,-6.80559,5.175808,19.41618,-17.01029,-0.4441859,-4.27255,-61.44649,-6.98289,34.57793,0,0,0,92.30793,-92.90058,-63.10592,-36.10317,-110.6632,-50.33768,0.001067912,-0.1257102,0.09433498,0,0.3,0,0,0,0,
6.38224E+17,41.25349,7.270621,3.315312,-6.80559,5.175808,19.41618,-17.01029,-0.4441859,-4.27255,-61.51973,-6.98289,34.57793,0,0,0,92.30793,-92.90058,-63.10592,-36.10317,-110.6632,-50.33768,0.001067912,-0.1257102,0.09433498,0,0.3,0,0,0,0,
6.38224E+17,41.25349,7.270621,3.362006,-6.878834,5.175808,19.41618,-17.01029,-0.4441859,-4.27255,-61.51973,-6.98289,34.57793,0,0,0,92.37946,-92.89426,-63.02436,-36.10317,-110.6632,-50.33768,0.001067912,-0.1257102,0.09433498,0,0.3,0,0,0,0,
6.38224E+17,41.27705,7.247243,3.455395,-6.80559,5.175808,19.48943,-17.01029,-0.4441859,-4.27255,-61.51973,-6.98289,34.57793,0,0,0,92.57044,-92.9353,-62.89413,-36.10317,-110.6632,-50.33768,0.001067912,-0.1257102,0.09433498,0,0.3,0,0,0,0,
6.38224E+17,41.67757,6.966705,4.506022,-6.80559,5.102563,19.41618,-17.01029,-0.4441859,-4.27255,-61.51973,-6.98289,34.57793,0,0,0,94.98104,-93.41347,-61.66156,-36.10317,-110.6632,-50.33768,0.001067912,-0.1257102,0.09433498,0,0.3,0,0,0,0,
6.38224E+17,42.92625,6.779679,6.513887,-6.073137,5.102563,19.41618,-17.01029,-0.4441859,-4.27255,-61.51973,-6.909645,34.57793,0,0,0,100.4867,-93.39694,-60.31276,-36.10317,-110.6632,-50.33768,0.001067912,-0.1257102,0.09433498,0,0.3,0,0,0,0,
6.38224E+17,43.70373,6.779679,7.261,-5.560421,5.175808,19.19645,-17.01029,-0.4441859,-4.27255,-61.51973,-6.98289,34.57793,0,0,0,103.1361,-93.18842,-60.43827,-36.10317,-110.6632,-50.33768,0.001067912,-0.1257102,0.09433498,0,0.3,0,0,0,0,
6.38224E+17,45.72989,6.803057,8.871961,-3.289821,5.322299,18.39075,-17.01029,-0.4441859,-4.27255,-61.44649,-6.98289,34.57793,0,0,0,109.5404,-92.60829,-61.56546,-36.10317,-110.6632,-50.33768,0.001067912,-0.1257102,0.09433498,0,0.3,0,0,0,0,
6.38224E+17,47.68536,7.060217,10.80978,0.07945653,5.395544,17.43856,-17.01029,-0.4441859,-4.27255,-61.44649,-6.98289,34.57793,0,0,0,116.3528,-91.24336,-62.42273,-36.10317,-110.6632,-50.33768,0.001067912,-0.1257102,0.09433498,0,0.3,0,0,0,0,
6.38224E+17,49.33456,7.761563,12.93439,3.521979,5.029318,16.26664,-17.01029,-0.4441859,-4.27255,-61.51973,-6.98289,34.57793,0,0,0,122.8638,-88.60748,-62.79931,-36.10317,-110.6632,-50.33768,0.001067912,-0.1257102,0.09433498,0,0.3,0,0,0,0,
6.38224E+17,50.1356,8.346018,14.00836,5.206618,4.663092,15.46094,-17.01029,-0.4441859,-4.27255,-61.51973,-6.98289,34.57793,0,0,0,126.0469,-86.67835,-63.09141,-36.10317,-110.6632,-50.33768,0.001067912,-0.1257102,0.09433498,0,0.3,0,0,0,0,
6.38224E+17,51.59631,10.35654,16.55321,9.015368,3.564415,13.55657,-17.01029,-0.4441859,-4.27255,-61.44649,-6.98289,34.57793,0,0,0,132.5704,-80.50064,-63.26212,-36.10317,-110.6632,-50.33768,0.001067912,-0.1257102,0.09433498,0,0.3,0,0,0,0,
6.38224E+17,52.46804,13.58274,19.68175,12.82412,1.293814,11.5057,-17.01029,-0.4441859,-4.27255,-61.51973,-6.909645,34.57793,0,0,0,138.4063,-70.89227,-62.02436,-36.10317,-110.6632,-50.33768,0.001067912,-0.1257102,0.09433498,0,0.3,0,0,0,0,
6.38224E+17,52.63295,17.79081,23.464,15.90041,-2.58818,8.575896,-17.01029,-0.4441859,-4.27255,-61.51973,-6.98289,34.57793,0,0,0,143.1126,-58.22924,-59.06253,-36.10317,-110.6632,-50.33768,0.001067912,-0.1257102,0.09433498,0,0.3,0,0,0,0,
6.38224E+17,52.58583,22.04565,27.99337,18.17101,-7.715342,5.572844,-17.01029,-0.4441859,-4.27255,-61.44649,-6.98289,34.57793,0,0,0,147.8845,-44.34603,-55.22579,-36.10317,-110.6632,-50.33768,0.001067912,-0.1257102,0.09433498,0,0.3,0,0,0,0,
6.38224E+17,52.37379,23.93928,30.09463,19.26969,-10.49866,4.254431,-17.01029,-0.4441859,-4.27255,-61.51973,-6.98289,34.57793,0,0,0,149.4875,-37.91502,-53.12017,-36.10317,-110.6632,-50.33768,0.001067912,-0.1257102,0.09433498,0,0.3,0,0,0,0,
6.38224E+17,51.45495,27.51615,34.39052,21.17406,-17.09072,0.5189275,-17.01029,-0.4441859,-4.27255,-61.44649,-6.98289,34.57793,0,0,0,151.407,-25.08384,-47.721,-36.10317,-110.6632,-50.33768,0.001067912,-0.1257102,0.09433498,0,0.3,0,0,0,0,
6.38224E+17,49.64084,30.08775,37.44902,22.71221,-23.60954,-2.777105,-17.01029,-0.4441859,-4.27255,-61.44649,-6.98289,34.50468,0,0,0,149.7074,-15.66408,-41.12289,-36.10317,-110.6632,-50.33768,0.001067912,-0.1257102,0.09433498,0,0.3,0,0,0,0,
6.38224E+17,48.58064,31.06963,38.19613,22.8587,-26.24637,-3.582802,-17.01029,-0.4441859,-4.27255,-61.51973,-6.98289,34.57793,0,0,0,147.4859,-12.6304,-38.23507,-36.10317,-110.6632,-50.33768,0.001067912,-0.1257102,0.09433498,0,0.3,0,0,0,0,
6.38224E+17,45.89481,32.56584,38.66307,21.90652,-31.08055,-3.802537,-17.01029,-0.4441859,-4.27255,-61.51973,-6.98289,34.57793,0,0,0,140.5198,-8.996023,-32.15209,-36.10317,-110.6632,-50.33768,0.001067912,-0.1257102,0.09433498,0,0.3,0,0,0,0,
6.38224E+17,42.97337,33.38407,38.26617,18.75698,-34.0836,-0.7262403,-17.01029,-0.4441859,-4.27255,-61.51973,-6.98289,34.57793,0,0,0,132.1961,-7.973053,-26.45486,-36.10317,-110.6632,-50.33768,0.001067912,-0.1257102,0.09433498,0,0.3,0,0,0,0,
6.38224E+17,41.27705,33.61786,37.91596,16.26664,-35.25552,1.983831,-17.01029,-0.4441859,-4.27255,-61.51973,-6.98289,34.57793,0,0,0,127.3165,-8.022167,-23.31157,-36.10317,-110.6632,-50.33768,0.001067912,-0.1257102,0.09433498,0,0.3,0,0,0,0,
6.38224E+17,37.8373,33.68799,36.84199,9.967555,-36.42745,8.575896,-17.01029,-0.4441859,-4.27255,-61.44649,-6.909645,34.57793,0,0,0,117.1111,-9.403716,-17.57407,-36.10317,-110.6632,-50.33768,0.001067912,-0.1257102,0.09433498,0,0.3,0,0,0,0,
6.38224E+17,34.09126,33.61786,35.65128,1.54436,-36.42745,16.0469,-17.01029,-0.4441859,-4.27255,-61.51973,-6.98289,34.50468,0,0,0,105.8081,-11.1781,-12.0208,-36.10317,-110.6632,-50.33768,0.001067912,-0.1257102,0.09433498,0,0.3,0,0,0,0,
6.38224E+17,30.36879,33.29056,34.76408,-8.197248,-35.76824,22.8587,-17.01029,-0.4441859,-4.27255,-61.44649,-6.98289,34.50468,0,0,0,94.79472,-13.00411,-6.574474,-36.10317,-110.6632,-50.33768,0.001067912,-0.1257102,0.09433498,0,0.3,0,0,0,0,
6.38224E+17,26.52852,32.14503,33.12977,-18.23184,-34.37658,28.05911,-17.01029,-0.4441859,-4.27255,-61.51973,-6.98289,34.57793,0,0,0,82.98125,-17.37118,-2.122577,-36.10317,-110.6632,-50.33768,0.001067912,-0.1257102,0.09433498,0,0.3,0,0,0,0,
6.38224E+17,25.1856,31.46706,32.24257,-21.52787,-33.57088,29.45077,-17.01029,-0.4441859,-4.27255,-61.51973,-6.98289,34.57793,0,0,0,78.67708,-19.82722,-1.043549,-36.10317,-110.6632,-50.33768,0.001067912,-0.1257102,0.09433498,0,0.3,0,0,0,0,
6.38224E+17,21.8872,29.33965,29.76777,-27.75371,-30.56783,32.30733,-17.01029,-0.4441859,-4.27255,-61.44649,-6.98289,34.57793,0,0,0,68.01441,-27.06419,0.9504185,-36.10317,-110.6632,-50.33768,0.001067912,-0.1257102,0.09433498,0,0.3,0,0,0,0,
6.38224E+17,18.75373,26.8148,27.64316,-31.41597,-26.75908,34.87091,-17.01029,-0.4441859,-4.27255,-61.51973,-6.98289,34.57793,0,0,0,58.15322,-34.62341,2.927239,-36.10317,-110.6632,-50.33768,0.001067912,-0.1257102,0.09433498,0,0.3,0,0,0,0,
6.38224E+17,15.80873,24.28995,26.19563,-33.83306,-22.7306,37.21476,-17.01029,-0.4441859,-4.27255,-61.51973,-6.98289,34.57793,0,0,0,49.14879,-41.44976,5.237154,-36.10317,-110.6632,-50.33768,0.001067912,-0.1257102,0.09433498,0,0.3,0,0,0,0,
6.38224E+17,14.51294,23.12104,25.77538,-34.78524,-20.75298,38.0937,-17.01029,-0.4441859,-4.27255,-61.51973,-6.98289,34.57793,0,0,0,45.26448,-44.36924,6.511888,-36.10317,-110.6632,-50.33768,0.001067912,-0.1257102,0.09433498,0,0.3,0,0,0,0,
6.38224E+17,12.20406,21.04038,25.5886,-36.54313,-17.45695,39.92483,-17.01029,-0.4441859,-4.27255,-61.51973,-6.98289,34.57793,0,0,0,38.48512,-49.04473,9.589697,-36.10317,-110.6632,-50.33768,0.001067912,-0.1257102,0.09433498,0,0.3,0,0,0,0,
6.38224E+17,9.918744,19.47404,26.28902,-38.15452,-14.82012,42.41516,-17.01029,-0.4441859,-4.27255,-61.51973,-6.98289,34.50468,0,0,0,31.82895,-51.75159,13.6701,-36.10317,-110.6632,-50.33768,0.001067912,-0.1257102,0.09433498,0,0.3,0,0,0,0,
6.38224E+17,8.717185,18.84283,27.01279,-39.03346,-13.86794,43.88007,-17.01029,-0.4441859,-4.27255,-61.44649,-6.909645,34.57793,0,0,0,28.30631,-52.38372,16.26219,-36.10317,-110.6632,-50.33768,0.001067912,-0.1257102,0.09433498,0,0.3,0,0,0,0,
6.38224E+17,6.172709,17.93108,29.34751,-41.37731,-12.40303,47.54232,-17.01029,-0.4441859,-4.27255,-61.44649,-6.98289,34.57793,0,0,0,20.66952,-51.83144,22.76394,-36.10317,-110.6632,-50.33768,0.001067912,-0.1257102,0.09433498,0,0.3,0,0,0,0,
6.38224E+17,4.358593,17.86095,32.21923,-44.30712,-11.67058,50.83836,-17.01029,-0.4441859,-4.27255,-61.44649,-6.98289,34.57793,0,0,0,15.04921,-48.56651,29.09725,-36.10317,-110.6632,-50.33768,0.001067912,-0.1257102,0.09433498,0,0.3,0,0,0,0,
6.38224E+17,3.651794,18.09473,34.20374,-46.50447,-11.45084,52.59624,-17.01029,-0.4441859,-4.27255,-61.44649,-6.98289,34.57793,0,0,0,12.84784,-45.51926,32.95654,-36.10317,-110.6632,-50.33768,0.001067912,-0.1257102,0.09433498,0,0.3,0,0,0,0,
6.38224E+17,2.874315,19.1935,38.07939,-51.33865,-11.45084,55.81903,-17.01029,-0.4441859,-4.27255,-61.51973,-6.98289,34.57793,0,0,0,10.43931,-37.77729,39.56964,-36.10317,-110.6632,-50.33768,0.001067912,-0.1257102,0.09433498,0,0.3,0,0,0,0,
6.38224E+17,3.204155,21.62484,42.2352,-57.49125,-11.89032,58.16287,-17.01029,-0.4441859,-4.27255,-61.51973,-6.98289,34.57793,0,0,0,11.93888,-26.23809,44.9151,-36.10317,-110.6632,-50.33768,0.001067912,-0.1257102,0.09433498,0,0.3,0,0,0,0,
6.38224E+17,4.829792,25.08481,45.59721,-64.30305,-13.13548,59.70102,-17.01029,-0.4441859,-4.27255,-61.51973,-6.98289,34.57793,0,0,0,18.18995,-13.41977,46.92586,-36.10317,-110.6632,-50.33768,0.001067912,-0.1257102,0.09433498,0,0.3,0,0,0,0,
6.38224E+17,7.539187,28.91884,47.48834,-70.60213,-15.18635,60.43347,-17.01029,-0.4441859,-4.27255,-61.51973,-6.909645,34.57793,0,0,0,28.21149,-2.275879,44.81083,-36.10317,-110.6632,-50.33768,0.001067912,-0.1257102,0.09433498,0,0.3,0,0,0,0,
6.38224E+17,9.329745,30.95274,48.04868,-73.3122,-16.7245,60.72646,-17.01029,-0.4441859,-4.27255,-61.51973,-6.98289,34.57793,0,0,0,34.6173,2.791673,42.3593,-36.10317,-110.6632,-50.33768,0.001067912,-0.1257102,0.09433498,0,0.3,0,0,0,0,
6.38224E+17,13.80614,35.23095,48.18876,-77.56042,-20.67974,60.7997,-17.01029,-0.4441859,-4.27255,-61.44649,-6.98289,34.57793,0,0,0,49.71213,11.37449,33.94798,-36.10317,-110.6632,-50.33768,0.001067912,-0.1257102,0.09433498,0,0.3,0,0,0,0,
6.38224E+17,19.03645,38.55066,47.62842,-79.31831,-25.95339,59.77427,-17.01029,-0.4441859,-4.27255,-61.44649,-6.98289,34.57793,0,0,0,66.14881,16.5852,23.36383,-36.10317,-110.6632,-50.33768,0.001067912,-0.1257102,0.09433498,0,0.3,0,0,0,0,
6.38224E+17,21.76941,39.74295,46.92801,-79.09857,-28.95644,58.60235,-17.01029,-0.4441859,-4.27255,-61.44649,-6.98289,34.57793,0,0,0,74.15482,17.53961,17.33778,-36.10317,-110.6632,-50.33768,0.001067912,-0.1257102,0.09433498,0,0.3,0,0,0,0,
6.38224E+17,27.11752,40.98199,44.73336,-75.36307,-35.40202,54.20764,-17.01029,-0.4441859,-4.27255,-61.44649,-6.98289,34.57793,0,0,0,88.66592,16.07335,4.787876,-36.10317,-110.6632,-50.33768,0.001067912,-0.1257102,0.09433498,0,0.3,0,0,0,0,
6.38224E+17,31.61747,40.79496,41.53479,-67.01311,-41.04189,46.15067,-17.01029,-0.4441859,-4.27255,-61.51973,-6.98289,34.57793,0,0,0,99.27845,10.65518,-7.085365,-36.10317,-110.6632,-50.33768,0.001067912,-0.1257102,0.09433498,0,0.3,0,0,0,0,
6.38224E+17,35.26926,39.46241,36.88868,-53.75574,-44.48441,33.25952,-17.01029,-0.4441859,-4.27255,-61.44649,-6.98289,34.57793,0,0,0,105.6659,1.449733,-18.94278,-36.10317,-110.6632,-50.33768,0.001067912,-0.1257102,0.09433498,0,0.3,0,0,0,0,
6.38224E+17,36.63574,38.41039,34.36718,-46.065,-44.92389,25.42229,-17.01029,-0.4441859,-4.27255,-61.44649,-6.98289,34.57793,0,0,0,107.2708,-3.873027,-24.09775,-36.10317,-110.6632,-50.33768,0.001067912,-0.1257102,0.09433498,0,0.3,0,0,0,0,
6.38224E+17,38.49697,35.67514,29.39421,-31.85544,-43.09276,12.38465,-17.01029,-0.4441859,-4.27255,-61.44649,-6.98289,34.57793,0,0,0,108.1705,-15.06476,-32.34628,-36.10317,-110.6632,-50.33768,0.001067912,-0.1257102,0.09433498,0,0.3,0,0,0,0,
6.38224E+17,39.93414,32.26192,24.81814,-20.42919,-38.25858,4.547412,-17.01029,-0.4441859,-4.27255,-61.51973,-6.98289,34.57793,0,0,0,108.3123,-26.50345,-38.96669,-36.10317,-110.6632,-50.33768,0.001067912,-0.1257102,0.09433498,0,0.3,0,0,0,0,
6.38224E+17,40.80585,28.82533,21.99312,-10.83407,-31.59327,0.299192,-17.01029,-0.4441859,-4.27255,-61.44649,-6.98289,34.57793,0,0,0,108.9813,-36.00246,-42.12006,-36.10317,-110.6632,-50.33768,0.001067912,-0.1257102,0.09433498,0,0.3,0,0,0,0,
6.38224E+17,40.82941,26.8148,20.77907,-5.413931,-26.68584,-0.140279,-17.01029,-0.4441859,-4.27255,-61.44649,-6.98289,34.57793,0,0,0,108.7407,-41.17104,-42.50333,-36.10317,-110.6632,-50.33768,0.001067912,-0.1257102,0.09433498,0,0.3,0,0,0,0,
6.38224E+17,40.82941,25.92643,20.24208,-3.216576,-23.97577,0.4456824,-17.01029,-0.4441859,-4.27255,-61.44649,-6.98289,34.57793,0,0,0,108.5758,-43.46135,-42.69415,-36.10317,-110.6632,-50.33768,0.001067912,-0.1257102,0.09433498,0,0.3,0,0,0,0,
6.38224E+17,40.82941,24.26657,19.28484,0.1527017,-19.14159,1.910586,-17.01029,-0.4441859,-4.27255,-61.51973,-6.98289,34.57793,0,0,0,108.2763,-47.71298,-43.04081,-36.10317,-110.6632,-50.33768,0.001067912,-0.1257102,0.09433498,0,0.3,0,0,0,0,
6.38224E+17,41.01789,22.53659,18.86459,1.617605,-15.69907,2.643037,-17.01029,-0.4441859,-4.27255,-61.44649,-6.98289,34.57793,0,0,0,109.1307,-51.72766,-42.8886,-36.10317,-110.6632,-50.33768,0.001067912,-0.1257102,0.09433498,0,0.3,0,0,0,0,
6.38224E+17,41.32417,21.48457,18.79455,1.910586,-14.08767,2.862773,-17.01029,-0.4441859,-4.27255,-61.51973,-6.98289,34.57793,0,0,0,110.3039,-54.05025,-42.90051,-36.10317,-110.6632,-50.33768,0.001067912,-0.1257102,0.09433498,0,0.3,0,0,0,0,
6.38224E+17,42.29013,19.24026,19.05137,2.130321,-10.86488,3.155754,-17.01029,-0.4441859,-4.27255,-61.44649,-6.98289,34.57793,0,0,0,114.0064,-58.75308,-43.01519,-36.10317,-110.6632,-50.33768,0.001067912,-0.1257102,0.09433498,0,0.3,0,0,0,0,
6.38224E+17,43.35033,16.87906,19.26149,2.569792,-7.715342,3.228999,-17.01029,-0.4441859,-4.27255,-61.44649,-6.909645,34.57793,0,0,0,117.7925,-63.81694,-43.57143,-36.10317,-110.6632,-50.33768,0.001067912,-0.1257102,0.09433498,0,0.3,0,0,0,0,
6.38224E+17,43.77441,15.6634,19.40158,2.716283,-6.177193,3.155754,-17.01029,-0.4441859,-4.27255,-61.44649,-6.98289,34.57793,0,0,0,119.4741,-66.42497,-43.65215,-36.10317,-110.6632,-50.33768,0.001067912,-0.1257102,0.09433498,0,0.3,0,0,0,0,
6.38224E+17,44.88173,12.83463,20.68568,3.082508,-2.661425,2.569792,-17.01029,-0.4441859,-4.27255,-61.51973,-6.98289,34.57793,0,0,0,124.986,-71.78115,-42.84687,-36.10317,-110.6632,-50.33768,0.001067912,-0.1257102,0.09433498,0,0.3,0,0,0,0,
6.38224E+17,45.44716,11.64235,21.71296,3.521979,-0.9035407,2.130321,-17.01029,-0.4441859,-4.27255,-61.44649,-6.98289,34.57793,0,0,0,128.2261,-73.6284,-42.10991,-36.10317,-110.6632,-50.33768,0.001067912,-0.1257102,0.09433498,0,0.3,0,0,0,0,
6.38224E+17,46.366,10.6137,23.0671,4.400921,0.8543434,1.471115,-17.01029,-0.4441859,-4.27255,-61.44649,-6.98289,34.57793,0,0,0,132.6774,-74.77695,-41.85277,-36.10317,-110.6632,-50.33768,0.001067912,-0.1257102,0.09433498,0,0.3,0,0,0,0,
6.38224E+17,46.86076,10.42668,23.79086,5.133373,1.51355,1.178134,-17.01029,-0.4441859,-4.27255,-61.44649,-6.98289,34.57793,0,0,0,134.9506,-74.53516,-41.89198,-36.10317,-110.6632,-50.33768,0.001067912,-0.1257102,0.09433498,0,0.3,0,0,0,0,
6.38224E+17,47.99164,10.4033,25.51856,6.964502,2.612227,0.4456824,-17.01029,-0.4441859,-4.27255,-61.44649,-6.98289,34.57793,0,0,0,140.1428,-72.91136,-42.12783,-36.10317,-110.6632,-50.33768,0.001067912,-0.1257102,0.09433498,0,0.3,0,0,0,0,
6.38224E+17,49.28744,10.4033,27.47973,9.528083,3.271434,-0.7262403,-17.01029,-0.4441859,-4.27255,-61.51973,-6.98289,34.57793,0,0,0,146.0575,-70.87489,-42.665,-36.10317,-110.6632,-50.33768,0.001067912,-0.1257102,0.09433498,0,0.3,0,0,0,0,
6.38224E+17,50.3712,10.49681,29.81446,12.75087,3.564415,-1.751673,-17.01029,-0.4441859,-4.27255,-61.51973,-6.98289,34.57793,0,0,0,152.0507,-68.05598,-42.4339,-36.10317,-110.6632,-50.33768,0.001067912,-0.1257102,0.09433498,0,0.3,0,0,0,0,
6.38224E+17,51.00732,10.84749,32.26592,16.63286,3.78415,-2.410879,-17.01029,-0.4441859,-4.27255,-61.51973,-6.909645,34.57793,0,0,0,157.121,-64.31218,-41.14912,-36.10317,-110.6632,-50.33768,0.001067912,-0.1257102,0.09433498,0,0.3,0,0,0,0,
6.38224E+17,51.1958,11.26829,33.57337,18.61049,3.93064,-2.630615,-17.01029,-0.4441859,-4.27255,-61.51973,-6.98289,34.57793,0,0,0,159.3828,-61.69728,-40.1837,-36.10317,-110.6632,-50.33768,0.001067912,-0.1257102,0.09433498,0,0.3,0,0,0,0,
6.38224E+17,51.40784,12.74112,36.3517,23.15168,4.150376,-2.630615,-17.01029,-0.4441859,-4.27255,-61.44649,-6.98289,34.57793,0,0,0,163.4403,-54.63942,-37.91392,-36.10317,-110.6632,-50.33768,0.001067912,-0.1257102,0.09433498,0,0.3,0,0,0,0,
6.38224E+17,51.4314,14.93867,38.66307,28.86481,3.710905,-2.484124,-17.01029,-0.4441859,-4.27255,-61.51973,-6.98289,34.50468,0,0,0,165.8737,-46.39848,-36.08351,-36.10317,-110.6632,-50.33768,0.001067912,-0.1257102,0.09433498,0,0.3,0,0,0,0,
6.38224E+17,51.4314,16.17772,39.76039,31.9411,3.491169,-2.264389,-17.01029,-0.4441859,-4.27255,-61.44649,-6.98289,34.57793,0,0,0,166.8161,-42.00593,-35.33205,-36.10317,-110.6632,-50.33768,0.001067912,-0.1257102,0.09433498,0,0.3,0,0,0,0,
6.38224E+17,51.31359,18.74932,42.32859,39.11913,2.538982,-1.165711,-17.01029,-0.4441859,-4.27255,-61.44649,-6.98289,34.57793,0,0,0,168.6589,-32.37255,-33.29441,-36.10317,-110.6632,-50.33768,0.001067912,-0.1257102,0.09433498,0,0.3,0,0,0,0,
6.38224E+17,50.46544,21.48457,44.54658,47.32259,0.9275885,-0.0670338,-17.01029,-0.4441859,-4.27255,-61.44649,-6.98289,34.57793,0,0,0,167.8435,-22.84641,-29.82036,-36.10317,-110.6632,-50.33768,0.001067912,-0.1257102,0.09433498,0,0.3,0,0,0,0,
6.38224E+17,49.7822,22.86388,44.8034,51.20458,-0.2443342,0.5189275,-17.01029,-0.4441859,-4.27255,-61.44649,-6.98289,34.57793,0,0,0,165.5791,-19.45344,-28.33663,-36.10317,-110.6632,-50.33768,0.001067912,-0.1257102,0.09433498,0,0.3,0,0,0,0,
6.38224E+17,48.27436,25.13157,44.47654,56.62473,-2.88116,1.54436,-17.01029,-0.4441859,-4.27255,-61.44649,-6.98289,34.57793,0,0,0,159.8316,-15.16669,-25.81691,-36.10317,-110.6632,-50.33768,0.001067912,-0.1257102,0.09433498,0,0.3,0,0,0,0,
6.38224E+17,46.4838,26.93169,44.03294,60.14049,-6.250438,2.862773,-17.01029,-0.4441859,-4.27255,-61.51973,-6.98289,34.57793,0,0,0,153.4304,-12.12275,-22.66756,-36.10317,-110.6632,-50.33768,0.001067912,-0.1257102,0.09433498,0,0.3,0,0,0,0,
6.38224E+17,43.98645,28.66168,42.6788,62.63083,-10.64515,5.865825,-17.01029,-0.4441859,-4.27255,-61.44649,-6.98289,34.57793,0,0,0,144.0414,-10.72476,-19.12012,-36.10317,-110.6632,-50.33768,0.001067912,-0.1257102,0.09433498,0,0.3,0,0,0,0,
6.38224E+17,42.69065,29.52667,41.46474,62.92381,-13.35522,7.91669,-17.01029,-0.4441859,-4.27255,-61.44649,-6.98289,34.57793,0,0,0,138.544,-10.8589,-18.16209,-36.10317,-110.6632,-50.33768,0.001067912,-0.1257102,0.09433498,0,0.3,0,0,0,0,
6.38224E+17,41.84249,30.01761,40.43747,62.55759,-15.1131,9.454838,-17.01029,-0.4441859,-4.27255,-61.51973,-6.98289,34.57793,0,0,0,134.7226,-11.4341,-17.89565,-36.10317,-110.6632,-50.33768,0.001067912,-0.1257102,0.09433498,0,0.3,0,0,0,0,
6.38224E+17,40.02837,30.71896,37.96265,60.43347,-18.48238,13.19034,-17.01029,-0.4441859,-4.27255,-61.44649,-6.98289,34.57793,0,0,0,126.4908,-13.66589,-17.75565,-36.10317,-110.6632,-50.33768,0.001067912,-0.1257102,0.09433498,0,0.3,0,0,0,0,
6.38224E+17,38.04934,31.09301,34.99755,56.40499,-20.82623,18.02452,-17.01029,-0.4441859,-4.27255,-61.51973,-6.98289,34.57793,0,0,0,117.5196,-17.0214,-18.19848,-36.10317,-110.6632,-50.33768,0.001067912,-0.1257102,0.09433498,0,0.3,0,0,0,0,
6.38224E+17,35.7169,31.06963,31.1219,50.61862,-22.36438,24.10387,-17.01029,-0.4441859,-4.27255,-61.44649,-6.98289,34.57793,0,0,0,106.9154,-21.98768,-19.65406,-36.10317,-110.6632,-50.33768,0.001067912,-0.1257102,0.09433498,0,0.3,0,0,0,0,
6.38224E+17,34.1855,30.9995,29.37086,46.88312,-22.65736,27.39991,-17.01029,-0.4441859,-4.27255,-61.44649,-6.98289,34.57793,0,0,0,100.9726,-24.18032,-19.69246,-36.10317,-110.6632,-50.33768,0.001067912,-0.1257102,0.09433498,0,0.3,0,0,0,0,
6.38224E+17,30.67507,30.90598,26.73262,38.02045,-22.7306,33.47925,-17.01029,-0.4441859,-4.27255,-61.44649,-6.98289,34.57793,0,0,0,88.97358,-27.25427,-18.35277,-36.10317,-110.6632,-50.33768,0.001067912,-0.1257102,0.09433498,0,0.3,0,0,0,0,
6.38224E+17,26.78768,29.94748,24.07103,28.71832,-22.21789,39.04589,-17.01029,-0.4441859,-4.27255,-61.44649,-6.909645,34.57793,0,0,0,76.58719,-31.83484,-16.65207,-36.10317,-110.6632,-50.33768,0.001067912,-0.1257102,0.09433498,0,0.3,0,0,0,0,
6.38224E+17,24.64372,29.22275,23.20718,23.81089,-21.48543,41.38973,-17.01029,-0.4441859,-4.27255,-61.44649,-6.98289,34.57793,0,0,0,70.43776,-34.1078,-14.81024,-36.10317,-110.6632,-50.33768,0.001067912,-0.1257102,0.09433498,0,0.3,0,0,0,0,
6.38224E+17,20.12021,27.67979,22.90367,13.70306,-19.28808,45.19848,-17.01029,-0.4441859,-4.27255,-61.51973,-6.98289,34.57793,0,0,0,58.47385,-37.54171,-8.737139,-36.10317,-110.6632,-50.33768,0.001067912,-0.1257102,0.09433498,0,0.3,0,0,0,0,
6.38224E+17,15.95009,25.03806,22.92702,4.327676,-17.45695,49.00723,-17.01029,-0.4441859,-4.27255,-61.51973,-6.98289,34.57793,0,0,0,47.47617,-43.02919,-2.234979,-36.10317,-110.6632,-50.33768,0.001067912,-0.1257102,0.09433498,0,0.3,0,0,0,0,
6.38224E+17,13.8297,23.30807,23.25388,-0.140279,-16.57801,50.9116,-17.01029,-0.4441859,-4.27255,-61.44649,-6.98289,34.57793,0,0,0,41.85887,-46.40401,1.688291,-36.10317,-110.6632,-50.33768,0.001067912,-0.1257102,0.09433498,0,0.3,0,0,0,0,
6.38224E+17,7.539187,17.4869,26.82601,-13.69064,-13.6482,56.62473,-17.01029,-0.4441859,-4.27255,-61.51973,-6.98289,34.57793,0,0,0,24.5832,-55.57898,17.39615,-36.10317,-110.6632,-50.33768,0.001067912,-0.1257102,0.09433498,0,0.3,0,0,0,0,
6.38224E+17,6.03135,15.78029,28.13346,-17.13316,-13.06224,58.23612,-17.01029,-0.4441859,-4.27255,-61.44649,-6.98289,34.57793,0,0,0,20.09013,-57.9805,21.79397,-36.10317,-110.6632,-50.33768,0.001067912,-0.1257102,0.09433498,0,0.3,0,0,0,0,
6.38224E+17,2.944995,11.99302,32.12584,-25.04364,-11.67058,61.45891,-17.01029,-0.4441859,-4.27255,-61.44649,-6.98289,34.57793,0,0,0,10.34492,-61.87261,32.73637,-36.10317,-110.6632,-50.33768,0.001067912,-0.1257102,0.09433498,0,0.3,0,0,0,0,
6.38224E+17,0.4711992,9.795467,37.56575,-33.75981,-10.49866,63.65627,-17.01029,-0.4441859,-4.27255,-61.51973,-6.98289,34.57793,0,0,0,1.749267,-59.6634,44.34843,-36.10317,-110.6632,-50.33768,0.001067912,-0.1257102,0.09433498,0,0.3,0,0,0,0,
6.38224E+17,-0.2827196,9.444795,39.80709,-37.93478,-9.985942,64.60844,-17.01029,-0.4441859,-4.27255,-61.44649,-6.98289,34.57793,0,0,0,-1.070331,-57.20768,48.56099,-36.10317,-110.6632,-50.33768,0.001067912,-0.1257102,0.09433498,0,0.3,0,0,0,0,
6.38224E+17,-0.9895183,9.608441,44.45319,-45.84526,-9.985942,65.92686,-17.01029,-0.4441859,-4.27255,-61.44649,-6.98289,34.57793,0,0,0,-3.883353,-49.58029,56.48428,-36.10317,-110.6632,-50.33768,0.001067912,-0.1257102,0.09433498,0,0.3,0,0,0,0,
6.38224E+17,-1.083758,10.12276,50.64022,-52.73031,-10.5719,67.68475,-17.01029,-0.4441859,-4.27255,-61.51973,-6.98289,34.57793,0,0,0,-4.433023,-37.78165,65.98568,-36.10317,-110.6632,-50.33768,0.001067912,-0.1257102,0.09433498,0,0.3,0,0,0,0,
6.38224E+17,-0.8245987,10.49681,57.15411,-59.83509,-11.59733,70.46806,-17.01029,-0.4441859,-4.27255,-61.51973,-6.98289,34.57793,0,0,0,-3.499285,-24.68274,74.77487,-36.10317,-110.6632,-50.33768,0.001067912,-0.1257102,0.09433498,0,0.3,0,0,0,0,
6.38224E+17,-0.4005193,10.68384,60.74959,-63.79033,-12.25654,72.07946,-17.01029,-0.4441859,-4.27255,-61.44649,-6.909645,34.57793,0,0,0,-1.729303,-17.0868,79.02922,-36.10317,-110.6632,-50.33768,0.001067912,-0.1257102,0.09433498,0,0.3,0,0,0,0,
6.38224E+17,1.201558,11.38519,67.49695,-73.3122,-13.79469,75.96145,-17.01029,-0.4441859,-4.27255,-61.44649,-6.98289,34.57793,0,0,0,5.324656,-1.3636,85.51675,-36.10317,-110.6632,-50.33768,0.001067912,-0.1257102,0.09433498,0,0.3,0,0,0,0,
6.38224E+17,2.803635,12.90477,70.81226,-80.41698,-14.74688,79.03775,-17.01029,-0.4441859,-4.27255,-61.44649,-6.98289,34.57793,0,0,0,12.51804,9.303793,87.26756,-36.10317,-110.6632,-50.33768,0.001067912,-0.1257102,0.09433498,0,0.3,0,0,0,0,
6.38224E+17,3.910954,14.40097,72.23644,-84.88493,-15.40608,80.86888,-17.01029,-0.4441859,-4.27255,-61.44649,-6.98289,34.57793,0,0,0,17.47113,15.83128,87.20584,-36.10317,-110.6632,-50.33768,0.001067912,-0.1257102,0.09433498,0,0.3,0,0,0,0,
6.38224E+17,5.72507,17.04271,74.05753,-91.55025,-16.94423,83.21272,-17.01029,-0.4441859,-4.27255,-61.44649,-6.909645,34.57793,0,0,0,25.50891,25.80529,86.08972,-36.10317,-110.6632,-50.33768,0.001067912,-0.1257102,0.09433498,0,0.3,0,0,0,0,
6.38224E+17,7.115108,19.5208,75.92531,-97.04363,-18.26265,84.9706,-17.01029,-0.4441859,-4.27255,-61.44649,-6.98289,34.57793,0,0,0,31.58904,35.47984,84.71793,-36.10317,-110.6632,-50.33768,0.001067912,-0.1257102,0.09433498,0,0.3,0,0,0,0,
6.38224E+17,8.010387,22.13916,78.18999,-102.537,-19.06834,86.87498,-17.01029,-0.4441859,-4.27255,-61.51973,-6.98289,34.57793,0,0,0,35.4019,46.31159,83.21671,-36.10317,-110.6632,-50.33768,0.001067912,-0.1257102,0.09433498,0,0.3,0,0,0,0,
6.38224E+17,8.340226,24.89779,80.87493,-107.298,-19.28808,88.77935,-17.01029,-0.4441859,-4.27255,-61.44649,-6.98289,34.57793,0,0,0,36.64259,58.34246,81.59723,-36.10317,-110.6632,-50.33768,0.001067912,-0.1257102,0.09433498,0,0.3,0,0,0,0,
6.38224E+17,8.387346,26.41737,82.29912,-109.4221,-19.36132,89.80479,-17.01029,-0.4441859,-4.27255,-61.44649,-6.98289,34.57793,0,0,0,36.69551,64.8092,80.53184,-36.10317,-110.6632,-50.33768,0.001067912,-0.1257102,0.09433498,0,0.3,0,0,0,0,
6.38224E+17,8.128186,29.45654,85.17083,-113.7435,-19.28808,91.92889,-17.01029,-0.4441859,-4.27255,-61.44649,-6.98289,34.57793,0,0,0,35.20403,77.70052,78.13705,-36.10317,-110.6632,-50.33768,0.001067912,-0.1257102,0.09433498,0,0.3,0,0,0,0,
6.38224E+17,7.138669,32.98664,87.0853,-116.9663,-18.9951,93.83327,-17.01029,-0.4441859,-4.27255,-61.51973,-6.98289,34.50468,0,0,0,30.4503,89.17081,74.78173,-36.10317,-110.6632,-50.33768,0.001067912,-0.1257102,0.09433498,0,0.3,0,0,0,0,
6.38224E+17,4.900472,37.0077,87.15534,-118.065,-18.70212,94.63897,-17.01029,-0.4441859,-4.27255,-61.44649,-6.98289,34.57793,0,0,0,20.47409,96.99841,70.44685,-36.10317,-110.6632,-50.33768,0.001067912,-0.1257102,0.09433498,0,0.3,0,0,0,0,
6.38224E+17,3.416194,38.69093,87.0853,-117.6988,-18.62887,94.71221,-17.01029,-0.4441859,-4.27255,-61.44649,-6.98289,34.57793,0,0,0,14.13804,99.92889,68.48948,-36.10317,-110.6632,-50.33768,0.001067912,-0.1257102,0.09433498,0,0.3,0,0,0,0,
6.38224E+17,-0.4476392,41.16902,86.17476,-115.8676,-18.11616,93.76003,-17.01029,-0.4441859,-4.27255,-61.51973,-6.98289,34.57793,0,0,0,-1.823757,102.2357,65.0778,-36.10317,-110.6632,-50.33768,0.001067912,-0.1257102,0.09433498,0,0.3,0,0,0,0,
6.38224E+17,-5.630831,42.52495,83.7233,-111.9856,-16.87099,91.41618,-17.01029,-0.4441859,-4.27255,-61.44649,-6.98289,34.57793,0,0,0,-22.64841,98.90358,61.36352,-36.10317,-110.6632,-50.33768,0.001067912,-0.1257102,0.09433498,0,0.3,0,0,0,0,
6.38224E+17,-8.387346,42.71198,82.06564,-109.4221,-16.21178,89.95128,-17.01029,-0.4441859,-4.27255,-61.44649,-6.909645,34.57793,0,0,0,-33.55692,95.39564,59.24483,-36.10317,-110.6632,-50.33768,0.001067912,-0.1257102,0.09433498,0,0.3,0,0,0,0,
6.38224E+17,-13.97106,42.52495,77.39619,-103.1962,-14.4539,86.80173,-17.01029,-0.4441859,-4.27255,-61.51973,-6.98289,34.57793,0,0,0,-55.1462,84.3847,53.30629,-36.10317,-110.6632,-50.33768,0.001067912,-0.1257102,0.09433498,0,0.3,0,0,0,0,
6.38224E+17,-19.01289,41.77685,71.67611,-96.0182,-12.8425,83.28596,-17.01029,-0.4441859,-4.27255,-61.51973,-6.98289,34.57793,0,0,0,-73.6374,70.26824,45.35236,-36.10317,-110.6632,-50.33768,0.001067912,-0.1257102,0.09433498,0,0.3,0,0,0,0,
6.38224E+17,-23.51284,39.88321,64.41511,-87.66826,-11.15786,79.33073,-17.01029,-0.4441859,-4.27255,-61.44649,-6.909645,34.57793,0,0,0,-88.80772,51.27041,35.76867,-36.10317,-110.6632,-50.33768,0.001067912,-0.1257102,0.09433498,0,0.3,0,0,0,0,
6.38224E+17,-25.82172,38.15323,58.99854,-81.44242,-9.106999,75.44874,-17.01029,-0.4441859,-4.27255,-61.44649,-6.98289,34.50468,0,0,0,-95.46125,37.04594,28.93022,-36.10317,-110.6632,-50.33768,0.001067912,-0.1257102,0.09433498,0,0.3,0,0,0,0,
6.38224E+17,-26.69344,37.33499,56.94398,-79.09857,-8.081567,73.54436,-17.01029,-0.4441859,-4.27255,-61.44649,-6.909645,34.57793,0,0,0,-97.8361,31.48639,26.23096,-36.10317,-110.6632,-50.33768,0.001067912,-0.1257102,0.09433498,0,0.3,0,0,0,0,
6.38224E+17,-28.95519,34.55299,52.25118,-74.7771,-5.371496,68.85667,-17.01029,-0.4441859,-4.27255,-61.44649,-6.909645,34.57793,0,0,0,-104.2165,17.34486,20.00873,-36.10317,-110.6632,-50.33768,0.001067912,-0.1257102,0.09433498,0,0.3,0,0,0,0,
6.38224E+17,-31.09915,30.55531,47.3716,-71.77406,-2.295199,64.53521,-17.01029,-0.4441859,-4.27255,-61.51973,-6.98289,34.57793,0,0,0,-109.9913,0.8310775,13.99085,-36.10317,-110.6632,-50.33768,0.001067912,-0.1257102,0.09433498,0,0.3,0,0,0,0,
6.38224E+17,-32.98395,26.09007,42.93562,-69.28372,1.220569,60.87295,-17.01029,-0.4441859,-4.27255,-61.44649,-6.98289,34.57793,0,0,0,-114.6498,-15.633,8.303621,-36.10317,-110.6632,-50.33768,0.001067912,-0.1257102,0.09433498,0,0.3,0,0,0,0,
6.38224E+17,-33.8321,23.42496,40.46081,-67.89206,3.271434,59.26155,-17.01029,-0.4441859,-4.27255,-61.44649,-6.98289,34.57793,0,0,0,-116.3041,-25.09637,5.172545,-36.10317,-110.6632,-50.33768,0.001067912,-0.1257102,0.09433498,0,0.3,0,0,0,0,
6.38224E+17,-34.3033,18.39865,35.79136,-65.0355,7.299919,56.77122,-17.01029,-0.4441859,-4.27255,-61.51973,-6.98289,34.57793,0,0,0,-115.2629,-42.72832,0.5981377,-36.10317,-110.6632,-50.33768,0.001067912,-0.1257102,0.09433498,0,0.3,0,0,0,0,
6.38224E+17,-33.71431,14.23733,33.24651,-61.59297,10.59595,55.23307,-17.01029,-0.4441859,-4.27255,-61.51973,-6.98289,34.50468,0,0,0,-112.3216,-55.37727,-0.02188528,-36.10317,-110.6632,-50.33768,0.001067912,-0.1257102,0.09433498,0,0.3,0,0,0,0,
6.38224E+17,-33.10175,11.66572,32.63948,-59.46887,12.64682,54.42737,-17.01029,-0.4441859,-4.27255,-61.51973,-6.98289,34.57793,0,0,0,-110.6006,-61.97794,1.29974,-36.10317,-110.6632,-50.33768,0.001067912,-0.1257102,0.09433498,0,0.3,0,0,0,0,
6.38224E+17,-31.87663,9.538307,31.77563,-58.22369,15.06391,52.59624,-17.01029,-0.4441859,-4.27255,-61.51973,-6.98289,34.57793,0,0,0,-106.5308,-67.91605,2.954647,-36.10317,-110.6632,-50.33768,0.001067912,-0.1257102,0.09433498,0,0.3,0,0,0,0,
6.38224E+17,-28.97875,7.995345,29.76777,-57.05178,17.92047,48.64101,-17.01029,-0.4441859,-4.27255,-61.51973,-6.98289,34.57793,0,0,0,-96.0541,-73.85579,5.087838,-36.10317,-110.6632,-50.33768,0.001067912,-0.1257102,0.09433498,0,0.3,0,0,0,0,
6.38224E+17,-25.4212,7.621294,28.04007,-54.92767,20.33756,44.83226,-17.01029,-0.4441859,-4.27255,-61.44649,-6.98289,34.57793,0,0,0,-83.64672,-76.66174,7.641517,-36.10317,-110.6632,-50.33768,0.001067912,-0.1257102,0.09433498,0,0.3,0,0,0,0,
6.38224E+17,-21.58092,7.668051,26.9194,-51.92461,22.38842,41.53622,-17.01029,-0.4441859,-4.27255,-61.51973,-6.98289,34.57793,0,0,0,-70.81541,-77.7574,10.68343,-36.10317,-110.6632,-50.33768,0.001067912,-0.1257102,0.09433498,0,0.3,0,0,0,0,
6.38224E+17,-19.36629,7.597916,26.40576,-50.16673,23.26737,39.70509,-17.01029,-0.4441859,-4.27255,-61.51973,-6.98289,34.57793,0,0,0,-63.49704,-78.45562,12.29881,-36.10317,-110.6632,-50.33768,0.001067912,-0.1257102,0.09433498,0,0.3,0,0,0,0,
6.38224E+17,-14.72498,7.55116,25.09831,-46.21149,25.09849,35.96959,-17.01029,-0.4441859,-4.27255,-61.44649,-6.98289,34.57793,0,0,0,-47.97817,-79.88556,14.20767,-36.10317,-110.6632,-50.33768,0.001067912,-0.1257102,0.09433498,0,0.3,0,0,0,0,
6.38224E+17,-9.164824,7.995345,23.67413,-41.01108,26.63664,32.30733,-17.01029,-0.4441859,-4.27255,-61.44649,-6.909645,34.57793,0,0,0,-29.5612,-80.22979,14.87904,-36.10317,-110.6632,-50.33768,0.001067912,-0.1257102,0.09433498,0,0.3,0,0,0,0,
6.38224E+17,-5.79575,8.392776,23.18383,-37.49532,27.36909,30.4762,-17.01029,-0.4441859,-4.27255,-61.44649,-6.909645,34.57793,0,0,0,-18.62314,-79.76797,15.12678,-36.10317,-110.6632,-50.33768,0.001067912,-0.1257102,0.09433498,0,0.3,0,0,0,0,
6.38224E+17,1.083758,10.4033,23.16049,-29.58484,28.61426,28.2056,-17.01029,-0.4441859,-4.27255,-61.44649,-6.98289,34.57793,0,0,0,3.472718,-75.17311,15.22264,-36.10317,-110.6632,-50.33768,0.001067912,-0.1257102,0.09433498,0,0.3,0,0,0,0,
6.38224E+17,8.434465,14.7984,24.28116,-19.25727,28.61426,27.18017,-17.01029,-0.4441859,-4.27255,-61.51973,-6.98289,34.57793,0,0,0,26.95391,-64.14357,13.42479,-36.10317,-110.6632,-50.33768,0.001067912,-0.1257102,0.09433498,0,0.3,0,0,0,0,
6.38224E+17,11.85066,17.34663,25.42517,-13.76388,27.88181,26.88719,-17.01029,-0.4441859,-4.27255,-61.44649,-6.98289,34.57793,0,0,0,37.89668,-57.32608,12.25328,-36.10317,-110.6632,-50.33768,0.001067912,-0.1257102,0.09433498,0,0.3,0,0,0,0,
6.38224E+17,17.71709,21.99889,29.25412,-3.289821,25.02525,26.44772,-17.01029,-0.4441859,-4.27255,-61.51973,-6.98289,34.57793,0,0,0,57.45721,-43.04126,11.50198,-36.10317,-110.6632,-50.33768,0.001067912,-0.1257102,0.09433498,0,0.3,0,0,0,0,
6.38224E+17,22.40552,27.0252,34.624,7.037747,20.77703,25.20255,-17.01029,-0.4441859,-4.27255,-61.51973,-6.98289,34.57793,0,0,0,74.15725,-25.79162,11.51976,-36.10317,-110.6632,-50.33768,0.001067912,-0.1257102,0.09433498,0,0.3,0,0,0,0,
6.38224E+17,25.39764,31.98138,39.48022,14.72849,16.23583,22.78546,-17.01029,-0.4441859,-4.27255,-61.44649,-6.98289,34.57793,0,0,0,84.87704,-8.947423,10.41965,-36.10317,-110.6632,-50.33768,0.001067912,-0.1257102,0.09433498,0,0.3,0,0,0,0,
6.38224E+17,26.50496,34.76339,41.90834,18.46399,13.37927,20.73459,-17.01029,-0.4441859,-4.27255,-61.44649,-6.98289,34.57793,0,0,0,88.63864,0.1436903,9.393102,-36.10317,-110.6632,-50.33768,0.001067912,-0.1257102,0.09433498,0,0.3,0,0,0,0,
6.38224E+17,27.91855,40.09362,46.43771,24.32361,7.739389,16.19339,-17.01029,-0.4441859,-4.27255,-61.44649,-6.98289,34.57793,0,0,0,93.00673,17.33534,7.171679,-36.10317,-110.6632,-50.33768,0.001067912,-0.1257102,0.09433498,0,0.3,0,0,0,0,
6.38224E+17,28.29551,46.03168,50.80365,29.59726,1.000834,10.70001,-17.01029,-0.4441859,-4.27255,-61.51973,-6.98289,34.57793,0,0,0,92.87168,35.05064,4.16379,-36.10317,-110.6632,-50.33768,0.001067912,-0.1257102,0.09433498,0,0.3,0,0,0,0,
6.38224E+17,27.306,51.54894,54.04892,33.77223,-5.957458,6.451786,-17.01029,-0.4441859,-4.27255,-61.44649,-6.98289,34.57793,0,0,0,87.56132,49.49264,1.253396,-36.10317,-110.6632,-50.33768,0.001067912,-0.1257102,0.09433498,0,0.3,0,0,0,0,
6.38224E+17,24.69084,56.99606,55.70658,36.77529,-13.72145,3.009263,-17.01029,-0.4441859,-4.27255,-61.44649,-6.98289,34.57793,0,0,0,76.36127,60.04817,-2.258734,-36.10317,-110.6632,-50.33768,0.001067912,-0.1257102,0.09433498,0,0.3,0,0,0,0,
6.38224E+17,23.11232,59.07672,55.77662,37.288,-17.01748,2.203566,-17.01029,-0.4441859,-4.27255,-61.44649,-6.98289,34.57793,0,0,0,70.18046,62.7463,-3.912218,-36.10317,-110.6632,-50.33768,0.001067912,-0.1257102,0.09433498,0,0.3,0,0,0,0,
6.38224E+17,18.37677,63.02763,55.21629,36.40906,-24.12226,2.057076,-17.01029,-0.4441859,-4.27255,-61.51973,-6.98289,34.57793,0,0,0,53.59625,66.12138,-7.01536,-36.10317,-110.6632,-50.33768,0.001067912,-0.1257102,0.09433498,0,0.3,0,0,0,0,
6.38224E+17,12.43966,65.41221,53.55863,31.79461,-30.56783,6.451786,-17.01029,-0.4441859,-4.27255,-61.51973,-6.98289,34.57793,0,0,0,35.06048,65.39857,-9.410446,-36.10317,-110.6632,-50.33768,0.001067912,-0.1257102,0.09433498,0,0.3,0,0,0,0,
6.38224E+17,9.282625,65.76289,52.22783,28.13236,-33.13141,10.55352,-17.01029,-0.4441859,-4.27255,-61.44649,-6.98289,34.57793,0,0,0,25.83274,63.26582,-10.29832,-36.10317,-110.6632,-50.33768,0.001067912,-0.1257102,0.09433498,0,0.3,0,0,0,0,
6.38224E+17,2.238196,64.75762,48.2588,16.12015,-36.64718,23.15168,-17.01029,-0.4441859,-4.27255,-61.44649,-6.909645,34.57793,0,0,0,6.106761,55.18662,-12.10201,-36.10317,-110.6632,-50.33768,0.001067912,-0.1257102,0.09433498,0,0.3,0,0,0,0,
6.38224E+17,-4.005194,61.41454,43.28583,1.471115,-36.06122,35.74985,-17.01029,-0.4441859,-4.27255,-61.51973,-6.98289,34.57793,0,0,0,-10.84259,43.37411,-13.4954,-36.10317,-110.6632,-50.33768,0.001067912,-0.1257102,0.09433498,0,0.3,0,0,0,0,
6.38224E+17,-9.188385,55.64013,37.47236,-12.81169,-31.52002,44.97874,-17.01029,-0.4441859,-4.27255,-61.51973,-6.98289,34.50468,0,0,0,-24.97229,27.5988,-13.9681,-36.10317,-110.6632,-50.33768,0.001067912,-0.1257102,0.09433498,0,0.3,0,0,0,0,
6.38224E+17,-11.02606,52.3438,34.69404,-18.59806,-28.37048,47.61557,-17.01029,-0.4441859,-4.27255,-61.44649,-6.98289,34.57793,0,0,0,-30.09758,19.28115,-13.88651,-36.10317,-110.6632,-50.33768,0.001067912,-0.1257102,0.09433498,0,0.3,0,0,0,0,
6.38224E+17,-13.33494,45.72776,29.72107,-27.24099,-20.89947,49.66644,-17.01029,-0.4441859,-4.27255,-61.44649,-6.98289,34.57793,0,0,0,-36.71825,3.025038,-13.44285,-36.10317,-110.6632,-50.33768,0.001067912,-0.1257102,0.09433498,0,0.3,0,0,0,0,
6.38224E+17,-13.9475,39.97673,25.98551,-32.73438,-12.98899,49.51994,-17.01029,-0.4441859,-4.27255,-61.44649,-6.98289,34.57793,0,0,0,-38.71305,-10.84474,-12.47205,-36.10317,-110.6632,-50.33768,0.001067912,-0.1257102,0.09433498,0,0.3,0,0,0,0,
6.38224E+17,-13.52342,35.37122,23.11379,-34.93173,-5.957458,48.42127,-17.01029,-0.4441859,-4.27255,-61.44649,-6.98289,34.57793,0,0,0,-37.66827,-22.10306,-11.73238,-36.10317,-110.6632,-50.33768,0.001067912,-0.1257102,0.09433498,0,0.3,0,0,0,0,
6.38224E+17,-12.93442,32.51908,21.59622,-35.44445,-2.002218,47.10286,-17.01029,-0.4441859,-4.27255,-61.44649,-6.98289,34.57793,0,0,0,-36.15474,-28.95258,-10.92474,-36.10317,-110.6632,-50.33768,0.001067912,-0.1257102,0.09433498,0,0.3,0,0,0,0,
6.38224E+17,-12.51034,30.8826,20.9425,-35.66418,0.1951368,46.15067,-17.01029,-0.4441859,-4.27255,-61.51973,-6.98289,34.57793,0,0,0,-35.11496,-32.74486,-10.09178,-36.10317,-110.6632,-50.33768,0.001067912,-0.1257102,0.09433498,0,0.3,0,0,0,0,
6.38224E+17,-11.37946,27.70317,20.102,-35.59094,3.857395,43.80682,-17.01029,-0.4441859,-4.27255,-61.44649,-6.98289,34.57793,0,0,0,-32.33749,-39.8834,-7.676666,-36.10317,-110.6632,-50.33768,0.001067912,-0.1257102,0.09433498,0,0.3,0,0,0,0,
6.38224E+17,-10.10722,24.2432,19.96191,-34.27253,7.446409,41.24324,-17.01029,-0.4441859,-4.27255,-61.44649,-6.98289,34.57793,0,0,0,-29.32716,-47.23338,-3.8284,-36.10317,-110.6632,-50.33768,0.001067912,-0.1257102,0.09433498,0,0.3,0,0,0,0,
6.38224E+17,-9.659584,22.8405,20.28877,-32.95412,9.131048,40.43755,-17.01029,-0.4441859,-4.27255,-61.44649,-6.909645,34.57793,0,0,0,-28.37955,-49.96446,-1.614706,-36.10317,-110.6632,-50.33768,0.001067912,-0.1257102,0.09433498,0,0.3,0,0,0,0,
6.38224E+17,-9.541784,20.92349,21.47948,-29.21861,11.69463,39.92483,-17.01029,-0.4441859,-4.27255,-61.51973,-6.98289,34.57793,0,0,0,-28.74151,-53.11659,2.636374,-36.10317,-110.6632,-50.33768,0.001067912,-0.1257102,0.09433498,0,0.3,0,0,0,0,
6.38224E+17,-10.57842,20.24553,22.92702,-24.60417,13.01304,41.02351,-17.01029,-0.4441859,-4.27255,-61.51973,-6.98289,34.57793,0,0,0,-32.5047,-53.32066,5.699815,-36.10317,-110.6632,-50.33768,0.001067912,-0.1257102,0.09433498,0,0.3,0,0,0,0,
6.38224E+17,-11.66218,20.15201,24.14107,-22.26032,13.01304,42.41516,-17.01029,-0.4441859,-4.27255,-61.51973,-6.98289,34.57793,0,0,0,-36.32971,-52.39669,7.664525,-36.10317,-110.6632,-50.33768,0.001067912,-0.1257102,0.09433498,0,0.3,0,0,0,0,
6.38224E+17,-15.43177,19.96499,27.15287,-19.76999,12.79331,45.85769,-17.01029,-0.4441859,-4.27255,-61.51973,-6.98289,34.57793,0,0,0,-49.54404,-49.77197,11.12968,-36.10317,-110.6632,-50.33768,0.001067912,-0.1257102,0.09433498,0,0.3,0,0,0,0,
6.38224E+17,-18.89509,19.89485,29.39421,-21.67436,12.72006,47.54232,-17.01029,-0.4441859,-4.27255,-61.51973,-6.98289,34.57793,0,0,0,-61.80149,-47.45464,12.2079,-36.10317,-110.6632,-50.33768,0.001067912,-0.1257102,0.09433498,0,0.3,0,0,0,0,
6.38224E+17,-20.73277,19.89485,30.56157,-24.09145,12.86655,47.9818,-17.01029,-0.4441859,-4.27255,-61.51973,-6.98289,34.57793,0,0,0,-68.39297,-46.09711,12.33419,-36.10317,-110.6632,-50.33768,0.001067912,-0.1257102,0.09433498,0,0.3,0,0,0,0,
6.38224E+17,-22.90028,20.22215,31.77563,-30.9765,13.30602,47.10286,-17.01029,-0.4441859,-4.27255,-61.51973,-6.98289,34.57793,0,0,0,-76.01686,-43.91919,11.60465,-36.10317,-110.6632,-50.33768,0.001067912,-0.1257102,0.09433498,0,0.3,0,0,0,0,
6.38224E+17,-22.64112,21.25079,30.88843,-37.56856,14.03847,44.24629,-17.01029,-0.4441859,-4.27255,-61.51973,-6.98289,34.57793,0,0,0,-74.19685,-42.75396,9.536524,-36.10317,-110.6632,-50.33768,0.001067912,-0.1257102,0.09433498,0,0.3,0,0,0,0,
6.38224E+17,-20.73277,22.6301,28.46032,-42.40274,14.99066,40.43755,-17.01029,-0.4441859,-4.27255,-61.51973,-6.909645,34.57793,0,0,0,-66.06922,-42.57385,6.195178,-36.10317,-110.6632,-50.33768,0.001067912,-0.1257102,0.09433498,0,0.3,0,0,0,0,
6.38224E+17,-16.98673,24.2432,24.77145,-44.38036,15.8696,35.09065,-17.01029,-0.4441859,-4.27255,-61.51973,-6.98289,34.57793,0,0,0,-51.84603,-42.97506,1.371274,-36.10317,-110.6632,-50.33768,0.001067912,-0.1257102,0.09433498,0,0.3,0,0,0,0,
6.38224E+17,-14.60718,25.08481,23.13714,-44.16063,16.23583,32.16084,-17.01029,-0.4441859,-4.27255,-61.44649,-6.909645,34.57793,0,0,0,-43.6719,-42.73928,-0.7770361,-36.10317,-110.6632,-50.33768,0.001067912,-0.1257102,0.09433498,0,0.3,0,0,0,0,
6.38224E+17,-10.10722,26.32386,21.17597,-41.45055,16.30907,26.52096,-17.01029,-0.4441859,-4.27255,-61.51973,-6.98289,34.57793,0,0,0,-29.42847,-41.86228,-3.260063,-36.10317,-110.6632,-50.33768,0.001067912,-0.1257102,0.09433498,0,0.3,0,0,0,0,
6.38224E+17,-7.633427,26.67453,21.59622,-38.15452,15.8696,22.34599,-17.01029,-0.4441859,-4.27255,-61.51973,-6.98289,34.57793,0,0,0,-22.34796,-40.77521,-1.601969,-36.10317,-110.6632,-50.33768,0.001067912,-0.1257102,0.09433498,0,0.3,0,0,0,0,
6.38224E+17,-7.256468,27.16547,23.41731,-36.03041,14.69768,19.19645,-17.01029,-0.4441859,-4.27255,-61.44649,-6.98289,34.57793,0,0,0,-21.67964,-38.13405,1.912329,-36.10317,-110.6632,-50.33768,0.001067912,-0.1257102,0.09433498,0,0.3,0,0,0,0,
6.38224E+17,-7.515628,27.28236,24.46794,-35.73743,13.89198,17.95128,-17.01029,-0.4441859,-4.27255,-61.44649,-6.98289,34.57793,0,0,0,-22.72556,-36.89983,3.90473,-36.10317,-110.6632,-50.33768,0.001067912,-0.1257102,0.09433498,0,0.3,0,0,0,0,
6.38224E+17,-8.434465,27.07196,26.17229,-36.54313,11.76787,15.97366,-17.01029,-0.4441859,-4.27255,-61.44649,-6.98289,34.57793,0,0,0,-26.04365,-35.63906,7.286113,-36.10317,-110.6632,-50.33768,0.001067912,-0.1257102,0.09433498,0,0.3,0,0,0,0,
6.38224E+17,-9.753823,26.20697,27.26961,-38.66724,9.570518,13.92279,-17.01029,-0.4441859,-4.27255,-61.51973,-6.98289,34.57793,0,0,0,-30.62017,-36.29018,9.77765,-36.10317,-110.6632,-50.33768,0.001067912,-0.1257102,0.09433498,0,0.3,0,0,0,0,
6.38224E+17,-10.5313,25.41211,27.47973,-40.20539,8.618331,12.38465,-17.01029,-0.4441859,-4.27255,-61.44649,-6.909645,34.57793,0,0,0,-33.26097,-37.73072,10.56459,-36.10317,-110.6632,-50.33768,0.001067912,-0.1257102,0.09433498,0,0.3,0,0,0,0,
6.38224E+17,-11.45014,23.40158,27.10618,-43.42817,7.519653,7.623709,-17.01029,-0.4441859,-4.27255,-61.51973,-6.98289,34.50468,0,0,0,-36.35622,-42.39028,11.14592,-36.10317,-110.6632,-50.33768,0.001067912,-0.1257102,0.09433498,0,0.3,0,0,0,0,
6.38224E+17,-11.07318,21.15727,26.33572,-45.55228,7.666144,1.983831,-17.01029,-0.4441859,-4.27255,-61.51973,-6.98289,34.57793,0,0,0,-35.24721,-48.0297,11.75272,-36.10317,-110.6632,-50.33768,0.001067912,-0.1257102,0.09433498,0,0.3,0,0,0,0,
6.38224E+17,-10.6491,20.31566,26.17229,-45.62553,8.105616,-0.140279,-17.01029,-0.4441859,-4.27255,-61.51973,-6.98289,34.57793,0,0,0,-33.97834,-50.02982,12.355,-36.10317,-110.6632,-50.33768,0.001067912,-0.1257102,0.09433498,0,0.3,0,0,0,0,
6.38224E+17,-10.27214,20.52606,26.75597,-44.81983,9.570518,-2.70386,-17.01029,-0.4441859,-4.27255,-61.44649,-6.909645,34.57793,0,0,0,-32.97511,-48.96553,13.60313,-36.10317,-110.6632,-50.33768,0.001067912,-0.1257102,0.09433498,0,0.3,0,0,0,0,
6.38224E+17,-10.7669,23.49509,28.69379,-44.45361,10.30297,-3.656047,-17.01029,-0.4441859,-4.27255,-61.44649,-6.98289,34.57793,0,0,0,-34.80709,-40.46167,14.68954,-36.10317,-110.6632,-50.33768,0.001067912,-0.1257102,0.09433498,0,0.3,0,0,0,0,
6.38224E+17,-11.30878,25.85629,30.02458,-44.89308,10.00999,-3.509557,-17.01029,-0.4441859,-4.27255,-61.44649,-6.98289,34.57793,0,0,0,-36.6161,-33.94987,14.74964,-36.10317,-110.6632,-50.33768,0.001067912,-0.1257102,0.09433498,0,0.3,0,0,0,0,
6.38224E+17,-11.99202,31.63071,33.43328,-46.79745,8.03237,-2.264389,-17.01029,-0.4441859,-4.27255,-61.44649,-6.98289,34.57793,0,0,0,-38.85642,-17.99992,14.58035,-36.10317,-110.6632,-50.33768,0.001067912,-0.1257102,0.09433498,0,0.3,0,0,0,0,
6.38224E+17,-12.01558,38.34025,37.986,-49.1413,4.443357,0.006211365,-17.01029,-0.4441859,-4.27255,-61.51973,-6.98289,34.57793,0,0,0,-38.85941,0.9697456,14.22499,-36.10317,-110.6632,-50.33768,0.001067912,-0.1257102,0.09433498,0,0.3,0,0,0,0,
6.38224E+17,-11.45014,45.16669,44.17303,-51.77813,-0.5373149,3.302244,-17.01029,-0.4441859,-4.27255,-61.51973,-6.98289,34.57793,0,0,0,-37.1104,22.27283,14.86941,-36.10317,-110.6632,-50.33768,0.001067912,-0.1257102,0.09433498,0,0.3,0,0,0,0,
6.38224E+17,-11.04962,48.20586,47.48834,-53.38951,-3.393876,5.353109,-17.01029,-0.4441859,-4.27255,-61.44649,-6.909645,34.57793,0,0,0,-35.87274,32.65834,15.34971,-36.10317,-110.6632,-50.33768,0.001067912,-0.1257102,0.09433498,0,0.3,0,0,0,0,
6.38224E+17,-10.0601,53.27893,53.51193,-57.5645,-9.326735,10.33378,-17.01029,-0.4441859,-4.27255,-61.44649,-6.98289,34.57793,0,0,0,-32.6555,50.94017,15.71922,-36.10317,-110.6632,-50.33768,0.001067912,-0.1257102,0.09433498,0,0.3,0,0,0,0,
6.38224E+17,-9.070585,56.69214,57.99461,-63.49735,-16.13853,16.70611,-17.01029,-0.4441859,-4.27255,-61.44649,-6.909645,34.57793,0,0,0,-29.37167,64.11949,15.62823,-36.10317,-110.6632,-50.33768,0.001067912,-0.1257102,0.09433498,0,0.3,0,0,0,0,
6.38224E+17,-8.905665,57.29997,58.13469,-66.35391,-18.84861,19.41618,-17.01029,-0.4441859,-4.27255,-61.44649,-6.909645,34.57793,0,0,0,-28.68502,65.16674,14.71031,-36.10317,-110.6632,-50.33768,0.001067912,-0.1257102,0.09433498,0,0.3,0,0,0,0,
6.38224E+17,-9.023465,57.29997,57.27084,-67.52583,-20.09377,20.51486,-17.01029,-0.4441859,-4.27255,-61.51973,-6.98289,34.57793,0,0,0,-28.89285,63.46729,13.59001,-36.10317,-110.6632,-50.33768,0.001067912,-0.1257102,0.09433498,0,0.3,0,0,0,0,
6.38224E+17,-9.918744,56.45836,52.62474,-67.89206,-21.41219,21.76003,-17.01029,-0.4441859,-4.27255,-61.44649,-6.909645,34.57793,0,0,0,-30.94526,53.54733,8.616489,-36.10317,-110.6632,-50.33768,0.001067912,-0.1257102,0.09433498,0,0.3,0,0,0,0,
6.38224E+17,-11.5915,53.0919,45.17696,-65.32848,-21.11921,19.1232,-17.01029,-0.4441859,-4.27255,-61.51973,-6.98289,34.57793,0,0,0,-35.09581,35.97561,2.752304,-36.10317,-110.6632,-50.33768,0.001067912,-0.1257102,0.09433498,0,0.3,0,0,0,0,
6.38224E+17,-13.3585,46.70965,36.53847,-61.66622,-18.26265,12.60438,-17.01029,-0.4441859,-4.27255,-61.51973,-6.98289,34.57793,0,0,0,-39.46891,13.27287,-2.142933,-36.10317,-110.6632,-50.33768,0.001067912,-0.1257102,0.09433498,0,0.3,0,0,0,0,
6.38224E+17,-13.9475,42.59509,32.14919,-59.76185,-16.28502,8.50265,-17.01029,-0.4441859,-4.27255,-61.44649,-6.98289,34.57793,0,0,0,-40.76471,0.7001557,-4.211084,-36.10317,-110.6632,-50.33768,0.001067912,-0.1257102,0.09433498,0,0.3,0,0,0,0,
6.38224E+17,-14.20666,33.52435,24.95823,-55.9531,-10.42541,0.5189275,-17.01029,-0.4441859,-4.27255,-61.44649,-6.909645,34.57793,0,0,0,-41.092,-23.89916,-6.035293,-36.10317,-110.6632,-50.33768,0.001067912,-0.1257102,0.09433498,0,0.3,0,0,0,0,
6.38224E+17,-13.73546,24.38347,20.91915,-51.92461,-3.174141,-4.901215,-17.01029,-0.4441859,-4.27255,-61.44649,-6.909645,34.57793,0,0,0,-40.14344,-46.15783,-4.116745,-36.10317,-110.6632,-50.33768,0.001067912,-0.1257102,0.09433498,0,0.3,0,0,0,0,
6.38224E+17,-13.33494,20.66633,20.03195,-50.45971,0.5613627,-6.732344,-17.01029,-0.4441859,-4.27255,-61.44649,-6.98289,34.57793,0,0,0,-39.31252,-54.87,-2.498131,-36.10317,-110.6632,-50.33768,0.001067912,-0.1257102,0.09433498,0,0.3,0,0,0,0,
6.38224E+17,-12.25118,14.56462,19.49497,-47.38342,8.178861,-9.295925,-17.01029,-0.4441859,-4.27255,-61.44649,-6.909645,34.57793,0,0,0,-36.8305,-68.8214,1.264168,-36.10317,-110.6632,-50.33768,0.001067912,-0.1257102,0.09433498,0,0.3,0,0,0,0,
6.38224E+17,-11.16742,12.41383,19.89187,-44.08738,14.77092,-10.46785,-17.01029,-0.4441859,-4.27255,-61.44649,-6.98289,34.57793,0,0,0,-34.01041,-73.37748,3.929168,-36.10317,-110.6632,-50.33768,0.001067912,-0.1257102,0.09433498,0,0.3,0,0,0,0,
6.38224E+17,-11.1203,12.88139,20.4522,-42.40274,17.62749,-10.68758,-17.01029,-0.4441859,-4.27255,-61.44649,-6.98289,34.57793,0,0,0,-34.05885,-71.86597,4.924426,-36.10317,-110.6632,-50.33768,0.001067912,-0.1257102,0.09433498,0,0.3,0,0,0,0,
6.38224E+17,-13.45274,18.7727,24.53798,-40.0589,22.60816,-9.66215,-17.01029,-0.4441859,-4.27255,-61.44649,-6.98289,34.57793,0,0,0,-42.25636,-55.04269,8.302204,-36.10317,-110.6632,-50.33768,0.001067912,-0.1257102,0.09433498,0,0.3,0,0,0,0,
6.38224E+17,-15.40822,23.61198,27.85329,-40.79135,22.75465,-8.563474,-17.01029,-0.4441859,-4.27255,-61.51973,-6.98289,34.57793,0,0,0,-49.01745,-41.13888,9.507141,-36.10317,-110.6632,-50.33768,0.001067912,-0.1257102,0.09433498,0,0.3,0,0,0,0,
6.38224E+17,-16.58621,26.74467,30.11797,-41.5238,22.16869,-7.464796,-17.01029,-0.4441859,-4.27255,-61.44649,-6.98289,34.57793,0,0,0,-53.09428,-31.98742,9.90788,-36.10317,-110.6632,-50.33768,0.001067912,-0.1257102,0.09433498,0,0.3,0,0,0,0,
6.38224E+17,-18.80085,32.65935,35.39445,-43.42817,19.60511,-4.022273,-17.01029,-0.4441859,-4.27255,-61.44649,-6.909645,34.57793,0,0,0,-61.07303,-13.39335,11.04213,-36.10317,-110.6632,-50.33768,0.001067912,-0.1257102,0.09433498,0,0.3,0,0,0,0,
6.38224E+17,-20.96836,37.77918,40.90441,-45.77202,16.16258,0.5189275,-17.01029,-0.4441859,-4.27255,-61.51973,-6.909645,34.57793,0,0,0,-68.96329,4.256515,11.60241,-36.10317,-110.6632,-50.33768,0.001067912,-0.1257102,0.09433498,0,0.3,0,0,0,0,
6.38224E+17,-22.2406,40.23389,44.0096,-47.31017,13.89198,3.66847,-17.01029,-0.4441859,-4.27255,-61.51973,-6.909645,34.57793,0,0,0,-73.59872,13.57356,11.63345,-36.10317,-110.6632,-50.33768,0.001067912,-0.1257102,0.09433498,0,0.3,0,0,0,0,
6.38224E+17,-24.50236,43.55359,49.02925,-50.6062,9.570518,9.381593,-17.01029,-0.4441859,-4.27255,-61.44649,-6.98289,34.57793,0,0,0,-81.83797,27.79845,11.20743,-36.10317,-110.6632,-50.33768,0.001067912,-0.1257102,0.09433498,0,0.3,0,0,0,0,
6.38224E+17,-26.41072,45.00304,52.60139,-55.07415,5.688524,14.21577,-17.01029,-0.4441859,-4.27255,-61.44649,-6.98289,34.57793,0,0,0,-89.06055,36.6567,10.97709,-36.10317,-110.6632,-50.33768,0.001067912,-0.1257102,0.09433498,0,0.3,0,0,0,0,
6.38224E+17,-27.14108,45.07318,53.37185,-57.78423,4.077131,16.0469,-17.01029,-0.4441859,-4.27255,-61.44649,-6.98289,34.57793,0,0,0,-91.77892,38.20386,10.68511,-36.10317,-110.6632,-50.33768,0.001067912,-0.1257102,0.09433498,0,0.3,0,0,0,0,
6.38224E+17,-27.82431,44.7225,52.39126,-63.20437,2.319247,17.80479,-17.01029,-0.4441859,-4.27255,-61.44649,-6.909645,34.57793,0,0,0,-93.53335,35.80594,8.869455,-36.10317,-110.6632,-50.33768,0.001067912,-0.1257102,0.09433498,0,0.3,0,0,0,0,
6.38224E+17,-27.75363,44.16143,49.47286,-66.5004,1.733285,15.97366,-17.01029,-0.4441859,-4.27255,-61.44649,-6.98289,34.57793,0,0,0,-91.74722,29.60066,6.005944,-36.10317,-110.6632,-50.33768,0.001067912,-0.1257102,0.09433498,0,0.3,0,0,0,0,
6.38224E+17,-27.44736,43.31981,46.60114,-68.03855,1.51355,12.97061,-17.01029,-0.4441859,-4.27255,-61.51973,-6.98289,34.57793,0,0,0,-89.37841,23.21624,3.730187,-36.10317,-110.6632,-50.33768,0.001067912,-0.1257102,0.09433498,0,0.3,0,0,0,0,
6.38224E+17,-25.96308,39.20525,39.17671,-68.771,1.66004,4.327676,-17.01029,-0.4441859,-4.27255,-61.51973,-6.98289,34.57793,0,0,0,-82.11671,4.267474,0.2899568,-36.10317,-110.6632,-50.33768,0.001067912,-0.1257102,0.09433498,0,0.3,0,0,0,0,
6.38224E+17,-23.13588,31.56057,31.89237,-65.91444,3.78415,-4.97446,-17.01029,-0.4441859,-4.27255,-61.44649,-6.909645,34.57793,0,0,0,-72.32665,-20.07441,0.923645,-36.10317,-110.6632,-50.33768,0.001067912,-0.1257102,0.09433498,0,0.3,0,0,0,0,
6.38224E+17,-19.17781,24.66401,28.78718,-60.71403,8.618331,-10.68758,-17.01029,-0.4441859,-4.27255,-61.51973,-6.98289,34.57793,0,0,0,-60.90414,-37.87342,6.761218,-36.10317,-110.6632,-50.33768,0.001067912,-0.1257102,0.09433498,0,0.3,0,0,0,0,
6.38224E+17,-17.76421,24.03279,28.6004,-55.00091,14.11172,-10.10162,-17.01029,-0.4441859,-4.27255,-61.44649,-6.98289,34.57793,0,0,0,-56.63416,-39.42054,8.424049,-36.10317,-110.6632,-50.33768,0.001067912,-0.1257102,0.09433498,0,0.3,0,0,0,0,
6.38224E+17,-18.18829,25.529,28.69379,-53.31627,15.35689,-8.783209,-17.01029,-0.4441859,-4.27255,-61.44649,-6.98289,34.57793,0,0,0,-57.54496,-36.15482,6.794624,-36.10317,-110.6632,-50.33768,0.001067912,-0.1257102,0.09433498,0,0.3,0,0,0,0,
6.38224E+17,-18.82441,28.94222,28.22684,-53.31627,14.47795,-7.171815,-17.01029,-0.4441859,-4.27255,-61.44649,-6.98289,34.57793,0,0,0,-58.00471,-29.61057,1.800067,-36.10317,-110.6632,-50.33768,0.001067912,-0.1257102,0.09433498,0,0.3,0,0,0,0,
6.38224E+17,-17.19877,29.80721,26.61588,-55.29389,11.69463,-10.76083,-17.01029,-0.4441859,-4.27255,-61.44649,-6.98289,34.57793,0,0,0,-51.87836,-29.58287,-0.7453859,-36.10317,-110.6632,-50.33768,0.001067912,-0.1257102,0.09433498,0,0.3,0,0,0,0,
6.38224E+17,-15.73805,29.31627,25.61195,-55.51363,10.59595,-13.03143,-17.01029,-0.4441859,-4.27255,-61.44649,-6.98289,34.57793,0,0,0,-47.17283,-31.60518,-0.9541603,-36.10317,-110.6632,-50.33768,0.001067912,-0.1257102,0.09433498,0,0.3,0,0,0,0,
6.38224E+17,-12.81662,28.40452,24.86484,-53.53601,9.936745,-15.30203,-17.01029,-0.4441859,-4.27255,-61.51973,-6.98289,34.57793,0,0,0,-38.45824,-34.20502,0.6975928,-36.10317,-110.6632,-50.33768,0.001067912,-0.1257102,0.09433498,0,0.3,0,0,0,0,
6.38224E+17,-11.73286,28.59154,25.51856,-50.31322,10.15648,-13.83713,-17.01029,-0.4441859,-4.27255,-61.51973,-6.98289,34.57793,0,0,0,-35.49172,-33.17487,2.539397,-36.10317,-110.6632,-50.33768,0.001067912,-0.1257102,0.09433498,0,0.3,0,0,0,0,
6.38224E+17,-12.1805,28.87208,26.42911,-48.40885,10.00999,-11.71302,-17.01029,-0.4441859,-4.27255,-61.44649,-6.909645,34.57793,0,0,0,-37.16148,-31.67422,3.81233,-36.10317,-110.6632,-50.33768,0.001067912,-0.1257102,0.09433498,0,0.3,0,0,0,0,
6.38224E+17,-12.62814,28.94222,26.73262,-48.18911,9.8635,-10.90732,-17.01029,-0.4441859,-4.27255,-61.44649,-6.98289,34.57793,0,0,0,-38.62626,-31.21524,4.056201,-36.10317,-110.6632,-50.33768,0.001067912,-0.1257102,0.09433498,0,0.3,0,0,0,0,
6.38224E+17,-13.61766,28.96559,26.96609,-48.18911,9.790254,-9.735395,-17.01029,-0.4441859,-4.27255,-61.44649,-6.98289,34.57793,0,0,0,-41.70581,-30.92221,3.80901,-36.10317,-110.6632,-50.33768,0.001067912,-0.1257102,0.09433498,0,0.3,0,0,0,0,
6.38224E+17,-14.56006,28.96559,27.05948,-48.62858,9.790254,-9.002944,-17.01029,-0.4441859,-4.27255,-61.44649,-6.98289,34.57793,0,0,0,-44.58039,-30.82349,3.287201,-36.10317,-110.6632,-50.33768,0.001067912,-0.1257102,0.09433498,0,0.3,0,0,0,0,
6.38224E+17,-15.69093,28.96559,27.54977,-49.58077,9.936745,-7.904267,-17.01029,-0.4441859,-4.27255,-61.44649,-6.98289,34.57793,0,0,0,-48.23341,-30.30005,3.350094,-36.10317,-110.6632,-50.33768,0.001067912,-0.1257102,0.09433498,0,0.3,0,0,0,0,
6.38224E+17,-13.92394,30.48518,26.82601,-52.29084,10.00999,-8.124002,-17.01029,-0.4441859,-4.27255,-61.51973,-6.98289,34.57793,0,0,0,-42.13356,-27.9985,1.599333,-36.10317,-110.6632,-50.33768,0.001067912,-0.1257102,0.09433498,0,0.3,0,0,0,0,
6.38224E+17,-8.646505,33.66461,23.11379,-54.19521,10.15648,-9.22268,-17.01029,-0.4441859,-4.27255,-61.51973,-6.98289,34.57793,0,0,0,-24.55535,-25.37563,-6.871909,-36.10317,-110.6632,-50.33768,0.001067912,-0.1257102,0.09433498,0,0.3,0,0,0,0,
6.38224E+17,10.71978,40.5378,18.51438,-47.89613,9.204292,-11.12705,-17.01029,-0.4441859,-4.27255,-61.51973,-6.98289,34.57793,0,0,0,26.72668,-16.42755,-27.17025,-36.10317,-110.6632,-50.33768,0.001067912,-0.1257102,0.09433498,0,0.3,0,0,0,0,
6.38224E+17,23.23012,40.28064,15.38585,-30.90325,6.420976,-12.006,-17.01029,-0.4441859,-4.27255,-61.51973,-6.98289,34.57793,0,0,0,54.08006,-19.00581,-42.35475,-36.10317,-110.6632,-50.33768,0.001067912,-0.1257102,0.09433498,0,0.3,0,0,0,0,
6.38224E+17,24.361,38.5039,13.00443,-23.06602,5.615279,-12.95818,-17.01029,-0.4441859,-4.27255,-61.51973,-6.98289,34.57793,0,0,0,55.42241,-23.5605,-45.9506,-36.10317,-110.6632,-50.33768,0.001067912,-0.1257102,0.09433498,0,0.3,0,0,0,0,
6.38224E+17,22.16992,33.92177,8.755224,-12.95818,6.420976,-17.49938,-17.01029,-0.4441859,-4.27255,-61.51973,-6.98289,34.57793,0,0,0,49.41518,-34.02879,-47.07986,-36.10317,-110.6632,-50.33768,0.001067912,-0.1257102,0.09433498,0,0.3,0,0,0,0,
6.38224E+17,18.18829,30.90598,7.77464,-11.2003,9.8635,-21.45462,-17.01029,-0.4441859,-4.27255,-61.44649,-6.98289,34.57793,0,0,0,41.3446,-40.28154,-42.513,-36.10317,-110.6632,-50.33768,0.001067912,-0.1257102,0.09433498,0,0.3,0,0,0,0,
6.38224E+17,16.30349,30.74234,8.428363,-13.76388,14.11172,-23.65198,-17.01029,-0.4441859,-4.27255,-61.51973,-6.98289,34.57793,0,0,0,37.66109,-40.3942,-39.58824,-36.10317,-110.6632,-50.33768,0.001067912,-0.1257102,0.09433498,0,0.3,0,0,0,0,
6.38224E+17,16.72757,31.77098,8.918655,-15.15554,16.08934,-23.79847,-17.01029,-0.4441859,-4.27255,-61.44649,-6.98289,34.57793,0,0,0,38.58024,-38.17558,-39.97983,-36.10317,-110.6632,-50.33768,0.001067912,-0.1257102,0.09433498,0,0.3,0,0,0,0,
6.38224E+17,17.36369,32.7061,9.175476,-15.30203,16.74854,-23.13926,-17.01029,-0.4441859,-4.27255,-61.44649,-6.98289,34.57793,0,0,0,39.83273,-36.24073,-40.96075,-36.10317,-110.6632,-50.33768,0.001067912,-0.1257102,0.09433498,0,0.3,0,0,0,0,
6.38224E+17,17.71709,32.84638,9.198823,-14.86256,16.60205,-22.62654,-17.01029,-0.4441859,-4.27255,-61.44649,-6.98289,34.57793,0,0,0,40.58025,-35.95757,-41.32612,-36.10317,-110.6632,-50.33768,0.001067912,-0.1257102,0.09433498,0,0.3,0,0,0,0,
6.38224E+17,17.78777,32.77624,9.175476,-14.64282,16.45556,-22.48005,-17.01029,-0.4441859,-4.27255,-61.51973,-6.98289,34.57793,0,0,0,40.74754,-36.10343,-41.34313,-36.10317,-110.6632,-50.33768,0.001067912,-0.1257102,0.09433498,0,0.3,0,0,0,0,
6.38224E+17,17.97625,32.79962,9.595726,-14.2766,16.30907,-22.26032,-17.01029,-0.4441859,-4.27255,-61.51973,-6.98289,34.57793,0,0,0,41.45385,-35.89819,-40.588,-36.10317,-110.6632,-50.33768,0.001067912,-0.1257102,0.09433498,0,0.3,0,0,0,0,
6.38224E+17,18.02337,32.79962,9.89924,-14.20335,16.30907,-22.26032,-17.01029,-0.4441859,-4.27255,-61.44649,-6.98289,34.57793,0,0,0,41.77431,-35.77859,-39.96009,-36.10317,-110.6632,-50.33768,0.001067912,-0.1257102,0.09433498,0,0.3,0,0,0,0,
6.38224E+17,18.07049,32.86975,10.24945,-14.13011,16.38232,-22.26032,-17.01029,-0.4441859,-4.27255,-61.44649,-6.909645,34.57793,0,0,0,42.10136,-35.49886,-39.31571,-36.10317,-110.6632,-50.33768,0.001067912,-0.1257102,0.09433498,0,0.3,0,0,0,0,
6.38224E+17,18.07049,32.89313,10.24945,-14.13011,16.23583,-22.26032,-17.01029,-0.4441859,-4.27255,-61.44649,-6.909645,34.57793,0,0,0,42.0922,-35.45316,-39.34379,-36.10317,-110.6632,-50.33768,0.001067912,-0.1257102,0.09433498,0,0.3,0,0,0,0,
6.38224E+17,18.04693,32.89313,10.24945,-14.13011,16.08934,-22.26032,-17.01029,-0.4441859,-4.27255,-61.51973,-6.98289,34.57793,0,0,0,42.03915,-35.45316,-39.3265,-36.10317,-110.6632,-50.33768,0.001067912,-0.1257102,0.09433498,0,0.3,0,0,0,0,
6.38224E+17,17.50505,33.01003,10.34284,-13.83713,15.94285,-22.26032,-17.01029,-0.4441859,-4.27255,-61.44649,-6.909645,34.57793,0,0,0,40.83685,-35.18603,-38.87186,-36.10317,-110.6632,-50.33768,0.001067912,-0.1257102,0.09433498,0,0.3,0,0,0,0,
6.38224E+17,15.85585,33.29056,10.57631,-13.69064,15.8696,-22.26032,-17.01029,-0.4441859,-4.27255,-61.51973,-6.98289,34.57793,0,0,0,37.14201,-34.54073,-37.57964,-36.10317,-110.6632,-50.33768,0.001067912,-0.1257102,0.09433498,0,0.3,0,0,0,0,
6.38224E+17,13.07578,33.99191,11.30008,-14.64282,15.50338,-22.26032,-17.01029,-0.4441859,-4.27255,-61.51973,-6.98289,34.57793,0,0,0,30.9252,-32.86217,-35.20192,-36.10317,-110.6632,-50.33768,0.001067912,-0.1257102,0.09433498,0,0.3,0,0,0,0,
6.38224E+17,11.40302,34.50623,11.81372,-15.52176,15.28364,-22.26032,-17.01029,-0.4441859,-4.27255,-61.51973,-6.98289,34.57793,0,0,0,27.12366,-31.63322,-33.86821,-36.10317,-110.6632,-50.33768,0.001067912,-0.1257102,0.09433498,0,0.3,0,0,0,0,
6.38224E+17,7.586308,35.74527,13.14451,-18.37833,14.55119,-21.52787,-17.01029,-0.4441859,-4.27255,-61.44649,-6.98289,34.57793,0,0,0,18.29192,-28.60541,-31.00809,-36.10317,-110.6632,-50.33768,0.001067912,-0.1257102,0.09433498,0,0.3,0,0,0,0,
6.38224E+17,3.486874,36.82067,14.87221,-21.38138,13.67225,-19.76999,-17.01029,-0.4441859,-4.27255,-61.51973,-6.909645,34.57793,0,0,0,8.574073,-25.61456,-27.63613,-36.10317,-110.6632,-50.33768,0.001067912,-0.1257102,0.09433498,0,0.3,0,0,0,0,
6.38224E+17,1.060198,37.28823,15.92284,-23.13926,13.23278,-18.59806,-17.01029,-0.4441859,-4.27255,-61.44649,-6.98289,34.57793,0,0,0,2.639929,-24.09686,-25.69787,-36.10317,-110.6632,-50.33768,0.001067912,-0.1257102,0.09433498,0,0.3,0,0,0,0,
6.38224E+17,-4.452833,38.05972,18.70116,-27.16775,12.1341,-15.15554,-17.01029,-0.4441859,-4.27255,-61.51973,-6.98289,34.57793,0,0,0,-11.47122,-20.75169,-21.04407,-36.10317,-110.6632,-50.33768,0.001067912,-0.1257102,0.09433498,0,0.3,0,0,0,0,
6.38224E+17,-11.26166,38.78444,22.85697,-33.39359,10.6692,-10.54109,-17.01029,-0.4441859,-4.27255,-61.44649,-6.98289,34.57793,0,0,0,-30.4154,-15.99962,-15.60396,-36.10317,-110.6632,-50.33768,0.001067912,-0.1257102,0.09433498,0,0.3,0,0,0,0,
6.38224E+17,-15.31397,38.85457,25.54191,-37.20233,9.790254,-7.684532,-17.01029,-0.4441859,-4.27255,-61.44649,-6.98289,34.57793,0,0,0,-42.6117,-13.31116,-12.737,-36.10317,-110.6632,-50.33768,0.001067912,-0.1257102,0.09433498,0,0.3,0,0,0,0,
6.38224E+17,-18.28253,38.66755,27.64316,-40.13214,9.131048,-5.413931,-17.01029,-0.4441859,-4.27255,-61.44649,-6.98289,34.57793,0,0,0,-52.07065,-11.46152,-10.7417,-36.10317,-110.6632,-50.33768,0.001067912,-0.1257102,0.09433498,0,0.3,0,0,0,0,
6.38224E+17,-23.96048,37.68567,32.35931,-46.28474,8.105616,-0.7262403,-17.01029,-0.4441859,-4.27255,-61.44649,-6.98289,34.57793,0,0,0,-71.84128,-7.771116,-6.691855,-36.10317,-110.6632,-50.33768,0.001067912,-0.1257102,0.09433498,0,0.3,0,0,0,0,
6.38224E+17,-28.71959,35.34784,38.07939,-52.80355,7.299919,4.400921,-17.01029,-0.4441859,-4.27255,-61.51973,-6.98289,34.57793,0,0,0,-91.78552,-4.469212,-0.8363308,-36.10317,-110.6632,-50.33768,0.001067912,-0.1257102,0.09433498,0,0.3,0,0,0,0,
6.38224E+17,-31.14627,33.17367,42.14182,-59.17588,7.226673,7.989935,-17.01029,-0.4441859,-4.27255,-61.44649,-6.98289,34.57793,0,0,0,-104.0085,-2.560935,3.752504,-36.10317,-110.6632,-50.33768,0.001067912,-0.1257102,0.09433498,0,0.3,0,0,0,0,
6.38224E+17,-31.71171,32.7061,43.44926,-61.59297,7.446409,9.894309,-17.01029,-0.4441859,-4.27255,-61.51973,-6.98289,34.57793,0,0,0,-107.1866,-1.406916,5.120545,-36.10317,-110.6632,-50.33768,0.001067912,-0.1257102,0.09433498,0,0.3,0,0,0,0,
6.38224E+17,-32.27715,32.65935,44.89679,-64.74252,7.739389,13.92279,-17.01029,-0.4441859,-4.27255,-61.44649,-6.909645,34.57793,0,0,0,-110.215,0.8490261,6.146915,-36.10317,-110.6632,-50.33768,0.001067912,-0.1257102,0.09433498,0,0.3,0,0,0,0,
6.38224E+17,-32.34783,32.65935,44.87344,-66.57365,7.666144,16.41313,-17.01029,-0.4441859,-4.27255,-61.44649,-6.98289,34.57793,0,0,0,-110.4096,0.8106803,5.978296,-36.10317,-110.6632,-50.33768,0.001067912,-0.1257102,0.09433498,0,0.3,0,0,0,0,
6.38224E+17,-32.34783,32.63597,44.54658,-67.15961,7.666144,17.21883,-17.01029,-0.4441859,-4.27255,-61.44649,-6.909645,34.57793,0,0,0,-110.136,0.2296745,5.546355,-36.10317,-110.6632,-50.33768,0.001067912,-0.1257102,0.09433498,0,0.3,0,0,0,0,
6.38224E+17,-32.34783,32.42557,44.14968,-67.81882,7.666144,18.09777,-17.01029,-0.4441859,-4.27255,-61.44649,-6.98289,34.57793,0,0,0,-109.9234,-0.8289032,5.210756,-36.10317,-110.6632,-50.33768,0.001067912,-0.1257102,0.09433498,0,0.3,0,0,0,0,
6.38224E+17,-32.3007,32.16841,44.0096,-68.11179,7.739389,18.53724,-17.01029,-0.4441859,-4.27255,-61.44649,-6.98289,34.57793,0,0,0,-109.8264,-1.561626,5.373435,-36.10317,-110.6632,-50.33768,0.001067912,-0.1257102,0.09433498,0,0.3,0,0,0,0,
6.38224E+17,-32.20647,32.09827,43.89286,-68.18504,7.739389,18.68373,-17.01029,-0.4441859,-4.27255,-61.44649,-6.98289,34.50468,0,0,0,-109.4825,-1.888418,5.461801,-36.10317,-110.6632,-50.33768,0.001067912,-0.1257102,0.09433498,0,0.3,0,0,0,0,
6.38224E+17,-32.01799,32.0749,43.75277,-68.47802,7.88588,18.90347,-17.01029,-0.4441859,-4.27255,-61.51973,-6.98289,34.57793,0,0,0,-108.8008,-2.16027,5.646075,-36.10317,-110.6632,-50.33768,0.001067912,-0.1257102,0.09433498,0,0.3,0,0,0,0,
6.38224E+17,-31.94731,32.05152,43.75277,-68.55127,7.812634,18.97671,-17.01029,-0.4441859,-4.27255,-61.44649,-6.909645,34.57793,0,0,0,-108.6013,-2.206381,5.804668,-36.10317,-110.6632,-50.33768,0.001067912,-0.1257102,0.09433498,0,0.3,0,0,0,0,
6.38224E+17,-31.90019,32.05152,43.75277,-68.55127,7.666144,19.04996,-17.01029,-0.4441859,-4.27255,-61.44649,-6.98289,34.57793,0,0,0,-108.4581,-2.206381,5.893922,-36.10317,-110.6632,-50.33768,0.001067912,-0.1257102,0.09433498,0,0.3,0,0,0,0,
6.38224E+17,-31.78239,32.05152,43.77612,-68.69775,7.739389,19.04996,-17.01029,-0.4441859,-4.27255,-61.44649,-6.98289,34.57793,0,0,0,-108.1203,-2.168796,6.149901,-36.10317,-110.6632,-50.33768,0.001067912,-0.1257102,0.09433498,0,0.3,0,0,0,0,
6.38224E+17,-31.42899,32.40219,43.84616,-68.69775,7.88588,18.90347,-17.01029,-0.4441859,-4.27255,-61.51973,-6.98289,34.57793,0,0,0,-106.8763,-1.365523,6.542461,-36.10317,-110.6632,-50.33768,0.001067912,-0.1257102,0.09433498,0,0.3,0,0,0,0,
6.38224E+17,-30.39235,33.85164,43.89286,-68.69775,8.178861,17.87803,-17.01029,-0.4441859,-4.27255,-61.44649,-6.98289,34.57793,0,0,0,-102.8017,1.534846,6.924811,-36.10317,-110.6632,-50.33768,0.001067912,-0.1257102,0.09433498,0,0.3,0,0,0,0,
6.38224E+17,-29.30859,35.65176,43.72943,-68.69775,8.325351,16.99909,-17.01029,-0.4441859,-4.27255,-61.51973,-6.98289,34.57793,0,0,0,-98.16477,4.713681,6.516122,-36.10317,-110.6632,-50.33768,0.001067912,-0.1257102,0.09433498,0,0.3,0,0,0,0,
6.38224E+17,-26.38716,41.12226,43.21579,-67.89206,7.519653,15.68068,-17.01029,-0.4441859,-4.27255,-61.44649,-6.98289,34.57793,0,0,0,-85.22685,13.86721,3.435055,-36.10317,-110.6632,-50.33768,0.001067912,-0.1257102,0.09433498,0,0.3,0,0,0,0,
6.38224E+17,-22.73536,47.48113,43.58934,-66.06093,5.395544,14.65524,-17.01029,-0.4441859,-4.27255,-61.44649,-6.98289,34.57793,0,0,0,-70.36369,25.05084,-0.4313746,-36.10317,-110.6632,-50.33768,0.001067912,-0.1257102,0.09433498,0,0.3,0,0,0,0,
6.38224E+17,-17.71709,54.82188,45.36374,-63.49735,1.367059,13.7763,-17.01029,-0.4441859,-4.27255,-61.44649,-6.98289,34.57793,0,0,0,-52.25584,38.65344,-4.779301,-36.10317,-110.6632,-50.33768,0.001067912,-0.1257102,0.09433498,0,0.3,0,0,0,0,
6.38224E+17,-13.80614,60.10536,47.4183,-61.29999,-2.368444,13.19034,-17.01029,-0.4441859,-4.27255,-61.44649,-6.98289,34.57793,0,0,0,-39.29163,48.72684,-8.457055,-36.10317,-110.6632,-50.33768,0.001067912,-0.1257102,0.09433498,0,0.3,0,0,0,0,
6.38224E+17,-11.37946,63.26142,49.07595,-59.83509,-4.85878,12.82412,-17.01029,-0.4441859,-4.27255,-61.51973,-6.98289,34.57793,0,0,0,-31.71758,55.08872,-10.75679,-36.10317,-110.6632,-50.33768,0.001067912,-0.1257102,0.09433498,0,0.3,0,0,0,0,
6.38224E+17,-6.596789,69.15273,53.20842,-57.27151,-10.27892,12.45789,-17.01029,-0.4441859,-4.27255,-61.44649,-6.98289,34.57793,0,0,0,-17.71996,68.10578,-15.12561,-36.10317,-110.6632,-50.33768,0.001067912,-0.1257102,0.09433498,0,0.3,0,0,0,0,
6.38224E+17,-2.049716,73.94525,57.45762,-55.51363,-16.13853,12.60438,-17.01029,-0.4441859,-4.27255,-61.51973,-6.98289,34.57793,0,0,0,-5.339675,79.767,-19.1536,-36.10317,-110.6632,-50.33768,0.001067912,-0.1257102,0.09433498,0,0.3,0,0,0,0,
6.38224E+17,0.4005193,76.02592,59.69896,-54.85442,-19.50781,12.60438,-17.01029,-0.4441859,-4.27255,-61.44649,-6.909645,34.57793,0,0,0,1.029915,85.47266,-21.01927,-36.10317,-110.6632,-50.33768,0.001067912,-0.1257102,0.09433498,0,0.3,0,0,0,0,
6.38224E+17,4.806232,78.85468,63.38783,-53.60925,-25.73365,12.67763,-17.01029,-0.4441859,-4.27255,-61.51973,-6.98289,34.57793,0,0,0,12.14893,94.45102,-23.86077,-36.10317,-110.6632,-50.33768,0.001067912,-0.1257102,0.09433498,0,0.3,0,0,0,0,
6.38224E+17,9.070585,80.79507,66.53971,-52.29084,-31.95949,12.75087,-17.01029,-0.4441859,-4.27255,-61.44649,-6.98289,34.57793,0,0,0,22.64789,101.8944,-26.4882,-36.10317,-110.6632,-50.33768,0.001067912,-0.1257102,0.09433498,0,0.3,0,0,0,0,
6.38224E+17,10.71978,81.37952,67.68372,-51.48514,-34.74281,12.75087,-17.01029,-0.4441859,-4.27255,-61.51973,-6.98289,34.57793,0,0,0,26.66394,104.558,-27.50166,-36.10317,-110.6632,-50.33768,0.001067912,-0.1257102,0.09433498,0,0.3,0,0,0,0,
6.38224E+17,13.40562,82.12763,69.43477,-49.58077,-40.82215,12.75087,-17.01029,-0.4441859,-4.27255,-61.44649,-6.98289,34.57793,0,0,0,33.1806,108.6009,-29.13295,-36.10317,-110.6632,-50.33768,0.001067912,-0.1257102,0.09433498,0,0.3,0,0,0,0,
6.38224E+17,14.37158,82.31465,69.62154,-48.70182,-43.31249,12.53114,-17.01029,-0.4441859,-4.27255,-61.44649,-6.98289,34.50468,0,0,0,35.45355,109.0671,-29.9826,-36.10317,-110.6632,-50.33768,0.001067912,-0.1257102,0.09433498,0,0.3,0,0,0,0,
6.38224E+17,14.7721,82.45493,69.57485,-47.16368,-45.4366,11.79868,-17.01029,-0.4441859,-4.27255,-61.44649,-6.98289,34.57793,0,0,0,36.32775,109.0085,-30.58334,-36.10317,-110.6632,-50.33768,0.001067912,-0.1257102,0.09433498,0,0.3,0,0,0,0,
6.38224E+17,14.74854,82.50168,69.43477,-46.65096,-46.09581,11.57895,-17.01029,-0.4441859,-4.27255,-61.51973,-6.98289,34.57793,0,0,0,36.21457,108.7174,-30.78313,-36.10317,-110.6632,-50.33768,0.001067912,-0.1257102,0.09433498,0,0.3,0,0,0,0,
6.38224E+17,14.39514,82.50168,68.94447,-45.91851,-46.9015,11.21272,-17.01029,-0.4441859,-4.27255,-61.51973,-6.98289,34.57793,0,0,0,35.26459,107.6507,-30.95506,-36.10317,-110.6632,-50.33768,0.001067912,-0.1257102,0.09433498,0,0.3,0,0,0,0,
6.38224E+17,13.92394,82.40816,68.33745,-45.40579,-47.19449,11.21272,-17.01029,-0.4441859,-4.27255,-61.44649,-6.909645,34.57793,0,0,0,34.06158,106.3064,-30.95971,-36.10317,-110.6632,-50.33768,0.001067912,-0.1257102,0.09433498,0,0.3,0,0,0,0,
6.38224E+17,13.64122,82.26789,67.87051,-45.18605,-47.26773,11.13948,-17.01029,-0.4441859,-4.27255,-61.44649,-6.909645,34.57793,0,0,0,33.36396,105.2545,-30.87274,-36.10317,-110.6632,-50.33768,0.001067912,-0.1257102,0.09433498,0,0.3,0,0,0,0,
6.38224E+17,13.14646,81.94061,66.65645,-44.89308,-46.9015,10.99299,-17.01029,-0.4441859,-4.27255,-61.51973,-6.98289,34.57793,0,0,0,32.09882,102.5439,-30.91845,-36.10317,-110.6632,-50.33768,0.001067912,-0.1257102,0.09433498,0,0.3,0,0,0,0,
6.38224E+17,13.09934,81.61331,64.9054,-44.01414,-46.09581,10.40703,-17.01029,-0.4441859,-4.27255,-61.44649,-6.98289,34.57793,0,0,0,31.77776,98.71837,-31.78607,-36.10317,-110.6632,-50.33768,0.001067912,-0.1257102,0.09433498,0,0.3,0,0,0,0,
6.38224E+17,13.19358,81.07561,62.22046,-42.10976,-44.92389,8.429405,-17.01029,-0.4441859,-4.27255,-61.44649,-6.98289,34.57793,0,0,0,31.64978,92.93513,-33.34241,-36.10317,-110.6632,-50.33768,0.001067912,-0.1257102,0.09433498,0,0.3,0,0,0,0,
6.38224E+17,13.40562,80.6548,60.44607,-40.86459,-44.04494,7.037747,-17.01029,-0.4441859,-4.27255,-61.51973,-6.98289,34.57793,0,0,0,31.9141,89.15627,-34.44688,-36.10317,-110.6632,-50.33768,0.001067912,-0.1257102,0.09433498,0,0.3,0,0,0,0,
6.38224E+17,14.60718,79.27549,56.05679,-37.6418,-41.99408,3.81496,-17.01029,-0.4441859,-4.27255,-61.44649,-6.98289,34.57793,0,0,0,34.15687,79.91204,-37.28706,-36.10317,-110.6632,-50.33768,0.001067912,-0.1257102,0.09433498,0,0.3,0,0,0,0,
6.38224E+17,16.82181,76.82078,50.47679,-32.95412,-39.06427,-1.165711,-17.01029,-0.4441859,-4.27255,-61.44649,-6.909645,34.57793,0,0,0,38.56647,68.32507,-40.78722,-36.10317,-110.6632,-50.33768,0.001067912,-0.1257102,0.09433498,0,0.3,0,0,0,0,
6.38224E+17,20.35581,72.75297,44.14968,-26.87477,-35.18228,-7.757777,-17.01029,-0.4441859,-4.27255,-61.51973,-6.98289,34.57793,0,0,0,46.06223,55.02232,-44.19938,-36.10317,-110.6632,-50.33768,0.001067912,-0.1257102,0.09433498,0,0.3,0,0,0,0,
6.38224E+17,21.98145,70.48528,41.51144,-23.94496,-33.20466,-10.76083,-17.01029,-0.4441859,-4.27255,-61.51973,-6.98289,34.57793,0,0,0,49.75494,49.1842,-45.08727,-36.10317,-110.6632,-50.33768,0.001067912,-0.1257102,0.09433498,0,0.3,0,0,0,0,
6.38224E+17,26.0102,64.92127,36.305,-17.49938,-28.0775,-16.32746,-17.01029,-0.4441859,-4.27255,-61.44649,-6.98289,34.57793,0,0,0,59.41066,36.66494,-46.59511,-36.10317,-110.6632,-50.33768,0.001067912,-0.1257102,0.09433498,0,0.3,0,0,0,0,
6.38224E+17,30.76931,59.19361,32.0091,-11.05381,-22.36438,-19.69674,-17.01029,-0.4441859,-4.27255,-61.51973,-6.98289,34.57793,0,0,0,71.09792,24.8087,-48.93676,-36.10317,-110.6632,-50.33768,0.001067912,-0.1257102,0.09433498,0,0.3,0,0,0,0,
6.38224E+17,33.12531,56.31809,30.2814,-7.684532,-19.58106,-21.0884,-17.01029,-0.4441859,-4.27255,-61.51973,-6.98289,34.57793,0,0,0,77.15902,19.15881,-50.10249,-36.10317,-110.6632,-50.33768,0.001067912,-0.1257102,0.09433498,0,0.3,0,0,0,0,
6.38224E+17,37.69594,50.35665,27.57312,-1.165711,-14.01443,-23.57873,-17.01029,-0.4441859,-4.27255,-61.44649,-6.98289,34.57793,0,0,0,89.76595,7.829382,-52.18942,-36.10317,-110.6632,-50.33768,0.001067912,-0.1257102,0.09433498,0,0.3,0,0,0,0,
6.38224E+17,41.46553,44.95628,26.26567,4.400921,-9.106999,-25.6296,-17.01029,-0.4441859,-4.27255,-61.51973,-6.98289,34.57793,0,0,0,101.5612,-2.011123,-53.41666,-36.10317,-110.6632,-50.33768,0.001067912,-0.1257102,0.09433498,0,0.3,0,0,0,0,
6.38224E+17,42.99693,42.4782,25.98551,7.110993,-6.836399,-26.4353,-17.01029,-0.4441859,-4.27255,-61.44649,-6.98289,34.65118,0,0,0,106.9153,-6.466437,-53.68506,-36.10317,-110.6632,-50.33768,0.001067912,-0.1257102,0.09433498,0,0.3,0,0,0,0,
6.38224E+17,45.47073,38.48052,25.82208,11.72544,-3.100896,-27.38748,-17.01029,-0.4441859,-4.27255,-61.51973,-6.98289,34.57793,0,0,0,115.826,-13.70829,-54.41174,-36.10317,-110.6632,-50.33768,0.001067912,-0.1257102,0.09433498,0,0.3,0,0,0,0,
6.38224E+17,47.21416,35.32447,25.79873,15.24121,-0.09784385,-28.5594,-17.01029,-0.4441859,-4.27255,-61.44649,-6.98289,34.57793,0,0,0,122.4394,-19.60502,-55.02605,-36.10317,-110.6632,-50.33768,0.001067912,-0.1257102,0.09433498,0,0.3,0,0,0,0,
6.38224E+17,48.29792,33.52435,25.82208,17.43856,1.586795,-29.43835,-17.01029,-0.4441859,-4.27255,-61.44649,-6.98289,34.57793,0,0,0,126.3657,-23.0371,-55.75404,-36.10317,-110.6632,-50.33768,0.001067912,-0.1257102,0.09433498,0,0.3,0,0,0,0,
6.38224E+17,48.62776,32.89313,25.82208,18.3175,2.172756,-29.95106,-17.01029,-0.4441859,-4.27255,-61.44649,-6.909645,34.57793,0,0,0,127.6156,-24.26625,-55.95156,-36.10317,-110.6632,-50.33768,0.001067912,-0.1257102,0.09433498,0,0.3,0,0,0,0,
6.38224E+17,48.86336,32.16841,25.79873,19.48943,3.124943,-30.61027,-17.01029,-0.4441859,-4.27255,-61.44649,-6.98289,34.57793,0,0,0,128.723,-25.71198,-55.91275,-36.10317,-110.6632,-50.33768,0.001067912,-0.1257102,0.09433498,0,0.3,0,0,0,0,
6.38224E+17,48.86336,32.00476,25.79873,20.14863,3.857395,-30.9765,-17.01029,-0.4441859,-4.27255,-61.51973,-6.98289,34.57793,0,0,0,128.8754,-26.03467,-55.77965,-36.10317,-110.6632,-50.33768,0.001067912,-0.1257102,0.09433498,0,0.3,0,0,0,0,
6.38224E+17,48.81624,32.00476,25.82208,20.44161,4.223621,-31.12299,-17.01029,-0.4441859,-4.27255,-61.44649,-6.98289,34.57793,0,0,0,128.8195,-26.01101,-55.64149,-36.10317,-110.6632,-50.33768,0.001067912,-0.1257102,0.09433498,0,0.3,0,0,0,0,
6.38224E+17,48.79268,32.00476,25.79873,20.73459,4.516602,-31.12299,-17.01029,-0.4441859,-4.27255,-61.44649,-6.98289,34.57793,0,0,0,128.7364,-26.03467,-55.62075,-36.10317,-110.6632,-50.33768,0.001067912,-0.1257102,0.09433498,0,0.3,0,0,0,0,
6.38224E+17,48.79268,32.00476,25.79873,20.80784,4.663092,-31.12299,-17.01029,-0.4441859,-4.27255,-61.51973,-6.98289,34.57793,0,0,0,128.7364,-26.03467,-55.62075,-36.10317,-110.6632,-50.33768,0.001067912,-0.1257102,0.09433498,0,0.3,0,0,0,0,
6.38224E+17,48.79268,32.00476,25.79873,20.88108,4.882828,-31.12299,-17.01029,-0.4441859,-4.27255,-61.44649,-6.98289,34.57793,0,0,0,128.7364,-26.03467,-55.62075,-36.10317,-110.6632,-50.33768,0.001067912,-0.1257102,0.09433498,0,0.3,0,0,0,0,
6.38224E+17,48.79268,32.00476,25.65865,20.88108,5.102563,-31.12299,-17.01029,-0.4441859,-4.27255,-61.51973,-6.98289,34.57793,0,0,0,128.5154,-26.1762,-55.81424,-36.10317,-110.6632,-50.33768,0.001067912,-0.1257102,0.09433498,0,0.3,0,0,0,0,
6.38224E+17,48.76912,32.00476,25.6353,20.95433,5.175808,-31.12299,-17.01029,-0.4441859,-4.27255,-61.51973,-6.98289,34.57793,0,0,0,128.4323,-26.19972,-55.79369,-36.10317,-110.6632,-50.33768,0.001067912,-0.1257102,0.09433498,0,0.3,0,0,0,0,
6.38224E+17,48.67488,32.00476,25.56526,20.95433,5.249053,-31.12299,-17.01029,-0.4441859,-4.27255,-61.51973,-6.909645,34.57793,0,0,0,128.1366,-26.27016,-55.67968,-36.10317,-110.6632,-50.33768,0.001067912,-0.1257102,0.09433498,0,0.3,0,0,0,0,
6.38224E+17,48.6042,32.00476,25.51856,20.95433,5.395544,-31.12299,-17.01029,-0.4441859,-4.27255,-61.44649,-6.98289,34.57793,0,0,0,127.9239,-26.31701,-55.58653,-36.10317,-110.6632,-50.33768,0.001067912,-0.1257102,0.09433498,0,0.3,0,0,0,0,
6.38224E+17,48.41572,32.00476,25.51856,21.02757,5.395544,-31.12299,-17.01029,-0.4441859,-4.27255,-61.44649,-6.98289,34.57793,0,0,0,127.5523,-26.31701,-55.16633,-36.10317,-110.6632,-50.33768,0.001067912,-0.1257102,0.09433498,0,0.3,0,0,0,0,
6.38224E+17,48.29792,32.00476,25.51856,21.02757,5.395544,-31.12299,-17.01029,-0.4441859,-4.27255,-61.44649,-6.98289,34.57793,0,0,0,127.3193,-26.31701,-54.90432,-36.10317,-110.6632,-50.33768,0.001067912,-0.1257102,0.09433498,0,0.3,0,0,0,0,
6.38224E+17,47.7796,31.958,25.51856,21.02757,5.175808,-31.04974,-17.01029,-0.4441859,-4.27255,-61.44649,-6.98289,34.57793,0,0,0,126.3306,-26.40932,-53.71847,-36.10317,-110.6632,-50.33768,0.001067912,-0.1257102,0.09433498,0,0.3,0,0,0,0,
6.38224E+17,46.6016,31.86449,25.47187,20.88108,4.882828,-31.12299,-17.01029,-0.4441859,-4.27255,-61.44649,-6.98289,34.57793,0,0,0,123.9595,-26.64085,-51.13388,-36.10317,-110.6632,-50.33768,0.001067912,-0.1257102,0.09433498,0,0.3,0,0,0,0,
6.38224E+17,44.45765,31.67747,25.42517,20.00214,4.589847,-31.04974,-17.01029,-0.4441859,-4.27255,-61.44649,-6.98289,34.57793,0,0,0,119.5794,-27.0576,-46.48502,-36.10317,-110.6632,-50.33768,0.001067912,-0.1257102,0.09433498,0,0.3,0,0,0,0,
6.38224E+17,43.53881,31.56057,25.42517,19.56267,4.443357,-30.90325,-17.01029,-0.4441859,-4.27255,-61.44649,-6.98289,34.57793,0,0,0,117.7081,-27.28927,-44.47971,-36.10317,-110.6632,-50.33768,0.001067912,-0.1257102,0.09433498,0,0.3,0,0,0,0,
6.38224E+17,40.99433,31.16315,25.42517,18.02452,4.150376,-30.02431,-17.01029,-0.4441859,-4.27255,-61.44649,-6.98289,34.57793,0,0,0,112.4086,-28.0791,-39.01286,-36.10317,-110.6632,-50.33768,0.001067912,-0.1257102,0.09433498,0,0.3,0,0,0,0,
6.38224E+17,38.23782,30.41504,25.42517,15.60743,3.710905,-28.5594,-17.01029,-0.4441859,-4.27255,-61.51973,-6.98289,34.57793,0,0,0,106.6101,-29.57482,-33.05657,-36.10317,-110.6632,-50.33768,0.001067912,-0.1257102,0.09433498,0,0.3,0,0,0,0,
6.38224E+17,35.52842,29.15262,25.42517,12.97061,3.491169,-27.02126,-17.01029,-0.4441859,-4.27255,-61.44649,-6.98289,34.57793,0,0,0,100.9437,-32.12482,-26.98059,-36.10317,-110.6632,-50.33768,0.001067912,-0.1257102,0.09433498,0,0.3,0,0,0,0,
6.38224E+17,34.09126,28.311,25.37848,11.5057,3.417924,-26.21556,-17.01029,-0.4441859,-4.27255,-61.44649,-6.98289,34.57793,0,0,0,97.83904,-33.88903,-23.79486,-36.10317,-110.6632,-50.33768,0.001067912,-0.1257102,0.09433498,0,0.3,0,0,0,0,
6.38224E+17,31.64103,26.2771,25.07496,8.649141,3.491169,-24.60417,-17.01029,-0.4441859,-4.27255,-61.44649,-6.98289,34.57793,0,0,0,92.37305,-38.39655,-18.44037,-36.10317,-110.6632,-50.33768,0.001067912,-0.1257102,0.09433498,0,0.3,0,0,0,0,
6.38224E+17,28.88451,23.93928,24.58467,5.499599,3.564415,-23.359,-17.01029,-0.4441859,-4.27255,-61.51973,-6.98289,34.57793,0,0,0,85.67168,-43.80228,-13.05681,-36.10317,-110.6632,-50.33768,0.001067912,-0.1257102,0.09433498,0,0.3,0,0,0,0,
6.38224E+17,27.25887,22.81713,24.28116,3.595225,3.710905,-22.84628,-17.01029,-0.4441859,-4.27255,-61.44649,-6.98289,34.57793,0,0,0,81.41177,-46.49172,-10.3394,-36.10317,-110.6632,-50.33768,0.001067912,-0.1257102,0.09433498,0,0.3,0,0,0,0,
6.38224E+17,23.27724,20.29228,23.48735,-1.678428,4.589847,-22.26032,-17.01029,-0.4441859,-4.27255,-61.51973,-6.98289,34.57793,0,0,0,70.42906,-52.70468,-4.636583,-36.10317,-110.6632,-50.33768,0.001067912,-0.1257102,0.09433498,0,0.3,0,0,0,0,
6.38224E+17,20.70921,18.32851,23.32392,-5.706912,5.468789,-22.04058,-17.01029,-0.4441859,-4.27255,-61.44649,-6.98289,34.57793,0,0,0,63.43404,-57.16891,-0.5582264,-36.10317,-110.6632,-50.33768,0.001067912,-0.1257102,0.09433498,0,0.3,0,0,0,0,
6.38224E+17,18.23541,15.73353,23.37061,-10.10162,6.494221,-21.89409,-17.01029,-0.4441859,-4.27255,-61.51973,-6.98289,34.57793,0,0,0,56.71732,-62.90004,3.798079,-36.10317,-110.6632,-50.33768,0.001067912,-0.1257102,0.09433498,0,0.3,0,0,0,0,
6.38224E+17,17.17521,14.44773,23.44065,-12.006,7.006938,-21.82085,-17.01029,-0.4441859,-4.27255,-61.44649,-6.909645,34.57793,0,0,0,53.79661,-65.72459,5.705319,-36.10317,-110.6632,-50.33768,0.001067912,-0.1257102,0.09433498,0,0.3,0,0,0,0,
6.38224E+17,15.10193,11.82937,23.93095,-14.9358,8.178861,-21.60111,-17.01029,-0.4441859,-4.27255,-61.51973,-6.98289,34.57793,0,0,0,48.09761,-71.20011,9.883741,-36.10317,-110.6632,-50.33768,0.001067912,-0.1257102,0.09433498,0,0.3,0,0,0,0,
6.38224E+17,12.62814,9.514929,24.44459,-17.35289,9.057802,-20.13621,-17.01029,-0.4441859,-4.27255,-61.44649,-6.98289,34.57793,0,0,0,40.81625,-76.0034,13.83111,-36.10317,-110.6632,-50.33768,0.001067912,-0.1257102,0.09433498,0,0.3,0,0,0,0,
6.38224E+17,9.376864,7.293999,24.67806,-19.25727,9.790254,-17.35289,-17.01029,-0.4441859,-4.27255,-61.44649,-6.909645,34.57793,0,0,0,30.62176,-80.89068,17.08573,-36.10317,-110.6632,-50.33768,0.001067912,-0.1257102,0.09433498,0,0.3,0,0,0,0,
6.38224E+17,5.607271,4.628884,25.54191,-22.26032,10.30297,-15.37527,-17.01029,-0.4441859,-4.27255,-61.51973,-6.98289,34.57793,0,0,0,18.60498,-86.20619,21.15061,-36.10317,-110.6632,-50.33768,0.001067912,-0.1257102,0.09433498,0,0.3,0,0,0,0,
6.38224E+17,4.052313,3.24957,26.17229,-24.16469,10.44946,-14.78931,-17.01029,-0.4441859,-4.27255,-61.44649,-6.98289,34.57793,0,0,0,13.56476,-88.76888,23.12262,-36.10317,-110.6632,-50.33768,0.001067912,-0.1257102,0.09433498,0,0.3,0,0,0,0,
6.38224E+17,1.908357,0.7247244,26.96609,-28.11993,10.6692,-14.13011,-17.01029,-0.4441859,-4.27255,-61.51973,-6.98289,34.57793,0,0,0,6.454012,-93.81485,25.35115,-36.10317,-110.6632,-50.33768,0.001067912,-0.1257102,0.09433498,0,0.3,0,0,0,0,
6.38224E+17,0.7303588,-1.028641,27.12952,-30.9765,10.74244,-13.32441,-17.01029,-0.4441859,-4.27255,-61.44649,-6.909645,34.57793,0,0,0,2.474624,-97.72249,25.77081,-36.10317,-110.6632,-50.33768,0.001067912,-0.1257102,0.09433498,0,0.3,0,0,0,0,
6.38224E+17,0.3298394,-1.028641,26.89605,-31.78219,10.81569,-12.88494,-17.01029,-0.4441859,-4.27255,-61.51973,-6.98289,34.57793,0,0,0,1.114809,-97.96928,25.29927,-36.10317,-110.6632,-50.33768,0.001067912,-0.1257102,0.09433498,0,0.3,0,0,0,0,
6.38224E+17,-0.7539188,-0.9818845,26.70927,-33.17385,10.59595,-12.44547,-17.01029,-0.4441859,-4.27255,-61.51973,-6.909645,34.57793,0,0,0,-2.542996,-98.0565,24.89965,-36.10317,-110.6632,-50.33768,0.001067912,-0.1257102,0.09433498,0,0.3,0,0,0,0,
6.38224E+17,-1.719877,-0.9818845,26.70927,-34.712,10.44946,-13.32441,-17.01029,-0.4441859,-4.27255,-61.44649,-6.98289,34.57793,0,0,0,-5.800506,-98.0565,24.82932,-36.10317,-110.6632,-50.33768,0.001067912,-0.1257102,0.09433498,0,0.3,0,0,0,0,
6.38224E+17,-1.931917,-0.9818845,26.70927,-35.59094,10.44946,-14.2766,-17.01029,-0.4441859,-4.27255,-61.44649,-6.909645,34.57793,0,0,0,-6.515381,-98.0565,24.80653,-36.10317,-110.6632,-50.33768,0.001067912,-0.1257102,0.09433498,0,0.3,0,0,0,0,
6.38224E+17,-1.814117,-0.9818845,26.70927,-37.05584,10.52271,-15.66825,-17.01029,-0.4441859,-4.27255,-61.44649,-6.98289,34.57793,0,0,0,-6.118239,-98.0565,24.81952,-36.10317,-110.6632,-50.33768,0.001067912,-0.1257102,0.09433498,0,0.3,0,0,0,0,
6.38224E+17,-1.460718,-0.9818845,26.61588,-37.7883,10.88893,-16.40071,-17.01029,-0.4441859,-4.27255,-61.44649,-6.98289,34.57793,0,0,0,-4.921712,-98.15404,24.6594,-36.10317,-110.6632,-50.33768,0.001067912,-0.1257102,0.09433498,0,0.3,0,0,0,0,
6.38224E+17,-1.272238,-0.9585064,26.52249,-37.86154,11.3284,-16.62044,-17.01029,-0.4441859,-4.27255,-61.51973,-6.98289,34.57793,0,0,0,-4.282469,-98.19685,24.48112,-36.10317,-110.6632,-50.33768,0.001067912,-0.1257102,0.09433498,0,0.3,0,0,0,0,
6.38224E+17,-0.8952785,-0.9585064,26.38241,-37.71505,11.91436,-16.84018,-17.01029,-0.4441859,-4.27255,-61.44649,-6.909645,34.57793,0,0,0,-3.009153,-98.34208,24.21326,-36.10317,-110.6632,-50.33768,0.001067912,-0.1257102,0.09433498,0,0.3,0,0,0,0,
6.38224E+17,-0.3298394,-0.8649935,26.31237,-37.27558,12.50033,-16.91342,-17.01029,-0.4441859,-4.27255,-61.44649,-6.909645,34.57793,0,0,0,-1.107853,-98.19682,24.09096,-36.10317,-110.6632,-50.33768,0.001067912,-0.1257102,0.09433498,0,0.3,0,0,0,0,
6.38224E+17,0.3298394,-0.3272949,26.28902,-36.76286,13.08629,-16.84018,-17.01029,-0.4441859,-4.27255,-61.51973,-6.98289,34.57793,0,0,0,1.107648,-96.96953,24.05527,-36.10317,-110.6632,-50.33768,0.001067912,-0.1257102,0.09433498,0,0.3,0,0,0,0,
6.38224E+17,0.7067988,0.2104038,26.19563,-36.39664,13.30602,-16.5472,-17.01029,-0.4441859,-4.27255,-61.44649,-6.909645,34.57793,0,0,0,2.371095,-95.8142,23.85016,-36.10317,-110.6632,-50.33768,0.001067912,-0.1257102,0.09433498,0,0.3,0,0,0,0,
6.38224E+17,1.319358,1.846878,25.82208,-35.44445,13.74549,-15.30203,-17.01029,-0.4441859,-4.27255,-61.44649,-6.909645,34.57793,0,0,0,4.4062,-92.38747,22.96432,-36.10317,-110.6632,-50.33768,0.001067912,-0.1257102,0.09433498,0,0.3,0,0,0,0,
6.38224E+17,1.460718,3.787269,25.5886,-34.56551,14.03847,-14.20335,-17.01029,-0.4441859,-4.27255,-61.44649,-6.98289,34.57793,0,0,0,4.860057,-88.11277,22.24154,-36.10317,-110.6632,-50.33768,0.001067912,-0.1257102,0.09433498,0,0.3,0,0,0,0,
6.38224E+17,1.460718,5.026314,25.42517,-34.19928,14.03847,-13.69064,-17.01029,-0.4441859,-4.27255,-61.44649,-6.98289,34.57793,0,0,0,4.845657,-85.40139,21.67686,-36.10317,-110.6632,-50.33768,0.001067912,-0.1257102,0.09433498,0,0.3,0,0,0,0,
6.38224E+17,1.437158,8.06548,24.84149,-33.83306,13.52576,-12.73845,-17.01029,-0.4441859,-4.27255,-61.51973,-6.98289,34.57793,0,0,0,4.716452,-78.95196,19.64338,-36.10317,-110.6632,-50.33768,0.001067912,-0.1257102,0.09433498,0,0.3,0,0,0,0,
6.38224E+17,1.154438,11.80599,24.3045,-33.46683,12.9398,-11.34679,-17.01029,-0.4441859,-4.27255,-61.51973,-6.98289,34.57793,0,0,0,3.735609,-70.89811,17.02647,-36.10317,-110.6632,-50.33768,0.001067912,-0.1257102,0.09433498,0,0.3,0,0,0,0,
6.38224E+17,0.612559,15.8738,23.95429,-33.46683,11.98761,-10.24811,-17.01029,-0.4441859,-4.27255,-61.44649,-6.98289,34.57793,0,0,0,1.950097,-62.0407,14.04561,-36.10317,-110.6632,-50.33768,0.001067912,-0.1257102,0.09433498,0,0.3,0,0,0,0,
6.38224E+17,-0.07067989,20.50268,23.83756,-33.97955,10.6692,-9.442415,-17.01029,-0.4441859,-4.27255,-61.51973,-6.98289,34.57793,0,0,0,-0.2205618,-51.91856,10.44565,-36.10317,-110.6632,-50.33768,0.001067912,-0.1257102,0.09433498,0,0.3,0,0,0,0,
6.38224E+17,-0.3769594,22.79375,23.86091,-34.27253,9.790254,-9.149435,-17.01029,-0.4441859,-4.27255,-61.44649,-6.98289,34.57793,0,0,0,-1.163708,-46.94081,8.524693,-36.10317,-110.6632,-50.33768,0.001067912,-0.1257102,0.09433498,0,0.3,0,0,0,0,
6.38224E+17,-1.107318,27.65641,24.23446,-35.00498,8.105616,-8.636719,-17.01029,-0.4441859,-4.27255,-61.44649,-6.909645,34.57793,0,0,0,-3.340366,-36.35146,4.468465,-36.10317,-110.6632,-50.33768,0.001067912,-0.1257102,0.09433498,0,0.3,0,0,0,0,
6.38224E+17,-2.332436,32.61259,25.28509,-35.66418,6.201241,-7.757777,-17.01029,-0.4441859,-4.27255,-61.44649,-6.98289,34.57793,0,0,0,-6.889346,-25.35446,0.791779,-36.10317,-110.6632,-50.33768,0.001067912,-0.1257102,0.09433498,0,0.3,0,0,0,0,
6.38224E+17,-3.157035,35.30109,26.0789,-36.25014,5.249053,-7.09857,-17.01029,-0.4441859,-4.27255,-61.44649,-6.98289,34.57793,0,0,0,-9.22206,-19.3642,-1.151874,-36.10317,-110.6632,-50.33768,0.001067912,-0.1257102,0.09433498,0,0.3,0,0,0,0,
6.38224E+17,-5.112512,40.67807,28.18015,-37.93478,3.124943,-5.413931,-17.01029,-0.4441859,-4.27255,-61.44649,-6.98289,34.57793,0,0,0,-14.62364,-7.275013,-4.898459,-36.10317,-110.6632,-50.33768,0.001067912,-0.1257102,0.09433498,0,0.3,0,0,0,0,
6.38224E+17,-7.162228,46.52262,31.21529,-40.27863,0.3416272,-2.70386,-17.01029,-0.4441859,-4.27255,-61.44649,-6.98289,34.57793,0,0,0,-20.05629,6.07053,-8.741971,-36.10317,-110.6632,-50.33768,0.001067912,-0.1257102,0.09433498,0,0.3,0,0,0,0,
6.38224E+17,-8.151747,49.42152,33.08308,-41.59705,-1.050031,-1.312202,-17.01029,-0.4441859,-4.27255,-61.44649,-6.98289,34.57793,0,0,0,-22.62095,12.90012,-10.42952,-36.10317,-110.6632,-50.33768,0.001067912,-0.1257102,0.09433498,0,0.3,0,0,0,0,
6.38224E+17,-9.871624,55.28945,37.65914,-44.74659,-4.346064,2.130321,-17.01029,-0.4441859,-4.27255,-61.44649,-6.98289,34.57793,0,0,0,-26.98578,27.40114,-13.27501,-36.10317,-110.6632,-50.33768,0.001067912,-0.1257102,0.09433498,0,0.3,0,0,0,0,
6.38224E+17,-11.26166,61.08725,43.05236,-48.3356,-7.861832,6.598277,-17.01029,-0.4441859,-4.27255,-61.44649,-6.909645,34.57793,0,0,0,-30.36861,42.63597,-15.83891,-36.10317,-110.6632,-50.33768,0.001067912,-0.1257102,0.09433498,0,0.3,0,0,0,0,
6.38224E+17,-12.43966,66.32397,48.81913,-52.43733,-11.59733,12.16491,-17.01029,-0.4441859,-4.27255,-61.51973,-6.98289,34.57793,0,0,0,-33.1545,57.67328,-18.05082,-36.10317,-110.6632,-50.33768,0.001067912,-0.1257102,0.09433498,0,0.3,0,0,0,0,
6.38224E+17,-13.45274,70.71906,54.93612,-58.29694,-15.99205,19.1232,-17.01029,-0.4441859,-4.27255,-61.51973,-6.98289,34.57793,0,0,0,-35.63647,72.61235,-19.37216,-36.10317,-110.6632,-50.33768,0.001067912,-0.1257102,0.09433498,0,0.3,0,0,0,0,
6.38224E+17,-14.01818,73.12702,58.69503,-63.05788,-18.62887,24.90957,-17.01029,-0.4441859,-4.27255,-61.44649,-6.909645,34.57793,0,0,0,-36.97419,81.67159,-20.25478,-36.10317,-110.6632,-50.33768,0.001067912,-0.1257102,0.09433498,0,0.3,0,0,0,0,
6.38224E+17,-14.25378,74.38944,60.42272,-65.76794,-19.80079,28.27885,-17.01029,-0.4441859,-4.27255,-61.44649,-6.98289,34.57793,0,0,0,-37.3899,85.95996,-21.16759,-36.10317,-110.6632,-50.33768,0.001067912,-0.1257102,0.09433498,0,0.3,0,0,0,0,
6.38224E+17,-14.37158,76.4701,63.10766,-70.67538,-21.48543,34.50468,-17.01029,-0.4441859,-4.27255,-61.51973,-6.98289,34.57793,0,0,0,-37.26289,92.683,-22.92115,-36.10317,-110.6632,-50.33768,0.001067912,-0.1257102,0.09433498,0,0.3,0,0,0,0,
6.38224E+17,-14.37158,78.01306,65.06883,-74.55737,-22.80385,39.85158,-17.01029,-0.4441859,-4.27255,-61.44649,-6.98289,34.57793,0,0,0,-36.88864,97.58138,-24.38178,-36.10317,-110.6632,-50.33768,0.001067912,-0.1257102,0.09433498,0,0.3,0,0,0,0,
6.38224E+17,-14.34802,78.69103,65.62917,-76.31525,-23.38981,42.34192,-17.01029,-0.4441859,-4.27255,-61.44649,-6.98289,34.57793,0,0,0,-36.58126,99.08522,-25.33685,-36.10317,-110.6632,-50.33768,0.001067912,-0.1257102,0.09433498,0,0.3,0,0,0,0,
6.38224E+17,-14.32446,79.60278,65.83929,-78.73235,-24.19551,46.15067,-17.01029,-0.4441859,-4.27255,-61.44649,-6.909645,34.57793,0,0,0,-36.05656,99.9306,-27.14632,-36.10317,-110.6632,-50.33768,0.001067912,-0.1257102,0.09433498,0,0.3,0,0,0,0,
6.38224E+17,-14.32446,80.18723,65.55912,-79.90427,-24.70822,48.34802,-17.01029,-0.4441859,-4.27255,-61.44649,-6.98289,34.57793,0,0,0,-35.65885,99.57498,-28.70384,-36.10317,-110.6632,-50.33768,0.001067912,-0.1257102,0.09433498,0,0.3,0,0,0,0,
6.38224E+17,-14.32446,80.35088,64.99879,-80.27049,-24.92796,49.00723,-17.01029,-0.4441859,-4.27255,-61.44649,-6.98289,34.57793,0,0,0,-35.43103,98.45476,-29.59599,-36.10317,-110.6632,-50.33768,0.001067912,-0.1257102,0.09433498,0,0.3,0,0,0,0,
6.38224E+17,-14.58362,80.39764,62.64072,-79.39155,-25.22094,49.81293,-17.01029,-0.4441859,-4.27255,-61.51973,-6.98289,34.57793,0,0,0,-35.42163,93.54816,-32.20468,-36.10317,-110.6632,-50.33768,0.001067912,-0.1257102,0.09433498,0,0.3,0,0,0,0,
6.38224E+17,-14.93702,80.25737,60.37603,-77.78016,-25.22094,49.08047,-17.01029,-0.4441859,-4.27255,-61.51973,-6.98289,34.57793,0,0,0,-35.69559,88.86115,-34.54403,-36.10317,-110.6632,-50.33768,0.001067912,-0.1257102,0.09433498,0,0.3,0,0,0,0,
6.38224E+17,-15.05481,79.9067,58.29812,-75.87578,-24.92796,47.61557,-17.01029,-0.4441859,-4.27255,-61.44649,-6.98289,34.57793,0,0,0,-35.53886,84.56087,-36.22291,-36.10317,-110.6632,-50.33768,0.001067912,-0.1257102,0.09433498,0,0.3,0,0,0,0,
6.38224E+17,-15.05481,79.27549,54.98281,-72.79948,-24.41524,44.83226,-17.01029,-0.4441859,-4.27255,-61.44649,-6.98289,34.57793,0,0,0,-34.81223,77.85162,-38.92439,-36.10317,-110.6632,-50.33768,0.001067912,-0.1257102,0.09433498,0,0.3,0,0,0,0,
6.38224E+17,-14.79566,78.22346,49.61294,-68.62451,-23.38981,40.29105,-17.01029,-0.4441859,-4.27255,-61.44649,-6.909645,34.57793,0,0,0,-32.88858,67.48927,-43.83348,-36.10317,-110.6632,-50.33768,0.001067912,-0.1257102,0.09433498,0,0.3,0,0,0,0,
6.38224E+17,-13.17002,76.70389,43.89286,-63.13113,-21.9249,32.45382,-17.01029,-0.4441859,-4.27255,-61.44649,-6.98289,34.57793,0,0,0,-28.05217,57.02847,-48.46682,-36.10317,-110.6632,-50.33768,0.001067912,-0.1257102,0.09433498,0,0.3,0,0,0,0,
6.38224E+17,-11.09674,74.9739,39.97052,-57.63773,-20.31351,24.03063,-17.01029,-0.4441859,-4.27255,-61.51973,-6.98289,34.57793,0,0,0,-23.14124,49.94436,-50.36261,-36.10317,-110.6632,-50.33768,0.001067912,-0.1257102,0.09433498,0,0.3,0,0,0,0,
6.38224E+17,-9.753823,73.24391,37.26224,-52.51057,-18.40914,16.77936,-17.01029,-0.4441859,-4.27255,-61.51973,-6.98289,34.57793,0,0,0,-20.19145,44.90843,-50.88966,-36.10317,-110.6632,-50.33768,0.001067912,-0.1257102,0.09433498,0,0.3,0,0,0,0,
6.38224E+17,-9.471104,72.4958,36.18826,-50.31322,-17.5302,13.70306,-17.01029,-0.4441859,-4.27255,-61.51973,-6.98289,34.57793,0,0,0,-19.55574,42.90093,-51.12635,-36.10317,-110.6632,-50.33768,0.001067912,-0.1257102,0.09433498,0,0.3,0,0,0,0,
6.38224E+17,-9.400424,71.25676,34.71738,-47.23692,-16.21178,9.161857,-17.01029,-0.4441859,-4.27255,-61.44649,-6.98289,34.57793,0,0,0,-19.4033,40.01832,-51.14958,-36.10317,-110.6632,-50.33768,0.001067912,-0.1257102,0.09433498,0,0.3,0,0,0,0,
6.38224E+17,-9.400424,70.34502,33.83019,-45.11281,-14.82012,6.378541,-17.01029,-0.4441859,-4.27255,-61.51973,-6.98289,34.57793,0,0,0,-19.45191,38.1577,-50.85591,-36.10317,-110.6632,-50.33768,0.001067912,-0.1257102,0.09433498,0,0.3,0,0,0,0,
6.38224E+17,-9.400424,70.0411,33.45663,-44.23387,-14.16092,5.499599,-17.01029,-0.4441859,-4.27255,-61.44649,-6.98289,34.57793,0,0,0,-19.44239,37.43634,-50.91343,-36.10317,-110.6632,-50.33768,0.001067912,-0.1257102,0.09433498,0,0.3,0,0,0,0,
6.38224E+17,-9.400424,69.5034,32.59278,-42.76897,-13.06224,4.400921,-17.01029,-0.4441859,-4.27255,-61.51973,-6.98289,34.57793,0,0,0,-19.35886,35.90793,-51.41798,-36.10317,-110.6632,-50.33768,0.001067912,-0.1257102,0.09433498,0,0.3,0,0,0,0,
6.38224E+17,-9.400424,69.08259,31.91571,-41.45055,-12.32979,3.741715,-17.01029,-0.4441859,-4.27255,-61.44649,-6.909645,34.57793,0,0,0,-19.29083,34.72066,-51.82891,-36.10317,-110.6632,-50.33768,0.001067912,-0.1257102,0.09433498,0,0.3,0,0,0,0,
6.38224E+17,-9.423985,68.9657,31.70559,-40.93784,-12.03681,3.595225,-17.01029,-0.4441859,-4.27255,-61.44649,-6.98289,34.50468,0,0,0,-19.31229,34.36549,-51.99623,-36.10317,-110.6632,-50.33768,0.001067912,-0.1257102,0.09433498,0,0.3,0,0,0,0,
6.38224E+17,-9.447544,68.94232,31.49546,-40.20539,-11.52409,3.228999,-17.01029,-0.4441859,-4.27255,-61.44649,-6.98289,34.57793,0,0,0,-19.30009,34.08969,-52.36497,-36.10317,-110.6632,-50.33768,0.001067912,-0.1257102,0.09433498,0,0.3,0,0,0,0,
