zeyangz2/DNN_classification_different_people_hand/data/frank_right_17.csv
Timestamp,Therapist joint angle 0,Therapist joint angle 1,Therapist joint angle 2,Therapist joint angle 3,Therapist joint angle 4,Therapist joint angle 5,Patient joint angle 0,Patient joint angle 1,Patient joint angle 2,Patient joint angle 3,Patient joint angle 4,Patient joint angle 5,Virtual joint angle 0,Virtual joint angle 1,Virtual joint angle 2,Therapist position x,Therapist position y,Therapist position z,Patient position x,Patient position y,Patient position z,Virtual position x,Virtual position y,Virtual position z,Assistive Force, Obstacle Force Magnitude, Therapist Constant Force, Patient Constant Force, Recovery Factor, Assistance Level,label
6.38224E+17,0,0,0,0,0,0,0,0,0,0,0,0,0,0,0,0,0,0,0,0,0,0,0,0,0,0.3,0,0,0,0,1
6.38224E+17,-24.5966,-0.9818845,-10.97322,-125.829,-11.30435,-70.52889,-17.01029,-0.4441859,-4.27255,-61.51973,-6.98289,34.57793,0,0,0,-44.93053,-109.847,-70.19781,-36.10317,-110.6632,-50.33768,0.001067912,-0.1257102,0.09433498,0,0.3,0,0,8.77E-08,0,
6.38224E+17,-24.5966,-0.9818845,-10.97322,-125.829,-11.30435,-70.52889,-17.01029,-0.4441859,-4.27255,-61.51973,-6.98289,34.57793,0,0,0,-44.93053,-109.847,-70.19781,-36.10317,-110.6632,-50.33768,0.001067912,-0.1257102,0.09433498,0,0.3,0,0,8.77E-08,0,
6.38224E+17,-24.5966,-0.9818845,-10.97322,-125.829,-11.30435,-70.52889,-17.01029,-0.4441859,-4.27255,-61.44649,-6.98289,34.57793,0,0,0,-44.93053,-109.847,-70.19781,-36.10317,-110.6632,-50.33768,0.001067912,-0.1257102,0.09433498,0,0.3,0,0,0,0,
6.38224E+17,-24.5966,-0.9818845,-10.97322,-125.829,-11.30435,-70.52889,-17.01029,-0.4441859,-4.27255,-61.44649,-6.98289,34.57793,0,0,0,-44.93053,-109.847,-70.19781,-36.10317,-110.6632,-50.33768,0.001067912,-0.1257102,0.09433498,0,0.3,0,0,0,0,
6.38224E+17,-24.5966,-0.9818845,-10.97322,-125.829,-11.30435,-70.52889,-17.01029,-0.4441859,-4.27255,-61.51973,-6.98289,34.57793,0,0,0,-44.93053,-109.847,-70.19781,-36.10317,-110.6632,-50.33768,0.001067912,-0.1257102,0.09433498,0,0.3,0,0,0,0,
6.38224E+17,-24.5966,-0.9818845,-10.97322,-125.829,-11.30435,-70.52889,-17.01029,-0.4441859,-4.27255,-61.44649,-6.98289,34.57793,0,0,0,-44.93053,-109.847,-70.19781,-36.10317,-110.6632,-50.33768,0.001067912,-0.1257102,0.09433498,0,0.3,0,0,0,0,
6.38224E+17,-24.5966,-0.9818845,-10.97322,-125.829,-11.30435,-70.52889,-17.01029,-0.4441859,-4.27255,-61.44649,-6.98289,34.57793,0,0,0,-44.93053,-109.847,-70.19781,-36.10317,-110.6632,-50.33768,0.001067912,-0.1257102,0.09433498,0,0.3,0,0,0,0,
6.38224E+17,-24.5966,-0.9818845,-10.97322,-125.829,-11.3776,-70.60213,-17.01029,-0.4441859,-4.27255,-61.44649,-6.98289,34.57793,0,0,0,-44.93053,-109.847,-70.19781,-36.10317,-110.6632,-50.33768,0.001067912,-0.1257102,0.09433498,0,0.3,0,0,0,0,
6.38224E+17,-24.5966,-0.9818845,-10.97322,-125.829,-11.30435,-70.52889,-17.01029,-0.4441859,-4.27255,-61.51973,-6.98289,34.57793,0,0,0,-44.93053,-109.847,-70.19781,-36.10317,-110.6632,-50.33768,0.001067912,-0.1257102,0.09433498,0,0.3,0,0,0,0,
6.38224E+17,-24.5966,-0.9818845,-10.97322,-125.829,-11.30435,-70.52889,-17.01029,-0.4441859,-4.27255,-61.51973,-6.98289,34.57793,0,0,0,-44.93053,-109.847,-70.19781,-36.10317,-110.6632,-50.33768,0.001067912,-0.1257102,0.09433498,0,0.3,0,0,0,0,
6.38224E+17,-24.5966,-0.9818845,-10.97322,-125.829,-11.30435,-70.52889,-17.01029,-0.4441859,-4.27255,-61.44649,-6.98289,34.57793,0,0,0,-44.93053,-109.847,-70.19781,-36.10317,-110.6632,-50.33768,0.001067912,-0.1257102,0.09433498,0,0.3,0,0,0,0,
6.38224E+17,-24.5966,-0.9818845,-10.97322,-125.829,-11.30435,-70.52889,-17.01029,-0.4441859,-4.27255,-61.44649,-6.98289,34.57793,0,0,0,-44.93053,-109.847,-70.19781,-36.10317,-110.6632,-50.33768,0.001067912,-0.1257102,0.09433498,0,0.3,0,0,0,0,
6.38224E+17,-24.5966,-0.9818845,-10.97322,-125.829,-11.30435,-70.52889,-17.01029,-0.4441859,-4.27255,-61.44649,-6.98289,34.57793,0,0,0,-44.93053,-109.847,-70.19781,-36.10317,-110.6632,-50.33768,0.001067912,-0.1257102,0.09433498,0,0.3,0,0,0,0,
6.38224E+17,-24.5966,-0.9818845,-10.97322,-125.9022,-11.30435,-70.60213,-17.01029,-0.4441859,-4.27255,-61.44649,-6.98289,34.57793,0,0,0,-44.93053,-109.847,-70.19781,-36.10317,-110.6632,-50.33768,0.001067912,-0.1257102,0.09433498,0,0.3,0,0,0,0,
6.38224E+17,-24.5966,-0.9818845,-10.97322,-125.829,-11.30435,-70.52889,-17.01029,-0.4441859,-4.27255,-61.51973,-6.98289,34.50468,0,0,0,-44.93053,-109.847,-70.19781,-36.10317,-110.6632,-50.33768,0.001067912,-0.1257102,0.09433498,0,0.3,0,0,8.77E-08,0,
6.38224E+17,-24.5966,-0.9818845,-10.97322,-125.829,-11.30435,-70.52889,-17.01029,-0.4441859,-4.27255,-61.44649,-6.98289,34.57793,0,0,0,-44.93053,-109.847,-70.19781,-36.10317,-110.6632,-50.33768,0.001067912,-0.1257102,0.09433498,0,0.3,0,0,1.75E-07,0,
6.38224E+17,-24.5966,-0.9818845,-10.97322,-125.829,-11.30435,-70.52889,-17.01029,-0.4441859,-4.27255,-61.44649,-6.98289,34.57793,0,0,0,-44.93053,-109.847,-70.19781,-36.10317,-110.6632,-50.33768,0.001067912,-0.1257102,0.09433498,0,0.3,0,0,2.63E-07,0,
6.38224E+17,-24.5966,-0.9818845,-10.97322,-125.829,-11.30435,-70.60213,-17.01029,-0.4441859,-4.27255,-61.51973,-6.98289,34.57793,0,0,0,-44.93053,-109.847,-70.19781,-36.10317,-110.6632,-50.33768,0.001067912,-0.1257102,0.09433498,0,0.3,0,0,3.51E-07,0,
6.38224E+17,-24.5966,-0.9818845,-10.97322,-125.829,-11.3776,-70.52889,-17.01029,-0.4441859,-4.27255,-61.44649,-6.98289,34.57793,0,0,0,-44.93053,-109.847,-70.19781,-36.10317,-110.6632,-50.33768,0.001067912,-0.1257102,0.09433498,0,0.3,0,0,3.51E-07,0,
6.38224E+17,-24.5966,-0.9818845,-10.97322,-125.829,-11.30435,-70.52889,-17.01029,-0.4441859,-4.27255,-61.51973,-6.98289,34.57793,0,0,0,-44.93053,-109.847,-70.19781,-36.10317,-110.6632,-50.33768,0.001067912,-0.1257102,0.09433498,0,0.3,0,0,4.38E-07,0,
6.38224E+17,-24.5966,-0.9818845,-10.97322,-125.9022,-11.30435,-70.52889,-17.01029,-0.4441859,-4.27255,-61.44649,-6.98289,34.57793,0,0,0,-44.93053,-109.847,-70.19781,-36.10317,-110.6632,-50.33768,0.001067912,-0.1257102,0.09433498,0,0.3,0,0,4.38E-07,0,
6.38224E+17,-24.5966,-0.9818845,-10.97322,-125.829,-11.30435,-70.52889,-17.01029,-0.4441859,-4.27255,-61.44649,-6.98289,34.57793,0,0,0,-44.93053,-109.847,-70.19781,-36.10317,-110.6632,-50.33768,0.001067912,-0.1257102,0.09433498,0,0.3,0,0,5.26E-07,0,
6.38224E+17,-24.5966,-0.9818845,-10.97322,-125.829,-11.30435,-70.52889,-17.01029,-0.4441859,-4.27255,-61.44649,-6.98289,34.57793,0,0,0,-44.93053,-109.847,-70.19781,-36.10317,-110.6632,-50.33768,0.001067912,-0.1257102,0.09433498,0,0.3,0,0,5.26E-07,0,
6.38224E+17,-24.5966,-0.9818845,-10.97322,-125.829,-11.30435,-70.52889,-17.01029,-0.4441859,-4.27255,-61.44649,-6.98289,34.57793,0,0,0,-44.93053,-109.847,-70.19781,-36.10317,-110.6632,-50.33768,0.001067912,-0.1257102,0.09433498,0,0.3,0,0,5.26E-07,0,
6.38224E+17,-24.5966,-0.9818845,-10.97322,-125.829,-11.30435,-70.60213,-17.01029,-0.4441859,-4.27255,-61.44649,-6.98289,34.57793,0,0,0,-44.93053,-109.847,-70.19781,-36.10317,-110.6632,-50.33768,0.001067912,-0.1257102,0.09433498,0,0.3,0,0,6.14E-07,0,
6.38224E+17,-24.5966,-0.9818845,-10.97322,-125.829,-11.30435,-70.60213,-17.01029,-0.4441859,-4.27255,-61.44649,-6.98289,34.57793,0,0,0,-44.93053,-109.847,-70.19781,-36.10317,-110.6632,-50.33768,0.001067912,-0.1257102,0.09433498,0,0.3,0,0,6.14E-07,0,
6.38224E+17,-24.5966,-0.9818845,-10.97322,-125.829,-11.30435,-70.52889,-17.01029,-0.4441859,-4.27255,-61.44649,-6.98289,34.57793,0,0,0,-44.93053,-109.847,-70.19781,-36.10317,-110.6632,-50.33768,0.001067912,-0.1257102,0.09433498,0,0.3,0,0,6.14E-07,0,
6.38224E+17,-24.5966,-0.9818845,-10.97322,-125.829,-11.3776,-70.52889,-17.01029,-0.4441859,-4.27255,-61.44649,-6.98289,34.57793,0,0,0,-44.93053,-109.847,-70.19781,-36.10317,-110.6632,-50.33768,0.001067912,-0.1257102,0.09433498,0,0.3,0,0,6.14E-07,0,
6.38224E+17,-24.5966,-0.9818845,-10.97322,-125.829,-11.30435,-70.52889,-17.01029,-0.4441859,-4.27255,-61.44649,-6.98289,34.57793,0,0,0,-44.93053,-109.847,-70.19781,-36.10317,-110.6632,-50.33768,0.001067912,-0.1257102,0.09433498,0,0.3,0,0,5.26E-07,0,
6.38224E+17,-24.5966,-0.9818845,-10.97322,-125.829,-11.30435,-70.52889,-17.01029,-0.4441859,-4.27255,-61.51973,-6.98289,34.57793,0,0,0,-44.93053,-109.847,-70.19781,-36.10317,-110.6632,-50.33768,0.001067912,-0.1257102,0.09433498,0,0.3,0,0,5.26E-07,0,
6.38224E+17,-24.5966,-0.9818845,-10.97322,-125.829,-11.30435,-70.52889,-17.01029,-0.4441859,-4.27255,-61.44649,-6.98289,34.57793,0,0,0,-44.93053,-109.847,-70.19781,-36.10317,-110.6632,-50.33768,0.001067912,-0.1257102,0.09433498,0,0.3,0,0,4.38E-07,0,
6.38224E+17,-24.5966,-0.9818845,-10.97322,-125.829,-11.30435,-70.52889,-17.01029,-0.4441859,-4.27255,-61.44649,-6.98289,34.57793,0,0,0,-44.93053,-109.847,-70.19781,-36.10317,-110.6632,-50.33768,0.001067912,-0.1257102,0.09433498,0,0.3,0,0,3.51E-07,0,
6.38224E+17,-24.5966,-0.9818845,-10.97322,-125.829,-11.30435,-70.52889,-17.01029,-0.4441859,-4.27255,-61.44649,-6.98289,34.57793,0,0,0,-44.93053,-109.847,-70.19781,-36.10317,-110.6632,-50.33768,0.001067912,-0.1257102,0.09433498,0,0.3,0,0,2.63E-07,0,
6.38224E+17,-24.5966,-0.9818845,-10.97322,-125.829,-11.30435,-70.52889,-17.01029,-0.4441859,-4.27255,-61.51973,-6.98289,34.57793,0,0,0,-44.93053,-109.847,-70.19781,-36.10317,-110.6632,-50.33768,0.001067912,-0.1257102,0.09433498,0,0.3,0,0,2.63E-07,0,
6.38224E+17,-24.5966,-0.9818845,-10.97322,-125.829,-11.30435,-70.52889,-17.01029,-0.4441859,-4.27255,-61.51973,-6.98289,34.57793,0,0,0,-44.93053,-109.847,-70.19781,-36.10317,-110.6632,-50.33768,0.001067912,-0.1257102,0.09433498,0,0.3,0,0,1.75E-07,0,
6.38224E+17,-24.5966,-0.9818845,-10.97322,-125.829,-11.30435,-70.60213,-17.01029,-0.4441859,-4.27255,-61.44649,-6.98289,34.57793,0,0,0,-44.93053,-109.847,-70.19781,-36.10317,-110.6632,-50.33768,0.001067912,-0.1257102,0.09433498,0,0.3,0,0,1.75E-07,0,
6.38224E+17,-24.5966,-0.9818845,-10.97322,-125.829,-11.30435,-70.52889,-17.01029,-0.4441859,-4.27255,-61.51973,-6.98289,34.57793,0,0,0,-44.93053,-109.847,-70.19781,-36.10317,-110.6632,-50.33768,0.001067912,-0.1257102,0.09433498,0,0.3,0,0,8.77E-08,0,
6.38224E+17,-24.5966,-0.9818845,-10.97322,-125.829,-11.30435,-70.52889,-17.01029,-0.4441859,-4.27255,-61.44649,-6.909645,34.57793,0,0,0,-44.93053,-109.847,-70.19781,-36.10317,-110.6632,-50.33768,0.001067912,-0.1257102,0.09433498,0,0.3,0,0,8.77E-08,0,
6.38224E+17,-24.5966,-0.9818845,-10.97322,-125.829,-11.30435,-70.52889,-17.01029,-0.4441859,-4.27255,-61.44649,-6.98289,34.57793,0,0,0,-44.93053,-109.847,-70.19781,-36.10317,-110.6632,-50.33768,0.001067912,-0.1257102,0.09433498,0,0.3,0,0,0,0,
6.38224E+17,-24.5966,-0.9818845,-10.97322,-125.829,-11.30435,-70.52889,-17.01029,-0.4441859,-4.27255,-61.44649,-6.909645,34.57793,0,0,0,-44.93053,-109.847,-70.19781,-36.10317,-110.6632,-50.33768,0.001067912,-0.1257102,0.09433498,0,0.3,0,0,0,0,
6.38224E+17,-24.5966,-0.9818845,-10.97322,-125.829,-11.30435,-70.52889,-17.01029,-0.4441859,-4.27255,-61.44649,-6.98289,34.57793,0,0,0,-44.93053,-109.847,-70.19781,-36.10317,-110.6632,-50.33768,0.001067912,-0.1257102,0.09433498,0,0.3,0,0,0,0,
6.38224E+17,-24.5966,-0.9818845,-10.97322,-125.829,-11.30435,-70.38239,-17.01029,-0.4441859,-4.27255,-61.44649,-6.98289,34.57793,0,0,0,-44.93053,-109.847,-70.19781,-36.10317,-110.6632,-50.33768,0.001067912,-0.1257102,0.09433498,0,0.3,0,0,0,0,
6.38224E+17,-24.64372,-0.9818845,-10.94987,-125.829,-11.52409,-66.93987,-17.01029,-0.4441859,-4.27255,-61.44649,-6.98289,34.57793,0,0,0,-45.03349,-109.8573,-70.1863,-36.10317,-110.6632,-50.33768,0.001067912,-0.1257102,0.09433498,0,0.3,0,0,0,0,
6.38224E+17,-24.73796,-0.9818845,-10.73974,-126.122,-11.59733,-65.25523,-17.01029,-0.4441859,-4.27255,-61.51973,-6.98289,34.57793,0,0,0,-45.39588,-109.9493,-69.82427,-36.10317,-110.6632,-50.33768,0.001067912,-0.1257102,0.09433498,0,0.3,0,0,7.16E-05,0,
6.38224E+17,-24.87932,-0.9818845,-10.34284,-127.7334,-11.52409,-63.20437,-17.01029,-0.4441859,-4.27255,-61.51973,-6.98289,34.57793,0,0,0,-46.02089,-110.1183,-69.11269,-36.10317,-110.6632,-50.33768,0.001067912,-0.1257102,0.09433498,0,0.3,0,0,0.0005789,0,
6.38224E+17,-24.64372,-0.9585064,-10.34284,-126.122,-11.45084,-60.71403,-17.01029,-0.4441859,-4.27255,-61.51973,-6.98289,34.57793,0,0,0,-45.61283,-110.0639,-68.92346,-36.10317,-110.6632,-50.33768,0.001067912,-0.1257102,0.09433498,0,0.3,0,0,0.001443258,0,
6.38224E+17,-24.33744,-0.9585064,-10.36619,-123.4119,-10.93813,-59.61535,-17.01029,-0.4441859,-4.27255,-61.51973,-6.98289,34.57793,0,0,0,-45.05865,-110.0542,-68.72976,-36.10317,-110.6632,-50.33768,0.001067912,-0.1257102,0.09433498,0,0.3,0,0,0.002162739,0,
6.38224E+17,-23.34792,-0.9585064,-10.36619,-115.8676,-7.861832,-57.34475,-17.01029,-0.4441859,-4.27255,-61.51973,-6.98289,34.57793,0,0,0,-43.33154,-110.0542,-67.96648,-36.10317,-110.6632,-50.33768,0.001067912,-0.1257102,0.09433498,0,0.3,0,0,0.004736083,0,
6.38224E+17,-21.74584,-0.8182371,-10.36619,-106.9317,-3.320631,-54.63469,-17.01029,-0.4441859,-4.27255,-61.44649,-6.98289,34.57793,0,0,0,-40.50997,-109.7277,-66.78955,-36.10317,-110.6632,-50.33768,0.001067912,-0.1257102,0.09433498,0,0.3,0,0,0.009138648,0,
6.38224E+17,-20.47361,-0.4441859,-10.24945,-102.6835,-0.5373149,-52.8768,-17.01029,-0.4441859,-4.27255,-61.51973,-6.98289,34.57793,0,0,0,-38.3419,-108.9058,-65.65575,-36.10317,-110.6632,-50.33768,0.001067912,-0.1257102,0.09433498,0,0.3,0,0,0.01236798,0,
6.38224E+17,-17.52861,0.6779679,-9.73581,-96.1647,4.003886,-50.16673,-17.01029,-0.4441859,-4.27255,-61.44649,-6.98289,34.57793,0,0,0,-33.36809,-106.5016,-62.70391,-36.10317,-110.6632,-50.33768,0.001067912,-0.1257102,0.09433498,0,0.3,0,0,0.02061631,0,
6.38224E+17,-14.67786,1.005263,-9.689116,-90.45158,6.933692,-48.77507,-17.01029,-0.4441859,-4.27255,-61.51973,-6.98289,34.57793,0,0,0,-28.09685,-105.7583,-61.08231,-36.10317,-110.6632,-50.33768,0.001067912,-0.1257102,0.09433498,0,0.3,0,0,0.02826127,0,
6.38224E+17,-11.26166,0.9818845,-9.689116,-84.22573,9.350782,-50.02024,-17.01029,-0.4441859,-4.27255,-61.51973,-6.98289,34.57793,0,0,0,-21.65518,-105.8127,-59.59774,-36.10317,-110.6632,-50.33768,0.001067912,-0.1257102,0.09433498,0,0.3,0,0,0.03261622,0,
6.38224E+17,-9.965863,0.9818845,-9.759157,-81.00294,10.30297,-52.14435,-17.01029,-0.4441859,-4.27255,-61.51973,-6.98289,34.57793,0,0,0,-19.16251,-105.7852,-59.29409,-36.10317,-110.6632,-50.33768,0.001067912,-0.1257102,0.09433498,0,0.3,0,0,0.03324879,0,
6.38224E+17,-8.128186,0.9818845,-9.829199,-76.02227,12.06085,-55.73336,-17.01029,-0.4441859,-4.27255,-61.44649,-6.98289,34.57793,0,0,0,-15.63274,-105.7574,-58.8947,-36.10317,-110.6632,-50.33768,0.001067912,-0.1257102,0.09433498,0,0.3,0,0,0.03228594,0,
6.38224E+17,-5.536591,1.052019,-9.829199,-72.5065,14.77092,-57.27151,-17.01029,-0.4441859,-4.27255,-61.51973,-6.98289,34.57793,0,0,0,-10.66729,-105.5942,-58.30268,-36.10317,-110.6632,-50.33768,0.001067912,-0.1257102,0.09433498,0,0.3,0,0,0.02770632,0,
6.38224E+17,-3.934513,1.098776,-9.759157,-70.89511,16.23583,-57.5645,-17.01029,-0.4441859,-4.27255,-61.44649,-6.98289,34.57793,0,0,0,-7.59731,-105.5132,-57.88924,-36.10317,-110.6632,-50.33768,0.001067912,-0.1257102,0.09433498,0,0.3,0,0,0.02354019,0,
6.38224E+17,-0.1649197,1.145532,-9.689116,-66.64689,19.01915,-59.46887,-17.01029,-0.4441859,-4.27255,-61.44649,-6.98289,34.57793,0,0,0,-0.3191564,-105.4319,-57.4702,-36.10317,-110.6632,-50.33768,0.001067912,-0.1257102,0.09433498,0,0.3,0,0,0.01063189,0,
6.38224E+17,3.486874,1.145532,-9.408949,-60.93377,21.28975,-61.00701,-17.01029,-0.4441859,-4.27255,-61.44649,-6.98289,34.57793,0,0,0,6.782833,-105.5401,-57.03317,-36.10317,-110.6632,-50.33768,0.001067912,-0.1257102,0.09433498,0,0.3,0,0,0,0,
6.38224E+17,6.855949,1.145532,-8.731878,-54.12197,22.38842,-61.9592,-17.01029,-0.4441859,-4.27255,-61.44649,-6.98289,34.57793,0,0,0,13.49868,-105.7885,-56.0792,-36.10317,-110.6632,-50.33768,0.001067912,-0.1257102,0.09433498,0,0.3,0,0,0,0,
6.38224E+17,8.410906,1.145532,-7.868029,-50.53296,22.46167,-62.7649,-17.01029,-0.4441859,-4.27255,-61.44649,-6.98289,34.57793,0,0,0,16.83127,-106.0787,-54.5188,-36.10317,-110.6632,-50.33768,0.001067912,-0.1257102,0.09433498,0,0.3,0,0,0,0,
6.38224E+17,11.54438,1.145532,-4.879579,-43.06195,22.0222,-67.96531,-17.01029,-0.4441859,-4.27255,-61.44649,-6.98289,34.57793,0,0,0,24.41155,-106.8508,-48.83731,-36.10317,-110.6632,-50.33768,0.001067912,-0.1257102,0.09433498,0,0.3,0,0,0,0,
6.38224E+17,14.23022,1.145532,-1.610961,-37.49532,21.36299,-74.41088,-17.01029,-0.4441859,-4.27255,-61.51973,-6.98289,34.57793,0,0,0,31.85182,-107.2814,-42.75139,-36.10317,-110.6632,-50.33768,0.001067912,-0.1257102,0.09433498,0,0.3,0,0,0,0,
6.38224E+17,15.66737,1.145532,0.1167363,-35.07822,20.92352,-76.90121,-17.01029,-0.4441859,-4.27255,-61.44649,-6.98289,34.57793,0,0,0,36.07764,-107.3338,-39.71859,-36.10317,-110.6632,-50.33768,0.001067912,-0.1257102,0.09433498,0,0.3,0,0,0,0,
6.38224E+17,18.47101,1.192288,3.455395,-30.75676,20.26431,-80.56348,-17.01029,-0.4441859,-4.27255,-61.44649,-6.98289,34.57793,0,0,0,44.78582,-106.9828,-34.27387,-36.10317,-110.6632,-50.33768,0.001067912,-0.1257102,0.09433498,0,0.3,0,0,0,0,
6.38224E+17,21.13329,1.215667,6.607276,-26.36205,19.97133,-85.69064,-17.01029,-0.4441859,-4.27255,-61.51973,-6.98289,34.57793,0,0,0,53.59901,-106.2852,-29.68481,-36.10317,-110.6632,-50.33768,0.001067912,-0.1257102,0.09433498,0,0.3,0,0,0,0,
6.38224E+17,22.54688,1.285801,8.428363,-23.79847,19.97133,-88.62045,-17.01029,-0.4441859,-4.27255,-61.44649,-6.98289,34.57793,0,0,0,58.61325,-105.5675,-27.17194,-36.10317,-110.6632,-50.33768,0.001067912,-0.1257102,0.09433498,0,0.3,0,0,0,0,
6.38224E+17,24.64372,1.589718,11.27673,-20.2827,20.04458,-92.06297,-17.01029,-0.4441859,-4.27255,-61.44649,-6.98289,34.57793,0,0,0,66.4553,-103.7261,-23.49118,-36.10317,-110.6632,-50.33768,0.001067912,-0.1257102,0.09433498,0,0.3,0,0,0,0,
6.38224E+17,26.97615,1.987147,13.6815,-17.13316,20.19107,-100.5594,-17.01029,-0.4441859,-4.27255,-61.44649,-6.98289,34.57793,0,0,0,74.76121,-101.5923,-21.47179,-36.10317,-110.6632,-50.33768,0.001067912,-0.1257102,0.09433498,0,0.3,0,0,0,0,
6.38224E+17,28.03635,2.197551,14.68543,-15.88799,20.4108,-107.8107,-17.01029,-0.4441859,-4.27255,-61.51973,-6.98289,34.57793,0,0,0,78.52244,-100.5304,-20.89655,-36.10317,-110.6632,-50.33768,0.001067912,-0.1257102,0.09433498,0,0.3,0,0,0,0,
6.38224E+17,30.29811,2.665115,17.27698,-13.03143,20.99677,-122.533,-17.01029,-0.4441859,-4.27255,-61.44649,-6.98289,34.50468,0,0,0,87.18227,-97.78273,-19.14413,-36.10317,-110.6632,-50.33768,0.001067912,-0.1257102,0.09433498,0,0.3,0,0,0,0,
6.38224E+17,32.3007,3.132679,20.12534,-9.955132,21.36299,-133.2267,-17.01029,-0.4441859,-4.27255,-61.44649,-6.98289,34.57793,0,0,0,95.66864,-94.57058,-17.0213,-36.10317,-110.6632,-50.33768,0.001067912,-0.1257102,0.09433498,0,0.3,0,0,0,0,
6.38224E+17,33.97346,3.576865,22.76358,-7.171815,21.36299,-141.2105,-17.01029,-0.4441859,-4.27255,-61.44649,-6.98289,34.57793,0,0,0,103.2049,-91.29389,-15.18948,-36.10317,-110.6632,-50.33768,0.001067912,-0.1257102,0.09433498,0,0.3,0,0,0,0,
6.38224E+17,34.60958,3.857404,24.07103,-5.926647,21.43624,-141.6499,-17.01029,-0.4441859,-4.27255,-61.51973,-6.98289,34.57793,0,0,0,106.4609,-89.43303,-14.08141,-36.10317,-110.6632,-50.33768,0.001067912,-0.1257102,0.09433498,0,0.3,0,0,0,0,
6.38224E+17,35.52842,4.465237,26.73262,-4.168763,21.07001,-141.9429,-17.01029,-0.4441859,-4.27255,-61.44649,-6.98289,34.57793,0,0,0,112.1128,-85.36508,-11.33849,-36.10317,-110.6632,-50.33768,0.001067912,-0.1257102,0.09433498,0,0.3,0,0,0,0,
6.38224E+17,36.35302,5.4705,28.9973,-2.777105,20.26431,-142.0162,-17.01029,-0.4441859,-4.27255,-61.44649,-6.98289,34.57793,0,0,0,117.0026,-80.57089,-9.378822,-36.10317,-110.6632,-50.33768,0.001067912,-0.1257102,0.09433498,0,0.3,0,0,0,0,
6.38224E+17,36.72998,6.148468,29.95454,-2.044653,19.82484,-142.0894,-17.01029,-0.4441859,-4.27255,-61.44649,-6.98289,34.57793,0,0,0,119.1103,-77.90488,-8.725624,-36.10317,-110.6632,-50.33768,0.001067912,-0.1257102,0.09433498,0,0.3,0,0,0,0,
6.38224E+17,37.31898,7.574538,31.75228,-0.7994855,19.23888,-142.0894,-17.01029,-0.4441859,-4.27255,-61.44649,-6.98289,34.57793,0,0,0,122.6821,-72.46403,-7.417374,-36.10317,-110.6632,-50.33768,0.001067912,-0.1257102,0.09433498,0,0.3,0,0,0,0,
6.38224E+17,37.64882,9.23439,33.7368,0.3724372,18.79941,-142.0894,-17.01029,-0.4441859,-4.27255,-61.44649,-6.909645,34.57793,0,0,0,125.6344,-66.14438,-5.497629,-36.10317,-110.6632,-50.33768,0.001067912,-0.1257102,0.09433498,0,0.3,0,0,0,0,
6.38224E+17,37.7195,10.16952,34.74073,1.031644,18.50643,-142.0894,-17.01029,-0.4441859,-4.27255,-61.44649,-6.98289,34.57793,0,0,0,126.7926,-62.68449,-4.414931,-36.10317,-110.6632,-50.33768,0.001067912,-0.1257102,0.09433498,0,0.3,0,0,0,0,
6.38224E+17,37.79018,11.73586,36.2583,1.910586,17.77398,-142.0894,-17.01029,-0.4441859,-4.27255,-61.44649,-6.98289,34.57793,0,0,0,128.3322,-57.05456,-2.846513,-36.10317,-110.6632,-50.33768,0.001067912,-0.1257102,0.09433498,0,0.3,0,0,0,0,
6.38224E+17,37.79018,13.02166,37.5891,2.643037,17.70073,-142.0894,-17.01029,-0.4441859,-4.27255,-61.44649,-6.98289,34.57793,0,0,0,129.4564,-52.27097,-1.39677,-36.10317,-110.6632,-50.33768,0.001067912,-0.1257102,0.09433498,0,0.3,0,0,0,0,
6.38224E+17,37.79018,14.588,39.62031,3.448734,18.43318,-142.0894,-17.01029,-0.4441859,-4.27255,-61.51973,-6.98289,34.57793,0,0,0,131.187,-45.78139,0.8351682,-36.10317,-110.6632,-50.33768,0.001067912,-0.1257102,0.09433498,0,0.3,0,0,0,0,
6.38224E+17,37.76662,15.45299,40.46081,4.034696,18.79941,-142.0894,-17.01029,-0.4441859,-4.27255,-61.51973,-6.98289,34.57793,0,0,0,131.7151,-42.57855,1.66054,-36.10317,-110.6632,-50.33768,0.001067912,-0.1257102,0.09433498,0,0.3,0,0,0,0,
6.38224E+17,37.74306,17.13622,42.04842,5.060128,19.31213,-142.0894,-17.01029,-0.4441859,-4.27255,-61.51973,-6.98289,34.57793,0,0,0,132.6727,-36.38206,3.042092,-36.10317,-110.6632,-50.33768,0.001067912,-0.1257102,0.09433498,0,0.3,0,0,0,0,
6.38224E+17,37.69594,18.72594,43.72943,5.79258,20.19107,-142.0894,-17.01029,-0.4441859,-4.27255,-61.44649,-6.98289,34.57793,0,0,0,133.5879,-30.19941,4.517916,-36.10317,-110.6632,-50.33768,0.001067912,-0.1257102,0.09433498,0,0.3,0,0,0,0,
6.38224E+17,37.62526,19.61431,44.63997,6.158805,20.70378,-142.0894,-17.01029,-0.4441859,-4.27255,-61.51973,-6.98289,34.57793,0,0,0,133.8878,-26.76948,5.348441,-36.10317,-110.6632,-50.33768,0.001067912,-0.1257102,0.09433498,0,0.3,0,0,0,0,
6.38224E+17,37.53102,21.27416,46.25093,6.671522,21.36299,-142.0894,-17.01029,-0.4441859,-4.27255,-61.44649,-6.98289,34.57793,0,0,0,134.3824,-20.47817,6.584352,-36.10317,-110.6632,-50.33768,0.001067912,-0.1257102,0.09433498,0,0.3,0,0,0,0,
6.38224E+17,37.41322,22.93402,47.95528,7.037747,22.0222,-142.0894,-17.01029,-0.4441859,-4.27255,-61.44649,-6.98289,34.57793,0,0,0,134.7797,-13.99328,7.850213,-36.10317,-110.6632,-50.33768,0.001067912,-0.1257102,0.09433498,0,0.3,0,0,0,0,
6.38224E+17,37.3661,23.72888,48.74909,7.184238,22.38842,-142.0894,-17.01029,-0.4441859,-4.27255,-61.44649,-6.98289,34.57793,0,0,0,134.9352,-10.91409,8.354474,-36.10317,-110.6632,-50.33768,0.001067912,-0.1257102,0.09433498,0,0.3,0,0,0,0,
6.38224E+17,37.1305,25.57575,50.54683,8.136425,23.34061,-141.7964,-17.01029,-0.4441859,-4.27255,-61.44649,-6.98289,34.57793,0,0,0,134.7605,-3.819162,9.638243,-36.10317,-110.6632,-50.33768,0.001067912,-0.1257102,0.09433498,0,0.3,0,0,0,0,
6.38224E+17,36.4237,27.8902,51.94767,10.0408,24.36604,-139.8188,-17.01029,-0.4441859,-4.27255,-61.44649,-6.98289,34.57793,0,0,0,132.3277,3.53387,10.97956,-36.10317,-110.6632,-50.33768,0.001067912,-0.1257102,0.09433498,0,0.3,0,0,0,0,
6.38224E+17,35.33994,30.34491,53.09168,11.87193,25.61121,-131.9083,-17.01029,-0.4441859,-4.27255,-61.51973,-6.98289,34.57793,0,0,0,128.2414,10.63746,12.50435,-36.10317,-110.6632,-50.33768,0.001067912,-0.1257102,0.09433498,0,0.3,0,0,0,0,
6.38224E+17,34.72738,31.65409,53.30181,12.67763,26.12393,-128.5391,-17.01029,-0.4441859,-4.27255,-61.51973,-6.98289,34.57793,0,0,0,125.5735,13.64077,12.8161,-36.10317,-110.6632,-50.33768,0.001067912,-0.1257102,0.09433498,0,0.3,0,0,0,0,
6.38224E+17,33.38446,34.29583,53.51193,14.21577,27.00287,-123.7781,-17.01029,-0.4441859,-4.27255,-61.44649,-6.98289,34.57793,0,0,0,119.6124,19.19088,13.15876,-36.10317,-110.6632,-50.33768,0.001067912,-0.1257102,0.09433498,0,0.3,0,0,0,0,
6.38224E+17,31.80595,37.26486,53.60532,15.46094,27.66208,-120.1891,-17.01029,-0.4441859,-4.27255,-61.44649,-6.98289,34.57793,0,0,0,112.5059,24.97103,13.06141,-36.10317,-110.6632,-50.33768,0.001067912,-0.1257102,0.09433498,0,0.3,0,0,0,0,
6.38224E+17,31.07559,38.5039,53.55863,15.82717,27.80857,-118.7975,-17.01029,-0.4441859,-4.27255,-61.44649,-6.98289,34.57793,0,0,0,109.237,27.15954,12.90885,-36.10317,-110.6632,-50.33768,0.001067912,-0.1257102,0.09433498,0,0.3,0,0,0,0,
6.38224E+17,29.40283,40.6547,53.48859,16.8526,28.0283,-115.4282,-17.01029,-0.4441859,-4.27255,-61.44649,-6.98289,34.57793,0,0,0,102.286,30.88638,13.15751,-36.10317,-110.6632,-50.33768,0.001067912,-0.1257102,0.09433498,0,0.3,0,0,0,0,
6.38224E+17,27.16464,42.22104,52.83487,17.95128,27.88181,-109.2023,-17.01029,-0.4441859,-4.27255,-61.44649,-6.98289,34.57793,0,0,0,93.60151,32.40155,14.05569,-36.10317,-110.6632,-50.33768,0.001067912,-0.1257102,0.09433498,0,0.3,0,0,0,0,
6.38224E+17,24.10184,42.80549,51.29394,18.61049,27.80857,-99.68047,-17.01029,-0.4441859,-4.27255,-61.51973,-6.98289,34.57793,0,0,0,82.44611,30.57576,15.94472,-36.10317,-110.6632,-50.33768,0.001067912,-0.1257102,0.09433498,0,0.3,0,0,0,0,
6.38224E+17,22.19348,42.85225,50.36005,18.46399,27.88181,-95.06602,-17.01029,-0.4441859,-4.27255,-61.44649,-6.98289,34.57793,0,0,0,75.71665,28.97057,17.24833,-36.10317,-110.6632,-50.33768,0.001067912,-0.1257102,0.09433498,0,0.3,0,0,0,0,
6.38224E+17,17.95269,42.78211,48.23545,17.36532,28.46777,-86.78931,-17.01029,-0.4441859,-4.27255,-61.51973,-6.98289,34.57793,0,0,0,60.82499,25.10237,19.37737,-36.10317,-110.6632,-50.33768,0.001067912,-0.1257102,0.09433498,0,0.3,0,0,0,0,
6.38224E+17,13.40562,42.75873,45.50382,15.02147,29.78619,-79.31831,-17.01029,-0.4441859,-4.27255,-61.44649,-6.98289,34.57793,0,0,0,44.75185,20.4231,19.41693,-36.10317,-110.6632,-50.33768,0.001067912,-0.1257102,0.09433498,0,0.3,0,0,0,0,
6.38224E+17,10.93182,42.73536,44.17303,13.70306,30.37215,-75.65604,-17.01029,-0.4441859,-4.27255,-61.51973,-6.98289,34.57793,0,0,0,36.19617,18.19926,19.05343,-36.10317,-110.6632,-50.33768,0.001067912,-0.1257102,0.09433498,0,0.3,0,0,0,0,
6.38224E+17,5.513031,42.54833,41.76826,10.70001,31.76381,-68.55127,-17.01029,-0.4441859,-4.27255,-61.44649,-6.98289,34.57793,0,0,0,17.97192,14.0644,17.85162,-36.10317,-110.6632,-50.33768,0.001067912,-0.1257102,0.09433498,0,0.3,0,0,0,0,
6.38224E+17,-0.04711992,42.45482,40.36742,6.378541,33.52169,-63.57059,-17.01029,-0.4441859,-4.27255,-61.51973,-6.98289,34.57793,0,0,0,-0.1519429,11.76214,16.40592,-36.10317,-110.6632,-50.33768,0.001067912,-0.1257102,0.09433498,0,0.3,0,0,0,0,
6.38224E+17,-2.615156,42.38468,40.08725,3.96145,34.47387,-61.81271,-17.01029,-0.4441859,-4.27255,-61.44649,-6.909645,34.57793,0,0,0,-8.412212,11.22052,15.82624,-36.10317,-110.6632,-50.33768,0.001067912,-0.1257102,0.09433498,0,0.3,0,0,0,0,
6.38224E+17,-7.774787,42.31455,40.04056,-1.971408,36.08527,-59.76185,-17.01029,-0.4441859,-4.27255,-61.44649,-6.98289,34.57793,0,0,0,-24.94488,11.02994,14.34998,-36.10317,-110.6632,-50.33768,0.001067912,-0.1257102,0.09433498,0,0.3,0,0,0,0,
6.38224E+17,-12.08626,42.54833,40.1106,-8.197248,37.84315,-58.8829,-17.01029,-0.4441859,-4.27255,-61.51973,-6.98289,34.57793,0,0,0,-38.55864,11.53648,11.72064,-36.10317,-110.6632,-50.33768,0.001067912,-0.1257102,0.09433498,0,0.3,0,0,0,0,
6.38224E+17,-15.52601,42.87563,40.20399,-13.98362,39.30806,-58.66317,-17.01029,-0.4441859,-4.27255,-61.44649,-6.98289,34.57793,0,0,0,-49.19938,12.23636,8.744965,-36.10317,-110.6632,-50.33768,0.001067912,-0.1257102,0.09433498,0,0.3,0,0,0,0,
6.38224E+17,-16.79825,43.17954,40.25069,-16.18097,39.96726,-58.58992,-17.01029,-0.4441859,-4.27255,-61.44649,-6.98289,34.57793,0,0,0,-53.00377,12.82362,7.226317,-36.10317,-110.6632,-50.33768,0.001067912,-0.1257102,0.09433498,0,0.3,0,0,0,0,
6.38224E+17,-18.75373,44.23156,40.74098,-19.98972,41.06594,-58.66317,-17.01029,-0.4441859,-4.27255,-61.51973,-6.98289,34.57793,0,0,0,-58.69916,15.33462,4.535179,-36.10317,-110.6632,-50.33768,0.001067912,-0.1257102,0.09433498,0,0.3,0,0,0,0,
6.38224E+17,-20.14377,45.7979,41.48809,-22.77304,41.79839,-58.80966,-17.01029,-0.4441859,-4.27255,-61.51973,-6.98289,34.57793,0,0,0,-62.43901,19.05501,1.869621,-36.10317,-110.6632,-50.33768,0.001067912,-0.1257102,0.09433498,0,0.3,0,0,0,0,
6.38224E+17,-20.61497,46.63952,41.81495,-23.72522,42.01813,-58.95615,-17.01029,-0.4441859,-4.27255,-61.44649,-6.98289,34.57793,0,0,0,-63.53899,20.91587,0.5587583,-36.10317,-110.6632,-50.33768,0.001067912,-0.1257102,0.09433498,0,0.3,0,0,0,0,
6.38224E+17,-21.25109,48.9072,42.63211,-25.33662,42.31111,-59.76185,-17.01029,-0.4441859,-4.27255,-61.44649,-6.98289,34.57793,0,0,0,-64.50434,25.74074,-2.486664,-36.10317,-110.6632,-50.33768,0.001067912,-0.1257102,0.09433498,0,0.3,0,0,0,0,
6.38224E+17,-21.34533,51.89961,43.91621,-26.50854,42.31111,-60.4943,-17.01029,-0.4441859,-4.27255,-61.44649,-6.98289,34.57793,0,0,0,-63.61594,32.22789,-5.564167,-36.10317,-110.6632,-50.33768,0.001067912,-0.1257102,0.09433498,0,0.3,0,0,0,0,
6.38224E+17,-21.34533,55.24269,45.38708,-27.53397,41.57866,-60.86052,-17.01029,-0.4441859,-4.27255,-61.51973,-6.98289,34.57793,0,0,0,-62.22399,39.25341,-9.125996,-36.10317,-110.6632,-50.33768,0.001067912,-0.1257102,0.09433498,0,0.3,0,0,0,0,
6.38224E+17,-21.27464,56.99606,46.11085,-28.11993,40.99269,-61.08026,-17.01029,-0.4441859,-4.27255,-61.44649,-6.98289,34.57793,0,0,0,-61.22482,42.73479,-11.11089,-36.10317,-110.6632,-50.33768,0.001067912,-0.1257102,0.09433498,0,0.3,0,0,0,0,
6.38224E+17,-20.63853,60.9236,47.67512,-29.3651,39.08832,-62.17894,-17.01029,-0.4441859,-4.27255,-61.51973,-6.98289,34.57793,0,0,0,-57.59222,50.10518,-15.44063,-36.10317,-110.6632,-50.33768,0.001067912,-0.1257102,0.09433498,0,0.3,0,0,0,0,
6.38224E+17,-19.17781,65.03816,49.23938,-30.39053,36.45149,-63.35086,-17.01029,-0.4441859,-4.27255,-61.51973,-6.98289,34.57793,0,0,0,-51.66687,57.17942,-19.79771,-36.10317,-110.6632,-50.33768,0.001067912,-0.1257102,0.09433498,0,0.3,0,0,0,0,
6.38224E+17,-18.09405,67.11882,49.91645,-30.68352,34.91335,-64.08331,-17.01029,-0.4441859,-4.27255,-61.51973,-6.98289,34.57793,0,0,0,-47.79053,60.34252,-22.08323,-36.10317,-110.6632,-50.33768,0.001067912,-0.1257102,0.09433498,0,0.3,0,0,0,0,
6.38224E+17,-15.52601,70.62555,50.89704,-30.53703,31.98354,-66.20742,-17.01029,-0.4441859,-4.27255,-61.51973,-6.98289,34.57793,0,0,0,-39.54082,65.04252,-26.02138,-36.10317,-110.6632,-50.33768,0.001067912,-0.1257102,0.09433498,0,0.3,0,0,0,0,
6.38224E+17,-11.87422,74.06215,52.1111,-29.95106,28.98049,-69.06399,-17.01029,-0.4441859,-4.27255,-61.44649,-6.98289,34.57793,0,0,0,-29.18913,69.67949,-29.5281,-36.10317,-110.6632,-50.33768,0.001067912,-0.1257102,0.09433498,0,0.3,0,0,0,0,
6.38224E+17,-9.989424,75.5116,52.508,-29.51159,27.66208,-70.52889,-17.01029,-0.4441859,-4.27255,-61.51973,-6.98289,34.57793,0,0,0,-24.1408,71.29568,-31.29276,-36.10317,-110.6632,-50.33768,0.001067912,-0.1257102,0.09433498,0,0.3,0,0,0,0,
6.38224E+17,-5.772191,77.8728,52.85821,-28.26642,25.02525,-73.53194,-17.01029,-0.4441859,-4.27255,-61.44649,-6.98289,34.57793,0,0,0,-13.50838,73.20877,-34.71736,-36.10317,-110.6632,-50.33768,0.001067912,-0.1257102,0.09433498,0,0.3,0,0,0,0,
6.38224E+17,-0.9659585,79.369,52.9049,-26.4353,22.6814,-77.12095,-17.01029,-0.4441859,-4.27255,-61.44649,-6.98289,34.57793,0,0,0,-2.207864,73.98245,-37.40308,-36.10317,-110.6632,-50.33768,0.001067912,-0.1257102,0.09433498,0,0.3,0,0,0,0,
6.38224E+17,3.840273,79.71967,52.64809,-24.09145,20.99677,-80.9297,-17.01029,-0.4441859,-4.27255,-61.44649,-6.98289,34.57793,0,0,0,8.693478,73.65461,-38.8401,-36.10317,-110.6632,-50.33768,0.001067912,-0.1257102,0.09433498,0,0.3,0,0,0,0,
6.38224E+17,6.384749,79.53265,52.27453,-22.5533,20.4108,-83.05381,-17.01029,-0.4441859,-4.27255,-61.51973,-6.98289,34.57793,0,0,0,14.42319,72.88684,-39.45467,-36.10317,-110.6632,-50.33768,0.001067912,-0.1257102,0.09433498,0,0.3,0,0,0,0,
6.38224E+17,10.36638,79.06508,51.24725,-19.76999,19.97133,-86.34984,-17.01029,-0.4441859,-4.27255,-61.44649,-6.98289,34.57793,0,0,0,23.26457,70.80692,-41.1711,-36.10317,-110.6632,-50.33768,0.001067912,-0.1257102,0.09433498,0,0.3,0,0,0,0,
6.38224E+17,14.08886,78.52738,49.96315,-17.27965,20.19107,-90.0121,-17.01029,-0.4441859,-4.27255,-61.44649,-6.98289,34.57793,0,0,0,31.30953,68.25424,-43.59884,-36.10317,-110.6632,-50.33768,0.001067912,-0.1257102,0.09433498,0,0.3,0,0,0,0,
6.38224E+17,15.76161,78.31698,49.40281,-16.25422,20.48405,-91.76999,-17.01029,-0.4441859,-4.27255,-61.44649,-6.98289,34.57793,0,0,0,34.83891,67.1616,-44.91633,-36.10317,-110.6632,-50.33768,0.001067912,-0.1257102,0.09433498,0,0.3,0,0,0,0,
6.38224E+17,18.87153,77.82603,48.14206,-14.34984,21.07001,-94.40681,-17.01029,-0.4441859,-4.27255,-61.44649,-6.98289,34.57793,0,0,0,41.22019,64.71862,-47.76017,-36.10317,-110.6632,-50.33768,0.001067912,-0.1257102,0.09433498,0,0.3,0,0,0,0,
6.38224E+17,21.41601,77.12469,46.67118,-12.59196,21.65597,-95.28575,-17.01029,-0.4441859,-4.27255,-61.51973,-6.909645,34.57793,0,0,0,46.269,61.84455,-50.38244,-36.10317,-110.6632,-50.33768,0.001067912,-0.1257102,0.09433498,0,0.3,0,0,0,0,
6.38224E+17,22.40552,76.65713,45.92407,-11.93275,21.94895,-95.57873,-17.01029,-0.4441859,-4.27255,-61.44649,-6.98289,34.57793,0,0,0,48.2454,60.34068,-51.32991,-36.10317,-110.6632,-50.33768,0.001067912,-0.1257102,0.09433498,0,0.3,0,0,0,0,
6.38224E+17,24.31388,75.23106,44.42985,-11.12705,22.82789,-96.82391,-17.01029,-0.4441859,-4.27255,-61.51973,-6.98289,34.57793,0,0,0,52.4318,57.06803,-52.30139,-36.10317,-110.6632,-50.33768,0.001067912,-0.1257102,0.09433498,0,0.3,0,0,0,0,
6.38224E+17,26.41072,73.26729,42.6788,-11.05381,24.36604,-99.75371,-17.01029,-0.4441859,-4.27255,-61.44649,-6.98289,34.57793,0,0,0,57.28559,53.01942,-53.0031,-36.10317,-110.6632,-50.33768,0.001067912,-0.1257102,0.09433498,0,0.3,0,0,0,0,
6.38224E+17,28.69603,71.13987,40.85772,-11.27355,26.41691,-104.8809,-17.01029,-0.4441859,-4.27255,-61.44649,-6.98289,34.57793,0,0,0,62.58531,48.68304,-54.0168,-36.10317,-110.6632,-50.33768,0.001067912,-0.1257102,0.09433498,0,0.3,0,0,0,0,
6.38224E+17,30.01539,70.11123,40.39077,-11.34679,27.44234,-107.8107,-17.01029,-0.4441859,-4.27255,-61.44649,-6.98289,34.57793,0,0,0,65.91838,47.18126,-54.24681,-36.10317,-110.6632,-50.33768,0.001067912,-0.1257102,0.09433498,0,0.3,0,0,0,0,
6.38224E+17,32.96038,67.82017,40.27403,-10.83407,29.56645,-113.8168,-17.01029,-0.4441859,-4.27255,-61.51973,-6.98289,34.57793,0,0,0,74.2885,45.09167,-53.7824,-36.10317,-110.6632,-50.33768,0.001067912,-0.1257102,0.09433498,0,0.3,0,0,0,0,
6.38224E+17,35.7169,65.50573,40.50751,-9.442415,30.95811,-117.479,-17.01029,-0.4441859,-4.27255,-61.51973,-6.98289,34.57793,0,0,0,82.84106,43.31007,-53.13621,-36.10317,-110.6632,-50.33768,0.001067912,-0.1257102,0.09433498,0,0.3,0,0,0,0,
6.38224E+17,36.98914,64.31344,40.92776,-8.343738,31.76381,-118.8707,-17.01029,-0.4441859,-4.27255,-61.51973,-6.98289,34.57793,0,0,0,87.33675,42.77143,-52.4045,-36.10317,-110.6632,-50.33768,0.001067912,-0.1257102,0.09433498,0,0.3,0,0,0,0,
6.38224E+17,39.06242,62.67696,41.97839,-6.292873,32.93573,-122.9724,-17.01029,-0.4441859,-4.27255,-61.51973,-6.98289,34.57793,0,0,0,94.77689,42.69049,-51.57063,-36.10317,-110.6632,-50.33768,0.001067912,-0.1257102,0.09433498,0,0.3,0,0,0,0,
6.38224E+17,40.78229,61.85873,43.14575,-4.168763,33.81467,-131.1759,-17.01029,-0.4441859,-4.27255,-61.51973,-6.98289,34.57793,0,0,0,100.6472,43.64198,-51.67622,-36.10317,-110.6632,-50.33768,0.001067912,-0.1257102,0.09433498,0,0.3,0,0,0,0,
6.38224E+17,42.40793,61.78859,44.35981,-2.044653,34.32739,-140.3315,-17.01029,-0.4441859,-4.27255,-61.44649,-6.98289,34.57793,0,0,0,105.3901,45.5189,-52.96522,-36.10317,-110.6632,-50.33768,0.001067912,-0.1257102,0.09433498,0,0.3,0,0,0,0,
6.38224E+17,43.27965,61.78859,44.92014,-1.019221,34.40063,-141.5034,-17.01029,-0.4441859,-4.27255,-61.44649,-6.98289,34.57793,0,0,0,107.7695,46.43524,-53.90641,-36.10317,-110.6632,-50.33768,0.001067912,-0.1257102,0.09433498,0,0.3,0,0,0,0,
6.38224E+17,44.78749,61.78859,46.06416,0.9583986,34.47387,-141.9429,-17.01029,-0.4441859,-4.27255,-61.51973,-6.98289,34.57793,0,0,0,112.0585,48.33404,-55.45718,-36.10317,-110.6632,-50.33768,0.001067912,-0.1257102,0.09433498,0,0.3,0,0,0,0,
6.38224E+17,46.57804,61.83535,47.4183,2.716283,34.32739,-142.0162,-17.01029,-0.4441859,-4.27255,-61.44649,-6.98289,34.57793,0,0,0,117.0302,50.68061,-57.59508,-36.10317,-110.6632,-50.33768,0.001067912,-0.1257102,0.09433498,0,0.3,0,0,0,0,
6.38224E+17,47.44976,61.92886,48.46893,3.741715,34.32739,-142.0162,-17.01029,-0.4441859,-4.27255,-61.44649,-6.98289,34.57793,0,0,0,119.7669,52.5987,-58.41054,-36.10317,-110.6632,-50.33768,0.001067912,-0.1257102,0.09433498,0,0.3,0,0,0,0,
6.38224E+17,48.69844,62.51331,51.34064,5.79258,33.81467,-142.0894,-17.01029,-0.4441859,-4.27255,-61.44649,-6.98289,34.57793,0,0,0,124.4636,58.34492,-59.00005,-36.10317,-110.6632,-50.33768,0.001067912,-0.1257102,0.09433498,0,0.3,0,0,0,0,
6.38224E+17,49.00472,63.33155,54.28239,7.623709,32.86248,-142.0894,-17.01029,-0.4441859,-4.27255,-61.51973,-6.98289,34.57793,0,0,0,126.8897,64.66556,-58.06479,-36.10317,-110.6632,-50.33768,0.001067912,-0.1257102,0.09433498,0,0.3,0,0,0,0,
6.38224E+17,48.81624,64.52384,57.5977,9.235103,31.17784,-142.0162,-17.01029,-0.4441859,-4.27255,-61.44649,-6.98289,34.57793,0,0,0,127.9023,72.27661,-56.44406,-36.10317,-110.6632,-50.33768,0.001067912,-0.1257102,0.09433498,0,0.3,0,0,0,0,
6.38224E+17,48.722,65.27194,59.30205,10.0408,30.15241,-142.0894,-17.01029,-0.4441859,-4.27255,-61.51973,-6.98289,34.57793,0,0,0,128.0929,76.39548,-55.90477,-36.10317,-110.6632,-50.33768,0.001067912,-0.1257102,0.09433498,0,0.3,0,0,0,0,
6.38224E+17,48.53352,67.07206,62.24381,12.3114,27.66208,-142.0894,-17.01029,-0.4441859,-4.27255,-61.44649,-6.909645,34.57793,0,0,0,127.3553,84.06232,-55.80826,-36.10317,-110.6632,-50.33768,0.001067912,-0.1257102,0.09433498,0,0.3,0,0,0,0,
6.38224E+17,48.18012,69.1761,64.9521,14.80174,24.87876,-142.0894,-17.01029,-0.4441859,-4.27255,-61.44649,-6.98289,34.57793,0,0,0,125.3609,91.53207,-56.18608,-36.10317,-110.6632,-50.33768,0.001067912,-0.1257102,0.09433498,0,0.3,0,0,0,0,
6.38224E+17,47.92096,70.29826,66.23619,16.12015,23.26737,-142.0894,-17.01029,-0.4441859,-4.27255,-61.51973,-6.98289,34.57793,0,0,0,123.9504,95.15804,-56.43455,-36.10317,-110.6632,-50.33768,0.001067912,-0.1257102,0.09433498,0,0.3,0,0,0,0,
6.38224E+17,47.26128,72.44905,68.31409,18.68373,19.89809,-142.0894,-17.01029,-0.4441859,-4.27255,-61.51973,-6.98289,34.57793,0,0,0,120.542,101.2172,-56.96614,-36.10317,-110.6632,-50.33768,0.001067912,-0.1257102,0.09433498,0,0.3,0,0,0,0,
6.38224E+17,46.10685,74.38944,70.13519,21.61354,16.89503,-141.9429,-17.01029,-0.4441859,-4.27255,-61.51973,-6.98289,34.57793,0,0,0,116.2378,106.4685,-56.51859,-36.10317,-110.6632,-50.33768,0.001067912,-0.1257102,0.09433498,0,0.3,0,0,0,0,
6.38224E+17,45.16444,75.34795,70.76556,23.07844,15.43013,-141.6499,-17.01029,-0.4441859,-4.27255,-61.51973,-6.98289,34.57793,0,0,0,113.2038,108.4334,-55.79413,-36.10317,-110.6632,-50.33768,0.001067912,-0.1257102,0.09433498,0,0.3,0,0,0,0,
6.38224E+17,42.57285,77.14807,70.90565,25.78851,13.08629,-139.6723,-17.01029,-0.4441859,-4.27255,-61.44649,-6.98289,34.57793,0,0,0,105.3181,109.7372,-53.70848,-36.10317,-110.6632,-50.33768,0.001067912,-0.1257102,0.09433498,0,0.3,0,0,0,0,
6.38224E+17,39.43937,78.87806,69.97176,28.05911,11.10867,-131.6886,-17.01029,-0.4441859,-4.27255,-61.51973,-6.98289,34.57793,0,0,0,95.92982,108.5254,-51.72662,-36.10317,-110.6632,-50.33768,0.001067912,-0.1257102,0.09433498,0,0.3,0,0,0,0,
6.38224E+17,36.02318,80.4444,68.17402,29.67051,9.570518,-123.2654,-17.01029,-0.4441859,-4.27255,-61.51973,-6.98289,34.57793,0,0,0,85.82198,105.2717,-50.32661,-36.10317,-110.6632,-50.33768,0.001067912,-0.1257102,0.09433498,0,0.3,0,0,0,0,
6.38224E+17,34.16194,81.14574,66.72649,30.25646,8.911312,-118.8707,-17.01029,-0.4441859,-4.27255,-61.44649,-6.98289,34.57793,0,0,0,80.31318,102.4215,-50.00373,-36.10317,-110.6632,-50.33768,0.001067912,-0.1257102,0.09433498,0,0.3,0,0,0,0,
6.38224E+17,30.65151,82.19776,63.08431,30.98892,8.178861,-109.715,-17.01029,-0.4441859,-4.27255,-61.44649,-6.98289,34.57793,0,0,0,69.84849,95.10079,-50.48463,-36.10317,-110.6632,-50.33768,0.001067912,-0.1257102,0.09433498,0,0.3,0,0,0,0,
6.38224E+17,27.18819,82.82897,58.36817,30.84243,8.03237,-100.3397,-17.01029,-0.4441859,-4.27255,-61.44649,-6.98289,34.57793,0,0,0,59.48354,85.72031,-52.54887,-36.10317,-110.6632,-50.33768,0.001067912,-0.1257102,0.09433498,0,0.3,0,0,0,0,
6.38224E+17,25.58612,82.89911,55.96339,30.54945,8.105616,-96.38443,-17.01029,-0.4441859,-4.27255,-61.51973,-6.98289,34.57793,0,0,0,54.84231,81.03822,-53.81406,-36.10317,-110.6632,-50.33768,0.001067912,-0.1257102,0.09433498,0,0.3,0,0,0,0,
6.38224E+17,22.3584,82.66533,50.29001,29.67051,8.911312,-88.10773,-17.01029,-0.4441859,-4.27255,-61.44649,-6.98289,34.57793,0,0,0,45.49903,70.41127,-57.7332,-36.10317,-110.6632,-50.33768,0.001067912,-0.1257102,0.09433498,0,0.3,0,0,0,0,
6.38224E+17,19.60189,82.22115,44.87344,28.79156,10.22972,-80.05076,-17.01029,-0.4441859,-4.27255,-61.44649,-6.98289,34.57793,0,0,0,37.61871,60.97216,-62.71541,-36.10317,-110.6632,-50.33768,0.001067912,-0.1257102,0.09433498,0,0.3,0,0,0,0,
6.38224E+17,18.44745,81.94061,42.46867,28.42534,10.96218,-76.60824,-17.01029,-0.4441859,-4.27255,-61.51973,-6.98289,34.57793,0,0,0,34.40652,57.01777,-65.20545,-36.10317,-110.6632,-50.33768,0.001067912,-0.1257102,0.09433498,0,0.3,0,0,0,0,
6.38224E+17,16.84537,81.09899,38.10274,27.76613,12.1341,-70.23591,-17.01029,-0.4441859,-4.27255,-61.51973,-6.98289,34.57793,0,0,0,29.82508,50.16023,-69.84654,-36.10317,-110.6632,-50.33768,0.001067912,-0.1257102,0.09433498,0,0.3,0,0,0,0,
6.38224E+17,16.20925,79.41576,34.5773,27.54639,13.08629,-65.10874,-17.01029,-0.4441859,-4.27255,-61.44649,-6.98289,34.57793,0,0,0,27.96273,44.63594,-72.15965,-36.10317,-110.6632,-50.33768,0.001067912,-0.1257102,0.09433498,0,0.3,0,0,0,0,
6.38224E+17,16.20925,78.2001,33.19981,27.69288,13.45251,-62.98463,-17.01029,-0.4441859,-4.27255,-61.51973,-6.98289,34.57793,0,0,0,27.9946,42.29925,-72.05,-36.10317,-110.6632,-50.33768,0.001067912,-0.1257102,0.09433498,0,0.3,0,0,0,0,
6.38224E+17,16.20925,74.83363,30.58492,28.35209,14.69768,-59.02939,-17.01029,-0.4441859,-4.27255,-61.51973,-6.98289,34.57793,0,0,0,28.67888,37.25763,-69.69612,-36.10317,-110.6632,-50.33768,0.001067912,-0.1257102,0.09433498,0,0.3,0,0,0,0,
6.38224E+17,16.18569,70.41515,28.43697,29.30428,16.96828,-55.73336,-17.01029,-0.4441859,-4.27255,-61.44649,-6.98289,34.57793,0,0,0,30.16073,31.72499,-64.43925,-36.10317,-110.6632,-50.33768,0.001067912,-0.1257102,0.09433498,0,0.3,0,0,0,0,
6.38224E+17,15.69093,65.38884,26.24233,30.69594,20.26431,-51.92461,-17.01029,-0.4441859,-4.27255,-61.44649,-6.98289,34.57793,0,0,0,30.96573,24.97994,-58.11897,-36.10317,-110.6632,-50.33768,0.001067912,-0.1257102,0.09433498,0,0.3,0,0,0,0,
6.38224E+17,15.07837,62.79386,25.28509,31.35514,22.38842,-49.87375,-17.01029,-0.4441859,-4.27255,-61.44649,-6.98289,34.50468,0,0,0,30.67664,21.3729,-54.48648,-36.10317,-110.6632,-50.33768,0.001067912,-0.1257102,0.09433498,0,0.3,0,0,0,0,
6.38224E+17,13.21714,57.46363,23.23053,32.30733,27.07611,-44.81983,-17.01029,-0.4441859,-4.27255,-61.51973,-6.98289,34.57793,0,0,0,28.42427,13.23205,-47.32536,-36.10317,-110.6632,-50.33768,0.001067912,-0.1257102,0.09433498,0,0.3,0,0,0,0,
6.38224E+17,10.4135,52.11002,21.26936,32.7468,32.20328,-39.17995,-17.01029,-0.4441859,-4.27255,-61.44649,-6.98289,34.57793,0,0,0,23.54636,4.321767,-40.22604,-36.10317,-110.6632,-50.33768,0.001067912,-0.1257102,0.09433498,0,0.3,0,0,0,0,
6.38224E+17,8.693625,49.56179,20.63898,32.45382,35.05984,-36.54313,-17.01029,-0.4441859,-4.27255,-61.51973,-6.98289,34.57793,0,0,0,20.17826,0.05188634,-36.3863,-36.10317,-110.6632,-50.33768,0.001067912,-0.1257102,0.09433498,0,0.3,0,0,0,0,
6.38224E+17,5.112512,44.90953,19.79848,31.06216,41.13919,-31.92868,-17.01029,-0.4441859,-4.27255,-61.44649,-6.98289,34.57793,0,0,0,12.44079,-7.973967,-29.29658,-36.10317,-110.6632,-50.33768,0.001067912,-0.1257102,0.09433498,0,0.3,0,0,0,0,
6.38224E+17,1.272238,40.39754,19.49497,29.08454,47.29178,-27.38748,-17.01029,-0.4441859,-4.27255,-61.51973,-6.98289,34.50468,0,0,0,3.24289,-15.93273,-22.32905,-36.10317,-110.6632,-50.33768,0.001067912,-0.1257102,0.09433498,0,0.3,0,0,0,0,
6.38224E+17,-0.4240793,38.87795,19.49497,28.05911,49.56238,-25.92258,-17.01029,-0.4441859,-4.27255,-61.44649,-6.98289,34.57793,0,0,0,-1.097741,-18.65622,-20.04102,-36.10317,-110.6632,-50.33768,0.001067912,-0.1257102,0.09433498,0,0.3,0,0,0,0,
6.38224E+17,-4.146553,37.05445,19.49497,25.27579,53.66411,-23.72522,-17.01029,-0.4441859,-4.27255,-61.44649,-6.98289,34.57793,0,0,0,-10.91298,-22.00194,-17.82123,-36.10317,-110.6632,-50.33768,0.001067912,-0.1257102,0.09433498,0,0.3,0,0,0,0,
6.38224E+17,-7.869027,36.25959,19.58836,21.83327,55.86147,-22.69979,-17.01029,-0.4441859,-4.27255,-61.44649,-6.98289,34.57793,0,0,0,-20.8421,-23.4133,-17.55037,-36.10317,-110.6632,-50.33768,0.001067912,-0.1257102,0.09433498,0,0.3,0,0,0,0,
6.38224E+17,-9.730264,35.97906,19.72844,19.78241,56.44743,-22.48005,-17.01029,-0.4441859,-4.27255,-61.44649,-6.98289,34.57793,0,0,0,-25.84586,-23.83105,-17.6249,-36.10317,-110.6632,-50.33768,0.001067912,-0.1257102,0.09433498,0,0.3,0,0,0,0,
6.38224E+17,-13.66478,35.58163,20.4522,14.28902,57.10663,-23.79847,-17.01029,-0.4441859,-4.27255,-61.44649,-6.98289,34.57793,0,0,0,-36.62863,-24.00283,-17.69088,-36.10317,-110.6632,-50.33768,0.001067912,-0.1257102,0.09433498,0,0.3,0,0,0,0,
6.38224E+17,-16.84537,35.74527,22.1799,7.477218,57.47286,-28.11993,-17.01029,-0.4441859,-4.27255,-61.51973,-6.98289,34.57793,0,0,0,-45.95243,-22.23174,-16.58268,-36.10317,-110.6632,-50.33768,0.001067912,-0.1257102,0.09433498,0,0.3,0,0,0,0,
6.38224E+17,-19.17781,36.16608,23.53404,-0.0670338,57.69259,-33.9063,-17.01029,-0.4441859,-4.27255,-61.51973,-6.98289,34.57793,0,0,0,-52.85598,-20.2148,-16.37879,-36.10317,-110.6632,-50.33768,0.001067912,-0.1257102,0.09433498,0,0.3,0,0,0,0,
6.38224E+17,-19.97885,36.39986,23.79086,-3.216576,57.76584,-36.10366,-17.01029,-0.4441859,-4.27255,-61.44649,-6.98289,34.57793,0,0,0,-55.05246,-19.5363,-16.92067,-36.10317,-110.6632,-50.33768,0.001067912,-0.1257102,0.09433498,0,0.3,0,0,0,0,
6.38224E+17,-20.99193,37.0077,24.37455,-7.831022,57.83909,-39.69267,-17.01029,-0.4441859,-4.27255,-61.51973,-6.98289,34.57793,0,0,0,-57.86262,-17.84779,-17.5492,-36.10317,-110.6632,-50.33768,0.001067912,-0.1257102,0.09433498,0,0.3,0,0,0,0,
6.38224E+17,-21.43956,37.89607,25.12166,-11.2003,57.91233,-42.91546,-17.01029,-0.4441859,-4.27255,-61.44649,-6.98289,34.57793,0,0,0,-59.15665,-15.4785,-17.7063,-36.10317,-110.6632,-50.33768,0.001067912,-0.1257102,0.09433498,0,0.3,0,0,0,0,
6.38224E+17,-21.43956,38.34025,25.42517,-12.44547,57.98557,-44.30712,-17.01029,-0.4441859,-4.27255,-61.44649,-6.98289,34.57793,0,0,0,-59.15689,-14.36358,-17.70571,-36.10317,-110.6632,-50.33768,0.001067912,-0.1257102,0.09433498,0,0.3,0,0,0,0,
6.38224E+17,-21.43956,39.25201,25.82208,-15.00905,57.98557,-46.94394,-17.01029,-0.4441859,-4.27255,-61.44649,-6.98289,34.57793,0,0,0,-58.97536,-12.31027,-18.16797,-36.10317,-110.6632,-50.33768,0.001067912,-0.1257102,0.09433498,0,0.3,0,0,0,0,
6.38224E+17,-21.36888,40.09362,25.84542,-17.93885,58.13207,-50.38646,-17.01029,-0.4441859,-4.27255,-61.51973,-6.98289,34.57793,0,0,0,-58.35223,-10.77893,-19.2143,-36.10317,-110.6632,-50.33768,0.001067912,-0.1257102,0.09433498,0,0.3,0,0,0,0,
6.38224E+17,-21.25109,40.60794,25.84542,-19.62349,58.20531,-52.43733,-17.01029,-0.4441859,-4.27255,-61.44649,-6.909645,34.57793,0,0,0,-57.76457,-9.866689,-19.81697,-36.10317,-110.6632,-50.33768,0.001067912,-0.1257102,0.09433498,0,0.3,0,0,0,0,
6.38224E+17,-20.61497,41.87036,25.75204,-23.87171,58.3518,-58.44344,-17.01029,-0.4441859,-4.27255,-61.51973,-6.98289,34.57793,0,0,0,-55.36116,-7.751936,-21.18076,-36.10317,-110.6632,-50.33768,0.001067912,-0.1257102,0.09433498,0,0.3,0,0,0,0,
6.38224E+17,-19.22493,43.24968,25.42517,-28.85239,58.57154,-67.15961,-17.01029,-0.4441859,-4.27255,-61.51973,-6.98289,34.57793,0,0,0,-50.83393,-5.716018,-22.57909,-36.10317,-110.6632,-50.33768,0.001067912,-0.1257102,0.09433498,0,0.3,0,0,0,0,
6.38224E+17,-16.82181,44.79264,25.02827,-33.10061,58.86452,-76.60824,-17.01029,-0.4441859,-4.27255,-61.51973,-6.98289,34.57793,0,0,0,-43.71304,-3.527512,-23.76438,-36.10317,-110.6632,-50.33768,0.001067912,-0.1257102,0.09433498,0,0.3,0,0,0,0,
6.38224E+17,-15.21973,45.49398,24.88819,-34.63876,58.93776,-80.63672,-17.01029,-0.4441859,-4.27255,-61.44649,-6.98289,34.57793,0,0,0,-39.27229,-2.513762,-24.00051,-36.10317,-110.6632,-50.33768,0.001067912,-0.1257102,0.09433498,0,0.3,0,0,0,0,
6.38224E+17,-11.30878,46.40574,24.91153,-35.51769,59.1575,-85.25117,-17.01029,-0.4441859,-4.27255,-61.44649,-6.909645,34.57793,0,0,0,-29.04592,-1.015497,-23.10525,-36.10317,-110.6632,-50.33768,0.001067912,-0.1257102,0.09433498,0,0.3,0,0,0,0,
6.38224E+17,-6.973749,46.99019,25.28509,-33.68657,59.23075,-86.64282,-17.01029,-0.4441859,-4.27255,-61.51973,-6.98289,34.57793,0,0,0,-17.9594,0.2862055,-21.52634,-36.10317,-110.6632,-50.33768,0.001067912,-0.1257102,0.09433498,0,0.3,0,0,0,0,
6.38224E+17,-4.594193,47.34086,25.68199,-31.92868,59.30399,-86.20335,-17.01029,-0.4441859,-4.27255,-61.44649,-6.98289,34.57793,0,0,0,-11.86677,1.23854,-20.67267,-36.10317,-110.6632,-50.33768,0.001067912,-0.1257102,0.09433498,0,0.3,0,0,0,0,
6.38224E+17,-0.2120396,47.94869,26.45245,-27.75371,59.37723,-84.006,-17.01029,-0.4441859,-4.27255,-61.44649,-6.98289,34.57793,0,0,0,-0.5503754,2.979589,-19.63233,-36.10317,-110.6632,-50.33768,0.001067912,-0.1257102,0.09433498,0,0.3,0,0,0,0,
6.38224E+17,3.793154,48.25261,26.96609,-23.43224,59.37723,-82.32136,-17.01029,-0.4441859,-4.27255,-61.51973,-6.98289,34.57793,0,0,0,9.874252,3.98927,-19.41688,-36.10317,-110.6632,-50.33768,0.001067912,-0.1257102,0.09433498,0,0.3,0,0,0,0,
6.38224E+17,5.91355,48.3695,27.03613,-21.23489,59.37723,-81.95513,-17.01029,-0.4441859,-4.27255,-61.51973,-6.98289,34.57793,0,0,0,15.37197,4.244218,-19.9418,-36.10317,-110.6632,-50.33768,0.001067912,-0.1257102,0.09433498,0,0.3,0,0,0,0,
6.38224E+17,10.22502,48.41626,27.03613,-17.86561,59.37723,-81.66216,-17.01029,-0.4441859,-4.27255,-61.44649,-6.98289,34.57793,0,0,0,26.47112,4.316477,-21.5975,-36.10317,-110.6632,-50.33768,0.001067912,-0.1257102,0.09433498,0,0.3,0,0,0,0,
6.38224E+17,15.29041,48.39288,27.03613,-14.78931,59.37723,-81.80864,-17.01029,-0.4441859,-4.27255,-61.51973,-6.98289,34.57793,0,0,0,39.33563,4.280356,-24.46858,-36.10317,-110.6632,-50.33768,0.001067912,-0.1257102,0.09433498,0,0.3,0,0,0,0,
6.38224E+17,20.40293,48.39288,27.10618,-11.12705,59.45048,-83.42004,-17.01029,-0.4441859,-4.27255,-61.44649,-6.98289,34.57793,0,0,0,52.05127,4.354544,-28.41022,-36.10317,-110.6632,-50.33768,0.001067912,-0.1257102,0.09433498,0,0.3,0,0,0,0,
6.38224E+17,22.97096,48.39288,27.17622,-9.149435,59.37723,-84.37222,-17.01029,-0.4441859,-4.27255,-61.51973,-6.98289,34.57793,0,0,0,58.32571,4.428909,-30.74939,-36.10317,-110.6632,-50.33768,0.001067912,-0.1257102,0.09433498,0,0.3,0,0,0,0,
6.38224E+17,27.94211,48.39288,27.22291,-4.97446,59.30399,-86.1301,-17.01029,-0.4441859,-4.27255,-61.51973,-6.98289,34.57793,0,0,0,70.07527,4.478584,-36.23575,-36.10317,-110.6632,-50.33768,0.001067912,-0.1257102,0.09433498,0,0.3,0,0,0,0,
6.38224E+17,32.34783,48.46302,27.50308,-0.4332596,58.79127,-87.7415,-17.01029,-0.4441859,-4.27255,-61.44649,-6.98289,34.57793,0,0,0,80.26153,4.886601,-41.62314,-36.10317,-110.6632,-50.33768,0.001067912,-0.1257102,0.09433498,0,0.3,0,0,0,0,
6.38224E+17,34.23262,48.50977,27.78325,1.764095,58.42504,-88.5472,-17.01029,-0.4441859,-4.27255,-61.44649,-6.98289,34.57793,0,0,0,84.66526,5.26126,-43.92131,-36.10317,-110.6632,-50.33768,0.001067912,-0.1257102,0.09433498,0,0.3,0,0,0,0,
6.38224E+17,37.29542,48.83707,28.74048,5.279863,57.69259,-92.06297,-17.01029,-0.4441859,-4.27255,-61.51973,-6.98289,34.57793,0,0,0,92.03497,6.819167,-47.51678,-36.10317,-110.6632,-50.33768,0.001067912,-0.1257102,0.09433498,0,0.3,0,0,0,0,
6.38224E+17,39.62786,49.49166,30.2814,7.550464,57.03339,-99.46073,-17.01029,-0.4441859,-4.27255,-61.51973,-6.98289,34.57793,0,0,0,98.13171,9.581895,-49.84649,-36.10317,-110.6632,-50.33768,0.001067912,-0.1257102,0.09433498,0,0.3,0,0,0,0,
6.38224E+17,41.32417,50.54368,31.84567,9.601329,56.74041,-108.7629,-17.01029,-0.4441859,-4.27255,-61.51973,-6.98289,34.65118,0,0,0,102.417,13.03362,-51.8703,-36.10317,-110.6632,-50.33768,0.001067912,-0.1257102,0.09433498,0,0.3,0,0,0,0,
6.38224E+17,41.93673,51.45543,32.75621,10.40703,56.52067,-113.6703,-17.01029,-0.4441859,-4.27255,-61.44649,-6.98289,34.57793,0,0,0,103.7514,15.50146,-52.86614,-36.10317,-110.6632,-50.33768,0.001067912,-0.1257102,0.09433498,0,0.3,0,0,0,0,
6.38224E+17,42.92625,53.95689,34.71738,11.06623,55.71497,-122.1667,-17.01029,-0.4441859,-4.27255,-61.44649,-6.98289,34.57793,0,0,0,105.1612,21.56355,-55.28695,-36.10317,-110.6632,-50.33768,0.001067912,-0.1257102,0.09433498,0,0.3,0,0,0,0,
6.38224E+17,43.63305,56.97268,36.65521,11.87193,54.17683,-125.9022,-17.01029,-0.4441859,-4.27255,-61.44649,-6.98289,34.57793,0,0,0,105.0862,28.17303,-58.126,-36.10317,-110.6632,-50.33768,0.001067912,-0.1257102,0.09433498,0,0.3,0,0,0,0,
6.38224E+17,43.79797,58.53902,37.56575,12.45789,53.15139,-126.4882,-17.01029,-0.4441859,-4.27255,-61.44649,-6.98289,34.57793,0,0,0,104.4388,31.39655,-59.43454,-36.10317,-110.6632,-50.33768,0.001067912,-0.1257102,0.09433498,0,0.3,0,0,0,0,
6.38224E+17,43.84509,61.83535,39.2701,13.84955,50.58781,-126.7812,-17.01029,-0.4441859,-4.27255,-61.44649,-6.98289,34.57793,0,0,0,102.0707,37.67501,-62.0792,-36.10317,-110.6632,-50.33768,0.001067912,-0.1257102,0.09433498,0,0.3,0,0,0,0,
6.38224E+17,43.82153,64.89789,40.67094,15.68068,47.21854,-125.1698,-17.01029,-0.4441859,-4.27255,-61.51973,-6.98289,34.57793,0,0,0,99.34585,42.96421,-64.83099,-36.10317,-110.6632,-50.33768,0.001067912,-0.1257102,0.09433498,0,0.3,0,0,0,0,
6.38224E+17,43.77441,66.27721,40.97445,16.8526,45.46065,-123.5584,-17.01029,-0.4441859,-4.27255,-61.51973,-6.98289,34.57793,0,0,0,97.60822,44.75275,-66.47404,-36.10317,-110.6632,-50.33768,0.001067912,-0.1257102,0.09433498,0,0.3,0,0,0,0,
6.38224E+17,43.42101,68.26435,40.57755,19.26969,42.31111,-118.2847,-17.01029,-0.4441859,-4.27255,-61.44649,-6.98289,34.57793,0,0,0,93.56526,45.9363,-69.48015,-36.10317,-110.6632,-50.33768,0.001067912,-0.1257102,0.09433498,0,0.3,0,0,0,0,
6.38224E+17,42.92625,69.22286,39.10667,21.68678,40.04051,-113.0111,-17.01029,-0.4441859,-4.27255,-61.51973,-6.98289,34.57793,0,0,0,89.50201,44.55189,-72.12281,-36.10317,-110.6632,-50.33768,0.001067912,-0.1257102,0.09433498,0,0.3,0,0,0,0,
6.38224E+17,42.45505,69.12935,36.14157,24.17712,38.94183,-106.9317,-17.01029,-0.4441859,-4.27255,-61.51973,-6.98289,34.57793,0,0,0,85.15587,40.26209,-75.27218,-36.10317,-110.6632,-50.33768,0.001067912,-0.1257102,0.09433498,0,0.3,0,0,0,0,
6.38224E+17,42.21945,68.84881,34.13371,25.49553,38.79534,-103.9287,-17.01029,-0.4441859,-4.27255,-61.51973,-6.98289,34.57793,0,0,0,82.61417,37.33856,-77.30141,-36.10317,-110.6632,-50.33768,0.001067912,-0.1257102,0.09433498,0,0.3,0,0,0,0,
6.38224E+17,41.60689,67.77341,29.32417,28.35209,39.23481,-97.48311,-17.01029,-0.4441859,-4.27255,-61.44649,-6.98289,34.57793,0,0,0,76.86024,30.52854,-81.8012,-36.10317,-110.6632,-50.33768,0.001067912,-0.1257102,0.09433498,0,0.3,0,0,0,0,
6.38224E+17,40.5467,65.57586,24.23446,30.84243,40.187,-91.18402,-17.01029,-0.4441859,-4.27255,-61.44649,-6.98289,34.57793,0,0,0,71.42619,23.16813,-84.85856,-36.10317,-110.6632,-50.33768,0.001067912,-0.1257102,0.09433498,0,0.3,0,0,0,0,
6.38224E+17,39.9577,64.12641,22.39003,31.86786,40.84621,-88.76694,-17.01029,-0.4441859,-4.27255,-61.51973,-6.98289,34.57793,0,0,0,69.9935,20.03581,-84.8098,-36.10317,-110.6632,-50.33768,0.001067912,-0.1257102,0.09433498,0,0.3,0,0,0,0,
6.38224E+17,38.94461,60.33914,19.54166,34.28495,42.82383,-83.78626,-17.01029,-0.4441859,-4.27255,-61.44649,-6.98289,34.57793,0,0,0,69.51645,13.55828,-82.33446,-36.10317,-110.6632,-50.33768,0.001067912,-0.1257102,0.09433498,0,0.3,0,0,0,0,
6.38224E+17,38.09645,55.87391,16.83338,37.72747,45.02118,-76.97446,-17.01029,-0.4441859,-4.27255,-61.44649,-6.98289,34.57793,0,0,0,69.98378,6.101706,-79.08501,-36.10317,-110.6632,-50.33768,0.001067912,-0.1257102,0.09433498,0,0.3,0,0,0,0,
6.38224E+17,37.53102,53.51271,15.66602,39.70509,46.11986,-72.72624,-17.01029,-0.4441859,-4.27255,-61.44649,-6.98289,34.57793,0,0,0,70.2423,2.165576,-76.911,-36.10317,-110.6632,-50.33768,0.001067912,-0.1257102,0.09433498,0,0.3,0,0,0,0,
6.38224E+17,36.09386,47.99545,13.91497,44.0998,48.6102,-62.7649,-17.01029,-0.4441859,-4.27255,-61.44649,-6.98289,34.57793,0,0,0,71.46176,-6.99539,-70.3294,-36.10317,-110.6632,-50.33768,0.001067912,-0.1257102,0.09433498,0,0.3,0,0,0,0,
6.38224E+17,34.82162,42.80549,13.30794,48.20153,51.32027,-53.82899,-17.01029,-0.4441859,-4.27255,-61.51973,-6.98289,34.57793,0,0,0,73.39325,-15.80628,-62.83595,-36.10317,-110.6632,-50.33768,0.001067912,-0.1257102,0.09433498,0,0.3,0,0,0,0,
6.38224E+17,34.11483,40.21051,13.09782,50.47213,52.78517,-48.92156,-17.01029,-0.4441859,-4.27255,-61.44649,-6.98289,34.57793,0,0,0,74.06371,-20.44038,-59.01931,-36.10317,-110.6632,-50.33768,0.001067912,-0.1257102,0.09433498,0,0.3,0,0,0,0,
6.38224E+17,32.98395,36.07257,12.60752,54.7936,55.20226,-39.39969,-17.01029,-0.4441859,-4.27255,-61.51973,-6.98289,34.57793,0,0,0,74.52322,-28.26694,-53.52388,-36.10317,-110.6632,-50.33768,0.001067912,-0.1257102,0.09433498,0,0.3,0,0,0,0,
6.38224E+17,32.39495,32.89313,12.32736,59.3348,56.74041,-29.73133,-17.01029,-0.4441859,-4.27255,-61.51973,-6.98289,34.57793,0,0,0,75.24202,-34.50656,-49.76443,-36.10317,-110.6632,-50.33768,0.001067912,-0.1257102,0.09433498,0,0.3,0,0,0,0,
6.38224E+17,30.76931,30.69558,12.32736,62.63083,57.25312,-19.91648,-17.01029,-0.4441859,-4.27255,-61.51973,-6.98289,34.57793,0,0,0,73.22608,-38.85339,-45.36237,-36.10317,-110.6632,-50.33768,0.001067912,-0.1257102,0.09433498,0,0.3,0,0,0,0,
6.38224E+17,29.49707,29.87734,12.32736,63.72951,57.32637,-15.52176,-17.01029,-0.4441859,-4.27255,-61.44649,-6.98289,34.57793,0,0,0,70.95023,-40.49783,-42.93093,-36.10317,-110.6632,-50.33768,0.001067912,-0.1257102,0.09433498,0,0.3,0,0,0,0,
6.38224E+17,27.14108,29.3864,12.32736,64.02249,57.47286,-10.10162,-17.01029,-0.4441859,-4.27255,-61.44649,-6.98289,34.57793,0,0,0,65.9922,-41.49101,-39.61758,-36.10317,-110.6632,-50.33768,0.001067912,-0.1257102,0.09433498,0,0.3,0,0,0,0,
6.38224E+17,24.87932,29.76045,12.3507,62.11811,57.54611,-7.464796,-17.01029,-0.4441859,-4.27255,-61.44649,-6.98289,34.57793,0,0,0,60.70196,-40.72225,-37.45512,-36.10317,-110.6632,-50.33768,0.001067912,-0.1257102,0.09433498,0,0.3,0,0,0,0,
6.38224E+17,23.67776,29.85397,12.3507,60.7997,57.61935,-7.391551,-17.01029,-0.4441859,-4.27255,-61.44649,-6.98289,34.57793,0,0,0,57.90036,-40.5334,-36.31009,-36.10317,-110.6632,-50.33768,0.001067912,-0.1257102,0.09433498,0,0.3,0,0,0,0,
6.38224E+17,20.77989,29.87734,12.3507,57.50367,57.69259,-9.002944,-17.01029,-0.4441859,-4.27255,-61.44649,-6.98289,34.57793,0,0,0,51.1413,-40.48621,-33.57706,-36.10317,-110.6632,-50.33768,0.001067912,-0.1257102,0.09433498,0,0.3,0,0,0,0,
6.38224E+17,17.50505,29.87734,12.3507,53.9879,57.76584,-11.49328,-17.01029,-0.4441859,-4.27255,-61.44649,-6.98289,34.57793,0,0,0,43.35881,-40.48621,-30.87567,-36.10317,-110.6632,-50.33768,0.001067912,-0.1257102,0.09433498,0,0.3,0,0,0,0,
6.38224E+17,13.68834,29.83059,12.3507,49.88617,57.76584,-14.64282,-17.01029,-0.4441859,-4.27255,-61.51973,-6.98289,34.65118,0,0,0,34.12449,-40.58059,-28.24176,-36.10317,-110.6632,-50.33768,0.001067912,-0.1257102,0.09433498,0,0.3,0,0,0,0,
6.38224E+17,11.77998,29.83059,12.3507,47.46908,57.83909,-16.69369,-17.01029,-0.4441859,-4.27255,-61.44649,-6.98289,34.57793,0,0,0,29.43983,-40.58059,-27.1831,-36.10317,-110.6632,-50.33768,0.001067912,-0.1257102,0.09433498,0,0.3,0,0,0,0,
6.38224E+17,7.774787,29.83059,12.63087,41.46298,58.05882,-21.52787,-17.01029,-0.4441859,-4.27255,-61.44649,-6.98289,34.57793,0,0,0,19.59398,-40.43956,-24.84081,-36.10317,-110.6632,-50.33768,0.001067912,-0.1257102,0.09433498,0,0.3,0,0,0,0,
6.38224E+17,3.439754,29.90072,13.21455,35.0174,58.13207,-26.36205,-17.01029,-0.4441859,-4.27255,-61.44649,-6.98289,34.57793,0,0,0,8.764855,-39.99421,-22.52977,-36.10317,-110.6632,-50.33768,0.001067912,-0.1257102,0.09433498,0,0.3,0,0,0,0,
6.38224E+17,-1.366478,29.9241,13.72819,28.13236,58.20531,-31.85544,-17.01029,-0.4441859,-4.27255,-61.51973,-6.98289,34.57793,0,0,0,-3.510768,-39.66856,-21.17305,-36.10317,-110.6632,-50.33768,0.001067912,-0.1257102,0.09433498,0,0.3,0,0,0,0,
6.38224E+17,-3.863834,29.9241,14.0784,24.10387,58.20531,-35.00498,-17.01029,-0.4441859,-4.27255,-61.44649,-6.98289,34.57793,0,0,0,-9.973731,-39.47271,-20.67641,-36.10317,-110.6632,-50.33768,0.001067912,-0.1257102,0.09433498,0,0.3,0,0,0,0,
6.38224E+17,-8.175306,30.1345,14.98894,15.31445,58.27856,-42.25625,-17.01029,-0.4441859,-4.27255,-61.51973,-6.98289,34.57793,0,0,0,-21.30423,-38.51694,-20.05618,-36.10317,-110.6632,-50.33768,0.001067912,-0.1257102,0.09433498,0,0.3,0,0,0,0,
6.38224E+17,-11.2381,30.81247,16.22635,6.818012,58.27856,-49.06805,-17.01029,-0.4441859,-4.27255,-61.44649,-6.98289,34.65118,0,0,0,-29.5818,-36.38219,-19.47066,-36.10317,-110.6632,-50.33768,0.001067912,-0.1257102,0.09433498,0,0.3,0,0,0,0,
6.38224E+17,-12.48678,31.39693,17.16024,2.423302,58.27856,-52.29084,-17.01029,-0.4441859,-4.27255,-61.51973,-6.98289,34.57793,0,0,0,-33.11733,-34.59317,-18.80408,-36.10317,-110.6632,-50.33768,0.001067912,-0.1257102,0.09433498,0,0.3,0,0,0,0,
6.38224E+17,-14.23022,32.93989,18.74786,-4.82797,57.61935,-57.05178,-17.01029,-0.4441859,-4.27255,-61.44649,-6.98289,34.57793,0,0,0,-38.04586,-30.4145,-18.32697,-36.10317,-110.6632,-50.33768,0.001067912,-0.1257102,0.09433498,0,0.3,0,0,0,0,
6.38224E+17,-15.2433,34.95041,19.35488,-10.61434,56.81365,-60.34781,-17.01029,-0.4441859,-4.27255,-61.51973,-6.98289,34.57793,0,0,0,-40.35657,-26.07173,-20.25553,-36.10317,-110.6632,-50.33768,0.001067912,-0.1257102,0.09433498,0,0.3,0,0,0,0,
6.38224E+17,-15.45534,36.32973,19.63505,-13.39765,56.37418,-62.10569,-17.01029,-0.4441859,-4.27255,-61.44649,-6.98289,34.57793,0,0,0,-40.56969,-23.24527,-21.61632,-36.10317,-110.6632,-50.33768,0.001067912,-0.1257102,0.09433498,0,0.3,0,0,0,0,
6.38224E+17,-15.54957,39.22863,20.63898,-17.42614,55.2755,-65.25523,-17.01029,-0.4441859,-4.27255,-61.44649,-6.98289,34.57793,0,0,0,-40.29116,-17.10886,-23.55141,-36.10317,-110.6632,-50.33768,0.001067912,-0.1257102,0.09433498,0,0.3,0,0,0,0,
6.38224E+17,-15.54957,42.59509,22.6235,-20.72217,53.44437,-67.37935,-17.01029,-0.4441859,-4.27255,-61.44649,-6.98289,34.57793,0,0,0,-40.06673,-9.486061,-24.35794,-36.10317,-110.6632,-50.33768,0.001067912,-0.1257102,0.09433498,0,0.3,0,0,0,0,
6.38224E+17,-15.54957,46.47587,25.26174,-23.28575,51.17377,-68.69775,-17.01029,-0.4441859,-4.27255,-61.44649,-6.98289,34.57793,0,0,0,-39.87316,-0.5574321,-25.0536,-36.10317,-110.6632,-50.33768,0.001067912,-0.1257102,0.09433498,0,0.3,0,0,0,0,
6.38224E+17,-15.52601,48.65004,26.70927,-24.45767,49.78212,-69.21047,-17.01029,-0.4441859,-4.27255,-61.44649,-6.98289,34.57793,0,0,0,-39.62527,4.332915,-25.71742,-36.10317,-110.6632,-50.33768,0.001067912,-0.1257102,0.09433498,0,0.3,0,0,0,0,
6.38224E+17,-15.19618,53.3023,29.81446,-26.58179,46.11986,-71.26134,-17.01029,-0.4441859,-4.27255,-61.44649,-6.98289,34.57793,0,0,0,-38.26751,14.57019,-27.46498,-36.10317,-110.6632,-50.33768,0.001067912,-0.1257102,0.09433498,0,0.3,0,0,0,0,
6.38224E+17,-14.37158,58.00132,33.15312,-28.7059,42.01813,-73.75167,-17.01029,-0.4441859,-4.27255,-61.44649,-6.98289,34.57793,0,0,0,-35.63997,24.79661,-29.25504,-36.10317,-110.6632,-50.33768,0.001067912,-0.1257102,0.09433498,0,0.3,0,0,0,0,
6.38224E+17,-13.7119,60.19888,34.88082,-29.65808,39.82077,-75.21658,-17.01029,-0.4441859,-4.27255,-61.51973,-6.98289,34.57793,0,0,0,-33.78595,29.67243,-29.87942,-36.10317,-110.6632,-50.33768,0.001067912,-0.1257102,0.09433498,0,0.3,0,0,0,0,
6.38224E+17,-11.89778,64.00952,37.986,-31.34272,35.57256,-77.99989,-17.01029,-0.4441859,-4.27255,-61.51973,-6.98289,34.57793,0,0,0,-28.96835,38.11261,-30.85892,-36.10317,-110.6632,-50.33768,0.001067912,-0.1257102,0.09433498,0,0.3,0,0,0,0,
6.38224E+17,-8.882105,66.95518,40.25069,-32.14842,31.39758,-80.56348,-17.01029,-0.4441859,-4.27255,-61.44649,-6.98289,34.57793,0,0,0,-21.36332,44.2825,-31.64735,-36.10317,-110.6632,-50.33768,0.001067912,-0.1257102,0.09433498,0,0.3,0,0,0,0,
6.38224E+17,-6.950189,67.96043,40.78767,-31.85544,29.34671,-81.88189,-17.01029,-0.4441859,-4.27255,-61.51973,-6.98289,34.57793,0,0,0,-16.59616,45.99141,-32.20675,-36.10317,-110.6632,-50.33768,0.001067912,-0.1257102,0.09433498,0,0.3,0,0,0,0,
6.38224E+17,-2.379556,68.94232,41.02114,-30.24404,26.19717,-84.59196,-17.01029,-0.4441859,-4.27255,-61.44649,-6.98289,34.57793,0,0,0,-5.623199,47.18655,-33.03051,-36.10317,-110.6632,-50.33768,0.001067912,-0.1257102,0.09433498,0,0.3,0,0,0,0,
6.38224E+17,2.591596,68.80206,40.60089,-27.46073,24.21955,-88.69369,-17.01029,-0.4441859,-4.27255,-61.51973,-6.98289,34.57793,0,0,0,6.104245,46.42963,-33.48757,-36.10317,-110.6632,-50.33768,0.001067912,-0.1257102,0.09433498,0,0.3,0,0,0,0,
6.38224E+17,7.162228,67.96043,39.83044,-23.72522,23.26737,-93.96734,-17.01029,-0.4441859,-4.27255,-61.44649,-6.98289,34.57793,0,0,0,16.88807,44.55019,-33.95473,-36.10317,-110.6632,-50.33768,0.001067912,-0.1257102,0.09433498,0,0.3,0,0,0,0,
6.38224E+17,9.141265,67.30585,39.34014,-21.60111,23.12087,-96.09145,-17.01029,-0.4441859,-4.27255,-61.44649,-6.98289,34.57793,0,0,0,21.60329,43.24331,-34.09538,-36.10317,-110.6632,-50.33768,0.001067912,-0.1257102,0.09433498,0,0.3,0,0,0,0,
6.38224E+17,11.66218,65.59924,38.47629,-18.30508,23.19412,-99.31424,-17.01029,-0.4441859,-4.27255,-61.44649,-6.98289,34.57793,0,0,0,27.90722,40.3938,-33.14178,-36.10317,-110.6632,-50.33768,0.001067912,-0.1257102,0.09433498,0,0.3,0,0,0,0,
6.38224E+17,13.28782,62.88737,37.1455,-15.96124,24.36604,-102.83,-17.01029,-0.4441859,-4.27255,-61.44649,-6.98289,34.57793,0,0,0,32.47571,35.75257,-30.83748,-36.10317,-110.6632,-50.33768,0.001067912,-0.1257102,0.09433498,0,0.3,0,0,0,0,
6.38224E+17,13.90038,61.27427,36.09487,-15.08229,25.39147,-104.5146,-17.01029,-0.4441859,-4.27255,-61.51973,-6.98289,34.57793,0,0,0,34.26944,32.53619,-29.8775,-36.10317,-110.6632,-50.33768,0.001067912,-0.1257102,0.09433498,0,0.3,0,0,0,0,
6.38224E+17,15.05481,57.32335,33.71345,-14.05686,28.24804,-108.3966,-17.01029,-0.4441859,-4.27255,-61.44649,-6.98289,34.57793,0,0,0,37.92504,24.67111,-27.35153,-36.10317,-110.6632,-50.33768,0.001067912,-0.1257102,0.09433498,0,0.3,0,0,0,0,
6.38224E+17,16.27993,52.13339,31.70559,-13.25116,32.05679,-111.0335,-17.01029,-0.4441859,-4.27255,-61.51973,-6.98289,34.57793,0,0,0,42.59238,15.17326,-22.50581,-36.10317,-110.6632,-50.33768,0.001067912,-0.1257102,0.09433498,0,0.3,0,0,0,0,
6.38224E+17,16.93961,49.28125,31.21529,-12.88494,34.32739,-112.2054,-17.01029,-0.4441859,-4.27255,-61.51973,-6.909645,34.57793,0,0,0,45.48179,10.37437,-19.02305,-36.10317,-110.6632,-50.33768,0.001067912,-0.1257102,0.09433498,0,0.3,0,0,0,0,
6.38224E+17,18.14117,43.90427,30.84174,-12.15249,39.52779,-113.597,-17.01029,-0.4441859,-4.27255,-61.51973,-6.98289,34.57793,0,0,0,51.20085,1.329755,-12.08114,-36.10317,-110.6632,-50.33768,0.001067912,-0.1257102,0.09433498,0,0.3,0,0,0,0,
6.38224E+17,18.87153,38.92471,30.84174,-11.49328,44.94794,-113.9633,-17.01029,-0.4441859,-4.27255,-61.44649,-6.98289,34.57793,0,0,0,55.66752,-7.358912,-5.494461,-36.10317,-110.6632,-50.33768,0.001067912,-0.1257102,0.09433498,0,0.3,0,0,0,0,
6.38224E+17,19.64901,35.11406,30.86509,-11.27355,49.85536,-115.5014,-17.01029,-0.4441859,-4.27255,-61.51973,-6.98289,34.57793,0,0,0,59.68311,-14.41094,-1.192921,-36.10317,-110.6632,-50.33768,0.001067912,-0.1257102,0.09433498,0,0.3,0,0,0,0,
6.38224E+17,20.19089,33.75813,30.86509,-11.34679,51.97947,-116.8198,-17.01029,-0.4441859,-4.27255,-61.44649,-6.98289,34.57793,0,0,0,61.87725,-17.01365,-0.08998735,-36.10317,-110.6632,-50.33768,0.001067912,-0.1257102,0.09433498,0,0.3,0,0,0,0,
6.38224E+17,21.51024,31.5372,31.02851,-11.63977,55.20226,-119.4567,-17.01029,-0.4441859,-4.27255,-61.51973,-6.98289,34.57793,0,0,0,66.87705,-21.17008,1.338317,-36.10317,-110.6632,-50.33768,0.001067912,-0.1257102,0.09433498,0,0.3,0,0,0,0,
6.38224E+17,23.15944,29.66694,32.0558,-12.006,57.25312,-122.9724,-17.01029,-0.4441859,-4.27255,-61.44649,-6.98289,34.57793,0,0,0,73.40581,-23.66578,3.253968,-36.10317,-110.6632,-50.33768,0.001067912,-0.1257102,0.09433498,0,0.3,0,0,0,0,
6.38224E+17,24.07828,29.15262,32.61613,-11.85951,57.83909,-123.7781,-17.01029,-0.4441859,-4.27255,-61.51973,-6.98289,34.57793,0,0,0,76.83759,-24.01099,3.597423,-36.10317,-110.6632,-50.33768,0.001067912,-0.1257102,0.09433498,0,0.3,0,0,0,0,
6.38224E+17,25.49188,28.6383,32.91964,-11.2003,58.64478,-124.9501,-17.01029,-0.4441859,-4.27255,-61.51973,-6.98289,34.57793,0,0,0,81.56063,-24.67666,2.707821,-36.10317,-110.6632,-50.33768,0.001067912,-0.1257102,0.09433498,0,0.3,0,0,0,0,
6.38224E+17,26.55208,28.49803,33.40994,-10.98056,59.01101,-128.7588,-17.01029,-0.4441859,-4.27255,-61.44649,-6.98289,34.57793,0,0,0,85.20851,-24.33914,2.163548,-36.10317,-110.6632,-50.33768,0.001067912,-0.1257102,0.09433498,0,0.3,0,0,0,0,
6.38224E+17,27.16464,28.49803,34.11036,-11.42003,59.08425,-131.3956,-17.01029,-0.4441859,-4.27255,-61.51973,-6.98289,34.57793,0,0,0,87.64533,-23.43324,2.448607,-36.10317,-110.6632,-50.33768,0.001067912,-0.1257102,0.09433498,0,0.3,0,0,0,0,
6.38224E+17,29.04943,28.49803,35.55789,-12.22573,58.93776,-138.8666,-17.01029,-0.4441859,-4.27255,-61.51973,-6.98289,34.57793,0,0,0,94.55817,-21.50892,1.890901,-36.10317,-110.6632,-50.33768,0.001067912,-0.1257102,0.09433498,0,0.3,0,0,0,0,
6.38224E+17,32.34783,28.52141,37.12215,-11.49328,58.05882,-141.8697,-17.01029,-0.4441859,-4.27255,-61.51973,-7.056135,34.57793,0,0,0,105.7517,-19.30381,-1.376119,-36.10317,-110.6632,-50.33768,0.001067912,-0.1257102,0.09433498,0,0.3,0,0,0,0,
6.38224E+17,36.40014,28.52141,40.18064,-8.050756,56.81365,-142.1627,-17.01029,-0.4441859,-4.27255,-61.44649,-6.98289,34.57793,0,0,0,120.5854,-14.85837,-4.792776,-36.10317,-110.6632,-50.33768,0.001067912,-0.1257102,0.09433498,0,0.3,0,0,0,0,
6.38224E+17,38.0729,28.52141,41.81495,-5.413931,56.0812,-142.0894,-17.01029,-0.4441859,-4.27255,-61.51973,-6.98289,34.57793,0,0,0,127.0787,-12.36312,-6.122608,-36.10317,-110.6632,-50.33768,0.001067912,-0.1257102,0.09433498,0,0.3,0,0,0,0,
6.38224E+17,40.00481,28.59154,44.26641,-0.2135241,54.46981,-142.1627,-17.01029,-0.4441859,-4.27255,-61.44649,-6.909645,34.57793,0,0,0,135.1057,-8.325925,-7.364722,-36.10317,-110.6632,-50.33768,0.001067912,-0.1257102,0.09433498,0,0.3,0,0,0,0,
6.38224E+17,40.38177,29.03573,45.41043,2.716283,53.15139,-142.0162,-17.01029,-0.4441859,-4.27255,-61.51973,-6.98289,34.57793,0,0,0,137.0623,-5.542743,-7.198452,-36.10317,-110.6632,-50.33768,0.001067912,-0.1257102,0.09433498,0,0.3,0,0,0,0,
6.38224E+17,40.42889,29.50329,45.76064,3.448734,52.56543,-142.1627,-17.01029,-0.4441859,-4.27255,-61.44649,-6.98289,34.57793,0,0,0,137.2197,-4.011266,-7.28201,-36.10317,-110.6632,-50.33768,0.001067912,-0.1257102,0.09433498,0,0.3,0,0,0,0,
6.38224E+17,40.90009,30.69558,46.39102,3.96145,51.32027,-142.1627,-17.01029,-0.4441859,-4.27255,-61.51973,-6.98289,34.57793,0,0,0,138.2949,-0.5538517,-8.698513,-36.10317,-110.6632,-50.33768,0.001067912,-0.1257102,0.09433498,0,0.3,0,0,0,0,
6.38224E+17,42.36081,32.16841,47.69846,5.133373,50.00185,-142.2359,-17.01029,-0.4441859,-4.27255,-61.51973,-6.98289,34.57793,0,0,0,142.5124,4.597958,-12.06444,-36.10317,-110.6632,-50.33768,0.001067912,-0.1257102,0.09433498,0,0.3,0,0,0,0,
6.38224E+17,43.42101,33.08016,48.60901,6.378541,49.04966,-142.3092,-17.01029,-0.4441859,-4.27255,-61.44649,-6.909645,34.57793,0,0,0,145.5652,7.963793,-14.53216,-36.10317,-110.6632,-50.33768,0.001067912,-0.1257102,0.09433498,0,0.3,0,0,0,0,
6.38224E+17,45.28225,34.92704,50.45344,9.894309,46.77906,-142.3092,-17.01029,-0.4441859,-4.27255,-61.44649,-6.98289,34.57793,0,0,0,150.7558,14.79263,-19.07217,-36.10317,-110.6632,-50.33768,0.001067912,-0.1257102,0.09433498,0,0.3,0,0,0,0,
6.38224E+17,46.7194,36.77391,52.20449,13.55657,44.21548,-142.3092,-17.01029,-0.4441859,-4.27255,-61.44649,-6.98289,34.57793,0,0,0,154.4735,21.45827,-22.88025,-36.10317,-110.6632,-50.33768,0.001067912,-0.1257102,0.09433498,0,0.3,0,0,0,0,
6.38224E+17,47.44976,38.62079,52.88156,16.77936,42.16462,-142.3092,-17.01029,-0.4441859,-4.27255,-61.51973,-6.98289,34.57793,0,0,0,155.085,26.11014,-25.99042,-36.10317,-110.6632,-50.33768,0.001067912,-0.1257102,0.09433498,0,0.3,0,0,0,0,
6.38224E+17,47.544,39.5793,52.88156,18.17101,41.28568,-142.1627,-17.01029,-0.4441859,-4.27255,-61.51973,-6.98289,34.57793,0,0,0,154.2809,27.84134,-27.19539,-36.10317,-110.6632,-50.33768,0.001067912,-0.1257102,0.09433498,0,0.3,0,0,0,0,
6.38224E+17,47.56756,41.9405,52.97495,20.66135,39.74753,-142.0894,-17.01029,-0.4441859,-4.27255,-61.51973,-6.98289,34.57793,0,0,0,151.7877,32.17701,-29.59111,-36.10317,-110.6632,-50.33768,0.001067912,-0.1257102,0.09433498,0,0.3,0,0,0,0,
6.38224E+17,47.59112,44.48872,52.83487,23.29818,37.9164,-141.7232,-17.01029,-0.4441859,-4.27255,-61.44649,-6.98289,34.57793,0,0,0,148.7014,36.23888,-32.52472,-36.10317,-110.6632,-50.33768,0.001067912,-0.1257102,0.09433498,0,0.3,0,0,0,0,
6.38224E+17,47.59112,45.63425,52.5547,24.68983,36.96421,-140.771,-17.01029,-0.4441859,-4.27255,-61.44649,-6.98289,34.57793,0,0,0,147.0162,37.60338,-34.064,-36.10317,-110.6632,-50.33768,0.001067912,-0.1257102,0.09433498,0,0.3,0,0,0,0,
6.38224E+17,47.3084,47.73829,51.50407,27.61964,35.13308,-135.2044,-17.01029,-0.4441859,-4.27255,-61.44649,-6.909645,34.57793,0,0,0,142.6272,39.03484,-36.77608,-36.10317,-110.6632,-50.33768,0.001067912,-0.1257102,0.09433498,0,0.3,0,0,0,0,
6.38224E+17,46.50736,49.32801,49.28608,29.96349,33.15546,-130.0772,-17.01029,-0.4441859,-4.27255,-61.44649,-6.98289,34.57793,0,0,0,136.3754,37.50782,-38.9679,-36.10317,-110.6632,-50.33768,0.001067912,-0.1257102,0.09433498,0,0.3,0,0,0,0,
6.38224E+17,45.84768,49.84233,47.83855,30.62269,32.20328,-128.2461,-17.01029,-0.4441859,-4.27255,-61.51973,-6.98289,34.57793,0,0,0,132.6231,35.7583,-39.59421,-36.10317,-110.6632,-50.33768,0.001067912,-0.1257102,0.09433498,0,0.3,0,0,0,0,
6.38224E+17,44.12781,50.09949,45.17696,30.84243,30.88486,-124.5838,-17.01029,-0.4441859,-4.27255,-61.44649,-6.98289,34.50468,0,0,0,125.4117,31.64969,-39.06073,-36.10317,-110.6632,-50.33768,0.001067912,-0.1257102,0.09433498,0,0.3,0,0,0,0,
6.38224E+17,42.29013,49.72544,43.35587,29.96349,30.22566,-121.654,-17.01029,-0.4441859,-4.27255,-61.44649,-6.98289,34.57793,0,0,0,119.6072,28.13083,-36.85795,-36.10317,-110.6632,-50.33768,0.001067912,-0.1257102,0.09433498,0,0.3,0,0,0,0,
6.38224E+17,41.44197,49.53841,42.86558,29.59726,30.15241,-120.0426,-17.01029,-0.4441859,-4.27255,-61.51973,-6.98289,34.57793,0,0,0,117.3158,27.06906,-35.47772,-36.10317,-110.6632,-50.33768,0.001067912,-0.1257102,0.09433498,0,0.3,0,0,0,0,
6.38224E+17,39.9577,49.37476,42.65545,28.93805,30.07917,-118.2115,-17.01029,-0.4441859,-4.27255,-61.51973,-6.98289,34.57793,0,0,0,113.7899,26.48946,-32.53689,-36.10317,-110.6632,-50.33768,0.001067912,-0.1257102,0.09433498,0,0.3,0,0,0,0,
6.38224E+17,38.85038,49.37476,42.65545,28.42534,30.07917,-116.8931,-17.01029,-0.4441859,-4.27255,-61.44649,-6.98289,34.57793,0,0,0,111.1441,26.48946,-30.36324,-36.10317,-110.6632,-50.33768,0.001067912,-0.1257102,0.09433498,0,0.3,0,0,0,0,
6.38224E+17,38.21426,49.14098,42.14182,28.64507,30.15241,-114.3295,-17.01029,-0.4441859,-4.27255,-61.44649,-6.98289,34.57793,0,0,0,109.3142,25.32828,-29.50753,-36.10317,-110.6632,-50.33768,0.001067912,-0.1257102,0.09433498,0,0.3,0,0,0,0,
6.38224E+17,37.8373,48.93058,41.72157,29.08454,30.2989,-112.7181,-17.01029,-0.4441859,-4.27255,-61.44649,-6.98289,34.57793,0,0,0,108.1789,24.35364,-29.07396,-36.10317,-110.6632,-50.33768,0.001067912,-0.1257102,0.09433498,0,0.3,0,0,0,0,
6.38224E+17,36.61218,47.76167,39.94717,29.89024,31.1046,-108.8361,-17.01029,-0.4441859,-4.27255,-61.44649,-6.98289,34.57793,0,0,0,104.5252,19.84533,-27.66921,-36.10317,-110.6632,-50.33768,0.001067912,-0.1257102,0.09433498,0,0.3,0,0,0,0,
6.38224E+17,35.0101,45.70439,37.28558,30.25646,32.27652,-104.8809,-17.01029,-0.4441859,-4.27255,-61.44649,-6.98289,34.57793,0,0,0,99.77478,12.69804,-25.91031,-36.10317,-110.6632,-50.33768,0.001067912,-0.1257102,0.09433498,0,0.3,0,0,0,0,
6.38224E+17,34.1855,44.44196,35.83805,30.25646,33.08222,-103.0497,-17.01029,-0.4441859,-4.27255,-61.51973,-6.98289,34.57793,0,0,0,97.36295,8.616332,-25.00678,-36.10317,-110.6632,-50.33768,0.001067912,-0.1257102,0.09433498,0,0.3,0,0,0,0,
6.38224E+17,33.14886,41.73009,32.96634,30.40295,35.35282,-99.02126,-17.01029,-0.4441859,-4.27255,-61.44649,-6.98289,34.57793,0,0,0,94.09586,0.2313789,-24.27598,-36.10317,-110.6632,-50.33768,0.001067912,-0.1257102,0.09433498,0,0.3,0,0,0,0,
6.38224E+17,32.20647,38.48052,29.95454,31.64813,37.98964,-93.82085,-17.01029,-0.4441859,-4.27255,-61.44649,-6.98289,34.57793,0,0,0,91.12344,-9.210506,-23.68464,-36.10317,-110.6632,-50.33768,0.001067912,-0.1257102,0.09433498,0,0.3,0,0,0,0,
6.38224E+17,31.33475,36.37648,28.13346,32.60031,39.45455,-90.45158,-17.01029,-0.4441859,-4.27255,-61.44649,-6.98289,34.57793,0,0,0,88.53278,-15.15657,-22.93789,-36.10317,-110.6632,-50.33768,0.001067912,-0.1257102,0.09433498,0,0.3,0,0,0,0,
6.38224E+17,28.50755,30.9995,24.37455,33.91872,43.11681,-82.61434,-17.01029,-0.4441859,-4.27255,-61.51973,-6.98289,34.57793,0,0,0,80.82043,-29.4348,-19.54407,-36.10317,-110.6632,-50.33768,0.001067912,-0.1257102,0.09433498,0,0.3,0,0,0,0,
6.38224E+17,24.54948,24.85103,22.31999,33.5525,47.21854,-76.75472,-17.01029,-0.4441859,-4.27255,-61.44649,-6.98289,34.57793,0,0,0,71.3152,-43.96733,-12.22052,-36.10317,-110.6632,-50.33768,0.001067912,-0.1257102,0.09433498,0,0.3,0,0,0,0,
6.38224E+17,20.04953,18.95972,21.783,30.69594,52.12596,-74.19114,-17.01029,-0.4441859,-4.27255,-61.44649,-6.98289,34.57793,0,0,0,60.20154,-57.1524,-3.391436,-36.10317,-110.6632,-50.33768,0.001067912,-0.1257102,0.09433498,0,0.3,0,0,0,0,
6.38224E+17,18.14117,17.04271,21.45614,28.57183,54.25007,-73.38544,-17.01029,-0.4441859,-4.27255,-61.44649,-6.98289,34.57793,0,0,0,54.88396,-61.67575,-0.8400063,-36.10317,-110.6632,-50.33768,0.001067912,-0.1257102,0.09433498,0,0.3,0,0,0,0,
6.38224E+17,13.61766,15.75691,21.47948,24.32361,57.03339,-71.62756,-17.01029,-0.4441859,-4.27255,-61.44649,-6.98289,34.57793,0,0,0,41.71262,-64.52661,3.837102,-36.10317,-110.6632,-50.33768,0.001067912,-0.1257102,0.09433498,0,0.3,0,0,0,0,
6.38224E+17,9.588904,15.61664,21.7363,20.44161,58.13207,-70.82186,-17.01029,-0.4441859,-4.27255,-61.51973,-6.98289,34.57793,0,0,0,29.61945,-64.6208,6.977209,-36.10317,-110.6632,-50.33768,0.001067912,-0.1257102,0.09433498,0,0.3,0,0,0,0,
6.38224E+17,7.067988,16.03745,22.10986,17.07234,58.42504,-70.89511,-17.01029,-0.4441859,-4.27255,-61.51973,-6.98289,34.57793,0,0,0,21.94556,-63.35395,8.645647,-36.10317,-110.6632,-50.33768,0.001067912,-0.1257102,0.09433498,0,0.3,0,0,0,0,
6.38224E+17,3.369075,17.44014,22.67019,9.528083,58.71803,-73.38544,-17.01029,-0.4441859,-4.27255,-61.44649,-6.98289,34.57793,0,0,0,10.49686,-59.73098,9.957845,-36.10317,-110.6632,-50.33768,0.001067912,-0.1257102,0.09433498,0,0.3,0,0,0,0,
6.38224E+17,0.8010387,19.21688,22.99706,2.423302,58.13207,-76.242,-17.01029,-0.4441859,-4.27255,-61.44649,-6.98289,34.57793,0,0,0,2.488737,-55.51052,9.649954,-36.10317,-110.6632,-50.33768,0.001067912,-0.1257102,0.09433498,0,0.3,0,0,0,0,
6.38224E+17,-0.2591596,20.12863,23.11379,-0.4332596,57.61935,-77.04771,-17.01029,-0.4441859,-4.27255,-61.44649,-6.98289,34.57793,0,0,0,-0.8031027,-53.406,9.201166,-36.10317,-110.6632,-50.33768,0.001067912,-0.1257102,0.09433498,0,0.3,0,0,0,0,
6.38224E+17,-2.073277,21.43781,23.74417,-4.681479,56.37418,-77.63367,-17.01029,-0.4441859,-4.27255,-61.44649,-6.98289,34.65118,0,0,0,-6.43303,-49.97401,9.351601,-36.10317,-110.6632,-50.33768,0.001067912,-0.1257102,0.09433498,0,0.3,0,0,0,0,
6.38224E+17,-3.345515,22.98077,25.49521,-8.563474,55.56849,-77.99989,-17.01029,-0.4441859,-4.27255,-61.51973,-6.98289,34.57793,0,0,0,-10.51392,-44.95174,11.50836,-36.10317,-110.6632,-50.33768,0.001067912,-0.1257102,0.09433498,0,0.3,0,0,0,0,
6.38224E+17,-4.170113,25.2017,26.84936,-12.81169,54.54305,-79.24506,-17.01029,-0.4441859,-4.27255,-61.51973,-6.98289,34.57793,0,0,0,-13.15352,-38.84323,12.05515,-36.10317,-110.6632,-50.33768,0.001067912,-0.1257102,0.09433498,0,0.3,0,0,0,0,
6.38224E+17,-4.335033,26.32386,27.01279,-14.64282,53.88385,-79.75778,-17.01029,-0.4441859,-4.27255,-61.44649,-6.98289,34.57793,0,0,0,-13.61257,-36.31889,11.22279,-36.10317,-110.6632,-50.33768,0.001067912,-0.1257102,0.09433498,0,0.3,0,0,0,0,
6.38224E+17,-4.287913,29.05911,27.15287,-17.64587,52.49219,-81.00294,-17.01029,-0.4441859,-4.27255,-61.44649,-6.98289,34.57793,0,0,0,-13.26542,-30.53413,8.573599,-36.10317,-110.6632,-50.33768,0.001067912,-0.1257102,0.09433498,0,0.3,0,0,0,0,
6.38224E+17,-4.264353,32.12165,27.363,-19.76999,50.7343,-82.46785,-17.01029,-0.4441859,-4.27255,-61.44649,-6.98289,34.57793,0,0,0,-12.95531,-24.17511,5.395753,-36.10317,-110.6632,-50.33768,0.001067912,-0.1257102,0.09433498,0,0.3,0,0,0,0,
6.38224E+17,-4.264353,33.75813,27.52643,-20.72217,49.70887,-83.27354,-17.01029,-0.4441859,-4.27255,-61.44649,-6.98289,34.57793,0,0,0,-12.82641,-20.80347,3.667155,-36.10317,-110.6632,-50.33768,0.001067912,-0.1257102,0.09433498,0,0.3,0,0,0,0,
6.38224E+17,-4.099433,36.98432,28.18015,-22.33356,47.36503,-84.88493,-17.01029,-0.4441859,-4.27255,-61.44649,-6.98289,34.57793,0,0,0,-12.11671,-13.97076,0.7102802,-36.10317,-110.6632,-50.33768,0.001067912,-0.1257102,0.09433498,0,0.3,0,0,0,0,
6.38224E+17,-3.581114,40.5378,29.02065,-23.50549,44.7282,-86.20335,-17.01029,-0.4441859,-4.27255,-61.51973,-6.98289,34.57793,0,0,0,-10.37076,-6.586446,-2.639836,-36.10317,-110.6632,-50.33768,0.001067912,-0.1257102,0.09433498,0,0.3,0,0,0,0,
6.38224E+17,-2.497356,44.39521,29.97789,-24.38443,41.6519,-87.59501,-17.01029,-0.4441859,-4.27255,-61.44649,-6.98289,34.57793,0,0,0,-7.055088,1.131928,-6.590616,-36.10317,-110.6632,-50.33768,0.001067912,-0.1257102,0.09433498,0,0.3,0,0,0,0,
6.38224E+17,-1.578517,46.31222,30.60827,-24.8239,40.04051,-88.47395,-17.01029,-0.4441859,-4.27255,-61.44649,-6.98289,34.57793,0,0,0,-4.407655,5.007161,-8.404885,-36.10317,-110.6632,-50.33768,0.001067912,-0.1257102,0.09433498,0,0.3,0,0,0,0,
6.38224E+17,0.7774788,49.74882,31.6122,-24.97039,37.1107,-90.59806,-17.01029,-0.4441859,-4.27255,-61.51973,-6.909645,34.57793,0,0,0,2.117607,11.56236,-12.30393,-36.10317,-110.6632,-50.33768,0.001067912,-0.1257102,0.09433498,0,0.3,0,0,0,0,
6.38224E+17,3.533994,52.36718,32.26592,-24.45767,34.62037,-92.86866,-17.01029,-0.4441859,-4.27255,-61.44649,-6.98289,34.57793,0,0,0,9.407128,16.19717,-16.028,-36.10317,-110.6632,-50.33768,0.001067912,-0.1257102,0.09433498,0,0.3,0,0,0,0,
6.38224E+17,5.183192,53.39582,32.47605,-23.87171,33.30195,-94.40681,-17.01029,-0.4441859,-4.27255,-61.44649,-6.98289,34.57793,0,0,0,13.65191,17.90371,-17.85164,-36.10317,-110.6632,-50.33768,0.001067912,-0.1257102,0.09433498,0,0.3,0,0,0,0,
6.38224E+17,8.528707,54.44784,32.42935,-22.5533,31.54407,-97.84933,-17.01029,-0.4441859,-4.27255,-61.44649,-6.98289,34.57793,0,0,0,22.10421,19.28725,-20.95247,-36.10317,-110.6632,-50.33768,0.001067912,-0.1257102,0.09433498,0,0.3,0,0,0,0,
6.38224E+17,11.56794,54.09716,31.96241,-20.94191,30.81162,-101.9511,-17.01029,-0.4441859,-4.27255,-61.44649,-6.98289,34.57793,0,0,0,29.83655,18.23162,-22.58363,-36.10317,-110.6632,-50.33768,0.001067912,-0.1257102,0.09433498,0,0.3,0,0,0,0,
6.38224E+17,14.32446,52.97501,31.28534,-18.96429,31.25109,-105.0274,-17.01029,-0.4441859,-4.27255,-61.51973,-6.98289,34.57793,0,0,0,36.99986,15.85322,-23.4522,-36.10317,-110.6632,-50.33768,0.001067912,-0.1257102,0.09433498,0,0.3,0,0,0,0,
6.38224E+17,15.40822,52.20353,30.7717,-17.93885,31.76381,-105.9795,-17.01029,-0.4441859,-4.27255,-61.51973,-6.98289,34.57793,0,0,0,39.8406,14.14618,-23.79058,-36.10317,-110.6632,-50.33768,0.001067912,-0.1257102,0.09433498,0,0.3,0,0,0,0,
6.38224E+17,17.03385,49.86571,29.53429,-15.88799,33.08222,-107.7374,-17.01029,-0.4441859,-4.27255,-61.44649,-6.909645,34.57793,0,0,0,44.43528,9.27823,-23.31527,-36.10317,-110.6632,-50.33768,0.001067912,-0.1257102,0.09433498,0,0.3,0,0,0,0,
6.38224E+17,18.11761,46.0083,28.32023,-14.2766,35.71904,-108.8361,-17.01029,-0.4441859,-4.27255,-61.44649,-6.98289,34.57793,0,0,0,48.47375,1.898064,-20.19858,-36.10317,-110.6632,-50.33768,0.001067912,-0.1257102,0.09433498,0,0.3,0,0,0,0,
6.38224E+17,18.32965,44.23156,27.82994,-13.83713,37.03746,-108.9094,-17.01029,-0.4441859,-4.27255,-61.44649,-6.909645,34.57793,0,0,0,49.62651,-1.556746,-18.55338,-36.10317,-110.6632,-50.33768,0.001067912,-0.1257102,0.09433498,0,0.3,0,0,0,0,
6.38224E+17,18.75373,39.81308,26.94275,-13.17792,40.91945,-109.6418,-17.01029,-0.4441859,-4.27255,-61.44649,-6.98289,34.57793,0,0,0,52.35709,-10.14414,-14.14395,-36.10317,-110.6632,-50.33768,0.001067912,-0.1257102,0.09433498,0,0.3,0,0,0,0,
6.38224E+17,19.31917,35.3946,26.89605,-13.4709,45.09443,-111.7659,-17.01029,-0.4441859,-4.27255,-61.44649,-6.98289,34.57793,0,0,0,55.91973,-18.33846,-8.8394,-36.10317,-110.6632,-50.33768,0.001067912,-0.1257102,0.09433498,0,0.3,0,0,0,0,
6.38224E+17,19.64901,32.89313,26.82601,-13.83713,47.43827,-113.5238,-17.01029,-0.4441859,-4.27255,-61.44649,-6.98289,34.57793,0,0,0,57.88686,-23.23012,-6.22376,-36.10317,-110.6632,-50.33768,0.001067912,-0.1257102,0.09433498,0,0.3,0,0,0,0,
6.38224E+17,20.14377,28.24087,26.75597,-15.08229,51.61324,-116.8931,-17.01029,-0.4441859,-4.27255,-61.44649,-6.98289,34.57793,0,0,0,61.1303,-32.62403,-1.698154,-36.10317,-110.6632,-50.33768,0.001067912,-0.1257102,0.09433498,0,0.3,0,0,0,0,
6.38224E+17,20.45005,23.82239,26.75597,-17.27965,55.2755,-121.0681,-17.01029,-0.4441859,-4.27255,-61.51973,-6.98289,34.57793,0,0,0,63.59673,-41.86205,2.200328,-36.10317,-110.6632,-50.33768,0.001067912,-0.1257102,0.09433498,0,0.3,0,0,0,0,
6.38224E+17,20.42649,20.94687,26.73262,-20.57568,57.61935,-127.2206,-17.01029,-0.4441859,-4.27255,-61.44649,-6.98289,34.57793,0,0,0,64.39906,-48.07404,4.569126,-36.10317,-110.6632,-50.33768,0.001067912,-0.1257102,0.09433498,0,0.3,0,0,0,0,
6.38224E+17,20.61497,19.77796,26.8727,-22.40681,58.27856,-131.1759,-17.01029,-0.4441859,-4.27255,-61.51973,-6.98289,34.57793,0,0,0,65.40328,-50.4775,5.514707,-36.10317,-110.6632,-50.33768,0.001067912,-0.1257102,0.09433498,0,0.3,0,0,0,0,
6.38224E+17,21.8872,17.29987,27.54977,-26.14231,59.23075,-139.3061,-17.01029,-0.4441859,-4.27255,-61.51973,-6.98289,34.57793,0,0,0,70.45341,-55.22471,7.021549,-36.10317,-110.6632,-50.33768,0.001067912,-0.1257102,0.09433498,0,0.3,0,0,0,0,
6.38224E+17,23.84268,16.17772,28.08676,-27.0945,59.74346,-140.4048,-17.01029,-0.4441859,-4.27255,-61.44649,-6.98289,34.57793,0,0,0,77.14743,-57.14247,6.214347,-36.10317,-110.6632,-50.33768,0.001067912,-0.1257102,0.09433498,0,0.3,0,0,0,0,
6.38224E+17,25.1856,16.03745,28.13346,-26.58179,59.88995,-140.478,-17.01029,-0.4441859,-4.27255,-61.44649,-6.98289,34.57793,0,0,0,81.2967,-57.40491,4.527067,-36.10317,-110.6632,-50.33768,0.001067912,-0.1257102,0.09433498,0,0.3,0,0,0,0,
6.38224E+17,27.91855,16.01407,28.34358,-23.79847,60.10968,-140.478,-17.01029,-0.4441859,-4.27255,-61.44649,-6.98289,34.57793,0,0,0,89.65594,-57.22582,0.8481026,-36.10317,-110.6632,-50.33768,0.001067912,-0.1257102,0.09433498,0,0.3,0,0,0,0,
6.38224E+17,30.72219,16.10758,29.39421,-19.11078,60.25618,-140.478,-17.01029,-0.4441859,-4.27255,-61.44649,-6.98289,34.57793,0,0,0,98.88783,-55.83612,-1.950742,-36.10317,-110.6632,-50.33768,0.001067912,-0.1257102,0.09433498,0,0.3,0,0,0,0,
6.38224E+17,32.01799,16.20109,30.18801,-16.91342,60.25618,-140.478,-17.01029,-0.4441859,-4.27255,-61.44649,-6.98289,34.57793,0,0,0,103.4435,-54.70916,-2.921454,-36.10317,-110.6632,-50.33768,0.001067912,-0.1257102,0.09433498,0,0.3,0,0,0,0,
6.38224E+17,35.08078,16.90244,32.52274,-11.2003,60.25618,-139.3061,-17.01029,-0.4441859,-4.27255,-61.44649,-6.98289,34.57793,0,0,0,114.5341,-50.31723,-5.268264,-36.10317,-110.6632,-50.33768,0.001067912,-0.1257102,0.09433498,0,0.3,0,0,0,0,
6.38224E+17,38.26138,18.58567,34.85747,-4.534989,59.88995,-136.7425,-17.01029,-0.4441859,-4.27255,-61.51973,-6.98289,34.57793,0,0,0,125.4662,-43.57224,-9.26185,-36.10317,-110.6632,-50.33768,0.001067912,-0.1257102,0.09433498,0,0.3,0,0,0,0,
6.38224E+17,41.79537,21.67159,37.47236,3.66847,58.71803,-131.1759,-17.01029,-0.4441859,-4.27255,-61.44649,-6.98289,34.57793,0,0,0,136.6612,-33.23852,-15.47795,-36.10317,-110.6632,-50.33768,0.001067912,-0.1257102,0.09433498,0,0.3,0,0,0,0,
6.38224E+17,43.35033,23.61198,38.70977,7.989935,57.69259,-128.6855,-17.01029,-0.4441859,-4.27255,-61.44649,-6.98289,34.57793,0,0,0,141.1217,-27.29408,-18.85864,-36.10317,-110.6632,-50.33768,0.001067912,-0.1257102,0.09433498,0,0.3,0,0,0,0,
6.38224E+17,45.6592,27.91357,40.74098,16.41313,54.98252,-125.0965,-17.01029,-0.4441859,-4.27255,-61.51973,-6.98289,34.57793,0,0,0,146.5184,-15.25864,-25.16482,-36.10317,-110.6632,-50.33768,0.001067912,-0.1257102,0.09433498,0,0.3,0,0,0,0,
6.38224E+17,47.02568,32.37881,42.37529,23.51791,51.75974,-124.6571,-17.01029,-0.4441859,-4.27255,-61.44649,-6.98289,34.57793,0,0,0,148.1561,-3.750933,-30.31631,-36.10317,-110.6632,-50.33768,0.001067912,-0.1257102,0.09433498,0,0.3,0,0,0,0,
6.38224E+17,47.40264,34.52961,43.16909,26.30123,50.00185,-124.6571,-17.01029,-0.4441859,-4.27255,-61.51973,-6.98289,34.57793,0,0,0,148.0281,1.679856,-32.24377,-36.10317,-110.6632,-50.33768,0.001067912,-0.1257102,0.09433498,0,0.3,0,0,0,0,
6.38224E+17,47.96808,38.78444,45.247,31.42839,45.90012,-124.5106,-17.01029,-0.4441859,-4.27255,-61.44649,-6.98289,34.57793,0,0,0,147.5485,12.99407,-35.34785,-36.10317,-110.6632,-50.33768,0.001067912,-0.1257102,0.09433498,0,0.3,0,0,0,0,
6.38224E+17,48.0152,42.59509,47.79185,36.11608,41.6519,-123.7049,-17.01029,-0.4441859,-4.27255,-61.44649,-6.98289,34.57793,0,0,0,146.3898,24.01501,-36.61036,-36.10317,-110.6632,-50.33768,0.001067912,-0.1257102,0.09433498,0,0.3,0,0,0,0,
6.38224E+17,47.61468,46.21871,49.42616,40.65728,37.40368,-120.7751,-17.01029,-0.4441859,-4.27255,-61.51973,-6.98289,34.57793,0,0,0,142.9646,32.89235,-37.8725,-36.10317,-110.6632,-50.33768,0.001067912,-0.1257102,0.09433498,0,0.3,0,0,0,0,
6.38224E+17,47.16704,47.97207,49.63629,42.85464,35.05984,-118.8707,-17.01029,-0.4441859,-4.27255,-61.51973,-6.98289,34.57793,0,0,0,139.9817,36.0424,-38.57586,-36.10317,-110.6632,-50.33768,0.001067912,-0.1257102,0.09433498,0,0.3,0,0,0,0,
6.38224E+17,45.72989,51.058,49.37947,46.59014,30.37215,-114.4027,-17.01029,-0.4441859,-4.27255,-61.51973,-6.98289,34.57793,0,0,0,132.4939,40.25029,-39.18945,-36.10317,-110.6632,-50.33768,0.001067912,-0.1257102,0.09433498,0,0.3,0,0,0,0,
6.38224E+17,43.93933,53.34906,48.81913,48.93398,26.12393,-109.4221,-17.01029,-0.4441859,-4.27255,-61.51973,-6.98289,34.57793,0,0,0,124.8774,42.53225,-38.76128,-36.10317,-110.6632,-50.33768,0.001067912,-0.1257102,0.09433498,0,0.3,0,0,0,0,
6.38224E+17,42.92625,54.28419,48.23545,49.73968,23.92657,-106.4923,-17.01029,-0.4441859,-4.27255,-61.51973,-6.98289,34.57793,0,0,0,120.7576,42.79928,-38.51864,-36.10317,-110.6632,-50.33768,0.001067912,-0.1257102,0.09433498,0,0.3,0,0,0,0,
6.38224E+17,40.75874,55.56999,46.20424,50.61862,19.97133,-100.5594,-17.01029,-0.4441859,-4.27255,-61.44649,-6.98289,34.57793,0,0,0,112.0657,41.04924,-38.33141,-36.10317,-110.6632,-50.33768,0.001067912,-0.1257102,0.09433498,0,0.3,0,0,0,0,
6.38224E+17,38.49697,55.78039,43.26248,50.54538,16.6753,-94.77303,-17.01029,-0.4441859,-4.27255,-61.51973,-6.98289,34.57793,0,0,0,103.5683,36.50718,-38.13272,-36.10317,-110.6632,-50.33768,0.001067912,-0.1257102,0.09433498,0,0.3,0,0,0,0,
6.38224E+17,37.41322,55.56999,41.53479,50.17915,15.35689,-91.91647,-17.01029,-0.4441859,-4.27255,-61.51973,-6.98289,34.57793,0,0,0,99.5285,33.51982,-38.23436,-36.10317,-110.6632,-50.33768,0.001067912,-0.1257102,0.09433498,0,0.3,0,0,0,0,
6.38224E+17,35.3635,54.68162,38.0327,49.08047,13.52576,-85.69064,-17.01029,-0.4441859,-4.27255,-61.51973,-6.98289,34.57793,0,0,0,92.16818,27.12285,-38.48164,-36.10317,-110.6632,-50.33768,0.001067912,-0.1257102,0.09433498,0,0.3,0,0,0,0,
6.38224E+17,33.5965,52.60096,34.55396,47.54232,12.64682,-79.31831,-17.01029,-0.4441859,-4.27255,-61.44649,-6.98289,34.57793,0,0,0,86.66728,19.46049,-37.88799,-36.10317,-110.6632,-50.33768,0.001067912,-0.1257102,0.09433498,0,0.3,0,0,0,0,
6.38224E+17,32.84259,51.058,33.10642,46.80988,12.57357,-76.3885,-17.01029,-0.4441859,-4.27255,-61.44649,-6.98289,34.57793,0,0,0,84.95652,15.36568,-36.73822,-36.10317,-110.6632,-50.33768,0.001067912,-0.1257102,0.09433498,0,0.3,0,0,0,0,
6.38224E+17,31.33475,46.8733,30.14132,45.5647,13.37927,-70.74863,-17.01029,-0.4441859,-4.27255,-61.44649,-6.98289,34.57793,0,0,0,82.22806,5.354982,-33.29319,-36.10317,-110.6632,-50.33768,0.001067912,-0.1257102,0.09433498,0,0.3,0,0,0,0,
6.38224E+17,29.94471,41.6132,27.01279,44.53928,15.28364,-65.47498,-17.01029,-0.4441859,-4.27255,-61.51973,-6.98289,34.57793,0,0,0,79.99834,-6.894672,-29.47951,-36.10317,-110.6632,-50.33768,0.001067912,-0.1257102,0.09433498,0,0.3,0,0,0,0,
6.38224E+17,28.22483,36.04919,24.28116,43.51384,18.79941,-60.78728,-17.01029,-0.4441859,-4.27255,-61.51973,-6.98289,34.57793,0,0,0,76.92276,-19.72992,-25.03884,-36.10317,-110.6632,-50.33768,0.001067912,-0.1257102,0.09433498,0,0.3,0,0,0,0,
6.38224E+17,27.14108,33.52435,23.04375,43.00113,20.99677,-58.73641,-17.01029,-0.4441859,-4.27255,-61.44649,-6.98289,34.57793,0,0,0,74.52438,-25.71146,-22.97368,-36.10317,-110.6632,-50.33768,0.001067912,-0.1257102,0.09433498,0,0.3,0,0,0,0,
6.38224E+17,24.10184,29.50329,21.03589,41.31649,25.53797,-55.22065,-17.01029,-0.4441859,-4.27255,-61.51973,-6.98289,34.57793,0,0,0,66.94017,-35.44164,-18.71627,-36.10317,-110.6632,-50.33768,0.001067912,-0.1257102,0.09433498,0,0.3,0,0,0,0,
6.38224E+17,20.02597,27.1421,19.86852,38.24019,29.41996,-52.8768,-17.01029,-0.4441859,-4.27255,-61.44649,-6.98289,34.50468,0,0,0,56.15633,-41.22823,-14.27906,-36.10317,-110.6632,-50.33768,0.001067912,-0.1257102,0.09433498,0,0.3,0,0,0,0,
6.38224E+17,17.95269,26.53426,19.58836,36.26257,31.03135,-52.21759,-17.01029,-0.4441859,-4.27255,-61.44649,-6.98289,34.57793,0,0,0,50.55332,-42.71062,-12.32463,-36.10317,-110.6632,-50.33768,0.001067912,-0.1257102,0.09433498,0,0.3,0,0,0,0,
6.38224E+17,13.33494,26.0667,19.51831,30.69594,33.81467,-51.55839,-17.01029,-0.4441859,-4.27255,-61.44649,-6.98289,34.57793,0,0,0,37.90375,-43.74074,-8.441472,-36.10317,-110.6632,-50.33768,0.001067912,-0.1257102,0.09433498,0,0.3,0,0,0,0,
6.38224E+17,8.717185,26.11345,20.03195,24.32361,35.49931,-51.48514,-17.01029,-0.4441859,-4.27255,-61.44649,-6.98289,34.57793,0,0,0,25.07007,-43.23855,-4.84435,-36.10317,-110.6632,-50.33768,0.001067912,-0.1257102,0.09433498,0,0.3,0,0,0,0,
6.38224E+17,4.311473,26.20697,21.03589,17.14558,36.67123,-53.02329,-17.01029,-0.4441859,-4.27255,-61.51973,-6.98289,34.57793,0,0,0,12.59303,-42.22364,-1.315457,-36.10317,-110.6632,-50.33768,0.001067912,-0.1257102,0.09433498,0,0.3,0,0,0,0,
6.38224E+17,2.238196,26.34723,21.85304,12.89736,37.33044,-54.56144,-17.01029,-0.4441859,-4.27255,-61.51973,-6.98289,34.57793,0,0,0,6.605361,-41.23561,0.6551822,-36.10317,-110.6632,-50.33768,0.001067912,-0.1257102,0.09433498,0,0.3,0,0,0,0,
6.38224E+17,-1.319358,26.86156,23.55739,4.693902,38.50236,-58.22369,-17.01029,-0.4441859,-4.27255,-61.44649,-6.98289,34.57793,0,0,0,-3.966242,-38.63428,3.861643,-36.10317,-110.6632,-50.33768,0.001067912,-0.1257102,0.09433498,0,0.3,0,0,0,0,
6.38224E+17,-4.570632,27.7733,24.91153,-3.582802,39.3813,-62.25218,-17.01029,-0.4441859,-4.27255,-61.44649,-6.98289,34.57793,0,0,0,-13.87825,-35.45532,5.253461,-36.10317,-110.6632,-50.33768,0.001067912,-0.1257102,0.09433498,0,0.3,0,0,0,0,
6.38224E+17,-5.98423,28.38114,25.33178,-7.538041,39.82077,-64.59603,-17.01029,-0.4441859,-4.27255,-61.44649,-6.98289,34.57793,0,0,0,-18.17963,-33.79191,5.076804,-36.10317,-110.6632,-50.33768,0.001067912,-0.1257102,0.09433498,0,0.3,0,0,0,0,
6.38224E+17,-8.293106,29.94748,25.89212,-15.00905,40.55322,-69.64995,-17.01029,-0.4441859,-4.27255,-61.44649,-6.98289,34.57793,0,0,0,-25.06504,-30.04493,3.609418,-36.10317,-110.6632,-50.33768,0.001067912,-0.1257102,0.09433498,0,0.3,0,0,0,0,
6.38224E+17,-9.871624,31.958,26.31237,-21.38138,41.06594,-75.28983,-17.01029,-0.4441859,-4.27255,-61.44649,-6.98289,34.57793,0,0,0,-29.53046,-25.60188,1.348079,-36.10317,-110.6632,-50.33768,0.001067912,-0.1257102,0.09433498,0,0.3,0,0,0,0,
6.38224E+17,-10.38994,32.98664,26.4758,-24.09145,41.21243,-77.8534,-17.01029,-0.4441859,-4.27255,-61.44649,-6.98289,34.57793,0,0,0,-30.89402,-23.41307,0.1448699,-36.10317,-110.6632,-50.33768,0.001067912,-0.1257102,0.09433498,0,0.3,0,0,0,0,
6.38224E+17,-10.83758,35.13744,26.54584,-28.77914,41.35892,-82.68758,-17.01029,-0.4441859,-4.27255,-61.44649,-6.98289,34.57793,0,0,0,-31.70978,-19.19363,-2.711872,-36.10317,-110.6632,-50.33768,0.001067912,-0.1257102,0.09433498,0,0.3,0,0,0,0,
6.38224E+17,-10.83758,37.66228,26.54584,-32.07517,40.91945,-86.64282,-17.01029,-0.4441859,-4.27255,-61.44649,-6.98289,34.57793,0,0,0,-31.05416,-14.46419,-6.136506,-36.10317,-110.6632,-50.33768,0.001067912,-0.1257102,0.09433498,0,0.3,0,0,0,0,
6.38224E+17,-10.62554,40.46767,26.59254,-34.27253,40.04051,-90.0121,-17.01029,-0.4441859,-4.27255,-61.51973,-6.98289,34.57793,0,0,0,-29.71292,-9.346579,-9.970937,-36.10317,-110.6632,-50.33768,0.001067912,-0.1257102,0.09433498,0,0.3,0,0,0,0,
6.38224E+17,-10.27214,41.87036,26.63923,-35.29796,39.45455,-91.69674,-17.01029,-0.4441859,-4.27255,-61.44649,-6.98289,34.57793,0,0,0,-28.36959,-6.84044,-11.80962,-36.10317,-110.6632,-50.33768,0.001067912,-0.1257102,0.09433498,0,0.3,0,0,0,0,
6.38224E+17,-8.811425,44.48872,26.77931,-36.9826,37.98964,-95.79847,-17.01029,-0.4441859,-4.27255,-61.51973,-6.98289,34.57793,0,0,0,-23.77581,-2.250494,-14.96994,-36.10317,-110.6632,-50.33768,0.001067912,-0.1257102,0.09433498,0,0.3,0,0,0,0,
6.38224E+17,-6.21983,46.45249,27.10618,-37.6418,36.52474,-99.46073,-17.01029,-0.4441859,-4.27255,-61.44649,-6.909645,34.57793,0,0,0,-16.53667,1.299195,-16.6165,-36.10317,-110.6632,-50.33768,0.001067912,-0.1257102,0.09433498,0,0.3,0,0,0,0,
6.38224E+17,-4.335033,47.22397,27.19957,-37.27558,35.93878,-100.9989,-17.01029,-0.4441859,-4.27255,-61.51973,-6.98289,34.57793,0,0,0,-11.45283,2.626637,-17.26781,-36.10317,-110.6632,-50.33768,0.001067912,-0.1257102,0.09433498,0,0.3,0,0,0,0,
6.38224E+17,0.4711992,48.46302,27.17622,-35.3712,35.05984,-103.3427,-17.01029,-0.4441859,-4.27255,-61.51973,-6.98289,34.57793,0,0,0,1.22807,4.537223,-19.02544,-36.10317,-110.6632,-50.33768,0.001067912,-0.1257102,0.09433498,0,0.3,0,0,0,0,
6.38224E+17,5.206751,48.97734,27.17622,-32.14842,34.62037,-105.4668,-17.01029,-0.4441859,-4.27255,-61.44649,-6.98289,34.57793,0,0,0,13.47002,5.326943,-20.53242,-36.10317,-110.6632,-50.33768,0.001067912,-0.1257102,0.09433498,0,0.3,0,0,0,0,
6.38224E+17,9.447544,48.79031,27.17622,-28.48616,34.47387,-107.3712,-17.01029,-0.4441859,-4.27255,-61.44649,-6.98289,34.57793,0,0,0,24.41781,5.040707,-21.60973,-36.10317,-110.6632,-50.33768,0.001067912,-0.1257102,0.09433498,0,0.3,0,0,0,0,
6.38224E+17,11.3559,48.29937,27.15287,-26.50854,34.40063,-107.9572,-17.01029,-0.4441859,-4.27255,-61.44649,-6.98289,34.57793,0,0,0,29.44996,4.25945,-21.71206,-36.10317,-110.6632,-50.33768,0.001067912,-0.1257102,0.09433498,0,0.3,0,0,0,0,
6.38224E+17,14.39514,46.35898,27.08283,-22.33356,34.8401,-108.3966,-17.01029,-0.4441859,-4.27255,-61.51973,-6.98289,34.57793,0,0,0,37.97264,1.124372,-20.40421,-36.10317,-110.6632,-50.33768,0.001067912,-0.1257102,0.09433498,0,0.3,0,0,0,0,
6.38224E+17,16.42129,43.78737,27.08283,-18.74455,36.305,-108.3966,-17.01029,-0.4441859,-4.27255,-61.44649,-6.98289,34.57793,0,0,0,44.37747,-3.101997,-17.77491,-36.10317,-110.6632,-50.33768,0.001067912,-0.1257102,0.09433498,0,0.3,0,0,0,0,
6.38224E+17,17.12809,42.64184,27.08283,-17.49938,37.25719,-108.5431,-17.01029,-0.4441859,-4.27255,-61.51973,-6.98289,34.57793,0,0,0,46.76917,-5.045008,-16.58922,-36.10317,-110.6632,-50.33768,0.001067912,-0.1257102,0.09433498,0,0.3,0,0,0,0,
