zeyangz2/DNN_classification_different_people_hand/data/Frank_right_3.csv
Timestamp,Therapist joint angle 0,Therapist joint angle 1,Therapist joint angle 2,Therapist joint angle 3,Therapist joint angle 4,Therapist joint angle 5,Patient joint angle 0,Patient joint angle 1,Patient joint angle 2,Patient joint angle 3,Patient joint angle 4,Patient joint angle 5,Virtual joint angle 0,Virtual joint angle 1,Virtual joint angle 2,Therapist position x,Therapist position y,Therapist position z,Patient position x,Patient position y,Patient position z,Virtual position x,Virtual position y,Virtual position z,Assistive Force, Obstacle Force Magnitude, Therapist Constant Force, Patient Constant Force, Recovery Factor, Assistance Level,,label
6.38223E+17,0,0,0,0,0,0,0,0,0,0,0,0,0,0,0,0,0,0,0,0,0,0,0,0,0,0.3,0,0,0,0,,1
6.38223E+17,34.4211,-0.9818845,-8.358321,-19.25727,13.96523,-7.24506,-4.570632,-0.4675641,0.1400836,-35.15147,-8.447793,45.05199,0,0,0,64.41048,-110.8687,-74.35516,-10.65202,-111.0878,-35.1035,0.001067912,-0.1257102,0.09433498,0,0.3,0,0,0,0,,
6.38223E+17,34.4211,-0.9818845,-8.358321,-19.25727,13.96523,-7.24506,-4.570632,-0.4675641,0.1400836,-35.22471,-8.447793,45.12524,0,0,0,64.41048,-110.8687,-74.35516,-10.65202,-111.0878,-35.1035,0.001067912,-0.1257102,0.09433498,0,0.3,0,0,0,0,,
6.38223E+17,34.4211,-0.9818845,-8.358321,-19.25727,13.96523,-7.24506,-4.570632,-0.4675641,0.1400836,-35.15147,-8.447793,45.05199,0,0,0,64.41048,-110.8687,-74.35516,-10.65202,-111.0878,-35.1035,0.001067912,-0.1257102,0.09433498,0,0.3,0,0,0,0,,
6.38223E+17,34.4211,-0.9818845,-8.358321,-19.25727,13.96523,-7.24506,-4.570632,-0.4675641,0.1400836,-35.22471,-8.447793,45.05199,0,0,0,64.41048,-110.8687,-74.35516,-10.65202,-111.0878,-35.1035,0.001067912,-0.1257102,0.09433498,0,0.3,0,0,0,0,,
6.38223E+17,34.4211,-0.9818845,-8.358321,-19.25727,13.96523,-7.24506,-4.570632,-0.4675641,0.1400836,-35.15147,-8.447793,45.12524,0,0,0,64.41048,-110.8687,-74.35516,-10.65202,-111.0878,-35.1035,0.001067912,-0.1257102,0.09433498,0,0.3,0,0,9.01E-08,0,,
6.38223E+17,34.4211,-0.9818845,-8.358321,-19.18402,14.03847,-7.24506,-4.570632,-0.4675641,0.1400836,-35.22471,-8.521038,45.05199,0,0,0,64.41048,-110.8687,-74.35516,-10.65202,-111.0878,-35.1035,0.001067912,-0.1257102,0.09433498,0,0.3,0,0,9.01E-08,0,,
6.38223E+17,34.4211,-0.9818845,-8.358321,-19.25727,13.96523,-7.24506,-4.570632,-0.4675641,0.1400836,-35.15147,-8.447793,45.05199,0,0,0,64.41048,-110.8687,-74.35516,-10.65202,-111.0878,-35.1035,0.001067912,-0.1257102,0.09433498,0,0.3,0,0,9.01E-08,0,,
6.38223E+17,34.4211,-0.9818845,-8.358321,-19.25727,14.03847,-7.24506,-4.570632,-0.4675641,0.1400836,-35.15147,-8.447793,45.05199,0,0,0,64.41048,-110.8687,-74.35516,-10.65202,-111.0878,-35.1035,0.001067912,-0.1257102,0.09433498,0,0.3,0,0,9.01E-08,0,,
6.38223E+17,34.4211,-0.9818845,-8.358321,-19.25727,13.96523,-7.24506,-4.570632,-0.4675641,0.1400836,-35.15147,-8.447793,45.05199,0,0,0,64.41048,-110.8687,-74.35516,-10.65202,-111.0878,-35.1035,0.001067912,-0.1257102,0.09433498,0,0.3,0,0,9.01E-08,0,,
6.38223E+17,34.4211,-0.9818845,-8.358321,-19.25727,13.96523,-7.24506,-4.570632,-0.4675641,0.1400836,-35.15147,-8.447793,45.05199,0,0,0,64.41048,-110.8687,-74.35516,-10.65202,-111.0878,-35.1035,0.001067912,-0.1257102,0.09433498,0,0.3,0,0,9.01E-08,0,,
6.38223E+17,34.4211,-0.9818845,-8.358321,-19.18402,13.96523,-7.318305,-4.570632,-0.4675641,0.1400836,-35.15147,-8.447793,45.05199,0,0,0,64.41048,-110.8687,-74.35516,-10.65202,-111.0878,-35.1035,0.001067912,-0.1257102,0.09433498,0,0.3,0,0,9.01E-08,0,,
6.38223E+17,34.4211,-0.9818845,-8.334974,-19.11078,14.03847,-7.318305,-4.570632,-0.4675641,0.1400836,-35.15147,-8.447793,45.12524,0,0,0,64.44086,-110.8766,-74.31081,-10.65202,-111.0878,-35.1035,0.001067912,-0.1257102,0.09433498,0,0.3,0,0,0,0,,
6.38223E+17,34.4211,-0.9818845,-8.19489,-18.59806,14.11172,-7.464796,-4.570632,-0.4675641,0.1400836,-35.15147,-8.447793,45.05199,0,0,0,64.62325,-110.9235,-74.04465,-10.65202,-111.0878,-35.1035,0.001067912,-0.1257102,0.09433498,0,0.3,0,0,0,0,,
6.38223E+17,34.4211,-0.9585064,-8.054807,-18.0121,14.55119,-7.025325,-4.570632,-0.4675641,0.1400836,-35.15147,-8.521038,45.12524,0,0,0,64.80621,-110.9152,-73.77765,-10.65202,-111.0878,-35.1035,0.001067912,-0.1257102,0.09433498,0,0.3,0,0,0,0,,
6.38223E+17,34.4211,-0.8182371,-7.868029,-17.49938,14.91741,-5.706912,-4.570632,-0.4675641,0.1400836,-35.15147,-8.447793,45.05199,0,0,0,65.05244,-110.6489,-73.41834,-10.65202,-111.0878,-35.1035,0.001067912,-0.1257102,0.09433498,0,0.3,0,0,0,0,,
6.38223E+17,34.4211,-0.1402692,-7.167611,-16.18097,15.8696,0.1527017,-4.570632,-0.4675641,0.1400836,-35.22471,-8.521038,45.05199,0,0,0,65.97344,-109.2844,-72.0743,-10.65202,-111.0878,-35.1035,0.001067912,-0.1257102,0.09433498,0,0.3,0,0,0,0,,
6.38223E+17,34.4211,0.7013461,-6.093637,-14.13011,17.11477,11.13948,-4.570632,-0.4675641,0.1400836,-35.15147,-8.447793,45.05199,0,0,0,67.37148,-107.6143,-70.03413,-10.65202,-111.0878,-35.1035,0.001067912,-0.1257102,0.09433498,0,0.3,0,0,0,0,,
6.38223E+17,34.39754,1.075397,-4.599411,-10.54109,18.35994,23.95738,-4.570632,-0.4675641,0.1400836,-35.15147,-8.447793,45.05199,0,0,0,69.27946,-107.0678,-67.1606,-10.65202,-111.0878,-35.1035,0.001067912,-0.1257102,0.09433498,0,0.3,0,0,0,0,,
6.38223E+17,34.11483,1.16891,-2.895061,-6.366118,19.45862,35.09065,-4.570632,-0.4675641,0.1400836,-35.15147,-8.447793,45.12524,0,0,0,70.99682,-107.1095,-63.54656,-10.65202,-111.0878,-35.1035,0.001067912,-0.1257102,0.09433498,0,0.3,0,0,0,0,,
6.38223E+17,33.19599,1.192288,-1.54092,-3.289821,20.48405,42.92788,-4.570632,-0.4675641,0.1400836,-35.15147,-8.447793,45.05199,0,0,0,71.03063,-107.177,-59.78721,-10.65202,-111.0878,-35.1035,0.001067912,-0.1257102,0.09433498,0,0.3,0,0,0,0,,
6.38223E+17,31.94731,1.846878,-0.2801672,-2.85035,21.50948,47.90855,-4.570632,-0.4675641,0.1400836,-35.15147,-8.521038,45.05199,0,0,0,70.17902,-105.7007,-55.80992,-10.65202,-111.0878,-35.1035,0.001067912,-0.1257102,0.09433498,0,0.3,0,0,0,0,,
6.38223E+17,31.26407,2.852141,0.5836816,-3.363066,21.65597,50.17915,-4.570632,-0.4675641,0.1400836,-35.15147,-8.447793,45.05199,0,0,0,69.82568,-103.3578,-53.34452,-10.65202,-111.0878,-35.1035,0.001067912,-0.1257102,0.09433498,0,0.3,0,0,0,0,,
6.38223E+17,30.53371,3.997673,1.400836,-3.949028,20.99677,52.74273,-4.570632,-0.4675641,0.1400836,-35.15147,-8.521038,45.05199,0,0,0,69.2392,-100.6635,-50.96314,-10.65202,-111.0878,-35.1035,0.001067912,-0.1257102,0.09433498,0,0.3,0,0,0,0,,
6.38223E+17,30.15675,4.41848,1.79774,-4.242009,20.63054,53.84141,-4.570632,-0.4675641,0.1400836,-35.15147,-8.521038,45.12524,0,0,0,68.89318,-99.661,-49.77387,-10.65202,-111.0878,-35.1035,0.001067912,-0.1257102,0.09433498,0,0.3,0,0,0.000344964,0,,
6.38223E+17,28.31907,5.4705,2.871714,-5.047705,19.60511,57.50367,-4.570632,-0.4675641,0.1400836,-35.15147,-8.521038,45.12524,0,0,0,66.13988,-97.11986,-45.61281,-10.65202,-111.0878,-35.1035,0.001067912,-0.1257102,0.09433498,0,0.3,0,0,0.003821089,0,,
6.38223E+17,27.49447,5.821173,3.151881,-5.633667,19.16564,58.38261,-4.570632,-0.4675641,0.1400836,-35.15147,-8.521038,45.05199,0,0,0,64.63021,-96.2734,-44.16728,-10.65202,-111.0878,-35.1035,0.001067912,-0.1257102,0.09433498,0,0.3,0,0,0.005537174,0,,
6.38223E+17,25.82172,6.522519,3.688868,-7.391551,18.1402,59.55453,-4.570632,-0.4675641,0.1400836,-35.15147,-8.447793,45.12524,0,0,0,61.44461,-94.576,-41.36856,-10.65202,-111.0878,-35.1035,0.001067912,-0.1257102,0.09433498,0,0.3,0,0,0.009820047,0,,
6.38223E+17,24.19608,7.106974,4.529369,-9.36917,16.96828,60.57997,-4.570632,-0.4675641,0.1400836,-35.22471,-8.447793,45.05199,0,0,0,58.5511,-93.08518,-38.04405,-10.65202,-111.0878,-35.1035,0.001067912,-0.1257102,0.09433498,0,0.3,0,0,0.01501514,0,,
6.38223E+17,21.93432,7.597916,5.509954,-11.71302,15.57662,62.26461,-4.570632,-0.4675641,0.1400836,-35.15147,-8.447793,45.05199,0,0,0,54.15759,-91.75228,-33.86163,-10.65202,-111.0878,-35.1035,0.001067912,-0.1257102,0.09433498,0,0.3,0,0,0.02122315,0,,
6.38223E+17,20.42649,7.691429,5.766775,-13.17792,14.84417,63.14355,-4.570632,-0.4675641,0.1400836,-35.15147,-8.447793,45.05199,0,0,0,50.79744,-91.47784,-31.95282,-10.65202,-111.0878,-35.1035,0.001067912,-0.1257102,0.09433498,0,0.3,0,0,0.02831248,0,,
6.38223E+17,18.49457,7.691429,5.906858,-15.59501,14.11172,63.876,-4.570632,-0.4675641,0.1400836,-35.15147,-8.447793,45.05199,0,0,0,46.27324,-91.44469,-30.01028,-10.65202,-111.0878,-35.1035,0.001067912,-0.1257102,0.09433498,0,0.3,0,0,0.03667737,0,,
6.38223E+17,16.68045,7.691429,6.23372,-18.30508,13.45251,64.31547,-4.570632,-0.4675641,0.1400836,-35.15147,-8.447793,45.12524,0,0,0,42.08776,-91.36424,-27.89011,-10.65202,-111.0878,-35.1035,0.001067912,-0.1257102,0.09433498,0,0.3,0,0,0.04594043,0,,
6.38223E+17,14.81922,7.574538,6.303762,-20.86866,12.79331,64.68169,-4.570632,-0.4675641,0.1400836,-35.15147,-8.521038,45.05199,0,0,0,37.55424,-91.61608,-26.40566,-10.65202,-111.0878,-35.1035,0.001067912,-0.1257102,0.09433498,0,0.3,0,0,0.05606275,0,,
6.38223E+17,14.08886,7.434268,6.350456,-21.7476,12.64682,64.82819,-4.570632,-0.4675641,0.1400836,-35.15147,-8.447793,45.12524,0,0,0,35.77853,-91.92777,-25.79237,-10.65202,-111.0878,-35.1035,0.001067912,-0.1257102,0.09433498,0,0.3,0,0,0.06138862,0,,
6.38223E+17,12.32186,7.060217,6.537234,-23.43224,12.64682,65.41415,-4.570632,-0.4675641,0.1400836,-35.15147,-8.447793,45.05199,0,0,0,31.48136,-92.7426,-24.22763,-10.65202,-111.0878,-35.1035,0.001067912,-0.1257102,0.09433498,0,0.3,0,0,0.07255745,0,,
6.38223E+17,10.03654,6.919948,6.74736,-25.26337,12.86655,66.07335,-4.570632,-0.4675641,0.1400836,-35.22471,-8.521038,45.05199,0,0,0,25.80092,-93.01006,-22.56946,-10.65202,-111.0878,-35.1035,0.001067912,-0.1257102,0.09433498,0,0.3,0,0,0.08465687,0,,
6.38223E+17,7.397828,6.966705,7.401083,-27.75371,12.86655,66.29308,-4.570632,-0.4675641,0.1400836,-35.22471,-8.447793,45.05199,0,0,0,19.25484,-92.71467,-20.05194,-10.65202,-111.0878,-35.1035,0.001067912,-0.1257102,0.09433498,0,0.3,0,0,0.09758575,0,,
6.38223E+17,4.711992,7.317377,8.28828,-31.04974,12.64682,66.43958,-4.570632,-0.4675641,0.1400836,-35.22471,-8.447793,45.05199,0,0,0,12.44421,-91.62302,-17.37511,-10.65202,-111.0878,-35.1035,0.001067912,-0.1257102,0.09433498,0,0.3,0,0,0.1109533,0,,
6.38223E+17,2.756516,8.088859,9.082087,-33.97955,12.28059,66.51283,-4.570632,-0.4675641,0.1400836,-35.15147,-8.447793,45.05199,0,0,0,7.361519,-89.56471,-15.4546,-10.65202,-111.0878,-35.1035,0.001067912,-0.1257102,0.09433498,0,0.3,0,0,0.1240303,0,,
6.38223E+17,1.272238,9.327903,9.945935,-36.68962,11.76787,66.87905,-4.570632,-0.4675641,0.1400836,-35.15147,-8.447793,45.05199,0,0,0,3.432987,-86.38195,-13.76936,-10.65202,-111.0878,-35.1035,0.001067912,-0.1257102,0.09433498,0,0.3,0,0,0.1361739,0,,
6.38223E+17,0.3298394,11.33843,10.76309,-38.96022,11.3284,67.83124,-4.570632,-0.4675641,0.1400836,-35.15147,-8.447793,45.05199,0,0,0,0.8960404,-81.43696,-12.70226,-10.65202,-111.0878,-35.1035,0.001067912,-0.1257102,0.09433498,0,0.3,0,0,0.1468525,0,,
6.38223E+17,0.04711992,13.34895,11.41681,-40.13214,10.88893,68.78342,-4.570632,-0.4675641,0.1400836,-35.15147,-8.447793,45.05199,0,0,0,0.1284117,-76.57342,-12.20694,-10.65202,-111.0878,-35.1035,0.001067912,-0.1257102,0.09433498,0,0.3,0,0,0.1559099,0,,
6.38223E+17,0.02355996,16.34136,12.30401,-40.86459,10.22972,70.17509,-4.570632,-0.4675641,0.1400836,-35.15147,-8.521038,45.12524,0,0,0,0.06430316,-69.41774,-11.97031,-10.65202,-111.0878,-35.1035,0.001067912,-0.1257102,0.09433498,0,0.3,0,0,0.1628962,0,,
6.38223E+17,0.02355996,18.00122,12.72426,-41.01108,9.717009,70.83429,-4.570632,-0.4675641,0.1400836,-35.15147,-8.521038,45.05199,0,0,0,0.06422683,-65.515,-12.15593,-10.65202,-111.0878,-35.1035,0.001067912,-0.1257102,0.09433498,0,0.3,0,0,0.1655661,0,,
6.38223E+17,0.2120396,21.67159,13.70484,-41.15757,8.618331,71.93297,-4.570632,-0.4675641,0.1400836,-35.15147,-8.521038,45.12524,0,0,0,0.5755366,-56.95911,-12.83349,-10.65202,-111.0878,-35.1035,0.001067912,-0.1257102,0.09433498,0,0.3,0,0,0.1692095,0,,
6.38223E+17,0.6832389,25.34197,14.84886,-40.93784,7.446409,73.10489,-4.570632,-0.4675641,0.1400836,-35.22471,-8.521038,45.05199,0,0,0,1.844614,-48.47033,-13.66974,-10.65202,-111.0878,-35.1035,0.001067912,-0.1257102,0.09433498,0,0.3,0,0,0.1706152,0,,
6.38223E+17,1.366478,29.33965,16.31974,-40.35188,5.90826,74.35006,-4.570632,-0.4675641,0.1400836,-35.15147,-8.521038,45.05199,0,0,0,3.665714,-39.28753,-14.67746,-10.65202,-111.0878,-35.1035,0.001067912,-0.1257102,0.09433498,0,0.3,0,0,0.1696542,0,,
6.38223E+17,2.238196,33.29056,17.79062,-39.61942,4.370111,75.44874,-4.570632,-0.4675641,0.1400836,-35.15147,-8.447793,45.05199,0,0,0,5.944428,-30.4293,-16.25548,-10.65202,-111.0878,-35.1035,0.001067912,-0.1257102,0.09433498,0,0.3,0,0,0.1665652,0,,
6.38223E+17,3.934513,38.22336,20.00861,-38.22777,1.879776,76.98688,-4.570632,-0.4675641,0.1400836,-35.15147,-8.447793,45.05199,0,0,0,10.38199,-19.21694,-18.30281,-10.65202,-111.0878,-35.1035,0.001067912,-0.1257102,0.09433498,0,0.3,0,0,0.1610574,0,,
6.38223E+17,5.277431,41.33266,21.40944,-37.12909,0.268382,78.23206,-4.570632,-0.4675641,0.1400836,-35.15147,-8.447793,45.05199,0,0,0,13.68709,-12.72995,-20.17313,-10.65202,-111.0878,-35.1035,0.001067912,-0.1257102,0.09433498,0,0.3,0,0,0.1539016,0,,
6.38223E+17,7.280028,45.23682,22.78693,-35.3712,-2.002218,79.47723,-4.570632,-0.4675641,0.1400836,-35.15147,-8.521038,45.05199,0,0,0,18.44384,-4.910608,-23.97402,-10.65202,-111.0878,-35.1035,0.001067912,-0.1257102,0.09433498,0,0.3,0,0,0.1449458,0,,
6.38223E+17,8.528707,46.99019,23.27722,-34.27253,-3.100896,79.91669,-4.570632,-0.4675641,0.1400836,-35.15147,-8.521038,45.05199,0,0,0,21.30526,-1.635342,-26.28014,-10.65202,-111.0878,-35.1035,0.001067912,-0.1257102,0.09433498,0,0.3,0,0,0.1398941,0,,
6.38223E+17,13.38206,51.47881,24.28116,-29.80457,-6.250438,80.50266,-4.570632,-0.4675641,0.1400836,-35.15147,-8.447793,45.12524,0,0,0,31.91288,6.126412,-34.20744,-10.65202,-111.0878,-35.1035,0.001067912,-0.1257102,0.09433498,0,0.3,0,0,0.1229038,0,,
6.38223E+17,15.45534,52.92825,24.63136,-27.60722,-7.27587,80.5759,-4.570632,-0.4675641,0.1400836,-35.15147,-8.447793,45.05199,0,0,0,36.23232,8.531239,-37.30388,-10.65202,-111.0878,-35.1035,0.001067912,-0.1257102,0.09433498,0,0.3,0,0,0.1166304,0,,
6.38223E+17,19.41341,55.17256,25.44852,-22.91953,-8.814018,80.5759,-4.570632,-0.4675641,0.1400836,-35.15147,-8.447793,45.05199,0,0,0,44.35888,12.4025,-42.48017,-10.65202,-111.0878,-35.1035,0.001067912,-0.1257102,0.09433498,0,0.3,0,0,0.1032769,0,,
6.38223E+17,23.4186,56.64539,26.0322,-17.86561,-10.13243,80.20967,-4.570632,-0.4675641,0.1400836,-35.15147,-8.447793,45.05199,0,0,0,52.40027,14.91376,-47.3679,-10.65202,-111.0878,-35.1035,0.001067912,-0.1257102,0.09433498,0,0.3,0,0,0.08900568,0,,
6.38223E+17,28.36619,57.15971,26.0789,-11.34679,-11.08462,78.3053,-4.570632,-0.4675641,0.1400836,-35.22471,-8.521038,45.05199,0,0,0,62.20901,15.61515,-53.1344,-10.65202,-111.0878,-35.1035,0.001067912,-0.1257102,0.09433498,0,0.3,0,0,0.07405215,0,,
6.38223E+17,30.65151,57.06619,26.0789,-8.270493,-11.15786,76.98688,-4.570632,-0.4675641,0.1400836,-35.15147,-8.521038,45.12524,0,0,0,66.84702,15.49697,-55.54944,-10.65202,-111.0878,-35.1035,0.001067912,-0.1257102,0.09433498,0,0.3,0,0,0.05893955,0,,
6.38223E+17,33.38446,56.59863,26.0789,-4.095518,-11.30435,74.56979,-4.570632,-0.4675641,0.1400836,-35.15147,-8.521038,45.05199,0,0,0,72.65066,14.90163,-58.10446,-10.65202,-111.0878,-35.1035,0.001067912,-0.1257102,0.09433498,0,0.3,0,0,0.04368069,0,,
6.38223E+17,35.57554,55.92066,26.0322,-0.6529952,-11.23111,72.07946,-4.570632,-0.4675641,0.1400836,-35.15147,-8.521038,45.05199,0,0,0,77.51903,13.97749,-59.97486,-10.65202,-111.0878,-35.1035,0.001067912,-0.1257102,0.09433498,0,0.3,0,0,0.02845317,0,,
6.38223E+17,37.6017,55.14918,25.84542,2.203566,-11.59733,69.44263,-4.570632,-0.4675641,0.1400836,-35.15147,-8.447793,45.12524,0,0,0,81.96699,12.77124,-61.92022,-10.65202,-111.0878,-35.1035,0.001067912,-0.1257102,0.09433498,0,0.3,0,0,0.01336039,0,,
6.38223E+17,38.92105,54.51797,25.5886,3.888205,-12.11005,67.90449,-4.570632,-0.4675641,0.1400836,-35.15147,-8.521038,45.05199,0,0,0,84.81198,11.66576,-63.32036,-10.65202,-111.0878,-35.1035,0.001067912,-0.1257102,0.09433498,0,0.3,0,0,0,0,,
6.38223E+17,39.53362,54.05041,25.23839,4.767147,-12.32979,66.95229,-4.570632,-0.4675641,0.1400836,-35.15147,-8.447793,45.05199,0,0,0,86.02379,10.68072,-64.11945,-10.65202,-111.0878,-35.1035,0.001067912,-0.1257102,0.09433498,0,0.3,0,0,0,0,,
6.38223E+17,40.61737,53.02177,24.07103,6.012315,-12.76926,64.97468,-4.570632,-0.4675641,0.1400836,-35.15147,-8.447793,45.05199,0,0,0,87.62577,8.12457,-66.17797,-10.65202,-111.0878,-35.1035,0.001067912,-0.1257102,0.09433498,0,0.3,0,0,0,0,,
6.38223E+17,41.46553,51.66583,22.60015,6.744767,-12.76926,63.14355,-4.570632,-0.4675641,0.1400836,-35.15147,-8.447793,45.05199,0,0,0,88.70158,4.840674,-67.96947,-10.65202,-111.0878,-35.1035,0.001067912,-0.1257102,0.09433498,0,0.3,0,0,0,0,,
6.38223E+17,41.84249,49.91246,21.17597,7.110993,-12.1833,61.97163,-4.570632,-0.4675641,0.1400836,-35.15147,-8.447793,45.05199,0,0,0,89.41755,1.025358,-68.49105,-10.65202,-111.0878,-35.1035,0.001067912,-0.1257102,0.09433498,0,0.3,0,0,0,0,,
6.38223E+17,42.03097,48.53315,20.14869,7.184238,-11.30435,61.53215,-4.570632,-0.4675641,0.1400836,-35.15147,-8.447793,45.05199,0,0,0,89.87533,-1.914878,-68.64177,-10.65202,-111.0878,-35.1035,0.001067912,-0.1257102,0.09433498,0,0.3,0,0,0,0,,
6.38223E+17,42.45505,47.52789,19.07472,7.257483,-10.27892,61.23917,-4.570632,-0.4675641,0.1400836,-35.22471,-8.521038,45.05199,0,0,0,90.19572,-4.318411,-69.76348,-10.65202,-111.0878,-35.1035,0.001067912,-0.1257102,0.09433498,0,0.3,0,0,0,0,,
6.38223E+17,43.35033,46.21871,18.21087,7.623709,-8.081567,61.09268,-4.570632,-0.4675641,0.1400836,-35.15147,-8.447793,45.05199,0,0,0,91.94392,-7.044014,-70.95303,-10.65202,-111.0878,-35.1035,0.001067912,-0.1257102,0.09433498,0,0.3,0,0,0,0,,
6.38223E+17,43.84509,45.30696,18.18752,8.06318,-6.909645,61.09268,-4.570632,-0.4675641,0.1400836,-35.15147,-8.447793,45.05199,0,0,0,93.7989,-8.541343,-70.69135,-10.65202,-111.0878,-35.1035,0.001067912,-0.1257102,0.09433498,0,0.3,0,0,0,0,,
6.38223E+17,44.22205,44.20818,18.09413,8.50265,-5.298251,61.09268,-4.570632,-0.4675641,0.1400836,-35.15147,-8.447793,45.05199,0,0,0,95.55112,-10.4249,-70.16824,-10.65202,-111.0878,-35.1035,0.001067912,-0.1257102,0.09433498,0,0.3,0,0,0,0,,
6.38223E+17,44.45765,43.78737,18.11748,8.575896,-4.346064,61.09268,-4.570632,-0.4675641,0.1400836,-35.15147,-8.447793,45.05199,0,0,0,96.46669,-11.11255,-70.03952,-10.65202,-111.0878,-35.1035,0.001067912,-0.1257102,0.09433498,0,0.3,0,0,0,0,,
6.38223E+17,45.94193,43.4367,19.30819,8.50265,-2.002218,61.16593,-4.570632,-0.4675641,0.1400836,-35.15147,-8.521038,45.05199,0,0,0,101.2716,-10.81439,-70.35458,-10.65202,-111.0878,-35.1035,0.001067912,-0.1257102,0.09433498,0,0.3,0,0,0,0,,
6.38223E+17,47.21416,43.4367,20.26543,8.942122,-1.050031,61.16593,-4.570632,-0.4675641,0.1400836,-35.15147,-8.447793,45.05199,0,0,0,104.9609,-10.06022,-71.20332,-10.65202,-111.0878,-35.1035,0.001067912,-0.1257102,0.09433498,0,0.3,0,0,0,0,,
6.38223E+17,47.92096,43.48346,20.9425,9.381593,-0.7570504,61.23917,-4.570632,-0.4675641,0.1400836,-35.15147,-8.447793,45.05199,0,0,0,107.1905,-9.426697,-71.56715,-10.65202,-111.0878,-35.1035,0.001067912,-0.1257102,0.09433498,0,0.3,0,0,0,0,,
6.38223E+17,49.26388,43.95102,22.71689,10.48027,-0.171089,61.16593,-4.570632,-0.4675641,0.1400836,-35.15147,-8.447793,45.05199,0,0,0,111.7641,-7.104618,-72.09504,-10.65202,-111.0878,-35.1035,0.001067912,-0.1257102,0.09433498,0,0.3,0,0,0,0,,
6.38223E+17,51.05444,45.4706,25.28509,12.82412,-0.61056,61.16593,-4.570632,-0.4675641,0.1400836,-35.22471,-8.521038,45.05199,0,0,0,117.0285,-2.160252,-73.76615,-10.65202,-111.0878,-35.1035,0.001067912,-0.1257102,0.09433498,0,0.3,0,0,0,0,,
6.38223E+17,51.80835,46.24208,26.28902,13.92279,-1.050031,61.16593,-4.570632,-0.4675641,0.1400836,-35.15147,-8.447793,45.05199,0,0,0,118.9037,0.1067113,-74.81006,-10.65202,-111.0878,-35.1035,0.001067912,-0.1257102,0.09433498,0,0.3,0,0,0,0,,
6.38223E+17,53.00991,47.57465,27.94668,15.60743,-2.075463,61.01944,-4.570632,-0.4675641,0.1400836,-35.22471,-8.447793,45.05199,0,0,0,121.7728,3.983942,-76.62062,-10.65202,-111.0878,-35.1035,0.001067912,-0.1257102,0.09433498,0,0.3,0,0,0,0,,
6.38223E+17,53.95231,48.95396,29.39421,16.99909,-3.247386,60.57997,-4.570632,-0.4675641,0.1400836,-35.22471,-8.447793,45.05199,0,0,0,123.7181,7.737208,-78.3061,-10.65202,-111.0878,-35.1035,0.001067912,-0.1257102,0.09433498,0,0.3,0,0,0,0,,
6.38223E+17,54.70623,51.03462,31.07521,18.09777,-4.85878,59.70102,-4.570632,-0.4675641,0.1400836,-35.15147,-8.447793,45.05199,0,0,0,124.6236,12.82009,-80.13188,-10.65202,-111.0878,-35.1035,0.001067912,-0.1257102,0.09433498,0,0.3,0,0,0,0,,
6.38223E+17,54.96539,52.76461,32.42935,18.75698,-6.250438,58.96857,-4.570632,-0.4675641,0.1400836,-35.15147,-8.521038,45.05199,0,0,0,124.6214,16.96293,-80.97691,-10.65202,-111.0878,-35.1035,0.001067912,-0.1257102,0.09433498,0,0.3,0,0,0,0,,
6.38223E+17,54.96539,53.91014,33.24651,19.04996,-7.27587,58.5291,-4.570632,-0.4675641,0.1400836,-35.15147,-8.447793,45.05199,0,0,0,124.1787,19.58613,-81.2873,-10.65202,-111.0878,-35.1035,0.001067912,-0.1257102,0.09433498,0,0.3,0,0,0,0,,
6.38223E+17,54.96539,56.57525,34.25044,19.41618,-9.180244,57.94314,-4.570632,-0.4675641,0.1400836,-35.15147,-8.447793,45.05199,0,0,0,121.5972,24.42008,-83.09724,-10.65202,-111.0878,-35.1035,0.001067912,-0.1257102,0.09433498,0,0.3,0,0,0,0,,
6.38223E+17,54.91827,59.21699,34.50726,19.63592,-10.93813,57.65016,-4.570632,-0.4675641,0.1400836,-35.15147,-8.521038,45.05199,0,0,0,117.669,28.02489,-85.70685,-10.65202,-111.0878,-35.1035,0.001067912,-0.1257102,0.09433498,0,0.3,0,0,0,0,,
6.38223E+17,54.51775,61.71846,34.90416,19.78241,-12.62277,57.50367,-4.570632,-0.4675641,0.1400836,-35.22471,-8.447793,45.12524,0,0,0,113.5823,31.4203,-87.38558,-10.65202,-111.0878,-35.1035,0.001067912,-0.1257102,0.09433498,0,0.3,0,0,0,0,,
6.38223E+17,53.83451,64.19655,34.95086,19.70916,-14.01443,57.43042,-4.570632,-0.4675641,0.1400836,-35.15147,-8.447793,45.12524,0,0,0,108.5339,34.10452,-89.01551,-10.65202,-111.0878,-35.1035,0.001067912,-0.1257102,0.09433498,0,0.3,0,0,0,0,,
6.38223E+17,53.15127,66.69801,34.9742,19.26969,-15.18635,57.43042,-4.570632,-0.4675641,0.1400836,-35.15147,-8.447793,45.05199,0,0,0,103.3786,36.55465,-90.87571,-10.65202,-111.0878,-35.1035,0.001067912,-0.1257102,0.09433498,0,0.3,0,0,0,0,,
6.38223E+17,51.92616,69.99434,34.9742,18.02452,-17.01748,57.43042,-4.570632,-0.4675641,0.1400836,-35.15147,-8.447793,45.05199,0,0,0,96.08608,39.38515,-93.07969,-10.65202,-111.0878,-35.1035,0.001067912,-0.1257102,0.09433498,0,0.3,0,0,0,0,,
6.38223E+17,50.77172,71.98148,34.92751,16.92585,-18.04291,57.43042,-4.570632,-0.4675641,0.1400836,-35.15147,-8.521038,45.05199,0,0,0,91.09409,40.82946,-93.98056,-10.65202,-111.0878,-35.1035,0.001067912,-0.1257102,0.09433498,0,0.3,0,0,0,0,,
6.38223E+17,48.76912,74.50633,34.88082,14.65524,-19.43457,57.43042,-4.570632,-0.4675641,0.1400836,-35.15147,-8.521038,45.05199,0,0,0,84.14124,42.46127,-94.60976,-10.65202,-111.0878,-35.1035,0.001067912,-0.1257102,0.09433498,0,0.3,0,0,0,0,,
6.38223E+17,47.35552,75.69862,34.83412,13.1171,-20.24026,57.43042,-4.570632,-0.4675641,0.1400836,-35.15147,-8.521038,45.05199,0,0,0,80.2584,43.11255,-94.43355,-10.65202,-111.0878,-35.1035,0.001067912,-0.1257102,0.09433498,0,0.3,0,0,0,0,,
6.38223E+17,42.83201,77.40523,33.38659,8.722386,-21.2657,58.45585,-4.570632,-0.4675641,0.1400836,-35.15147,-8.447793,45.05199,0,0,0,69.65623,42.14701,-93.21236,-10.65202,-111.0878,-35.1035,0.001067912,-0.1257102,0.09433498,0,0.3,0,0,0,0,,
6.38223E+17,39.36869,77.5455,31.70559,4.986883,-21.04596,60.14049,-4.570632,-0.4675641,0.1400836,-35.22471,-8.521038,45.05199,0,0,0,62.696,40.11312,-91.93756,-10.65202,-111.0878,-35.1035,0.001067912,-0.1257102,0.09433498,0,0.3,0,0,0,0,,
6.38223E+17,37.69594,77.49874,31.02851,2.862773,-20.82623,61.23917,-4.570632,-0.4675641,0.1400836,-35.15147,-8.521038,45.05199,0,0,0,59.68096,39.26937,-91.12054,-10.65202,-111.0878,-35.1035,0.001067912,-0.1257102,0.09433498,0,0.3,0,0,0,0,,
6.38223E+17,34.56246,77.21821,29.62768,-1.238957,-20.02053,63.94925,-4.570632,-0.4675641,0.1400836,-35.15147,-8.447793,45.05199,0,0,0,54.1352,37.48023,-89.76646,-10.65202,-111.0878,-35.1035,0.001067912,-0.1257102,0.09433498,0,0.3,0,0,0,0,,
6.38223E+17,30.91067,75.46484,26.75597,-6.146383,-18.40914,67.31852,-4.570632,-0.4675641,0.1400836,-35.22471,-8.447793,45.05199,0,0,0,48.03126,33.35948,-88.12952,-10.65202,-111.0878,-35.1035,0.001067912,-0.1257102,0.09433498,0,0.3,0,0,0,0,,
6.38223E+17,29.44995,74.0154,25.35513,-8.197248,-17.23721,68.92992,-4.570632,-0.4675641,0.1400836,-35.15147,-8.447793,45.05199,0,0,0,46.13076,31.0396,-86.64772,-10.65202,-111.0878,-35.1035,0.001067912,-0.1257102,0.09433498,0,0.3,0,0,0,0,,
6.38223E+17,27.58871,71.79446,23.13714,-10.83407,-15.18635,71.12727,-4.570632,-0.4675641,0.1400836,-35.15147,-8.521038,45.05199,0,0,0,43.56109,27.40049,-84.98532,-10.65202,-111.0878,-35.1035,0.001067912,-0.1257102,0.09433498,0,0.3,0,0,0,0,,
6.38223E+17,26.62276,69.59691,20.98919,-12.95818,-13.06224,72.51893,-4.570632,-0.4675641,0.1400836,-35.22471,-8.521038,45.05199,0,0,0,42.23642,23.83208,-84.08942,-10.65202,-111.0878,-35.1035,0.001067912,-0.1257102,0.09433498,0,0.3,0,0,0,0,,
6.38223E+17,26.45784,66.62788,18.11748,-14.42309,-10.05919,73.32462,-4.570632,-0.4675641,0.1400836,-35.15147,-8.521038,45.12524,0,0,0,42.0444,19.0197,-83.86633,-10.65202,-111.0878,-35.1035,0.001067912,-0.1257102,0.09433498,0,0.3,0,0,0,0,,
6.38223E+17,26.45784,63.56533,15.52593,-14.49633,-7.349115,73.54436,-4.570632,-0.4675641,0.1400836,-35.15147,-8.447793,45.05199,0,0,0,42.35239,14.27329,-83.24747,-10.65202,-111.0878,-35.1035,0.001067912,-0.1257102,0.09433498,0,0.3,0,0,0,0,,
6.38223E+17,26.45784,61.71846,14.1251,-14.34984,-5.737722,73.69085,-4.570632,-0.4675641,0.1400836,-35.22471,-8.521038,45.05199,0,0,0,42.64903,11.46382,-82.65141,-10.65202,-111.0878,-35.1035,0.001067912,-0.1257102,0.09433498,0,0.3,0,0,0,0,,
6.38223E+17,26.45784,57.72078,11.53355,-13.83713,-2.441689,73.7641,-4.570632,-0.4675641,0.1400836,-35.22471,-8.447793,45.12524,0,0,0,43.60813,5.434135,-80.7242,-10.65202,-111.0878,-35.1035,0.001067912,-0.1257102,0.09433498,0,0.3,0,0,0,0,,
6.38223E+17,26.45784,53.69973,9.408949,-13.25116,1.000834,73.98383,-4.570632,-0.4675641,0.1400836,-35.15147,-8.447793,45.05199,0,0,0,44.88607,-0.7358268,-78.15631,-10.65202,-111.0878,-35.1035,0.001067912,-0.1257102,0.09433498,0,0.3,0,0,0,0,,
6.38223E+17,26.45784,49.95922,7.891376,-12.73845,4.443357,74.13033,-4.570632,-0.4675641,0.1400836,-35.15147,-8.447793,45.05199,0,0,0,46.37918,-6.646201,-75.15607,-10.65202,-111.0878,-35.1035,0.001067912,-0.1257102,0.09433498,0,0.3,0,0,0,0,,
6.38223E+17,26.45784,46.19533,6.91079,-12.15249,7.666144,74.35006,-4.570632,-0.4675641,0.1400836,-35.15147,-8.447793,45.05199,0,0,0,48.2743,-12.79197,-71.34803,-10.65202,-111.0878,-35.1035,0.001067912,-0.1257102,0.09433498,0,0.3,0,0,0,0,,
6.38223E+17,26.38716,42.80549,6.443846,-11.2003,10.59595,74.86278,-4.570632,-0.4675641,0.1400836,-35.15147,-8.447793,45.05199,0,0,0,50.13219,-18.54467,-67.30249,-10.65202,-111.0878,-35.1035,0.001067912,-0.1257102,0.09433498,0,0.3,0,0,0,0,,
6.38223E+17,25.68036,39.76632,6.350456,-10.24811,12.79331,75.37549,-4.570632,-0.4675641,0.1400836,-35.15147,-8.521038,45.05199,0,0,0,50.81054,-23.88336,-62.6808,-10.65202,-111.0878,-35.1035,0.001067912,-0.1257102,0.09433498,0,0.3,0,0,0,0,,
6.38223E+17,24.4788,37.73242,6.607276,-10.02838,13.96523,75.74171,-4.570632,-0.4675641,0.1400836,-35.15147,-8.447793,45.05199,0,0,0,50.05725,-27.50749,-58.40161,-10.65202,-111.0878,-35.1035,0.001067912,-0.1257102,0.09433498,0,0.3,0,0,0,0,,
6.38223E+17,22.90028,35.83878,7.354388,-10.54109,15.13715,75.88821,-4.570632,-0.4675641,0.1400836,-35.15147,-8.447793,45.12524,0,0,0,48.70805,-30.82568,-53.04348,-10.65202,-111.0878,-35.1035,0.001067912,-0.1257102,0.09433498,0,0.3,0,0,0,0,,
6.38223E+17,22.05212,34.99717,7.704598,-11.12705,15.35689,75.88821,-4.570632,-0.4675641,0.1400836,-35.15147,-8.447793,45.12524,0,0,0,47.72545,-32.31515,-50.53405,-10.65202,-111.0878,-35.1035,0.001067912,-0.1257102,0.09433498,0,0.3,0,0,0,0,,
6.38223E+17,18.63593,32.77624,9.012045,-13.39765,15.35689,75.96145,-4.570632,-0.4675641,0.1400836,-35.15147,-8.521038,45.05199,0,0,0,42.50309,-36.16355,-42.31611,-10.65202,-111.0878,-35.1035,0.001067912,-0.1257102,0.09433498,0,0.3,0,0,0,0,,
6.38223E+17,17.64641,32.42557,9.47899,-14.2766,15.28364,75.96145,-4.570632,-0.4675641,0.1400836,-35.22471,-8.447793,45.05199,0,0,0,40.77868,-36.67651,-40.15968,-10.65202,-111.0878,-35.1035,0.001067912,-0.1257102,0.09433498,0,0.3,0,0,0,0,,
6.38223E+17,15.21973,32.12165,10.80978,-16.76693,14.84417,76.10795,-4.570632,-0.4675641,0.1400836,-35.15147,-8.447793,45.05199,0,0,0,36.21395,-36.72905,-35.24173,-10.65202,-111.0878,-35.1035,0.001067912,-0.1257102,0.09433498,0,0.3,0,0,0,0,,
6.38223E+17,12.6517,32.12165,12.46744,-19.25727,14.03847,76.76715,-4.570632,-0.4675641,0.1400836,-35.15147,-8.447793,45.05199,0,0,0,31.04117,-35.95077,-30.066,-10.65202,-111.0878,-35.1035,0.001067912,-0.1257102,0.09433498,0,0.3,0,0,0,0,,
6.38223E+17,9.753823,32.7061,14.82551,-22.69979,13.15953,78.01232,-4.570632,-0.4675641,0.1400836,-35.15147,-8.447793,45.12524,0,0,0,24.79035,-33.50771,-24.13634,-10.65202,-111.0878,-35.1035,0.001067912,-0.1257102,0.09433498,0,0.3,0,0,0,0,,
6.38223E+17,8.481586,33.87502,16.36643,-24.45767,12.72006,78.81802,-4.570632,-0.4675641,0.1400836,-35.15147,-8.447793,45.05199,0,0,0,21.8715,-30.26951,-21.68196,-10.65202,-111.0878,-35.1035,0.001067912,-0.1257102,0.09433498,0,0.3,0,0,0,0,,
6.38223E+17,6.714589,36.07257,18.3276,-26.36205,11.69463,79.98994,-4.570632,-0.4675641,0.1400836,-35.22471,-8.447793,45.05199,0,0,0,17.50521,-24.71796,-19.66197,-10.65202,-111.0878,-35.1035,0.001067912,-0.1257102,0.09433498,0,0.3,0,0,0,0,,
6.38223E+17,5.84287,37.4285,19.35488,-27.31424,11.03542,80.5759,-4.570632,-0.4675641,0.1400836,-35.22471,-8.447793,45.05199,0,0,0,15.27921,-21.41732,-19.04023,-10.65202,-111.0878,-35.1035,0.001067912,-0.1257102,0.09433498,0,0.3,0,0,0,0,,
6.38223E+17,3.463314,42.05739,22.31999,-30.46378,8.764822,81.82106,-4.570632,-0.4675641,0.1400836,-35.22471,-8.447793,45.12524,0,0,0,9.040421,-10.68128,-18.97086,-10.65202,-111.0878,-35.1035,0.001067912,-0.1257102,0.09433498,0,0.3,0,0,0,0,,
6.38223E+17,1.649197,44.67575,24.18777,-32.58789,7.153428,82.33378,-4.570632,-0.4675641,0.1400836,-35.22471,-8.521038,45.05199,0,0,0,4.301511,-4.535334,-18.94984,-10.65202,-111.0878,-35.1035,0.001067912,-0.1257102,0.09433498,0,0.3,0,0,0,0,,
6.38223E+17,0.7303588,46.21871,25.56526,-33.97955,6.274486,82.55352,-4.570632,-0.4675641,0.1400836,-35.15147,-8.447793,45.05199,0,0,0,1.909621,-0.667428,-18.55061,-10.65202,-111.0878,-35.1035,0.001067912,-0.1257102,0.09433498,0,0.3,0,0,0,0,,
6.38223E+17,-0.5183191,49.84233,28.6471,-37.49532,4.443357,82.7,-4.570632,-0.4675641,0.1400836,-35.15147,-8.447793,45.05199,0,0,0,-1.356271,8.23924,-18.42985,-10.65202,-111.0878,-35.1035,0.001067912,-0.1257102,0.09433498,0,0.3,0,0,0,0,,
6.38223E+17,-1.177998,53.91014,32.10249,-40.86459,1.953021,82.8465,-4.570632,-0.4675641,0.1400836,-35.15147,-8.521038,45.12524,0,0,0,-3.071793,18.14872,-18.9644,-10.65202,-111.0878,-35.1035,0.001067912,-0.1257102,0.09433498,0,0.3,0,0,0,0,,
6.38223E+17,-1.272238,57.95457,36.305,-43.13519,-0.9035407,84.67763,-4.570632,-0.4675641,0.1400836,-35.15147,-8.521038,45.05199,0,0,0,-3.32397,28.91749,-18.67819,-10.65202,-111.0878,-35.1035,0.001067912,-0.1257102,0.09433498,0,0.3,0,0,0,0,,
6.38223E+17,-1.272238,61.48467,40.01722,-44.30712,-4.346064,88.77935,-4.570632,-0.4675641,0.1400836,-35.15147,-8.521038,45.05199,0,0,0,-3.317268,38.39697,-18.97995,-10.65202,-111.0878,-35.1035,0.001067912,-0.1257102,0.09433498,0,0.3,0,0,0,0,,
6.38223E+17,-1.225118,64.52384,43.14575,-44.52685,-7.422361,93.10082,-4.570632,-0.4675641,0.1400836,-35.15147,-8.447793,45.05199,0,0,0,-3.176123,46.43927,-19.83312,-10.65202,-111.0878,-35.1035,0.001067912,-0.1257102,0.09433498,0,0.3,0,0,0,0,,
6.38223E+17,-0.5654391,68.10071,47.04474,-44.96632,-11.01137,97.56878,-4.570632,-0.4675641,0.1400836,-35.15147,-8.447793,45.05199,0,0,0,-1.453976,56.20928,-21.02378,-10.65202,-111.0878,-35.1035,0.001067912,-0.1257102,0.09433498,0,0.3,0,0,0,0,,
6.38223E+17,0.3769594,69.97096,49.28608,-45.55228,-13.13548,99.54639,-4.570632,-0.4675641,0.1400836,-35.15147,-8.447793,45.05199,0,0,0,0.9654747,61.653,-21.60521,-10.65202,-111.0878,-35.1035,0.001067912,-0.1257102,0.09433498,0,0.3,0,0,0,0,,
6.38223E+17,1.602077,71.81784,52.08775,-46.065,-15.62582,100.8648,-4.570632,-0.4675641,0.1400836,-35.15147,-8.447793,45.05199,0,0,0,4.1047,68.10431,-21.59013,-10.65202,-111.0878,-35.1035,0.001067912,-0.1257102,0.09433498,0,0.3,0,0,0,0,,
6.38223E+17,2.520916,72.91661,53.7921,-46.35798,-17.23721,101.817,-4.570632,-0.4675641,0.1400836,-35.15147,-8.447793,45.05199,0,0,0,6.455571,72.04426,-21.72143,-10.65202,-111.0878,-35.1035,0.001067912,-0.1257102,0.09433498,0,0.3,0,0,0,0,,
6.38223E+17,5.371671,75.60511,57.85452,-46.57772,-21.11921,103.3551,-4.570632,-0.4675641,0.1400836,-35.15147,-8.521038,45.05199,0,0,0,13.67344,81.56188,-22.93273,-10.65202,-111.0878,-35.1035,0.001067912,-0.1257102,0.09433498,0,0.3,0,0,0,0,,
6.38223E+17,6.408309,76.28308,59.04524,-46.35798,-22.43762,103.6481,-4.570632,-0.4675641,0.1400836,-35.22471,-8.521038,45.05199,0,0,0,16.29306,84.30668,-23.28403,-10.65202,-111.0878,-35.1035,0.001067912,-0.1257102,0.09433498,0,0.3,0,0,0,0,,
6.38223E+17,8.717185,77.17145,60.81963,-46.13824,-25.07445,104.1608,-4.570632,-0.4675641,0.1400836,-35.15147,-8.447793,45.05199,0,0,0,22.13263,88.35522,-24.0022,-10.65202,-111.0878,-35.1035,0.001067912,-0.1257102,0.09433498,0,0.3,0,0,0,0,,
6.38223E+17,11.33234,77.77929,61.75352,-45.33255,-27.2718,104.3806,-4.570632,-0.4675641,0.1400836,-35.15147,-8.521038,45.12524,0,0,0,28.62959,90.56824,-25.4926,-10.65202,-111.0878,-35.1035,0.001067912,-0.1257102,0.09433498,0,0.3,0,0,0,0,,
6.38223E+17,15.76161,78.2001,62.3839,-42.10976,-30.20161,103.3551,-4.570632,-0.4675641,0.1400836,-35.22471,-8.447793,45.12524,0,0,0,39.5032,92.06827,-28.39081,-10.65202,-111.0878,-35.1035,0.001067912,-0.1257102,0.09433498,0,0.3,0,0,0,0,,
6.38223E+17,17.66997,78.17671,62.3839,-39.98565,-31.1538,101.7438,-4.570632,-0.4675641,0.1400836,-35.15147,-8.447793,45.05199,0,0,0,44.15823,92.05713,-29.73319,-10.65202,-111.0878,-35.1035,0.001067912,-0.1257102,0.09433498,0,0.3,0,0,0,0,,
6.38223E+17,20.45005,77.96631,62.22046,-36.9826,-32.6187,98.66745,-4.570632,-0.4675641,0.1400836,-35.15147,-8.447793,45.05199,0,0,0,50.93514,91.61913,-31.75485,-10.65202,-111.0878,-35.1035,0.001067912,-0.1257102,0.09433498,0,0.3,0,0,0,0,,
6.38223E+17,23.04164,77.24158,61.37996,-33.61332,-33.79062,95.29817,-4.570632,-0.4675641,0.1400836,-35.15147,-8.447793,45.05199,0,0,0,57.34238,89.53307,-33.53233,-10.65202,-111.0878,-35.1035,0.001067912,-0.1257102,0.09433498,0,0.3,0,0,0,0,,
6.38223E+17,26.08088,75.76876,59.62892,-29.58484,-34.52307,91.63592,-4.570632,-0.4675641,0.1400836,-35.15147,-8.521038,45.12524,0,0,0,64.99298,85.18613,-35.57067,-10.65202,-111.0878,-35.1035,0.001067912,-0.1257102,0.09433498,0,0.3,0,0,0,0,,
6.38223E+17,28.41331,74.38944,58.53159,-26.50854,-34.52307,88.92585,-4.570632,-0.4675641,0.1400836,-35.15147,-8.447793,45.05199,0,0,0,71.19447,82.16864,-36.75168,-10.65202,-111.0878,-35.1035,0.001067912,-0.1257102,0.09433498,0,0.3,0,0,0,0,,
6.38223E+17,29.80335,73.47769,58.15804,-24.45767,-34.37658,87.09471,-4.570632,-0.4675641,0.1400836,-35.15147,-8.447793,45.05199,0,0,0,75.15258,80.84132,-37.14399,-10.65202,-111.0878,-35.1035,0.001067912,-0.1257102,0.09433498,0,0.3,0,0,0,0,,
6.38223E+17,32.3007,71.70095,58.01796,-20.42919,-34.15685,83.43246,-4.570632,-0.4675641,0.1400836,-35.15147,-8.447793,45.05199,0,0,0,82.81455,79.32729,-37.3539,-10.65202,-111.0878,-35.1035,0.001067912,-0.1257102,0.09433498,0,0.3,0,0,0,0,,
6.38223E+17,34.25618,69.90083,57.83118,-17.27965,-34.01036,80.06318,-4.570632,-0.4675641,0.1400836,-35.22471,-8.521038,45.05199,0,0,0,89.33339,77.58124,-37.17677,-10.65202,-111.0878,-35.1035,0.001067912,-0.1257102,0.09433498,0,0.3,0,0,0,0,,
6.38223E+17,35.81114,67.84354,57.2475,-14.9358,-33.86386,76.62066,-4.570632,-0.4675641,0.1400836,-35.22471,-8.521038,45.05199,0,0,0,95.0465,74.70925,-36.61877,-10.65202,-111.0878,-35.1035,0.001067912,-0.1257102,0.09433498,0,0.3,0,0,0,0,,
6.38223E+17,36.8949,65.55248,56.29026,-13.25116,-33.57088,73.7641,-4.570632,-0.4675641,0.1400836,-35.15147,-8.447793,45.05199,0,0,0,99.72798,70.73657,-35.50016,-10.65202,-111.0878,-35.1035,0.001067912,-0.1257102,0.09433498,0,0.3,0,0,0,0,,
6.38223E+17,37.43678,62.91074,54.44583,-11.85951,-32.76519,71.78648,-4.570632,-0.4675641,0.1400836,-35.15147,-8.447793,45.05199,0,0,0,102.8626,64.53191,-33.99017,-10.65202,-111.0878,-35.1035,0.001067912,-0.1257102,0.09433498,0,0.3,0,0,0,0,,
6.38223E+17,37.6017,59.33388,51.97101,-10.76083,-30.86081,70.24833,-4.570632,-0.4675641,0.1400836,-35.15147,-8.447793,45.05199,0,0,0,105.5914,55.89993,-31.24521,-10.65202,-111.0878,-35.1035,0.001067912,-0.1257102,0.09433498,0,0.3,0,0,0,0,,
6.38223E+17,37.69594,56.55187,50.05654,-10.24811,-29.10293,69.66236,-4.570632,-0.4675641,0.1400836,-35.15147,-8.447793,45.05199,0,0,0,107.4579,49.00038,-29.29541,-10.65202,-111.0878,-35.1035,0.001067912,-0.1257102,0.09433498,0,0.3,0,0,0,0,,
6.38223E+17,38.1907,53.39582,48.23545,-9.588906,-26.61259,69.36938,-4.570632,-0.4675641,0.1400836,-35.15147,-8.447793,45.05199,0,0,0,110.659,41.57932,-27.68046,-10.65202,-111.0878,-35.1035,0.001067912,-0.1257102,0.09433498,0,0.3,0,0,0,0,,
6.38223E+17,38.68546,51.61907,47.3716,-8.856454,-25.22094,69.22289,-4.570632,-0.4675641,0.1400836,-35.15147,-8.521038,45.12524,0,0,0,113.0762,37.57304,-27.13436,-10.65202,-111.0878,-35.1035,0.001067912,-0.1257102,0.09433498,0,0.3,0,0,0,0,,
6.38223E+17,39.55717,48.50977,45.83068,-7.538041,-23.24332,69.14965,-4.570632,-0.4675641,0.1400836,-35.15147,-8.521038,45.05199,0,0,0,117.1757,30.32256,-26.49322,-10.65202,-111.0878,-35.1035,0.001067912,-0.1257102,0.09433498,0,0.3,0,0,0,0,,
6.38223E+17,40.42889,45.28358,43.9629,-6.512609,-21.55868,68.71018,-4.570632,-0.4675641,0.1400836,-35.15147,-8.447793,45.05199,0,0,0,120.8781,22.1243,-26.46369,-10.65202,-111.0878,-35.1035,0.001067912,-0.1257102,0.09433498,0,0.3,0,0,0,0,,
6.38223E+17,41.27705,41.54307,41.67487,-5.633667,-19.50781,67.83124,-4.570632,-0.4675641,0.1400836,-35.15147,-8.447793,45.05199,0,0,0,124.3348,12.18233,-26.70824,-10.65202,-111.0878,-35.1035,0.001067912,-0.1257102,0.09433498,0,0.3,0,0,0,0,,
6.38223E+17,42.00741,37.70904,39.24675,-4.754725,-17.23721,67.02554,-4.570632,-0.4675641,0.1400836,-35.15147,-8.447793,45.05199,0,0,0,127.0609,1.64374,-27.27133,-10.65202,-111.0878,-35.1035,0.001067912,-0.1257102,0.09433498,0,0.3,0,0,0,0,,
6.38223E+17,42.90269,33.40745,36.72525,-3.436311,-14.23416,66.21985,-4.570632,-0.4675641,0.1400836,-35.15147,-8.521038,45.05199,0,0,0,130.0636,-10.11057,-28.39804,-10.65202,-111.0878,-35.1035,0.001067912,-0.1257102,0.09433498,0,0.3,0,0,0,0,,
6.38223E+17,43.65661,30.57869,35.4178,-2.191144,-11.96356,66.00011,-4.570632,-0.4675641,0.1400836,-35.15147,-8.447793,45.05199,0,0,0,132.6037,-17.48531,-29.37759,-10.65202,-111.0878,-35.1035,0.001067912,-0.1257102,0.09433498,0,0.3,0,0,0,0,,
6.38223E+17,44.05713,29.19938,34.85747,-1.385447,-10.64515,65.92686,-4.570632,-0.4675641,0.1400836,-35.15147,-8.447793,45.05199,0,0,0,133.9427,-21.01904,-29.92474,-10.65202,-111.0878,-35.1035,0.001067912,-0.1257102,0.09433498,0,0.3,0,0,0,0,,
6.38223E+17,45.02308,26.72129,33.97027,-0.0670338,-8.154812,65.56064,-4.570632,-0.4675641,0.1400836,-35.15147,-8.521038,45.05199,0,0,0,136.965,-27.27989,-31.49529,-10.65202,-111.0878,-35.1035,0.001067912,-0.1257102,0.09433498,0,0.3,0,0,0,0,,
6.38223E+17,47.00212,23.96266,33.2932,1.104889,-5.810967,63.36329,-4.570632,-0.4675641,0.1400836,-35.15147,-8.447793,45.05199,0,0,0,142.6595,-33.95467,-35.3277,-10.65202,-111.0878,-35.1035,0.001067912,-0.1257102,0.09433498,0,0.3,0,0,0,0,,
6.38223E+17,47.7796,23.07429,33.26986,1.471115,-5.298251,62.33785,-4.570632,-0.4675641,0.1400836,-35.15147,-8.447793,45.05199,0,0,0,145.0288,-35.88031,-36.75182,-10.65202,-111.0878,-35.1035,0.001067912,-0.1257102,0.09433498,0,0.3,0,0,0,0,,
6.38223E+17,49.4288,21.39106,33.76015,2.789528,-4.492554,59.92076,-4.570632,-0.4675641,0.1400836,-35.15147,-8.447793,45.05199,0,0,0,150.6046,-38.87642,-39.39745,-10.65202,-111.0878,-35.1035,0.001067912,-0.1257102,0.09433498,0,0.3,0,0,0,0,,
6.38223E+17,50.8424,20.31566,34.71738,4.400921,-4.053083,57.65016,-4.570632,-0.4675641,0.1400836,-35.15147,-8.447793,45.05199,0,0,0,155.859,-39.96182,-41.42644,-10.65202,-111.0878,-35.1035,0.001067912,-0.1257102,0.09433498,0,0.3,0,0,0,0,,
6.38223E+17,52.39735,19.80134,36.56182,6.525032,-4.419309,54.28088,-4.570632,-0.4675641,0.1400836,-35.15147,-8.447793,45.05199,0,0,0,162.3349,-38.58504,-43.32338,-10.65202,-111.0878,-35.1035,0.001067912,-0.1257102,0.09433498,0,0.3,0,0,0,0,,
6.38223E+17,53.22195,19.80134,37.75253,7.623709,-4.932025,52.96247,-4.570632,-0.4675641,0.1400836,-35.15147,-8.521038,45.05199,0,0,0,165.8864,-36.91122,-44.35023,-10.65202,-111.0878,-35.1035,0.001067912,-0.1257102,0.09433498,0,0.3,0,0,0,0,,
6.38223E+17,54.18791,19.89485,39.73705,9.235103,-5.664476,51.27783,-4.570632,-0.4675641,0.1400836,-35.15147,-8.521038,45.05199,0,0,0,170.8145,-33.81599,-45.09993,-10.65202,-111.0878,-35.1035,0.001067912,-0.1257102,0.09433498,0,0.3,0,0,0,0,,
6.38223E+17,54.54131,20.08188,40.83437,10.0408,-6.030703,50.47213,-4.570632,-0.4675641,0.1400836,-35.15147,-8.447793,45.05199,0,0,0,173.0371,-31.7556,-45.112,-10.65202,-111.0878,-35.1035,0.001067912,-0.1257102,0.09433498,0,0.3,0,0,0,0,,
6.38223E+17,55.20099,21.78849,44.35981,12.53114,-8.154812,48.12829,-4.570632,-0.4675641,0.1400836,-35.15147,-8.447793,45.05199,0,0,0,178.2381,-22.49335,-44.47583,-10.65202,-111.0878,-35.1035,0.001067912,-0.1257102,0.09433498,0,0.3,0,0,0,0,,
6.38223E+17,55.22455,23.28469,46.50775,13.48332,-9.546471,47.02961,-4.570632,-0.4675641,0.1400836,-35.15147,-8.447793,45.12524,0,0,0,180.0741,-15.71573,-43.3096,-10.65202,-111.0878,-35.1035,0.001067912,-0.1257102,0.09433498,0,0.3,0,0,0,0,,
6.38223E+17,55.22455,24.2432,47.53503,13.92279,-10.35217,46.59014,-4.570632,-0.4675641,0.1400836,-35.22471,-8.447793,45.05199,0,0,0,180.6745,-11.9249,-42.89269,-10.65202,-111.0878,-35.1035,0.001067912,-0.1257102,0.09433498,0,0.3,0,0,0,0,,
6.38223E+17,55.22455,26.23034,49.77637,14.72849,-12.40303,45.78444,-4.570632,-0.4675641,0.1400836,-35.22471,-8.447793,45.12524,0,0,0,181.8852,-3.825617,-42.05201,-10.65202,-111.0878,-35.1035,0.001067912,-0.1257102,0.09433498,0,0.3,0,0,0,0,,
6.38223E+17,55.15387,27.8902,52.08775,15.46094,-14.60039,44.46603,-4.570632,-0.4675641,0.1400836,-35.15147,-8.447793,45.05199,0,0,0,183.0693,3.790847,-40.89482,-10.65202,-111.0878,-35.1035,0.001067912,-0.1257102,0.09433498,0,0.3,0,0,0,0,,
6.38223E+17,54.72979,29.43316,53.81545,16.0469,-16.94423,43.07437,-4.570632,-0.4675641,0.1400836,-35.15147,-8.447793,45.05199,0,0,0,182.6926,10.15099,-39.13901,-10.65202,-111.0878,-35.1035,0.001067912,-0.1257102,0.09433498,0,0.3,0,0,0,0,,
6.38223E+17,54.21147,30.83585,55.12289,16.19339,-19.14159,41.8292,-4.570632,-0.4675641,0.1400836,-35.15147,-8.521038,45.05199,0,0,0,181.6212,15.45063,-37.41592,-10.65202,-111.0878,-35.1035,0.001067912,-0.1257102,0.09433498,0,0.3,0,0,0,0,,
6.38223E+17,53.55179,32.14503,56.31361,16.33988,-20.82623,41.02351,-4.570632,-0.4675641,0.1400836,-35.15147,-8.447793,45.05199,0,0,0,180.077,20.3386,-35.35175,-10.65202,-111.0878,-35.1035,0.001067912,-0.1257102,0.09433498,0,0.3,0,0,0,0,,
6.38223E+17,52.23243,33.94515,57.17745,16.63286,-21.77841,40.58403,-4.570632,-0.4675641,0.1400836,-35.15147,-8.521038,45.05199,0,0,0,176.0326,25.53162,-31.96465,-10.65202,-111.0878,-35.1035,0.001067912,-0.1257102,0.09433498,0,0.3,0,0,0,0,,
6.38223E+17,50.93663,35.90892,57.62106,16.48637,-22.36438,40.80377,-4.570632,-0.4675641,0.1400836,-35.15147,-8.521038,45.12524,0,0,0,171.3036,30.14844,-29.31713,-10.65202,-111.0878,-35.1035,0.001067912,-0.1257102,0.09433498,0,0.3,0,0,0,0,,
6.38223E+17,48.9576,38.69093,58.06465,15.31445,-23.5363,41.8292,-4.570632,-0.4675641,0.1400836,-35.22471,-8.447793,45.05199,0,0,0,163.8555,36.17254,-25.69957,-10.65202,-111.0878,-35.1035,0.001067912,-0.1257102,0.09433498,0,0.3,0,0,0,0,,
6.38223E+17,48.0152,40.04686,58.53159,14.36226,-24.342,42.70815,-4.570632,-0.4675641,0.1400836,-35.15147,-8.447793,45.12524,0,0,0,160.4237,39.53677,-23.98088,-10.65202,-111.0878,-35.1035,0.001067912,-0.1257102,0.09433498,0,0.3,0,0,0,0,,
6.38223E+17,45.30581,43.78737,61.23988,11.57895,-27.34505,45.85769,-4.570632,-0.4675641,0.1400836,-35.15147,-8.447793,45.05199,0,0,0,151.5343,51.46558,-18.42464,-10.65202,-111.0878,-35.1035,0.001067912,-0.1257102,0.09433498,0,0.3,0,0,0,0,,
6.38223E+17,44.36341,45.14331,62.19712,10.77325,-28.59021,46.95637,-4.570632,-0.4675641,0.1400836,-35.15147,-8.447793,45.05199,0,0,0,148.2404,55.67965,-16.7783,-10.65202,-111.0878,-35.1035,0.001067912,-0.1257102,0.09433498,0,0.3,0,0,0,0,,
6.38223E+17,42.40793,47.71491,63.90147,8.942122,-30.93406,49.00723,-4.570632,-0.4675641,0.1400836,-35.15147,-8.447793,45.05199,0,0,0,141.2702,63.34034,-13.68234,-10.65202,-111.0878,-35.1035,0.001067912,-0.1257102,0.09433498,0,0.3,0,0,0,0,,
6.38223E+17,39.9577,50.05273,65.30231,6.525032,-33.20466,51.7173,-4.570632,-0.4675641,0.1400836,-35.15147,-8.521038,45.05199,0,0,0,132.7944,69.86317,-9.854229,-10.65202,-111.0878,-35.1035,0.001067912,-0.1257102,0.09433498,0,0.3,0,0,0,0,,
6.38223E+17,36.32946,52.50745,67.47359,2.057076,-35.76824,56.84446,-4.570632,-0.4675641,0.1400836,-35.15147,-8.447793,45.05199,0,0,0,121.0569,78.06661,-3.728516,-10.65202,-111.0878,-35.1035,0.001067912,-0.1257102,0.09433498,0,0.3,0,0,0,0,,
6.38223E+17,34.44466,53.48933,68.59427,-0.2867693,-36.86692,59.92076,-4.570632,-0.4675641,0.1400836,-35.15147,-8.447793,45.05199,0,0,0,115.0965,81.86079,-0.5364931,-10.65202,-111.0878,-35.1035,0.001067912,-0.1257102,0.09433498,0,0.3,0,0,0,0,,
6.38223E+17,31.28763,54.77513,70.29861,-4.242009,-38.40507,65.56064,-4.570632,-0.4675641,0.1400836,-35.15147,-8.447793,45.05199,0,0,0,105.1437,87.32822,4.665205,-10.65202,-111.0878,-35.1035,0.001067912,-0.1257102,0.09433498,0,0.3,0,0,0,0,,
6.38223E+17,27.75363,55.73364,71.74615,-8.490229,-39.79673,72.22594,-4.570632,-0.4675641,0.1400836,-35.15147,-8.447793,45.05199,0,0,0,93.93559,91.78539,10.16471,-10.65202,-111.0878,-35.1035,0.001067912,-0.1257102,0.09433498,0,0.3,0,0,0,0,,
6.38223E+17,23.23012,56.41161,72.30648,-13.69064,-40.67567,81.3816,-4.570632,-0.4675641,0.1400836,-35.15147,-8.447793,45.05199,0,0,0,79.20618,93.90656,16.18387,-10.65202,-111.0878,-35.1035,0.001067912,-0.1257102,0.09433498,0,0.3,0,0,0,0,,
6.38223E+17,19.48409,56.78566,72.28313,-17.42614,-40.67567,88.92585,-4.570632,-0.4675641,0.1400836,-35.15147,-8.447793,45.05199,0,0,0,66.73268,94.33404,20.26373,-10.65202,-111.0878,-35.1035,0.001067912,-0.1257102,0.09433498,0,0.3,0,0,0,0,,
6.38223E+17,17.01029,56.80903,72.07301,-19.76999,-40.45593,93.83327,-4.570632,-0.4675641,0.1400836,-35.15147,-8.447793,45.05199,0,0,0,58.47235,93.89825,22.78163,-10.65202,-111.0878,-35.1035,0.001067912,-0.1257102,0.09433498,0,0.3,0,0,0,0,,
6.38223E+17,11.16742,56.36485,71.27921,-25.6296,-39.06427,105.113,-4.570632,-0.4675641,0.1400836,-35.15147,-8.447793,45.05199,0,0,0,38.76588,91.57516,28.01796,-10.65202,-111.0878,-35.1035,0.001067912,-0.1257102,0.09433498,0,0.3,0,0,0,0,,
6.38223E+17,6.408309,55.33621,69.9484,-31.19623,-37.1599,115.5871,-4.570632,-0.4675641,0.1400836,-35.15147,-8.447793,45.05199,0,0,0,22.44662,87.30965,31.50443,-10.65202,-111.0878,-35.1035,0.001067912,-0.1257102,0.09433498,0,0.3,0,0,0,0,,
6.38223E+17,2.732955,54.44784,67.9172,-34.93173,-35.10904,124.8892,-4.570632,-0.4675641,0.1400836,-35.15147,-8.521038,45.05199,0,0,0,9.588799,81.70934,32.52446,-10.65202,-111.0878,-35.1035,0.001067912,-0.1257102,0.09433498,0,0.3,0,0,0,0,,
6.38223E+17,-0.6596789,53.95689,65.76924,-36.9826,-33.20466,132.8729,-4.570632,-0.4675641,0.1400836,-35.15147,-8.447793,45.12524,0,0,0,-2.303402,76.4449,31.70091,-10.65202,-111.0878,-35.1035,0.001067912,-0.1257102,0.09433498,0,0.3,0,0,0,0,,
6.38223E+17,-3.628234,53.60622,63.36448,-38.15452,-30.93406,135.3633,-4.570632,-0.4675641,0.1400836,-35.22471,-8.447793,45.12524,0,0,0,-12.5501,70.90859,29.57169,-10.65202,-111.0878,-35.1035,0.001067912,-0.1257102,0.09433498,0,0.3,0,0,0,0,,
6.38223E+17,-6.832388,53.32568,60.09586,-38.88697,-27.19856,135.583,-4.570632,-0.4675641,0.1400836,-35.22471,-8.521038,45.05199,0,0,0,-23.22693,63.8208,25.50474,-10.65202,-111.0878,-35.1035,0.001067912,-0.1257102,0.09433498,0,0.3,0,0,0,0,,
6.38223E+17,-8.764306,53.32568,57.62106,-38.81373,-24.70822,135.8027,-4.570632,-0.4675641,0.1400836,-35.15147,-8.447793,45.05199,0,0,0,-29.2951,58.89136,21.6678,-10.65202,-111.0878,-35.1035,0.001067912,-0.1257102,0.09433498,0,0.3,0,0,0,0,,
6.38223E+17,-9.824504,53.32568,56.29026,-38.4475,-23.46305,135.9492,-4.570632,-0.4675641,0.1400836,-35.22471,-8.521038,45.05199,0,0,0,-32.5178,56.29512,19.42912,-10.65202,-111.0878,-35.1035,0.001067912,-0.1257102,0.09433498,0,0.3,0,0,0,0,,
6.38223E+17,-11.92134,53.32568,54.77269,-37.42207,-21.11921,136.169,-4.570632,-0.4675641,0.1400836,-35.15147,-8.447793,45.05199,0,0,0,-38.95368,53.3833,16.15783,-10.65202,-111.0878,-35.1035,0.001067912,-0.1257102,0.09433498,0,0.3,0,0,0,0,,
6.38223E+17,-16.13857,52.67109,53.3485,-37.20233,-18.04291,136.8282,-4.570632,-0.4675641,0.1400836,-35.15147,-8.447793,45.05199,0,0,0,-52.21402,49.78283,12.09367,-10.65202,-111.0878,-35.1035,0.001067912,-0.1257102,0.09433498,0,0.3,0,0,0,0,,
6.38223E+17,-17.66997,52.29704,53.06834,-37.42207,-16.94423,136.8282,-4.570632,-0.4675641,0.1400836,-35.22471,-8.521038,45.05199,0,0,0,-57.10873,48.73049,10.91965,-10.65202,-111.0878,-35.1035,0.001067912,-0.1257102,0.09433498,0,0.3,0,0,0,0,,
6.38223E+17,-20.66209,51.61907,52.97495,-38.59399,-14.89337,137.2677,-4.570632,-0.4675641,0.1400836,-35.15147,-8.521038,45.05199,0,0,0,-66.78085,47.5845,8.73469,-10.65202,-111.0878,-35.1035,0.001067912,-0.1257102,0.09433498,0,0.3,0,0,0,0,,
6.38223E+17,-23.183,51.03462,52.34457,-39.91241,-13.50171,139.0988,-4.570632,-0.4675641,0.1400836,-35.22471,-8.521038,45.05199,0,0,0,-74.57288,45.56807,5.78422,-10.65202,-111.0878,-35.1035,0.001067912,-0.1257102,0.09433498,0,0.3,0,0,0,0,,
6.38223E+17,-26.57564,50.56705,52.25118,-40.7181,-12.32979,140.4172,-4.570632,-0.4675641,0.1400836,-35.15147,-8.521038,45.12524,0,0,0,-85.06492,44.70833,1.701291,-10.65202,-111.0878,-35.1035,0.001067912,-0.1257102,0.09433498,0,0.3,0,0,0,0,,
6.38223E+17,-28.15415,50.07611,52.0644,-41.15757,-12.03681,141.3694,-4.570632,-0.4675641,0.1400836,-35.15147,-8.447793,45.12524,0,0,0,-90.00612,43.63551,-0.1662925,-10.65202,-111.0878,-35.1035,0.001067912,-0.1257102,0.09433498,0,0.3,0,0,0,0,,
6.38223E+17,-30.53371,48.97734,51.64415,-41.89003,-11.45084,144.0795,-4.570632,-0.4675641,0.1400836,-35.15147,-8.447793,45.05199,0,0,0,-97.59274,41.20641,-2.893085,-10.65202,-111.0878,-35.1035,0.001067912,-0.1257102,0.09433498,0,0.3,0,0,0,0,,
6.38223E+17,-33.12531,48.1591,51.55077,-42.76897,-10.79164,144.8119,-4.570632,-0.4675641,0.1400836,-35.22471,-8.447793,45.05199,0,0,0,-105.6807,39.77592,-6.392456,-10.65202,-111.0878,-35.1035,0.001067912,-0.1257102,0.09433498,0,0.3,0,0,0,0,,
6.38223E+17,-35.41062,47.80843,51.36399,-44.16063,-10.05919,144.9584,-4.570632,-0.4675641,0.1400836,-35.15147,-8.521038,45.05199,0,0,0,-112.2493,38.88963,-10.46192,-10.65202,-111.0878,-35.1035,0.001067912,-0.1257102,0.09433498,0,0.3,0,0,0,0,,
6.38223E+17,-36.87134,47.66816,50.66357,-44.81983,-9.766206,144.8852,-4.570632,-0.4675641,0.1400836,-35.22471,-8.521038,45.05199,0,0,0,-115.7672,37.40297,-14.0018,-10.65202,-111.0878,-35.1035,0.001067912,-0.1257102,0.09433498,0,0.3,0,0,0,0,,
6.38223E+17,-37.69594,47.55127,50.14993,-44.74659,-9.692961,144.9584,-4.570632,-0.4675641,0.1400836,-35.15147,-8.521038,45.05199,0,0,0,-117.6335,36.29837,-16.12772,-10.65202,-111.0878,-35.1035,0.001067912,-0.1257102,0.09433498,0,0.3,0,0,0,0,,
6.38223E+17,-39.36869,47.0837,49.146,-44.45361,-9.619716,144.9584,-4.570632,-0.4675641,0.1400836,-35.15147,-8.521038,45.12524,0,0,0,-121.5747,33.78002,-20.17755,-10.65202,-111.0878,-35.1035,0.001067912,-0.1257102,0.09433498,0,0.3,0,0,0,0,,
6.38223E+17,-41.13569,46.05506,47.83855,-44.16063,-9.546471,144.8119,-4.570632,-0.4675641,0.1400836,-35.15147,-8.447793,45.05199,0,0,0,-125.9029,29.85548,-24.20616,-10.65202,-111.0878,-35.1035,0.001067912,-0.1257102,0.09433498,0,0.3,0,0,0,0,,
6.38223E+17,-42.31369,44.62899,45.85403,-43.94089,-8.814018,144.8119,-4.570632,-0.4675641,0.1400836,-35.15147,-8.447793,45.05199,0,0,0,-128.3024,24.15336,-27.41514,-10.65202,-111.0878,-35.1035,0.001067912,-0.1257102,0.09433498,0,0.3,0,0,0,0,,
6.38223E+17,-42.80845,43.64711,44.38315,-42.76897,-7.495606,144.7387,-4.570632,-0.4675641,0.1400836,-35.15147,-8.521038,45.05199,0,0,0,-128.9545,20.08776,-29.13294,-10.65202,-111.0878,-35.1035,0.001067912,-0.1257102,0.09433498,0,0.3,0,0,0,0,,
6.38223E+17,-43.18541,42.80549,42.79554,-40.93784,-7.12938,144.8852,-4.570632,-0.4675641,0.1400836,-35.15147,-8.447793,45.05199,0,0,0,-128.9543,16.11294,-30.95754,-10.65202,-111.0878,-35.1035,0.001067912,-0.1257102,0.09433498,0,0.3,0,0,0,0,,
6.38223E+17,-43.46813,40.8651,39.83044,-38.30101,-7.202625,144.8852,-4.570632,-0.4675641,0.1400836,-35.15147,-8.521038,45.05199,0,0,0,-128.1372,8.193023,-33.17101,-10.65202,-111.0878,-35.1035,0.001067912,-0.1257102,0.09433498,0,0.3,0,0,0,0,,
6.38223E+17,-43.63305,38.59741,37.44902,-36.46988,-6.836399,144.8852,-4.570632,-0.4675641,0.1400836,-35.15147,-8.447793,45.12524,0,0,0,-127.8664,0.6737749,-34.23203,-10.65202,-111.0878,-35.1035,0.001067912,-0.1257102,0.09433498,0,0.3,0,0,0,0,,
6.38223E+17,-43.72729,37.05445,36.00148,-35.44445,-6.323683,144.9584,-4.570632,-0.4675641,0.1400836,-35.15147,-8.447793,44.97874,0,0,0,-127.7426,-4.177177,-34.80238,-10.65202,-111.0878,-35.1035,0.001067912,-0.1257102,0.09433498,0,0.3,0,0,0,0,,
6.38223E+17,-43.70373,34.22569,33.55002,-33.9063,-4.712289,144.8852,-4.570632,-0.4675641,0.1400836,-35.15147,-8.521038,45.05199,0,0,0,-127.1002,-12.78112,-35.36454,-10.65202,-111.0878,-35.1035,0.001067912,-0.1257102,0.09433498,0,0.3,0,0,0,0,,
6.38223E+17,-43.11473,30.90598,30.81839,-33.61332,-2.441689,144.8852,-4.570632,-0.4675641,0.1400836,-35.22471,-8.447793,45.05199,0,0,0,-124.8913,-22.6777,-34.95701,-10.65202,-111.0878,-35.1035,0.001067912,-0.1257102,0.09433498,0,0.3,0,0,0,0,,
6.38223E+17,-42.64353,29.80721,29.95454,-33.83306,-1.928973,144.8119,-4.570632,-0.4675641,0.1400836,-35.15147,-8.447793,45.05199,0,0,0,-123.4907,-25.90131,-34.25951,-10.65202,-111.0878,-35.1035,0.001067912,-0.1257102,0.09433498,0,0.3,0,0,0,0,,
6.38223E+17,-41.55977,27.53952,27.94668,-34.19928,-0.9035407,144.8852,-4.570632,-0.4675641,0.1400836,-35.15147,-8.447793,45.05199,0,0,0,-119.8997,-32.79352,-33.11263,-10.65202,-111.0878,-35.1035,0.001067912,-0.1257102,0.09433498,0,0.3,0,0,0,0,,
6.38223E+17,-40.21685,25.13157,25.61195,-34.41902,0.3416272,144.8119,-4.570632,-0.4675641,0.1400836,-35.15147,-8.447793,45.05199,0,0,0,-115.1704,-40.26383,-32.14547,-10.65202,-111.0878,-35.1035,0.001067912,-0.1257102,0.09433498,0,0.3,0,0,0,0,,
6.38223E+17,-38.14358,22.32619,22.74024,-33.97955,2.392492,141.4426,-4.570632,-0.4675641,0.1400836,-35.15147,-8.447793,45.05199,0,0,0,-108.0246,-48.97743,-30.79677,-10.65202,-111.0878,-35.1035,0.001067912,-0.1257102,0.09433498,0,0.3,0,0,0,0,,
6.38223E+17,-36.8949,20.73647,21.52618,-33.46683,3.491169,139.758,-4.570632,-0.4675641,0.1400836,-35.15147,-8.447793,45.05199,0,0,0,-104.2452,-53.48359,-29.48263,-10.65202,-111.0878,-35.1035,0.001067912,-0.1257102,0.09433498,0,0.3,0,0,0,0,,
6.38223E+17,-34.82162,17.83757,19.96191,-32.4414,5.322299,137.3409,-4.570632,-0.4675641,0.1400836,-35.15147,-8.447793,45.05199,0,0,0,-98.48142,-61.14059,-26.76784,-10.65202,-111.0878,-35.1035,0.001067912,-0.1257102,0.09433498,0,0.3,0,0,0,0,,
6.38223E+17,-32.39495,14.7984,18.8179,-31.12299,7.666144,134.9971,-4.570632,-0.4675641,0.1400836,-35.15147,-8.447793,45.12524,0,0,0,-92.11747,-68.81215,-23.16779,-10.65202,-111.0878,-35.1035,0.001067912,-0.1257102,0.09433498,0,0.3,0,0,0,0,,
6.38223E+17,-29.73267,12.99828,18.21087,-29.73133,9.497273,134.1181,-4.570632,-0.4675641,0.1400836,-35.22471,-8.521038,45.12524,0,0,0,-85.10918,-73.32755,-19.33523,-10.65202,-111.0878,-35.1035,0.001067912,-0.1257102,0.09433498,0,0.3,0,0,0,0,,
6.38223E+17,-28.74315,12.60085,17.90735,-29.29186,9.936745,134.0449,-4.570632,-0.4675641,0.1400836,-35.15147,-8.447793,45.12524,0,0,0,-82.29866,-74.44852,-18.29683,-10.65202,-111.0878,-35.1035,0.001067912,-0.1257102,0.09433498,0,0.3,0,0,0,0,,
6.38223E+17,-25.35052,11.73586,17.06685,-27.16775,10.96218,133.3857,-4.570632,-0.4675641,0.1400836,-35.15147,-8.521038,45.05199,0,0,0,-72.65742,-77.00426,-14.99215,-10.65202,-111.0878,-35.1035,0.001067912,-0.1257102,0.09433498,0,0.3,0,0,0,0,,
6.38223E+17,-21.58092,11.12803,16.81003,-24.31118,11.62138,132.7997,-4.570632,-0.4675641,0.1400836,-35.15147,-8.447793,45.05199,0,0,0,-62.31063,-78.565,-10.8181,-10.65202,-111.0878,-35.1035,0.001067912,-0.1257102,0.09433498,0,0.3,0,0,0,0,,
6.38223E+17,-17.62285,10.7306,16.66995,-20.50244,12.28059,132.287,-4.570632,-0.4675641,0.1400836,-35.15147,-8.447793,45.05199,0,0,0,-51.24671,-79.5671,-7.023171,-10.65202,-111.0878,-35.1035,0.001067912,-0.1257102,0.09433498,0,0.3,0,0,0,0,,
6.38223E+17,-13.14646,10.7306,16.66995,-16.32746,12.79331,131.5545,-4.570632,-0.4675641,0.1400836,-35.15147,-8.521038,45.05199,0,0,0,-38.4991,-79.5671,-3.515566,-10.65202,-111.0878,-35.1035,0.001067912,-0.1257102,0.09433498,0,0.3,0,0,0,0,,
6.38223E+17,-7.680547,10.7306,16.76334,-10.83407,13.30602,129.9431,-4.570632,-0.4675641,0.1400836,-35.15147,-8.447793,45.05199,0,0,0,-22.6508,-79.50459,-0.3915861,-10.65202,-111.0878,-35.1035,0.001067912,-0.1257102,0.09433498,0,0.3,0,0,0,0,,
6.38223E+17,-2.874315,10.89424,16.97346,-5.047705,13.96523,127.4528,-4.570632,-0.4675641,0.1400836,-35.15147,-8.521038,45.05199,0,0,0,-8.518441,-78.98856,1.311711,-10.65202,-111.0878,-35.1035,0.001067912,-0.1257102,0.09433498,0,0.3,0,0,0,0,,
6.38223E+17,2.355996,11.45532,17.5338,1.471115,15.06391,124.3765,-4.570632,-0.4675641,0.1400836,-35.15147,-8.447793,45.05199,0,0,0,7.024085,-77.32068,2.373345,-10.65202,-111.0878,-35.1035,0.001067912,-0.1257102,0.09433498,0,0.3,0,0,0,0,,
6.38223E+17,5.418791,12.06315,18.00074,4.913638,16.08934,121.6664,-4.570632,-0.4675641,0.1400836,-35.22471,-8.447793,45.05199,0,0,0,16.20638,-75.60407,2.497466,-10.65202,-111.0878,-35.1035,0.001067912,-0.1257102,0.09433498,0,0.3,0,0,0,0,,
6.38223E+17,7.397828,12.5541,18.3743,6.964502,16.74854,119.9818,-4.570632,-0.4675641,0.1400836,-35.22471,-8.447793,45.05199,0,0,0,22.17171,-74.21636,2.41344,-10.65202,-111.0878,-35.1035,0.001067912,-0.1257102,0.09433498,0,0.3,0,0,0,0,,
6.38223E+17,11.26166,13.48922,19.47162,10.8465,17.92047,116.466,-4.570632,-0.4675641,0.1400836,-35.15147,-8.447793,45.05199,0,0,0,34.00433,-71.26772,2.41963,-10.65202,-111.0878,-35.1035,0.001067912,-0.1257102,0.09433498,0,0.3,0,0,0,0,,
6.38223E+17,14.46582,14.44773,20.61563,13.70306,18.65292,113.2432,-4.570632,-0.4675641,0.1400836,-35.15147,-8.521038,45.05199,0,0,0,43.98645,-68.19035,2.152589,-10.65202,-111.0878,-35.1035,0.001067912,-0.1257102,0.09433498,0,0.3,0,0,0,0,,
6.38223E+17,17.52861,15.52313,21.7363,15.82717,19.01915,110.1669,-4.570632,-0.4675641,0.1400836,-35.22471,-8.521038,45.05199,0,0,0,53.57123,-64.83046,1.260859,-10.65202,-111.0878,-35.1035,0.001067912,-0.1257102,0.09433498,0,0.3,0,0,0,0,,
6.38223E+17,20.70921,16.76217,23.23053,18.09777,18.50643,107.3836,-4.570632,-0.4675641,0.1400836,-35.15147,-8.447793,45.12524,0,0,0,63.75204,-60.73059,0.2829451,-10.65202,-111.0878,-35.1035,0.001067912,-0.1257102,0.09433498,0,0.3,0,0,0,0,,
6.38223E+17,23.67776,17.90771,24.67806,20.36837,17.481,104.7468,-4.570632,-0.4675641,0.1400836,-35.15147,-8.447793,45.05199,0,0,0,73.31702,-56.81783,-1.152874,-10.65202,-111.0878,-35.1035,0.001067912,-0.1257102,0.09433498,0,0.3,0,0,0,0,,
6.38223E+17,27.51804,19.21688,26.10224,23.07844,16.01609,101.817,-4.570632,-0.4675641,0.1400836,-35.15147,-8.521038,45.12524,0,0,0,85.28582,-52.50821,-4.643296,-10.65202,-111.0878,-35.1035,0.001067912,-0.1257102,0.09433498,0,0.3,0,0,0,0,,
6.38223E+17,29.99183,19.7312,27.22291,24.68983,15.13715,99.76613,-4.570632,-0.4675641,0.1400836,-35.15147,-8.447793,45.05199,0,0,0,93.23798,-50.20927,-6.803888,-10.65202,-111.0878,-35.1035,0.001067912,-0.1257102,0.09433498,0,0.3,0,0,0,0,,
6.38223E+17,32.65411,19.70782,29.02065,26.52096,14.11172,96.54334,-4.570632,-0.4675641,0.1400836,-35.22471,-8.447793,45.05199,0,0,0,102.6418,-48.28843,-8.186839,-10.65202,-111.0878,-35.1035,0.001067912,-0.1257102,0.09433498,0,0.3,0,0,0,0,,
6.38223E+17,33.87922,19.66107,29.95454,27.47315,13.67225,95.07844,-4.570632,-0.4675641,0.1400836,-35.22471,-8.447793,45.05199,0,0,0,107.1179,-47.32101,-8.816845,-10.65202,-111.0878,-35.1035,0.001067912,-0.1257102,0.09433498,0,0.3,0,0,0,0,,
6.38223E+17,36.47082,18.74932,32.21923,30.84243,12.50033,90.09777,-4.570632,-0.4675641,0.1400836,-35.15147,-8.447793,45.05199,0,0,0,117.3197,-46.60355,-9.632554,-10.65202,-111.0878,-35.1035,0.001067912,-0.1257102,0.09433498,0,0.3,0,0,0,0,,
6.38223E+17,36.8949,18.37527,32.31261,31.79461,12.28059,88.55962,-4.570632,-0.4675641,0.1400836,-35.15147,-8.521038,45.05199,0,0,0,118.7679,-47.3128,-10.13663,-10.65202,-111.0878,-35.1035,0.001067912,-0.1257102,0.09433498,0,0.3,0,0,0,0,,
6.38223E+17,37.27186,17.76744,32.31261,32.89329,12.28059,86.80173,-4.570632,-0.4675641,0.1400836,-35.15147,-8.521038,45.05199,0,0,0,120.072,-48.65768,-10.57224,-10.65202,-111.0878,-35.1035,0.001067912,-0.1257102,0.09433498,0,0.3,0,0,0,0,,
6.38223E+17,37.29542,16.76217,32.59278,33.47925,12.1341,85.48332,-4.570632,-0.4675641,0.1400836,-35.15147,-8.447793,45.05199,0,0,0,120.891,-50.54198,-9.631515,-10.65202,-111.0878,-35.1035,0.001067912,-0.1257102,0.09433498,0,0.3,0,0,0,0,,
6.38223E+17,37.17762,14.70489,33.66676,34.06521,12.35384,84.09167,-4.570632,-0.4675641,0.1400836,-35.15147,-8.521038,45.05199,0,0,0,122.6139,-53.78436,-6.68108,-10.65202,-111.0878,-35.1035,0.001067912,-0.1257102,0.09433498,0,0.3,0,0,0,0,,
6.38223E+17,36.72998,13.53598,33.80684,34.3582,12.64682,83.72543,-4.570632,-0.4675641,0.1400836,-35.15147,-8.447793,45.05199,0,0,0,121.9061,-56.24156,-4.97885,-10.65202,-111.0878,-35.1035,0.001067912,-0.1257102,0.09433498,0,0.3,0,0,0,0,,
6.38223E+17,35.3635,11.75924,33.01303,34.13846,13.30602,83.28596,-4.570632,-0.4675641,0.1400836,-35.22471,-8.521038,45.05199,0,0,0,117.6069,-61.29352,-2.637503,-10.65202,-111.0878,-35.1035,0.001067912,-0.1257102,0.09433498,0,0.3,0,0,0,0,,
6.38223E+17,33.3609,10.1929,31.42542,32.52707,14.25821,83.06623,-4.570632,-0.4675641,0.1400836,-35.15147,-8.447793,45.12524,0,0,0,110.407,-66.84219,-0.6601031,-10.65202,-111.0878,-35.1035,0.001067912,-0.1257102,0.09433498,0,0.3,0,0,0,0,,
6.38223E+17,30.67507,8.626557,29.90785,29.67051,15.72311,82.99299,-4.570632,-0.4675641,0.1400836,-35.15147,-8.447793,45.05199,0,0,0,101.1821,-72.23993,2.229042,-10.65202,-111.0878,-35.1035,0.001067912,-0.1257102,0.09433498,0,0.3,0,0,0,0,,
6.38223E+17,28.48399,7.878454,29.09069,27.32666,16.74854,82.91974,-4.570632,-0.4675641,0.1400836,-35.22471,-8.447793,45.05199,0,0,0,93.91624,-74.8995,4.737494,-10.65202,-111.0878,-35.1035,0.001067912,-0.1257102,0.09433498,0,0.3,0,0,0,0,,
6.38223E+17,27.09396,7.55116,28.55371,26.00825,17.40775,83.13947,-4.570632,-0.4675641,0.1400836,-35.15147,-8.521038,45.05199,0,0,0,89.23766,-76.25686,6.081052,-10.65202,-111.0878,-35.1035,0.001067912,-0.1257102,0.09433498,0,0.3,0,0,0,0,,
6.38223E+17,23.8898,7.060217,27.363,23.22493,18.28669,84.3114,-4.570632,-0.4675641,0.1400836,-35.15147,-8.447793,45.05199,0,0,0,78.41607,-78.68941,8.690994,-10.65202,-111.0878,-35.1035,0.001067912,-0.1257102,0.09433498,0,0.3,0,0,0,0,,
6.38223E+17,20.40293,6.756301,26.26567,20.22188,18.72616,85.9228,-4.570632,-0.4675641,0.1400836,-35.15147,-8.447793,45.05199,0,0,0,66.73836,-80.54366,11.07598,-10.65202,-111.0878,-35.1035,0.001067912,-0.1257102,0.09433498,0,0.3,0,0,0,0,,
6.38223E+17,16.60977,6.592653,25.40182,16.41313,18.72616,87.09471,-4.570632,-0.4675641,0.1400836,-35.15147,-8.521038,45.05199,0,0,0,54.21767,-81.79806,13.40633,-10.65202,-111.0878,-35.1035,0.001067912,-0.1257102,0.09433498,0,0.3,0,0,0,0,,
6.38223E+17,12.74594,6.522519,25.09831,12.53114,18.28669,88.26664,-4.570632,-0.4675641,0.1400836,-35.15147,-8.521038,45.05199,0,0,0,41.70985,-82.26154,16.04171,-10.65202,-111.0878,-35.1035,0.001067912,-0.1257102,0.09433498,0,0.3,0,0,0,0,,
6.38223E+17,8.575826,6.499141,25.07496,8.209671,17.55424,89.43856,-4.570632,-0.4675641,0.1400836,-35.15147,-8.447793,45.05199,0,0,0,28.18441,-82.33865,18.54403,-10.65202,-111.0878,-35.1035,0.001067912,-0.1257102,0.09433498,0,0.3,0,0,0,0,,
6.38223E+17,3.157035,6.803057,25.44852,2.057076,16.23583,91.78241,-4.570632,-0.4675641,0.1400836,-35.22471,-8.447793,45.12524,0,0,0,10.44794,-81.26505,21.07368,-10.65202,-111.0878,-35.1035,0.001067912,-0.1257102,0.09433498,0,0.3,0,0,0,0,,
6.38223E+17,-0.04711992,7.083596,25.96216,-1.531937,15.28364,94.41924,-4.570632,-0.4675641,0.1400836,-35.22471,-8.447793,45.05199,0,0,0,-0.1568393,-80.0984,22.35974,-10.65202,-111.0878,-35.1035,0.001067912,-0.1257102,0.09433498,0,0.3,0,0,0,0,,
6.38223E+17,-4.240793,7.317377,26.68592,-6.292873,13.96523,98.66745,-4.570632,-0.4675641,0.1400836,-35.15147,-8.447793,45.05199,0,0,0,-14.20926,-78.81161,23.2753,-10.65202,-111.0878,-35.1035,0.001067912,-0.1257102,0.09433498,0,0.3,0,0,0,0,,
6.38223E+17,-6.19627,7.364134,27.05948,-8.563474,13.23278,100.7916,-4.570632,-0.4675641,0.1400836,-35.15147,-8.447793,45.05199,0,0,0,-20.822,-78.3107,23.43602,-10.65202,-111.0878,-35.1035,0.001067912,-0.1257102,0.09433498,0,0.3,0,0,0,0,,
6.38223E+17,-11.54438,7.364134,28.08676,-15.59501,11.3284,106.6512,-4.570632,-0.4675641,0.1400836,-35.15147,-8.447793,45.05199,0,0,0,-39.03122,-77.20402,22.73682,-10.65202,-111.0878,-35.1035,0.001067912,-0.1257102,0.09433498,0,0.3,0,0,0,0,,
6.38223E+17,-12.86374,7.364134,28.27354,-17.27965,10.96218,108.1893,-4.570632,-0.4675641,0.1400836,-35.22471,-8.521038,45.05199,0,0,0,-43.50597,-76.99873,22.16102,-10.65202,-111.0878,-35.1035,0.001067912,-0.1257102,0.09433498,0,0.3,0,0,0,0,,
6.38223E+17,-15.99721,7.434268,28.69379,-20.42919,10.22972,112.5108,-4.570632,-0.4675641,0.1400836,-35.22471,-8.447793,45.05199,0,0,0,-54.08581,-76.3704,20.30425,-10.65202,-111.0878,-35.1035,0.001067912,-0.1257102,0.09433498,0,0.3,0,0,0,0,,
6.38223E+17,-18.89509,7.481025,29.30082,-22.69979,9.643764,116.5393,-4.570632,-0.4675641,0.1400836,-35.15147,-8.521038,45.05199,0,0,0,-63.94982,-75.57762,18.48439,-10.65202,-111.0878,-35.1035,0.001067912,-0.1257102,0.09433498,0,0.3,0,0,0,0,,
6.38223E+17,-22.75892,7.80832,30.49153,-25.84933,9.350782,120.5678,-4.570632,-0.4675641,0.1400836,-35.15147,-8.447793,45.05199,0,0,0,-77.28458,-73.4414,15.87237,-10.65202,-111.0878,-35.1035,0.001067912,-0.1257102,0.09433498,0,0.3,0,0,0,0,,
6.38223E+17,-24.45524,8.416153,31.1219,-27.53397,9.131048,122.9116,-4.570632,-0.4675641,0.1400836,-35.22471,-8.447793,45.05199,0,0,0,-83.14309,-71.28951,14.46921,-10.65202,-111.0878,-35.1035,0.001067912,-0.1257102,0.09433498,0,0.3,0,0,0,0,,
6.38223E+17,-26.64632,9.655198,31.98576,-30.02431,8.691576,126.1344,-4.570632,-0.4675641,0.1400836,-35.15147,-8.447793,45.05199,0,0,0,-90.63713,-67.38951,12.28331,-10.65202,-111.0878,-35.1035,0.001067912,-0.1257102,0.09433498,0,0.3,0,0,0,0,,
6.38223E+17,-28.60179,11.33843,33.10642,-32.36815,8.105616,129.6502,-4.570632,-0.4675641,0.1400836,-35.15147,-8.447793,45.05199,0,0,0,-97.45894,-62.13451,10.38903,-10.65202,-111.0878,-35.1035,0.001067912,-0.1257102,0.09433498,0,0.3,0,0,0,0,,
6.38223E+17,-30.29811,13.46585,34.67069,-34.93173,7.153428,133.3857,-4.570632,-0.4675641,0.1400836,-35.15147,-8.447793,45.05199,0,0,0,-103.6955,-55.26909,9.116945,-10.65202,-111.0878,-35.1035,0.001067912,-0.1257102,0.09433498,0,0.3,0,0,0,0,,
6.38223E+17,-31.31119,15.26597,36.28165,-36.83611,6.127995,136.169,-4.570632,-0.4675641,0.1400836,-35.15147,-8.521038,45.05199,0,0,0,-107.8635,-49.03475,8.976268,-10.65202,-111.0878,-35.1035,0.001067912,-0.1257102,0.09433498,0,0.3,0,0,0,0,,
6.38223E+17,-31.75883,16.29461,37.21554,-37.93478,5.468789,138.1466,-4.570632,-0.4675641,0.1400836,-35.22471,-8.447793,45.12524,0,0,0,-109.8196,-45.43053,9.055382,-10.65202,-111.0878,-35.1035,0.001067912,-0.1257102,0.09433498,0,0.3,0,0,0,0,,
6.38223E+17,-32.44207,18.56229,39.34014,-40.27863,3.78415,142.5413,-4.570632,-0.4675641,0.1400836,-35.22471,-8.447793,45.05199,0,0,0,-113.1615,-37.33235,9.674985,-10.65202,-111.0878,-35.1035,0.001067912,-0.1257102,0.09433498,0,0.3,0,0,0,0,,
6.38223E+17,-32.65411,20.64295,41.37135,-42.10976,1.879776,144.8119,-4.570632,-0.4675641,0.1400836,-35.15147,-8.447793,45.12524,0,0,0,-114.8867,-29.70974,10.92013,-10.65202,-111.0878,-35.1035,0.001067912,-0.1257102,0.09433498,0,0.3,0,0,0,0,,
6.38223E+17,-32.63055,22.93402,43.42591,-43.7944,0.1218917,144.8852,-4.570632,-0.4675641,0.1400836,-35.22471,-8.521038,45.05199,0,0,0,-115.6498,-21.53468,12.27434,-10.65202,-111.0878,-35.1035,0.001067912,-0.1257102,0.09433498,0,0.3,0,0,0,0,,
6.38223E+17,-32.34783,25.57575,45.6906,-45.77202,-1.855728,144.8852,-4.570632,-0.4675641,0.1400836,-35.15147,-8.447793,45.05199,0,0,0,-115.4152,-12.2316,13.88184,-10.65202,-111.0878,-35.1035,0.001067912,-0.1257102,0.09433498,0,0.3,0,0,0,0,,
6.38223E+17,-31.59391,28.68506,47.62842,-47.5299,-3.906592,144.9584,-4.570632,-0.4675641,0.1400836,-35.15147,-8.447793,45.05199,0,0,0,-112.9004,-2.512072,15.21065,-10.65202,-111.0878,-35.1035,0.001067912,-0.1257102,0.09433498,0,0.3,0,0,0,0,,
6.38223E+17,-29.66199,33.54772,49.30943,-49.1413,-7.202625,144.8852,-4.570632,-0.4675641,0.1400836,-35.15147,-8.521038,45.05199,0,0,0,-105.0382,10.1027,16.08576,-10.65202,-111.0878,-35.1035,0.001067912,-0.1257102,0.09433498,0,0.3,0,0,0,0,,
6.38223E+17,-28.55467,36.16608,49.9398,-49.06805,-8.667529,144.8852,-4.570632,-0.4675641,0.1400836,-35.15147,-8.447793,45.05199,0,0,0,-100.244,16.22054,15.85703,-10.65202,-111.0878,-35.1035,0.001067912,-0.1257102,0.09433498,0,0.3,0,0,0,0,,
6.38223E+17,-26.81124,39.83646,50.827,-48.48209,-11.15786,144.9584,-4.570632,-0.4675641,0.1400836,-35.15147,-8.521038,45.05199,0,0,0,-92.81526,24.5414,15.30349,-10.65202,-111.0878,-35.1035,0.001067912,-0.1257102,0.09433498,0,0.3,0,0,0,0,,
6.38223E+17,-25.8924,41.42618,51.15386,-48.04262,-12.25654,144.8852,-4.570632,-0.4675641,0.1400836,-35.15147,-8.447793,45.12524,0,0,0,-89.01527,27.94034,15.03164,-10.65202,-111.0878,-35.1035,0.001067912,-0.1257102,0.09433498,0,0.3,0,0,0,0,,
6.38223E+17,-22.4762,46.03168,51.83093,-45.69878,-16.13853,144.9584,-4.570632,-0.4675641,0.1400836,-35.15147,-8.447793,45.05199,0,0,0,-75.4729,36.91699,14.07196,-10.65202,-111.0878,-35.1035,0.001067912,-0.1257102,0.09433498,0,0.3,0,0,0,0,,
6.38223E+17,-21.15685,47.50451,51.90097,-44.6001,-17.38371,144.8852,-4.570632,-0.4675641,0.1400836,-35.15147,-8.447793,45.05199,0,0,0,-70.38756,39.39307,13.52616,-10.65202,-111.0878,-35.1035,0.001067912,-0.1257102,0.09433498,0,0.3,0,0,0,0,,
6.38223E+17,-18.23541,50.4034,52.13445,-41.89003,-19.72755,144.8852,-4.570632,-0.4675641,0.1400836,-35.15147,-8.447793,45.05199,0,0,0,-59.53902,44.25134,12.36249,-10.65202,-111.0878,-35.1035,0.001067912,-0.1257102,0.09433498,0,0.3,0,0,0,0,,
6.38223E+17,-15.03126,53.18541,52.25118,-38.52075,-22.14464,142.6878,-4.570632,-0.4675641,0.1400836,-35.22471,-8.447793,45.05199,0,0,0,-48.06902,48.47018,10.65537,-10.65202,-111.0878,-35.1035,0.001067912,-0.1257102,0.09433498,0,0.3,0,0,0,0,,
6.38223E+17,-10.1779,56.08431,52.04106,-32.95412,-25.58716,138.0733,-4.570632,-0.4675641,0.1400836,-35.22471,-8.521038,45.05199,0,0,0,-31.72664,51.98862,8.370292,-10.65202,-111.0878,-35.1035,0.001067912,-0.1257102,0.09433498,0,0.3,0,0,0,0,,
6.38223E+17,-7.515628,56.87917,51.55077,-29.43835,-27.34505,135.4365,-4.570632,-0.4675641,0.1400836,-35.15147,-8.447793,45.05199,0,0,0,-23.18993,52.11347,7.424487,-10.65202,-111.0878,-35.1035,0.001067912,-0.1257102,0.09433498,0,0.3,0,0,0,0,,
6.38223E+17,-3.109915,57.44025,50.52348,-21.96734,-29.39591,129.5037,-4.570632,-0.4675641,0.1400836,-35.15147,-8.521038,45.05199,0,0,0,-9.477595,50.96261,6.089774,-10.65202,-111.0878,-35.1035,0.001067912,-0.1257102,0.09433498,0,0.3,0,0,0,0,,
6.38223E+17,0.7067988,57.51038,49.84641,-14.2766,-30.3481,124.23,-4.570632,-0.4675641,0.1400836,-35.15147,-8.447793,45.12524,0,0,0,2.140858,49.83998,5.187211,-10.65202,-111.0878,-35.1035,0.001067912,-0.1257102,0.09433498,0,0.3,0,0,0,0,,
6.38223E+17,4.311473,57.51038,49.0526,-6.219628,-30.71432,119.4691,-4.570632,-0.4675641,0.1400836,-35.22471,-8.521038,45.05199,0,0,0,12.95695,48.4362,3.511599,-10.65202,-111.0878,-35.1035,0.001067912,-0.1257102,0.09433498,0,0.3,0,0,0,0,,
6.38223E+17,5.701511,57.487,48.74909,-3.143331,-30.71432,117.7112,-4.570632,-0.4675641,0.1400836,-35.15147,-8.447793,45.12524,0,0,0,17.08064,47.87464,2.730308,-10.65202,-111.0878,-35.1035,0.001067912,-0.1257102,0.09433498,0,0.3,0,0,0,0,,
6.38223E+17,8.905665,57.2766,47.93193,3.082508,-30.27485,113.9757,-4.570632,-0.4675641,0.1400836,-35.15147,-8.447793,45.12524,0,0,0,26.48444,46.1898,0.6667357,-10.65202,-111.0878,-35.1035,0.001067912,-0.1257102,0.09433498,0,0.3,0,0,0,0,,
6.38223E+17,12.13338,56.45836,46.62449,8.429405,-29.32266,110.0937,-4.570632,-0.4675641,0.1400836,-35.22471,-8.521038,45.05199,0,0,0,35.86009,42.91346,-1.551778,-10.65202,-111.0878,-35.1035,0.001067912,-0.1257102,0.09433498,0,0.3,0,0,0,0,,
6.38223E+17,15.36109,54.9154,44.92014,12.97061,-27.56478,106.285,-4.570632,-0.4675641,0.1400836,-35.15147,-8.521038,45.05199,0,0,0,45.24749,38.04684,-3.643264,-10.65202,-111.0878,-35.1035,0.001067912,-0.1257102,0.09433498,0,0.3,0,0,0,0,,
6.38223E+17,18.68305,52.81136,42.70215,16.92585,-24.92796,102.8424,-4.570632,-0.4675641,0.1400836,-35.15147,-8.521038,45.05199,0,0,0,54.78923,31.58578,-6.324362,-10.65202,-111.0878,-35.1035,0.001067912,-0.1257102,0.09433498,0,0.3,0,0,0,0,,
6.38223E+17,21.74584,50.28652,40.39077,19.9289,-21.77841,99.98587,-4.570632,-0.4675641,0.1400836,-35.15147,-8.447793,45.05199,0,0,0,63.58138,24.36432,-8.948422,-10.65202,-111.0878,-35.1035,0.001067912,-0.1257102,0.09433498,0,0.3,0,0,0,0,,
6.38223E+17,24.73796,47.55127,38.47629,22.71221,-18.1894,97.27579,-4.570632,-0.4675641,0.1400836,-35.15147,-8.521038,45.05199,0,0,0,72.38302,17.35137,-11.25227,-10.65202,-111.0878,-35.1035,0.001067912,-0.1257102,0.09433498,0,0.3,0,0,0,0,,
6.38223E+17,28.03635,44.20818,36.39838,26.15474,-13.72145,94.78546,-4.570632,-0.4675641,0.1400836,-35.15147,-8.521038,45.05199,0,0,0,82.12212,8.995802,-14.13688,-10.65202,-111.0878,-35.1035,0.001067912,-0.1257102,0.09433498,0,0.3,0,0,0,0,,
6.38223E+17,29.70911,42.22104,35.13763,27.83937,-11.01137,93.76003,-4.570632,-0.4675641,0.1400836,-35.15147,-8.447793,45.12524,0,0,0,86.97823,3.910326,-15.91726,-10.65202,-111.0878,-35.1035,0.001067912,-0.1257102,0.09433498,0,0.3,0,0,0,0,,
6.38223E+17,31.66459,39.55592,33.6901,29.817,-7.568851,92.5881,-4.570632,-0.4675641,0.1400836,-35.22471,-8.521038,45.05199,0,0,0,92.80129,-2.682444,-17.88397,-10.65202,-111.0878,-35.1035,0.001067912,-0.1257102,0.09433498,0,0.3,0,0,0,0,,
6.38223E+17,32.46563,38.2935,32.98969,30.76918,-5.957458,92.07539,-4.570632,-0.4675641,0.1400836,-35.22471,-8.521038,45.05199,0,0,0,95.15567,-5.864137,-18.78759,-10.65202,-111.0878,-35.1035,0.001067912,-0.1257102,0.09433498,0,0.3,0,0,0,0,,
6.38223E+17,34.02058,34.38934,30.14132,32.7468,-1.709238,91.34293,-4.570632,-0.4675641,0.1400836,-35.15147,-8.447793,45.12524,0,0,0,99.03128,-16.65181,-21.64381,-10.65202,-111.0878,-35.1035,0.001067912,-0.1257102,0.09433498,0,0.3,0,0,0,0,,
6.38223E+17,34.3033,32.89313,29.09069,33.11303,-0.3908245,91.26969,-4.570632,-0.4675641,0.1400836,-35.15147,-8.447793,45.05199,0,0,0,99.64314,-20.75917,-22.2967,-10.65202,-111.0878,-35.1035,0.001067912,-0.1257102,0.09433498,0,0.3,0,0,0,0,,
6.38223E+17,34.60958,29.66694,27.01279,33.33276,2.905208,91.1232,-4.570632,-0.4675641,0.1400836,-35.15147,-8.447793,45.05199,0,0,0,100.2125,-29.44964,-23.13565,-10.65202,-111.0878,-35.1035,0.001067912,-0.1257102,0.09433498,0,0.3,0,0,0,0,,
6.38223E+17,34.63314,26.72129,25.16835,32.89329,5.90826,90.90347,-4.570632,-0.4675641,0.1400836,-35.15147,-8.521038,45.05199,0,0,0,99.92188,-37.37909,-23.68409,-10.65202,-111.0878,-35.1035,0.001067912,-0.1257102,0.09433498,0,0.3,0,0,0,0,,
6.38223E+17,34.63314,22.86388,23.23053,31.64813,9.936745,90.3175,-4.570632,-0.4675641,0.1400836,-35.15147,-8.447793,45.12524,0,0,0,99.7232,-47.37645,-23.97175,-10.65202,-111.0878,-35.1035,0.001067912,-0.1257102,0.09433498,0,0.3,0,0,0,0,,
6.38223E+17,34.75095,20.92349,22.57681,30.40295,12.1341,89.43856,-4.570632,-0.4675641,0.1400836,-35.15147,-8.447793,45.05199,0,0,0,100.1808,-52.15873,-23.94507,-10.65202,-111.0878,-35.1035,0.001067912,-0.1257102,0.09433498,0,0.3,0,0,0,0,,
6.38223E+17,35.31638,19.05324,22.29664,28.86481,14.99066,87.68068,-4.570632,-0.4675641,0.1400836,-35.22471,-8.447793,45.05199,0,0,0,102.1127,-56.49804,-24.21848,-10.65202,-111.0878,-35.1035,0.001067912,-0.1257102,0.09433498,0,0.3,0,0,0,0,,
6.38223E+17,35.85826,18.42202,22.31999,28.13236,16.23583,86.72849,-4.570632,-0.4675641,0.1400836,-35.15147,-8.447793,45.05199,0,0,0,103.7771,-57.86863,-24.76743,-10.65202,-111.0878,-35.1035,0.001067912,-0.1257102,0.09433498,0,0.3,0,0,0,0,,
6.38223E+17,37.79018,17.55703,22.76358,26.88719,18.65292,83.35921,-4.570632,-0.4675641,0.1400836,-35.15147,-8.447793,45.05199,0,0,0,109.5239,-59.38758,-27.10268,-10.65202,-111.0878,-35.1035,0.001067912,-0.1257102,0.09433498,0,0.3,0,0,0,0,,
6.38223E+17,38.28493,17.51027,22.97371,26.7407,18.9459,82.40703,-4.570632,-0.4675641,0.1400836,-35.15147,-8.447793,45.05199,0,0,0,111.039,-59.3013,-27.67426,-10.65202,-111.0878,-35.1035,0.001067912,-0.1257102,0.09433498,0,0.3,0,0,0,0,,
6.38223E+17,39.7221,17.51027,23.95429,26.44772,19.67835,79.98994,-4.570632,-0.4675641,0.1400836,-35.15147,-8.447793,45.05199,0,0,0,115.8701,-58.39259,-28.89322,-10.65202,-111.0878,-35.1035,0.001067912,-0.1257102,0.09433498,0,0.3,0,0,0,0,,
6.38223E+17,41.37129,17.55703,25.49521,26.7407,20.04458,77.27986,-4.570632,-0.4675641,0.1400836,-35.15147,-8.447793,45.05199,0,0,0,121.967,-56.78886,-29.86579,-10.65202,-111.0878,-35.1035,0.001067912,-0.1257102,0.09433498,0,0.3,0,0,0,0,,
6.38223E+17,43.63305,17.90771,27.66651,27.39991,20.26431,73.69085,-4.570632,-0.4675641,0.1400836,-35.15147,-8.447793,45.05199,0,0,0,130.284,-53.75039,-31.69621,-10.65202,-111.0878,-35.1035,0.001067912,-0.1257102,0.09433498,0,0.3,0,0,0,0,,
6.38223E+17,44.83461,18.28176,28.78718,28.05911,20.04458,72.1527,-4.570632,-0.4675641,0.1400836,-35.22471,-8.521038,45.05199,0,0,0,134.5506,-51.68929,-33.02037,-10.65202,-111.0878,-35.1035,0.001067912,-0.1257102,0.09433498,0,0.3,0,0,0,0,,
6.38223E+17,46.43668,18.84283,30.60827,29.30428,19.45862,70.10184,-4.570632,-0.4675641,0.1400836,-35.22471,-8.521038,45.12524,0,0,0,140.648,-48.35167,-34.58435,-10.65202,-111.0878,-35.1035,0.001067912,-0.1257102,0.09433498,0,0.3,0,0,0,0,,
6.38223E+17,47.85028,19.61431,32.82626,30.54945,18.65292,68.05097,-4.570632,-0.4675641,0.1400836,-35.15147,-8.521038,45.05199,0,0,0,146.7221,-43.9426,-35.54498,-10.65202,-111.0878,-35.1035,0.001067912,-0.1257102,0.09433498,0,0.3,0,0,0,0,,
6.38223E+17,49.61728,21.1339,35.93144,32.30733,17.18801,65.70713,-4.570632,-0.4675641,0.1400836,-35.15147,-8.447793,45.05199,0,0,0,154.3524,-36.54696,-37.06609,-10.65202,-111.0878,-35.1035,0.001067912,-0.1257102,0.09433498,0,0.3,0,0,0,0,,
6.38223E+17,50.51255,22.39632,37.5891,33.47925,16.16258,64.53521,-4.570632,-0.4675641,0.1400836,-35.15147,-8.447793,45.05199,0,0,0,157.9293,-31.50949,-38.22123,-10.65202,-111.0878,-35.1035,0.001067912,-0.1257102,0.09433498,0,0.3,0,0,0,0,,
6.38223E+17,51.03088,23.26131,38.49964,34.13846,15.43013,63.65627,-4.570632,-0.4675641,0.1400836,-35.15147,-8.447793,45.05199,0,0,0,159.7903,-28.34804,-39.09685,-10.65202,-111.0878,-35.1035,0.001067912,-0.1257102,0.09433498,0,0.3,0,0,0,0,,
6.38223E+17,51.87903,24.87441,40.32073,35.16389,14.03847,61.97163,-4.570632,-0.4675641,0.1400836,-35.15147,-8.447793,45.05199,0,0,0,163.0577,-22.22952,-40.40002,-10.65202,-111.0878,-35.1035,0.001067912,-0.1257102,0.09433498,0,0.3,0,0,0,0,,
6.38223E+17,53.03347,27.00183,44.10299,36.6288,11.62138,59.26155,-4.570632,-0.4675641,0.1400836,-35.15147,-8.521038,45.12524,0,0,0,169.0806,-11.86389,-41.09341,-10.65202,-111.0878,-35.1035,0.001067912,-0.1257102,0.09433498,0,0.3,0,0,0,0,,
6.38223E+17,53.29263,27.72655,45.31704,37.21476,10.81569,58.38261,-4.570632,-0.4675641,0.1400836,-35.15147,-8.447793,45.12524,0,0,0,170.6428,-8.378098,-41.12264,-10.65202,-111.0878,-35.1035,0.001067912,-0.1257102,0.09433498,0,0.3,0,0,0,0,,
6.38223E+17,53.78739,29.26951,47.58173,38.24019,9.131048,56.84446,-4.570632,-0.4675641,0.1400836,-35.15147,-8.447793,45.12524,0,0,0,173.2825,-1.402366,-41.46778,-10.65202,-111.0878,-35.1035,0.001067912,-0.1257102,0.09433498,0,0.3,0,0,0,0,,
6.38223E+17,54.04655,31.25666,49.5429,39.19238,7.153428,55.30631,-4.570632,-0.4675641,0.1400836,-35.22471,-8.447793,45.05199,0,0,0,174.4132,6.013706,-41.8478,-10.65202,-111.0878,-35.1035,0.001067912,-0.1257102,0.09433498,0,0.3,0,0,0,0,,
6.38223E+17,54.14079,32.33206,50.61687,39.70509,6.201241,54.57386,-4.570632,-0.4675641,0.1400836,-35.15147,-8.447793,45.05199,0,0,0,174.8522,10.05797,-41.96771,-10.65202,-111.0878,-35.1035,0.001067912,-0.1257102,0.09433498,0,0.3,0,0,0,0,,
6.38223E+17,54.18791,34.59974,52.76482,40.95026,4.077131,53.32869,-4.570632,-0.4675641,0.1400836,-35.15147,-8.521038,45.05199,0,0,0,175.109,18.38297,-42.00119,-10.65202,-111.0878,-35.1035,0.001067912,-0.1257102,0.09433498,0,0.3,0,0,0,0,,
6.38223E+17,54.09367,36.93756,54.86607,42.26867,1.66004,52.08353,-4.570632,-0.4675641,0.1400836,-35.15147,-8.447793,45.05199,0,0,0,174.6636,26.74439,-41.8852,-10.65202,-111.0878,-35.1035,0.001067912,-0.1257102,0.09433498,0,0.3,0,0,0,0,,
6.38223E+17,53.81095,39.25201,56.92064,43.4406,-0.9035407,50.9116,-4.570632,-0.4675641,0.1400836,-35.22471,-8.447793,45.05199,0,0,0,173.5194,34.9424,-41.40394,-10.65202,-111.0878,-35.1035,0.001067912,-0.1257102,0.09433498,0,0.3,0,0,0,0,,
6.38223E+17,53.43399,41.77685,58.67168,44.61252,-3.540367,49.66644,-4.570632,-0.4675641,0.1400836,-35.15147,-8.521038,45.05199,0,0,0,171.3589,42.85774,-41.2453,-10.65202,-111.0878,-35.1035,0.001067912,-0.1257102,0.09433498,0,0.3,0,0,0,0,,
6.38223E+17,53.15127,43.13279,59.48883,45.12524,-5.15176,49.00723,-4.570632,-0.4675641,0.1400836,-35.15147,-8.447793,45.05199,0,0,0,169.8071,46.81762,-41.0927,-10.65202,-111.0878,-35.1035,0.001067912,-0.1257102,0.09433498,0,0.3,0,0,0,0,,
6.38223E+17,52.56227,45.54074,61.09979,45.93093,-7.788587,47.9818,-4.570632,-0.4675641,0.1400836,-35.15147,-8.447793,45.05199,0,0,0,166.8555,54.08226,-40.6052,-10.65202,-111.0878,-35.1035,0.001067912,-0.1257102,0.09433498,0,0.3,0,0,0,0,,
6.38223E+17,51.9026,47.78505,62.71075,46.66338,-10.35217,47.02961,-4.570632,-0.4675641,0.1400836,-35.15147,-8.447793,45.05199,0,0,0,163.7735,60.97424,-39.94712,-10.65202,-111.0878,-35.1035,0.001067912,-0.1257102,0.09433498,0,0.3,0,0,0,0,,
6.38223E+17,51.1958,49.93584,64.22832,47.46908,-12.76926,46.22392,-4.570632,-0.4675641,0.1400836,-35.22471,-8.447793,45.05199,0,0,0,160.4689,67.42728,-39.31032,-10.65202,-111.0878,-35.1035,0.001067912,-0.1257102,0.09433498,0,0.3,0,0,0,0,,
6.38223E+17,50.46544,51.68921,65.44238,47.9818,-14.82012,45.34497,-4.570632,-0.4675641,0.1400836,-35.15147,-8.447793,45.05199,0,0,0,157.2983,72.56303,-38.52381,-10.65202,-111.0878,-35.1035,0.001067912,-0.1257102,0.09433498,0,0.3,0,0,0,0,,
6.38223E+17,49.85288,53.13866,66.21284,48.27478,-16.50476,44.61252,-4.570632,-0.4675641,0.1400836,-35.15147,-8.447793,45.05199,0,0,0,154.4193,76.25653,-38.09967,-10.65202,-111.0878,-35.1035,0.001067912,-0.1257102,0.09433498,0,0.3,0,0,0,0,,
6.38223E+17,48.81624,55.47648,67.40356,48.71425,-19.06834,43.73357,-4.570632,-0.4675641,0.1400836,-35.15147,-8.521038,45.12524,0,0,0,149.5334,81.97807,-37.51826,-10.65202,-111.0878,-35.1035,0.001067912,-0.1257102,0.09433498,0,0.3,0,0,0,0,,
6.38223E+17,47.68536,57.53376,68.66431,49.15372,-21.41219,43.29411,-4.570632,-0.4675641,0.1400836,-35.15147,-8.447793,45.05199,0,0,0,144.7813,87.34151,-36.54156,-10.65202,-111.0878,-35.1035,0.001067912,-0.1257102,0.09433498,0,0.3,0,0,0,0,,
6.38223E+17,46.6016,59.35726,69.92506,49.95942,-24.26875,43.00113,-4.570632,-0.4675641,0.1400836,-35.15147,-8.447793,45.05199,0,0,0,140.3885,92.30704,-35.59864,-10.65202,-111.0878,-35.1035,0.001067912,-0.1257102,0.09433498,0,0.3,0,0,0,0,,
6.38223E+17,46.05972,60.22225,70.53209,50.39889,-26.09988,42.85464,-4.570632,-0.4675641,0.1400836,-35.15147,-8.447793,45.05199,0,0,0,138.2181,94.64951,-35.15246,-10.65202,-111.0878,-35.1035,0.001067912,-0.1257102,0.09433498,0,0.3,0,0,0,0,,
6.38223E+17,45.87124,60.59631,70.90565,50.54538,-26.90557,42.78139,-4.570632,-0.4675641,0.1400836,-35.22471,-8.521038,45.05199,0,0,0,137.4419,95.90005,-35.02571,-10.65202,-111.0878,-35.1035,0.001067912,-0.1257102,0.09433498,0,0.3,0,0,0,0,,
6.38223E+17,45.72989,61.29765,71.67611,50.98485,-28.29723,42.41516,-4.570632,-0.4675641,0.1400836,-35.15147,-8.447793,45.05199,0,0,0,136.5027,98.39112,-35.28156,-10.65202,-111.0878,-35.1035,0.001067912,-0.1257102,0.09433498,0,0.3,0,0,0,0,,
6.38223E+17,45.72989,61.97561,72.82012,51.64405,-29.5424,41.68271,-4.570632,-0.4675641,0.1400836,-35.15147,-8.521038,45.05199,0,0,0,136.0897,101.6765,-35.6841,-10.65202,-111.0878,-35.1035,0.001067912,-0.1257102,0.09433498,0,0.3,0,0,0,0,,
6.38223E+17,45.89481,62.72372,73.96414,52.66949,-30.71432,40.43755,-4.570632,-0.4675641,0.1400836,-35.15147,-8.447793,45.05199,0,0,0,135.91,105.0359,-36.62012,-10.65202,-111.0878,-35.1035,0.001067912,-0.1257102,0.09433498,0,0.3,0,0,0,0,,
6.38223E+17,46.34245,63.2848,74.80464,53.91465,-31.59327,38.38668,-4.570632,-0.4675641,0.1400836,-35.15147,-8.447793,45.05199,0,0,0,136.4742,107.5127,-38.12571,-10.65202,-111.0878,-35.1035,0.001067912,-0.1257102,0.09433498,0,0.3,0,0,0,0,,
6.38223E+17,46.7194,63.33155,75.90196,55.01333,-32.03274,36.33582,-4.570632,-0.4675641,0.1400836,-35.15147,-8.521038,45.05199,0,0,0,137.7273,110.0324,-38.65035,-10.65202,-111.0878,-35.1035,0.001067912,-0.1257102,0.09433498,0,0.3,0,0,0,0,,
6.38223E+17,47.04924,63.42507,77.41953,56.47824,-32.32572,33.91872,-4.570632,-0.4675641,0.1400836,-35.15147,-8.521038,45.12524,0,0,0,138.9257,113.5665,-39.02271,-10.65202,-111.0878,-35.1035,0.001067912,-0.1257102,0.09433498,0,0.3,0,0,0,0,,
6.38223E+17,47.16704,63.54195,78.51686,57.43042,-32.47221,32.23409,-4.570632,-0.4675641,0.1400836,-35.15147,-8.447793,45.05199,0,0,0,139.4032,116.1858,-39.11218,-10.65202,-111.0878,-35.1035,0.001067912,-0.1257102,0.09433498,0,0.3,0,0,0,0,,
6.38223E+17,47.28484,63.63547,79.77761,58.74884,-32.69194,29.96349,-4.570632,-0.4675641,0.1400836,-35.22471,-8.521038,45.05199,0,0,0,139.9313,119.1643,-39.15652,-10.65202,-111.0878,-35.1035,0.001067912,-0.1257102,0.09433498,0,0.3,0,0,0,0,,
6.38223E+17,47.35552,63.63547,80.40799,59.40804,-32.76519,28.71832,-4.570632,-0.4675641,0.1400836,-35.15147,-8.447793,45.05199,0,0,0,140.2763,120.6096,-39.15823,-10.65202,-111.0878,-35.1035,0.001067912,-0.1257102,0.09433498,0,0.3,0,0,0,0,,
6.38223E+17,47.40264,63.63547,82.62598,61.45891,-32.91168,25.78851,-4.570632,-0.4675641,0.1400836,-35.15147,-8.447793,45.05199,0,0,0,140.943,125.7149,-38.75826,-10.65202,-111.0878,-35.1035,0.001067912,-0.1257102,0.09433498,0,0.3,0,0,0,0,,
6.38223E+17,47.40264,63.63547,83.44313,62.26461,-32.98492,24.68983,-4.570632,-0.4675641,0.1400836,-35.15147,-8.447793,45.05199,0,0,0,141.1128,127.6027,-38.60215,-10.65202,-111.0878,-35.1035,0.001067912,-0.1257102,0.09433498,0,0.3,0,0,0,0,,
6.38223E+17,47.40264,63.63547,85.05409,63.94925,-33.2779,21.90652,-4.570632,-0.4675641,0.1400836,-35.15147,-8.447793,45.05199,0,0,0,141.3894,131.333,-38.34785,-10.65202,-111.0878,-35.1035,0.001067912,-0.1257102,0.09433498,0,0.3,0,0,0,0,,
6.38223E+17,47.3084,63.63547,86.82848,65.85361,-33.64413,18.83022,-4.570632,-0.4675641,0.1400836,-35.15147,-8.521038,45.05199,0,0,0,141.3902,135.4522,-37.91729,-10.65202,-111.0878,-35.1035,0.001067912,-0.1257102,0.09433498,0,0.3,0,0,0,0,,
6.38223E+17,47.40264,63.63547,88.57953,68.71018,-34.0836,14.80174,-4.570632,-0.4675641,0.1400836,-35.15147,-8.521038,45.05199,0,0,0,141.7247,139.5242,-38.03952,-10.65202,-111.0878,-35.1035,0.001067912,-0.1257102,0.09433498,0,0.3,0,0,0,0,,
6.38223E+17,47.4262,63.63547,89.51341,70.02859,-34.23009,12.67763,-4.570632,-0.4675641,0.1400836,-35.15147,-8.447793,45.05199,0,0,0,141.8049,141.6974,-38.07334,-10.65202,-111.0878,-35.1035,0.001067912,-0.1257102,0.09433498,0,0.3,0,0,0,0,,
6.38223E+17,47.4262,63.7056,90.75082,71.56674,-34.37658,9.967555,-4.570632,-0.4675641,0.1400836,-35.15147,-8.447793,45.05199,0,0,0,141.6923,144.6497,-38.1768,-10.65202,-111.0878,-35.1035,0.001067912,-0.1257102,0.09433498,0,0.3,0,0,0,0,,
6.38223E+17,47.4262,64.05627,91.73141,72.88515,-34.37658,7.330729,-4.570632,-0.4675641,0.1400836,-35.15147,-8.447793,45.05199,0,0,0,141.1162,147.2906,-38.70602,-10.65202,-111.0878,-35.1035,0.001067912,-0.1257102,0.09433498,0,0.3,0,0,0,0,,
6.38223E+17,47.28484,64.52384,92.87543,74.05708,-34.37658,4.986883,-4.570632,-0.4675641,0.1400836,-35.15147,-8.447793,45.12524,0,0,0,139.9969,150.4231,-39.09595,-10.65202,-111.0878,-35.1035,0.001067912,-0.1257102,0.09433498,0,0.3,0,0,0,0,,
6.38223E+17,47.16704,64.781,93.97274,75.229,-34.37658,3.302244,-4.570632,-0.4675641,0.1400836,-35.15147,-8.521038,45.05199,0,0,0,139.2224,153.2286,-39.27983,-10.65202,-111.0878,-35.1035,0.001067912,-0.1257102,0.09433498,0,0.3,0,0,0,0,,
6.38223E+17,47.16704,64.89789,94.48639,75.88821,-34.30334,2.496547,-4.570632,-0.4675641,0.1400836,-35.15147,-8.447793,45.05199,0,0,0,138.9771,154.5365,-39.50718,-10.65202,-111.0878,-35.1035,0.001067912,-0.1257102,0.09433498,0,0.3,0,0,0,0,,
6.38223E+17,47.11992,65.17844,95.5837,77.13338,-34.23009,0.5921727,-4.570632,-0.4675641,0.1400836,-35.22471,-8.447793,45.05199,0,0,0,138.2731,157.356,-39.94824,-10.65202,-111.0878,-35.1035,0.001067912,-0.1257102,0.09433498,0,0.3,0,0,0,0,,
6.38223E+17,47.02568,65.57586,96.72772,78.67152,-34.15685,-1.312202,-4.570632,-0.4675641,0.1400836,-35.15147,-8.447793,45.05199,0,0,0,137.2376,160.3886,-40.4888,-10.65202,-111.0878,-35.1035,0.001067912,-0.1257102,0.09433498,0,0.3,0,0,0,0,,
6.38223E+17,46.955,66.04342,98.03517,80.35616,-33.86386,-3.070086,-4.570632,-0.4675641,0.1400836,-35.15147,-8.521038,45.05199,0,0,0,136.0686,163.8521,-41.26399,-10.65202,-111.0878,-35.1035,0.001067912,-0.1257102,0.09433498,0,0.3,0,0,0,0,,
6.38223E+17,46.79008,66.58112,99.17918,81.60133,-33.64413,-4.82797,-4.570632,-0.4675641,0.1400836,-35.15147,-8.447793,45.12524,0,0,0,134.5766,166.9875,-41.93032,-10.65202,-111.0878,-35.1035,0.001067912,-0.1257102,0.09433498,0,0.3,0,0,0,0,,
6.38223E+17,46.50736,67.30585,100.1598,82.91974,-33.49764,-6.512609,-4.570632,-0.4675641,0.1400836,-35.15147,-8.521038,45.05199,0,0,0,132.5472,169.8978,-42.5998,-10.65202,-111.0878,-35.1035,0.001067912,-0.1257102,0.09433498,0,0.3,0,0,0,0,,
6.38223E+17,46.27176,68.28773,101.2104,84.38464,-33.4244,-8.270493,-4.570632,-0.4675641,0.1400836,-35.22471,-8.521038,45.12524,0,0,0,130.1725,173.1642,-43.83171,-10.65202,-111.0878,-35.1035,0.001067912,-0.1257102,0.09433498,0,0.3,0,0,0,0,,
6.38223E+17,45.96548,68.94232,102.0509,85.41007,-33.4244,-9.808641,-4.570632,-0.4675641,0.1400836,-35.15147,-8.447793,45.05199,0,0,0,128.2016,175.6357,-44.39781,-10.65202,-111.0878,-35.1035,0.001067912,-0.1257102,0.09433498,0,0.3,0,0,0,0,,
6.38223E+17,45.5414,69.55016,103.1716,86.65524,-33.4244,-11.85951,-4.570632,-0.4675641,0.1400836,-35.22471,-8.447793,45.05199,0,0,0,125.93,178.6822,-44.7777,-10.65202,-111.0878,-35.1035,0.001067912,-0.1257102,0.09433498,0,0.3,0,0,0,0,,
6.38223E+17,45.28225,69.8307,103.942,87.68068,-33.4244,-13.17792,-4.570632,-0.4675641,0.1400836,-35.15147,-8.447793,45.05199,0,0,0,124.636,180.652,-44.93596,-10.65202,-111.0878,-35.1035,0.001067912,-0.1257102,0.09433498,0,0.3,0,0,0,0,,
6.38223E+17,44.90529,70.36839,105.1561,89.21883,-33.4244,-15.30203,-4.570632,-0.4675641,0.1400836,-35.22471,-8.521038,45.05199,0,0,0,122.4896,183.8129,-45.45479,-10.65202,-111.0878,-35.1035,0.001067912,-0.1257102,0.09433498,0,0.3,0,0,0,0,,
6.38223E+17,44.74036,71.3269,105.2495,90.02452,-33.4244,-16.76693,-4.570632,-0.4675641,0.1400836,-35.15147,-8.447793,45.05199,0,0,0,120.6119,184.7546,-46.64006,-10.65202,-111.0878,-35.1035,0.001067912,-0.1257102,0.09433498,0,0.3,0,0,0,0,,
6.38223E+17,44.66969,72.68284,105.2495,89.73154,-33.4244,-17.49938,-4.570632,-0.4675641,0.1400836,-35.15147,-8.521038,45.05199,0,0,0,118.3516,185.7295,-48.62584,-10.65202,-111.0878,-35.1035,0.001067912,-0.1257102,0.09433498,0,0.3,0,0,0,0,,
6.38223E+17,44.59901,73.47769,105.2495,89.51181,-33.49764,-17.71912,-4.570632,-0.4675641,0.1400836,-35.15147,-8.521038,45.05199,0,0,0,116.9612,186.2679,-49.74014,-10.65202,-111.0878,-35.1035,0.001067912,-0.1257102,0.09433498,0,0.3,0,0,0,0,,
6.38223E+17,44.10425,74.71674,105.2495,89.29208,-33.79062,-17.93885,-4.570632,-0.4675641,0.1400836,-35.15147,-8.521038,45.05199,0,0,0,114.0024,187.058,-50.72605,-10.65202,-111.0878,-35.1035,0.001067912,-0.1257102,0.09433498,0,0.3,0,0,0,0,,
6.38223E+17,43.44457,75.69862,105.2495,89.36532,-34.30334,-18.08535,-4.570632,-0.4675641,0.1400836,-35.15147,-8.521038,45.05199,0,0,0,111.1213,187.6415,-51.02547,-10.65202,-111.0878,-35.1035,0.001067912,-0.1257102,0.09433498,0,0.3,0,0,0,0,,
6.38223E+17,42.57285,76.56361,105.2495,89.58505,-34.8893,-18.23184,-4.570632,-0.4675641,0.1400836,-35.15147,-8.447793,45.05199,0,0,0,108.0012,188.124,-50.78778,-10.65202,-111.0878,-35.1035,0.001067912,-0.1257102,0.09433498,0,0.3,0,0,0,0,,
6.38223E+17,42.07809,76.91429,105.2495,89.87803,-35.25552,-18.30508,-4.570632,-0.4675641,0.1400836,-35.15147,-8.447793,45.12524,0,0,0,106.4497,188.3113,-50.44919,-10.65202,-111.0878,-35.1035,0.001067912,-0.1257102,0.09433498,0,0.3,0,0,0,0,,
6.38223E+17,41.01789,77.61563,105.2495,90.75697,-36.06122,-18.74455,-4.570632,-0.4675641,0.1400836,-35.22471,-8.447793,45.05199,0,0,0,103.205,188.6711,-49.70103,-10.65202,-111.0878,-35.1035,0.001067912,-0.1257102,0.09433498,0,0.3,0,0,0,0,,
6.38223E+17,39.91058,78.34035,105.2495,91.92889,-36.86692,-19.33051,-4.570632,-0.4675641,0.1400836,-35.22471,-8.447793,45.05199,0,0,0,99.83442,189.0224,-48.99414,-10.65202,-111.0878,-35.1035,0.001067912,-0.1257102,0.09433498,0,0.3,0,0,0,0,,
6.38223E+17,38.68546,79.0417,105.2495,93.24731,-37.74586,-20.20946,-4.570632,-0.4675641,0.1400836,-35.15147,-8.447793,45.05199,0,0,0,96.25924,189.3425,-48.13631,-10.65202,-111.0878,-35.1035,0.001067912,-0.1257102,0.09433498,0,0.3,0,0,0,0,,
6.38223E+17,37.34254,79.55603,105.2495,94.8587,-38.6248,-21.16164,-4.570632,-0.4675641,0.1400836,-35.15147,-8.447793,45.12524,0,0,0,92.70198,189.5648,-46.84849,-10.65202,-111.0878,-35.1035,0.001067912,-0.1257102,0.09433498,0,0.3,0,0,0,0,,
6.38223E+17,35.88182,80.00021,105.2495,96.54334,-39.72348,-22.5533,-4.570632,-0.4675641,0.1400836,-35.15147,-8.447793,45.05199,0,0,0,88.97829,189.7482,-45.34917,-10.65202,-111.0878,-35.1035,0.001067912,-0.1257102,0.09433498,0,0.3,0,0,0,0,,
6.38223E+17,34.53891,80.30412,105.2495,98.44772,-40.74891,-24.09145,-4.570632,-0.4675641,0.1400836,-35.15147,-8.447793,45.12524,0,0,0,85.67606,189.8692,-43.87172,-10.65202,-111.0878,-35.1035,0.001067912,-0.1257102,0.09433498,0,0.3,0,0,0,0,,
6.38223E+17,33.29023,80.51453,105.2495,100.4986,-41.62786,-25.77609,-4.570632,-0.4675641,0.1400836,-35.22471,-8.521038,45.12524,0,0,0,82.67808,189.9508,-42.43785,-10.65202,-111.0878,-35.1035,0.001067912,-0.1257102,0.09433498,0,0.3,0,0,0,0,,
6.38223E+17,31.71171,80.81844,105.2495,102.9889,-42.87302,-27.82695,-4.570632,-0.4675641,0.1400836,-35.22471,-8.447793,45.12524,0,0,0,78.81133,190.0655,-40.80188,-10.65202,-111.0878,-35.1035,0.001067912,-0.1257102,0.09433498,0,0.3,0,0,0,0,,
6.38223E+17,30.03895,81.28601,105.2261,105.9187,-43.9717,-30.1708,-4.570632,-0.4675641,0.1400836,-35.15147,-8.447793,45.05199,0,0,0,74.52353,190.1823,-39.47387,-10.65202,-111.0878,-35.1035,0.001067912,-0.1257102,0.09433498,0,0.3,0,0,0,0,,
6.38223E+17,28.15415,81.84708,105.086,110.2402,-44.99713,-33.32034,-4.570632,-0.4675641,0.1400836,-35.15147,-8.447793,45.12524,0,0,0,69.6752,190.0592,-38.15625,-10.65202,-111.0878,-35.1035,0.001067912,-0.1257102,0.09433498,0,0.3,0,0,0,0,,
6.38223E+17,26.43428,82.43155,104.7125,113.9757,-46.02256,-36.25014,-4.570632,-0.4675641,0.1400836,-35.15147,-8.447793,45.05199,0,0,0,65.23597,189.405,-37.13015,-10.65202,-111.0878,-35.1035,0.001067912,-0.1257102,0.09433498,0,0.3,0,0,0,0,,
6.38223E+17,25.56256,82.73546,104.479,116.5393,-46.60852,-37.86154,-4.570632,-0.4675641,0.1400836,-35.15147,-8.447793,45.05199,0,0,0,62.9885,188.9705,-36.66209,-10.65202,-111.0878,-35.1035,0.001067912,-0.1257102,0.09433498,0,0.3,0,0,0,0,,
6.38223E+17,24.26676,83.20303,103.7552,118.3704,-47.92694,-40.86459,-4.570632,-0.4675641,0.1400836,-35.15147,-8.447793,45.05199,0,0,0,59.71938,187.4701,-35.88138,-10.65202,-111.0878,-35.1035,0.001067912,-0.1257102,0.09433498,0,0.3,0,0,0,0,,
6.38223E+17,22.75892,83.74072,102.868,118.3704,-49.61158,-42.54923,-4.570632,-0.4675641,0.1400836,-35.22471,-8.521038,45.05199,0,0,0,55.9159,185.603,-35.06392,-10.65202,-111.0878,-35.1035,0.001067912,-0.1257102,0.09433498,0,0.3,0,0,0,0,,
6.38223E+17,22.16992,84.06802,102.4011,118.3704,-50.27078,-42.9887,-4.570632,-0.4675641,0.1400836,-35.15147,-8.521038,45.12524,0,0,0,54.34667,184.6234,-34.97746,-10.65202,-111.0878,-35.1035,0.001067912,-0.1257102,0.09433498,0,0.3,0,0,0,0,,
6.38223E+17,21.55737,84.46545,101.7941,118.3704,-51.14973,-43.20844,-4.570632,-0.4675641,0.1400836,-35.15147,-8.447793,45.12524,0,0,0,52.68831,183.3344,-34.98466,-10.65202,-111.0878,-35.1035,0.001067912,-0.1257102,0.09433498,0,0.3,0,0,0,0,,
6.38223E+17,21.1804,84.81612,101.2104,118.4436,-52.02867,-43.20844,-4.570632,-0.4675641,0.1400836,-35.15147,-8.521038,45.05199,0,0,0,51.61402,182.0795,-35.14601,-10.65202,-111.0878,-35.1035,0.001067912,-0.1257102,0.09433498,0,0.3,0,0,0,0,,
6.38223E+17,20.82701,85.26031,100.4166,118.4436,-52.90761,-43.20844,-4.570632,-0.4675641,0.1400836,-35.15147,-8.447793,45.05199,0,0,0,50.5485,180.3542,-35.46885,-10.65202,-111.0878,-35.1035,0.001067912,-0.1257102,0.09433498,0,0.3,0,0,0,0,,
6.38223E+17,20.63853,85.68111,99.73952,118.3704,-53.56682,-43.20844,-4.570632,-0.4675641,0.1400836,-35.15147,-8.447793,45.12524,0,0,0,49.86417,178.8801,-35.9589,-10.65202,-111.0878,-35.1035,0.001067912,-0.1257102,0.09433498,0,0.3,0,0,0,0,,
6.38223E+17,20.49717,85.96165,99.29593,118.4436,-53.93304,-43.20844,-4.570632,-0.4675641,0.1400836,-35.15147,-8.447793,45.12524,0,0,0,49.36914,177.9094,-36.28633,-10.65202,-111.0878,-35.1035,0.001067912,-0.1257102,0.09433498,0,0.3,0,0,0,0,,
6.38223E+17,20.12021,86.38246,98.50211,118.4436,-54.73874,-43.20844,-4.570632,-0.4675641,0.1400836,-35.15147,-8.521038,45.05199,0,0,0,48.26137,176.1496,-36.6136,-10.65202,-111.0878,-35.1035,0.001067912,-0.1257102,0.09433498,0,0.3,0,0,0,0,,
6.38223E+17,19.55477,86.70975,97.66161,118.3704,-55.69093,-43.20844,-4.570632,-0.4675641,0.1400836,-35.15147,-8.447793,45.12524,0,0,0,46.79651,174.2587,-36.60109,-10.65202,-111.0878,-35.1035,0.001067912,-0.1257102,0.09433498,0,0.3,0,0,0,0,,
6.38223E+17,18.96577,86.96691,96.86781,118.4436,-56.56987,-43.20844,-4.570632,-0.4675641,0.1400836,-35.15147,-8.447793,45.12524,0,0,0,45.32139,172.4591,-36.47122,-10.65202,-111.0878,-35.1035,0.001067912,-0.1257102,0.09433498,0,0.3,0,0,0,0,,
6.38223E+17,18.32965,87.13057,95.95726,118.3704,-57.44881,-42.9887,-4.570632,-0.4675641,0.1400836,-35.15147,-8.447793,45.05199,0,0,0,43.80928,170.3727,-36.11258,-10.65202,-111.0878,-35.1035,0.001067912,-0.1257102,0.09433498,0,0.3,0,0,0,0,,
6.38223E+17,17.71709,87.34097,94.95333,118.3704,-58.401,-42.54923,-4.570632,-0.4675641,0.1400836,-35.15147,-8.447793,45.12524,0,0,0,42.31178,168.0704,-35.9061,-10.65202,-111.0878,-35.1035,0.001067912,-0.1257102,0.09433498,0,0.3,0,0,0,0,,
6.38223E+17,16.93961,87.64488,93.64588,118.4436,-59.71941,-42.18301,-4.570632,-0.4675641,0.1400836,-35.15147,-8.447793,45.05199,0,0,0,40.3713,165.067,-35.80192,-10.65202,-111.0878,-35.1035,0.001067912,-0.1257102,0.09433498,0,0.3,0,0,0,0,,
