zeyangz2/DNN_classification_different_people_hand/data/frank_right_21.csv
Timestamp,Therapist joint angle 0,Therapist joint angle 1,Therapist joint angle 2,Therapist joint angle 3,Therapist joint angle 4,Therapist joint angle 5,Patient joint angle 0,Patient joint angle 1,Patient joint angle 2,Patient joint angle 3,Patient joint angle 4,Patient joint angle 5,Virtual joint angle 0,Virtual joint angle 1,Virtual joint angle 2,Therapist position x,Therapist position y,Therapist position z,Patient position x,Patient position y,Patient position z,Virtual position x,Virtual position y,Virtual position z,Assistive Force, Obstacle Force Magnitude, Therapist Constant Force, Patient Constant Force, Recovery Factor, Assistance Level,label
6.38224E+17,0,0,0,0,0,0,0,0,0,0,0,0,0,0,0,0,0,0,0,0,0,0,0,0,0,0.3,0,0,0,0,1
6.38224E+17,53.15127,-0.9818845,-7.471125,-104.4414,-8.374548,-75.58281,-16.98673,-0.4441859,-4.27255,-61.44649,-6.98289,34.57793,0,0,0,92.81882,-111.1531,-98.78946,-36.05464,-110.6632,-50.32285,0.001067912,-0.1257102,0.09433498,0,0.3,0,0,0,0,
6.38224E+17,53.15127,-0.9818845,-7.471125,-104.3682,-8.374548,-75.58281,-16.98673,-0.4441859,-4.27255,-61.51973,-6.98289,34.57793,0,0,0,92.81882,-111.1531,-98.78946,-36.05464,-110.6632,-50.32285,0.001067912,-0.1257102,0.09433498,0,0.3,0,0,0,0,
6.38224E+17,53.15127,-0.9818845,-7.471125,-104.4414,-8.374548,-75.58281,-16.98673,-0.4441859,-4.27255,-61.51973,-6.98289,34.57793,0,0,0,92.81882,-111.1531,-98.78946,-36.05464,-110.6632,-50.32285,0.001067912,-0.1257102,0.09433498,0,0.3,0,0,0,0,
6.38224E+17,53.15127,-0.9818845,-7.471125,-104.3682,-8.374548,-75.58281,-16.98673,-0.4441859,-4.27255,-61.51973,-6.98289,34.57793,0,0,0,92.81882,-111.1531,-98.78946,-36.05464,-110.6632,-50.32285,0.001067912,-0.1257102,0.09433498,0,0.3,0,0,0,0,
6.38224E+17,53.15127,-0.9818845,-7.471125,-104.3682,-8.374548,-75.58281,-16.98673,-0.4441859,-4.27255,-61.44649,-6.909645,34.57793,0,0,0,92.81882,-111.1531,-98.78946,-36.05464,-110.6632,-50.32285,0.001067912,-0.1257102,0.09433498,0,0.3,0,0,0,0,
6.38224E+17,53.15127,-0.9818845,-7.471125,-104.3682,-8.374548,-75.50956,-16.98673,-0.4441859,-4.27255,-61.51973,-6.98289,34.57793,0,0,0,92.81882,-111.1531,-98.78946,-36.05464,-110.6632,-50.32285,0.001067912,-0.1257102,0.09433498,0,0.3,0,0,0,0,
6.38224E+17,53.15127,-0.9818845,-7.471125,-104.4414,-8.374548,-75.58281,-16.98673,-0.4441859,-4.27255,-61.44649,-6.98289,34.57793,0,0,0,92.81882,-111.1531,-98.78946,-36.05464,-110.6632,-50.32285,0.001067912,-0.1257102,0.09433498,0,0.3,0,0,0,0,
6.38224E+17,53.15127,-0.9818845,-7.471125,-104.3682,-8.374548,-75.58281,-16.98673,-0.4441859,-4.27255,-61.51973,-6.98289,34.57793,0,0,0,92.81882,-111.1531,-98.78946,-36.05464,-110.6632,-50.32285,0.001067912,-0.1257102,0.09433498,0,0.3,0,0,0,0,
6.38224E+17,53.15127,-0.9818845,-7.471125,-104.3682,-8.374548,-75.58281,-16.98673,-0.4441859,-4.27255,-61.44649,-6.98289,34.57793,0,0,0,92.81882,-111.1531,-98.78946,-36.05464,-110.6632,-50.32285,0.001067912,-0.1257102,0.09433498,0,0.3,0,0,0,0,
6.38224E+17,53.15127,-0.9818845,-7.471125,-104.3682,-8.374548,-75.58281,-16.98673,-0.4441859,-4.27255,-61.51973,-6.98289,34.57793,0,0,0,92.81882,-111.1531,-98.78946,-36.05464,-110.6632,-50.32285,0.001067912,-0.1257102,0.09433498,0,0.3,0,0,0,0,
6.38224E+17,53.15127,-0.9818845,-7.471125,-104.3682,-8.374548,-75.58281,-16.98673,-0.4441859,-4.27255,-61.51973,-6.98289,34.57793,0,0,0,92.81882,-111.1531,-98.78946,-36.05464,-110.6632,-50.32285,0.001067912,-0.1257102,0.09433498,0,0.3,0,0,0,0,
6.38224E+17,53.15127,-0.9818845,-7.471125,-104.3682,-8.374548,-75.58281,-16.98673,-0.4441859,-4.27255,-61.44649,-6.98289,34.57793,0,0,0,92.81882,-111.1531,-98.78946,-36.05464,-110.6632,-50.32285,0.001067912,-0.1257102,0.09433498,0,0.3,0,0,0,0,
6.38224E+17,53.15127,-0.9818845,-7.471125,-104.3682,-8.374548,-75.58281,-16.98673,-0.4441859,-4.27255,-61.51973,-6.909645,34.57793,0,0,0,92.81882,-111.1531,-98.78946,-36.05464,-110.6632,-50.32285,0.001067912,-0.1257102,0.09433498,0,0.3,0,0,0,0,
6.38224E+17,53.15127,-0.9818845,-7.471125,-104.3682,-8.374548,-75.58281,-16.98673,-0.4441859,-4.27255,-61.44649,-6.98289,34.57793,0,0,0,92.81882,-111.1531,-98.78946,-36.05464,-110.6632,-50.32285,0.001067912,-0.1257102,0.09433498,0,0.3,0,0,0,0,
6.38224E+17,53.15127,-0.9818845,-7.471125,-104.3682,-8.374548,-75.58281,-16.98673,-0.4441859,-4.27255,-61.44649,-6.98289,34.57793,0,0,0,92.81882,-111.1531,-98.78946,-36.05464,-110.6632,-50.32285,0.001067912,-0.1257102,0.09433498,0,0.3,0,0,0,0,
6.38224E+17,53.15127,-0.9818845,-7.471125,-104.4414,-8.374548,-75.58281,-16.98673,-0.4441859,-4.27255,-61.44649,-6.98289,34.57793,0,0,0,92.81882,-111.1531,-98.78946,-36.05464,-110.6632,-50.32285,0.001067912,-0.1257102,0.09433498,0,0.3,0,0,0,0,
6.38224E+17,53.15127,-0.9818845,-7.471125,-104.3682,-8.374548,-75.50956,-16.98673,-0.4441859,-4.27255,-61.51973,-6.98289,34.57793,0,0,0,92.81882,-111.1531,-98.78946,-36.05464,-110.6632,-50.32285,0.001067912,-0.1257102,0.09433498,0,0.3,0,0,0,0,
6.38224E+17,53.15127,-0.9818845,-7.471125,-104.4414,-8.374548,-75.58281,-16.98673,-0.4441859,-4.27255,-61.44649,-6.98289,34.57793,0,0,0,92.81882,-111.1531,-98.78946,-36.05464,-110.6632,-50.32285,0.001067912,-0.1257102,0.09433498,0,0.3,0,0,0,0,
6.38224E+17,53.15127,-0.9818845,-7.471125,-104.3682,-8.374548,-75.58281,-16.98673,-0.4441859,-4.27255,-61.44649,-6.98289,34.57793,0,0,0,92.81882,-111.1531,-98.78946,-36.05464,-110.6632,-50.32285,0.001067912,-0.1257102,0.09433498,0,0.3,0,0,0,0,
6.38224E+17,53.15127,-0.9818845,-7.471125,-104.3682,-8.374548,-75.58281,-16.98673,-0.4441859,-4.27255,-61.44649,-6.909645,34.57793,0,0,0,92.81882,-111.1531,-98.78946,-36.05464,-110.6632,-50.32285,0.001067912,-0.1257102,0.09433498,0,0.3,0,0,0,0,
6.38224E+17,53.15127,-0.9818845,-7.471125,-104.4414,-8.374548,-75.58281,-16.98673,-0.4441859,-4.27255,-61.51973,-6.98289,34.57793,0,0,0,92.81882,-111.1531,-98.78946,-36.05464,-110.6632,-50.32285,0.001067912,-0.1257102,0.09433498,0,0.3,0,0,0,0,
6.38224E+17,53.15127,-0.9818845,-7.471125,-104.4414,-8.374548,-75.58281,-16.98673,-0.4441859,-4.27255,-61.44649,-6.98289,34.57793,0,0,0,92.81882,-111.1531,-98.78946,-36.05464,-110.6632,-50.32285,0.001067912,-0.1257102,0.09433498,0,0.3,0,0,0,0,
6.38224E+17,53.15127,-0.9818845,-7.471125,-104.4414,-8.374548,-75.58281,-16.98673,-0.4441859,-4.27255,-61.44649,-6.98289,34.57793,0,0,0,92.81882,-111.1531,-98.78946,-36.05464,-110.6632,-50.32285,0.001067912,-0.1257102,0.09433498,0,0.3,0,0,0,0,
6.38224E+17,53.00991,-1.005263,-7.681251,-104.3682,-8.374548,-75.50956,-16.98673,-0.4441859,-4.27255,-61.44649,-6.98289,34.57793,0,0,0,92.25895,-111.143,-98.85291,-36.05464,-110.6632,-50.32285,0.001067912,-0.1257102,0.09433498,0,0.3,0,0,8.68E-05,0,
6.38224E+17,51.59631,-0.9351282,-9.105433,-102.3905,-8.594284,-73.75167,-16.98673,-0.4441859,-4.27255,-61.44649,-6.98289,34.57793,0,0,0,87.94894,-110.4959,-98.63332,-36.05464,-110.6632,-50.32285,0.001067912,-0.1257102,0.09433498,0,0.3,0,0,0.001360015,0,
6.38224E+17,47.87384,-1.028641,-9.432296,-99.97345,-8.667529,-70.60213,-16.98673,-0.4441859,-4.27255,-61.44649,-6.98289,34.57793,0,0,0,82.67751,-110.591,-93.57655,-36.05464,-110.6632,-50.32285,0.001067912,-0.1257102,0.09433498,0,0.3,0,0,0.004244947,0,
6.38224E+17,45.42361,-0.9818845,-9.198823,-98.87477,-8.594284,-70.08942,-16.98673,-0.4441859,-4.27255,-61.44649,-6.98289,34.57793,0,0,0,79.78854,-110.5702,-89.73262,-36.05464,-110.6632,-50.32285,0.001067912,-0.1257102,0.09433498,0,0.3,0,0,0.006522573,0,
6.38224E+17,40.78229,-1.005263,-8.381668,-97.33662,-8.447793,-70.96836,-16.98673,-0.4441859,-4.27255,-61.51973,-6.98289,34.57793,0,0,0,74.39241,-110.9152,-82.11169,-36.05464,-110.6632,-50.32285,0.001067912,-0.1257102,0.09433498,0,0.3,0,0,0.01250666,0,
6.38224E+17,37.57814,-1.005263,-7.00418,-97.33662,-8.228058,-79.17181,-16.98673,-0.4441859,-4.27255,-61.51973,-6.98289,34.57793,0,0,0,71.39341,-111.3444,-75.57056,-36.05464,-110.6632,-50.32285,0.001067912,-0.1257102,0.09433498,0,0.3,0,0,0.01950256,0,
6.38224E+17,36.32946,-0.9818845,-6.420498,-97.84933,-7.935077,-83.34679,-16.98673,-0.4441859,-4.27255,-61.51973,-6.98289,34.57793,0,0,0,70.15445,-111.4487,-72.94913,-36.05464,-110.6632,-50.32285,0.001067912,-0.1257102,0.09433498,0,0.3,0,0,0.02319062,0,
6.38224E+17,34.1855,-0.9818845,-5.836816,-99.09451,-7.495606,-87.66826,-16.98673,-0.4441859,-4.27255,-61.44649,-6.98289,34.57793,0,0,0,67.29528,-111.5938,-69.27409,-36.05464,-110.6632,-50.32285,0.001067912,-0.1257102,0.09433498,0,0.3,0,0,0.03088835,0,
6.38224E+17,32.04155,-0.9818845,-4.389286,-99.53397,-7.12938,-89.05991,-16.98673,-0.4441859,-4.27255,-61.44649,-6.909645,34.57793,0,0,0,65.3219,-111.894,-63.98159,-36.05464,-110.6632,-50.32285,0.001067912,-0.1257102,0.09433498,0,0.3,0,0,0.03875853,0,
6.38224E+17,30.13319,-0.9351282,-3.525437,-98.87477,-6.763155,-88.32746,-16.98673,-0.4441859,-4.27255,-61.44649,-6.98289,34.57793,0,0,0,62.81791,-111.924,-60.12796,-36.05464,-110.6632,-50.32285,0.001067912,-0.1257102,0.09433498,0,0.3,0,0,0.04677244,0,
6.38224E+17,28.97875,-0.9117499,-3.151881,-98.80152,-6.616664,-85.91037,-16.98673,-0.4441859,-4.27255,-61.44649,-6.98289,34.57793,0,0,0,61.04569,-111.9202,-58.12428,-36.05464,-110.6632,-50.32285,0.001067912,-0.1257102,0.09433498,0,0.3,0,0,0.05093627,0,
6.38224E+17,26.66988,-0.8883717,-1.821087,-98.87477,-6.470173,-77.63367,-16.98673,-0.4441859,-4.27255,-61.51973,-6.98289,34.57793,0,0,0,57.94477,-112.0002,-52.98858,-36.05464,-110.6632,-50.32285,0.001067912,-0.1257102,0.09433498,0,0.3,0,0,0.05947681,0,
6.38224E+17,24.64372,-0.8883717,0.1167363,-98.65503,-5.810967,-63.64384,-16.98673,-0.4441859,-4.27255,-61.51973,-6.98289,34.57793,0,0,0,55.71015,-112.0672,-46.91338,-36.05464,-110.6632,-50.32285,0.001067912,-0.1257102,0.09433498,0,0.3,0,0,0.06803419,0,
6.38224E+17,23.79556,-0.8883717,0.8871961,-98.14231,-5.371496,-55.80661,-16.98673,-0.4441859,-4.27255,-61.51973,-6.98289,34.57793,0,0,0,54.62993,-112.0515,-44.46138,-36.05464,-110.6632,-50.32285,0.001067912,-0.1257102,0.09433498,0,0.3,0,0,0.07228241,0,
6.38224E+17,22.02856,-0.8883717,2.498158,-97.04363,-4.346064,-39.54618,-16.98673,-0.4441859,-4.27255,-61.44649,-6.98289,34.57793,0,0,0,52.18945,-111.9408,-39.36177,-36.05464,-110.6632,-50.32285,0.001067912,-0.1257102,0.09433498,0,0.3,0,0,0.08071723,0,
6.38224E+17,20.19089,-0.8883717,3.945688,-95.72523,-3.467122,-24.75066,-16.98673,-0.4441859,-4.27255,-61.51973,-6.98289,34.57793,0,0,0,49.18714,-111.7514,-34.59763,-36.05464,-110.6632,-50.32285,0.001067912,-0.1257102,0.09433498,0,0.3,0,0,0.08912517,0,
6.38224E+17,18.47101,-0.8883717,5.276482,-94.48006,-2.73467,-13.69064,-16.98673,-0.4441859,-4.27255,-61.44649,-6.98289,34.57793,0,0,0,46.12877,-111.5024,-30.25348,-36.05464,-110.6632,-50.32285,0.001067912,-0.1257102,0.09433498,0,0.3,0,0,0.09749438,0,
6.38224E+17,17.29301,-0.8883717,6.560582,-93.96734,-2.368444,-7.831022,-16.98673,-0.4441859,-4.27255,-61.51973,-6.98289,34.57793,0,0,0,44.16359,-111.1943,-26.49608,-36.05464,-110.6632,-50.32285,0.001067912,-0.1257102,0.09433498,0,0.3,0,0,0.1016454,0,
6.38224E+17,15.99721,-0.8883717,8.311626,-93.30813,-1.269767,0.07945653,-16.98673,-0.4441859,-4.27255,-61.44649,-6.98289,34.57793,0,0,0,42.05806,-110.6669,-21.64919,-36.05464,-110.6632,-50.32285,0.001067912,-0.1257102,0.09433498,0,0.3,0,0,0.1096819,0,
6.38224E+17,14.81922,-0.9117499,9.875894,-91.62349,0.6346079,12.09166,-16.98673,-0.4441859,-4.27255,-61.44649,-6.98289,34.57793,0,0,0,39.95245,-110.1459,-17.34114,-36.05464,-110.6632,-50.32285,0.001067912,-0.1257102,0.09433498,0,0.3,0,0,0.1173576,0,
6.38224E+17,14.3009,-0.9585064,10.34284,-89.93885,1.66004,20.07539,-16.98673,-0.4441859,-4.27255,-61.44649,-6.98289,34.57793,0,0,0,38.84859,-110.0639,-15.95088,-36.05464,-110.6632,-50.32285,0.001067912,-0.1257102,0.09433498,0,0.3,0,0,0.1210954,0,
6.38224E+17,13.66478,-0.9818845,10.31949,-84.07924,4.223621,44.53928,-16.98673,-0.4441859,-4.27255,-61.51973,-6.98289,34.57793,0,0,0,37.14139,-110.1281,-15.58181,-36.05464,-110.6632,-50.32285,0.001067912,-0.1257102,0.09433498,0,0.3,0,0,0.1284799,0,
6.38224E+17,13.75902,-0.9818845,9.642421,-75.21658,6.640712,83.06623,-16.98673,-0.4441859,-4.27255,-61.51973,-6.98289,34.57793,0,0,0,37.0235,-110.4012,-17.15053,-36.05464,-110.6632,-50.32285,0.001067912,-0.1257102,0.09433498,0,0.3,0,0,0.1356749,0,
6.38224E+17,13.75902,-0.9585064,10.29614,-66.79338,9.057802,111.9248,-16.98673,-0.4441859,-4.27255,-61.51973,-6.98289,34.57793,0,0,0,37.38012,-110.0834,-15.69414,-36.05464,-110.6632,-50.32285,0.001067912,-0.1257102,0.09433498,0,0.3,0,0,0.1424312,0,
6.38224E+17,13.49986,-0.9585064,11.30008,-63.35086,10.15648,118.5901,-16.98673,-0.4441859,-4.27255,-61.51973,-6.98289,34.57793,0,0,0,37.22503,-109.6457,-13.29489,-36.05464,-110.6632,-50.32285,0.001067912,-0.1257102,0.09433498,0,0.3,0,0,0.1455784,0,
6.38224E+17,12.62814,-0.8649935,13.96167,-59.02939,11.47489,126.8668,-16.98673,-0.4441859,-4.27255,-61.44649,-6.98289,34.57793,0,0,0,36.18388,-108.0736,-6.845222,-36.05464,-110.6632,-50.32285,0.001067912,-0.1257102,0.09433498,0,0.3,0,0,0.1513654,0,
6.38224E+17,12.55746,-0.8182371,15.26911,-56.68555,11.69463,131.994,-16.98673,-0.4441859,-4.27255,-61.44649,-6.98289,34.57793,0,0,0,36.62514,-107.197,-3.925165,-36.05464,-110.6632,-50.32285,0.001067912,-0.1257102,0.09433498,0,0.3,0,0,0.1565096,0,
6.38224E+17,12.74594,-0.8182371,15.4092,-55.29389,11.76787,134.1914,-16.98673,-0.4441859,-4.27255,-61.51973,-6.98289,34.57793,0,0,0,37.23521,-107.1107,-3.739868,-36.05464,-110.6632,-50.32285,0.001067912,-0.1257102,0.09433498,0,0.3,0,0,0.1589215,0,
6.38224E+17,12.95798,-0.7013461,15.50258,-52.43733,11.98761,136.9747,-16.98673,-0.4441859,-4.27255,-61.44649,-6.98289,34.57793,0,0,0,37.89192,-106.7808,-3.671121,-36.05464,-110.6632,-50.32285,0.001067912,-0.1257102,0.09433498,0,0.3,0,0,0.1635054,0,
6.38224E+17,12.7695,-0.2805384,16.97346,-48.92156,12.06085,140.8567,-16.98673,-0.4441859,-4.27255,-61.51973,-6.98289,34.57793,0,0,0,38.0783,-104.8442,-0.3338037,-36.05464,-110.6632,-50.32285,0.001067912,-0.1257102,0.09433498,0,0.3,0,0,0.1676467,0,
6.38224E+17,11.99202,0.2571602,19.12141,-46.50447,11.40165,144.8852,-16.98673,-0.4441859,-4.27255,-61.44649,-6.98289,34.57793,0,0,0,36.78254,-102.0441,4.816837,-36.05464,-110.6632,-50.32285,0.001067912,-0.1257102,0.09433498,0,0.3,0,0,0.1712493,0,
6.38224E+17,11.45014,0.4909423,20.24208,-45.77202,11.03542,144.8119,-16.98673,-0.4441859,-4.27255,-61.44649,-6.98289,34.57793,0,0,0,35.62999,-100.6216,7.560426,-36.05464,-110.6632,-50.32285,0.001067912,-0.1257102,0.09433498,0,0.3,0,0,0.1728873,0,
6.38224E+17,10.15434,0.7481025,22.48342,-44.96632,10.22972,144.8852,-16.98673,-0.4441859,-4.27255,-61.51973,-6.909645,34.57793,0,0,0,32.49813,-98.12302,13.09648,-36.05464,-110.6632,-50.32285,0.001067912,-0.1257102,0.09433498,0,0.3,0,0,0.1758824,0,
6.38224E+17,8.599386,1.028641,25.12166,-44.89308,9.424027,144.8119,-16.98673,-0.4441859,-4.27255,-61.51973,-6.98289,34.57793,0,0,0,28.4009,-94.99228,19.45582,-36.05464,-110.6632,-50.32285,0.001067912,-0.1257102,0.09433498,0,0.3,0,0,0.1784879,0,
6.38224E+17,6.33763,1.636474,28.97396,-45.99176,8.325351,144.8852,-16.98673,-0.4441859,-4.27255,-61.51973,-6.98289,34.57793,0,0,0,21.84472,-89.5017,28.33257,-36.05464,-110.6632,-50.32285,0.001067912,-0.1257102,0.09433498,0,0.3,0,0,0.1805333,0,
6.38224E+17,5.088952,2.244308,31.21529,-47.09043,7.666144,144.8852,-16.98673,-0.4441859,-4.27255,-61.51973,-6.98289,34.50468,0,0,0,17.94952,-85.47232,33.2094,-36.05464,-110.6632,-50.32285,0.001067912,-0.1257102,0.09433498,0,0.3,0,0,0.1820987,0,
6.38224E+17,4.287913,2.73525,32.82626,-47.89613,7.226673,144.8119,-16.98673,-0.4441859,-4.27255,-61.44649,-6.909645,34.57793,0,0,0,15.36387,-82.34285,36.56105,-36.05464,-110.6632,-50.32285,0.001067912,-0.1257102,0.09433498,0,0.3,0,0,0.1826405,0,
6.38224E+17,2.850755,4.091186,36.21161,-49.43428,6.274486,144.8119,-16.98673,-0.4441859,-4.27255,-61.44649,-6.98289,34.57793,0,0,0,10.53324,-74.72848,43.17717,-36.05464,-110.6632,-50.32285,0.001067912,-0.1257102,0.09433498,0,0.3,0,0,0.1831173,0,
6.38224E+17,1.390038,6.054955,39.45688,-51.11892,5.029318,144.9584,-16.98673,-0.4441859,-4.27255,-61.44649,-6.98289,34.57793,0,0,0,5.272544,-65.54388,48.93567,-36.05464,-110.6632,-50.32285,0.001067912,-0.1257102,0.09433498,0,0.3,0,0,0.1827738,0,
6.38224E+17,0.1413598,8.509666,42.81889,-52.8768,3.857395,144.9584,-16.98673,-0.4441859,-4.27255,-61.51973,-6.98289,34.57793,0,0,0,0.5489936,-54.73037,54.167,-36.05464,-110.6632,-50.32285,0.001067912,-0.1257102,0.09433498,0,0.3,0,0,0.1815152,0,
6.38224E+17,-0.2827196,9.701954,44.33646,-53.60925,3.198189,144.8119,-16.98673,-0.4441859,-4.27255,-61.44649,-6.98289,34.57793,0,0,0,-1.108442,-49.55581,56.28444,-36.05464,-110.6632,-50.32285,0.001067912,-0.1257102,0.09433498,0,0.3,0,0,0.18053,0,
6.38224E+17,-0.9895183,12.13329,47.25487,-54.85442,1.66004,144.8852,-16.98673,-0.4441859,-4.27255,-61.51973,-6.98289,34.57793,0,0,0,-3.942638,-39.13138,59.91668,-36.05464,-110.6632,-50.32285,0.001067912,-0.1257102,0.09433498,0,0.3,0,0,0.1778868,0,
6.38224E+17,-1.295798,14.65813,49.77637,-55.00091,0.1218917,144.9584,-16.98673,-0.4441859,-4.27255,-61.51973,-6.98289,34.57793,0,0,0,-5.219914,-29.01942,62.41751,-36.05464,-110.6632,-50.32285,0.001067912,-0.1257102,0.09433498,0,0.3,0,0,0.1744124,0,
6.38224E+17,-1.390038,16.76217,51.55077,-54.26846,-0.9767859,144.8119,-16.98673,-0.4441859,-4.27255,-61.44649,-6.98289,34.57793,0,0,0,-5.630807,-21.11174,63.69997,-36.05464,-110.6632,-50.32285,0.001067912,-0.1257102,0.09433498,0,0.3,0,0,0.1722542,0,
6.38224E+17,-1.554958,18.93634,53.18507,-53.38951,-2.148709,144.9584,-16.98673,-0.4441859,-4.27255,-61.44649,-6.98289,34.57793,0,0,0,-6.319649,-13.28321,64.45401,-36.05464,-110.6632,-50.32285,0.001067912,-0.1257102,0.09433498,0,0.3,0,0,0.1676113,0,
6.38224E+17,-1.743437,22.20929,55.56649,-52.51057,-4.053083,144.9584,-16.98673,-0.4441859,-4.27255,-61.44649,-6.909645,34.57793,0,0,0,-7.102229,-1.647591,64.98341,-36.05464,-110.6632,-50.32285,0.001067912,-0.1257102,0.09433498,0,0.3,0,0,0.1622043,0,
6.38224E+17,-1.743437,24.05617,56.7572,-52.29084,-5.225006,144.9584,-16.98673,-0.4441859,-4.27255,-61.44649,-6.98289,34.57793,0,0,0,-7.097803,4.606853,64.83801,-36.05464,-110.6632,-50.32285,0.001067912,-0.1257102,0.09433498,0,0.3,0,0,0.1591948,0,
6.38224E+17,-1.554958,29.50329,60.02582,-52.65706,-9.473226,144.8852,-16.98673,-0.4441859,-4.27255,-61.51973,-6.98289,34.57793,0,0,0,-6.283909,22.3984,63.13741,-36.05464,-110.6632,-50.32285,0.001067912,-0.1257102,0.09433498,0,0.3,0,0,0.1490512,0,
6.38224E+17,-1.507838,31.09301,61.19318,-53.16978,-10.93813,144.8852,-16.98673,-0.4441859,-4.27255,-61.51973,-6.98289,34.57793,0,0,0,-6.079501,27.96003,62.60947,-36.05464,-110.6632,-50.32285,0.001067912,-0.1257102,0.09433498,0,0.3,0,0,0.1453249,0,
6.38224E+17,-1.060198,34.6465,62.96758,-54.92767,-13.72145,144.8119,-16.98673,-0.4441859,-4.27255,-61.44649,-6.98289,34.57793,0,0,0,-4.227637,38.55415,60.09607,-36.05464,-110.6632,-50.32285,0.001067912,-0.1257102,0.09433498,0,0.3,0,0,0.137438,0,
6.38224E+17,0.1177998,38.87795,63.5746,-56.90528,-16.94423,144.8119,-16.98673,-0.4441859,-4.27255,-61.44649,-6.98289,34.57793,0,0,0,0.4589548,47.7039,54.87734,-36.05464,-110.6632,-50.32285,0.001067912,-0.1257102,0.09433498,0,0.3,0,0,0.1291415,0,
6.38224E+17,0.8245987,40.88848,63.55126,-57.49125,-18.48238,144.7387,-16.98673,-0.4441859,-4.27255,-61.44649,-6.98289,34.57793,0,0,0,3.169048,51.24572,51.83049,-36.05464,-110.6632,-50.32285,0.001067912,-0.1257102,0.09433498,0,0.3,0,0,0.1249227,0,
6.38224E+17,2.615156,45.2602,63.41117,-58.22369,-21.55868,144.8119,-16.98673,-0.4441859,-4.27255,-61.51973,-6.98289,34.57793,0,0,0,9.723647,58.38451,44.53866,-36.05464,-110.6632,-50.32285,0.001067912,-0.1257102,0.09433498,0,0.3,0,0,0.1162901,0,
6.38224E+17,4.759112,49.14098,63.15435,-58.00396,-24.63498,144.9584,-16.98673,-0.4441859,-4.27255,-61.51973,-6.98289,34.57793,0,0,0,17.10906,63.98616,37.15498,-36.05464,-110.6632,-50.32285,0.001067912,-0.1257102,0.09433498,0,0.3,0,0,0.1076285,0,
6.38224E+17,6.172709,51.12813,63.10766,-57.5645,-26.31961,144.8852,-16.98673,-0.4441859,-4.27255,-61.51973,-6.98289,34.57793,0,0,0,21.78658,66.85355,33.09246,-36.05464,-110.6632,-50.32285,0.001067912,-0.1257102,0.09433498,0,0.3,0,0,0.1032373,0,
6.38224E+17,9.070585,54.63486,63.03762,-55.9531,-29.5424,144.8119,-16.98673,-0.4441859,-4.27255,-61.51973,-6.98289,34.57793,0,0,0,30.90536,71.63266,25.23498,-36.05464,-110.6632,-50.32285,0.001067912,-0.1257102,0.09433498,0,0.3,0,0,0.0943391,0,
6.38224E+17,12.15694,57.86105,62.36055,-52.8768,-32.83843,144.8852,-16.98673,-0.4441859,-4.27255,-61.44649,-6.98289,34.57793,0,0,0,39.81659,74.40363,16.48142,-36.05464,-110.6632,-50.32285,0.001067912,-0.1257102,0.09433498,0,0.3,0,0,0.08538513,0,
6.38224E+17,15.03126,60.19888,61.0531,-48.26236,-35.03579,144.8852,-16.98673,-0.4441859,-4.27255,-61.51973,-6.98289,34.57793,0,0,0,47.45101,74.52397,8.353946,-36.05464,-110.6632,-50.32285,0.001067912,-0.1257102,0.09433498,0,0.3,0,0,0.07658288,0,
6.38224E+17,16.46841,61.11063,60.28264,-45.40579,-35.84149,144.9584,-16.98673,-0.4441859,-4.27255,-61.44649,-6.98289,34.57793,0,0,0,51.09452,74.00063,4.492075,-36.05464,-110.6632,-50.32285,0.001067912,-0.1257102,0.09433498,0,0.3,0,0,0.07227216,0,
6.38224E+17,19.74325,62.53669,58.06465,-38.4475,-36.72043,144.8119,-16.98673,-0.4441859,-4.27255,-61.51973,-6.98289,34.57793,0,0,0,59.00294,71.13522,-3.952263,-36.05464,-110.6632,-50.32285,0.001067912,-0.1257102,0.09433498,0,0.3,0,0,0.0639024,0,
6.38224E+17,23.01808,63.00426,54.70264,-29.95106,-36.42745,144.226,-16.98673,-0.4441859,-4.27255,-61.44649,-6.98289,34.57793,0,0,0,66.22588,65.11793,-12.46838,-36.05464,-110.6632,-50.32285,0.001067912,-0.1257102,0.09433498,0,0.3,0,0,0.05603787,0,
6.38224E+17,26.03376,62.56007,50.57018,-21.45462,-34.15685,140.9299,-16.98673,-0.4441859,-4.27255,-61.44649,-6.98289,34.57793,0,0,0,72.17724,57.00245,-20.58574,-36.05464,-110.6632,-50.32285,0.001067912,-0.1257102,0.09433498,0,0.3,0,0,0.04887464,0,
6.38224E+17,28.74315,60.97035,46.43771,-13.61739,-30.05512,139.5383,-16.98673,-0.4441859,-4.27255,-61.51973,-6.98289,34.57793,0,0,0,77.58511,48.04988,-26.89092,-36.05464,-110.6632,-50.32285,0.001067912,-0.1257102,0.09433498,0,0.3,0,0,0.04240049,0,
6.38224E+17,30.58083,58.16497,42.70215,-7.757777,-25.14769,139.3918,-16.98673,-0.4441859,-4.27255,-61.51973,-6.98289,34.57793,0,0,0,81.79488,38.64274,-29.93674,-36.05464,-110.6632,-50.32285,0.001067912,-0.1257102,0.09433498,0,0.3,0,0,0.0365863,0,
6.38224E+17,31.99443,54.12054,38.63972,-3.656047,-18.92185,139.465,-16.98673,-0.4441859,-4.27255,-61.44649,-6.909645,34.57793,0,0,0,85.52657,27.23903,-31.44924,-36.05464,-110.6632,-50.32285,0.001067912,-0.1257102,0.09433498,0,0.3,0,0,0.03149577,0,
6.38224E+17,32.93682,50.7307,35.69797,-1.605182,-13.42846,139.6848,-16.98673,-0.4441859,-4.27255,-61.44649,-6.98289,34.57793,0,0,0,88.19987,18.29274,-32.2057,-36.05464,-110.6632,-50.32285,0.001067912,-0.1257102,0.09433498,0,0.3,0,0,0.02703151,0,
6.38224E+17,33.43158,48.60329,34.36718,-0.7262403,-10.13243,139.9045,-16.98673,-0.4441859,-4.27255,-61.44649,-6.98289,34.57793,0,0,0,90.05432,13.31034,-31.93914,-36.05464,-110.6632,-50.32285,0.001067912,-0.1257102,0.09433498,0,0.3,0,0,0.0250039,0,
6.38224E+17,34.13838,44.25494,32.61613,0.738663,-3.979838,143.1273,-16.98673,-0.4441859,-4.27255,-61.51973,-6.98289,34.57793,0,0,0,93.93682,4.087794,-29.80591,-36.05464,-110.6632,-50.32285,0.001067912,-0.1257102,0.09433498,0,0.3,0,0,0.02124502,0,
6.38224E+17,34.32687,40.37416,31.47211,1.54436,1.586795,143.8597,-16.98673,-0.4441859,-4.27255,-61.51973,-6.98289,34.57793,0,0,0,96.54756,-4.002488,-26.95901,-36.05464,-110.6632,-50.32285,0.001067912,-0.1257102,0.09433498,0,0.3,0,0,0.01785418,0,
6.38224E+17,34.53891,38.45715,31.42542,1.837341,4.882828,144.0795,-16.98673,-0.4441859,-4.27255,-61.44649,-6.98289,34.57793,0,0,0,98.62367,-7.50592,-25.06019,-36.05464,-110.6632,-50.32285,0.001067912,-0.1257102,0.09433498,0,0.3,0,0,0.0162273,0,
6.38224E+17,34.98654,36.32973,31.82232,2.276812,8.691576,144.8119,-16.98673,-0.4441859,-4.27255,-61.51973,-6.98289,34.57793,0,0,0,101.9151,-10.9551,-22.7273,-36.05464,-110.6632,-50.32285,0.001067912,-0.1257102,0.09433498,0,0.3,0,0,0.01297732,0,
6.38224E+17,35.90538,35.09068,32.38266,3.521979,11.54814,144.9584,-16.98673,-0.4441859,-4.27255,-61.51973,-6.98289,34.50468,0,0,0,105.8722,-12.60354,-22.12219,-36.05464,-110.6632,-50.32285,0.001067912,-0.1257102,0.09433498,0,0.3,0,0,0.009638239,0,
6.38224E+17,36.44726,34.74001,32.96634,4.547412,12.50033,144.8119,-16.98673,-0.4441859,-4.27255,-61.44649,-6.98289,34.57793,0,0,0,108.2073,-12.53941,-21.83442,-36.05464,-110.6632,-50.32285,0.001067912,-0.1257102,0.09433498,0,0.3,0,0,0.007880371,0,
6.38224E+17,37.93154,34.41272,35.34776,7.91669,13.45251,144.9584,-16.98673,-0.4441859,-4.27255,-61.44649,-6.98289,34.57793,0,0,0,115.051,-10.05491,-20.72819,-36.05464,-110.6632,-50.32285,0.001067912,-0.1257102,0.09433498,0,0.3,0,0,0.004013328,0,
6.38224E+17,39.53362,34.41272,38.14943,11.43246,13.15953,144.8852,-16.98673,-0.4441859,-4.27255,-61.51973,-6.98289,34.57793,0,0,0,122.4586,-6.153992,-19.97329,-36.05464,-110.6632,-50.32285,0.001067912,-0.1257102,0.09433498,0,0.3,0,0,0,0,
6.38224E+17,41.46553,34.43609,42.11847,16.63286,12.50033,144.8119,-16.98673,-0.4441859,-4.27255,-61.44649,-6.98289,34.57793,0,0,0,132.0463,-0.1560109,-18.91777,-36.05464,-110.6632,-50.32285,0.001067912,-0.1257102,0.09433498,0,0.3,0,0,0,0,
6.38224E+17,42.33725,34.48285,44.33646,19.70916,12.06085,144.8119,-16.98673,-0.4441859,-4.27255,-61.51973,-6.98289,34.57793,0,0,0,136.7961,3.469027,-18.20931,-36.05464,-110.6632,-50.32285,0.001067912,-0.1257102,0.09433498,0,0.3,0,0,0,0,
6.38224E+17,43.63305,34.6465,48.46893,26.37447,11.03542,144.8852,-16.98673,-0.4441859,-4.27255,-61.51973,-6.98289,34.57793,0,0,0,144.5828,10.74648,-16.69832,-36.05464,-110.6632,-50.32285,0.001067912,-0.1257102,0.09433498,0,0.3,0,0,0,0,
6.38224E+17,44.31629,35.23095,52.64809,32.96654,9.8635,144.8119,-16.98673,-0.4441859,-4.27255,-61.51973,-6.98289,34.57793,0,0,0,150.1526,19.37147,-14.57037,-36.05464,-110.6632,-50.32285,0.001067912,-0.1257102,0.09433498,0,0.3,0,0,0,0,
6.38224E+17,44.24561,36.1427,55.37971,38.38668,8.838067,144.7387,-16.98673,-0.4441859,-4.27255,-61.44649,-6.98289,34.57793,0,0,0,151.7053,26.23879,-12.59622,-36.05464,-110.6632,-50.32285,0.001067912,-0.1257102,0.09433498,0,0.3,0,0,0,0,
6.38224E+17,43.65661,37.66228,57.62106,43.29411,7.739389,144.8852,-16.98673,-0.4441859,-4.27255,-61.44649,-6.98289,34.57793,0,0,0,150.6177,33.41653,-10.49842,-36.05464,-110.6632,-50.32285,0.001067912,-0.1257102,0.09433498,0,0.3,0,0,0,0,
6.38224E+17,43.18541,38.73769,58.53159,45.63795,7.006938,144.8852,-16.98673,-0.4441859,-4.27255,-61.51973,-6.98289,34.57793,0,0,0,149.0221,37.18206,-9.576568,-36.05464,-110.6632,-50.32285,0.001067912,-0.1257102,0.09433498,0,0.3,0,0,0,0,
6.38224E+17,42.03097,41.14564,59.769,49.95942,5.322299,144.8119,-16.98673,-0.4441859,-4.27255,-61.44649,-6.98289,34.57793,0,0,0,144.3729,43.95095,-8.181795,-36.05464,-110.6632,-50.32285,0.001067912,-0.1257102,0.09433498,0,0.3,0,0,0,0,
6.38224E+17,40.61737,43.64711,60.04917,53.84141,3.124943,144.8119,-16.98673,-0.4441859,-4.27255,-61.44649,-6.98289,34.57793,0,0,0,138.0353,48.81425,-7.400255,-36.05464,-110.6632,-50.32285,0.001067912,-0.1257102,0.09433498,0,0.3,0,0,0,0,
6.38224E+17,39.88701,44.76926,59.97913,55.30631,1.953021,144.8852,-16.98673,-0.4441859,-4.27255,-61.51973,-6.98289,34.57793,0,0,0,134.7525,50.54512,-7.113624,-36.05464,-110.6632,-50.32285,0.001067912,-0.1257102,0.09433498,0,0.3,0,0,0,0,
6.38224E+17,38.21426,46.82654,59.83904,58.16287,-0.9035407,144.8852,-16.98673,-0.4441859,-4.27255,-61.44649,-6.98289,34.57793,0,0,0,127.764,53.60108,-6.074013,-36.05464,-110.6632,-50.32285,0.001067912,-0.1257102,0.09433498,0,0.3,0,0,0,0,
6.38224E+17,36.51794,48.34613,59.51218,60.65321,-4.053083,144.8852,-16.98673,-0.4441859,-4.27255,-61.44649,-6.98289,34.57793,0,0,0,121.122,55.32977,-4.770149,-36.05464,-110.6632,-50.32285,0.001067912,-0.1257102,0.09433498,0,0.3,0,0,0,0,
6.38224E+17,34.75095,49.35139,58.9285,62.41109,-7.056135,144.9584,-16.98673,-0.4441859,-4.27255,-61.51973,-6.98289,34.57793,0,0,0,114.62,55.70224,-3.131768,-36.05464,-110.6632,-50.32285,0.001067912,-0.1257102,0.09433498,0,0.3,0,0,0,0,
6.38224E+17,33.71431,49.81895,58.43821,62.99706,-8.667529,144.9584,-16.98673,-0.4441859,-4.27255,-61.44649,-6.98289,34.57793,0,0,0,110.8231,55.4329,-2.267669,-36.05464,-110.6632,-50.32285,0.001067912,-0.1257102,0.09433498,0,0.3,0,0,0,0,
6.38224E+17,31.73527,50.59044,57.6444,63.43653,-11.74383,144.8852,-16.98673,-0.4441859,-4.27255,-61.51973,-6.98289,34.57793,0,0,0,103.7815,55.01465,-0.5445757,-36.05464,-110.6632,-50.32285,0.001067912,-0.1257102,0.09433498,0,0.3,0,0,0,0,
6.38224E+17,28.97875,51.17488,56.89729,63.43653,-16.21178,144.8119,-16.98673,-0.4441859,-4.27255,-61.44649,-6.98289,34.57793,0,0,0,94.62457,54.4101,2.506644,-36.05464,-110.6632,-50.32285,0.001067912,-0.1257102,0.09433498,0,0.3,0,0,0,0,
6.38224E+17,27.04683,51.2684,56.12683,62.99706,-19.06834,144.8119,-16.98673,-0.4441859,-4.27255,-61.44649,-6.98289,34.57793,0,0,0,88.28384,53.05091,4.567204,-36.05464,-110.6632,-50.32285,0.001067912,-0.1257102,0.09433498,0,0.3,0,0,0,0,
6.38224E+17,25.91596,51.2684,55.49645,62.26461,-20.67974,144.8119,-16.98673,-0.4441859,-4.27255,-61.44649,-6.98289,34.57793,0,0,0,84.49359,51.83731,5.53442,-36.05464,-110.6632,-50.32285,0.001067912,-0.1257102,0.09433498,0,0.3,0,0,0,0,
6.38224E+17,23.46572,51.19827,54.02557,59.84751,-24.26875,144.8852,-16.98673,-0.4441859,-4.27255,-61.51973,-6.98289,34.57793,0,0,0,76.24667,48.93918,7.292619,-36.05464,-110.6632,-50.32285,0.001067912,-0.1257102,0.09433498,0,0.3,0,0,0,0,
6.38224E+17,21.15685,50.96449,52.5547,56.33175,-27.63803,144.8119,-16.98673,-0.4441859,-4.27255,-61.44649,-6.98289,34.57793,0,0,0,68.52297,45.85307,8.708195,-36.05464,-110.6632,-50.32285,0.001067912,-0.1257102,0.09433498,0,0.3,0,0,0,0,
6.38224E+17,20.07309,50.75408,51.85428,54.35413,-29.02968,144.9584,-16.98673,-0.4441859,-4.27255,-61.51973,-6.98289,34.57793,0,0,0,64.9493,44.25581,9.390962,-36.05464,-110.6632,-50.32285,0.001067912,-0.1257102,0.09433498,0,0.3,0,0,0,0,
6.38224E+17,17.88201,50.28652,50.71026,49.51994,-31.73976,144.8852,-16.98673,-0.4441859,-4.27255,-61.44649,-6.98289,34.57793,0,0,0,57.85293,41.48652,10.9586,-36.05464,-110.6632,-50.32285,0.001067912,-0.1257102,0.09433498,0,0.3,0,0,0,0,
6.38224E+17,16.04433,49.91246,49.9865,44.39278,-33.86386,144.8119,-16.98673,-0.4441859,-4.27255,-61.44649,-6.909645,34.57793,0,0,0,51.96061,39.63115,12.33043,-36.05464,-110.6632,-50.32285,0.001067912,-0.1257102,0.09433498,0,0.3,0,0,0,0,
6.38224E+17,14.23022,49.53841,49.35612,39.70509,-35.695,144.8119,-16.98673,-0.4441859,-4.27255,-61.51973,-6.98289,34.57793,0,0,0,46.14463,37.94992,13.60826,-36.05464,-110.6632,-50.32285,0.001067912,-0.1257102,0.09433498,0,0.3,0,0,0,0,
6.38224E+17,13.14646,49.28125,48.88918,36.33582,-36.79367,144.9584,-16.98673,-0.4441859,-4.27255,-61.44649,-6.909645,34.57793,0,0,0,42.63643,36.73878,14.19849,-36.05464,-110.6632,-50.32285,0.001067912,-0.1257102,0.09433498,0,0.3,0,0,0,0,
6.38224E+17,12.10982,48.9072,48.35219,32.45382,-37.59937,144.9584,-16.98673,-0.4441859,-4.27255,-61.51973,-6.98289,34.57793,0,0,0,39.29154,35.23095,14.77554,-36.05464,-110.6632,-50.32285,0.001067912,-0.1257102,0.09433498,0,0.3,0,0,0,0,
6.38224E+17,10.62554,48.32275,47.83855,28.05911,-38.11209,144.8852,-16.98673,-0.4441859,-4.27255,-61.51973,-6.909645,34.57793,0,0,0,34.57589,33.44195,15.95019,-36.05464,-110.6632,-50.32285,0.001067912,-0.1257102,0.09433498,0,0.3,0,0,0,0,
6.38224E+17,9.706704,48.04221,47.60507,25.71527,-38.18533,144.9584,-16.98673,-0.4441859,-4.27255,-61.44649,-6.98289,34.57793,0,0,0,31.6364,32.60456,16.60027,-36.05464,-110.6632,-50.32285,0.001067912,-0.1257102,0.09433498,0,0.3,0,0,0,0,
6.38224E+17,7.020868,47.69153,47.32491,18.17101,-38.33182,145.0316,-16.98673,-0.4441859,-4.27255,-61.51973,-6.98289,34.57793,0,0,0,22.95507,31.57656,18.04277,-36.05464,-110.6632,-50.32285,0.001067912,-0.1257102,0.09433498,0,0.3,0,0,0,0,
6.38224E+17,6.12559,47.64478,47.32491,15.68068,-38.25858,144.8852,-16.98673,-0.4441859,-4.27255,-61.51973,-6.98289,34.57793,0,0,0,20.04848,31.50328,18.45867,-36.05464,-110.6632,-50.32285,0.001067912,-0.1257102,0.09433498,0,0.3,0,0,0,0,
6.38224E+17,4.240793,47.57465,47.51169,9.894309,-37.89235,144.8852,-16.98673,-0.4441859,-4.27255,-61.44649,-6.98289,34.57793,0,0,0,13.92416,31.71332,19.43056,-36.05464,-110.6632,-50.32285,0.001067912,-0.1257102,0.09433498,0,0.3,0,0,0,0,
6.38224E+17,2.544476,47.6214,48.37553,3.595225,-37.30639,144.8852,-16.98673,-0.4441859,-4.27255,-61.51973,-6.98289,34.57793,0,0,0,8.415606,33.27946,21.0256,-36.05464,-110.6632,-50.32285,0.001067912,-0.1257102,0.09433498,0,0.3,0,0,0,0,
6.38224E+17,1.884797,47.59802,48.81913,1.251379,-37.08665,143.5667,-16.98673,-0.4441859,-4.27255,-61.44649,-6.98289,34.57793,0,0,0,6.258485,34.01719,21.83253,-36.05464,-110.6632,-50.32285,0.001067912,-0.1257102,0.09433498,0,0.3,0,0,0,0,
6.38224E+17,0.5183191,47.59802,49.86976,-3.875783,-36.57394,130.3826,-16.98673,-0.4441859,-4.27255,-61.51973,-6.909645,34.57793,0,0,0,1.735782,35.8722,23.52069,-36.05464,-110.6632,-50.32285,0.001067912,-0.1257102,0.09433498,0,0.3,0,0,0,0,
6.38224E+17,0.07067989,47.24735,49.00591,-7.684532,-35.47526,109.7275,-16.98673,-0.4441859,-4.27255,-61.51973,-6.98289,34.57793,0,0,0,0.2358293,33.79263,22.82201,-36.05464,-110.6632,-50.32285,0.001067912,-0.1257102,0.09433498,0,0.3,0,0,0,0,
6.38224E+17,0.02355996,47.01357,48.77244,-8.856454,-34.37658,103.1354,-16.98673,-0.4441859,-4.27255,-61.44649,-6.98289,34.57793,0,0,0,0.07862684,33.01305,22.86363,-36.05464,-110.6632,-50.32285,0.001067912,-0.1257102,0.09433498,0,0.3,0,0,0,0,
6.38224E+17,-0.3062795,47.0837,50.45344,-9.66215,-31.88625,97.34904,-16.98673,-0.4441859,-4.27255,-61.51973,-6.98289,34.57793,0,0,0,-1.035056,36.10415,25.27632,-36.05464,-110.6632,-50.32285,0.001067912,-0.1257102,0.09433498,0,0.3,0,0,0,0,
6.38224E+17,-1.460718,48.39288,52.99829,-11.27355,-31.37353,96.03063,-16.98673,-0.4441859,-4.27255,-61.44649,-6.98289,34.57793,0,0,0,-4.971942,42.80267,26.62922,-36.05464,-110.6632,-50.32285,0.001067912,-0.1257102,0.09433498,0,0.3,0,0,0,0,
6.38224E+17,-2.568036,49.25787,54.07227,-15.15554,-31.37353,95.59116,-16.98673,-0.4441859,-4.27255,-61.51973,-6.98289,34.57793,0,0,0,-8.73768,46.13822,26.46697,-36.05464,-110.6632,-50.32285,0.001067912,-0.1257102,0.09433498,0,0.3,0,0,0,0,
6.38224E+17,-2.897875,49.49166,54.30574,-17.49938,-30.93406,95.37142,-16.98673,-0.4441859,-4.27255,-61.44649,-6.98289,34.57793,0,0,0,-9.854245,46.93315,26.31854,-36.05464,-110.6632,-50.32285,0.001067912,-0.1257102,0.09433498,0,0.3,0,0,0,0,
6.38224E+17,-3.180595,49.72544,54.93612,-22.11383,-29.24942,94.41924,-16.98673,-0.4441859,-4.27255,-61.44649,-6.98289,34.57793,0,0,0,-10.83883,48.48194,26.70191,-36.05464,-110.6632,-50.32285,0.001067912,-0.1257102,0.09433498,0,0.3,0,0,0,0,
6.38224E+17,-3.274835,50.42678,56.05679,-26.58179,-26.90557,93.61353,-16.98673,-0.4441859,-4.27255,-61.51973,-6.98289,34.57793,0,0,0,-11.17252,51.67889,26.90908,-36.05464,-110.6632,-50.32285,0.001067912,-0.1257102,0.09433498,0,0.3,0,0,0,0,
6.38224E+17,-3.251275,51.47881,57.50431,-31.04974,-24.56173,93.24731,-16.98673,-0.4441859,-4.27255,-61.44649,-6.98289,34.57793,0,0,0,-11.08906,56.03965,26.85786,-36.05464,-110.6632,-50.32285,0.001067912,-0.1257102,0.09433498,0,0.3,0,0,0,0,
6.38224E+17,-3.062795,52.83474,59.72231,-36.68962,-22.58411,93.17406,-16.98673,-0.4441859,-4.27255,-61.51973,-6.98289,34.57793,0,0,0,-10.45734,62.38219,27.08929,-36.05464,-110.6632,-50.32285,0.001067912,-0.1257102,0.09433498,0,0.3,0,0,0,0,
6.38224E+17,-2.803635,53.69973,61.0531,-40.20539,-21.63192,93.10082,-16.98673,-0.4441859,-4.27255,-61.44649,-6.98289,34.57793,0,0,0,-9.569165,66.27892,27.05169,-36.05464,-110.6632,-50.32285,0.001067912,-0.1257102,0.09433498,0,0.3,0,0,0,0,
6.38224E+17,-0.612559,56.97268,64.67193,-50.31322,-20.16702,93.02757,-16.98673,-0.4441859,-4.27255,-61.44649,-6.98289,34.57793,0,0,0,-2.065628,78.10484,24.85136,-36.05464,-110.6632,-50.32285,0.001067912,-0.1257102,0.09433498,0,0.3,0,0,0,0,
6.38224E+17,0.2355996,57.83767,65.58247,-52.51057,-20.16702,93.02757,-16.98673,-0.4441859,-4.27255,-61.51973,-6.98289,34.57793,0,0,0,0.7911758,81.11193,24.05602,-36.05464,-110.6632,-50.32285,0.001067912,-0.1257102,0.09433498,0,0.3,0,0,0,0,
6.38224E+17,2.591596,59.96509,67.68372,-57.418,-21.11921,93.02757,-16.98673,-0.4441859,-4.27255,-61.44649,-6.98289,34.57793,0,0,0,8.595996,88.15832,21.56325,-36.05464,-110.6632,-50.32285,0.001067912,-0.1257102,0.09433498,0,0.3,0,0,0,0,
6.38224E+17,5.277431,61.71846,69.92506,-61.66622,-23.09683,92.5881,-16.98673,-0.4441859,-4.27255,-61.44649,-6.98289,34.57793,0,0,0,17.33149,95.00977,19.28134,-36.05464,-110.6632,-50.32285,0.001067912,-0.1257102,0.09433498,0,0.3,0,0,0,0,
6.38224E+17,8.599386,63.12115,72.30648,-66.5004,-25.95339,92.00214,-16.98673,-0.4441859,-4.27255,-61.44649,-6.98289,34.57793,0,0,0,28.01051,101.765,16.87429,-36.05464,-110.6632,-50.32285,0.001067912,-0.1257102,0.09433498,0,0.3,0,0,0,0,
6.38224E+17,10.31926,63.68222,73.28707,-68.91749,-27.41829,91.85565,-16.98673,-0.4441859,-4.27255,-61.51973,-6.98289,34.57793,0,0,0,33.46878,104.5298,15.46548,-36.05464,-110.6632,-50.32285,0.001067912,-0.1257102,0.09433498,0,0.3,0,0,0,0,
6.38224E+17,14.5365,64.54722,74.45443,-74.7771,-31.30029,90.97672,-16.98673,-0.4441859,-4.27255,-61.44649,-6.98289,34.57793,0,0,0,46.63045,108.0186,11.48395,-36.05464,-110.6632,-50.32285,0.001067912,-0.1257102,0.09433498,0,0.3,0,0,0,0,
6.38224E+17,18.49457,64.75762,74.45443,-78.6591,-35.32877,87.82717,-16.98673,-0.4441859,-4.27255,-61.44649,-6.98289,34.57793,0,0,0,58.79215,108.2282,7.416583,-36.05464,-110.6632,-50.32285,0.001067912,-0.1257102,0.09433498,0,0.3,0,0,0,0,
6.38224E+17,20.59141,64.71087,74.31435,-79.90427,-37.67262,85.26359,-16.98673,-0.4441859,-4.27255,-61.44649,-6.98289,34.57793,0,0,0,65.18757,107.8678,5.157742,-36.05464,-110.6632,-50.32285,0.001067912,-0.1257102,0.09433498,0,0.3,0,0,0,0,
6.38224E+17,25.09136,64.45371,73.35711,-81.36917,-42.36031,79.98994,-16.98673,-0.4441859,-4.27255,-61.44649,-6.98289,34.57793,0,0,0,78.56597,105.4711,-0.5637384,-36.05464,-110.6632,-50.32285,0.001067912,-0.1257102,0.09433498,0,0.3,0,0,0,0,
6.38224E+17,28.50755,64.24331,72.02631,-81.00294,-46.02256,74.93602,-16.98673,-0.4441859,-4.27255,-61.44649,-6.98289,34.57793,0,0,0,88.19539,102.3022,-5.96535,-36.05464,-110.6632,-50.32285,0.001067912,-0.1257102,0.09433498,0,0.3,0,0,0,0,
6.38224E+17,30.25099,64.19655,70.97569,-79.68453,-48.00018,71.78648,-16.98673,-0.4441859,-4.27255,-61.51973,-6.98289,34.57793,0,0,0,92.75347,99.936,-9.309316,-36.05464,-110.6632,-50.32285,0.001067912,-0.1257102,0.09433498,0,0.3,0,0,0,0,
6.38224E+17,33.54939,64.05627,68.03393,-72.5065,-51.88218,62.77732,-16.98673,-0.4441859,-4.27255,-61.51973,-6.98289,34.57793,0,0,0,100.588,93.38099,-16.66228,-36.05464,-110.6632,-50.32285,0.001067912,-0.1257102,0.09433498,0,0.3,0,0,0,0,
6.38224E+17,35.78758,63.63547,64.08825,-58.37019,-54.15278,48.64101,-16.98673,-0.4441859,-4.27255,-61.44649,-6.98289,34.57793,0,0,0,104.7708,84.55772,-23.01529,-36.05464,-110.6632,-50.32285,0.001067912,-0.1257102,0.09433498,0,0.3,0,0,0,0,
6.38224E+17,37.08338,62.70034,59.27871,-40.7181,-53.64006,31.42839,-16.98673,-0.4441859,-4.27255,-61.51973,-6.98289,34.57793,0,0,0,106.001,73.72397,-28.10702,-36.05464,-110.6632,-50.32285,0.001067912,-0.1257102,0.09433498,0,0.3,0,0,0,0,
6.38224E+17,37.27186,60.83008,54.77269,-26.72828,-50.05105,19.9289,-16.98673,-0.4441859,-4.27255,-61.44649,-6.98289,34.57793,0,0,0,105.3283,62.86911,-29.94587,-36.05464,-110.6632,-50.32285,0.001067912,-0.1257102,0.09433498,0,0.3,0,0,0,0,
6.38224E+17,37.2483,59.54428,52.39126,-22.04058,-47.56071,16.48637,-16.98673,-0.4441859,-4.27255,-61.51973,-6.98289,34.57793,0,0,0,104.8515,56.92156,-30.4548,-36.05464,-110.6632,-50.32285,0.001067912,-0.1257102,0.09433498,0,0.3,0,0,0,0,
6.38224E+17,37.22474,56.31809,47.58173,-15.59501,-41.55461,12.45789,-16.98673,-0.4441859,-4.27255,-61.44649,-6.98289,34.57793,0,0,0,104.2908,44.36481,-31.075,-36.05464,-110.6632,-50.32285,0.001067912,-0.1257102,0.09433498,0,0.3,0,0,0,0,
6.38224E+17,37.17762,51.68921,42.77219,-11.42003,-34.01036,10.26054,-16.98673,-0.4441859,-4.27255,-61.44649,-6.98289,34.57793,0,0,0,104.6767,30.09752,-30.3316,-36.05464,-110.6632,-50.32285,0.001067912,-0.1257102,0.09433498,0,0.3,0,0,0,0,
6.38224E+17,36.94202,46.61614,38.98993,-9.295925,-26.31961,9.821064,-16.98673,-0.4441859,-4.27255,-61.51973,-6.98289,34.57793,0,0,0,105.4751,16.61738,-28.08466,-36.05464,-110.6632,-50.32285,0.001067912,-0.1257102,0.09433498,0,0.3,0,0,0,0,
6.38224E+17,36.75354,43.9744,37.40232,-8.783209,-22.21789,10.18729,-16.98673,-0.4441859,-4.27255,-61.44649,-6.98289,34.50468,0,0,0,105.8902,10.00791,-26.5641,-36.05464,-110.6632,-50.32285,0.001067912,-0.1257102,0.09433498,0,0.3,0,0,0,0,
6.38224E+17,36.35302,39.41565,35.0209,-8.709964,-14.60039,10.8465,-16.98673,-0.4441859,-4.27255,-61.44649,-6.98289,34.57793,0,0,0,106.4281,-1.186562,-23.74629,-36.05464,-110.6632,-50.32285,0.001067912,-0.1257102,0.09433498,0,0.3,0,0,0,0,
6.38224E+17,35.8347,35.11406,33.05973,-9.36917,-6.836399,11.35921,-16.98673,-0.4441859,-4.27255,-61.44649,-6.98289,34.57793,0,0,0,106.4496,-11.70723,-20.94227,-36.05464,-110.6632,-50.32285,0.001067912,-0.1257102,0.09433498,0,0.3,0,0,0,0,
6.38224E+17,35.64622,33.96853,32.54609,-9.588906,-4.639044,11.57895,-16.98673,-0.4441859,-4.27255,-61.44649,-6.98289,34.57793,0,0,0,106.2595,-14.55094,-20.18102,-36.05464,-110.6632,-50.32285,0.001067912,-0.1257102,0.09433498,0,0.3,0,0,0,0,
6.38224E+17,35.17502,31.32679,31.26199,-10.54109,0.9275885,11.87193,-16.98673,-0.4441859,-4.27255,-61.51973,-6.98289,34.57793,0,0,0,105.4864,-21.30687,-18.67501,-36.05464,-110.6632,-50.32285,0.001067912,-0.1257102,0.09433498,0,0.3,0,0,0,0,
6.38224E+17,34.82162,29.15262,30.46818,-11.49328,5.615279,11.94517,-16.98673,-0.4441859,-4.27255,-61.51973,-6.98289,34.57793,0,0,0,105.1108,-26.62601,-17.23716,-36.05464,-110.6632,-50.32285,0.001067912,-0.1257102,0.09433498,0,0.3,0,0,0,0,
6.38224E+17,34.58602,26.74467,29.97789,-12.22573,9.570518,11.87193,-16.98673,-0.4441859,-4.27255,-61.51973,-6.909645,34.57793,0,0,0,105.4197,-32.15067,-15.45571,-36.05464,-110.6632,-50.32285,0.001067912,-0.1257102,0.09433498,0,0.3,0,0,0,0,
6.38224E+17,34.53891,25.45886,29.97789,-12.51871,11.3284,11.87193,-16.98673,-0.4441859,-4.27255,-61.44649,-6.98289,34.57793,0,0,0,106.0404,-34.83799,-14.28452,-36.05464,-110.6632,-50.32285,0.001067912,-0.1257102,0.09433498,0,0.3,0,0,0,0,
6.38224E+17,34.53891,23.1678,30.16467,-12.95818,14.62444,11.87193,-16.98673,-0.4441859,-4.27255,-61.44649,-6.98289,34.57793,0,0,0,107.4983,-39.47913,-12.1663,-36.05464,-110.6632,-50.32285,0.001067912,-0.1257102,0.09433498,0,0.3,0,0,0,0,
6.38224E+17,34.60958,21.36768,30.46818,-13.32441,17.33451,11.79868,-16.98673,-0.4441859,-4.27255,-61.44649,-6.98289,34.50468,0,0,0,108.9389,-42.99955,-10.49054,-36.05464,-110.6632,-50.32285,0.001067912,-0.1257102,0.09433498,0,0.3,0,0,0,0,
6.38224E+17,34.82162,20.71309,30.91178,-13.4709,18.43318,11.87193,-16.98673,-0.4441859,-4.27255,-61.44649,-6.98289,34.57793,0,0,0,110.3417,-43.89451,-9.716911,-36.05464,-110.6632,-50.32285,0.001067912,-0.1257102,0.09433498,0,0.3,0,0,0,0,
6.38224E+17,35.92894,20.12863,31.98576,-12.88494,20.33756,11.87193,-16.98673,-0.4441859,-4.27255,-61.44649,-6.98289,34.57793,0,0,0,114.9164,-43.86518,-9.767919,-36.05464,-110.6632,-50.32285,0.001067912,-0.1257102,0.09433498,0,0.3,0,0,0,0,
6.38224E+17,37.6017,20.29228,33.47998,-10.90732,21.2165,13.33683,-16.98673,-0.4441859,-4.27255,-61.44649,-6.98289,34.57793,0,0,0,121.2012,-41.62737,-10.97662,-36.05464,-110.6632,-50.32285,0.001067912,-0.1257102,0.09433498,0,0.3,0,0,0,0,
6.38224E+17,38.94461,20.45593,35.11428,-8.929699,21.50948,14.80174,-16.98673,-0.4441859,-4.27255,-61.51973,-6.98289,34.57793,0,0,0,126.7479,-39.12708,-11.5196,-36.05464,-110.6632,-50.32285,0.001067912,-0.1257102,0.09433498,0,0.3,0,0,0,0,
6.38224E+17,41.39485,21.11052,38.73312,-3.216576,21.07001,17.51181,-16.98673,-0.4441859,-4.27255,-61.44649,-6.98289,34.57793,0,0,0,137.4309,-32.64378,-12.43698,-36.05464,-110.6632,-50.32285,0.001067912,-0.1257102,0.09433498,0,0.3,0,0,0,0,
6.38224E+17,42.85557,22.02227,42.30524,3.448734,19.82484,19.34294,-16.98673,-0.4441859,-4.27255,-61.44649,-6.98289,34.57793,0,0,0,145.1281,-25.26975,-11.93049,-36.05464,-110.6632,-50.32285,0.001067912,-0.1257102,0.09433498,0,0.3,0,0,0,0,
6.38224E+17,43.27965,22.79375,45.10692,9.454838,18.1402,20.51486,-16.98673,-0.4441859,-4.27255,-61.51973,-6.98289,34.57793,0,0,0,149.0438,-19.10478,-10.07593,-36.05464,-110.6632,-50.32285,0.001067912,-0.1257102,0.09433498,0,0.3,0,0,0,0,
6.38224E+17,43.30321,23.30807,47.55838,14.14253,16.74854,21.68678,-16.98673,-0.4441859,-4.27255,-61.44649,-6.98289,34.57793,0,0,0,151.4892,-13.87649,-7.611621,-36.05464,-110.6632,-50.32285,0.001067912,-0.1257102,0.09433498,0,0.3,0,0,0,0,
6.38224E+17,43.30321,23.61198,48.58566,15.97366,16.23583,22.12625,-16.98673,-0.4441859,-4.27255,-61.44649,-6.98289,34.57793,0,0,0,152.3917,-11.44887,-6.653949,-36.05464,-110.6632,-50.32285,0.001067912,-0.1257102,0.09433498,0,0.3,0,0,0,0,
6.38224E+17,43.30321,24.47698,50.59352,19.34294,15.06391,23.07844,-16.98673,-0.4441859,-4.27255,-61.44649,-6.98289,34.57793,0,0,0,153.9068,-6.052375,-5.046411,-36.05464,-110.6632,-50.32285,0.001067912,-0.1257102,0.09433498,0,0.3,0,0,0,0,
6.38224E+17,43.30321,25.57575,52.67143,22.78546,13.89198,24.25036,-16.98673,-0.4441859,-4.27255,-61.44649,-6.98289,34.57793,0,0,0,155.2235,0.05630464,-3.64929,-36.05464,-110.6632,-50.32285,0.001067912,-0.1257102,0.09433498,0,0.3,0,0,0,0,
6.38224E+17,43.30321,26.53426,54.98281,26.15474,12.64682,25.42229,-16.98673,-0.4441859,-4.27255,-61.51973,-6.98289,34.57793,0,0,0,156.729,6.402642,-2.051878,-36.05464,-110.6632,-50.32285,0.001067912,-0.1257102,0.09433498,0,0.3,0,0,0,0,
6.38224E+17,43.30321,26.93169,56.24356,27.98586,11.91436,25.86176,-16.98673,-0.4441859,-4.27255,-61.51973,-6.98289,34.57793,0,0,0,157.5802,9.650187,-1.148693,-36.05464,-110.6632,-50.32285,0.001067912,-0.1257102,0.09433498,0,0.3,0,0,0,0,
6.38224E+17,43.11473,27.8902,58.25143,31.64813,10.44946,26.44772,-16.98673,-0.4441859,-4.27255,-61.44649,-6.98289,34.57793,0,0,0,158.0553,15.56047,0.4645422,-36.05464,-110.6632,-50.32285,0.001067912,-0.1257102,0.09433498,0,0.3,0,0,0,0,
6.38224E+17,42.78489,29.12924,59.72231,35.16389,8.984557,26.88719,-16.98673,-0.4441859,-4.27255,-61.51973,-6.98289,34.57793,0,0,0,157.3439,21.02835,1.655912,-36.05464,-110.6632,-50.32285,0.001067912,-0.1257102,0.09433498,0,0.3,0,0,0,0,
6.38224E+17,42.57285,29.87734,60.44607,37.06827,8.398596,27.32666,-16.98673,-0.4441859,-4.27255,-61.44649,-6.98289,34.57793,0,0,0,156.702,24.00373,2.224259,-36.05464,-110.6632,-50.32285,0.001067912,-0.1257102,0.09433498,0,0.3,0,0,0,0,
6.38224E+17,41.96029,31.39693,61.66013,40.80377,7.153428,28.27885,-16.98673,-0.4441859,-4.27255,-61.44649,-6.98289,34.57793,0,0,0,154.5788,29.51918,3.566579,-36.05464,-110.6632,-50.32285,0.001067912,-0.1257102,0.09433498,0,0.3,0,0,0,0,
6.38224E+17,40.90009,33.01003,63.08431,44.75901,5.76177,29.0113,-16.98673,-0.4441859,-4.27255,-61.51973,-6.98289,34.57793,0,0,0,151.0678,35.63245,6.046838,-36.05464,-110.6632,-50.32285,0.001067912,-0.1257102,0.09433498,0,0.3,0,0,0,0,
6.38224E+17,38.59122,35.20757,64.22832,49.73968,3.78415,29.74375,-16.98673,-0.4441859,-4.27255,-61.51973,-6.98289,34.57793,0,0,0,142.8674,42.25295,10.67315,-36.05464,-110.6632,-50.32285,0.001067912,-0.1257102,0.09433498,0,0.3,0,0,0,0,
6.38224E+17,37.03626,36.30635,64.41511,52.23001,2.246002,30.32971,-16.98673,-0.4441859,-4.27255,-61.44649,-6.98289,34.57793,0,0,0,137.1702,44.71994,13.44156,-36.05464,-110.6632,-50.32285,0.001067912,-0.1257102,0.09433498,0,0.3,0,0,0,0,
6.38224E+17,34.86874,37.28823,64.41511,55.15982,-0.09784385,31.2819,-16.98673,-0.4441859,-4.27255,-61.44649,-6.98289,34.57793,0,0,0,129.4139,46.54984,17.37639,-36.05464,-110.6632,-50.32285,0.001067912,-0.1257102,0.09433498,0,0.3,0,0,0,0,
6.38224E+17,33.8321,37.49864,64.41511,56.40499,-1.343012,31.72137,-16.98673,-0.4441859,-4.27255,-61.44649,-6.98289,34.57793,0,0,0,125.8671,46.9389,19.44029,-36.05464,-110.6632,-50.32285,0.001067912,-0.1257102,0.09433498,0,0.3,0,0,0,0,
6.38224E+17,31.78239,37.52202,64.29837,58.67559,-3.760103,32.45382,-16.98673,-0.4441859,-4.27255,-61.51973,-6.98289,34.57793,0,0,0,118.9905,46.73713,23.69387,-36.05464,-110.6632,-50.32285,0.001067912,-0.1257102,0.09433498,0,0.3,0,0,0,0,
6.38224E+17,29.73267,37.52202,63.52791,60.28699,-6.250438,32.67356,-16.98673,-0.4441859,-4.27255,-61.44649,-6.98289,34.57793,0,0,0,111.6546,45.12664,27.14219,-36.05464,-110.6632,-50.32285,0.001067912,-0.1257102,0.09433498,0,0.3,0,0,0,0,
6.38224E+17,28.60179,37.52202,62.85084,60.7997,-7.422361,32.08759,-16.98673,-0.4441859,-4.27255,-61.44649,-6.98289,34.57793,0,0,0,107.4343,43.72023,28.68373,-36.05464,-110.6632,-50.32285,0.001067912,-0.1257102,0.09433498,0,0.3,0,0,0,0,
6.38224E+17,26.22224,37.49864,61.02975,61.09268,-9.912696,29.96349,-16.98673,-0.4441859,-4.27255,-61.51973,-6.98289,34.57793,0,0,0,98.29472,39.93703,31.21569,-36.05464,-110.6632,-50.32285,0.001067912,-0.1257102,0.09433498,0,0.3,0,0,0,0,
6.38224E+17,24.2432,37.47526,59.11527,60.50672,-12.1833,29.37753,-16.98673,-0.4441859,-4.27255,-61.44649,-6.98289,34.57793,0,0,0,90.44518,36.03243,32.49449,-36.05464,-110.6632,-50.32285,0.001067912,-0.1257102,0.09433498,0,0.3,0,0,0,0,
6.38224E+17,22.75892,37.45188,57.94791,59.77427,-13.57495,29.30428,-16.98673,-0.4441859,-4.27255,-61.44649,-6.98289,34.57793,0,0,0,84.67656,33.67195,33.49253,-36.05464,-110.6632,-50.32285,0.001067912,-0.1257102,0.09433498,0,0.3,0,0,0,0,
6.38224E+17,21.25109,37.4285,56.99068,59.04182,-15.03986,29.59726,-16.98673,-0.4441859,-4.27255,-61.51973,-6.98289,34.57793,0,0,0,78.91377,31.75044,34.56506,-36.05464,-110.6632,-50.32285,0.001067912,-0.1257102,0.09433498,0,0.3,0,0,0,0,
6.38224E+17,19.27205,37.38175,55.40306,58.08963,-16.94423,30.10997,-16.98673,-0.4441859,-4.27255,-61.51973,-6.98289,34.57793,0,0,0,71.20262,28.59372,35.29119,-36.05464,-110.6632,-50.32285,0.001067912,-0.1257102,0.09433498,0,0.3,0,0,0,0,
6.38224E+17,17.24589,37.26486,52.9516,56.33175,-18.55563,30.54945,-16.98673,-0.4441859,-4.27255,-61.51973,-6.98289,34.57793,0,0,0,63.01718,23.7515,34.64988,-36.05464,-110.6632,-50.32285,0.001067912,-0.1257102,0.09433498,0,0.3,0,0,0,0,
6.38224E+17,15.10193,36.96094,50.26667,53.32869,-19.72755,31.72137,-16.98673,-0.4441859,-4.27255,-61.51973,-6.98289,34.57793,0,0,0,54.47898,18.29004,33.53098,-36.05464,-110.6632,-50.32285,0.001067912,-0.1257102,0.09433498,0,0.3,0,0,0,0,
6.38224E+17,13.99462,36.72716,48.93587,51.35107,-20.16702,32.45382,-16.98673,-0.4441859,-4.27255,-61.51973,-6.98289,34.57793,0,0,0,50.1609,15.49592,32.91494,-36.05464,-110.6632,-50.32285,0.001067912,-0.1257102,0.09433498,0,0.3,0,0,0,0,
6.38224E+17,11.96846,36.25959,46.76458,46.66338,-20.53325,34.50468,-16.98673,-0.4441859,-4.27255,-61.51973,-6.98289,34.57793,0,0,0,42.44467,10.8747,31.87839,-36.05464,-110.6632,-50.32285,0.001067912,-0.1257102,0.09433498,0,0.3,0,0,0,0,
6.38224E+17,10.13078,35.9323,45.57386,41.53622,-20.82623,37.65423,-16.98673,-0.4441859,-4.27255,-61.44649,-6.98289,34.57793,0,0,0,35.74328,8.260073,31.68908,-36.05464,-110.6632,-50.32285,0.001067912,-0.1257102,0.09433498,0,0.3,0,0,0,0,
6.38224E+17,9.259066,35.86216,45.10692,38.89939,-20.97272,39.11913,-16.98673,-0.4441859,-4.27255,-61.51973,-6.98289,34.57793,0,0,0,32.58829,7.354835,31.55025,-36.05464,-110.6632,-50.32285,0.001067912,-0.1257102,0.09433498,0,0.3,0,0,0,0,
6.38224E+17,7.798347,35.86216,44.10299,33.62574,-20.82623,41.46298,-16.98673,-0.4441859,-4.27255,-61.44649,-6.98289,34.57793,0,0,0,27.25621,5.714097,30.66788,-36.05464,-110.6632,-50.32285,0.001067912,-0.1257102,0.09433498,0,0.3,0,0,0,0,
6.38224E+17,6.19627,35.88554,43.19244,27.69288,-19.94728,43.51384,-16.98673,-0.4441859,-4.27255,-61.44649,-6.98289,34.57793,0,0,0,21.51249,4.295485,29.79594,-36.05464,-110.6632,-50.32285,0.001067912,-0.1257102,0.09433498,0,0.3,0,0,0,0,
6.38224E+17,5.442351,35.90892,42.81889,24.68983,-19.06834,44.75901,-16.98673,-0.4441859,-4.27255,-61.44649,-6.98289,34.57793,0,0,0,18.8401,3.746561,29.39717,-36.05464,-110.6632,-50.32285,0.001067912,-0.1257102,0.09433498,0,0.3,0,0,0,0,
6.38224E+17,4.170113,36.09594,42.42198,18.46399,-17.23721,47.1761,-16.98673,-0.4441859,-4.27255,-61.51973,-6.98289,34.57793,0,0,0,14.37685,3.473195,28.83359,-36.05464,-110.6632,-50.32285,0.001067912,-0.1257102,0.09433498,0,0.3,0,0,0,0,
6.38224E+17,3.274835,36.61026,42.42198,12.01842,-15.40608,48.78749,-16.98673,-0.4441859,-4.27255,-61.51973,-6.98289,34.57793,0,0,0,11.25358,4.437253,28.32576,-36.05464,-110.6632,-50.32285,0.001067912,-0.1257102,0.09433498,0,0.3,0,0,0,0,
6.38224E+17,2.827195,37.31161,42.42198,6.891257,-13.86794,49.51994,-16.98673,-0.4441859,-4.27255,-61.44649,-6.98289,34.57793,0,0,0,9.668263,5.741535,27.42742,-36.05464,-110.6632,-50.32285,0.001067912,-0.1257102,0.09433498,0,0.3,0,0,0,0,
6.38224E+17,2.709396,37.77918,42.39864,4.474167,-13.20873,49.73968,-16.98673,-0.4441859,-4.27255,-61.44649,-6.98289,34.57793,0,0,0,9.232482,6.567692,26.74441,-36.05464,-110.6632,-50.32285,0.001067912,-0.1257102,0.09433498,0,0.3,0,0,0,0,
6.38224E+17,2.662276,38.92471,42.35194,0.299192,-12.32979,49.59319,-16.98673,-0.4441859,-4.27255,-61.51973,-6.98289,34.50468,0,0,0,8.991467,8.58521,25.01926,-36.05464,-110.6632,-50.32285,0.001067912,-0.1257102,0.09433498,0,0.3,0,0,0,0,
6.38224E+17,2.662276,40.23389,42.35194,-3.216576,-11.67058,48.64101,-16.98673,-0.4441859,-4.27255,-61.51973,-6.98289,34.57793,0,0,0,8.901294,10.9336,23.08003,-36.05464,-110.6632,-50.32285,0.001067912,-0.1257102,0.09433498,0,0.3,0,0,0,0,
6.38224E+17,2.662276,41.47293,42.39864,-6.366118,-11.23111,47.24934,-16.98673,-0.4441859,-4.27255,-61.44649,-6.98289,34.57793,0,0,0,8.817407,13.18803,21.27596,-36.05464,-110.6632,-50.32285,0.001067912,-0.1257102,0.09433498,0,0.3,0,0,0,0,
6.38224E+17,2.638716,42.61847,42.56207,-8.929699,-11.08462,45.85769,-16.98673,-0.4441859,-4.27255,-61.44649,-6.98289,34.57793,0,0,0,8.670145,15.42475,19.77617,-36.05464,-110.6632,-50.32285,0.001067912,-0.1257102,0.09433498,0,0.3,0,0,0,0,
6.38224E+17,2.638716,43.15617,42.56207,-10.02838,-11.15786,45.19848,-16.98673,-0.4441859,-4.27255,-61.51973,-6.98289,34.57793,0,0,0,8.630936,16.34167,18.9254,-36.05464,-110.6632,-50.32285,0.001067912,-0.1257102,0.09433498,0,0.3,0,0,0,0,
6.38224E+17,2.615156,44.41859,42.63211,-11.78626,-11.30435,43.88007,-16.98673,-0.4441859,-4.27255,-61.51973,-6.98289,34.57793,0,0,0,8.466638,18.57306,17.01781,-36.05464,-110.6632,-50.32285,0.001067912,-0.1257102,0.09433498,0,0.3,0,0,0,0,
6.38224E+17,2.568036,45.7979,42.6788,-13.32441,-11.67058,42.48841,-16.98673,-0.4441859,-4.27255,-61.51973,-6.98289,34.57793,0,0,0,8.215873,20.91231,14.83265,-36.05464,-110.6632,-50.32285,0.001067912,-0.1257102,0.09433498,0,0.3,0,0,0,0,
6.38224E+17,2.568036,46.52262,42.6788,-14.20335,-11.96356,41.8292,-16.98673,-0.4441859,-4.27255,-61.44649,-6.98289,34.57793,0,0,0,8.161363,22.0806,13.61728,-36.05464,-110.6632,-50.32285,0.001067912,-0.1257102,0.09433498,0,0.3,0,0,0,0,
6.38224E+17,2.568036,47.87856,42.6788,-15.96124,-12.54952,40.65728,-16.98673,-0.4441859,-4.27255,-61.44649,-6.909645,34.57793,0,0,0,8.057616,24.2247,11.30413,-36.05464,-110.6632,-50.32285,0.001067912,-0.1257102,0.09433498,0,0.3,0,0,0,0,
6.38224E+17,2.568036,49.04747,42.81889,-18.08535,-13.13548,39.48536,-16.98673,-0.4441859,-4.27255,-61.44649,-6.98289,34.57793,0,0,0,7.977104,26.24996,9.509003,-36.05464,-110.6632,-50.32285,0.001067912,-0.1257102,0.09433498,0,0.3,0,0,0,0,
6.38224E+17,2.568036,49.60855,43.14575,-19.25727,-13.57495,38.75291,-16.98673,-0.4441859,-4.27255,-61.44649,-6.909645,34.57793,0,0,0,7.957663,27.61967,9.075545,-36.05464,-110.6632,-50.32285,0.001067912,-0.1257102,0.09433498,0,0.3,0,0,0,0,
6.38224E+17,2.615156,50.38003,43.98625,-21.01515,-14.38065,37.50774,-16.98673,-0.4441859,-4.27255,-61.44649,-6.98289,34.57793,0,0,0,8.105494,30.12211,9.110956,-36.05464,-110.6632,-50.32285,0.001067912,-0.1257102,0.09433498,0,0.3,0,0,0,0,
6.38224E+17,2.756516,51.15151,44.87344,-22.77304,-15.03986,36.92178,-16.98673,-0.4441859,-4.27255,-61.44649,-6.98289,34.57793,0,0,0,8.547327,32.70323,9.174082,-36.05464,-110.6632,-50.32285,0.001067912,-0.1257102,0.09433498,0,0.3,0,0,0,0,
6.38224E+17,2.968555,52.0165,45.73729,-24.23794,-16.13853,36.55555,-16.98673,-0.4441859,-4.27255,-61.44649,-6.98289,34.57793,0,0,0,9.195788,35.38334,8.97814,-36.05464,-110.6632,-50.32285,0.001067912,-0.1257102,0.09433498,0,0.3,0,0,0,0,
6.38224E+17,3.157035,52.85812,46.55445,-25.70284,-17.67669,36.11608,-16.98673,-0.4441859,-4.27255,-61.44649,-6.909645,34.57793,0,0,0,9.76613,37.94887,8.71224,-36.05464,-110.6632,-50.32285,0.001067912,-0.1257102,0.09433498,0,0.3,0,0,0,0,
6.38224E+17,3.204155,53.11528,46.78792,-26.21556,-18.04291,35.89634,-16.98673,-0.4441859,-4.27255,-61.51973,-6.98289,34.57793,0,0,0,9.905871,38.70444,8.599263,-36.05464,-110.6632,-50.32285,0.001067912,-0.1257102,0.09433498,0,0.3,0,0,0,0,
6.38224E+17,3.439754,53.74649,47.46499,-27.53397,-18.9951,35.45687,-16.98673,-0.4441859,-4.27255,-61.51973,-6.98289,34.57793,0,0,0,10.62694,40.73455,8.449509,-36.05464,-110.6632,-50.32285,0.001067912,-0.1257102,0.09433498,0,0.3,0,0,0,0,
6.38224E+17,3.863834,54.61148,48.28215,-29.14537,-19.6543,34.94416,-16.98673,-0.4441859,-4.27255,-61.44649,-6.98289,34.57793,0,0,0,11.91119,43.32328,8.010135,-36.05464,-110.6632,-50.32285,0.001067912,-0.1257102,0.09433498,0,0.3,0,0,0,0,
6.38224E+17,4.570632,55.87391,49.4962,-31.04974,-20.60649,34.2117,-16.98673,-0.4441859,-4.27255,-61.44649,-6.98289,34.57793,0,0,0,14.0415,47.12717,7.295528,-36.05464,-110.6632,-50.32285,0.001067912,-0.1257102,0.09433498,0,0.3,0,0,0,0,
6.38224E+17,5.041832,56.57525,50.29001,-31.92868,-21.11921,33.84548,-16.98673,-0.4441859,-4.27255,-61.51973,-6.98289,34.57793,0,0,0,15.47087,49.44767,7.008133,-36.05464,-110.6632,-50.32285,0.001067912,-0.1257102,0.09433498,0,0.3,0,0,0,0,
6.38224E+17,6.314069,58.42213,52.43796,-33.68657,-22.58411,32.96654,-16.98673,-0.4441859,-4.27255,-61.44649,-6.98289,34.57793,0,0,0,19.30509,55.66192,6.120551,-36.05464,-110.6632,-50.32285,0.001067912,-0.1257102,0.09433498,0,0.3,0,0,0,0,
6.38224E+17,7.916147,60.43266,55.35637,-35.73743,-24.92796,31.9411,-16.98673,-0.4441859,-4.27255,-61.51973,-6.98289,34.50468,0,0,0,24.17169,63.52914,5.486116,-36.05464,-110.6632,-50.32285,0.001067912,-0.1257102,0.09433498,0,0.3,0,0,0,0,
6.38224E+17,8.693625,61.29765,56.96733,-36.9826,-26.39286,31.50163,-16.98673,-0.4441859,-4.27255,-61.51973,-6.98289,34.57793,0,0,0,26.57804,67.62344,5.467638,-36.05464,-110.6632,-50.32285,0.001067912,-0.1257102,0.09433498,0,0.3,0,0,0,0,
6.38224E+17,10.67266,62.91074,60.77293,-41.30406,-30.3481,30.98892,-16.98673,-0.4441859,-4.27255,-61.51973,-6.98289,34.57793,0,0,0,32.79816,76.9602,5.684492,-36.05464,-110.6632,-50.32285,0.001067912,-0.1257102,0.09433498,0,0.3,0,0,0,0,
6.38224E+17,12.1805,63.7056,63.2244,-45.2593,-33.20466,31.06216,-16.98673,-0.4441859,-4.27255,-61.51973,-6.98289,34.57793,0,0,0,37.58271,82.82841,5.763794,-36.05464,-110.6632,-50.32285,0.001067912,-0.1257102,0.09433498,0,0.3,0,0,0,0,
6.38224E+17,14.32446,64.38357,65.69921,-50.53296,-36.79367,31.20865,-16.98673,-0.4441859,-4.27255,-61.44649,-6.98289,34.57793,0,0,0,44.33337,88.71571,5.267065,-36.05464,-110.6632,-50.32285,0.001067912,-0.1257102,0.09433498,0,0.3,0,0,0,0,
6.38224E+17,15.36109,64.5706,66.46967,-52.95005,-38.40507,31.2819,-16.98673,-0.4441859,-4.27255,-61.44649,-6.98289,34.57793,0,0,0,47.55566,90.54247,4.758765,-36.05464,-110.6632,-50.32285,0.001067912,-0.1257102,0.09433498,0,0.3,0,0,0,0,
6.38224E+17,17.22233,64.75762,67.28682,-56.53906,-41.26163,31.42839,-16.98673,-0.4441859,-4.27255,-61.51973,-6.98289,34.57793,0,0,0,53.2576,92.47779,3.460436,-36.05464,-110.6632,-50.32285,0.001067912,-0.1257102,0.09433498,0,0.3,0,0,0,0,
6.38224E+17,18.87153,64.85114,67.40356,-58.58992,-43.38574,31.42839,-16.98673,-0.4441859,-4.27255,-61.44649,-6.98289,34.57793,0,0,0,58.15039,92.82117,1.769192,-36.05464,-110.6632,-50.32285,0.001067912,-0.1257102,0.09433498,0,0.3,0,0,0,0,
6.38224E+17,20.16733,64.85114,67.4269,-59.10264,-44.85064,30.54945,-16.98673,-0.4441859,-4.27255,-61.44649,-6.98289,34.57793,0,0,0,61.98979,92.87135,0.430263,-36.05464,-110.6632,-50.32285,0.001067912,-0.1257102,0.09433498,0,0.3,0,0,0,0,
6.38224E+17,20.61497,64.85114,67.4269,-59.02939,-45.36336,29.89024,-16.98673,-0.4441859,-4.27255,-61.51973,-6.98289,34.57793,0,0,0,63.30653,92.87135,-0.05919576,-36.05464,-110.6632,-50.32285,0.001067912,-0.1257102,0.09433498,0,0.3,0,0,0,0,
6.38224E+17,21.34533,64.85114,67.40356,-59.24913,-46.02256,28.2056,-16.98673,-0.4441859,-4.27255,-61.44649,-6.98289,34.57793,0,0,0,65.43896,92.82117,-0.8992624,-36.05464,-110.6632,-50.32285,0.001067912,-0.1257102,0.09433498,0,0.3,0,0,0,0,
6.38224E+17,21.8872,64.85114,67.31017,-59.90833,-46.31554,26.7407,-16.98673,-0.4441859,-4.27255,-61.51973,-6.98289,34.57793,0,0,0,66.98849,92.62057,-1.603283,-36.05464,-110.6632,-50.32285,0.001067912,-0.1257102,0.09433498,0,0.3,0,0,0,0,
6.38224E+17,22.14636,64.61736,66.5864,-60.71403,-46.38879,24.83632,-16.98673,-0.4441859,-4.27255,-61.44649,-6.98289,34.57793,0,0,0,67.67888,90.83836,-2.063154,-36.05464,-110.6632,-50.32285,0.001067912,-0.1257102,0.09433498,0,0.3,0,0,0,0,
6.38224E+17,22.31128,64.47708,66.23619,-60.93377,-46.2423,23.95738,-16.98673,-0.4441859,-4.27255,-61.44649,-6.98289,34.57793,0,0,0,68.14532,89.9511,-2.28769,-36.05464,-110.6632,-50.32285,0.001067912,-0.1257102,0.09433498,0,0.3,0,0,0,0,
6.38224E+17,22.78248,64.3602,64.64858,-59.83509,-45.72958,21.68678,-16.98673,-0.4441859,-4.27255,-61.51973,-6.98289,34.57793,0,0,0,69.00907,86.47296,-4.043305,-36.05464,-110.6632,-50.32285,0.001067912,-0.1257102,0.09433498,0,0.3,0,0,0,0,
6.38224E+17,23.11232,64.21992,63.2244,-58.22369,-45.36336,19.63592,-16.98673,-0.4441859,-4.27255,-61.44649,-6.98289,34.57793,0,0,0,69.49761,83.35384,-5.512181,-36.05464,-110.6632,-50.32285,0.001067912,-0.1257102,0.09433498,0,0.3,0,0,0,0,
6.38224E+17,23.91336,63.4952,59.69896,-52.29084,-43.67872,12.75087,-16.98673,-0.4441859,-4.27255,-61.44649,-6.98289,34.57793,0,0,0,70.79239,75.40366,-8.698404,-36.05464,-110.6632,-50.32285,0.001067912,-0.1257102,0.09433498,0,0.3,0,0,0,0,
6.38224E+17,24.50236,62.02237,55.87001,-44.89308,-40.67567,5.133373,-16.98673,-0.4441859,-4.27255,-61.44649,-6.98289,34.57793,0,0,0,71.72384,66.29649,-10.98357,-36.05464,-110.6632,-50.32285,0.001067912,-0.1257102,0.09433498,0,0.3,0,0,0,0,
6.38224E+17,24.78508,61.06387,53.90884,-41.45055,-38.77129,1.764095,-16.98673,-0.4441859,-4.27255,-61.44649,-6.98289,34.57793,0,0,0,72.22117,61.49981,-11.94211,-36.05464,-110.6632,-50.32285,0.001067912,-0.1257102,0.09433498,0,0.3,0,0,0,0,
6.38224E+17,25.49188,58.35199,49.23938,-34.34578,-33.4244,-4.82797,-16.98673,-0.4441859,-4.27255,-61.44649,-6.98289,34.57793,0,0,0,73.58425,49.80497,-14.02112,-36.05464,-110.6632,-50.32285,0.001067912,-0.1257102,0.09433498,0,0.3,0,0,0,0,
6.38224E+17,26.05732,56.22458,46.11085,-30.75676,-29.5424,-8.050756,-16.98673,-0.4441859,-4.27255,-61.51973,-6.98289,34.57793,0,0,0,74.78023,41.74665,-15.4163,-36.05464,-110.6632,-50.32285,0.001067912,-0.1257102,0.09433498,0,0.3,0,0,0,0,
6.38224E+17,26.41072,54.49459,44.05629,-28.77914,-26.90557,-9.881886,-16.98673,-0.4441859,-4.27255,-61.51973,-6.98289,34.57793,0,0,0,75.6938,36.07209,-15.93741,-36.05464,-110.6632,-50.32285,0.001067912,-0.1257102,0.09433498,0,0.3,0,0,0,0,
6.38224E+17,27.11752,50.4034,40.29738,-25.48311,-21.11921,-12.88494,-16.98673,-0.4441859,-4.27255,-61.51973,-6.98289,34.57793,0,0,0,78.05372,24.39723,-15.93457,-36.05464,-110.6632,-50.32285,0.001067912,-0.1257102,0.09433498,0,0.3,0,0,0,0,
6.38224E+17,27.87143,45.70439,37.35563,-22.84628,-14.23416,-15.08229,-16.98673,-0.4441859,-4.27255,-61.51973,-6.98289,34.57793,0,0,0,81.36081,12.79687,-14.50073,-36.05464,-110.6632,-50.32285,0.001067912,-0.1257102,0.09433498,0,0.3,0,0,0,0,
6.38224E+17,28.60179,41.30928,35.23103,-20.79542,-7.495606,-16.76693,-16.98673,-0.4441859,-4.27255,-61.44649,-6.98289,34.57793,0,0,0,84.77786,2.452821,-12.86797,-36.05464,-110.6632,-50.32285,0.001067912,-0.1257102,0.09433498,0,0.3,0,0,0,0,
6.38224E+17,28.93163,39.43903,34.39052,-20.13621,-4.639044,-17.49938,-16.98673,-0.4441859,-4.27255,-61.44649,-6.98289,34.57793,0,0,0,86.25855,-1.97986,-12.29659,-36.05464,-110.6632,-50.32285,0.001067912,-0.1257102,0.09433498,0,0.3,0,0,0,0,
6.38224E+17,29.70911,35.69852,32.82626,-19.18402,1.220569,-19.25727,-16.98673,-0.4441859,-4.27255,-61.44649,-6.98289,34.57793,0,0,0,89.49561,-10.89403,-11.50545,-36.05464,-110.6632,-50.32285,0.001067912,-0.1257102,0.09433498,0,0.3,0,0,0,0,
6.38224E+17,30.72219,32.19178,31.58885,-18.67131,6.713957,-21.38138,-16.98673,-0.4441859,-4.27255,-61.44649,-6.98289,34.57793,0,0,0,93.33777,-19.19851,-11.28987,-36.05464,-110.6632,-50.32285,0.001067912,-0.1257102,0.09433498,0,0.3,0,0,0,0,
6.38224E+17,32.27715,28.98897,30.95848,-18.0121,11.25516,-24.16469,-16.98673,-0.4441859,-4.27255,-61.44649,-6.98289,34.57793,0,0,0,98.9212,-26.37609,-11.73385,-36.05464,-110.6632,-50.32285,0.001067912,-0.1257102,0.09433498,0,0.3,0,0,0,0,
6.38224E+17,33.26667,27.39925,30.86509,-17.35289,13.45251,-25.70284,-16.98673,-0.4441859,-4.27255,-61.51973,-6.98289,34.57793,0,0,0,102.4677,-29.74856,-12.1599,-36.05464,-110.6632,-50.32285,0.001067912,-0.1257102,0.09433498,0,0.3,0,0,0,0,
6.38224E+17,35.3635,24.28995,31.07521,-15.52176,17.26126,-28.77914,-16.98673,-0.4441859,-4.27255,-61.44649,-6.98289,34.57793,0,0,0,110.1821,-36.00888,-13.09937,-36.05464,-110.6632,-50.32285,0.001067912,-0.1257102,0.09433498,0,0.3,0,0,0,0,
6.38224E+17,37.38966,21.64822,31.63554,-13.10467,20.33756,-31.78219,-16.98673,-0.4441859,-4.27255,-61.51973,-6.909645,34.57793,0,0,0,117.7353,-40.99069,-14.30104,-36.05464,-110.6632,-50.32285,0.001067912,-0.1257102,0.09433498,0,0.3,0,0,0,0,
6.38224E+17,39.39226,19.49742,32.59278,-10.02838,22.90114,-34.27253,-16.98673,-0.4441859,-4.27255,-61.44649,-6.909645,34.57793,0,0,0,125.3603,-44.49259,-15.69176,-36.05464,-110.6632,-50.32285,0.001067912,-0.1257102,0.09433498,0,0.3,0,0,0,0,
6.38224E+17,40.28753,18.79608,33.22316,-8.490229,23.92657,-35.07822,-16.98673,-0.4441859,-4.27255,-61.51973,-6.98289,34.57793,0,0,0,128.873,-45.23751,-16.32119,-36.05464,-110.6632,-50.32285,0.001067912,-0.1257102,0.09433498,0,0.3,0,0,0,0,
6.38224E+17,42.00741,18.00122,34.85747,-4.97446,25.46472,-36.10366,-16.98673,-0.4441859,-4.27255,-61.44649,-6.98289,34.57793,0,0,0,135.8778,-44.86375,-17.48171,-36.05464,-110.6632,-50.32285,0.001067912,-0.1257102,0.09433498,0,0.3,0,0,0,0,
6.38224E+17,43.70373,18.0246,36.67855,-0.7994855,26.34366,-36.61637,-16.98673,-0.4441859,-4.27255,-61.44649,-6.98289,34.57793,0,0,0,142.6486,-42.33475,-19.09622,-36.05464,-110.6632,-50.32285,0.001067912,-0.1257102,0.09433498,0,0.3,0,0,0,0,
6.38224E+17,44.45765,18.11811,37.75253,1.471115,26.5634,-36.76286,-16.98673,-0.4441859,-4.27255,-61.51973,-6.98289,34.57793,0,0,0,145.947,-40.61609,-19.61352,-36.05464,-110.6632,-50.32285,0.001067912,-0.1257102,0.09433498,0,0.3,0,0,0,0,
6.38224E+17,45.6592,18.49216,40.04056,6.012315,26.34366,-36.90935,-16.98673,-0.4441859,-4.27255,-61.44649,-6.98289,34.57793,0,0,0,151.8022,-36.44605,-20.0013,-36.05464,-110.6632,-50.32285,0.001067912,-0.1257102,0.09433498,0,0.3,0,0,0,0,
6.38224E+17,46.79008,19.24026,42.6788,10.55352,25.90419,-36.83611,-16.98673,-0.4441859,-4.27255,-61.51973,-6.98289,34.57793,0,0,0,157.6489,-30.74146,-20.25649,-36.05464,-110.6632,-50.32285,0.001067912,-0.1257102,0.09433498,0,0.3,0,0,0,0,
6.38224E+17,47.7796,20.47931,45.52717,15.16796,24.95201,-36.32339,-16.98673,-0.4441859,-4.27255,-61.51973,-6.98289,34.57793,0,0,0,162.9824,-23.4161,-20.4608,-36.05464,-110.6632,-50.32285,0.001067912,-0.1257102,0.09433498,0,0.3,0,0,0,0,
6.38224E+17,48.18012,21.29754,46.95135,17.58505,24.43929,-35.81068,-16.98673,-0.4441859,-4.27255,-61.51973,-6.98289,34.57793,0,0,0,165.2147,-19.24303,-20.52784,-36.05464,-110.6632,-50.32285,0.001067912,-0.1257102,0.09433498,0,0.3,0,0,0,0,
6.38224E+17,48.722,23.40158,49.79972,22.93195,23.04763,-34.78524,-16.98673,-0.4441859,-4.27255,-61.44649,-6.98289,34.57793,0,0,0,168.5149,-9.759235,-20.42061,-36.05464,-110.6632,-50.32285,0.001067912,-0.1257102,0.09433498,0,0.3,0,0,0,0,
6.38224E+17,48.9576,25.87967,52.48465,27.83937,21.36299,-33.75981,-16.98673,-0.4441859,-4.27255,-61.51973,-6.98289,34.57793,0,0,0,170.265,0.3482823,-20.11954,-36.05464,-110.6632,-50.32285,0.001067912,-0.1257102,0.09433498,0,0.3,0,0,0,0,
6.38224E+17,48.98116,27.23561,53.7921,30.18322,20.4108,-33.46683,-16.98673,-0.4441859,-4.27255,-61.44649,-6.98289,34.57793,0,0,0,170.6386,5.605601,-19.91756,-36.05464,-110.6632,-50.32285,0.001067912,-0.1257102,0.09433498,0,0.3,0,0,0,0,
6.38224E+17,48.86336,29.99424,56.52373,34.94416,18.06696,-32.73438,-16.98673,-0.4441859,-4.27255,-61.51973,-6.98289,34.50468,0,0,0,170.7528,16.45864,-19.20043,-36.05464,-110.6632,-50.32285,0.001067912,-0.1257102,0.09433498,0,0.3,0,0,0,0,
6.38224E+17,48.41572,32.96326,58.81176,39.77834,15.72311,-32.29491,-16.98673,-0.4441859,-4.27255,-61.51973,-6.98289,34.57793,0,0,0,169.0138,26.85041,-18.37542,-36.05464,-110.6632,-50.32285,0.001067912,-0.1257102,0.09433498,0,0.3,0,0,0,0,
6.38224E+17,47.544,35.88554,60.09586,43.88007,13.23278,-31.70894,-16.98673,-0.4441859,-4.27255,-61.44649,-6.98289,34.57793,0,0,0,164.9967,35.03381,-17.39128,-36.05464,-110.6632,-50.32285,0.001067912,-0.1257102,0.09433498,0,0.3,0,0,0,0,
6.38224E+17,46.29532,38.66755,60.49277,47.10286,10.52271,-30.53703,-16.98673,-0.4441859,-4.27255,-61.44649,-6.98289,34.57793,0,0,0,159.1642,40.98781,-16.22457,-36.05464,-110.6632,-50.32285,0.001067912,-0.1257102,0.09433498,0,0.3,0,0,0,0,
6.38224E+17,45.5414,40.00011,60.49277,48.27478,9.204292,-29.65808,-16.98673,-0.4441859,-4.27255,-61.44649,-6.98289,34.57793,0,0,0,155.7457,43.38658,-15.52025,-36.05464,-110.6632,-50.32285,0.001067912,-0.1257102,0.09433498,0,0.3,0,0,0,0,
6.38224E+17,43.68017,42.71198,60.49277,50.39889,6.494221,-27.16775,-16.98673,-0.4441859,-4.27255,-61.51973,-6.98289,34.57793,0,0,0,147.8199,48.12374,-13.55812,-36.05464,-110.6632,-50.32285,0.001067912,-0.1257102,0.09433498,0,0.3,0,0,0,0,
6.38224E+17,41.53621,45.33034,60.46942,52.30326,3.417924,-23.94496,-16.98673,-0.4441859,-4.27255,-61.44649,-6.98289,34.57793,0,0,0,139.1,52.45814,-11.32618,-36.05464,-110.6632,-50.32285,0.001067912,-0.1257102,0.09433498,0,0.3,0,0,0,0,
6.38224E+17,40.47601,46.42911,60.42272,53.1822,1.879776,-22.18707,-16.98673,-0.4441859,-4.27255,-61.51973,-6.98289,34.57793,0,0,0,134.9443,54.14387,-10.21653,-36.05464,-110.6632,-50.32285,0.001067912,-0.1257102,0.09433498,0,0.3,0,0,0,0,
6.38224E+17,38.16714,48.34613,60.30599,54.86684,-1.562747,-18.52482,-16.98673,-0.4441859,-4.27255,-61.51973,-6.98289,34.57793,0,0,0,126.3521,56.92827,-7.59554,-36.05464,-110.6632,-50.32285,0.001067912,-0.1257102,0.09433498,0,0.3,0,0,0,0,
6.38224E+17,35.74046,49.79557,60.02582,56.40499,-5.225006,-14.71607,-16.98673,-0.4441859,-4.27255,-61.44649,-6.98289,34.57793,0,0,0,117.7541,58.5726,-4.721805,-36.05464,-110.6632,-50.32285,0.001067912,-0.1257102,0.09433498,0,0.3,0,0,0,0,
6.38224E+17,33.43158,50.54368,59.20866,57.50367,-8.521038,-11.63977,-16.98673,-0.4441859,-4.27255,-61.44649,-6.98289,34.57793,0,0,0,109.7999,58.04717,-2.029331,-36.05464,-110.6632,-50.32285,0.001067912,-0.1257102,0.09433498,0,0.3,0,0,0,0,
6.38224E+17,32.23003,50.63719,58.46156,57.79665,-10.20568,-10.02838,-16.98673,-0.4441859,-4.27255,-61.44649,-6.98289,34.57793,0,0,0,105.7185,56.69748,-0.6668766,-36.05464,-110.6632,-50.32285,0.001067912,-0.1257102,0.09433498,0,0.3,0,0,0,0,
6.38224E+17,30.18031,50.61381,56.7572,57.79665,-12.69601,-6.952079,-16.98673,-0.4441859,-4.27255,-61.44649,-6.98289,34.57793,0,0,0,98.60629,53.31354,1.20658,-36.05464,-110.6632,-50.32285,0.001067912,-0.1257102,0.09433498,0,0.3,0,0,0,0,
6.38224E+17,27.98923,50.56705,54.28239,57.0642,-15.18635,-3.216576,-16.98673,-0.4441859,-4.27255,-61.44649,-6.98289,34.57793,0,0,0,90.56096,48.49684,2.047628,-36.05464,-110.6632,-50.32285,0.001067912,-0.1257102,0.09433498,0,0.3,0,0,0,0,
6.38224E+17,25.4212,50.35665,50.89704,55.08658,-17.82317,1.397869,-16.98673,-0.4441859,-4.27255,-61.51973,-6.98289,34.57793,0,0,0,80.94287,41.92763,1.952649,-36.05464,-110.6632,-50.32285,0.001067912,-0.1257102,0.09433498,0,0.3,0,0,0,0,
6.38224E+17,23.39504,49.67868,47.79185,52.74273,-19.28808,5.572844,-16.98673,-0.4441859,-4.27255,-61.44649,-6.98289,34.57793,0,0,0,73.48181,35.43174,1.496772,-36.05464,-110.6632,-50.32285,0.001067912,-0.1257102,0.09433498,0,0.3,0,0,0,0,
6.38224E+17,22.33484,49.25787,46.29763,51.27783,-19.80079,8.282915,-16.98673,-0.4441859,-4.27255,-61.51973,-6.98289,34.57793,0,0,0,69.70892,32.25009,1.323932,-36.05464,-110.6632,-50.32285,0.001067912,-0.1257102,0.09433498,0,0.3,0,0,0,0,
6.38224E+17,20.47361,48.48639,43.91621,48.12829,-20.82623,14.21577,-16.98673,-0.4441859,-4.27255,-61.51973,-6.98289,34.57793,0,0,0,63.2662,27.14293,1.101063,-36.05464,-110.6632,-50.32285,0.001067912,-0.1257102,0.09433498,0,0.3,0,0,0,0,
6.38224E+17,18.51813,47.43437,41.51144,45.49146,-21.63192,18.97671,-16.98673,-0.4441859,-4.27255,-61.44649,-6.98289,34.57793,0,0,0,56.71875,21.70708,0.986379,-36.05464,-110.6632,-50.32285,0.001067912,-0.1257102,0.09433498,0,0.3,0,0,0,0,
6.38224E+17,17.52861,46.77979,40.08725,43.95331,-21.70517,21.17406,-16.98673,-0.4441859,-4.27255,-61.44649,-6.98289,34.57793,0,0,0,53.36639,18.50438,0.6123291,-36.05464,-110.6632,-50.32285,0.001067912,-0.1257102,0.09433498,0,0.3,0,0,0,0,
6.38224E+17,15.12549,45.44723,37.1455,39.5586,-21.33894,26.66745,-16.98673,-0.4441859,-4.27255,-61.51973,-6.98289,34.57793,0,0,0,45.42237,12.08191,-0.304547,-36.05464,-110.6632,-50.32285,0.001067912,-0.1257102,0.09433498,0,0.3,0,0,0,0,
6.38224E+17,12.58102,44.7225,35.09094,33.91872,-20.38675,31.86786,-16.98673,-0.4441859,-4.27255,-61.51973,-6.98289,34.57793,0,0,0,37.33607,8.072515,-1.057719,-36.05464,-110.6632,-50.32285,0.001067912,-0.1257102,0.09433498,0,0.3,0,0,0,0,
6.38224E+17,9.848064,44.37183,33.92358,27.83937,-19.06834,35.38363,-16.98673,-0.4441859,-4.27255,-61.44649,-6.98289,34.57793,0,0,0,29.03194,5.951728,-1.10954,-36.05464,-110.6632,-50.32285,0.001067912,-0.1257102,0.09433498,0,0.3,0,0,0,0,
6.38224E+17,7.562747,44.27832,33.57337,23.00519,-17.96966,37.14151,-16.98673,-0.4441859,-4.27255,-61.51973,-6.909645,34.57793,0,0,0,22.27084,5.343217,-0.6059625,-36.05464,-110.6632,-50.32285,0.001067912,-0.1257102,0.09433498,0,0.3,0,0,0,0,
6.38224E+17,4.688432,44.3017,33.52667,16.48637,-16.79774,38.89939,-16.98673,-0.4441859,-4.27255,-61.44649,-6.98289,34.57793,0,0,0,13.82075,5.322103,0.1716455,-36.05464,-110.6632,-50.32285,0.001067912,-0.1257102,0.09433498,0,0.3,0,0,0,0,
6.38224E+17,0.9895183,44.3017,33.90023,7.110993,-15.47933,40.21781,-16.98673,-0.4441859,-4.27255,-61.51973,-6.98289,34.57793,0,0,0,2.932544,5.804661,1.435301,-36.05464,-110.6632,-50.32285,0.001067912,-0.1257102,0.09433498,0,0.3,0,0,0,0,
6.38224E+17,-0.9188384,44.32507,34.36718,1.910586,-14.60039,40.65728,-16.98673,-0.4441859,-4.27255,-61.44649,-6.98289,34.57793,0,0,0,-2.736911,6.453405,2.300216,-36.05464,-110.6632,-50.32285,0.001067912,-0.1257102,0.09433498,0,0.3,0,0,0,0,
6.38224E+17,-4.476392,44.34845,36.02483,-9.295925,-12.91575,41.31649,-16.98673,-0.4441859,-4.27255,-61.44649,-6.98289,34.57793,0,0,0,-13.56377,8.715913,4.906622,-36.05464,-110.6632,-50.32285,0.001067912,-0.1257102,0.09433498,0,0.3,0,0,0,0,
6.38224E+17,-7.138669,44.37183,37.986,-20.86866,-11.3776,41.60947,-16.98673,-0.4441859,-4.27255,-61.44649,-6.98289,34.57793,0,0,0,-22.0449,11.50196,7.668471,-36.05464,-110.6632,-50.32285,0.001067912,-0.1257102,0.09433498,0,0.3,0,0,0,0,
6.38224E+17,-8.528707,44.60561,40.06391,-31.70894,-9.692961,41.68271,-16.98673,-0.4441859,-4.27255,-61.44649,-6.98289,34.50468,0,0,0,-26.80895,14.93505,10.42012,-36.05464,-110.6632,-50.32285,0.001067912,-0.1257102,0.09433498,0,0.3,0,0,0,0,
6.38224E+17,-8.882105,45.40047,42.44533,-40.42512,-8.447793,41.60947,-16.98673,-0.4441859,-4.27255,-61.51973,-6.98289,34.57793,0,0,0,-28.35241,19.89759,13.0754,-36.05464,-110.6632,-50.32285,0.001067912,-0.1257102,0.09433498,0,0.3,0,0,0,0,
6.38224E+17,-8.882105,46.0083,43.84616,-44.16063,-8.228058,41.31649,-16.98673,-0.4441859,-4.27255,-61.51973,-6.98289,34.57793,0,0,0,-28.56335,23.11506,14.42518,-36.05464,-110.6632,-50.32285,0.001067912,-0.1257102,0.09433498,0,0.3,0,0,0,0,
6.38224E+17,-8.834986,47.64478,47.53503,-51.04567,-8.594284,40.73053,-16.98673,-0.4441859,-4.27255,-61.51973,-6.98289,34.57793,0,0,0,-28.90737,31.86344,17.62906,-36.05464,-110.6632,-50.32285,0.001067912,-0.1257102,0.09433498,0,0.3,0,0,0,0,
6.38224E+17,-8.410906,49.49166,51.20055,-57.27151,-9.399981,40.65728,-16.98673,-0.4441859,-4.27255,-61.51973,-6.909645,34.57793,0,0,0,-27.87115,41.18091,20.14479,-36.05464,-110.6632,-50.32285,0.001067912,-0.1257102,0.09433498,0,0.3,0,0,0,0,
6.38224E+17,-7.892587,50.45016,52.92825,-60.27456,-9.912696,41.09675,-16.98673,-0.4441859,-4.27255,-61.51973,-6.98289,34.57793,0,0,0,-26.26972,45.78699,21.14575,-36.05464,-110.6632,-50.32285,0.001067912,-0.1257102,0.09433498,0,0.3,0,0,0,0,
6.38224E+17,-6.408309,52.36718,56.10348,-65.10874,-11.3776,42.70815,-16.98673,-0.4441859,-4.27255,-61.44649,-6.98289,34.57793,0,0,0,-21.44199,54.58661,22.55967,-36.05464,-110.6632,-50.32285,0.001067912,-0.1257102,0.09433498,0,0.3,0,0,0,0,
6.38224E+17,-4.287913,54.5881,58.90515,-68.62451,-13.42846,45.27173,-16.98673,-0.4441859,-4.27255,-61.51973,-6.98289,34.57793,0,0,0,-14.31508,63.1618,22.57321,-36.05464,-110.6632,-50.32285,0.001067912,-0.1257102,0.09433498,0,0.3,0,0,0,0,
6.38224E+17,-3.086355,55.68688,60.07252,-70.01617,-14.67363,46.59014,-16.98673,-0.4441859,-4.27255,-61.44649,-6.98289,34.57793,0,0,0,-10.26964,66.96421,22.11354,-36.05464,-110.6632,-50.32285,0.001067912,-0.1257102,0.09433498,0,0.3,0,0,0,0,
6.38224E+17,-0.1413598,57.93119,61.98699,-72.43327,-17.96966,49.15372,-16.98673,-0.4441859,-4.27255,-61.44649,-6.98289,34.57793,0,0,0,-0.465133,73.7215,20.17677,-36.05464,-110.6632,-50.32285,0.001067912,-0.1257102,0.09433498,0,0.3,0,0,0,0,
6.38224E+17,3.109915,59.6378,62.71075,-73.82492,-21.70517,50.76511,-16.98673,-0.4441859,-4.27255,-61.44649,-6.98289,34.57793,0,0,0,10.08604,77.27201,17.28851,-36.05464,-110.6632,-50.32285,0.001067912,-0.1257102,0.09433498,0,0.3,0,0,0,0,
6.38224E+17,4.900472,60.31576,62.71075,-73.53194,-23.75603,50.98485,-16.98673,-0.4441859,-4.27255,-61.44649,-6.98289,34.57793,0,0,0,15.76488,78.06152,15.52154,-36.05464,-110.6632,-50.32285,0.001067912,-0.1257102,0.09433498,0,0.3,0,0,0,0,
6.38224E+17,8.363786,61.41454,62.66406,-71.26134,-27.71127,50.39889,-16.98673,-0.4441859,-4.27255,-61.51973,-6.98289,34.57793,0,0,0,26.5115,79.20999,11.97411,-36.05464,-110.6632,-50.32285,0.001067912,-0.1257102,0.09433498,0,0.3,0,0,0,0,
6.38224E+17,11.8271,62.16264,61.66013,-66.42715,-31.95949,48.49451,-16.98673,-0.4441859,-4.27255,-61.51973,-6.98289,34.57793,0,0,0,36.81826,77.96694,7.473591,-36.05464,-110.6632,-50.32285,0.001067912,-0.1257102,0.09433498,0,0.3,0,0,0,0,
6.38224E+17,14.86634,62.25616,59.69896,-58.07721,-35.32877,44.46603,-16.98673,-0.4441859,-4.27255,-61.51973,-6.98289,34.57793,0,0,0,45.46577,74.08892,2.927854,-36.05464,-110.6632,-50.32285,0.001067912,-0.1257102,0.09433498,0,0.3,0,0,0,0,
6.38224E+17,16.27993,61.99899,58.32147,-52.36408,-36.57394,41.38973,-16.98673,-0.4441859,-4.27255,-61.44649,-6.98289,34.57793,0,0,0,49.36285,71.06084,0.6775019,-36.05464,-110.6632,-50.32285,0.001067912,-0.1257102,0.09433498,0,0.3,0,0,0,0,
6.38224E+17,18.77729,60.9236,55.09955,-40.0589,-37.01341,34.13846,-16.98673,-0.4441859,-4.27255,-61.44649,-6.98289,34.57793,0,0,0,56.06413,63.59771,-3.448462,-36.05464,-110.6632,-50.32285,0.001067912,-0.1257102,0.09433498,0,0.3,0,0,0,0,
6.38224E+17,20.68565,59.49752,52.0644,-29.65808,-35.32877,27.98586,-16.98673,-0.4441859,-4.27255,-61.44649,-6.98289,34.57793,0,0,0,61.06067,56.26504,-6.635106,-36.05464,-110.6632,-50.32285,0.001067912,-0.1257102,0.09433498,0,0.3,0,0,0,0,
6.38224E+17,21.58092,58.46889,50.3367,-24.8239,-33.71738,25.20255,-16.98673,-0.4441859,-4.27255,-61.44649,-6.98289,34.57793,0,0,0,63.40795,51.89777,-8.04388,-36.05464,-110.6632,-50.32285,0.001067912,-0.1257102,0.09433498,0,0.3,0,0,0,0,
6.38224E+17,23.15944,55.71026,46.9747,-16.5472,-29.61565,21.17406,-16.98673,-0.4441859,-4.27255,-61.44649,-6.98289,34.57793,0,0,0,67.8869,42.53612,-9.64782,-36.05464,-110.6632,-50.32285,0.001067912,-0.1257102,0.09433498,0,0.3,0,0,0,0,
6.38224E+17,24.57304,52.20353,44.10299,-10.54109,-24.56173,18.97671,-16.98673,-0.4441859,-4.27255,-61.51973,-6.98289,34.57793,0,0,0,72.57865,32.9649,-9.627191,-36.05464,-110.6632,-50.32285,0.001067912,-0.1257102,0.09433498,0,0.3,0,0,0,0,
6.38224E+17,25.7746,48.50977,42.09512,-5.926647,-19.06834,17.95128,-16.98673,-0.4441859,-4.27255,-61.44649,-6.98289,34.57793,0,0,0,77.28542,24.28822,-8.296381,-36.05464,-110.6632,-50.32285,0.001067912,-0.1257102,0.09433498,0,0.3,0,0,0,0,
6.38224E+17,26.76412,45.0498,40.92776,-2.70386,-13.57495,17.14558,-16.98673,-0.4441859,-4.27255,-61.51973,-6.98289,34.57793,0,0,0,81.76396,16.97385,-6.23266,-36.05464,-110.6632,-50.32285,0.001067912,-0.1257102,0.09433498,0,0.3,0,0,0,0,
6.38224E+17,27.18819,43.29643,40.5542,-1.458692,-10.79164,16.70611,-16.98673,-0.4441859,-4.27255,-61.44649,-6.98289,34.57793,0,0,0,83.95988,13.47967,-4.898906,-36.05464,-110.6632,-50.32285,0.001067912,-0.1257102,0.09433498,0,0.3,0,0,0,0,
6.38224E+17,27.91855,40.25727,40.22734,0.006211365,-6.103948,16.0469,-16.98673,-0.4441859,-4.27255,-61.51973,-6.909645,34.57793,0,0,0,87.97146,7.712419,-2.330852,-36.05464,-110.6632,-50.32285,0.001067912,-0.1257102,0.09433498,0,0.3,0,0,0,0,
6.38224E+17,28.76671,37.52202,40.22734,0.8119082,-2.075463,15.16796,-16.98673,-0.4441859,-4.27255,-61.51973,-6.98289,34.57793,0,0,0,92.34256,2.757862,-0.148109,-36.05464,-110.6632,-50.32285,0.001067912,-0.1257102,0.09433498,0,0.3,0,0,0,0,
6.38224E+17,29.21435,36.1427,40.25069,1.104889,-0.2443342,14.36226,-16.98673,-0.4441859,-4.27255,-61.51973,-6.98289,34.57793,0,0,0,94.61335,0.2235958,0.8411295,-36.05464,-110.6632,-50.32285,0.001067912,-0.1257102,0.09433498,0,0.3,0,0,0,0,
6.38224E+17,30.03895,33.92177,40.25069,1.471115,2.978453,12.38465,-16.98673,-0.4441859,-4.27255,-61.51973,-6.98289,34.57793,0,0,0,98.5237,-4.008654,2.030474,-36.05464,-110.6632,-50.32285,0.001067912,-0.1257102,0.09433498,0,0.3,0,0,0,0,
6.38224E+17,31.14627,32.00476,40.60089,1.837341,5.835015,8.722386,-16.98673,-0.4441859,-4.27255,-61.51973,-6.98289,34.57793,0,0,0,103.3744,-7.223344,2.703256,-36.05464,-110.6632,-50.32285,0.001067912,-0.1257102,0.09433498,0,0.3,0,0,0,0,
6.38224E+17,32.46563,30.06437,41.74491,2.862773,8.03237,5.499599,-16.98673,-0.4441859,-4.27255,-61.51973,-6.98289,34.57793,0,0,0,109.6111,-9.339938,3.932943,-36.05464,-110.6632,-50.32285,0.001067912,-0.1257102,0.09433498,0,0.3,0,0,0,0,
6.38224E+17,33.21954,29.29289,42.51537,3.66847,8.984557,4.327676,-16.98673,-0.4441859,-4.27255,-61.51973,-6.98289,34.57793,0,0,0,113.0841,-9.697045,4.332025,-36.05464,-110.6632,-50.32285,0.001067912,-0.1257102,0.09433498,0,0.3,0,0,0,0,
6.38224E+17,34.79806,28.28763,44.52324,6.158805,10.81569,2.789528,-16.98673,-0.4441859,-4.27255,-61.51973,-6.98289,34.57793,0,0,0,120.3748,-8.529732,4.859172,-36.05464,-110.6632,-50.32285,0.001067912,-0.1257102,0.09433498,0,0.3,0,0,0,0,
6.38224E+17,36.49438,28.05384,47.09144,9.821064,11.84112,1.910586,-16.98673,-0.4441859,-4.27255,-61.51973,-6.98289,34.57793,0,0,0,128.08,-4.724077,4.775714,-36.05464,-110.6632,-50.32285,0.001067912,-0.1257102,0.09433498,0,0.3,0,0,0,0,
6.38224E+17,38.61478,28.07722,51.87762,15.97366,11.47489,1.54436,-16.98673,-0.4441859,-4.27255,-61.44649,-6.98289,34.57793,0,0,0,138.8969,3.789956,5.551118,-36.05464,-110.6632,-50.32285,0.001067912,-0.1257102,0.09433498,0,0.3,0,0,0,0,
6.38224E+17,39.43937,28.14736,55.56649,21.54029,10.81569,1.471115,-16.98673,-0.4441859,-4.27255,-61.51973,-6.98289,34.57793,0,0,0,144.5629,10.85395,7.397402,-36.05464,-110.6632,-50.32285,0.001067912,-0.1257102,0.09433498,0,0.3,0,0,0,0,
6.38224E+17,39.62786,28.19411,57.50431,24.98281,10.37621,1.324624,-16.98673,-0.4441859,-4.27255,-61.44649,-6.98289,34.57793,0,0,0,146.6936,14.71214,8.796701,-36.05464,-110.6632,-50.32285,0.001067912,-0.1257102,0.09433498,0,0.3,0,0,0,0,
6.38224E+17,39.67498,28.49803,60.79628,31.35514,9.204292,1.324624,-16.98673,-0.4441859,-4.27255,-61.44649,-6.98289,34.57793,0,0,0,149.1328,21.91145,11.44103,-36.05464,-110.6632,-50.32285,0.001067912,-0.1257102,0.09433498,0,0.3,0,0,0,0,
6.38224E+17,39.43937,29.176,63.43452,37.43449,7.959125,1.324624,-16.98673,-0.4441859,-4.27255,-61.44649,-6.98289,34.57793,0,0,0,149.7329,28.72049,13.68263,-36.05464,-110.6632,-50.32285,0.001067912,-0.1257102,0.09433498,0,0.3,0,0,0,0,
6.38224E+17,38.99174,30.1345,65.349,42.70815,6.640712,1.324624,-16.98673,-0.4441859,-4.27255,-61.44649,-6.98289,34.57793,0,0,0,148.8234,34.67697,15.48578,-36.05464,-110.6632,-50.32285,0.001067912,-0.1257102,0.09433498,0,0.3,0,0,0,0,
6.38224E+17,38.21426,31.5372,66.95996,47.8353,5.395544,1.764095,-16.98673,-0.4441859,-4.27255,-61.51973,-6.98289,34.57793,0,0,0,146.2177,40.90921,17.36441,-36.05464,-110.6632,-50.32285,0.001067912,-0.1257102,0.09433498,0,0.3,0,0,0,0,
6.38224E+17,37.64882,32.4957,67.9172,50.54538,4.736337,2.203566,-16.98673,-0.4441859,-4.27255,-61.51973,-6.98289,34.57793,0,0,0,144.1775,44.85804,18.53869,-36.05464,-110.6632,-50.32285,0.001067912,-0.1257102,0.09433498,0,0.3,0,0,0,0,
6.38224E+17,36.25878,34.62312,69.85503,56.40499,3.271434,2.643037,-16.98673,-0.4441859,-4.27255,-61.51973,-6.98289,34.57793,0,0,0,138.9436,53.19093,21.08422,-36.05464,-110.6632,-50.32285,0.001067912,-0.1257102,0.09433498,0,0.3,0,0,0,0,
6.38224E+17,34.4211,36.98432,71.09243,63.29004,1.733285,-0.6529952,-16.98673,-0.4441859,-4.27255,-61.44649,-6.98289,34.57793,0,0,0,131.5243,60.36181,23.58467,-36.05464,-110.6632,-50.32285,0.001067912,-0.1257102,0.09433498,0,0.3,0,0,0,0,
6.38224E+17,32.41851,39.15849,70.92899,70.32157,0.3416272,-12.88494,-16.98673,-0.4441859,-4.27255,-61.51973,-6.98289,34.57793,0,0,0,122.9978,63.98548,25.32518,-36.05464,-110.6632,-50.32285,0.001067912,-0.1257102,0.09433498,0,0.3,0,0,0,0,
6.38224E+17,31.52323,40.09362,70.46205,73.47112,-0.4640697,-18.8178,-16.98673,-0.4441859,-4.27255,-61.44649,-6.909645,34.57793,0,0,0,119.043,64.63612,25.73391,-36.05464,-110.6632,-50.32285,0.001067912,-0.1257102,0.09433498,0,0.3,0,0,0,0,
6.38224E+17,30.08607,41.6132,68.43084,78.3053,-2.441689,-25.92258,-16.98673,-0.4441859,-4.27255,-61.51973,-6.98289,34.57793,0,0,0,112.1462,62.88486,25.22079,-36.05464,-110.6632,-50.32285,0.001067912,-0.1257102,0.09433498,0,0.3,0,0,0,0,
6.38224E+17,29.00231,42.59509,65.09218,80.13642,-4.932025,-28.48616,-16.98673,-0.4441859,-4.27255,-61.44649,-6.909645,34.57793,0,0,0,106.2358,57.44135,23.28621,-36.05464,-110.6632,-50.32285,0.001067912,-0.1257102,0.09433498,0,0.3,0,0,0,0,
6.38224E+17,28.57823,42.82887,62.96758,79.91669,-6.323683,-27.97344,-16.98673,-0.4441859,-4.27255,-61.51973,-6.98289,34.57793,0,0,0,103.6022,53.39592,21.84175,-36.05464,-110.6632,-50.32285,0.001067912,-0.1257102,0.09433498,0,0.3,0,0,0,0,
6.38224E+17,27.70651,42.85225,58.20473,77.4996,-8.594284,-23.72522,-16.98673,-0.4441859,-4.27255,-61.51973,-6.98289,34.57793,0,0,0,98.14904,43.78249,18.54474,-36.05464,-110.6632,-50.32285,0.001067912,-0.1257102,0.09433498,0,0.3,0,0,0,0,
6.38224E+17,26.34004,42.75873,53.11503,73.54436,-10.64515,-16.03448,-16.98673,-0.4441859,-4.27255,-61.51973,-6.98289,34.57793,0,0,0,90.76589,33.84494,14.97821,-36.05464,-110.6632,-50.32285,0.001067912,-0.1257102,0.09433498,0,0.3,0,0,0,0,
6.38224E+17,24.21964,42.43144,47.32491,68.85667,-12.8425,-6.512609,-16.98673,-0.4441859,-4.27255,-61.51973,-6.98289,34.57793,0,0,0,80.59647,22.93226,10.821,-36.05464,-110.6632,-50.32285,0.001067912,-0.1257102,0.09433498,0,0.3,0,0,0,0,
6.38224E+17,22.33484,41.49631,42.6788,65.12117,-13.94118,0.8119082,-16.98673,-0.4441859,-4.27255,-61.44649,-6.909645,34.57793,0,0,0,72.30817,13.66964,7.650582,-36.05464,-110.6632,-50.32285,0.001067912,-0.1257102,0.09433498,0,0.3,0,0,0,0,
6.38224E+17,21.08616,40.58456,39.73705,62.70407,-14.38065,5.499599,-16.98673,-0.4441859,-4.27255,-61.51973,-6.98289,34.57793,0,0,0,67.10394,7.559121,5.67904,-36.05464,-110.6632,-50.32285,0.001067912,-0.1257102,0.09433498,0,0.3,0,0,0,0,
6.38224E+17,18.04693,37.84931,34.74073,57.35718,-14.82012,14.65524,-16.98673,-0.4441859,-4.27255,-61.44649,-6.98289,34.57793,0,0,0,56.16232,-4.407105,4.019317,-36.05464,-110.6632,-50.32285,0.001067912,-0.1257102,0.09433498,0,0.3,0,0,0,0,
6.38224E+17,14.93702,34.74001,31.77563,52.59624,-14.89337,22.71221,-16.98673,-0.4441859,-4.27255,-61.44649,-6.98289,34.57793,0,0,0,46.34503,-14.02311,5.375686,-36.05464,-110.6632,-50.32285,0.001067912,-0.1257102,0.09433498,0,0.3,0,0,0,0,
6.38224E+17,13.49986,33.31394,30.81839,50.69187,-14.96661,25.935,-16.98673,-0.4441859,-4.27255,-61.51973,-6.98289,34.57793,0,0,0,41.96249,-17.93107,6.43824,-36.05464,-110.6632,-50.32285,0.001067912,-0.1257102,0.09433498,0,0.3,0,0,0,0,
6.38224E+17,10.48418,30.50856,29.18408,47.10286,-14.96661,31.42839,-16.98673,-0.4441859,-4.27255,-61.44649,-6.98289,34.57793,0,0,0,32.7375,-25.37483,8.558289,-36.05464,-110.6632,-50.32285,0.001067912,-0.1257102,0.09433498,0,0.3,0,0,0,0,
6.38224E+17,6.997309,27.82006,28.01672,43.29411,-14.82012,35.67661,-16.98673,-0.4441859,-4.27255,-61.51973,-6.98289,34.57793,0,0,0,21.9982,-32.13883,10.88053,-36.05464,-110.6632,-50.32285,0.001067912,-0.1257102,0.09433498,0,0.3,0,0,0,0,
6.38224E+17,4.994712,26.44075,27.7132,41.17,-14.4539,37.58098,-16.98673,-0.4441859,-4.27255,-61.51973,-6.98289,34.57793,0,0,0,15.79467,-35.32592,12.37598,-36.05464,-110.6632,-50.32285,0.001067912,-0.1257102,0.09433498,0,0.3,0,0,0,0,
6.38224E+17,-0.04711992,23.86915,27.64316,35.0174,-12.8425,42.48841,-16.98673,-0.4441859,-4.27255,-61.51973,-6.98289,34.57793,0,0,0,-0.1511685,-40.8187,15.46431,-36.05464,-110.6632,-50.32285,0.001067912,-0.1257102,0.09433498,0,0.3,0,0,0,0,
6.38224E+17,-3.793154,22.72361,28.01672,30.25646,-11.67058,45.78444,-16.98673,-0.4441859,-4.27255,-61.44649,-6.98289,34.57793,0,0,0,-12.2808,-42.86152,16.88096,-36.05464,-110.6632,-50.32285,0.001067912,-0.1257102,0.09433498,0,0.3,0,0,0,0,
6.38224E+17,-8.293106,21.74173,28.9973,23.81089,-9.619716,49.73968,-16.98673,-0.4441859,-4.27255,-61.51973,-6.98289,34.57793,0,0,0,-27.18982,-43.88763,18.18656,-36.05464,-110.6632,-50.32285,0.001067912,-0.1257102,0.09433498,0,0.3,0,0,0,0,
6.38224E+17,-10.24858,21.39106,29.58099,20.66135,-8.740773,51.42432,-16.98673,-0.4441859,-4.27255,-61.51973,-6.98289,34.57793,0,0,0,-33.80333,-43.98206,18.61124,-36.05464,-110.6632,-50.32285,0.001067912,-0.1257102,0.09433498,0,0.3,0,0,0,0,
6.38224E+17,-14.08886,20.82998,31.5655,14.28902,-6.909645,54.86684,-16.98673,-0.4441859,-4.27255,-61.51973,-6.98289,34.57793,0,0,0,-47.33166,-42.8511,20.24048,-36.05464,-110.6632,-50.32285,0.001067912,-0.1257102,0.09433498,0,0.3,0,0,0,0,
6.38224E+17,-17.41081,20.40917,34.1804,8.722386,-5.591231,57.79665,-16.98673,-0.4441859,-4.27255,-61.44649,-6.98289,34.57793,0,0,0,-59.81281,-40.46474,22.38677,-36.05464,-110.6632,-50.32285,0.001067912,-0.1257102,0.09433498,0,0.3,0,0,0,0,
6.38224E+17,-19.08357,20.24553,35.55789,5.93907,-5.444741,58.96857,-16.98673,-0.4441859,-4.27255,-61.44649,-6.98289,34.57793,0,0,0,-66.25834,-38.98908,23.17028,-36.05464,-110.6632,-50.32285,0.001067912,-0.1257102,0.09433498,0,0.3,0,0,0,0,
6.38224E+17,-22.1228,20.10526,37.70583,0.8851534,-5.444741,60.72646,-16.98673,-0.4441859,-4.27255,-61.44649,-6.98289,34.57793,0,0,0,-77.87261,-36.31285,23.20836,-36.05464,-110.6632,-50.32285,0.001067912,-0.1257102,0.09433498,0,0.3,0,0,0,0,
6.38224E+17,-25.04424,20.10526,39.2701,-4.461744,-5.078516,62.19136,-16.98673,-0.4441859,-4.27255,-61.51973,-6.98289,34.57793,0,0,0,-88.74076,-34.04715,21.5722,-36.05464,-110.6632,-50.32285,0.001067912,-0.1257102,0.09433498,0,0.3,0,0,0,0,
6.38224E+17,-27.04683,20.10526,40.20399,-8.709964,-4.565799,62.92381,-16.98673,-0.4441859,-4.27255,-61.51973,-6.98289,34.57793,0,0,0,-96.08337,-32.6577,19.84378,-36.05464,-110.6632,-50.32285,0.001067912,-0.1257102,0.09433498,0,0.3,0,0,0,0,
6.38224E+17,-28.69603,20.12863,40.69429,-12.95818,-3.613612,63.36329,-16.98673,-0.4441859,-4.27255,-61.51973,-6.98289,34.57793,0,0,0,-101.8677,-31.86629,17.74584,-36.05464,-110.6632,-50.32285,0.001067912,-0.1257102,0.09433498,0,0.3,0,0,0,0,
6.38224E+17,-30.62795,20.12863,40.74098,-18.8178,-1.635992,63.58302,-16.98673,-0.4441859,-4.27255,-61.44649,-6.909645,34.57793,0,0,0,-108.1255,-31.7954,14.27678,-36.05464,-110.6632,-50.32285,0.001067912,-0.1257102,0.09433498,0,0.3,0,0,0,0,
6.38224E+17,-32.44207,20.12863,40.67094,-24.67741,0.8543434,62.85057,-16.98673,-0.4441859,-4.27255,-61.51973,-6.98289,34.57793,0,0,0,-113.7864,-31.90171,10.65803,-36.05464,-110.6632,-50.32285,0.001067912,-0.1257102,0.09433498,0,0.3,0,0,0,0,
6.38224E+17,-34.25618,20.12863,40.43747,-31.04974,3.93064,60.65321,-16.98673,-0.4441859,-4.27255,-61.44649,-6.98289,34.57793,0,0,0,-119.1638,-32.255,6.624929,-36.05464,-110.6632,-50.32285,0.001067912,-0.1257102,0.09433498,0,0.3,0,0,0,0,
6.38224E+17,-35.05722,20.10526,40.32073,-34.19928,5.322299,58.74884,-16.98673,-0.4441859,-4.27255,-61.44649,-6.98289,34.57793,0,0,0,-121.4902,-32.48211,4.787781,-36.05464,-110.6632,-50.32285,0.001067912,-0.1257102,0.09433498,0,0.3,0,0,0,0,
6.38224E+17,-36.7771,19.94161,39.97052,-42.10976,8.838067,51.93703,-16.98673,-0.4441859,-4.27255,-61.44649,-6.98289,34.57793,0,0,0,-126.337,-33.36546,0.6689079,-36.05464,-110.6632,-50.32285,0.001067912,-0.1257102,0.09433498,0,0.3,0,0,0,0,
6.38224E+17,-37.79018,19.70782,39.10667,-48.55533,11.10867,45.63795,-16.98673,-0.4441859,-4.27255,-61.44649,-6.98289,34.57793,0,0,0,-128.4686,-35.1572,-2.670693,-36.05464,-110.6632,-50.32285,0.001067912,-0.1257102,0.09433498,0,0.3,0,0,0,0,
6.38224E+17,-37.9551,19.56756,38.21947,-51.92461,12.28059,42.41516,-16.98673,-0.4441859,-4.27255,-61.51973,-6.98289,34.57793,0,0,0,-128.0208,-36.75466,-4.225935,-36.05464,-110.6632,-50.32285,0.001067912,-0.1257102,0.09433498,0,0.3,0,0,0,0,
6.38224E+17,-37.27186,19.28702,34.50726,-57.12502,13.96523,36.4823,-16.98673,-0.4441859,-4.27255,-61.44649,-6.98289,34.57793,0,0,0,-121.9734,-42.49208,-8.07373,-36.05464,-110.6632,-50.32285,0.001067912,-0.1257102,0.09433498,0,0.3,0,0,0,0,
6.38224E+17,-35.26926,18.235,30.51488,-58.80966,15.79636,30.98892,-16.98673,-0.4441859,-4.27255,-61.51973,-6.98289,34.57793,0,0,0,-112.2292,-49.80344,-9.662508,-36.05464,-110.6632,-50.32285,0.001067912,-0.1257102,0.09433498,0,0.3,0,0,0,0,
6.38224E+17,-33.90279,17.44014,29.044,-58.44344,16.74854,28.93805,-16.98673,-0.4441859,-4.27255,-61.51973,-6.909645,34.57793,0,0,0,-107.0719,-53.26463,-9.026968,-36.05464,-110.6632,-50.32285,0.001067912,-0.1257102,0.09433498,0,0.3,0,0,0,0,
6.38224E+17,-30.55727,15.64002,26.59254,-56.09959,19.09239,25.05606,-16.98673,-0.4441859,-4.27255,-61.51973,-6.98289,34.57793,0,0,0,-95.63286,-59.94309,-6.368073,-36.05464,-110.6632,-50.32285,0.001067912,-0.1257102,0.09433498,0,0.3,0,0,0,0,
6.38224E+17,-26.88192,14.2607,24.67806,-52.80355,22.0222,21.90652,-16.98673,-0.4441859,-4.27255,-61.44649,-6.98289,34.57793,0,0,0,-83.61081,-64.97221,-3.41509,-36.05464,-110.6632,-50.32285,0.001067912,-0.1257102,0.09433498,0,0.3,0,0,0,0,
6.38224E+17,-23.183,13.69963,23.62743,-49.28778,24.73227,19.56267,-16.98673,-0.4441859,-4.27255,-61.44649,-6.98289,34.57793,0,0,0,-72.04198,-67.23987,-0.1256342,-36.05464,-110.6632,-50.32285,0.001067912,-0.1257102,0.09433498,0,0.3,0,0,0,0,
6.38224E+17,-20.94481,13.55936,23.20718,-47.31017,26.19717,18.46399,-16.98673,-0.4441859,-4.27255,-61.44649,-6.98289,34.57793,0,0,0,-65.12386,-67.94585,1.793175,-36.05464,-110.6632,-50.32285,0.001067912,-0.1257102,0.09433498,0,0.3,0,0,0,0,
6.38224E+17,-16.35061,13.41909,22.6235,-43.13519,28.76075,16.33988,-16.98673,-0.4441859,-4.27255,-61.44649,-6.98289,34.57793,0,0,0,-50.9557,-68.79225,5.335219,-36.05464,-110.6632,-50.32285,0.001067912,-0.1257102,0.09433498,0,0.3,0,0,0,0,
6.38224E+17,-11.02606,13.09179,22.15656,-38.88697,31.1046,14.50875,-16.98673,-0.4441859,-4.27255,-61.51973,-6.98289,34.57793,0,0,0,-34.45955,-69.94766,8.499473,-36.05464,-110.6632,-50.32285,0.001067912,-0.1257102,0.09433498,0,0.3,0,0,0,0,
6.38224E+17,-4.900472,12.83463,22.2266,-34.12604,33.59494,13.7763,-16.98673,-0.4441859,-4.27255,-61.51973,-6.98289,34.57793,0,0,0,-15.41588,-70.46935,11.451,-36.05464,-110.6632,-50.32285,0.001067912,-0.1257102,0.09433498,0,0.3,0,0,0,0,
6.38224E+17,2.756516,12.83463,22.41338,-27.75371,35.93878,14.28902,-16.98673,-0.4441859,-4.27255,-61.51973,-6.98289,34.57793,0,0,0,8.698002,-70.30426,12.30353,-36.05464,-110.6632,-50.32285,0.001067912,-0.1257102,0.09433498,0,0.3,0,0,0,0,
6.38224E+17,6.573229,12.78788,22.53011,-24.16469,36.89096,16.19339,-16.98673,-0.4441859,-4.27255,-61.44649,-6.98289,34.57793,0,0,0,20.73541,-70.30652,11.59725,-36.05464,-110.6632,-50.32285,0.001067912,-0.1257102,0.09433498,0,0.3,0,0,0,0,
6.38224E+17,15.21973,12.78788,23.16049,-14.9358,38.42912,22.93195,-16.98673,-0.4441859,-4.27255,-61.51973,-6.98289,34.57793,0,0,0,47.90757,-69.73692,7.739399,-36.05464,-110.6632,-50.32285,0.001067912,-0.1257102,0.09433498,0,0.3,0,0,0,0,
6.38224E+17,23.48928,12.71774,24.49128,-4.901215,39.16157,28.64507,-16.98673,-0.4441859,-4.27255,-61.51973,-6.98289,34.57793,0,0,0,73.88006,-68.64497,1.649462,-36.05464,-110.6632,-50.32285,0.001067912,-0.1257102,0.09433498,0,0.3,0,0,0,0,
6.38224E+17,27.09396,12.71774,24.98158,-0.140279,39.08832,30.18322,-16.98673,-0.4441859,-4.27255,-61.44649,-6.98289,34.57793,0,0,0,84.89411,-68.16749,-2.409183,-36.05464,-110.6632,-50.32285,0.001067912,-0.1257102,0.09433498,0,0.3,0,0,0,0,
6.38224E+17,33.50227,12.71774,25.1917,8.575896,37.98964,29.23104,-16.98673,-0.4441859,-4.27255,-61.44649,-6.98289,34.57793,0,0,0,103.1293,-67.96014,-12.55199,-36.05464,-110.6632,-50.32285,0.001067912,-0.1257102,0.09433498,0,0.3,0,0,0,0,
6.38224E+17,38.96818,12.69436,25.56526,14.94823,35.6458,25.05606,-16.98673,-0.4441859,-4.27255,-61.44649,-6.98289,34.57793,0,0,0,118.0022,-67.64059,-22.46379,-36.05464,-110.6632,-50.32285,0.001067912,-0.1257102,0.09433498,0,0.3,0,0,0,0,
6.38224E+17,41.22993,12.69436,26.42911,17.51181,34.25414,22.34599,-16.98673,-0.4441859,-4.27255,-61.44649,-6.98289,34.57793,0,0,0,124.8587,-66.75933,-25.87533,-36.05464,-110.6632,-50.32285,0.001067912,-0.1257102,0.09433498,0,0.3,0,0,0,0,
6.38224E+17,45.07021,12.67099,28.27354,22.12625,31.61732,17.73154,-16.98673,-0.4441859,-4.27255,-61.44649,-6.98289,34.57793,0,0,0,136.8283,-64.84023,-31.85659,-36.05464,-110.6632,-50.32285,0.001067912,-0.1257102,0.09433498,0,0.3,0,0,0,0,
6.38224E+17,48.10944,12.69436,29.90785,26.15474,29.27347,14.65524,-16.98673,-0.4441859,-4.27255,-61.51973,-6.98289,34.57793,0,0,0,146.3381,-62.93788,-37.09186,-36.05464,-110.6632,-50.32285,0.001067912,-0.1257102,0.09433498,0,0.3,0,0,0,0,
6.38224E+17,50.20628,12.92815,32.17253,29.74375,27.44234,12.89736,-16.98673,-0.4441859,-4.27255,-61.51973,-6.98289,34.57793,0,0,0,154.4196,-59.68966,-39.72105,-36.05464,-110.6632,-50.32285,0.001067912,-0.1257102,0.09433498,0,0.3,0,0,0,0,
6.38224E+17,51.03088,13.23206,33.43328,31.20865,26.85638,12.60438,-16.98673,-0.4441859,-4.27255,-61.44649,-6.98289,34.57793,0,0,0,158.0479,-57.41106,-40.5063,-36.05464,-110.6632,-50.32285,0.001067912,-0.1257102,0.09433498,0,0.3,0,0,0,0,
6.38224E+17,52.70363,14.56462,35.93144,34.57793,26.5634,12.09166,-16.98673,-0.4441859,-4.27255,-61.44649,-6.98289,34.57793,0,0,0,164.923,-51.09237,-42.7289,-36.05464,-110.6632,-50.32285,0.001067912,-0.1257102,0.09433498,0,0.3,0,0,0,0,
6.38224E+17,54.04655,16.90244,37.61245,38.38668,26.85638,10.62676,-16.98673,-0.4441859,-4.27255,-61.51973,-6.98289,34.57793,0,0,0,169.1643,-43.51358,-45.65483,-36.05464,-110.6632,-50.32285,0.001067912,-0.1257102,0.09433498,0,0.3,0,0,0,0,
6.38224E+17,54.56487,18.18824,38.33621,40.14456,26.78313,9.747819,-16.98673,-0.4441859,-4.27255,-61.44649,-6.98289,34.57793,0,0,0,170.6142,-39.62381,-46.94333,-36.05464,-110.6632,-50.32285,0.001067912,-0.1257102,0.09433498,0,0.3,0,0,0,0,
6.38224E+17,55.24811,21.11052,39.55027,43.51384,26.19717,8.429405,-16.98673,-0.4441859,-4.27255,-61.44649,-6.98289,34.57793,0,0,0,171.9765,-31.44327,-49.03727,-36.05464,-110.6632,-50.32285,0.001067912,-0.1257102,0.09433498,0,0.3,0,0,0,0,
