zeyangz2/DNN_classification_different_people_hand/data/Frank_right_10.csv
Timestamp,Therapist joint angle 0,Therapist joint angle 1,Therapist joint angle 2,Therapist joint angle 3,Therapist joint angle 4,Therapist joint angle 5,Patient joint angle 0,Patient joint angle 1,Patient joint angle 2,Patient joint angle 3,Patient joint angle 4,Patient joint angle 5,Virtual joint angle 0,Virtual joint angle 1,Virtual joint angle 2,Therapist position x,Therapist position y,Therapist position z,Patient position x,Patient position y,Patient position z,Virtual position x,Virtual position y,Virtual position z,Assistive Force, Obstacle Force Magnitude, Therapist Constant Force, Patient Constant Force, Recovery Factor, Assistance Level,label
6.38223E+17,0,0,0,0,0,0,0,0,0,0,0,0,0,0,0,0,0,0,0,0,0,0,0,0,0,0.3,0,0,0,0,1
6.38223E+17,45.14088,-1.005263,-7.657903,-62.83814,-5.957458,64.02249,-17.10453,-0.4441859,-4.249202,-61.88596,-6.98289,34.57793,0,0,0,81.9136,-111.1502,-86.83826,-36.31316,-110.6672,-50.34543,0.001067912,-0.1257102,0.09433498,0,0.3,0,0,0,0,
6.38223E+17,45.14088,-1.005263,-7.657903,-62.83814,-5.957458,64.09573,-17.10453,-0.4441859,-4.249202,-61.88596,-6.98289,34.57793,0,0,0,81.9136,-111.1502,-86.83826,-36.31316,-110.6672,-50.34543,0.001067912,-0.1257102,0.09433498,0,0.3,0,0,0,0,
6.38223E+17,45.14088,-1.005263,-7.657903,-62.83814,-5.957458,64.02249,-17.10453,-0.4441859,-4.249202,-61.81271,-6.98289,34.57793,0,0,0,81.9136,-111.1502,-86.83826,-36.31316,-110.6672,-50.34543,0.001067912,-0.1257102,0.09433498,0,0.3,0,0,0,0,
6.38223E+17,45.14088,-1.005263,-7.657903,-62.83814,-5.884212,64.02249,-17.10453,-0.4441859,-4.249202,-61.88596,-6.98289,34.57793,0,0,0,81.9136,-111.1502,-86.83826,-36.31316,-110.6672,-50.34543,0.001067912,-0.1257102,0.09433498,0,0.3,0,0,0,0,
6.38223E+17,45.14088,-1.005263,-7.657903,-62.83814,-5.884212,64.02249,-17.10453,-0.4441859,-4.249202,-61.88596,-6.98289,34.57793,0,0,0,81.9136,-111.1502,-86.83826,-36.31316,-110.6672,-50.34543,0.001067912,-0.1257102,0.09433498,0,0.3,0,0,0,0,
6.38223E+17,45.14088,-1.005263,-7.657903,-62.83814,-5.884212,64.02249,-17.10453,-0.4441859,-4.249202,-61.88596,-6.98289,34.57793,0,0,0,81.9136,-111.1502,-86.83826,-36.31316,-110.6672,-50.34543,0.001067912,-0.1257102,0.09433498,0,0.3,0,0,0,0,
6.38223E+17,45.14088,-1.005263,-7.657903,-62.83814,-5.884212,64.02249,-17.10453,-0.4441859,-4.249202,-61.88596,-6.909645,34.57793,0,0,0,81.9136,-111.1502,-86.83826,-36.31316,-110.6672,-50.34543,0.001067912,-0.1257102,0.09433498,0,0.3,0,0,0,0,
6.38223E+17,45.14088,-1.005263,-7.657903,-62.83814,-5.957458,64.02249,-17.10453,-0.4441859,-4.249202,-61.88596,-6.98289,34.57793,0,0,0,81.9136,-111.1502,-86.83826,-36.31316,-110.6672,-50.34543,0.001067912,-0.1257102,0.09433498,0,0.3,0,0,0,0,
6.38223E+17,45.14088,-1.005263,-7.657903,-62.83814,-6.030703,63.94925,-17.10453,-0.4441859,-4.249202,-61.88596,-6.98289,34.57793,0,0,0,81.9136,-111.1502,-86.83826,-36.31316,-110.6672,-50.34543,0.001067912,-0.1257102,0.09433498,0,0.3,0,0,0,0,
6.38223E+17,45.14088,-1.005263,-7.657903,-62.83814,-6.103948,63.36329,-17.10453,-0.4441859,-4.249202,-61.81271,-6.98289,34.57793,0,0,0,81.9136,-111.1502,-86.83826,-36.31316,-110.6672,-50.34543,0.001067912,-0.1257102,0.09433498,0,0.3,0,0,0,0,
6.38223E+17,45.14088,-1.005263,-7.657903,-62.91139,-6.177193,63.14355,-17.10453,-0.4441859,-4.249202,-61.88596,-6.98289,34.57793,0,0,0,81.9136,-111.1502,-86.83826,-36.31316,-110.6672,-50.34543,0.001067912,-0.1257102,0.09433498,0,0.3,0,0,0,0,
6.38223E+17,45.14088,-1.005263,-7.657903,-62.91139,-6.177193,62.92381,-17.10453,-0.4441859,-4.249202,-61.88596,-6.98289,34.57793,0,0,0,81.9136,-111.1502,-86.83826,-36.31316,-110.6672,-50.34543,0.001067912,-0.1257102,0.09433498,0,0.3,0,0,0,0,
6.38223E+17,45.14088,-1.005263,-7.657903,-62.83814,-6.250438,62.85057,-17.10453,-0.4441859,-4.249202,-61.88596,-6.98289,34.57793,0,0,0,81.9136,-111.1502,-86.83826,-36.31316,-110.6672,-50.34543,0.001067912,-0.1257102,0.09433498,0,0.3,0,0,0,0,
6.38223E+17,45.14088,-1.005263,-7.657903,-62.91139,-6.177193,62.77732,-17.10453,-0.4441859,-4.249202,-61.88596,-6.98289,34.57793,0,0,0,81.9136,-111.1502,-86.83826,-36.31316,-110.6672,-50.34543,0.001067912,-0.1257102,0.09433498,0,0.3,0,0,0,0,
6.38223E+17,45.14088,-1.005263,-7.657903,-62.91139,-6.177193,62.77732,-17.10453,-0.4441859,-4.249202,-61.88596,-6.98289,34.57793,0,0,0,81.9136,-111.1502,-86.83826,-36.31316,-110.6672,-50.34543,0.001067912,-0.1257102,0.09433498,0,0.3,0,0,0,0,
6.38223E+17,45.14088,-1.005263,-7.657903,-62.91139,-6.177193,62.77732,-17.10453,-0.4441859,-4.249202,-61.88596,-6.98289,34.57793,0,0,0,81.9136,-111.1502,-86.83826,-36.31316,-110.6672,-50.34543,0.001067912,-0.1257102,0.09433498,0,0.3,0,0,0,0,
6.38223E+17,45.14088,-1.005263,-7.657903,-62.91139,-6.177193,62.77732,-17.10453,-0.4441859,-4.249202,-61.88596,-6.98289,34.57793,0,0,0,81.9136,-111.1502,-86.83826,-36.31316,-110.6672,-50.34543,0.001067912,-0.1257102,0.09433498,0,0.3,0,0,0,0,
6.38223E+17,45.09377,-1.005263,-7.77464,-62.91139,-6.177193,62.77732,-17.10453,-0.4441859,-4.249202,-61.88596,-6.98289,34.57793,0,0,0,81.65585,-111.1137,-86.96098,-36.31316,-110.6672,-50.34543,0.001067912,-0.1257102,0.09433498,0,0.3,0,0,5.30E-05,0,
6.38223E+17,44.99953,-1.005263,-7.984766,-62.91139,-6.103948,62.77732,-17.10453,-0.4441859,-4.249202,-61.88596,-6.98289,34.57793,0,0,0,81.17933,-111.0467,-87.16933,-36.31316,-110.6672,-50.34543,0.001067912,-0.1257102,0.09433498,0,0.3,0,0,0.000199164,0,
6.38223E+17,44.92884,-1.005263,-8.241585,-62.83814,-6.030703,62.77732,-17.10453,-0.4441859,-4.249202,-61.88596,-6.98289,34.57793,0,0,0,80.66122,-110.9623,-87.48819,-36.31316,-110.6672,-50.34543,0.001067912,-0.1257102,0.09433498,0,0.3,0,0,0.000583435,0,
6.38223E+17,44.36341,-1.052019,-9.22217,-61.9592,-5.884212,61.31242,-17.10453,-0.4441859,-4.249202,-61.88596,-6.98289,34.57793,0,0,0,78.28071,-110.7247,-88.31017,-36.31316,-110.6672,-50.34543,0.001067912,-0.1257102,0.09433498,0,0.3,0,0,0.001560635,0,
6.38223E+17,42.43149,-1.028641,-9.128781,-61.1535,-5.591231,57.13744,-17.10453,-0.4441859,-4.249202,-61.88596,-6.98289,34.57793,0,0,0,75.68336,-110.7049,-85.55758,-36.31316,-110.6672,-50.34543,0.001067912,-0.1257102,0.09433498,0,0.3,0,0,0.003692557,0,
6.38223E+17,41.63045,-1.028641,-8.96535,-61.08026,-5.737722,55.96552,-17.10453,-0.4441859,-4.249202,-61.88596,-6.98289,34.57793,0,0,0,74.76804,-110.7648,-84.22682,-36.31316,-110.6672,-50.34543,0.001067912,-0.1257102,0.09433498,0,0.3,0,0,0.005135482,0,
6.38223E+17,39.67498,-1.005263,-8.895308,-61.29999,-5.884212,55.67254,-17.10453,-0.4441859,-4.249202,-61.88596,-6.98289,34.57793,0,0,0,71.95741,-110.7357,-81.59982,-36.31316,-110.6672,-50.34543,0.001067912,-0.1257102,0.09433498,0,0.3,0,0,0.00881361,0,
6.38223E+17,38.00222,-1.005263,-8.661836,-60.78728,-5.737722,58.30937,-17.10453,-0.4441859,-4.249202,-61.81271,-6.98289,34.57793,0,0,0,69.72505,-110.8186,-79.11312,-36.31316,-110.6672,-50.34543,0.001067912,-0.1257102,0.09433498,0,0.3,0,0,0.01326829,0,
6.38223E+17,36.91846,-0.9818845,-7.541167,-59.46887,-5.957458,63.94925,-17.10453,-0.4441859,-4.249202,-61.88596,-6.98289,34.57793,0,0,0,69.57637,-111.1318,-75.74512,-36.31316,-110.6672,-50.34543,0.001067912,-0.1257102,0.09433498,0,0.3,0,0,0.01782731,0,
6.38223E+17,36.51794,-0.9585064,-6.770707,-58.44344,-6.103948,70.6878,-17.10453,-0.4441859,-4.249202,-61.88596,-6.98289,34.57793,0,0,0,69.98663,-111.3007,-73.83041,-36.31316,-110.6672,-50.34543,0.001067912,-0.1257102,0.09433498,0,0.3,0,0,0.02209399,0,
6.38223E+17,35.92894,-0.8416153,-5.860164,-57.19827,-5.810967,74.13033,-17.10453,-0.4441859,-4.249202,-61.81271,-6.98289,34.57793,0,0,0,70.24974,-111.2618,-71.40691,-36.31316,-110.6672,-50.34543,0.001067912,-0.1257102,0.09433498,0,0.3,0,0,0.02609017,0,
6.38223E+17,29.07299,-0.3039166,5.953553,-54.92767,1.293814,108.4091,-17.10453,-0.4441859,-4.249202,-61.88596,-6.98289,34.57793,0,0,0,71.51796,-109.9881,-39.71493,-36.31316,-110.6672,-50.34543,0.001067912,-0.1257102,0.09433498,0,0.3,0,0,0.04117197,0,
6.38223E+17,27.306,-0.2805384,8.148195,-53.16978,4.150376,119.5423,-17.10453,-0.4441859,-4.249202,-61.88596,-6.98289,34.57793,0,0,0,69.84292,-109.3067,-33.06656,-36.31316,-110.6672,-50.34543,0.001067912,-0.1257102,0.09433498,0,0.3,0,0,0.04404154,0,
6.38223E+17,26.31648,-0.2571602,9.22217,-51.55839,6.05475,124.8892,-17.10453,-0.4441859,-4.249202,-61.88596,-6.98289,34.57793,0,0,0,68.59174,-108.8749,-29.66557,-36.31316,-110.6672,-50.34543,0.001067912,-0.1257102,0.09433498,0,0.3,0,0,0.04552022,0,
6.38223E+17,24.90288,-0.2571602,10.90317,-46.65096,9.8635,132.58,-17.10453,-0.4441859,-4.249202,-61.88596,-6.98289,34.57793,0,0,0,66.77163,-108.1913,-24.52176,-36.31316,-110.6672,-50.34543,0.001067912,-0.1257102,0.09433498,0,0.3,0,0,0.04846989,0,
6.38223E+17,23.91336,-0.2571602,12.30401,-38.81373,12.72006,144.0062,-17.10453,-0.4441859,-4.249202,-61.81271,-6.98289,34.57793,0,0,0,65.57236,-107.5356,-20.47065,-36.31316,-110.6672,-50.34543,0.001067912,-0.1257102,0.09433498,0,0.3,0,0,0.05129161,0,
6.38223E+17,23.37148,-0.233782,13.14451,-34.05279,13.08629,144.8119,-17.10453,-0.4441859,-4.249202,-61.88596,-6.98289,34.57793,0,0,0,64.9279,-107.0503,-18.10534,-36.31316,-110.6672,-50.34543,0.001067912,-0.1257102,0.09433498,0,0.3,0,0,0.05262737,0,
6.38223E+17,21.79296,-0.233782,15.3625,-26.72828,12.64682,144.8119,-17.10453,-0.4441859,-4.249202,-61.88596,-6.98289,34.57793,0,0,0,62.62185,-105.7794,-11.72843,-36.31316,-110.6672,-50.34543,0.001067912,-0.1257102,0.09433498,0,0.3,0,0,0.05516194,0,
6.38223E+17,19.53121,-0.233782,17.76727,-23.06602,11.25516,144.8119,-17.10453,-0.4441859,-4.249202,-61.81271,-6.98289,34.57793,0,0,0,58.18537,-104.1838,-4.323569,-36.31316,-110.6672,-50.34543,0.001067912,-0.1257102,0.09433498,0,0.3,0,0,0.05775564,0,
6.38223E+17,18.68305,-0.233782,18.8179,-22.40681,10.30297,144.8119,-17.10453,-0.4441859,-4.249202,-61.88596,-6.98289,34.57793,0,0,0,56.49467,-103.4164,-1.280956,-36.31316,-110.6672,-50.34543,0.001067912,-0.1257102,0.09433498,0,0.3,0,0,0.05903035,0,
6.38223E+17,17.81133,-0.233782,20.70902,-21.96734,8.325351,144.8119,-17.10453,-0.4441859,-4.249202,-61.88596,-6.98289,34.57793,0,0,0,55.21334,-101.9281,3.502637,-36.31316,-110.6672,-50.34543,0.001067912,-0.1257102,0.09433498,0,0.3,0,0,0.06127925,0,
6.38223E+17,17.17521,-0.233782,21.7363,-21.30813,6.713957,144.8852,-17.10453,-0.4441859,-4.249202,-61.88596,-6.98289,34.57793,0,0,0,53.96012,-101.0627,6.234354,-36.31316,-110.6672,-50.34543,0.001067912,-0.1257102,0.09433498,0,0.3,0,0,0.0632207,0,
6.38223E+17,16.37417,-0.233782,22.29664,-20.86866,5.395544,144.8852,-17.10453,-0.4441859,-4.249202,-61.88596,-6.98289,34.57793,0,0,0,51.85494,-100.5738,8.131649,-36.31316,-110.6672,-50.34543,0.001067912,-0.1257102,0.09433498,0,0.3,0,0,0.06518416,0,
6.38223E+17,15.97365,-0.233782,22.6235,-20.57568,4.736337,144.8852,-17.10453,-0.4441859,-4.249202,-61.88596,-6.909645,34.57793,0,0,0,50.81348,-100.2832,9.165706,-36.31316,-110.6672,-50.34543,0.001067912,-0.1257102,0.09433498,0,0.3,0,0,0.06617086,0,
6.38223E+17,15.12549,-0.233782,23.27722,-19.98972,4.077131,144.8119,-17.10453,-0.4441859,-4.249202,-61.88596,-6.98289,34.57793,0,0,0,48.5458,-99.68989,11.25092,-36.31316,-110.6672,-50.34543,0.001067912,-0.1257102,0.09433498,0,0.3,0,0,0.06814962,0,
6.38223E+17,13.7119,-0.233782,24.23446,-19.477,3.63766,144.8119,-17.10453,-0.4441859,-4.249202,-61.88596,-6.98289,34.57793,0,0,0,44.58371,-98.79242,14.37483,-36.31316,-110.6672,-50.34543,0.001067912,-0.1257102,0.09433498,0,0.3,0,0,0.07022888,0,
6.38223E+17,12.91086,-0.233782,24.88819,-19.55025,3.344679,144.8119,-17.10453,-0.4441859,-4.249202,-61.88596,-6.98289,34.57793,0,0,0,42.33399,-98.16,16.32908,-36.31316,-110.6672,-50.34543,0.001067912,-0.1257102,0.09433498,0,0.3,0,0,0.07130455,0,
6.38223E+17,11.30878,-0.233782,26.52249,-19.91648,2.538982,144.8852,-17.10453,-0.4441859,-4.249202,-61.88596,-6.98289,34.57793,0,0,0,37.82626,-96.51023,20.80106,-36.31316,-110.6672,-50.34543,0.001067912,-0.1257102,0.09433498,0,0.3,0,0,0.07340139,0,
6.38223E+17,9.753823,-0.233782,28.04007,-20.13621,1.806531,144.8852,-17.10453,-0.4441859,-4.249202,-61.81271,-6.98289,34.57793,0,0,0,33.21136,-94.89136,24.85151,-36.31316,-110.6672,-50.34543,0.001067912,-0.1257102,0.09433498,0,0.3,0,0,0.07541819,0,
6.38223E+17,7.916147,-0.233782,29.76777,-20.20946,1.220569,144.8852,-17.10453,-0.4441859,-4.249202,-61.88596,-7.056135,34.57793,0,0,0,27.48348,-92.94789,29.30363,-36.31316,-110.6672,-50.34543,0.001067912,-0.1257102,0.09433498,0,0.3,0,0,0.07736353,0,
6.38223E+17,6.596789,-0.233782,30.98182,-19.76999,1.000834,144.8119,-17.10453,-0.4441859,-4.249202,-61.88596,-6.98289,34.57793,0,0,0,23.20525,-91.51915,32.3056,-36.31316,-110.6672,-50.34543,0.001067912,-0.1257102,0.09433498,0,0.3,0,0,0.07921113,0,
6.38223E+17,5.677951,-0.233782,31.68224,-19.40376,0.9275885,144.8119,-17.10453,-0.4441859,-4.249202,-61.88596,-6.98289,34.57793,0,0,0,20.1223,-90.67148,34.03749,-36.31316,-110.6672,-50.34543,0.001067912,-0.1257102,0.09433498,0,0.3,0,0,0.08012057,0,
6.38223E+17,3.251275,-0.2104038,33.40994,-19.25727,0.4148723,144.8852,-17.10453,-0.4441859,-4.249202,-61.81271,-6.98289,34.57793,0,0,0,11.72724,-88.45392,38.09219,-36.31316,-110.6672,-50.34543,0.001067912,-0.1257102,0.09433498,0,0.3,0,0,0.08193062,0,
6.38223E+17,0.8010387,-0.1402692,35.04425,-19.84323,-0.09784385,144.8119,-17.10453,-0.4441859,-4.249202,-61.88596,-6.98289,34.57793,0,0,0,2.934751,-86.15129,41.54984,-36.31316,-110.6672,-50.34543,0.001067912,-0.1257102,0.09433498,0,0.3,0,0,0.08371626,0,
6.38223E+17,-0.4240793,-0.09351282,35.95479,-20.2827,-0.3175794,144.8852,-17.10453,-0.4441859,-4.249202,-61.81271,-6.909645,34.57793,0,0,0,-1.566499,-84.81187,43.29004,-36.31316,-110.6672,-50.34543,0.001067912,-0.1257102,0.09433498,0,0.3,0,0,0.08455799,0,
6.38223E+17,-2.780076,-0.0233782,37.65914,-21.0884,-1.050031,144.8119,-17.10453,-0.4441859,-4.249202,-61.88596,-6.98289,34.57793,0,0,0,-10.41938,-82.27219,46.21902,-36.31316,-110.6672,-50.34543,0.001067912,-0.1257102,0.09433498,0,0.3,0,0,0.08609538,0,
6.38223E+17,-5.136071,0.0233782,38.8732,-21.67436,-1.635992,144.7387,-17.10453,-0.4441859,-4.249202,-61.88596,-6.98289,34.57793,0,0,0,-19.42974,-80.41348,47.81887,-36.31316,-110.6672,-50.34543,0.001067912,-0.1257102,0.09433498,0,0.3,0,0,0.08751475,0,
6.38223E+17,-6.33763,0.0233782,39.38684,-22.11383,-1.928973,144.8852,-17.10453,-0.4441859,-4.249202,-61.81271,-6.98289,34.57793,0,0,0,-24.06081,-79.65906,48.28556,-36.31316,-110.6672,-50.34543,0.001067912,-0.1257102,0.09433498,0,0.3,0,0,0.08820436,0,
6.38223E+17,-8.882105,0.350673,40.53086,-23.57873,-2.221954,144.8852,-17.10453,-0.4441859,-4.249202,-61.88596,-6.98289,34.57793,0,0,0,-33.96933,-77.18733,49.01771,-36.31316,-110.6672,-50.34543,0.001067912,-0.1257102,0.09433498,0,0.3,0,0,0.08946656,0,
6.38223E+17,-10.27214,1.052019,40.78767,-24.38443,-2.148709,144.8119,-17.10453,-0.4441859,-4.249202,-61.88596,-6.98289,34.57793,0,0,0,-39.3096,-75.1657,48.55621,-36.31316,-110.6672,-50.34543,0.001067912,-0.1257102,0.09433498,0,0.3,0,0,0.09061098,0,
6.38223E+17,-11.80354,1.589718,40.50751,-25.04364,-1.855728,144.8852,-17.10453,-0.4441859,-4.249202,-61.88596,-6.98289,34.57793,0,0,0,-44.98523,-74.33936,46.91568,-36.31316,-110.6672,-50.34543,0.001067912,-0.1257102,0.09433498,0,0.3,0,0,0.09180079,0,
6.38223E+17,-12.48678,1.589718,40.41412,-25.33662,-1.489502,144.8852,-17.10453,-0.4441859,-4.249202,-61.81271,-6.98289,34.57793,0,0,0,-47.5132,-74.48041,46.20249,-36.31316,-110.6672,-50.34543,0.001067912,-0.1257102,0.09433498,0,0.3,0,0,0.09243707,0,
6.38223E+17,-13.7119,1.753365,40.1106,-25.77609,-0.3175794,144.8119,-17.10453,-0.4441859,-4.249202,-61.88596,-6.98289,34.57793,0,0,0,-51.95922,-74.55624,44.6031,-36.31316,-110.6672,-50.34543,0.001067912,-0.1257102,0.09433498,0,0.3,0,0,0.09377196,0,
6.38223E+17,-14.6543,2.454711,40.04056,-25.84933,1.293814,144.7387,-17.10453,-0.4441859,-4.249202,-61.88596,-6.98289,34.57793,0,0,0,-55.40796,-73.02998,43.54105,-36.31316,-110.6672,-50.34543,0.001067912,-0.1257102,0.09433498,0,0.3,0,0,0.09509236,0,
6.38223E+17,-15.54957,3.950917,40.08725,-25.92258,2.392492,144.8852,-17.10453,-0.4441859,-4.249202,-61.81271,-6.98289,34.57793,0,0,0,-58.68212,-69.48331,42.54214,-36.31316,-110.6672,-50.34543,0.001067912,-0.1257102,0.09433498,0,0.3,0,0,0.09624672,0,
6.38223E+17,-16.58621,6.709544,40.41412,-26.4353,3.051698,144.8852,-17.10453,-0.4441859,-4.249202,-61.81271,-6.909645,34.57793,0,0,0,-62.48343,-62.59973,41.43085,-36.31316,-110.6672,-50.34543,0.001067912,-0.1257102,0.09433498,0,0.3,0,0,0.09703697,0,
6.38223E+17,-17.26945,8.509666,40.78767,-26.94801,3.124943,144.8852,-17.10453,-0.4441859,-4.249202,-61.81271,-6.98289,34.57793,0,0,0,-65.01178,-57.8814,40.77144,-36.31316,-110.6672,-50.34543,0.001067912,-0.1257102,0.09433498,0,0.3,0,0,0.09721226,0,
6.38223E+17,-18.44745,11.38519,42.16516,-28.48616,2.831963,144.8119,-17.10453,-0.4441859,-4.249202,-61.81271,-6.98289,34.57793,0,0,0,-69.69154,-49.16693,40.57265,-36.31316,-110.6672,-50.34543,0.001067912,-0.1257102,0.09433498,0,0.3,0,0,0.09691685,0,
6.38223E+17,-19.50765,13.95679,44.63997,-30.83001,1.953021,144.7387,-17.10453,-0.4441859,-4.249202,-61.88596,-6.98289,34.57793,0,0,0,-74.50424,-39.37064,41.95427,-36.31316,-110.6672,-50.34543,0.001067912,-0.1257102,0.09433498,0,0.3,0,0,0.09575121,0,
6.38223E+17,-20.07309,15.26597,46.08751,-32.07517,1.51355,144.8852,-17.10453,-0.4441859,-4.249202,-61.88596,-6.98289,34.57793,0,0,0,-77.12461,-34.02503,42.71005,-36.31316,-110.6672,-50.34543,0.001067912,-0.1257102,0.09433498,0,0.3,0,0,0.09474805,0,
6.38223E+17,-21.1804,18.30513,48.6557,-35.22471,0.268382,144.8119,-17.10453,-0.4441859,-4.249202,-61.88596,-6.98289,34.57793,0,0,0,-81.91347,-22.85641,43.04994,-36.31316,-110.6672,-50.34543,0.001067912,-0.1257102,0.09433498,0,0.3,0,0,0.09195149,0,
6.38223E+17,-22.05212,21.97551,50.99043,-39.17995,-1.123276,144.9584,-17.10453,-0.4441859,-4.249202,-61.88596,-6.98289,34.57793,0,0,0,-85.33215,-10.68625,42.30252,-36.31316,-110.6672,-50.34543,0.001067912,-0.1257102,0.09433498,0,0.3,0,0,0.08812007,0,
6.38223E+17,-22.3584,25.94981,52.39126,-43.13519,-2.73467,144.8852,-17.10453,-0.4441859,-4.249202,-61.88596,-6.98289,34.57793,0,0,0,-85.79701,0.3228051,40.23886,-36.31316,-110.6672,-50.34543,0.001067912,-0.1257102,0.09433498,0,0.3,0,0,0.08349903,0,
6.38223E+17,-22.3584,28.07722,52.9516,-44.89308,-3.613612,144.8852,-17.10453,-0.4441859,-4.249202,-61.88596,-6.98289,34.57793,0,0,0,-85.2424,5.770694,38.8905,-36.31316,-110.6672,-50.34543,0.001067912,-0.1257102,0.09433498,0,0.3,0,0,0.08095447,0,
6.38223E+17,-22.28772,32.33206,54.07227,-47.89613,-5.517986,144.8119,-17.10453,-0.4441859,-4.249202,-61.88596,-6.98289,34.57793,0,0,0,-83.68591,16.42391,35.82191,-36.31316,-110.6672,-50.34543,0.001067912,-0.1257102,0.09433498,0,0.3,0,0,0.07543207,0,
6.38223E+17,-22.05212,38.01296,55.05285,-51.55839,-8.081567,144.8119,-17.10453,-0.4441859,-4.249202,-61.88596,-6.98289,34.57793,0,0,0,-80.48411,29.0866,30.33458,-36.31316,-110.6672,-50.34543,0.001067912,-0.1257102,0.09433498,0,0.3,0,0,0.0693372,0,
6.38223E+17,-21.72228,40.98199,55.49645,-53.31627,-9.180244,144.6654,-17.10453,-0.4441859,-4.249202,-61.88596,-6.98289,34.57793,0,0,0,-77.93017,35.26675,27.25838,-36.31316,-110.6672,-50.34543,0.001067912,-0.1257102,0.09433498,0,0.3,0,0,0.06294982,0,
6.38223E+17,-20.61497,45.68101,56.05679,-55.66012,-11.08462,143.8597,-17.10453,-0.4441859,-4.249202,-61.88596,-6.98289,34.57793,0,0,0,-71.7521,44.29798,22.39207,-36.31316,-110.6672,-50.34543,0.001067912,-0.1257102,0.09433498,0,0.3,0,0,0.05621801,0,
6.38223E+17,-19.88461,47.99545,56.05679,-56.39257,-12.11005,143.8597,-17.10453,-0.4441859,-4.249202,-61.88596,-6.98289,34.57793,0,0,0,-67.9786,47.98251,19.59655,-36.31316,-110.6672,-50.34543,0.001067912,-0.1257102,0.09433498,0,0.3,0,0,0.05278461,0,
6.38223E+17,-18.25897,52.5542,55.98674,-57.19827,-14.23416,143.8597,-17.10453,-0.4441859,-4.249202,-61.88596,-6.98289,34.57793,0,0,0,-60.03478,54.62646,13.61542,-36.31316,-110.6672,-50.34543,0.001067912,-0.1257102,0.09433498,0,0.3,0,0,0.04584407,0,
6.38223E+17,-16.30349,56.83241,55.9167,-57.12502,-16.65125,143.054,-17.10453,-0.4441859,-4.249202,-61.88596,-6.98289,34.57793,0,0,0,-51.48446,60.24479,7.673286,-36.31316,-110.6672,-50.34543,0.001067912,-0.1257102,0.09433498,0,0.3,0,0,0.03881979,0,
6.38223E+17,-15.07837,58.88969,55.75327,-56.83204,-17.89642,142.1018,-17.10453,-0.4441859,-4.249202,-61.81271,-6.98289,34.57793,0,0,0,-46.59897,62.47708,4.612987,-36.31316,-110.6672,-50.34543,0.001067912,-0.1257102,0.09433498,0,0.3,0,0,0.0353071,0,
6.38223E+17,-12.10982,62.67696,55.12289,-55.36714,-20.24026,139.9777,-17.10453,-0.4441859,-4.249202,-61.88596,-6.98289,34.57793,0,0,0,-35.79084,65.57056,-1.540163,-36.31316,-110.6672,-50.34543,0.001067912,-0.1257102,0.09433498,0,0.3,0,0,0.02834584,0,
6.38223E+17,-8.717185,66.02005,54.21235,-52.80355,-22.51087,136.462,-17.10453,-0.4441859,-4.249202,-61.88596,-6.98289,34.57793,0,0,0,-24.60804,67.20947,-7.857717,-36.31316,-110.6672,-50.34543,0.001067912,-0.1257102,0.09433498,0,0.3,0,0,0.02151284,0,
6.38223E+17,-4.876912,68.70854,52.85821,-49.06805,-24.78147,132.2137,-17.10453,-0.4441859,-4.249202,-61.81271,-6.98289,34.57793,0,0,0,-13.1536,67.0829,-14.18999,-36.31316,-110.6672,-50.34543,0.001067912,-0.1257102,0.09433498,0,0.3,0,0,0.0148843,0,
6.38223E+17,-2.874315,69.66705,51.99436,-46.87069,-25.73365,129.8699,-17.10453,-0.4441859,-4.249202,-61.88596,-6.98289,34.57793,0,0,0,-7.592436,66.28206,-17.13153,-36.31316,-110.6672,-50.34543,0.001067912,-0.1257102,0.09433498,0,0.3,0,0,0.01167134,0,
6.38223E+17,1.814117,70.90609,49.35612,-41.01108,-27.2718,125.6949,-17.10453,-0.4441859,-4.249202,-61.88596,-6.98289,34.57793,0,0,0,4.584046,62.50532,-23.61913,-36.31316,-110.6672,-50.34543,0.001067912,-0.1257102,0.09433498,0,0.3,0,0,0.005542936,0,
6.38223E+17,6.502549,71.18663,46.18089,-34.27253,-27.56478,121.1537,-17.10453,-0.4441859,-4.249202,-61.88596,-6.98289,34.57793,0,0,0,15.76625,57.24626,-30.0261,-36.31316,-110.6672,-50.34543,0.001067912,-0.1257102,0.09433498,0,0.3,0,0,0,0,
6.38223E+17,12.22762,71.09312,43.05236,-26.06907,-26.68584,117.6379,-17.10453,-0.4441859,-4.249202,-61.88596,-6.98289,34.57793,0,0,0,28.43215,52.06242,-37.15234,-36.31316,-110.6672,-50.34543,0.001067912,-0.1257102,0.09433498,0,0.3,0,0,0,0,
6.38223E+17,14.56006,70.90609,41.81495,-22.91953,-26.24637,116.9055,-17.10453,-0.4441859,-4.249202,-61.88596,-6.98289,34.50468,0,0,0,33.31712,49.97755,-40.07706,-36.31316,-110.6672,-50.34543,0.001067912,-0.1257102,0.09433498,0,0.3,0,0,0,0,
6.38223E+17,19.81393,69.55016,39.24675,-15.59501,-24.85471,112.4375,-17.10453,-0.4441859,-4.249202,-61.88596,-6.98289,34.57793,0,0,0,44.38978,45.02603,-45.14661,-36.31316,-110.6672,-50.34543,0.001067912,-0.1257102,0.09433498,0,0.3,0,0,0,0,
6.38223E+17,24.50236,66.86166,37.44902,-8.270493,-23.24332,106.6512,-17.10453,-0.4441859,-4.249202,-61.88596,-6.98289,34.57793,0,0,0,55.36007,40.1073,-46.88666,-36.31316,-110.6672,-50.34543,0.001067912,-0.1257102,0.09433498,0,0.3,0,0,0,0,
6.38223E+17,25.98664,65.62261,36.72525,-5.780157,-22.58411,104.9665,-17.10453,-0.4441859,-4.249202,-61.88596,-6.98289,34.57793,0,0,0,59.05539,37.92975,-47.1968,-36.31316,-110.6672,-50.34543,0.001067912,-0.1257102,0.09433498,0,0.3,0,0,0,0,
6.38223E+17,29.21435,61.8821,34.88082,-0.3600145,-20.31351,101.0845,-17.10453,-0.4441859,-4.249202,-61.88596,-6.98289,34.57793,0,0,0,67.89423,31.5692,-46.939,-36.31316,-110.6672,-50.34543,0.001067912,-0.1257102,0.09433498,0,0.3,0,0,0,0,
6.38223E+17,31.78239,58.07146,34.20374,3.595225,-17.96966,97.49553,-17.10453,-0.4441859,-4.249202,-61.88596,-6.98289,34.57793,0,0,0,76.62598,26.23896,-44.68008,-36.31316,-110.6672,-50.34543,0.001067912,-0.1257102,0.09433498,0,0.3,0,0,0,0,
6.38223E+17,33.92635,54.1673,33.78349,6.744767,-15.84556,94.8587,-17.10453,-0.4441859,-4.249202,-61.88596,-6.98289,34.57793,0,0,0,84.95576,20.62767,-42.04797,-36.31316,-110.6672,-50.34543,0.001067912,-0.1257102,0.09433498,0,0.3,0,0,0,0,
6.38223E+17,34.72738,52.06326,33.36324,8.06318,-14.82012,93.54029,-17.10453,-0.4441859,-4.249202,-61.88596,-6.98289,34.57793,0,0,0,88.48013,17.14778,-40.69886,-36.31316,-110.6672,-50.34543,0.001067912,-0.1257102,0.09433498,0,0.3,0,0,0,0,
6.38223E+17,35.52842,46.546,32.70952,10.26054,-12.76926,90.61049,-17.10453,-0.4441859,-4.249202,-61.88596,-6.98289,34.57793,0,0,0,95.17022,7.948848,-35.06617,-36.31316,-110.6672,-50.34543,0.001067912,-0.1257102,0.09433498,0,0.3,0,0,0,0,
6.38223E+17,35.4813,42.4782,32.61613,11.13948,-11.23111,89.43856,-17.10453,-0.4441859,-4.249202,-61.88596,-6.98289,34.57793,0,0,0,98.80605,1.081735,-29.73337,-36.31316,-110.6672,-50.34543,0.001067912,-0.1257102,0.09433498,0,0.3,0,0,0,0,
6.38223E+17,35.3635,40.18713,32.59278,11.35921,-10.05919,89.07233,-17.10453,-0.4441859,-4.249202,-61.88596,-6.98289,34.57793,0,0,0,100.5323,-2.951172,-26.69622,-36.31316,-110.6672,-50.34543,0.001067912,-0.1257102,0.09433498,0,0.3,0,0,0,0,
6.38223E+17,34.82162,35.53487,32.10249,11.28597,-8.154812,88.63287,-17.10453,-0.4441859,-4.249202,-61.88596,-6.98289,34.57793,0,0,0,102.4314,-12.10783,-21.0892,-36.31316,-110.6672,-50.34543,0.001067912,-0.1257102,0.09433498,0,0.3,0,0,0,0,
6.38223E+17,33.90279,30.53193,32.33596,10.62676,-6.323683,87.24121,-17.10453,-0.4441859,-4.249202,-61.81271,-6.98289,34.57793,0,0,0,103.8525,-21.57665,-13.81744,-36.31316,-110.6672,-50.34543,0.001067912,-0.1257102,0.09433498,0,0.3,0,0,0,0,
6.38223E+17,32.91327,25.78616,33.45663,9.528083,-4.932025,86.14253,-17.10453,-0.4441859,-4.249202,-61.88596,-6.98289,34.57793,0,0,0,105.1898,-29.89529,-5.833908,-36.31316,-110.6672,-50.34543,0.001067912,-0.1257102,0.09433498,0,0.3,0,0,0,0,
6.38223E+17,31.68815,21.017,34.60065,8.136425,-3.833347,85.48332,-17.10453,-0.4441859,-4.249202,-61.88596,-6.98289,34.57793,0,0,0,105.1652,-38.58907,2.005815,-36.31316,-110.6672,-50.34543,0.001067912,-0.1257102,0.09433498,0,0.3,0,0,0,0,
6.38223E+17,30.91067,18.84283,35.13763,7.403974,-3.467122,85.04385,-17.10453,-0.4441859,-4.249202,-61.88596,-6.98289,34.57793,0,0,0,104.2567,-42.63139,5.776677,-36.31316,-110.6672,-50.34543,0.001067912,-0.1257102,0.09433498,0,0.3,0,0,0,0,
6.38223E+17,28.93163,14.61138,36.88868,5.426354,-3.174141,83.43246,-17.10453,-0.4441859,-4.249202,-61.88596,-6.98289,34.57793,0,0,0,101.1468,-49.6647,14.63833,-36.31316,-110.6672,-50.34543,0.001067912,-0.1257102,0.09433498,0,0.3,0,0,0,0,
6.38223E+17,27.18819,11.50208,38.9199,2.789528,-3.686857,82.11404,-17.10453,-0.4441859,-4.249202,-61.88596,-6.98289,34.57793,0,0,0,97.98393,-53.8092,22.40277,-36.31316,-110.6672,-50.34543,0.001067912,-0.1257102,0.09433498,0,0.3,0,0,0,0,
6.38223E+17,25.79816,9.88898,40.27403,0.5921727,-4.785534,81.52808,-17.10453,-0.4441859,-4.249202,-61.88596,-6.98289,34.57793,0,0,0,94.68782,-55.48942,27.53725,-36.31316,-110.6672,-50.34543,0.001067912,-0.1257102,0.09433498,0,0.3,0,0,0,0,
6.38223E+17,25.11492,9.49155,40.88106,-0.2867693,-5.517986,81.16187,-17.10453,-0.4441859,-4.249202,-61.88596,-6.98289,34.57793,0,0,0,92.86676,-55.48221,29.765,-36.31316,-110.6672,-50.34543,0.001067912,-0.1257102,0.09433498,0,0.3,0,0,0,0,
6.38223E+17,23.37148,9.117499,42.53872,-1.898163,-7.642097,80.35616,-17.10453,-0.4441859,-4.249202,-61.88596,-6.98289,34.57793,0,0,0,87.99462,-53.77444,35.27158,-36.31316,-110.6672,-50.34543,0.001067912,-0.1257102,0.09433498,0,0.3,0,0,0,0,
6.38223E+17,21.39244,8.97723,44.63997,-3.802537,-9.985942,79.91669,-17.10453,-0.4441859,-4.249202,-61.88596,-6.98289,34.50468,0,0,0,82.22097,-50.72514,41.53465,-36.31316,-110.6672,-50.34543,0.001067912,-0.1257102,0.09433498,0,0.3,0,0,0,0,
6.38223E+17,20.45005,8.930473,45.66725,-4.97446,-11.15786,79.84344,-17.10453,-0.4441859,-4.249202,-61.88596,-6.98289,34.57793,0,0,0,79.35284,-49.13752,44.45422,-36.31316,-110.6672,-50.34543,0.001067912,-0.1257102,0.09433498,0,0.3,0,0,0,0,
6.38223E+17,18.32965,8.907095,47.8152,-7.684532,-13.57495,79.91669,-17.10453,-0.4441859,-4.249202,-61.88596,-6.98289,34.57793,0,0,0,72.50484,-45.55079,50.5044,-36.31316,-110.6672,-50.34543,0.001067912,-0.1257102,0.09433498,0,0.3,0,0,0,0,
6.38223E+17,16.02077,8.907095,50.40675,-10.98056,-16.28502,81.16187,-17.10453,-0.4441859,-4.249202,-61.88596,-6.98289,34.57793,0,0,0,64.71864,-40.99144,57.04227,-36.31316,-110.6672,-50.34543,0.001067912,-0.1257102,0.09433498,0,0.3,0,0,0,0,
6.38223E+17,13.40562,8.907095,53.41854,-15.52176,-19.14159,83.6522,-17.10453,-0.4441859,-4.249202,-61.88596,-6.98289,34.57793,0,0,0,55.36958,-35.47499,63.96614,-36.31316,-110.6672,-50.34543,0.001067912,-0.1257102,0.09433498,0,0.3,0,0,0,0,
6.38223E+17,11.77998,8.907095,55.58984,-19.33051,-20.82623,85.55657,-17.10453,-0.4441859,-4.249202,-61.88596,-6.98289,34.57793,0,0,0,49.35575,-31.36092,68.31571,-36.31316,-110.6672,-50.34543,0.001067912,-0.1257102,0.09433498,0,0.3,0,0,0,0,
6.38223E+17,11.0025,8.907095,56.68716,-21.45462,-21.70517,86.72849,-17.10453,-0.4441859,-4.249202,-61.88596,-6.98289,34.57793,0,0,0,46.41143,-29.24022,70.36046,-36.31316,-110.6672,-50.34543,0.001067912,-0.1257102,0.09433498,0,0.3,0,0,0,0,
6.38223E+17,9.683144,8.907095,58.64833,-25.04364,-23.5363,89.07233,-17.10453,-0.4441859,-4.249202,-61.88596,-6.909645,34.57793,0,0,0,41.31338,-25.38365,73.77209,-36.31316,-110.6672,-50.34543,0.001067912,-0.1257102,0.09433498,0,0.3,0,0,0,0,
6.38223E+17,8.646505,8.907095,60.02582,-28.04669,-24.92796,91.34293,-17.10453,-0.4441859,-4.249202,-61.88596,-6.98289,34.50468,0,0,0,37.172,-22.62601,76.09627,-36.31316,-110.6672,-50.34543,0.001067912,-0.1257102,0.09433498,0,0.3,0,0,0,0,
6.38223E+17,8.081067,8.907095,60.6562,-29.43835,-25.51392,92.7346,-17.10453,-0.4441859,-4.249202,-61.81271,-6.98289,34.57793,0,0,0,34.8599,-21.35109,77.16998,-36.31316,-110.6672,-50.34543,0.001067912,-0.1257102,0.09433498,0,0.3,0,0,0,0,
6.38223E+17,6.950189,8.907095,61.66013,-31.70894,-26.09988,95.29817,-17.10453,-0.4441859,-4.249202,-61.88596,-6.98289,34.57793,0,0,0,30.14385,-19.30441,78.929,-36.31316,-110.6672,-50.34543,0.001067912,-0.1257102,0.09433498,0,0.3,0,0,0,0,
6.38223E+17,5.677951,8.953853,62.3839,-33.61332,-26.39286,97.86176,-17.10453,-0.4441859,-4.249202,-61.88596,-6.98289,34.57793,0,0,0,24.72261,-17.7093,80.30688,-36.31316,-110.6672,-50.34543,0.001067912,-0.1257102,0.09433498,0,0.3,0,0,0,0,
6.38223E+17,4.947592,9.000608,62.57067,-34.49226,-26.39286,99.32666,-17.10453,-0.4441859,-4.249202,-61.88596,-6.98289,34.57793,0,0,0,21.56688,-17.2163,80.78503,-36.31316,-110.6672,-50.34543,0.001067912,-0.1257102,0.09433498,0,0.3,0,0,0,0,
6.38223E+17,3.133475,9.094121,62.66406,-36.25014,-25.8069,103.2087,-17.10453,-0.4441859,-4.249202,-61.88596,-6.98289,34.57793,0,0,0,13.67279,-16.80837,81.40855,-36.31316,-110.6672,-50.34543,0.001067912,-0.1257102,0.09433498,0,0.3,0,0,0,0,
6.38223E+17,1.460718,9.094121,62.66406,-37.20233,-25.0012,106.1385,-17.10453,-0.4441859,-4.249202,-61.88596,-6.98289,34.57793,0,0,0,6.37627,-16.80837,81.70123,-36.31316,-110.6672,-50.34543,0.001067912,-0.1257102,0.09433498,0,0.3,0,0,0,0,
6.38223E+17,-0.6832389,9.094121,62.66406,-38.66724,-23.90252,108.8485,-17.10453,-0.4441859,-4.249202,-61.88596,-6.98289,34.57793,0,0,0,-2.982702,-16.80837,81.76473,-36.31316,-110.6672,-50.34543,0.001067912,-0.1257102,0.09433498,0,0.3,0,0,0,0,
6.38223E+17,-1.814117,9.094121,62.66406,-39.61942,-23.31656,110.1669,-17.10453,-0.4441859,-4.249202,-61.88596,-6.98289,34.57793,0,0,0,-7.918451,-16.80837,81.65715,-36.31316,-110.6672,-50.34543,0.001067912,-0.1257102,0.09433498,0,0.3,0,0,0,0,
6.38223E+17,-4.264353,9.094121,62.66406,-41.5238,-22.14464,113.0235,-17.10453,-0.4441859,-4.249202,-61.88596,-6.98289,34.57793,0,0,0,-18.59943,-16.80837,81.09005,-36.31316,-110.6672,-50.34543,0.001067912,-0.1257102,0.09433498,0,0.3,0,0,0,0,
6.38223E+17,-6.691029,9.070744,62.59402,-43.86765,-21.04596,115.6603,-17.10453,-0.4441859,-4.249202,-61.88596,-6.98289,34.57793,0,0,0,-29.13652,-17.00686,80.01293,-36.31316,-110.6672,-50.34543,0.001067912,-0.1257102,0.09433498,0,0.3,0,0,0,0,
6.38223E+17,-8.929225,8.860339,62.43059,-46.21149,-20.02053,117.1985,-17.10453,-0.4441859,-4.249202,-61.88596,-6.98289,34.57793,0,0,0,-38.79844,-17.828,78.58752,-36.31316,-110.6672,-50.34543,0.001067912,-0.1257102,0.09433498,0,0.3,0,0,0,0,
6.38223E+17,-10.34282,8.649935,62.26716,-48.04262,-19.14159,118.0774,-17.10453,-0.4441859,-4.249202,-61.88596,-6.98289,34.57793,0,0,0,-44.86013,-18.64891,77.4549,-36.31316,-110.6672,-50.34543,0.001067912,-0.1257102,0.09433498,0,0.3,0,0,0,0,
6.38223E+17,-10.93182,8.556422,62.17377,-48.62858,-18.70212,119.4691,-17.10453,-0.4441859,-4.249202,-61.88596,-6.98289,34.57793,0,0,0,-47.37154,-19.05641,76.91326,-36.31316,-110.6672,-50.34543,0.001067912,-0.1257102,0.09433498,0,0.3,0,0,0,0,
6.38223E+17,-12.20406,8.369397,61.98699,-49.06805,-17.82317,123.937,-17.10453,-0.4441859,-4.249202,-61.88596,-6.98289,34.57793,0,0,0,-52.77594,-19.87106,75.66468,-36.31316,-110.6672,-50.34543,0.001067912,-0.1257102,0.09433498,0,0.3,0,0,0,0,
6.38223E+17,-13.68834,8.06548,61.68347,-49.50752,-16.87099,127.1598,-17.10453,-0.4441859,-4.249202,-61.88596,-6.98289,34.57793,0,0,0,-59.02388,-21.19389,73.99004,-36.31316,-110.6672,-50.34543,0.001067912,-0.1257102,0.09433498,0,0.3,0,0,0,0,
6.38223E+17,-14.32446,7.80832,61.42666,-49.87375,-16.43152,128.0388,-17.10453,-0.4441859,-4.249202,-61.88596,-6.98289,34.57793,0,0,0,-61.66074,-22.31223,73.12404,-36.31316,-110.6672,-50.34543,0.001067912,-0.1257102,0.09433498,0,0.3,0,0,0,0,
6.38223E+17,-15.62025,6.919948,60.37603,-50.82594,-15.55258,129.2107,-17.10453,-0.4441859,-4.249202,-61.88596,-6.98289,34.57793,0,0,0,-66.85684,-26.49931,70.7779,-36.31316,-110.6672,-50.34543,0.001067912,-0.1257102,0.09433498,0,0.3,0,0,0,0,
6.38223E+17,-16.82181,5.447122,58.69503,-51.48514,-14.08767,129.5769,-17.10453,-0.4441859,-4.249202,-61.88596,-6.98289,34.57793,0,0,0,-71.38939,-33.27924,67.77814,-36.31316,-110.6672,-50.34543,0.001067912,-0.1257102,0.09433498,0,0.3,0,0,0,0,
6.38223E+17,-17.76421,3.530109,56.82725,-51.48514,-12.47628,129.5037,-17.10453,-0.4441859,-4.249202,-61.88596,-6.98289,34.57793,0,0,0,-74.66243,-41.40372,64.69627,-36.31316,-110.6672,-50.34543,0.001067912,-0.1257102,0.09433498,0,0.3,0,0,0,0,
6.38223E+17,-18.11761,2.571602,55.84666,-51.04567,-11.67058,129.5037,-17.10453,-0.4441859,-4.249202,-61.88596,-6.98289,34.57793,0,0,0,-75.74196,-45.53085,63.14186,-36.31316,-110.6672,-50.34543,0.001067912,-0.1257102,0.09433498,0,0.3,0,0,0,0,
6.38223E+17,-18.47101,0.5376987,53.81545,-49.65401,-9.619716,129.4304,-17.10453,-0.4441859,-4.249202,-61.88596,-6.98289,34.57793,0,0,0,-76.34638,-54.12683,60.20955,-36.31316,-110.6672,-50.34543,0.001067912,-0.1257102,0.09433498,0,0.3,0,0,0,0,
6.38223E+17,-18.11761,-1.028641,50.96708,-46.65096,-7.27587,129.5037,-17.10453,-0.4441859,-4.249202,-61.88596,-6.98289,34.57793,0,0,0,-73.6724,-63.02333,56.81661,-36.31316,-110.6672,-50.34543,0.001067912,-0.1257102,0.09433498,0,0.3,0,0,0,0,
6.38223E+17,-17.57573,-0.8883717,48.77244,-44.67334,-6.030703,129.4304,-17.10453,-0.4441859,-4.249202,-61.88596,-6.98289,34.57793,0,0,0,-70.5472,-66.60201,54.37025,-36.31316,-110.6672,-50.34543,0.001067912,-0.1257102,0.09433498,0,0.3,0,0,0,0,
6.38223E+17,-17.10453,-1.028641,47.76851,-43.35493,-5.225006,129.4304,-17.10453,-0.4441859,-4.249202,-61.88596,-6.98289,34.57793,0,0,0,-68.25417,-68.67216,53.45123,-36.31316,-110.6672,-50.34543,0.001067912,-0.1257102,0.09433498,0,0.3,0,0,0,0,
6.38223E+17,-15.69093,-1.005263,45.41043,-40.42512,-3.320631,128.3317,-17.10453,-0.4441859,-4.249202,-61.88596,-6.98289,34.65118,0,0,0,-61.742,-72.60435,51.43767,-36.31316,-110.6672,-50.34543,0.001067912,-0.1257102,0.09433498,0,0.3,0,0,0,0,
6.38223E+17,-13.75902,-0.9818845,44.17303,-37.93478,-1.709238,126.5739,-17.10453,-0.4441859,-4.249202,-61.88596,-6.98289,34.57793,0,0,0,-53.81158,-74.57891,51.40998,-36.31316,-110.6672,-50.34543,0.001067912,-0.1257102,0.09433498,0,0.3,0,0,0,0,
6.38223E+17,-12.51034,-0.9818845,43.70608,-36.76286,-0.9035407,125.6949,-17.10453,-0.4441859,-4.249202,-61.81271,-6.98289,34.57793,0,0,0,-48.84032,-75.33302,51.76648,-36.31316,-110.6672,-50.34543,0.001067912,-0.1257102,0.09433498,0,0.3,0,0,0,0,
6.38223E+17,-9.494664,-0.9818845,42.65545,-34.19928,0.9275885,123.2046,-17.10453,-0.4441859,-4.249202,-61.81271,-6.98289,34.57793,0,0,0,-36.89842,-77.00626,52.2725,-36.31316,-110.6672,-50.34543,0.001067912,-0.1257102,0.09433498,0,0.3,0,0,0,0,
6.38223E+17,-6.21983,-0.9818845,42.09512,-31.48921,2.026266,120.1283,-17.10453,-0.4441859,-4.249202,-61.88596,-6.98289,34.57793,0,0,0,-24.13061,-77.88522,53.06232,-36.31316,-110.6672,-50.34543,0.001067912,-0.1257102,0.09433498,0,0.3,0,0,0,0,
6.38223E+17,-2.191077,-0.9818845,42.00173,-27.97344,2.831963,117.4182,-17.10453,-0.4441859,-4.249202,-61.88596,-6.98289,34.57793,0,0,0,-8.509028,-78.03079,54.04926,-36.31316,-110.6672,-50.34543,0.001067912,-0.1257102,0.09433498,0,0.3,0,0,0,0,
6.38223E+17,1.154438,-0.9117499,42.2352,-24.53092,2.905208,115.6603,-17.10453,-0.4441859,-4.249202,-61.81271,-6.98289,34.57793,0,0,0,4.492216,-77.50315,54.57248,-36.31316,-110.6672,-50.34543,0.001067912,-0.1257102,0.09433498,0,0.3,0,0,0,0,
6.38223E+17,4.005194,-0.7481025,42.88893,-21.01515,2.685472,113.6095,-17.10453,-0.4441859,-4.249202,-61.88596,-6.98289,34.57793,0,0,0,15.65226,-76.09322,55.19658,-36.31316,-110.6672,-50.34543,0.001067912,-0.1257102,0.09433498,0,0.3,0,0,0,0,
6.38223E+17,7.963267,-0.3039166,44.73336,-15.96124,1.51355,110.0937,-17.10453,-0.4441859,-4.249202,-61.88596,-6.98289,34.57793,0,0,0,31.47602,-72.08781,56.6601,-36.31316,-110.6672,-50.34543,0.001067912,-0.1257102,0.09433498,0,0.3,0,0,0,0,
6.38223E+17,9.753823,0,45.97077,-13.39765,0.707853,108.2626,-17.10453,-0.4441859,-4.249202,-61.88596,-6.98289,34.57793,0,0,0,38.8345,-69.33163,57.56316,-36.31316,-110.6672,-50.34543,0.001067912,-0.1257102,0.09433498,0,0.3,0,0,0,0,
6.38223E+17,14.70142,1.8235,49.51955,-5.926647,-2.514934,103.7946,-17.10453,-0.4441859,-4.249202,-61.88596,-6.98289,34.57793,0,0,0,59.56568,-58.976,58.67802,-36.31316,-110.6672,-50.34543,0.001067912,-0.1257102,0.09433498,0,0.3,0,0,0,0,
6.38223E+17,16.04433,2.524846,50.66357,-3.656047,-3.613612,102.3297,-17.10453,-0.4441859,-4.249202,-61.88596,-6.98289,34.57793,0,0,0,65.32499,-55.30252,58.80181,-36.31316,-110.6672,-50.34543,0.001067912,-0.1257102,0.09433498,0,0.3,0,0,0,0,
6.38223E+17,18.63593,4.021051,53.88549,0.738663,-6.396928,98.88718,-17.10453,-0.4441859,-4.249202,-61.88596,-6.98289,34.57793,0,0,0,76.93166,-45.89572,59.77448,-36.31316,-110.6672,-50.34543,0.001067912,-0.1257102,0.09433498,0,0.3,0,0,0,0,
6.38223E+17,21.0626,5.58739,57.85452,4.840393,-9.180244,95.66441,-17.10453,-0.4441859,-4.249202,-61.88596,-6.98289,34.57793,0,0,0,88.27422,-34.61816,60.86332,-36.31316,-110.6672,-50.34543,0.001067912,-0.1257102,0.09433498,0,0.3,0,0,0,0,
6.38223E+17,22.19348,6.499141,60.04917,6.891257,-10.86488,94.05301,-17.10453,-0.4441859,-4.249202,-61.81271,-6.98289,34.57793,0,0,0,93.69151,-28.13221,61.30869,-36.31316,-110.6672,-50.34543,0.001067912,-0.1257102,0.09433498,0,0.3,0,0,0,0,
6.38223E+17,24.26676,8.533044,64.60188,11.21272,-14.16092,90.46399,-17.10453,-0.4441859,-4.249202,-61.88596,-6.98289,34.57793,0,0,0,103.7062,-14.05809,61.68962,-36.31316,-110.6672,-50.34543,0.001067912,-0.1257102,0.09433498,0,0.3,0,0,0,0,
6.38223E+17,25.72748,10.82411,68.7577,15.53419,-17.82317,86.21577,-17.10453,-0.4441859,-4.249202,-61.88596,-6.98289,34.57793,0,0,0,110.8092,0.0779958,61.61231,-36.31316,-110.6672,-50.34543,0.001067912,-0.1257102,0.09433498,0,0.3,0,0,0,0,
6.38223E+17,26.15156,12.03977,70.62548,17.51181,-19.50781,84.01842,-17.10453,-0.4441859,-4.249202,-61.88596,-6.98289,34.57793,0,0,0,112.9261,6.927815,61.63673,-36.31316,-110.6672,-50.34543,0.001067912,-0.1257102,0.09433498,0,0.3,0,0,0,0,
6.38223E+17,26.62276,14.82178,73.98749,21.02757,-23.17007,79.7702,-17.10453,-0.4441859,-4.249202,-61.81271,-6.98289,34.57793,0,0,0,115.2053,20.67846,61.48162,-36.31316,-110.6672,-50.34543,0.001067912,-0.1257102,0.09433498,0,0.3,0,0,0,0,
6.38223E+17,26.717,17.97784,77.13937,24.32361,-26.90557,75.44874,-17.10453,-0.4441859,-4.249202,-61.88596,-6.98289,34.57793,0,0,0,115.473,34.82727,61.07297,-36.31316,-110.6672,-50.34543,0.001067912,-0.1257102,0.09433498,0,0.3,0,0,0,0,
6.38223E+17,26.66988,21.06376,80.29124,27.69288,-30.05512,72.22594,-17.10453,-0.4441859,-4.249202,-61.88596,-6.98289,34.57793,0,0,0,114.8515,48.78874,60.30612,-36.31316,-110.6672,-50.34543,0.001067912,-0.1257102,0.09433498,0,0.3,0,0,0,0,
6.38223E+17,26.55208,22.79375,82.01895,29.96349,-31.88625,70.54131,-17.10453,-0.4441859,-4.249202,-61.88596,-6.98289,34.57793,0,0,0,113.9853,56.49672,59.7498,-36.31316,-110.6672,-50.34543,0.001067912,-0.1257102,0.09433498,0,0.3,0,0,0,0,
6.38223E+17,26.0102,25.57575,84.68053,34.79766,-35.18228,67.31852,-17.10453,-0.4441859,-4.249202,-61.81271,-6.98289,34.57793,0,0,0,110.9744,68.55501,59.07857,-36.31316,-110.6672,-50.34543,0.001067912,-0.1257102,0.09433498,0,0.3,0,0,0,0,
6.38223E+17,24.73796,28.05384,86.22145,39.70509,-38.25858,64.38871,-17.10453,-0.4441859,-4.249202,-61.88596,-6.98289,34.57793,0,0,0,104.9278,77.27685,59.38197,-36.31316,-110.6672,-50.34543,0.001067912,-0.1257102,0.09433498,0,0.3,0,0,0,0,
6.38223E+17,22.92384,30.34491,86.66505,42.78139,-41.11514,62.70407,-17.10453,-0.4441859,-4.249202,-61.88596,-6.98289,34.57793,0,0,0,96.67773,82.96161,60.2528,-36.31316,-110.6672,-50.34543,0.001067912,-0.1257102,0.09433498,0,0.3,0,0,0,0,
6.38223E+17,20.80345,32.75286,87.20203,44.31954,-43.53223,62.48434,-17.10453,-0.4441859,-4.249202,-61.81271,-6.98289,34.57793,0,0,0,87.13573,88.98517,60.99487,-36.31316,-110.6672,-50.34543,0.001067912,-0.1257102,0.09433498,0,0.3,0,0,0,0,
6.38223E+17,19.46053,34.01529,87.62229,45.19848,-44.99713,62.85057,-17.10453,-0.4441859,-4.249202,-61.88596,-6.98289,34.57793,0,0,0,81.21293,92.41557,61.49132,-36.31316,-110.6672,-50.34543,0.001067912,-0.1257102,0.09433498,0,0.3,0,0,0,0,
6.38223E+17,16.56265,36.02581,88.22932,46.88312,-48.29316,63.36329,-17.10453,-0.4441859,-4.249202,-61.88596,-6.98289,34.57793,0,0,0,68.73837,97.65933,62.77846,-36.31316,-110.6672,-50.34543,0.001067912,-0.1257102,0.09433498,0,0.3,0,0,0,0,
6.38223E+17,13.09934,37.19472,88.69627,47.68882,-52.39489,64.82819,-17.10453,-0.4441859,-4.249202,-61.88596,-6.98289,34.57793,0,0,0,54.2894,100.9295,64.957,-36.31316,-110.6672,-50.34543,0.001067912,-0.1257102,0.09433498,0,0.3,0,0,0,0,
6.38223E+17,11.4737,37.4285,88.83634,47.02961,-54.44576,66.65932,-17.10453,-0.4441859,-4.249202,-61.88596,-6.98289,34.57793,0,0,0,47.58467,101.6882,66.08689,-36.31316,-110.6672,-50.34543,0.001067912,-0.1257102,0.09433498,0,0.3,0,0,0,0,
6.38223E+17,8.340226,37.66228,89.06982,41.09675,-58.76722,76.54742,-17.10453,-0.4441859,-4.249202,-61.81271,-6.98289,34.57793,0,0,0,34.65204,102.6629,68.01923,-36.31316,-110.6672,-50.34543,0.001067912,-0.1257102,0.09433498,0,0.3,0,0,0,0,
6.38223E+17,5.536591,37.38175,88.55618,22.93195,-61.3308,118.7366,-17.10453,-0.4441859,-4.249202,-61.88596,-6.98289,34.57793,0,0,0,23.08498,100.9498,69.80241,-36.31316,-110.6672,-50.34543,0.001067912,-0.1257102,0.09433498,0,0.3,0,0,0,0,
6.38223E+17,3.251275,37.33499,86.87518,-1.751673,-61.99001,144.3724,-17.10453,-0.4441859,-4.249202,-61.88596,-6.98289,34.57793,0,0,0,13.56502,96.95422,70.44376,-36.31316,-110.6672,-50.34543,0.001067912,-0.1257102,0.09433498,0,0.3,0,0,0,0,
6.38223E+17,2.355996,37.33499,85.3576,-11.05381,-61.3308,144.8119,-17.10453,-0.4441859,-4.249202,-61.88596,-6.98289,34.57793,0,0,0,9.822398,93.43044,70.38756,-36.31316,-110.6672,-50.34543,0.001067912,-0.1257102,0.09433498,0,0.3,0,0,0,0,
6.38223E+17,0.9423984,37.33499,83.16296,-21.01515,-59.27994,144.8119,-17.10453,-0.4441859,-4.249202,-61.88596,-6.98289,34.57793,0,0,0,3.921489,88.34856,70.04649,-36.31316,-110.6672,-50.34543,0.001067912,-0.1257102,0.09433498,0,0.3,0,0,0,0,
6.38223E+17,-0.04711992,37.26486,80.94497,-26.28881,-57.15583,144.8852,-17.10453,-0.4441859,-4.249202,-61.88596,-6.98289,34.57793,0,0,0,-0.1955778,83.10645,69.464,-36.31316,-110.6672,-50.34543,0.001067912,-0.1257102,0.09433498,0,0.3,0,0,0,0,
6.38223E+17,-1.177998,37.2181,78.00321,-28.7059,-54.66549,144.8852,-17.10453,-0.4441859,-4.249202,-61.88596,-6.98289,34.57793,0,0,0,-4.864743,76.28914,68.22932,-36.31316,-110.6672,-50.34543,0.001067912,-0.1257102,0.09433498,0,0.3,0,0,0,0,
6.38223E+17,-2.403116,36.8908,76.01869,-30.24404,-52.32165,144.8119,-17.10453,-0.4441859,-4.249202,-61.88596,-6.98289,34.57793,0,0,0,-9.897585,71.18086,67.49266,-36.31316,-110.6672,-50.34543,0.001067912,-0.1257102,0.09433498,0,0.3,0,0,0,0,
6.38223E+17,-3.086355,36.54013,75.20155,-31.26948,-50.7835,144.8119,-17.10453,-0.4441859,-4.249202,-61.88596,-6.98289,34.57793,0,0,0,-12.71001,68.68446,67.37314,-36.31316,-110.6672,-50.34543,0.001067912,-0.1257102,0.09433498,0,0.3,0,0,0,0,
6.38223E+17,-4.287913,36.23622,73.33376,-33.10061,-48.00018,144.8852,-17.10453,-0.4441859,-4.249202,-61.88596,-6.98289,34.57793,0,0,0,-17.59348,63.93101,66.2979,-36.31316,-110.6672,-50.34543,0.001067912,-0.1257102,0.09433498,0,0.3,0,0,0,0,
6.38223E+17,-5.583711,36.16608,71.02238,-33.83306,-45.50985,144.7387,-17.10453,-0.4441859,-4.249202,-61.88596,-6.98289,34.57793,0,0,0,-22.74451,58.67829,64.29746,-36.31316,-110.6672,-50.34543,0.001067912,-0.1257102,0.09433498,0,0.3,0,0,0,0,
6.38223E+17,-6.36119,35.97906,69.85503,-33.9063,-44.19143,144.8119,-17.10453,-0.4441859,-4.249202,-61.88596,-6.98289,34.50468,0,0,0,-25.82685,55.7664,63.31809,-36.31316,-110.6672,-50.34543,0.001067912,-0.1257102,0.09433498,0,0.3,0,0,0,0,
6.38223E+17,-8.151747,35.37122,68.05728,-33.97955,-41.55461,145.0316,-17.10453,-0.4441859,-4.249202,-61.88596,-6.98289,34.57793,0,0,0,-32.95691,50.71238,61.72749,-36.31316,-110.6672,-50.34543,0.001067912,-0.1257102,0.09433498,0,0.3,0,0,0,0,
6.38223E+17,-10.08366,34.71663,66.11945,-34.78524,-38.77129,144.8119,-17.10453,-0.4441859,-4.249202,-61.88596,-6.98289,34.57793,0,0,0,-40.54028,45.31102,59.61833,-36.31316,-110.6672,-50.34543,0.001067912,-0.1257102,0.09433498,0,0.3,0,0,0,0,
6.38223E+17,-10.93182,34.38934,65.06883,-35.44445,-37.30639,144.8852,-17.10453,-0.4441859,-4.249202,-61.88596,-6.98289,34.57793,0,0,0,-43.8007,42.45695,58.42543,-36.31316,-110.6672,-50.34543,0.001067912,-0.1257102,0.09433498,0,0.3,0,0,0,0,
6.38223E+17,-12.32186,33.85164,63.38783,-36.68962,-34.44983,144.8852,-17.10453,-0.4441859,-4.249202,-61.88596,-6.98289,34.57793,0,0,0,-49.07582,37.89785,56.32017,-36.31316,-110.6672,-50.34543,0.001067912,-0.1257102,0.09433498,0,0.3,0,0,0,0,
6.38223E+17,-13.40562,33.50097,62.17377,-37.27558,-32.54545,144.8119,-17.10453,-0.4441859,-4.249202,-61.88596,-6.98289,34.57793,0,0,0,-53.12175,34.70601,54.53481,-36.31316,-110.6672,-50.34543,0.001067912,-0.1257102,0.09433498,0,0.3,0,0,0,0,
6.38223E+17,-15.05481,32.35543,61.19318,-38.4475,-30.3481,144.8852,-17.10453,-0.4441859,-4.249202,-61.88596,-6.98289,34.57793,0,0,0,-59.6096,30.45915,53.26776,-36.31316,-110.6672,-50.34543,0.001067912,-0.1257102,0.09433498,0,0.3,0,0,0,0,
6.38223E+17,-15.92653,31.56057,60.95971,-39.32644,-29.10293,144.9584,-17.10453,-0.4441859,-4.249202,-61.88596,-6.98289,34.57793,0,0,0,-63.17092,28.41399,53.02409,-36.31316,-110.6672,-50.34543,0.001067912,-0.1257102,0.09433498,0,0.3,0,0,0,0,
6.38223E+17,-17.57573,30.18126,60.88967,-41.59705,-26.31961,144.9584,-17.10453,-0.4441859,-4.249202,-61.88596,-6.98289,34.57793,0,0,0,-69.98935,25.51618,52.60906,-36.31316,-110.6672,-50.34543,0.001067912,-0.1257102,0.09433498,0,0.3,0,0,0,0,
6.38223E+17,-18.51813,29.85397,60.98306,-44.38036,-23.90252,144.8119,-17.10453,-0.4441859,-4.249202,-61.88596,-6.98289,34.57793,0,0,0,-73.76861,25.04659,51.88951,-36.31316,-110.6672,-50.34543,0.001067912,-0.1257102,0.09433498,0,0.3,0,0,0,0,
6.38223E+17,-19.01289,30.08775,61.14649,-46.35798,-22.29113,144.8119,-17.10453,-0.4441859,-4.249202,-61.88596,-6.98289,34.57793,0,0,0,-75.63904,25.85082,51.16131,-36.31316,-110.6672,-50.34543,0.001067912,-0.1257102,0.09433498,0,0.3,0,0,0,0,
6.38223E+17,-19.17781,30.20464,61.56674,-47.01719,-21.70517,144.8119,-17.10453,-0.4441859,-4.249202,-61.88596,-6.98289,34.57793,0,0,0,-76.3797,26.94447,51.25647,-36.31316,-110.6672,-50.34543,0.001067912,-0.1257102,0.09433498,0,0.3,0,0,0,0,
6.38223E+17,-19.41341,30.53193,62.89753,-48.26236,-21.19245,144.8852,-17.10453,-0.4441859,-4.249202,-61.88596,-6.98289,34.57793,0,0,0,-77.63369,30.34225,51.93826,-36.31316,-110.6672,-50.34543,0.001067912,-0.1257102,0.09433498,0,0.3,0,0,0,0,
6.38223E+17,-19.48409,30.9995,64.43845,-49.8005,-21.19245,144.8119,-17.10453,-0.4441859,-4.249202,-61.88596,-6.98289,34.57793,0,0,0,-78.2503,34.49141,52.8172,-36.31316,-110.6672,-50.34543,0.001067912,-0.1257102,0.09433498,0,0.3,0,0,0,0,
6.38223E+17,-19.41341,31.63071,66.37627,-51.48514,-21.48543,144.8852,-17.10453,-0.4441859,-4.249202,-61.88596,-6.98289,34.57793,0,0,0,-78.34744,39.84725,53.96357,-36.31316,-110.6672,-50.34543,0.001067912,-0.1257102,0.09433498,0,0.3,0,0,0,0,
6.38223E+17,-19.31917,31.98138,67.4269,-52.29084,-21.77841,144.8119,-17.10453,-0.4441859,-4.249202,-61.88596,-6.98289,34.57793,0,0,0,-78.15673,42.79001,54.59146,-36.31316,-110.6672,-50.34543,0.001067912,-0.1257102,0.09433498,0,0.3,0,0,0,0,
6.38223E+17,-18.98933,32.89313,69.87837,-54.19521,-22.51087,144.8119,-17.10453,-0.4441859,-4.249202,-61.88596,-6.98289,34.57793,0,0,0,-77.17743,49.89459,55.92521,-36.31316,-110.6672,-50.34543,0.001067912,-0.1257102,0.09433498,0,0.3,0,0,0,0,
6.38223E+17,-18.54169,33.78151,72.49326,-55.9531,-23.90252,144.8852,-17.10453,-0.4441859,-4.249202,-61.88596,-6.98289,34.57793,0,0,0,-75.68562,57.38216,57.30471,-36.31316,-110.6672,-50.34543,0.001067912,-0.1257102,0.09433498,0,0.3,0,0,0,0,
6.38223E+17,-18.32965,34.17893,73.77736,-56.90528,-24.70822,144.8852,-17.10453,-0.4441859,-4.249202,-61.88596,-6.98289,34.57793,0,0,0,-74.96009,61.0092,57.91553,-36.31316,-110.6672,-50.34543,0.001067912,-0.1257102,0.09433498,0,0.3,0,0,0,0,
6.38223E+17,-17.90557,35.09068,76.04205,-58.66317,-26.39286,144.8119,-17.10453,-0.4441859,-4.249202,-61.88596,-6.98289,34.57793,0,0,0,-73.3344,67.84388,58.62222,-36.31316,-110.6672,-50.34543,0.001067912,-0.1257102,0.09433498,0,0.3,0,0,0,0,
6.38223E+17,-17.31657,36.32973,77.90982,-60.20132,-27.71127,144.7387,-17.10453,-0.4441859,-4.249202,-61.88596,-6.98289,34.57793,0,0,0,-70.78788,74.42043,58.69242,-36.31316,-110.6672,-50.34543,0.001067912,-0.1257102,0.09433498,0,0.3,0,0,0,0,
6.38223E+17,-16.04433,38.48052,80.01108,-61.81271,-29.61565,144.8852,-17.10453,-0.4441859,-4.249202,-61.88596,-6.98289,34.57793,0,0,0,-65.14788,83.19626,58.18596,-36.31316,-110.6672,-50.34543,0.001067912,-0.1257102,0.09433498,0,0.3,0,0,0,0,
6.38223E+17,-14.93702,40.14038,81.36523,-62.54516,-30.86081,144.8119,-17.10453,-0.4441859,-4.249202,-61.88596,-6.98289,34.57793,0,0,0,-60.25851,89.29517,57.53076,-36.31316,-110.6672,-50.34543,0.001067912,-0.1257102,0.09433498,0,0.3,0,0,0,0,
6.38223E+17,-14.23022,41.12226,82.20573,-62.98463,-31.59327,144.8852,-17.10453,-0.4441859,-4.249202,-61.88596,-6.98289,34.57793,0,0,0,-57.17044,92.96555,57.08538,-36.31316,-110.6672,-50.34543,0.001067912,-0.1257102,0.09433498,0,0.3,0,0,0,0,
6.38223E+17,-12.5339,43.24968,84.14355,-64.37629,-33.49764,144.8119,-17.10453,-0.4441859,-4.249202,-61.81271,-6.98289,34.57793,0,0,0,-49.86682,101.112,55.95655,-36.31316,-110.6672,-50.34543,0.001067912,-0.1257102,0.09433498,0,0.3,0,0,0,0,
6.38223E+17,-10.43706,45.4706,85.77785,-66.06093,-35.32877,144.8852,-17.10453,-0.4441859,-4.249202,-61.88596,-6.98289,34.57793,0,0,0,-41.03225,108.5963,54.40553,-36.31316,-110.6672,-50.34543,0.001067912,-0.1257102,0.09433498,0,0.3,0,0,0,0,
6.38223E+17,-9.235504,46.546,86.43158,-66.72014,-36.20771,144.8852,-17.10453,-0.4441859,-4.249202,-61.88596,-6.98289,34.57793,0,0,0,-36.07973,111.8526,53.54169,-36.31316,-110.6672,-50.34543,0.001067912,-0.1257102,0.09433498,0,0.3,0,0,0,0,
6.38223E+17,-6.03135,49.14098,87.64564,-67.59908,-38.69805,144.8852,-17.10453,-0.4441859,-4.249202,-61.88596,-6.98289,34.57793,0,0,0,-23.16588,118.7275,50.90458,-36.31316,-110.6672,-50.34543,0.001067912,-0.1257102,0.09433498,0,0.3,0,0,0,0,
6.38223E+17,-2.143956,51.38529,88.46278,-67.52583,-41.99408,144.8119,-17.10453,-0.4441859,-4.249202,-61.81271,-6.98289,34.57793,0,0,0,-8.100209,123.9671,48.02154,-36.31316,-110.6672,-50.34543,0.001067912,-0.1257102,0.09433498,0,0.3,0,0,0,0,
6.38223E+17,2.143956,52.76461,88.83634,-65.84119,-45.87607,144.6654,-17.10453,-0.4441859,-4.249202,-61.88596,-6.98289,34.57793,0,0,0,8.006245,126.8093,45.51158,-36.31316,-110.6672,-50.34543,0.001067912,-0.1257102,0.09433498,0,0.3,0,0,0,0,
6.38223E+17,5.513031,53.16203,88.8597,-62.25218,-49.3186,138.5128,-17.10453,-0.4441859,-4.249202,-61.81271,-6.98289,34.57793,0,0,0,20.4897,127.4208,43.9376,-36.31316,-110.6672,-50.34543,0.001067912,-0.1257102,0.09433498,0,0.3,0,0,0,0,
6.38223E+17,8.646505,53.13866,88.83634,-55.73336,-52.39489,129.1375,-17.10453,-0.4441859,-4.249202,-61.81271,-6.98289,34.57793,0,0,0,32.06955,127.3338,42.54216,-36.31316,-110.6672,-50.34543,0.001067912,-0.1257102,0.09433498,0,0.3,0,0,0,0,
6.38223E+17,12.39254,52.64771,88.78965,-42.69572,-55.47119,114.1954,-17.10453,-0.4441859,-4.249202,-61.88596,-6.98289,34.57793,0,0,0,45.97455,126.5359,40.88416,-36.31316,-110.6672,-50.34543,0.001067912,-0.1257102,0.09433498,0,0.3,0,0,0,0,
6.38223E+17,14.11242,52.3438,88.67292,-34.78524,-56.35013,106.0652,-17.10453,-0.4441859,-4.249202,-61.88596,-6.98289,34.57793,0,0,0,52.36894,125.8336,39.94843,-36.31316,-110.6672,-50.34543,0.001067912,-0.1257102,0.09433498,0,0.3,0,0,0,0,
6.38223E+17,19.41341,50.68394,87.57559,-5.194195,-57.30232,78.23206,-17.10453,-0.4441859,-4.249202,-61.88596,-6.98289,34.57793,0,0,0,72.36647,120.877,36.99235,-36.31316,-110.6672,-50.34543,0.001067912,-0.1257102,0.09433498,0,0.3,0,0,0,0,
6.38223E+17,20.85056,49.91246,87.29543,2.496547,-56.7896,70.98078,-17.10453,-0.4441859,-4.249202,-61.88596,-6.98289,34.57793,0,0,0,77.97511,119.0787,36.37648,-36.31316,-110.6672,-50.34543,0.001067912,-0.1257102,0.09433498,0,0.3,0,0,0,0,
6.38223E+17,23.74844,47.92532,86.73509,16.63286,-54.59225,57.28393,-17.10453,-0.4441859,-4.249202,-61.88596,-6.98289,34.57793,0,0,0,89.60206,114.7374,35.30121,-36.31316,-110.6672,-50.34543,0.001067912,-0.1257102,0.09433498,0,0.3,0,0,0,0,
6.38223E+17,26.29292,45.7979,86.08137,25.935,-51.5892,47.8353,-17.10453,-0.4441859,-4.249202,-61.81271,-6.98289,34.57793,0,0,0,100.1129,109.8335,34.27612,-36.31316,-110.6672,-50.34543,0.001067912,-0.1257102,0.09433498,0,0.3,0,0,0,0,
6.38223E+17,27.44736,44.62899,86.08137,29.23104,-49.9778,43.95331,-17.10453,-0.4441859,-4.249202,-61.81271,-6.98289,34.57793,0,0,0,105.0649,107.917,33.93145,-36.31316,-110.6672,-50.34543,0.001067912,-0.1257102,0.09433498,0,0.3,0,0,0,0,
6.38223E+17,29.33215,42.4782,86.1981,33.99197,-46.9015,36.55555,-17.10453,-0.4441859,-4.249202,-61.88596,-6.98289,34.57793,0,0,0,113.3596,104.5605,33.38913,-36.31316,-110.6672,-50.34543,0.001067912,-0.1257102,0.09433498,0,0.3,0,0,0,0,
6.38223E+17,30.88711,40.72483,86.22145,37.21476,-44.26468,30.54945,-17.10453,-0.4441859,-4.249202,-61.88596,-6.98289,34.57793,0,0,0,120.1849,101.5633,32.5669,-36.31316,-110.6672,-50.34543,0.001067912,-0.1257102,0.09433498,0,0.3,0,0,0,0,
6.38223E+17,32.08867,39.29876,86.22145,39.70509,-41.77435,25.935,-17.10453,-0.4441859,-4.249202,-61.88596,-6.98289,34.57793,0,0,0,125.5052,99.0213,31.81039,-36.31316,-110.6672,-50.34543,0.001067912,-0.1257102,0.09433498,0,0.3,0,0,0,0,
6.38223E+17,32.60699,38.8312,86.22145,40.58403,-40.67567,24.03063,-17.10453,-0.4441859,-4.249202,-61.88596,-6.98289,34.57793,0,0,0,127.6803,98.17638,31.24454,-36.31316,-110.6672,-50.34543,0.001067912,-0.1257102,0.09433498,0,0.3,0,0,0,0,
6.38223E+17,33.57294,38.19999,86.6417,42.12218,-38.6248,20.44161,-17.10453,-0.4441859,-4.249202,-61.88596,-6.98289,34.57793,0,0,0,131.5666,98.00311,29.87664,-36.31316,-110.6672,-50.34543,0.001067912,-0.1257102,0.09433498,0,0.3,0,0,0,0,
6.38223E+17,34.3033,38.10647,87.27208,43.58709,-37.37963,16.99909,-17.10453,-0.4441859,-4.249202,-61.81271,-6.909645,34.57793,0,0,0,134.2023,99.29703,28.35888,-36.31316,-110.6672,-50.34543,0.001067912,-0.1257102,0.09433498,0,0.3,0,0,0,0,
6.38223E+17,34.72738,38.10647,87.71568,44.46603,-36.64718,15.46094,-17.10453,-0.4441859,-4.249202,-61.88596,-6.98289,34.57793,0,0,0,135.6803,100.3285,27.3973,-36.31316,-110.6672,-50.34543,0.001067912,-0.1257102,0.09433498,0,0.3,0,0,0,0,
6.38223E+17,35.45774,38.10647,89.02312,46.95637,-35.10904,12.60438,-17.10453,-0.4441859,-4.249202,-61.81271,-6.98289,34.57793,0,0,0,138.2147,103.3701,25.72243,-36.31316,-110.6672,-50.34543,0.001067912,-0.1257102,0.09433498,0,0.3,0,0,0,0,
6.38223E+17,35.8347,38.10647,90.30723,49.4467,-33.79062,10.70001,-17.10453,-0.4441859,-4.249202,-61.88596,-6.98289,34.57793,0,0,0,139.4987,106.3586,24.82306,-36.31316,-110.6672,-50.34543,0.001067912,-0.1257102,0.09433498,0,0.3,0,0,0,0,
6.38223E+17,35.92894,38.2935,92.01157,51.93703,-32.47221,9.821064,-17.10453,-0.4441859,-4.249202,-61.88596,-6.98289,34.57793,0,0,0,139.6112,110.6664,24.31039,-36.31316,-110.6672,-50.34543,0.001067912,-0.1257102,0.09433498,0,0.3,0,0,0,0,
6.38223E+17,35.85826,38.99485,94.15952,54.64711,-31.1538,9.381593,-17.10453,-0.4441859,-4.249202,-61.81271,-6.98289,34.57793,0,0,0,138.6187,116.9329,23.43825,-36.31316,-110.6672,-50.34543,0.001067912,-0.1257102,0.09433498,0,0.3,0,0,0,0,
6.38223E+17,35.55198,39.95335,95.77048,56.99095,-30.27485,8.795631,-17.10453,-0.4441859,-4.249202,-61.81271,-6.98289,34.57793,0,0,0,136.5783,122.39,22.75869,-36.31316,-110.6672,-50.34543,0.001067912,-0.1257102,0.09433498,0,0.3,0,0,0,0,
6.38223E+17,35.0101,41.21577,97.56822,59.70102,-29.83538,7.843444,-17.10453,-0.4441859,-4.249202,-61.88596,-6.98289,34.57793,0,0,0,133.3894,128.7769,22.07827,-36.31316,-110.6672,-50.34543,0.001067912,-0.1257102,0.09433498,0,0.3,0,0,0,0,
6.38223E+17,33.90279,43.29643,99.83291,64.24223,-29.61565,5.646089,-17.10453,-0.4441859,-4.249202,-61.88596,-6.98289,34.57793,0,0,0,127.4234,137.5707,21.2562,-36.31316,-110.6672,-50.34543,0.001067912,-0.1257102,0.09433498,0,0.3,0,0,0,0,
6.38223E+17,33.2431,44.3017,100.7668,66.73256,-29.76214,4.474167,-17.10453,-0.4441859,-4.249202,-61.88596,-6.98289,34.57793,0,0,0,124.1313,141.3979,21.03135,-36.31316,-110.6672,-50.34543,0.001067912,-0.1257102,0.09433498,0,0.3,0,0,0,0,
6.38223E+17,31.57035,46.1252,102.2844,71.71323,-30.3481,1.764095,-17.10453,-0.4441859,-4.249202,-61.88596,-6.98289,34.57793,0,0,0,116.6038,147.8482,21.40669,-36.31316,-110.6672,-50.34543,0.001067912,-0.1257102,0.09433498,0,0.3,0,0,0,0,
6.38223E+17,29.30859,47.55127,103.1716,76.62066,-31.08055,-0.7262403,-17.10453,-0.4441859,-4.249202,-61.81271,-6.98289,34.57793,0,0,0,107.6164,152.1327,23.35288,-36.31316,-110.6672,-50.34543,0.001067912,-0.1257102,0.09433498,0,0.3,0,0,0,0,
6.38223E+17,26.81124,48.95396,103.2883,81.16187,-32.32572,-2.557369,-17.10453,-0.4441859,-4.249202,-61.88596,-6.98289,34.57793,0,0,0,98.03446,154.5708,25.63072,-36.31316,-110.6672,-50.34543,0.001067912,-0.1257102,0.09433498,0,0.3,0,0,0,0,
6.38223E+17,25.58612,49.42152,103.2883,83.21272,-33.13141,-3.509557,-17.10453,-0.4441859,-4.249202,-61.88596,-6.98289,34.57793,0,0,0,93.50891,155.2821,26.93958,-36.31316,-110.6672,-50.34543,0.001067912,-0.1257102,0.09433498,0,0.3,0,0,0,0,
6.38223E+17,22.85316,49.93584,103.265,87.75392,-35.10904,-5.780157,-17.10453,-0.4441859,-4.249202,-61.88596,-6.98289,34.57793,0,0,0,83.74136,156.0037,30.34655,-36.31316,-110.6672,-50.34543,0.001067912,-0.1257102,0.09433498,0,0.3,0,0,0,0,
6.38223E+17,19.93173,49.95922,103.1249,93.46705,-37.59937,-8.636719,-17.10453,-0.4441859,-4.249202,-61.88596,-6.98289,34.57793,0,0,0,73.51682,155.7213,34.38713,-36.31316,-110.6672,-50.34543,0.001067912,-0.1257102,0.09433498,0,0.3,0,0,0,0,
6.38223E+17,16.60977,49.93584,102.4478,100.7916,-40.96865,-13.39765,-17.10453,-0.4441859,-4.249202,-61.88596,-6.98289,34.57793,0,0,0,61.75696,154.1496,38.68063,-36.31316,-110.6672,-50.34543,0.001067912,-0.1257102,0.09433498,0,0.3,0,0,0,0,
6.38223E+17,14.37158,49.93584,101.4205,107.8231,-43.82521,-18.74455,-17.10453,-0.4441859,-4.249202,-61.88596,-6.98289,34.57793,0,0,0,53.7472,151.8104,41.41347,-36.31316,-110.6672,-50.34543,0.001067912,-0.1257102,0.09433498,0,0.3,0,0,0,0,
6.38223E+17,13.33494,49.93584,100.5567,111.9248,-45.5831,-22.48005,-17.10453,-0.4441859,-4.249202,-61.88596,-6.98289,34.57793,0,0,0,50.0318,149.8368,42.72441,-36.31316,-110.6672,-50.34543,0.001067912,-0.1257102,0.09433498,0,0.3,0,0,0,0,
6.38223E+17,11.85066,49.95922,98.12856,115.9533,-49.09886,-28.63265,-17.10453,-0.4441859,-4.249202,-61.88596,-6.98289,34.57793,0,0,0,44.72746,144.296,44.80657,-36.31316,-110.6672,-50.34543,0.001067912,-0.1257102,0.09433498,0,0.3,0,0,0,0,
6.38223E+17,11.04962,49.95922,95.44363,111.7783,-52.54139,-30.53703,-17.10453,-0.4441859,-4.249202,-61.88596,-6.98289,34.57793,0,0,0,41.8846,138.0914,46.13567,-36.31316,-110.6672,-50.34543,0.001067912,-0.1257102,0.09433498,0,0.3,0,0,0,0,
6.38223E+17,10.79046,49.95922,94.04279,107.8963,-54.00629,-28.99888,-17.10453,-0.4441859,-4.249202,-61.81271,-6.98289,34.57793,0,0,0,40.96449,134.8423,46.58775,-36.31316,-110.6672,-50.34543,0.001067912,-0.1257102,0.09433498,0,0.3,0,0,0,0,
6.38223E+17,10.38994,49.95922,90.9843,98.44772,-56.56987,-21.45462,-17.10453,-0.4441859,-4.249202,-61.88596,-6.98289,34.57793,0,0,0,39.5173,127.7317,47.17588,-36.31316,-110.6672,-50.34543,0.001067912,-0.1257102,0.09433498,0,0.3,0,0,0,0,
6.38223E+17,10.20146,50.09949,87.27208,84.75087,-58.62074,-6.585854,-17.10453,-0.4441859,-4.249202,-61.88596,-6.98289,34.57793,0,0,0,38.7405,119.3042,46.92911,-36.31316,-110.6672,-50.34543,0.001067912,-0.1257102,0.09433498,0,0.3,0,0,0,0,
6.38223E+17,10.1779,50.14624,85.10078,76.32768,-59.27994,4.107941,-17.10453,-0.4441859,-4.249202,-61.88596,-6.98289,34.57793,0,0,0,38.57783,114.3319,46.53203,-36.31316,-110.6672,-50.34543,0.001067912,-0.1257102,0.09433498,0,0.3,0,0,0,0,
6.38223E+17,9.942304,50.14624,77.18607,50.17915,-58.25451,40.43755,-17.10453,-0.4441859,-4.249202,-61.88596,-6.98289,34.57793,0,0,0,37.20464,96.14536,43.89758,-36.31316,-110.6672,-50.34543,0.001067912,-0.1257102,0.09433498,0,0.3,0,0,0,0,
6.38223E+17,9.753823,49.86571,71.18581,33.33276,-54.44576,61.38566,-17.10453,-0.4441859,-4.249202,-61.88596,-6.98289,34.57793,0,0,0,35.94653,82.29546,40.76284,-36.31316,-110.6672,-50.34543,0.001067912,-0.1257102,0.09433498,0,0.3,0,0,0,0,
6.38223E+17,9.989424,49.28125,65.44238,18.61049,-48.36641,74.71628,-17.10453,-0.4441859,-4.249202,-61.88596,-6.98289,34.57793,0,0,0,36.12924,68.99742,36.77053,-36.31316,-110.6672,-50.34543,0.001067912,-0.1257102,0.09433498,0,0.3,0,0,0,0,
6.38223E+17,10.31926,49.11761,63.34113,13.92279,-45.5831,78.08556,-17.10453,-0.4441859,-4.249202,-61.88596,-6.98289,34.57793,0,0,0,36.9825,64.33873,34.76337,-36.31316,-110.6672,-50.34543,0.001067912,-0.1257102,0.09433498,0,0.3,0,0,0,0,
6.38223E+17,11.19098,48.50977,59.32541,7.843444,-40.60242,81.30835,-17.10453,-0.4441859,-4.249202,-61.88596,-6.98289,34.57793,0,0,0,39.40499,55.20826,30.82426,-36.31316,-110.6672,-50.34543,0.001067912,-0.1257102,0.09433498,0,0.3,0,0,0,0,
6.38223E+17,12.20406,47.17721,56.87394,5.572844,-36.79367,81.52808,-17.10453,-0.4441859,-4.249202,-61.81271,-6.98289,34.50468,0,0,0,42.76905,48.28334,29.39683,-36.31316,-110.6672,-50.34543,0.001067912,-0.1257102,0.09433498,0,0.3,0,0,0,0,
6.38223E+17,13.33494,45.54074,55.00616,5.572844,-33.49764,81.01537,-17.10453,-0.4441859,-4.249202,-61.88596,-6.98289,34.57793,0,0,0,46.73769,42.0537,28.82723,-36.31316,-110.6672,-50.34543,0.001067912,-0.1257102,0.09433498,0,0.3,0,0,0,0,
6.38223E+17,13.97106,44.74588,54.189,6.08556,-31.88625,80.64914,-17.10453,-0.4441859,-4.249202,-61.88596,-6.98289,34.57793,0,0,0,48.97451,39.19869,28.4996,-36.31316,-110.6672,-50.34543,0.001067912,-0.1257102,0.09433498,0,0.3,0,0,0,0,
6.38223E+17,15.07837,43.48346,52.97495,7.770199,-29.02968,79.7702,-17.10453,-0.4441859,-4.249202,-61.88596,-6.98289,34.57793,0,0,0,52.86518,34.81556,27.87149,-36.31316,-110.6672,-50.34543,0.001067912,-0.1257102,0.09433498,0,0.3,0,0,0,0,
6.38223E+17,16.04433,42.29117,52.13445,9.381593,-26.4661,78.23206,-17.10453,-0.4441859,-4.249202,-61.81271,-6.98289,34.57793,0,0,0,56.35886,31.22936,27.62427,-36.31316,-110.6672,-50.34543,0.001067912,-0.1257102,0.09433498,0,0.3,0,0,0,0,
6.38223E+17,16.79825,41.19239,51.45737,10.70001,-24.41524,77.27986,-17.10453,-0.4441859,-4.249202,-61.88596,-6.98289,34.57793,0,0,0,59.14299,28.08297,27.56264,-36.31316,-110.6672,-50.34543,0.001067912,-0.1257102,0.09433498,0,0.3,0,0,0,0,
6.38223E+17,17.10453,40.6547,50.99043,11.21272,-23.68279,77.06013,-17.10453,-0.4441859,-4.249202,-61.88596,-6.98289,34.57793,0,0,0,60.23033,26.29017,27.37667,-36.31316,-110.6672,-50.34543,0.001067912,-0.1257102,0.09433498,0,0.3,0,0,0,0,
6.38223E+17,17.17521,39.20525,50.03319,11.94517,-22.07139,76.76715,-17.10453,-0.4441859,-4.249202,-61.88596,-6.98289,34.57793,0,0,0,60.69275,21.98403,28.01731,-36.31316,-110.6672,-50.34543,0.001067912,-0.1257102,0.09433498,0,0.3,0,0,0,0,
6.38223E+17,16.70401,37.38175,49.42616,12.38465,-20.53325,76.62066,-17.10453,-0.4441859,-4.249202,-61.88596,-6.98289,34.57793,0,0,0,59.56921,17.57531,30.154,-36.31316,-110.6672,-50.34543,0.001067912,-0.1257102,0.09433498,0,0.3,0,0,0,0,
6.38223E+17,16.18569,36.32973,48.84248,12.38465,-19.50781,76.62066,-17.10453,-0.4441859,-4.249202,-61.88596,-6.98289,34.57793,0,0,0,57.93266,14.58888,31.24153,-36.31316,-110.6672,-50.34543,0.001067912,-0.1257102,0.09433498,0,0.3,0,0,0,0,
6.38223E+17,14.4187,34.52961,47.32491,11.79868,-17.16397,77.13338,-17.10453,-0.4441859,-4.249202,-61.88596,-6.98289,34.57793,0,0,0,51.76792,8.547067,32.99996,-36.31316,-110.6672,-50.34543,0.001067912,-0.1257102,0.09433498,0,0.3,0,0,0,0,
6.38223E+17,11.63862,33.52435,46.06416,9.894309,-14.67363,78.37854,-17.10453,-0.4441859,-4.249202,-61.88596,-6.98289,34.57793,0,0,0,41.79914,4.472807,34.58498,-36.31316,-110.6672,-50.34543,0.001067912,-0.1257102,0.09433498,0,0.3,0,0,0,0,
6.38223E+17,7.539187,33.64123,45.64391,4.840393,-12.32979,80.72239,-17.10453,-0.4441859,-4.249202,-61.88596,-6.98289,34.57793,0,0,0,27.07574,3.997606,36.22937,-36.31316,-110.6672,-50.34543,0.001067912,-0.1257102,0.09433498,0,0.3,0,0,0,0,
6.38223E+17,5.041832,33.87502,45.66725,1.104889,-11.52409,82.48027,-17.10453,-0.4441859,-4.249202,-61.88596,-6.98289,34.57793,0,0,0,18.1126,4.488828,36.9515,-36.31316,-110.6672,-50.34543,0.001067912,-0.1257102,0.09433498,0,0.3,0,0,0,0,
6.38223E+17,3.345515,34.13218,45.90073,-1.751673,-11.08462,83.87193,-17.10453,-0.4441859,-4.249202,-61.88596,-6.98289,34.57793,0,0,0,12.02991,5.374449,37.44184,-36.31316,-110.6672,-50.34543,0.001067912,-0.1257102,0.09433498,0,0.3,0,0,0,0,
6.38223E+17,0,35.09068,46.71788,-7.684532,-10.49866,86.72849,-17.10453,-0.4441859,-4.249202,-61.88596,-6.98289,34.57793,0,0,0,0,8.585618,37.83976,-36.31316,-110.6672,-50.34543,0.001067912,-0.1257102,0.09433498,0,0.3,0,0,0,0,
6.38223E+17,-3.062795,36.6804,47.97863,-14.2766,-10.79164,89.65829,-17.10453,-0.4441859,-4.249202,-61.88596,-6.98289,34.57793,0,0,0,-11.00715,13.74122,37.36485,-36.31316,-110.6672,-50.34543,0.001067912,-0.1257102,0.09433498,0,0.3,0,0,0,0,
6.38223E+17,-4.900472,38.8312,49.51955,-20.20946,-11.81707,91.56267,-17.10453,-0.4441859,-4.249202,-61.88596,-6.98289,34.57793,0,0,0,-17.53854,20.3949,36.2084,-36.31316,-110.6672,-50.34543,0.001067912,-0.1257102,0.09433498,0,0.3,0,0,0,0,
6.38223E+17,-5.230311,40.39754,50.31336,-22.99277,-12.76926,92.29513,-17.10453,-0.4441859,-4.249202,-61.88596,-6.98289,34.57793,0,0,0,-18.6124,24.61665,34.97402,-36.31316,-110.6672,-50.34543,0.001067912,-0.1257102,0.09433498,0,0.3,0,0,0,0,
6.38223E+17,-4.994712,43.60035,51.7142,-27.16775,-15.25959,93.02757,-17.10453,-0.4441859,-4.249202,-61.81271,-6.98289,34.57793,0,0,0,-17.52056,32.68975,32.124,-36.31316,-110.6672,-50.34543,0.001067912,-0.1257102,0.09433498,0,0.3,0,0,0,0,
6.38223E+17,-4.146553,46.6629,53.44189,-29.73133,-18.70212,93.46705,-17.10453,-0.4441859,-4.249202,-61.88596,-6.98289,34.57793,0,0,0,-14.36255,40.91095,29.76058,-36.31316,-110.6672,-50.34543,0.001067912,-0.1257102,0.09433498,0,0.3,0,0,0,0,
6.38223E+17,-3.651794,47.90194,54.37578,-30.53703,-20.60649,93.90652,-17.10453,-0.4441859,-4.249202,-61.88596,-6.98289,34.57793,0,0,0,-12.59792,44.62358,29.0406,-36.31316,-110.6672,-50.34543,0.001067912,-0.1257102,0.09433498,0,0.3,0,0,0,0,
6.38223E+17,-2.450236,50.02935,56.19687,-31.04974,-24.48849,95.29817,-17.10453,-0.4441859,-4.249202,-61.88596,-6.98289,34.57793,0,0,0,-8.399464,51.35785,27.94148,-36.31316,-110.6672,-50.34543,0.001067912,-0.1257102,0.09433498,0,0.3,0,0,0,0,
6.38223E+17,-1.036638,51.73597,57.43428,-30.53703,-28.00425,96.83633,-17.10453,-0.4441859,-4.249202,-61.88596,-6.98289,34.57793,0,0,0,-3.527276,56.27391,26.5839,-36.31316,-110.6672,-50.34543,0.001067912,-0.1257102,0.09433498,0,0.3,0,0,0,0,
6.38223E+17,-0.1649197,52.64771,57.99461,-29.95106,-29.61565,97.34904,-17.10453,-0.4441859,-4.249202,-61.88596,-6.98289,34.57793,0,0,0,-0.5583667,58.67722,25.63508,-36.31316,-110.6672,-50.34543,0.001067912,-0.1257102,0.09433498,0,0.3,0,0,0,0,
6.38223E+17,2.544476,55.40634,59.18532,-26.58179,-34.44983,97.86176,-17.10453,-0.4441859,-4.249202,-61.88596,-6.98289,34.57793,0,0,0,8.445444,64.81335,21.69706,-36.31316,-110.6672,-50.34543,0.001067912,-0.1257102,0.09433498,0,0.3,0,0,0,0,
6.38223E+17,3.416194,56.13107,59.3721,-25.33662,-35.62175,97.64202,-17.10453,-0.4441859,-4.249202,-61.88596,-6.98289,34.57793,0,0,0,11.26593,66.13589,20.37621,-36.31316,-110.6672,-50.34543,0.001067912,-0.1257102,0.09433498,0,0.3,0,0,0,0,
6.38223E+17,5.79575,57.55714,59.41879,-21.52787,-38.03884,95.95738,-17.10453,-0.4441859,-4.249202,-61.88596,-6.98289,34.57793,0,0,0,18.81697,68.04462,17.03639,-36.31316,-110.6672,-50.34543,0.001067912,-0.1257102,0.09433498,0,0.3,0,0,0,0,
6.38223E+17,8.952785,58.44551,59.06858,-15.88799,-39.86997,92.22188,-17.10453,-0.4441859,-4.249202,-61.88596,-6.98289,34.57793,0,0,0,28.66042,68.43979,13.57493,-36.31316,-110.6672,-50.34543,0.001067912,-0.1257102,0.09433498,0,0.3,0,0,0,0,
6.38223E+17,10.74334,58.58578,58.76507,-12.07924,-40.45593,89.51181,-17.10453,-0.4441859,-4.249202,-61.88596,-6.98289,34.57793,0,0,0,34.21098,68.00532,11.95875,-36.31316,-110.6672,-50.34543,0.001067912,-0.1257102,0.09433498,0,0.3,0,0,0,0,
6.38223E+17,14.37158,58.35199,57.76114,-3.729292,-40.82215,83.57895,-17.10453,-0.4441859,-4.249202,-61.81271,-6.98289,34.57793,0,0,0,45.36281,65.73363,8.691064,-36.31316,-110.6672,-50.34543,0.001067912,-0.1257102,0.09433498,0,0.3,0,0,0,0,
6.38223E+17,17.81133,57.20647,56.45369,4.547412,-39.94322,77.4996,-17.10453,-0.4441859,-4.249202,-61.88596,-6.98289,34.57793,0,0,0,56.08782,61.75705,6.224492,-36.31316,-110.6672,-50.34543,0.001067912,-0.1257102,0.09433498,0,0.3,0,0,0,0,
6.38223E+17,19.48409,56.24796,55.65988,8.649141,-38.91778,74.49654,-17.10453,-0.4441859,-4.249202,-61.81271,-6.98289,34.57793,0,0,0,61.43793,59.00051,5.298623,-36.31316,-110.6672,-50.34543,0.001067912,-0.1257102,0.09433498,0,0.3,0,0,0,0,
6.38223E+17,22.2406,54.00365,53.67536,14.80174,-36.50069,69.66236,-17.10453,-0.4441859,-4.249202,-61.88596,-6.98289,34.57793,0,0,0,70.32883,52.24625,3.637026,-36.31316,-110.6672,-50.34543,0.001067912,-0.1257102,0.09433498,0,0.3,0,0,0,0,
6.38223E+17,24.76152,50.75408,50.80365,19.70916,-32.91168,65.56064,-17.10453,-0.4441859,-4.249202,-61.88596,-6.98289,34.57793,0,0,0,78.6201,42.34674,2.100045,-36.31316,-110.6672,-50.34543,0.001067912,-0.1257102,0.09433498,0,0.3,0,0,0,0,
6.38223E+17,26.34004,47.55127,48.18876,22.1995,-29.39591,63.0703,-17.10453,-0.4441859,-4.249202,-61.81271,-6.98289,34.57793,0,0,0,84.03353,32.84489,1.380231,-36.31316,-110.6672,-50.34543,0.001067912,-0.1257102,0.09433498,0,0.3,0,0,0,0,
6.38223E+17,27.02328,45.65763,46.76458,23.07844,-27.34505,62.04487,-17.10453,-0.4441859,-4.249202,-61.88596,-6.98289,34.57793,0,0,0,86.48859,27.37428,1.22308,-36.31316,-110.6672,-50.34543,0.001067912,-0.1257102,0.09433498,0,0.3,0,0,0,0,
6.38223E+17,27.84787,41.80023,43.98625,24.25036,-23.24332,60.57997,-17.10453,-0.4441859,-4.249202,-61.81271,-6.909645,34.57793,0,0,0,89.69678,16.28631,1.43106,-36.31316,-110.6672,-50.34543,0.001067912,-0.1257102,0.09433498,0,0.3,0,0,0,0,
6.38223E+17,28.05991,38.05972,41.58148,24.68983,-19.06834,59.92076,-17.10453,-0.4441859,-4.249202,-61.88596,-6.98289,34.57793,0,0,0,91.02039,5.810443,2.403451,-36.31316,-110.6672,-50.34543,0.001067912,-0.1257102,0.09433498,0,0.3,0,0,0,0,
6.38223E+17,27.91855,34.57636,39.50357,24.61659,-15.18635,59.55453,-17.10453,-0.4441859,-4.249202,-61.88596,-6.98289,34.57793,0,0,0,91.12602,-3.864175,3.622425,-36.31316,-110.6672,-50.34543,0.001067912,-0.1257102,0.09433498,0,0.3,0,0,0,0,
6.38223E+17,27.47091,31.2099,38.10274,24.32361,-11.45084,59.40804,-17.10453,-0.4441859,-4.249202,-61.88596,-6.98289,34.57793,0,0,0,90.57021,-12.48524,5.849607,-36.31316,-110.6672,-50.34543,0.001067912,-0.1257102,0.09433498,0,0.3,0,0,0,0,
6.38223E+17,27.14108,29.7137,37.56575,24.10387,-9.912696,59.40804,-17.10453,-0.4441859,-4.249202,-61.88596,-6.98289,34.57793,0,0,0,89.92092,-16.25334,7.060683,-36.31316,-110.6672,-50.34543,0.001067912,-0.1257102,0.09433498,0,0.3,0,0,0,0,
6.38223E+17,26.10444,26.88494,36.42173,23.59116,-7.12938,59.92076,-17.10453,-0.4441859,-4.249202,-61.88596,-6.98289,34.57793,0,0,0,87.1702,-23.65167,9.551655,-36.31316,-110.6672,-50.34543,0.001067912,-0.1257102,0.09433498,0,0.3,0,0,0,0,
6.38223E+17,24.29032,24.19644,35.13763,22.71221,-4.639044,61.23917,-17.10453,-0.4441859,-4.249202,-61.88596,-6.98289,34.57793,0,0,0,81.60699,-31.0442,12.4709,-36.31316,-110.6672,-50.34543,0.001067912,-0.1257102,0.09433498,0,0.3,0,0,0,0,
6.38223E+17,21.84008,21.95213,33.47998,21.10082,-2.441689,62.99706,-17.10453,-0.4441859,-4.249202,-61.88596,-6.98289,34.57793,0,0,0,73.37803,-38.02391,14.73659,-36.31316,-110.6672,-50.34543,0.001067912,-0.1257102,0.09433498,0,0.3,0,0,0,0,
6.38223E+17,20.40293,20.94687,32.52274,19.9289,-1.489502,64.02249,-17.10453,-0.4441859,-4.249202,-61.88596,-6.98289,34.57793,0,0,0,68.40994,-41.4149,15.57005,-36.31316,-110.6672,-50.34543,0.001067912,-0.1257102,0.09433498,0,0.3,0,0,0,0,
6.38223E+17,17.03385,19.09999,30.63161,16.77936,0.4881175,66.29308,-17.10453,-0.4441859,-4.249202,-61.81271,-6.98289,34.57793,0,0,0,56.81593,-47.75799,17.09458,-36.31316,-110.6672,-50.34543,0.001067912,-0.1257102,0.09433498,0,0.3,0,0,0,0,
6.38223E+17,11.87422,16.85568,28.9973,11.5057,2.392492,68.78342,-17.10453,-0.4441859,-4.249202,-61.88596,-6.98289,34.57793,0,0,0,39.56118,-54.61714,19.80076,-36.31316,-110.6672,-50.34543,0.001067912,-0.1257102,0.09433498,0,0.3,0,0,0,0,
6.38223E+17,8.434465,15.80367,28.46032,7.550464,3.344679,70.02859,-17.10453,-0.4441859,-4.249202,-61.88596,-6.98289,34.57793,0,0,0,28.14128,-57.56752,21.43231,-36.31316,-110.6672,-50.34543,0.001067912,-0.1257102,0.09433498,0,0.3,0,0,0,0,
6.38223E+17,3.557554,14.89192,28.2035,0.9583986,4.370111,71.05402,-17.10453,-0.4441859,-4.249202,-61.88596,-6.98289,34.57793,0,0,0,11.90717,-59.8975,23.17312,-36.31316,-110.6672,-50.34543,0.001067912,-0.1257102,0.09433498,0,0.3,0,0,0,0,
6.38223E+17,0.8952785,14.54124,28.22684,-2.923595,4.663092,71.42025,-17.10453,-0.4441859,-4.249202,-61.88596,-6.98289,34.57793,0,0,0,3.002299,-60.66118,23.77466,-36.31316,-110.6672,-50.34543,0.001067912,-0.1257102,0.09433498,0,0.3,0,0,0,0,
6.38223E+17,-4.028753,14.09706,29.13739,-11.34679,4.589847,71.71323,-17.10453,-0.4441859,-4.249202,-61.88596,-6.98289,34.57793,0,0,0,-13.64835,-60.64576,25.4329,-36.31316,-110.6672,-50.34543,0.001067912,-0.1257102,0.09433498,0,0.3,0,0,0,0,
6.38223E+17,-7.939706,14.0503,30.93513,-19.84323,4.150376,71.63998,-17.10453,-0.4441859,-4.249202,-61.88596,-6.98289,34.57793,0,0,0,-27.33769,-58.65709,27.66424,-36.31316,-110.6672,-50.34543,0.001067912,-0.1257102,0.09433498,0,0.3,0,0,0,0,
6.38223E+17,-9.282625,14.07368,31.82232,-23.57873,3.93064,71.56674,-17.10453,-0.4441859,-4.249202,-61.81271,-6.98289,34.57793,0,0,0,-32.20623,-57.52916,28.69642,-36.31316,-110.6672,-50.34543,0.001067912,-0.1257102,0.09433498,0,0.3,0,0,0,0,
6.38223E+17,-11.49726,14.14381,33.71345,-30.02431,3.63766,71.56674,-17.10453,-0.4441859,-4.249202,-61.88596,-6.98289,34.57793,0,0,0,-40.52638,-54.98876,30.89229,-36.31316,-110.6672,-50.34543,0.001067912,-0.1257102,0.09433498,0,0.3,0,0,0,0,
6.38223E+17,-13.42918,14.70489,35.95479,-35.29796,3.198189,71.56674,-17.10453,-0.4441859,-4.249202,-61.88596,-6.98289,34.57793,0,0,0,-48.13898,-50.7446,33.26082,-36.31316,-110.6672,-50.34543,0.001067912,-0.1257102,0.09433498,0,0.3,0,0,0,0,
6.38223E+17,-14.91346,15.75691,37.5424,-39.10671,2.685472,71.71323,-17.10453,-0.4441859,-4.249202,-61.88596,-6.98289,34.57793,0,0,0,-53.94148,-46.1715,34.18556,-36.31316,-110.6672,-50.34543,0.001067912,-0.1257102,0.09433498,0,0.3,0,0,0,0,
6.38223E+17,-15.76161,16.87906,38.61638,-41.81678,2.099511,71.71323,-17.10453,-0.4441859,-4.249202,-61.88596,-6.98289,34.57793,0,0,0,-57.26875,-42.12346,34.55223,-36.31316,-110.6672,-50.34543,0.001067912,-0.1257102,0.09433498,0,0.3,0,0,0,0,
6.38223E+17,-16.84537,19.02986,40.39077,-45.77202,0.9275885,71.71323,-17.10453,-0.4441859,-4.249202,-61.88596,-6.98289,34.57793,0,0,0,-61.57242,-34.73484,35.00555,-36.31316,-110.6672,-50.34543,0.001067912,-0.1257102,0.09433498,0,0.3,0,0,0,0,
6.38223E+17,-17.31657,20.92349,42.32859,-49.06805,-0.3908245,71.78648,-17.10453,-0.4441859,-4.249202,-61.88596,-6.98289,34.57793,0,0,0,-63.80211,-27.61292,36.28652,-36.31316,-110.6672,-50.34543,0.001067912,-0.1257102,0.09433498,0,0.3,0,0,0,0,
6.38223E+17,-17.50505,23.00415,44.66332,-51.48514,-2.148709,72.1527,-17.10453,-0.4441859,-4.249202,-61.88596,-6.98289,34.57793,0,0,0,-65.11575,-19.38225,38.10732,-36.31316,-110.6672,-50.34543,0.001067912,-0.1257102,0.09433498,0,0.3,0,0,0,0,
6.38223E+17,-17.52861,23.89252,45.66725,-52.21759,-2.807915,72.59217,-17.10453,-0.4441859,-4.249202,-61.88596,-6.98289,34.57793,0,0,0,-65.44901,-15.82849,38.8669,-36.31316,-110.6672,-50.34543,0.001067912,-0.1257102,0.09433498,0,0.3,0,0,0,0,
6.38223E+17,-17.50505,26.23034,47.90859,-53.38951,-4.785534,73.98383,-17.10453,-0.4441859,-4.249202,-61.81271,-6.98289,34.57793,0,0,0,-65.74487,-7.098393,40.10202,-36.31316,-110.6672,-50.34543,0.001067912,-0.1257102,0.09433498,0,0.3,0,0,0,0,
6.38223E+17,-17.41081,28.47465,50.24332,-53.97548,-7.202625,75.74171,-17.10453,-0.4441859,-4.249202,-61.88596,-6.98289,34.57793,0,0,0,-65.74885,1.646116,41.31617,-36.31316,-110.6672,-50.34543,0.001067912,-0.1257102,0.09433498,0,0.3,0,0,0,0,
6.38223E+17,-17.19877,30.4618,52.62474,-54.3417,-9.692961,77.64609,-17.10453,-0.4441859,-4.249202,-61.88596,-6.98289,34.57793,0,0,0,-65.32137,10.00579,42.68528,-36.31316,-110.6672,-50.34543,0.001067912,-0.1257102,0.09433498,0,0.3,0,0,0,0,
6.38223E+17,-16.93961,31.46706,53.74541,-54.41495,-11.08462,78.74477,-17.10453,-0.4441859,-4.249202,-61.88596,-6.98289,34.57793,0,0,0,-64.47081,14.10004,43.32217,-36.31316,-110.6672,-50.34543,0.001067912,-0.1257102,0.09433498,0,0.3,0,0,0,0,
6.38223E+17,-16.35061,33.31394,55.30967,-54.56144,-13.72145,81.2351,-17.10453,-0.4441859,-4.249202,-61.88596,-6.98289,34.57793,0,0,0,-62.23801,20.69439,43.79156,-36.31316,-110.6672,-50.34543,0.001067912,-0.1257102,0.09433498,0,0.3,0,0,0,0,
6.38223E+17,-15.26685,35.48811,56.01009,-54.3417,-16.50476,83.5057,-17.10453,-0.4441859,-4.249202,-61.88596,-6.98289,34.57793,0,0,0,-57.70382,26.21531,43.06006,-36.31316,-110.6672,-50.34543,0.001067912,-0.1257102,0.09433498,0,0.3,0,0,0,0,
6.38223E+17,-14.58362,36.86742,56.24356,-53.82899,-17.96966,84.60438,-17.10453,-0.4441859,-4.249202,-61.88596,-6.98289,34.57793,0,0,0,-54.77789,29.25765,42.19235,-36.31316,-110.6672,-50.34543,0.001067912,-0.1257102,0.09433498,0,0.3,0,0,0,0,
6.38223E+17,-13.21714,39.76632,56.31361,-52.36408,-20.82623,85.26359,-17.10453,-0.4441859,-4.249202,-61.88596,-6.98289,34.57793,0,0,0,-48.8058,34.68624,39.45499,-36.31316,-110.6672,-50.34543,0.001067912,-0.1257102,0.09433498,0,0.3,0,0,0,0,
6.38223E+17,-12.20406,41.37942,56.15017,-50.89918,-22.95034,76.32768,-17.10453,-0.4441859,-4.249202,-61.88596,-6.98289,34.57793,0,0,0,-44.56318,37.22165,37.69218,-36.31316,-110.6672,-50.34543,0.001067912,-0.1257102,0.09433498,0,0.3,0,0,0,0,
6.38223E+17,-11.8271,42.17428,56.10348,-49.94699,-23.75603,70.61456,-17.10453,-0.4441859,-4.249202,-61.88596,-6.98289,34.57793,0,0,0,-42.94161,38.51099,36.7153,-36.31316,-110.6672,-50.34543,0.001067912,-0.1257102,0.09433498,0,0.3,0,0,0,0,
6.38223E+17,-11.07318,44.5121,56.68716,-48.84832,-25.0012,66.21985,-17.10453,-0.4441859,-4.249202,-61.88596,-6.98289,34.57793,0,0,0,-39.66683,43.59917,34.33566,-36.31316,-110.6672,-50.34543,0.001067912,-0.1257102,0.09433498,0,0.3,0,0,0,0,
6.38223E+17,-10.0601,47.17721,57.50431,-48.92156,-26.68584,64.97468,-17.10453,-0.4441859,-4.249202,-61.88596,-6.98289,34.57793,0,0,0,-35.48019,49.51641,31.64118,-36.31316,-110.6672,-50.34543,0.001067912,-0.1257102,0.09433498,0,0.3,0,0,0,0,
6.38223E+17,-9.636024,47.97207,57.50431,-49.21454,-27.49154,64.31547,-17.10453,-0.4441859,-4.249202,-61.88596,-6.98289,34.57793,0,0,0,-33.77041,50.76443,30.55203,-36.31316,-110.6672,-50.34543,0.001067912,-0.1257102,0.09433498,0,0.3,0,0,0,0,
6.38223E+17,-8.952785,48.88382,57.34089,-49.8005,-28.80995,61.75189,-17.10453,-0.4441859,-4.249202,-61.88596,-6.98289,34.57793,0,0,0,-31.11728,51.85197,29.17011,-36.31316,-110.6672,-50.34543,0.001067912,-0.1257102,0.09433498,0,0.3,0,0,0,0,
6.38223E+17,-8.151747,49.2345,57.34089,-50.6062,-29.02968,59.18831,-17.10453,-0.4441859,-4.249202,-61.88596,-6.98289,34.57793,0,0,0,-28.26543,52.38678,28.97556,-36.31316,-110.6672,-50.34543,0.001067912,-0.1257102,0.09433498,0,0.3,0,0,0,0,
6.38223E+17,-6.903069,49.42152,56.85059,-51.4119,-28.51697,58.38261,-17.10453,-0.4441859,-4.249202,-61.88596,-6.98289,34.57793,0,0,0,-23.84445,51.71242,28.60151,-36.31316,-110.6672,-50.34543,0.001067912,-0.1257102,0.09433498,0,0.3,0,0,0,0,
6.38223E+17,-5.772191,49.42152,55.89336,-51.11892,-28.0775,58.08963,-17.10453,-0.4441859,-4.249202,-61.88596,-6.98289,34.57793,0,0,0,-19.82864,49.8574,27.80623,-36.31316,-110.6672,-50.34543,0.001067912,-0.1257102,0.09433498,0,0.3,0,0,0,0,
6.38223E+17,-4.099433,49.37476,54.28239,-49.65401,-27.56478,55.81903,-17.10453,-0.4441859,-4.249202,-61.81271,-6.98289,34.57793,0,0,0,-13.94671,46.7121,26.2436,-36.31316,-110.6672,-50.34543,0.001067912,-0.1257102,0.09433498,0,0.3,0,0,0,0,
6.38223E+17,-1.884797,48.97734,51.6208,-45.84526,-27.19856,50.69187,-17.10453,-0.4441859,-4.249202,-61.88596,-6.98289,34.57793,0,0,0,-6.316878,41.1638,23.60696,-36.31316,-110.6672,-50.34543,0.001067912,-0.1257102,0.09433498,0,0.3,0,0,0,0,
6.38223E+17,0.04711992,47.83181,48.11871,-40.93784,-26.97882,45.27173,-17.10453,-0.4441859,-4.249202,-61.88596,-6.98289,34.57793,0,0,0,0.1552704,33.16295,20.45206,-36.31316,-110.6672,-50.34543,0.001067912,-0.1257102,0.09433498,0,0.3,0,0,0,0,
6.38223E+17,0.9188384,46.84992,45.94742,-38.37426,-26.53935,42.12218,-17.10453,-0.4441859,-4.249202,-61.88596,-6.98289,34.57793,0,0,0,2.999363,27.91677,18.66449,-36.31316,-110.6672,-50.34543,0.001067912,-0.1257102,0.09433498,0,0.3,0,0,0,0,
6.38223E+17,2.332436,44.18481,40.97445,-34.05279,-24.04902,34.87091,-17.10453,-0.4441859,-4.249202,-61.88596,-6.98289,34.57793,0,0,0,7.450289,15.61208,14.5636,-36.31316,-110.6672,-50.34543,0.001067912,-0.1257102,0.09433498,0,0.3,0,0,0,0,
6.38223E+17,3.439754,40.88848,36.67855,-30.31729,-20.09377,30.25646,-17.10453,-0.4441859,-4.249202,-61.88596,-6.98289,34.57793,0,0,0,10.82765,3.692811,11.78879,-36.31316,-110.6672,-50.34543,0.001067912,-0.1257102,0.09433498,0,0.3,0,0,0,0,
6.38223E+17,4.264353,37.2181,32.38266,-27.68046,-15.55258,27.61964,-17.10453,-0.4441859,-4.249202,-61.88596,-6.98289,34.57793,0,0,0,13.20679,-8.60591,8.768513,-36.31316,-110.6672,-50.34543,0.001067912,-0.1257102,0.09433498,0,0.3,0,0,0,0,
6.38223E+17,4.900472,35.13744,30.46818,-26.4353,-12.8425,26.22798,-17.10453,-0.4441859,-4.249202,-61.88596,-6.98289,34.57793,0,0,0,15.09176,-14.83759,7.670773,-36.31316,-110.6672,-50.34543,0.001067912,-0.1257102,0.09433498,0,0.3,0,0,0,0,
6.38223E+17,6.314069,31.60733,27.50308,-24.23794,-7.715342,23.22493,-17.10453,-0.4441859,-4.249202,-61.88596,-6.98289,34.57793,0,0,0,19.26265,-25.04153,5.73692,-36.31316,-110.6672,-50.34543,0.001067912,-0.1257102,0.09433498,0,0.3,0,0,0,0,
6.38223E+17,7.798347,28.00709,24.84149,-21.7476,-2.88116,18.97671,-17.10453,-0.4441859,-4.249202,-61.88596,-6.98289,34.57793,0,0,0,23.57628,-35.043,3.797969,-36.31316,-110.6672,-50.34543,0.001067912,-0.1257102,0.09433498,0,0.3,0,0,0,0,
6.38223E+17,8.458026,26.34723,24.00099,-20.79542,-0.8302955,16.55962,-17.10453,-0.4441859,-4.249202,-61.88596,-6.98289,34.57793,0,0,0,25.55425,-39.28827,3.498554,-36.31316,-110.6672,-50.34543,0.001067912,-0.1257102,0.09433498,0,0.3,0,0,0,0,
6.38223E+17,10.0601,22.77037,22.69354,-19.40376,3.344679,10.55352,-17.10453,-0.4441859,-4.249202,-61.88596,-6.98289,34.57793,0,0,0,30.46507,-48.06463,3.372413,-36.31316,-110.6672,-50.34543,0.001067912,-0.1257102,0.09433498,0,0.3,0,0,0,0,
6.38223E+17,11.9449,19.40391,22.36668,-18.15859,7.006938,6.232051,-17.10453,-0.4441859,-4.249202,-61.88596,-6.98289,34.57793,0,0,0,36.53446,-55.66548,4.347583,-36.31316,-110.6672,-50.34543,0.001067912,-0.1257102,0.09433498,0,0.3,0,0,0,0,
6.38223E+17,13.19358,17.83757,22.50677,-17.42614,8.764822,4.767147,-17.10453,-0.4441859,-4.249202,-61.88596,-6.909645,34.57793,0,0,0,40.62363,-58.9956,4.937071,-36.31316,-110.6672,-50.34543,0.001067912,-0.1257102,0.09433498,0,0.3,0,0,0,0,
6.38223E+17,16.32705,15.45299,22.92702,-15.22878,11.54814,2.862773,-17.10453,-0.4441859,-4.249202,-61.81271,-6.98289,34.50468,0,0,0,50.73564,-63.9348,4.848754,-36.31316,-110.6672,-50.34543,0.001067912,-0.1257102,0.09433498,0,0.3,0,0,0,0,
6.38223E+17,20.37937,14.23733,24.14107,-11.63977,13.67225,0.6654179,-17.10453,-0.4441859,-4.249202,-61.88596,-6.98289,34.57793,0,0,0,64.00282,-65.54142,3.938285,-36.31316,-110.6672,-50.34543,0.001067912,-0.1257102,0.09433498,0,0.3,0,0,0,0,
6.38223E+17,26.0102,14.02692,27.54977,-4.97446,14.55119,-1.165711,-17.10453,-0.4441859,-4.249202,-61.88596,-6.98289,34.57793,0,0,0,83.78166,-62.55828,3.350297,-36.31316,-110.6672,-50.34543,0.001067912,-0.1257102,0.09433498,0,0.3,0,0,0,0,
6.38223E+17,29.21435,14.07368,30.49153,-0.0670338,14.25821,-1.751673,-17.10453,-0.4441859,-4.249202,-61.88596,-6.98289,34.57793,0,0,0,96.15659,-59.13161,3.600819,-36.31316,-110.6672,-50.34543,0.001067912,-0.1257102,0.09433498,0,0.3,0,0,0,0,
6.38223E+17,31.19339,14.12043,32.94299,3.448734,13.81874,-1.971408,-17.10453,-0.4441859,-4.249202,-61.88596,-6.98289,34.50468,0,0,0,104.5372,-56.02674,4.306343,-36.31316,-110.6672,-50.34543,0.001067912,-0.1257102,0.09433498,0,0.3,0,0,0,0,
6.38223E+17,34.72738,14.65813,38.73312,10.55352,12.64682,-2.557369,-17.10453,-0.4441859,-4.249202,-61.88596,-6.98289,34.57793,0,0,0,121.0247,-46.92783,6.253466,-36.31316,-110.6672,-50.34543,0.001067912,-0.1257102,0.09433498,0,0.3,0,0,0,0,
6.38223E+17,37.0127,15.92056,43.75277,16.77936,10.81569,-2.923595,-17.10453,-0.4441859,-4.249202,-61.88596,-6.98289,34.57793,0,0,0,132.711,-36.39429,7.682202,-36.31316,-110.6672,-50.34543,0.001067912,-0.1257102,0.09433498,0,0.3,0,0,0,0,
6.38223E+17,37.93154,16.78555,46.20424,19.9289,9.643764,-2.923595,-17.10453,-0.4441859,-4.249202,-61.88596,-6.98289,34.50468,0,0,0,137.6491,-30.42998,8.26741,-36.31316,-110.6672,-50.34543,0.001067912,-0.1257102,0.09433498,0,0.3,0,0,0,0,
6.38223E+17,39.15665,18.81945,50.92039,26.08149,7.006938,-2.923595,-17.10453,-0.4441859,-4.249202,-61.88596,-6.98289,34.50468,0,0,0,145.0657,-17.6968,9.793051,-36.31316,-110.6672,-50.34543,0.001067912,-0.1257102,0.09433498,0,0.3,0,0,0,0,
6.38223E+17,39.58073,21.27416,54.6326,31.64813,4.370111,-2.99684,-17.10453,-0.4441859,-4.249202,-61.88596,-6.98289,34.57793,0,0,0,148.462,-5.451757,11.23266,-36.31316,-110.6672,-50.34543,0.001067912,-0.1257102,0.09433498,0,0.3,0,0,0,0,
6.38223E+17,39.43937,23.79901,58.13469,36.4823,1.66004,-2.557369,-17.10453,-0.4441859,-4.249202,-61.88596,-6.98289,34.57793,0,0,0,149.454,6.761966,13.34359,-36.31316,-110.6672,-50.34543,0.001067912,-0.1257102,0.09433498,0,0.3,0,0,0,0,
6.38223E+17,39.06242,25.83291,61.0064,39.92483,-0.4640697,-2.191144,-17.10453,-0.4441859,-4.249202,-61.88596,-6.98289,34.57793,0,0,0,149.1364,16.8207,15.4085,-36.31316,-110.6672,-50.34543,0.001067912,-0.1257102,0.09433498,0,0.3,0,0,0,0,
6.38223E+17,38.40274,27.96033,63.29443,43.22086,-2.661425,-1.605182,-17.10453,-0.4441859,-4.249202,-61.88596,-6.98289,34.57793,0,0,0,147.1648,25.94424,17.3075,-36.31316,-110.6672,-50.34543,0.001067912,-0.1257102,0.09433498,0,0.3,0,0,0,0,
6.38223E+17,37.0127,30.69558,65.67587,47.39584,-5.957458,-0.57975,-17.10453,-0.4441859,-4.249202,-61.88596,-6.98289,34.57793,0,0,0,142.1779,36.49541,20.23947,-36.31316,-110.6672,-50.34543,0.001067912,-0.1257102,0.09433498,0,0.3,0,0,0,0,
6.38223E+17,36.16454,32.02814,66.51636,49.15372,-7.422361,-0.0670338,-17.10453,-0.4441859,-4.249202,-61.88596,-6.98289,34.57793,0,0,0,138.886,40.932,21.66026,-36.31316,-110.6672,-50.34543,0.001067912,-0.1257102,0.09433498,0,0.3,0,0,0,0,
6.38223E+17,33.2431,36.39986,67.49695,53.47519,-11.74383,2.057076,-17.10453,-0.4441859,-4.249202,-61.88596,-6.98289,34.57793,0,0,0,126.3745,51.44474,24.45375,-36.31316,-110.6672,-50.34543,0.001067912,-0.1257102,0.09433498,0,0.3,0,0,0,0,
6.38223E+17,32.08867,37.89607,67.4269,54.57386,-13.06224,3.302244,-17.10453,-0.4441859,-4.249202,-61.88596,-6.98289,34.57793,0,0,0,121.3141,54.06974,25.12625,-36.31316,-110.6672,-50.34543,0.001067912,-0.1257102,0.09433498,0,0.3,0,0,0,0,
6.38223E+17,29.59131,40.74821,67.19343,56.2585,-16.28502,6.305296,-17.10453,-0.4441859,-4.249202,-61.88596,-6.98289,34.57793,0,0,0,110.588,58.70306,26.38889,-36.31316,-110.6672,-50.34543,0.001067912,-0.1257102,0.09433498,0,0.3,0,0,0,0,
6.38223E+17,26.57564,43.34319,66.5864,57.50367,-19.58106,9.674574,-17.10453,-0.4441859,-4.249202,-61.81271,-6.98289,34.57793,0,0,0,98.13234,61.88829,27.82407,-36.31316,-110.6672,-50.34543,0.001067912,-0.1257102,0.09433498,0,0.3,0,0,0,0,
6.38223E+17,24.8322,44.53548,66.04942,57.94314,-21.41219,11.65219,-17.10453,-0.4441859,-4.249202,-61.81271,-6.98289,34.57793,0,0,0,91.09907,62.74188,28.51581,-36.31316,-110.6672,-50.34543,0.001067912,-0.1257102,0.09433498,0,0.3,0,0,0,0,
6.38223E+17,20.99193,46.6629,64.55519,58.16287,-25.44067,16.63286,-17.10453,-0.4441859,-4.249202,-61.88596,-6.98289,34.57793,0,0,0,75.92165,63.04655,29.51599,-36.31316,-110.6672,-50.34543,0.001067912,-0.1257102,0.09433498,0,0.3,0,0,0,0,
6.38223E+17,16.84537,48.18248,62.85084,57.35718,-29.83538,22.78546,-17.10453,-0.4441859,-4.249202,-61.88596,-6.98289,34.57793,0,0,0,60.15173,61.88329,30.31344,-36.31316,-110.6672,-50.34543,0.001067912,-0.1257102,0.09433498,0,0.3,0,0,0,0,
6.38223E+17,12.34542,48.6968,60.6562,54.86684,-34.81605,30.32971,-17.10453,-0.4441859,-4.249202,-61.88596,-6.98289,34.57793,0,0,0,43.67121,58.17812,31.18417,-36.31316,-110.6672,-50.34543,0.001067912,-0.1257102,0.09433498,0,0.3,0,0,0,0,
6.38223E+17,10.34282,48.65004,59.46548,52.88922,-37.08665,34.65118,-17.10453,-0.4441859,-4.249202,-61.88596,-6.98289,34.57793,0,0,0,36.43822,55.70485,31.30819,-36.31316,-110.6672,-50.34543,0.001067912,-0.1257102,0.09433498,0,0.3,0,0,0,0,
6.38223E+17,6.10203,47.83181,56.61712,46.5169,-41.40812,46.22392,-17.10453,-0.4441859,-4.249202,-61.88596,-6.98289,34.57793,0,0,0,21.35213,48.81266,31.3799,-36.31316,-110.6672,-50.34543,0.001067912,-0.1257102,0.09433498,0,0.3,0,0,0,0,
6.38223E+17,2.874315,46.45249,54.2357,38.24019,-44.11819,59.11506,-17.10453,-0.4441859,-4.249202,-61.81271,-6.98289,34.57793,0,0,0,10.03287,42.06582,31.47449,-36.31316,-110.6672,-50.34543,0.001067912,-0.1257102,0.09433498,0,0.3,0,0,0,0,
6.38223E+17,1.366478,45.51736,52.9049,33.18628,-44.99713,66.58607,-17.10453,-0.4441859,-4.249202,-61.88596,-6.98289,34.57793,0,0,0,4.764736,38.06158,31.39531,-36.31316,-110.6672,-50.34543,0.001067912,-0.1257102,0.09433498,0,0.3,0,0,0,0,
6.38223E+17,-0.8481586,43.62373,50.12658,23.95738,-45.65634,79.69696,-17.10453,-0.4441859,-4.249202,-61.88596,-6.98289,34.57793,0,0,0,-2.943817,29.86091,30.49958,-36.31316,-110.6672,-50.34543,0.001067912,-0.1257102,0.09433498,0,0.3,0,0,0,0,
6.38223E+17,-2.143956,41.37942,46.5778,15.97366,-44.63091,89.95128,-17.10453,-0.4441859,-4.249202,-61.88596,-6.98289,34.57793,0,0,0,-7.366558,19.83934,28.42436,-36.31316,-110.6672,-50.34543,0.001067912,-0.1257102,0.09433498,0,0.3,0,0,0,0,
6.38223E+17,-2.591596,38.8312,42.39864,11.28597,-41.77435,95.51791,-17.10453,-0.4441859,-4.249202,-61.88596,-6.98289,34.57793,0,0,0,-8.762727,8.489026,25.24687,-36.31316,-110.6672,-50.34543,0.001067912,-0.1257102,0.09433498,0,0.3,0,0,0,0,
6.38223E+17,-2.638716,35.97906,38.59303,9.747819,-37.89235,98.52097,-17.10453,-0.4441859,-4.249202,-61.88596,-6.98289,34.57793,0,0,0,-8.797526,-2.534155,22.54011,-36.31316,-110.6672,-50.34543,0.001067912,-0.1257102,0.09433498,0,0.3,0,0,0,0,
6.38223E+17,-2.638716,34.52961,36.81864,9.528083,-35.76824,99.91262,-17.10453,-0.4441859,-4.249202,-61.88596,-6.98289,34.57793,0,0,0,-8.736755,-7.81449,21.22149,-36.31316,-110.6672,-50.34543,0.001067912,-0.1257102,0.09433498,0,0.3,0,0,0,0,
6.38223E+17,-2.638716,31.86449,33.87688,9.528083,-31.30029,102.0367,-17.10453,-0.4441859,-4.249202,-61.88596,-6.98289,34.57793,0,0,0,-8.636023,-16.96506,19.03577,-36.31316,-110.6672,-50.34543,0.001067912,-0.1257102,0.09433498,0,0.3,0,0,0,0,
6.38223E+17,-2.638716,29.50329,31.21529,9.601329,-26.90557,103.1354,-17.10453,-0.4441859,-4.249202,-61.88596,-6.98289,34.57793,0,0,0,-8.524741,-25.02303,16.62117,-36.31316,-110.6672,-50.34543,0.001067912,-0.1257102,0.09433498,0,0.3,0,0,0,0,
6.38223E+17,-2.615156,28.47465,30.09463,9.528083,-24.85471,103.3551,-17.10453,-0.4441859,-4.249202,-61.88596,-6.98289,34.57793,0,0,0,-8.399244,-28.44695,15.54232,-36.31316,-110.6672,-50.34543,0.001067912,-0.1257102,0.09433498,0,0.3,0,0,0,0,
6.38223E+17,-2.497356,26.39399,28.25019,9.235103,-20.82623,103.5016,-17.10453,-0.4441859,-4.249202,-61.88596,-6.98289,34.57793,0,0,0,-7.955041,-34.83699,14.04355,-36.31316,-110.6672,-50.34543,0.001067912,-0.1257102,0.09433498,0,0.3,0,0,0,0,
6.38223E+17,-2.426676,24.28995,26.63923,8.575896,-16.50476,102.5494,-17.10453,-0.4441859,-4.249202,-61.88596,-6.98289,34.57793,0,0,0,-7.677896,-40.99043,12.82293,-36.31316,-110.6672,-50.34543,0.001067912,-0.1257102,0.09433498,0,0.3,0,0,0,0,
6.38223E+17,-2.426676,22.58335,25.70534,7.257483,-12.11005,99.83938,-17.10453,-0.4441859,-4.249202,-61.88596,-6.98289,34.57793,0,0,0,-7.662191,-45.59324,12.45233,-36.31316,-110.6672,-50.34543,0.001067912,-0.1257102,0.09433498,0,0.3,0,0,0,0,
6.38223E+17,-2.426676,21.95213,25.5886,6.378541,-9.839451,98.15474,-17.10453,-0.4441859,-4.249202,-61.88596,-6.98289,34.50468,0,0,0,-7.675391,-47.07035,12.76381,-36.31316,-110.6672,-50.34543,0.001067912,-0.1257102,0.09433498,0,0.3,0,0,0,0,
6.38223E+17,-2.426676,21.36768,25.44852,4.620657,-6.250438,94.93195,-17.10453,-0.4441859,-4.249202,-61.88596,-6.98289,34.57793,0,0,0,-7.684191,-48.47501,12.97146,-36.31316,-110.6672,-50.34543,0.001067912,-0.1257102,0.09433498,0,0.3,0,0,0,0,
6.38223E+17,-2.426676,21.11052,24.84149,2.789528,-3.467122,92.00214,-17.10453,-0.4441859,-4.249202,-61.81271,-6.98289,34.57793,0,0,0,-7.639221,-49.63318,11.91032,-36.31316,-110.6672,-50.34543,0.001067912,-0.1257102,0.09433498,0,0.3,0,0,0,0,
6.38223E+17,-2.403116,20.36242,23.95429,0.5921727,-0.9035407,89.21883,-17.10453,-0.4441859,-4.249202,-61.88596,-6.98289,34.57793,0,0,0,-7.5121,-52.11443,10.65059,-36.31316,-110.6672,-50.34543,0.001067912,-0.1257102,0.09433498,0,0.3,0,0,0,0,
6.38223E+17,-2.403116,19.77796,23.69748,-1.019221,0.8543434,87.16796,-17.10453,-0.4441859,-4.249202,-61.81271,-6.98289,34.57793,0,0,0,-7.508746,-53.63353,10.57068,-36.31316,-110.6672,-50.34543,0.001067912,-0.1257102,0.09433498,0,0.3,0,0,0,0,
6.38223E+17,-2.403116,19.61431,23.69748,-1.898163,1.879776,85.84955,-17.10453,-0.4441859,-4.249202,-61.88596,-6.98289,34.57793,0,0,0,-7.514128,-53.99212,10.69893,-36.31316,-110.6672,-50.34543,0.001067912,-0.1257102,0.09433498,0,0.3,0,0,0,0,
6.38223E+17,-2.403116,19.56756,23.86091,-3.289821,3.93064,83.21272,-17.10453,-0.4441859,-4.249202,-61.88596,-6.909645,34.57793,0,0,0,-7.530253,-53.94128,11.08316,-36.31316,-110.6672,-50.34543,0.001067912,-0.1257102,0.09433498,0,0.3,0,0,0,0,
6.38223E+17,-2.379556,19.59093,24.88819,-4.82797,5.688524,80.20967,-17.10453,-0.4441859,-4.249202,-61.81271,-6.98289,34.57793,0,0,0,-7.546131,-52.90331,13.2439,-36.31316,-110.6672,-50.34543,0.001067912,-0.1257102,0.09433498,0,0.3,0,0,0,0,
6.38223E+17,-2.379556,19.59093,25.5886,-5.706912,6.420976,78.81802,-17.10453,-0.4441859,-4.249202,-61.88596,-6.98289,34.57793,0,0,0,-7.607352,-52.20824,14.71716,-36.31316,-110.6672,-50.34543,0.001067912,-0.1257102,0.09433498,0,0.3,0,0,0,0,
6.38223E+17,-2.355996,19.75458,27.47973,-7.025325,7.812634,77.06013,-17.10453,-0.4441859,-4.249202,-61.88596,-6.98289,34.57793,0,0,0,-7.688673,-49.88344,18.52645,-36.31316,-110.6672,-50.34543,0.001067912,-0.1257102,0.09433498,0,0.3,0,0,0,0,
6.38223E+17,-2.238196,20.66633,30.00124,-7.904267,8.618331,76.32768,-17.10453,-0.4441859,-4.249202,-61.88596,-6.98289,34.57793,0,0,0,-7.476749,-45.07049,22.95058,-36.31316,-110.6672,-50.34543,0.001067912,-0.1257102,0.09433498,0,0.3,0,0,0,0,
6.38223E+17,-2.214636,21.43781,31.09856,-8.124002,8.398596,76.47417,-17.10453,-0.4441859,-4.249202,-61.88596,-6.98289,34.57793,0,0,0,-7.458151,-42.0967,24.50684,-36.31316,-110.6672,-50.34543,0.001067912,-0.1257102,0.09433498,0,0.3,0,0,0,0,
6.38223E+17,-2.167516,23.54185,33.62006,-8.416983,6.713957,76.91364,-17.10453,-0.4441859,-4.249202,-61.88596,-6.98289,34.57793,0,0,0,-7.416175,-34.4317,27.59444,-36.31316,-110.6672,-50.34543,0.001067912,-0.1257102,0.09433498,0,0.3,0,0,0,0,
6.38223E+17,-2.049716,25.08481,35.90809,-8.343738,4.956073,77.13338,-17.10453,-0.4441859,-4.249202,-61.88596,-6.98289,34.57793,0,0,0,-7.116874,-28.12302,30.50329,-36.31316,-110.6672,-50.34543,0.001067912,-0.1257102,0.09433498,0,0.3,0,0,0,0,
6.38223E+17,-2.026157,25.92643,37.28558,-8.124002,3.564415,77.27986,-17.10453,-0.4441859,-4.249202,-61.88596,-6.98289,34.57793,0,0,0,-7.096285,-24.44388,32.23552,-36.31316,-110.6672,-50.34543,0.001067912,-0.1257102,0.09433498,0,0.3,0,0,0,0,
6.38223E+17,-2.026157,27.18885,40.32073,-7.538041,0.3416272,78.01232,-17.10453,-0.4441859,-4.249202,-61.88596,-6.98289,34.57793,0,0,0,-7.244452,-17.38969,36.42363,-36.31316,-110.6672,-50.34543,0.001067912,-0.1257102,0.09433498,0,0.3,0,0,0,0,
6.38223E+17,-2.049716,28.03047,43.75277,-6.80559,-3.467122,78.9645,-17.10453,-0.4441859,-4.249202,-61.88596,-6.98289,34.50468,0,0,0,-7.508344,-10.30614,41.44137,-36.31316,-110.6672,-50.34543,0.001067912,-0.1257102,0.09433498,0,0.3,0,0,0,0,
6.38223E+17,-2.167516,28.68506,47.27821,-6.073137,-7.422361,80.35616,-17.10453,-0.4441859,-4.249202,-61.88596,-6.98289,34.57793,0,0,0,-8.129706,-3.112559,46.44682,-36.31316,-110.6672,-50.34543,0.001067912,-0.1257102,0.09433498,0,0.3,0,0,0,0,
6.38223E+17,-2.285316,28.98897,48.95922,-5.706912,-9.546471,81.2351,-17.10453,-0.4441859,-4.249202,-61.88596,-6.98289,34.57793,0,0,0,-8.661851,0.4198262,48.69844,-36.31316,-110.6672,-50.34543,0.001067912,-0.1257102,0.09433498,0,0.3,0,0,0,0,
6.38223E+17,-2.591596,29.3864,51.7142,-5.194195,-13.72145,82.91974,-17.10453,-0.4441859,-4.249202,-61.88596,-6.98289,34.57793,0,0,0,-9.98661,6.162833,52.2864,-36.31316,-110.6672,-50.34543,0.001067912,-0.1257102,0.09433498,0,0.3,0,0,0,0,
6.38223E+17,-2.732955,29.80721,54.53922,-4.681479,-17.89642,84.3114,-17.10453,-0.4441859,-4.249202,-61.88596,-6.98289,34.57793,0,0,0,-10.69596,12.27361,55.71832,-36.31316,-110.6672,-50.34543,0.001067912,-0.1257102,0.09433498,0,0.3,0,0,0,0,
6.38223E+17,-2.827195,30.06437,56.31361,-3.949028,-20.82623,85.41007,-17.10453,-0.4441859,-4.249202,-61.88596,-6.98289,34.57793,0,0,0,-11.16535,16.19254,57.74263,-36.31316,-110.6672,-50.34543,0.001067912,-0.1257102,0.09433498,0,0.3,0,0,0,0,
6.38223E+17,-3.062795,30.20464,57.99461,-3.143331,-23.90252,86.36227,-17.10453,-0.4441859,-4.249202,-61.88596,-6.98289,34.57793,0,0,0,-12.19956,19.76166,59.65003,-36.31316,-110.6672,-50.34543,0.001067912,-0.1257102,0.09433498,0,0.3,0,0,0,0,
6.38223E+17,-3.533994,30.29815,60.18925,-2.117898,-27.78452,87.60744,-17.10453,-0.4441859,-4.249202,-61.88596,-6.98289,34.57793,0,0,0,-14.22915,24.33186,62.05109,-36.31316,-110.6672,-50.34543,0.001067912,-0.1257102,0.09433498,0,0.3,0,0,0,0,
6.38223E+17,-3.816714,30.29815,61.09979,-1.678428,-29.5424,88.19339,-17.10453,-0.4441859,-4.249202,-61.88596,-6.98289,34.57793,0,0,0,-15.43501,26.17892,63.01464,-36.31316,-110.6672,-50.34543,0.001067912,-0.1257102,0.09433498,0,0.3,0,0,0,0,
6.38223E+17,-4.924032,30.22802,63.66799,-0.8727306,-35.10904,90.09777,-17.10453,-0.4441859,-4.249202,-61.88596,-6.98289,34.57793,0,0,0,-20.14815,31.33374,65.51537,-36.31316,-110.6672,-50.34543,0.001067912,-0.1257102,0.09433498,0,0.3,0,0,0,0,
