zeyangz2/DNN_classification_different_people_hand/data/srikar_right_15.csv
Timestamp,Therapist joint angle 0,Therapist joint angle 1,Therapist joint angle 2,Therapist joint angle 3,Therapist joint angle 4,Therapist joint angle 5,Patient joint angle 0,Patient joint angle 1,Patient joint angle 2,Patient joint angle 3,Patient joint angle 4,Patient joint angle 5,Virtual joint angle 0,Virtual joint angle 1,Virtual joint angle 2,Therapist position x,Therapist position y,Therapist position z,Patient position x,Patient position y,Patient position z,Virtual position x,Virtual position y,Virtual position z,Assistive Force, Obstacle Force Magnitude, Therapist Constant Force, Patient Constant Force, Recovery Factor, Assistance Level,label
6.38224E+17,0,0,0,0,0,0,0,0,0,0,0,0,0,0,0,0,0,0,0,0,0,0,0,0,0,0.3,0,0,0,0,2
6.38224E+17,8.269547,-0.9117499,-6.163678,-25.48311,-63.01544,44.0998,-0.612559,-1.262423,-9.175476,13.62981,-0.9035407,39.19238,0,0,0,17.11802,-111.3511,-50.57203,-1.197964,-111.2317,-56.30258,0.001067912,-0.1257102,0.09433498,0,0.3,0,0,9.94E-08,0,
6.38224E+17,8.269547,-0.9117499,-6.163678,-25.48311,-63.08869,44.0998,-0.612559,-1.262423,-9.175476,13.70306,-0.9035407,39.19238,0,0,0,17.11802,-111.3511,-50.57203,-1.197964,-111.2317,-56.30258,0.001067912,-0.1257102,0.09433498,0,0.3,0,0,9.94E-08,0,
6.38224E+17,8.269547,-0.9117499,-6.163678,-25.48311,-63.08869,44.0998,-0.612559,-1.262423,-9.175476,13.70306,-0.9767859,39.19238,0,0,0,17.11802,-111.3511,-50.57203,-1.197964,-111.2317,-56.30258,0.001067912,-0.1257102,0.09433498,0,0.3,0,0,9.94E-08,0,
6.38224E+17,8.269547,-0.9117499,-6.163678,-25.48311,-63.08869,44.0998,-0.612559,-1.262423,-9.175476,13.70306,-0.9767859,39.19238,0,0,0,17.11802,-111.3511,-50.57203,-1.197964,-111.2317,-56.30258,0.001067912,-0.1257102,0.09433498,0,0.3,0,0,0,0,
6.38224E+17,8.269547,-0.9117499,-6.163678,-25.48311,-63.08869,44.0998,-0.612559,-1.262423,-9.175476,13.70306,-0.9767859,39.19238,0,0,0,17.11802,-111.3511,-50.57203,-1.197964,-111.2317,-56.30258,0.001067912,-0.1257102,0.09433498,0,0.3,0,0,0,0,
6.38224E+17,8.269547,-0.9117499,-6.163678,-25.48311,-63.08869,44.0998,-0.612559,-1.262423,-9.175476,13.70306,-0.9035407,39.19238,0,0,0,17.11802,-111.3511,-50.57203,-1.197964,-111.2317,-56.30258,0.001067912,-0.1257102,0.09433498,0,0.3,0,0,0,0,
6.38224E+17,8.269547,-0.9117499,-6.163678,-25.48311,-63.08869,44.17305,-0.612559,-1.262423,-9.175476,13.62981,-0.9767859,39.26562,0,0,0,17.11802,-111.3511,-50.57203,-1.197964,-111.2317,-56.30258,0.001067912,-0.1257102,0.09433498,0,0.3,0,0,0,0,
6.38224E+17,8.269547,-0.9117499,-6.163678,-25.48311,-63.01544,44.17305,-0.612559,-1.262423,-9.175476,13.70306,-0.9035407,39.19238,0,0,0,17.11802,-111.3511,-50.57203,-1.197964,-111.2317,-56.30258,0.001067912,-0.1257102,0.09433498,0,0.3,0,0,0,0,
6.38224E+17,8.269547,-0.9117499,-6.163678,-25.48311,-63.08869,44.0998,-0.612559,-1.262423,-9.175476,13.70306,-0.9035407,39.19238,0,0,0,17.11802,-111.3511,-50.57203,-1.197964,-111.2317,-56.30258,0.001067912,-0.1257102,0.09433498,0,0.3,0,0,0,0,
6.38224E+17,8.269547,-0.9117499,-6.163678,-25.48311,-63.01544,44.0998,-0.612559,-1.262423,-9.175476,13.62981,-0.9767859,39.26562,0,0,0,17.11802,-111.3511,-50.57203,-1.197964,-111.2317,-56.30258,0.001067912,-0.1257102,0.09433498,0,0.3,0,0,0,0,
6.38224E+17,8.269547,-0.9117499,-6.163678,-25.48311,-63.08869,44.0998,-0.612559,-1.262423,-9.175476,13.70306,-0.9767859,39.19238,0,0,0,17.11802,-111.3511,-50.57203,-1.197964,-111.2317,-56.30258,0.001067912,-0.1257102,0.09433498,0,0.3,0,0,0,0,
6.38224E+17,8.269547,-0.9117499,-6.163678,-25.48311,-63.08869,44.0998,-0.612559,-1.262423,-9.175476,13.70306,-0.9035407,39.19238,0,0,0,17.11802,-111.3511,-50.57203,-1.197964,-111.2317,-56.30258,0.001067912,-0.1257102,0.09433498,0,0.3,0,0,0,0,
6.38224E+17,8.269547,-0.9117499,-6.163678,-25.48311,-63.08869,44.0998,-0.612559,-1.262423,-9.175476,13.70306,-0.9035407,39.19238,0,0,0,17.11802,-111.3511,-50.57203,-1.197964,-111.2317,-56.30258,0.001067912,-0.1257102,0.09433498,0,0.3,0,0,0,0,
6.38224E+17,8.269547,-0.9117499,-6.163678,-25.48311,-63.08869,44.0998,-0.612559,-1.262423,-9.175476,13.70306,-0.9767859,39.19238,0,0,0,17.11802,-111.3511,-50.57203,-1.197964,-111.2317,-56.30258,0.001067912,-0.1257102,0.09433498,0,0.3,0,0,0,0,
6.38224E+17,8.269547,-0.9117499,-6.163678,-25.48311,-63.08869,44.0998,-0.612559,-1.262423,-9.175476,13.70306,-0.9767859,39.19238,0,0,0,17.11802,-111.3511,-50.57203,-1.197964,-111.2317,-56.30258,0.001067912,-0.1257102,0.09433498,0,0.3,0,0,0,0,
6.38224E+17,8.269547,-0.9117499,-6.163678,-25.48311,-63.08869,44.0998,-0.612559,-1.262423,-9.175476,13.70306,-0.9767859,39.19238,0,0,0,17.11802,-111.3511,-50.57203,-1.197964,-111.2317,-56.30258,0.001067912,-0.1257102,0.09433498,0,0.3,0,0,0,0,
6.38224E+17,8.269547,-0.9117499,-6.163678,-25.48311,-63.08869,44.17305,-0.612559,-1.262423,-9.175476,13.70306,-0.9767859,39.19238,0,0,0,17.11802,-111.3511,-50.57203,-1.197964,-111.2317,-56.30258,0.001067912,-0.1257102,0.09433498,0,0.3,0,0,0,0,
6.38224E+17,8.269547,-0.9117499,-6.163678,-25.48311,-63.08869,44.0998,-0.612559,-1.262423,-9.175476,13.62981,-0.9767859,39.19238,0,0,0,17.11802,-111.3511,-50.57203,-1.197964,-111.2317,-56.30258,0.001067912,-0.1257102,0.09433498,0,0.3,0,0,0,0,
6.38224E+17,8.269547,-0.9117499,-6.163678,-25.48311,-63.01544,44.0998,-0.612559,-1.262423,-9.175476,13.62981,-0.9035407,39.19238,0,0,0,17.11802,-111.3511,-50.57203,-1.197964,-111.2317,-56.30258,0.001067912,-0.1257102,0.09433498,0,0.3,0,0,0,0,
6.38224E+17,8.269547,-0.9117499,-6.163678,-25.48311,-63.08869,44.0998,-0.612559,-1.262423,-9.175476,13.62981,-0.9035407,39.19238,0,0,0,17.11802,-111.3511,-50.57203,-1.197964,-111.2317,-56.30258,0.001067912,-0.1257102,0.09433498,0,0.3,0,0,0,0,
6.38224E+17,8.269547,-0.9117499,-6.163678,-25.48311,-63.08869,44.0998,-0.612559,-1.262423,-9.175476,13.62981,-0.9035407,39.19238,0,0,0,17.11802,-111.3511,-50.57203,-1.197964,-111.2317,-56.30258,0.001067912,-0.1257102,0.09433498,0,0.3,0,0,0,0,
6.38224E+17,8.269547,-0.9117499,-6.163678,-25.48311,-63.08869,44.0998,-0.612559,-1.262423,-9.175476,13.62981,-0.9767859,39.19238,0,0,0,17.11802,-111.3511,-50.57203,-1.197964,-111.2317,-56.30258,0.001067912,-0.1257102,0.09433498,0,0.3,0,0,0,0,
6.38224E+17,8.269547,-0.9117499,-6.163678,-25.48311,-63.08869,44.0998,-0.612559,-1.262423,-9.175476,13.70306,-0.9035407,39.19238,0,0,0,17.11802,-111.3511,-50.57203,-1.197964,-111.2317,-56.30258,0.001067912,-0.1257102,0.09433498,0,0.3,0,0,0,0,
6.38224E+17,8.269547,-0.9117499,-6.163678,-25.48311,-63.08869,44.0998,-0.612559,-1.262423,-9.175476,13.70306,-0.9035407,39.19238,0,0,0,17.11802,-111.3511,-50.57203,-1.197964,-111.2317,-56.30258,0.001067912,-0.1257102,0.09433498,0,0.3,0,0,0,0,
6.38224E+17,8.269547,-0.9117499,-6.163678,-25.55635,-63.08869,44.0998,-0.612559,-1.262423,-9.175476,13.70306,-0.9035407,39.19238,0,0,0,17.11802,-111.3511,-50.57203,-1.197964,-111.2317,-56.30258,0.001067912,-0.1257102,0.09433498,0,0.3,0,0,0,0,
6.38224E+17,8.269547,-0.9117499,-6.163678,-25.48311,-63.08869,44.0998,-0.612559,-1.262423,-9.175476,13.70306,-0.9767859,39.19238,0,0,0,17.11802,-111.3511,-50.57203,-1.197964,-111.2317,-56.30258,0.001067912,-0.1257102,0.09433498,0,0.3,0,0,0,0,
6.38224E+17,8.269547,-0.9117499,-6.163678,-25.48311,-63.08869,44.0998,-0.612559,-1.262423,-9.175476,13.70306,-0.9767859,39.19238,0,0,0,17.11802,-111.3511,-50.57203,-1.197964,-111.2317,-56.30258,0.001067912,-0.1257102,0.09433498,0,0.3,0,0,0,0,
6.38224E+17,8.269547,-0.9117499,-6.163678,-25.48311,-63.01544,44.0998,-0.612559,-1.262423,-9.175476,13.70306,-0.9035407,39.19238,0,0,0,17.11802,-111.3511,-50.57203,-1.197964,-111.2317,-56.30258,0.001067912,-0.1257102,0.09433498,0,0.3,0,0,0,0,
6.38224E+17,8.269547,-0.9117499,-6.163678,-25.48311,-63.01544,44.0998,-0.612559,-1.262423,-9.175476,13.62981,-0.9767859,39.26562,0,0,0,17.11802,-111.3511,-50.57203,-1.197964,-111.2317,-56.30258,0.001067912,-0.1257102,0.09433498,0,0.3,0,0,0,0,
6.38224E+17,8.269547,-0.9117499,-6.163678,-25.48311,-63.01544,44.0998,-0.612559,-1.262423,-9.175476,13.70306,-0.9035407,39.19238,0,0,0,17.11802,-111.3511,-50.57203,-1.197964,-111.2317,-56.30258,0.001067912,-0.1257102,0.09433498,0,0.3,0,0,0,0,
6.38224E+17,5.465911,-0.8649935,-6.210372,-25.48311,-63.08869,44.0998,-0.612559,-1.262423,-9.175476,13.62981,-0.9767859,39.19238,0,0,0,11.32651,-111.2305,-49.98158,-1.197964,-111.2317,-56.30258,0.001067912,-0.1257102,0.09433498,0,0.3,0,0,0.005406537,0,
6.38224E+17,0.8952785,-0.9585064,-6.373804,-26.65503,-62.50273,44.0998,-0.612559,-1.262423,-9.175476,13.70306,-0.9035407,39.19238,0,0,0,1.851984,-111.4065,-49.83692,-1.197964,-111.2317,-56.30258,0.001067912,-0.1257102,0.09433498,0,0.3,0,0,0.01671543,0,
6.38224E+17,-7.869027,-0.7481025,-5.346524,-34.63876,-60.30537,43.36735,-0.612559,-1.262423,-9.175476,13.70306,-0.9035407,39.19238,0,0,0,-16.55412,-111.1609,-48.57536,-1.197964,-111.2317,-56.30258,0.001067912,-0.1257102,0.09433498,0,0.3,0,0,0.02332431,0,
6.38224E+17,-15.10193,-0.9351282,-5.04301,-41.5238,-58.401,42.48841,-0.612559,-1.262423,-9.175476,13.70306,-0.9767859,39.19238,0,0,0,-31.684,-111.6601,-50.93965,-1.197964,-111.2317,-56.30258,0.001067912,-0.1257102,0.09433498,0,0.3,0,0,0.007604095,0,
6.38224E+17,-20.40293,-0.9117499,-5.04301,-41.59705,-57.37556,42.04893,-0.612559,-1.262423,-9.175476,13.70306,-0.9767859,39.19238,0,0,0,-42.39608,-111.6057,-54.36819,-1.197964,-111.2317,-56.30258,0.001067912,-0.1257102,0.09433498,0,0.3,0,0,0,0,
6.38224E+17,-22.49976,-0.9117499,-5.04301,-39.03346,-57.30232,41.90245,-0.612559,-1.262423,-9.175476,13.70306,-0.9035407,39.19238,0,0,0,-46.53812,-111.6057,-55.99572,-1.197964,-111.2317,-56.30258,0.001067912,-0.1257102,0.09433498,0,0.3,0,0,0,0,
6.38224E+17,-25.25628,-0.9117499,-5.04301,-29.3651,-58.25451,41.75596,-0.612559,-1.262423,-9.175476,13.70306,-0.9767859,39.19238,0,0,0,-51.88758,-111.6057,-58.36383,-1.197964,-111.2317,-56.30258,0.001067912,-0.1257102,0.09433498,0,0.3,0,0,0,0,
6.38224E+17,-26.38716,-0.9117499,-5.066357,-14.78931,-59.42643,41.75596,-0.612559,-1.262423,-9.175476,13.62981,-0.9035407,39.19238,0,0,0,-54.02414,-111.6009,-59.4578,-1.197964,-111.2317,-56.30258,0.001067912,-0.1257102,0.09433498,0,0.3,0,0,0,0,
6.38224E+17,-26.41072,-0.9117499,-5.113051,-6.292873,-60.01239,41.75596,-0.612559,-1.262423,-9.175476,13.70306,-0.9035407,39.19238,0,0,0,-54.02076,-111.5913,-59.57698,-1.197964,-111.2317,-56.30258,0.001067912,-0.1257102,0.09433498,0,0.3,0,0,0,0,
6.38224E+17,-26.34004,-0.9117499,-5.136398,10.33378,-60.59835,41.75596,-0.612559,-1.262423,-9.175476,13.62981,-0.9035407,39.19238,0,0,0,-53.86252,-111.5864,-59.55892,-1.197964,-111.2317,-56.30258,0.001067912,-0.1257102,0.09433498,0,0.3,0,0,0,0,
6.38224E+17,-26.34004,-0.9117499,-5.136398,22.27274,-60.89133,41.75596,-0.612559,-1.262423,-9.175476,13.70306,-0.9035407,39.19238,0,0,0,-53.86252,-111.5864,-59.55892,-1.197964,-111.2317,-56.30258,0.001067912,-0.1257102,0.09433498,0,0.3,0,0,0,0,
6.38224E+17,-26.34004,-0.9117499,-5.136398,25.27579,-61.03782,41.75596,-0.612559,-1.262423,-9.175476,13.70306,-0.9035407,39.19238,0,0,0,-53.86252,-111.5864,-59.55892,-1.197964,-111.2317,-56.30258,0.001067912,-0.1257102,0.09433498,0,0.3,0,0,0,0,
6.38224E+17,-26.34004,-0.9351282,-5.183093,28.57183,-61.40405,41.75596,-0.612559,-1.262423,-9.175476,13.70306,-0.9035407,39.19238,0,0,0,-53.81411,-111.6311,-59.65671,-1.197964,-111.2317,-56.30258,0.001067912,-0.1257102,0.09433498,0,0.3,0,0,0,0,
6.38224E+17,-26.31648,-0.9117499,-5.183093,29.89024,-61.91676,41.68271,-0.612559,-1.262423,-9.175476,13.70306,-0.9767859,39.19238,0,0,0,-53.7698,-111.5767,-59.6338,-1.197964,-111.2317,-56.30258,0.001067912,-0.1257102,0.09433498,0,0.3,0,0,0,0,
6.38224E+17,-26.31648,-0.9351282,-5.416566,30.40295,-62.06326,41.60947,-0.612559,-1.262423,-9.175476,13.70306,-0.9035407,39.19238,0,0,0,-53.52954,-111.5809,-60.11957,-1.197964,-111.2317,-56.30258,0.001067912,-0.1257102,0.09433498,0,0.3,0,0,0,0,
6.38224E+17,-23.772,-0.9585064,-7.237653,43.95331,-61.55054,33.5525,-0.612559,-1.262423,-9.175476,13.62981,-0.9035407,39.19238,0,0,0,-46.97351,-111.1682,-61.70567,-1.197964,-111.2317,-56.30258,0.001067912,-0.1257102,0.09433498,0,0.3,0,0,0,0,
6.38224E+17,-20.70921,-0.9351282,-8.311626,56.18526,-59.35318,31.2819,-0.612559,-1.262423,-9.175476,13.70306,-0.9767859,39.19238,0,0,0,-40.33292,-110.7757,-61.66388,-1.197964,-111.2317,-56.30258,0.001067912,-0.1257102,0.09433498,0,0.3,0,0,0,0,
6.38224E+17,-17.08097,-0.9351282,-8.28828,63.43653,-57.22908,30.91567,-0.612559,-1.262423,-9.175476,13.70306,-0.9035407,39.19238,0,0,0,-33.51652,-110.7835,-59.27396,-1.197964,-111.2317,-56.30258,0.001067912,-0.1257102,0.09433498,0,0.3,0,0,0,0,
6.38224E+17,-15.31397,-0.9585064,-8.498405,65.41415,-56.86285,30.91567,-0.612559,-1.262423,-9.175476,13.70306,-0.9035407,39.19238,0,0,0,-30.00921,-110.7665,-58.75984,-1.197964,-111.2317,-56.30258,0.001067912,-0.1257102,0.09433498,0,0.3,0,0,0,0,
6.38224E+17,-12.01558,-0.9585064,-9.128781,69.8821,-58.18126,32.01435,-0.612559,-1.262423,-9.175476,13.70306,-0.9035407,39.19238,0,0,0,-23.35229,-110.5417,-58.63281,-1.197964,-111.2317,-56.30258,0.001067912,-0.1257102,0.09433498,0,0.3,0,0,0,0,
6.38224E+17,-8.575826,-0.9351282,-9.47899,73.61761,-61.03782,33.18628,-0.612559,-1.262423,-9.175476,13.62981,-0.9035407,39.19238,0,0,0,-16.60749,-110.3556,-58.22383,-1.197964,-111.2317,-56.30258,0.001067912,-0.1257102,0.09433498,0,0.3,0,0,0,0,
6.38224E+17,-4.924032,-0.9351282,-9.525684,76.47417,-62.28299,34.50468,-0.612559,-1.262423,-9.175476,13.70306,-0.9035407,39.19238,0,0,0,-9.550341,-110.3376,-57.49645,-1.197964,-111.2317,-56.30258,0.001067912,-0.1257102,0.09433498,0,0.3,0,0,0,0,
6.38224E+17,-2.780076,-0.9351282,-9.525684,78.01232,-62.64922,35.23714,-0.612559,-1.262423,-9.175476,13.70306,-0.9767859,39.19238,0,0,0,-5.396584,-110.3376,-57.21677,-1.197964,-111.2317,-56.30258,0.001067912,-0.1257102,0.09433498,0,0.3,0,0,0,0,
6.38224E+17,2.355996,-0.9351282,-9.315559,82.26054,-63.01544,36.92178,-0.612559,-1.262423,-9.175476,13.70306,-0.9767859,39.19238,0,0,0,4.593714,-110.4177,-56.69783,-1.197964,-111.2317,-56.30258,0.001067912,-0.1257102,0.09433498,0,0.3,0,0,0,0,
6.38224E+17,7.939706,-0.9351282,-8.451711,87.90041,-63.16194,37.94721,-0.612559,-1.262423,-9.175476,13.62981,-0.9767859,39.19238,0,0,0,15.71005,-110.7281,-55.70723,-1.197964,-111.2317,-56.30258,0.001067912,-0.1257102,0.09433498,0,0.3,0,0,0,0,
6.38224E+17,13.75902,-0.9351282,-7.074222,93.24731,-63.23518,38.82615,-0.612559,-1.262423,-9.175476,13.70306,-0.9767859,39.19238,0,0,0,27.80561,-111.1612,-54.79524,-1.197964,-111.2317,-56.30258,0.001067912,-0.1257102,0.09433498,0,0.3,0,0,0,0,
6.38224E+17,16.49197,-0.9351282,-6.163678,95.29817,-63.23518,39.26562,-0.612559,-1.262423,-9.175476,13.70306,-0.9767859,39.19238,0,0,0,33.78598,-111.4054,-54.23175,-1.197964,-111.2317,-56.30258,0.001067912,-0.1257102,0.09433498,0,0.3,0,0,0,0,
6.38224E+17,21.43956,-0.9351282,-4.342592,99.03368,-63.23518,40.87702,-0.612559,-1.262423,-9.175476,13.70306,-0.9035407,39.19238,0,0,0,45.0448,-111.7935,-53.64243,-1.197964,-111.2317,-56.30258,0.001067912,-0.1257102,0.09433498,0,0.3,0,0,0,0,
6.38224E+17,27.306,-0.9351282,-2.124601,103.0622,-63.30842,44.61252,-0.612559,-1.262423,-9.175476,13.62981,-0.9767859,39.19238,0,0,0,58.8973,-112.0846,-54.26785,-1.197964,-111.2317,-56.30258,0.001067912,-0.1257102,0.09433498,0,0.3,0,0,0,0,
6.38224E+17,30.34523,-0.9351282,-0.7237652,105.1863,-63.30842,46.44365,-0.612559,-1.262423,-9.175476,13.70306,-0.9035407,39.19238,0,0,0,66.50966,-112.1657,-54.73835,-1.197964,-111.2317,-56.30258,0.001067912,-0.1257102,0.09433498,0,0.3,0,0,0,0,
6.38224E+17,36.49438,-0.9351282,2.521505,108.4091,-63.30842,48.56776,-0.612559,-1.262423,-9.175476,13.70306,-0.9035407,39.19238,0,0,0,82.78769,-112.0472,-56.4459,-1.197964,-111.2317,-56.30258,0.001067912,-0.1257102,0.09433498,0,0.3,0,0,0,0,
6.38224E+17,41.74825,-0.9351282,5.953553,108.7753,-63.30842,48.56776,-0.612559,-1.262423,-9.175476,13.62981,-0.9767859,39.19238,0,0,0,97.99019,-111.4571,-58.55452,-1.197964,-111.2317,-56.30258,0.001067912,-0.1257102,0.09433498,0,0.3,0,0,0,0,
6.38224E+17,46.69584,-0.9351282,9.759157,108.6288,-63.30842,44.31954,-0.612559,-1.262423,-9.175476,13.70306,-0.9767859,39.19238,0,0,0,113.4782,-110.2466,-61.39799,-1.197964,-111.2317,-56.30258,0.001067912,-0.1257102,0.09433498,0,0.3,0,0,0,0,
6.38224E+17,49.24032,-0.9351282,11.88376,110.0937,-63.30842,39.19238,-0.612559,-1.262423,-9.175476,13.70306,-0.9767859,39.19238,0,0,0,121.7931,-109.3183,-63.37049,-1.197964,-111.2317,-56.30258,0.001067912,-0.1257102,0.09433498,0,0.3,0,0,0,0,
6.38224E+17,50.46544,-0.9351282,13.00443,112.2911,-63.30842,35.89634,-0.612559,-1.262423,-9.175476,13.70306,-0.9035407,39.19238,0,0,0,125.9741,-108.7562,-64.37729,-1.197964,-111.2317,-56.30258,0.001067912,-0.1257102,0.09433498,0,0.3,0,0,0,0,
6.38224E+17,52.9628,-0.9117499,14.77882,119.1029,-63.30842,32.30733,-0.612559,-1.262423,-9.175476,13.70306,-0.9035407,39.19238,0,0,0,133.5855,-107.7104,-67.55,-1.197964,-111.2317,-56.30258,0.001067912,-0.1257102,0.09433498,0,0.3,0,0,0,0,
6.38224E+17,54.87115,-0.8182371,16.29639,119.4691,-63.23518,35.31038,-0.612559,-1.262423,-9.175476,13.62981,-0.9767859,39.19238,0,0,0,139.6539,-106.5467,-70.09451,-1.197964,-111.2317,-56.30258,0.001067912,-0.1257102,0.09433498,0,0.3,0,0,0,0,
6.38224E+17,55.29523,0.2104038,19.19145,119.4691,-63.23518,40.43755,-0.612559,-1.262423,-9.175476,13.70306,-0.9767859,39.19238,0,0,0,145.6629,-102.0994,-67.47026,-1.197964,-111.2317,-56.30258,0.001067912,-0.1257102,0.09433498,0,0.3,0,0,0,0,
6.38224E+17,55.31879,1.145532,20.9425,117.7112,-63.08869,42.85464,-0.612559,-1.262423,-9.175476,13.70306,-0.9035407,39.19238,0,0,0,148.8309,-98.52492,-65.36675,-1.197964,-111.2317,-56.30258,0.001067912,-0.1257102,0.09433498,0,0.3,0,0,0,0,
6.38224E+17,55.36591,2.969032,23.76752,112.5108,-61.84352,45.5647,-0.612559,-1.262423,-9.175476,13.70306,-0.9035407,39.19238,0,0,0,153.793,-91.78334,-62.12019,-1.197964,-111.2317,-56.30258,0.001067912,-0.1257102,0.09433498,0,0.3,0,0,0,0,
6.38224E+17,55.29523,4.81591,24.53798,105.4793,-60.52511,46.95637,-0.612559,-1.262423,-9.175476,13.70306,-0.9767859,39.19238,0,0,0,154.7671,-86.76131,-61.16513,-1.197964,-111.2317,-56.30258,0.001067912,-0.1257102,0.09433498,0,0.3,0,0,0,0,
6.38224E+17,55.22455,6.218602,24.09438,103.1354,-60.30537,47.68882,-0.612559,-1.262423,-9.175476,13.70306,-0.9035407,39.19238,0,0,0,153.6041,-83.93703,-61.68993,-1.197964,-111.2317,-56.30258,0.001067912,-0.1257102,0.09433498,0,0.3,0,0,0,0,
6.38224E+17,55.22455,6.218602,24.00099,103.2819,-60.30537,47.9818,-0.612559,-1.262423,-9.175476,13.70306,-0.9035407,39.19238,0,0,0,153.4411,-84.0256,-61.80314,-1.197964,-111.2317,-56.30258,0.001067912,-0.1257102,0.09433498,0,0.3,0,0,0,0,
6.38224E+17,55.22455,6.195224,23.95429,103.2087,-60.01239,48.12829,-0.612559,-1.262423,-9.175476,13.70306,-0.9035407,39.19238,0,0,0,153.3643,-84.12385,-61.85642,-1.197964,-111.2317,-56.30258,0.001067912,-0.1257102,0.09433498,0,0.3,0,0,0,0,
6.38224E+17,55.17743,6.288737,24.49128,103.9411,-58.91372,48.12829,-0.612559,-1.262423,-9.175476,13.62981,-0.9767859,39.19238,0,0,0,154.1929,-83.39474,-61.09301,-1.197964,-111.2317,-56.30258,0.001067912,-0.1257102,0.09433498,0,0.3,0,0,0,0,
6.38224E+17,54.61199,7.691429,27.03613,117.7844,-56.56987,47.54232,-0.612559,-1.262423,-9.175476,13.70306,-0.9035407,39.19238,0,0,0,157.1513,-77.58023,-56.71784,-1.197964,-111.2317,-56.30258,0.001067912,-0.1257102,0.09433498,0,0.3,0,0,0,0,
6.38224E+17,54.11723,9.211012,28.27354,118.7366,-54.66549,48.42127,-0.612559,-1.262423,-9.175476,13.70306,-0.9035407,39.19238,0,0,0,157.8272,-72.74538,-54.1745,-1.197964,-111.2317,-56.30258,0.001067912,-0.1257102,0.09433498,0,0.3,0,0,0,0,
6.38224E+17,52.27955,12.90477,30.07128,119.3958,-51.22297,49.73968,-0.612559,-1.262423,-9.175476,13.70306,-0.9035407,39.19238,0,0,0,155.6703,-62.27023,-47.94559,-1.197964,-111.2317,-56.30258,0.001067912,-0.1257102,0.09433498,0,0.3,0,0,0,0,
6.38224E+17,49.38168,17.79081,32.12584,119.3958,-49.02562,50.47213,-0.612559,-1.262423,-9.175476,13.70306,-0.9035407,39.19238,0,0,0,150.2079,-48.83763,-39.5229,-1.197964,-111.2317,-56.30258,0.001067912,-0.1257102,0.09433498,0,0.3,0,0,0,0,
6.38224E+17,45.777,23.21456,34.76408,119.4691,-48.07343,50.76511,-0.612559,-1.262423,-9.175476,13.70306,-0.9767859,39.19238,0,0,0,142.3152,-33.63465,-29.84332,-1.197964,-111.2317,-56.30258,0.001067912,-0.1257102,0.09433498,0,0.3,0,0,0,0,
6.38224E+17,43.16185,26.97845,37.40232,119.3958,-47.78045,50.98485,-0.612559,-1.262423,-9.175476,13.70306,-0.9767859,39.19238,0,0,0,136.7004,-22.08698,-22.58452,-1.197964,-111.2317,-56.30258,0.001067912,-0.1257102,0.09433498,0,0.3,0,0,0,0,
6.38224E+17,40.45245,30.48518,40.88106,119.3958,-47.34098,51.05809,-0.612559,-1.262423,-9.175476,13.70306,-0.9767859,39.19238,0,0,0,131.1856,-9.8214,-14.49299,-1.197964,-111.2317,-56.30258,0.001067912,-0.1257102,0.09433498,0,0.3,0,0,0,0,
6.38224E+17,37.0127,34.76339,45.92407,119.4691,-45.80283,51.13134,-0.612559,-1.262423,-9.175476,13.70306,-0.9767859,39.19238,0,0,0,123.619,6.624937,-4.377611,-1.197964,-111.2317,-56.30258,0.001067912,-0.1257102,0.09433498,0,0.3,0,0,0,0,
6.38224E+17,35.43418,36.58689,48.39888,119.3958,-44.7774,51.13134,-0.612559,-1.262423,-9.175476,13.70306,-0.9767859,39.19238,0,0,0,119.8907,14.29558,0.1396387,-1.197964,-111.2317,-56.30258,0.001067912,-0.1257102,0.09433498,0,0.3,0,0,0,0,
6.38224E+17,31.54679,40.16375,54.91277,119.3958,-40.60242,51.13134,-0.612559,-1.262423,-9.175476,13.62981,-0.9035407,39.19238,0,0,0,110.4066,32.7047,11.48742,-1.197964,-111.2317,-56.30258,0.001067912,-0.1257102,0.09433498,0,0.3,0,0,0,0,
6.38224E+17,30.58083,40.91186,56.43034,119.4691,-39.13752,51.13134,-0.612559,-1.262423,-9.175476,13.70306,-0.9035407,39.19238,0,0,0,107.7968,36.94461,14.06363,-1.197964,-111.2317,-56.30258,0.001067912,-0.1257102,0.09433498,0,0.3,0,0,0,0,
6.38224E+17,28.29551,42.59509,58.99854,119.4691,-35.98798,51.13134,-0.612559,-1.262423,-9.175476,13.70306,-0.9767859,39.19238,0,0,0,100.7138,44.91975,18.73097,-1.197964,-111.2317,-56.30258,0.001067912,-0.1257102,0.09433498,0,0.3,0,0,0,0,
6.38224E+17,25.63324,44.62899,61.35661,119.4691,-33.35115,51.20458,-0.612559,-1.262423,-9.175476,13.70306,-0.9035407,39.19238,0,0,0,91.68363,53.10794,22.72397,-1.197964,-111.2317,-56.30258,0.001067912,-0.1257102,0.09433498,0,0.3,0,0,0,0,
6.38224E+17,24.26676,45.5875,62.57067,119.4691,-32.17923,51.20458,-0.612559,-1.262423,-9.175476,13.70306,-0.9767859,39.19238,0,0,0,86.99728,57.17633,24.62603,-1.197964,-111.2317,-56.30258,0.001067912,-0.1257102,0.09433498,0,0.3,0,0,0,0,
6.38224E+17,21.62804,46.77979,65.18556,119.4691,-29.61565,51.20458,-0.612559,-1.262423,-9.175476,13.70306,-0.9767859,39.19238,0,0,0,78.27034,64.56133,29.05596,-1.197964,-111.2317,-56.30258,0.001067912,-0.1257102,0.09433498,0,0.3,0,0,0,0,
6.38224E+17,20.14377,46.68627,66.09611,119.4691,-27.63803,53.91465,-0.612559,-1.262423,-9.175476,13.70306,-0.9035407,39.19238,0,0,0,73.48633,66.34267,31.98652,-1.197964,-111.2317,-56.30258,0.001067912,-0.1257102,0.09433498,0,0.3,0,0,0,0,
6.38224E+17,19.38985,46.68627,66.1895,119.5423,-27.2718,56.99095,-0.612559,-1.262423,-9.175476,13.70306,-0.9035407,39.26562,0,0,0,70.87313,66.54145,33.01903,-1.197964,-111.2317,-56.30258,0.001067912,-0.1257102,0.09433498,0,0.3,0,0,0,0,
6.38224E+17,18.28253,46.52262,66.1895,119.4691,-26.83233,61.01944,-0.612559,-1.262423,-9.175476,13.70306,-0.9767859,39.19238,0,0,0,67.05522,66.27979,34.61384,-1.197964,-111.2317,-56.30258,0.001067912,-0.1257102,0.09433498,0,0.3,0,0,0,0,
6.38224E+17,17.71709,46.24208,67.17008,119.5423,-25.8069,62.99706,-0.612559,-1.262423,-9.175476,13.62981,-0.9767859,39.19238,0,0,0,65.46777,67.92511,36.57657,-1.197964,-111.2317,-56.30258,0.001067912,-0.1257102,0.09433498,0,0.3,0,0,0,0,
6.38224E+17,17.05741,45.70439,69.92506,119.4691,-23.75603,63.80275,-0.612559,-1.262423,-9.175476,13.70306,-0.9035407,39.19238,0,0,0,64.05579,73.02251,40.41861,-1.197964,-111.2317,-56.30258,0.001067912,-0.1257102,0.09433498,0,0.3,0,0,0,0,
6.38224E+17,16.53909,45.44723,71.83953,119.4691,-22.21789,64.02249,-0.612559,-1.262423,-9.175476,13.70306,-0.9035407,39.19238,0,0,0,62.70167,76.81338,42.79815,-1.197964,-111.2317,-56.30258,0.001067912,-0.1257102,0.09433498,0,0.3,0,0,0,0,
6.38224E+17,15.73805,45.42385,74.78129,119.5423,-19.14159,64.38871,-0.612559,-1.262423,-9.175476,13.70306,-0.9035407,39.19238,0,0,0,60.28741,83.3327,45.58375,-1.197964,-111.2317,-56.30258,0.001067912,-0.1257102,0.09433498,0,0.3,0,0,0,0,
6.38224E+17,15.57313,45.96155,76.18213,119.6156,-17.67669,65.56064,-0.612559,-1.262423,-9.175476,13.70306,-0.9767859,39.19238,0,0,0,59.65037,87.36295,45.68104,-1.197964,-111.2317,-56.30258,0.001067912,-0.1257102,0.09433498,0,0.3,0,0,0,0,
6.38224E+17,15.85585,46.63952,77.41953,119.6156,-17.67669,66.95229,-0.612559,-1.262423,-9.175476,13.70306,-0.9035407,39.19238,0,0,0,60.57374,91.25687,44.91929,-1.197964,-111.2317,-56.30258,0.001067912,-0.1257102,0.09433498,0,0.3,0,0,0,0,
6.38224E+17,16.60977,46.77979,79.59083,119.6156,-17.23721,67.6115,-0.612559,-1.262423,-9.175476,13.70306,-0.9767859,39.19238,0,0,0,63.59461,96.43253,44.84106,-1.197964,-111.2317,-56.30258,0.001067912,-0.1257102,0.09433498,0,0.3,0,0,0,0,
6.38224E+17,17.24589,46.77979,80.7115,119.6888,-16.79774,67.83124,-0.612559,-1.262423,-9.175476,13.62981,-0.9767859,39.19238,0,0,0,66.08984,99.00229,44.54796,-1.197964,-111.2317,-56.30258,0.001067912,-0.1257102,0.09433498,0,0.3,0,0,0,0,
6.38224E+17,19.03645,46.8733,82.8361,119.6888,-15.55258,68.05097,-0.612559,-1.262423,-9.175476,13.62981,-0.9767859,39.19238,0,0,0,72.88876,104.0448,42.89769,-1.197964,-111.2317,-56.30258,0.001067912,-0.1257102,0.09433498,0,0.3,0,0,0,0,
6.38224E+17,21.60448,47.17721,85.03074,119.6888,-13.72145,68.12422,-0.612559,-1.262423,-9.175476,13.70306,-0.9767859,39.19238,0,0,0,82.28886,109.6059,39.44041,-1.197964,-111.2317,-56.30258,0.001067912,-0.1257102,0.09433498,0,0.3,0,0,0,0,
6.38224E+17,23.04164,47.29411,86.22145,119.6888,-12.69601,68.19746,-0.612559,-1.262423,-9.175476,13.62981,-0.9035407,39.19238,0,0,0,87.479,112.5537,37.32189,-1.197964,-111.2317,-56.30258,0.001067912,-0.1257102,0.09433498,0,0.3,0,0,0,0,
6.38224E+17,26.0102,47.15384,88.92973,119.6888,-10.49866,68.19746,-0.612559,-1.262423,-9.175476,13.62981,-0.9035407,39.19238,0,0,0,98.23493,118.6291,32.97051,-1.197964,-111.2317,-56.30258,0.001067912,-0.1257102,0.09433498,0,0.3,0,0,0,0,
6.38224E+17,28.95519,47.10708,91.7781,119.6888,-8.374548,68.19746,-0.612559,-1.262423,-9.175476,13.70306,-0.9035407,39.19238,0,0,0,108.4673,125.1835,27.69155,-1.197964,-111.2317,-56.30258,0.001067912,-0.1257102,0.09433498,0,0.3,0,0,0,0,
6.38224E+17,30.20387,47.13046,93.62254,119.6888,-7.422361,68.19746,-0.612559,-1.262423,-9.175476,13.62981,-0.9767859,39.19238,0,0,0,112.5918,129.5083,25.07206,-1.197964,-111.2317,-56.30258,0.001067912,-0.1257102,0.09433498,0,0.3,0,0,0,0,
6.38224E+17,32.18291,47.38762,98.43207,119.9818,-5.15176,68.34396,-0.612559,-1.262423,-9.175476,13.70306,-0.9767859,39.19238,0,0,0,118.3443,141.043,19.70196,-1.197964,-111.2317,-56.30258,0.001067912,-0.1257102,0.09433498,0,0.3,0,0,0,0,
6.38224E+17,33.03107,48.39288,103.8019,121.6664,-3.320631,73.69085,-0.612559,-1.262423,-9.175476,13.70306,-0.9767859,39.19238,0,0,0,118.8558,154.8707,14.45487,-1.197964,-111.2317,-56.30258,0.001067912,-0.1257102,0.09433498,0,0.3,0,0,0,0,
6.38224E+17,32.70123,51.22165,105.4596,121.4467,-2.807915,101.9635,-0.612559,-1.262423,-9.175476,13.62981,-0.9035407,39.19238,0,0,0,114.5583,162.8519,10.0845,-1.197964,-111.2317,-56.30258,0.001067912,-0.1257102,0.09433498,0,0.3,0,0,0,0,
6.38224E+17,31.61747,55.4531,105.4362,121.4467,-5.225006,122.3256,-0.612559,-1.262423,-9.175476,13.70306,-0.9035407,39.19238,0,0,0,107.0299,168.6786,5.505863,-1.197964,-111.2317,-56.30258,0.001067912,-0.1257102,0.09433498,0,0.3,0,0,0,0,
6.38224E+17,31.28763,56.38823,105.4362,121.5199,-6.396928,128.3317,-0.612559,-1.262423,-9.175476,13.70306,-0.9035407,39.26562,0,0,0,105.0911,169.8981,4.578659,-1.197964,-111.2317,-56.30258,0.001067912,-0.1257102,0.09433498,0,0.3,0,0,0,0,
6.38224E+17,30.29811,58.28186,105.4596,121.6664,-9.25349,144.3724,-0.612559,-1.262423,-9.175476,13.62981,-0.9035407,39.19238,0,0,0,100.2101,172.3291,3.151963,-1.197964,-111.2317,-56.30258,0.001067912,-0.1257102,0.09433498,0,0.3,0,0,0,0,
6.38224E+17,28.22483,60.83008,105.4596,121.5932,-12.40303,144.8119,-0.612559,-1.262423,-9.175476,13.70306,-0.9035407,39.19238,0,0,0,91.52202,175.3339,2.160345,-1.197964,-111.2317,-56.30258,0.001067912,-0.1257102,0.09433498,0,0.3,0,0,0,0,
6.38224E+17,24.4788,63.47182,105.4129,121.3002,-16.21178,144.8852,-0.612559,-1.262423,-9.175476,13.70306,-0.9035407,39.19238,0,0,0,77.94598,178.1011,2.854677,-1.197964,-111.2317,-56.30258,0.001067912,-0.1257102,0.09433498,0,0.3,0,0,0,0,
6.38224E+17,22.02856,64.24331,105.2962,121.0805,-18.26265,144.8119,-0.612559,-1.262423,-9.175476,13.70306,-0.9767859,39.19238,0,0,0,69.97786,178.6302,4.60298,-1.197964,-111.2317,-56.30258,0.001067912,-0.1257102,0.09433498,0,0.3,0,0,0,0,
6.38224E+17,17.12809,64.3602,104.946,121.0805,-21.55868,144.8119,-0.612559,-1.262423,-9.175476,13.70306,-0.9035407,39.19238,0,0,0,54.93795,177.9613,9.917553,-1.197964,-111.2317,-56.30258,0.001067912,-0.1257102,0.09433498,0,0.3,0,0,0,0,
6.38224E+17,12.2983,63.77574,104.0354,121.0805,-24.12226,144.8852,-0.612559,-1.262423,-9.175476,13.70306,-0.9767859,39.19238,0,0,0,40.10698,175.3147,15.62344,-1.197964,-111.2317,-56.30258,0.001067912,-0.1257102,0.09433498,0,0.3,0,0,0,0,
6.38224E+17,9.518225,63.44844,103.3583,121.1537,-25.14769,144.8119,-0.612559,-1.262423,-9.175476,13.70306,-0.9767859,39.19238,0,0,0,31.31115,173.4452,18.39317,-1.197964,-111.2317,-56.30258,0.001067912,-0.1257102,0.09433498,0,0.3,0,0,0,0,
6.38224E+17,2.827195,62.02237,101.3038,121.0805,-27.2718,144.8119,-0.612559,-1.262423,-9.175476,13.62981,-0.9767859,39.19238,0,0,0,9.53535,167.2536,24.73599,-1.197964,-111.2317,-56.30258,0.001067912,-0.1257102,0.09433498,0,0.3,0,0,0,0,
6.38224E+17,-1.766997,60.22225,99.64613,121.0805,-29.10293,144.8119,-0.612559,-1.262423,-9.175476,13.62981,-0.9767859,39.19238,0,0,0,-6.095812,161.4367,29.24715,-1.197964,-111.2317,-56.30258,0.001067912,-0.1257102,0.09433498,0,0.3,0,0,0,0,
6.38224E+17,-4.358593,58.95983,98.50211,121.0072,-30.12836,144.8119,-0.612559,-1.262423,-9.175476,13.70306,-0.9035407,39.19238,0,0,0,-15.24871,157.3203,31.71471,-1.197964,-111.2317,-56.30258,0.001067912,-0.1257102,0.09433498,0,0.3,0,0,0,0,
6.38224E+17,-9.094145,55.82715,96.26078,121.0805,-31.95949,144.7387,-0.612559,-1.262423,-9.175476,13.62981,-0.9035407,39.19238,0,0,0,-32.78994,148.219,36.4985,-1.197964,-111.2317,-56.30258,0.001067912,-0.1257102,0.09433498,0,0.3,0,0,0,0,
6.38224E+17,-12.95798,52.50745,94.46304,121.0805,-32.83843,144.8852,-0.612559,-1.262423,-9.175476,13.70306,-0.9035407,39.19238,0,0,0,-48.0113,139.531,40.30788,-1.197964,-111.2317,-56.30258,0.001067912,-0.1257102,0.09433498,0,0.3,0,0,0,0,
6.38224E+17,-16.58621,49.21112,92.43182,121.0072,-32.91168,144.8119,-0.612559,-1.262423,-9.175476,13.70306,-0.9767859,39.19238,0,0,0,-62.89889,129.9703,42.82573,-1.197964,-111.2317,-56.30258,0.001067912,-0.1257102,0.09433498,0,0.3,0,0,0,0,
6.38224E+17,-19.95529,46.14857,89.13986,119.9085,-32.6187,144.8852,-0.612559,-1.262423,-9.175476,13.70306,-0.9767859,39.19238,0,0,0,-77.03477,117.512,43.8163,-1.197964,-111.2317,-56.30258,0.001067912,-0.1257102,0.09433498,0,0.3,0,0,0,0,
6.38224E+17,-21.51024,44.60561,87.17869,118.7366,-32.39896,144.8852,-0.612559,-1.262423,-9.175476,13.70306,-0.9767859,39.26562,0,0,0,-83.64709,110.4278,43.88923,-1.197964,-111.2317,-56.30258,0.001067912,-0.1257102,0.09433498,0,0.3,0,0,0,0,
6.38224E+17,-24.52592,41.54307,82.25242,114.7814,-31.30029,144.8852,-0.612559,-1.262423,-9.175476,13.70306,-0.9767859,39.19238,0,0,0,-96.27922,93.80863,42.66245,-1.197964,-111.2317,-56.30258,0.001067912,-0.1257102,0.09433498,0,0.3,0,0,0,0,
6.38224E+17,-27.21176,38.48052,77.39619,112.5108,-29.46916,144.8119,-0.612559,-1.262423,-9.175476,13.62981,-0.9767859,39.19238,0,0,0,-107.2439,77.22878,40.21889,-1.197964,-111.2317,-56.30258,0.001067912,-0.1257102,0.09433498,0,0.3,0,0,0,0,
6.38224E+17,-29.63843,34.66988,74.3377,117.052,-25.73365,144.8852,-0.612559,-1.262423,-9.175476,13.70306,-0.9767859,39.19238,0,0,0,-117.7323,63.20567,38.57301,-1.197964,-111.2317,-56.30258,0.001067912,-0.1257102,0.09433498,0,0.3,0,0,0,0,
6.38224E+17,-30.48659,32.93989,73.07694,120.4213,-23.38981,144.8852,-0.612559,-1.262423,-9.175476,13.70306,-0.9035407,39.26562,0,0,0,-121.5012,57.04376,38.02858,-1.197964,-111.2317,-56.30258,0.001067912,-0.1257102,0.09433498,0,0.3,0,0,0,0,
6.38224E+17,-32.3007,31.35017,70.20523,121.0072,-20.60649,144.8119,-0.612559,-1.262423,-9.175476,13.70306,-0.9035407,39.19238,0,0,0,-127.9008,47.56837,33.96349,-1.197964,-111.2317,-56.30258,0.001067912,-0.1257102,0.09433498,0,0.3,0,0,0,0,
6.38224E+17,-34.09126,30.04099,66.09611,121.0805,-23.38981,144.8119,-0.612559,-1.262423,-9.175476,13.62981,-0.9035407,39.19238,0,0,0,-133.037,36.07369,28.20946,-1.197964,-111.2317,-56.30258,0.001067912,-0.1257102,0.09433498,0,0.3,0,0,0,0,
6.38224E+17,-34.60958,29.15262,63.83142,120.934,-26.4661,144.8119,-0.612559,-1.262423,-9.175476,13.70306,-0.9035407,39.19238,0,0,0,-134.1229,29.50063,26.00266,-1.197964,-111.2317,-56.30258,0.001067912,-0.1257102,0.09433498,0,0.3,0,0,0,0,
6.38224E+17,-35.0101,26.51088,59.13863,120.8607,-35.03579,144.4457,-0.612559,-1.262423,-9.175476,13.70306,-0.9767859,39.19238,0,0,0,-134.1344,14.46957,23.14188,-1.197964,-111.2317,-56.30258,0.001067912,-0.1257102,0.09433498,0,0.3,0,0,0,0,
6.38224E+17,-34.98654,23.75225,55.30967,120.8607,-42.72653,139.3185,-0.612559,-1.262423,-9.175476,13.70306,-0.9767859,39.19238,0,0,0,-132.8533,1.166158,21.47906,-1.197964,-111.2317,-56.30258,0.001067912,-0.1257102,0.09433498,0,0.3,0,0,0,0,
6.38224E+17,-36.23522,20.71309,51.57411,121.0072,-48.73264,133.3857,-0.612559,-1.262423,-9.175476,13.62981,-0.9767859,39.19238,0,0,0,-135.4798,-12.36291,16.52107,-1.197964,-111.2317,-56.30258,0.001067912,-0.1257102,0.09433498,0,0.3,0,0,0,0,
6.38224E+17,-37.43678,19.63769,48.86583,120.934,-50.71025,134.2646,-0.612559,-1.262423,-9.175476,13.70306,-0.9767859,39.19238,0,0,0,-137.4,-19.55581,11.12281,-1.197964,-111.2317,-56.30258,0.001067912,-0.1257102,0.09433498,0,0.3,0,0,0,0,
6.38224E+17,-38.26138,19.26364,46.64783,120.934,-51.73569,137.4141,-0.612559,-1.262423,-9.175476,13.62981,-0.9035407,39.26562,0,0,0,-137.9992,-24.19798,6.629693,-1.197964,-111.2317,-56.30258,0.001067912,-0.1257102,0.09433498,0,0.3,0,0,0,0,
6.38224E+17,-39.9577,18.28176,41.76826,120.934,-54.81199,144.5922,-0.612559,-1.262423,-9.175476,13.62981,-0.9767859,39.19238,0,0,0,-138.3643,-34.27787,-3.206399,-1.197964,-111.2317,-56.30258,0.001067912,-0.1257102,0.09433498,0,0.3,0,0,0,0,
6.38224E+17,-41.30061,16.06083,38.80315,120.934,-59.35318,144.9584,-0.612559,-1.262423,-9.175476,13.70306,-0.9035407,39.19238,0,0,0,-139.7297,-43.67781,-9.302491,-1.197964,-111.2317,-56.30258,0.001067912,-0.1257102,0.09433498,0,0.3,0,0,0,0,
6.38224E+17,-41.81893,14.75165,37.86926,120.934,-60.6716,144.8119,-0.612559,-1.262423,-9.175476,13.70306,-0.9035407,39.19238,0,0,0,-140.5657,-47.96341,-11.24035,-1.197964,-111.2317,-56.30258,0.001067912,-0.1257102,0.09433498,0,0.3,0,0,0,0,
6.38224E+17,-42.92625,11.80599,36.67855,120.934,-62.20975,144.8119,-0.612559,-1.262423,-9.175476,13.70306,-0.9035407,39.19238,0,0,0,-143.1461,-56.3134,-14.44794,-1.197964,-111.2317,-56.30258,0.001067912,-0.1257102,0.09433498,0,0.3,0,0,0,0,
6.38224E+17,-43.68017,8.439531,36.58516,120.934,-62.86895,144.8119,-0.612559,-1.262423,-9.175476,13.70306,-0.9767859,39.19238,0,0,0,-145.9892,-64.15511,-15.47515,-1.197964,-111.2317,-56.30258,0.001067912,-0.1257102,0.09433498,0,0.3,0,0,0,0,
6.38224E+17,-44.05713,4.886045,36.7019,121.0072,-63.16194,144.8852,-0.612559,-1.262423,-9.175476,13.70306,-0.9767859,39.19238,0,0,0,-147.8105,-72.20615,-15.59279,-1.197964,-111.2317,-56.30258,0.001067912,-0.1257102,0.09433498,0,0.3,0,0,0,0,
6.38224E+17,-44.33985,2.244308,36.79529,120.934,-63.23518,144.8852,-0.612559,-1.262423,-9.175476,13.70306,-0.9767859,39.19238,0,0,0,-148.9514,-78.21204,-15.92602,-1.197964,-111.2317,-56.30258,0.001067912,-0.1257102,0.09433498,0,0.3,0,0,0,0,
6.38224E+17,-44.57545,-0.350673,36.81864,120.934,-63.30842,144.8119,-0.612559,-1.262423,-9.175476,13.62981,-0.9767859,39.19238,0,0,0,-149.6775,-84.21769,-16.43772,-1.197964,-111.2317,-56.30258,0.001067912,-0.1257102,0.09433498,0,0.3,0,0,0,0,
6.38224E+17,-44.99953,-0.9585064,35.13763,120.934,-63.30842,144.8852,-0.612559,-1.262423,-9.175476,13.70306,-0.9767859,39.19238,0,0,0,-148.5477,-87.9306,-19.79982,-1.197964,-111.2317,-56.30258,0.001067912,-0.1257102,0.09433498,0,0.3,0,0,0,0,
6.38224E+17,-45.11733,-0.8883717,34.29713,120.934,-63.30842,144.8119,-0.612559,-1.262423,-9.175476,13.70306,-0.9035407,39.19238,0,0,0,-147.7154,-88.88148,-21.23833,-1.197964,-111.2317,-56.30258,0.001067912,-0.1257102,0.09433498,0,0.3,0,0,0,0,
6.38224E+17,-45.32936,-0.9351282,32.84961,120.934,-63.30842,144.8119,-0.612559,-1.262423,-9.175476,13.70306,-0.9767859,39.19238,0,0,0,-146.2614,-90.85329,-23.76054,-1.197964,-111.2317,-56.30258,0.001067912,-0.1257102,0.09433498,0,0.3,0,0,0,0,
6.38224E+17,-45.28225,-0.9818845,32.61613,120.934,-63.38167,144.8119,-0.612559,-1.262423,-9.175476,13.62981,-0.9035407,39.19238,0,0,0,-145.8164,-91.25592,-23.9632,-1.197964,-111.2317,-56.30258,0.001067912,-0.1257102,0.09433498,0,0.3,0,0,0,0,
6.38224E+17,-44.90529,-0.9351282,32.10249,120.934,-63.38167,144.8119,-0.612559,-1.262423,-9.175476,13.62981,-0.9035407,39.19238,0,0,0,-144.1517,-91.78695,-23.72091,-1.197964,-111.2317,-56.30258,0.001067912,-0.1257102,0.09433498,0,0.3,0,0,0,0,
6.38224E+17,-44.45765,-0.8416153,32.82626,119.1029,-63.38167,144.7387,-0.612559,-1.262423,-9.175476,13.70306,-0.9035407,39.19238,0,0,0,-144.0152,-90.66515,-21.58226,-1.197964,-111.2317,-56.30258,0.001067912,-0.1257102,0.09433498,0,0.3,0,0,0,0,
6.38224E+17,-44.17493,-0.6078333,33.94693,117.9309,-63.30842,144.7387,-0.612559,-1.262423,-9.175476,13.70306,-0.9035407,39.26562,0,0,0,-144.8116,-88.68583,-19.30655,-1.197964,-111.2317,-56.30258,0.001067912,-0.1257102,0.09433498,0,0.3,0,0,0,0,
6.38224E+17,-43.58593,0.3740513,36.51513,116.9788,-63.30842,144.7387,-0.612559,-1.262423,-9.175476,13.70306,-0.9035407,39.19238,0,0,0,-146.6408,-82.95281,-14.2862,-1.197964,-111.2317,-56.30258,0.001067912,-0.1257102,0.09433498,0,0.3,0,0,0,0,
6.38224E+17,-42.80845,2.431333,39.64366,114.4884,-63.38167,144.8852,-0.612559,-1.262423,-9.175476,13.70306,-0.9767859,39.19238,0,0,0,-148.3516,-73.67616,-8.192255,-1.197964,-111.2317,-56.30258,0.001067912,-0.1257102,0.09433498,0,0.3,0,0,0,0,
6.38224E+17,-42.36081,3.763891,41.02114,111.6319,-63.38167,144.8119,-0.612559,-1.262423,-9.175476,13.70306,-0.9767859,39.19238,0,0,0,-148.6295,-68.50446,-5.356145,-1.197964,-111.2317,-56.30258,0.001067912,-0.1257102,0.09433498,0,0.3,0,0,0,0,
6.38224E+17,-41.37129,7.060217,44.0096,104.8933,-63.30842,144.8119,-0.612559,-1.262423,-9.175476,13.62981,-0.9767859,39.26562,0,0,0,-148.7024,-56.16808,0.4902445,-1.197964,-111.2317,-56.30258,0.001067912,-0.1257102,0.09433498,0,0.3,0,0,0,0,
6.38224E+17,-39.98125,11.26829,48.32884,102.9889,-61.40405,144.7387,-0.612559,-1.262423,-9.175476,13.62981,-0.9035407,39.19238,0,0,0,-148.033,-39.25129,8.186078,-1.197964,-111.2317,-56.30258,0.001067912,-0.1257102,0.09433498,0,0.3,0,0,0,0,
6.38224E+17,-38.44986,15.6634,52.20449,99.98587,-57.74179,144.7387,-0.612559,-1.262423,-9.175476,13.70306,-0.9035407,39.19238,0,0,0,-145.366,-22.37036,14.72881,-1.197964,-111.2317,-56.30258,0.001067912,-0.1257102,0.09433498,0,0.3,0,0,0,0,
6.38224E+17,-37.55458,17.83757,54.35244,97.27579,-55.98391,144.8119,-0.612559,-1.262423,-9.175476,13.62981,-0.9035407,39.19238,0,0,0,-143.4207,-13.51837,18.19126,-1.197964,-111.2317,-56.30258,0.001067912,-0.1257102,0.09433498,0,0.3,0,0,0,0,
6.38224E+17,-35.19858,22.32619,59.02188,90.09777,-53.42033,144.6654,-0.612559,-1.262423,-9.175476,13.62981,-0.9767859,39.19238,0,0,0,-137.0034,5.370199,25.8749,-1.197964,-111.2317,-56.30258,0.001067912,-0.1257102,0.09433498,0,0.3,0,0,0,0,
6.38224E+17,-32.23003,26.55764,63.13101,82.40703,-50.27078,144.8119,-0.612559,-1.262423,-9.175476,13.70306,-0.9767859,39.19238,0,0,0,-127.0546,22.7027,33.17493,-1.197964,-111.2317,-56.30258,0.001067912,-0.1257102,0.09433498,0,0.3,0,0,0,0,
6.38224E+17,-30.55727,28.49803,64.99879,78.37854,-48.00018,144.8852,-0.612559,-1.262423,-9.175476,13.62981,-0.9767859,39.19238,0,0,0,-121.0231,30.61639,36.63772,-1.197964,-111.2317,-56.30258,0.001067912,-0.1257102,0.09433498,0,0.3,0,0,0,0,
6.38224E+17,-26.9526,31.98138,68.10397,70.17509,-42.06733,144.8119,-0.612559,-1.262423,-9.175476,13.70306,-0.9035407,39.26562,0,0,0,-107.3487,44.24864,42.7654,-1.197964,-111.2317,-56.30258,0.001067912,-0.1257102,0.09433498,0,0.3,0,0,0,0,
6.38224E+17,-23.63064,34.97379,70.43871,63.43653,-35.62175,144.8119,-0.612559,-1.262423,-9.175476,13.70306,-0.9767859,39.19238,0,0,0,-94.16608,55.13884,46.87385,-1.197964,-111.2317,-56.30258,0.001067912,-0.1257102,0.09433498,0,0.3,0,0,0,0,
6.38224E+17,-22.005,36.39986,71.18581,60.57997,-32.32572,144.8119,-0.612559,-1.262423,-9.175476,13.70306,-0.9767859,39.19238,0,0,0,-87.51121,59.47676,48.19339,-1.197964,-111.2317,-56.30258,0.001067912,-0.1257102,0.09433498,0,0.3,0,0,0,0,
6.38224E+17,-18.23541,40.18713,71.62941,54.57386,-23.68279,144.8119,-0.612559,-1.262423,-9.175476,13.70306,-0.9035407,39.19238,0,0,0,-71.47943,67.37206,48.60393,-1.197964,-111.2317,-56.30258,0.001067912,-0.1257102,0.09433498,0,0.3,0,0,0,0,
6.38224E+17,-15.19618,43.81075,71.02238,50.17915,-15.69907,144.8852,-0.612559,-1.262423,-9.175476,13.70306,-0.9767859,39.19238,0,0,0,-58.27853,72.30009,46.20722,-1.197964,-111.2317,-56.30258,0.001067912,-0.1257102,0.09433498,0,0.3,0,0,0,0,
6.38224E+17,-13.45274,46.0083,70.39201,48.12829,-11.15786,144.7387,-0.612559,-1.262423,-9.175476,13.70306,-0.9035407,39.19238,0,0,0,-50.7711,74.53739,43.89799,-1.197964,-111.2317,-56.30258,0.001067912,-0.1257102,0.09433498,0,0.3,0,0,0,0,
6.38224E+17,-9.965863,50.193,68.80439,44.97874,-2.295199,144.8852,-0.612559,-1.262423,-9.175476,13.70306,-0.9035407,39.19238,0,0,0,-36.29101,77.57707,38.18606,-1.197964,-111.2317,-56.30258,0.001067912,-0.1257102,0.09433498,0,0.3,0,0,0,0,
6.38224E+17,-6.431869,54.30756,66.02607,43.29411,6.713957,144.8119,-0.612559,-1.262423,-9.175476,13.70306,-0.9035407,39.19238,0,0,0,-22.36478,77.46871,30.04025,-1.197964,-111.2317,-56.30258,0.001067912,-0.1257102,0.09433498,0,0.3,0,0,0,0,
6.38224E+17,-3.628234,57.62727,62.31385,42.48841,14.55119,144.8852,-0.612559,-1.262423,-9.175476,13.70306,-0.9035407,39.19238,0,0,0,-11.9908,74.01698,20.75134,-1.197964,-111.2317,-56.30258,0.001067912,-0.1257102,0.09433498,0,0.3,0,0,0,0,
6.38224E+17,-0.4476392,60.66644,57.38758,41.90245,22.97438,144.8852,-0.612559,-1.262423,-9.175476,13.70306,-0.9035407,39.19238,0,0,0,-1.387947,67.73275,9.297287,-1.197964,-111.2317,-56.30258,0.001067912,-0.1257102,0.09433498,0,0.3,0,0,0,0,
6.38224E+17,2.992115,62.91074,51.43402,42.26867,30.22566,144.8852,-0.612559,-1.262423,-9.175476,13.62981,-0.9767859,39.19238,0,0,0,8.612224,58.93883,-3.585132,-1.197964,-111.2317,-56.30258,0.001067912,-0.1257102,0.09433498,0,0.3,0,0,0,0,
6.38224E+17,4.900472,63.68222,48.2121,42.56165,33.44844,144.8852,-0.612559,-1.262423,-9.175476,13.70306,-0.9035407,39.19238,0,0,0,13.54404,54.01703,-10.38093,-1.197964,-111.2317,-56.30258,0.001067912,-0.1257102,0.09433498,0,0.3,0,0,0,0,
6.38224E+17,8.057507,63.98614,43.02901,43.66033,39.01508,144.8119,-0.612559,-1.262423,-9.175476,13.70306,-0.9035407,39.19238,0,0,0,20.9521,45.71009,-20.34605,-1.197964,-111.2317,-56.30258,0.001067912,-0.1257102,0.09433498,0,0.3,0,0,0,0,
6.38224E+17,10.97894,63.89263,37.93931,45.27173,43.62952,144.8119,-0.612559,-1.262423,-9.175476,13.70306,-0.9035407,39.19238,0,0,0,26.79004,37.92629,-30.25623,-1.197964,-111.2317,-56.30258,0.001067912,-0.1257102,0.09433498,0,0.3,0,0,0,0,
6.38224E+17,12.39254,63.61209,35.55789,46.59014,45.16767,144.8852,-0.612559,-1.262423,-9.175476,13.70306,-0.9767859,39.19238,0,0,0,29.36124,34.32166,-34.72445,-1.197964,-111.2317,-56.30258,0.001067912,-0.1257102,0.09433498,0,0.3,0,0,0,0,
6.38224E+17,15.45534,61.81197,31.30868,50.54538,47.58476,144.8852,-0.612559,-1.262423,-9.175476,13.70306,-0.9035407,39.19238,0,0,0,35.25231,26.95339,-40.8484,-1.197964,-111.2317,-56.30258,0.001067912,-0.1257102,0.09433498,0,0.3,0,0,0,0,
6.38224E+17,18.47101,59.1001,27.03613,57.7234,50.29483,144.8852,-0.612559,-1.262423,-9.175476,13.70306,-0.9035407,39.19238,0,0,0,40.90052,18.99555,-45.90537,-1.197964,-111.2317,-56.30258,0.001067912,-0.1257102,0.09433498,0,0.3,0,0,0,0,
6.38224E+17,20.19089,57.69741,25.14501,61.82513,51.54,144.8852,-0.612559,-1.262423,-9.175476,13.70306,-0.9767859,39.19238,0,0,0,44.15242,15.34931,-48.2883,-1.197964,-111.2317,-56.30258,0.001067912,-0.1257102,0.09433498,0,0.3,0,0,0,0,
6.38224E+17,23.772,55.17256,22.6235,69.80886,53.07815,144.8119,-0.612559,-1.262423,-9.175476,13.70306,-0.9035407,39.19238,0,0,0,51.37621,9.724732,-51.71019,-1.197964,-111.2317,-56.30258,0.001067912,-0.1257102,0.09433498,0,0.3,0,0,0,0,
6.38224E+17,27.306,53.06852,20.80241,76.40092,53.95709,144.8852,-0.612559,-1.262423,-9.175476,13.70306,-0.9035407,39.19238,0,0,0,58.48205,5.286935,-55.07219,-1.197964,-111.2317,-56.30258,0.001067912,-0.1257102,0.09433498,0,0.3,0,0,0,0,
6.38224E+17,30.46303,50.09949,18.42099,82.8465,54.46981,144.8119,-0.612559,-1.262423,-9.175476,13.70306,-0.9035407,39.19238,0,0,0,64.72966,-0.8664751,-58.29852,-1.197964,-111.2317,-56.30258,0.001067912,-0.1257102,0.09433498,0,0.3,0,0,0,0,
6.38224E+17,31.52323,47.97207,16.78668,86.06928,54.6163,144.8119,-0.612559,-1.262423,-9.175476,13.70306,-0.9035407,39.19238,0,0,0,66.81404,-5.26265,-59.41855,-1.197964,-111.2317,-56.30258,0.001067912,-0.1257102,0.09433498,0,0.3,0,0,0,0,
6.38224E+17,31.90019,46.56938,15.8061,88.04691,54.68954,144.8852,-0.612559,-1.262423,-9.175476,13.70306,-0.9035407,39.19238,0,0,0,67.63894,-8.11815,-59.6843,-1.197964,-111.2317,-56.30258,0.001067912,-0.1257102,0.09433498,0,0.3,0,0,0,0,
6.38224E+17,31.97087,43.31981,13.82158,92.95433,54.10358,144.8852,-0.612559,-1.262423,-9.175476,13.70306,-0.9035407,39.19238,0,0,0,68.23728,-14.65134,-59.02387,-1.197964,-111.2317,-56.30258,0.001067912,-0.1257102,0.09433498,0,0.3,0,0,0,0,
6.38224E+17,31.90019,40.23389,11.86041,98.52097,52.3457,144.8119,-0.612559,-1.262423,-9.175476,13.62981,-0.9767859,39.19238,0,0,0,68.27905,-21.02113,-58.65592,-1.197964,-111.2317,-56.30258,0.001067912,-0.1257102,0.09433498,0,0.3,0,0,0,0,
6.38224E+17,31.90019,37.40512,10.17941,104.3806,49.19616,144.8119,-0.612559,-1.262423,-9.175476,13.70306,-0.9767859,39.19238,0,0,0,68.4305,-26.89792,-58.41261,-1.197964,-111.2317,-56.30258,0.001067912,-0.1257102,0.09433498,0,0.3,0,0,0,0,
6.38224E+17,31.90019,36.02581,9.432296,107.3104,47.07204,144.8852,-0.612559,-1.262423,-9.175476,13.70306,-0.9767859,39.19238,0,0,0,68.53922,-29.76735,-58.23795,-1.197964,-111.2317,-56.30258,0.001067912,-0.1257102,0.09433498,0,0.3,0,0,0,0,
6.38224E+17,31.90019,33.12691,8.218237,114.4152,42.16462,144.9584,-0.612559,-1.262423,-9.175476,13.70306,-0.9035407,39.19238,0,0,0,69.08688,-35.75544,-57.35809,-1.197964,-111.2317,-56.30258,0.001067912,-0.1257102,0.09433498,0,0.3,0,0,0,0,
6.38224E+17,32.13579,30.06437,6.864096,120.7142,35.86554,144.8119,-0.612559,-1.262423,-9.175476,13.70306,-0.9767859,39.19238,0,0,0,69.86698,-42.23951,-57.12687,-1.197964,-111.2317,-56.30258,0.001067912,-0.1257102,0.09433498,0,0.3,0,0,0,0,
6.38224E+17,32.74835,27.72655,4.856231,120.8607,30.37215,139.465,-0.612559,-1.262423,-9.175476,13.62981,-0.9767859,39.19238,0,0,0,69.95966,-47.47992,-59.57863,-1.197964,-111.2317,-56.30258,0.001067912,-0.1257102,0.09433498,0,0.3,0,0,0,0,
6.38224E+17,33.80854,24.94454,2.638241,120.641,24.95201,135.6563,-0.612559,-1.262423,-9.175476,13.70306,-0.9035407,39.19238,0,0,0,70.69238,-53.61952,-62.78505,-1.197964,-111.2317,-56.30258,0.001067912,-0.1257102,0.09433498,0,0.3,0,0,0,0,
6.38224E+17,35.1279,20.57282,0.6303762,119.7621,20.63054,134.1914,-0.612559,-1.262423,-9.175476,13.70306,-0.9035407,39.19238,0,0,0,72.68089,-63.13307,-65.04253,-1.197964,-111.2317,-56.30258,0.001067912,-0.1257102,0.09433498,0,0.3,0,0,0,0,
6.38224E+17,35.19858,18.86621,0.4902926,120.1283,19.97133,134.0449,-0.612559,-1.262423,-9.175476,13.62981,-0.9035407,39.19238,0,0,0,73.39284,-66.87514,-64.30355,-1.197964,-111.2317,-56.30258,0.001067912,-0.1257102,0.09433498,0,0.3,0,0,0,0,
6.38224E+17,35.19858,17.06609,0.5369871,120.641,21.36299,134.0449,-0.612559,-1.262423,-9.175476,13.70306,-0.9035407,39.19238,0,0,0,74.20035,-70.85931,-63.15878,-1.197964,-111.2317,-56.30258,0.001067912,-0.1257102,0.09433498,0,0.3,0,0,0,0,
6.38224E+17,35.22214,16.97258,0.6537234,120.7142,22.09544,133.9716,-0.612559,-1.262423,-9.175476,13.70306,-0.9035407,39.19238,0,0,0,74.43702,-71.0646,-62.91532,-1.197964,-111.2317,-56.30258,0.001067912,-0.1257102,0.09433498,0,0.3,0,0,0,0,
6.38224E+17,35.33994,16.99595,1.190711,120.641,24.43929,133.5322,-0.612559,-1.262423,-9.175476,13.70306,-0.9767859,39.19238,0,0,0,75.36726,-70.99245,-62.06219,-1.197964,-111.2317,-56.30258,0.001067912,-0.1257102,0.09433498,0,0.3,0,0,0,0,
6.38224E+17,35.50486,16.92582,2.124601,120.7142,28.54102,131.7743,-0.612559,-1.262423,-9.175476,13.70306,-0.9035407,39.19238,0,0,0,76.96232,-71.0857,-60.47217,-1.197964,-111.2317,-56.30258,0.001067912,-0.1257102,0.09433498,0,0.3,0,0,0,0,
6.38224E+17,35.7169,16.99595,2.918408,120.641,31.47083,130.5291,-0.612559,-1.262423,-9.175476,13.70306,-0.9767859,39.19238,0,0,0,78.41071,-70.84829,-59.29784,-1.197964,-111.2317,-56.30258,0.001067912,-0.1257102,0.09433498,0,0.3,0,0,0,0,
6.38224E+17,37.08338,18.09473,5.533302,120.7142,36.81772,127.4528,-0.612559,-1.262423,-9.175476,13.62981,-0.9035407,39.19238,0,0,0,84.18353,-67.96159,-56.97228,-1.197964,-111.2317,-56.30258,0.001067912,-0.1257102,0.09433498,0,0.3,0,0,0,0,
6.38224E+17,38.8975,19.33377,8.568447,120.934,40.11375,124.5962,-0.612559,-1.262423,-9.175476,13.62981,-0.9035407,39.19238,0,0,0,91.48787,-64.36335,-54.9577,-1.197964,-111.2317,-56.30258,0.001067912,-0.1257102,0.09433498,0,0.3,0,0,0,0,
6.38224E+17,39.86345,19.96499,9.969283,120.8607,41.35892,122.7651,-0.612559,-1.262423,-9.175476,13.70306,-0.9035407,39.26562,0,0,0,95.13223,-62.45471,-54.42554,-1.197964,-111.2317,-56.30258,0.001067912,-0.1257102,0.09433498,0,0.3,0,0,0,0,
6.38224E+17,41.81893,21.22741,12.77096,120.934,42.97031,119.6156,-0.612559,-1.262423,-9.175476,13.70306,-0.9035407,39.19238,0,0,0,102.5371,-58.41902,-53.74467,-1.197964,-111.2317,-56.30258,0.001067912,-0.1257102,0.09433498,0,0.3,0,0,0,0,
6.38224E+17,44.24561,22.44308,15.59597,120.934,43.99575,115.8801,-0.612559,-1.262423,-9.175476,13.70306,-0.9035407,39.19238,0,0,0,111.0107,-54.18184,-54.37684,-1.197964,-111.2317,-56.30258,0.001067912,-0.1257102,0.09433498,0,0.3,0,0,0,0,
6.38224E+17,46.69584,23.51847,18.18752,121.0072,44.65495,112.0713,-0.612559,-1.262423,-9.175476,13.70306,-0.9767859,39.19238,0,0,0,119.2702,-50.12523,-55.93909,-1.197964,-111.2317,-56.30258,0.001067912,-0.1257102,0.09433498,0,0.3,0,0,0,0,
6.38224E+17,47.99164,24.05617,19.19145,121.0072,44.94794,110.1669,-0.612559,-1.262423,-9.175476,13.70306,-0.9767859,39.19238,0,0,0,123.0513,-48.2314,-57.52158,-1.197964,-111.2317,-56.30258,0.001067912,-0.1257102,0.09433498,0,0.3,0,0,0,0,
6.38224E+17,50.41832,25.10819,20.38216,120.934,45.38741,106.8709,-0.612559,-1.262423,-9.175476,13.70306,-0.9035407,39.19238,0,0,0,128.8582,-45.06676,-61.81856,-1.197964,-111.2317,-56.30258,0.001067912,-0.1257102,0.09433498,0,0.3,0,0,0,0,
6.38224E+17,52.58583,26.20697,20.87246,121.0072,45.68039,104.3806,-0.612559,-1.262423,-9.175476,13.70306,-0.9035407,39.19238,0,0,0,132.764,-42.35967,-66.79225,-1.197964,-111.2317,-56.30258,0.001067912,-0.1257102,0.09433498,0,0.3,0,0,0,0,
6.38224E+17,54.37639,27.16547,21.82969,120.934,46.41284,100.8648,-0.612559,-1.262423,-9.175476,13.70306,-0.9035407,39.26562,0,0,0,136.7447,-39.55538,-70.36517,-1.197964,-111.2317,-56.30258,0.001067912,-0.1257102,0.09433498,0,0.3,0,0,0,0,
6.38224E+17,55.27167,28.14736,23.27722,121.0072,47.58476,96.25037,-0.612559,-1.262423,-9.175476,13.62981,-0.9035407,39.19238,0,0,0,139.9442,-36.23914,-71.3456,-1.197964,-111.2317,-56.30258,0.001067912,-0.1257102,0.09433498,0,0.3,0,0,0,0,
6.38224E+17,55.27167,28.77857,24.51463,121.0072,48.39046,94.05301,-0.612559,-1.262423,-9.175476,13.70306,-0.9035407,39.19238,0,0,0,141.5328,-33.78107,-70.24447,-1.197964,-111.2317,-56.30258,0.001067912,-0.1257102,0.09433498,0,0.3,0,0,0,0,
6.38224E+17,55.24811,30.85923,27.363,121.0805,49.70887,90.61049,-0.612559,-1.262423,-9.175476,13.70306,-0.9035407,39.19238,0,0,0,144.4117,-26.68051,-68.161,-1.197964,-111.2317,-56.30258,0.001067912,-0.1257102,0.09433498,0,0.3,0,0,0,0,
6.38224E+17,55.20099,32.91651,30.39814,121.0805,50.51457,88.19339,-0.612559,-1.262423,-9.175476,13.70306,-0.9767859,39.19238,0,0,0,147.331,-19.20382,-65.95609,-1.197964,-111.2317,-56.30258,0.001067912,-0.1257102,0.09433498,0,0.3,0,0,0,0,
6.38224E+17,55.20099,33.64123,31.82232,121.0072,50.80755,87.09471,-0.612559,-1.262423,-9.175476,13.70306,-0.9767859,39.19238,0,0,0,148.9013,-16.08113,-64.86472,-1.197964,-111.2317,-56.30258,0.001067912,-0.1257102,0.09433498,0,0.3,0,0,0,0,
6.38224E+17,55.17743,34.55299,33.55002,121.0072,51.10053,85.70306,-0.612559,-1.262423,-9.175476,13.70306,-0.9035407,39.19238,0,0,0,150.6603,-12.15251,-63.55033,-1.197964,-111.2317,-56.30258,0.001067912,-0.1257102,0.09433498,0,0.3,0,0,0,0,
6.38224E+17,55.08319,35.30109,34.29713,119.7621,51.17377,85.04385,-0.612559,-1.262423,-9.175476,13.70306,-0.9035407,39.19238,0,0,0,150.8534,-9.754589,-63.04739,-1.197964,-111.2317,-56.30258,0.001067912,-0.1257102,0.09433498,0,0.3,0,0,0,0,
6.38224E+17,55.03607,35.88554,34.46056,118.5901,51.24702,84.82411,-0.612559,-1.262423,-9.175476,13.62981,-0.9767859,39.19238,0,0,0,150.3752,-8.433694,-63.19715,-1.197964,-111.2317,-56.30258,0.001067912,-0.1257102,0.09433498,0,0.3,0,0,0,0,
6.38224E+17,54.98895,37.38175,34.50726,114.4884,51.32027,83.94518,-0.612559,-1.262423,-9.175476,13.62981,-0.9035407,39.26562,0,0,0,148.6603,-5.577842,-64.21423,-1.197964,-111.2317,-56.30258,0.001067912,-0.1257102,0.09433498,0,0.3,0,0,0,0,
6.38224E+17,54.98895,39.01822,34.50726,110.3867,51.24702,81.82106,-0.612559,-1.262423,-9.175476,13.70306,-0.9035407,39.19238,0,0,0,146.7312,-2.584831,-65.56553,-1.197964,-111.2317,-56.30258,0.001067912,-0.1257102,0.09433498,0,0.3,0,0,0,0,
6.38224E+17,54.94183,40.81834,34.46056,105.4793,50.88079,78.81802,-0.612559,-1.262423,-9.175476,13.70306,-0.9767859,39.19238,0,0,0,144.3727,0.566762,-67.04054,-1.197964,-111.2317,-56.30258,0.001067912,-0.1257102,0.09433498,0,0.3,0,0,0,0,
6.38224E+17,54.89471,41.68334,34.29713,102.7692,50.51457,76.84039,-0.612559,-1.262423,-9.175476,13.70306,-0.9767859,39.19238,0,0,0,142.9466,1.86554,-67.86574,-1.197964,-111.2317,-56.30258,0.001067912,-0.1257102,0.09433498,0,0.3,0,0,0,0,
6.38224E+17,54.70623,42.87563,34.15705,96.68983,50.0751,71.78648,-0.612559,-1.262423,-9.175476,13.70306,-0.9035407,39.19238,0,0,0,140.8716,3.735211,-68.63037,-1.197964,-111.2317,-56.30258,0.001067912,-0.1257102,0.09433498,0,0.3,0,0,0,0,
6.38224E+17,54.44707,43.4367,34.15705,90.61049,49.78212,67.24528,-0.612559,-1.262423,-9.175476,13.70306,-0.9035407,39.19238,0,0,0,139.6924,4.687813,-68.51355,-1.197964,-111.2317,-56.30258,0.001067912,-0.1257102,0.09433498,0,0.3,0,0,0,0,
6.38224E+17,54.30571,43.62373,34.15705,87.75392,49.70887,65.56064,-0.612559,-1.262423,-9.175476,13.70306,-0.9767859,39.19238,0,0,0,139.2022,5.003398,-68.34412,-1.197964,-111.2317,-56.30258,0.001067912,-0.1257102,0.09433498,0,0.3,0,0,0,0,
6.38224E+17,53.90519,43.95102,34.13371,82.48027,49.63563,62.92381,-0.612559,-1.262423,-9.175476,13.70306,-0.9767859,39.19238,0,0,0,138.0374,5.52281,-67.71053,-1.197964,-111.2317,-56.30258,0.001067912,-0.1257102,0.09433498,0,0.3,0,0,0,0,
6.38224E+17,53.26907,44.09129,33.7368,77.4996,49.63563,60.65321,-0.612559,-1.262423,-9.175476,13.70306,-0.9767859,39.19238,0,0,0,136.1156,5.241875,-66.77825,-1.197964,-111.2317,-56.30258,0.001067912,-0.1257102,0.09433498,0,0.3,0,0,0,0,
6.38224E+17,52.86855,44.23156,33.40994,74.71628,49.63563,59.18831,-0.612559,-1.262423,-9.175476,13.70306,-0.9035407,39.19238,0,0,0,134.7156,5.055382,-66.34914,-1.197964,-111.2317,-56.30258,0.001067912,-0.1257102,0.09433498,0,0.3,0,0,0,0,
6.38224E+17,52.06751,45.11993,32.96634,68.85667,49.63563,54.7936,-0.612559,-1.262423,-9.175476,13.62981,-0.9767859,39.19238,0,0,0,131.4483,5.960488,-65.90052,-1.197964,-111.2317,-56.30258,0.001067912,-0.1257102,0.09433498,0,0.3,0,0,0,0,
6.38224E+17,51.21936,46.99019,33.08308,63.21679,48.97642,48.56776,-0.612559,-1.262423,-9.175476,13.70306,-0.9035407,39.19238,0,0,0,127.6519,9.129144,-65.78619,-1.197964,-111.2317,-56.30258,0.001067912,-0.1257102,0.09433498,0,0.3,0,0,0,0,
6.38224E+17,49.33456,50.23976,34.15705,56.33175,45.75363,40.3643,-0.612559,-1.262423,-9.175476,13.62981,-0.9035407,39.19238,0,0,0,121.4847,15.51246,-63.98407,-1.197964,-111.2317,-56.30258,0.001067912,-0.1257102,0.09433498,0,0.3,0,0,0,0,
6.38224E+17,47.80316,52.18015,35.37111,52.44975,43.04356,35.8231,-0.612559,-1.262423,-9.175476,13.62981,-0.9035407,39.19238,0,0,0,117.7642,19.95262,-61.57981,-1.197964,-111.2317,-56.30258,0.001067912,-0.1257102,0.09433498,0,0.3,0,0,0,0,
6.38224E+17,46.57804,53.44257,36.42173,49.95942,40.99269,32.96654,-0.612559,-1.262423,-9.175476,13.70306,-0.9035407,39.19238,0,0,0,115.1931,23.16219,-59.33367,-1.197964,-111.2317,-56.30258,0.001067912,-0.1257102,0.09433498,0,0.3,0,0,0,0,
6.38224E+17,43.96289,55.64013,38.21947,45.63795,37.1107,28.79156,-0.612559,-1.262423,-9.175476,13.70306,-0.9035407,39.19238,0,0,0,109.5169,28.66563,-54.7948,-1.197964,-111.2317,-56.30258,0.001067912,-0.1257102,0.09433498,0,0.3,0,0,0,0,
6.38224E+17,41.32417,57.58052,40.25069,41.75596,33.22871,25.86176,-0.612559,-1.262423,-9.175476,13.70306,-0.9035407,39.19238,0,0,0,104.101,34.1408,-49.95513,-1.197964,-111.2317,-56.30258,0.001067912,-0.1257102,0.09433498,0,0.3,0,0,0,0,
6.38224E+17,38.6619,59.49752,42.2819,38.24019,28.98049,23.37142,-0.612559,-1.262423,-9.175476,13.70306,-0.9035407,39.19238,0,0,0,98.33163,39.58717,-45.44463,-1.197964,-111.2317,-56.30258,0.001067912,-0.1257102,0.09433498,0,0.3,0,0,0,0,
6.38224E+17,36.25878,61.01711,43.77612,35.31038,24.80551,20.14863,-0.612559,-1.262423,-9.175476,13.70306,-0.9035407,39.26562,0,0,0,92.77914,43.71466,-41.85587,-1.197964,-111.2317,-56.30258,0.001067912,-0.1257102,0.09433498,0,0.3,0,0,0,0,
6.38224E+17,34.13838,61.8821,44.75671,33.18628,21.43624,17.21883,-0.612559,-1.262423,-9.175476,13.70306,-0.9035407,39.26562,0,0,0,87.96015,46.26976,-38.62069,-1.197964,-111.2317,-56.30258,0.001067912,-0.1257102,0.09433498,0,0.3,0,0,0,0,
6.38224E+17,32.93682,62.18602,45.17696,32.16084,19.82484,16.33988,-0.612559,-1.262423,-9.175476,13.62981,-0.9035407,39.19238,0,0,0,85.25702,47.29268,-36.74826,-1.197964,-111.2317,-56.30258,0.001067912,-0.1257102,0.09433498,0,0.3,0,0,0,0,
6.38224E+17,30.60439,62.4198,45.17696,30.4762,17.33451,15.90041,-0.612559,-1.262423,-9.175476,13.70306,-0.9035407,39.19238,0,0,0,79.58526,47.54558,-33.8022,-1.197964,-111.2317,-56.30258,0.001067912,-0.1257102,0.09433498,0,0.3,0,0,0,0,
6.38224E+17,27.73007,62.23278,44.10299,28.49858,15.50338,17.6583,-0.612559,-1.262423,-9.175476,13.70306,-0.9035407,39.19238,0,0,0,72.09003,45.58712,-31.21367,-1.197964,-111.2317,-56.30258,0.001067912,-0.1257102,0.09433498,0,0.3,0,0,0,0,
6.38224E+17,26.15156,62.09251,43.19244,27.03368,14.84417,18.83022,-0.612559,-1.262423,-9.175476,13.70306,-0.9035407,39.19238,0,0,0,67.73638,43.97198,-30.39718,-1.197964,-111.2317,-56.30258,0.001067912,-0.1257102,0.09433498,0,0.3,0,0,0,0,
6.38224E+17,23.46572,61.60157,40.36742,23.22493,14.18496,21.02757,-0.612559,-1.262423,-9.175476,13.70306,-0.9035407,39.19238,0,0,0,59.64656,39.05261,-30.94757,-1.197964,-111.2317,-56.30258,0.001067912,-0.1257102,0.09433498,0,0.3,0,0,0,0,
6.38224E+17,21.74584,60.57293,36.51513,19.19645,14.03847,21.97976,-0.612559,-1.262423,-9.175476,13.70306,-0.9035407,39.19238,0,0,0,53.67097,32.32204,-33.79428,-1.197964,-111.2317,-56.30258,0.001067912,-0.1257102,0.09433498,0,0.3,0,0,0,0,
6.38224E+17,20.73277,58.42213,31.02851,15.02147,14.4047,18.39075,-0.612559,-1.262423,-9.175476,13.70306,-0.9767859,39.19238,0,0,0,49.05402,22.6857,-38.75649,-1.197964,-111.2317,-56.30258,0.001067912,-0.1257102,0.09433498,0,0.3,0,0,0,0,
6.38224E+17,20.59141,57.04282,28.29689,13.1171,14.47795,14.582,-0.612559,-1.262423,-9.175476,13.70306,-0.9035407,39.19238,0,0,0,47.74601,17.82587,-41.26592,-1.197964,-111.2317,-56.30258,0.001067912,-0.1257102,0.09433498,0,0.3,0,0,0,0,
6.38224E+17,20.63853,53.32568,22.6235,9.308348,14.11172,1.471115,-0.612559,-1.262423,-9.175476,13.70306,-0.9035407,39.26562,0,0,0,46.15313,7.213439,-45.81182,-1.197964,-111.2317,-56.30258,0.001067912,-0.1257102,0.09433498,0,0.3,0,0,0,0,
6.38224E+17,20.68565,47.59802,17.39371,4.913638,13.15953,-21.60111,-0.612559,-1.262423,-9.175476,13.62981,-0.9035407,39.19238,0,0,0,45.84523,-5.432408,-46.93214,-1.197964,-111.2317,-56.30258,0.001067912,-0.1257102,0.09433498,0,0.3,0,0,0,0,
6.38224E+17,20.77989,43.81075,15.29246,1.910586,13.23278,-33.68657,-0.612559,-1.262423,-9.175476,13.70306,-0.9035407,39.19238,0,0,0,46.61791,-12.96301,-45.49759,-1.197964,-111.2317,-56.30258,0.001067912,-0.1257102,0.09433498,0,0.3,0,0,0,0,
6.38224E+17,20.80345,41.58982,14.522,0.006211365,13.67225,-38.88697,-0.612559,-1.262423,-9.175476,13.70306,-0.9035407,39.19238,0,0,0,47.29791,-17.22281,-43.85992,-1.197964,-111.2317,-56.30258,0.001067912,-0.1257102,0.09433498,0,0.3,0,0,0,0,
6.38224E+17,20.80345,37.40512,14.14844,-4.534989,15.50338,-45.84526,-0.612559,-1.262423,-9.175476,13.70306,-0.9035407,39.19238,0,0,0,49.19839,-24.95188,-38.85778,-1.197964,-111.2317,-56.30258,0.001067912,-0.1257102,0.09433498,0,0.3,0,0,0,0,
6.38224E+17,20.85056,34.17893,14.54535,-9.588906,18.28669,-49.1413,-0.612559,-1.262423,-9.175476,13.70306,-0.9035407,39.19238,0,0,0,51.18623,-30.81276,-33.95869,-1.197964,-111.2317,-56.30258,0.001067912,-0.1257102,0.09433498,0,0.3,0,0,0,0,
6.38224E+17,20.92125,32.86975,14.63874,-12.51871,19.7516,-50.38646,-0.612559,-1.262423,-9.175476,13.70306,-0.9767859,39.19238,0,0,0,52.02798,-33.29807,-32.25362,-1.197964,-111.2317,-56.30258,0.001067912,-0.1257102,0.09433498,0,0.3,0,0,0,0,
6.38224E+17,21.10972,31.28004,14.66208,-18.37833,22.46167,-54.48819,-0.612559,-1.262423,-9.175476,13.62981,-0.9767859,39.19238,0,0,0,53.20193,-36.41935,-30.54362,-1.197964,-111.2317,-56.30258,0.001067912,-0.1257102,0.09433498,0,0.3,0,0,0,0,
6.38224E+17,21.62804,30.8826,14.94225,-23.57873,23.99982,-58.07721,-0.612559,-1.262423,-9.175476,13.70306,-0.9767859,39.19238,0,0,0,54.85475,-37.04494,-30.0006,-1.197964,-111.2317,-56.30258,0.001067912,-0.1257102,0.09433498,0,0.3,0,0,0,0,
6.38224E+17,22.61756,30.90598,15.19907,-26.80152,24.36604,-59.10264,-0.612559,-1.262423,-9.175476,13.62981,-0.9767859,39.19238,0,0,0,57.44701,-36.84284,-30.46156,-1.197964,-111.2317,-56.30258,0.001067912,-0.1257102,0.09433498,0,0.3,0,0,0,0,
6.38224E+17,23.4186,30.90598,15.19907,-27.75371,24.87876,-58.58992,-0.612559,-1.262423,-9.175476,13.62981,-0.9035407,39.19238,0,0,0,59.36912,-36.84284,-31.27817,-1.197964,-111.2317,-56.30258,0.001067912,-0.1257102,0.09433498,0,0.3,0,0,0,0,
6.38224E+17,24.21964,30.90598,15.19907,-27.9002,25.53797,-57.5645,-0.612559,-1.262423,-9.175476,13.62981,-0.9767859,39.26562,0,0,0,61.27962,-36.84284,-32.12156,-1.197964,-111.2317,-56.30258,0.001067912,-0.1257102,0.09433498,0,0.3,0,0,0,0,
6.38224E+17,25.3034,30.92937,15.22242,-27.53397,26.41691,-56.02634,-0.612559,-1.262423,-9.175476,13.70306,-0.9767859,39.19238,0,0,0,63.85575,-36.78191,-33.28284,-1.197964,-111.2317,-56.30258,0.001067912,-0.1257102,0.09433498,0,0.3,0,0,0,0,
6.38224E+17,25.82172,30.92937,15.22242,-27.24099,26.85638,-55.51363,-0.612559,-1.262423,-9.175476,13.70306,-0.9035407,39.19238,0,0,0,65.07499,-36.78191,-33.86602,-1.197964,-111.2317,-56.30258,0.001067912,-0.1257102,0.09433498,0,0.3,0,0,0,0,
6.38224E+17,27.23532,30.92937,15.22242,-26.14231,27.51558,-54.85442,-0.612559,-1.262423,-9.175476,13.62981,-0.9035407,39.19238,0,0,0,68.37283,-36.78191,-35.51232,-1.197964,-111.2317,-56.30258,0.001067912,-0.1257102,0.09433498,0,0.3,0,0,0,0,
6.38224E+17,27.56516,30.92937,15.19907,-25.92258,27.51558,-54.78117,-0.612559,-1.262423,-9.175476,13.70306,-0.9767859,39.19238,0,0,0,69.11214,-36.79616,-35.95461,-1.197964,-111.2317,-56.30258,0.001067912,-0.1257102,0.09433498,0,0.3,0,0,0,0,
6.38224E+17,28.20127,30.92937,15.05899,-25.77609,27.51558,-54.78117,-0.612559,-1.262423,-9.175476,13.70306,-0.9767859,39.19238,0,0,0,70.42902,-36.88125,-37.00743,-1.197964,-111.2317,-56.30258,0.001067912,-0.1257102,0.09433498,0,0.3,0,0,0,0,
6.38224E+17,28.97875,30.92937,15.01229,-26.06907,27.2226,-54.70793,-0.612559,-1.262423,-9.175476,13.70306,-0.9035407,39.19238,0,0,0,72.1539,-36.90945,-38.067,-1.197964,-111.2317,-56.30258,0.001067912,-0.1257102,0.09433498,0,0.3,0,0,0,0,
6.38224E+17,29.47351,30.92937,15.01229,-26.21556,26.78313,-54.70793,-0.612559,-1.262423,-9.175476,13.70306,-0.9035407,39.19238,0,0,0,73.27621,-36.90945,-38.69491,-1.197964,-111.2317,-56.30258,0.001067912,-0.1257102,0.09433498,0,0.3,0,0,0,0,
6.38224E+17,31.05203,30.92937,14.98894,-26.87477,24.80551,-55.1474,-0.612559,-1.262423,-9.175476,13.62981,-0.9767859,39.19238,0,0,0,76.79292,-36.92351,-40.80761,-1.197964,-111.2317,-56.30258,0.001067912,-0.1257102,0.09433498,0,0.3,0,0,0,0,
6.38224E+17,32.13579,30.92937,14.9656,-27.24099,23.34061,-56.02634,-0.612559,-1.262423,-9.175476,13.70306,-0.9035407,39.19238,0,0,0,79.1636,-36.93755,-42.32733,-1.197964,-111.2317,-56.30258,0.001067912,-0.1257102,0.09433498,0,0.3,0,0,0,0,
6.38224E+17,34.0677,30.92937,14.9656,-27.60722,21.14326,-57.63773,-0.612559,-1.262423,-9.175476,13.70306,-0.9035407,39.19238,0,0,0,83.36707,-36.93755,-45.06772,-1.197964,-111.2317,-56.30258,0.001067912,-0.1257102,0.09433498,0,0.3,0,0,0,0,
6.38224E+17,35.1279,30.90598,14.9656,-27.53397,20.04458,-58.58992,-0.612559,-1.262423,-9.175476,13.62981,-0.9767859,39.19238,0,0,0,85.64996,-36.98423,-46.60849,-1.197964,-111.2317,-56.30258,0.001067912,-0.1257102,0.09433498,0,0.3,0,0,0,0,
6.38224E+17,37.41322,30.90598,14.9656,-26.87477,17.84722,-60.4943,-0.612559,-1.262423,-9.175476,13.70306,-0.9035407,39.19238,0,0,0,90.43637,-36.98423,-50.12067,-1.197964,-111.2317,-56.30258,0.001067912,-0.1257102,0.09433498,0,0.3,0,0,0,0,
6.38224E+17,39.91058,30.85923,14.9656,-25.77609,15.28364,-62.69165,-0.612559,-1.262423,-9.175476,13.70306,-0.9035407,39.19238,0,0,0,95.53796,-37.07763,-54.13073,-1.197964,-111.2317,-56.30258,0.001067912,-0.1257102,0.09433498,0,0.3,0,0,0,0,
6.38224E+17,41.15925,30.81247,15.01229,-25.26337,14.03847,-64.15656,-0.612559,-1.262423,-9.175476,13.70306,-0.9035407,39.19238,0,0,0,98.11012,-37.14296,-56.11877,-1.197964,-111.2317,-56.30258,0.001067912,-0.1257102,0.09433498,0,0.3,0,0,0,0,
6.38224E+17,43.68017,30.71896,15.15238,-24.0182,11.54814,-66.72014,-0.612559,-1.262423,-9.175476,13.70306,-0.9767859,39.19238,0,0,0,103.2459,-37.24513,-60.23449,-1.197964,-111.2317,-56.30258,0.001067912,-0.1257102,0.09433498,0,0.3,0,0,0,0,
6.38224E+17,46.17752,30.50856,15.4092,-22.48005,9.277537,-68.11179,-0.612559,-1.262423,-9.175476,13.62981,-0.9767859,39.19238,0,0,0,108.4547,-37.50904,-64.26402,-1.197964,-111.2317,-56.30258,0.001067912,-0.1257102,0.09433498,0,0.3,0,0,0,0,
6.38224E+17,47.92096,30.29815,15.66602,-21.30813,7.666144,-68.91749,-0.612559,-1.262423,-9.175476,13.62981,-0.9035407,39.19238,0,0,0,112.1825,-37.77128,-67.05981,-1.197964,-111.2317,-56.30258,0.001067912,-0.1257102,0.09433498,0,0.3,0,0,0,0,
6.38224E+17,49.4288,30.11112,15.94618,-20.42919,6.274486,-69.5767,-0.612559,-1.262423,-9.175476,13.62981,-0.9767859,39.19238,0,0,0,115.4519,-37.96986,-69.49634,-1.197964,-111.2317,-56.30258,0.001067912,-0.1257102,0.09433498,0,0.3,0,0,0,0,
6.38224E+17,51.24292,29.90072,16.48317,-19.62349,4.370111,-70.08942,-0.612559,-1.262423,-9.175476,13.70306,-0.9035407,39.19238,0,0,0,119.6503,-38.04493,-72.29618,-1.197964,-111.2317,-56.30258,0.001067912,-0.1257102,0.09433498,0,0.3,0,0,0,0,
6.38224E+17,52.82143,29.76045,17.0902,-19.33051,2.831963,-70.08942,-0.612559,-1.262423,-9.175476,13.70306,-0.9035407,39.19238,0,0,0,123.4579,-37.92011,-74.71311,-1.197964,-111.2317,-56.30258,0.001067912,-0.1257102,0.09433498,0,0.3,0,0,0,0,
6.38224E+17,54.61199,29.66694,17.65053,-19.477,1.66004,-69.64995,-0.612559,-1.262423,-9.175476,13.70306,-0.9035407,39.19238,0,0,0,127.426,-37.7198,-77.83315,-1.197964,-111.2317,-56.30258,0.001067912,-0.1257102,0.09433498,0,0.3,0,0,0,0,
6.38224E+17,55.31879,29.66694,17.884,-19.62349,1.440305,-69.21047,-0.612559,-1.262423,-9.175476,13.70306,-0.9767859,39.19238,0,0,0,128.9585,-37.55399,-79.11747,-1.197964,-111.2317,-56.30258,0.001067912,-0.1257102,0.09433498,0,0.3,0,0,0,0,
6.38224E+17,55.20099,29.50329,19.05137,-20.50244,1.586795,-67.01311,-0.612559,-1.262423,-9.175476,13.70306,-0.9035407,39.19238,0,0,0,131.0452,-37.02458,-77.27454,-1.197964,-111.2317,-56.30258,0.001067912,-0.1257102,0.09433498,0,0.3,0,0,0,0,
6.38224E+17,55.27167,29.45654,20.47555,-22.5533,2.246002,-64.30305,-0.612559,-1.262423,-9.175476,13.70306,-0.9035407,39.19238,0,0,0,133.7652,-35.99853,-75.62872,-1.197964,-111.2317,-56.30258,0.001067912,-0.1257102,0.09433498,0,0.3,0,0,0,0,
6.38224E+17,55.27167,29.47991,21.47948,-23.79847,2.685472,-63.35086,-0.612559,-1.262423,-9.175476,13.70306,-0.9035407,39.19238,0,0,0,135.5362,-35.11469,-74.40112,-1.197964,-111.2317,-56.30258,0.001067912,-0.1257102,0.09433498,0,0.3,0,0,0,0,
6.38224E+17,55.29523,29.47991,23.39396,-26.14231,3.271434,-61.88596,-0.612559,-1.262423,-9.175476,13.70306,-0.9035407,39.19238,0,0,0,138.9604,-33.41417,-72.11213,-1.197964,-111.2317,-56.30258,0.001067912,-0.1257102,0.09433498,0,0.3,0,0,0,0,
6.38224E+17,55.29523,29.50329,25.1917,-27.82695,3.857395,-61.29999,-0.612559,-1.262423,-9.175476,13.62981,-0.9035407,39.19238,0,0,0,142.0734,-31.64556,-69.95622,-1.197964,-111.2317,-56.30258,0.001067912,-0.1257102,0.09433498,0,0.3,0,0,0,0,
6.38224E+17,55.29523,29.64356,27.08283,-28.7059,4.516602,-61.08026,-0.612559,-1.262423,-9.175476,13.70306,-0.9035407,39.26562,0,0,0,145.1891,-29.4228,-67.79838,-1.197964,-111.2317,-56.30258,0.001067912,-0.1257102,0.09433498,0,0.3,0,0,0,0,
6.38224E+17,55.29523,29.78383,27.99337,-28.7059,4.809582,-61.00701,-0.612559,-1.262423,-9.175476,13.70306,-0.9035407,39.19238,0,0,0,146.6009,-28.15948,-66.82066,-1.197964,-111.2317,-56.30258,0.001067912,-0.1257102,0.09433498,0,0.3,0,0,0,0,
6.38224E+17,55.29523,30.11112,30.16467,-27.82695,4.956073,-61.00701,-0.612559,-1.262423,-9.175476,13.70306,-0.9035407,39.19238,0,0,0,149.9188,-25.04353,-64.5228,-1.197964,-111.2317,-56.30258,0.001067912,-0.1257102,0.09433498,0,0.3,0,0,0,0,
6.38224E+17,55.29523,30.39166,32.42935,-26.28881,4.809582,-61.00701,-0.612559,-1.262423,-9.175476,13.70306,-0.9035407,39.19238,0,0,0,153.3508,-21.74164,-62.146,-1.197964,-111.2317,-56.30258,0.001067912,-0.1257102,0.09433498,0,0.3,0,0,0,0,
6.38224E+17,55.29523,30.50856,33.80684,-25.19013,4.736337,-61.00701,-0.612559,-1.262423,-9.175476,13.70306,-0.9767859,39.19238,0,0,0,155.4448,-19.75553,-60.69575,-1.197964,-111.2317,-56.30258,0.001067912,-0.1257102,0.09433498,0,0.3,0,0,0,0,
6.38224E+17,55.27167,30.74234,36.79529,-22.62654,4.516602,-61.1535,-0.612559,-1.262423,-9.175476,13.70306,-0.9767859,39.19238,0,0,0,159.8374,-15.26849,-57.55634,-1.197964,-111.2317,-56.30258,0.001067912,-0.1257102,0.09433498,0,0.3,0,0,0,0,
6.38224E+17,55.27167,30.85923,40.13395,-19.18402,4.150376,-61.59297,-0.612559,-1.262423,-9.175476,13.70306,-0.9035407,39.19238,0,0,0,164.7226,-10.20207,-54.17014,-1.197964,-111.2317,-56.30258,0.001067912,-0.1257102,0.09433498,0,0.3,0,0,0,0,
6.38224E+17,55.27167,30.95274,44.05629,-15.52176,3.344679,-62.25218,-0.612559,-1.262423,-9.175476,13.62981,-0.9035407,39.19238,0,0,0,170.1968,-3.896885,-50.37558,-1.197964,-111.2317,-56.30258,0.001067912,-0.1257102,0.09433498,0,0.3,0,0,0,0,
6.38224E+17,55.27167,30.97612,48.42223,-11.34679,2.172756,-62.98463,-0.612559,-1.262423,-9.175476,13.62981,-0.9767859,39.19238,0,0,0,175.9485,3.486814,-46.38872,-1.197964,-111.2317,-56.30258,0.001067912,-0.1257102,0.09433498,0,0.3,0,0,0,0,
6.38224E+17,55.24811,30.9995,50.75696,-9.22268,1.293814,-63.49735,-0.612559,-1.262423,-9.175476,13.62981,-0.9035407,39.19238,0,0,0,178.7693,7.670606,-44.32457,-1.197964,-111.2317,-56.30258,0.001067912,-0.1257102,0.09433498,0,0.3,0,0,0,0,
6.38224E+17,55.24811,30.9995,55.89336,-4.461744,-0.9035407,-65.32848,-0.612559,-1.262423,-9.175476,13.62981,-0.9035407,39.19238,0,0,0,184.6338,17.25531,-40.25592,-1.197964,-111.2317,-56.30258,0.001067912,-0.1257102,0.09433498,0,0.3,0,0,0,0,
6.38224E+17,55.24811,30.9995,61.59008,1.104889,-3.906592,-67.59908,-0.612559,-1.262423,-9.175476,13.70306,-0.9035407,39.19238,0,0,0,190.2842,28.58454,-36.33587,-1.197964,-111.2317,-56.30258,0.001067912,-0.1257102,0.09433498,0,0.3,0,0,0,0,
6.38224E+17,55.22455,30.9995,64.74197,4.327676,-5.737722,-69.13722,-0.612559,-1.262423,-9.175476,13.70306,-0.9035407,39.19238,0,0,0,192.9495,35.12947,-34.3692,-1.197964,-111.2317,-56.30258,0.001067912,-0.1257102,0.09433498,0,0.3,0,0,0,0,
6.38224E+17,55.13031,30.9995,70.88229,11.35921,-9.473226,-73.23896,-0.612559,-1.262423,-9.175476,13.70306,-0.9767859,39.19238,0,0,0,197.1546,48.35589,-30.96801,-1.197964,-111.2317,-56.30258,0.001067912,-0.1257102,0.09433498,0,0.3,0,0,0,0,
6.38224E+17,54.65911,30.9995,76.81251,19.34294,-13.50171,-78.58585,-0.612559,-1.262423,-9.175476,13.70306,-0.9035407,39.19238,0,0,0,199.1488,61.60707,-27.13126,-1.197964,-111.2317,-56.30258,0.001067912,-0.1257102,0.09433498,0,0.3,0,0,0,0,
6.38224E+17,54.21147,31.04625,79.00715,23.22493,-15.03986,-81.14944,-0.612559,-1.262423,-9.175476,13.70306,-0.9767859,39.19238,0,0,0,198.8618,66.69453,-24.98689,-1.197964,-111.2317,-56.30258,0.001067912,-0.1257102,0.09433498,0,0.3,0,0,0,0,
6.38224E+17,52.82143,31.23328,82.34581,30.25646,-17.67669,-85.4709,-0.612559,-1.262423,-9.175476,13.70306,-0.9767859,39.19238,0,0,0,196.149,74.73373,-19.58041,-1.197964,-111.2317,-56.30258,0.001067912,-0.1257102,0.09433498,0,0.3,0,0,0,0,
6.38224E+17,51.14867,31.72422,84.14355,34.94416,-19.21483,-87.37527,-0.612559,-1.262423,-9.175476,13.62981,-0.9767859,39.19238,0,0,0,191.6413,79.86303,-13.98358,-1.197964,-111.2317,-56.30258,0.001067912,-0.1257102,0.09433498,0,0.3,0,0,0,0,
6.38224E+17,50.27696,32.16841,84.5638,36.55555,-19.6543,-87.81474,-0.612559,-1.262423,-9.175476,13.62981,-0.9767859,39.19238,0,0,0,188.9239,81.71359,-11.37394,-1.197964,-111.2317,-56.30258,0.001067912,-0.1257102,0.09433498,0,0.3,0,0,0,0,
6.38224E+17,48.76912,32.96326,85.10078,38.45993,-19.80079,-88.10773,-0.612559,-1.262423,-9.175476,13.62981,-0.9767859,39.19238,0,0,0,184.0637,84.51737,-7.03912,-1.197964,-111.2317,-56.30258,0.001067912,-0.1257102,0.09433498,0,0.3,0,0,0,0,
6.38224E+17,47.47332,33.68799,85.38095,39.70509,-18.77536,-88.18098,-0.612559,-1.262423,-9.175476,13.70306,-0.9767859,39.19238,0,0,0,179.7257,86.57653,-3.507756,-1.197964,-111.2317,-56.30258,0.001067912,-0.1257102,0.09433498,0,0.3,0,0,0,0,
6.38224E+17,46.05972,34.45947,85.75451,40.95026,-16.7245,-88.25421,-0.612559,-1.262423,-9.175476,13.70306,-0.9035407,39.19238,0,0,0,174.9284,88.93061,0.2243845,-1.197964,-111.2317,-56.30258,0.001067912,-0.1257102,0.09433498,0,0.3,0,0,0,0,
6.38224E+17,45.28225,34.92704,85.91794,41.75596,-15.77231,-88.32746,-0.612559,-1.262423,-9.175476,13.70306,-0.9035407,39.19238,0,0,0,172.2044,90.2047,2.166116,-1.197964,-111.2317,-56.30258,0.001067912,-0.1257102,0.09433498,0,0.3,0,0,0,0,
6.38224E+17,43.35033,36.16608,86.12807,43.07437,-14.08767,-88.47395,-0.612559,-1.262423,-9.175476,13.62981,-0.9767859,39.19238,0,0,0,165.2306,93.03887,6.680116,-1.197964,-111.2317,-56.30258,0.001067912,-0.1257102,0.09433498,0,0.3,0,0,0,0,
6.38224E+17,41.20637,37.61553,86.1981,44.0998,-13.42846,-88.5472,-0.612559,-1.262423,-9.175476,13.70306,-0.9035407,39.19238,0,0,0,157.2401,95.89946,11.22365,-1.197964,-111.2317,-56.30258,0.001067912,-0.1257102,0.09433498,0,0.3,0,0,0,0,
6.38224E+17,40.14618,38.2935,86.1981,44.46603,-13.42846,-88.47395,-0.612559,-1.262423,-9.175476,13.70306,-0.9035407,39.26562,0,0,0,153.2649,97.14363,13.36048,-1.197964,-111.2317,-56.30258,0.001067912,-0.1257102,0.09433498,0,0.3,0,0,0,0,
6.38224E+17,38.0729,39.60268,86.1981,44.97874,-13.50171,-87.00905,-0.612559,-1.262423,-9.175476,13.70306,-0.9035407,39.26562,0,0,0,145.4096,99.51326,17.27848,-1.197964,-111.2317,-56.30258,0.001067912,-0.1257102,0.09433498,0,0.3,0,0,0,0,
6.38224E+17,35.78758,41.0755,86.1981,45.34497,-13.72145,-84.51871,-0.612559,-1.262423,-9.175476,13.62981,-0.9767859,39.19238,0,0,0,136.5943,102.126,21.12926,-1.197964,-111.2317,-56.30258,0.001067912,-0.1257102,0.09433498,0,0.3,0,0,0,0,
6.38224E+17,33.2431,42.73536,86.1981,46.00418,-14.01443,-82.17487,-0.612559,-1.262423,-9.175476,13.62981,-0.9035407,39.19238,0,0,0,126.6333,105.001,24.84866,-1.197964,-111.2317,-56.30258,0.001067912,-0.1257102,0.09433498,0,0.3,0,0,0,0,
6.38224E+17,32.41851,43.27305,86.17476,46.3704,-14.16092,-81.7354,-0.612559,-1.262423,-9.175476,13.62981,-0.9767859,39.19238,0,0,0,123.3803,105.862,25.92752,-1.197964,-111.2317,-56.30258,0.001067912,-0.1257102,0.09433498,0,0.3,0,0,0,0,
6.38224E+17,30.10963,44.88615,85.82455,47.24934,-14.60039,-80.63672,-0.612559,-1.262423,-9.175476,13.62981,-0.9767859,39.19238,0,0,0,114.1147,107.7458,28.43194,-1.197964,-111.2317,-56.30258,0.001067912,-0.1257102,0.09433498,0,0.3,0,0,0,0,
6.38224E+17,28.01279,46.59276,84.05016,47.90855,-15.03986,-79.02532,-0.612559,-1.262423,-9.175476,13.70306,-0.9767859,39.19238,0,0,0,105.3312,106.4044,29.6425,-1.197964,-111.2317,-56.30258,0.001067912,-0.1257102,0.09433498,0,0.3,0,0,0,0,
6.38224E+17,26.26936,48.41626,79.49744,47.46908,-14.96661,-75.28983,-0.612559,-1.262423,-9.175476,13.70306,-0.9767859,39.19238,0,0,0,97.20296,98.78703,28.59035,-1.197964,-111.2317,-56.30258,0.001067912,-0.1257102,0.09433498,0,0.3,0,0,0,0,
6.38224E+17,25.49188,49.2345,76.15878,46.5169,-14.52714,-72.06703,-0.612559,-1.262423,-9.175476,13.70306,-0.9767859,39.19238,0,0,0,93.19977,92.44614,27.11868,-1.197964,-111.2317,-56.30258,0.001067912,-0.1257102,0.09433498,0,0.3,0,0,0,0,
6.38224E+17,23.74844,50.00598,67.75376,42.70815,-12.1833,-63.35086,-0.612559,-1.262423,-9.175476,13.62981,-0.9767859,39.19238,0,0,0,84.22089,75.02628,23.07066,-1.197964,-111.2317,-56.30258,0.001067912,-0.1257102,0.09433498,0,0.3,0,0,0,0,
6.38224E+17,21.81652,49.60855,58.53159,37.43449,-7.27587,-53.75574,-0.612559,-1.262423,-9.175476,13.70306,-0.9035407,39.26562,0,0,0,74.38272,55.30155,17.46463,-1.197964,-111.2317,-56.30258,0.001067912,-0.1257102,0.09433498,0,0.3,0,0,0,0,
6.38224E+17,20.73277,49.14098,53.55863,34.3582,-4.053083,-48.92156,-0.612559,-1.262423,-9.175476,13.62981,-0.9767859,39.26562,0,0,0,68.85949,44.99559,13.56666,-1.197964,-111.2317,-56.30258,0.001067912,-0.1257102,0.09433498,0,0.3,0,0,0,0,
6.38224E+17,18.28253,47.48113,42.98232,27.39991,4.003886,-40.20539,-0.612559,-1.262423,-9.175476,13.62981,-0.9767859,39.19238,0,0,0,56.79175,24.08218,3.548184,-1.197964,-111.2317,-56.30258,0.001067912,-0.1257102,0.09433498,0,0.3,0,0,0,0,
6.38224E+17,16.86893,45.61087,36.23495,22.78546,9.497273,-36.68962,-0.612559,-1.262423,-9.175476,13.62981,-0.9767859,39.19238,0,0,0,49.94198,11.08255,-3.650565,-1.197964,-111.2317,-56.30258,0.001067912,-0.1257102,0.09433498,0,0.3,0,0,0,0,
6.38224E+17,15.33753,42.31455,28.81053,17.21883,15.8696,-34.49226,-0.612559,-1.262423,-9.175476,13.70306,-0.9767859,39.19238,0,0,0,43.08,-3.722434,-11.2804,-1.197964,-111.2317,-56.30258,0.001067912,-0.1257102,0.09433498,0,0.3,0,0,0,0,
6.38224E+17,14.6543,40.37416,25.93881,14.582,18.9459,-34.56551,-0.612559,-1.262423,-9.175476,13.70306,-0.9035407,39.19238,0,0,0,40.45728,-10.18557,-13.63331,-1.197964,-111.2317,-56.30258,0.001067912,-0.1257102,0.09433498,0,0.3,0,0,0,0,
6.38224E+17,13.90038,36.49338,22.29664,10.18729,24.58578,-36.25014,-0.612559,-1.262423,-9.175476,13.70306,-0.9035407,39.19238,0,0,0,37.90821,-20.72246,-15.17437,-1.197964,-111.2317,-56.30258,0.001067912,-0.1257102,0.09433498,0,0.3,0,0,0,0,
6.38224E+17,13.85326,32.61259,19.82183,7.330729,29.12698,-39.10671,-0.612559,-1.262423,-9.175476,13.70306,-0.9767859,39.19238,0,0,0,37.72165,-30.22946,-15.38888,-1.197964,-111.2317,-56.30258,0.001067912,-0.1257102,0.09433498,0,0.3,0,0,0,0,
6.38224E+17,13.8297,28.6383,17.62719,5.353109,33.22871,-44.45361,-0.612559,-1.262423,-9.175476,13.70306,-0.9767859,39.19238,0,0,0,37.62861,-39.82702,-15.49579,-1.197964,-111.2317,-56.30258,0.001067912,-0.1257102,0.09433498,0,0.3,0,0,0,0,
6.38224E+17,13.68834,25.10819,15.92284,3.888205,36.305,-52.95005,-0.612559,-1.262423,-9.175476,13.70306,-0.9767859,39.19238,0,0,0,37.23136,-48.29938,-15.4856,-1.197964,-111.2317,-56.30258,0.001067912,-0.1257102,0.09433498,0,0.3,0,0,0,0,
6.38224E+17,13.42918,23.65874,15.17572,3.228999,37.76991,-59.17588,-0.612559,-1.262423,-9.175476,13.62981,-0.9767859,39.19238,0,0,0,36.47393,-51.83796,-15.59355,-1.197964,-111.2317,-56.30258,0.001067912,-0.1257102,0.09433498,0,0.3,0,0,0,0,
6.38224E+17,12.15694,21.76511,13.37798,1.983831,40.33349,-77.63367,-0.612559,-1.262423,-9.175476,13.62981,-0.9767859,39.19238,0,0,0,32.57776,-56.93504,-17.12172,-1.197964,-111.2317,-56.30258,0.001067912,-0.1257102,0.09433498,0,0.3,0,0,0,0,
6.38224E+17,10.13078,21.20403,11.90711,0.1527017,42.67733,-109.5686,-0.612559,-1.262423,-9.175476,13.70306,-0.9035407,39.19238,0,0,0,26.7072,-58.89938,-18.8818,-1.197964,-111.2317,-56.30258,0.001067912,-0.1257102,0.09433498,0,0.3,0,0,0,0,
6.38224E+17,8.952785,21.25079,11.62694,-1.019221,43.70277,-126.6347,-0.612559,-1.262423,-9.175476,13.70306,-0.9035407,39.19238,0,0,0,23.52324,-58.93092,-19.03383,-1.197964,-111.2317,-56.30258,0.001067912,-0.1257102,0.09433498,0,0.3,0,0,0,0,
6.38224E+17,6.643909,21.76511,11.65029,-3.949028,45.24092,-140.1118,-0.612559,-1.262423,-9.175476,13.70306,-0.9767859,39.19238,0,0,0,17.44409,-57.80629,-18.59043,-1.197964,-111.2317,-56.30258,0.001067912,-0.1257102,0.09433498,0,0.3,0,0,0,0,
6.38224E+17,4.594193,23.12104,11.65029,-6.366118,46.1931,-141.9429,-0.612559,-1.262423,-9.175476,13.62981,-0.9035407,39.19238,0,0,0,11.98003,-54.88958,-19.26321,-1.197964,-111.2317,-56.30258,0.001067912,-0.1257102,0.09433498,0,0.3,0,0,0,0,
6.38224E+17,3.651794,24.26657,11.65029,-7.391551,46.41284,-142.1627,-0.612559,-1.262423,-9.175476,13.62981,-0.9767859,39.19238,0,0,0,9.458109,-52.44825,-20.15552,-1.197964,-111.2317,-56.30258,0.001067912,-0.1257102,0.09433498,0,0.3,0,0,0,0,
6.38224E+17,1.931917,27.79668,11.9538,-9.002944,45.60714,-142.2359,-0.612559,-1.262423,-9.175476,13.70306,-0.9767859,39.26562,0,0,0,4.907859,-44.92247,-22.85044,-1.197964,-111.2317,-56.30258,0.001067912,-0.1257102,0.09433498,0,0.3,0,0,0,0,
6.38224E+17,0.2827196,32.7061,12.95773,-9.955132,43.33654,-142.1627,-0.612559,-1.262423,-9.175476,13.70306,-0.9035407,39.26562,0,0,0,0.7012187,-34.55134,-26.24258,-1.197964,-111.2317,-56.30258,0.001067912,-0.1257102,0.09433498,0,0.3,0,0,0,0,
6.38224E+17,-1.743437,40.79496,16.29639,-10.61434,38.64885,-141.6499,-0.612559,-1.262423,-9.175476,13.62981,-0.9767859,39.19238,0,0,0,-4.209826,-17.51763,-30.04226,-1.197964,-111.2317,-56.30258,0.001067912,-0.1257102,0.09433498,0,0.3,0,0,0,0,
6.38224E+17,-2.803635,45.96155,19.28484,-10.76083,35.05984,-138.0609,-0.612559,-1.262423,-9.175476,13.70306,-0.9035407,39.19238,0,0,0,-6.688278,-6.65574,-31.77583,-1.197964,-111.2317,-56.30258,0.001067912,-0.1257102,0.09433498,0,0.3,0,0,0,0,
6.38224E+17,-3.533994,49.6553,21.80634,-10.68758,31.98354,-134.2522,-0.612559,-1.262423,-9.175476,13.62981,-0.9035407,39.19238,0,0,0,-8.374778,1.176408,-32.74401,-1.197964,-111.2317,-56.30258,0.001067912,-0.1257102,0.09433498,0,0.3,0,0,0,0,
6.38224E+17,-5.112512,56.71552,27.47973,-10.46785,25.17174,-127.8066,-0.612559,-1.262423,-9.175476,13.70306,-0.9035407,39.19238,0,0,0,-12.00464,16.52007,-34.17162,-1.197964,-111.2317,-56.30258,0.001067912,-0.1257102,0.09433498,0,0.3,0,0,0,0,
6.38224E+17,-6.997309,63.30818,34.06366,-10.83407,16.89503,-121.654,-0.612559,-1.262423,-9.175476,13.70306,-0.9767859,39.19238,0,0,0,-16.39622,32.02038,-34.7616,-1.197964,-111.2317,-56.30258,0.001067912,-0.1257102,0.09433498,0,0.3,0,0,0,0,
6.38224E+17,-9.306185,68.33449,40.29738,-11.78626,8.252106,-116.7466,-0.612559,-1.262423,-9.175476,13.70306,-0.9035407,39.19238,0,0,0,-21.90786,45.57372,-34.65719,-1.197964,-111.2317,-56.30258,0.001067912,-0.1257102,0.09433498,0,0.3,0,0,0,0,
6.38224E+17,-10.79046,70.32163,43.40257,-12.88494,3.417924,-114.1098,-0.612559,-1.262423,-9.175476,13.62981,-0.9767859,39.19238,0,0,0,-25.56116,52.02744,-34.23239,-1.197964,-111.2317,-56.30258,0.001067912,-0.1257102,0.09433498,0,0.3,0,0,0,0,
6.38224E+17,-13.7119,72.56595,48.39888,-16.40071,-5.078516,-108.9826,-0.612559,-1.262423,-9.175476,13.70306,-0.9767859,39.19238,0,0,0,-33.10733,62.03772,-32.66074,-1.197964,-111.2317,-56.30258,0.001067912,-0.1257102,0.09433498,0,0.3,0,0,0,0,
6.38224E+17,-16.79825,72.98676,52.39126,-21.38138,-12.25654,-101.9511,-0.612559,-1.262423,-9.175476,13.70306,-0.9767859,39.19238,0,0,0,-41.80615,69.48525,-29.86607,-1.197964,-111.2317,-56.30258,0.001067912,-0.1257102,0.09433498,0,0.3,0,0,0,0,
6.38224E+17,-18.42389,72.77635,54.21235,-24.60417,-15.40608,-97.70284,-0.612559,-1.262423,-9.175476,13.70306,-0.9035407,39.26562,0,0,0,-46.66634,72.73929,-28.26085,-1.197964,-111.2317,-56.30258,0.001067912,-0.1257102,0.09433498,0,0.3,0,0,0,0,
6.38224E+17,-21.15685,71.74771,56.29026,-30.61027,-19.36132,-90.67131,-0.612559,-1.262423,-9.175476,13.70306,-0.9767859,39.19238,0,0,0,-55.11065,75.98334,-25.94823,-1.197964,-111.2317,-56.30258,0.001067912,-0.1257102,0.09433498,0,0.3,0,0,0,0,
6.38224E+17,-24.19608,69.48002,56.24356,-36.90935,-21.63192,-84.29898,-0.612559,-1.262423,-9.175476,13.62981,-0.9035407,39.19238,0,0,0,-64.59889,74.1412,-24.58463,-1.197964,-111.2317,-56.30258,0.001067912,-0.1257102,0.09433498,0,0.3,0,0,0,0,
6.38224E+17,-25.8924,68.05395,55.68323,-39.61942,-21.77841,-82.24812,-0.612559,-1.262423,-9.175476,13.70306,-0.9035407,39.19238,0,0,0,-69.85851,71.85851,-24.43347,-1.197964,-111.2317,-56.30258,0.001067912,-0.1257102,0.09433498,0,0.3,0,0,0,0,
6.38224E+17,-29.49707,64.40695,54.04892,-44.81983,-20.67974,-80.34374,-0.612559,-1.262423,-9.175476,13.70306,-0.9767859,39.19238,0,0,0,-81.515,65.32733,-24.25553,-1.197964,-111.2317,-56.30258,0.001067912,-0.1257102,0.09433498,0,0.3,0,0,0,0,
6.38224E+17,-33.03107,59.94172,51.52742,-49.50752,-17.60344,-79.68453,-0.612559,-1.262423,-9.175476,13.70306,-0.9767859,39.19238,0,0,0,-93.31619,55.80422,-24.82608,-1.197964,-111.2317,-56.30258,0.001067912,-0.1257102,0.09433498,0,0.3,0,0,0,0,
6.38224E+17,-34.53891,57.46363,49.84641,-51.4119,-15.69907,-79.97752,-0.612559,-1.262423,-9.175476,13.70306,-0.9767859,39.19238,0,0,0,-98.44916,49.78149,-25.31374,-1.197964,-111.2317,-56.30258,0.001067912,-0.1257102,0.09433498,0,0.3,0,0,0,0,
6.38224E+17,-37.29542,50.96449,45.36374,-54.63469,-10.49866,-83.49328,-0.612559,-1.262423,-9.175476,13.70306,-0.9767859,39.19238,0,0,0,-108.3839,33.23819,-26.05221,-1.197964,-111.2317,-56.30258,0.001067912,-0.1257102,0.09433498,0,0.3,0,0,0,0,
6.38224E+17,-39.22733,43.99778,40.81102,-56.6123,-4.419309,-88.62045,-0.612559,-1.262423,-9.175476,13.70306,-0.9035407,39.19238,0,0,0,-115.78,15.05044,-26.52791,-1.197964,-111.2317,-56.30258,0.001067912,-0.1257102,0.09433498,0,0.3,0,0,0,0,
6.38224E+17,-40.42889,36.82067,36.53847,-57.63773,2.099511,-94.99277,-0.612559,-1.262423,-9.175476,13.62981,-0.9767859,39.19238,0,0,0,-120.7127,-3.872717,-26.6579,-1.197964,-111.2317,-56.30258,0.001067912,-0.1257102,0.09433498,0,0.3,0,0,0,0,
6.38224E+17,-40.73517,33.40745,34.624,-57.93071,5.249053,-98.87477,-0.612559,-1.262423,-9.175476,13.70306,-0.9035407,39.26562,0,0,0,-122.0851,-12.96243,-26.5891,-1.197964,-111.2317,-56.30258,0.001067912,-0.1257102,0.09433498,0,0.3,0,0,0,0,
6.38224E+17,-40.75874,26.65115,31.09856,-58.37019,11.62138,-108.6164,-0.612559,-1.262423,-9.175476,13.62981,-0.9035407,39.19238,0,0,0,-122.779,-31.01985,-25.90183,-1.197964,-111.2317,-56.30258,0.001067912,-0.1257102,0.09433498,0,0.3,0,0,0,0,
6.38224E+17,-40.40533,20.52606,28.39028,-58.37019,17.40775,-118.065,-0.612559,-1.262423,-9.175476,13.70306,-0.9767859,39.19238,0,0,0,-122.0469,-47.20494,-24.97241,-1.197964,-111.2317,-56.30258,0.001067912,-0.1257102,0.09433498,0,0.3,0,0,0,0,
6.38224E+17,-40.16973,17.97784,27.19957,-58.37019,19.7516,-123.4119,-0.612559,-1.262423,-9.175476,13.70306,-0.9035407,39.19238,0,0,0,-121.1363,-54.09578,-24.85088,-1.197964,-111.2317,-56.30258,0.001067912,-0.1257102,0.09433498,0,0.3,0,0,0,0,
6.38224E+17,-39.29802,13.55936,24.3512,-58.80966,23.99982,-139.5991,-0.612559,-1.262423,-9.175476,13.70306,-0.9035407,39.19238,0,0,0,-116.9281,-66.87229,-25.48171,-1.197964,-111.2317,-56.30258,0.001067912,-0.1257102,0.09433498,0,0.3,0,0,0,0,
6.38224E+17,-37.4839,10.82411,20.80241,-59.83509,26.5634,-142.0162,-0.612559,-1.262423,-9.175476,13.70306,-0.9767859,39.19238,0,0,0,-108.5245,-76.2646,-26.83584,-1.197964,-111.2317,-56.30258,0.001067912,-0.1257102,0.09433498,0,0.3,0,0,0,0,
6.38224E+17,-36.3059,9.88898,18.98133,-60.27456,27.51558,-142.0162,-0.612559,-1.262423,-9.175476,13.70306,-0.9035407,39.19238,0,0,0,-103.4642,-79.84756,-27.53101,-1.197964,-111.2317,-56.30258,0.001067912,-0.1257102,0.09433498,0,0.3,0,0,0,0,
6.38224E+17,-33.05463,8.486288,14.9189,-60.78728,29.4932,-142.0894,-0.612559,-1.262423,-9.175476,13.70306,-0.9767859,39.19238,0,0,0,-90.66339,-85.82611,-29.03159,-1.197964,-111.2317,-56.30258,0.001067912,-0.1257102,0.09433498,0,0.3,0,0,0,0,
6.38224E+17,-28.31907,7.738185,11.30008,-58.8829,31.76381,-142.0894,-0.612559,-1.262423,-9.175476,13.70306,-0.9767859,39.26562,0,0,0,-75.07808,-89.45981,-29.026,-1.197964,-111.2317,-56.30258,0.001067912,-0.1257102,0.09433498,0,0.3,0,0,0,0,
6.38224E+17,-25.84528,7.714807,10.03932,-57.19827,33.22871,-142.0894,-0.612559,-1.262423,-9.175476,13.70306,-0.9767859,39.19238,0,0,0,-67.7407,-90.05698,-28.50377,-1.197964,-111.2317,-56.30258,0.001067912,-0.1257102,0.09433498,0,0.3,0,0,0,0,
6.38224E+17,-20.09665,8.299262,8.405016,-52.73031,36.96421,-142.0894,-0.612559,-1.262423,-9.175476,13.70306,-0.9767859,39.19238,0,0,0,-52.0373,-89.31956,-26.12561,-1.197964,-111.2317,-56.30258,0.001067912,-0.1257102,0.09433498,0,0.3,0,0,0,0,
6.38224E+17,-14.3009,10.00587,7.331042,-47.01719,41.35892,-142.0894,-0.612559,-1.262423,-9.175476,13.62981,-0.9035407,39.19238,0,0,0,-36.64146,-85.74049,-24.60924,-1.197964,-111.2317,-56.30258,0.001067912,-0.1257102,0.09433498,0,0.3,0,0,0,0,
6.38224E+17,-7.303588,13.39571,6.140331,-38.81373,45.68039,-142.0894,-0.612559,-1.262423,-9.175476,13.70306,-0.9035407,39.19238,0,0,0,-18.30442,-78.34109,-25.53261,-1.197964,-111.2317,-56.30258,0.001067912,-0.1257102,0.09433498,0,0.3,0,0,0,0,
6.38224E+17,-2.638716,16.69204,5.766775,-32.73438,47.8045,-141.8697,-0.612559,-1.262423,-9.175476,13.70306,-0.9035407,39.19238,0,0,0,-6.497337,-71.02336,-27.36976,-1.197964,-111.2317,-56.30258,0.001067912,-0.1257102,0.09433498,0,0.3,0,0,0,0,
6.38224E+17,0.1649197,19.05324,5.72008,-28.7059,48.6102,-141.7964,-0.612559,-1.262423,-9.175476,13.70306,-0.9767859,39.19238,0,0,0,0.4010611,-65.80437,-29.01528,-1.197964,-111.2317,-56.30258,0.001067912,-0.1257102,0.09433498,0,0.3,0,0,0,0,
6.38224E+17,5.371671,24.33671,6.070289,-20.13621,49.04966,-138.3539,-0.612559,-1.262423,-9.175476,13.70306,-0.9035407,39.19238,0,0,0,12.69452,-54.299,-33.34352,-1.197964,-111.2317,-56.30258,0.001067912,-0.1257102,0.09433498,0,0.3,0,0,0,0,
6.38224E+17,10.0601,29.59681,7.214305,-12.15249,47.65801,-134.7649,-0.612559,-1.262423,-9.175476,13.70306,-0.9035407,39.19238,0,0,0,23.17967,-43.08364,-37.69317,-1.197964,-111.2317,-56.30258,0.001067912,-0.1257102,0.09433498,0,0.3,0,0,0,0,
6.38224E+17,12.27474,32.05152,8.03146,-8.490229,46.33959,-134.6917,-0.612559,-1.262423,-9.175476,13.70306,-0.9767859,39.19238,0,0,0,27.98977,-37.92565,-39.70484,-1.197964,-111.2317,-56.30258,0.001067912,-0.1257102,0.09433498,0,0.3,0,0,0,0,
6.38224E+17,16.23281,36.09594,9.829199,-3.363066,43.48303,-134.7649,-0.612559,-1.262423,-9.175476,13.70306,-0.9767859,39.19238,0,0,0,36.48441,-29.48085,-43.03775,-1.197964,-111.2317,-56.30258,0.001067912,-0.1257102,0.09433498,0,0.3,0,0,0,0,
6.38224E+17,20.49717,39.5793,12.25731,-0.2867693,40.47998,-137.182,-0.612559,-1.262423,-9.175476,13.70306,-0.9035407,39.19238,0,0,0,45.90232,-21.9968,-45.56015,-1.197964,-111.2317,-56.30258,0.001067912,-0.1257102,0.09433498,0,0.3,0,0,0,0,
6.38224E+17,25.93952,42.33792,15.12903,1.397869,37.33044,-140.771,-0.612559,-1.262423,-9.175476,13.70306,-0.9767859,39.19238,0,0,0,58.34068,-15.56667,-48.4127,-1.197964,-111.2317,-56.30258,0.001067912,-0.1257102,0.09433498,0,0.3,0,0,0,0,
6.38224E+17,30.65151,43.67049,17.37037,3.009263,34.98659,-141.7964,-0.612559,-1.262423,-9.175476,13.70306,-0.9035407,39.26562,0,0,0,69.47065,-11.83906,-51.1222,-1.197964,-111.2317,-56.30258,0.001067912,-0.1257102,0.09433498,0,0.3,0,0,0,0,
6.38224E+17,36.23522,44.5121,20.40551,6.012315,32.27652,-142.0162,-0.612559,-1.262423,-9.175476,13.70306,-0.9035407,39.19238,0,0,0,83.69189,-8.14575,-54.14689,-1.197964,-111.2317,-56.30258,0.001067912,-0.1257102,0.09433498,0,0.3,0,0,0,0,
6.38224E+17,43.18541,44.60561,25.70534,12.16491,28.61426,-142.0162,-0.612559,-1.262423,-9.175476,13.62981,-0.9035407,39.19238,0,0,0,104.5562,-3.161823,-56.95217,-1.197964,-111.2317,-56.30258,0.001067912,-0.1257102,0.09433498,0,0.3,0,0,0,0,
6.38224E+17,45.89481,44.46534,28.43697,15.3877,27.14936,-142.0894,-0.612559,-1.262423,-9.175476,13.70306,-0.9035407,39.19238,0,0,0,113.9341,-0.5014877,-57.92014,-1.197964,-111.2317,-56.30258,0.001067912,-0.1257102,0.09433498,0,0.3,0,0,0,0,
6.38224E+17,52.23243,43.38995,36.84199,25.935,22.75465,-142.0894,-0.612559,-1.262423,-9.175476,13.62981,-0.9035407,39.19238,0,0,0,139.8104,8.237149,-60.02865,-1.197964,-111.2317,-56.30258,0.001067912,-0.1257102,0.09433498,0,0.3,0,0,0,0,
6.38224E+17,53.43399,42.71198,38.84985,28.42534,21.58273,-142.0894,-0.612559,-1.262423,-9.175476,13.70306,-0.9035407,39.19238,0,0,0,145.8799,9.951097,-60.14423,-1.197964,-111.2317,-56.30258,0.001067912,-0.1257102,0.09433498,0,0.3,0,0,0,0,
6.38224E+17,55.29523,39.69619,43.14575,33.5525,19.38537,-142.1627,-0.612559,-1.262423,-9.175476,13.70306,-0.9035407,39.19238,0,0,0,159.3202,11.2285,-58.01186,-1.197964,-111.2317,-56.30258,0.001067912,-0.1257102,0.09433498,0,0.3,0,0,0,0,
6.38224E+17,55.24811,34.92704,45.62056,36.40906,18.57967,-142.0894,-0.612559,-1.262423,-9.175476,13.70306,-0.9035407,39.26562,0,0,0,168.1377,6.431333,-51.70052,-1.197964,-111.2317,-56.30258,0.001067912,-0.1257102,0.09433498,0,0.3,0,0,0,0,
6.38224E+17,55.24811,32.2853,46.43771,36.77529,18.72616,-142.1627,-0.612559,-1.262423,-9.175476,13.62981,-0.9035407,39.19238,0,0,0,172.0183,2.679775,-49.00822,-1.197964,-111.2317,-56.30258,0.001067912,-0.1257102,0.09433498,0,0.3,0,0,0,0,
6.38224E+17,55.22455,27.23561,46.83461,36.4823,19.38537,-142.1627,-0.612559,-1.262423,-9.175476,13.70306,-0.9035407,39.19238,0,0,0,177.2805,-6.847909,-45.24948,-1.197964,-111.2317,-56.30258,0.001067912,-0.1257102,0.09433498,0,0.3,0,0,0,0,
6.38224E+17,55.22455,21.64822,46.11085,35.31038,20.19107,-142.1627,-0.612559,-1.262423,-9.175476,13.70306,-0.9035407,39.19238,0,0,0,180.7455,-19.90321,-42.84343,-1.197964,-111.2317,-56.30258,0.001067912,-0.1257102,0.09433498,0,0.3,0,0,0,0,
6.38224E+17,55.13031,15.49975,44.59328,33.69899,20.77703,-142.1627,-0.612559,-1.262423,-9.175476,13.70306,-0.9035407,39.19238,0,0,0,182.2404,-35.97398,-41.36063,-1.197964,-111.2317,-56.30258,0.001067912,-0.1257102,0.09433498,0,0.3,0,0,0,0,
6.38224E+17,54.91827,12.41383,43.68274,32.89329,21.14326,-142.1627,-0.612559,-1.262423,-9.175476,13.70306,-0.9035407,39.11913,0,0,0,181.942,-44.41904,-40.56568,-1.197964,-111.2317,-56.30258,0.001067912,-0.1257102,0.09433498,0,0.3,0,0,0,0,
6.38224E+17,53.92875,5.026314,40.9511,30.32971,21.94895,-142.1627,-0.612559,-1.262423,-9.175476,13.70306,-0.9767859,39.19238,0,0,0,178.0142,-65.68192,-38.67661,-1.197964,-111.2317,-56.30258,0.001067912,-0.1257102,0.09433498,0,0.3,0,0,0,0,
6.38224E+17,52.89211,0.5143204,38.63972,28.13236,22.46167,-142.1627,-0.612559,-1.262423,-9.175476,13.70306,-0.9035407,39.19238,0,0,0,172.7476,-79.61104,-37.66461,-1.197964,-111.2317,-56.30258,0.001067912,-0.1257102,0.09433498,0,0.3,0,0,0,0,
6.38224E+17,52.23243,-1.075397,37.1455,26.7407,22.82789,-142.1627,-0.612559,-1.262423,-9.175476,13.62981,-0.9035407,39.19238,0,0,0,169.0478,-85.44663,-37.37627,-1.197964,-111.2317,-56.30258,0.001067912,-0.1257102,0.09433498,0,0.3,0,0,0,0,
6.38224E+17,51.59631,-0.6312115,31.00517,24.25036,23.56034,-142.1627,-0.612559,-1.262423,-9.175476,13.62981,-0.9035407,39.19238,0,0,0,158.3235,-92.41611,-42.84775,-1.197964,-111.2317,-56.30258,0.001067912,-0.1257102,0.09433498,0,0.3,0,0,0,0,
6.38224E+17,51.47852,-0.9818845,27.89998,22.49248,24.80551,-142.2359,-0.612559,-1.262423,-9.175476,13.62981,-0.9767859,39.19238,0,0,0,153.1333,-96.78529,-46.44851,-1.197964,-111.2317,-56.30258,0.001067912,-0.1257102,0.09433498,0,0.3,0,0,0,0,
6.38224E+17,51.36071,-0.9351282,24.56132,22.05301,26.78313,-142.1627,-0.588999,-1.262423,-9.175476,13.62981,-0.9035407,39.19238,0,0,0,147.4401,-100.1104,-50.48448,-1.15189,-111.2317,-56.3021,0.001067912,-0.1257102,0.09433498,0,0.3,0,0,0,0,
6.38224E+17,50.6068,-0.9351282,22.13321,22.56572,28.98049,-142.1627,-0.612559,-1.262423,-9.175476,13.70306,-0.9035407,39.19238,0,0,0,141.8671,-102.3498,-51.84722,-1.197964,-111.2317,-56.30258,0.001067912,-0.1257102,0.09433498,0,0.3,0,0,0,0,
6.38224E+17,49.80576,-0.9351282,21.3394,22.93195,30.00592,-142.0162,-0.612559,-1.262423,-9.175476,13.70306,-0.9035407,39.19238,0,0,0,138.9136,-103.034,-50.98282,-1.197964,-111.2317,-56.30258,0.001067912,-0.1257102,0.09433498,0,0.3,0,0,0,0,
6.38224E+17,47.11992,-0.8649935,20.70902,23.22493,32.13003,-142.0162,-0.612559,-1.262423,-9.175476,13.70306,-0.9035407,39.19238,0,0,0,132.2596,-103.3971,-45.53245,-1.197964,-111.2317,-56.30258,0.001067912,-0.1257102,0.09433498,0,0.3,0,0,0,0,
6.38224E+17,44.24561,0.116891,20.8958,22.63897,34.69361,-141.7964,-0.612559,-1.262423,-9.175476,13.70306,-0.9767859,39.19238,0,0,0,126.2285,-100.9576,-38.75298,-1.197964,-111.2317,-56.30258,0.001067912,-0.1257102,0.09433498,0,0.3,0,0,0,0,
6.38224E+17,42.90269,1.332558,20.9425,22.05301,36.15851,-141.7964,-0.612559,-1.262423,-9.175476,13.70306,-0.9767859,39.19238,0,0,0,123.2013,-98.08974,-35.78212,-1.197964,-111.2317,-56.30258,0.001067912,-0.1257102,0.09433498,0,0.3,0,0,0,0,
6.38224E+17,40.97078,5.096448,20.84911,21.17406,38.94183,-141.2105,-0.612559,-1.262423,-9.175476,13.70306,-0.9767859,39.19238,0,0,0,118.207,-89.42255,-32.22826,-1.197964,-111.2317,-56.30258,0.001067912,-0.1257102,0.09433498,0,0.3,0,0,0,0,
6.38224E+17,40.31109,10.82411,20.84911,21.54029,41.35892,-142.0894,-0.612559,-1.262423,-9.175476,13.70306,-0.9035407,39.19238,0,0,0,115.4381,-76.22596,-32.28347,-1.197964,-111.2317,-56.30258,0.001067912,-0.1257102,0.09433498,0,0.3,0,0,0,0,
6.38224E+17,40.33466,14.98543,20.63898,22.27274,42.31111,-141.7964,-0.612559,-1.262423,-9.175476,13.70306,-0.9767859,39.19238,0,0,0,113.7984,-66.96083,-34.328,-1.197964,-111.2317,-56.30258,0.001067912,-0.1257102,0.09433498,0,0.3,0,0,0,0,
6.38224E+17,40.94721,24.54711,20.17204,24.76308,41.79839,-141.7964,-0.612559,-1.262423,-9.175476,13.70306,-0.9035407,39.19238,0,0,0,109.6307,-46.4214,-41.99942,-1.197964,-111.2317,-56.30258,0.001067912,-0.1257102,0.09433498,0,0.3,0,0,0,0,
6.38224E+17,41.34773,33.96853,21.22267,27.69288,38.64885,-141.1372,-0.612559,-1.262423,-9.175476,13.62981,-0.9035407,39.19238,0,0,0,104.9505,-26.44865,-49.08788,-1.197964,-111.2317,-56.30258,0.001067912,-0.1257102,0.09433498,0,0.3,0,0,0,0,
6.38224E+17,41.22993,38.78444,22.06317,28.93805,36.305,-141.1372,-0.612559,-1.262423,-9.175476,13.70306,-0.9035407,39.19238,0,0,0,101.5234,-16.70543,-52.50293,-1.197964,-111.2317,-56.30258,0.001067912,-0.1257102,0.09433498,0,0.3,0,0,0,0,
6.38224E+17,40.33466,48.20586,24.42124,30.54945,30.66513,-141.2105,-0.612559,-1.262423,-9.175476,13.62981,-0.9035407,39.19238,0,0,0,93.20701,1.34907,-58.57873,-1.197964,-111.2317,-56.30258,0.001067912,-0.1257102,0.09433498,0,0.3,0,0,0,0,
6.38224E+17,38.59122,56.24796,26.82601,31.06216,24.21955,-141.2105,-0.612559,-1.262423,-9.175476,13.62981,-0.9767859,39.19238,0,0,0,83.75085,15.22482,-63.40413,-1.197964,-111.2317,-56.30258,0.001067912,-0.1257102,0.09433498,0,0.3,0,0,0,0,
