zeyangz2/DNN_classification_different_people_hand/data/srikar_right_12.csv
Timestamp,Therapist joint angle 0,Therapist joint angle 1,Therapist joint angle 2,Therapist joint angle 3,Therapist joint angle 4,Therapist joint angle 5,Patient joint angle 0,Patient joint angle 1,Patient joint angle 2,Patient joint angle 3,Patient joint angle 4,Patient joint angle 5,Virtual joint angle 0,Virtual joint angle 1,Virtual joint angle 2,Therapist position x,Therapist position y,Therapist position z,Patient position x,Patient position y,Patient position z,Virtual position x,Virtual position y,Virtual position z,Assistive Force, Obstacle Force Magnitude, Therapist Constant Force, Patient Constant Force, Recovery Factor, Assistance Level,label
6.38224E+17,0,0,0,0,0,0,0,0,0,0,0,0,0,0,0,0,0,0,0,0,0,0,0,0,0,0.3,0,0,0,0,2
6.38224E+17,5.607271,-0.9117499,-9.22217,-44.52685,-61.40405,-6.659099,-0.612559,-1.262423,-9.175476,13.70306,-0.9767859,39.26562,0,0,0,10.93972,-110.3983,-56.92371,-1.197964,-111.2317,-56.30258,0.001067912,-0.1257102,0.09433498,0,0.3,0,0,7.83E-08,0,
6.38224E+17,5.607271,-0.9117499,-9.22217,-44.52685,-61.40405,-6.659099,-0.612559,-1.262423,-9.175476,13.70306,-0.9767859,39.19238,0,0,0,10.93972,-110.3983,-56.92371,-1.197964,-111.2317,-56.30258,0.001067912,-0.1257102,0.09433498,0,0.3,0,0,7.83E-08,0,
6.38224E+17,5.607271,-0.9117499,-9.22217,-44.52685,-61.40405,-6.659099,-0.612559,-1.262423,-9.175476,13.70306,-0.9767859,39.19238,0,0,0,10.93972,-110.3983,-56.92371,-1.197964,-111.2317,-56.30258,0.001067912,-0.1257102,0.09433498,0,0.3,0,0,0,0,
6.38224E+17,5.607271,-0.9117499,-9.22217,-44.52685,-61.40405,-6.659099,-0.612559,-1.262423,-9.175476,13.70306,-0.9767859,39.19238,0,0,0,10.93972,-110.3983,-56.92371,-1.197964,-111.2317,-56.30258,0.001067912,-0.1257102,0.09433498,0,0.3,0,0,0,0,
6.38224E+17,5.607271,-0.9117499,-9.22217,-44.45361,-61.3308,-6.659099,-0.612559,-1.262423,-9.175476,13.70306,-0.9767859,39.19238,0,0,0,10.93972,-110.3983,-56.92371,-1.197964,-111.2317,-56.30258,0.001067912,-0.1257102,0.09433498,0,0.3,0,0,0,0,
6.38224E+17,5.607271,-0.9117499,-9.22217,-44.52685,-61.40405,-6.659099,-0.612559,-1.262423,-9.175476,13.70306,-0.9767859,39.19238,0,0,0,10.93972,-110.3983,-56.92371,-1.197964,-111.2317,-56.30258,0.001067912,-0.1257102,0.09433498,0,0.3,0,0,0,0,
6.38224E+17,5.607271,-0.9117499,-9.22217,-44.52685,-61.40405,-6.659099,-0.612559,-1.262423,-9.175476,13.70306,-0.9767859,39.19238,0,0,0,10.93972,-110.3983,-56.92371,-1.197964,-111.2317,-56.30258,0.001067912,-0.1257102,0.09433498,0,0.3,0,0,7.83E-08,0,
6.38224E+17,5.607271,-0.9117499,-9.22217,-44.45361,-61.40405,-6.659099,-0.612559,-1.262423,-9.175476,13.70306,-0.9767859,39.19238,0,0,0,10.93972,-110.3983,-56.92371,-1.197964,-111.2317,-56.30258,0.001067912,-0.1257102,0.09433498,0,0.3,0,0,1.57E-07,0,
6.38224E+17,5.607271,-0.9117499,-9.22217,-44.52685,-61.40405,-6.659099,-0.612559,-1.262423,-9.175476,13.70306,-0.9767859,39.19238,0,0,0,10.93972,-110.3983,-56.92371,-1.197964,-111.2317,-56.30258,0.001067912,-0.1257102,0.09433498,0,0.3,0,0,1.57E-07,0,
6.38224E+17,5.607271,-0.9117499,-9.22217,-44.52685,-61.40405,-6.659099,-0.612559,-1.262423,-9.175476,13.70306,-0.9767859,39.19238,0,0,0,10.93972,-110.3983,-56.92371,-1.197964,-111.2317,-56.30258,0.001067912,-0.1257102,0.09433498,0,0.3,0,0,2.35E-07,0,
6.38224E+17,5.607271,-0.9117499,-9.22217,-44.52685,-61.40405,-6.659099,-0.612559,-1.262423,-9.175476,13.70306,-0.9767859,39.26562,0,0,0,10.93972,-110.3983,-56.92371,-1.197964,-111.2317,-56.30258,0.001067912,-0.1257102,0.09433498,0,0.3,0,0,2.35E-07,0,
6.38224E+17,5.607271,-0.9117499,-9.22217,-44.52685,-61.40405,-6.659099,-0.612559,-1.262423,-9.175476,13.70306,-0.9767859,39.26562,0,0,0,10.93972,-110.3983,-56.92371,-1.197964,-111.2317,-56.30258,0.001067912,-0.1257102,0.09433498,0,0.3,0,0,2.35E-07,0,
6.38224E+17,5.607271,-0.9117499,-9.22217,-44.45361,-61.40405,-6.659099,-0.612559,-1.262423,-9.175476,13.70306,-0.9035407,39.26562,0,0,0,10.93972,-110.3983,-56.92371,-1.197964,-111.2317,-56.30258,0.001067912,-0.1257102,0.09433498,0,0.3,0,0,2.35E-07,0,
6.38224E+17,5.607271,-0.9117499,-9.22217,-44.52685,-61.40405,-6.659099,-0.612559,-1.262423,-9.175476,13.62981,-0.9767859,39.19238,0,0,0,10.93972,-110.3983,-56.92371,-1.197964,-111.2317,-56.30258,0.001067912,-0.1257102,0.09433498,0,0.3,0,0,2.35E-07,0,
6.38224E+17,5.607271,-0.9117499,-9.22217,-44.45361,-61.40405,-6.659099,-0.612559,-1.262423,-9.175476,13.70306,-0.9767859,39.19238,0,0,0,10.93972,-110.3983,-56.92371,-1.197964,-111.2317,-56.30258,0.001067912,-0.1257102,0.09433498,0,0.3,0,0,2.35E-07,0,
6.38224E+17,5.607271,-0.9117499,-9.22217,-44.52685,-61.40405,-6.659099,-0.612559,-1.262423,-9.175476,13.70306,-0.9767859,39.19238,0,0,0,10.93972,-110.3983,-56.92371,-1.197964,-111.2317,-56.30258,0.001067912,-0.1257102,0.09433498,0,0.3,0,0,3.13E-07,0,
6.38224E+17,5.607271,-0.9117499,-9.22217,-44.45361,-61.40405,-6.659099,-0.612559,-1.262423,-9.175476,13.70306,-0.9767859,39.19238,0,0,0,10.93972,-110.3983,-56.92371,-1.197964,-111.2317,-56.30258,0.001067912,-0.1257102,0.09433498,0,0.3,0,0,3.13E-07,0,
6.38224E+17,5.607271,-0.9117499,-9.22217,-44.52685,-61.40405,-6.659099,-0.612559,-1.262423,-9.175476,13.70306,-0.9767859,39.19238,0,0,0,10.93972,-110.3983,-56.92371,-1.197964,-111.2317,-56.30258,0.001067912,-0.1257102,0.09433498,0,0.3,0,0,3.13E-07,0,
6.38224E+17,5.607271,-0.9117499,-9.22217,-44.52685,-61.40405,-6.659099,-0.612559,-1.262423,-9.175476,13.62981,-0.9767859,39.26562,0,0,0,10.93972,-110.3983,-56.92371,-1.197964,-111.2317,-56.30258,0.001067912,-0.1257102,0.09433498,0,0.3,0,0,3.13E-07,0,
6.38224E+17,5.607271,-0.9117499,-9.22217,-44.52685,-61.40405,-6.659099,-0.612559,-1.262423,-9.175476,13.70306,-0.9767859,39.26562,0,0,0,10.93972,-110.3983,-56.92371,-1.197964,-111.2317,-56.30258,0.001067912,-0.1257102,0.09433498,0,0.3,0,0,3.13E-07,0,
6.38224E+17,5.607271,-0.9117499,-9.22217,-44.52685,-61.40405,-6.659099,-0.612559,-1.262423,-9.175476,13.70306,-0.9767859,39.19238,0,0,0,10.93972,-110.3983,-56.92371,-1.197964,-111.2317,-56.30258,0.001067912,-0.1257102,0.09433498,0,0.3,0,0,3.13E-07,0,
6.38224E+17,5.607271,-0.9117499,-9.22217,-44.52685,-61.40405,-6.659099,-0.612559,-1.262423,-9.175476,13.70306,-0.9767859,39.19238,0,0,0,10.93972,-110.3983,-56.92371,-1.197964,-111.2317,-56.30258,0.001067912,-0.1257102,0.09433498,0,0.3,0,0,3.91E-07,0,
6.38224E+17,5.607271,-0.9117499,-9.22217,-44.52685,-61.3308,-6.659099,-0.612559,-1.262423,-9.175476,13.70306,-0.9767859,39.19238,0,0,0,10.93972,-110.3983,-56.92371,-1.197964,-111.2317,-56.30258,0.001067912,-0.1257102,0.09433498,0,0.3,0,0,3.91E-07,0,
6.38224E+17,5.607271,-0.9117499,-9.22217,-44.52685,-61.40405,-6.659099,-0.612559,-1.262423,-9.175476,13.70306,-0.9767859,39.19238,0,0,0,10.93972,-110.3983,-56.92371,-1.197964,-111.2317,-56.30258,0.001067912,-0.1257102,0.09433498,0,0.3,0,0,3.91E-07,0,
6.38224E+17,5.607271,-0.9117499,-9.22217,-44.52685,-61.40405,-6.659099,-0.612559,-1.262423,-9.175476,13.70306,-0.9767859,39.19238,0,0,0,10.93972,-110.3983,-56.92371,-1.197964,-111.2317,-56.30258,0.001067912,-0.1257102,0.09433498,0,0.3,0,0,3.13E-07,0,
6.38224E+17,5.607271,-0.9117499,-9.22217,-44.52685,-61.40405,-6.659099,-0.612559,-1.262423,-9.175476,13.70306,-0.9767859,39.19238,0,0,0,10.93972,-110.3983,-56.92371,-1.197964,-111.2317,-56.30258,0.001067912,-0.1257102,0.09433498,0,0.3,0,0,2.35E-07,0,
6.38224E+17,5.607271,-0.9117499,-9.22217,-44.52685,-61.40405,-6.659099,-0.612559,-1.262423,-9.175476,13.70306,-0.9767859,39.26562,0,0,0,10.93972,-110.3983,-56.92371,-1.197964,-111.2317,-56.30258,0.001067912,-0.1257102,0.09433498,0,0.3,0,0,1.57E-07,0,
6.38224E+17,5.607271,-0.9117499,-9.22217,-44.52685,-61.40405,-6.659099,-0.612559,-1.262423,-9.175476,13.70306,-0.9767859,39.26562,0,0,0,10.93972,-110.3983,-56.92371,-1.197964,-111.2317,-56.30258,0.001067912,-0.1257102,0.09433498,0,0.3,0,0,7.83E-08,0,
6.38224E+17,4.735552,-0.9351282,-9.432296,-44.52685,-61.40405,-6.659099,-0.612559,-1.262423,-9.175476,13.70306,-0.9767859,39.19238,0,0,0,9.203326,-110.3734,-57.25198,-1.197964,-111.2317,-56.30258,0.001067912,-0.1257102,0.09433498,0,0.3,0,0,0.002740127,0,
6.38224E+17,-4.382153,-0.8883717,-9.432296,-47.01719,-59.79266,-6.659099,-0.612559,-1.262423,-9.175476,13.70306,-0.9767859,39.26562,0,0,0,-8.518037,-110.2646,-57.1956,-1.197964,-111.2317,-56.30258,0.001067912,-0.1257102,0.09433498,0,0.3,0,0,0.02428122,0,
6.38224E+17,-14.63074,-0.7481025,-8.311626,-55.87985,-56.05715,-6.659099,-0.612559,-1.262423,-9.175476,13.70306,-0.9767859,39.19238,0,0,0,-28.81073,-110.3404,-57.98664,-1.197964,-111.2317,-56.30258,0.001067912,-0.1257102,0.09433498,0,0.3,0,0,0,0,
6.38224E+17,-19.79037,-0.9117499,-8.171543,-58.58992,-54.07953,-6.659099,-0.612559,-1.262423,-9.175476,13.70306,-0.9767859,39.19238,0,0,0,-38.72645,-110.768,-60.72639,-1.197964,-111.2317,-56.30258,0.001067912,-0.1257102,0.09433498,0,0.3,0,0,0,0,
6.38224E+17,-22.2406,-0.9117499,-8.171543,-57.85748,-53.34708,-6.659099,-0.612559,-1.262423,-9.175476,13.70306,-0.9035407,39.19238,0,0,0,-43.29213,-110.768,-62.4804,-1.197964,-111.2317,-56.30258,0.001067912,-0.1257102,0.09433498,0,0.3,0,0,0,0,
6.38224E+17,-25.93952,-0.9117499,-8.171543,-50.75269,-53.42033,-6.659099,-0.612559,-1.262423,-9.175476,13.70306,-0.9767859,39.19238,0,0,0,-50.03195,-110.768,-65.49387,-1.197964,-111.2317,-56.30258,0.001067912,-0.1257102,0.09433498,0,0.3,0,0,0,0,
6.38224E+17,-27.77719,-0.9117499,-8.171543,-36.1769,-54.44576,-6.659099,-0.612559,-1.262423,-9.175476,13.70306,-0.9767859,39.19238,0,0,0,-53.30461,-110.768,-67.15119,-1.197964,-111.2317,-56.30258,0.001067912,-0.1257102,0.09433498,0,0.3,0,0,0,0,
6.38224E+17,-28.08347,-0.9117499,-8.171543,-26.36205,-54.88523,-6.659099,-0.612559,-1.262423,-9.175476,13.70306,-0.9767859,39.19238,0,0,0,-53.84481,-110.768,-67.43758,-1.197964,-111.2317,-56.30258,0.001067912,-0.1257102,0.09433498,0,0.3,0,0,0,0,
6.38224E+17,-28.10703,-0.9117499,-7.938071,-3.875783,-55.10497,-6.585854,-0.612559,-1.262423,-9.175476,13.70306,-0.9767859,39.19238,0,0,0,-54.13977,-110.8441,-66.98516,-1.197964,-111.2317,-56.30258,0.001067912,-0.1257102,0.09433498,0,0.3,0,0,0,0,
6.38224E+17,-31.26407,-0.8883717,-5.299829,17.29207,-56.27689,-6.512609,-0.612559,-1.262423,-9.175476,13.70306,-0.9767859,39.19238,0,0,0,-62.80565,-111.4974,-64.90676,-1.197964,-111.2317,-56.30258,0.001067912,-0.1257102,0.09433498,0,0.3,0,0,0,0,
6.38224E+17,-35.3635,-0.9117499,-3.922341,34.94416,-60.01239,-6.292873,-0.612559,-1.262423,-9.175476,13.70306,-0.9767859,39.19238,0,0,0,-71.88882,-111.8096,-67.05602,-1.197964,-111.2317,-56.30258,0.001067912,-0.1257102,0.09433498,0,0.3,0,0,0,0,
6.38224E+17,-37.93154,-0.9117499,-2.965103,41.8292,-60.81809,-6.219628,-0.612559,-1.262423,-9.175476,13.70306,-0.9767859,39.19238,0,0,0,-77.72219,-111.9434,-68.62474,-1.197964,-111.2317,-56.30258,0.001067912,-0.1257102,0.09433498,0,0.3,0,0,0,0,
6.38224E+17,-40.24041,-0.8883717,-1.44753,45.5647,-59.79266,-4.97446,-0.612559,-1.262423,-9.175476,13.70306,-0.9767859,39.19238,0,0,0,-83.95713,-112.025,-69.14217,-1.197964,-111.2317,-56.30258,0.001067912,-0.1257102,0.09433498,0,0.3,0,0,0,0,
6.38224E+17,-42.52573,-0.9117499,-0.04669453,46.59014,-57.52206,2.130321,-0.612559,-1.262423,-9.175476,13.70306,-0.9767859,39.19238,0,0,0,-90.04922,-112.1219,-70.16707,-1.197964,-111.2317,-56.30258,0.001067912,-0.1257102,0.09433498,0,0.3,0,0,0,0,
6.38224E+17,-43.11473,-0.9117499,0.09338906,45.49146,-56.49662,8.429405,-0.612559,-1.262423,-9.175476,13.70306,-0.9767859,39.19238,0,0,0,-91.2766,-112.1217,-70.85995,-1.197964,-111.2317,-56.30258,0.001067912,-0.1257102,0.09433498,0,0.3,0,0,0,0,
6.38224E+17,-43.39745,-0.9117499,-0.3268617,38.16694,-54.00629,26.08149,-0.612559,-1.262423,-9.175476,13.70306,-0.9767859,39.19238,0,0,0,-91.08454,-112.1197,-72.02221,-1.197964,-111.2317,-56.30258,0.001067912,-0.1257102,0.09433498,0,0.3,0,0,0,0,
6.38224E+17,-43.35033,-0.9117499,-0.350209,36.04284,-53.8598,29.0113,-0.612559,-1.262423,-9.175476,13.70306,-0.9767859,39.19238,0,0,0,-90.96799,-112.1194,-71.98685,-1.197964,-111.2317,-56.30258,0.001067912,-0.1257102,0.09433498,0,0.3,0,0,0,0,
6.38224E+17,-43.35033,-0.9117499,-0.350209,32.23409,-55.03172,32.89329,-0.612559,-1.262423,-9.175476,13.70306,-0.9767859,39.26562,0,0,0,-90.96799,-112.1194,-71.98685,-1.197964,-111.2317,-56.30258,0.001067912,-0.1257102,0.09433498,0,0.3,0,0,0,0,
6.38224E+17,-43.32677,-0.9117499,-0.7471125,29.23104,-58.54749,34.94416,-0.612559,-1.262423,-9.175476,13.70306,-1.050031,39.19238,0,0,0,-90.29455,-112.1106,-72.6214,-1.197964,-111.2317,-56.30258,0.001067912,-0.1257102,0.09433498,0,0.3,0,0,0,0,
6.38224E+17,-42.90269,-0.9351282,-0.9805852,28.49858,-60.01239,34.79766,-0.612559,-1.262423,-9.175476,13.70306,-0.9767859,39.26562,0,0,0,-89.21307,-112.1568,-72.35434,-1.197964,-111.2317,-56.30258,0.001067912,-0.1257102,0.09433498,0,0.3,0,0,0,0,
6.38224E+17,-41.22993,-0.8883717,-2.358074,29.30428,-61.3308,28.79156,-0.612559,-1.262423,-9.175476,13.70306,-0.9767859,39.19238,0,0,0,-84.26194,-111.9546,-72.19975,-1.197964,-111.2317,-56.30258,0.001067912,-0.1257102,0.09433498,0,0.3,0,0,0,0,
6.38224E+17,-38.75614,-0.9117499,-3.618826,32.67356,-60.45186,14.582,-0.612559,-1.262423,-9.175476,13.70306,-0.9767859,39.19238,0,0,0,-78.19846,-111.856,-70.93811,-1.197964,-111.2317,-56.30258,0.001067912,-0.1257102,0.09433498,0,0.3,0,0,0,0,
6.38224E+17,-37.50746,-0.9117499,-3.805604,35.53012,-59.71941,5.133373,-0.612559,-1.262423,-9.175476,13.70306,-0.9767859,39.19238,0,0,0,-75.79298,-111.8279,-69.60127,-1.197964,-111.2317,-56.30258,0.001067912,-0.1257102,0.09433498,0,0.3,0,0,0,0,
6.38224E+17,-35.69334,-0.9117499,-3.852299,41.90245,-58.98696,-9.295925,-0.612559,-1.262423,-9.175476,13.62981,-0.9767859,39.19238,0,0,0,-72.56564,-111.8206,-67.33945,-1.197964,-111.2317,-56.30258,0.001067912,-0.1257102,0.09433498,0,0.3,0,0,0,0,
6.38224E+17,-33.99702,-0.9117499,-3.969035,44.97874,-59.93914,-16.03448,-0.612559,-1.262423,-9.175476,13.70306,-0.9767859,39.19238,0,0,0,-69.39217,-111.8021,-65.46036,-1.197964,-111.2317,-56.30258,0.001067912,-0.1257102,0.09433498,0,0.3,0,0,0,0,
6.38224E+17,-32.39495,-0.9117499,-4.062424,45.05199,-61.4773,-18.89104,-0.612559,-1.262423,-9.175476,13.70306,-0.9767859,39.19238,0,0,0,-66.3723,-111.7869,-63.7436,-1.197964,-111.2317,-56.30258,0.001067912,-0.1257102,0.09433498,0,0.3,0,0,0,0,
6.38224E+17,-31.64103,-0.9117499,-4.132466,44.83226,-62.06326,-19.84323,-0.612559,-1.262423,-9.175476,13.70306,-0.9767859,39.19238,0,0,0,-64.90485,-111.7752,-63.01776,-1.197964,-111.2317,-56.30258,0.001067912,-0.1257102,0.09433498,0,0.3,0,0,0,0,
6.38224E+17,-29.68555,-0.8416153,-4.389286,44.39278,-62.57597,-21.0884,-0.612559,-1.262423,-9.175476,13.70306,-0.9767859,39.19238,0,0,0,-60.97885,-111.5676,-61.38002,-1.197964,-111.2317,-56.30258,0.001067912,-0.1257102,0.09433498,0,0.3,0,0,0,0,
6.38224E+17,-26.26936,-0.6779679,-5.113051,44.17305,-62.50273,-21.67436,-0.612559,-1.262423,-9.175476,13.70306,-0.9767859,39.26562,0,0,0,-53.75557,-111.0472,-59.43726,-1.197964,-111.2317,-56.30258,0.001067912,-0.1257102,0.09433498,0,0.3,0,0,0,0,
6.38224E+17,-21.36888,-0.6779679,-5.369871,44.0998,-62.20975,-21.96734,-0.612559,-1.262423,-9.175476,13.70306,-0.9767859,39.19238,0,0,0,-44.0383,-110.9926,-55.79761,-1.197964,-111.2317,-56.30258,0.001067912,-0.1257102,0.09433498,0,0.3,0,0,0,0,
6.38224E+17,-15.69093,0.7481025,-5.159746,44.0998,-62.1365,-22.18707,-0.612559,-1.262423,-9.175476,13.70306,-0.9767859,39.19238,0,0,0,-32.81782,-107.7186,-51.52593,-1.197964,-111.2317,-56.30258,0.001067912,-0.1257102,0.09433498,0,0.3,0,0,0,0,
6.38224E+17,-12.69882,2.407955,-4.879579,44.0998,-62.1365,-22.18707,-0.612559,-1.262423,-9.175476,13.70306,-0.9767859,39.19238,0,0,0,-26.79444,-103.9141,-49.44226,-1.197964,-111.2317,-56.30258,0.001067912,-0.1257102,0.09433498,0,0.3,0,0,0,0,
6.38224E+17,-6.903069,4.745775,-4.085772,44.02656,-62.42948,-22.26032,-0.612559,-1.262423,-9.175476,13.70306,-0.9767859,39.19238,0,0,0,-14.83045,-98.62842,-45.85281,-1.197964,-111.2317,-56.30258,0.001067912,-0.1257102,0.09433498,0,0.3,0,0,0,0,
6.38224E+17,-1.319358,5.680903,-3.291965,44.0998,-62.64922,-22.26032,-0.612559,-1.262423,-9.175476,13.70306,-0.9767859,39.19238,0,0,0,-2.879003,-96.5799,-43.34557,-1.197964,-111.2317,-56.30258,0.001067912,-0.1257102,0.09433498,0,0.3,0,0,0,0,
6.38224E+17,1.413598,5.98482,-2.965103,44.02656,-62.64922,-22.33356,-0.612559,-1.262423,-9.175476,13.70306,-0.9767859,39.19238,0,0,0,3.101571,-95.91774,-42.66297,-1.197964,-111.2317,-56.30258,0.001067912,-0.1257102,0.09433498,0,0.3,0,0,0,0,
6.38224E+17,7.020868,6.499141,-2.428116,44.02656,-62.64922,-22.33356,-0.612559,-1.262423,-9.175476,13.70306,-0.9767859,39.19238,0,0,0,15.50419,-94.78661,-42.45757,-1.197964,-111.2317,-56.30258,0.001067912,-0.1257102,0.09433498,0,0.3,0,0,0,0,
6.38224E+17,13.17002,6.686166,-2.171296,44.02656,-62.72246,-22.33356,-0.612559,-1.262423,-9.175476,13.70306,-0.9767859,39.19238,0,0,0,29.0249,-94.37819,-44.3098,-1.197964,-111.2317,-56.30258,0.001067912,-0.1257102,0.09433498,0,0.3,0,0,0,0,
6.38224E+17,16.39773,6.63941,-2.147949,44.02656,-62.64922,-22.40681,-0.612559,-1.262423,-9.175476,13.70306,-0.9767859,39.19238,0,0,0,35.98176,-94.48833,-46.0766,-1.197964,-111.2317,-56.30258,0.001067912,-0.1257102,0.09433498,0,0.3,0,0,0,0,
6.38224E+17,23.13588,6.616032,-2.147949,44.02656,-62.64922,-22.40681,-0.612559,-1.262423,-9.175476,13.70306,-0.9767859,39.19238,0,0,0,50.08228,-94.54237,-51.13721,-1.197964,-111.2317,-56.30258,0.001067912,-0.1257102,0.09433498,0,0.3,0,0,0,0,
6.38224E+17,30.39235,6.63941,-2.147949,44.02656,-62.64922,-22.40681,-0.612559,-1.262423,-9.175476,13.62981,-0.9767859,39.19238,0,0,0,64.48323,-94.48833,-58.40736,-1.197964,-111.2317,-56.30258,0.001067912,-0.1257102,0.09433498,0,0.3,0,0,0,0,
6.38224E+17,37.57814,6.569275,-2.147949,44.02656,-62.64922,-22.40681,-0.612559,-1.262423,-9.175476,13.70306,-0.9767859,39.19238,0,0,0,77.74063,-94.65047,-67.32201,-1.197964,-111.2317,-56.30258,0.001067912,-0.1257102,0.09433498,0,0.3,0,0,0,0,
6.38224E+17,45.04665,6.38225,-2.147949,44.02656,-62.72246,-22.40681,-0.612559,-1.262423,-9.175476,13.70306,-0.9767859,39.19238,0,0,0,90.2476,-95.08298,-78.24923,-1.197964,-111.2317,-56.30258,0.001067912,-0.1257102,0.09433498,0,0.3,0,0,0,0,
6.38224E+17,47.44976,6.195224,-2.147949,44.02656,-62.64922,-22.40681,-0.612559,-1.262423,-9.175476,13.70306,-0.9035407,39.19238,0,0,0,93.98128,-95.51564,-82.08031,-1.197964,-111.2317,-56.30258,0.001067912,-0.1257102,0.09433498,0,0.3,0,0,0,0,
6.38224E+17,52.89211,5.400365,-1.891129,44.02656,-62.57597,-22.40681,-0.612559,-1.262423,-9.175476,13.70306,-0.9767859,39.19238,0,0,0,102.3652,-97.37718,-90.90964,-1.197964,-111.2317,-56.30258,0.001067912,-0.1257102,0.09433498,0,0.3,0,0,0,0,
6.38224E+17,55.36591,3.950917,-1.821087,43.4406,-59.57292,-22.99277,-0.612559,-1.262423,-9.175476,13.70306,-0.9035407,39.19238,0,0,0,105.9726,-100.7446,-95.15127,-1.197964,-111.2317,-56.30258,0.001067912,-0.1257102,0.09433498,0,0.3,0,0,0,0,
6.38224E+17,55.20099,2.548224,-1.79774,41.75596,-57.5953,-22.69979,-0.612559,-1.262423,-9.175476,13.70306,-0.9767859,39.19238,0,0,0,105.9581,-104.0056,-94.70993,-1.197964,-111.2317,-56.30258,0.001067912,-0.1257102,0.09433498,0,0.3,0,0,0,0,
6.38224E+17,55.24811,0.4441859,-1.70435,35.23714,-54.81199,-21.60111,-0.612559,-1.262423,-9.175476,13.70306,-0.9767859,39.26562,0,0,0,106.3021,-108.9072,-94.60038,-1.197964,-111.2317,-56.30258,0.001067912,-0.1257102,0.09433498,0,0.3,0,0,0,0,
6.38224E+17,55.17743,0.0233782,-1.681003,29.08454,-53.27384,-20.94191,-0.612559,-1.262423,-9.175476,13.70306,-0.9767859,39.19238,0,0,0,106.259,-109.8882,-94.436,-1.197964,-111.2317,-56.30258,0.001067912,-0.1257102,0.09433498,0,0.3,0,0,0,0,
6.38224E+17,54.94183,0.116891,-1.681003,25.42229,-52.39489,-20.50244,-0.612559,-1.262423,-9.175476,13.70306,-0.9767859,39.19238,0,0,0,105.9539,-109.6706,-93.99985,-1.197964,-111.2317,-56.30258,0.001067912,-0.1257102,0.09433498,0,0.3,0,0,0,0,
6.38224E+17,54.77691,0.1402692,-1.681003,24.32361,-52.2484,-20.20946,-0.612559,-1.262423,-9.175476,13.62981,-0.9767859,39.19238,0,0,0,105.7394,-109.6161,-93.69525,-1.197964,-111.2317,-56.30258,0.001067912,-0.1257102,0.09433498,0,0.3,0,0,0,0,
6.38224E+17,54.63555,0.1402692,-1.681003,23.37142,-52.54139,-19.18402,-0.612559,-1.262423,-9.175476,13.70306,-0.9767859,39.19238,0,0,0,105.5548,-109.6161,-93.43459,-1.197964,-111.2317,-56.30258,0.001067912,-0.1257102,0.09433498,0,0.3,0,0,0,0,
6.38224E+17,54.61199,0.1402692,-1.681003,23.6644,-52.83437,-18.59806,-0.612559,-1.262423,-9.175476,13.70306,-0.9035407,39.19238,0,0,0,105.524,-109.6161,-93.3912,-1.197964,-111.2317,-56.30258,0.001067912,-0.1257102,0.09433498,0,0.3,0,0,0,0,
6.38224E+17,54.49419,0.0233782,-1.727698,24.17712,-52.98085,-18.23184,-0.612559,-1.262423,-9.175476,13.70306,-0.9767859,39.19238,0,0,0,105.2816,-109.885,-93.23727,-1.197964,-111.2317,-56.30258,0.001067912,-0.1257102,0.09433498,0,0.3,0,0,0,0,
6.38224E+17,53.99943,-0.1402692,-1.79774,24.83632,-53.34708,-17.86561,-0.612559,-1.262423,-9.175476,13.70306,-0.9767859,39.19238,0,0,0,104.4969,-110.2608,-92.42696,-1.197964,-111.2317,-56.30258,0.001067912,-0.1257102,0.09433498,0,0.3,0,0,0,0,
6.38224E+17,53.31619,-0.233782,-1.821087,25.05606,-54.07953,-17.64587,-0.612559,-1.262423,-9.175476,13.70306,-0.9767859,39.19238,0,0,0,103.54,-110.4768,-91.21915,-1.197964,-111.2317,-56.30258,0.001067912,-0.1257102,0.09433498,0,0.3,0,0,0,0,
6.38224E+17,52.63295,-0.2805384,-1.844434,25.27579,-55.10497,-17.35289,-0.612559,-1.262423,-9.175476,13.70306,-0.9767859,39.26562,0,0,0,102.5694,-110.5838,-90.02323,-1.197964,-111.2317,-56.30258,0.001067912,-0.1257102,0.09433498,0,0.3,0,0,0,0,
6.38224E+17,52.1382,-0.3740513,-1.867781,25.34904,-56.49662,-17.13316,-0.612559,-1.262423,-9.175476,13.62981,-0.9767859,39.19238,0,0,0,101.8453,-110.7997,-89.17455,-1.197964,-111.2317,-56.30258,0.001067912,-0.1257102,0.09433498,0,0.3,0,0,0,0,
6.38224E+17,51.92616,-0.7013461,-1.891129,25.42229,-57.00934,-17.13316,-0.612559,-1.262423,-9.175476,13.70306,-0.9767859,39.26562,0,0,0,101.5032,-111.5596,-88.83609,-1.197964,-111.2317,-56.30258,0.001067912,-0.1257102,0.09433498,0,0.3,0,0,0,0,
6.38224E+17,51.14867,-1.005263,-2.031212,25.34904,-57.66854,-17.05991,-0.612559,-1.262423,-9.175476,13.70306,-0.9767859,39.19238,0,0,0,100.153,-112.2557,-87.6771,-1.197964,-111.2317,-56.30258,0.001067912,-0.1257102,0.09433498,0,0.3,0,0,0,0,
6.38224E+17,48.58064,-0.9585064,-2.054559,24.39685,-58.69398,-17.05991,-0.612559,-1.262423,-9.175476,13.70306,-0.9767859,39.19238,0,0,0,96.39849,-112.145,-83.30539,-1.197964,-111.2317,-56.30258,0.001067912,-0.1257102,0.09433498,0,0.3,0,0,0,0,
6.38224E+17,44.19849,-0.9351282,-2.428116,21.3938,-60.74484,-17.05991,-0.612559,-1.262423,-9.175476,13.70306,-0.9767859,39.19238,0,0,0,89.01353,-112.0566,-76.81054,-1.197964,-111.2317,-56.30258,0.001067912,-0.1257102,0.09433498,0,0.3,0,0,0,0,
6.38224E+17,41.70113,-0.9351282,-2.498158,18.97671,-61.55054,-16.98667,-0.612559,-1.262423,-9.175476,13.70306,-0.9035407,39.19238,0,0,0,84.83197,-112.0496,-73.14046,-1.197964,-111.2317,-56.30258,0.001067912,-0.1257102,0.09433498,0,0.3,0,0,0,0,
6.38224E+17,36.1881,-0.9351282,-2.47481,14.36226,-62.50273,-16.98667,-0.612559,-1.262423,-9.175476,13.70306,-0.9767859,39.19238,0,0,0,75.32465,-112.0519,-65.38706,-1.197964,-111.2317,-56.30258,0.001067912,-0.1257102,0.09433498,0,0.3,0,0,0,0,
6.38224E+17,29.35571,-0.9351282,-2.451463,10.33378,-62.86895,-17.05991,-0.612559,-1.262423,-9.175476,13.70306,-0.9767859,39.19238,0,0,0,62.56732,-112.0543,-57.10993,-1.197964,-111.2317,-56.30258,0.001067912,-0.1257102,0.09433498,0,0.3,0,0,0,0,
6.38224E+17,25.11492,-0.9351282,-2.451463,8.868877,-62.9422,-17.05991,-0.612559,-1.262423,-9.175476,13.70306,-0.9767859,39.19238,0,0,0,54.17001,-112.0543,-52.78775,-1.197964,-111.2317,-56.30258,0.001067912,-0.1257102,0.09433498,0,0.3,0,0,0,0,
6.38224E+17,17.01029,-0.9351282,-2.404768,7.110993,-63.08869,-17.05991,-0.612559,-1.262423,-9.175476,13.70306,-0.9767859,39.19238,0,0,0,37.36864,-112.0589,-46.20118,-1.197964,-111.2317,-56.30258,0.001067912,-0.1257102,0.09433498,0,0.3,0,0,0,0,
6.38224E+17,8.010387,-0.9351282,-2.288032,6.158805,-63.08869,-17.05991,-0.612559,-1.262423,-9.175476,13.70306,-0.9767859,39.26562,0,0,0,17.83832,-112.07,-41.5905,-1.197964,-111.2317,-56.30258,0.001067912,-0.1257102,0.09433498,0,0.3,0,0,0,0,
6.38224E+17,-2.332436,-0.9351282,-2.21799,5.572844,-62.9422,-17.05991,-0.612559,-1.262423,-9.175476,13.70306,-0.9767859,39.19238,0,0,0,-5.216248,-112.0764,-40.2848,-1.197964,-111.2317,-56.30258,0.001067912,-0.1257102,0.09433498,0,0.3,0,0,0,0,
6.38224E+17,-8.528707,-0.9351282,-2.21799,5.499599,-62.72246,-17.05991,-0.612559,-1.262423,-9.175476,13.62981,-0.9767859,39.19238,0,0,0,-19.00844,-112.0764,-41.59597,-1.197964,-111.2317,-56.30258,0.001067912,-0.1257102,0.09433498,0,0.3,0,0,0,0,
6.38224E+17,-11.99202,-0.9351282,-2.21799,5.499599,-62.57597,-17.05991,-0.612559,-1.262423,-9.175476,13.70306,-0.9035407,39.19238,0,0,0,-26.63087,-112.0764,-42.97576,-1.197964,-111.2317,-56.30258,0.001067912,-0.1257102,0.09433498,0,0.3,0,0,0,0,
6.38224E+17,-17.78777,-0.9351282,-2.21799,5.646089,-62.35624,-17.05991,-0.612559,-1.262423,-9.175476,13.70306,-0.9767859,39.19238,0,0,0,-39.15534,-112.0764,-46.3059,-1.197964,-111.2317,-56.30258,0.001067912,-0.1257102,0.09433498,0,0.3,0,0,0,0,
6.38224E+17,-22.02856,-0.9351282,-2.241338,6.08556,-62.28299,-17.05991,-0.612559,-1.262423,-9.175476,13.70306,-0.9767859,39.19238,0,0,0,-48.05272,-112.0743,-49.58585,-1.197964,-111.2317,-56.30258,0.001067912,-0.1257102,0.09433498,0,0.3,0,0,0,0,
6.38224E+17,-23.48928,-0.9351282,-2.241338,6.232051,-62.28299,-17.05991,-0.612559,-1.262423,-9.175476,13.70306,-0.9767859,39.19238,0,0,0,-51.06459,-112.0743,-50.84938,-1.197964,-111.2317,-56.30258,0.001067912,-0.1257102,0.09433498,0,0.3,0,0,0,0,
6.38224E+17,-25.32696,-0.9351282,-2.241338,6.525032,-62.50273,-17.05991,-0.612559,-1.262423,-9.175476,13.70306,-0.9035407,39.19238,0,0,0,-54.80634,-112.0743,-52.54735,-1.197964,-111.2317,-56.30258,0.001067912,-0.1257102,0.09433498,0,0.3,0,0,0,0,
6.38224E+17,-25.68036,-0.9351282,-2.241338,6.671522,-62.64922,-17.05991,-0.612559,-1.262423,-9.175476,13.70306,-0.9767859,39.26562,0,0,0,-55.51956,-112.0743,-52.8876,-1.197964,-111.2317,-56.30258,0.001067912,-0.1257102,0.09433498,0,0.3,0,0,0,0,
6.38224E+17,-25.63324,-0.9351282,-2.264685,6.744767,-62.64922,-17.05991,-0.612559,-1.262423,-9.175476,13.70306,-0.9767859,39.19238,0,0,0,-55.4011,-112.0722,-52.89093,-1.197964,-111.2317,-56.30258,0.001067912,-0.1257102,0.09433498,0,0.3,0,0,0,0,
6.38224E+17,-25.63324,-0.9351282,-2.264685,6.525032,-62.72246,-17.05991,-0.612559,-1.262423,-9.175476,13.62981,-0.9767859,39.19238,0,0,0,-55.4011,-112.0722,-52.89093,-1.197964,-111.2317,-56.30258,0.001067912,-0.1257102,0.09433498,0,0.3,0,0,0,0,
6.38224E+17,-25.49188,-0.9818845,-2.264685,6.525032,-62.64922,-17.05991,-0.612559,-1.262423,-9.175476,13.70306,-0.9767859,39.19238,0,0,0,-55.11528,-112.181,-52.75624,-1.197964,-111.2317,-56.30258,0.001067912,-0.1257102,0.09433498,0,0.3,0,0,0,0,
6.38224E+17,-24.64372,-0.9818845,-2.311379,6.525032,-62.72246,-17.05991,-0.612559,-1.262423,-9.175476,13.70306,-0.9767859,39.19238,0,0,0,-53.35287,-112.1766,-52.05175,-1.197964,-111.2317,-56.30258,0.001067912,-0.1257102,0.09433498,0,0.3,0,0,0,0,
6.38224E+17,-23.84268,-0.9818845,-2.311379,6.525032,-62.72246,-17.05991,-0.612559,-1.262423,-9.175476,13.70306,-0.9767859,39.26562,0,0,0,-51.72178,-112.1766,-51.31723,-1.197964,-111.2317,-56.30258,0.001067912,-0.1257102,0.09433498,0,0.3,0,0,0,0,
6.38224E+17,-20.04953,-0.9818845,-2.311379,6.598277,-62.72246,-17.05991,-0.612559,-1.262423,-9.175476,13.70306,-0.9767859,39.19238,0,0,0,-43.86621,-112.1766,-48.15196,-1.197964,-111.2317,-56.30258,0.001067912,-0.1257102,0.09433498,0,0.3,0,0,0,0,
6.38224E+17,-18.37677,-0.9818845,-2.311379,6.598277,-62.72246,-17.05991,-0.612559,-1.262423,-9.175476,13.70306,-0.9767859,39.19238,0,0,0,-40.33882,-112.1766,-46.92269,-1.197964,-111.2317,-56.30258,0.001067912,-0.1257102,0.09433498,0,0.3,0,0,0,0,
6.38224E+17,-15.12549,-0.9818845,-2.311379,6.525032,-62.72246,-17.05991,-0.612559,-1.262423,-9.175476,13.70306,-0.9767859,39.26562,0,0,0,-33.38714,-112.1766,-44.83032,-1.197964,-111.2317,-56.30258,0.001067912,-0.1257102,0.09433498,0,0.3,0,0,0,0,
6.38224E+17,-11.33234,-0.9818845,-2.311379,6.525032,-62.72246,-17.05991,-0.612559,-1.262423,-9.175476,13.62981,-0.9767859,39.19238,0,0,0,-25.1426,-112.1766,-42.89219,-1.197964,-111.2317,-56.30258,0.001067912,-0.1257102,0.09433498,0,0.3,0,0,0,0,
6.38224E+17,-9.306185,-0.9818845,-2.311379,6.525032,-62.72246,-17.05991,-0.612559,-1.262423,-9.175476,13.70306,-0.9767859,39.19238,0,0,0,-20.69122,-112.1766,-42.08169,-1.197964,-111.2317,-56.30258,0.001067912,-0.1257102,0.09433498,0,0.3,0,0,0,0,
6.38224E+17,-4.641313,-0.9818845,-2.311379,6.525032,-62.72246,-17.13316,-0.612559,-1.262423,-9.175476,13.70306,-0.9767859,39.19238,0,0,0,-10.3536,-112.1766,-40.8172,-1.197964,-111.2317,-56.30258,0.001067912,-0.1257102,0.09433498,0,0.3,0,0,0,0,
6.38224E+17,1.154438,-0.9585064,-2.311379,6.671522,-62.72246,-17.05991,-0.612559,-1.262423,-9.175476,13.70306,-0.9767859,39.19238,0,0,0,2.577924,-112.1222,-40.42267,-1.197964,-111.2317,-56.30258,0.001067912,-0.1257102,0.09433498,0,0.3,0,0,0,0,
6.38224E+17,4.924032,-0.9585064,-2.311379,6.744767,-62.64922,-17.13316,-0.612559,-1.262423,-9.175476,13.70306,-0.9767859,39.19238,0,0,0,10.98285,-112.1222,-40.86892,-1.197964,-111.2317,-56.30258,0.001067912,-0.1257102,0.09433498,0,0.3,0,0,0,0,
6.38224E+17,10.86114,-0.9585064,-2.311379,6.744767,-62.64922,-17.05991,-0.612559,-1.262423,-9.175476,13.70306,-0.9767859,39.19238,0,0,0,24.11017,-112.1222,-42.68876,-1.197964,-111.2317,-56.30258,0.001067912,-0.1257102,0.09433498,0,0.3,0,0,0,0,
6.38224E+17,17.29301,-0.9585064,-2.311379,6.744767,-62.72246,-17.13316,-0.612559,-1.262423,-9.175476,13.70306,-0.9767859,39.19238,0,0,0,38.03519,-112.1222,-46.18056,-1.197964,-111.2317,-56.30258,0.001067912,-0.1257102,0.09433498,0,0.3,0,0,0,0,
6.38224E+17,22.28772,-0.9585064,-2.311379,6.598277,-62.72246,-17.05991,-0.612559,-1.262423,-9.175476,13.70306,-0.9767859,39.19238,0,0,0,48.5273,-112.1222,-49.95596,-1.197964,-111.2317,-56.30258,0.001067912,-0.1257102,0.09433498,0,0.3,0,0,0,0,
6.38224E+17,24.4788,-0.9585064,-2.311379,6.451786,-62.72246,-17.05991,-0.612559,-1.262423,-9.175476,13.70306,-0.9767859,39.19238,0,0,0,53.01828,-112.1222,-51.89782,-1.197964,-111.2317,-56.30258,0.001067912,-0.1257102,0.09433498,0,0.3,0,0,0,0,
6.38224E+17,27.4238,-0.9585064,-2.311379,6.232051,-62.72246,-17.05991,-0.612559,-1.262423,-9.175476,13.70306,-0.9767859,39.19238,0,0,0,58.93126,-112.1222,-54.77555,-1.197964,-111.2317,-56.30258,0.001067912,-0.1257102,0.09433498,0,0.3,0,0,0,0,
6.38224E+17,28.69603,-0.9585064,-2.311379,5.93907,-62.72246,-17.05991,-0.612559,-1.262423,-9.175476,13.70306,-0.9767859,39.19238,0,0,0,61.43841,-112.1222,-56.112,-1.197964,-111.2317,-56.30258,0.001067912,-0.1257102,0.09433498,0,0.3,0,0,0,0,
6.38224E+17,28.41331,-0.9585064,-2.311379,5.646089,-62.72246,-17.13316,-0.612559,-1.262423,-9.175476,13.70306,-0.9035407,39.19238,0,0,0,60.88384,-112.1222,-55.8102,-1.197964,-111.2317,-56.30258,0.001067912,-0.1257102,0.09433498,0,0.3,0,0,0,0,
6.38224E+17,26.9526,-0.9585064,-2.311379,5.426354,-62.72246,-17.05991,-0.612559,-1.262423,-9.175476,13.62981,-0.9767859,39.19238,0,0,0,57.99524,-112.1222,-54.29475,-1.197964,-111.2317,-56.30258,0.001067912,-0.1257102,0.09433498,0,0.3,0,0,0,0,
6.38224E+17,25.96308,-0.9585064,-2.311379,5.353109,-62.72246,-17.13316,-0.612559,-1.262423,-9.175476,13.70306,-0.9767859,39.19238,0,0,0,56.01691,-112.1222,-53.31021,-1.197964,-111.2317,-56.30258,0.001067912,-0.1257102,0.09433498,0,0.3,0,0,0,0,
6.38224E+17,23.34792,-1.005263,-2.311379,5.206618,-62.72246,-17.13316,-0.612559,-1.262423,-9.175476,13.70306,-0.9767859,39.19238,0,0,0,50.70889,-112.231,-50.87584,-1.197964,-111.2317,-56.30258,0.001067912,-0.1257102,0.09433498,0,0.3,0,0,0,0,
6.38224E+17,19.55477,-1.028641,-2.311379,5.060128,-62.72246,-17.13316,-0.612559,-1.262423,-9.175476,13.70306,-0.9767859,39.19238,0,0,0,42.82602,-112.2854,-47.77946,-1.197964,-111.2317,-56.30258,0.001067912,-0.1257102,0.09433498,0,0.3,0,0,0,0,
6.38224E+17,17.26945,-1.005263,-2.311379,4.986883,-62.72246,-17.13316,-0.612559,-1.262423,-9.175476,13.70306,-0.9767859,39.19238,0,0,0,37.9844,-112.231,-46.16671,-1.197964,-111.2317,-56.30258,0.001067912,-0.1257102,0.09433498,0,0.3,0,0,0,0,
6.38224E+17,12.13338,-1.005263,-2.311379,4.840393,-62.72246,-17.05991,-0.612559,-1.262423,-9.175476,13.70306,-0.9767859,39.19238,0,0,0,26.89388,-112.231,-43.25687,-1.197964,-111.2317,-56.30258,0.001067912,-0.1257102,0.09433498,0,0.3,0,0,0,0,
6.38224E+17,6.03135,-0.9818845,-2.311379,4.767147,-62.72246,-17.13316,-0.612559,-1.262423,-9.175476,13.70306,-0.9767859,39.19238,0,0,0,13.44429,-112.1766,-41.10589,-1.197964,-111.2317,-56.30258,0.001067912,-0.1257102,0.09433498,0,0.3,0,0,0,0,
6.38224E+17,2.921435,-0.9818845,-2.311379,4.767147,-62.72246,-17.13316,-0.612559,-1.262423,-9.175476,13.70306,-0.9767859,39.26562,0,0,0,6.521294,-112.1766,-40.56391,-1.197964,-111.2317,-56.30258,0.001067912,-0.1257102,0.09433498,0,0.3,0,0,0,0,
6.38224E+17,-3.157035,-0.9585064,-2.311379,4.767147,-62.64922,-17.13316,-0.612559,-1.262423,-9.175476,13.70306,-0.9767859,39.19238,0,0,0,-7.046743,-112.1222,-40.59089,-1.197964,-111.2317,-56.30258,0.001067912,-0.1257102,0.09433498,0,0.3,0,0,0,0,
6.38224E+17,-9.164824,-0.9585064,-2.311379,4.767147,-62.64922,-17.13316,-0.612559,-1.262423,-9.175476,13.70306,-0.9767859,39.19238,0,0,0,-20.37978,-112.1222,-42.03012,-1.197964,-111.2317,-56.30258,0.001067912,-0.1257102,0.09433498,0,0.3,0,0,0,0,
6.38224E+17,-13.52342,-0.9585064,-2.311379,4.840393,-62.72246,-17.05991,-0.612559,-1.262423,-9.175476,13.70306,-0.9767859,39.26562,0,0,0,-29.92095,-112.1222,-43.94427,-1.197964,-111.2317,-56.30258,0.001067912,-0.1257102,0.09433498,0,0.3,0,0,0,0,
6.38224E+17,-17.22233,-0.9351282,-2.311379,4.986883,-62.72246,-17.13316,-0.612559,-1.262423,-9.175476,13.70306,-0.9767859,39.19238,0,0,0,-37.88473,-112.0678,-46.13288,-1.197964,-111.2317,-56.30258,0.001067912,-0.1257102,0.09433498,0,0.3,0,0,0,0,
6.38224E+17,-18.09405,-0.9351282,-2.311379,4.986883,-62.72246,-17.13316,-0.612559,-1.262423,-9.175476,13.70306,-0.9035407,39.19238,0,0,0,-39.73972,-112.0678,-46.72339,-1.197964,-111.2317,-56.30258,0.001067912,-0.1257102,0.09433498,0,0.3,0,0,0,0,
6.38224E+17,-19.22493,-0.9351282,-2.311379,5.060128,-62.72246,-17.05991,-0.612559,-1.262423,-9.175476,13.70306,-0.9767859,39.19238,0,0,0,-42.13244,-112.0678,-47.53139,-1.197964,-111.2317,-56.30258,0.001067912,-0.1257102,0.09433498,0,0.3,0,0,0,0,
6.38224E+17,-19.20137,-0.9351282,-2.311379,5.060128,-62.72246,-17.13316,-0.612559,-1.262423,-9.175476,13.70306,-0.9035407,39.19238,0,0,0,-42.08276,-112.0678,-47.51408,-1.197964,-111.2317,-56.30258,0.001067912,-0.1257102,0.09433498,0,0.3,0,0,0,0,
6.38224E+17,-18.91865,-0.9351282,-2.311379,5.060128,-62.72246,-17.13316,-0.612559,-1.262423,-9.175476,13.70306,-0.9767859,39.26562,0,0,0,-41.48599,-112.0678,-47.3079,-1.197964,-111.2317,-56.30258,0.001067912,-0.1257102,0.09433498,0,0.3,0,0,0,0,
6.38224E+17,-16.65689,-0.9585064,-2.334727,5.499599,-62.72246,-17.05991,-0.612559,-1.262423,-9.175476,13.70306,-0.9767859,39.26562,0,0,0,-36.66095,-112.12,-45.81783,-1.197964,-111.2317,-56.30258,0.001067912,-0.1257102,0.09433498,0,0.3,0,0,0,0,
6.38224E+17,-11.0025,-0.9585064,-2.334727,7.989935,-62.72246,-17.13316,-0.612559,-1.262423,-9.175476,13.62981,-0.9767859,39.26562,0,0,0,-24.40976,-112.12,-42.80192,-1.197964,-111.2317,-56.30258,0.001067912,-0.1257102,0.09433498,0,0.3,0,0,0,0,
6.38224E+17,-3.816714,-0.9351282,-2.288032,12.09166,-62.64922,-17.13316,-0.612559,-1.262423,-9.175476,13.70306,-0.9035407,39.19238,0,0,0,-8.520881,-112.07,-40.62541,-1.197964,-111.2317,-56.30258,0.001067912,-0.1257102,0.09433498,0,0.3,0,0,0,0,
6.38224E+17,-0.1649197,-0.9351282,-2.264685,13.84955,-62.64922,-17.13316,-0.612559,-1.262423,-9.175476,13.70306,-0.9767859,39.19238,0,0,0,-0.3686144,-112.0722,-40.28774,-1.197964,-111.2317,-56.30258,0.001067912,-0.1257102,0.09433498,0,0.3,0,0,0,0,
6.38224E+17,7.492068,-0.9351282,-2.264685,15.90041,-62.50273,-17.13316,-0.612559,-1.262423,-9.175476,13.70306,-0.9767859,39.19238,0,0,0,16.69797,-112.0722,-41.38049,-1.197964,-111.2317,-56.30258,0.001067912,-0.1257102,0.09433498,0,0.3,0,0,0,0,
6.38224E+17,12.48678,-0.9351282,-2.264685,16.12015,-62.64922,-17.13316,-0.612559,-1.262423,-9.175476,13.70306,-0.9767859,39.19238,0,0,0,27.68901,-112.0722,-43.31641,-1.197964,-111.2317,-56.30258,0.001067912,-0.1257102,0.09433498,0,0.3,0,0,0,0,
6.38224E+17,14.96058,-0.9351282,-2.288032,16.12015,-62.64922,-17.13316,-0.612559,-1.262423,-9.175476,13.70306,-0.9767859,39.19238,0,0,0,33.04595,-112.07,-44.68052,-1.197964,-111.2317,-56.30258,0.001067912,-0.1257102,0.09433498,0,0.3,0,0,0,0,
6.38224E+17,19.46053,-0.9351282,-2.288032,15.97366,-62.72246,-17.13316,-0.612559,-1.262423,-9.175476,13.70306,-0.9767859,39.19238,0,0,0,42.64698,-112.07,-47.65447,-1.197964,-111.2317,-56.30258,0.001067912,-0.1257102,0.09433498,0,0.3,0,0,0,0,
6.38224E+17,22.7118,-0.9351282,-2.288032,15.90041,-62.72246,-17.05991,-0.612559,-1.262423,-9.175476,13.70306,-0.9767859,39.19238,0,0,0,49.42358,-112.07,-50.26746,-1.197964,-111.2317,-56.30258,0.001067912,-0.1257102,0.09433498,0,0.3,0,0,0,0,
6.38224E+17,23.8898,-0.9351282,-2.288032,15.82717,-62.72246,-17.13316,-0.612559,-1.262423,-9.175476,13.70306,-0.9767859,39.19238,0,0,0,51.84073,-112.07,-51.30849,-1.197964,-111.2317,-56.30258,0.001067912,-0.1257102,0.09433498,0,0.3,0,0,0,0,
6.38224E+17,25.20916,-0.9818845,-2.288032,15.82717,-62.72246,-17.05991,-0.612559,-1.262423,-9.175476,13.70306,-0.9767859,39.19238,0,0,0,54.5211,-112.1788,-52.53481,-1.197964,-111.2317,-56.30258,0.001067912,-0.1257102,0.09433498,0,0.3,0,0,0,0,
6.38224E+17,24.54948,-0.9818845,-2.358074,15.53419,-62.72246,-17.13316,-0.612559,-1.262423,-9.175476,13.70306,-0.9035407,39.19238,0,0,0,53.1164,-112.1722,-52.06292,-1.197964,-111.2317,-56.30258,0.001067912,-0.1257102,0.09433498,0,0.3,0,0,0,0,
6.38224E+17,20.80345,-0.9585064,-2.358074,14.36226,-62.72246,-17.13316,-0.612559,-1.262423,-9.175476,13.70306,-0.9767859,39.19238,0,0,0,45.40574,-112.1178,-48.84021,-1.197964,-111.2317,-56.30258,0.001067912,-0.1257102,0.09433498,0,0.3,0,0,0,0,
6.38224E+17,16.58621,-0.9585064,-2.334727,12.45789,-62.72246,-17.13316,-0.612559,-1.262423,-9.175476,13.70306,-0.9767859,39.19238,0,0,0,36.50976,-112.12,-45.7727,-1.197964,-111.2317,-56.30258,0.001067912,-0.1257102,0.09433498,0,0.3,0,0,0,0,
6.38224E+17,10.83758,-0.9351282,-2.311379,9.308348,-62.72246,-17.13316,-0.612559,-1.262423,-9.175476,13.70306,-0.9035407,39.19238,0,0,0,24.05866,-112.0678,-42.67797,-1.197964,-111.2317,-56.30258,0.001067912,-0.1257102,0.09433498,0,0.3,0,0,0,0,
6.38224E+17,4.052313,-0.9351282,-2.311379,5.646089,-62.72246,-17.13316,-0.612559,-1.262423,-9.175476,13.70306,-0.9767859,39.19238,0,0,0,9.042172,-112.0678,-40.71569,-1.197964,-111.2317,-56.30258,0.001067912,-0.1257102,0.09433498,0,0.3,0,0,0,0,
6.38224E+17,0.9188384,-0.9351282,-2.311379,4.400921,-62.72246,-17.13316,-0.612559,-1.262423,-9.175476,13.70306,-0.9767859,39.19238,0,0,0,2.051883,-112.0678,-40.41225,-1.197964,-111.2317,-56.30258,0.001067912,-0.1257102,0.09433498,0,0.3,0,0,0,0,
6.38224E+17,-4.735552,-0.9351282,-2.311379,3.521979,-62.64922,-17.13316,-0.612559,-1.262423,-9.175476,13.70306,-0.9767859,39.19238,0,0,0,-10.5635,-112.0678,-40.83259,-1.197964,-111.2317,-56.30258,0.001067912,-0.1257102,0.09433498,0,0.3,0,0,0,0,
6.38224E+17,-9.141265,-0.9351282,-2.311379,3.228999,-62.72246,-17.13316,-0.612559,-1.262423,-9.175476,13.70306,-0.9767859,39.19238,0,0,0,-20.32798,-112.0678,-42.02086,-1.197964,-111.2317,-56.30258,0.001067912,-0.1257102,0.09433498,0,0.3,0,0,0,0,
6.38224E+17,-12.25118,-0.9351282,-2.311379,3.082508,-62.64922,-17.13316,-0.612559,-1.262423,-9.175476,13.70306,-0.9767859,39.19238,0,0,0,-27.1516,-112.0678,-43.30973,-1.197964,-111.2317,-56.30258,0.001067912,-0.1257102,0.09433498,0,0.3,0,0,0,0,
6.38224E+17,-13.28782,-0.9351282,-2.311379,3.082508,-62.72246,-17.13316,-0.612559,-1.262423,-9.175476,13.70306,-0.9767859,39.19238,0,0,0,-29.40936,-112.0678,-43.82142,-1.197964,-111.2317,-56.30258,0.001067912,-0.1257102,0.09433498,0,0.3,0,0,0,0,
6.38224E+17,-14.3009,-0.9351282,-2.311379,3.082508,-62.64922,-17.13316,-0.612559,-1.262423,-9.175476,13.70306,-0.9767859,39.19238,0,0,0,-31.6065,-112.0678,-44.36086,-1.197964,-111.2317,-56.30258,0.001067912,-0.1257102,0.09433498,0,0.3,0,0,0,0,
6.38224E+17,-14.23022,-0.9351282,-2.311379,3.155754,-62.64922,-17.13316,-0.612559,-1.262423,-9.175476,13.70306,-0.9767859,39.19238,0,0,0,-31.45353,-112.0678,-44.32196,-1.197964,-111.2317,-56.30258,0.001067912,-0.1257102,0.09433498,0,0.3,0,0,0,0,
6.38224E+17,-13.3585,-0.9818845,-2.334727,2.862773,-62.72246,-17.13316,-0.612559,-1.262423,-9.175476,13.70306,-0.9767859,39.19238,0,0,0,-29.54999,-112.1744,-43.91239,-1.197964,-111.2317,-56.30258,0.001067912,-0.1257102,0.09433498,0,0.3,0,0,0,0,
6.38224E+17,-11.63862,-0.9585064,-2.358074,3.375489,-62.72246,-17.13316,-0.612559,-1.262423,-9.175476,13.70306,-0.9035407,39.19238,0,0,0,-25.79116,-112.1178,-43.13383,-1.197964,-111.2317,-56.30258,0.001067912,-0.1257102,0.09433498,0,0.3,0,0,0,0,
6.38224E+17,-5.253871,-0.9585064,-2.358074,6.891257,-62.72246,-17.13316,-0.612559,-1.262423,-9.175476,13.70306,-0.9767859,39.19238,0,0,0,-11.7066,-112.1178,-41.04239,-1.197964,-111.2317,-56.30258,0.001067912,-0.1257102,0.09433498,0,0.3,0,0,0,0,
6.38224E+17,2.261756,-0.9351282,-2.264685,12.53114,-62.72246,-17.13316,-0.612559,-1.262423,-9.175476,13.70306,-0.9035407,39.19238,0,0,0,5.053978,-112.0722,-40.38697,-1.197964,-111.2317,-56.30258,0.001067912,-0.1257102,0.09433498,0,0.3,0,0,0,0,
6.38224E+17,5.88999,-0.9351282,-2.264685,14.87498,-62.64922,-17.13316,-0.612559,-1.262423,-9.175476,13.70306,-0.9767859,39.19238,0,0,0,13.14164,-112.0722,-40.96328,-1.197964,-111.2317,-56.30258,0.001067912,-0.1257102,0.09433498,0,0.3,0,0,0,0,
6.38224E+17,12.69882,-0.9351282,-2.241338,17.43856,-62.42948,-17.13316,-0.612559,-1.262423,-9.175476,13.70306,-0.9767859,39.19238,0,0,0,28.16348,-112.0743,-43.36677,-1.197964,-111.2317,-56.30258,0.001067912,-0.1257102,0.09433498,0,0.3,0,0,0,0,
6.38224E+17,18.32965,-0.9351282,-2.264685,17.87803,-62.50273,-17.13316,-0.612559,-1.262423,-9.175476,13.70306,-0.9767859,39.19238,0,0,0,40.27366,-112.0722,-46.78475,-1.197964,-111.2317,-56.30258,0.001067912,-0.1257102,0.09433498,0,0.3,0,0,0,0,
6.38224E+17,20.94481,-0.9351282,-2.264685,17.73154,-62.57597,-17.13316,-0.612559,-1.262423,-9.175476,13.62981,-0.9767859,39.19238,0,0,0,45.77841,-112.0722,-48.74893,-1.197964,-111.2317,-56.30258,0.001067912,-0.1257102,0.09433498,0,0.3,0,0,0,0,
6.38224E+17,25.02068,-0.9351282,-2.264685,17.14558,-62.72246,-17.13316,-0.612559,-1.262423,-9.175476,13.70306,-0.9035407,39.19238,0,0,0,54.16356,-112.0722,-52.30523,-1.197964,-111.2317,-56.30258,0.001067912,-0.1257102,0.09433498,0,0.3,0,0,0,0,
6.38224E+17,27.56516,-1.028641,-2.264685,16.77936,-62.79571,-17.13316,-0.612559,-1.262423,-9.175476,13.62981,-0.9767859,39.19238,0,0,0,59.26023,-112.2898,-54.82754,-1.197964,-111.2317,-56.30258,0.001067912,-0.1257102,0.09433498,0,0.3,0,0,0,0,
6.38224E+17,27.28243,-0.9585064,-2.404768,15.68068,-62.79571,-17.13316,-0.612559,-1.262423,-9.175476,13.70306,-0.9767859,39.19238,0,0,0,58.55132,-112.1133,-54.82351,-1.197964,-111.2317,-56.30258,0.001067912,-0.1257102,0.09433498,0,0.3,0,0,0,0,
6.38224E+17,25.82172,-1.005263,-2.381421,14.43551,-62.86895,-17.13316,-0.612559,-1.262423,-9.175476,13.70306,-0.9767859,39.19238,0,0,0,55.66116,-112.2244,-53.32065,-1.197964,-111.2317,-56.30258,0.001067912,-0.1257102,0.09433498,0,0.3,0,0,0,0,
6.38224E+17,20.30869,-0.9818845,-2.358074,9.821064,-62.86895,-17.13316,-0.612559,-1.262423,-9.175476,13.70306,-0.9767859,39.19238,0,0,0,44.37175,-112.1722,-48.45345,-1.197964,-111.2317,-56.30258,0.001067912,-0.1257102,0.09433498,0,0.3,0,0,0,0,
6.38224E+17,13.19358,-0.9585064,-2.334727,3.302244,-62.86895,-17.13316,-0.612559,-1.262423,-9.175476,13.62981,-0.9767859,39.19238,0,0,0,29.19189,-112.12,-43.82695,-1.197964,-111.2317,-56.30258,0.001067912,-0.1257102,0.09433498,0,0.3,0,0,0,0,
6.38224E+17,9.329745,-0.9585064,-2.311379,-0.2135241,-62.86895,-17.13316,-0.612559,-1.262423,-9.175476,13.70306,-0.9767859,39.19238,0,0,0,20.74329,-112.1222,-42.0893,-1.197964,-111.2317,-56.30258,0.001067912,-0.1257102,0.09433498,0,0.3,0,0,0,0,
6.38224E+17,1.107318,-0.9351282,-2.264685,-6.292873,-62.72246,-17.13316,-0.612559,-1.262423,-9.175476,13.70306,-0.9767859,39.19238,0,0,0,2.474832,-112.0722,-40.31112,-1.197964,-111.2317,-56.30258,0.001067912,-0.1257102,0.09433498,0,0.3,0,0,0,0,
6.38224E+17,-6.408309,-0.9351282,-2.264685,-9.295925,-62.57597,-17.13316,-0.612559,-1.262423,-9.175476,13.70306,-0.9767859,39.26562,0,0,0,-14.29348,-112.0722,-41.08738,-1.197964,-111.2317,-56.30258,0.001067912,-0.1257102,0.09433498,0,0.3,0,0,0,0,
6.38224E+17,-12.62814,-0.9351282,-2.264685,-9.588906,-62.50273,-17.13316,-0.612559,-1.262423,-9.175476,13.70306,-0.9035407,39.26562,0,0,0,-27.99741,-112.0722,-43.38511,-1.197964,-111.2317,-56.30258,0.001067912,-0.1257102,0.09433498,0,0.3,0,0,0,0,
6.38224E+17,-17.48149,-0.9351282,-2.264685,-8.343738,-62.57597,-17.13316,-0.612559,-1.262423,-9.175476,13.70306,-0.9767859,39.19238,0,0,0,-38.46977,-112.0722,-46.20191,-1.197964,-111.2317,-56.30258,0.001067912,-0.1257102,0.09433498,0,0.3,0,0,0,0,
6.38224E+17,-19.29561,-0.9351282,-2.264685,-7.391551,-62.64922,-17.13316,-0.612559,-1.262423,-9.175476,13.70306,-0.9767859,39.19238,0,0,0,-42.31733,-112.0722,-47.48097,-1.197964,-111.2317,-56.30258,0.001067912,-0.1257102,0.09433498,0,0.3,0,0,0,0,
6.38224E+17,-21.72228,-0.9351282,-2.264685,-5.853402,-62.72246,-17.13316,-0.612559,-1.262423,-9.175476,13.70306,-0.9767859,39.19238,0,0,0,-47.39708,-112.0722,-49.38111,-1.197964,-111.2317,-56.30258,0.001067912,-0.1257102,0.09433498,0,0.3,0,0,0,0,
6.38224E+17,-22.45264,-0.9818845,-2.288032,-4.901215,-62.72246,-17.13316,-0.612559,-1.262423,-9.175476,13.70306,-0.9767859,39.19238,0,0,0,-48.88827,-112.1788,-50.0468,-1.197964,-111.2317,-56.30258,0.001067912,-0.1257102,0.09433498,0,0.3,0,0,0,0,
6.38224E+17,-21.93432,-0.9818845,-2.311379,-4.608234,-62.72246,-17.13316,-0.612559,-1.262423,-9.175476,13.70306,-0.9767859,39.19238,0,0,0,-47.79579,-112.1766,-49.65975,-1.197964,-111.2317,-56.30258,0.001067912,-0.1257102,0.09433498,0,0.3,0,0,0,0,
6.38224E+17,-18.94221,-1.028641,-2.311379,-3.802537,-62.72246,-17.13316,-0.612559,-1.262423,-9.175476,13.70306,-0.9767859,39.19238,0,0,0,-41.53455,-112.2854,-47.3285,-1.197964,-111.2317,-56.30258,0.001067912,-0.1257102,0.09433498,0,0.3,0,0,0,0,
6.38224E+17,-14.74854,-0.9818845,-2.311379,-2.85035,-62.72246,-17.13316,-0.612559,-1.262423,-9.175476,13.70306,-0.9767859,39.19238,0,0,0,-32.57376,-112.1766,-44.61333,-1.197964,-111.2317,-56.30258,0.001067912,-0.1257102,0.09433498,0,0.3,0,0,0,0,
6.38224E+17,-9.753823,-0.9818845,-2.311379,-2.191144,-62.64922,-17.13316,-0.612559,-1.262423,-9.175476,13.62981,-0.9767859,39.19238,0,0,0,-21.67709,-112.1766,-42.2472,-1.197964,-111.2317,-56.30258,0.001067912,-0.1257102,0.09433498,0,0.3,0,0,0,0,
6.38224E+17,-7.350708,-0.9351282,-2.311379,-1.971408,-62.64922,-17.13316,-0.612559,-1.262423,-9.175476,13.70306,-0.9767859,39.19238,0,0,0,-16.37077,-112.0678,-41.44738,-1.197964,-111.2317,-56.30258,0.001067912,-0.1257102,0.09433498,0,0.3,0,0,0,0,
6.38224E+17,-2.944995,-0.9351282,-2.311379,-1.898163,-62.64922,-17.13316,-0.612559,-1.262423,-9.175476,13.70306,-0.9767859,39.19238,0,0,0,-6.573933,-112.0678,-40.56479,-1.197964,-111.2317,-56.30258,0.001067912,-0.1257102,0.09433498,0,0.3,0,0,0,0,
6.38224E+17,0.612559,-0.9351282,-2.311379,-2.117898,-62.72246,-17.13316,-0.612559,-1.262423,-9.175476,13.70306,-0.9767859,39.19238,0,0,0,1.367954,-112.0678,-40.40311,-1.197964,-111.2317,-56.30258,0.001067912,-0.1257102,0.09433498,0,0.3,0,0,0,0,
6.38224E+17,3.557554,-0.9351282,-2.311379,-2.337634,-62.72246,-17.13316,-0.612559,-1.262423,-9.175476,13.70306,-0.9767859,39.19238,0,0,0,7.939704,-112.0678,-40.64237,-1.197964,-111.2317,-56.30258,0.001067912,-0.1257102,0.09433498,0,0.3,0,0,0,0,
6.38224E+17,4.335033,-0.9351282,-2.311379,-2.410879,-62.72246,-17.13316,-0.612559,-1.262423,-9.175476,13.70306,-0.9767859,39.26562,0,0,0,9.671857,-112.0678,-40.76186,-1.197964,-111.2317,-56.30258,0.001067912,-0.1257102,0.09433498,0,0.3,0,0,0,0,
6.38224E+17,5.86643,-0.9351282,-2.311379,-2.557369,-62.72246,-17.13316,-0.612559,-1.262423,-9.175476,13.70306,-0.9767859,39.19238,0,0,0,13.07816,-112.0678,-41.06591,-1.197964,-111.2317,-56.30258,0.001067912,-0.1257102,0.09433498,0,0.3,0,0,0,0,
6.38224E+17,7.185789,-0.9585064,-2.311379,-2.630615,-62.72246,-17.13316,-0.612559,-1.262423,-9.175476,13.70306,-0.9767859,39.19238,0,0,0,16.00531,-112.1222,-41.40167,-1.197964,-111.2317,-56.30258,0.001067912,-0.1257102,0.09433498,0,0.3,0,0,0,0,
6.38224E+17,8.528707,-0.9351282,-2.311379,-2.410879,-62.64922,-17.13316,-0.612559,-1.262423,-9.175476,13.70306,-0.9767859,39.19238,0,0,0,18.97623,-112.0678,-41.81076,-1.197964,-111.2317,-56.30258,0.001067912,-0.1257102,0.09433498,0,0.3,0,0,0,0,
6.38224E+17,12.8873,-0.9351282,-2.311379,-1.092466,-62.64922,-17.13316,-0.612559,-1.262423,-9.175476,13.70306,-0.9767859,39.19238,0,0,0,28.53814,-112.0678,-43.61888,-1.197964,-111.2317,-56.30258,0.001067912,-0.1257102,0.09433498,0,0.3,0,0,0,0,
6.38224E+17,19.64901,-0.9351282,-2.311379,0.6654179,-62.64922,-17.13316,-0.612559,-1.262423,-9.175476,13.62981,-0.9767859,39.19238,0,0,0,43.02552,-112.0678,-47.84655,-1.197964,-111.2317,-56.30258,0.001067912,-0.1257102,0.09433498,0,0.3,0,0,0,0,
6.38224E+17,27.98923,-0.9351282,-2.288032,2.203566,-62.64922,-17.13316,-0.612559,-1.262423,-9.175476,13.70306,-0.9035407,39.19238,0,0,0,60.07511,-112.07,-55.31392,-1.197964,-111.2317,-56.30258,0.001067912,-0.1257102,0.09433498,0,0.3,0,0,0,0,
6.38224E+17,30.08607,-0.9351282,-2.288032,2.350057,-62.64922,-17.13316,-0.612559,-1.262423,-9.175476,13.62981,-0.9767859,39.19238,0,0,0,64.17071,-112.07,-57.58766,-1.197964,-111.2317,-56.30258,0.001067912,-0.1257102,0.09433498,0,0.3,0,0,0,0,
6.38224E+17,36.98914,-1.028641,-2.311379,2.350057,-62.64922,-17.13316,-0.612559,-1.262423,-9.175476,13.70306,-0.9035407,39.19238,0,0,0,76.98315,-112.2854,-66.14961,-1.197964,-111.2317,-56.30258,0.001067912,-0.1257102,0.09433498,0,0.3,0,0,0,0,
6.38224E+17,37.2483,-1.005263,-2.358074,1.617605,-62.72246,-17.13316,-0.612559,-1.262423,-9.175476,13.70306,-0.9767859,39.19238,0,0,0,77.37949,-112.2266,-66.58453,-1.197964,-111.2317,-56.30258,0.001067912,-0.1257102,0.09433498,0,0.3,0,0,0,0,
6.38224E+17,35.57554,-1.005263,-2.381421,-2.630615,-62.79571,-17.13316,-0.612559,-1.262423,-9.175476,13.70306,-0.9767859,39.19238,0,0,0,74.34429,-112.2244,-64.41328,-1.197964,-111.2317,-56.30258,0.001067912,-0.1257102,0.09433498,0,0.3,0,0,0,0,
6.38224E+17,32.48919,-1.005263,-2.381421,-8.124002,-62.79571,-17.13316,-0.612559,-1.262423,-9.175476,13.70306,-0.9767859,39.19238,0,0,0,68.6404,-112.2244,-60.56126,-1.197964,-111.2317,-56.30258,0.001067912,-0.1257102,0.09433498,0,0.3,0,0,0,0,
6.38224E+17,30.06251,-1.005263,-2.381421,-10.90732,-62.79571,-17.13316,-0.612559,-1.262423,-9.175476,13.70306,-0.9767859,39.19238,0,0,0,64.01498,-112.2244,-57.75164,-1.197964,-111.2317,-56.30258,0.001067912,-0.1257102,0.09433498,0,0.3,0,0,0,0,
6.38224E+17,22.9474,-0.9818845,-2.358074,-16.32746,-62.79571,-17.13316,-0.612559,-1.262423,-9.175476,13.70306,-0.9767859,39.26562,0,0,0,49.8445,-112.1722,-50.62336,-1.197964,-111.2317,-56.30258,0.001067912,-0.1257102,0.09433498,0,0.3,0,0,0,0,
6.38224E+17,13.31138,-0.9818845,-2.241338,-21.60111,-62.20975,-17.13316,-0.612559,-1.262423,-9.175476,13.62981,-0.9767859,39.19238,0,0,0,29.49764,-112.1831,-43.67678,-1.197964,-111.2317,-56.30258,0.001067912,-0.1257102,0.09433498,0,0.3,0,0,0,0,
6.38224E+17,8.033947,-0.9585064,-2.171296,-24.0182,-61.62378,-17.13316,-0.612559,-1.262423,-9.175476,13.70306,-0.9767859,39.26562,0,0,0,17.92826,-112.135,-41.32992,-1.197964,-111.2317,-56.30258,0.001067912,-0.1257102,0.09433498,0,0.3,0,0,0,0,
6.38224E+17,-2.403116,-0.9351282,-2.054559,-27.24099,-60.01239,-17.13316,-0.612559,-1.262423,-9.175476,13.70306,-0.9767859,39.19238,0,0,0,-5.390163,-112.0906,-39.91156,-1.197964,-111.2317,-56.30258,0.001067912,-0.1257102,0.09433498,0,0.3,0,0,0,0,
6.38224E+17,-12.6517,-0.9351282,-2.007865,-27.38748,-58.18126,-17.13316,-0.612559,-1.262423,-9.175476,13.70306,-0.9767859,39.19238,0,0,0,-28.17962,-112.0944,-42.81383,-1.197964,-111.2317,-56.30258,0.001067912,-0.1257102,0.09433498,0,0.3,0,0,0,0,
6.38224E+17,-19.29561,-0.9351282,-2.007865,-24.38443,-57.22908,-17.13316,-0.612559,-1.262423,-9.175476,13.70306,-0.9767859,39.19238,0,0,0,-42.51471,-112.0944,-46.91722,-1.197964,-111.2317,-56.30258,0.001067912,-0.1257102,0.09433498,0,0.3,0,0,0,0,
6.38224E+17,-22.54688,-0.9351282,-2.007865,-21.16164,-56.9361,-17.13316,-0.612559,-1.262423,-9.175476,13.70306,-0.9767859,39.26562,0,0,0,-49.33334,-112.0944,-49.5239,-1.197964,-111.2317,-56.30258,0.001067912,-0.1257102,0.09433498,0,0.3,0,0,0,0,
6.38224E+17,-27.80075,-0.9351282,-2.031212,-11.71302,-56.56987,-17.13316,-0.612559,-1.262423,-9.175476,13.70306,-0.9035407,39.19238,0,0,0,-59.98152,-112.0925,-54.58855,-1.197964,-111.2317,-56.30258,0.001067912,-0.1257102,0.09433498,0,0.3,0,0,0,0,
6.38224E+17,-31.47611,-0.9351282,-2.031212,0.9583986,-56.49662,-17.13316,-0.612559,-1.262423,-9.175476,13.70306,-1.050031,39.19238,0,0,0,-67.15061,-112.0925,-58.66752,-1.197964,-111.2317,-56.30258,0.001067912,-0.1257102,0.09433498,0,0.3,0,0,0,0,
6.38224E+17,-32.91327,-0.9351282,-2.031212,8.868877,-56.49662,-17.13316,-0.612559,-1.262423,-9.175476,13.70306,-0.9767859,39.19238,0,0,0,-69.88038,-112.0925,-60.3862,-1.197964,-111.2317,-56.30258,0.001067912,-0.1257102,0.09433498,0,0.3,0,0,0,0,
6.38224E+17,-34.35042,-0.9351282,-2.031212,21.83327,-56.35013,-17.13316,-0.612559,-1.262423,-9.175476,13.70306,-0.9767859,39.19238,0,0,0,-72.56618,-112.0925,-62.17279,-1.197964,-111.2317,-56.30258,0.001067912,-0.1257102,0.09433498,0,0.3,0,0,0,0,
6.38224E+17,-34.6567,-0.9351282,-2.101254,35.09065,-56.27689,-17.13316,-0.612559,-1.262423,-9.175476,13.70306,-0.9767859,39.19238,0,0,0,-73.04008,-112.0867,-62.69622,-1.197964,-111.2317,-56.30258,0.001067912,-0.1257102,0.09433498,0,0.3,0,0,0,0,
6.38224E+17,-34.60958,-0.9351282,-2.147949,40.95026,-56.27689,-17.13316,-0.612559,-1.262423,-9.175476,13.70306,-0.9035407,39.19238,0,0,0,-72.89149,-112.0826,-62.72557,-1.197964,-111.2317,-56.30258,0.001067912,-0.1257102,0.09433498,0,0.3,0,0,0,0,
6.38224E+17,-34.63314,-0.9818845,-2.194643,50.83836,-57.15583,-17.13316,-0.612559,-1.262423,-9.175476,13.70306,-0.9767859,39.19238,0,0,0,-72.87216,-112.1873,-62.84641,-1.197964,-111.2317,-56.30258,0.001067912,-0.1257102,0.09433498,0,0.3,0,0,0,0,
6.38224E+17,-34.53891,-1.005263,-2.264685,54.57386,-58.76722,-17.13316,-0.612559,-1.262423,-9.175476,13.70306,-0.9767859,39.19238,0,0,0,-72.60564,-112.2354,-62.86165,-1.197964,-111.2317,-56.30258,0.001067912,-0.1257102,0.09433498,0,0.3,0,0,0,0,
6.38224E+17,-34.46822,-1.005263,-2.264685,55.59929,-59.8659,-17.13316,-0.612559,-1.262423,-9.175476,13.70306,-0.9767859,39.19238,0,0,0,-72.47546,-112.2354,-62.77216,-1.197964,-111.2317,-56.30258,0.001067912,-0.1257102,0.09433498,0,0.3,0,0,0,0,
6.38224E+17,-33.43158,-0.9585064,-2.404768,56.69797,-61.77028,-17.13316,-0.612559,-1.262423,-9.175476,13.70306,-0.9767859,39.19238,0,0,0,-70.37505,-112.1133,-61.74854,-1.197964,-111.2317,-56.30258,0.001067912,-0.1257102,0.09433498,0,0.3,0,0,0,0,
6.38224E+17,-33.19599,-0.9351282,-2.358074,56.69797,-62.57597,-17.13316,-0.612559,-1.262423,-9.175476,13.70306,-0.9767859,39.26562,0,0,0,-69.99606,-112.0634,-61.36845,-1.197964,-111.2317,-56.30258,0.001067912,-0.1257102,0.09433498,0,0.3,0,0,0,0,
6.38224E+17,-33.19599,-0.9117499,-2.381421,56.2585,-62.72246,-17.13316,-0.612559,-1.262423,-9.175476,13.62981,-0.9767859,39.19238,0,0,0,-69.96682,-112.0067,-61.41314,-1.197964,-111.2317,-56.30258,0.001067912,-0.1257102,0.09433498,0,0.3,0,0,0,0,
6.38224E+17,-33.19599,-0.9351282,-2.381421,55.67254,-62.86895,-17.13316,-0.612559,-1.262423,-9.175476,13.62981,-0.9767859,39.19238,0,0,0,-69.96634,-112.0611,-61.41388,-1.197964,-111.2317,-56.30258,0.001067912,-0.1257102,0.09433498,0,0.3,0,0,0,0,
6.38224E+17,-33.19599,-0.9351282,-2.381421,55.37956,-62.9422,-17.13316,-0.612559,-1.262423,-9.175476,13.62981,-0.9767859,39.19238,0,0,0,-69.96634,-112.0611,-61.41388,-1.197964,-111.2317,-56.30258,0.001067912,-0.1257102,0.09433498,0,0.3,0,0,0,0,
6.38224E+17,-33.19599,-0.9351282,-2.381421,55.15982,-62.9422,-17.13316,-0.612559,-1.262423,-9.175476,13.62981,-0.9767859,39.19238,0,0,0,-69.96634,-112.0611,-61.41388,-1.197964,-111.2317,-56.30258,0.001067912,-0.1257102,0.09433498,0,0.3,0,0,0,0,
6.38224E+17,-33.19599,-0.9351282,-2.381421,55.08658,-62.9422,-17.13316,-0.612559,-1.262423,-9.175476,13.70306,-0.9767859,39.19238,0,0,0,-69.96634,-112.0611,-61.41388,-1.197964,-111.2317,-56.30258,0.001067912,-0.1257102,0.09433498,0,0.3,0,0,0,0,
6.38224E+17,-33.19599,-0.9351282,-2.381421,55.01333,-63.01544,-17.2064,-0.612559,-1.262423,-9.175476,13.70306,-0.9767859,39.19238,0,0,0,-69.96634,-112.0611,-61.41388,-1.197964,-111.2317,-56.30258,0.001067912,-0.1257102,0.09433498,0,0.3,0,0,0,0,
6.38224E+17,-33.19599,-0.9351282,-2.381421,55.01333,-62.9422,-17.13316,-0.612559,-1.262423,-9.175476,13.70306,-0.9035407,39.19238,0,0,0,-69.96634,-112.0611,-61.41388,-1.197964,-111.2317,-56.30258,0.001067912,-0.1257102,0.09433498,0,0.3,0,0,0,0,
6.38224E+17,-33.19599,-0.9585064,-2.381421,55.01333,-63.01544,-17.13316,-0.612559,-1.262423,-9.175476,13.70306,-0.9767859,39.19238,0,0,0,-69.96584,-112.1156,-61.41463,-1.197964,-111.2317,-56.30258,0.001067912,-0.1257102,0.09433498,0,0.3,0,0,0,0,
6.38224E+17,-33.17242,-0.9818845,-2.404768,54.94009,-63.01544,-17.13316,-0.612559,-1.262423,-9.175476,13.70306,-0.9767859,39.19238,0,0,0,-69.89165,-112.1677,-61.43208,-1.197964,-111.2317,-56.30258,0.001067912,-0.1257102,0.09433498,0,0.3,0,0,0,0,
6.38224E+17,-32.77191,-1.005263,-2.381421,54.94009,-62.9422,-17.13316,-0.612559,-1.262423,-9.175476,13.70306,-0.9767859,39.19238,0,0,0,-69.17143,-112.2244,-60.90127,-1.197964,-111.2317,-56.30258,0.001067912,-0.1257102,0.09433498,0,0.3,0,0,0,0,
6.38224E+17,-30.46303,-0.9818845,-2.428116,55.01333,-62.79571,-17.13316,-0.612559,-1.262423,-9.175476,13.70306,-0.9767859,39.26562,0,0,0,-64.73196,-112.1654,-58.2946,-1.197964,-111.2317,-56.30258,0.001067912,-0.1257102,0.09433498,0,0.3,0,0,0,0,
6.38224E+17,-26.81124,-1.005263,-2.428116,55.01333,-62.06326,-17.13316,-0.612559,-1.262423,-9.175476,13.70306,-0.9035407,39.19238,0,0,0,-57.59038,-112.2198,-54.39595,-1.197964,-111.2317,-56.30258,0.001067912,-0.1257102,0.09433498,0,0.3,0,0,0,0,
6.38224E+17,-19.81393,-0.9818845,-2.404768,55.15982,-61.11107,-17.13316,-0.612559,-1.262423,-9.175476,13.70306,-0.9767859,39.19238,0,0,0,-43.29797,-112.1677,-48.17691,-1.197964,-111.2317,-56.30258,0.001067912,-0.1257102,0.09433498,0,0.3,0,0,0,0,
6.38224E+17,-14.15954,-0.9585064,-2.381421,55.15982,-60.45186,-17.13316,-0.612559,-1.262423,-9.175476,13.70306,-0.9035407,39.19238,0,0,0,-31.26044,-112.1156,-44.44206,-1.197964,-111.2317,-56.30258,0.001067912,-0.1257102,0.09433498,0,0.3,0,0,0,0,
6.38224E+17,-10.20146,-0.9585064,-2.334727,55.15982,-60.01239,-17.13316,-0.612559,-1.262423,-9.175476,13.70306,-0.9767859,39.19238,0,0,0,-22.65218,-112.12,-42.47293,-1.197964,-111.2317,-56.30258,0.001067912,-0.1257102,0.09433498,0,0.3,0,0,0,0,
6.38224E+17,-2.426676,-0.9351282,-2.241338,54.86684,-59.35318,-17.13316,-0.612559,-1.262423,-9.175476,13.70306,-0.9767859,39.19238,0,0,0,-5.424583,-112.0743,-40.34781,-1.197964,-111.2317,-56.30258,0.001067912,-0.1257102,0.09433498,0,0.3,0,0,0,0,
6.38224E+17,5.018272,-0.9351282,-2.241338,53.62167,-59.35318,-17.13316,-0.612559,-1.262423,-9.175476,13.70306,-0.9767859,39.19238,0,0,0,11.20684,-112.0743,-40.724,-1.197964,-111.2317,-56.30258,0.001067912,-0.1257102,0.09433498,0,0.3,0,0,0,0,
6.38224E+17,12.20406,-0.9351282,-2.21799,51.20458,-60.23213,-17.13316,-0.612559,-1.262423,-9.175476,13.70306,-0.9767859,39.19238,0,0,0,27.09467,-112.0764,-43.07517,-1.197964,-111.2317,-56.30258,0.001067912,-0.1257102,0.09433498,0,0.3,0,0,0,0,
6.38224E+17,15.80873,-0.9351282,-2.21799,49.59319,-60.89133,-17.13316,-0.612559,-1.262423,-9.175476,13.70306,-0.9767859,39.26562,0,0,0,34.91734,-112.0764,-45.02651,-1.197964,-111.2317,-56.30258,0.001067912,-0.1257102,0.09433498,0,0.3,0,0,0,0,
6.38224E+17,22.28772,-0.9351282,-2.241338,45.85769,-61.99001,-17.13316,-0.612559,-1.262423,-9.175476,13.62981,-0.9767859,39.19238,0,0,0,48.58942,-112.0743,-49.80441,-1.197964,-111.2317,-56.30258,0.001067912,-0.1257102,0.09433498,0,0.3,0,0,0,0,
6.38224E+17,28.05991,-0.9351282,-2.241338,42.41516,-62.57597,-17.13316,-0.612559,-1.262423,-9.175476,13.70306,-0.9767859,39.19238,0,0,0,60.26559,-112.0743,-55.29228,-1.197964,-111.2317,-56.30258,0.001067912,-0.1257102,0.09433498,0,0.3,0,0,0,0,
6.38224E+17,32.25359,-0.9351282,-2.241338,39.92483,-62.79571,-17.13316,-0.612559,-1.262423,-9.175476,13.70306,-0.9767859,39.26562,0,0,0,68.37192,-112.0743,-60.00209,-1.197964,-111.2317,-56.30258,0.001067912,-0.1257102,0.09433498,0,0.3,0,0,0,0,
6.38224E+17,35.90538,-0.9351282,-2.241338,38.0937,-62.86895,-17.13316,-0.612559,-1.262423,-9.175476,13.70306,-0.9035407,39.19238,0,0,0,75.13406,-112.0743,-64.57688,-1.197964,-111.2317,-56.30258,0.001067912,-0.1257102,0.09433498,0,0.3,0,0,0,0,
6.38224E+17,40.47601,-0.9351282,-2.241338,36.6288,-63.01544,-17.13316,-0.612559,-1.262423,-9.175476,13.70306,-0.9767859,39.19238,0,0,0,83.1646,-112.0743,-70.89417,-1.197964,-111.2317,-56.30258,0.001067912,-0.1257102,0.09433498,0,0.3,0,0,0,0,
6.38224E+17,44.48121,-0.9351282,-2.241338,35.89634,-63.01544,-17.13316,-0.612559,-1.262423,-9.175476,13.70306,-0.9767859,39.19238,0,0,0,89.76848,-112.0743,-76.94098,-1.197964,-111.2317,-56.30258,0.001067912,-0.1257102,0.09433498,0,0.3,0,0,0,0,
6.38224E+17,48.2508,-0.9351282,-2.241338,35.38363,-63.01544,-17.13316,-0.612559,-1.262423,-9.175476,13.70306,-0.9767859,39.19238,0,0,0,95.58389,-112.0743,-83.04051,-1.197964,-111.2317,-56.30258,0.001067912,-0.1257102,0.09433498,0,0.3,0,0,0,0,
6.38224E+17,49.71152,-0.9351282,-2.241338,35.31038,-63.01544,-17.13316,-0.612559,-1.262423,-9.175476,13.70306,-0.9767859,39.19238,0,0,0,97.7275,-112.0743,-85.50482,-1.197964,-111.2317,-56.30258,0.001067912,-0.1257102,0.09433498,0,0.3,0,0,0,0,
6.38224E+17,52.04396,-0.9351282,-1.844434,35.31038,-62.57597,-17.2064,-0.612559,-1.262423,-9.175476,13.70306,-0.9767859,39.19238,0,0,0,101.746,-112.1072,-88.98292,-1.197964,-111.2317,-56.30258,0.001067912,-0.1257102,0.09433498,0,0.3,0,0,0,0,
6.38224E+17,54.11723,-0.9351282,-1.914476,34.87091,-59.49968,-17.42614,-0.612559,-1.262423,-9.175476,13.62981,-0.9767859,39.19238,0,0,0,104.4187,-112.1019,-92.81129,-1.197964,-111.2317,-56.30258,0.001067912,-0.1257102,0.09433498,0,0.3,0,0,0,0,
6.38224E+17,54.94183,-0.9351282,-1.891129,34.65118,-57.74179,-17.64587,-0.612559,-1.262423,-9.175476,13.70306,-0.9767859,39.19238,0,0,0,105.5395,-112.1037,-94.29066,-1.197964,-111.2317,-56.30258,0.001067912,-0.1257102,0.09433498,0,0.3,0,0,0,0,
6.38224E+17,55.22455,-0.9351282,-1.891129,34.13846,-54.15278,-18.30508,-0.612559,-1.262423,-9.175476,13.62981,-0.9767859,39.19238,0,0,0,105.9036,-112.1037,-94.81233,-1.197964,-111.2317,-56.30258,0.001067912,-0.1257102,0.09433498,0,0.3,0,0,0,0,
6.38224E+17,55.27167,-0.8182371,-1.867781,32.38057,-52.17516,-18.67131,-0.612559,-1.262423,-9.175476,13.70306,-0.9035407,39.19238,0,0,0,106.0121,-111.8335,-94.86614,-1.197964,-111.2317,-56.30258,0.001067912,-0.1257102,0.09433498,0,0.3,0,0,0,0,
6.38224E+17,55.27167,-0.7714807,-1.891129,31.2819,-51.51595,-18.8178,-0.612559,-1.262423,-9.175476,13.70306,-0.9767859,39.19238,0,0,0,105.9687,-111.7229,-94.89622,-1.197964,-111.2317,-56.30258,0.001067912,-0.1257102,0.09433498,0,0.3,0,0,0,0,
6.38224E+17,55.27167,-0.7481025,-1.867781,31.2819,-51.29622,-18.74455,-0.612559,-1.262423,-9.175476,13.70306,-0.9767859,39.19238,0,0,0,106.014,-111.6702,-94.86488,-1.197964,-111.2317,-56.30258,0.001067912,-0.1257102,0.09433498,0,0.3,0,0,0,0,
6.38224E+17,55.27167,-0.6312115,-1.867781,31.72137,-51.14973,-18.67131,-0.612559,-1.262423,-9.175476,13.70306,-0.9767859,39.19238,0,0,0,106.0166,-111.3982,-94.86301,-1.197964,-111.2317,-56.30258,0.001067912,-0.1257102,0.09433498,0,0.3,0,0,0,0,
6.38224E+17,55.27167,-0.5610769,-1.867781,32.01435,-51.14973,-18.67131,-0.612559,-1.262423,-9.175476,13.70306,-0.9767859,39.19238,0,0,0,106.018,-111.235,-94.86204,-1.197964,-111.2317,-56.30258,0.001067912,-0.1257102,0.09433498,0,0.3,0,0,0,0,
6.38224E+17,55.24811,-0.5610769,-1.867781,32.16084,-51.14973,-18.67131,-0.612559,-1.262423,-9.175476,13.62981,-0.9767859,39.19238,0,0,0,105.9878,-111.235,-94.81845,-1.197964,-111.2317,-56.30258,0.001067912,-0.1257102,0.09433498,0,0.3,0,0,0,0,
6.38224E+17,55.22455,-0.5610769,-1.867781,32.30733,-51.22297,-18.59806,-0.612559,-1.262423,-9.175476,13.70306,-0.9767859,39.19238,0,0,0,105.9576,-111.235,-94.77488,-1.197964,-111.2317,-56.30258,0.001067912,-0.1257102,0.09433498,0,0.3,0,0,0,0,
6.38224E+17,54.96539,-0.6545897,-1.867781,32.30733,-51.29622,-18.45157,-0.612559,-1.262423,-9.175476,13.70306,-0.9767859,39.19238,0,0,0,105.6218,-111.4526,-94.29769,-1.197964,-111.2317,-56.30258,0.001067912,-0.1257102,0.09433498,0,0.3,0,0,0,0,
6.38224E+17,54.18791,-0.9585064,-1.867781,32.01435,-51.5892,-18.37833,-0.612559,-1.262423,-9.175476,13.70306,-0.9767859,39.19238,0,0,0,104.5992,-112.1599,-92.87714,-1.197964,-111.2317,-56.30258,0.001067912,-0.1257102,0.09433498,0,0.3,0,0,0,0,
6.38224E+17,52.82143,-0.9585064,-1.937823,31.42839,-52.83437,-18.30508,-0.612559,-1.262423,-9.175476,13.70306,-0.9767859,39.26562,0,0,0,102.6398,-112.1545,-90.50265,-1.197964,-111.2317,-56.30258,0.001067912,-0.1257102,0.09433498,0,0.3,0,0,0,0,
6.38224E+17,51.78479,-0.9585064,-1.937823,31.06216,-53.93304,-18.30508,-0.612559,-1.262423,-9.175476,13.62981,-0.9767859,39.19238,0,0,0,101.2146,-112.1545,-88.65845,-1.197964,-111.2317,-56.30258,0.001067912,-0.1257102,0.09433498,0,0.3,0,0,0,0,
6.38224E+17,48.58064,-0.9585064,-1.96117,29.89024,-57.44881,-18.37833,-0.612559,-1.262423,-9.175476,13.70306,-0.9767859,39.19238,0,0,0,96.56138,-112.1526,-83.16168,-1.197964,-111.2317,-56.30258,0.001067912,-0.1257102,0.09433498,0,0.3,0,0,0,0,
6.38224E+17,43.68017,-0.9585064,-3.081839,27.25341,-60.81809,-18.37833,-0.612559,-1.262423,-9.175476,13.70306,-0.9767859,39.19238,0,0,0,87.13162,-112.0379,-77.10876,-1.197964,-111.2317,-56.30258,0.001067912,-0.1257102,0.09433498,0,0.3,0,0,0,0,
6.38224E+17,41.18281,-0.9585064,-3.081839,25.935,-61.62378,-18.37833,-0.612559,-1.262423,-9.175476,13.70306,-0.9767859,39.19238,0,0,0,83.07319,-112.0379,-73.3988,-1.197964,-111.2317,-56.30258,0.001067912,-0.1257102,0.09433498,0,0.3,0,0,0,0,
6.38224E+17,34.98654,-0.9585064,-2.965103,23.37142,-62.50273,-18.37833,-0.612559,-1.262423,-9.175476,13.70306,-0.9767859,39.19238,0,0,0,72.49492,-112.0522,-64.76475,-1.197964,-111.2317,-56.30258,0.001067912,-0.1257102,0.09433498,0,0.3,0,0,0,0,
6.38224E+17,27.61227,-0.9585064,-2.848366,21.46704,-62.86895,-18.37833,-0.612559,-1.262423,-9.175476,13.70306,-0.9767859,39.19238,0,0,0,58.72588,-112.066,-56.07634,-1.197964,-111.2317,-56.30258,0.001067912,-0.1257102,0.09433498,0,0.3,0,0,0,0,
6.38224E+17,19.13069,-0.9585064,-2.754977,20.22188,-63.01544,-18.45157,-0.612559,-1.262423,-9.175476,13.70306,-0.9767859,39.19238,0,0,0,41.59534,-112.0766,-48.43756,-1.197964,-111.2317,-56.30258,0.001067912,-0.1257102,0.09433498,0,0.3,0,0,0,0,
6.38224E+17,14.70142,-0.9585064,-2.73163,19.78241,-63.08869,-18.37833,-0.612559,-1.262423,-9.175476,13.70306,-0.9767859,39.19238,0,0,0,32.22424,-112.0792,-45.53085,-1.197964,-111.2317,-56.30258,0.001067912,-0.1257102,0.09433498,0,0.3,0,0,0,0,
6.38224E+17,5.819311,-0.9351282,-2.684936,19.34294,-63.08869,-18.45157,-0.612559,-1.262423,-9.175476,13.70306,-0.9767859,39.19238,0,0,0,12.88541,-112.0299,-41.91931,-1.197964,-111.2317,-56.30258,0.001067912,-0.1257102,0.09433498,0,0.3,0,0,0,0,
6.38224E+17,-2.827195,-0.9351282,-2.661588,19.04996,-62.9422,-18.45157,-0.612559,-1.262423,-9.175476,13.62981,-0.9767859,39.19238,0,0,0,-6.271029,-112.0325,-41.36485,-1.197964,-111.2317,-56.30258,0.001067912,-0.1257102,0.09433498,0,0.3,0,0,0,0,
6.38224E+17,-11.63862,-0.9351282,-2.661588,19.04996,-62.57597,-18.37833,-0.612559,-1.262423,-9.175476,13.70306,-0.9767859,39.19238,0,0,0,-25.64897,-112.0325,-43.82417,-1.197964,-111.2317,-56.30258,0.001067912,-0.1257102,0.09433498,0,0.3,0,0,0,0,
6.38224E+17,-17.55217,-0.9351282,-2.661588,19.1232,-62.20975,-18.37833,-0.612559,-1.262423,-9.175476,13.70306,-0.9767859,39.19238,0,0,0,-38.3421,-112.0325,-47.12939,-1.197964,-111.2317,-56.30258,0.001067912,-0.1257102,0.09433498,0,0.3,0,0,0,0,
6.38224E+17,-19.86105,-0.9351282,-2.661588,19.19645,-61.99001,-18.37833,-0.612559,-1.262423,-9.175476,13.70306,-0.9767859,39.19238,0,0,0,-43.19453,-112.0325,-48.77247,-1.197964,-111.2317,-56.30258,0.001067912,-0.1257102,0.09433498,0,0.3,0,0,0,0,
6.38224E+17,-24.52592,-0.9351282,-2.661588,19.26969,-61.77028,-18.45157,-0.612559,-1.262423,-9.175476,13.70306,-0.9767859,39.19238,0,0,0,-52.77639,-112.0325,-52.68148,-1.197964,-111.2317,-56.30258,0.001067912,-0.1257102,0.09433498,0,0.3,0,0,0,0,
6.38224E+17,-28.24839,-0.9351282,-2.661588,19.34294,-61.69703,-18.37833,-0.612559,-1.262423,-9.175476,13.62981,-0.9767859,39.19238,0,0,0,-60.17467,-112.0325,-56.35196,-1.197964,-111.2317,-56.30258,0.001067912,-0.1257102,0.09433498,0,0.3,0,0,0,0,
6.38224E+17,-31.28763,-0.9351282,-2.661588,19.34294,-61.84352,-18.45157,-0.612559,-1.262423,-9.175476,13.70306,-0.9767859,39.19238,0,0,0,-66.02814,-112.0325,-59.69993,-1.197964,-111.2317,-56.30258,0.001067912,-0.1257102,0.09433498,0,0.3,0,0,0,0,
6.38224E+17,-32.53631,-0.9351282,-2.684936,19.34294,-61.91676,-18.45157,-0.612559,-1.262423,-9.175476,13.70306,-0.9767859,39.19238,0,0,0,-68.35095,-112.0299,-61.21037,-1.197964,-111.2317,-56.30258,0.001067912,-0.1257102,0.09433498,0,0.3,0,0,0,0,
6.38224E+17,-34.68026,-0.9351282,-2.684936,19.34294,-62.1365,-18.45157,-0.612559,-1.262423,-9.175476,13.70306,-0.9767859,39.19238,0,0,0,-72.31124,-112.0299,-63.8424,-1.197964,-111.2317,-56.30258,0.001067912,-0.1257102,0.09433498,0,0.3,0,0,0,0,
6.38224E+17,-36.32946,-0.9351282,-2.684936,19.26969,-62.20975,-18.45157,-0.612559,-1.262423,-9.175476,13.70306,-0.9767859,39.19238,0,0,0,-75.28901,-112.0299,-65.9668,-1.197964,-111.2317,-56.30258,0.001067912,-0.1257102,0.09433498,0,0.3,0,0,0,0,
6.38224E+17,-37.22474,-0.9351282,-2.684936,19.26969,-62.20975,-18.45157,-0.612559,-1.262423,-9.175476,13.70306,-0.9767859,39.19238,0,0,0,-76.87955,-112.0299,-67.15569,-1.197964,-111.2317,-56.30258,0.001067912,-0.1257102,0.09433498,0,0.3,0,0,0,0,
6.38224E+17,-37.67238,-0.9351282,-2.684936,19.34294,-62.20975,-18.45157,-0.612559,-1.262423,-9.175476,13.70306,-0.9767859,39.19238,0,0,0,-77.66781,-112.0299,-67.75941,-1.197964,-111.2317,-56.30258,0.001067912,-0.1257102,0.09433498,0,0.3,0,0,0,0,
6.38224E+17,-37.69594,-0.9351282,-2.684936,19.34294,-62.20975,-18.45157,-0.612559,-1.262423,-9.175476,13.70306,-0.9767859,39.19238,0,0,0,-77.70916,-112.0299,-67.79136,-1.197964,-111.2317,-56.30258,0.001067912,-0.1257102,0.09433498,0,0.3,0,0,0,0,
6.38224E+17,-37.62526,-0.9585064,-2.684936,19.19645,-62.20975,-18.45157,-0.612559,-1.262423,-9.175476,13.70306,-0.9767859,39.19238,0,0,0,-77.5845,-112.0843,-67.69629,-1.197964,-111.2317,-56.30258,0.001067912,-0.1257102,0.09433498,0,0.3,0,0,0,0,
6.38224E+17,-36.8949,-0.9818845,-2.708283,19.1232,-62.35624,-18.45157,-0.612559,-1.262423,-9.175476,13.70306,-0.9767859,39.19238,0,0,0,-76.26205,-112.1362,-66.75965,-1.197964,-111.2317,-56.30258,0.001067912,-0.1257102,0.09433498,0,0.3,0,0,0,0,
6.38224E+17,-36.35302,-0.9585064,-2.708283,19.1232,-62.42948,-18.45157,-0.612559,-1.262423,-9.175476,13.70306,-0.9767859,39.19238,0,0,0,-75.2984,-112.0818,-66.04221,-1.197964,-111.2317,-56.30258,0.001067912,-0.1257102,0.09433498,0,0.3,0,0,0,0,
6.38224E+17,-35.62266,-0.9585064,-2.708283,19.1232,-62.50273,-18.45157,-0.612559,-1.262423,-9.175476,13.70306,-0.9767859,39.19238,0,0,0,-73.98818,-112.0818,-65.09071,-1.197964,-111.2317,-56.30258,0.001067912,-0.1257102,0.09433498,0,0.3,0,0,0,0,
6.38224E+17,-35.52842,-0.9351282,-2.708283,19.04996,-62.72246,-18.45157,-0.612559,-1.262423,-9.175476,13.70306,-0.9035407,39.19238,0,0,0,-73.81876,-112.0274,-64.96842,-1.197964,-111.2317,-56.30258,0.001067912,-0.1257102,0.09433498,0,0.3,0,0,0,0,
6.38224E+17,-35.52842,-0.9351282,-2.708283,19.04996,-62.72246,-18.45157,-0.612559,-1.262423,-9.175476,13.70306,-0.9767859,39.19238,0,0,0,-73.81876,-112.0274,-64.96842,-1.197964,-111.2317,-56.30258,0.001067912,-0.1257102,0.09433498,0,0.3,0,0,0,0,
6.38224E+17,-35.52842,-0.9351282,-2.708283,19.04996,-62.79571,-18.45157,-0.612559,-1.262423,-9.175476,13.70306,-0.9035407,39.19238,0,0,0,-73.81876,-112.0274,-64.96842,-1.197964,-111.2317,-56.30258,0.001067912,-0.1257102,0.09433498,0,0.3,0,0,0,0,
6.38224E+17,-35.52842,-0.9351282,-2.708283,18.97671,-62.79571,-18.45157,-0.612559,-1.262423,-9.175476,13.70306,-0.9767859,39.19238,0,0,0,-73.81876,-112.0274,-64.96842,-1.197964,-111.2317,-56.30258,0.001067912,-0.1257102,0.09433498,0,0.3,0,0,0,0,
6.38224E+17,-35.52842,-0.9351282,-2.708283,18.97671,-62.79571,-18.45157,-0.612559,-1.262423,-9.175476,13.70306,-0.9767859,39.19238,0,0,0,-73.81876,-112.0274,-64.96842,-1.197964,-111.2317,-56.30258,0.001067912,-0.1257102,0.09433498,0,0.3,0,0,0,0,
6.38224E+17,-35.08078,-0.9585064,-2.73163,18.97671,-62.79571,-18.45157,-0.612559,-1.262423,-9.175476,13.70306,-0.9767859,39.19238,0,0,0,-72.97711,-112.0792,-64.44,-1.197964,-111.2317,-56.30258,0.001067912,-0.1257102,0.09433498,0,0.3,0,0,0,0,
6.38224E+17,-33.29023,-0.9585064,-2.73163,19.04996,-62.79571,-18.45157,-0.612559,-1.262423,-9.175476,13.70306,-0.9767859,39.19238,0,0,0,-69.6947,-112.0792,-62.21049,-1.197964,-111.2317,-56.30258,0.001067912,-0.1257102,0.09433498,0,0.3,0,0,0,0,
6.38224E+17,-31.24051,-0.9585064,-2.73163,19.04996,-62.79571,-18.45157,-0.612559,-1.262423,-9.175476,13.70306,-0.9767859,39.19238,0,0,0,-65.85385,-112.0792,-59.78566,-1.197964,-111.2317,-56.30258,0.001067912,-0.1257102,0.09433498,0,0.3,0,0,0,0,
6.38224E+17,-29.96827,-0.9585064,-2.73163,19.1232,-62.79571,-18.45157,-0.612559,-1.262423,-9.175476,13.70306,-0.9767859,39.26562,0,0,0,-63.42717,-112.0792,-58.35028,-1.197964,-111.2317,-56.30258,0.001067912,-0.1257102,0.09433498,0,0.3,0,0,0,0,
6.38224E+17,-27.02328,-0.9585064,-2.73163,19.04996,-62.79571,-18.45157,-0.612559,-1.262423,-9.175476,13.70306,-0.9767859,39.19238,0,0,0,-57.69193,-112.0792,-55.23684,-1.197964,-111.2317,-56.30258,0.001067912,-0.1257102,0.09433498,0,0.3,0,0,0,0,
6.38224E+17,-23.79556,-0.9351282,-2.73163,19.1232,-62.79571,-18.45157,-0.612559,-1.262423,-9.175476,13.62981,-0.9767859,39.19238,0,0,0,-51.23199,-112.0248,-52.16714,-1.197964,-111.2317,-56.30258,0.001067912,-0.1257102,0.09433498,0,0.3,0,0,0,0,
6.38224E+17,-20.56785,-0.9351282,-2.73163,19.04996,-62.79571,-18.45157,-0.612559,-1.262423,-9.175476,13.70306,-0.9767859,39.19238,0,0,0,-44.60911,-112.0248,-49.46686,-1.197964,-111.2317,-56.30258,0.001067912,-0.1257102,0.09433498,0,0.3,0,0,0,0,
6.38224E+17,-17.88201,-0.9351282,-2.73163,19.04996,-62.79571,-18.45157,-0.612559,-1.262423,-9.175476,13.70306,-0.9767859,39.19238,0,0,0,-38.9893,-112.0248,-47.50709,-1.197964,-111.2317,-56.30258,0.001067912,-0.1257102,0.09433498,0,0.3,0,0,0,0,
6.38224E+17,-16.84537,-0.9351282,-2.73163,19.04996,-62.79571,-18.45157,-0.612559,-1.262423,-9.175476,13.70306,-0.9767859,39.19238,0,0,0,-36.79666,-112.0248,-46.82148,-1.197964,-111.2317,-56.30258,0.001067912,-0.1257102,0.09433498,0,0.3,0,0,0,0,
6.38224E+17,-15.17262,-0.9351282,-2.73163,18.97671,-62.79571,-18.45157,-0.612559,-1.262423,-9.175476,13.62981,-0.9767859,39.19238,0,0,0,-33.23344,-112.0248,-45.79914,-1.197964,-111.2317,-56.30258,0.001067912,-0.1257102,0.09433498,0,0.3,0,0,0,0,
6.38224E+17,-13.64122,-0.9351282,-2.73163,18.97671,-62.79571,-18.45157,-0.612559,-1.262423,-9.175476,13.70306,-0.9767859,39.19238,0,0,0,-29.94643,-112.0248,-44.95476,-1.197964,-111.2317,-56.30258,0.001067912,-0.1257102,0.09433498,0,0.3,0,0,0,0,
6.38224E+17,-12.6517,-0.9351282,-2.73163,18.97671,-62.79571,-18.45157,-0.612559,-1.262423,-9.175476,13.70306,-0.9767859,39.19238,0,0,0,-27.81099,-112.0248,-44.456,-1.197964,-111.2317,-56.30258,0.001067912,-0.1257102,0.09433498,0,0.3,0,0,0,0,
6.38224E+17,-10.1779,-0.9351282,-2.73163,19.04996,-62.79571,-18.45157,-0.612559,-1.262423,-9.175476,13.62981,-0.9767859,39.26562,0,0,0,-22.4375,-112.0248,-43.37107,-1.197964,-111.2317,-56.30258,0.001067912,-0.1257102,0.09433498,0,0.3,0,0,0,0,
6.38224E+17,-7.138669,-0.8883717,-2.708283,19.04996,-62.79571,-18.45157,-0.612559,-1.262423,-9.175476,13.70306,-0.9767859,39.19238,0,0,0,-15.78655,-111.9186,-42.30165,-1.197964,-111.2317,-56.30258,0.001067912,-0.1257102,0.09433498,0,0.3,0,0,0,0,
6.38224E+17,-3.416194,-0.5376987,-2.684936,19.04996,-62.79571,-18.45157,-0.612559,-1.262423,-9.175476,13.70306,-0.9767859,39.19238,0,0,0,-7.573552,-111.105,-41.47834,-1.197964,-111.2317,-56.30258,0.001067912,-0.1257102,0.09433498,0,0.3,0,0,0,0,
6.38224E+17,-1.319358,-0.1870256,-2.591547,19.04996,-62.79571,-18.45157,-0.612559,-1.262423,-9.175476,13.70306,-0.9767859,39.19238,0,0,0,-2.931551,-110.2989,-41.06396,-1.197964,-111.2317,-56.30258,0.001067912,-0.1257102,0.09433498,0,0.3,0,0,0,0,
6.38224E+17,2.780076,0.8649935,-2.47481,19.04996,-62.79571,-18.45157,-0.612559,-1.262423,-9.175476,13.70306,-0.9767859,39.19238,0,0,0,6.187782,-107.8625,-40.92342,-1.197964,-111.2317,-56.30258,0.001067912,-0.1257102,0.09433498,0,0.3,0,0,0,0,
6.38224E+17,6.408309,1.8235,-2.451463,19.04996,-62.72246,-18.45157,-0.612559,-1.262423,-9.175476,13.70306,-0.9767859,39.19238,0,0,0,14.23945,-105.6347,-41.56846,-1.197964,-111.2317,-56.30258,0.001067912,-0.1257102,0.09433498,0,0.3,0,0,0,0,
6.38224E+17,9.871624,2.267686,-2.451463,18.97671,-62.79571,-18.45157,-0.612559,-1.262423,-9.175476,13.70306,-0.9767859,39.19238,0,0,0,21.86592,-104.6015,-42.69656,-1.197964,-111.2317,-56.30258,0.001067912,-0.1257102,0.09433498,0,0.3,0,0,0,0,
6.38224E+17,11.85066,2.220929,-2.451463,18.97671,-62.72246,-18.45157,-0.612559,-1.262423,-9.175476,13.70306,-0.9767859,39.19238,0,0,0,26.19304,-104.7103,-43.52245,-1.197964,-111.2317,-56.30258,0.001067912,-0.1257102,0.09433498,0,0.3,0,0,0,0,
6.38224E+17,12.81662,2.150795,-2.47481,18.90347,-62.79571,-18.45157,-0.612559,-1.262423,-9.175476,13.70306,-0.9767859,39.19238,0,0,0,28.28305,-104.871,-44.02862,-1.197964,-111.2317,-56.30258,0.001067912,-0.1257102,0.09433498,0,0.3,0,0,0,0,
6.38224E+17,14.34802,1.8235,-2.47481,18.90347,-62.72246,-18.45157,-0.612559,-1.262423,-9.175476,13.70306,-0.9767859,39.19238,0,0,0,31.60195,-105.6323,-44.8033,-1.197964,-111.2317,-56.30258,0.001067912,-0.1257102,0.09433498,0,0.3,0,0,0,0,
6.38224E+17,15.26685,1.285801,-2.521505,18.83022,-62.79571,-18.45157,-0.612559,-1.262423,-9.175476,13.70306,-0.9767859,39.19238,0,0,0,33.55944,-106.8786,-45.39794,-1.197964,-111.2317,-56.30258,0.001067912,-0.1257102,0.09433498,0,0.3,0,0,0,0,
6.38224E+17,15.45534,1.028641,-2.544852,18.90347,-62.72246,-18.45157,-0.612559,-1.262423,-9.175476,13.70306,-0.9767859,39.19238,0,0,0,33.95247,-107.4746,-45.54967,-1.197964,-111.2317,-56.30258,0.001067912,-0.1257102,0.09433498,0,0.3,0,0,0,0,
6.38224E+17,15.40822,0.8883717,-2.544852,18.90347,-62.79571,-18.45157,-0.612559,-1.262423,-9.175476,13.70306,-0.9767859,39.19238,0,0,0,33.85292,-107.801,-45.51653,-1.197964,-111.2317,-56.30258,0.001067912,-0.1257102,0.09433498,0,0.3,0,0,0,0,
6.38224E+17,14.93702,2.267686,-2.521505,18.90347,-62.79571,-18.45157,-0.612559,-1.262423,-9.175476,13.70306,-0.9767859,39.19238,0,0,0,32.83282,-104.5945,-45.27524,-1.197964,-111.2317,-56.30258,0.001067912,-0.1257102,0.09433498,0,0.3,0,0,0,0,
6.38224E+17,14.79566,3.834026,-2.521505,18.90347,-62.79571,-18.45157,-0.612559,-1.262423,-9.175476,13.70306,-0.9767859,39.19238,0,0,0,32.47952,-100.9542,-45.38219,-1.197964,-111.2317,-56.30258,0.001067912,-0.1257102,0.09433498,0,0.3,0,0,0,0,
6.38224E+17,14.46582,11.12803,-1.96117,18.90347,-62.79571,-18.45157,-0.612559,-1.262423,-9.175476,13.70306,-0.9767859,39.19238,0,0,0,31.54486,-84.18508,-46.07418,-1.197964,-111.2317,-56.30258,0.001067912,-0.1257102,0.09433498,0,0.3,0,0,0,0,
6.38224E+17,14.0653,18.74932,-0.5369871,18.90347,-62.79571,-18.45157,-0.612559,-1.262423,-9.175476,13.70306,-0.9767859,39.19238,0,0,0,30.38424,-67.13169,-47.07441,-1.197964,-111.2317,-56.30258,0.001067912,-0.1257102,0.09433498,0,0.3,0,0,0,0,
6.38224E+17,13.80614,24.21982,1.02728,18.90347,-62.79571,-18.45157,-0.612559,-1.262423,-9.175476,13.70306,-0.9767859,39.19238,0,0,0,29.59178,-55.27326,-47.92955,-1.197964,-111.2317,-56.30258,0.001067912,-0.1257102,0.09433498,0,0.3,0,0,0,0,
6.38224E+17,12.67526,34.83352,5.883511,18.90347,-62.86895,-18.45157,-0.612559,-1.262423,-9.175476,13.70306,-0.9767859,39.19238,0,0,0,27.01668,-33.12885,-48.22572,-1.197964,-111.2317,-56.30258,0.001067912,-0.1257102,0.09433498,0,0.3,0,0,0,0,
6.38224E+17,10.74334,41.65996,10.83313,18.83022,-62.9422,-18.45157,-0.612559,-1.262423,-9.175476,13.70306,-0.9767859,39.19238,0,0,0,23.2433,-18.98467,-45.84633,-1.197964,-111.2317,-56.30258,0.001067912,-0.1257102,0.09433498,0,0.3,0,0,0,0,
6.38224E+17,9.164824,43.4367,12.30401,18.83022,-62.64922,-18.45157,-0.612559,-1.262423,-9.175476,13.70306,-0.9767859,39.19238,0,0,0,19.94869,-15.25188,-44.70213,-1.197964,-111.2317,-56.30258,0.001067912,-0.1257102,0.09433498,0,0.3,0,0,0,0,
6.38224E+17,8.693625,42.99252,11.86041,18.83022,-61.91676,-18.45157,-0.612559,-1.262423,-9.175476,13.70306,-0.9767859,39.19238,0,0,0,18.88555,-16.2214,-44.84047,-1.197964,-111.2317,-56.30258,0.001067912,-0.1257102,0.09433498,0,0.3,0,0,0,0,
6.38224E+17,8.316667,40.79496,10.34284,19.26969,-59.8659,-18.45157,-0.612559,-1.262423,-9.175476,13.62981,-0.9767859,39.19238,0,0,0,18.06522,-20.70844,-44.76911,-1.197964,-111.2317,-56.30258,0.001067912,-0.1257102,0.09433498,0,0.3,0,0,0,0,
6.38224E+17,8.316667,37.45188,8.28828,20.14863,-58.54749,-18.45157,-0.612559,-1.262423,-9.175476,13.70306,-0.9767859,39.26562,0,0,0,18.09276,-27.51774,-44.58071,-1.197964,-111.2317,-56.30258,0.001067912,-0.1257102,0.09433498,0,0.3,0,0,0,0,
6.38224E+17,8.316667,34.3192,6.397151,20.51486,-58.54749,-18.45157,-0.612559,-1.262423,-9.175476,13.70306,-0.9767859,39.19238,0,0,0,18.07946,-33.98658,-44.67165,-1.197964,-111.2317,-56.30258,0.001067912,-0.1257102,0.09433498,0,0.3,0,0,0,0,
6.38224E+17,8.316667,30.69558,4.43598,20.73459,-59.64616,-18.45157,-0.612559,-1.262423,-9.175476,13.70306,-0.9767859,39.19238,0,0,0,18.07769,-41.52848,-44.6838,-1.197964,-111.2317,-56.30258,0.001067912,-0.1257102,0.09433498,0,0.3,0,0,0,0,
6.38224E+17,8.458026,25.15495,0.7471125,20.73459,-61.62378,-18.45157,-0.612559,-1.262423,-9.175476,13.70306,-0.9767859,39.19238,0,0,0,18.00937,-53.30589,-47.23962,-1.197964,-111.2317,-56.30258,0.001067912,-0.1257102,0.09433498,0,0.3,0,0,0,0,
6.38224E+17,8.481586,22.11578,-0.8871961,20.5881,-62.20975,-18.45157,-0.612559,-1.262423,-9.175476,13.70306,-0.9767859,39.19238,0,0,0,17.91639,-59.78048,-48.20452,-1.197964,-111.2317,-56.30258,0.001067912,-0.1257102,0.09433498,0,0.3,0,0,0,0,
6.38224E+17,8.481586,12.5541,-4.622759,20.44161,-62.9422,-18.45157,-0.612559,-1.262423,-9.175476,13.62981,-0.9767859,39.19238,0,0,0,17.61262,-80.58108,-50.24156,-1.197964,-111.2317,-56.30258,0.001067912,-0.1257102,0.09433498,0,0.3,0,0,0,0,
6.38224E+17,8.481586,9.538307,-5.20644,20.44161,-63.01544,-18.45157,-0.612559,-1.262423,-9.175476,13.70306,-0.9035407,39.26562,0,0,0,17.61133,-87.3528,-50.25024,-1.197964,-111.2317,-56.30258,0.001067912,-0.1257102,0.09433498,0,0.3,0,0,0,0,
6.38224E+17,8.528707,4.769154,-5.416566,20.44161,-63.16194,-18.45157,-0.612559,-1.262423,-9.175476,13.62981,-0.9767859,39.19238,0,0,0,17.84117,-98.31766,-49.37974,-1.197964,-111.2317,-56.30258,0.001067912,-0.1257102,0.09433498,0,0.3,0,0,0,0,
6.38224E+17,8.717185,1.239045,-5.346524,20.36837,-63.16194,-18.45157,-0.612559,-1.262423,-9.175476,13.70306,-0.9767859,39.19238,0,0,0,18.32228,-106.5363,-48.85312,-1.197964,-111.2317,-56.30258,0.001067912,-0.1257102,0.09433498,0,0.3,0,0,0,0,
6.38224E+17,8.858545,0.2571602,-5.323177,20.36837,-63.16194,-18.45157,-0.612559,-1.262423,-9.175476,13.70306,-0.9767859,39.19238,0,0,0,18.62997,-108.8264,-48.81574,-1.197964,-111.2317,-56.30258,0.001067912,-0.1257102,0.09433498,0,0.3,0,0,0,0,
6.38224E+17,8.929225,-0.1870256,-5.323177,20.29512,-63.23518,-18.45157,-0.612559,-1.262423,-9.175476,13.70306,-0.9767859,39.19238,0,0,0,18.77751,-109.8602,-48.83819,-1.197964,-111.2317,-56.30258,0.001067912,-0.1257102,0.09433498,0,0.3,0,0,0,0,
6.38224E+17,8.929225,1.028641,-5.183093,20.29512,-63.23518,-18.45157,-0.612559,-1.262423,-9.175476,13.70306,-0.9767859,39.19238,0,0,0,18.82468,-107.0608,-48.53799,-1.197964,-111.2317,-56.30258,0.001067912,-0.1257102,0.09433498,0,0.3,0,0,0,0,
6.38224E+17,8.952785,2.828763,-5.019662,20.22188,-63.23518,-18.45157,-0.612559,-1.262423,-9.175476,13.70306,-0.9767859,39.19238,0,0,0,18.91096,-102.9076,-48.31078,-1.197964,-111.2317,-56.30258,0.001067912,-0.1257102,0.09433498,0,0.3,0,0,0,0,
6.38224E+17,9.447544,10.96438,-4.085772,20.22188,-63.16194,-18.45157,-0.612559,-1.262423,-9.175476,13.70306,-0.9767859,39.26562,0,0,0,19.92955,-84.2981,-48.58221,-1.197964,-111.2317,-56.30258,0.001067912,-0.1257102,0.09433498,0,0.3,0,0,0,0,
6.38224E+17,9.777385,25.62251,-0.1867781,20.29512,-63.16194,-18.45157,-0.612559,-1.262423,-9.175476,13.70306,-0.9767859,39.19238,0,0,0,20.34484,-52.33341,-50.28811,-1.197964,-111.2317,-56.30258,0.001067912,-0.1257102,0.09433498,0,0.3,0,0,0,0,
6.38224E+17,9.471104,31.51382,2.47481,20.22188,-63.16194,-18.52482,-0.612559,-1.262423,-9.175476,13.70306,-0.9767859,39.19238,0,0,0,19.65401,-40.17302,-50.5373,-1.197964,-111.2317,-56.30258,0.001067912,-0.1257102,0.09433498,0,0.3,0,0,0,0,
6.38224E+17,8.340226,42.19766,8.498405,19.85565,-63.23518,-18.45157,-0.612559,-1.262423,-9.175476,13.70306,-0.9767859,39.19238,0,0,0,17.18805,-18.96591,-51.10653,-1.197964,-111.2317,-56.30258,0.001067912,-0.1257102,0.09433498,0,0.3,0,0,0,0,
6.38224E+17,7.869027,47.69153,10.87983,19.70916,-62.57597,-18.45157,-0.612559,-1.262423,-9.175476,13.70306,-0.9035407,39.19238,0,0,0,15.73504,-8.98652,-54.50167,-1.197964,-111.2317,-56.30258,0.001067912,-0.1257102,0.09433498,0,0.3,0,0,0,0,
6.38224E+17,7.892587,48.62666,10.57631,19.63592,-61.40405,-18.45157,-0.612559,-1.262423,-9.175476,13.70306,-0.9035407,39.19238,0,0,0,15.4639,-7.666222,-56.80168,-1.197964,-111.2317,-56.30258,0.001067912,-0.1257102,0.09433498,0,0.3,0,0,0,0,
6.38224E+17,7.892587,48.13572,9.268865,19.70916,-58.401,-18.45157,-0.612559,-1.262423,-9.175476,13.70306,-0.9767859,39.19238,0,0,0,15.16961,-8.949455,-58.92455,-1.197964,-111.2317,-56.30258,0.001067912,-0.1257102,0.09433498,0,0.3,0,0,0,0,
6.38224E+17,7.892587,45.65763,7.587861,20.29512,-56.49662,-18.45157,-0.612559,-1.262423,-9.175476,13.70306,-0.9767859,39.19238,0,0,0,15.21639,-13.4636,-58.58709,-1.197964,-111.2317,-56.30258,0.001067912,-0.1257102,0.09433498,0,0.3,0,0,0,0,
6.38224E+17,7.892587,41.9405,5.509954,20.73459,-57.15583,-18.45157,-0.612559,-1.262423,-9.175476,13.70306,-0.9767859,39.19238,0,0,0,15.37876,-20.25826,-57.41583,-1.197964,-111.2317,-56.30258,0.001067912,-0.1257102,0.09433498,0,0.3,0,0,0,0,
6.38224E+17,7.892587,39.92997,4.506022,20.80784,-58.32775,-18.45157,-0.612559,-1.262423,-9.175476,13.70306,-0.9767859,39.19238,0,0,0,15.48012,-23.99702,-56.68468,-1.197964,-111.2317,-56.30258,0.001067912,-0.1257102,0.09433498,0,0.3,0,0,0,0,
6.38224E+17,8.057507,34.81015,0.700418,20.66135,-61.11107,-18.45157,-0.612559,-1.262423,-9.175476,13.70306,-0.9767859,39.19238,0,0,0,15.57491,-33.866,-58.33008,-1.197964,-111.2317,-56.30258,0.001067912,-0.1257102,0.09433498,0,0.3,0,0,0,0,
6.38224E+17,8.104627,29.66694,-2.311379,20.29512,-62.28299,-18.45157,-0.612559,-1.262423,-9.175476,13.70306,-0.9767859,39.26562,0,0,0,15.5773,-43.88894,-58.96149,-1.197964,-111.2317,-56.30258,0.001067912,-0.1257102,0.09433498,0,0.3,0,0,0,0,
6.38224E+17,8.104627,27.04858,-3.595479,20.14863,-62.57597,-18.45157,-0.612559,-1.262423,-9.175476,13.70306,-0.9767859,39.19238,0,0,0,15.56457,-49.09717,-59.05093,-1.197964,-111.2317,-56.30258,0.001067912,-0.1257102,0.09433498,0,0.3,0,0,0,0,
6.38224E+17,8.128186,20.85336,-5.509954,20.00214,-62.9422,-18.45157,-0.612559,-1.262423,-9.175476,13.70306,-0.9767859,39.19238,0,0,0,15.80873,-61.91428,-57.66247,-1.197964,-111.2317,-56.30258,0.001067912,-0.1257102,0.09433498,0,0.3,0,0,0,0,
6.38224E+17,8.128186,14.56462,-6.187026,19.85565,-63.08869,-18.45157,-0.612559,-1.262423,-9.175476,13.70306,-0.9767859,39.19238,0,0,0,16.21625,-75.68953,-54.80912,-1.197964,-111.2317,-56.30258,0.001067912,-0.1257102,0.09433498,0,0.3,0,0,0,0,
6.38224E+17,8.128186,8.673313,-6.070289,19.85565,-63.16194,-18.45157,-0.612559,-1.262423,-9.175476,13.70306,-0.9767859,39.19238,0,0,0,16.64472,-89.14307,-51.80914,-1.197964,-111.2317,-56.30258,0.001067912,-0.1257102,0.09433498,0,0.3,0,0,0,0,
6.38224E+17,8.198866,5.657525,-6.000247,19.78241,-63.16194,-18.45157,-0.612559,-1.262423,-9.175476,13.70306,-0.9767859,39.19238,0,0,0,16.93643,-96.12352,-50.80285,-1.197964,-111.2317,-56.30258,0.001067912,-0.1257102,0.09433498,0,0.3,0,0,0,0,
6.38224E+17,8.198866,4.675641,-6.000247,19.78241,-63.01544,-18.45157,-0.612559,-1.262423,-9.175476,13.70306,-0.9767859,39.19238,0,0,0,16.96578,-98.39944,-50.59917,-1.197964,-111.2317,-56.30258,0.001067912,-0.1257102,0.09433498,0,0.3,0,0,0,0,
6.38224E+17,8.198866,3.226192,-6.000247,19.78241,-62.72246,-18.45157,-0.612559,-1.262423,-9.175476,13.70306,-0.9767859,39.19238,0,0,0,16.99892,-101.7648,-50.36911,-1.197964,-111.2317,-56.30258,0.001067912,-0.1257102,0.09433498,0,0.3,0,0,0,0,
6.38224E+17,8.151747,2.291064,-6.000247,19.70916,-62.72246,-18.45157,-0.612559,-1.262423,-9.175476,13.70306,-0.9767859,39.19238,0,0,0,16.91674,-103.9386,-50.25148,-1.197964,-111.2317,-56.30258,0.001067912,-0.1257102,0.09433498,0,0.3,0,0,0,0,
6.38224E+17,8.104627,1.893635,-5.9769,19.70916,-62.79571,-18.45157,-0.612559,-1.262423,-9.175476,13.62981,-0.9767859,39.19238,0,0,0,16.83199,-104.8687,-50.15068,-1.197964,-111.2317,-56.30258,0.001067912,-0.1257102,0.09433498,0,0.3,0,0,0,0,
6.38224E+17,7.963267,1.472827,-5.673386,19.70916,-62.72246,-18.45157,-0.612559,-1.262423,-9.175476,13.70306,-0.9767859,39.19238,0,0,0,16.64166,-105.9193,-49.38504,-1.197964,-111.2317,-56.30258,0.001067912,-0.1257102,0.09433498,0,0.3,0,0,0,0,
6.38224E+17,7.963267,2.454711,-5.346524,19.70916,-62.79571,-18.45157,-0.612559,-1.262423,-9.175476,13.70306,-0.9767859,39.19238,0,0,0,16.73572,-103.7085,-48.71268,-1.197964,-111.2317,-56.30258,0.001067912,-0.1257102,0.09433498,0,0.3,0,0,0,0,
6.38224E+17,7.845467,6.803057,-4.692801,19.78241,-62.79571,-18.45157,-0.612559,-1.262423,-9.175476,13.70306,-0.9767859,39.19238,0,0,0,16.58514,-93.75674,-47.98597,-1.197964,-111.2317,-56.30258,0.001067912,-0.1257102,0.09433498,0,0.3,0,0,0,0,
6.38224E+17,7.350708,10.42668,-4.039077,19.78241,-62.79571,-18.45157,-0.612559,-1.262423,-9.175476,13.70306,-0.9767859,39.19238,0,0,0,15.57766,-85.53549,-47.59535,-1.197964,-111.2317,-56.30258,0.001067912,-0.1257102,0.09433498,0,0.3,0,0,0,0,
6.38224E+17,4.287913,18.51554,-1.751045,19.41618,-62.79571,-18.45157,-0.612559,-1.262423,-9.175476,13.70306,-0.9767859,39.19238,0,0,0,9.149609,-67.59087,-46.31979,-1.197964,-111.2317,-56.30258,0.001067912,-0.1257102,0.09433498,0,0.3,0,0,0,0,
6.38224E+17,-0.9895183,25.97318,1.237405,18.17101,-62.86895,-18.45157,-0.612559,-1.262423,-9.175476,13.70306,-0.9767859,39.26562,0,0,0,-2.120025,-51.56821,-45.60707,-1.197964,-111.2317,-56.30258,0.001067912,-0.1257102,0.09433498,0,0.3,0,0,0,0,
6.38224E+17,-8.175306,32.12165,4.856231,17.51181,-62.86895,-18.8178,-0.612559,-1.262423,-9.175476,13.70306,-0.9767859,39.26562,0,0,0,-17.6652,-38.61663,-45.38666,-1.197964,-111.2317,-56.30258,0.001067912,-0.1257102,0.09433498,0,0.3,0,0,0,0,
6.38224E+17,-11.85066,33.01003,6.934138,24.17712,-62.79571,-19.40376,-0.612559,-1.262423,-9.175476,13.70306,-0.9767859,39.19238,0,0,0,-26.27048,-36.37745,-43.15339,-1.197964,-111.2317,-56.30258,0.001067912,-0.1257102,0.09433498,0,0.3,0,0,0,0,
6.38224E+17,-12.93442,32.47232,6.724013,29.74375,-62.57597,-18.30508,-0.612559,-1.262423,-9.175476,13.62981,-0.9767859,39.19238,0,0,0,-28.67657,-37.4882,-43.48627,-1.197964,-111.2317,-56.30258,0.001067912,-0.1257102,0.09433498,0,0.3,0,0,0,0,
6.38224E+17,-14.1831,30.20464,5.836816,36.77529,-59.8659,-11.42003,-0.612559,-1.262423,-9.175476,13.70306,-0.9767859,39.19238,0,0,0,-31.5604,-42.22161,-43.46961,-1.197964,-111.2317,-56.30258,0.001067912,-0.1257102,0.09433498,0,0.3,0,0,0,0,
6.38224E+17,-14.34802,27.21223,4.599411,41.17,-56.64312,-7.464796,-0.612559,-1.262423,-9.175476,13.70306,-0.9767859,39.19238,0,0,0,-32.03795,-48.59125,-43.09875,-1.197964,-111.2317,-56.30258,0.001067912,-0.1257102,0.09433498,0,0.3,0,0,0,0,
6.38224E+17,-14.32446,25.29522,3.782257,42.85464,-55.17821,-6.219628,-0.612559,-1.262423,-9.175476,13.70306,-0.9035407,39.19238,0,0,0,-32.00544,-52.73145,-43.01121,-1.197964,-111.2317,-56.30258,0.001067912,-0.1257102,0.09433498,0,0.3,0,0,0,0,
6.38224E+17,-14.3009,21.04038,2.147949,44.9055,-53.34708,-4.754725,-0.612559,-1.262423,-9.175476,13.70306,-0.9767859,39.19238,0,0,0,-31.97776,-62.03021,-42.90444,-1.197964,-111.2317,-56.30258,0.001067912,-0.1257102,0.09433498,0,0.3,0,0,0,0,
6.38224E+17,-14.27734,15.99069,0.6303762,45.85769,-53.78655,-3.949028,-0.612559,-1.262423,-9.175476,13.70306,-0.9767859,39.19238,0,0,0,-31.97553,-73.25652,-42.69736,-1.197964,-111.2317,-56.30258,0.001067912,-0.1257102,0.09433498,0,0.3,0,0,0,0,
6.38224E+17,-14.27734,13.46585,0.02334727,46.07742,-54.73874,-3.656047,-0.612559,-1.262423,-9.175476,13.70306,-0.9767859,39.19238,0,0,0,-31.99553,-78.94735,-42.61878,-1.197964,-111.2317,-56.30258,0.001067912,-0.1257102,0.09433498,0,0.3,0,0,0,0,
6.38224E+17,-13.7119,6.63941,-1.354141,46.3704,-59.13345,-3.363066,-0.612559,-1.262423,-9.175476,13.70306,-0.9767859,39.19238,0,0,0,-30.65029,-94.54478,-42.73083,-1.197964,-111.2317,-56.30258,0.001067912,-0.1257102,0.09433498,0,0.3,0,0,0,0,
6.38224E+17,-12.55746,3.506731,-2.194643,46.15067,-61.03782,-3.216576,-0.612559,-1.262423,-9.175476,13.70306,-0.9767859,39.19238,0,0,0,-27.82822,-101.7457,-43.41805,-1.197964,-111.2317,-56.30258,0.001067912,-0.1257102,0.09433498,0,0.3,0,0,0,0,
6.38224E+17,-11.89778,2.898897,-2.241338,46.00418,-61.62378,-3.143331,-0.612559,-1.262423,-9.175476,13.70306,-0.9767859,39.19238,0,0,0,-26.3819,-103.154,-43.13485,-1.197964,-111.2317,-56.30258,0.001067912,-0.1257102,0.09433498,0,0.3,0,0,0,0,
6.38224E+17,-10.97894,2.828763,-2.264685,45.78444,-62.28299,-3.143331,-0.612559,-1.262423,-9.175476,13.70306,-0.9767859,39.19238,0,0,0,-24.36176,-103.3149,-42.77319,-1.197964,-111.2317,-56.30258,0.001067912,-0.1257102,0.09433498,0,0.3,0,0,0,0,
6.38224E+17,-10.55486,3.179435,-2.21799,45.41821,-62.79571,-3.070086,-0.612559,-1.262423,-9.175476,13.62981,-0.9767859,39.19238,0,0,0,-23.4437,-102.5041,-42.53161,-1.197964,-111.2317,-56.30258,0.001067912,-0.1257102,0.09433498,0,0.3,0,0,0,0,
6.38224E+17,-10.55486,4.324967,-2.147949,45.12524,-62.9422,-3.070086,-0.612559,-1.262423,-9.175476,13.62981,-0.9767859,39.19238,0,0,0,-23.44158,-99.84995,-42.54298,-1.197964,-111.2317,-56.30258,0.001067912,-0.1257102,0.09433498,0,0.3,0,0,0,0,
6.38224E+17,-10.55486,5.634147,-2.147949,45.05199,-63.01544,-3.070086,-0.612559,-1.262423,-9.175476,13.70306,-0.9767859,39.19238,0,0,0,-23.39313,-96.81454,-42.80298,-1.197964,-111.2317,-56.30258,0.001067912,-0.1257102,0.09433498,0,0.3,0,0,0,0,
6.38224E+17,-10.62554,12.90477,-1.727698,44.9055,-63.08869,-3.070086,-0.612559,-1.262423,-9.175476,13.70306,-0.9767859,39.19238,0,0,0,-23.22598,-80.15816,-44.54833,-1.197964,-111.2317,-56.30258,0.001067912,-0.1257102,0.09433498,0,0.3,0,0,0,0,
6.38224E+17,-10.69622,24.57049,0.2801672,44.75901,-63.16194,-3.070086,-0.612559,-1.262423,-9.175476,13.70306,-0.9767859,39.19238,0,0,0,-22.62992,-54.54981,-48.54121,-1.197964,-111.2317,-56.30258,0.001067912,-0.1257102,0.09433498,0,0.3,0,0,0,0,
6.38224E+17,-10.69622,32.7061,3.50209,44.83226,-63.16194,-3.070086,-0.612559,-1.262423,-9.175476,13.70306,-0.9767859,39.19238,0,0,0,-22.33782,-37.69797,-50.08767,-1.197964,-111.2317,-56.30258,0.001067912,-0.1257102,0.09433498,0,0.3,0,0,0,0,
6.38224E+17,-10.69622,38.05972,6.840749,44.83226,-63.08869,-3.070086,-0.612559,-1.262423,-9.175476,13.70306,-0.9767859,39.26562,0,0,0,-22.43535,-26.84276,-49.57132,-1.197964,-111.2317,-56.30258,0.001067912,-0.1257102,0.09433498,0,0.3,0,0,0,0,
6.38224E+17,-10.69622,41.4028,8.778571,44.53928,-63.01544,-3.070086,-0.612559,-1.262423,-9.175476,13.70306,-0.9767859,39.19238,0,0,0,-22.34171,-20.24705,-50.06712,-1.197964,-111.2317,-56.30258,0.001067912,-0.1257102,0.09433498,0,0.3,0,0,0,0,
6.38224E+17,-10.69622,41.51969,8.451711,43.95331,-62.72246,-3.070086,-0.612559,-1.262423,-9.175476,13.70306,-0.9767859,39.26562,0,0,0,-22.16867,-20.15713,-50.9832,-1.197964,-111.2317,-56.30258,0.001067912,-0.1257102,0.09433498,0,0.3,0,0,0,0,
6.38224E+17,-10.69622,38.38701,6.000247,42.26867,-61.4773,-3.070086,-0.612559,-1.262423,-9.175476,13.70306,-0.9767859,39.19238,0,0,0,-21.98709,-26.46307,-51.94456,-1.197964,-111.2317,-56.30258,0.001067912,-0.1257102,0.09433498,0,0.3,0,0,0,0,
6.38224E+17,-10.69622,34.06204,3.221923,41.75596,-61.91676,-3.070086,-0.612559,-1.262423,-9.175476,13.70306,-0.9767859,39.19238,0,0,0,-21.89472,-35.10118,-52.43357,-1.197964,-111.2317,-56.30258,0.001067912,-0.1257102,0.09433498,0,0.3,0,0,0,0,
6.38224E+17,-10.60198,30.4618,0.9572379,41.46298,-62.50273,-3.070086,-0.612559,-1.262423,-9.175476,13.70306,-0.9767859,39.19238,0,0,0,-21.55777,-42.37777,-53.17912,-1.197964,-111.2317,-56.30258,0.001067912,-0.1257102,0.09433498,0,0.3,0,0,0,0,
6.38224E+17,-10.60198,27.96033,-0.3969035,41.38973,-62.79571,-2.99684,-0.612559,-1.262423,-9.175476,13.70306,-0.9767859,39.19238,0,0,0,-21.50064,-47.4743,-53.48429,-1.197964,-111.2317,-56.30258,0.001067912,-0.1257102,0.09433498,0,0.3,0,0,0,0,
6.38224E+17,-10.43706,22.79375,-2.404768,41.17,-62.9422,-3.070086,-0.612559,-1.262423,-9.175476,13.70306,-0.9035407,39.19238,0,0,0,-21.25693,-58.22078,-52.95058,-1.197964,-111.2317,-56.30258,0.001067912,-0.1257102,0.09433498,0,0.3,0,0,0,0,
6.38224E+17,-10.31926,17.20636,-3.455395,41.09675,-63.08869,-3.070086,-0.612559,-1.262423,-9.175476,13.70306,-0.9767859,39.19238,0,0,0,-21.37859,-70.31077,-50.93563,-1.197964,-111.2317,-56.30258,0.001067912,-0.1257102,0.09433498,0,0.3,0,0,0,0,
6.38224E+17,-10.2957,14.33084,-3.595479,41.02351,-63.01544,-3.070086,-0.612559,-1.262423,-9.175476,13.70306,-0.9767859,39.26562,0,0,0,-21.59717,-76.73066,-49.45779,-1.197964,-111.2317,-56.30258,0.001067912,-0.1257102,0.09433498,0,0.3,0,0,0,0,
6.38224E+17,-10.24858,9.561686,-3.50209,41.02351,-63.08869,-3.070086,-0.612559,-1.262423,-9.175476,13.70306,-0.9767859,39.19238,0,0,0,-21.94664,-87.6003,-46.96633,-1.197964,-111.2317,-56.30258,0.001067912,-0.1257102,0.09433498,0,0.3,0,0,0,0,
6.38224E+17,-10.24858,6.616032,-3.50209,41.02351,-63.08869,-3.070086,-0.612559,-1.262423,-9.175476,13.70306,-0.9767859,39.19238,0,0,0,-22.11826,-94.38705,-46.01717,-1.197964,-111.2317,-56.30258,0.001067912,-0.1257102,0.09433498,0,0.3,0,0,0,0,
6.38224E+17,-10.24858,4.348346,-3.50209,40.95026,-63.08869,-3.070086,-0.612559,-1.262423,-9.175476,13.70306,-0.9767859,39.19238,0,0,0,-22.20796,-99.64037,-45.52102,-1.197964,-111.2317,-56.30258,0.001067912,-0.1257102,0.09433498,0,0.3,0,0,0,0,
6.38224E+17,-10.22502,3.179435,-3.455395,41.02351,-63.08869,-3.070086,-0.612559,-1.262423,-9.175476,13.70306,-0.9767859,39.19238,0,0,0,-22.20841,-102.3616,-45.2294,-1.197964,-111.2317,-56.30258,0.001067912,-0.1257102,0.09433498,0,0.3,0,0,0,0,
6.38224E+17,-9.848064,1.42607,-3.385354,40.95026,-63.08869,-3.070086,-0.612559,-1.262423,-9.175476,13.70306,-0.9767859,39.19238,0,0,0,-21.45378,-106.4486,-44.76408,-1.197964,-111.2317,-56.30258,0.001067912,-0.1257102,0.09433498,0,0.3,0,0,0,0,
6.38224E+17,-8.717185,1.122154,-3.362006,40.95026,-63.08869,-3.070086,-0.612559,-1.262423,-9.175476,13.70306,-0.9767859,39.19238,0,0,0,-19.02108,-107.159,-44.29557,-1.197964,-111.2317,-56.30258,0.001067912,-0.1257102,0.09433498,0,0.3,0,0,0,0,
6.38224E+17,-7.916147,1.332558,-3.268617,40.95026,-63.16194,-3.070086,-0.612559,-1.262423,-9.175476,13.70306,-0.9767859,39.19238,0,0,0,-17.31334,-106.682,-43.83724,-1.197964,-111.2317,-56.30258,0.001067912,-0.1257102,0.09433498,0,0.3,0,0,0,0,
