zeyangz2/DNN_classification_different_people_hand/data/srikar_right_22.csv
Timestamp,Therapist joint angle 0,Therapist joint angle 1,Therapist joint angle 2,Therapist joint angle 3,Therapist joint angle 4,Therapist joint angle 5,Patient joint angle 0,Patient joint angle 1,Patient joint angle 2,Patient joint angle 3,Patient joint angle 4,Patient joint angle 5,Virtual joint angle 0,Virtual joint angle 1,Virtual joint angle 2,Therapist position x,Therapist position y,Therapist position z,Patient position x,Patient position y,Patient position z,Virtual position x,Virtual position y,Virtual position z,Assistive Force, Obstacle Force Magnitude, Therapist Constant Force, Patient Constant Force, Recovery Factor, Assistance Level,label
6.38225E+17,0,0,0,0,0,0,0,0,0,0,0,0,0,0,0,0,0,0,0,0,0,0,0,0,0,0.3,0,0,0,0,2
6.38225E+17,28.05991,1.239045,-8.545099,9.894309,-12.69601,48.42127,53.08059,33.29056,-14.59204,-58.44344,-18.48238,44.75901,0,0,0,53.39196,-105.6362,-68.18713,62.25676,-32.50486,-121.5733,0.001067912,-0.1257102,0.09433498,0,0.3,0,0,0,0,
6.38225E+17,28.03635,1.16891,-8.545099,9.967555,-12.69601,48.34802,52.37379,39.67281,-9.47899,-58.00396,-26.68584,44.24629,0,0,0,53.35239,-105.7994,-68.16216,63.89859,-23.04826,-119.0949,0.001067912,-0.1257102,0.09433498,0,0.3,0,0,0,0,
6.38225E+17,28.03635,1.145532,-8.545099,10.18729,-12.69601,48.34802,51.10155,42.38468,-3.992383,-61.59297,-32.91168,43.4406,0,0,0,53.3529,-105.8538,-68.16119,69.4307,-19.78451,-112.3296,0.001067912,-0.1257102,0.09433498,0,0.3,0,0,0,0,
6.38225E+17,28.01279,1.122154,-8.545099,10.33378,-12.69601,48.42127,48.69844,43.31981,1.097321,-94.48006,-42.87302,41.46298,0,0,0,53.31221,-105.9082,-68.13831,74.80204,-18.48812,-102.6312,0.001067912,-0.1257102,0.09433498,0,0.3,0,0,0,0,
6.38225E+17,28.01279,1.122154,-8.545099,10.55352,-12.69601,48.34802,46.53092,41.70671,1.144016,-122.533,-46.9015,36.04284,0,0,0,53.31221,-105.9082,-68.13831,74.18298,-21.25328,-98.02903,0.001067912,-0.1257102,0.09433498,0,0.3,0,0,0,0,
6.38225E+17,28.01279,1.098776,-8.545099,10.77325,-12.62277,48.34802,44.92884,39.29876,-0.1867781,-125.1698,-47.12124,31.50163,0,0,0,53.3127,-105.9626,-68.13738,72.57109,-25.54019,-95.59843,0.001067912,-0.1257102,0.09433498,0,0.3,0,0,0,0,
6.38225E+17,28.01279,1.098776,-8.545099,10.91974,-12.62277,48.34802,44.22205,37.94283,-0.8871961,-123.9979,-46.53528,30.03673,0,0,0,53.3127,-105.9626,-68.13738,71.905,-27.99046,-94.46537,0.001067912,-0.1257102,0.09433498,0,0.3,0,0,0,0,
6.38225E+17,28.01279,1.098776,-8.545099,11.13948,-12.69601,48.34802,43.44457,34.99717,-2.054559,-121.4343,-44.63091,28.2056,0,0,0,53.3127,-105.9626,-68.13738,71.83009,-33.43325,-92.51007,0.001067912,-0.1257102,0.09433498,0,0.3,0,0,0,0,
6.38225E+17,28.01279,1.098776,-8.545099,11.28597,-12.62277,48.42127,43.25609,32.05152,-2.591547,-120.6286,-42.21382,27.25341,0,0,0,53.3127,-105.9626,-68.13738,73.31884,-39.09723,-90.42637,0.001067912,-0.1257102,0.09433498,0,0.3,0,0,0,0,
6.38225E+17,28.01279,1.098776,-8.545099,11.35921,-12.62277,48.42127,43.25609,30.57869,-2.661588,-120.7018,-40.8954,26.96043,0,0,0,53.3127,-105.9626,-68.13738,74.42808,-42.01817,-89.24747,0.001067912,-0.1257102,0.09433498,0,0.3,0,0,0,0,
6.38225E+17,28.01279,1.098776,-8.545099,11.5057,-12.62277,48.42127,43.25609,27.67979,-2.638241,-121.947,-38.03884,26.52096,0,0,0,53.3127,-105.9626,-68.13738,76.71561,-47.91362,-86.81627,0.001067912,-0.1257102,0.09433498,0,0.3,0,0,0,0,
6.38225E+17,28.01279,1.075397,-8.545099,11.65219,-12.62277,48.34802,43.25609,24.64063,-2.638241,-123.3387,-35.10904,26.37447,0,0,0,53.31319,-106.017,-68.13647,78.85235,-54.26166,-84.54533,0.001067912,-0.1257102,0.09433498,0,0.3,0,0,0,0,
6.38225E+17,28.01279,1.075397,-8.545099,11.79868,-12.69601,48.34802,43.25609,21.53132,-2.638241,-124.6571,-32.17923,26.30123,0,0,0,53.31319,-106.017,-68.13647,80.79657,-60.91789,-82.479,0.001067912,-0.1257102,0.09433498,0,0.3,0,0,0,0,
6.38225E+17,28.01279,1.075397,-8.545099,11.87193,-12.69601,48.34802,43.25609,19.84809,-2.638241,-125.3163,-30.64108,26.30123,0,0,0,53.31319,-106.017,-68.13647,81.745,-64.58266,-81.471,0.001067912,-0.1257102,0.09433498,0,0.3,0,0,0,0,
6.38225E+17,28.01279,1.075397,-8.545099,12.09166,-12.69601,48.34802,43.25609,16.59852,-2.638241,-126.3417,-27.63803,26.22798,0,0,0,53.31319,-106.017,-68.13647,83.36551,-71.7654,-79.74872,0.001067912,-0.1257102,0.09433498,0,0.3,0,0,0,0,
6.38225E+17,28.01279,1.075397,-8.545099,12.38465,-12.76926,48.34802,43.25609,13.53598,-2.638241,-127.1474,-25.0012,26.15474,0,0,0,53.31319,-106.017,-68.13647,84.63506,-78.6473,-78.39943,0.001067912,-0.1257102,0.09433498,0,0.3,0,0,0,0,
6.38225E+17,28.01279,1.075397,-8.545099,12.53114,-12.8425,48.34802,43.25609,12.08653,-2.638241,-127.5136,-23.5363,26.15474,0,0,0,53.31319,-106.017,-68.13647,85.14764,-81.93668,-77.85466,0.001067912,-0.1257102,0.09433498,0,0.3,0,0,0,0,
6.38225E+17,28.01279,1.075397,-8.545099,12.89736,-12.8425,48.34802,43.25609,9.327903,-2.638241,-128.1728,-20.60649,26.08149,0,0,0,53.31319,-106.017,-68.13647,85.96498,-88.24471,-76.98599,0.001067912,-0.1257102,0.09433498,0,0.3,0,0,0,0,
6.38225E+17,28.01279,1.075397,-8.545099,13.41008,-13.06224,48.42127,43.25609,6.89657,-2.638241,-128.5391,-18.04291,26.08149,0,0,0,53.31319,-106.017,-68.13647,86.51213,-93.84634,-76.40448,0.001067912,-0.1257102,0.09433498,0,0.3,0,0,0,0,
6.38225E+17,28.01279,1.075397,-8.545099,14.28902,-13.35522,48.42127,43.25609,4.886045,-2.638241,-128.7588,-15.84556,26.08149,0,0,0,53.31319,-106.017,-68.13647,86.84123,-98.50067,-76.0547,0.001067912,-0.1257102,0.09433498,0,0.3,0,0,0,0,
6.38225E+17,28.01279,1.075397,-8.545099,15.46094,-14.08767,48.42127,43.25609,3.436596,-2.638241,-128.832,-13.86794,26.08149,0,0,0,53.31319,-106.017,-68.13647,87.00898,-101.8651,-75.87643,0.001067912,-0.1257102,0.09433498,0,0.3,0,0,0,0,
6.38225E+17,28.01279,1.075397,-8.545099,16.19339,-14.96661,48.42127,43.25609,2.875519,-2.638241,-128.832,-13.06224,26.08149,0,0,0,53.31319,-106.017,-68.13647,87.05824,-103.169,-75.82407,0.001067912,-0.1257102,0.09433498,0,0.3,0,0,0,0,
6.38225E+17,28.01279,1.052019,-8.545099,17.51181,-19.80079,48.42127,43.25609,1.963769,-2.638241,-128.832,-11.52409,26.08149,0,0,0,53.31366,-106.0714,-68.13557,87.11964,-105.2891,-75.75882,0.001067912,-0.1257102,0.09433498,0,0.3,0,0,0,0,
6.38225E+17,28.01279,0.7714807,-8.545099,18.3175,-29.32266,48.42127,43.25609,1.42607,-2.661588,-128.832,-10.42541,26.08149,0,0,0,53.31854,-106.7242,-68.1264,87.1078,-106.5375,-75.77139,0.001067912,-0.1257102,0.09433498,0,0.3,0,0,0,0,
6.38225E+17,28.01279,0.3974294,-8.545099,18.39075,-36.28096,48.42127,43.25609,1.332558,-2.661588,-128.832,-9.839451,26.15474,0,0,0,53.32271,-107.5947,-68.11857,87.11139,-106.755,-75.76758,0.001067912,-0.1257102,0.09433498,0,0.3,0,0,0,0,
6.38225E+17,28.27195,-0.8416153,-11.1133,18.09777,-50.49052,48.42127,43.25609,1.285801,-2.661588,-128.832,-9.180244,26.08149,0,0,0,50.98087,-109.4581,-73.55711,87.1131,-106.8638,-75.76577,0.001067912,-0.1257102,0.09433498,0,0.3,0,0,0,0,
6.38225E+17,28.10703,-0.9117499,-11.01991,16.0469,-57.52206,49.95942,43.25609,1.262423,-2.661588,-128.9053,-8.814018,26.08149,0,0,0,50.80713,-109.663,-73.22481,87.11392,-106.9182,-75.76488,0.001067912,-0.1257102,0.09433498,0,0.3,0,0,0,0,
6.38225E+17,28.03635,-0.6078333,-10.45957,15.53419,-59.0602,50.69187,43.25609,1.239045,-2.661588,-128.832,-8.667529,26.08149,0,0,0,51.29639,-109.1988,-72.02301,87.11474,-106.9726,-75.76402,0.001067912,-0.1257102,0.09433498,0,0.3,0,0,0,0,
6.38225E+17,28.01279,-0.8883717,-10.2728,14.87498,-60.52511,51.35107,43.25609,1.215667,-2.661588,-128.9053,-8.521038,26.08149,0,0,0,51.45361,-109.9299,-71.63194,87.11554,-107.027,-75.76318,0.001067912,-0.1257102,0.09433498,0,0.3,0,0,0,0,
6.38225E+17,27.80075,-0.9818845,-10.17941,13.7763,-60.52511,51.7173,43.25609,1.215667,-2.661588,-128.9053,-8.447793,26.08149,0,0,0,51.19343,-110.1861,-71.25611,87.11554,-107.027,-75.76318,0.001067912,-0.1257102,0.09433498,0,0.3,0,0,0,0,
6.38225E+17,24.19608,-1.005263,-10.17941,12.60438,-60.45186,51.42432,43.25609,1.192288,-2.661588,-128.9053,-8.374548,26.08149,0,0,0,44.98729,-110.2405,-68.23043,87.11632,-107.0814,-75.76234,0.001067912,-0.1257102,0.09433498,0,0.3,0,0,0,0,
6.38225E+17,18.82441,-1.005263,-10.17941,13.48332,-60.6716,50.98485,43.25609,1.16891,-2.661588,-128.9053,-8.301303,26.08149,0,0,0,35.41692,-110.2405,-64.45859,87.11709,-107.1358,-75.76152,0.001067912,-0.1257102,0.09433498,0,0.3,0,0,0,0,
6.38225E+17,17.08097,-1.005263,-10.17941,14.50875,-60.74484,50.9116,43.25609,1.16891,-2.661588,-128.9053,-8.301303,26.08149,0,0,0,32.23973,-110.2405,-63.42916,87.11709,-107.1358,-75.76152,0.001067912,-0.1257102,0.09433498,0,0.3,0,0,0,0,
6.38225E+17,13.33494,-1.005263,-10.17941,16.41313,-60.89133,50.76511,43.25609,1.16891,-2.661588,-128.9053,-8.228058,26.08149,0,0,0,25.31594,-110.2405,-61.54697,87.11709,-107.1358,-75.76152,0.001067912,-0.1257102,0.09433498,0,0.3,0,0,0,0,
6.38225E+17,10.24858,-1.005263,-10.17941,17.36532,-60.89133,50.69187,43.25609,1.145532,-2.661588,-128.832,-8.228058,26.08149,0,0,0,19.52884,-110.2405,-60.33885,87.11784,-107.1902,-75.76073,0.001067912,-0.1257102,0.09433498,0,0.3,0,0,0,0,
6.38225E+17,8.151747,-1.005263,-10.17941,17.87803,-60.89133,50.69187,43.25609,1.145532,-2.661588,-128.9053,-8.228058,26.08149,0,0,0,15.56379,-110.2405,-59.69664,87.11784,-107.1902,-75.76073,0.001067912,-0.1257102,0.09433498,0,0.3,0,0,0,0,
6.38225E+17,7.115108,-1.005263,-10.17941,18.09777,-60.89133,50.69187,43.25609,1.145532,-2.661588,-128.832,-8.154812,26.08149,0,0,0,13.59552,-110.2405,-59.43285,87.11784,-107.1902,-75.76073,0.001067912,-0.1257102,0.09433498,0,0.3,0,0,0,0,
6.38225E+17,3.910954,-1.005263,-10.20275,21.46704,-60.89133,50.54538,43.25609,1.145532,-2.661588,-128.9053,-8.154812,26.08149,0,0,0,7.482809,-110.2309,-58.89657,87.11784,-107.1902,-75.76073,0.001067912,-0.1257102,0.09433498,0,0.3,0,0,0,0,
6.38225E+17,0.8010387,-1.005263,-10.20275,28.86481,-60.96458,50.47213,43.25609,1.122154,-2.661588,-128.9053,-8.154812,26.08149,0,0,0,1.533764,-110.2309,-58.65181,87.11858,-107.2446,-75.75994,0.001067912,-0.1257102,0.09433498,0,0.3,0,0,0,0,
6.38225E+17,-0.612559,-1.005263,-10.17941,33.62574,-60.96458,50.47213,43.25609,1.122154,-2.661588,-128.9053,-8.154812,26.08149,0,0,0,-1.173466,-110.2405,-58.59388,87.11858,-107.2446,-75.75994,0.001067912,-0.1257102,0.09433498,0,0.3,0,0,0,0,
6.38225E+17,-6.761709,-1.028641,-8.731878,48.56776,-61.4773,50.98485,43.25609,1.122154,-2.661588,-128.832,-8.081567,26.08149,0,0,0,-13.31461,-110.8483,-56.05202,87.11858,-107.2446,-75.75994,0.001067912,-0.1257102,0.09433498,0,0.3,0,0,0,0,
6.38225E+17,-10.7669,-1.028641,-6.770707,53.62167,-62.72246,52.74273,43.25609,1.098776,-2.661588,-128.9053,-8.081567,26.08149,0,0,0,-21.97062,-111.4639,-52.81339,87.1193,-107.299,-75.75917,0.001067912,-0.1257102,0.09433498,0,0.3,0,0,0,0,
6.38225E+17,-13.19358,-1.028641,-4.809536,55.23307,-63.23518,53.47519,43.25609,1.098776,-2.661588,-128.9053,-8.081567,26.08149,0,0,0,-27.87926,-111.9244,-49.4262,87.1193,-107.299,-75.75917,0.001067912,-0.1257102,0.09433498,0,0.3,0,0,0,0,
6.38225E+17,-17.43437,-1.028641,0,56.84446,-63.67465,54.42737,43.25609,1.075397,-2.661588,-128.9053,-8.081567,26.08149,0,0,0,-39.94698,-112.3939,-41.1465,87.12001,-107.3534,-75.75842,0.001067912,-0.1257102,0.09433498,0,0.3,0,0,0,0,
6.38225E+17,-20.12021,-1.005263,4.132466,57.0642,-63.89439,55.08658,43.25609,1.075397,-2.661588,-128.9053,-8.081567,26.08149,0,0,0,-49.16972,-111.9928,-34.13411,87.12001,-107.3534,-75.75842,0.001067912,-0.1257102,0.09433498,0,0.3,0,0,0,0,
6.38225E+17,-21.60448,-1.005263,6.887444,54.94009,-63.96763,55.52605,43.25609,1.052019,-2.661588,-128.9053,-8.008322,26.08149,0,0,0,-54.97948,-111.3772,-29.51942,87.1207,-107.4078,-75.75768,0.001067912,-0.1257102,0.09433498,0,0.3,0,0,0,0,
6.38225E+17,-21.98145,-1.005263,8.311626,48.05504,-63.96763,56.11201,43.25609,1.052019,-2.661588,-128.9053,-8.008322,26.08149,0,0,0,-57.12144,-110.9389,-26.83753,87.1207,-107.4078,-75.75768,0.001067912,-0.1257102,0.09433498,0,0.3,0,0,0,0,
6.38225E+17,-21.93432,-1.005263,8.405016,41.53622,-63.89439,56.84446,43.25609,1.052019,-2.661588,-128.9053,-8.008322,26.08149,0,0,0,-57.08537,-110.9073,-26.59113,87.1207,-107.4078,-75.75768,0.001067912,-0.1257102,0.09433498,0,0.3,0,0,0,0,
6.38225E+17,-22.05212,-0.9585064,10.2261,25.34904,-64.04088,55.4528,43.25609,1.028641,-2.661588,-128.9053,-8.008322,26.08149,0,0,0,-58.94766,-110.1124,-22.83071,87.12138,-107.4622,-75.75697,0.001067912,-0.1257102,0.09433498,0,0.3,0,0,0,0,
6.38225E+17,-23.15944,-0.6545897,13.84493,15.97366,-64.18736,50.83836,43.25609,1.005263,-2.661588,-128.9053,-8.008322,26.08149,0,0,0,-64.99187,-107.6492,-16.41567,87.12204,-107.5166,-75.75626,0.001067912,-0.1257102,0.09433498,0,0.3,0,0,0,0,
6.38225E+17,-23.98404,0.2104038,18.00074,8.649141,-64.26061,51.05809,43.25609,1.005263,-2.661588,-128.9053,-8.008322,26.08149,0,0,0,-70.95478,-102.9832,-8.863416,87.12204,-107.5166,-75.75626,0.001067912,-0.1257102,0.09433498,0,0.3,0,0,0,0,
6.38225E+17,-24.17252,1.005263,20.21873,5.572844,-64.26061,52.01028,43.25609,1.005263,-2.661588,-128.9053,-7.935077,26.08149,0,0,0,-73.46822,-99.44346,-4.66589,87.12204,-107.5166,-75.75626,0.001067912,-0.1257102,0.09433498,0,0.3,0,0,0,0,
6.38225E+17,-24.14896,3.38984,24.91153,-0.0670338,-64.33386,53.40194,43.25609,0.9818845,-2.661588,-128.9053,-8.008322,26.08149,0,0,0,-77.43892,-89.70811,4.370759,87.12269,-107.571,-75.75558,0.001067912,-0.1257102,0.09433498,0,0.3,0,0,0,0,
6.38225E+17,-24.03116,6.756301,29.86115,-5.780157,-64.26061,54.06115,43.25609,0.9818845,-2.661588,-128.9053,-8.008322,26.08149,0,0,0,-80.9657,-76.60755,13.2361,87.12269,-107.571,-75.75558,0.001067912,-0.1257102,0.09433498,0,0.3,0,0,0,0,
6.38225E+17,-23.96048,8.649935,32.10249,-8.709964,-64.26061,54.28088,43.25609,0.9818845,-2.661588,-128.9053,-7.935077,26.08149,0,0,0,-82.31783,-69.55518,16.88262,87.12269,-107.571,-75.75558,0.001067912,-0.1257102,0.09433498,0,0.3,0,0,0,0,
6.38225E+17,-23.81912,12.71774,36.39838,-14.56958,-64.26061,54.50062,43.25609,0.9585064,-2.661588,-128.9053,-7.935077,26.08149,0,0,0,-84.48871,-54.62804,23.03855,87.12332,-107.6254,-75.75491,0.001067912,-0.1257102,0.09433498,0,0.3,0,0,0,0,
6.38225E+17,-23.60708,16.76217,40.62424,-19.69674,-64.33386,54.57386,43.25609,0.9585064,-2.661588,-128.9053,-7.935077,26.00825,0,0,0,-85.90218,-39.404,28.20611,87.12332,-107.6254,-75.75491,0.001067912,-0.1257102,0.09433498,0,0.3,0,0,0,0,
6.38225E+17,-23.3008,21.017,45.66725,-23.65198,-64.33386,54.64711,43.25609,0.9585064,-2.661588,-128.9053,-8.008322,26.08149,0,0,0,-86.9687,-22.0129,33.58129,87.12332,-107.6254,-75.75491,0.001067912,-0.1257102,0.09433498,0,0.3,0,0,0,0,
6.38225E+17,-23.08876,23.75225,48.77244,-25.84933,-64.26061,54.64711,43.25609,0.9585064,-2.661588,-128.9053,-7.935077,26.08149,0,0,0,-87.19484,-10.82342,36.1866,87.12332,-107.6254,-75.75491,0.001067912,-0.1257102,0.09433498,0,0.3,0,0,0,0,
6.38225E+17,-22.97096,25.48224,50.61687,-27.16775,-64.33386,54.64711,43.25609,0.9585064,-2.661588,-128.9053,-7.935077,26.08149,0,0,0,-87.20324,-3.88962,37.37779,87.12332,-107.6254,-75.75491,0.001067912,-0.1257102,0.09433498,0,0.3,0,0,0,0,
6.38225E+17,-22.75892,29.22275,54.81938,-29.43835,-64.26061,54.64711,43.25609,0.9351282,-2.661588,-128.9053,-7.935077,26.08149,0,0,0,-87.18564,11.62192,39.47339,87.12393,-107.6798,-75.75425,0.001067912,-0.1257102,0.09433498,0,0.3,0,0,0,0,
6.38225E+17,-22.31128,32.7061,59.65226,-29.65808,-64.33386,54.64711,43.25609,0.9351282,-2.661588,-128.9053,-7.935077,26.08149,0,0,0,-86.28629,28.02835,41.91975,87.12393,-107.6798,-75.75425,0.001067912,-0.1257102,0.09433498,0,0.3,0,0,0,0,
6.38225E+17,-21.74584,34.41272,62.26716,-28.77914,-64.33386,54.64711,43.25609,0.9351282,-2.661588,-128.9053,-7.935077,26.08149,0,0,0,-84.48798,36.65841,43.46544,87.12393,-107.6798,-75.75425,0.001067912,-0.1257102,0.09433498,0,0.3,0,0,0,0,
6.38225E+17,-19.64901,37.84931,67.54364,-25.6296,-64.33386,54.64711,43.25609,0.9351282,-2.661588,-128.9053,-7.935077,26.08149,0,0,0,-76.84653,54.23482,46.87741,87.12393,-107.6798,-75.75425,0.001067912,-0.1257102,0.09433498,0,0.3,0,0,0,0,
6.38225E+17,-16.70401,41.16902,72.5633,-23.94496,-64.33386,54.72035,43.25609,0.9351282,-2.661588,-128.9053,-7.935077,26.08149,0,0,0,-65.41978,71.17339,49.65003,87.12393,-107.6798,-75.75425,0.001067912,-0.1257102,0.09433498,0,0.3,0,0,0,0,
6.38225E+17,-15.10193,42.66522,74.94473,-23.94496,-64.33386,54.72035,43.25609,0.9117499,-2.661588,-128.9053,-7.935077,26.08149,0,0,0,-59.09727,79.08531,50.6448,87.12453,-107.7342,-75.75361,0.001067912,-0.1257102,0.09433498,0,0.3,0,0,0,0,
6.38225E+17,-10.74334,45.93817,80.24455,-25.6296,-64.26061,54.72035,43.25609,0.9117499,-2.661588,-128.9053,-7.935077,26.08149,0,0,0,-41.78525,96.57869,51.87888,87.12453,-107.7342,-75.75361,0.001067912,-0.1257102,0.09433498,0,0.3,0,0,0,0,
6.38225E+17,-7.704108,47.78505,83.06957,-27.24099,-64.26061,54.72035,43.25609,0.9117499,-2.661588,-128.9053,-7.935077,26.00825,0,0,0,-29.7574,106.0224,51.62174,87.12453,-107.7342,-75.75361,0.001067912,-0.1257102,0.09433498,0,0.3,0,0,0,0,
6.38225E+17,-2.874315,50.4034,86.12807,-30.24404,-64.33386,54.72035,43.25609,0.9117499,-2.661588,-128.9053,-7.935077,26.08149,0,0,0,-10.93367,117.0983,49.4157,87.12453,-107.7342,-75.75361,0.001067912,-0.1257102,0.09433498,0,0.3,0,0,0,0,
6.38225E+17,-1.013078,51.33854,86.99191,-31.12299,-64.33386,54.72035,43.25609,0.9117499,-2.661588,-128.9053,-7.935077,26.08149,0,0,0,-3.827368,120.4786,48.08852,87.12453,-107.7342,-75.75361,0.001067912,-0.1257102,0.09433498,0,0.3,0,0,0,0,
6.38225E+17,4.122993,53.46595,88.46278,-32.14842,-64.33386,54.72035,43.25609,0.9117499,-2.661588,-128.9053,-7.935077,26.08149,0,0,0,15.29159,126.9199,43.78489,87.12453,-107.7342,-75.75361,0.001067912,-0.1257102,0.09433498,0,0.3,0,0,0,0,
6.38225E+17,9.188385,54.86864,88.95309,-33.02736,-64.33386,54.7936,43.25609,0.9117499,-2.661588,-128.9053,-7.935077,26.08149,0,0,0,33.5433,129.9718,39.01898,87.12453,-107.7342,-75.75361,0.001067912,-0.1257102,0.09433498,0,0.3,0,0,0,0,
6.38225E+17,14.08886,55.05567,90.86756,-37.49532,-64.33386,54.7936,43.25609,0.8883717,-2.661588,-128.9053,-7.861832,26.08149,0,0,0,51.05016,134.6773,35.05661,87.12512,-107.7886,-75.75298,0.001067912,-0.1257102,0.09433498,0,0.3,0,0,0,0,
6.38225E+17,18.54169,54.9154,92.12831,-45.62553,-64.33386,54.72035,43.25609,0.8883717,-2.661588,-128.9053,-7.935077,26.08149,0,0,0,66.74886,137.4232,30.65997,87.12512,-107.7886,-75.75298,0.001067912,-0.1257102,0.09433498,0,0.3,0,0,0,0,
6.38225E+17,20.66209,54.84526,92.2217,-49.87375,-64.33386,54.72035,43.25609,0.8883717,-2.661588,-128.9053,-7.935077,26.08149,0,0,0,74.11061,137.5464,28.17124,87.12512,-107.7886,-75.75298,0.001067912,-0.1257102,0.09433498,0,0.3,0,0,0,0,
6.38225E+17,24.80864,54.44784,91.98823,-58.07721,-64.33386,54.64711,43.25609,0.8883717,-2.661588,-128.9053,-7.935077,26.08149,0,0,0,88.45156,136.4682,23.00094,87.12512,-107.7886,-75.75298,0.001067912,-0.1257102,0.09433498,0,0.3,0,0,0,0,
6.38225E+17,28.64891,53.81662,91.49793,-67.59908,-64.33386,54.57386,43.25609,0.8883717,-2.661588,-128.9053,-7.935077,26.08149,0,0,0,101.6561,134.4669,17.72243,87.12512,-107.7886,-75.75298,0.001067912,-0.1257102,0.09433498,0,0.3,0,0,0,0,
6.38225E+17,30.46303,53.44257,91.05434,-72.5065,-64.26061,54.64711,43.25609,0.8883717,-2.661588,-128.9053,-7.935077,26.08149,0,0,0,107.8627,132.9185,15.03507,87.12512,-107.7886,-75.75298,0.001067912,-0.1257102,0.09433498,0,0.3,0,0,0,0,
6.38225E+17,34.27974,52.67109,89.7002,-83.12706,-64.26061,54.64711,43.25609,0.8649935,-2.661588,-128.9053,-7.935077,26.08149,0,0,0,120.6505,128.6878,8.651379,87.12569,-107.843,-75.75238,0.001067912,-0.1257102,0.09433498,0,0.3,0,0,0,0,
6.38225E+17,37.53102,51.85285,88.43945,-93.01515,-64.11412,54.64711,43.25609,0.8649935,-2.661588,-128.9053,-7.935077,26.08149,0,0,0,131.3833,124.5885,2.680298,87.12569,-107.843,-75.75238,0.001067912,-0.1257102,0.09433498,0,0.3,0,0,0,0,
6.38225E+17,39.10954,51.36191,87.94915,-99.82695,-63.67465,54.57386,43.25609,0.8649935,-2.661588,-128.9053,-7.861832,26.08149,0,0,0,136.5871,122.7383,-0.3368062,87.12569,-107.843,-75.75238,0.001067912,-0.1257102,0.09433498,0,0.3,0,0,0,0,
6.38225E+17,42.03097,50.12287,86.71175,-121.4343,-61.3308,54.57386,43.25609,0.8649935,-2.661588,-128.9053,-7.861832,26.00825,0,0,0,146.3778,118.0367,-5.957632,87.12569,-107.843,-75.75238,0.001067912,-0.1257102,0.09433498,0,0.3,0,0,0,0,
6.38225E+17,44.19849,48.67342,85.17083,-150.9521,-57.22908,53.84141,43.25609,0.8649935,-2.661588,-128.9053,-7.861832,26.08149,0,0,0,154.0235,112.2641,-9.955779,87.12569,-107.843,-75.75238,0.001067912,-0.1257102,0.09433498,0,0.3,0,0,0,0,
6.38225E+17,47.19061,47.20059,83.79333,-155.2003,-50.19754,48.34802,43.25609,0.8649935,-2.661588,-128.9053,-7.935077,26.00825,0,0,0,163.7222,106.7767,-16.69165,87.12569,-107.843,-75.75238,0.001067912,-0.1257102,0.09433498,0,0.3,0,0,0,0,
6.38225E+17,48.79268,46.07844,82.78941,-155.2735,-47.26773,46.22392,43.25609,0.8416153,-2.661588,-128.9053,-7.935077,26.00825,0,0,0,169.1215,102.663,-20.25718,87.12624,-107.8974,-75.75179,0.001067912,-0.1257102,0.09433498,0,0.3,0,0,0,0,
6.38225E+17,49.75864,45.23682,81.92556,-155.2735,-46.31554,45.27173,43.25609,0.8416153,-2.661588,-128.9053,-7.935077,26.00825,0,0,0,172.4592,99.30133,-22.3971,87.12624,-107.8974,-75.75179,0.001067912,-0.1257102,0.09433498,0,0.3,0,0,0,0,
6.38225E+17,51.52563,43.20292,79.89434,-155.3468,-46.46204,44.0998,43.25609,0.8416153,-2.661588,-128.9053,-7.861832,26.08149,0,0,0,178.8775,91.2412,-26.19507,87.12624,-107.8974,-75.75179,0.001067912,-0.1257102,0.09433498,0,0.3,0,0,0,0,
6.38225E+17,52.79787,41.28591,78.40012,-155.3468,-47.48747,43.51384,43.25609,0.8182371,-2.661588,-128.9053,-7.861832,26.08149,0,0,0,183.8571,84.52311,-28.78408,87.12679,-107.9519,-75.75121,0.001067912,-0.1257102,0.09433498,0,0.3,0,0,0,0,
6.38225E+17,54.23503,38.92471,76.92924,-155.3468,-48.21992,43.22086,43.25609,0.8182371,-2.661588,-128.9053,-7.861832,26.08149,0,0,0,189.5786,76.97595,-31.79771,87.12679,-107.9519,-75.75121,0.001067912,-0.1257102,0.09433498,0,0.3,0,0,0,0,
6.38225E+17,54.44707,37.66228,76.34556,-155.3468,-48.36641,43.14762,43.25609,0.8182371,-2.661588,-128.9053,-7.861832,26.08149,0,0,0,191.3085,73.34832,-31.62413,87.12679,-107.9519,-75.75121,0.001067912,-0.1257102,0.09433498,0,0.3,0,0,0,0,
6.38225E+17,54.47063,35.30109,76.20547,-156.2257,-47.78045,43.00113,43.25609,0.8182371,-2.661588,-128.9053,-7.861832,26.08149,0,0,0,193.9607,68.61332,-29.84913,87.12679,-107.9519,-75.75121,0.001067912,-0.1257102,0.09433498,0,0.3,0,0,0,0,
6.38225E+17,54.47063,33.31394,77.23276,-156.3722,-47.048,42.78139,43.25609,0.8182371,-2.661588,-128.9053,-7.861832,26.08149,0,0,0,196.5289,67.12016,-28.01521,87.12679,-107.9519,-75.75121,0.001067912,-0.1257102,0.09433498,0,0.3,0,0,0,0,
6.38225E+17,54.42351,31.91125,78.51686,-156.4455,-46.97475,42.70815,43.25609,0.7948589,-2.661588,-128.9053,-7.861832,26.00825,0,0,0,198.3551,67.2922,-26.46479,87.12731,-108.0063,-75.75066,0.001067912,-0.1257102,0.09433498,0,0.3,0,0,0,0,
6.38225E+17,54.35283,30.8826,79.45075,-156.4455,-46.9015,42.6349,43.25609,0.7948589,-2.661588,-128.9053,-7.861832,26.08149,0,0,0,199.5309,67.38217,-25.2513,87.12731,-108.0063,-75.75066,0.001067912,-0.1257102,0.09433498,0,0.3,0,0,0,0,
6.38225E+17,54.25859,30.15788,79.40405,-156.4455,-46.38879,42.56165,43.25609,0.7948589,-2.661588,-128.9053,-7.861832,26.08149,0,0,0,199.9743,65.82233,-24.4346,87.12731,-108.0063,-75.75066,0.001067912,-0.1257102,0.09433498,0,0.3,0,0,0,0,
6.38225E+17,54.16435,29.43316,79.45075,-156.3722,-45.5831,41.68271,43.25609,0.7948589,-2.661588,-128.9053,-7.861832,26.08149,0,0,0,200.433,64.46542,-23.60351,87.12731,-108.0063,-75.75066,0.001067912,-0.1257102,0.09433498,0,0.3,0,0,0,0,
6.38225E+17,54.07011,26.90831,81.36523,-156.0792,-44.26468,37.80072,43.25609,0.7714807,-2.661588,-128.9053,-7.861832,26.08149,0,0,0,203.042,63.67885,-21.21062,87.12782,-108.0607,-75.75011,0.001067912,-0.1257102,0.09433498,0,0.3,0,0,0,0,
6.38225E+17,54.07011,26.0667,82.78941,-154.7608,-44.63091,37.21476,43.25609,0.7714807,-2.661588,-128.9053,-7.861832,26.08149,0,0,0,204.1193,65.20862,-20.4299,87.12782,-108.0607,-75.75011,0.001067912,-0.1257102,0.09433498,0,0.3,0,0,0,0,
6.38225E+17,53.92875,25.06143,85.63777,-150.5126,-46.75502,36.4823,43.25609,0.7714807,-2.661588,-128.9053,-7.861832,26.08149,0,0,0,205.11,69.69286,-18.93882,87.12782,-108.0607,-75.75011,0.001067912,-0.1257102,0.09433498,0,0.3,0,0,0,0,
6.38225E+17,53.45755,25.15495,87.76237,-144.8727,-51.29622,36.18932,43.25609,0.7714807,-2.661588,-128.9053,-7.861832,26.00825,0,0,0,204.0288,74.82625,-17.14259,87.12782,-108.0607,-75.75011,0.001067912,-0.1257102,0.09433498,0,0.3,0,0,0,0,
6.38225E+17,53.10415,25.31859,89.11651,-141.7964,-54.37251,36.92178,43.25609,0.7714807,-2.661588,-128.9053,-7.861832,26.08149,0,0,0,203.031,78.32115,-15.93299,87.12782,-108.0607,-75.75011,0.001067912,-0.1257102,0.09433498,0,0.3,0,0,0,0,
6.38225E+17,51.66699,25.50562,93.17894,-136.7425,-60.08564,39.63185,43.25609,0.7714807,-2.661588,-128.9053,-7.861832,26.08149,0,0,0,198.8494,88.16531,-11.12211,87.12782,-108.0607,-75.75011,0.001067912,-0.1257102,0.09433498,0,0.3,0,0,0,0,
6.38225E+17,50.04136,25.71602,96.98454,-131.4689,-62.57597,42.12218,43.25609,0.7714807,-2.661588,-128.9053,-7.861832,26.08149,0,0,0,193.5455,97.4276,-6.183957,87.12782,-108.0607,-75.75011,0.001067912,-0.1257102,0.09433498,0,0.3,0,0,0,0,
6.38225E+17,49.24032,26.01994,98.47877,-129.418,-63.16194,43.58709,43.25609,0.7714807,-2.661588,-128.9053,-7.861832,26.08149,0,0,0,190.6713,101.51,-4.000919,87.12782,-108.0607,-75.75011,0.001067912,-0.1257102,0.09433498,0,0.3,0,0,0,0,
6.38225E+17,47.35552,27.46939,100.0897,-125.3895,-63.96763,46.80988,43.25609,0.7714807,-2.661588,-128.9053,-7.861832,26.08149,0,0,0,183.6012,108.2226,0.7431669,87.12782,-108.0607,-75.75011,0.001067912,-0.1257102,0.09433498,0,0.3,0,0,0,0,
6.38225E+17,45.16444,28.89546,101.5606,-121.2878,-64.26061,51.93703,43.25609,0.7481025,-2.661588,-128.9053,-7.861832,26.08149,0,0,0,175.4347,114.5104,6.080518,87.12832,-108.1151,-75.74959,0.001067912,-0.1257102,0.09433498,0,0.3,0,0,0,0,
6.38225E+17,44.33985,29.3864,102.0742,-119.4567,-64.33386,53.9879,43.25609,0.7481025,-2.661588,-128.9053,-7.788587,26.08149,0,0,0,172.3462,116.6785,8.014174,87.12832,-108.1151,-75.74959,0.001067912,-0.1257102,0.09433498,0,0.3,0,0,0,0,
6.38225E+17,42.21945,30.57869,103.3117,-114.9155,-64.48035,58.74884,43.25609,0.7481025,-2.661588,-128.9053,-7.788587,26.08149,0,0,0,164.3458,121.8915,12.77454,87.12832,-108.1151,-75.74959,0.001067912,-0.1257102,0.09433498,0,0.3,0,0,0,0,
6.38225E+17,39.65141,31.86449,104.5957,-107.6642,-64.48035,63.72951,43.25609,0.7481025,-2.661588,-128.9053,-7.861832,26.08149,0,0,0,154.6156,127.351,18.2071,87.12832,-108.1151,-75.74959,0.001067912,-0.1257102,0.09433498,0,0.3,0,0,0,0,
6.38225E+17,36.84778,33.05678,105.7865,-97.11688,-64.48035,67.6115,43.25609,0.7481025,-2.661588,-128.9053,-7.788587,26.08149,0,0,0,143.9769,132.3667,23.77363,87.12832,-108.1151,-75.74959,0.001067912,-0.1257102,0.09433498,0,0.3,0,0,0,0,
6.38225E+17,35.17502,33.64123,105.9732,-90.08535,-64.5536,69.51588,43.25609,0.7481025,-2.661588,-128.9053,-7.788587,26.08149,0,0,0,137.8079,133.9211,27.18612,87.12832,-108.1151,-75.74959,0.001067912,-0.1257102,0.09433498,0,0.3,0,0,0,0,
6.38225E+17,31.52323,35.51149,105.9732,-77.92664,-64.48035,75.52198,43.25609,0.7247244,-2.661588,-128.9053,-7.861832,26.08149,0,0,0,123.7824,137.5049,33.46084,87.12879,-108.1695,-75.74908,0.001067912,-0.1257102,0.09433498,0,0.3,0,0,0,0,
6.38225E+17,27.89499,36.91418,105.9966,-70.45564,-64.5536,84.75087,43.25609,0.7247244,-2.661588,-128.9053,-7.788587,26.08149,0,0,0,109.8539,140.191,39.1718,87.12879,-108.1695,-75.74908,0.001067912,-0.1257102,0.09433498,0,0.3,0,0,0,0,
6.38225E+17,25.8924,37.49864,105.9966,-67.37935,-64.5536,89.43856,43.25609,0.7247244,-2.661588,-128.9053,-7.861832,26.00825,0,0,0,102.1758,141.2744,42.14392,87.12879,-108.1695,-75.74908,0.001067912,-0.1257102,0.09433498,0,0.3,0,0,0,0,
6.38225E+17,21.5338,38.15323,105.9966,-60.12807,-64.48035,95.95738,43.25609,0.7247244,-2.661588,-128.9053,-7.788587,26.08149,0,0,0,85.5402,142.4778,48.43128,87.12879,-108.1695,-75.74908,0.001067912,-0.1257102,0.09433498,0,0.3,0,0,0,0,
6.38225E+17,17.92913,38.17661,105.9966,-54.12197,-64.5536,98.59421,43.25609,0.7247244,-2.661588,-128.9053,-7.788587,26.08149,0,0,0,71.73116,142.5206,53.34849,87.12879,-108.1695,-75.74908,0.001067912,-0.1257102,0.09433498,0,0.3,0,0,0,0,
6.38225E+17,15.95009,38.01296,105.9732,-50.89918,-64.48035,99.91262,43.25609,0.7247244,-2.661588,-128.9053,-7.788587,26.08149,0,0,0,64.10096,142.1686,55.93373,87.12879,-108.1695,-75.74908,0.001067912,-0.1257102,0.09433498,0,0.3,0,0,0,0,
6.38225E+17,12.4161,37.05445,105.9499,-43.94089,-64.5536,101.231,43.25609,0.7247244,-2.661588,-128.9053,-7.788587,26.08149,0,0,0,50.44947,140.3473,60.80033,87.12879,-108.1695,-75.74908,0.001067912,-0.1257102,0.09433498,0,0.3,0,0,0,0,
6.38225E+17,9.541784,35.46473,105.8332,-37.27558,-64.33386,101.6705,43.25609,0.7247244,-2.661588,-128.9053,-7.788587,26.08149,0,0,0,39.27028,137.1027,65.27316,87.12879,-108.1695,-75.74908,0.001067912,-0.1257102,0.09433498,0,0.3,0,0,0,0,
6.38225E+17,7.185789,34.43609,105.2261,-32.07517,-63.08869,101.5973,43.25609,0.7247244,-2.661588,-128.9053,-7.788587,26.00825,0,0,0,29.8521,133.7793,68.42598,87.12879,-108.1695,-75.74908,0.001067912,-0.1257102,0.09433498,0,0.3,0,0,0,0,
6.38225E+17,5.630831,33.78151,104.5724,-27.31424,-60.96458,99.61964,43.25609,0.7247244,-2.661588,-128.9053,-7.788587,26.08149,0,0,0,23.53821,131.0475,70.38836,87.12879,-108.1695,-75.74908,0.001067912,-0.1257102,0.09433498,0,0.3,0,0,0,0,
6.38225E+17,5.136071,33.52435,104.3156,-24.38443,-59.79266,97.49553,43.25609,0.7247244,-2.661588,-128.9053,-7.788587,26.08149,0,0,0,21.51884,129.9705,71.06155,87.12879,-108.1695,-75.74908,0.001067912,-0.1257102,0.09433498,0,0.3,0,0,0,0,
6.38225E+17,4.523513,32.89313,103.5685,-17.71912,-57.96152,91.48943,43.25609,0.7013461,-2.661588,-128.9053,-7.788587,26.08149,0,0,0,19.05457,127.0538,72.49765,87.12926,-108.2239,-75.74859,0.001067912,-0.1257102,0.09433498,0,0.3,0,0,0,0,
6.38225E+17,4.193673,31.60733,102.2844,-11.42003,-55.3247,85.19034,43.25609,0.7013461,-2.661588,-128.9053,-7.788587,26.08149,0,0,0,17.83342,121.6101,74.86268,87.12926,-108.2239,-75.74859,0.001067912,-0.1257102,0.09433498,0,0.3,0,0,0,0,
6.38225E+17,4.075873,30.74234,101.3972,-8.856454,-52.98085,82.26054,43.25609,0.7013461,-2.661588,-128.9053,-7.788587,26.08149,0,0,0,17.43752,117.8668,76.36093,87.12926,-108.2239,-75.74859,0.001067912,-0.1257102,0.09433498,0,0.3,0,0,0,0,
6.38225E+17,4.005194,28.89546,99.06245,-5.706912,-46.82826,77.57285,43.25609,0.7013461,-2.661588,-128.9053,-7.788587,26.00825,0,0,0,17.35232,108.7905,79.47698,87.12926,-108.2239,-75.74859,0.001067912,-0.1257102,0.09433498,0,0.3,0,0,0,0,
6.38225E+17,3.981634,27.28236,95.5837,-3.875783,-38.11209,74.49654,43.25609,0.7013461,-2.661588,-128.9053,-7.715342,26.08149,0,0,0,17.4448,97.44938,82.27681,87.12926,-108.2239,-75.74859,0.001067912,-0.1257102,0.09433498,0,0.3,0,0,0,0,
6.38225E+17,3.958073,26.74467,91.07768,-3.070086,-28.0775,72.29919,43.25609,0.7013461,-2.661588,-128.9053,-7.788587,26.08149,0,0,0,17.42303,85.86758,83.4587,87.12926,-108.2239,-75.74859,0.001067912,-0.1257102,0.09433498,0,0.3,0,0,0,0,
6.38225E+17,3.958073,26.86156,88.04254,-2.777105,-21.70517,70.98078,43.25609,0.7013461,-2.661588,-128.9053,-7.788587,26.08149,0,0,0,17.41081,79.04745,83.28222,87.12926,-108.2239,-75.74859,0.001067912,-0.1257102,0.09433498,0,0.3,0,0,0,0,
6.38225E+17,3.958073,27.58628,80.92162,-2.410879,-8.740773,67.75799,43.25609,0.7013461,-2.661588,-128.9053,-7.788587,26.08149,0,0,0,17.24762,64.06154,80.92364,87.12926,-108.2239,-75.74859,0.001067912,-0.1257102,0.09433498,0,0.3,0,0,0,0,
6.38225E+17,3.934513,27.91357,70.4854,-2.484124,6.787202,63.58302,43.25609,0.7013461,-2.661588,-128.9053,-7.788587,26.08149,0,0,0,16.70979,41.23117,74.6013,87.12926,-108.2239,-75.74859,0.001067912,-0.1257102,0.09433498,0,0.3,0,0,0,0,
6.38225E+17,4.217233,27.91357,56.82725,-2.777105,22.60816,57.0642,43.25609,0.7013461,-2.661588,-128.9053,-7.788587,26.08149,0,0,0,16.87352,12.81187,60.48132,87.12926,-108.2239,-75.74859,0.001067912,-0.1257102,0.09433498,0,0.3,0,0,0,0,
6.38225E+17,4.547072,29.64356,46.9747,-3.143331,30.59188,52.01028,43.25609,0.6779679,-2.661588,-128.9053,-7.788587,26.08149,0,0,0,16.91659,-1.682257,44.36127,87.12971,-108.2783,-75.74812,0.001067912,-0.1257102,0.09433498,0,0.3,0,0,0,0,
6.38225E+17,4.735552,31.11639,41.90834,-4.095518,33.74142,49.37346,43.25609,0.6779679,-2.661588,-128.9053,-7.788587,26.08149,0,0,0,16.77832,-6.978601,34.18966,87.12971,-108.2783,-75.74812,0.001067912,-0.1257102,0.09433498,0,0.3,0,0,0,0,
6.38225E+17,5.88999,32.14503,33.62006,-7.09857,37.84315,44.53928,43.25609,0.6779679,-2.661588,-128.9053,-7.788587,26.08149,0,0,0,19.16319,-16.74344,17.40578,87.12971,-108.2783,-75.74812,0.001067912,-0.1257102,0.09433498,0,0.3,0,0,0,0,
6.38225E+17,7.751227,31.67747,27.40969,-8.856454,39.96726,41.02351,43.25609,0.6779679,-2.661588,-128.9053,-7.788587,26.08149,0,0,0,23.58521,-25.00278,4.923081,87.12971,-108.2783,-75.74812,0.001067912,-0.1257102,0.09433498,0,0.3,0,0,0,0,
6.38225E+17,8.552266,31.51382,25.02827,-9.36917,40.55322,39.63185,43.25609,0.6779679,-2.661588,-128.9053,-7.788587,26.08149,0,0,0,25.29561,-27.77572,-0.1428644,87.12971,-108.2783,-75.74812,0.001067912,-0.1257102,0.09433498,0,0.3,0,0,0,0,
6.38225E+17,9.965863,31.35017,21.783,-9.808641,41.28568,36.92178,43.25609,0.6779679,-2.661588,-128.9053,-7.715342,26.00825,0,0,0,28.27244,-31.10065,-7.448493,87.12971,-108.2783,-75.74812,0.001067912,-0.1257102,0.09433498,0,0.3,0,0,0,0,
6.38225E+17,11.0025,32.0749,20.40551,-10.10162,41.72515,33.99197,43.25609,0.6779679,-2.661588,-128.9053,-7.715342,26.08149,0,0,0,30.43874,-30.81959,-11.79274,87.12971,-108.2783,-75.74812,0.001067912,-0.1257102,0.09433498,0,0.3,0,0,0,0,
6.38225E+17,11.54438,33.10354,20.33547,-10.24811,41.87164,32.82005,43.25609,0.6779679,-2.661588,-128.9053,-7.715342,26.08149,0,0,0,31.62937,-28.85924,-13.50071,87.12971,-108.2783,-75.74812,0.001067912,-0.1257102,0.09433498,0,0.3,0,0,0,0,
6.38225E+17,12.67526,36.49338,21.96978,-10.02838,42.09137,31.06216,43.25609,0.6779679,-2.661588,-128.9053,-7.788587,26.08149,0,0,0,34.46991,-21.00908,-15.08638,87.12971,-108.2783,-75.74812,0.001067912,-0.1257102,0.09433498,0,0.3,0,0,0,0,
6.38225E+17,13.21714,39.06498,24.46794,-9.295925,41.72515,30.69594,43.25609,0.6779679,-2.661588,-128.9053,-7.788587,26.00825,0,0,0,36.30118,-13.98692,-13.78709,87.12971,-108.2783,-75.74812,0.001067912,-0.1257102,0.09433498,0,0.3,0,0,0,0,
6.38225E+17,13.2407,42.61847,28.53036,-8.050756,40.33349,31.35514,43.25609,0.6779679,-2.661588,-128.9053,-7.788587,26.08149,0,0,0,37.06379,-3.513492,-10.83111,87.12971,-108.2783,-75.74812,0.001067912,-0.1257102,0.09433498,0,0.3,0,0,0,0,
6.38225E+17,13.21714,44.62899,30.79504,-7.24506,39.01508,32.30733,43.25609,0.6779679,-2.661588,-128.9053,-7.788587,26.08149,0,0,0,37.30805,2.48193,-9.500051,87.12971,-108.2783,-75.74812,0.001067912,-0.1257102,0.09433498,0,0.3,0,0,0,0,
6.38225E+17,13.2407,48.57991,35.65128,-5.120951,35.20633,34.87091,43.25609,0.6779679,-2.661588,-128.9053,-7.715342,26.08149,0,0,0,38.00823,14.9889,-6.817271,87.12971,-108.2783,-75.74812,0.001067912,-0.1257102,0.09433498,0,0.3,0,0,0,0,
6.38225E+17,13.19358,52.11002,40.81102,-2.117898,30.2989,38.24019,43.25609,0.6779679,-2.661588,-128.9053,-7.715342,26.08149,0,0,0,38.58418,27.66015,-3.76256,87.12971,-108.2783,-75.74812,0.001067912,-0.1257102,0.09433498,0,0.3,0,0,0,0,
6.38225E+17,12.91086,55.17256,47.04474,2.203566,24.36604,42.6349,43.25609,0.6779679,-2.661588,-128.9053,-7.715342,26.08149,0,0,0,38.82272,41.94549,1.01139,87.12971,-108.2783,-75.74812,0.001067912,-0.1257102,0.09433498,0,0.3,0,0,0,0,
6.38225E+17,12.25118,57.18309,54.04892,7.110993,17.26126,46.73663,43.25609,0.6779679,-2.661588,-128.9053,-7.715342,26.08149,0,0,0,38.24211,57.1292,7.764999,87.12971,-108.2783,-75.74812,0.001067912,-0.1257102,0.09433498,0,0.3,0,0,0,0,
6.38225E+17,11.68574,57.53376,57.80783,9.967555,13.23278,48.56776,43.25609,0.6779679,-2.661588,-128.9053,-7.715342,26.08149,0,0,0,37.35556,64.81481,12.25951,87.12971,-108.2783,-75.74812,0.001067912,-0.1257102,0.09433498,0,0.3,0,0,0,0,
6.38225E+17,9.918744,56.83241,64.29837,15.31445,5.102563,51.20458,43.25609,0.6779679,-2.661588,-128.9053,-7.715342,26.00825,0,0,0,33.2637,77.14195,21.87497,87.12971,-108.2783,-75.74812,0.001067912,-0.1257102,0.09433498,0,0.3,0,0,0,0,
6.38225E+17,7.656987,54.82188,69.13126,19.26969,-2.73467,52.96247,43.25609,0.6545897,-2.661588,-128.9053,-7.788587,26.08149,0,0,0,26.83867,84.84258,31.28169,87.13014,-108.3327,-75.74765,0.001067912,-0.1257102,0.09433498,0,0.3,0,0,0,0,
6.38225E+17,6.431869,53.46595,70.90565,20.51486,-6.323683,53.69492,43.25609,0.6545897,-2.661588,-128.9053,-7.715342,26.00825,0,0,0,23.00887,86.87507,35.75373,87.13014,-108.3327,-75.74765,0.001067912,-0.1257102,0.09433498,0,0.3,0,0,0,0,
6.38225E+17,4.311473,50.45016,73.47385,21.3938,-12.40303,55.67254,43.25609,0.6545897,-2.661588,-128.9053,-7.715342,26.08149,0,0,0,15.99434,88.24051,43.79974,87.13014,-108.3327,-75.74765,0.001067912,-0.1257102,0.09433498,0,0.3,0,0,0,0,
6.38225E+17,3.109915,47.411,75.20155,20.44161,-16.65125,57.86989,43.25609,0.6545897,-2.661588,-128.9053,-7.715342,26.08149,0,0,0,11.89029,87.46564,50.49662,87.13014,-108.3327,-75.74765,0.001067912,-0.1257102,0.09433498,0,0.3,0,0,0,0,
6.38225E+17,2.968555,46.40574,75.45837,19.85565,-17.74993,58.67559,43.25609,0.6545897,-2.661588,-128.9053,-7.788587,26.08149,0,0,0,11.44664,86.44553,52.38269,87.13014,-108.3327,-75.74765,0.001067912,-0.1257102,0.09433498,0,0.3,0,0,0,0,
6.38225E+17,3.109915,45.16669,74.87468,18.68373,-18.77536,59.92076,43.25609,0.6545897,-2.661588,-128.9053,-7.715342,26.00825,0,0,0,12.08446,83.12144,54.07034,87.13014,-108.3327,-75.74765,0.001067912,-0.1257102,0.09433498,0,0.3,0,0,0,0,
6.38225E+17,3.793154,44.97966,72.23644,17.36532,-17.16397,60.65321,43.25609,0.6545897,-2.661588,-128.9053,-7.715342,26.08149,0,0,0,14.64125,76.92551,52.48368,87.13014,-108.3327,-75.74765,0.001067912,-0.1257102,0.09433498,0,0.3,0,0,0,0,
6.38225E+17,4.994712,45.00304,68.36079,15.90041,-13.35522,60.87295,43.25609,0.6545897,-2.661588,-128.9053,-7.788587,26.00825,0,0,0,19.00078,68.47346,49.06105,87.13014,-108.3327,-75.74765,0.001067912,-0.1257102,0.09433498,0,0.3,0,0,0,0,
6.38225E+17,6.643909,45.00304,63.15435,14.14253,-6.98289,60.50672,43.25609,0.6545897,-2.661588,-128.9053,-7.715342,26.00825,0,0,0,24.67454,57.42837,43.48385,87.13014,-108.3327,-75.74765,0.001067912,-0.1257102,0.09433498,0,0.3,0,0,0,0,
6.38225E+17,8.363786,44.81602,56.94398,12.01842,1.293814,58.74884,43.25609,0.6545897,-2.661588,-128.9053,-7.715342,26.00825,0,0,0,30.01675,44.60249,35.81589,87.13014,-108.3327,-75.74765,0.001067912,-0.1257102,0.09433498,0,0.3,0,0,0,0,
6.38225E+17,9.070585,44.55886,53.58197,10.48027,5.835015,57.28393,43.25609,0.6545897,-2.661588,-128.9053,-7.715342,26.08149,0,0,0,31.89654,37.74773,31.44349,87.13014,-108.3327,-75.74765,0.001067912,-0.1257102,0.09433498,0,0.3,0,0,0,0,
6.38225E+17,10.15434,43.55359,46.85796,5.646089,15.50338,53.1822,43.25609,0.6312115,-2.661588,-128.9053,-7.715342,26.08149,0,0,0,34.19224,24.04655,22.55519,87.13056,-108.3871,-75.74721,0.001067912,-0.1257102,0.09433498,0,0.3,0,0,0,0,
6.38225E+17,10.67266,41.75347,40.36742,-1.898163,23.99982,46.88312,43.25609,0.6312115,-2.661588,-128.9053,-7.715342,26.08149,0,0,0,34.41908,10.55109,14.28543,87.13056,-108.3871,-75.74721,0.001067912,-0.1257102,0.09433498,0,0.3,0,0,0,0,
6.38225E+17,10.69622,40.35078,37.19219,-7.09857,27.66208,42.26867,43.25609,0.6312115,-2.661588,-128.9053,-7.715342,26.08149,0,0,0,33.82299,3.461269,10.71785,87.13056,-108.3871,-75.74721,0.001067912,-0.1257102,0.09433498,0,0.3,0,0,0,0,
6.38225E+17,10.62554,37.0077,32.38266,-17.93885,32.13003,31.20865,43.25609,0.6312115,-2.661588,-128.9053,-7.715342,26.00825,0,0,0,32.80394,-8.996415,6.505181,87.13056,-108.3871,-75.74721,0.001067912,-0.1257102,0.09433498,0,0.3,0,0,0,0,
6.38225E+17,10.71978,32.68273,29.90785,-28.92563,33.74142,16.77936,43.25609,0.6312115,-2.661588,-128.9053,-7.715342,26.08149,0,0,0,33.24415,-20.23436,7.257328,87.13056,-108.3871,-75.74721,0.001067912,-0.1257102,0.09433498,0,0.3,0,0,0,0,
6.38225E+17,10.95538,30.60207,29.72107,-33.68657,33.81467,9.528083,43.25609,0.6312115,-2.661588,-128.9053,-7.715342,26.00825,0,0,0,34.37706,-24.57289,9.242877,87.13056,-108.3871,-75.74721,0.001067912,-0.1257102,0.09433498,0,0.3,0,0,0,0,
6.38225E+17,12.22762,27.0252,29.95454,-42.18301,33.66818,-4.754725,43.25609,0.6312115,-2.661588,-128.9053,-7.715342,26.08149,0,0,0,39.26113,-31.59546,12.81706,87.13056,-108.3871,-75.74721,0.001067912,-0.1257102,0.09433498,0,0.3,0,0,0,0,
6.38225E+17,14.63074,25.62251,29.74442,-47.60315,33.66818,-14.86256,43.25609,0.6312115,-2.661588,-128.9053,-7.788587,26.00825,0,0,0,47.08145,-34.76488,12.0018,87.13056,-108.3871,-75.74721,0.001067912,-0.1257102,0.09433498,0,0.3,0,0,0,0,
6.38225E+17,17.64641,25.59913,28.83387,-50.67944,33.74142,-21.38138,43.25609,0.6312115,-2.661588,-128.9053,-7.715342,26.08149,0,0,0,55.95125,-35.85068,7.536249,87.13056,-108.3871,-75.74721,0.001067912,-0.1257102,0.09433498,0,0.3,0,0,0,0,
6.38225E+17,21.36888,25.34197,27.59647,-51.48514,33.3752,-26.58179,43.25609,0.6312115,-2.661588,-128.9053,-7.715342,26.08149,0,0,0,66.42152,-37.75258,1.409071,87.13056,-108.3871,-75.74721,0.001067912,-0.1257102,0.09433498,0,0.3,0,0,0,0,
6.38225E+17,22.85316,25.06143,27.26961,-51.19216,33.00897,-28.26642,43.25609,0.6312115,-2.661588,-128.9053,-7.788587,26.08149,0,0,0,70.6422,-38.69384,-0.7343759,87.13056,-108.3871,-75.74721,0.001067912,-0.1257102,0.09433498,0,0.3,0,0,0,0,
6.38225E+17,26.38716,24.00941,26.94275,-49.65401,31.83705,-32.22166,43.25609,0.6312115,-2.661588,-128.9053,-7.715342,26.08149,0,0,0,80.99072,-41.26781,-5.103381,87.13056,-108.3871,-75.74721,0.001067912,-0.1257102,0.09433498,0,0.3,0,0,0,0,
6.38225E+17,30.22743,23.02753,26.80266,-47.16368,30.59188,-35.15147,43.25609,0.6312115,-2.661588,-128.9053,-7.715342,26.08149,0,0,0,92.05502,-43.51056,-10.35767,87.13056,-108.3871,-75.74721,0.001067912,-0.1257102,0.09433498,0,0.3,0,0,0,0,
6.38225E+17,32.06511,22.8405,26.61588,-45.62553,30.2989,-35.88392,43.25609,0.6312115,-2.661588,-128.9053,-7.715342,26.00825,0,0,0,96.95807,-44.10682,-13.57629,87.13056,-108.3871,-75.74721,0.001067912,-0.1257102,0.09433498,0,0.3,0,0,0,0,
6.38225E+17,35.81114,23.07429,26.52249,-41.5238,30.2989,-36.76286,43.25609,0.6312115,-2.661588,-128.9053,-7.715342,26.00825,0,0,0,106.625,-43.70303,-20.57139,87.13056,-108.3871,-75.74721,0.001067912,-0.1257102,0.09433498,0,0.3,0,0,0,0,
6.38225E+17,39.32158,24.73414,27.94668,-35.44445,30.88486,-35.59094,43.25609,0.6312115,-2.661588,-128.9053,-7.715342,26.00825,0,0,0,116.349,-38.65453,-26.3084,87.13056,-108.3871,-75.74721,0.001067912,-0.1257102,0.09433498,0,0.3,0,0,0,0,
6.38225E+17,41.48909,27.93695,31.05186,-28.33967,31.47083,-32.36815,43.25609,0.6312115,-2.661588,-128.9053,-7.715342,26.00825,0,0,0,123.6141,-28.41661,-28.57609,87.13056,-108.3871,-75.74721,0.001067912,-0.1257102,0.09433498,0,0.3,0,0,0,0,
6.38225E+17,42.19589,29.80721,33.22316,-24.53092,31.69056,-30.02431,43.25609,0.6312115,-2.661588,-128.9053,-7.715342,26.00825,0,0,0,126.7912,-21.91696,-28.4986,87.13056,-108.3871,-75.74721,0.001067912,-0.1257102,0.09433498,0,0.3,0,0,0,0,
6.38225E+17,42.83201,35.37122,38.75646,-15.7415,31.83705,-22.40681,43.25609,0.6312115,-2.661588,-128.9053,-7.715342,26.00825,0,0,0,130.6774,-3.445645,-27.38932,87.13056,-108.3871,-75.74721,0.001067912,-0.1257102,0.09433498,0,0.3,0,0,0,0,
6.38225E+17,42.52573,40.23389,43.19244,-8.636719,31.17784,-15.52176,43.25609,0.6312115,-2.661588,-128.9053,-7.715342,26.08149,0,0,0,130.502,12.262,-26.06038,87.13056,-108.3871,-75.74721,0.001067912,-0.1257102,0.09433498,0,0.3,0,0,0,0,
6.38225E+17,42.10165,43.01589,45.66725,-4.534989,30.37215,-11.49328,43.25609,0.6312115,-2.661588,-128.9053,-7.715342,26.00825,0,0,0,129.3195,21.13332,-25.23759,87.13056,-108.3871,-75.74721,0.001067912,-0.1257102,0.09433498,0,0.3,0,0,0,0,
6.38225E+17,40.64093,48.22923,50.10323,3.302244,27.51558,-4.168763,43.25609,0.6078333,-2.661588,-128.9053,-7.715342,26.08149,0,0,0,124.4911,37.27302,-23.31355,87.13096,-108.4415,-75.74678,0.001067912,-0.1257102,0.09433498,0,0.3,0,0,0,0,
6.38225E+17,37.62526,52.78798,53.69871,10.18729,23.63359,2.862773,43.25609,0.6078333,-2.661588,-128.9053,-7.715342,26.00825,0,0,0,114.8427,50.60298,-19.35958,87.13096,-108.4415,-75.74678,0.001067912,-0.1257102,0.09433498,0,0.3,0,0,0,0,
6.38225E+17,33.17242,56.36485,56.47704,15.02147,18.9459,9.528083,43.25609,0.6078333,-2.661588,-128.9053,-7.715342,26.08149,0,0,0,101.2422,60.72939,-13.47303,87.13096,-108.4415,-75.74678,0.001067912,-0.1257102,0.09433498,0,0.3,0,0,0,0,
6.38225E+17,28.48399,58.7728,58.13469,17.58505,14.47795,15.90041,43.25609,0.6078333,-2.661588,-128.9053,-7.715342,26.00825,0,0,0,86.98232,66.98133,-8.041704,87.13096,-108.4415,-75.74678,0.001067912,-0.1257102,0.09433498,0,0.3,0,0,0,0,
6.38225E+17,26.08088,59.80144,58.55495,18.3175,12.28059,19.34294,43.25609,0.6078333,-2.661588,-128.9053,-7.715342,26.08149,0,0,0,79.50489,69.03661,-5.923131,87.13096,-108.4415,-75.74678,0.001067912,-0.1257102,0.09433498,0,0.3,0,0,0,0,
6.38225E+17,21.32176,61.60157,58.67168,18.97671,8.398596,26.08149,43.25609,0.6078333,-2.661588,-128.9053,-7.715342,26.08149,0,0,0,64.47778,71.31868,-3.158504,87.13096,-108.4415,-75.74678,0.001067912,-0.1257102,0.09433498,0,0.3,0,0,0,0,
6.38225E+17,15.47889,63.40169,57.34089,18.17101,5.102563,33.99197,43.25609,0.6078333,-2.661588,-128.9053,-7.715342,26.08149,0,0,0,45.89647,70.62627,-2.615622,87.13096,-108.4415,-75.74678,0.001067912,-0.1257102,0.09433498,0,0.3,0,0,0,0,
6.38225E+17,8.646505,64.61736,55.16959,14.94823,2.758718,43.07437,43.25609,0.6078333,-2.661588,-128.9053,-7.715342,26.08149,0,0,0,25.04957,67.66431,-3.62186,87.13096,-108.4415,-75.74678,0.001067912,-0.1257102,0.09433498,0,0.3,0,0,0,0,
6.38225E+17,5.065392,64.73425,54.21235,12.45789,2.026266,48.05504,43.25609,0.6078333,-2.661588,-128.9053,-7.715342,26.00825,0,0,0,14.57608,65.96265,-3.906462,87.13096,-108.4415,-75.74678,0.001067912,-0.1257102,0.09433498,0,0.3,0,0,0,0,
6.38225E+17,-1.013078,64.31344,52.88156,6.158805,1.440305,57.94314,43.25609,0.6078333,-2.661588,-128.9053,-7.715342,26.08149,0,0,0,-2.90196,63.05016,-4.243479,87.13096,-108.4415,-75.74678,0.001067912,-0.1257102,0.09433498,0,0.3,0,0,0,0,
6.38225E+17,-5.395231,63.72898,51.87762,-0.57975,1.733285,67.46501,43.25609,0.6078333,-2.661588,-128.9053,-7.715342,26.08149,0,0,0,-15.41347,60.60363,-5.147528,87.13096,-108.4415,-75.74678,0.001067912,-0.1257102,0.09433498,0,0.3,0,0,0,0,
6.38225E+17,-6.808829,63.63547,51.34064,-3.143331,1.879776,71.4935,43.25609,0.6078333,-2.661588,-128.9053,-7.642097,26.08149,0,0,0,-19.366,59.52757,-6.154398,87.13096,-108.4415,-75.74678,0.001067912,-0.1257102,0.09433498,0,0.3,0,0,0,0,
6.38225E+17,-9.400424,63.63547,49.77637,-6.146383,1.953021,78.3053,43.25609,0.6078333,-2.661588,-128.9053,-7.715342,26.08149,0,0,0,-26.30235,56.71606,-9.477702,87.13096,-108.4415,-75.74678,0.001067912,-0.1257102,0.09433498,0,0.3,0,0,0,0,
6.38225E+17,-12.58102,63.33155,47.39495,-7.611286,2.099511,84.23816,43.25609,0.6078333,-2.661588,-128.9053,-7.715342,26.08149,0,0,0,-34.41591,52.24399,-14.14212,87.13096,-108.4415,-75.74678,0.001067912,-0.1257102,0.09433498,0,0.3,0,0,0,0,
6.38225E+17,-17.41081,61.25089,43.28583,-9.66215,2.978453,90.68373,43.25609,0.6078333,-2.661588,-128.9053,-7.715342,26.00825,0,0,0,-46.54916,43.1914,-19.90961,87.13096,-108.4415,-75.74678,0.001067912,-0.1257102,0.09433498,0,0.3,0,0,0,0,
6.38225E+17,-20.07309,58.84294,40.20399,-11.12705,4.956073,93.68678,43.25609,0.6078333,-2.661588,-128.9053,-7.715342,26.00825,0,0,0,-53.22368,35.61835,-22.69749,87.13096,-108.4415,-75.74678,0.001067912,-0.1257102,0.09433498,0,0.3,0,0,0,0,
6.38225E+17,-21.41601,57.13633,38.19613,-12.006,6.567466,95.15169,43.25609,0.5844551,-2.661588,-128.9053,-7.715342,26.08149,0,0,0,-56.53011,30.55962,-24.22067,87.13135,-108.4959,-75.74637,0.001067912,-0.1257102,0.09433498,0,0.3,0,0,0,0,
6.38225E+17,-23.79556,52.83474,33.40994,-13.32441,11.40165,97.49553,43.25609,0.5844551,-2.661588,-128.9053,-7.715342,26.00825,0,0,0,-62.12892,18.3019,-27.45531,87.13135,-108.4959,-75.74637,0.001067912,-0.1257102,0.09433498,0,0.3,0,0,0,0,
6.38225E+17,-24.95,48.3695,28.92726,-13.61739,17.04152,98.7407,43.25609,0.5844551,-2.661588,-128.9053,-7.715342,26.08149,0,0,0,-64.57705,6.309218,-29.54795,87.13135,-108.4959,-75.74637,0.001067912,-0.1257102,0.09433498,0,0.3,0,0,0,0,
6.38225E+17,-25.1856,45.61087,26.40576,-13.25116,20.70378,99.39991,43.25609,0.5844551,-2.661588,-128.9053,-7.715342,26.08149,0,0,0,-64.9333,-0.7945669,-30.26962,87.13135,-108.4959,-75.74637,0.001067912,-0.1257102,0.09433498,0,0.3,0,0,0,0,
6.38225E+17,-25.1856,39.71957,22.20325,-11.71302,28.834,101.4508,43.25609,0.5844551,-2.661588,-128.9053,-7.715342,26.00825,0,0,0,-65.09344,-14.89726,-29.92911,87.13135,-108.4959,-75.74637,0.001067912,-0.1257102,0.09433498,0,0.3,0,0,0,0,
6.38225E+17,-25.13848,34.76339,19.75179,-10.02838,37.69667,102.9157,43.25609,0.5844551,-2.661588,-128.9053,-7.715342,26.00825,0,0,0,-65.68117,-26.11975,-28.3805,87.13135,-108.4959,-75.74637,0.001067912,-0.1257102,0.09433498,0,0.3,0,0,0,0,
6.38225E+17,-25.04424,33.80488,19.19145,-9.442415,41.57866,104.0144,43.25609,0.5844551,-2.661588,-128.9053,-7.642097,26.08149,0,0,0,-65.46232,-28.39767,-28.24813,87.13135,-108.4959,-75.74637,0.001067912,-0.1257102,0.09433498,0,0.3,0,0,0,0,
6.38225E+17,-24.07828,35.27771,19.96191,-9.735395,48.17072,102.8424,43.25609,0.5844551,-2.661588,-128.9053,-7.715342,26.00825,0,0,0,-62.98748,-24.97334,-27.39639,87.13135,-108.4959,-75.74637,0.001067912,-0.1257102,0.09433498,0,0.3,0,0,0,0,
6.38225E+17,-21.20397,38.17661,21.71296,-11.27355,49.63563,97.05606,43.25609,0.5844551,-2.661588,-128.9053,-7.715342,26.00825,0,0,0,-55.75851,-18.11671,-24.62549,87.13135,-108.4959,-75.74637,0.001067912,-0.1257102,0.09433498,0,0.3,0,0,0,0,
6.38225E+17,-14.4187,43.36657,25.91546,-10.83407,48.39046,89.80479,43.25609,0.5844551,-2.661588,-128.9053,-7.715342,26.08149,0,0,0,-38.65122,-5.023736,-18.01712,87.13135,-108.4959,-75.74637,0.001067912,-0.1257102,0.09433498,0,0.3,0,0,0,0,
6.38225E+17,-10.48418,45.91479,29.02065,-8.856454,46.41284,87.24121,43.25609,0.5844551,-2.661588,-128.9053,-7.715342,26.08149,0,0,0,-28.65327,2.528866,-13.51223,87.13135,-108.4959,-75.74637,0.001067912,-0.1257102,0.09433498,0,0.3,0,0,0,0,
6.38225E+17,-3.840273,49.56179,34.88082,-4.022273,41.28568,82.62676,43.25609,0.5844551,-2.661588,-128.9053,-7.715342,26.08149,0,0,0,-10.90046,15.45068,-5.961922,87.13135,-108.4959,-75.74637,0.001067912,-0.1257102,0.09433498,0,0.3,0,0,0,0,
6.38225E+17,1.295798,51.19827,39.667,0.006211365,35.93878,77.06013,43.25609,0.5844551,-2.661588,-128.9053,-7.715342,26.00825,0,0,0,3.814562,24.62372,0.2882177,87.13135,-108.4959,-75.74637,0.001067912,-0.1257102,0.09433498,0,0.3,0,0,0,0,
6.38225E+17,3.604674,51.50218,41.65152,1.471115,33.30195,73.91058,43.25609,0.5844551,-2.661588,-128.9053,-7.642097,26.08149,0,0,0,10.79087,28.07474,2.942991,87.13135,-108.4959,-75.74637,0.001067912,-0.1257102,0.09433498,0,0.3,0,0,0,0,
6.38225E+17,7.821907,51.59569,44.47654,2.936018,29.20022,68.12422,43.25609,0.5844551,-2.661588,-128.9053,-7.715342,26.08149,0,0,0,23.9887,32.69909,6.275217,87.13135,-108.4959,-75.74637,0.001067912,-0.1257102,0.09433498,0,0.3,0,0,0,0,
6.38225E+17,12.62814,51.66583,46.67118,3.375489,26.12393,62.99706,43.25609,0.5844551,-2.661588,-128.9053,-7.642097,26.00825,0,0,0,39.28918,36.44794,7.01509,87.13135,-108.4959,-75.74637,0.001067912,-0.1257102,0.09433498,0,0.3,0,0,0,0,
6.38225E+17,15.33753,51.68921,47.62842,3.741715,24.95201,60.65321,43.25609,0.5844551,-2.661588,-128.9053,-7.715342,26.00825,0,0,0,47.92428,38.11499,6.381841,87.13135,-108.4959,-75.74637,0.001067912,-0.1257102,0.09433498,0,0.3,0,0,0,0,
6.38225E+17,21.79296,51.45543,49.86976,5.572844,22.6814,55.01333,43.25609,0.5844551,-2.661588,-128.9053,-7.715342,26.08149,0,0,0,68.70067,41.69847,3.475123,87.13135,-108.4959,-75.74637,0.001067912,-0.1257102,0.09433498,0,0.3,0,0,0,0,
6.38225E+17,28.79027,49.86571,53.04499,9.235103,20.26431,48.49451,43.25609,0.5844551,-2.661588,-128.9053,-7.715342,26.00825,0,0,0,92.71662,45.13245,0.3687533,87.13135,-108.4959,-75.74637,0.001067912,-0.1257102,0.09433498,0,0.3,0,0,0,0,
6.38225E+17,34.35042,46.68627,56.24356,14.14253,18.57967,42.19543,43.25609,0.5844551,-2.661588,-128.9053,-7.715342,26.08149,0,0,0,114.1739,46.27884,-1.293326,87.13135,-108.4959,-75.74637,0.001067912,-0.1257102,0.09433498,0,0.3,0,0,0,0,
6.38225E+17,38.75614,42.22104,58.22808,18.46399,18.35994,36.11608,43.25609,0.5844551,-2.661588,-128.9053,-7.715342,26.08149,0,0,0,132.7892,42.7462,-2.93433,87.13135,-108.4959,-75.74637,0.001067912,-0.1257102,0.09433498,0,0.3,0,0,0,0,
6.38225E+17,40.42889,40.18713,58.46156,19.78241,18.79941,33.47925,43.25609,0.5844551,-2.661588,-128.9053,-7.715342,26.08149,0,0,0,139.7683,39.64744,-4.290438,87.13135,-108.4959,-75.74637,0.001067912,-0.1257102,0.09433498,0,0.3,0,0,0,0,
6.38225E+17,43.27965,36.25959,57.69109,21.24731,20.11782,28.93805,43.25609,0.5844551,-2.661588,-128.9053,-7.715342,26.00825,0,0,0,150.9814,30.94574,-8.018404,87.13135,-108.4959,-75.74637,0.001067912,-0.1257102,0.09433498,0,0.3,0,0,0,0,
6.38225E+17,45.40005,32.00476,55.02951,20.36837,22.38842,24.25036,43.25609,0.5610769,-2.661588,-128.9053,-7.715342,26.00825,0,0,0,158.3224,17.59397,-12.22313,87.13172,-108.5503,-75.74597,0.001067912,-0.1257102,0.09433498,0,0.3,0,0,0,0,
6.38225E+17,45.96548,30.04099,53.41854,18.97671,23.56034,21.90652,43.25609,0.5610769,-2.661588,-128.9053,-7.642097,26.00825,0,0,0,159.973,10.63567,-13.67947,87.13172,-108.5503,-75.74597,0.001067912,-0.1257102,0.09433498,0,0.3,0,0,0,0,
6.38225E+17,46.24821,25.99656,49.40281,14.21577,25.83095,16.26664,43.25609,0.5610769,-2.661588,-128.9053,-7.715342,26.00825,0,0,0,159.7177,-4.976169,-15.444,87.13172,-108.5503,-75.74597,0.001067912,-0.1257102,0.09433498,0,0.3,0,0,0,0,
6.38225E+17,45.72989,21.76511,44.19638,6.818012,27.36909,9.528083,43.25609,0.5610769,-2.661588,-128.9053,-7.715342,26.08149,0,0,0,155.2445,-22.80942,-17.01128,87.13172,-108.5503,-75.74597,0.001067912,-0.1257102,0.09433498,0,0.3,0,0,0,0,
6.38225E+17,44.17493,17.44014,39.20006,-1.678428,27.44234,2.716283,43.25609,0.5610769,-2.661588,-128.9053,-7.715342,26.08149,0,0,0,147.3849,-40.02253,-16.65804,87.13172,-108.5503,-75.74597,0.001067912,-0.1257102,0.09433498,0,0.3,0,0,0,0,
6.38225E+17,42.92625,15.26597,37.1455,-6.219628,26.85638,-0.7994855,43.25609,0.5610769,-2.661588,-128.9053,-7.642097,26.08149,0,0,0,142.4544,-47.83284,-15.19157,87.13172,-108.5503,-75.74597,0.001067912,-0.1257102,0.09433498,0,0.3,0,0,0,0,
6.38225E+17,39.74566,10.96438,33.90023,-16.03448,24.36604,-8.929699,43.25609,0.5610769,-2.661588,-128.9053,-7.715342,26.08149,0,0,0,131.2594,-61.96885,-10.50332,87.13172,-108.5503,-75.74597,0.001067912,-0.1257102,0.09433498,0,0.3,0,0,0,0,
6.38225E+17,36.98914,7.995345,32.35931,-24.23794,21.43624,-15.96124,43.25609,0.5610769,-2.661588,-128.9785,-7.715342,26.08149,0,0,0,122.3942,-70.74384,-5.863344,87.13172,-108.5503,-75.74597,0.001067912,-0.1257102,0.09433498,0,0.3,0,0,0,0,
6.38225E+17,35.74046,6.826435,32.0558,-28.7059,19.89809,-19.18402,43.25609,0.5610769,-2.661588,-128.9053,-7.642097,26.08149,0,0,0,118.6801,-73.81808,-3.43506,87.13172,-108.5503,-75.74597,0.001067912,-0.1257102,0.09433498,0,0.3,0,0,0,0,
6.38225E+17,34.23262,5.680903,31.98576,-37.6418,17.33451,-23.87171,43.25609,0.5610769,-2.661588,-128.9053,-7.642097,26.08149,0,0,0,114.3851,-76.55472,-0.2434184,87.13172,-108.5503,-75.74597,0.001067912,-0.1257102,0.09433498,0,0.3,0,0,0,0,
6.38225E+17,33.69075,5.680903,31.51881,-45.2593,15.43013,-26.06907,43.25609,0.5610769,-2.661588,-128.9053,-7.642097,26.00825,0,0,0,112.2775,-77.12663,0.06195348,87.13172,-108.5503,-75.74597,0.001067912,-0.1257102,0.09433498,0,0.3,0,0,0,0,
6.38225E+17,33.5965,5.680903,31.33203,-50.16673,14.47795,-27.16775,43.25609,0.5610769,-2.661588,-128.9053,-7.715342,26.00825,0,0,0,111.7951,-77.35328,-0.06258021,87.13172,-108.5503,-75.74597,0.001067912,-0.1257102,0.09433498,0,0.3,0,0,0,0,
6.38225E+17,33.5965,5.867929,31.44877,-52.29084,14.25821,-27.75371,43.25609,0.5610769,-2.661588,-128.9053,-7.715342,26.08149,0,0,0,111.8992,-76.77869,0.09412502,87.13172,-108.5503,-75.74597,0.001067912,-0.1257102,0.09433498,0,0.3,0,0,0,0,
6.38225E+17,33.5965,6.195224,31.75228,-52.29084,14.55119,-27.97344,43.25609,0.5610769,-2.661588,-128.9053,-7.715342,26.08149,0,0,0,112.1878,-75.65101,0.5286053,87.13172,-108.5503,-75.74597,0.001067912,-0.1257102,0.09433498,0,0.3,0,0,0,0,
6.38225E+17,33.52582,7.457647,32.59278,-50.82594,15.50338,-28.19318,43.25609,0.5610769,-2.661588,-128.9053,-7.642097,26.08149,0,0,0,112.701,-71.69215,1.75607,87.13172,-108.5503,-75.74597,0.001067912,-0.1257102,0.09433498,0,0.3,0,0,0,0,
6.38225E+17,33.50227,9.959114,33.45663,-47.82288,17.33451,-27.97344,43.25609,0.5610769,-2.661588,-128.9053,-7.642097,26.00825,0,0,0,113.075,-64.84209,2.473055,87.13172,-108.5503,-75.74597,0.001067912,-0.1257102,0.09433498,0,0.3,0,0,0,0,
6.38225E+17,33.45514,11.92288,33.80684,-45.77202,18.43318,-27.31424,43.25609,0.5610769,-2.661588,-128.9053,-7.642097,26.08149,0,0,0,112.8304,-59.90348,2.408487,87.13172,-108.5503,-75.74597,0.001067912,-0.1257102,0.09433498,0,0.3,0,0,0,0,
6.38225E+17,33.17242,17.04271,34.5773,-40.86459,20.48405,-24.97039,43.25609,0.5610769,-2.661588,-128.9053,-7.642097,26.08149,0,0,0,111.168,-47.36241,1.711113,87.13172,-108.5503,-75.74597,0.001067912,-0.1257102,0.09433498,0,0.3,0,0,0,0,
6.38225E+17,32.74835,23.02753,36.09487,-34.63876,22.24193,-21.16164,43.25609,0.5610769,-2.661588,-128.9053,-7.642097,26.00825,0,0,0,108.8846,-32.23951,0.9408107,87.13172,-108.5503,-75.74597,0.001067912,-0.1257102,0.09433498,0,0.3,0,0,0,0,
6.38225E+17,32.37139,28.54479,38.54634,-27.9002,23.34061,-15.81474,43.25609,0.5376987,-2.661588,-128.9053,-7.642097,26.08149,0,0,0,107.208,-17.22293,0.7694095,87.13208,-108.6047,-75.74559,0.001067912,-0.1257102,0.09433498,0,0.3,0,0,0,0,
6.38225E+17,32.20647,31.18653,40.13395,-24.0182,23.70683,-12.37222,43.25609,0.5376987,-2.661588,-128.9053,-7.642097,26.08149,0,0,0,106.6121,-9.549286,0.9048477,87.13208,-108.6047,-75.74559,0.001067912,-0.1257102,0.09433498,0,0.3,0,0,0,0,
6.38225E+17,31.59391,36.58689,43.77612,-16.10773,24.07306,-4.242009,43.25609,0.5376987,-2.661588,-128.9053,-7.642097,26.08149,0,0,0,104.4286,6.546904,1.436753,87.13208,-108.6047,-75.74559,0.001067912,-0.1257102,0.09433498,0,0.3,0,0,0,0,
6.38225E+17,30.51015,42.4782,47.67512,-7.09857,23.34061,6.451786,43.25609,0.5376987,-2.661588,-128.9053,-7.715342,26.00825,0,0,0,99.98518,23.61349,1.322427,87.13208,-108.6047,-75.74559,0.001067912,-0.1257102,0.09433498,0,0.3,0,0,0,0,
6.38225E+17,28.24839,49.42152,50.89704,2.569792,21.2165,19.56267,43.25609,0.5376987,-2.661588,-128.9053,-7.715342,26.08149,0,0,0,90.03213,40.52545,-0.7807859,87.13208,-108.6047,-75.74559,0.001067912,-0.1257102,0.09433498,0,0.3,0,0,0,0,
6.38225E+17,25.3034,54.51797,51.83093,8.868877,18.57967,30.03673,43.25609,0.5376987,-2.661588,-128.9053,-7.642097,26.08149,0,0,0,77.89198,49.52841,-3.593526,87.13208,-108.6047,-75.74559,0.001067912,-0.1257102,0.09433498,0,0.3,0,0,0,0,
6.38225E+17,22.3584,57.487,51.80758,12.09166,16.74854,37.36125,43.25609,0.5376987,-2.661588,-128.9053,-7.642097,26.00825,0,0,0,67.13258,53.3491,-5.13794,87.13208,-108.6047,-75.74559,0.001067912,-0.1257102,0.09433498,0,0.3,0,0,0,0,
6.38225E+17,15.40822,60.94698,50.71026,15.31445,13.15953,50.39889,43.25609,0.5376987,-2.661588,-128.9053,-7.715342,26.00825,0,0,0,44.62708,55.4778,-6.423088,87.13208,-108.6047,-75.74559,0.001067912,-0.1257102,0.09433498,0,0.3,0,0,0,0,
6.38225E+17,7.138669,62.02237,48.88918,14.94823,9.717009,64.90143,43.25609,0.5376987,-2.661588,-128.9785,-7.715342,26.00825,0,0,0,20.25982,53.43552,-6.584588,87.13208,-108.6047,-75.74559,0.001067912,-0.1257102,0.09433498,0,0.3,0,0,0,0,
6.38225E+17,2.944995,61.78859,47.90859,13.33683,8.398596,72.59217,43.25609,0.5376987,-2.661588,-128.9053,-7.642097,26.08149,0,0,0,8.3228,51.47271,-6.570018,87.13208,-108.6047,-75.74559,0.001067912,-0.1257102,0.09433498,0,0.3,0,0,0,0,
6.38225E+17,-4.028753,60.15212,46.18089,8.722386,6.933692,86.65524,43.25609,0.5376987,-2.661588,-128.9053,-7.715342,26.08149,0,0,0,-11.42268,46.68171,-6.167658,87.13208,-108.6047,-75.74559,0.001067912,-0.1257102,0.09433498,0,0.3,0,0,0,0,
6.38225E+17,-9.211945,57.08957,44.59328,3.155754,7.006938,98.30123,43.25609,0.5376987,-2.661588,-128.9053,-7.715342,26.00825,0,0,0,-26.58623,40.34047,-4.418209,87.13208,-108.6047,-75.74559,0.001067912,-0.1257102,0.09433498,0,0.3,0,0,0,0,
6.38225E+17,-11.19098,55.07904,43.68274,0.4456824,7.812634,102.9889,43.25609,0.5376987,-2.661588,-128.9053,-7.715342,26.08149,0,0,0,-32.69,36.25392,-3.116929,87.13208,-108.6047,-75.74559,0.001067912,-0.1257102,0.09433498,0,0.3,0,0,0,0,
6.38225E+17,-14.11242,49.95922,41.20792,-4.534989,11.3284,110.3867,43.25609,0.5376987,-2.661588,-128.9053,-7.715342,26.08149,0,0,0,-42.33745,25.11861,0.04797684,87.13208,-108.6047,-75.74559,0.001067912,-0.1257102,0.09433498,0,0.3,0,0,0,0,
6.38225E+17,-15.36109,46.96681,38.94324,-6.219628,14.91741,113.463,43.25609,0.5376987,-2.661588,-128.9053,-7.715342,26.08149,0,0,0,-46.30957,17.10782,0.2228384,87.13208,-108.6047,-75.74559,0.001067912,-0.1257102,0.09433498,0,0.3,0,0,0,0,
6.38225E+17,-15.99721,45.44723,37.21554,-6.585854,17.26126,114.9279,43.25609,0.5376987,-2.661588,-128.9053,-7.642097,26.08149,0,0,0,-48.00951,12.18043,-0.8901913,87.13208,-108.6047,-75.74559,0.001067912,-0.1257102,0.09433498,0,0.3,0,0,0,0,
6.38225E+17,-16.98673,42.66522,32.87295,-6.146383,22.82789,116.6858,43.25609,0.5376987,-2.661588,-128.9053,-7.642097,26.08149,0,0,0,-49.79268,1.725595,-5.350489,87.13208,-108.6047,-75.74559,0.001067912,-0.1257102,0.09433498,0,0.3,0,0,0,0,
6.38225E+17,-17.52861,40.117,28.04007,-4.608234,28.0283,118.0042,43.25609,0.5376987,-2.661588,-128.9053,-7.642097,26.00825,0,0,0,-49.59357,-8.423114,-11.33272,87.13208,-108.6047,-75.74559,0.001067912,-0.1257102,0.09433498,0,0.3,0,0,0,0,
6.38225E+17,-17.57573,37.03107,22.64685,-1.238957,33.22871,120.934,43.25609,0.5376987,-2.661588,-128.9053,-7.642097,26.00825,0,0,0,-47.65054,-19.40836,-17.91543,87.13208,-108.6047,-75.74559,0.001067912,-0.1257102,0.09433498,0,0.3,0,0,0,0,
6.38225E+17,-17.41081,33.15029,17.37037,4.034696,37.33044,127.819,43.25609,0.5376987,-2.661588,-128.9053,-7.715342,26.00825,0,0,0,-45.31912,-30.99783,-23.83208,87.13208,-108.6047,-75.74559,0.001067912,-0.1257102,0.09433498,0,0.3,0,0,0,0,
6.38225E+17,-17.05741,28.40452,11.83706,11.28597,40.55322,141.3694,43.25609,0.5376987,-2.661588,-128.9053,-7.642097,26.08149,0,0,0,-42.43019,-43.73056,-30.06285,87.13208,-108.6047,-75.74559,0.001067912,-0.1257102,0.09433498,0,0.3,0,0,0,0,
6.38225E+17,-16.79825,25.71602,8.871961,15.68068,41.72515,144.4457,43.25609,0.5376987,-2.661588,-128.9053,-7.642097,26.08149,0,0,0,-40.66515,-50.54249,-33.64568,87.13208,-108.6047,-75.74559,0.001067912,-0.1257102,0.09433498,0,0.3,0,0,0,0,
6.38225E+17,-16.25637,20.40917,3.735562,24.17712,43.04356,144.8852,43.25609,0.5376987,-2.661588,-128.9053,-7.642097,26.08149,0,0,0,-37.4182,-63.21459,-40.02709,87.13208,-108.6047,-75.74559,0.001067912,-0.1257102,0.09433498,0,0.3,0,0,0,0,
6.38225E+17,-15.31397,15.21921,-0.1634309,32.67356,42.31111,144.8852,43.25609,0.5143204,-2.661588,-128.9053,-7.642097,26.08149,0,0,0,-33.88321,-74.99339,-44.61244,87.13242,-108.6591,-75.74522,0.001067912,-0.1257102,0.09433498,0,0.3,0,0,0,0,
6.38225E+17,-14.63074,12.88139,-1.44753,36.6288,41.13919,144.8119,43.25609,0.5143204,-2.661588,-128.9053,-7.642097,26.08149,0,0,0,-31.98413,-80.22926,-45.83053,87.13242,-108.6591,-75.74522,0.001067912,-0.1257102,0.09433498,0,0.3,0,0,0,0,
6.38225E+17,-13.09934,8.743448,-2.638241,43.80682,37.62342,144.8852,43.25609,0.5143204,-2.661588,-128.9053,-7.642097,26.08149,0,0,0,-28.4801,-89.58807,-45.95765,87.13242,-108.6591,-75.74522,0.001067912,-0.1257102,0.09433498,0,0.3,0,0,0,0,
6.38225E+17,-11.49726,5.283474,-3.105186,49.4467,33.44844,144.8119,43.25609,0.5143204,-2.661588,-128.9053,-7.642097,26.08149,0,0,0,-25.02675,-97.52489,-45.30948,87.13242,-108.6591,-75.74522,0.001067912,-0.1257102,0.09433498,0,0.3,0,0,0,0,
6.38225E+17,-10.50774,3.810647,-3.291965,51.93703,31.25109,144.8119,43.25609,0.5143204,-2.661588,-128.9053,-7.642097,26.00825,0,0,0,-22.86858,-100.9176,-45.05519,87.13242,-108.6591,-75.74522,0.001067912,-0.1257102,0.09433498,0,0.3,0,0,0,0,
6.38225E+17,-8.293106,1.42607,-3.478743,56.2585,27.14936,144.8852,43.25609,0.5143204,-2.661588,-128.9053,-7.642097,26.08149,0,0,0,-18.06098,-106.4356,-44.44212,87.13242,-108.6591,-75.74522,0.001067912,-0.1257102,0.09433498,0,0.3,0,0,0,0,
6.38225E+17,-5.395231,0.0233782,-3.945688,60.65321,23.70683,144.8852,43.25609,0.5143204,-2.661588,-128.9053,-7.642097,26.08149,0,0,0,-11.67552,-109.6295,-44.72605,87.13242,-108.6591,-75.74522,0.001067912,-0.1257102,0.09433498,0,0.3,0,0,0,0,
6.38225E+17,-3.722474,-0.2571602,-4.109118,62.85057,22.31518,144.8852,43.25609,0.5143204,-2.661588,-128.9053,-7.642097,26.08149,0,0,0,-8.037123,-110.2557,-44.81787,87.13242,-108.6591,-75.74522,0.001067912,-0.1257102,0.09433498,0,0.3,0,0,0,0,
6.38225E+17,0.2591596,-0.2571602,-4.132466,68.05097,19.7516,144.8119,43.25609,0.5143204,-2.661588,-128.9053,-7.642097,26.08149,0,0,0,0.5596933,-110.2518,-44.61216,87.13242,-108.6591,-75.74522,0.001067912,-0.1257102,0.09433498,0,0.3,0,0,0,0,
6.38225E+17,4.664873,-0.2571602,-3.945688,73.69085,18.06696,144.7387,43.25609,0.5143204,-2.661588,-128.9053,-7.642097,26.08149,0,0,0,10.09865,-110.2824,-44.5886,87.13242,-108.6591,-75.74522,0.001067912,-0.1257102,0.09433498,0,0.3,0,0,0,0,
6.38225E+17,7.350708,-0.2571602,-3.455395,76.40092,17.62749,144.7387,43.25609,0.5143204,-2.661588,-128.9053,-7.642097,26.08149,0,0,0,16.03265,-110.3561,-44.06841,87.13242,-108.6591,-75.74522,0.001067912,-0.1257102,0.09433498,0,0.3,0,0,0,0,
6.38225E+17,13.45274,-0.233782,-1.634309,82.26054,16.89503,144.8852,43.25609,0.5143204,-2.661588,-128.9053,-7.715342,26.00825,0,0,0,30.13793,-110.4899,-42.35873,87.13242,-108.6591,-75.74522,0.001067912,-0.1257102,0.09433498,0,0.3,0,0,0,0,
6.38225E+17,19.27205,0.04675641,0.2101254,87.90041,16.30907,144.8119,43.25609,0.5143204,-2.661588,-128.9053,-7.642097,26.08149,0,0,0,44.17409,-109.8903,-42.01106,87.13242,-108.6591,-75.74522,0.001067912,-0.1257102,0.09433498,0,0.3,0,0,0,0,
6.38225E+17,24.8322,0.3974294,2.101254,93.76003,15.8696,144.9584,43.25609,0.5143204,-2.661588,-128.9053,-7.715342,26.00825,0,0,0,58.05395,-108.9854,-42.89494,87.13242,-108.6591,-75.74522,0.001067912,-0.1257102,0.09433498,0,0.3,0,0,0,0,
6.38225E+17,27.40023,0.4909423,3.058492,96.61659,15.72311,144.8852,43.25609,0.5143204,-2.661588,-128.9053,-7.715342,26.00825,0,0,0,64.6402,-108.6674,-43.64767,87.13242,-108.6591,-75.74522,0.001067912,-0.1257102,0.09433498,0,0.3,0,0,0,0,
6.38225E+17,31.16983,0.8182371,3.058492,100.4253,15.43013,144.8852,43.25609,0.5143204,-2.661588,-128.9053,-7.642097,26.00825,0,0,0,72.69431,-107.9058,-48.17464,87.13242,-108.6591,-75.74522,0.001067912,-0.1257102,0.09433498,0,0.3,0,0,0,0,
6.38225E+17,34.63314,0.9351282,3.688868,101.3775,15.2104,144.8119,43.25609,0.5143204,-2.661588,-128.9053,-7.642097,26.08149,0,0,0,80.65127,-107.5474,-51.5839,87.13242,-108.6591,-75.74522,0.001067912,-0.1257102,0.09433498,0,0.3,0,0,0,0,
6.38225E+17,36.32946,1.052019,5.20644,102.403,15.57662,144.8119,43.25609,0.5143204,-2.661588,-128.9053,-7.642097,26.00825,0,0,0,86.15572,-107.0015,-51.1895,87.13242,-108.6591,-75.74522,0.001067912,-0.1257102,0.09433498,0,0.3,0,0,0,0,
6.38225E+17,38.80325,1.729987,7.657903,104.6003,16.45556,144.2992,43.25609,0.5143204,-2.661588,-128.9053,-7.715342,26.00825,0,0,0,94.66095,-104.785,-50.62923,87.13242,-108.6591,-75.74522,0.001067912,-0.1257102,0.09433498,0,0.3,0,0,0,0,
6.38225E+17,39.88701,2.174173,8.661836,105.3328,16.96828,143.347,43.25609,0.5143204,-2.661588,-128.9053,-7.642097,26.08149,0,0,0,98.33118,-103.4201,-50.69304,87.13242,-108.6591,-75.74522,0.001067912,-0.1257102,0.09433498,0,0.3,0,0,0,0,
6.38225E+17,43.23253,2.407955,11.97715,106.285,18.65292,141.0032,43.25609,0.4909423,-2.661588,-128.9785,-7.642097,26.00825,0,0,0,110.2138,-101.4944,-51.11767,87.13275,-108.7135,-75.74488,0.001067912,-0.1257102,0.09433498,0,0.3,0,0,0,0,
6.38225E+17,44.22205,2.33782,13.49472,106.8709,19.31213,141.0032,43.25609,0.4909423,-2.661588,-128.9053,-7.642097,26.08149,0,0,0,114.6293,-100.8789,-50.56482,87.13275,-108.7135,-75.74488,0.001067912,-0.1257102,0.09433498,0,0.3,0,0,0,0,
6.38225E+17,46.05972,2.291064,17.11355,109.1415,21.28975,140.1242,43.25609,0.4909423,-2.661588,-128.9053,-7.642097,26.00825,0,0,0,124.1993,-98.76493,-48.66207,87.13275,-108.7135,-75.74488,0.001067912,-0.1257102,0.09433498,0,0.3,0,0,0,0,
6.38225E+17,47.56756,2.267686,20.38216,111.7783,23.63359,136.7549,43.25609,0.4909423,-2.661588,-128.9053,-7.642097,26.00825,0,0,0,132.6235,-96.37459,-47.11035,87.13275,-108.7135,-75.74488,0.001067912,-0.1257102,0.09433498,0,0.3,0,0,0,0,
6.38225E+17,48.41572,2.244308,21.68961,112.5108,24.80551,134.4843,43.25609,0.4909423,-2.661588,-128.9053,-7.642097,26.00825,0,0,0,136.5296,-95.33671,-47.20036,87.13275,-108.7135,-75.74488,0.001067912,-0.1257102,0.09433498,0,0.3,0,0,0,0,
6.38225E+17,49.49948,2.08066,22.95036,113.463,26.49015,132.287,43.25609,0.4909423,-2.661588,-128.9053,-7.642097,26.08149,0,0,0,140.8715,-94.60296,-48.03215,87.13275,-108.7135,-75.74488,0.001067912,-0.1257102,0.09433498,0,0.3,0,0,0,0,
6.38225E+17,50.20628,2.010525,23.27722,114.5617,28.32128,131.9208,43.25609,0.4909423,-2.661588,-128.9053,-7.642097,26.00825,0,0,0,142.8871,-94.46745,-49.32751,87.13275,-108.7135,-75.74488,0.001067912,-0.1257102,0.09433498,0,0.3,0,0,0,0,
6.38225E+17,50.74816,2.010525,24.56132,117.4182,29.93268,131.6278,43.25609,0.4909423,-2.661588,-128.9053,-7.642097,26.08149,0,0,0,146.1218,-93.25575,-48.95564,87.13275,-108.7135,-75.74488,0.001067912,-0.1257102,0.09433498,0,0.3,0,0,0,0,
6.38225E+17,50.98376,2.010525,25.68199,119.1029,30.59188,130.9686,43.25609,0.4909423,-2.661588,-128.9053,-7.642097,26.08149,0,0,0,148.4463,-92.14846,-48.07085,87.13275,-108.7135,-75.74488,0.001067912,-0.1257102,0.09433498,0,0.3,0,0,0,0,
6.38225E+17,52.16175,1.800122,29.74442,120.7875,31.98354,127.5261,43.25609,0.4909423,-2.661588,-128.9053,-7.642097,26.08149,0,0,0,157.5096,-88.24185,-46.00458,87.13275,-108.7135,-75.74488,0.001067912,-0.1257102,0.09433498,0,0.3,0,0,0,0,
6.38225E+17,54.07011,1.262423,32.42935,120.934,33.30195,123.4976,43.25609,0.4909423,-2.661588,-128.9053,-7.642097,26.08149,0,0,0,165.8564,-86.26659,-48.1581,87.13275,-108.7135,-75.74488,0.001067912,-0.1257102,0.09433498,0,0.3,0,0,0,0,
6.38225E+17,54.44707,0.9351282,33.71345,120.7875,34.1809,122.1059,43.25609,0.4909423,-2.661588,-128.9053,-7.642097,26.00825,0,0,0,168.6929,-85.39739,-47.78722,87.13275,-108.7135,-75.74488,0.001067912,-0.1257102,0.09433498,0,0.3,0,0,0,0,
6.38225E+17,54.35283,0.0233782,36.2583,120.934,36.45149,119.2493,43.25609,0.4909423,-2.661588,-128.9053,-7.642097,26.00825,0,0,0,172.4518,-84.12355,-44.67176,87.13275,-108.7135,-75.74488,0.001067912,-0.1257102,0.09433498,0,0.3,0,0,0,0,
6.38225E+17,54.32927,-0.2571602,37.79922,120.8607,38.94183,116.0266,43.25609,0.4909423,-2.661588,-128.9053,-7.642097,26.00825,0,0,0,174.7257,-82.61679,-42.93214,87.13275,-108.7135,-75.74488,0.001067912,-0.1257102,0.09433498,0,0.3,0,0,0,0,
6.38225E+17,54.32927,-0.116891,37.82257,120.7142,41.13919,114.1222,43.25609,0.4909423,-2.661588,-128.9053,-7.715342,26.00825,0,0,0,174.7614,-82.25702,-42.90649,87.13275,-108.7135,-75.74488,0.001067912,-0.1257102,0.09433498,0,0.3,0,0,0,0,
6.38225E+17,54.32927,-0.1402692,37.79922,120.641,43.11681,113.2432,43.25609,0.4909423,-2.661588,-128.9053,-7.642097,26.00825,0,0,0,174.7265,-82.34474,-42.93159,87.13275,-108.7135,-75.74488,0.001067912,-0.1257102,0.09433498,0,0.3,0,0,0,0,
6.38225E+17,54.32927,-0.1636474,37.72918,120.641,44.06899,112.584,43.25609,0.4675641,-2.661588,-128.9053,-7.642097,26.08149,0,0,0,174.6217,-82.49899,-43.00682,87.13306,-108.768,-75.74454,0.001067912,-0.1257102,0.09433498,0,0.3,0,0,0,0,
6.38225E+17,54.30571,-0.1636474,37.70583,120.2015,45.97337,109.6542,43.25609,0.4675641,-2.661588,-128.9053,-7.642097,26.08149,0,0,0,174.5352,-82.53223,-42.96011,87.13306,-108.768,-75.74454,0.001067912,-0.1257102,0.09433498,0,0.3,0,0,0,0,
6.38225E+17,54.30571,-0.1636474,37.70583,117.1252,48.68344,104.6003,43.25609,0.4675641,-2.661588,-128.9785,-7.642097,26.00825,0,0,0,174.5352,-82.53223,-42.96011,87.13306,-108.768,-75.74454,0.001067912,-0.1257102,0.09433498,0,0.3,0,0,0,0,
6.38225E+17,54.30571,-0.116891,37.70583,115.0011,50.29483,101.5973,43.25609,0.4675641,-2.661588,-128.9053,-7.642097,26.00825,0,0,0,174.5354,-82.42341,-42.95995,87.13306,-108.768,-75.74454,0.001067912,-0.1257102,0.09433498,0,0.3,0,0,0,0,
6.38225E+17,54.23503,2.197551,38.28952,112.2178,53.22464,95.29817,43.25609,0.4675641,-2.661588,-128.9053,-7.642097,26.00825,0,0,0,175.1699,-76.20173,-42.17623,87.13306,-108.768,-75.74454,0.001067912,-0.1257102,0.09433498,0,0.3,0,0,0,0,
6.38225E+17,53.74027,6.218602,38.35956,110.8261,54.68954,90.46399,43.25609,0.4675641,-2.661588,-128.9785,-7.642097,26.00825,0,0,0,173.6233,-66.76921,-40.99876,87.13306,-108.768,-75.74454,0.001067912,-0.1257102,0.09433498,0,0.3,0,0,0,0,
6.38225E+17,53.26907,8.392776,38.24282,109.288,55.05577,88.19339,43.25609,0.4675641,-2.661588,-128.9053,-7.642097,26.00825,0,0,0,171.8836,-61.91882,-40.08754,87.13306,-108.768,-75.74454,0.001067912,-0.1257102,0.09433498,0,0.3,0,0,0,0,
6.38225E+17,51.66699,13.09179,38.10274,105.6257,55.42199,83.43246,43.25609,0.4675641,-2.661588,-128.9053,-7.642097,26.08149,0,0,0,166.4308,-51.37851,-36.75511,87.13306,-108.768,-75.74454,0.001067912,-0.1257102,0.09433498,0,0.3,0,0,0,0,
6.38225E+17,49.71152,17.90771,38.56968,102.7692,55.05577,78.45178,43.25609,0.4675641,-2.661588,-128.9053,-7.642097,26.08149,0,0,0,160.2096,-39.9067,-32.53773,87.13306,-108.768,-75.74454,0.001067912,-0.1257102,0.09433498,0,0.3,0,0,0,0,
6.38225E+17,47.19061,21.92875,39.29345,101.1578,54.03033,73.61761,43.25609,0.4675641,-2.661588,-128.9053,-7.642097,26.08149,0,0,0,152.7038,-30.05124,-26.89821,87.13306,-108.768,-75.74454,0.001067912,-0.1257102,0.09433498,0,0.3,0,0,0,0,
6.38225E+17,43.89221,24.66401,39.38684,99.32666,53.22464,69.14965,43.25609,0.4675641,-2.661588,-128.9785,-7.642097,26.08149,0,0,0,142.6834,-24.06701,-20.0396,87.13306,-108.768,-75.74454,0.001067912,-0.1257102,0.09433498,0,0.3,0,0,0,0,
6.38225E+17,42.64353,25.29522,39.34014,98.37447,53.07815,67.83124,43.25609,0.4675641,-2.661588,-128.9053,-7.642097,26.00825,0,0,0,138.9404,-22.80429,-17.48363,87.13306,-108.768,-75.74454,0.001067912,-0.1257102,0.09433498,0,0.3,0,0,0,0,
6.38225E+17,39.13309,26.30048,38.70977,96.39685,53.22464,65.41415,43.25609,0.4675641,-2.661588,-128.9053,-7.642097,26.08149,0,0,0,128.0802,-21.62164,-10.93324,87.13306,-108.768,-75.74454,0.001067912,-0.1257102,0.09433498,0,0.3,0,0,0,0,
6.38225E+17,35.66978,27.30574,36.95872,95.15169,54.46981,64.24223,43.25609,0.4441859,-2.661588,-128.9053,-7.642097,26.00825,0,0,0,115.8448,-22.03304,-6.955277,87.13336,-108.8224,-75.74423,0.001067912,-0.1257102,0.09433498,0,0.3,0,0,0,0,
6.38225E+17,32.60699,28.61492,34.83412,94.49248,55.34875,64.46196,43.25609,0.4441859,-2.661588,-128.9053,-7.642097,26.08149,0,0,0,104.1277,-22.24086,-5.573721,87.13336,-108.8224,-75.74423,0.001067912,-0.1257102,0.09433498,0,0.3,0,0,0,0,
6.38225E+17,31.16983,29.12924,33.78349,94.56573,55.42199,65.70713,43.25609,0.4441859,-2.661588,-128.9053,-7.642097,26.00825,0,0,0,98.66794,-22.57087,-5.236076,87.13336,-108.8224,-75.74423,0.001067912,-0.1257102,0.09433498,0,0.3,0,0,0,0,
6.38225E+17,28.50755,29.80721,31.35538,94.8587,54.90928,70.6878,43.25609,0.4441859,-2.661588,-128.9785,-7.642097,26.08149,0,0,0,88.34169,-24.23904,-5.695977,87.13336,-108.8224,-75.74423,0.001067912,-0.1257102,0.09433498,0,0.3,0,0,0,0,
6.38225E+17,25.93952,30.27477,28.25019,94.05301,53.66411,77.57285,43.25609,0.4441859,-2.661588,-128.9053,-7.642097,26.08149,0,0,0,77.98404,-26.88851,-8.029707,87.13336,-108.8224,-75.74423,0.001067912,-0.1257102,0.09433498,0,0.3,0,0,0,0,
6.38225E+17,24.7144,30.41504,26.26567,93.3938,52.78517,81.45483,43.25609,0.4441859,-2.661588,-128.9053,-7.642097,26.08149,0,0,0,72.75294,-28.72205,-10.27842,87.13336,-108.8224,-75.74423,0.001067912,-0.1257102,0.09433498,0,0.3,0,0,0,0,
6.38225E+17,21.8872,30.60207,21.24601,90.90347,50.22158,91.04996,43.25609,0.4441859,-2.661588,-128.9053,-7.642097,26.08149,0,0,0,60.8005,-33.0518,-17.00636,87.13336,-108.8224,-75.74423,0.001067912,-0.1257102,0.09433498,0,0.3,0,0,0,0,
6.38225E+17,19.55477,30.64882,17.97739,88.19339,48.02423,98.44772,43.25609,0.4441859,-2.661588,-128.9053,-7.642097,26.08149,0,0,0,52.17406,-35.51118,-21.46138,87.13336,-108.8224,-75.74423,0.001067912,-0.1257102,0.09433498,0,0.3,0,0,0,0,
6.38225E+17,16.18569,30.83585,15.52593,84.38464,45.31416,106.5779,43.25609,0.4441859,-2.661588,-128.9053,-7.642097,26.08149,0,0,0,41.86676,-36.78141,-24.10924,87.13336,-108.8224,-75.74423,0.001067912,-0.1257102,0.09433498,0,0.3,0,0,0,0,
6.38225E+17,14.23022,30.9995,14.84886,82.11404,44.14224,109.9472,43.25609,0.4441859,-2.661588,-128.9053,-7.642097,26.08149,0,0,0,36.49853,-36.86748,-24.42842,87.13336,-108.8224,-75.74423,0.001067912,-0.1257102,0.09433498,0,0.3,0,0,0,0,
6.38225E+17,9.942304,31.42031,14.03171,77.27986,41.87164,115.0744,43.25609,0.4441859,-2.661588,-128.9053,-7.568851,26.08149,0,0,0,25.22998,-36.5041,-24.41628,87.13336,-108.8224,-75.74423,0.001067912,-0.1257102,0.09433498,0,0.3,0,0,0,0,
6.38225E+17,5.65439,32.2853,13.6815,71.71323,39.52779,118.8099,43.25609,0.4441859,-2.661588,-128.9053,-7.642097,26.00825,0,0,0,14.21502,-34.9893,-24.77752,87.13336,-108.8224,-75.74423,0.001067912,-0.1257102,0.09433498,0,0.3,0,0,0,0,
6.38225E+17,1.366478,33.64123,13.6348,65.3409,36.15851,121.4467,43.25609,0.4441859,-2.661588,-128.9053,-7.642097,26.00825,0,0,0,3.397088,-32.36725,-25.93868,87.13336,-108.8224,-75.74423,0.001067912,-0.1257102,0.09433498,0,0.3,0,0,0,0,
6.38225E+17,-0.8717186,34.29583,13.6348,62.11811,33.96116,122.3989,43.25609,0.4441859,-2.661588,-128.9053,-7.642097,26.00825,0,0,0,-2.154279,-31.10376,-26.76578,87.13336,-108.8224,-75.74423,0.001067912,-0.1257102,0.09433498,0,0.3,0,0,0,0,
6.38225E+17,-5.513031,35.20757,13.75154,55.52605,28.46777,124.1568,43.25609,0.4441859,-2.661588,-128.9053,-7.642097,26.00825,0,0,0,-13.51303,-29.29596,-28.34561,87.13336,-108.8224,-75.74423,0.001067912,-0.1257102,0.09433498,0,0.3,0,0,0,0,
6.38225E+17,-10.10722,35.86216,13.96167,48.49451,21.87571,125.9879,43.25609,0.4441859,-2.661588,-128.9053,-7.642097,26.00825,0,0,0,-24.6116,-27.93909,-30.28207,87.13336,-108.8224,-75.74423,0.001067912,-0.1257102,0.09433498,0,0.3,0,0,0,0,
6.38225E+17,-11.99202,36.11932,14.00836,45.34497,18.79941,126.7204,43.25609,0.4441859,-2.661588,-128.9053,-7.642097,26.00825,0,0,0,-29.08817,-27.42856,-31.40713,87.13336,-108.8224,-75.74423,0.001067912,-0.1257102,0.09433498,0,0.3,0,0,0,0,
6.38225E+17,-15.97365,36.6804,14.0784,37.94721,11.3284,128.112,43.25609,0.4441859,-2.661588,-128.9053,-7.642097,26.08149,0,0,0,-38.35709,-26.33793,-34.3504,87.13336,-108.8224,-75.74423,0.001067912,-0.1257102,0.09433498,0,0.3,0,0,0,0,
6.38225E+17,-18.96577,37.91945,14.03171,31.13541,4.296866,128.9177,43.25609,0.4208077,-2.661588,-128.9053,-7.642097,26.00825,0,0,0,-44.69718,-24.07043,-38.28758,87.13364,-108.8768,-75.74393,0.001067912,-0.1257102,0.09433498,0,0.3,0,0,0,0,
6.38225E+17,-20.94481,40.16375,13.96167,25.71527,-2.441689,129.0642,43.25609,0.4208077,-2.661588,-128.9053,-7.642097,26.00825,0,0,0,-47.92949,-20.05316,-43.12899,87.13364,-108.8768,-75.74393,0.001067912,-0.1257102,0.09433498,0,0.3,0,0,0,0,
6.38225E+17,-21.60448,41.75347,13.98501,23.44467,-5.884212,129.0642,43.25609,0.4208077,-2.661588,-128.9053,-7.642097,26.08149,0,0,0,-48.49446,-17.24602,-45.89497,87.13364,-108.8768,-75.74393,0.001067912,-0.1257102,0.09433498,0,0.3,0,0,0,0,
6.38225E+17,-22.2406,45.11993,14.38192,20.07539,-11.81707,127.0866,43.25609,0.4208077,-2.661588,-128.9053,-7.642097,26.00825,0,0,0,-48.15128,-11.33117,-50.59749,87.13364,-108.8768,-75.74393,0.001067912,-0.1257102,0.09433498,0,0.3,0,0,0,0,
6.38225E+17,-22.26416,48.95396,15.31581,18.09777,-16.94423,124.0835,43.25609,0.4208077,-2.661588,-128.9053,-7.642097,26.00825,0,0,0,-46.52208,-4.693832,-54.71505,87.13364,-108.8768,-75.74393,0.001067912,-0.1257102,0.09433498,0,0.3,0,0,0,0,
6.38225E+17,-22.2406,54.30756,17.30033,16.92585,-21.99815,120.7875,43.25609,0.4208077,-2.661588,-128.9053,-7.642097,26.00825,0,0,0,-44.45694,4.334484,-59.63189,87.13364,-108.8768,-75.74393,0.001067912,-0.1257102,0.09433498,0,0.3,0,0,0,0,
6.38225E+17,-22.2406,58.70267,19.72844,16.48637,-25.51392,118.5169,43.25609,0.4208077,-2.661588,-128.9053,-7.642097,26.00825,0,0,0,-43.25709,11.77254,-62.56609,87.13364,-108.8768,-75.74393,0.001067912,-0.1257102,0.09433498,0,0.3,0,0,0,0,
6.38225E+17,-22.2406,61.50805,21.87639,16.55962,-27.56478,116.9055,43.25609,0.4208077,-2.661588,-128.9053,-7.642097,26.08149,0,0,0,-42.88353,16.80175,-63.47962,87.13364,-108.8768,-75.74393,0.001067912,-0.1257102,0.09433498,0,0.3,0,0,0,0,
6.38225E+17,-22.2406,68.24097,28.78718,18.02452,-33.4244,110.8261,43.25609,0.4208077,-2.661588,-128.9053,-7.568851,26.00825,0,0,0,-43.0158,30.3291,-63.15615,87.13364,-108.8768,-75.74393,0.001067912,-0.1257102,0.09433498,0,0.3,0,0,0,0,
6.38225E+17,-22.2406,74.17904,36.98207,24.39685,-42.21382,99.32666,43.25609,0.4208077,-2.661588,-128.9053,-7.642097,26.00825,0,0,0,-44.12297,45.12532,-60.44861,87.13364,-108.8768,-75.74393,0.001067912,-0.1257102,0.09433498,0,0.3,0,0,0,0,
6.38225E+17,-22.2406,76.14281,40.01722,31.64813,-46.53528,91.04996,43.25609,0.4208077,-2.661588,-128.9053,-7.642097,26.08149,0,0,0,-44.54306,50.69267,-59.42129,87.13364,-108.8768,-75.74393,0.001067912,-0.1257102,0.09433498,0,0.3,0,0,0,0,
6.38225E+17,-22.14636,79.48589,45.13026,59.04182,-53.20059,66.87905,43.25609,0.4208077,-2.661588,-128.9053,-7.568851,26.08149,0,0,0,-44.79966,60.38299,-58.27735,87.13364,-108.8768,-75.74393,0.001067912,-0.1257102,0.09433498,0,0.3,0,0,0,0,
6.38225E+17,-21.74584,83.2264,49.40281,91.70916,-56.27689,40.95026,43.25609,0.4208077,-2.661588,-128.9053,-7.642097,26.08149,0,0,0,-43.34039,68.99345,-59.69356,87.13364,-108.8768,-75.74393,0.001067912,-0.1257102,0.09433498,0,0.3,0,0,0,0,
6.38225E+17,-21.51024,85.21355,51.2239,103.2087,-57.15583,29.59726,43.25609,0.4208077,-2.661588,-128.9053,-7.642097,26.00825,0,0,0,-42.19852,72.7207,-61.27897,87.13364,-108.8768,-75.74393,0.001067912,-0.1257102,0.09433498,0,0.3,0,0,0,0,
6.38225E+17,-20.52073,89.60866,54.93612,112.0713,-59.2067,11.94517,43.25609,0.4208077,-2.661588,-128.9053,-7.642097,26.00825,0,0,0,-38.5809,80.08872,-65.27438,87.13364,-108.8768,-75.74393,0.001067912,-0.1257102,0.09433498,0,0.3,0,0,0,0,
6.38225E+17,-19.53121,91.9231,57.06072,112.2178,-61.03782,6.158805,43.25609,0.4208077,-2.661588,-128.9053,-7.642097,26.08149,0,0,0,-35.91892,84.11584,-67.09341,87.13364,-108.8768,-75.74393,0.001067912,-0.1257102,0.09433498,0,0.3,0,0,0,0,
6.38225E+17,-16.02077,94.12065,60.28264,111.4121,-62.9422,0.5921727,43.25609,0.4208077,-2.661588,-128.9053,-7.642097,26.08149,0,0,0,-29.31794,90.25078,-66.24591,87.13364,-108.8768,-75.74393,0.001067912,-0.1257102,0.09433498,0,0.3,0,0,0,0,
6.38225E+17,-14.34802,94.86874,61.23988,108.1893,-63.38167,-1.019221,43.25609,0.4208077,-2.661588,-128.9053,-7.642097,26.00825,0,0,0,-26.16446,92.05833,-66.06097,87.13364,-108.8768,-75.74393,0.001067912,-0.1257102,0.09433498,0,0.3,0,0,0,0,
6.38225E+17,-11.07318,96.59874,62.45394,97.05606,-63.89439,1.471115,43.25609,0.3974294,-2.661588,-128.9053,-7.568851,26.08149,0,0,0,-19.76505,94.14734,-67.35649,87.1339,-108.9312,-75.74365,0.001067912,-0.1257102,0.09433498,0,0.3,0,0,0,0,
6.38225E+17,-8.481586,98.81966,62.45394,80.64914,-64.11412,14.87498,43.25609,0.3974294,-2.661588,-128.9053,-7.642097,26.00825,0,0,0,-14.42282,93.45399,-71.632,87.1339,-108.9312,-75.74365,0.001067912,-0.1257102,0.09433498,0,0.3,0,0,0,0,
6.38225E+17,-7.444948,99.91844,61.68347,70.32157,-63.96763,25.935,43.25609,0.3974294,-2.661588,-128.9053,-7.642097,26.00825,0,0,0,-12.2349,91.45342,-74.72162,87.1339,-108.9312,-75.74365,0.001067912,-0.1257102,0.09433498,0,0.3,0,0,0,0,
6.38225E+17,-6.24339,101.5315,57.03737,46.15067,-61.62378,53.10896,43.25609,0.3974294,-2.661588,-128.9053,-7.642097,26.00825,0,0,0,-9.268561,81.45365,-83.62905,87.1339,-108.9312,-75.74365,0.001067912,-0.1257102,0.09433498,0,0.3,0,0,0,0,
6.38225E+17,-6.24339,101.1107,52.92825,24.32361,-55.17821,70.61456,43.25609,0.3974294,-2.661588,-128.9053,-7.642097,26.08149,0,0,0,-8.776319,73.81523,-88.12848,87.1339,-108.9312,-75.74365,0.001067912,-0.1257102,0.09433498,0,0.3,0,0,0,0,
6.38225E+17,-6.24339,100.4328,51.99436,8.429405,-51.51595,77.79259,43.25609,0.3974294,-2.661588,-128.9053,-7.642097,26.08149,0,0,0,-8.800873,72.38667,-87.90405,87.1339,-108.9312,-75.74365,0.001067912,-0.1257102,0.09433498,0,0.3,0,0,0,0,
6.38225E+17,-6.24339,100.0353,51.78423,2.423302,-50.05105,79.18424,43.25609,0.3740513,-2.661588,-128.9053,-7.642097,26.00825,0,0,0,-8.867041,72.16622,-87.29922,87.13416,-108.9856,-75.74339,0.001067912,-0.1257102,0.09433498,0,0.3,0,0,0,0,
6.38225E+17,-6.19627,99.17034,50.99043,-6.732344,-48.14668,79.47723,43.25609,0.3740513,-2.661588,-128.9053,-7.642097,26.08149,0,0,0,-8.890185,71.05846,-86.4648,87.13416,-108.9856,-75.74339,0.001067912,-0.1257102,0.09433498,0,0.3,0,0,0,0,
6.38225E+17,-6.14915,97.79102,49.63629,-12.44547,-46.38879,75.96145,43.25609,0.350673,-2.661588,-128.9053,-7.642097,26.00825,0,0,0,-8.947363,69.1066,-85.30171,87.13439,-109.04,-75.74313,0.001067912,-0.1257102,0.09433498,0,0.3,0,0,0,0,
6.38225E+17,-6.14915,96.15455,48.56231,-15.37527,-44.41117,71.05402,43.25609,0.350673,-2.661588,-128.9053,-7.642097,26.08149,0,0,0,-9.177007,67.6797,-83.17019,87.13439,-109.04,-75.74313,0.001067912,-0.1257102,0.09433498,0,0.3,0,0,0,0,
6.38225E+17,-6.14915,95.49996,48.44558,-16.18097,-43.38574,68.85667,43.25609,0.350673,-2.661588,-128.9053,-7.642097,26.08149,0,0,0,-9.320071,67.63088,-81.84228,87.13439,-109.04,-75.74313,0.001067912,-0.1257102,0.09433498,0,0.3,0,0,0,0,
6.38225E+17,-6.12559,94.12065,48.30549,-18.67131,-41.40812,64.75494,43.25609,0.350673,-2.661588,-128.9053,-7.642097,26.00825,0,0,0,-9.602731,67.65636,-78.87321,87.13439,-109.04,-75.74313,0.001067912,-0.1257102,0.09433498,0,0.3,0,0,0,0,
6.38225E+17,-5.98423,92.62444,47.76851,-23.57873,-39.4305,60.87295,43.25609,0.3272949,-2.661588,-128.9053,-7.568851,26.00825,0,0,0,-9.657227,66.93191,-76.22372,87.13461,-109.0944,-75.7429,0.001067912,-0.1257102,0.09433498,0,0.3,0,0,0,0,
6.38225E+17,-5.748631,91.96985,47.13813,-26.50854,-38.33182,58.96857,43.25609,0.3272949,-2.661588,-128.9053,-7.642097,26.08149,0,0,0,-9.33143,65.91209,-75.65726,87.13461,-109.0944,-75.7429,0.001067912,-0.1257102,0.09433498,0,0.3,0,0,0,0,
6.38225E+17,-5.159632,90.96459,46.06416,-31.85544,-35.76824,56.11201,43.25609,0.3272949,-2.661588,-128.9053,-7.568851,26.00825,0,0,0,-8.433967,64.15588,-74.94726,87.13461,-109.0944,-75.7429,0.001067912,-0.1257102,0.09433498,0,0.3,0,0,0,0,
6.38225E+17,-4.193673,90.19311,45.64391,-37.27558,-33.2779,54.35413,43.25609,0.3272949,-2.661588,-128.9053,-7.568851,26.00825,0,0,0,-6.939631,63.47217,-73.70712,87.13461,-109.0944,-75.7429,0.001067912,-0.1257102,0.09433498,0,0.3,0,0,0,0,
6.38225E+17,-3.416194,89.79568,45.20031,-44.08738,-31.37353,53.1822,43.25609,0.3272949,-2.661588,-128.9053,-7.568851,26.08149,0,0,0,-5.666707,62.73669,-73.42169,87.13461,-109.0944,-75.7429,0.001067912,-0.1257102,0.09433498,0,0.3,0,0,0,0,
6.38225E+17,-3.086355,89.6554,45.06022,-46.35798,-30.78757,52.81598,43.25609,0.3272949,-2.661588,-128.9053,-7.568851,26.00825,0,0,0,-5.125327,62.50406,-73.29433,87.13461,-109.0944,-75.7429,0.001067912,-0.1257102,0.09433498,0,0.3,0,0,0,0,
6.38225E+17,-2.238196,89.18784,44.38315,-50.6062,-30.49459,52.15677,43.25609,0.3272949,-2.661588,-128.9053,-7.568851,26.08149,0,0,0,-3.716462,61.38424,-73.26037,87.13461,-109.0944,-75.7429,0.001067912,-0.1257102,0.09433498,0,0.3,0,0,0,0,
6.38225E+17,-2.167516,88.95406,43.37922,-53.02329,-30.86081,51.79055,43.25609,0.3272949,-2.661588,-128.9053,-7.568851,26.08149,0,0,0,-3.556038,59.75583,-74.39513,87.13461,-109.0944,-75.7429,0.001067912,-0.1257102,0.09433498,0,0.3,0,0,0,0,
6.38225E+17,-2.167516,88.88393,42.63211,-54.41495,-31.22704,51.64405,43.25609,0.3272949,-2.661588,-128.9053,-7.568851,26.08149,0,0,0,-3.514118,58.56675,-75.5027,87.13461,-109.0944,-75.7429,0.001067912,-0.1257102,0.09433498,0,0.3,0,0,0,0,
6.38225E+17,-2.073277,88.4865,40.88106,-58.51668,-32.25247,50.76511,43.25609,0.3272949,-2.661588,-128.9053,-7.568851,26.00825,0,0,0,-3.284872,55.83157,-77.61096,87.13461,-109.0944,-75.7429,0.001067912,-0.1257102,0.09433498,0,0.3,0,0,0,0,
6.38225E+17,-1.507838,87.4111,39.41019,-64.88901,-33.4244,49.59319,43.25609,0.3272949,-2.661588,-128.9053,-7.568851,26.00825,0,0,0,-2.386204,53.53492,-77.69843,87.13461,-109.0944,-75.7429,0.001067912,-0.1257102,0.09433498,0,0.3,0,0,0,0,
6.38225E+17,-0.8245987,85.77463,37.77588,-71.48107,-34.96254,49.00723,43.25609,0.3272949,-2.661588,-128.9053,-7.568851,26.08149,0,0,0,-1.316992,50.93597,-76.84749,87.13461,-109.0944,-75.7429,0.001067912,-0.1257102,0.09433498,0,0.3,0,0,0,0,
6.38225E+17,-0.3769594,83.41343,35.44115,-77.12095,-36.20771,48.71425,43.25609,0.3039166,-2.661588,-128.9053,-7.568851,26.00825,0,0,0,-0.6093661,47.17806,-75.731,87.13482,-109.1488,-75.74268,0.001067912,-0.1257102,0.09433498,0,0.3,0,0,0,0,
6.38225E+17,-0.1177998,81.98736,33.99362,-79.17181,-36.57394,48.71425,43.25609,0.3039166,-2.661588,-128.9053,-7.568851,26.08149,0,0,0,-0.1915033,44.83768,-75.20627,87.13482,-109.1488,-75.74268,0.001067912,-0.1257102,0.09433498,0,0.3,0,0,0,0,
6.38225E+17,0.3769594,78.4105,30.49153,-82.46785,-36.86692,48.49451,43.25609,0.3039166,-2.661588,-128.9053,-7.568851,26.00825,0,0,0,0.6214195,39.07301,-73.89897,87.13482,-109.1488,-75.74268,0.001067912,-0.1257102,0.09433498,0,0.3,0,0,0,0,
6.38225E+17,0.5418791,74.88038,26.9194,-84.8117,-36.57394,46.73663,43.25609,0.3039166,-2.661588,-128.9053,-7.568851,26.08149,0,0,0,0.89992,33.18311,-73.19948,87.13482,-109.1488,-75.74268,0.001067912,-0.1257102,0.09433498,0,0.3,0,0,0,0,
6.38225E+17,0.5418791,73.1504,25.1917,-85.69064,-36.13447,45.12524,43.25609,0.3039166,-2.661588,-128.9785,-7.568851,26.00825,0,0,0,0.9023629,30.30823,-72.94118,87.13482,-109.1488,-75.74268,0.001067912,-0.1257102,0.09433498,0,0.3,0,0,0,0,
6.38225E+17,0.4947592,70.29826,22.34333,-87.52177,-34.96254,40.73053,43.25609,0.3039166,-2.661588,-128.9053,-7.495606,26.08149,0,0,0,0.8259379,25.55532,-72.70432,87.13482,-109.1488,-75.74268,0.001067912,-0.1257102,0.09433498,0,0.3,0,0,0,0,
6.38225E+17,0.3533994,68.66178,20.70902,-90.89104,-34.01036,35.09065,43.25609,0.3039166,-2.661588,-128.9053,-7.568851,26.00825,0,0,0,0.5901361,22.82465,-72.67389,87.13482,-109.1488,-75.74268,0.001067912,-0.1257102,0.09433498,0,0.3,0,0,0,0,
6.38225E+17,0.3298394,68.28773,20.33547,-93.01515,-33.79062,32.01435,43.25609,0.3039166,-2.661588,-128.9053,-7.568851,26.00825,0,0,0,0.5507689,22.20044,-72.67805,87.13482,-109.1488,-75.74268,0.001067912,-0.1257102,0.09433498,0,0.3,0,0,0,0,
6.38225E+17,0.3769594,67.72665,19.77514,-97.55635,-33.35115,25.27579,43.25609,0.3039166,-2.661588,-128.9053,-7.568851,26.00825,0,0,0,0.6293556,21.2642,-72.69275,87.13482,-109.1488,-75.74268,0.001067912,-0.1257102,0.09433498,0,0.3,0,0,0,0,
6.38225E+17,0.7539188,67.02531,19.09806,-100.6326,-33.13141,16.26664,43.25609,0.3039166,-2.661588,-128.9053,-7.495606,26.00825,0,0,0,1.258956,20.11191,-72.67827,87.13482,-109.1488,-75.74268,0.001067912,-0.1257102,0.09433498,0,0.3,0,0,0,0,
6.38225E+17,1.319358,66.67464,19.05137,-101.0721,-32.25247,7.623709,43.25609,0.3039166,-2.661588,-128.9053,-7.568851,26.08149,0,0,0,2.217956,19.75554,-72.04779,87.13482,-109.1488,-75.74268,0.001067912,-0.1257102,0.09433498,0,0.3,0,0,0,0,
6.38225E+17,2.520916,66.76814,19.19145,-100.0467,-30.86081,2.643037,43.25609,0.3039166,-2.661588,-128.9053,-7.568851,26.08149,0,0,0,4.241643,19.94835,-72.00746,87.13482,-109.1488,-75.74268,0.001067912,-0.1257102,0.09433498,0,0.3,0,0,0,0,
6.38225E+17,3.251275,66.83829,19.28484,-99.38748,-30.49459,1.837341,43.25609,0.3039166,-2.661588,-128.9053,-7.568851,26.08149,0,0,0,5.472489,20.08426,-72.01427,87.13482,-109.1488,-75.74268,0.001067912,-0.1257102,0.09433498,0,0.3,0,0,0,0,
6.38225E+17,5.84287,67.1422,19.70509,-97.26337,-29.76214,0.8851534,43.25609,0.3039166,-2.661588,-128.9053,-7.495606,26.08149,0,0,0,9.850436,20.68716,-72.0907,87.13482,-109.1488,-75.74268,0.001067912,-0.1257102,0.09433498,0,0.3,0,0,0,0,
6.38225E+17,8.834986,67.1422,19.79848,-94.69979,-29.39591,0.3724372,43.25609,0.3039166,-2.661588,-128.9053,-7.568851,26.00825,0,0,0,14.89302,20.76061,-72.53397,87.13482,-109.1488,-75.74268,0.001067912,-0.1257102,0.09433498,0,0.3,0,0,0,0,
6.38225E+17,12.69882,67.11882,19.79848,-91.11078,-29.61565,-0.2135241,43.25609,0.3039166,-2.661588,-128.9053,-7.495606,26.00825,0,0,0,21.3268,20.73946,-73.70642,87.13482,-109.1488,-75.74268,0.001067912,-0.1257102,0.09433498,0,0.3,0,0,0,0,
6.38225E+17,15.10193,67.07206,19.79848,-88.91342,-30.05512,-0.7262403,43.25609,0.3039166,-2.661588,-128.9053,-7.568851,26.00825,0,0,0,25.30257,20.69711,-74.5871,87.13482,-109.1488,-75.74268,0.001067912,-0.1257102,0.09433498,0,0.3,0,0,0,0,
6.38225E+17,20.80345,66.79153,19.79848,-83.56653,-31.66651,-2.117898,43.25609,0.3039166,-2.661588,-128.9053,-7.495606,26.00825,0,0,0,34.70571,20.44128,-77.00311,87.13482,-109.1488,-75.74268,0.001067912,-0.1257102,0.09433498,0,0.3,0,0,0,0,
6.38225E+17,28.05991,66.25382,19.79848,-75.58281,-33.93711,-5.340686,43.25609,0.3039166,-2.661588,-128.9053,-7.568851,26.08149,0,0,0,46.50579,19.94273,-81.10554,87.13482,-109.1488,-75.74268,0.001067912,-0.1257102,0.09433498,0,0.3,0,0,0,0,
6.38225E+17,32.27715,66.0668,19.79848,-70.16266,-35.62175,-7.538041,43.25609,0.3039166,-2.661588,-128.9053,-7.568851,26.00825,0,0,0,53.00829,19.76679,-84.42509,87.13482,-109.1488,-75.74268,0.001067912,-0.1257102,0.09433498,0,0.3,0,0,0,0,
6.38225E+17,41.01789,65.5291,19.89187,-55.44038,-39.94322,-16.40071,43.25609,0.3039166,-2.661588,-128.9053,-7.568851,26.08149,0,0,0,66.0295,19.32755,-92.43964,87.13482,-109.1488,-75.74268,0.001067912,-0.1257102,0.09433498,0,0.3,0,0,0,0,
6.38225E+17,46.13041,64.31344,19.91522,-42.69572,-42.94627,-28.04669,43.25609,0.3039166,-2.661588,-128.9053,-7.568851,26.08149,0,0,0,74.41554,18.14682,-96.81434,87.13482,-109.1488,-75.74268,0.001067912,-0.1257102,0.09433498,0,0.3,0,0,0,0,
6.38225E+17,48.34504,63.2848,19.96191,-34.93173,-44.33792,-36.1769,43.25609,0.3039166,-2.661588,-128.9053,-7.568851,26.00825,0,0,0,78.80558,17.12687,-98.24783,87.13482,-109.1488,-75.74268,0.001067912,-0.1257102,0.09433498,0,0.3,0,0,0,0,
6.38225E+17,50.63036,61.22752,20.38216,-22.99277,-45.87607,-48.40885,43.25609,0.3039166,-2.661588,-128.9053,-7.495606,26.00825,0,0,0,85.52386,15.23531,-98.17577,87.13482,-109.1488,-75.74268,0.001067912,-0.1257102,0.09433498,0,0.3,0,0,0,0,
6.38225E+17,51.4314,59.77807,21.36275,-15.7415,-46.9015,-54.78117,43.25609,0.3039166,-2.661588,-128.9053,-7.568851,26.08149,0,0,0,90.45943,14.38745,-96.2183,87.13482,-109.1488,-75.74268,0.001067912,-0.1257102,0.09433498,0,0.3,0,0,0,0,
6.38225E+17,51.66699,59.56767,23.34727,-12.37222,-48.07343,-56.90528,43.25609,0.3039166,-2.661588,-128.9053,-7.495606,26.08149,0,0,0,94.43742,15.89682,-93.67945,87.13482,-109.1488,-75.74268,0.001067912,-0.1257102,0.09433498,0,0.3,0,0,0,0,
6.38225E+17,51.80835,60.26901,25.56526,-11.05381,-49.90456,-55.87985,43.25609,0.3039166,-2.661588,-128.9053,-7.495606,26.00825,0,0,0,97.20417,18.85197,-91.88081,87.13482,-109.1488,-75.74268,0.001067912,-0.1257102,0.09433498,0,0.3,0,0,0,0,
6.38225E+17,51.80835,61.01711,26.68592,-10.61434,-51.07648,-55.07415,43.25609,0.3039166,-2.661588,-128.9053,-7.568851,26.00825,0,0,0,97.85194,20.85405,-91.37122,87.13482,-109.1488,-75.74268,0.001067912,-0.1257102,0.09433498,0,0.3,0,0,0,0,
6.38225E+17,51.76123,63.33155,29.09069,-9.36917,-53.49357,-54.19521,43.25609,0.3039166,-2.661588,-128.9053,-7.568851,26.00825,0,0,0,97.93235,25.98599,-91.17749,87.13482,-109.1488,-75.74268,0.001067912,-0.1257102,0.09433498,0,0.3,0,0,0,0,
6.38225E+17,51.50208,66.16032,31.37873,-6.073137,-55.76417,-58.07721,43.25609,0.3039166,-2.661588,-128.9053,-7.568851,26.08149,0,0,0,96.52312,31.47578,-91.57775,87.13482,-109.1488,-75.74268,0.001067912,-0.1257102,0.09433498,0,0.3,0,0,0,0,
6.38225E+17,50.79528,69.69042,33.7368,1.397869,-58.18126,-74.9236,43.25609,0.3039166,-2.661588,-128.9053,-7.568851,26.08149,0,0,0,93.25404,37.51622,-92.28105,87.13482,-109.1488,-75.74268,0.001067912,-0.1257102,0.09433498,0,0.3,0,0,0,0,
6.38225E+17,50.39476,71.58406,34.46056,6.378541,-58.98696,-87.96124,43.25609,0.3039166,-2.661588,-128.9785,-7.495606,26.08149,0,0,0,90.59133,39.92171,-93.39236,87.13482,-109.1488,-75.74268,0.001067912,-0.1257102,0.09433498,0,0.3,0,0,0,0,
6.38225E+17,49.82932,75.44146,34.92751,16.26664,-58.84047,-118.065,43.25609,0.3039166,-2.661588,-128.9053,-7.495606,26.08149,0,0,0,83.95318,43.0877,-97.47767,87.13482,-109.1488,-75.74268,0.001067912,-0.1257102,0.09433498,0,0.3,0,0,0,0,
6.38225E+17,49.40524,78.66766,34.90416,23.59116,-56.20364,-141.2105,43.25609,0.2805384,-2.661588,-128.9053,-7.495606,26.00825,0,0,0,77.83659,44.73848,-101.6483,87.13501,-109.2032,-75.74248,0.001067912,-0.1257102,0.09433498,0,0.3,0,0,0,0,
6.38225E+17,48.8398,79.85995,34.83412,26.15474,-54.519,-141.9429,43.25609,0.2805384,-2.661588,-128.9053,-7.568851,26.00825,0,0,0,75.0213,45.16221,-102.7658,87.13501,-109.2032,-75.74248,0.001067912,-0.1257102,0.09433498,0,0.3,0,0,0,0,
6.38225E+17,46.88432,81.28601,34.83412,30.18322,-51.00323,-142.0894,43.25609,0.2805384,-2.661588,-128.9053,-7.568851,26.00825,0,0,0,70.34966,45.70583,-102.4818,87.13501,-109.2032,-75.74248,0.001067912,-0.1257102,0.09433498,0,0.3,0,0,0,0,
6.38225E+17,44.45765,81.7302,34.90416,32.38057,-48.43966,-142.0894,43.25609,0.2805384,-2.661588,-128.9053,-7.495606,26.00825,0,0,0,66.87522,45.95168,-100.1966,87.13501,-109.2032,-75.74248,0.001067912,-0.1257102,0.09433498,0,0.3,0,0,0,0,
6.38225E+17,42.31369,81.84708,34.83412,33.77223,-46.68177,-135.1311,43.25609,0.2805384,-2.661588,-128.9053,-7.495606,26.08149,0,0,0,64.00746,45.89734,-98.04047,87.13501,-109.2032,-75.74248,0.001067912,-0.1257102,0.09433498,0,0.3,0,0,0,0,
6.38225E+17,41.60689,82.05749,34.13371,34.57793,-45.5831,-127.5136,43.25609,0.2805384,-2.661588,-128.9053,-7.568851,26.00825,0,0,0,61.92108,45.04295,-98.6235,87.13501,-109.2032,-75.74248,0.001067912,-0.1257102,0.09433498,0,0.3,0,0,0,0,
6.38225E+17,41.46553,82.10425,34.04031,34.72442,-44.85064,-125.7557,43.25609,0.2805384,-2.661588,-128.9053,-7.495606,26.08149,0,0,0,61.55829,44.93613,-98.68661,87.13501,-109.2032,-75.74248,0.001067912,-0.1257102,0.09433498,0,0.3,0,0,0,0,
6.38225E+17,41.15925,82.17439,34.13371,35.53012,-43.31249,-129.2715,43.25609,0.2805384,-2.661588,-128.9053,-7.568851,26.08149,0,0,0,61.19707,45.08027,-98.34475,87.13501,-109.2032,-75.74248,0.001067912,-0.1257102,0.09433498,0,0.3,0,0,0,0,
6.38225E+17,40.12262,82.15101,34.13371,35.89634,-41.84759,-134.1057,43.25609,0.2805384,-2.661588,-128.9053,-7.495606,26.08149,0,0,0,59.95528,45.07285,-97.20782,87.13501,-109.2032,-75.74248,0.001067912,-0.1257102,0.09433498,0,0.3,0,0,0,0,
6.38225E+17,39.18022,82.17439,34.13371,35.67661,-41.26163,-134.2522,43.25609,0.2805384,-2.661588,-128.9785,-7.568851,26.00825,0,0,0,58.74302,45.08027,-96.27313,87.13501,-109.2032,-75.74248,0.001067912,-0.1257102,0.09433498,0,0.3,0,0,0,0,
6.38225E+17,37.22474,82.17439,34.13371,34.3582,-40.30944,-130.0772,43.25609,0.2805384,-2.661588,-128.9053,-7.568851,26.00825,0,0,0,56.24934,45.08027,-94.31063,87.13501,-109.2032,-75.74248,0.001067912,-0.1257102,0.09433498,0,0.3,0,0,0,0,
6.38225E+17,35.31638,82.29128,34.27379,31.79461,-39.79673,-123.6316,43.25609,0.2805384,-2.661588,-128.9053,-7.495606,26.00825,0,0,0,53.75261,45.30031,-92.47847,87.13501,-109.2032,-75.74248,0.001067912,-0.1257102,0.09433498,0,0.3,0,0,0,0,
6.38225E+17,33.69075,82.52505,34.50726,27.83937,-39.79673,-113.9633,43.25609,0.2805384,-2.661588,-128.9053,-7.495606,26.08149,0,0,0,51.52814,45.67912,-91.05976,87.13501,-109.2032,-75.74248,0.001067912,-0.1257102,0.09433498,0,0.3,0,0,0,0,
