zeyangz2/DNN_classification_different_people_hand/data/srikar_right_16.csv
Timestamp,Therapist joint angle 0,Therapist joint angle 1,Therapist joint angle 2,Therapist joint angle 3,Therapist joint angle 4,Therapist joint angle 5,Patient joint angle 0,Patient joint angle 1,Patient joint angle 2,Patient joint angle 3,Patient joint angle 4,Patient joint angle 5,Virtual joint angle 0,Virtual joint angle 1,Virtual joint angle 2,Therapist position x,Therapist position y,Therapist position z,Patient position x,Patient position y,Patient position z,Virtual position x,Virtual position y,Virtual position z,Assistive Force, Obstacle Force Magnitude, Therapist Constant Force, Patient Constant Force, Recovery Factor, Assistance Level,label
6.38225E+17,0,0,0,0,0,0,0,0,0,0,0,0,0,0,0,0,0,0,0,0,0,0,0,0,0,0.3,0,0,0,0,2
6.38225E+17,0,15.40624,-21.24601,0.006211365,45.68039,-92.79542,0,15.40624,-21.24601,-0.0670338,45.60714,144.0062,0,0,0,0,-65.51071,-88.1142,0,-65.51071,-88.1142,0.001067912,-0.1257102,0.09433498,0,0.3,0,NaN,NaN,NaN,
6.38225E+17,0,15.40624,-21.24601,-0.0670338,45.68039,-92.79542,0,15.40624,-21.24601,0.006211365,45.60714,142.761,0,0,0,0,-65.51071,-88.1142,0,-65.51071,-88.1142,0.001067912,-0.1257102,0.09433498,0,0.3,0,NaN,NaN,NaN,
6.38225E+17,0,15.40624,-21.24601,0.006211365,45.68039,-92.79542,-0.1177998,16.52839,-19.93857,0.8119082,46.11986,143.7865,0,0,0,0,-65.51071,-88.1142,-0.1693436,-64.07005,-85.98434,0.001067912,-0.1257102,0.09433498,0,0.3,0,0,0,0,
6.38225E+17,0,15.40624,-21.24601,0.006211365,45.68039,-92.79542,-0.1177998,16.52839,-19.93857,0.8119082,46.11986,143.7865,0,0,0,0,-65.51071,-88.1142,-0.1693436,-64.07005,-85.98434,0.001067912,-0.1257102,0.09433498,0,0.3,0,0,0,0,
6.38225E+17,0,15.40624,-21.24601,0.006211365,45.68039,-92.79542,-0.1177998,16.52839,-19.93857,0.8119082,46.11986,143.7865,0,0,0,0,-65.51071,-88.1142,-0.1693436,-64.07005,-85.98434,0.001067912,-0.1257102,0.09433498,0,0.3,0,0,0,0,
6.38225E+17,0,15.40624,-21.24601,-0.0670338,45.60714,-92.79542,-0.1177998,16.52839,-19.93857,0.8119082,46.11986,143.7865,0,0,0,0,-65.51071,-88.1142,-0.1693436,-64.07005,-85.98434,0.001067912,-0.1257102,0.09433498,0,0.3,0,0,0,0,
6.38225E+17,0,15.40624,-21.24601,-0.0670338,45.60714,-92.79542,-0.1177998,16.52839,-19.93857,0.8119082,46.11986,143.7865,0,0,0,0,-65.51071,-88.1142,-0.1693436,-64.07005,-85.98434,0.001067912,-0.1257102,0.09433498,0,0.3,0,0,0,0,
6.38225E+17,0,15.40624,-21.24601,-0.0670338,45.60714,-92.79542,-0.1177998,16.52839,-19.93857,0.8119082,46.11986,143.7865,0,0,0,0,-65.51071,-88.1142,-0.1693436,-64.07005,-85.98434,0.001067912,-0.1257102,0.09433498,0,0.3,0,0,0,0,
6.38225E+17,0,15.40624,-21.24601,-0.0670338,45.60714,-92.79542,-0.1177998,16.52839,-19.93857,0.8119082,46.11986,143.7865,0,0,0,0,-65.51071,-88.1142,-0.1693436,-64.07005,-85.98434,0.001067912,-0.1257102,0.09433498,0,0.3,0,0,0,0,
6.38225E+17,0,15.40624,-21.24601,-0.0670338,45.5339,-92.79542,-0.1177998,16.52839,-19.93857,0.8119082,46.11986,143.7865,0,0,0,0,-65.51071,-88.1142,-0.1693436,-64.07005,-85.98434,0.001067912,-0.1257102,0.09433498,0,0.3,0,0,0,0,
6.38225E+17,0,15.40624,-21.24601,0.006211365,45.60714,-92.79542,-0.1177998,16.52839,-19.93857,0.8119082,46.11986,143.7865,0,0,0,0,-65.51071,-88.1142,-0.1693436,-64.07005,-85.98434,0.001067912,-0.1257102,0.09433498,0,0.3,0,0,0,0,
6.38225E+17,0,15.40624,-21.24601,-0.0670338,45.60714,-92.79542,-0.1177998,16.52839,-19.93857,0.8119082,46.11986,143.7865,0,0,0,0,-65.51071,-88.1142,-0.1693436,-64.07005,-85.98434,0.001067912,-0.1257102,0.09433498,0,0.3,0,0,0,0,
6.38225E+17,0,15.40624,-21.24601,0.006211365,45.60714,-92.79542,-0.1177998,16.52839,-19.93857,0.8119082,46.11986,143.7865,0,0,0,0,-65.51071,-88.1142,-0.1693436,-64.07005,-85.98434,0.001067912,-0.1257102,0.09433498,0,0.3,0,0,0,0,
6.38225E+17,0,15.40624,-21.24601,-0.0670338,45.60714,-92.79542,-0.1177998,16.52839,-19.93857,0.8119082,46.11986,143.7865,0,0,0,0,-65.51071,-88.1142,-0.1693436,-64.07005,-85.98434,0.001067912,-0.1257102,0.09433498,0,0.3,0,0,0,0,
6.38225E+17,0,15.40624,-21.24601,-0.0670338,45.60714,-92.79542,-0.1177998,16.52839,-19.93857,0.8119082,46.11986,143.7865,0,0,0,0,-65.51071,-88.1142,-0.1693436,-64.07005,-85.98434,0.001067912,-0.1257102,0.09433498,0,0.3,0,0,0,0,
6.38225E+17,0,15.40624,-21.24601,-0.0670338,45.60714,-92.79542,-0.1177998,16.52839,-19.93857,0.8119082,46.11986,143.7865,0,0,0,0,-65.51071,-88.1142,-0.1693436,-64.07005,-85.98434,0.001067912,-0.1257102,0.09433498,0,0.3,0,0,0,0,
6.38225E+17,0,15.40624,-21.24601,-0.0670338,45.5339,-92.79542,-0.1177998,16.52839,-19.93857,0.8119082,46.11986,143.7865,0,0,0,0,-65.51071,-88.1142,-0.1693436,-64.07005,-85.98434,0.001067912,-0.1257102,0.09433498,0,0.3,0,0,0,0,
6.38225E+17,0,15.40624,-21.24601,-0.0670338,45.60714,-92.79542,-0.1177998,16.52839,-19.93857,0.8119082,46.11986,143.7865,0,0,0,0,-65.51071,-88.1142,-0.1693436,-64.07005,-85.98434,0.001067912,-0.1257102,0.09433498,0,0.3,0,0,0,0,
6.38225E+17,0,15.40624,-21.24601,-0.0670338,45.60714,-92.79542,-0.1177998,16.52839,-19.93857,0.8119082,46.11986,143.7865,0,0,0,0,-65.51071,-88.1142,-0.1693436,-64.07005,-85.98434,0.001067912,-0.1257102,0.09433498,0,0.3,0,0,0,0,
6.38225E+17,0,15.40624,-21.24601,-0.0670338,45.60714,-92.79542,-0.1177998,16.52839,-19.93857,0.8119082,46.11986,143.7865,0,0,0,0,-65.51071,-88.1142,-0.1693436,-64.07005,-85.98434,0.001067912,-0.1257102,0.09433498,0,0.3,0,0,0,0,
6.38225E+17,0,15.40624,-21.24601,-0.0670338,45.60714,-92.79542,-0.1177998,16.52839,-19.93857,0.8119082,46.11986,143.7865,0,0,0,0,-65.51071,-88.1142,-0.1693436,-64.07005,-85.98434,0.001067912,-0.1257102,0.09433498,0,0.3,0,0,0,0,
6.38225E+17,0,15.40624,-21.24601,-0.0670338,45.60714,-92.79542,-0.1177998,16.52839,-19.93857,0.8119082,46.11986,143.7865,0,0,0,0,-65.51071,-88.1142,-0.1693436,-64.07005,-85.98434,0.001067912,-0.1257102,0.09433498,0,0.3,0,0,0,0,
6.38225E+17,0,15.40624,-21.24601,0.006211365,45.60714,-92.79542,-0.1177998,16.52839,-19.93857,0.8119082,46.11986,143.7865,0,0,0,0,-65.51071,-88.1142,-0.1693436,-64.07005,-85.98434,0.001067912,-0.1257102,0.09433498,0,0.3,0,0,0,0,
6.38225E+17,0,15.40624,-21.24601,0.006211365,45.60714,-134.8381,-0.1177998,16.52839,-19.93857,0.8119082,46.11986,143.7865,0,0,0,0,-65.51071,-88.1142,-0.1693436,-64.07005,-85.98434,0.001067912,-0.1257102,0.09433498,0,0.3,0,0,0,0,
6.38225E+17,0,15.40624,-21.24601,0.07945653,45.60714,-141.7232,-0.1177998,16.52839,-19.93857,0.8119082,46.11986,143.7865,0,0,0,0,-65.51071,-88.1142,-0.1693436,-64.07005,-85.98434,0.001067912,-0.1257102,0.09433498,0,0.3,0,0,0,0,
6.38225E+17,0,15.40624,-21.24601,0.006211365,45.60714,-141.7964,-0.1177998,16.52839,-19.93857,0.8119082,46.11986,143.7865,0,0,0,0,-65.51071,-88.1142,-0.1693436,-64.07005,-85.98434,0.001067912,-0.1257102,0.09433498,0,0.3,0,0,0,0,
6.38225E+17,0,15.40624,-21.24601,0.006211365,45.60714,-141.8697,-0.1177998,16.52839,-19.93857,0.8119082,46.11986,143.7865,0,0,0,0,-65.51071,-88.1142,-0.1693436,-64.07005,-85.98434,0.001067912,-0.1257102,0.09433498,0,0.3,0,0,0,0,
6.38225E+17,0,15.40624,-21.24601,-0.140279,45.60714,-136.5228,-0.1177998,16.52839,-19.93857,0.8119082,46.11986,143.7865,0,0,0,0,-65.51071,-88.1142,-0.1693436,-64.07005,-85.98434,0.001067912,-0.1257102,0.09433498,0,0.3,0,0,0,0,
6.38225E+17,0,15.40624,-21.24601,-0.2135241,45.60714,-129.0518,-0.1177998,16.52839,-19.93857,0.8119082,46.11986,143.7865,0,0,0,0,-65.51071,-88.1142,-0.1693436,-64.07005,-85.98434,0.001067912,-0.1257102,0.09433498,0,0.3,0,0,0,0,
6.38225E+17,0,15.40624,-21.24601,-0.2867693,45.5339,-128.6123,-0.1177998,16.52839,-19.93857,0.8119082,46.11986,143.7865,0,0,0,0,-65.51071,-88.1142,-0.1693436,-64.07005,-85.98434,0.001067912,-0.1257102,0.09433498,0,0.3,0,0,0,0,
6.38225E+17,0,15.40624,-21.24601,0.006211365,45.60714,-129.9307,-0.1177998,16.52839,-19.93857,0.8119082,46.11986,143.7865,0,0,0,0,-65.51071,-88.1142,-0.1693436,-64.07005,-85.98434,0.001067912,-0.1257102,0.09433498,0,0.3,0,0,0,0,
6.38225E+17,0,15.40624,-21.24601,0.006211365,45.60714,-137.475,-0.1177998,16.52839,-19.93857,0.8119082,46.11986,143.7865,0,0,0,0,-65.51071,-88.1142,-0.1693436,-64.07005,-85.98434,0.001067912,-0.1257102,0.09433498,0,0.3,0,0,0,0,
6.38225E+17,0,15.40624,-21.24601,-0.0670338,45.5339,-138.8666,-0.1177998,16.52839,-19.93857,0.8119082,46.11986,143.7865,0,0,0,0,-65.51071,-88.1142,-0.1693436,-64.07005,-85.98434,0.001067912,-0.1257102,0.09433498,0,0.3,0,0,0,0,
6.38225E+17,0,15.40624,-21.24601,0.006211365,45.68039,-139.8921,-0.1177998,16.52839,-19.93857,0.8119082,46.11986,143.7865,0,0,0,0,-65.51071,-88.1142,-0.1693436,-64.07005,-85.98434,0.001067912,-0.1257102,0.09433498,0,0.3,0,0,0,0,
6.38225E+17,0,15.40624,-21.24601,0.006211365,45.60714,-139.9653,-0.1177998,16.52839,-19.93857,0.8119082,46.11986,143.7865,0,0,0,0,-65.51071,-88.1142,-0.1693436,-64.07005,-85.98434,0.001067912,-0.1257102,0.09433498,0,0.3,0,0,0,0,
6.38225E+17,0,15.40624,-21.24601,0.006211365,45.60714,-138.9399,-0.1177998,16.52839,-19.93857,0.8119082,46.11986,143.7865,0,0,0,0,-65.51071,-88.1142,-0.1693436,-64.07005,-85.98434,0.001067912,-0.1257102,0.09433498,0,0.3,0,0,0,0,
6.38225E+17,0,15.40624,-21.24601,0.006211365,45.60714,-136.596,-0.1177998,16.52839,-19.93857,0.8119082,46.11986,143.7865,0,0,0,0,-65.51071,-88.1142,-0.1693436,-64.07005,-85.98434,0.001067912,-0.1257102,0.09433498,0,0.3,0,0,0,0,
6.38225E+17,7.916147,36.84405,6.327109,5.572844,34.1809,-126.8544,-0.1177998,16.52839,-19.93857,0.8119082,46.11986,143.7865,0,0,0,16.72129,-29.22589,-48.0951,-0.1693436,-64.07005,-85.98434,0.001067912,-0.1257102,0.09433498,0,0.3,0,0,0,0,
6.38225E+17,9.235504,36.30635,6.74736,6.525032,33.88792,-127.9531,-0.1177998,16.52839,-19.93857,0.8119082,46.11986,143.7865,0,0,0,19.76137,-30.11953,-46.81683,-0.1693436,-64.07005,-85.98434,0.001067912,-0.1257102,0.09433498,0,0.3,0,0,0,0,
6.38225E+17,10.0601,35.88554,6.864096,7.184238,33.81467,-129.2715,-0.1177998,16.52839,-19.93857,0.8119082,46.11986,143.7865,0,0,0,21.65628,-30.87871,-46.28006,-0.1693436,-64.07005,-85.98434,0.001067912,-0.1257102,0.09433498,0,0.3,0,0,0,0,
6.38225E+17,11.45014,35.04393,6.91079,8.282915,33.74142,-132.7873,-0.1177998,16.52839,-19.93857,0.8119082,46.11986,143.7865,0,0,0,24.85815,-32.46103,-45.62173,-0.1693436,-64.07005,-85.98434,0.001067912,-0.1257102,0.09433498,0,0.3,0,0,0,0,
6.38225E+17,12.60458,34.24907,6.630623,9.015368,34.10765,-135.1311,-0.1177998,16.52839,-19.93857,0.8119082,46.11986,143.7865,0,0,0,27.41396,-34.0598,-45.75301,-0.1693436,-64.07005,-85.98434,0.001067912,-0.1257102,0.09433498,0,0.3,0,0,0,0,
6.38225E+17,13.40562,33.61786,6.303762,9.454838,34.54712,-136.2298,-0.1177998,16.52839,-19.93857,0.8119082,46.11986,143.7865,0,0,0,29.14011,-35.36436,-46.08581,-0.1693436,-64.07005,-85.98434,0.001067912,-0.1257102,0.09433498,0,0.3,0,0,0,0,
6.38225E+17,14.39514,32.4957,5.673386,10.11404,35.13308,-138.5004,-0.1177998,16.52839,-19.93857,0.8119082,46.11986,143.7865,0,0,0,31.23862,-37.70633,-46.64073,-0.1693436,-64.07005,-85.98434,0.001067912,-0.1257102,0.09433498,0,0.3,0,0,0,0,
6.38225E+17,15.31397,30.60207,5.04301,10.91974,36.15851,-140.3315,-0.1177998,16.52839,-19.93857,0.8119082,46.11986,143.7865,0,0,0,33.40955,-41.59899,-46.34218,-0.1693436,-64.07005,-85.98434,0.001067912,-0.1257102,0.09433498,0,0.3,0,0,0,0,
6.38225E+17,15.66737,29.66694,4.926273,11.13948,36.74448,-141.1372,-0.1177998,16.52839,-19.93857,0.8119082,46.11986,143.7865,0,0,0,34.38342,-43.50484,-45.75916,-0.1693436,-64.07005,-85.98434,0.001067912,-0.1257102,0.09433498,0,0.3,0,0,0,0,
6.38225E+17,16.56265,28.05384,4.926273,11.43246,38.06289,-141.5034,-0.1177998,16.52839,-19.93857,0.8119082,46.11986,143.7865,0,0,0,36.81125,-46.79276,-44.57448,-0.1693436,-64.07005,-85.98434,0.001067912,-0.1257102,0.09433498,0,0.3,0,0,0,0,
6.38225E+17,18.23541,27.32912,5.276482,11.57895,39.23481,-141.8697,-0.1177998,16.52839,-19.93857,0.8119082,46.11986,143.7865,0,0,0,40.90801,-48.2138,-44.18624,-0.1693436,-64.07005,-85.98434,0.001067912,-0.1257102,0.09433498,0,0.3,0,0,0,0,
6.38225E+17,20.68565,27.30574,6.257067,12.23815,39.89402,-142.0162,-0.1177998,16.52839,-19.93857,0.8119082,46.11986,143.7865,0,0,0,46.98972,-48.03283,-43.90104,-0.1693436,-64.07005,-85.98434,0.001067912,-0.1257102,0.09433498,0,0.3,0,0,0,0,
6.38225E+17,22.14636,27.30574,7.144264,12.97061,39.96726,-141.9429,-0.1177998,16.52839,-19.93857,0.8119082,46.11986,143.7865,0,0,0,50.91992,-47.7919,-43.23988,-0.1693436,-64.07005,-85.98434,0.001067912,-0.1257102,0.09433498,0,0.3,0,0,0,0,
6.38225E+17,25.3034,27.30574,9.47899,15.24121,39.67428,-141.7964,-0.1177998,16.52839,-19.93857,0.8119082,46.11986,143.7865,0,0,0,60.03073,-47.00645,-41.3735,-0.1693436,-64.07005,-85.98434,0.001067912,-0.1257102,0.09433498,0,0.3,0,0,0,0,
6.38225E+17,28.43687,27.30574,12.37405,18.09777,38.86858,-141.9429,-0.1177998,16.52839,-19.93857,0.8119082,46.11986,143.7865,0,0,0,70.03184,-45.72941,-39.02781,-0.1693436,-64.07005,-85.98434,0.001067912,-0.1257102,0.09433498,0,0.3,0,0,0,0,
6.38225E+17,31.24051,27.70317,15.87614,21.10082,37.76991,-141.9429,-0.1177998,16.52839,-19.93857,0.8119082,46.11986,143.7865,0,0,0,80.15082,-42.92019,-36.21619,-0.1693436,-64.07005,-85.98434,0.001067912,-0.1257102,0.09433498,0,0.3,0,0,0,0,
6.38225E+17,32.60699,28.21749,17.74392,22.63897,37.1107,-141.9429,-0.1177998,16.52839,-19.93857,0.8119082,46.11986,143.7865,0,0,0,85.21894,-40.60577,-35.13265,-0.1693436,-64.07005,-85.98434,0.001067912,-0.1257102,0.09433498,0,0.3,0,0,0,0,
6.38225E+17,35.08078,30.06437,21.43279,26.00825,35.42606,-142.0162,-0.1177998,16.52839,-19.93857,0.8119082,46.11986,143.7865,0,0,0,94.33452,-33.97373,-34.02982,-0.1693436,-64.07005,-85.98434,0.001067912,-0.1257102,0.09433498,0,0.3,0,0,0,0,
6.38225E+17,37.08338,33.01003,25.30844,29.59726,33.3752,-141.9429,-0.1177998,16.52839,-19.93857,0.8119082,46.11986,143.7865,0,0,0,101.8005,-24.55384,-33.66442,-0.1693436,-64.07005,-85.98434,0.001067912,-0.1257102,0.09433498,0,0.3,0,0,0,0,
6.38225E+17,37.8373,34.95041,27.363,31.42839,31.98354,-142.0162,-0.1177998,16.52839,-19.93857,0.8119082,46.11986,143.7865,0,0,0,104.6443,-18.68794,-33.62457,-0.1693436,-64.07005,-85.98434,0.001067912,-0.1257102,0.09433498,0,0.3,0,0,0,0,
6.38225E+17,38.47342,38.99485,30.98182,34.50468,28.76075,-142.0162,-0.1177998,16.52839,-19.93857,0.8119082,46.11986,143.7865,0,0,0,107.1868,-7.064498,-33.46937,-0.1693436,-64.07005,-85.98434,0.001067912,-0.1257102,0.09433498,0,0.3,0,0,0,0,
6.38225E+17,38.4263,43.57697,35.09094,36.92178,25.02525,-142.0894,-0.1177998,16.52839,-19.93857,0.8119082,46.11986,143.7865,0,0,0,107.6855,6.159556,-32.61279,-0.1693436,-64.07005,-85.98434,0.001067912,-0.1257102,0.09433498,0,0.3,0,0,0,0,
6.38225E+17,37.6017,48.97734,39.85378,39.11913,19.89809,-142.0894,-0.1177998,16.52839,-19.93857,0.8119082,46.11986,143.7865,0,0,0,105.547,21.58547,-31.30284,-0.1693436,-64.07005,-85.98434,0.001067912,-0.1257102,0.09433498,0,0.3,0,0,0,0,
6.38225E+17,36.25878,52.27366,42.42198,40.3643,16.30907,-142.0894,-0.1177998,16.52839,-19.93857,0.8119082,46.11986,143.7865,0,0,0,101.4613,30.38365,-30.01867,-0.1693436,-64.07005,-85.98434,0.001067912,-0.1257102,0.09433498,0,0.3,0,0,0,0,
6.38225E+17,35.10434,54.07378,43.42591,40.87702,14.25821,-142.0162,-0.1177998,16.52839,-19.93857,0.8119082,46.11986,143.7865,0,0,0,97.70916,34.48598,-29.34632,-0.1693436,-64.07005,-85.98434,0.001067912,-0.1257102,0.09433498,0,0.3,0,0,0,0,
6.38225E+17,31.73527,57.487,43.93955,41.24324,10.22972,-141.5034,-0.1177998,16.52839,-19.93857,0.8119082,46.11986,143.7865,0,0,0,86.37151,39.77836,-28.69497,-0.1693436,-64.07005,-85.98434,0.001067912,-0.1257102,0.09433498,0,0.3,0,0,0,0,
6.38225E+17,27.25887,60.31576,42.93562,40.21781,6.787202,-136.8158,-0.1177998,16.52839,-19.93857,0.8119082,46.11986,143.7865,0,0,0,71.84937,41.57204,-28.89889,-0.1693436,-64.07005,-85.98434,0.001067912,-0.1257102,0.09433498,0,0.3,0,0,0,0,
6.38225E+17,22.005,62.32629,40.9511,37.58098,4.003886,-127.5136,-0.1177998,16.52839,-19.93857,0.8119082,46.11986,143.7865,0,0,0,55.95287,40.73052,-29.89661,-0.1693436,-64.07005,-85.98434,0.001067912,-0.1257102,0.09433498,0,0.3,0,0,0,0,
6.38225E+17,19.27205,62.81723,39.57362,35.8231,2.905208,-123.4119,-0.1177998,16.52839,-19.93857,0.8119082,46.11986,143.7865,0,0,0,48.14546,39.18493,-30.65284,-0.1693436,-64.07005,-85.98434,0.001067912,-0.1257102,0.09433498,0,0.3,0,0,0,0,
6.38225E+17,13.54698,62.23278,36.00148,31.35514,1.586795,-116.3804,-0.1177998,16.52839,-19.93857,0.8119082,46.11986,143.7865,0,0,0,32.91322,33.46405,-31.75009,-0.1693436,-64.07005,-85.98434,0.001067912,-0.1257102,0.09433498,0,0.3,0,0,0,0,
6.38225E+17,8.622946,59.70793,32.38266,26.59421,1.66004,-111.18,-0.1177998,16.52839,-19.93857,0.8119082,46.11986,143.7865,0,0,0,20.79266,25.88036,-31.23635,-0.1693436,-64.07005,-85.98434,0.001067912,-0.1257102,0.09433498,0,0.3,0,0,0,0,
6.38225E+17,6.408309,57.86105,30.81839,24.17712,2.246002,-108.8361,-0.1177998,16.52839,-19.93857,0.8119082,46.11986,143.7865,0,0,0,15.54284,21.74513,-29.96366,-0.1693436,-64.07005,-85.98434,0.001067912,-0.1257102,0.09433498,0,0.3,0,0,0,0,
6.38225E+17,2.615156,53.69973,28.1568,19.56267,4.296866,-104.8809,-0.1177998,16.52839,-19.93857,0.8119082,46.11986,143.7865,0,0,0,6.473203,13.25088,-26.62627,-0.1693436,-64.07005,-85.98434,0.001067912,-0.1257102,0.09433498,0,0.3,0,0,0,0,
6.38225E+17,-0.6832389,49.60855,26.33572,15.68068,7.299919,-101.5848,-0.1177998,16.52839,-19.93857,0.8119082,46.11986,143.7865,0,0,0,-1.735844,5.404413,-22.79066,-0.1693436,-64.07005,-85.98434,0.001067912,-0.1257102,0.09433498,0,0.3,0,0,0,0,
6.38225E+17,-2.120397,48.13572,25.89212,13.99604,8.764822,-100.2664,-0.1177998,16.52839,-19.93857,0.8119082,46.11986,143.7865,0,0,0,-5.447229,2.695404,-21.22622,-0.1693436,-64.07005,-85.98434,0.001067912,-0.1257102,0.09433498,0,0.3,0,0,0,0,
6.38225E+17,-6.667469,46.7564,25.98551,8.868877,12.28059,-97.99583,-0.1177998,16.52839,-19.93857,0.8119082,46.11986,143.7865,0,0,0,-17.39103,0.6195149,-19.57827,-0.1693436,-64.07005,-85.98434,0.001067912,-0.1257102,0.09433498,0,0.3,0,0,0,0,
6.38225E+17,-7.892587,47.22397,26.45245,7.330729,12.57357,-97.84933,-0.1177998,16.52839,-19.93857,0.8119082,46.11986,143.7865,0,0,0,-20.59251,1.84194,-19.80659,-0.1693436,-64.07005,-85.98434,0.001067912,-0.1257102,0.09433498,0,0.3,0,0,0,0,
6.38225E+17,-10.43706,48.95396,27.85329,3.448734,12.20734,-97.77609,-0.1177998,16.52839,-19.93857,0.8119082,46.11986,143.7865,0,0,0,-27.14951,6.019207,-20.961,-0.1693436,-64.07005,-85.98434,0.001067912,-0.1257102,0.09433498,0,0.3,0,0,0,0,
6.38225E+17,-12.84018,51.17488,29.62768,-0.2135241,10.6692,-97.70284,-0.1177998,16.52839,-19.93857,0.8119082,46.11986,143.7865,0,0,0,-33.22957,11.32277,-22.56277,-0.1693436,-64.07005,-85.98434,0.001067912,-0.1257102,0.09433498,0,0.3,0,0,0,0,
6.38225E+17,-14.01818,52.29704,30.51488,-2.117898,9.643764,-97.48311,-0.1177998,16.52839,-19.93857,0.8119082,46.11986,143.7865,0,0,0,-36.15585,13.97477,-23.53255,-0.1693436,-64.07005,-85.98434,0.001067912,-0.1257102,0.09433498,0,0.3,0,0,0,0,
6.38225E+17,-16.37417,54.30756,32.24257,-5.853402,7.153428,-96.45767,-0.1177998,16.52839,-19.93857,0.8119082,46.11986,143.7865,0,0,0,-41.9886,18.86459,-25.44719,-0.1693436,-64.07005,-85.98434,0.001067912,-0.1257102,0.09433498,0,0.3,0,0,0,0,
6.38225E+17,-18.68305,55.71026,33.76015,-9.66215,4.516602,-95.28575,-0.1177998,16.52839,-19.93857,0.8119082,46.11986,143.7865,0,0,0,-47.8037,22.66031,-26.98234,-0.1693436,-64.07005,-85.98434,0.001067912,-0.1257102,0.09433498,0,0.3,0,0,0,0,
6.38225E+17,-19.97885,56.17782,34.43722,-11.71302,3.344679,-94.5533,-0.1177998,16.52839,-19.93857,0.8119082,46.11986,143.7865,0,0,0,-51.12617,24.15313,-27.72048,-0.1693436,-64.07005,-85.98434,0.001067912,-0.1257102,0.09433498,0,0.3,0,0,0,0,
6.38225E+17,-22.73536,56.78566,35.88475,-16.10773,1.293814,-93.23489,-0.1177998,16.52839,-19.93857,0.8119082,46.11986,143.7865,0,0,0,-58.43874,26.87437,-28.88953,-0.1693436,-64.07005,-85.98434,0.001067912,-0.1257102,0.09433498,0,0.3,0,0,0,0,
6.38225E+17,-25.86884,57.25322,37.89261,-21.38138,-0.5373149,-91.25727,-0.1177998,16.52839,-19.93857,0.8119082,46.11986,143.7865,0,0,0,-67.20695,30.27168,-29.75094,-0.1693436,-64.07005,-85.98434,0.001067912,-0.1257102,0.09433498,0,0.3,0,0,0,0,
6.38225E+17,-28.48399,57.29997,39.90048,-26.06907,-1.928973,-89.3529,-0.1177998,16.52839,-19.93857,0.8119082,46.11986,143.7865,0,0,0,-75.15163,33.26467,-29.84565,-0.1693436,-64.07005,-85.98434,0.001067912,-0.1257102,0.09433498,0,0.3,0,0,0,0,
6.38225E+17,-30.01539,57.18309,41.18458,-28.77914,-2.58818,-88.32746,-0.1177998,16.52839,-19.93857,0.8119082,46.11986,143.7865,0,0,0,-80.07679,35.06005,-29.73893,-0.1693436,-64.07005,-85.98434,0.001067912,-0.1257102,0.09433498,0,0.3,0,0,0,0,
6.38225E+17,-33.0075,56.7389,43.9629,-34.85849,-3.613612,-86.05686,-0.1177998,16.52839,-19.93857,0.8119082,46.11986,143.7865,0,0,0,-90.26875,38.87067,-29.38818,-0.1693436,-64.07005,-85.98434,0.001067912,-0.1257102,0.09433498,0,0.3,0,0,0,0,
6.38225E+17,-35.9525,55.4531,46.74123,-41.81678,-4.346064,-83.34679,-0.1177998,16.52839,-19.93857,0.8119082,46.11986,143.7865,0,0,0,-101.4149,41.80134,-28.52074,-0.1693436,-64.07005,-85.98434,0.001067912,-0.1257102,0.09433498,0,0.3,0,0,0,0,
6.38225E+17,-37.27186,54.35432,47.88524,-45.18605,-4.419309,-82.32136,-0.1177998,16.52839,-19.93857,0.8119082,46.11986,143.7865,0,0,0,-106.9679,42.28819,-27.7914,-0.1693436,-64.07005,-85.98434,0.001067912,-0.1257102,0.09433498,0,0.3,0,0,0,0,
6.38225E+17,-39.34513,51.73597,49.19269,-51.63163,-4.126328,-81.00294,-0.1177998,16.52839,-19.93857,0.8119082,46.11986,143.7865,0,0,0,-116.3474,40.90527,-26.42955,-0.1693436,-64.07005,-85.98434,0.001067912,-0.1257102,0.09433498,0,0.3,0,0,0,0,
6.38225E+17,-41.01789,48.65004,49.42616,-56.46581,-2.88116,-80.56348,-0.1177998,16.52839,-19.93857,0.8119082,46.11986,143.7865,0,0,0,-124.2937,36.71979,-25.45663,-0.1693436,-64.07005,-85.98434,0.001067912,-0.1257102,0.09433498,0,0.3,0,0,0,0,
6.38225E+17,-41.86605,46.84992,49.40281,-58.29694,-2.075463,-80.49023,-0.1177998,16.52839,-19.93857,0.8119082,46.11986,143.7865,0,0,0,-128.4413,33.86169,-25.02909,-0.1693436,-64.07005,-85.98434,0.001067912,-0.1257102,0.09433498,0,0.3,0,0,0,0,
6.38225E+17,-43.79797,41.96388,49.40281,-61.9592,0.4148723,-80.70996,-0.1177998,16.52839,-19.93857,0.8119082,46.11986,143.7865,0,0,0,-138.7057,25.7403,-23.69878,-0.1693436,-64.07005,-85.98434,0.001067912,-0.1257102,0.09433498,0,0.3,0,0,0,0,
6.38225E+17,-45.14088,37.24148,49.28608,-64.37629,2.905208,-82.68758,-0.1177998,16.52839,-19.93857,0.8119082,46.11986,143.7865,0,0,0,-146.8971,17.06828,-22.17352,-0.1693436,-64.07005,-85.98434,0.001067912,-0.1257102,0.09433498,0,0.3,0,0,0,0,
6.38225E+17,-46.15396,31.30341,48.42223,-66.20742,6.201241,-86.49634,-0.1177998,16.52839,-19.93857,0.8119082,46.11986,143.7865,0,0,0,-154.1149,4.138797,-20.32124,-0.1693436,-64.07005,-85.98434,0.001067912,-0.1257102,0.09433498,0,0.3,0,0,0,0,
6.38225E+17,-46.38956,27.8902,47.8152,-66.79338,8.105616,-89.42614,-0.1177998,16.52839,-19.93857,0.8119082,46.11986,143.7865,0,0,0,-156.8797,-3.819456,-18.90095,-0.1693436,-64.07005,-85.98434,0.001067912,-0.1257102,0.09433498,0,0.3,0,0,0,0,
6.38225E+17,-46.24821,20.78322,46.92801,-66.42715,11.98761,-94.91953,-0.1177998,16.52839,-19.93857,0.8119082,46.11986,143.7865,0,0,0,-160.421,-20.39995,-14.77062,-0.1693436,-64.07005,-85.98434,0.001067912,-0.1257102,0.09433498,0,0.3,0,0,0,0,
6.38225E+17,-45.72989,14.65813,46.29763,-64.81577,15.8696,-97.84933,-0.1177998,16.52839,-19.93857,0.8119082,46.11986,143.7865,0,0,0,-161.409,-35.0388,-11.00179,-0.1693436,-64.07005,-85.98434,0.001067912,-0.1257102,0.09433498,0,0.3,0,0,0,0,
6.38225E+17,-44.97597,9.912358,45.10692,-62.47192,19.60511,-99.9002,-0.1177998,16.52839,-19.93857,0.8119082,46.11986,143.7865,0,0,0,-159.6174,-47.81149,-8.598618,-0.1693436,-64.07005,-85.98434,0.001067912,-0.1257102,0.09433498,0,0.3,0,0,0,0,
6.38225E+17,-44.57545,8.32264,44.17303,-61.22675,21.2165,-100.7791,-0.1177998,16.52839,-19.93857,0.8119082,46.11986,143.7865,0,0,0,-157.8228,-52.99174,-8.170765,-0.1693436,-64.07005,-85.98434,0.001067912,-0.1257102,0.09433498,0,0.3,0,0,0,0,
6.38225E+17,-43.65661,6.195224,41.79161,-58.66317,24.07306,-102.7568,-0.1177998,16.52839,-19.93857,0.8119082,46.11986,143.7865,0,0,0,-152.8669,-61.68158,-8.141226,-0.1693436,-64.07005,-85.98434,0.001067912,-0.1257102,0.09433498,0,0.3,0,0,0,0,
6.38225E+17,-42.52573,4.605506,39.50357,-56.31932,26.49015,-106.419,-0.1177998,16.52839,-19.93857,0.8119082,46.11986,143.7865,0,0,0,-147.1797,-68.83355,-7.876235,-0.1693436,-64.07005,-85.98434,0.001067912,-0.1257102,0.09433498,0,0.3,0,0,0,0,
6.38225E+17,-41.86605,3.90416,38.45295,-55.36714,27.66208,-108.5431,-0.1177998,16.52839,-19.93857,0.8119082,46.11986,143.7865,0,0,0,-144.1346,-71.99944,-7.517737,-0.1693436,-64.07005,-85.98434,0.001067912,-0.1257102,0.09433498,0,0.3,0,0,0,0,
6.38225E+17,-40.42889,2.688493,36.11822,-53.60925,29.71294,-113.0843,-0.1177998,16.52839,-19.93857,0.8119082,46.11986,143.7865,0,0,0,-137.3575,-78.11557,-7.120241,-0.1693436,-64.07005,-85.98434,0.001067912,-0.1257102,0.09433498,0,0.3,0,0,0,0,
6.38225E+17,-38.70901,1.542961,33.17647,-52.36408,31.54407,-119.2369,-0.1177998,16.52839,-19.93857,0.8119082,46.11986,143.7865,0,0,0,-128.9962,-84.67186,-7.388291,-0.1693436,-64.07005,-85.98434,0.001067912,-0.1257102,0.09433498,0,0.3,0,0,0,0,
6.38225E+17,-36.70642,0.3740513,30.21136,-50.89918,33.74142,-125.9755,-0.1177998,16.52839,-19.93857,0.8119082,46.11986,143.7865,0,0,0,-119.8106,-91.01718,-7.649321,-0.1693436,-64.07005,-85.98434,0.001067912,-0.1257102,0.09433498,0,0.3,0,0,0,0,
6.38225E+17,-35.57554,0.04675641,28.53036,-50.16673,34.8401,-129.5645,-0.1177998,16.52839,-19.93857,0.8119082,46.11986,143.7865,0,0,0,-114.6338,-93.69771,-8.086731,-0.1693436,-64.07005,-85.98434,0.001067912,-0.1257102,0.09433498,0,0.3,0,0,0,0,
6.38225E+17,-32.98395,0.09351282,24.49128,-48.62858,37.25719,-136.3031,-0.1177998,16.52839,-19.93857,0.8119082,46.11986,143.7865,0,0,0,-102.6913,-97.78411,-10.1222,-0.1693436,-64.07005,-85.98434,0.001067912,-0.1257102,0.09433498,0,0.3,0,0,0,0,
6.38225E+17,-29.82691,1.379314,20.33547,-47.01719,39.74753,-141.357,-0.1177998,16.52839,-19.93857,0.8119082,46.11986,143.7865,0,0,0,-89.3559,-98.47893,-12.49559,-0.1693436,-64.07005,-85.98434,0.001067912,-0.1257102,0.09433498,0,0.3,0,0,0,0,
6.38225E+17,-25.44476,5.564013,15.03564,-43.7944,42.75058,-142.0894,-0.1177998,16.52839,-19.93857,0.8119082,46.11986,143.7865,0,0,0,-71.88548,-92.50539,-17.26424,-0.1693436,-64.07005,-85.98434,0.001067912,-0.1257102,0.09433498,0,0.3,0,0,0,0,
6.38225E+17,-22.61756,9.912358,12.04719,-40.64486,44.36197,-142.1627,-0.1177998,16.52839,-19.93857,0.8119082,46.11986,143.7865,0,0,0,-61.22172,-84.10802,-21.40124,-0.1693436,-64.07005,-85.98434,0.001067912,-0.1257102,0.09433498,0,0.3,0,0,0,0,
6.38225E+17,-21.0626,12.95152,10.78644,-38.59399,44.94794,-142.1627,-0.1177998,16.52839,-19.93857,0.8119082,46.11986,143.7865,0,0,0,-55.67416,-77.75664,-23.78619,-0.1693436,-64.07005,-85.98434,0.001067912,-0.1257102,0.09433498,0,0.3,0,0,0,0,
6.38225E+17,-18.49457,19.80134,9.689116,-34.41902,45.09443,-141.8697,-0.1177998,16.52839,-19.93857,0.8119082,46.11986,143.7865,0,0,0,-46.91875,-62.92419,-28.08044,-0.1693436,-64.07005,-85.98434,0.001067912,-0.1257102,0.09433498,0,0.3,0,0,0,0,
6.38225E+17,-16.65689,27.23561,10.03932,-30.46378,43.19005,-140.8443,-0.1177998,16.52839,-19.93857,0.8119082,46.11986,143.7865,0,0,0,-40.64893,-46.93049,-32.48877,-0.1693436,-64.07005,-85.98434,0.001067912,-0.1257102,0.09433498,0,0.3,0,0,0,0,
6.38225E+17,-15.95009,30.76572,10.6697,-28.85239,41.72515,-139.3061,-0.1177998,16.52839,-19.93857,0.8119082,46.11986,143.7865,0,0,0,-38.27208,-39.48213,-34.43931,-0.1693436,-64.07005,-85.98434,0.001067912,-0.1257102,0.09433498,0,0.3,0,0,0,0,
6.38225E+17,-14.39514,38.45715,12.91104,-25.84933,37.62342,-137.7679,-0.1177998,16.52839,-19.93857,0.8119082,46.11986,143.7865,0,0,0,-33.3677,-23.69442,-38.34558,-0.1693436,-64.07005,-85.98434,0.001067912,-0.1257102,0.09433498,0,0.3,0,0,0,0,
6.38225E+17,-12.79306,45.35371,15.89949,-23.50549,32.78923,-134.9846,-0.1177998,16.52839,-19.93857,0.8119082,46.11986,143.7865,0,0,0,-28.83911,-10.02553,-41.34296,-0.1693436,-64.07005,-85.98434,0.001067912,-0.1257102,0.09433498,0,0.3,0,0,0,0,
6.38225E+17,-11.75642,48.60329,17.65053,-22.33356,30.00592,-133.0803,-0.1177998,16.52839,-19.93857,0.8119082,46.11986,143.7865,0,0,0,-26.20515,-3.689998,-42.43465,-0.1693436,-64.07005,-85.98434,0.001067912,-0.1257102,0.09433498,0,0.3,0,0,0,0,
6.38225E+17,-8.834986,55.03229,21.3861,-19.62349,23.92657,-130.8096,-0.1177998,16.52839,-19.93857,0.8119082,46.11986,143.7865,0,0,0,-19.20649,8.458916,-44.78273,-0.1693436,-64.07005,-85.98434,0.001067912,-0.1257102,0.09433498,0,0.3,0,0,0,0,
6.38225E+17,-5.88999,58.79618,23.72082,-17.27965,19.82484,-130.4434,-0.1177998,16.52839,-19.93857,0.8119082,46.11986,143.7865,0,0,0,-12.59446,15.3241,-46.26731,-0.1693436,-64.07005,-85.98434,0.001067912,-0.1257102,0.09433498,0,0.3,0,0,0,0,
6.38225E+17,-3.604674,60.78333,25.00492,-15.66825,17.481,-130.0772,-0.1177998,16.52839,-19.93857,0.8119082,46.11986,143.7865,0,0,0,-7.636204,18.88392,-47.13381,-0.1693436,-64.07005,-85.98434,0.001067912,-0.1257102,0.09433498,0,0.3,0,0,0,0,
6.38225E+17,2.238196,64.24331,27.47973,-11.56653,13.37927,-129.0518,-0.1177998,16.52839,-19.93857,0.8119082,46.11986,143.7865,0,0,0,4.666153,25.14667,-48.96151,-0.1693436,-64.07005,-85.98434,0.001067912,-0.1257102,0.09433498,0,0.3,0,0,0,0,
6.38225E+17,9.777385,67.02531,30.16467,-5.413931,9.790254,-128.9785,-0.1177998,16.52839,-19.93857,0.8119082,46.11986,143.7865,0,0,0,20.21822,30.82994,-51.0229,-0.1693436,-64.07005,-85.98434,0.001067912,-0.1257102,0.09433498,0,0.3,0,0,0,0,
6.38225E+17,13.75902,68.03057,31.65889,-1.458692,8.252106,-128.9785,-0.1177998,16.52839,-19.93857,0.8119082,46.11986,143.7865,0,0,0,28.51164,33.5107,-51.9119,-0.1693436,-64.07005,-85.98434,0.001067912,-0.1257102,0.09433498,0,0.3,0,0,0,0,
6.38225E+17,21.51024,69.24624,34.92751,7.550464,5.688524,-129.0518,-0.1177998,16.52839,-19.93857,0.8119082,46.11986,143.7865,0,0,0,45.3205,38.71657,-53.35751,-0.1693436,-64.07005,-85.98434,0.001067912,-0.1257102,0.09433498,0,0.3,0,0,0,0,
6.38225E+17,27.49447,69.29299,37.84592,17.14558,4.150376,-130.3702,-0.1177998,16.52839,-19.93857,0.8119082,46.11986,143.7865,0,0,0,59.53916,42.78406,-53.9494,-0.1693436,-64.07005,-85.98434,0.001067912,-0.1257102,0.09433498,0,0.3,0,0,0,0,
6.38225E+17,31.21695,69.15273,39.99387,25.86176,3.63766,-132.0548,-0.1177998,16.52839,-19.93857,0.8119082,46.11986,143.7865,0,0,0,69.01476,45.80869,-54.46912,-0.1693436,-64.07005,-85.98434,0.001067912,-0.1257102,0.09433498,0,0.3,0,0,0,0,
6.38225E+17,33.40803,69.15273,41.13788,30.98892,3.63766,-132.4211,-0.1177998,16.52839,-19.93857,0.8119082,46.11986,143.7865,0,0,0,74.43186,47.54019,-55.50255,-0.1693436,-64.07005,-85.98434,0.001067912,-0.1257102,0.09433498,0,0.3,0,0,0,0,
6.38225E+17,35.5991,69.03584,41.95504,35.23714,3.857395,-132.5675,-0.1177998,16.52839,-19.93857,0.8119082,46.11986,143.7865,0,0,0,79.66834,48.70446,-57.06675,-0.1693436,-64.07005,-85.98434,0.001067912,-0.1257102,0.09433498,0,0.3,0,0,0,0,
6.38225E+17,39.18022,68.2176,42.77219,40.43755,4.663092,-133.3,-0.1177998,16.52839,-19.93857,0.8119082,46.11986,143.7865,0,0,0,88.47182,49.29195,-59.79632,-0.1693436,-64.07005,-85.98434,0.001067912,-0.1257102,0.09433498,0,0.3,0,0,0,0,
6.38225E+17,40.90009,67.25909,43.09905,42.70815,5.175808,-134.9114,-0.1177998,16.52839,-19.93857,0.8119082,46.11986,143.7865,0,0,0,93.40638,48.96503,-60.51908,-0.1693436,-64.07005,-85.98434,0.001067912,-0.1257102,0.09433498,0,0.3,0,0,0,0,
6.38225E+17,43.79797,63.98614,44.10299,46.88312,6.567466,-138.5737,-0.1177998,16.52839,-19.93857,0.8119082,46.11986,143.7865,0,0,0,104.711,47.43274,-59.15065,-0.1693436,-64.07005,-85.98434,0.001067912,-0.1257102,0.09433498,0,0.3,0,0,0,0,
6.38225E+17,45.87124,59.68455,46.11085,50.61862,9.131048,-139.5991,-0.1177998,16.52839,-19.93857,0.8119082,46.11986,143.7865,0,0,0,117.2939,46.01871,-54.57006,-0.1693436,-64.07005,-85.98434,0.001067912,-0.1257102,0.09433498,0,0.3,0,0,0,0,
6.38225E+17,47.19061,55.52323,48.42223,53.91465,12.1341,-139.6723,-0.1177998,16.52839,-19.93857,0.8119082,46.11986,143.7865,0,0,0,128.5585,44.78198,-49.26435,-0.1693436,-64.07005,-85.98434,0.001067912,-0.1257102,0.09433498,0,0.3,0,0,0,0,
6.38225E+17,48.15656,51.17488,50.07989,56.55148,15.64987,-139.7456,-0.1177998,16.52839,-19.93857,0.8119082,46.11986,143.7865,0,0,0,138.4711,41.66486,-44.35352,-0.1693436,-64.07005,-85.98434,0.001067912,-0.1257102,0.09433498,0,0.3,0,0,0,0,
6.38225E+17,48.58064,48.95396,50.47679,57.65016,17.481,-139.6723,-0.1177998,16.52839,-19.93857,0.8119082,46.11986,143.7865,0,0,0,142.7997,39.05748,-42.36939,-0.1693436,-64.07005,-85.98434,0.001067912,-0.1257102,0.09433498,0,0.3,0,0,0,0,
6.38225E+17,49.311,45.14331,50.57018,58.67559,21.14326,-140.5513,-0.1177998,16.52839,-19.93857,0.8119082,46.11986,143.7865,0,0,0,149.42,33.1833,-39.87845,-0.1693436,-64.07005,-85.98434,0.001067912,-0.1257102,0.09433498,0,0.3,0,0,0,0,
6.38225E+17,50.11204,41.44955,50.26667,58.82208,24.51253,-141.5767,-0.1177998,16.52839,-19.93857,0.8119082,46.11986,143.7865,0,0,0,155.3789,26.38305,-38.48854,-0.1693436,-64.07005,-85.98434,0.001067912,-0.1257102,0.09433498,0,0.3,0,0,0,0,
6.38225E+17,50.41832,39.67281,49.96315,58.74884,26.12393,-141.5767,-0.1177998,16.52839,-19.93857,0.8119082,46.11986,143.7865,0,0,0,157.7941,22.69958,-37.89634,-0.1693436,-64.07005,-85.98434,0.001067912,-0.1257102,0.09433498,0,0.3,0,0,0,0,
6.38225E+17,50.70104,35.37122,49.00591,58.08963,28.76075,-141.9429,-0.1177998,16.52839,-19.93857,0.8119082,46.11986,143.7865,0,0,0,162.0334,13.06745,-35.73208,-0.1693436,-64.07005,-85.98434,0.001067912,-0.1257102,0.09433498,0,0.3,0,0,0,0,
6.38225E+17,50.63036,29.87734,47.32491,56.77122,31.32433,-141.7964,-0.1177998,16.52839,-19.93857,0.8119082,46.11986,143.7865,0,0,0,165.1796,-0.6123578,-32.81645,-0.1693436,-64.07005,-85.98434,0.001067912,-0.1257102,0.09433498,0,0.3,0,0,0,0,
6.38225E+17,50.53612,27.65641,46.41436,56.11201,32.42301,-141.7964,-0.1177998,16.52839,-19.93857,0.8119082,46.11986,143.7865,0,0,0,165.7583,-6.6897,-31.88482,-0.1693436,-64.07005,-85.98434,0.001067912,-0.1257102,0.09433498,0,0.3,0,0,0,0,
6.38225E+17,49.9,21.74173,44.14968,53.9879,34.98659,-141.8697,-0.1177998,16.52839,-19.93857,0.8119082,46.11986,143.7865,0,0,0,165.7943,-22.93569,-28.73822,-0.1693436,-64.07005,-85.98434,0.001067912,-0.1257102,0.09433498,0,0.3,0,0,0,0,
6.38225E+17,48.65132,15.89718,42.25855,51.20458,37.33044,-141.8697,-0.1177998,16.52839,-19.93857,0.8119082,46.11986,143.7865,0,0,0,163.5969,-38.81856,-24.38019,-0.1693436,-64.07005,-85.98434,0.001067912,-0.1257102,0.09433498,0,0.3,0,0,0,0,
6.38225E+17,45.96548,9.023986,40.43747,46.29716,40.187,-141.8697,-0.1177998,16.52839,-19.93857,0.8119082,46.11986,143.7865,0,0,0,156.8633,-57.22893,-16.68611,-0.1693436,-64.07005,-85.98434,0.001067912,-0.1257102,0.09433498,0,0.3,0,0,0,0,
6.38225E+17,43.70373,6.078333,39.41019,42.85464,41.94488,-141.9429,-0.1177998,16.52839,-19.93857,0.8119082,46.11986,143.7865,0,0,0,150.1113,-65.55881,-11.28796,-0.1693436,-64.07005,-85.98434,0.001067912,-0.1257102,0.09433498,0,0.3,0,0,0,0,
6.38225E+17,42.21945,5.306852,38.56968,40.43755,43.04356,-141.9429,-0.1177998,16.52839,-19.93857,0.8119082,46.11986,143.7865,0,0,0,145.0906,-68.57626,-8.446491,-0.1693436,-64.07005,-85.98434,0.001067912,-0.1257102,0.09433498,0,0.3,0,0,0,0,
6.38225E+17,40.47601,7.083596,37.19219,36.26257,44.80145,-141.9429,-0.1177998,16.52839,-19.93857,0.8119082,46.11986,143.7865,0,0,0,138.2263,-66.43388,-6.370512,-0.1693436,-64.07005,-85.98434,0.001067912,-0.1257102,0.09433498,0,0.3,0,0,0,0,
6.38225E+17,40.52313,13.48922,35.90809,35.53012,45.46065,-141.9429,-0.1177998,16.52839,-19.93857,0.8119082,46.11986,143.7865,0,0,0,135.0707,-53.55246,-10.33179,-0.1693436,-64.07005,-85.98434,0.001067912,-0.1257102,0.09433498,0,0.3,0,0,0,0,
6.38225E+17,41.58333,22.93402,35.72132,37.80072,43.48303,-142.0162,-0.1177998,16.52839,-19.93857,0.8119082,46.11986,143.7865,0,0,0,133.1829,-32.94978,-18.25453,-0.1693436,-64.07005,-85.98434,0.001067912,-0.1257102,0.09433498,0,0.3,0,0,0,0,
6.38225E+17,42.17233,28.66168,36.09487,39.77834,41.50541,-142.0162,-0.1177998,16.52839,-19.93857,0.8119082,46.11986,143.7865,0,0,0,131.2984,-20.44293,-23.40746,-0.1693436,-64.07005,-85.98434,0.001067912,-0.1257102,0.09433498,0,0.3,0,0,0,0,
6.38225E+17,42.66709,40.79496,37.89261,43.80682,35.71904,-141.9429,-0.1177998,16.52839,-19.93857,0.8119082,46.11986,143.7865,0,0,0,123.9272,5.239841,-33.89649,-0.1693436,-64.07005,-85.98434,0.001067912,-0.1257102,0.09433498,0,0.3,0,0,0,0,
6.38225E+17,41.96029,51.33854,40.32073,46.44365,28.61426,-142.0162,-0.1177998,16.52839,-19.93857,0.8119082,46.11986,143.7865,0,0,0,113.392,25.80583,-42.23974,-0.1693436,-64.07005,-85.98434,0.001067912,-0.1257102,0.09433498,0,0.3,0,0,0,0,
6.38225E+17,41.18281,56.17782,41.65152,47.24934,24.73227,-142.0162,-0.1177998,16.52839,-19.93857,0.8119082,46.11986,143.7865,0,0,0,107.2302,34.49384,-45.78773,-0.1693436,-64.07005,-85.98434,0.001067912,-0.1257102,0.09433498,0,0.3,0,0,0,0,
6.38225E+17,38.99174,64.24331,43.98625,47.8353,16.89503,-142.0162,-0.1177998,16.52839,-19.93857,0.8119082,46.11986,143.7865,0,0,0,94.7317,47.50515,-51.33158,-0.1693436,-64.07005,-85.98434,0.001067912,-0.1257102,0.09433498,0,0.3,0,0,0,0,
6.38225E+17,36.16454,69.87746,45.45713,47.39584,9.497273,-142.0162,-0.1177998,16.52839,-19.93857,0.8119082,46.11986,143.7865,0,0,0,83.15675,55.02278,-54.58305,-0.1693436,-64.07005,-85.98434,0.001067912,-0.1257102,0.09433498,0,0.3,0,0,0,0,
6.38225E+17,34.58602,72.14513,46.32097,46.88312,6.127995,-142.0162,-0.1177998,16.52839,-19.93857,0.8119082,46.11986,143.7865,0,0,0,77.95293,58.18349,-55.29179,-0.1693436,-64.07005,-85.98434,0.001067912,-0.1257102,0.09433498,0,0.3,0,0,0,0,
6.38225E+17,29.59131,78.0832,50.73361,44.68576,-3.540367,-142.0162,-0.1177998,16.52839,-19.93857,0.8119082,46.11986,143.7865,0,0,0,64.57884,69.42531,-54.63052,-0.1693436,-64.07005,-85.98434,0.001067912,-0.1257102,0.09433498,0,0.3,0,0,0,0,
6.38225E+17,28.17771,79.43914,52.22783,44.17305,-6.030703,-142.0894,-0.1177998,16.52839,-19.93857,0.8119082,46.11986,143.7865,0,0,0,61.3149,72.76119,-53.89132,-0.1693436,-64.07005,-85.98434,0.001067912,-0.1257102,0.09433498,0,0.3,0,0,0,0,
6.38225E+17,24.50236,82.66533,56.17352,43.14762,-11.96356,-142.0894,-0.1177998,16.52839,-19.93857,0.8119082,46.11986,143.7865,0,0,0,53.00325,81.37563,-52.05768,-0.1693436,-64.07005,-85.98434,0.001067912,-0.1257102,0.09433498,0,0.3,0,0,0,0,
6.38225E+17,20.00241,85.84476,59.90908,42.34192,-18.40914,-142.0894,-0.1177998,16.52839,-19.93857,0.8119082,46.11986,143.7865,0,0,0,42.77146,89.49131,-50.85173,-0.1693436,-64.07005,-85.98434,0.001067912,-0.1257102,0.09433498,0,0.3,0,0,0,0,
6.38225E+17,15.10193,88.36961,62.80414,41.24324,-24.92796,-142.0162,-0.1177998,16.52839,-19.93857,0.8119082,46.11986,143.7865,0,0,0,31.8903,95.70058,-50.17516,-0.1693436,-64.07005,-85.98434,0.001067912,-0.1257102,0.09433498,0,0.3,0,0,0,0,
6.38225E+17,12.27474,89.5619,64.15829,40.21781,-28.51697,-141.9429,-0.1177998,16.52839,-19.93857,0.8119082,46.11986,143.7865,0,0,0,25.73196,98.57064,-50.08208,-0.1693436,-64.07005,-85.98434,0.001067912,-0.1257102,0.09433498,0,0.3,0,0,0,0,
6.38225E+17,6.879509,91.40878,66.72649,36.99502,-35.40202,-140.5513,-0.1177998,16.52839,-19.93857,0.8119082,46.11986,143.7865,0,0,0,14.28047,103.9703,-49.98761,-0.1693436,-64.07005,-85.98434,0.001067912,-0.1257102,0.09433498,0,0.3,0,0,0,0,
6.38225E+17,1.484278,92.55431,69.64489,31.50163,-42.50679,-131.2491,-0.1177998,16.52839,-19.93857,0.8119082,46.11986,143.7865,0,0,0,3.084486,110.1834,-49.30993,-0.1693436,-64.07005,-85.98434,0.001067912,-0.1257102,0.09433498,0,0.3,0,0,0,0,
6.38225E+17,-0.9895183,92.83485,71.20916,27.83937,-46.02256,-125.243,-0.1177998,16.52839,-19.93857,0.8119082,46.11986,143.7865,0,0,0,-2.066251,113.5829,-48.72041,-0.1693436,-64.07005,-85.98434,0.001067912,-0.1257102,0.09433498,0,0.3,0,0,0,0,
6.38225E+17,-6.14915,92.69457,74.24431,12.01842,-53.56682,-103.0497,-0.1177998,16.52839,-19.93857,0.8119082,46.11986,143.7865,0,0,0,-13.07586,120.3432,-46.98157,-0.1693436,-64.07005,-85.98434,0.001067912,-0.1257102,0.09433498,0,0.3,0,0,0,0,
6.38225E+17,-9.423985,92.20364,75.55175,-7.757777,-56.64312,-83.42004,-0.1177998,16.52839,-19.93857,0.8119082,46.11986,143.7865,0,0,0,-20.30447,123.3298,-46.01848,-0.1693436,-64.07005,-85.98434,0.001067912,-0.1257102,0.09433498,0,0.3,0,0,0,0,
6.38225E+17,-11.96846,91.71269,76.18213,-24.53092,-57.44881,-69.94292,-0.1177998,16.52839,-19.93857,0.8119082,46.11986,143.7865,0,0,0,-26.02644,124.7916,-45.57294,-0.1693436,-64.07005,-85.98434,0.001067912,-0.1257102,0.09433498,0,0.3,0,0,0,0,
6.38225E+17,-16.75113,90.40351,76.25217,-52.43733,-55.98391,-50.23997,-0.1177998,16.52839,-19.93857,0.8119082,46.11986,143.7865,0,0,0,-37.06175,125.0062,-45.21611,-0.1693436,-64.07005,-85.98434,0.001067912,-0.1257102,0.09433498,0,0.3,0,0,0,0,
6.38225E+17,-21.36888,88.58002,75.5284,-68.55127,-52.32165,-40.13214,-0.1177998,16.52839,-19.93857,0.8119082,46.11986,143.7865,0,0,0,-48.25132,123.3349,-45.03005,-0.1693436,-64.07005,-85.98434,0.001067912,-0.1257102,0.09433498,0,0.3,0,0,0,0,
6.38225E+17,-26.22224,86.05517,74.15092,-75.80254,-47.85369,-35.81068,-0.1177998,16.52839,-19.93857,0.8119082,46.11986,143.7865,0,0,0,-60.73485,119.9656,-45.04131,-0.1693436,-64.07005,-85.98434,0.001067912,-0.1257102,0.09433498,0,0.3,0,0,0,0,
6.38225E+17,-30.95779,82.43155,72.42323,-78.58585,-42.50679,-35.00498,-0.1177998,16.52839,-19.93857,0.8119082,46.11986,143.7865,0,0,0,-74.4284,115.2688,-44.27338,-0.1693436,-64.07005,-85.98434,0.001067912,-0.1257102,0.09433498,0,0.3,0,0,0,0,
6.38225E+17,-33.14886,80.28075,71.39594,-79.02532,-39.72348,-35.29796,-0.1177998,16.52839,-19.93857,0.8119082,46.11986,143.7865,0,0,0,-81.41772,112.2438,-43.688,-0.1693436,-64.07005,-85.98434,0.001067912,-0.1257102,0.09433498,0,0.3,0,0,0,0,
6.38225E+17,-37.10694,75.79214,69.08456,-78.80559,-34.37658,-36.9826,-0.1177998,16.52839,-19.93857,0.8119082,46.11986,143.7865,0,0,0,-94.89548,105.0165,-42.90726,-0.1693436,-64.07005,-85.98434,0.001067912,-0.1257102,0.09433498,0,0.3,0,0,0,0,
6.38225E+17,-40.73517,70.46191,66.5864,-77.78016,-29.10293,-40.0589,-0.1177998,16.52839,-19.93857,0.8119082,46.11986,143.7865,0,0,0,-108.9564,96.03291,-41.83366,-0.1693436,-64.07005,-85.98434,0.001067912,-0.1257102,0.09433498,0,0.3,0,0,0,0,
6.38225E+17,-43.93933,64.50047,65.06883,-76.90121,-23.38981,-43.42817,-0.1177998,16.52839,-19.93857,0.8119082,46.11986,143.7865,0,0,0,-123.7435,87.49929,-39.93799,-0.1693436,-64.07005,-85.98434,0.001067912,-0.1257102,0.09433498,0,0.3,0,0,0,0,
6.38225E+17,-45.25869,61.39116,64.8587,-76.90121,-20.53325,-44.81983,-0.1177998,16.52839,-19.93857,0.8119082,46.11986,143.7865,0,0,0,-131.0975,83.76517,-38.43099,-0.1693436,-64.07005,-85.98434,0.001067912,-0.1257102,0.09433498,0,0.3,0,0,0,0,
6.38225E+17,-47.59112,54.63486,64.812,-77.63367,-14.89337,-46.79745,-0.1177998,16.52839,-19.93857,0.8119082,46.11986,143.7865,0,0,0,-146.0839,75.3419,-34.91557,-0.1693436,-64.07005,-85.98434,0.001067912,-0.1257102,0.09433498,0,0.3,0,0,0,0,
6.38225E+17,-49.4288,47.59802,64.97544,-78.73235,-9.033754,-48.84832,-0.1177998,16.52839,-19.93857,0.8119082,46.11986,143.7865,0,0,0,-160.0881,65.41197,-31.27744,-0.1693436,-64.07005,-85.98434,0.001067912,-0.1257102,0.09433498,0,0.3,0,0,0,0,
6.38225E+17,-50.15916,44.53548,65.18556,-79.02532,-6.470173,-49.58077,-0.1177998,16.52839,-19.93857,0.8119082,46.11986,143.7865,0,0,0,-165.9213,60.91069,-29.90905,-0.1693436,-64.07005,-85.98434,0.001067912,-0.1257102,0.09433498,0,0.3,0,0,0,0,
6.38225E+17,-51.38427,39.15849,65.83929,-79.39155,-2.148709,-50.53296,-0.1177998,16.52839,-19.93857,0.8119082,46.11986,143.7865,0,0,0,-175.8571,52.9764,-27.88605,-0.1693436,-64.07005,-85.98434,0.001067912,-0.1257102,0.09433498,0,0.3,0,0,0,0,
6.38225E+17,-52.46804,34.20231,66.65645,-79.53804,1.293814,-50.89918,-0.1177998,16.52839,-19.93857,0.8119082,46.11986,143.7865,0,0,0,-184.5524,45.46918,-26.57431,-0.1693436,-64.07005,-85.98434,0.001067912,-0.1257102,0.09433498,0,0.3,0,0,0,0,
6.38225E+17,-53.66959,28.40452,67.96389,-79.53804,4.736337,-51.33865,-0.1177998,16.52839,-19.93857,0.8119082,46.11986,143.7865,0,0,0,-194.0761,36.75203,-25.62828,-0.1693436,-64.07005,-85.98434,0.001067912,-0.1257102,0.09433498,0,0.3,0,0,0,0,
6.38225E+17,-54.35283,24.75752,68.61761,-79.24506,6.640712,-51.55839,-0.1177998,16.52839,-19.93857,0.8119082,46.11986,143.7865,0,0,0,-199.3074,30.57602,-25.41159,-0.1693436,-64.07005,-85.98434,0.001067912,-0.1257102,0.09433498,0,0.3,0,0,0,0,
6.38225E+17,-54.75335,22.58335,69.2013,-78.95209,7.739389,-51.63163,-0.1177998,16.52839,-19.93857,0.8119082,46.11986,143.7865,0,0,0,-202.3599,27.2093,-25.35388,-0.1693436,-64.07005,-85.98434,0.001067912,-0.1257102,0.09433498,0,0.3,0,0,0,0,
6.38225E+17,-55.43659,18.37527,70.62548,-78.29288,9.277537,-51.70488,-0.1177998,16.52839,-19.93857,0.8119082,46.11986,143.7865,0,0,0,-207.8093,21.14943,-25.18776,-0.1693436,-64.07005,-85.98434,0.001067912,-0.1257102,0.09433498,0,0.3,0,0,0,0,
6.38225E+17,-56.09627,14.588,71.13912,-77.56042,10.44946,-51.70488,-0.1177998,16.52839,-19.93857,0.8119082,46.11986,143.7865,0,0,0,-211.8439,13.82818,-25.97678,-0.1693436,-64.07005,-85.98434,0.001067912,-0.1257102,0.09433498,0,0.3,0,0,0,0,
6.38225E+17,-56.40255,12.99828,70.78891,-77.04771,10.88893,-51.70488,-0.1177998,16.52839,-19.93857,0.8119082,46.11986,143.7865,0,0,0,-213.1152,9.464581,-26.77023,-0.1693436,-64.07005,-85.98434,0.001067912,-0.1257102,0.09433498,0,0.3,0,0,0,0,
6.38225E+17,-56.73238,10.59033,68.38414,-75.65604,11.91436,-51.70488,-0.1177998,16.52839,-19.93857,0.8119082,46.11986,143.7865,0,0,0,-213.2523,-1.265944,-28.44188,-0.1693436,-64.07005,-85.98434,0.001067912,-0.1257102,0.09433498,0,0.3,0,0,0,0,
6.38225E+17,-56.61459,8.72007,63.10766,-72.94598,13.45251,-51.77813,-0.1177998,16.52839,-19.93857,0.8119082,46.11986,143.7865,0,0,0,-209.3631,-16.74947,-30.37694,-0.1693436,-64.07005,-85.98434,0.001067912,-0.1257102,0.09433498,0,0.3,0,0,0,0,
6.38225E+17,-55.78999,8.369397,55.94005,-69.35696,15.8696,-53.90223,-0.1177998,16.52839,-19.93857,0.8119082,46.11986,143.7865,0,0,0,-200.4638,-31.9243,-32.06375,-0.1693436,-64.07005,-85.98434,0.001067912,-0.1257102,0.09433498,0,0.3,0,0,0,0,
6.38225E+17,-54.72979,9.514929,51.2239,-66.28067,17.92047,-55.80661,-0.1177998,16.52839,-19.93857,0.8119082,46.11986,143.7865,0,0,0,-192.2507,-38.12089,-32.37891,-0.1693436,-64.07005,-85.98434,0.001067912,-0.1257102,0.09433498,0,0.3,0,0,0,0,
6.38225E+17,-53.50467,12.06315,46.83461,-63.35086,20.04458,-56.83204,-0.1177998,16.52839,-19.93857,0.8119082,46.11986,143.7865,0,0,0,-183.0239,-40.00684,-32.94254,-0.1693436,-64.07005,-85.98434,0.001067912,-0.1257102,0.09433498,0,0.3,0,0,0,0,
6.38225E+17,-51.80835,17.65055,40.78767,-59.76185,22.6814,-57.418,-0.1177998,16.52839,-19.93857,0.8119082,46.11986,143.7865,0,0,0,-168.3375,-37.1809,-35.92119,-0.1693436,-64.07005,-85.98434,0.001067912,-0.1257102,0.09433498,0,0.3,0,0,0,0,
6.38225E+17,-50.8424,21.11052,37.72918,-58.15046,23.70683,-57.5645,-0.1177998,16.52839,-19.93857,0.8119082,46.11986,143.7865,0,0,0,-159.7359,-34.0897,-38.26924,-0.1693436,-64.07005,-85.98434,0.001067912,-0.1257102,0.09433498,0,0.3,0,0,0,0,
6.38225E+17,-46.69584,32.68273,29.13739,-53.02329,24.87876,-57.78423,-0.1177998,16.52839,-19.93857,0.8119082,46.11986,143.7865,0,0,0,-128.9278,-21.11797,-46.83694,-0.1693436,-64.07005,-85.98434,0.001067912,-0.1257102,0.09433498,0,0.3,0,0,0,0,
6.38225E+17,-44.83461,36.49338,26.9194,-50.75269,24.51253,-57.78423,-0.1177998,16.52839,-19.93857,0.8119082,46.11986,143.7865,0,0,0,-118.1515,-16.24355,-49.51438,-0.1693436,-64.07005,-85.98434,0.001067912,-0.1257102,0.09433498,0,0.3,0,0,0,0,
6.38225E+17,-40.33466,43.53021,23.76752,-45.2593,23.12087,-57.85748,-0.1177998,16.52839,-19.93857,0.8119082,46.11986,143.7865,0,0,0,-97.36197,-6.847282,-53.68537,-0.1693436,-64.07005,-85.98434,0.001067912,-0.1257102,0.09433498,0,0.3,0,0,0,0,
6.38225E+17,-34.84518,50.09949,22.1799,-38.59399,21.2165,-58.07721,-0.1177998,16.52839,-19.93857,0.8119082,46.11986,143.7865,0,0,0,-77.63651,2.168202,-56.83345,-0.1693436,-64.07005,-85.98434,0.001067912,-0.1257102,0.09433498,0,0.3,0,0,0,0,
6.38225E+17,-31.97087,53.04515,22.01647,-35.15147,20.04458,-58.44344,-0.1177998,16.52839,-19.93857,0.8119082,46.11986,143.7865,0,0,0,-68.91679,6.285641,-57.93518,-0.1693436,-64.07005,-85.98434,0.001067912,-0.1257102,0.09433498,0,0.3,0,0,0,0,
6.38225E+17,-26.03376,58.28186,22.13321,-28.48616,17.62749,-59.17588,-0.1177998,16.52839,-19.93857,0.8119082,46.11986,143.7865,0,0,0,-52.8211,13.25998,-60.21244,-0.1693436,-64.07005,-85.98434,0.001067912,-0.1257102,0.09433498,0,0.3,0,0,0,0,
6.38225E+17,-18.75373,62.81723,22.1799,-21.30813,15.2104,-59.46887,-0.1177998,16.52839,-19.93857,0.8119082,46.11986,143.7865,0,0,0,-35.77024,18.48949,-62.99679,-0.1693436,-64.07005,-85.98434,0.001067912,-0.1257102,0.09433498,0,0.3,0,0,0,0,
6.38225E+17,-10.34282,66.27721,22.2266,-14.42309,13.15953,-59.6886,-0.1177998,16.52839,-19.93857,0.8119082,46.11986,143.7865,0,0,0,-18.68818,21.99083,-65.95067,-0.1693436,-64.07005,-85.98434,0.001067912,-0.1257102,0.09433498,0,0.3,0,0,0,0,
6.38225E+17,-6.14915,67.23571,22.39003,-11.12705,12.42708,-59.76185,-0.1177998,16.52839,-19.93857,0.8119082,46.11986,143.7865,0,0,0,-10.96801,23.01558,-66.54628,-0.1693436,-64.07005,-85.98434,0.001067912,-0.1257102,0.09433498,0,0.3,0,0,0,0,
6.38225E+17,2.827195,67.58639,23.13714,-3.949028,11.76787,-59.76185,-0.1177998,16.52839,-19.93857,0.8119082,46.11986,143.7865,0,0,0,5.092326,24.00188,-65.23298,-0.1693436,-64.07005,-85.98434,0.001067912,-0.1257102,0.09433498,0,0.3,0,0,0,0,
6.38225E+17,10.2957,66.51099,23.34727,2.350057,12.57357,-59.83509,-0.1177998,16.52839,-19.93857,0.8119082,46.11986,143.7865,0,0,0,18.94463,23.21889,-64.05997,-0.1693436,-64.07005,-85.98434,0.001067912,-0.1257102,0.09433498,0,0.3,0,0,0,0,
6.38225E+17,13.73546,65.76289,23.30057,5.719335,13.37927,-59.98158,-0.1177998,16.52839,-19.93857,0.8119082,46.11986,143.7865,0,0,0,25.52217,22.47148,-63.93471,-0.1693436,-64.07005,-85.98434,0.001067912,-0.1257102,0.09433498,0,0.3,0,0,0,0,
6.38225E+17,19.67257,63.68222,22.92702,12.67763,15.72311,-60.93377,-0.1177998,16.52839,-19.93857,0.8119082,46.11986,143.7865,0,0,0,37.3905,20.06254,-63.76463,-0.1693436,-64.07005,-85.98434,0.001067912,-0.1257102,0.09433498,0,0.3,0,0,0,0,
6.38225E+17,23.01808,61.27427,22.92702,18.46399,18.87265,-64.44954,-0.1177998,16.52839,-19.93857,0.8119082,46.11986,143.7865,0,0,0,45.37333,17.47308,-61.55085,-0.1693436,-64.07005,-85.98434,0.001067912,-0.1257102,0.09433498,0,0.3,0,0,0,0,
6.38225E+17,23.86624,58.72605,22.60015,20.36837,22.6814,-71.55432,-0.1177998,16.52839,-19.93857,0.8119082,46.11986,143.7865,0,0,0,48.74339,14.21362,-58.17909,-0.1693436,-64.07005,-85.98434,0.001067912,-0.1257102,0.09433498,0,0.3,0,0,0,0,
6.38225E+17,23.60708,56.34147,21.82969,17.21883,25.7577,-82.02838,-0.1177998,16.52839,-19.93857,0.8119082,46.11986,143.7865,0,0,0,49.45479,10.5567,-55.19059,-0.1693436,-64.07005,-85.98434,0.001067912,-0.1257102,0.09433498,0,0.3,0,0,0,0,
6.38225E+17,23.55996,55.10242,21.26936,14.43551,26.85638,-87.7415,-0.1177998,16.52839,-19.93857,0.8119082,46.11986,143.7865,0,0,0,49.82932,8.453569,-54.07759,-0.1693436,-64.07005,-85.98434,0.001067912,-0.1257102,0.09433498,0,0.3,0,0,0,0,
6.38225E+17,23.55996,52.03988,19.33154,7.110993,28.54102,-100.2664,-0.1177998,16.52839,-19.93857,0.8119082,46.11986,143.7865,0,0,0,50.43069,2.656773,-52.69847,-0.1693436,-64.07005,-85.98434,0.001067912,-0.1257102,0.09433498,0,0.3,0,0,0,0,
6.38225E+17,23.5364,48.3695,16.45982,-0.57975,29.56645,-112.2054,-0.1177998,16.52839,-19.93857,0.8119082,46.11986,143.7865,0,0,0,50.4641,-4.863403,-52.49187,-0.1693436,-64.07005,-85.98434,0.001067912,-0.1257102,0.09433498,0,0.3,0,0,0,0,
6.38225E+17,23.46572,46.26546,14.73212,-4.461744,29.93268,-118.7242,-0.1177998,16.52839,-19.93857,0.8119082,46.11986,143.7865,0,0,0,50.21235,-9.264043,-52.68031,-0.1693436,-64.07005,-85.98434,0.001067912,-0.1257102,0.09433498,0,0.3,0,0,0,0,
6.38225E+17,23.13588,41.58982,11.88376,-12.44547,30.00592,-133.1535,-0.1177998,16.52839,-19.93857,0.8119082,46.11986,143.7865,0,0,0,49.97655,-18.62511,-51.38464,-0.1693436,-64.07005,-85.98434,0.001067912,-0.1257102,0.09433498,0,0.3,0,0,0,0,
6.38225E+17,22.8296,36.51675,10.97322,-20.57568,29.05373,-141.4302,-0.1177998,16.52839,-19.93857,0.8119082,46.11986,143.7865,0,0,0,51.42998,-28.21091,-46.17963,-0.1693436,-64.07005,-85.98434,0.001067912,-0.1257102,0.09433498,0,0.3,0,0,0,0,
6.38225E+17,22.73536,31.02288,11.25338,-28.92563,28.24804,-141.7964,-0.1177998,16.52839,-19.93857,0.8119082,46.11986,143.7865,0,0,0,54.22205,-38.71022,-38.95241,-0.1693436,-64.07005,-85.98434,0.001067912,-0.1257102,0.09433498,0,0.3,0,0,0,0,
6.38225E+17,22.68824,27.96033,11.44016,-33.54007,28.10155,-141.9429,-0.1177998,16.52839,-19.93857,0.8119082,46.11986,143.7865,0,0,0,55.63331,-44.82816,-35.27759,-0.1693436,-64.07005,-85.98434,0.001067912,-0.1257102,0.09433498,0,0.3,0,0,0,0,
6.38225E+17,22.28772,21.50795,12.02384,-41.96327,28.17479,-141.5767,-0.1177998,16.52839,-19.93857,0.8119082,46.11986,143.7865,0,0,0,57.58792,-58.18429,-27.85039,-0.1693436,-64.07005,-85.98434,0.001067912,-0.1257102,0.09433498,0,0.3,0,0,0,0,
6.38225E+17,21.60448,15.07894,13.61146,-49.50752,28.90724,-141.1372,-0.1177998,16.52839,-19.93857,0.8119082,46.11986,143.7865,0,0,0,58.96336,-71.56377,-19.4596,-0.1693436,-64.07005,-85.98434,0.001067912,-0.1257102,0.09433498,0,0.3,0,0,0,0,
6.38225E+17,21.25109,8.860339,16.22635,-56.97853,29.4932,-139.5258,-0.1177998,16.52839,-19.93857,0.8119082,46.11986,143.7865,0,0,0,61.26264,-84.14861,-10.82221,-0.1693436,-64.07005,-85.98434,0.001067912,-0.1257102,0.09433498,0,0.3,0,0,0,0,
6.38225E+17,21.27464,6.803057,17.34702,-59.61535,29.27347,-137.9877,-0.1177998,16.52839,-19.93857,0.8119082,46.11986,143.7865,0,0,0,62.47016,-88.13853,-7.912582,-0.1693436,-64.07005,-85.98434,0.001067912,-0.1257102,0.09433498,0,0.3,0,0,0,0,
6.38225E+17,21.79296,4.021051,19.14476,-63.79033,28.24804,-131.7619,-0.1177998,16.52839,-19.93857,0.8119082,46.11986,143.7865,0,0,0,65.62084,-93.27391,-4.227736,-0.1693436,-64.07005,-85.98434,0.001067912,-0.1257102,0.09433498,0,0.3,0,0,0,0,
6.38225E+17,23.3008,3.90416,19.63505,-65.32848,26.41691,-128.1728,-0.1177998,16.52839,-19.93857,0.8119082,46.11986,143.7865,0,0,0,70.34999,-93.16647,-5.005435,-0.1693436,-64.07005,-85.98434,0.001067912,-0.1257102,0.09433498,0,0.3,0,0,0,0,
6.38225E+17,24.2432,4.184699,19.70509,-65.0355,25.46472,-126.5614,-0.1177998,16.52839,-19.93857,0.8119082,46.11986,143.7865,0,0,0,73.07116,-92.4603,-6.086616,-0.1693436,-64.07005,-85.98434,0.001067912,-0.1257102,0.09433498,0,0.3,0,0,0,0,
6.38225E+17,26.22224,4.769154,20.19538,-62.83814,24.36604,-122.3132,-0.1177998,16.52839,-19.93857,0.8119082,46.11986,143.7865,0,0,0,79.05818,-90.71485,-7.839843,-0.1693436,-64.07005,-85.98434,0.001067912,-0.1257102,0.09433498,0,0.3,0,0,0,0,
6.38225E+17,28.10703,5.704282,20.80241,-58.95615,24.58578,-118.2115,-0.1177998,16.52839,-19.93857,0.8119082,46.11986,143.7865,0,0,0,84.82445,-88.0528,-9.53485,-0.1693436,-64.07005,-85.98434,0.001067912,-0.1257102,0.09433498,0,0.3,0,0,0,0,
6.38225E+17,29.73267,7.41089,21.17597,-53.97548,25.83095,-117.5523,-0.1177998,16.52839,-19.93857,0.8119082,46.11986,143.7865,0,0,0,89.47334,-83.79556,-11.69416,-0.1693436,-64.07005,-85.98434,0.001067912,-0.1257102,0.09433498,0,0.3,0,0,0,0,
6.38225E+17,30.41591,8.439531,21.26936,-51.19216,26.49015,-119.5299,-0.1177998,16.52839,-19.93857,0.8119082,46.11986,143.7865,0,0,0,91.27048,-81.34573,-12.88215,-0.1693436,-64.07005,-85.98434,0.001067912,-0.1257102,0.09433498,0,0.3,0,0,0,0,
6.38225E+17,31.75883,10.35654,21.3861,-44.38036,28.834,-137.0355,-0.1177998,16.52839,-19.93857,0.8119082,46.11986,143.7865,0,0,0,94.63875,-76.84535,-15.46813,-0.1693436,-64.07005,-85.98434,0.001067912,-0.1257102,0.09433498,0,0.3,0,0,0,0,
6.38225E+17,32.72478,11.43194,22.2266,-39.54618,31.17784,-141.6499,-0.1177998,16.52839,-19.93857,0.8119082,46.11986,143.7865,0,0,0,97.92875,-73.66096,-15.95534,-0.1693436,-64.07005,-85.98434,0.001067912,-0.1257102,0.09433498,0,0.3,0,0,0,0,
6.38225E+17,33.2431,12.2268,23.09044,-36.61637,33.00897,-141.8697,-0.1177998,16.52839,-19.93857,0.8119082,46.11986,143.7865,0,0,0,100.1125,-71.0758,-15.61294,-0.1693436,-64.07005,-85.98434,0.001067912,-0.1257102,0.09433498,0,0.3,0,0,0,0,
6.38225E+17,33.97346,14.42435,25.1917,-30.75676,36.74448,-141.9429,-0.1177998,16.52839,-19.93857,0.8119082,46.11986,143.7865,0,0,0,103.8863,-64.09922,-14.17827,-0.1693436,-64.07005,-85.98434,0.001067912,-0.1257102,0.09433498,0,0.3,0,0,0,0,
6.38225E+17,34.37398,17.01933,27.03613,-25.40986,40.26024,-141.9429,-0.1177998,16.52839,-19.93857,0.8119082,46.11986,143.7865,0,0,0,106.2137,-56.39672,-13.07758,-0.1693436,-64.07005,-85.98434,0.001067912,-0.1257102,0.09433498,0,0.3,0,0,0,0,
6.38225E+17,34.63314,18.30513,28.01672,-22.84628,41.72515,-141.9429,-0.1177998,16.52839,-19.93857,0.8119082,46.11986,143.7865,0,0,0,107.5491,-52.49055,-12.64143,-0.1693436,-64.07005,-85.98434,0.001067912,-0.1257102,0.09433498,0,0.3,0,0,0,0,
6.38225E+17,35.26926,21.62484,29.95454,-16.91342,44.28873,-141.9429,-0.1177998,16.52839,-19.93857,0.8119082,46.11986,143.7865,0,0,0,110.026,-43.0442,-12.77776,-0.1693436,-64.07005,-85.98434,0.001067912,-0.1257102,0.09433498,0,0.3,0,0,0,0,
6.38225E+17,35.4813,25.50562,30.88843,-10.24811,45.90012,-141.9429,-0.1177998,16.52839,-19.93857,0.8119082,46.11986,143.7865,0,0,0,109.5934,-33.66632,-14.59966,-0.1693436,-64.07005,-85.98434,0.001067912,-0.1257102,0.09433498,0,0.3,0,0,0,0,
6.38225E+17,35.43418,27.60966,31.02851,-6.952079,46.11986,-142.0162,-0.1177998,16.52839,-19.93857,0.8119082,46.11986,143.7865,0,0,0,108.3597,-29.11862,-16.06557,-0.1693436,-64.07005,-85.98434,0.001067912,-0.1257102,0.09433498,0,0.3,0,0,0,0,
6.38225E+17,35.26926,33.59448,31.44877,1.104889,45.5339,-142.0162,-0.1177998,16.52839,-19.93857,0.8119082,46.11986,143.7865,0,0,0,104.3112,-16.62777,-20.85823,-0.1693436,-64.07005,-85.98434,0.001067912,-0.1257102,0.09433498,0,0.3,0,0,0,0,
6.38225E+17,34.96298,37.66228,32.31261,6.012315,43.99575,-140.2583,-0.1177998,16.52839,-19.93857,0.8119082,46.11986,143.7865,0,0,0,101.3399,-7.872312,-23.42236,-0.1693436,-64.07005,-85.98434,0.001067912,-0.1257102,0.09433498,0,0.3,0,0,0,0,
6.38225E+17,34.04414,42.1509,34.1804,11.57895,41.6519,-121.7273,-0.1177998,16.52839,-19.93857,0.8119082,46.11986,143.7865,0,0,0,97.28701,2.52242,-24.35551,-0.1693436,-64.07005,-85.98434,0.001067912,-0.1257102,0.09433498,0,0.3,0,0,0,0,
6.38225E+17,33.29023,44.02116,35.37111,13.7763,40.33349,-110.301,-0.1177998,16.52839,-19.93857,0.8119082,46.11986,143.7865,0,0,0,95.00133,7.281876,-23.67052,-0.1693436,-64.07005,-85.98434,0.001067912,-0.1257102,0.09433498,0,0.3,0,0,0,0,
6.38225E+17,31.47611,46.70965,37.35563,16.92585,37.62342,-87.0823,-0.1177998,16.52839,-19.93857,0.8119082,46.11986,143.7865,0,0,0,89.99084,14.41601,-21.36076,-0.1693436,-64.07005,-85.98434,0.001067912,-0.1257102,0.09433498,0,0.3,0,0,0,0,
6.38225E+17,29.19079,48.27599,39.13002,18.61049,35.20633,-62.7649,-0.1177998,16.52839,-19.93857,0.8119082,46.11986,143.7865,0,0,0,84.32912,19.4353,-17.40385,-0.1693436,-64.07005,-85.98434,0.001067912,-0.1257102,0.09433498,0,0.3,0,0,0,0,
6.38225E+17,26.41072,49.53841,41.25462,19.41618,33.30195,-35.81068,-0.1177998,16.52839,-19.93857,0.8119082,46.11986,143.7865,0,0,0,77.60372,24.55742,-12.0917,-0.1693436,-64.07005,-85.98434,0.001067912,-0.1257102,0.09433498,0,0.3,0,0,0,0,
6.38225E+17,23.25368,50.7307,43.1224,19.85565,31.39758,-7.025325,-0.1177998,16.52839,-19.93857,0.8119082,46.11986,143.7865,0,0,0,69.31107,29.25532,-7.052709,-0.1693436,-64.07005,-85.98434,0.001067912,-0.1257102,0.09433498,0,0.3,0,0,0,0,
6.38225E+17,21.67517,51.17488,43.61269,19.9289,30.44539,5.93907,-0.1177998,16.52839,-19.93857,0.8119082,46.11986,143.7865,0,0,0,64.85138,30.69014,-5.179836,-0.1693436,-64.07005,-85.98434,0.001067912,-0.1257102,0.09433498,0,0.3,0,0,0,0,
6.38225E+17,18.68305,51.57232,44.24307,19.63592,28.834,29.15779,-0.1177998,16.52839,-19.93857,0.8119082,46.11986,143.7865,0,0,0,56.35273,32.28537,-1.700711,-0.1693436,-64.07005,-85.98434,0.001067912,-0.1257102,0.09433498,0,0.3,0,0,0,0,
6.38225E+17,15.71449,51.57232,45.17696,19.26969,27.2226,54.64711,-0.1177998,16.52839,-19.93857,0.8119082,46.11986,143.7865,0,0,0,48.06506,33.81447,2.480979,-0.1693436,-64.07005,-85.98434,0.001067912,-0.1257102,0.09433498,0,0.3,0,0,0,0,
6.38225E+17,14.1831,51.57232,45.64391,19.34294,26.5634,69.29614,-0.1177998,16.52839,-19.93857,0.8119082,46.11986,143.7865,0,0,0,43.66941,34.58842,4.444168,-0.1693436,-64.07005,-85.98434,0.001067912,-0.1257102,0.09433498,0,0.3,0,0,0,0,
6.38225E+17,11.09674,51.57232,45.94742,20.07539,25.83095,94.41924,-0.1177998,16.52839,-19.93857,0.8119082,46.11986,143.7865,0,0,0,34.39745,35.0948,7.028044,-0.1693436,-64.07005,-85.98434,0.001067912,-0.1257102,0.09433498,0,0.3,0,0,0,0,
6.38225E+17,8.010387,51.52556,45.73729,21.61354,25.97744,114.2687,-0.1177998,16.52839,-19.93857,0.8119082,46.11986,143.7865,0,0,0,24.86942,34.67628,8.372684,-0.1693436,-64.07005,-85.98434,0.001067912,-0.1257102,0.09433498,0,0.3,0,0,0,0,
6.38225E+17,6.47899,51.47881,45.48048,22.93195,26.27042,122.3256,-0.1177998,16.52839,-19.93857,0.8119082,46.11986,143.7865,0,0,0,20.1001,34.18142,8.643349,-0.1693436,-64.07005,-85.98434,0.001067912,-0.1257102,0.09433498,0,0.3,0,0,0,0,
6.38225E+17,3.133475,51.38529,44.78006,26.44772,26.63664,139.172,-0.1177998,16.52839,-19.93857,0.8119082,46.11986,143.7865,0,0,0,9.683469,32.89043,8.536267,-0.1693436,-64.07005,-85.98434,0.001067912,-0.1257102,0.09433498,0,0.3,0,0,0,0,
6.38225E+17,-0.1649197,51.10475,43.09905,30.25646,26.27042,144.8852,-0.1177998,16.52839,-19.93857,0.8119082,46.11986,143.7865,0,0,0,-0.5032666,29.76702,6.492489,-0.1693436,-64.07005,-85.98434,0.001067912,-0.1257102,0.09433498,0,0.3,0,0,0,0,
6.38225E+17,-2.874315,50.89435,42.56207,34.65118,25.24498,144.9584,-0.1177998,16.52839,-19.93857,0.8119082,46.11986,143.7865,0,0,0,-8.740675,28.60921,5.737938,-0.1693436,-64.07005,-85.98434,0.001067912,-0.1257102,0.09433498,0,0.3,0,0,0,0,
6.38225E+17,-3.863834,50.84759,42.7255,38.67966,23.99982,145.0316,-0.1177998,16.52839,-19.93857,0.8119082,46.11986,143.7865,0,0,0,-11.77032,28.79821,5.924408,-0.1693436,-64.07005,-85.98434,0.001067912,-0.1257102,0.09433498,0,0.3,0,0,0,0,
6.38225E+17,-4.641313,50.7307,42.70215,41.8292,23.04763,144.9584,-0.1177998,16.52839,-19.93857,0.8119082,46.11986,143.7865,0,0,0,-14.14782,28.58937,5.918957,-0.1693436,-64.07005,-85.98434,0.001067912,-0.1257102,0.09433498,0,0.3,0,0,0,0,
6.38225E+17,-6.408309,50.23976,42.6788,47.68882,20.55729,144.9584,-0.1177998,16.52839,-19.93857,0.8119082,46.11986,143.7865,0,0,0,-19.60861,27.8255,6.236125,-0.1693436,-64.07005,-85.98434,0.001067912,-0.1257102,0.09433498,0,0.3,0,0,0,0,
6.38225E+17,-8.010387,49.2345,42.53872,53.03571,17.62749,141.4426,-0.1177998,16.52839,-19.93857,0.8119082,46.11986,143.7865,0,0,0,-24.69736,26.0927,7.149961,-0.1693436,-64.07005,-85.98434,0.001067912,-0.1257102,0.09433498,0,0.3,0,0,0,0,
6.38225E+17,-9.683144,47.69153,41.81495,58.08963,15.57662,130.0164,-0.1177998,16.52839,-19.93857,0.8119082,46.11986,143.7865,0,0,0,-30.05199,22.58052,7.77334,-0.1693436,-64.07005,-85.98434,0.001067912,-0.1257102,0.09433498,0,0.3,0,0,0,0,
6.38225E+17,-10.71978,46.73303,40.57755,60.72646,14.69768,123.2046,-0.1177998,16.52839,-19.93857,0.8119082,46.11986,143.7865,0,0,0,-33.1349,19.16837,6.680209,-0.1693436,-64.07005,-85.98434,0.001067912,-0.1257102,0.09433498,0,0.3,0,0,0,0,
6.38225E+17,-11.92134,44.65237,36.84199,65.04792,13.30602,111.2656,-0.1177998,16.52839,-19.93857,0.8119082,46.11986,143.7865,0,0,0,-36.11255,10.34989,2.700553,-0.1693436,-64.07005,-85.98434,0.001067912,-0.1257102,0.09433498,0,0.3,0,0,0,0,
6.38225E+17,-12.55746,42.31455,31.96241,68.56369,12.42708,100.7183,-0.1177998,16.52839,-19.93857,0.8119082,46.11986,143.7865,0,0,0,-36.78669,-0.01229605,-3.19993,-0.1693436,-64.07005,-85.98434,0.001067912,-0.1257102,0.09433498,0,0.3,0,0,0,0,
6.38225E+17,-12.51034,40.18713,28.50701,71.05402,11.91436,91.78241,-0.1177998,16.52839,-19.93857,0.8119082,46.11986,143.7865,0,0,0,-35.85316,-7.783571,-6.764843,-0.1693436,-64.07005,-85.98434,0.001067912,-0.1257102,0.09433498,0,0.3,0,0,0,0,
6.38225E+17,-11.99202,38.17661,26.52249,73.91058,11.47489,82.48027,-0.1177998,16.52839,-19.93857,0.8119082,46.11986,143.7865,0,0,0,-34.15309,-13.54416,-7.562226,-0.1693436,-64.07005,-85.98434,0.001067912,-0.1257102,0.09433498,0,0.3,0,0,0,0,
6.38225E+17,-11.52082,36.02581,25.96216,79.33073,10.88893,67.02554,-0.1177998,16.52839,-19.93857,0.8119082,46.11986,143.7865,0,0,0,-33.19907,-18.11301,-5.474346,-0.1693436,-64.07005,-85.98434,0.001067912,-0.1257102,0.09433498,0,0.3,0,0,0,0,
6.38225E+17,-11.28522,35.04393,26.28902,82.62676,10.74244,58.45585,-0.1177998,16.52839,-19.93857,0.8119082,46.11986,143.7865,0,0,0,-32.92262,-19.63764,-3.366924,-0.1693436,-64.07005,-85.98434,0.001067912,-0.1257102,0.09433498,0,0.3,0,0,0,0,
6.38225E+17,-11.1203,31.91125,27.78325,95.29817,11.10867,27.10692,-0.1177998,16.52839,-19.93857,0.8119082,46.11986,143.7865,0,0,0,-33.8206,-24.13758,3.712311,-0.1693436,-64.07005,-85.98434,0.001067912,-0.1257102,0.09433498,0,0.3,0,0,0,0,
6.38225E+17,-10.95538,30.83585,27.80659,99.83938,11.62138,17.6583,-0.1177998,16.52839,-19.93857,0.8119082,46.11986,143.7865,0,0,0,-33.58197,-26.24914,5.13541,-0.1693436,-64.07005,-85.98434,0.001067912,-0.1257102,0.09433498,0,0.3,0,0,0,0,
6.38225E+17,-10.10722,28.66168,27.12952,107.6034,13.15953,0.5189275,-0.1177998,16.52839,-19.93857,0.8119082,46.11986,143.7865,0,0,0,-31.20549,-31.36901,6.708769,-0.1693436,-64.07005,-85.98434,0.001067912,-0.1257102,0.09433498,0,0.3,0,0,0,0,
6.38225E+17,-8.410906,27.04858,26.05555,112.3643,15.72311,-11.42003,-0.1177998,16.52839,-19.93857,0.8119082,46.11986,143.7865,0,0,0,-25.93936,-35.8071,7.07996,-0.1693436,-64.07005,-85.98434,0.001067912,-0.1257102,0.09433498,0,0.3,0,0,0,0,
6.38225E+17,-7.374268,26.69791,25.65865,113.3897,17.11477,-15.37527,-0.1177998,16.52839,-19.93857,0.8119082,46.11986,143.7865,0,0,0,-22.70194,-36.93799,7.062008,-0.1693436,-64.07005,-85.98434,0.001067912,-0.1257102,0.09433498,0,0.3,0,0,0,0,
6.38225E+17,-5.513031,26.65115,26.10224,116.9788,19.45862,-19.76999,-0.1177998,16.52839,-19.93857,0.8119082,46.11986,143.7865,0,0,0,-17.08669,-36.58458,8.680011,-0.1693436,-64.07005,-85.98434,0.001067912,-0.1257102,0.09433498,0,0.3,0,0,0,0,
6.38225E+17,-3.769594,26.44075,26.63923,121.6664,22.0222,-19.62349,-0.1177998,16.52839,-19.93857,0.8119082,46.11986,143.7865,0,0,0,-11.78082,-36.46753,10.45359,-0.1693436,-64.07005,-85.98434,0.001067912,-0.1257102,0.09433498,0,0.3,0,0,0,0,
6.38225E+17,-2.756516,26.11345,26.84936,122.3989,23.4871,-19.18402,-0.1177998,16.52839,-19.93857,0.8119082,46.11986,143.7865,0,0,0,-8.654836,-36.93048,11.40699,-0.1693436,-64.07005,-85.98434,0.001067912,-0.1257102,0.09433498,0,0.3,0,0,0,0,
6.38225E+17,-0.8010387,24.66401,27.54977,122.6186,27.66208,-19.03753,-0.1177998,16.52839,-19.93857,0.8119082,46.11986,143.7865,0,0,0,-2.556459,-39.23291,14.49359,-0.1693436,-64.07005,-85.98434,0.001067912,-0.1257102,0.09433498,0,0.3,0,0,0,0,
6.38225E+17,0.7067988,23.7055,28.27354,122.6186,32.71599,-16.84018,-0.1177998,16.52839,-19.93857,0.8119082,46.11986,143.7865,0,0,0,2.285351,-40.47939,16.8998,-0.1693436,-64.07005,-85.98434,0.001067912,-0.1257102,0.09433498,0,0.3,0,0,0,0,
6.38225E+17,0.7539188,22.67686,29.25412,122.5454,37.03746,-11.27355,-0.1177998,16.52839,-19.93857,0.8119082,46.11986,143.7865,0,0,0,2.476428,-41.58178,19.84095,-0.1693436,-64.07005,-85.98434,0.001067912,-0.1257102,0.09433498,0,0.3,0,0,0,0,
6.38225E+17,0.6361189,22.20929,30.09463,122.6186,39.30806,-7.464796,-0.1177998,16.52839,-19.93857,0.8119082,46.11986,143.7865,0,0,0,2.112985,-41.61912,21.96057,-0.1693436,-64.07005,-85.98434,0.001067912,-0.1257102,0.09433498,0,0.3,0,0,0,0,
6.38225E+17,0.2591596,21.017,31.30868,122.6186,43.11681,0.2259469,-0.1177998,16.52839,-19.93857,0.8119082,46.11986,143.7865,0,0,0,0.8764728,-42.75627,25.42192,-0.1693436,-64.07005,-85.98434,0.001067912,-0.1257102,0.09433498,0,0.3,0,0,0,0,
6.38225E+17,-0.1177998,19.33377,31.44877,122.5454,46.70582,9.454838,-0.1177998,16.52839,-19.93857,0.8119082,46.11986,143.7865,0,0,0,-0.4017479,-46.26355,27.05293,-0.1693436,-64.07005,-85.98434,0.001067912,-0.1257102,0.09433498,0,0.3,0,0,0,0,
6.38225E+17,-0.1649197,17.60379,30.95848,122.5454,50.22158,19.70916,-0.1177998,16.52839,-19.93857,0.8119082,46.11986,143.7865,0,0,0,-0.5633086,-50.67358,27.35197,-0.1693436,-64.07005,-85.98434,0.001067912,-0.1257102,0.09433498,0,0.3,0,0,0,0,
6.38225E+17,-0.1649197,16.69204,30.14132,122.4721,52.93166,30.32971,-0.1177998,16.52839,-19.93857,0.8119082,46.11986,143.7865,0,0,0,-0.5603951,-53.66791,26.33979,-0.1693436,-64.07005,-85.98434,0.001067912,-0.1257102,0.09433498,0,0.3,0,0,0,0,
6.38225E+17,-0.2355996,16.22447,29.4876,122.2524,53.8106,36.33582,-0.1177998,16.52839,-19.93857,0.8119082,46.11986,143.7865,0,0,0,-0.7964029,-55.46799,25.32718,-0.1693436,-64.07005,-85.98434,0.001067912,-0.1257102,0.09433498,0,0.3,0,0,0,0,
6.38225E+17,-0.612559,15.00881,28.08676,122.0327,55.12901,51.64405,-0.1177998,16.52839,-19.93857,0.8119082,46.11986,143.7865,0,0,0,-2.048209,-59.76281,23.2222,-0.1693436,-64.07005,-85.98434,0.001067912,-0.1257102,0.09433498,0,0.3,0,0,0,0,
6.38225E+17,-0.9659585,14.14381,26.59254,120.055,56.22769,73.10489,-0.1177998,16.52839,-19.93857,0.8119082,46.11986,143.7865,0,0,0,-3.186241,-63.3083,20.62383,-0.1693436,-64.07005,-85.98434,0.001067912,-0.1257102,0.09433498,0,0.3,0,0,0,0,
6.38225E+17,-0.9659585,14.0503,25.30844,117.4182,56.74041,86.21577,-0.1177998,16.52839,-19.93857,0.8119082,46.11986,143.7865,0,0,0,-3.141833,-64.82716,17.99,-0.1693436,-64.07005,-85.98434,0.001067912,-0.1257102,0.09433498,0,0.3,0,0,0,0,
6.38225E+17,-0.8952785,14.21395,21.12928,109.8007,57.54611,118.3704,-0.1177998,16.52839,-19.93857,0.8119082,46.11986,143.7865,0,0,0,-2.770872,-68.2916,8.965057,-0.1693436,-64.07005,-85.98434,0.001067912,-0.1257102,0.09433498,0,0.3,0,0,0,0,
6.38225E+17,-1.060198,14.89192,14.82551,99.76613,58.27856,143.4935,-0.1177998,16.52839,-19.93857,0.8119082,46.11986,143.7865,0,0,0,-3.015827,-71.29025,-5.385717,-0.1693436,-64.07005,-85.98434,0.001067912,-0.1257102,0.09433498,0,0.3,0,0,0,0,
6.38225E+17,-1.201558,15.47637,11.48686,94.56573,58.57154,144.8119,-0.1177998,16.52839,-19.93857,0.8119082,46.11986,143.7865,0,0,0,-3.251768,-71.74582,-13.31356,-0.1693436,-64.07005,-85.98434,0.001067912,-0.1257102,0.09433498,0,0.3,0,0,0,0,
6.38225E+17,-1.342918,17.53365,5.46326,85.04385,59.01101,144.8852,-0.1177998,16.52839,-19.93857,0.8119082,46.11986,143.7865,0,0,0,-3.277563,-69.22044,-28.53792,-0.1693436,-64.07005,-85.98434,0.001067912,-0.1257102,0.09433498,0,0.3,0,0,0,0,
6.38225E+17,-1.507838,21.20403,0.8871961,77.35311,59.1575,144.8852,-0.1177998,16.52839,-19.93857,0.8119082,46.11986,143.7865,0,0,0,-3.325702,-61.75263,-42.007,-0.1693436,-64.07005,-85.98434,0.001067912,-0.1257102,0.09433498,0,0.3,0,0,0,0,
6.38225E+17,-2.544476,26.18359,-1.073974,69.58913,59.01101,144.8852,-0.1177998,16.52839,-19.93857,0.8119082,46.11986,143.7865,0,0,0,-5.201609,-51.13604,-51.29867,-0.1693436,-64.07005,-85.98434,0.001067912,-0.1257102,0.09433498,0,0.3,0,0,0,0,
6.38225E+17,-3.769594,30.74234,-0.4202508,61.97163,58.42504,144.8852,-0.1177998,16.52839,-19.93857,0.8119082,46.11986,143.7865,0,0,0,-7.470722,-41.83081,-54.96296,-0.1693436,-64.07005,-85.98434,0.001067912,-0.1257102,0.09433498,0,0.3,0,0,0,0,
6.38225E+17,-3.981634,32.26192,0.2334726,59.55453,58.20531,144.8852,-0.1177998,16.52839,-19.93857,0.8119082,46.11986,143.7865,0,0,0,-7.86762,-38.81794,-55.3171,-0.1693436,-64.07005,-85.98434,0.001067912,-0.1257102,0.09433498,0,0.3,0,0,0,0,
6.38225E+17,-4.429273,36.56351,2.381421,54.50062,57.47286,139.0988,-0.1177998,16.52839,-19.93857,0.8119082,46.11986,143.7865,0,0,0,-8.699568,-30.44644,-56.03919,-0.1693436,-64.07005,-85.98434,0.001067912,-0.1257102,0.09433498,0,0.3,0,0,0,0,
6.38225E+17,-6.07847,41.26253,4.109118,48.20153,56.59392,129.1375,-0.1177998,16.52839,-19.93857,0.8119082,46.11986,143.7865,0,0,0,-11.62613,-21.71152,-59.17332,-0.1693436,-64.07005,-85.98434,0.001067912,-0.1257102,0.09433498,0,0.3,0,0,0,0,
6.38225E+17,-7.798347,46.05506,6.140331,39.99807,55.05577,119.2493,-0.1177998,16.52839,-19.93857,0.8119082,46.11986,143.7865,0,0,0,-14.49193,-13.22202,-62.53363,-0.1693436,-64.07005,-85.98434,0.001067912,-0.1257102,0.09433498,0,0.3,0,0,0,0,
6.38225E+17,-8.410906,48.67342,7.938071,35.45687,53.8106,114.1222,-0.1177998,16.52839,-19.93857,0.8119082,46.11986,143.7865,0,0,0,-15.57405,-8.581999,-63.0215,-0.1693436,-64.07005,-85.98434,0.001067912,-0.1257102,0.09433498,0,0.3,0,0,0,0,
6.38225E+17,-8.599386,53.6296,12.00049,28.13236,50.51457,104.3806,-0.1177998,16.52839,-19.93857,0.8119082,46.11986,143.7865,0,0,0,-15.96971,0.2877087,-62.74758,-0.1693436,-64.07005,-85.98434,0.001067912,-0.1257102,0.09433498,0,0.3,0,0,0,0,
6.38225E+17,-8.340226,58.51564,16.76334,22.41923,45.90012,93.97977,-0.1177998,16.52839,-19.93857,0.8119082,46.11986,143.7865,0,0,0,-15.6807,9.385392,-61.38846,-0.1693436,-64.07005,-85.98434,0.001067912,-0.1257102,0.09433498,0,0.3,0,0,0,0,
6.38225E+17,-8.151747,60.85346,19.30819,20.29512,43.40979,88.19339,-0.1177998,16.52839,-19.93857,0.8119082,46.11986,143.7865,0,0,0,-15.46129,13.96526,-60.41221,-0.1693436,-64.07005,-85.98434,0.001067912,-0.1257102,0.09433498,0,0.3,0,0,0,0,
6.38225E+17,-7.656987,66.27721,25.37848,17.21883,36.67123,73.61761,-0.1177998,16.52839,-19.93857,0.8119082,46.11986,143.7865,0,0,0,-14.76344,24.95103,-58.53641,-0.1693436,-64.07005,-85.98434,0.001067912,-0.1257102,0.09433498,0,0.3,0,0,0,0,
6.38225E+17,-7.515628,70.22812,30.51488,16.48637,30.59188,60.72646,-0.1177998,16.52839,-19.93857,0.8119082,46.11986,143.7865,0,0,0,-14.75637,33.95794,-56.50002,-0.1693436,-64.07005,-85.98434,0.001067912,-0.1257102,0.09433498,0,0.3,0,0,0,0,
6.38225E+17,-7.515628,72.23865,33.64341,16.55962,26.5634,51.64405,-0.1177998,16.52839,-19.93857,0.8119082,46.11986,143.7865,0,0,0,-14.98376,39.32982,-54.77643,-0.1693436,-64.07005,-85.98434,0.001067912,-0.1257102,0.09433498,0,0.3,0,0,0,0,
6.38225E+17,-7.539187,74.92714,39.55027,17.36532,18.43318,30.84243,-0.1177998,16.52839,-19.93857,0.8119082,46.11986,143.7865,0,0,0,-15.69053,49.29053,-49.79524,-0.1693436,-64.07005,-85.98434,0.001067912,-0.1257102,0.09433498,0,0.3,0,0,0,0,
6.38225E+17,-7.845467,75.46484,44.10299,17.80479,11.03542,8.50265,-0.1177998,16.52839,-19.93857,0.8119082,46.11986,143.7865,0,0,0,-17.23639,56.67467,-43.25958,-0.1693436,-64.07005,-85.98434,0.001067912,-0.1257102,0.09433498,0,0.3,0,0,0,0,
6.38225E+17,-8.622946,74.90376,47.72181,17.21883,5.615279,-11.49328,-0.1177998,16.52839,-19.93857,0.8119082,46.11986,143.7865,0,0,0,-19.9999,62.38939,-36.46404,-0.1693436,-64.07005,-85.98434,0.001067912,-0.1257102,0.09433498,0,0.3,0,0,0,0,
6.38225E+17,-10.34282,73.99201,50.827,14.94823,1.51355,-26.14231,-0.1177998,16.52839,-19.93857,0.8119082,46.11986,143.7865,0,0,0,-25.16266,67.29671,-30.47466,-0.1693436,-64.07005,-85.98434,0.001067912,-0.1257102,0.09433498,0,0.3,0,0,0,0,
6.38225E+17,-11.42658,73.57121,52.1111,13.04385,-0.09784385,-30.9765,-0.1177998,16.52839,-19.93857,0.8119082,46.11986,143.7865,0,0,0,-28.32106,69.36103,-28.22871,-0.1693436,-64.07005,-85.98434,0.001067912,-0.1257102,0.09433498,0,0.3,0,0,0,0,
6.38225E+17,-13.45274,72.98676,54.6326,7.843444,-2.58818,-36.9826,-0.1177998,16.52839,-19.93857,0.8119082,46.11986,143.7865,0,0,0,-34.375,73.67894,-24.64569,-0.1693436,-64.07005,-85.98434,0.001067912,-0.1257102,0.09433498,0,0.3,0,0,0,0,
6.38225E+17,-14.74854,72.79972,56.89729,1.910586,-4.712289,-39.83916,-0.1177998,16.52839,-19.93857,0.8119082,46.11986,143.7865,0,0,0,-38.47671,77.9082,-22.19006,-0.1693436,-64.07005,-85.98434,0.001067912,-0.1257102,0.09433498,0,0.3,0,0,0,0,
6.38225E+17,-15.0077,72.79972,57.90122,-1.092466,-5.664476,-40.49837,-0.1177998,16.52839,-19.93857,0.8119082,46.11986,143.7865,0,0,0,-39.4634,79.87658,-21.14965,-0.1693436,-64.07005,-85.98434,0.001067912,-0.1257102,0.09433498,0,0.3,0,0,0,0,
6.38225E+17,-15.03126,72.77635,59.41879,-6.146383,-7.422361,-41.37731,-0.1177998,16.52839,-19.93857,0.8119082,46.11986,143.7865,0,0,0,-40.01382,82.87705,-19.34156,-0.1693436,-64.07005,-85.98434,0.001067912,-0.1257102,0.09433498,0,0.3,0,0,0,0,
6.38225E+17,-15.03126,72.14513,60.18925,-9.955132,-8.447793,-40.27863,-0.1177998,16.52839,-19.93857,0.8119082,46.11986,143.7865,0,0,0,-40.61101,83.98418,-17.11769,-0.1693436,-64.07005,-85.98434,0.001067912,-0.1257102,0.09433498,0,0.3,0,0,0,0,
6.38225E+17,-15.03126,69.62029,60.35268,-13.39765,-8.154812,-34.49226,-0.1177998,16.52839,-19.93857,0.8119082,46.11986,143.7865,0,0,0,-42.09976,82.39012,-11.57369,-0.1693436,-64.07005,-85.98434,0.001067912,-0.1257102,0.09433498,0,0.3,0,0,0,0,
6.38225E+17,-15.14906,67.51625,60.44607,-15.15554,-7.27587,-30.39053,-0.1177998,16.52839,-19.93857,0.8119082,46.11986,143.7865,0,0,0,-43.64123,80.78991,-7.157271,-0.1693436,-64.07005,-85.98434,0.001067912,-0.1257102,0.09433498,0,0.3,0,0,0,0,
6.38225E+17,-15.64381,62.9575,61.63678,-18.96429,-3.760103,-20.79542,-0.1177998,16.52839,-19.93857,0.8119082,46.11986,143.7865,0,0,0,-47.99061,78.77161,3.026986,-0.1693436,-64.07005,-85.98434,0.001067912,-0.1257102,0.09433498,0,0.3,0,0,0,0,
6.38225E+17,-15.76161,59.82482,63.2244,-23.06602,0.7810982,-8.783209,-0.1177998,16.52839,-19.93857,0.8119082,46.11986,143.7865,0,0,0,-50.54585,78.55626,10.73312,-0.1693436,-64.07005,-85.98434,0.001067912,-0.1257102,0.09433498,0,0.3,0,0,0,0,
6.38225E+17,-15.83229,56.69214,65.04549,-27.97344,6.127995,7.623709,-0.1177998,16.52839,-19.93857,0.8119082,46.11986,143.7865,0,0,0,-52.96258,78.53468,18.41394,-0.1693436,-64.07005,-85.98434,0.001067912,-0.1257102,0.09433498,0,0.3,0,0,0,0,
6.38225E+17,-15.78517,54.35432,66.28289,-31.34272,10.22972,18.90347,-0.1177998,16.52839,-19.93857,0.8119082,46.11986,143.7865,0,0,0,-54.35187,78.07887,23.91533,-0.1693436,-64.07005,-85.98434,0.001067912,-0.1257102,0.09433498,0,0.3,0,0,0,0,
6.38225E+17,-15.73805,53.20879,67.05334,-33.17385,12.64682,24.32361,-0.1177998,16.52839,-19.93857,0.8119082,46.11986,143.7865,0,0,0,-54.96978,78.1501,26.71379,-0.1693436,-64.07005,-85.98434,0.001067912,-0.1257102,0.09433498,0,0.3,0,0,0,0,
6.38225E+17,-15.71449,51.10475,67.94054,-37.05584,17.40775,32.60031,-0.1177998,16.52839,-19.93857,0.8119082,46.11986,143.7865,0,0,0,-56.15092,77.0536,31.21945,-0.1693436,-64.07005,-85.98434,0.001067912,-0.1257102,0.09433498,0,0.3,0,0,0,0,
6.38225E+17,-15.62025,49.46828,67.87051,-40.49837,22.38842,37.14151,-0.1177998,16.52839,-19.93857,0.8119082,46.11986,143.7865,0,0,0,-56.59495,74.46906,34.07404,-0.1693436,-64.07005,-85.98434,0.001067912,-0.1257102,0.09433498,0,0.3,0,0,0,0,
6.38225E+17,-15.54957,48.74355,67.47359,-41.89003,24.87876,38.67966,-0.1177998,16.52839,-19.93857,0.8119082,46.11986,143.7865,0,0,0,-56.59292,72.51035,35.03395,-0.1693436,-64.07005,-85.98434,0.001067912,-0.1257102,0.09433498,0,0.3,0,0,0,0,
6.38225E+17,-15.31397,47.13046,66.02607,-44.16063,29.56645,40.58403,-0.1177998,16.52839,-19.93857,0.8119082,46.11986,143.7865,0,0,0,-56.14101,66.89993,36.67049,-0.1693436,-64.07005,-85.98434,0.001067912,-0.1257102,0.09433498,0,0.3,0,0,0,0,
6.38225E+17,-14.8899,45.49398,64.34506,-46.43123,34.54712,41.8292,-0.1177998,16.52839,-19.93857,0.8119082,46.11986,143.7865,0,0,0,-54.90779,60.71822,38.15522,-0.1693436,-64.07005,-85.98434,0.001067912,-0.1257102,0.09433498,0,0.3,0,0,0,0,
6.38225E+17,-14.67786,44.88615,63.43452,-47.6764,36.96421,43.14762,-0.1177998,16.52839,-19.93857,0.8119082,46.11986,143.7865,0,0,0,-54.16117,57.81831,38.42568,-0.1693436,-64.07005,-85.98434,0.001067912,-0.1257102,0.09433498,0,0.3,0,0,0,0,
6.38225E+17,-14.34802,44.18481,59.41879,-50.53296,41.79839,48.93398,-0.1177998,16.52839,-19.93857,0.8119082,46.11986,143.7865,0,0,0,-52.1461,48.44858,35.51334,-0.1693436,-64.07005,-85.98434,0.001067912,-0.1257102,0.09433498,0,0.3,0,0,0,0,
6.38225E+17,-13.85326,44.09129,54.98281,-51.63163,43.70277,52.15677,-0.1177998,16.52839,-19.93857,0.8119082,46.11986,143.7865,0,0,0,-49.08133,39.61623,30.67458,-0.1693436,-64.07005,-85.98434,0.001067912,-0.1257102,0.09433498,0,0.3,0,0,0,0,
6.38225E+17,-12.1805,44.23156,49.44951,-50.75269,45.16767,54.28088,-0.1177998,16.52839,-19.93857,0.8119082,46.11986,143.7865,0,0,0,-41.53857,29.67639,24.09054,-0.1693436,-64.07005,-85.98434,0.001067912,-0.1257102,0.09433498,0,0.3,0,0,0,0,
6.38225E+17,-10.97894,44.25494,47.16148,-49.21454,45.5339,54.7936,-0.1177998,16.52839,-19.93857,0.8119082,46.11986,143.7865,0,0,0,-36.81226,25.73933,21.40499,-0.1693436,-64.07005,-85.98434,0.001067912,-0.1257102,0.09433498,0,0.3,0,0,0,0,
6.38225E+17,-7.798347,44.25494,42.63211,-43.72115,45.82688,53.25545,-0.1177998,16.52839,-19.93857,0.8119082,46.11986,143.7865,0,0,0,-25.21434,18.30064,15.75867,-0.1693436,-64.07005,-85.98434,0.001067912,-0.1257102,0.09433498,0,0.3,0,0,0,0,
6.38225E+17,-4.075873,44.34845,39.2701,-36.46988,45.38741,47.76206,-0.1177998,16.52839,-19.93857,0.8119082,46.11986,143.7865,0,0,0,-12.77733,13.3287,10.96165,-0.1693436,-64.07005,-85.98434,0.001067912,-0.1257102,0.09433498,0,0.3,0,0,0,0,
6.38225E+17,-0.07067989,44.46534,37.61245,-28.11993,44.43522,40.21781,-0.1177998,16.52839,-19.93857,0.8119082,46.11986,143.7865,0,0,0,-0.2177967,11.12455,8.204136,-0.1693436,-64.07005,-85.98434,0.001067912,-0.1257102,0.09433498,0,0.3,0,0,0,0,
6.38225E+17,4.099433,44.74588,37.23889,-18.08535,43.40979,30.98892,-0.1177998,16.52839,-19.93857,0.8119082,46.11986,143.7865,0,0,0,12.5393,11.06104,6.60656,-0.1693436,-64.07005,-85.98434,0.001067912,-0.1257102,0.09433498,0,0.3,0,0,0,0,
6.38225E+17,6.10203,45.09655,37.23889,-12.73845,42.89707,26.00825,-0.1177998,16.52839,-19.93857,0.8119082,46.11986,143.7865,0,0,0,18.5842,11.63894,5.488472,-0.1693436,-64.07005,-85.98434,0.001067912,-0.1257102,0.09433498,0,0.3,0,0,0,0,
6.38225E+17,9.683144,46.3356,37.40232,-1.531937,41.72515,13.70306,-0.1177998,16.52839,-19.93857,0.8119082,46.11986,143.7865,0,0,0,29.10978,13.88298,2.251421,-0.1693436,-64.07005,-85.98434,0.001067912,-0.1257102,0.09433498,0,0.3,0,0,0,0,
6.38225E+17,12.10982,47.97207,37.986,7.989935,39.96726,-2.337634,-0.1177998,16.52839,-19.93857,0.8119082,46.11986,143.7865,0,0,0,35.94678,17.30357,-0.8133532,-0.1693436,-64.07005,-85.98434,0.001067912,-0.1257102,0.09433498,0,0.3,0,0,0,0,
6.38225E+17,13.2407,48.72018,38.33621,12.3114,38.94183,-12.51871,-0.1177998,16.52839,-19.93857,0.8119082,46.11986,143.7865,0,0,0,39.09515,18.96438,-2.197939,-0.1693436,-64.07005,-85.98434,0.001067912,-0.1257102,0.09433498,0,0.3,0,0,0,0,
6.38225E+17,14.96058,49.74882,39.41019,20.44161,37.1107,-35.95716,-0.1177998,16.52839,-19.93857,0.8119082,46.11986,143.7865,0,0,0,44.09853,22.09629,-3.317884,-0.1693436,-64.07005,-85.98434,0.001067912,-0.1257102,0.09433498,0,0.3,0,0,0,0,
6.38225E+17,16.30349,50.98786,40.43747,27.18017,36.01203,-60.71403,-0.1177998,16.52839,-19.93857,0.8119082,46.11986,143.7865,0,0,0,47.8454,25.47003,-4.768502,-0.1693436,-64.07005,-85.98434,0.001067912,-0.1257102,0.09433498,0,0.3,0,0,0,0,
6.38225E+17,17.88201,52.83474,41.88499,32.60031,34.98659,-82.90732,-0.1177998,16.52839,-19.93857,0.8119082,46.11986,143.7865,0,0,0,52.07343,30.33886,-6.954317,-0.1693436,-64.07005,-85.98434,0.001067912,-0.1257102,0.09433498,0,0.3,0,0,0,0,
6.38225E+17,18.63593,53.95689,42.84223,34.94416,34.47387,-92.2827,-0.1177998,16.52839,-19.93857,0.8119082,46.11986,143.7865,0,0,0,54.04862,33.39735,-8.080302,-0.1693436,-64.07005,-85.98434,0.001067912,-0.1257102,0.09433498,0,0.3,0,0,0,0,
6.38225E+17,19.88461,56.2012,45.27035,39.63185,33.30195,-109.5686,-0.1177998,16.52839,-19.93857,0.8119082,46.11986,143.7865,0,0,0,57.45296,40.31661,-9.504612,-0.1693436,-64.07005,-85.98434,0.001067912,-0.1257102,0.09433498,0,0.3,0,0,0,0,
6.38225E+17,20.80345,58.53902,49.12265,44.9055,31.1046,-122.0935,-0.1177998,16.52839,-19.93857,0.8119082,46.11986,143.7865,0,0,0,60.52879,49.82715,-9.035697,-0.1693436,-64.07005,-85.98434,0.001067912,-0.1257102,0.09433498,0,0.3,0,0,0,0,
6.38225E+17,20.85056,59.82482,51.64415,48.05504,29.71294,-124.2908,-0.1177998,16.52839,-19.93857,0.8119082,46.11986,143.7865,0,0,0,61.07687,55.88059,-7.99047,-0.1693436,-64.07005,-85.98434,0.001067912,-0.1257102,0.09433498,0,0.3,0,0,0,0,
6.38225E+17,20.85056,60.80671,53.37185,50.10591,28.76075,-124.5106,-0.1177998,16.52839,-19.93857,0.8119082,46.11986,143.7865,0,0,0,61.24131,60.20259,-7.558726,-0.1693436,-64.07005,-85.98434,0.001067912,-0.1257102,0.09433498,0,0.3,0,0,0,0,
6.38225E+17,20.56785,63.09777,57.94791,54.20764,26.34366,-117.6255,-0.1177998,16.52839,-19.93857,0.8119082,46.11986,143.7865,0,0,0,60.90409,71.50134,-6.040773,-0.1693436,-64.07005,-85.98434,0.001067912,-0.1257102,0.09433498,0,0.3,0,0,0,0,
6.38225E+17,20.00241,65.57586,62.08038,58.60235,23.4871,-101.5848,-0.1177998,16.52839,-19.93857,0.8119082,46.11986,143.7865,0,0,0,59.16516,82.32765,-5.816288,-0.1693436,-64.07005,-85.98434,0.001067912,-0.1257102,0.09433498,0,0.3,0,0,0,0,
6.38225E+17,19.34273,67.6799,62.96758,62.04487,20.4108,-85.10468,-0.1177998,16.52839,-19.93857,0.8119082,46.11986,143.7865,0,0,0,56.1167,86.10209,-8.488137,-0.1693436,-64.07005,-85.98434,0.001067912,-0.1257102,0.09433498,0,0.3,0,0,0,0,
6.38225E+17,19.20137,68.68517,62.92088,63.14355,18.87265,-77.26745,-0.1177998,16.52839,-19.93857,0.8119082,46.11986,143.7865,0,0,0,54.9915,86.87483,-10.44806,-0.1693436,-64.07005,-85.98434,0.001067912,-0.1257102,0.09433498,0,0.3,0,0,0,0,
6.38225E+17,19.06001,70.81258,62.92088,63.50977,15.72311,-57.418,-0.1177998,16.52839,-19.93857,0.8119082,46.11986,143.7865,0,0,0,53.0849,88.58857,-14.70321,-0.1693436,-64.07005,-85.98434,0.001067912,-0.1257102,0.09433498,0,0.3,0,0,0,0,
6.38225E+17,18.02337,72.56595,62.36055,62.26461,12.28059,-31.12299,-0.1177998,16.52839,-19.93857,0.8119082,46.11986,143.7865,0,0,0,48.9124,88.71233,-18.02179,-0.1693436,-64.07005,-85.98434,0.001067912,-0.1257102,0.09433498,0,0.3,0,0,0,0,
6.38225E+17,16.96317,73.6881,60.72623,59.84751,8.838067,-7.171815,-0.1177998,16.52839,-19.93857,0.8119082,46.11986,143.7865,0,0,0,44.86458,86.12637,-21.26651,-0.1693436,-64.07005,-85.98434,0.001067912,-0.1257102,0.09433498,0,0.3,0,0,0,0,
6.38225E+17,16.30349,73.92188,59.72231,58.01638,7.153428,3.96145,-0.1177998,16.52839,-19.93857,0.8119082,46.11986,143.7865,0,0,0,42.69577,84.25008,-22.37489,-0.1693436,-64.07005,-85.98434,0.001067912,-0.1257102,0.09433498,0,0.3,0,0,0,0,
6.38225E+17,14.32446,73.73485,57.10741,53.32869,4.370111,23.44467,-0.1177998,16.52839,-19.93857,0.8119082,46.11986,143.7865,0,0,0,36.94408,78.94495,-23.67066,-0.1693436,-64.07005,-85.98434,0.001067912,-0.1257102,0.09433498,0,0.3,0,0,0,0,
6.38225E+17,11.0025,73.1504,53.90884,46.59014,2.685472,41.68271,-0.1177998,16.52839,-19.93857,0.8119082,46.11986,143.7865,0,0,0,27.94271,72.42242,-24.63073,-0.1693436,-64.07005,-85.98434,0.001067912,-0.1257102,0.09433498,0,0.3,0,0,0,0,
6.38225E+17,6.596789,72.21527,51.92432,36.6288,1.806531,57.13744,-0.1177998,16.52839,-19.93857,0.8119082,46.11986,143.7865,0,0,0,16.73862,68.09013,-23.61134,-0.1693436,-64.07005,-85.98434,0.001067912,-0.1257102,0.09433498,0,0.3,0,0,0,0,
6.38225E+17,4.735552,71.77108,51.52742,32.08759,1.879776,61.97163,-0.1177998,16.52839,-19.93857,0.8119082,46.11986,143.7865,0,0,0,12.06274,67.04536,-22.73449,-0.1693436,-64.07005,-85.98434,0.001067912,-0.1257102,0.09433498,0,0.3,0,0,0,0,
6.38225E+17,0.8952785,70.7892,50.94373,21.61354,2.392492,68.85667,-0.1177998,16.52839,-19.93857,0.8119082,46.11986,143.7865,0,0,0,2.303552,65.25272,-20.93994,-0.1693436,-64.07005,-85.98434,0.001067912,-0.1257102,0.09433498,0,0.3,0,0,0,0,
6.38225E+17,-3.510434,69.80731,50.3834,10.91974,3.63766,72.22594,-0.1177998,16.52839,-19.93857,0.8119082,46.11986,143.7865,0,0,0,-9.108183,63.47367,-19.87626,-0.1693436,-64.07005,-85.98434,0.001067912,-0.1257102,0.09433498,0,0.3,0,0,0,0,
6.38225E+17,-6.24339,69.19948,50.36005,4.693902,4.589847,73.10489,-0.1177998,16.52839,-19.93857,0.8119082,46.11986,143.7865,0,0,0,-16.31754,62.93647,-19.19663,-0.1693436,-64.07005,-85.98434,0.001067912,-0.1257102,0.09433498,0,0.3,0,0,0,0,
6.38225E+17,-11.2381,67.8903,51.17721,-8.563474,7.226673,72.51893,-0.1177998,16.52839,-19.93857,0.8119082,46.11986,143.7865,0,0,0,-30.0285,63.29514,-17.22252,-0.1693436,-64.07005,-85.98434,0.001067912,-0.1257102,0.09433498,0,0.3,0,0,0,0,
6.38225E+17,-15.66737,66.44086,52.46131,-22.84628,10.59595,69.14965,-0.1177998,16.52839,-19.93857,0.8119082,46.11986,143.7865,0,0,0,-42.94862,64.33524,-15.22074,-0.1693436,-64.07005,-85.98434,0.001067912,-0.1257102,0.09433498,0,0.3,0,0,0,0,
6.38225E+17,-18.56525,65.22519,53.65202,-36.68962,14.47795,62.99706,-0.1177998,16.52839,-19.93857,0.8119082,46.11986,143.7865,0,0,0,-51.98743,65.39177,-13.56198,-0.1693436,-64.07005,-85.98434,0.001067912,-0.1257102,0.09433498,0,0.3,0,0,0,0,
6.38225E+17,-19.50765,64.71087,54.00222,-43.35493,16.38232,59.04182,-0.1177998,16.52839,-19.93857,0.8119082,46.11986,143.7865,0,0,0,-55.04906,65.54324,-12.96217,-0.1693436,-64.07005,-85.98434,0.001067912,-0.1257102,0.09433498,0,0.3,0,0,0,0,
6.38225E+17,-20.35581,64.31344,53.55863,-55.80661,20.63054,48.78749,-0.1177998,16.52839,-19.93857,0.8119082,46.11986,143.7865,0,0,0,-57.42141,64.31229,-13.5832,-0.1693436,-64.07005,-85.98434,0.001067912,-0.1257102,0.09433498,0,0.3,0,0,0,0,
6.38225E+17,-21.15685,64.10303,51.73754,-63.42411,23.56034,37.58098,-0.1177998,16.52839,-19.93857,0.8119082,46.11986,143.7865,0,0,0,-58.81056,60.73016,-16.38795,-0.1693436,-64.07005,-85.98434,0.001067912,-0.1257102,0.09433498,0,0.3,0,0,0,0,
6.38225E+17,-21.74584,63.79912,50.71026,-67.15961,24.95201,29.817,-0.1177998,16.52839,-19.93857,0.8119082,46.11986,143.7865,0,0,0,-60.05028,58.55564,-17.80106,-0.1693436,-64.07005,-85.98434,0.001067912,-0.1257102,0.09433498,0,0.3,0,0,0,0,
6.38225E+17,-22.26416,62.77048,47.53503,-74.7771,27.51558,10.91974,-0.1177998,16.52839,-19.93857,0.8119082,46.11986,143.7865,0,0,0,-60.38779,51.89243,-20.84662,-0.1693436,-64.07005,-85.98434,0.001067912,-0.1257102,0.09433498,0,0.3,0,0,0,0,
6.38225E+17,-22.26416,60.59631,43.09905,-80.124,29.41996,-10.90732,-0.1177998,16.52839,-19.93857,0.8119082,46.11986,143.7865,0,0,0,-59.32555,42.15349,-23.44125,-0.1693436,-64.07005,-85.98434,0.001067912,-0.1257102,0.09433498,0,0.3,0,0,0,0,
6.38225E+17,-22.19348,57.04282,39.87713,-84.22573,30.88486,-33.10061,-0.1177998,16.52839,-19.93857,0.8119082,46.11986,143.7865,0,0,0,-59.6975,32.90535,-22.01817,-0.1693436,-64.07005,-85.98434,0.001067912,-0.1257102,0.09433498,0,0.3,0,0,0,0,
6.38225E+17,-21.93432,52.53082,37.72918,-89.71912,32.27652,-58.15046,-0.1177998,16.52839,-19.93857,0.8119082,46.11986,143.7865,0,0,0,-60.78386,23.71921,-17.40676,-0.1693436,-64.07005,-85.98434,0.001067912,-0.1257102,0.09433498,0,0.3,0,0,0,0,
6.38225E+17,-21.8872,49.79557,36.46843,-93.23489,33.08222,-72.43327,-0.1177998,16.52839,-19.93857,0.8119082,46.11986,143.7865,0,0,0,-61.63561,17.95755,-14.92761,-0.1693436,-64.07005,-85.98434,0.001067912,-0.1257102,0.09433498,0,0.3,0,0,0,0,
6.38225E+17,-21.69872,44.34845,33.03638,-100.8524,34.98659,-101.5116,-0.1177998,16.52839,-19.93857,0.8119082,46.11986,143.7865,0,0,0,-62.13522,4.773769,-12.20097,-0.1693436,-64.07005,-85.98434,0.001067912,-0.1257102,0.09433498,0,0.3,0,0,0,0,
6.38225E+17,-20.85056,39.34552,28.67044,-106.9317,36.96421,-127.5136,-0.1177998,16.52839,-19.93857,0.8119082,46.11986,143.7865,0,0,0,-59.47689,-9.107173,-12.19127,-0.1693436,-64.07005,-85.98434,0.001067912,-0.1257102,0.09433498,0,0.3,0,0,0,0,
6.38225E+17,-20.14377,36.84405,26.19563,-109.1291,38.06289,-138.9399,-0.1177998,16.52839,-19.93857,0.8119082,46.11986,143.7865,0,0,0,-57.02254,-16.34203,-12.89662,-0.1693436,-64.07005,-85.98434,0.001067912,-0.1257102,0.09433498,0,0.3,0,0,0,0,
6.38225E+17,-17.83489,32.93989,21.17597,-111.1067,40.69971,-141.7964,-0.1177998,16.52839,-19.93857,0.8119082,46.11986,143.7865,0,0,0,-49.02953,-28.48535,-15.95977,-0.1693436,-64.07005,-85.98434,0.001067912,-0.1257102,0.09433498,0,0.3,0,0,0,0,
6.38225E+17,-15.03126,30.62544,13.33129,-108.4699,44.14224,-141.8697,-0.1177998,16.52839,-19.93857,0.8119082,46.11986,143.7865,0,0,0,-37.73426,-38.47499,-27.83049,-0.1693436,-64.07005,-85.98434,0.001067912,-0.1257102,0.09433498,0,0.3,0,0,0,0,
6.38225E+17,-13.7119,30.27477,9.105433,-105.1739,45.68039,-141.8697,-0.1177998,16.52839,-19.93857,0.8119082,46.11986,143.7865,0,0,0,-32.30054,-41.09157,-35.96733,-0.1693436,-64.07005,-85.98434,0.001067912,-0.1257102,0.09433498,0,0.3,0,0,0,0,
6.38225E+17,-9.659584,30.08775,3.338659,-95.94496,48.82993,-141.9429,-0.1177998,16.52839,-19.93857,0.8119082,46.11986,143.7865,0,0,0,-20.66354,-42.92189,-46.94776,-0.1693436,-64.07005,-85.98434,0.001067912,-0.1257102,0.09433498,0,0.3,0,0,0,0,
6.38225E+17,-7.350708,30.4618,1.70435,-87.88799,51.17377,-141.9429,-0.1177998,16.52839,-19.93857,0.8119082,46.11986,143.7865,0,0,0,-15.21356,-42.33739,-50.41778,-0.1693436,-64.07005,-85.98434,0.001067912,-0.1257102,0.09433498,0,0.3,0,0,0,0,
6.38225E+17,-6.14915,30.97612,1.167363,-83.20029,52.3457,-142.0162,-0.1177998,16.52839,-19.93857,0.8119082,46.11986,143.7865,0,0,0,-12.5379,-41.33965,-51.97484,-0.1693436,-64.07005,-85.98434,0.001067912,-0.1257102,0.09433498,0,0.3,0,0,0,0,
6.38225E+17,-5.136071,31.93463,0.9338906,-80.19725,53.00491,-142.0162,-0.1177998,16.52839,-19.93857,0.8119082,46.11986,143.7865,0,0,0,-10.3255,-39.44663,-53.4719,-0.1693436,-64.07005,-85.98434,0.001067912,-0.1257102,0.09433498,0,0.3,0,0,0,0,
6.38225E+17,-4.099433,32.54246,0.8405016,-78.87884,53.29788,-142.0162,-0.1177998,16.52839,-19.93857,0.8119082,46.11986,143.7865,0,0,0,-8.17598,-38.25343,-54.27338,-0.1693436,-64.07005,-85.98434,0.001067912,-0.1257102,0.09433498,0,0.3,0,0,0,0,
6.38225E+17,-3.204155,32.86975,0.8405016,-78.21963,53.44437,-142.0162,-0.1177998,16.52839,-19.93857,0.8119082,46.11986,143.7865,0,0,0,-6.369537,-37.61245,-54.57051,-0.1693436,-64.07005,-85.98434,0.001067912,-0.1257102,0.09433498,0,0.3,0,0,0,0,
6.38225E+17,-0.8952785,33.50097,0.7704598,-76.53499,53.59086,-142.0162,-0.1177998,16.52839,-19.93857,0.8119082,46.11986,143.7865,0,0,0,-1.765468,-36.38527,-55.37325,-0.1693436,-64.07005,-85.98434,0.001067912,-0.1257102,0.09433498,0,0.3,0,0,0,0,
6.38225E+17,1.743437,33.87502,0.7237652,-73.89817,53.66411,-142.0162,-0.1177998,16.52839,-19.93857,0.8119082,46.11986,143.7865,0,0,0,3.41963,-35.66232,-56.00303,-0.1693436,-64.07005,-85.98434,0.001067912,-0.1257102,0.09433498,0,0.3,0,0,0,0,
6.38225E+17,2.803635,33.87502,0.7237652,-72.72624,53.66411,-142.0162,-0.1177998,16.52839,-19.93857,0.8119082,46.11986,143.7865,0,0,0,5.497788,-35.66232,-56.08553,-0.1693436,-64.07005,-85.98434,0.001067912,-0.1257102,0.09433498,0,0.3,0,0,0,0,
6.38225E+17,4.711992,33.50097,0.6070289,-71.11485,53.66411,-141.6499,-0.1177998,16.52839,-19.93857,0.8119082,46.11986,143.7865,0,0,0,9.250603,-36.38985,-56.12039,-0.1693436,-64.07005,-85.98434,0.001067912,-0.1257102,0.09433498,0,0.3,0,0,0,0,
6.38225E+17,5.91355,32.2853,-0.3268617,-70.74863,53.22464,-139.7456,-0.1177998,16.52839,-19.93857,0.8119082,46.11986,143.7865,0,0,0,11.53635,-38.77087,-56.97266,-0.1693436,-64.07005,-85.98434,0.001067912,-0.1257102,0.09433498,0,0.3,0,0,0,0,
6.38225E+17,6.14915,31.11639,-1.214058,-70.96836,53.00491,-137.2552,-0.1177998,16.52839,-19.93857,0.8119082,46.11986,143.7865,0,0,0,11.92621,-41.05769,-57.65247,-0.1693436,-64.07005,-85.98434,0.001067912,-0.1257102,0.09433498,0,0.3,0,0,0,0,
6.38225E+17,6.07847,27.3525,-2.73163,-73.3122,51.83298,-131.0294,-0.1177998,16.52839,-19.93857,0.8119082,46.11986,143.7865,0,0,0,11.86882,-48.57901,-56.89433,-0.1693436,-64.07005,-85.98434,0.001067912,-0.1257102,0.09433498,0,0.3,0,0,0,0,
6.38225E+17,5.96067,24.10293,-2.918408,-76.09552,50.51457,-130.2237,-0.1177998,16.52839,-19.93857,0.8119082,46.11986,143.7865,0,0,0,11.93544,-55.36996,-54.0371,-0.1693436,-64.07005,-85.98434,0.001067912,-0.1257102,0.09433498,0,0.3,0,0,0,0,
6.38225E+17,5.772191,19.56756,-2.918408,-79.61128,48.90318,-130.2969,-0.1177998,16.52839,-19.93857,0.8119082,46.11986,143.7865,0,0,0,11.95409,-65.16573,-50.09335,-0.1693436,-64.07005,-85.98434,0.001067912,-0.1257102,0.09433498,0,0.3,0,0,0,0,
6.38225E+17,5.442351,17.1596,-2.895061,-81.22268,48.09748,-130.3702,-0.1177998,16.52839,-19.93857,0.8119082,46.11986,143.7865,0,0,0,11.4457,-70.48697,-48.21495,-0.1693436,-64.07005,-85.98434,0.001067912,-0.1257102,0.09433498,0,0.3,0,0,0,0,
6.38225E+17,5.065392,12.48396,-1.867781,-84.15249,46.55933,-131.4689,-0.1177998,16.52839,-19.93857,0.8119082,46.11986,143.7865,0,0,0,11.1117,-81.10338,-42.99065,-0.1693436,-64.07005,-85.98434,0.001067912,-0.1257102,0.09433498,0,0.3,0,0,0,0,
6.38225E+17,5.112512,7.621294,0.02334727,-87.81474,45.82688,-135.1311,-0.1177998,16.52839,-19.93857,0.8119082,46.11986,143.7865,0,0,0,11.78293,-92.31448,-36.64968,-0.1693436,-64.07005,-85.98434,0.001067912,-0.1257102,0.09433498,0,0.3,0,0,0,0,
6.38225E+17,4.853352,3.085923,1.400836,-91.40376,45.90012,-137.9877,-0.1177998,16.52839,-19.93857,0.8119082,46.11986,143.7865,0,0,0,11.54162,-102.7814,-32.42251,-0.1693436,-64.07005,-85.98434,0.001067912,-0.1257102,0.09433498,0,0.3,0,0,0,0,
6.38225E+17,4.688432,0.8883717,1.844434,-92.72218,46.1931,-139.4526,-0.1177998,16.52839,-19.93857,0.8119082,46.11986,143.7865,0,0,0,11.24917,-107.8634,-31.18455,-0.1693436,-64.07005,-85.98434,0.001067912,-0.1257102,0.09433498,0,0.3,0,0,0,0,
6.38225E+17,4.264353,-1.145532,2.171296,-94.18707,46.63258,-141.5767,-0.1177998,16.52839,-19.93857,0.8119082,46.11986,143.7865,0,0,0,10.28938,-112.5702,-30.35748,-0.1693436,-64.07005,-85.98434,0.001067912,-0.1257102,0.09433498,0,0.3,0,0,0,0,
6.38225E+17,2.921435,-0.9585064,2.47481,-95.79847,45.5339,-141.8697,-0.1177998,16.52839,-19.93857,0.8119082,46.11986,143.7865,0,0,0,7.088911,-112.1063,-29.44135,-0.1693436,-64.07005,-85.98434,0.001067912,-0.1257102,0.09433498,0,0.3,0,0,0,0,
6.38225E+17,1.719877,-1.052019,2.451463,-97.92258,43.55628,-141.9429,-0.1177998,16.52839,-19.93857,0.8119082,46.11986,143.7865,0,0,0,4.172748,-112.3263,-29.38132,-0.1693436,-64.07005,-85.98434,0.001067912,-0.1257102,0.09433498,0,0.3,0,0,0,0,
6.38225E+17,1.083758,-1.052019,2.404768,-98.87477,42.4576,-141.9429,-0.1177998,16.52839,-19.93857,0.8119082,46.11986,143.7865,0,0,0,2.627587,-112.3309,-29.45212,-0.1693436,-64.07005,-85.98434,0.001067912,-0.1257102,0.09433498,0,0.3,0,0,0,0,
6.38225E+17,0.1884797,-1.052019,2.311379,-100.3397,39.89402,-141.9429,-0.1177998,16.52839,-19.93857,0.8119082,46.11986,143.7865,0,0,0,0.4562837,-112.3398,-29.64519,-0.1693436,-64.07005,-85.98434,0.001067912,-0.1257102,0.09433498,0,0.3,0,0,0,0,
6.38225E+17,0.3533994,-1.005263,2.007865,-101.2186,37.62342,-142.0162,-0.1177998,16.52839,-19.93857,0.8119082,46.11986,143.7865,0,0,0,0.8511863,-112.2577,-30.35101,-0.1693436,-64.07005,-85.98434,0.001067912,-0.1257102,0.09433498,0,0.3,0,0,0,0,
6.38225E+17,1.013078,-1.005263,1.681003,-101.5116,36.89096,-142.0162,-0.1177998,16.52839,-19.93857,0.8119082,46.11986,143.7865,0,0,0,2.426512,-112.2821,-31.13018,-0.1693436,-64.07005,-85.98434,0.001067912,-0.1257102,0.09433498,0,0.3,0,0,0,0,
6.38225E+17,3.274835,-0.8182371,1.2841,-100.9256,37.33044,-142.0162,-0.1177998,16.52839,-19.93857,0.8119082,46.11986,143.7865,0,0,0,7.787624,-111.8708,-32.24786,-0.1693436,-64.07005,-85.98434,0.001067912,-0.1257102,0.09433498,0,0.3,0,0,0,0,
6.38225E+17,6.19627,0.04675641,1.237405,-98.94801,40.26024,-142.0162,-0.1177998,16.52839,-19.93857,0.8119082,46.11986,143.7865,0,0,0,14.7039,-109.8601,-32.91619,-0.1693436,-64.07005,-85.98434,0.001067912,-0.1257102,0.09433498,0,0.3,0,0,0,0,
6.38225E+17,6.47899,4.441859,0.1167363,-96.1647,45.46065,-142.0162,-0.1177998,16.52839,-19.93857,0.8119082,46.11986,143.7865,0,0,0,15.03252,-99.67211,-35.97968,-0.1693436,-64.07005,-85.98434,0.001067912,-0.1257102,0.09433498,0,0.3,0,0,0,0,
6.38225E+17,5.86643,8.135615,-1.144016,-94.26032,47.29178,-142.0162,-0.1177998,16.52839,-19.93857,0.8119082,46.11986,143.7865,0,0,0,13.22037,-91.10218,-39.68185,-0.1693436,-64.07005,-85.98434,0.001067912,-0.1257102,0.09433498,0,0.3,0,0,0,0,
6.38225E+17,5.677951,10.54357,-2.007865,-93.16164,48.02423,-142.0162,-0.1177998,16.52839,-19.93857,0.8119082,46.11986,143.7865,0,0,0,12.50822,-85.51732,-42.5439,-0.1693436,-64.07005,-85.98434,0.001067912,-0.1257102,0.09433498,0,0.3,0,0,0,0,
6.38225E+17,5.206751,15.07894,-3.432048,-90.81779,49.04966,-142.0162,-0.1177998,16.52839,-19.93857,0.8119082,46.11986,143.7865,0,0,0,10.96037,-75.06989,-48.07278,-0.1693436,-64.07005,-85.98434,0.001067912,-0.1257102,0.09433498,0,0.3,0,0,0,0,
