zeyangz2/DNN_classification_different_people_hand/data/srikar_right_11.csv
Timestamp,Therapist joint angle 0,Therapist joint angle 1,Therapist joint angle 2,Therapist joint angle 3,Therapist joint angle 4,Therapist joint angle 5,Patient joint angle 0,Patient joint angle 1,Patient joint angle 2,Patient joint angle 3,Patient joint angle 4,Patient joint angle 5,Virtual joint angle 0,Virtual joint angle 1,Virtual joint angle 2,Therapist position x,Therapist position y,Therapist position z,Patient position x,Patient position y,Patient position z,Virtual position x,Virtual position y,Virtual position z,Assistive Force, Obstacle Force Magnitude, Therapist Constant Force, Patient Constant Force, Recovery Factor, Assistance Level,label
6.38224E+17,0,0,0,0,0,0,0,0,0,0,0,0,0,0,0,0,0,0,0,0,0,0,0,0,0,0.3,0,0,0,0,2
6.38224E+17,-0.4240793,-0.9117499,-8.381668,-26.14231,-62.64922,-75.14333,-0.612559,-1.262423,-9.175476,13.70306,-0.9767859,39.19238,0,0,0,-0.8429964,-110.6976,-54.45797,-1.197964,-111.2317,-56.30258,0.001067912,-0.1257102,0.09433498,0,0.3,0,0,0.01574603,0,
6.38224E+17,-0.4240793,-0.9117499,-8.381668,-26.14231,-62.64922,-75.14333,-0.612559,-1.262423,-9.175476,13.70306,-0.9767859,39.19238,0,0,0,-0.8429964,-110.6976,-54.45797,-1.197964,-111.2317,-56.30258,0.001067912,-0.1257102,0.09433498,0,0.3,0,0,0.01574597,0,
6.38224E+17,-0.4240793,-0.9117499,-8.381668,-26.14231,-62.72246,-75.14333,-0.612559,-1.262423,-9.175476,13.70306,-0.9767859,39.19238,0,0,0,-0.8429964,-110.6976,-54.45797,-1.197964,-111.2317,-56.30258,0.001067912,-0.1257102,0.09433498,0,0.3,0,0,0.01574603,0,
6.38224E+17,-0.4240793,-0.9117499,-8.381668,-26.14231,-62.64922,-75.14333,-0.612559,-1.262423,-9.175476,13.70306,-0.9767859,39.19238,0,0,0,-0.8429964,-110.6976,-54.45797,-1.197964,-111.2317,-56.30258,0.001067912,-0.1257102,0.09433498,0,0.3,0,0,0.01574609,0,
6.38224E+17,-0.4240793,-0.9117499,-8.381668,-26.14231,-62.64922,-75.14333,-0.612559,-1.262423,-9.175476,13.70306,-0.9767859,39.19238,0,0,0,-0.8429964,-110.6976,-54.45797,-1.197964,-111.2317,-56.30258,0.001067912,-0.1257102,0.09433498,0,0.3,0,0,0.01574609,0,
6.38224E+17,-0.4240793,-0.9117499,-8.381668,-26.14231,-62.64922,-75.14333,-0.612559,-1.262423,-9.175476,13.70306,-0.9767859,39.19238,0,0,0,-0.8429964,-110.6976,-54.45797,-1.197964,-111.2317,-56.30258,0.001067912,-0.1257102,0.09433498,0,0.3,0,0,0.01574603,0,
6.38224E+17,-0.4240793,-0.9117499,-8.381668,-26.14231,-62.64922,-75.14333,-0.612559,-1.262423,-9.175476,13.70306,-0.9767859,39.26562,0,0,0,-0.8429964,-110.6976,-54.45797,-1.197964,-111.2317,-56.30258,0.001067912,-0.1257102,0.09433498,0,0.3,0,0,0.01574609,0,
6.38224E+17,-0.4240793,-0.9117499,-8.381668,-26.21556,-62.64922,-75.14333,-0.612559,-1.262423,-9.175476,13.70306,-0.9767859,39.26562,0,0,0,-0.8429964,-110.6976,-54.45797,-1.197964,-111.2317,-56.30258,0.001067912,-0.1257102,0.09433498,0,0.3,0,0,0.01574609,0,
6.38224E+17,-0.4240793,-0.9117499,-8.381668,-26.14231,-62.64922,-75.14333,-0.612559,-1.262423,-9.175476,13.70306,-0.9767859,39.19238,0,0,0,-0.8429964,-110.6976,-54.45797,-1.197964,-111.2317,-56.30258,0.001067912,-0.1257102,0.09433498,0,0.3,0,0,0.01574609,0,
6.38224E+17,-0.4240793,-0.9117499,-8.381668,-26.14231,-62.64922,-75.14333,-0.612559,-1.262423,-9.175476,13.70306,-0.9767859,39.26562,0,0,0,-0.8429964,-110.6976,-54.45797,-1.197964,-111.2317,-56.30258,0.001067912,-0.1257102,0.09433498,0,0.3,0,0,0.01574603,0,
6.38224E+17,-0.4240793,-0.9117499,-8.381668,-26.14231,-62.64922,-75.14333,-0.612559,-1.262423,-9.175476,13.70306,-0.9767859,39.26562,0,0,0,-0.8429964,-110.6976,-54.45797,-1.197964,-111.2317,-56.30258,0.001067912,-0.1257102,0.09433498,0,0.3,0,0,0.01574603,0,
6.38224E+17,-0.4240793,-0.9117499,-8.381668,-26.14231,-62.64922,-75.14333,-0.612559,-1.262423,-9.175476,13.70306,-0.9767859,39.19238,0,0,0,-0.8429964,-110.6976,-54.45797,-1.197964,-111.2317,-56.30258,0.001067912,-0.1257102,0.09433498,0,0.3,0,0,0.01574603,0,
6.38224E+17,-0.4240793,-0.9117499,-8.381668,-26.14231,-62.64922,-75.14333,-0.612559,-1.262423,-9.175476,13.70306,-0.9767859,39.19238,0,0,0,-0.8429964,-110.6976,-54.45797,-1.197964,-111.2317,-56.30258,0.001067912,-0.1257102,0.09433498,0,0.3,0,0,0.01574609,0,
6.38224E+17,-0.4240793,-0.9117499,-8.381668,-26.21556,-62.64922,-75.14333,-0.612559,-1.262423,-9.175476,13.70306,-0.9767859,39.19238,0,0,0,-0.8429964,-110.6976,-54.45797,-1.197964,-111.2317,-56.30258,0.001067912,-0.1257102,0.09433498,0,0.3,0,0,0.01574609,0,
6.38224E+17,-0.4240793,-0.9117499,-8.381668,-26.14231,-62.64922,-75.14333,-0.612559,-1.262423,-9.175476,13.70306,-0.9767859,39.19238,0,0,0,-0.8429964,-110.6976,-54.45797,-1.197964,-111.2317,-56.30258,0.001067912,-0.1257102,0.09433498,0,0.3,0,0,0.01574609,0,
6.38224E+17,-0.4240793,-0.9117499,-8.381668,-26.14231,-62.64922,-75.14333,-0.612559,-1.262423,-9.175476,13.70306,-0.9767859,39.19238,0,0,0,-0.8429964,-110.6976,-54.45797,-1.197964,-111.2317,-56.30258,0.001067912,-0.1257102,0.09433498,0,0.3,0,0,0.01574609,0,
6.38224E+17,-0.4240793,-0.9117499,-8.381668,-26.14231,-62.57597,-75.14333,-0.612559,-1.262423,-9.175476,13.70306,-0.9767859,39.19238,0,0,0,-0.8429964,-110.6976,-54.45797,-1.197964,-111.2317,-56.30258,0.001067912,-0.1257102,0.09433498,0,0.3,0,0,0.01574609,0,
6.38224E+17,-0.4240793,-0.9117499,-8.381668,-26.21556,-62.64922,-75.14333,-0.612559,-1.262423,-9.175476,13.70306,-0.9767859,39.19238,0,0,0,-0.8429964,-110.6976,-54.45797,-1.197964,-111.2317,-56.30258,0.001067912,-0.1257102,0.09433498,0,0.3,0,0,0.01574609,0,
6.38224E+17,-0.4240793,-0.9117499,-8.381668,-26.14231,-62.64922,-75.14333,-0.612559,-1.262423,-9.175476,13.70306,-0.9767859,39.19238,0,0,0,-0.8429964,-110.6976,-54.45797,-1.197964,-111.2317,-56.30258,0.001067912,-0.1257102,0.09433498,0,0.3,0,0,0.01574609,0,
6.38224E+17,-0.4240793,-0.9117499,-8.381668,-26.14231,-62.64922,-75.21658,-0.612559,-1.262423,-9.175476,13.70306,-0.9767859,39.19238,0,0,0,-0.8429964,-110.6976,-54.45797,-1.197964,-111.2317,-56.30258,0.001067912,-0.1257102,0.09433498,0,0.3,0,0,0.01574603,0,
6.38224E+17,-0.4240793,-0.9117499,-8.381668,-26.14231,-62.64922,-75.14333,-0.612559,-1.262423,-9.175476,13.70306,-0.9767859,39.19238,0,0,0,-0.8429964,-110.6976,-54.45797,-1.197964,-111.2317,-56.30258,0.001067912,-0.1257102,0.09433498,0,0.3,0,0,0.01574597,0,
6.38224E+17,-0.4240793,-0.9117499,-8.381668,-26.14231,-62.64922,-75.14333,-0.612559,-1.262423,-9.175476,13.70306,-0.9767859,39.19238,0,0,0,-0.8429964,-110.6976,-54.45797,-1.197964,-111.2317,-56.30258,0.001067912,-0.1257102,0.09433498,0,0.3,0,0,0.01574591,0,
6.38224E+17,-0.4240793,-0.9117499,-8.381668,-26.14231,-62.64922,-75.14333,-0.612559,-1.262423,-9.175476,13.70306,-0.9767859,39.19238,0,0,0,-0.8429964,-110.6976,-54.45797,-1.197964,-111.2317,-56.30258,0.001067912,-0.1257102,0.09433498,0,0.3,0,0,0.01574579,0,
6.38224E+17,-0.4240793,-0.9117499,-8.381668,-26.14231,-62.64922,-75.14333,-0.612559,-1.262423,-9.175476,13.70306,-0.9767859,39.19238,0,0,0,-0.8429964,-110.6976,-54.45797,-1.197964,-111.2317,-56.30258,0.001067912,-0.1257102,0.09433498,0,0.3,0,0,0.01574573,0,
6.38224E+17,-0.4240793,-0.9117499,-8.381668,-26.14231,-62.64922,-75.14333,-0.612559,-1.262423,-9.175476,13.70306,-0.9767859,39.26562,0,0,0,-0.8429964,-110.6976,-54.45797,-1.197964,-111.2317,-56.30258,0.001067912,-0.1257102,0.09433498,0,0.3,0,0,0.01574567,0,
6.38224E+17,-0.4240793,-0.9117499,-8.381668,-26.14231,-62.64922,-75.14333,-0.612559,-1.262423,-9.175476,13.70306,-0.9767859,39.19238,0,0,0,-0.8429964,-110.6976,-54.45797,-1.197964,-111.2317,-56.30258,0.001067912,-0.1257102,0.09433498,0,0.3,0,0,0.01574561,0,
6.38224E+17,-0.3769594,-0.9351282,-8.521752,-26.14231,-62.64922,-75.14333,-0.612559,-1.262423,-9.175476,13.70306,-0.9767859,39.19238,0,0,0,-0.7472041,-110.7041,-54.78067,-1.197964,-111.2317,-56.30258,0.001067912,-0.1257102,0.09433498,0,0.3,0,0,0.01881629,0,
6.38224E+17,0.04711992,-0.9585064,-8.96535,-26.36205,-62.64922,-73.89817,-0.612559,-1.262423,-9.175476,13.70306,-0.9767859,39.19238,0,0,0,0.09256124,-110.6016,-55.79958,-1.197964,-111.2317,-56.30258,0.001067912,-0.1257102,0.09433498,0,0.3,0,0,0.02337512,0,
6.38224E+17,1.295798,-0.9351282,-9.128781,-36.25014,-61.4773,-63.13113,-0.612559,-1.262423,-9.175476,13.70306,-0.9767859,39.19238,0,0,0,2.536743,-110.4873,-56.20296,-1.197964,-111.2317,-56.30258,0.001067912,-0.1257102,0.09433498,0,0.3,0,0,0,0,
6.38224E+17,1.531397,-0.9351282,-9.128781,-42.3295,-60.45186,-56.02634,-0.612559,-1.262423,-9.175476,13.70306,-0.9767859,39.26562,0,0,0,2.997868,-110.4873,-56.21434,-1.197964,-111.2317,-56.30258,0.001067912,-0.1257102,0.09433498,0,0.3,0,0,0,0,
6.38224E+17,1.602077,-0.9351282,-9.128781,-51.92461,-57.52206,-44.45361,-0.612559,-1.262423,-9.175476,13.70306,-0.9767859,39.19238,0,0,0,3.136195,-110.4873,-56.21813,-1.197964,-111.2317,-56.30258,0.001067912,-0.1257102,0.09433498,0,0.3,0,0,0,0,
6.38224E+17,1.578517,-0.8649935,-9.035392,-56.02634,-54.66549,-40.13214,-0.612559,-1.262423,-9.175476,13.70306,-0.9767859,39.19238,0,0,0,3.09607,-110.3584,-55.99974,-1.197964,-111.2317,-56.30258,0.001067912,-0.1257102,0.09433498,0,0.3,0,0,0,0,
6.38224E+17,1.602077,-0.8883717,-9.082087,-56.02634,-53.49357,-40.7181,-0.612559,-1.262423,-9.175476,13.70306,-0.9767859,39.19238,0,0,0,3.139244,-110.3957,-56.10913,-1.197964,-111.2317,-56.30258,0.001067912,-0.1257102,0.09433498,0,0.3,0,0,0,0,
6.38224E+17,1.719877,-0.9351282,-10.08602,-55.80661,-47.92694,-47.38342,-0.612559,-1.262423,-9.175476,13.70306,-0.9767859,39.19238,0,0,0,3.300805,-110.1155,-58.42042,-1.197964,-111.2317,-56.30258,0.001067912,-0.1257102,0.09433498,0,0.3,0,0,0,0,
6.38224E+17,2.214636,-0.7948589,-10.80978,-55.22065,-42.28706,-54.19521,-0.612559,-1.262423,-9.175476,13.70306,-0.9767859,39.19238,0,0,0,4.186108,-109.4836,-60.10341,-1.197964,-111.2317,-56.30258,0.001067912,-0.1257102,0.09433498,0,0.3,0,0,0,0,
6.38224E+17,2.709396,-0.4675641,-10.94987,-54.48819,-38.47831,-58.80966,-0.612559,-1.262423,-9.175476,13.70306,-0.9767859,39.19238,0,0,0,5.10593,-108.6604,-60.45502,-1.197964,-111.2317,-56.30258,0.001067912,-0.1257102,0.09433498,0,0.3,0,0,0,0,
6.38224E+17,4.405713,0.3272949,-10.94987,-52.0711,-31.1538,-69.06399,-0.612559,-1.262423,-9.175476,13.62981,-0.9767859,39.26562,0,0,0,8.297773,-106.8105,-60.6512,-1.197964,-111.2317,-56.30258,0.001067912,-0.1257102,0.09433498,0,0.3,0,0,0,0,
6.38224E+17,7.209348,0.5376987,-10.78644,-46.94394,-24.63498,-78.95209,-0.612559,-1.262423,-9.175476,13.70306,-0.9767859,39.19238,0,0,0,13.60214,-106.3925,-60.81905,-1.197964,-111.2317,-56.30258,0.001067912,-0.1257102,0.09433498,0,0.3,0,0,0,0,
6.38224E+17,10.48418,0.5610769,-10.48292,-38.88697,-19.06834,-88.10773,-0.612559,-1.262423,-9.175476,13.70306,-0.9035407,39.26562,0,0,0,19.84893,-106.4685,-61.08952,-1.197964,-111.2317,-56.30258,0.001067912,-0.1257102,0.09433498,0,0.3,0,0,0,0,
6.38224E+17,13.26426,0.5610769,-10.45957,-28.77914,-13.6482,-96.89715,-0.612559,-1.262423,-9.175476,13.70306,-0.9767859,39.19238,0,0,0,25.04022,-106.4783,-62.12647,-1.197964,-111.2317,-56.30258,0.001067912,-0.1257102,0.09433498,0,0.3,0,0,0,0,
6.38224E+17,15.76161,0.6078333,-10.48292,-19.33051,-7.495606,-111.6194,-0.612559,-1.262423,-9.175476,13.70306,-0.9767859,39.19238,0,0,0,29.63013,-106.3596,-63.37093,-1.197964,-111.2317,-56.30258,0.001067912,-0.1257102,0.09433498,0,0.3,0,0,0,0,
6.38224E+17,17.05741,0.6545897,-10.45957,-15.08229,-3.906592,-119.8961,-0.612559,-1.262423,-9.175476,13.70306,-0.9767859,39.19238,0,0,0,32.01188,-106.2607,-64.0179,-1.197964,-111.2317,-56.30258,0.001067912,-0.1257102,0.09433498,0,0.3,0,0,0,0,
6.38224E+17,19.55477,1.028641,-9.362254,-7.24506,4.296866,-124.2176,-0.612559,-1.262423,-9.175476,13.70306,-0.9767859,39.19238,0,0,0,37.36533,-105.8298,-63.15326,-1.197964,-111.2317,-56.30258,0.001067912,-0.1257102,0.09433498,0,0.3,0,0,0,0,
6.38224E+17,21.46313,3.319705,-7.214305,-0.4332596,11.84112,-125.0233,-0.612559,-1.262423,-9.175476,13.70306,-0.9767859,39.19238,0,0,0,42.58372,-101.2224,-60.04056,-1.197964,-111.2317,-56.30258,0.001067912,-0.1257102,0.09433498,0,0.3,0,0,0,0,
6.38224E+17,22.14636,5.33023,-6.327109,2.350057,14.4047,-125.829,-0.612559,-1.262423,-9.175476,13.70306,-0.9767859,39.26562,0,0,0,44.51217,-96.80008,-58.98372,-1.197964,-111.2317,-56.30258,0.001067912,-0.1257102,0.09433498,0,0.3,0,0,0,0,
6.38224E+17,23.183,9.37466,-5.603344,6.305296,16.82179,-128.9053,-0.612559,-1.262423,-9.175476,13.70306,-0.9767859,39.19238,0,0,0,46.66893,-87.64149,-59.37395,-1.197964,-111.2317,-56.30258,0.001067912,-0.1257102,0.09433498,0,0.3,0,0,0,0,
6.38224E+17,24.57304,12.85801,-5.533302,8.282915,17.62749,-130.8096,-0.612559,-1.262423,-9.175476,13.70306,-0.9767859,39.26562,0,0,0,48.71634,-79.70349,-61.81187,-1.197964,-111.2317,-56.30258,0.001067912,-0.1257102,0.09433498,0,0.3,0,0,0,0,
6.38224E+17,25.44476,14.40097,-5.159746,8.649141,17.99371,-130.9561,-0.612559,-1.262423,-9.175476,13.70306,-0.9767859,39.26562,0,0,0,50.3399,-76.29465,-62.5478,-1.197964,-111.2317,-56.30258,0.001067912,-0.1257102,0.09433498,0,0.3,0,0,0,0,
6.38224E+17,27.02328,17.34663,-4.179161,7.843444,18.50643,-123.6316,-0.612559,-1.262423,-9.175476,13.70306,-0.9767859,39.19238,0,0,0,53.4169,-69.88689,-63.61864,-1.197964,-111.2317,-56.30258,0.001067912,-0.1257102,0.09433498,0,0.3,0,0,0,0,
6.38224E+17,28.71959,20.19877,-1.984518,5.79258,19.16564,-114.3295,-0.612559,-1.262423,-9.175476,13.70306,-0.9767859,39.19238,0,0,0,57.91806,-63.8772,-62.64632,-1.197964,-111.2317,-56.30258,0.001067912,-0.1257102,0.09433498,0,0.3,0,0,0,0,
6.38224E+17,32.44207,24.47698,0.6770707,3.448734,19.01915,-111.1067,-0.612559,-1.262423,-9.175476,13.70306,-0.9767859,39.26562,0,0,0,65.95145,-54.7401,-64.5956,-1.197964,-111.2317,-56.30258,0.001067912,-0.1257102,0.09433498,0,0.3,0,0,0,0,
6.38224E+17,34.98654,26.93169,2.194643,3.66847,18.65292,-113.5238,-0.612559,-1.262423,-9.175476,13.70306,-0.9767859,39.19238,0,0,0,71.09639,-49.50425,-66.76305,-1.197964,-111.2317,-56.30258,0.001067912,-0.1257102,0.09433498,0,0.3,0,0,0,0,
6.38224E+17,36.82422,28.61492,3.642174,4.400921,18.35994,-115.5747,-0.612559,-1.262423,-9.175476,13.70306,-0.9767859,39.19238,0,0,0,75.24,-45.86662,-67.8632,-1.197964,-111.2317,-56.30258,0.001067912,-0.1257102,0.09433498,0,0.3,0,0,0,0,
6.38224E+17,40.33466,32.02814,7.471125,6.744767,17.84722,-118.5777,-0.612559,-1.262423,-9.175476,13.70306,-0.9767859,39.19238,0,0,0,84.39604,-38.14766,-68.95554,-1.197964,-111.2317,-56.30258,0.001067912,-0.1257102,0.09433498,0,0.3,0,0,0,0,
6.38224E+17,43.09117,36.04919,11.93045,9.894309,17.26126,-121.8737,-0.612559,-1.262423,-9.175476,13.70306,-0.9767859,39.19238,0,0,0,92.48757,-28.64579,-69.48508,-1.197964,-111.2317,-56.30258,0.001067912,-0.1257102,0.09433498,0,0.3,0,0,0,0,
6.38224E+17,44.57545,41.42618,16.88007,13.84955,16.45556,-122.533,-0.612559,-1.262423,-9.175476,13.70306,-0.9767859,39.19238,0,0,0,97.35175,-16.02294,-69.54472,-1.197964,-111.2317,-56.30258,0.001067912,-0.1257102,0.09433498,0,0.3,0,0,0,0,
6.38224E+17,44.64613,44.93291,19.51831,15.60743,15.79636,-121.8005,-0.612559,-1.262423,-9.175476,13.70306,-0.9767859,39.19238,0,0,0,97.64825,-8.1548,-69.48803,-1.197964,-111.2317,-56.30258,0.001067912,-0.1257102,0.09433498,0,0.3,0,0,0,0,
6.38224E+17,44.01001,52.13339,25.35513,17.95128,13.81874,-117.0396,-0.612559,-1.262423,-9.175476,13.70306,-0.9767859,39.19238,0,0,0,96.54562,8.117569,-68.40903,-1.197964,-111.2317,-56.30258,0.001067912,-0.1257102,0.09433498,0,0.3,0,0,0,0,
6.38224E+17,43.49169,59.75469,32.61613,20.22188,10.08323,-113.597,-0.612559,-1.262423,-9.175476,13.70306,-0.9767859,39.19238,0,0,0,95.69801,26.22716,-67.47604,-1.197964,-111.2317,-56.30258,0.001067912,-0.1257102,0.09433498,0,0.3,0,0,0,0,
6.38224E+17,42.73777,65.62261,39.05998,22.56572,5.688524,-113.3773,-0.612559,-1.262423,-9.175476,13.70306,-0.9767859,39.19238,0,0,0,94.37756,41.26689,-66.20921,-1.197964,-111.2317,-56.30258,0.001067912,-0.1257102,0.09433498,0,0.3,0,0,0,0,
6.38224E+17,41.37129,70.22812,44.49989,24.83632,0.6346079,-115.7944,-0.612559,-1.262423,-9.175476,13.70306,-0.9767859,39.19238,0,0,0,91.58932,53.72648,-64.35732,-1.197964,-111.2317,-56.30258,0.001067912,-0.1257102,0.09433498,0,0.3,0,0,0,0,
6.38224E+17,38.26138,75.81551,50.57018,27.91262,-8.228058,-123.4119,-0.612559,-1.262423,-9.175476,13.70306,-0.9767859,39.19238,0,0,0,84.01777,67.93945,-61.81748,-1.197964,-111.2317,-56.30258,0.001067912,-0.1257102,0.09433498,0,0.3,0,0,0,0,
6.38224E+17,33.99702,79.60278,53.95553,29.0113,-16.65125,-127.5136,-0.612559,-1.262423,-9.175476,13.70306,-0.9767859,39.26562,0,0,0,73.74483,76.04556,-59.00655,-1.197964,-111.2317,-56.30258,0.001067912,-0.1257102,0.09433498,0,0.3,0,0,0,0,
6.38224E+17,29.75623,81.56655,55.70658,27.47315,-21.2657,-125.0233,-0.612559,-1.262423,-9.175476,13.62981,-0.9767859,39.26562,0,0,0,64.38444,80.12451,-55.72903,-1.197964,-111.2317,-56.30258,0.001067912,-0.1257102,0.09433498,0,0.3,0,0,0,0,
6.38224E+17,27.80075,82.19776,56.3603,26.30123,-22.43762,-123.2654,-0.612559,-1.262423,-9.175476,13.62981,-0.9767859,39.19238,0,0,0,60.22215,81.59381,-54.13218,-1.197964,-111.2317,-56.30258,0.001067912,-0.1257102,0.09433498,0,0.3,0,0,0,0,
6.38224E+17,23.55996,83.2264,57.2475,24.03063,-23.46305,-120.1891,-0.612559,-1.262423,-9.175476,13.70306,-0.9767859,39.19238,0,0,0,51.11375,83.62537,-51.13203,-1.197964,-111.2317,-56.30258,0.001067912,-0.1257102,0.09433498,0,0.3,0,0,0,0,
6.38224E+17,19.08357,84.44207,57.83118,21.61354,-23.90252,-118.1382,-0.612559,-1.262423,-9.175476,13.70306,-0.9767859,39.19238,0,0,0,41.12787,85.07545,-49.46954,-1.197964,-111.2317,-56.30258,0.001067912,-0.1257102,0.09433498,0,0.3,0,0,0,0,
6.38224E+17,16.53909,85.09666,58.11135,20.22188,-24.12226,-116.4536,-0.612559,-1.262423,-9.175476,13.70306,-0.9767859,39.19238,0,0,0,35.4762,85.76714,-48.88374,-1.197964,-111.2317,-56.30258,0.001067912,-0.1257102,0.09433498,0,0.3,0,0,0,0,
6.38224E+17,10.1779,86.03178,58.43821,15.90041,-24.78147,-110.8137,-0.612559,-1.262423,-9.175476,13.70306,-0.9767859,39.19238,0,0,0,21.70868,86.58253,-47.43065,-1.197964,-111.2317,-56.30258,0.001067912,-0.1257102,0.09433498,0,0.3,0,0,0,0,
6.38224E+17,1.884797,86.07854,59.09193,7.477218,-25.44067,-103.416,-0.612559,-1.262423,-9.175476,13.70306,-0.9767859,39.19238,0,0,0,4.062997,87.89095,-44.88387,-1.197964,-111.2317,-56.30258,0.001067912,-0.1257102,0.09433498,0,0.3,0,0,0,0,
6.38224E+17,-2.332436,85.82138,59.93243,1.764095,-25.58716,-99.38748,-0.612559,-1.262423,-9.175476,13.70306,-0.9767859,39.19238,0,0,0,-5.092165,89.53438,-43.33121,-1.197964,-111.2317,-56.30258,0.001067912,-0.1257102,0.09433498,0,0.3,0,0,0,0,
6.38224E+17,-10.24858,84.67585,62.64072,-12.6652,-25.66041,-90.59806,-0.612559,-1.262423,-9.175476,13.70306,-0.9767859,39.19238,0,0,0,-23.27314,94.84119,-39.62968,-1.197964,-111.2317,-56.30258,0.001067912,-0.1257102,0.09433498,0,0.3,0,0,0,0,
6.38224E+17,-16.37417,82.15101,65.13887,-28.92563,-25.29418,-82.32136,-0.612559,-1.262423,-9.175476,13.70306,-0.9767859,39.26562,0,0,0,-39.24258,99.38765,-34.79289,-1.197964,-111.2317,-56.30258,0.001067912,-0.1257102,0.09433498,0,0.3,0,0,0,0,
6.38224E+17,-19.74325,79.20535,65.349,-40.0589,-24.342,-77.12095,-0.612559,-1.262423,-9.175476,13.70306,-0.9767859,39.19238,0,0,0,-49.37783,98.72138,-30.77038,-1.197964,-111.2317,-56.30258,0.001067912,-0.1257102,0.09433498,0,0.3,0,0,0,0,
6.38224E+17,-21.1804,77.52213,64.8587,-44.30712,-23.5363,-74.85035,-0.612559,-1.262423,-9.175476,13.70306,-0.9767859,39.19238,0,0,0,-54.02559,96.89619,-28.9223,-1.197964,-111.2317,-56.30258,0.001067912,-0.1257102,0.09433498,0,0.3,0,0,0,0,
6.38224E+17,-24.21964,74.52972,62.94423,-49.8005,-21.33894,-70.82186,-0.612559,-1.262423,-9.175476,13.70306,-0.9767859,39.19238,0,0,0,-63.31017,91.21333,-27.60754,-1.197964,-111.2317,-56.30258,0.001067912,-0.1257102,0.09433498,0,0.3,0,0,0,0,
6.38224E+17,-27.56516,71.51392,59.93243,-52.95005,-17.96966,-68.84425,-0.612559,-1.262423,-9.175476,13.70306,-0.9767859,39.26562,0,0,0,-72.97105,83.00809,-28.56226,-1.197964,-111.2317,-56.30258,0.001067912,-0.1257102,0.09433498,0,0.3,0,0,0,0,
6.38224E+17,-29.37927,69.8307,58.20473,-54.26846,-15.9188,-68.47802,-0.612559,-1.262423,-9.175476,13.70306,-0.9767859,39.19238,0,0,0,-78.15932,78.2625,-29.52214,-1.197964,-111.2317,-56.30258,0.001067912,-0.1257102,0.09433498,0,0.3,0,0,0,0,
6.38224E+17,-32.88971,66.30058,54.74934,-56.53906,-11.45084,-69.35696,-0.612559,-1.262423,-9.175476,13.70306,-0.9767859,39.19238,0,0,0,-88.23957,68.49059,-31.89864,-1.197964,-111.2317,-56.30258,0.001067912,-0.1257102,0.09433498,0,0.3,0,0,0,0,
6.38224E+17,-36.0703,61.92886,50.7803,-58.73641,-6.689909,-71.48107,-0.612559,-1.262423,-9.175476,13.70306,-0.9767859,39.19238,0,0,0,-97.77241,56.69661,-34.12447,-1.197964,-111.2317,-56.30258,0.001067912,-0.1257102,0.09433498,0,0.3,0,0,0,0,
6.38224E+17,-37.50746,59.45077,48.58566,-59.61535,-4.199574,-72.72624,-0.612559,-1.262423,-9.175476,13.70306,-0.9767859,39.19238,0,0,0,-102.1579,49.97908,-35.25116,-1.197964,-111.2317,-56.30258,0.001067912,-0.1257102,0.09433498,0,0.3,0,0,0,0,
6.38224E+17,-40.47601,52.5542,43.47261,-61.00701,1.879776,-75.58281,-0.612559,-1.262423,-9.175476,13.70306,-0.9767859,39.19238,0,0,0,-112.1852,32.44787,-36.88658,-1.197964,-111.2317,-56.30258,0.001067912,-0.1257102,0.09433498,0,0.3,0,0,0,0,
6.38224E+17,-42.10165,47.73829,40.62424,-61.59297,5.835015,-76.3885,-0.612559,-1.262423,-9.175476,13.70306,-0.9767859,39.19238,0,0,0,-118.3367,20.82766,-37.39181,-1.197964,-111.2317,-56.30258,0.001067912,-0.1257102,0.09433498,0,0.3,0,0,0,0,
6.38224E+17,-43.70373,41.28591,37.68249,-62.25218,10.6692,-77.70691,-0.612559,-1.262423,-9.175476,13.62981,-0.9767859,39.19238,0,0,0,-125.554,5.801999,-36.98232,-1.197964,-111.2317,-56.30258,0.001067912,-0.1257102,0.09433498,0,0.3,0,0,0,0,
6.38224E+17,-44.24561,38.01296,36.46843,-62.83814,13.23278,-78.36612,-0.612559,-1.262423,-9.175476,13.70306,-0.9767859,39.26562,0,0,0,-128.6089,-1.765781,-36.30907,-1.197964,-111.2317,-56.30258,0.001067912,-0.1257102,0.09433498,0,0.3,0,0,0,0,
6.38224E+17,-44.64613,32.4957,34.88082,-63.79033,17.77398,-78.95209,-0.612559,-1.262423,-9.175476,13.70306,-0.9767859,39.19238,0,0,0,-132.6259,-14.40233,-34.07559,-1.197964,-111.2317,-56.30258,0.001067912,-0.1257102,0.09433498,0,0.3,0,0,0,0,
6.38224E+17,-44.57545,28.07722,33.43328,-63.86357,21.94895,-77.63367,-0.612559,-1.262423,-9.175476,13.70306,-0.9767859,39.19238,0,0,0,-134.1427,-25.17163,-32.2045,-1.197964,-111.2317,-56.30258,0.001067912,-0.1257102,0.09433498,0,0.3,0,0,0,0,
6.38224E+17,-44.36341,25.15495,32.12584,-63.27761,25.7577,-75.28983,-0.612559,-1.262423,-9.175476,13.70306,-0.9767859,39.19238,0,0,0,-133.9794,-32.89897,-31.35984,-1.197964,-111.2317,-56.30258,0.001067912,-0.1257102,0.09433498,0,0.3,0,0,0,0,
6.38224E+17,-44.15137,24.52374,31.51881,-63.27761,27.36909,-74.63062,-0.612559,-1.262423,-9.175476,13.70306,-0.9767859,39.19238,0,0,0,-133.0652,-34.97708,-31.28348,-1.197964,-111.2317,-56.30258,0.001067912,-0.1257102,0.09433498,0,0.3,0,0,0,0,
6.38224E+17,-42.99693,24.54711,30.49153,-64.08331,29.78619,-74.04465,-0.612559,-1.262423,-9.175476,13.70306,-0.9767859,39.19238,0,0,0,-128.8637,-36.15915,-30.14571,-1.197964,-111.2317,-56.30258,0.001067912,-0.1257102,0.09433498,0,0.3,0,0,0,0,
6.38224E+17,-40.40533,25.36535,29.27747,-65.0355,31.98354,-73.82492,-0.612559,-1.262423,-9.175476,13.62981,-0.9767859,39.19238,0,0,0,-120.3741,-35.84045,-26.93764,-1.197964,-111.2317,-56.30258,0.001067912,-0.1257102,0.09433498,0,0.3,0,0,0,0,
6.38224E+17,-37.15406,27.04858,26.84936,-64.66927,34.91335,-74.63062,-0.612559,-1.262423,-9.175476,13.70306,-0.9767859,39.26562,0,0,0,-108.1037,-34.98413,-25.69129,-1.197964,-111.2317,-56.30258,0.001067912,-0.1257102,0.09433498,0,0.3,0,0,0,0,
6.38224E+17,-35.2457,28.33438,24.93488,-63.86357,36.59798,-76.46174,-0.612559,-1.262423,-9.175476,13.70306,-0.9767859,39.26562,0,0,0,-100.1774,-34.28001,-26.57968,-1.197964,-111.2317,-56.30258,0.001067912,-0.1257102,0.09433498,0,0.3,0,0,0,0,
6.38224E+17,-30.95779,31.04625,20.33547,-61.59297,39.52779,-82.90732,-0.612559,-1.262423,-9.175476,13.70306,-0.9767859,39.26562,0,0,0,-82.60805,-32.91625,-30.63741,-1.197964,-111.2317,-56.30258,0.001067912,-0.1257102,0.09433498,0,0.3,0,0,0,0,
6.38224E+17,-26.2458,33.47759,17.30033,-58.07721,41.72515,-89.42614,-0.612559,-1.262423,-9.175476,13.70306,-0.9767859,39.19238,0,0,0,-66.72397,-30.40984,-33.02215,-1.197964,-111.2317,-56.30258,0.001067912,-0.1257102,0.09433498,0,0.3,0,0,0,0,
6.38224E+17,-23.6542,34.6465,16.31974,-56.39257,42.89707,-93.16164,-0.612559,-1.262423,-9.175476,13.70306,-0.9767859,39.19238,0,0,0,-59.04882,-28.81612,-33.54035,-1.197964,-111.2317,-56.30258,0.001067912,-0.1257102,0.09433498,0,0.3,0,0,0,0,
6.38224E+17,-18.14117,36.86742,14.70878,-53.6825,45.02118,-103.4892,-0.612559,-1.262423,-9.175476,13.70306,-0.9767859,39.19238,0,0,0,-43.75901,-25.62457,-34.79419,-1.197964,-111.2317,-56.30258,0.001067912,-0.1257102,0.09433498,0,0.3,0,0,0,0,
6.38224E+17,-12.15694,38.94809,14.03171,-50.97242,46.41284,-113.0843,-0.612559,-1.262423,-9.175476,13.70306,-0.9767859,39.19238,0,0,0,-28.64875,-22.19512,-35.36049,-1.197964,-111.2317,-56.30258,0.001067912,-0.1257102,0.09433498,0,0.3,0,0,0,0,
6.38224E+17,-3.510434,41.6132,14.1251,-45.18605,47.73125,-118.065,-0.612559,-1.262423,-9.175476,13.70306,-0.9767859,39.19238,0,0,0,-8.097168,-17.41066,-36.35695,-1.197964,-111.2317,-56.30258,0.001067912,-0.1257102,0.09433498,0,0.3,0,0,0,0,
6.38224E+17,3.062795,43.48346,14.63874,-39.61942,48.24397,-120.1891,-0.612559,-1.262423,-9.175476,13.70306,-0.9767859,39.19238,0,0,0,6.970308,-13.90711,-38.08049,-1.197964,-111.2317,-56.30258,0.001067912,-0.1257102,0.09433498,0,0.3,0,0,0,0,
6.38224E+17,7.374268,44.69912,15.33915,-35.66418,48.39046,-121.5075,-0.612559,-1.262423,-9.175476,13.70306,-0.9767859,39.19238,0,0,0,16.69347,-11.45342,-39.36385,-1.197964,-111.2317,-56.30258,0.001067912,-0.1257102,0.09433498,0,0.3,0,0,0,0,
6.38224E+17,16.46841,47.10708,17.67388,-26.50854,47.8045,-125.0233,-0.612559,-1.262423,-9.175476,13.70306,-0.9767859,39.19238,0,0,0,37.20676,-6.010067,-42.4873,-1.197964,-111.2317,-56.30258,0.001067912,-0.1257102,0.09433498,0,0.3,0,0,0,0,
6.38224E+17,25.44476,49.37476,20.8958,-17.35289,45.5339,-130.6632,-0.612559,-1.262423,-9.175476,13.70306,-0.9767859,39.26562,0,0,0,57.73821,-0.01905334,-46.99836,-1.197964,-111.2317,-56.30258,0.001067912,-0.1257102,0.09433498,0,0.3,0,0,0,0,
6.38224E+17,29.92115,50.42678,22.92702,-12.6652,43.9225,-134.3254,-0.612559,-1.262423,-9.175476,13.70306,-0.9767859,39.19238,0,0,0,68.2868,3.322071,-49.697,-1.197964,-111.2317,-56.30258,0.001067912,-0.1257102,0.09433498,0,0.3,0,0,0,0,
6.38224E+17,38.23782,52.0165,28.1568,-2.923595,39.89402,-140.6245,-0.612559,-1.262423,-9.175476,13.70306,-0.9767859,39.19238,0,0,0,89.74082,10.88558,-54.4645,-1.197964,-111.2317,-56.30258,0.001067912,-0.1257102,0.09433498,0,0.3,0,0,0,0,
6.38224E+17,45.07021,52.76461,34.60065,6.964502,35.49931,-141.8697,-0.612559,-1.262423,-9.175476,13.70306,-0.9035407,39.19238,0,0,0,110.7355,19.75306,-57.88555,-1.197964,-111.2317,-56.30258,0.001067912,-0.1257102,0.09433498,0,0.3,0,0,0,0,
6.38224E+17,50.2534,52.8815,40.83437,16.26664,30.95811,-142.0162,-0.612559,-1.262423,-9.175476,13.70306,-0.9767859,39.19238,0,0,0,128.9152,28.78883,-61.14527,-1.197964,-111.2317,-56.30258,0.001067912,-0.1257102,0.09433498,0,0.3,0,0,0,0,
6.38224E+17,53.05703,52.85812,44.73336,22.49248,28.17479,-142.0162,-0.612559,-1.262423,-9.175476,13.70306,-0.9767859,39.19238,0,0,0,139.3612,34.91851,-63.55116,-1.197964,-111.2317,-56.30258,0.001067912,-0.1257102,0.09433498,0,0.3,0,0,0,0,
6.38224E+17,55.36591,52.8815,48.72574,28.86481,25.39147,-142.0162,-0.612559,-1.262423,-9.175476,13.70306,-0.9767859,39.26562,0,0,0,148.6737,41.71563,-65.65628,-1.197964,-111.2317,-56.30258,0.001067912,-0.1257102,0.09433498,0,0.3,0,0,0,0,
6.38224E+17,55.29523,52.29704,51.20055,34.65118,22.82789,-142.0162,-0.612559,-1.262423,-9.175476,13.70306,-0.9767859,39.26562,0,0,0,152.4809,45.29883,-62.74841,-1.197964,-111.2317,-56.30258,0.001067912,-0.1257102,0.09433498,0,0.3,0,0,0,0,
6.38224E+17,55.27167,52.29704,52.29787,36.6288,21.94895,-142.0162,-0.612559,-1.262423,-9.175476,13.70306,-0.9767859,39.19238,0,0,0,153.7369,47.3044,-61.78499,-1.197964,-111.2317,-56.30258,0.001067912,-0.1257102,0.09433498,0,0.3,0,0,0,0,
6.38224E+17,55.20099,53.02177,57.03737,41.53622,19.97133,-142.0894,-0.612559,-1.262423,-9.175476,13.70306,-0.9035407,39.26562,0,0,0,157.7411,57.32386,-58.72113,-1.197964,-111.2317,-56.30258,0.001067912,-0.1257102,0.09433498,0,0.3,0,0,0,0,
6.38224E+17,55.05963,53.39582,58.85846,42.92788,19.31213,-142.0894,-0.612559,-1.262423,-9.175476,13.70306,-0.9767859,39.26562,0,0,0,158.7424,61.43741,-57.44342,-1.197964,-111.2317,-56.30258,0.001067912,-0.1257102,0.09433498,0,0.3,0,0,0,0,
6.38224E+17,54.35283,53.95689,62.43059,45.93093,17.70073,-142.0894,-0.612559,-1.262423,-9.175476,13.70306,-0.9767859,39.19238,0,0,0,159.8186,69.45599,-53.73196,-1.197964,-111.2317,-56.30258,0.001067912,-0.1257102,0.09433498,0,0.3,0,0,0,0,
6.38224E+17,53.26907,53.91014,64.4618,48.12829,16.01609,-142.0894,-0.612559,-1.262423,-9.175476,13.70306,-0.9035407,39.19238,0,0,0,159.3863,73.62046,-49.41321,-1.197964,-111.2317,-56.30258,0.001067912,-0.1257102,0.09433498,0,0.3,0,0,0,0,
6.38224E+17,52.65651,53.6296,64.69527,48.78749,15.13715,-142.0894,-0.612559,-1.262423,-9.175476,13.70306,-0.9767859,39.19238,0,0,0,158.7098,73.72533,-47.25504,-1.197964,-111.2317,-56.30258,0.001067912,-0.1257102,0.09433498,0,0.3,0,0,0,0,
6.38224E+17,51.99683,52.64771,64.0649,48.93398,14.25821,-142.0894,-0.612559,-1.262423,-9.175476,13.70306,-0.9767859,39.19238,0,0,0,158.2459,71.0316,-44.70064,-1.197964,-111.2317,-56.30258,0.001067912,-0.1257102,0.09433498,0,0.3,0,0,0,0,
6.38224E+17,51.50208,50.26314,61.8936,48.34802,14.47795,-142.0162,-0.612559,-1.262423,-9.175476,13.70306,-0.9767859,39.19238,0,0,0,158.7725,63.07204,-42.06603,-1.197964,-111.2317,-56.30258,0.001067912,-0.1257102,0.09433498,0,0.3,0,0,0,0,
6.38224E+17,51.078,46.73303,58.34481,47.39584,16.38232,-141.8697,-0.612559,-1.262423,-9.175476,13.70306,-0.9767859,39.26562,0,0,0,159.4191,50.46832,-39.61389,-1.197964,-111.2317,-56.30258,0.001067912,-0.1257102,0.09433498,0,0.3,0,0,0,0,
6.38224E+17,50.88952,44.60561,56.19687,46.80988,17.99371,-141.6499,-0.612559,-1.262423,-9.175476,13.70306,-0.9767859,39.26562,0,0,0,159.6456,42.80333,-38.56099,-1.197964,-111.2317,-56.30258,0.001067912,-0.1257102,0.09433498,0,0.3,0,0,0,0,
6.38224E+17,50.41832,39.85984,51.34064,45.49146,22.60816,-134.5452,-0.612559,-1.262423,-9.175476,13.70306,-0.9767859,39.19238,0,0,0,159.1461,25.5133,-36.77861,-1.197964,-111.2317,-56.30258,0.001067912,-0.1257102,0.09433498,0,0.3,0,0,0,0,
6.38224E+17,49.7822,34.74001,46.01746,43.80682,28.0283,-126.7079,-0.612559,-1.262423,-9.175476,13.70306,-0.9767859,39.19238,0,0,0,156.9433,6.736506,-35.63898,-1.197964,-111.2317,-56.30258,0.001067912,-0.1257102,0.09433498,0,0.3,0,0,0,0,
6.38224E+17,49.33456,31.79436,43.1224,42.70815,31.03135,-123.5584,-0.612559,-1.262423,-9.175476,13.70306,-0.9767859,39.19238,0,0,0,155.1134,-3.72312,-35.09415,-1.197964,-111.2317,-56.30258,0.001067912,-0.1257102,0.09433498,0,0.3,0,0,0,0,
6.38224E+17,48.22724,26.04332,37.51905,39.92483,36.96421,-119.3834,-0.612559,-1.262423,-9.175476,13.70306,-0.9767859,39.19238,0,0,0,149.9219,-23.86927,-34.43259,-1.197964,-111.2317,-56.30258,0.001067912,-0.1257102,0.09433498,0,0.3,0,0,0,0,
6.38224E+17,47.02568,20.2689,32.17253,36.26257,42.4576,-118.7975,-0.612559,-1.262423,-9.175476,13.70306,-0.9767859,39.26562,0,0,0,143.4766,-43.32793,-34.67611,-1.197964,-111.2317,-56.30258,0.001067912,-0.1257102,0.09433498,0,0.3,0,0,0,0,
6.38224E+17,45.91837,14.09706,27.59647,30.69594,46.9988,-124.4373,-0.612559,-1.262423,-9.175476,13.70306,-0.9767859,39.19238,0,0,0,137.2818,-62.34964,-35.39995,-1.197964,-111.2317,-56.30258,0.001067912,-0.1257102,0.09433498,0,0.3,0,0,0,0,
6.38224E+17,45.21157,8.135615,24.18777,24.90957,50.14834,-138.0609,-0.612559,-1.262423,-9.175476,13.70306,-0.9767859,39.19238,0,0,0,132.4645,-79.42165,-36.86013,-1.197964,-111.2317,-56.30258,0.001067912,-0.1257102,0.09433498,0,0.3,0,0,0,0,
6.38224E+17,45.04665,5.236718,22.76358,22.05301,51.17377,-141.2837,-0.612559,-1.262423,-9.175476,13.70306,-0.9767859,39.26562,0,0,0,130.4899,-87.44231,-38.07244,-1.197964,-111.2317,-56.30258,0.001067912,-0.1257102,0.09433498,0,0.3,0,0,0,0,
6.38224E+17,44.81104,-0.1636474,20.75572,17.87803,52.41894,-142.0162,-0.612559,-1.262423,-9.175476,13.70306,-0.9767859,39.19238,0,0,0,127.2863,-101.7264,-40.22137,-1.197964,-111.2317,-56.30258,0.001067912,-0.1257102,0.09433498,0,0.3,0,0,0,0,
6.38224E+17,44.62257,-0.9351282,17.20694,16.55962,52.3457,-142.0894,-0.612559,-1.262423,-9.175476,13.70306,-0.9767859,39.19238,0,0,0,121.3667,-106.2079,-45.3737,-1.197964,-111.2317,-56.30258,0.001067912,-0.1257102,0.09433498,0,0.3,0,0,0,0,
6.38224E+17,44.59901,-0.4675641,15.12903,16.77936,51.83298,-142.1627,-0.612559,-1.262423,-9.175476,13.70306,-0.9767859,39.26562,0,0,0,118.0643,-106.4664,-48.62144,-1.197964,-111.2317,-56.30258,0.001067912,-0.1257102,0.09433498,0,0.3,0,0,0,0,
6.38224E+17,44.43409,-0.8649935,14.28853,18.39075,50.80755,-141.7964,-0.612559,-1.262423,-9.175476,13.70306,-0.9767859,39.19238,0,0,0,116.387,-107.8879,-49.64082,-1.197964,-111.2317,-56.30258,0.001067912,-0.1257102,0.09433498,0,0.3,0,0,0,0,
6.38224E+17,43.70373,-0.8883717,14.26518,21.10082,49.9286,-135.3509,-0.612559,-1.262423,-9.175476,13.70306,-0.9767859,39.19238,0,0,0,114.8275,-107.9557,-48.20557,-1.197964,-111.2317,-56.30258,0.001067912,-0.1257102,0.09433498,0,0.3,0,0,0,0,
6.38224E+17,42.99693,-0.8883717,14.33522,22.49248,49.41589,-130.8096,-0.612559,-1.262423,-9.175476,13.70306,-0.9767859,39.19238,0,0,0,113.4444,-107.9155,-46.6827,-1.197964,-111.2317,-56.30258,0.001067912,-0.1257102,0.09433498,0,0.3,0,0,0,0,
6.38224E+17,40.94721,-0.6545897,14.47531,24.39685,48.75668,-124.3641,-0.612559,-1.262423,-9.175476,13.70306,-0.9767859,39.19238,0,0,0,109.2319,-107.2903,-42.45898,-1.197964,-111.2317,-56.30258,0.001067912,-0.1257102,0.09433498,0,0.3,0,0,0,0,
6.38224E+17,38.0729,-0.1402692,14.522,24.98281,48.4637,-121.2145,-0.612559,-1.262423,-9.175476,13.70306,-0.9767859,39.19238,0,0,0,102.8517,-106.0661,-37.05053,-1.197964,-111.2317,-56.30258,0.001067912,-0.1257102,0.09433498,0,0.3,0,0,0,0,
6.38224E+17,36.37658,0.3974294,14.522,24.68983,48.39046,-119.6031,-0.612559,-1.262423,-9.175476,13.70306,-0.9767859,39.19238,0,0,0,98.91821,-104.8147,-34.06572,-1.197964,-111.2317,-56.30258,0.001067912,-0.1257102,0.09433498,0,0.3,0,0,0,0,
6.38224E+17,31.35831,2.805384,14.35857,23.29818,48.82993,-114.769,-0.612559,-1.262423,-9.175476,13.70306,-0.9767859,39.26562,0,0,0,86.51955,-99.30788,-26.37601,-1.197964,-111.2317,-56.30258,0.001067912,-0.1257102,0.09433498,0,0.3,0,0,0,0,
6.38224E+17,30.27455,3.623622,14.21848,22.78546,48.90318,-113.6703,-0.612559,-1.262423,-9.175476,13.70306,-0.9767859,39.19238,0,0,0,83.60566,-97.48699,-25.13005,-1.197964,-111.2317,-56.30258,0.001067912,-0.1257102,0.09433498,0,0.3,0,0,0,0,
6.38224E+17,27.49447,6.616032,13.54141,21.46704,49.12291,-112.7181,-0.612559,-1.262423,-9.175476,13.62981,-0.9767859,39.26562,0,0,0,75.5676,-90.92906,-23.15179,-1.197964,-111.2317,-56.30258,0.001067912,-0.1257102,0.09433498,0,0.3,0,0,0,0,
6.38224E+17,25.04424,10.82411,12.3507,20.29512,49.19616,-111.3997,-0.612559,-1.262423,-9.175476,13.70306,-0.9767859,39.19238,0,0,0,67.51936,-81.87143,-23.84566,-1.197964,-111.2317,-56.30258,0.001067912,-0.1257102,0.09433498,0,0.3,0,0,0,0,
6.38224E+17,22.68824,16.71542,10.62301,18.53724,48.68344,-108.6896,-0.612559,-1.262423,-9.175476,13.70306,-0.9767859,39.19238,0,0,0,58.74383,-69.36068,-27.83737,-1.197964,-111.2317,-56.30258,0.001067912,-0.1257102,0.09433498,0,0.3,0,0,0,0,
6.38224E+17,21.79296,19.80134,9.945935,17.58505,48.02423,-107.5177,-0.612559,-1.262423,-9.175476,13.70306,-0.9767859,39.26562,0,0,0,55.13025,-62.82227,-30.46545,-1.197964,-111.2317,-56.30258,0.001067912,-0.1257102,0.09433498,0,0.3,0,0,0,0,
6.38224E+17,20.14377,26.65115,9.292212,15.53419,45.75363,-105.7598,-0.612559,-1.262423,-9.175476,13.70306,-0.9767859,39.19238,0,0,0,48.45869,-48.43504,-36.24318,-1.197964,-111.2317,-56.30258,0.001067912,-0.1257102,0.09433498,0,0.3,0,0,0,0,
6.38224E+17,18.84797,33.80488,9.572379,13.48332,42.31111,-104.6611,-0.612559,-1.262423,-9.175476,13.70306,-0.9767859,39.19238,0,0,0,42.96049,-33.95182,-42.49986,-1.197964,-111.2317,-56.30258,0.001067912,-0.1257102,0.09433498,0,0.3,0,0,0,0,
6.38224E+17,18.35321,37.19472,10.01598,12.53114,40.47998,-104.4414,-0.612559,-1.262423,-9.175476,13.70306,-0.9767859,39.19238,0,0,0,40.75014,-27.35415,-45.51571,-1.197964,-111.2317,-56.30258,0.001067912,-0.1257102,0.09433498,0,0.3,0,0,0,0,
6.38224E+17,17.48149,45.30696,12.02384,10.62676,35.35282,-104.2949,-0.612559,-1.262423,-9.175476,13.70306,-0.9767859,39.19238,0,0,0,36.51799,-12.27794,-52.39915,-1.197964,-111.2317,-56.30258,0.001067912,-0.1257102,0.09433498,0,0.3,0,0,0,0,
6.38224E+17,16.79825,51.12813,14.26518,9.381593,30.88486,-103.4892,-0.612559,-1.262423,-9.175476,13.70306,-0.9767859,39.19238,0,0,0,33.6823,-2.068417,-56.77655,-1.197964,-111.2317,-56.30258,0.001067912,-0.1257102,0.09433498,0,0.3,0,0,0,0,
6.38224E+17,15.33753,57.13633,17.46376,8.282915,25.46472,-101.9511,-0.612559,-1.262423,-9.175476,13.70306,-0.9767859,39.19238,0,0,0,29.72505,8.155716,-59.97252,-1.197964,-111.2317,-56.30258,0.001067912,-0.1257102,0.09433498,0,0.3,0,0,0,0,
6.38224E+17,14.20666,59.87158,19.23815,7.623709,22.60816,-100.7791,-0.612559,-1.262423,-9.175476,13.70306,-0.9767859,39.19238,0,0,0,27.21018,12.78139,-60.86893,-1.197964,-111.2317,-56.30258,0.001067912,-0.1257102,0.09433498,0,0.3,0,0,0,0,
6.38224E+17,11.0025,64.89789,22.95036,5.79258,16.82179,-98.72827,-0.612559,-1.262423,-9.175476,13.70306,-0.9767859,39.19238,0,0,0,20.72061,21.3111,-61.77655,-1.197964,-111.2317,-56.30258,0.001067912,-0.1257102,0.09433498,0,0.3,0,0,0,0,
6.38224E+17,6.643909,68.77867,26.63923,2.643037,11.18191,-95.87171,-0.612559,-1.262423,-9.175476,13.70306,-0.9767859,39.19238,0,0,0,12.50228,28.46286,-61.01648,-1.197964,-111.2317,-56.30258,0.001067912,-0.1257102,0.09433498,0,0.3,0,0,0,0,
6.38224E+17,1.814117,71.42041,29.97789,-1.678428,5.90826,-92.35595,-0.612559,-1.262423,-9.175476,13.70306,-0.9767859,39.19238,0,0,0,3.454371,34.23985,-59.28606,-1.197964,-111.2317,-56.30258,0.001067912,-0.1257102,0.09433498,0,0.3,0,0,0,0,
6.38224E+17,-0.9423984,72.35555,31.65889,-4.388499,3.344679,-89.93885,-0.612559,-1.262423,-9.175476,13.70306,-0.9767859,39.19238,0,0,0,-1.815935,36.92074,-57.95506,-1.197964,-111.2317,-56.30258,0.001067912,-0.1257102,0.09433498,0,0.3,0,0,0,0,
6.38224E+17,-6.24339,73.33743,34.99755,-10.3946,-1.196521,-84.6652,-0.612559,-1.262423,-9.175476,13.70306,-0.9767859,39.19238,0,0,0,-12.47582,41.86344,-54.31256,-1.197964,-111.2317,-56.30258,0.001067912,-0.1257102,0.09433498,0,0.3,0,0,0,0,
6.38224E+17,-11.40302,73.45432,38.45295,-17.2064,-5.00527,-79.53804,-0.612559,-1.262423,-9.175476,13.70306,-0.9767859,39.19238,0,0,0,-23.90341,46.74944,-49.83454,-1.197964,-111.2317,-56.30258,0.001067912,-0.1257102,0.09433498,0,0.3,0,0,0,0,
6.38224E+17,-16.42129,73.43093,43.49596,-25.26337,-8.228058,-72.87273,-0.612559,-1.262423,-9.175476,13.70306,-0.9767859,39.26562,0,0,0,-36.69781,54.42772,-43.8324,-1.197964,-111.2317,-56.30258,0.001067912,-0.1257102,0.09433498,0,0.3,0,0,0,0,
6.38224E+17,-18.82441,73.43093,46.69453,-30.24404,-9.839451,-68.84425,-0.612559,-1.262423,-9.175476,13.70306,-0.9767859,39.26562,0,0,0,-43.58203,59.69973,-40.50719,-1.197964,-111.2317,-56.30258,0.001067912,-0.1257102,0.09433498,0,0.3,0,0,0,0,
6.38224E+17,-22.52332,72.86986,52.69478,-41.01108,-12.32979,-61.51973,-0.612559,-1.262423,-9.175476,13.70306,-0.9767859,39.19238,0,0,0,-55.67629,69.96613,-34.09014,-1.197964,-111.2317,-56.30258,0.001067912,-0.1257102,0.09433498,0,0.3,0,0,0,0,
6.38224E+17,-24.85576,71.63082,57.52766,-52.43733,-13.72145,-56.09959,-0.612559,-1.262423,-9.175476,13.70306,-0.9767859,39.19238,0,0,0,-64.95213,78.31064,-28.13922,-1.197964,-111.2317,-56.30258,0.001067912,-0.1257102,0.09433498,0,0.3,0,0,0,0,
6.38224E+17,-25.6568,70.83595,59.09193,-57.78423,-14.08767,-54.12197,-0.612559,-1.262423,-9.175476,13.70306,-0.9035407,39.19238,0,0,0,-68.49244,80.81324,-25.75817,-1.197964,-111.2317,-56.30258,0.001067912,-0.1257102,0.09433498,0,0.3,0,0,0,0,
6.38224E+17,-27.09396,69.40989,60.39938,-65.47498,-14.08767,-51.26541,-0.612559,-1.262423,-9.175476,13.70306,-0.9767859,39.19238,0,0,0,-74.16699,82.31322,-23.37727,-1.197964,-111.2317,-56.30258,0.001067912,-0.1257102,0.09433498,0,0.3,0,0,0,0,
6.38224E+17,-28.69603,68.12408,60.42272,-70.60213,-13.13548,-49.8005,-0.612559,-1.262423,-9.175476,13.70306,-0.9767859,39.19238,0,0,0,-79.54337,81.2767,-23.03719,-1.197964,-111.2317,-56.30258,0.001067912,-0.1257102,0.09433498,0,0.3,0,0,0,0,
6.38224E+17,-30.98135,66.6045,59.83904,-74.7771,-11.23111,-49.28778,-0.612559,-1.262423,-9.175476,13.70306,-0.9767859,39.19238,0,0,0,-86.60655,78.73758,-24.10616,-1.197964,-111.2317,-56.30258,0.001067912,-0.1257102,0.09433498,0,0.3,0,0,0,0,
6.38224E+17,-32.65411,65.13168,58.53159,-77.12095,-9.399981,-50.45971,-0.612559,-1.262423,-9.175476,13.62981,-0.9767859,39.19238,0,0,0,-91.62708,74.72286,-25.37438,-1.197964,-111.2317,-56.30258,0.001067912,-0.1257102,0.09433498,0,0.3,0,0,0,0,
6.38224E+17,-33.69075,64.05627,57.45762,-78.14638,-8.081567,-51.4119,-0.612559,-1.262423,-9.175476,13.70306,-0.9767859,39.19238,0,0,0,-94.71799,71.52947,-26.27665,-1.197964,-111.2317,-56.30258,0.001067912,-0.1257102,0.09433498,0,0.3,0,0,0,0,
6.38224E+17,-35.9525,61.27427,54.58591,-79.4648,-5.225006,-53.75574,-0.612559,-1.262423,-9.175476,13.70306,-0.9767859,39.26562,0,0,0,-101.4349,63.01479,-28.49312,-1.197964,-111.2317,-56.30258,0.001067912,-0.1257102,0.09433498,0,0.3,0,0,0,0,
6.38224E+17,-37.86086,58.09484,51.6675,-79.97752,-2.661425,-56.75879,-0.612559,-1.262423,-9.175476,13.70306,-0.9035407,39.19238,0,0,0,-107.4549,53.84714,-30.12333,-1.197964,-111.2317,-56.30258,0.001067912,-0.1257102,0.09433498,0,0.3,0,0,0,0,
6.38224E+17,-38.75614,56.2012,50.29001,-80.05076,-1.269767,-58.29694,-0.612559,-1.262423,-9.175476,13.70306,-0.9767859,39.19238,0,0,0,-110.6557,48.96576,-30.50613,-1.197964,-111.2317,-56.30258,0.001067912,-0.1257102,0.09433498,0,0.3,0,0,0,0,
6.38224E+17,-40.52313,51.75934,48.2588,-80.19725,1.733285,-60.64079,-0.612559,-1.262423,-9.175476,13.70306,-0.9767859,39.19238,0,0,0,-118.2811,39.30543,-29.97383,-1.197964,-111.2317,-56.30258,0.001067912,-0.1257102,0.09433498,0,0.3,0,0,0,0,
6.38224E+17,-42.03097,47.0837,47.34826,-80.41698,4.809582,-61.9592,-0.612559,-1.262423,-9.175476,13.70306,-0.9767859,39.19238,0,0,0,-126.4605,30.65875,-28.05396,-1.197964,-111.2317,-56.30258,0.001067912,-0.1257102,0.09433498,0,0.3,0,0,0,0,
6.38224E+17,-43.20897,42.52495,47.25487,-81.00294,7.739389,-62.61841,-0.612559,-1.262423,-9.175476,13.70306,-0.9767859,39.19238,0,0,0,-134.3348,22.973,-25.3428,-1.197964,-111.2317,-56.30258,0.001067912,-0.1257102,0.09433498,0,0.3,0,0,0,0,
6.38224E+17,-43.89221,39.36889,47.25487,-81.29592,9.643764,-62.61841,-0.612559,-1.262423,-9.175476,13.70306,-0.9767859,39.19238,0,0,0,-139.3676,17.4256,-23.48618,-1.197964,-111.2317,-56.30258,0.001067912,-0.1257102,0.09433498,0,0.3,0,0,0,0,
6.38224E+17,-44.57545,35.90892,47.25487,-81.51566,11.54814,-61.66622,-0.612559,-1.262423,-9.175476,13.70306,-0.9767859,39.19238,0,0,0,-144.5361,11.04981,-21.65591,-1.197964,-111.2317,-56.30258,0.001067912,-0.1257102,0.09433498,0,0.3,0,0,0,0,
6.38224E+17,-45.37648,31.63071,46.90466,-81.58891,13.37927,-58.22369,-0.612559,-1.262423,-9.175476,13.70306,-0.9767859,39.26562,0,0,0,-150.1161,2.177741,-20.19386,-1.197964,-111.2317,-56.30258,0.001067912,-0.1257102,0.09433498,0,0.3,0,0,0,0,
6.38224E+17,-45.75344,29.45654,46.41436,-81.51566,14.11172,-55.73336,-0.612559,-1.262423,-9.175476,13.70306,-0.9767859,39.19238,0,0,0,-152.3685,-3.009934,-19.93698,-1.197964,-111.2317,-56.30258,0.001067912,-0.1257102,0.09433498,0,0.3,0,0,0,0,
6.38224E+17,-46.50736,24.9913,44.59328,-80.70996,15.2104,-49.50752,-0.612559,-1.262423,-9.175476,13.70306,-0.9767859,39.26562,0,0,0,-155.6014,-15.27187,-20.7278,-1.197964,-111.2317,-56.30258,0.001067912,-0.1257102,0.09433498,0,0.3,0,0,0,0,
6.38224E+17,-46.97857,20.38579,41.37135,-79.09857,16.01609,-41.45055,-0.612559,-1.262423,-9.175476,13.70306,-0.9767859,39.19238,0,0,0,-155.8219,-30.2703,-22.93465,-1.197964,-111.2317,-56.30258,0.001067912,-0.1257102,0.09433498,0,0.3,0,0,0,0,
6.38224E+17,-46.97857,15.75691,37.16885,-76.60824,16.30907,-31.41597,-0.612559,-1.262423,-9.175476,13.70306,-0.9767859,39.19238,0,0,0,-152.7298,-46.69902,-25.82027,-1.197964,-111.2317,-56.30258,0.001067912,-0.1257102,0.09433498,0,0.3,0,0,0,0,
6.38224E+17,-46.81364,11.40856,32.77956,-73.67843,16.60205,-21.16164,-0.612559,-1.262423,-9.175476,13.70306,-0.9767859,39.19238,0,0,0,-147.9496,-62.38818,-29.48239,-1.197964,-111.2317,-56.30258,0.001067912,-0.1257102,0.09433498,0,0.3,0,0,0,0,
6.38224E+17,-46.69584,9.444795,30.81839,-72.21353,17.11477,-16.76693,-0.612559,-1.262423,-9.175476,13.70306,-0.9767859,39.19238,0,0,0,-145.4427,-69.28802,-31.27178,-1.197964,-111.2317,-56.30258,0.001067912,-0.1257102,0.09433498,0,0.3,0,0,0,0,
6.38224E+17,-46.27176,5.657525,26.96609,-69.5767,18.79941,-9.295925,-0.612559,-1.262423,-9.175476,13.70306,-0.9767859,39.19238,0,0,0,-139.5896,-82.35561,-34.82361,-1.197964,-111.2317,-56.30258,0.001067912,-0.1257102,0.09433498,0,0.3,0,0,0,0,
6.38224E+17,-45.5414,2.665115,23.39396,-67.89206,21.2165,-5.047705,-0.612559,-1.262423,-9.175476,13.70306,-0.9767859,39.26562,0,0,0,-132.8676,-92.83762,-37.96994,-1.197964,-111.2317,-56.30258,0.001067912,-0.1257102,0.09433498,0,0.3,0,0,0,0,
6.38224E+17,-45.09377,1.542961,21.82969,-67.37935,22.75465,-3.949028,-0.612559,-1.262423,-9.175476,13.70306,-0.9767859,39.19238,0,0,0,-129.5326,-96.84725,-39.24067,-1.197964,-111.2317,-56.30258,0.001067912,-0.1257102,0.09433498,0,0.3,0,0,0,0,
6.38224E+17,-43.91577,0.2805384,18.18752,-67.15961,26.63664,-3.802537,-0.612559,-1.262423,-9.175476,13.70306,-0.9767859,39.26562,0,0,0,-121.3597,-102.6849,-42.30808,-1.197964,-111.2317,-56.30258,0.001067912,-0.1257102,0.09433498,0,0.3,0,0,0,0,
6.38224E+17,-42.64353,0.5376987,13.93832,-68.69775,30.00592,-4.242009,-0.612559,-1.262423,-9.175476,13.70306,-0.9767859,39.26562,0,0,0,-112.0919,-104.8222,-46.63675,-1.197964,-111.2317,-56.30258,0.001067912,-0.1257102,0.09433498,0,0.3,0,0,0,0,
6.38224E+17,-41.98385,0.9818845,11.88376,-69.94292,31.39758,-4.242009,-0.612559,-1.262423,-9.175476,13.70306,-0.9767859,39.19238,0,0,0,-107.5563,-104.8568,-48.82886,-1.197964,-111.2317,-56.30258,0.001067912,-0.1257102,0.09433498,0,0.3,0,0,0,0,
6.38224E+17,-40.38177,2.73525,7.751292,-72.87273,34.10765,-5.120951,-0.612559,-1.262423,-9.175476,13.70306,-0.9767859,39.19238,0,0,0,-97.94836,-102.418,-53.18686,-1.197964,-111.2317,-56.30258,0.001067912,-0.1257102,0.09433498,0,0.3,0,0,0,0,
6.38224E+17,-39.22733,5.283474,3.805604,-75.72929,35.93878,-8.197248,-0.612559,-1.262423,-9.175476,13.70306,-0.9767859,39.19238,0,0,0,-89.56924,-97.42664,-58.63417,-1.197964,-111.2317,-56.30258,0.001067912,-0.1257102,0.09433498,0,0.3,0,0,0,0,
6.38224E+17,-37.93154,9.094121,-1.2841,-78.58585,37.25719,-14.2766,-0.612559,-1.262423,-9.175476,13.70306,-0.9767859,39.19238,0,0,0,-79.10544,-88.88964,-66.8499,-1.197964,-111.2317,-56.30258,0.001067912,-0.1257102,0.09433498,0,0.3,0,0,0,0,
6.38224E+17,-36.8949,11.43194,-4.132466,-79.31831,37.55017,-17.93885,-0.612559,-1.262423,-9.175476,13.70306,-0.9767859,39.19238,0,0,0,-72.6992,-83.22283,-71.5058,-1.197964,-111.2317,-56.30258,0.001067912,-0.1257102,0.09433498,0,0.3,0,0,0,0,
6.38224E+17,-36.09386,13.16193,-6.046942,-79.24506,37.76991,-20.35595,-0.612559,-1.262423,-9.175476,13.70306,-0.9767859,39.26562,0,0,0,-68.21857,-78.89371,-74.77792,-1.197964,-111.2317,-56.30258,0.001067912,-0.1257102,0.09433498,0,0.3,0,0,0,0,
6.38224E+17,-34.16194,17.29987,-9.432296,-77.63367,37.98964,-24.89715,-0.612559,-1.262423,-9.175476,13.70306,-0.9767859,39.19238,0,0,0,-59.22149,-68.54245,-81.0836,-1.197964,-111.2317,-56.30258,0.001067912,-0.1257102,0.09433498,0,0.3,0,0,0,0,
6.38224E+17,-32.13579,21.92875,-11.25338,-74.7771,38.13613,-28.7059,-0.612559,-1.262423,-9.175476,13.70306,-0.9767859,39.19238,0,0,0,-51.95814,-57.63617,-85.63644,-1.197964,-111.2317,-56.30258,0.001067912,-0.1257102,0.09433498,0,0.3,0,0,0,0,
6.38224E+17,-29.87403,27.37588,-11.34677,-71.70081,38.28262,-32.58789,-0.612559,-1.262423,-9.175476,13.70306,-0.9767859,39.19238,0,0,0,-45.9143,-46.0758,-88.41876,-1.197964,-111.2317,-56.30258,0.001067912,-0.1257102,0.09433498,0,0.3,0,0,0,0,
6.38224E+17,-28.48399,30.20464,-11.30008,-69.94292,38.28262,-34.27253,-0.612559,-1.262423,-9.175476,13.62981,-0.9767859,39.19238,0,0,0,-42.50061,-40.32789,-90.02144,-1.197964,-111.2317,-56.30258,0.001067912,-0.1257102,0.09433498,0,0.3,0,0,0,0,
6.38224E+17,-25.02068,36.21284,-10.52962,-65.18199,38.20938,-36.46988,-0.612559,-1.262423,-9.175476,13.70306,-0.9035407,39.19238,0,0,0,-35.1982,-28.97309,-92.93829,-1.197964,-111.2317,-56.30258,0.001067912,-0.1257102,0.09433498,0,0.3,0,0,0,0,
6.38224E+17,-20.45005,41.98725,-6.583929,-58.58992,37.62342,-37.6418,-0.612559,-1.262423,-9.175476,13.70306,-0.9767859,39.19238,0,0,0,-29.28889,-19.91404,-89.80461,-1.197964,-111.2317,-56.30258,0.001067912,-0.1257102,0.09433498,0,0.3,0,0,0,0,
6.38224E+17,-18.28253,44.09129,-4.692801,-55.00091,37.25719,-38.30101,-0.612559,-1.262423,-9.175476,13.70306,-0.9767859,39.19238,0,0,0,-26.62285,-16.76755,-87.76751,-1.197964,-111.2317,-56.30258,0.001067912,-0.1257102,0.09433498,0,0.3,0,0,0,0,
6.38224E+17,-14.86634,47.76167,-0.9805852,-48.84832,36.37825,-39.54618,-0.612559,-1.262423,-9.175476,13.70306,-0.9767859,39.19238,0,0,0,-22.41298,-11.25413,-83.91622,-1.197964,-111.2317,-56.30258,0.001067912,-0.1257102,0.09433498,0,0.3,0,0,0,0,
6.38224E+17,-11.16742,51.61907,2.895061,-42.54923,35.20633,-40.93784,-0.612559,-1.262423,-9.175476,13.70306,-0.9767859,39.19238,0,0,0,-17.33993,-5.296718,-80.51486,-1.197964,-111.2317,-56.30258,0.001067912,-0.1257102,0.09433498,0,0.3,0,0,0,0,
6.38224E+17,-9.376864,53.41919,4.669453,-39.83916,34.47387,-42.18301,-0.612559,-1.262423,-9.175476,13.70306,-0.9767859,39.19238,0,0,0,-14.71666,-2.475063,-79.23058,-1.197964,-111.2317,-56.30258,0.001067912,-0.1257102,0.09433498,0,0.3,0,0,0,0,
6.38224E+17,-5.348111,57.04282,8.28828,-34.49226,32.71599,-45.33255,-0.612559,-1.262423,-9.175476,13.70306,-0.9767859,39.26562,0,0,0,-8.553289,3.283763,-76.98255,-1.197964,-111.2317,-56.30258,0.001067912,-0.1257102,0.09433498,0,0.3,0,0,0,0,
6.38224E+17,-0.2827196,60.3859,11.69698,-29.21861,30.22566,-48.70182,-0.612559,-1.262423,-9.175476,13.70306,-0.9767859,39.19238,0,0,0,-0.4585531,8.700148,-75.42065,-1.197964,-111.2317,-56.30258,0.001067912,-0.1257102,0.09433498,0,0.3,0,0,0,0,
6.38224E+17,5.84287,63.23804,14.54535,-23.28575,27.44234,-52.21759,-0.612559,-1.262423,-9.175476,13.70306,-0.9767859,39.19238,0,0,0,9.522009,13.34019,-75.30011,-1.197964,-111.2317,-56.30258,0.001067912,-0.1257102,0.09433498,0,0.3,0,0,0,0,
6.38224E+17,9.565345,64.50047,15.89949,-19.84323,25.97744,-53.97548,-0.612559,-1.262423,-9.175476,13.70306,-0.9767859,39.19238,0,0,0,15.61006,15.46168,-75.71706,-1.197964,-111.2317,-56.30258,0.001067912,-0.1257102,0.09433498,0,0.3,0,0,0,0,
6.38224E+17,17.76421,66.58112,18.93463,-12.006,22.90114,-57.78423,-0.612559,-1.262423,-9.175476,13.70306,-0.9767859,39.26562,0,0,0,29.37222,19.58077,-76.66954,-1.197964,-111.2317,-56.30258,0.001067912,-0.1257102,0.09433498,0,0.3,0,0,0,0,
6.38224E+17,26.2458,67.75003,22.29664,-3.143331,19.89809,-62.7649,-0.612559,-1.262423,-9.175476,13.70306,-0.9767859,39.19238,0,0,0,44.70253,23.39117,-77.68548,-1.197964,-111.2317,-56.30258,0.001067912,-0.1257102,0.09433498,0,0.3,0,0,0,0,
6.38224E+17,30.39235,67.96043,24.07103,1.471115,18.50643,-65.76794,-0.612559,-1.262423,-9.175476,13.70306,-0.9767859,39.19238,0,0,0,52.8323,25.20149,-78.27197,-1.197964,-111.2317,-56.30258,0.001067912,-0.1257102,0.09433498,0,0.3,0,0,0,0,
6.38224E+17,38.02578,67.86693,28.08676,10.91974,15.94285,-72.14028,-0.612559,-1.262423,-9.175476,13.70306,-0.9767859,39.19238,0,0,0,69.62402,29.22748,-79.31792,-1.197964,-111.2317,-56.30258,0.001067912,-0.1257102,0.09433498,0,0.3,0,0,0,0,
6.38224E+17,44.17493,67.37598,32.52274,19.85565,13.74549,-78.51261,-0.612559,-1.262423,-9.175476,13.70306,-0.9767859,39.19238,0,0,0,85.70638,34.00079,-80.13899,-1.197964,-111.2317,-56.30258,0.001067912,-0.1257102,0.09433498,0,0.3,0,0,0,0,
6.38224E+17,49.75864,65.94991,38.21947,30.03673,11.47489,-86.1301,-0.612559,-1.262423,-9.175476,13.70306,-0.9767859,39.19238,0,0,0,104.458,40.35784,-79.94679,-1.197964,-111.2317,-56.30258,0.001067912,-0.1257102,0.09433498,0,0.3,0,0,0,0,
6.38224E+17,52.09107,64.05627,41.25462,35.96959,10.44946,-90.67131,-0.612559,-1.262423,-9.175476,13.70306,-0.9767859,39.19238,0,0,0,115.406,43.0108,-78.47998,-1.197964,-111.2317,-56.30258,0.001067912,-0.1257102,0.09433498,0,0.3,0,0,0,0,
6.38224E+17,53.12771,62.70034,42.6788,38.89939,10.15648,-93.16164,-0.612559,-1.262423,-9.175476,13.70306,-0.9767859,39.19238,0,0,0,121.2414,43.81316,-77.41102,-1.197964,-111.2317,-56.30258,0.001067912,-0.1257102,0.09433498,0,0.3,0,0,0,0,
6.38224E+17,54.80047,59.26375,45.06022,43.80682,10.37621,-98.14231,-0.612559,-1.262423,-9.175476,13.70306,-0.9767859,39.19238,0,0,0,132.8237,43.77467,-74.65479,-1.197964,-111.2317,-56.30258,0.001067912,-0.1257102,0.09433498,0,0.3,0,0,0,0,
6.38224E+17,55.29523,54.89202,46.5778,47.39584,11.47489,-102.537,-0.612559,-1.262423,-9.175476,13.70306,-0.9767859,39.19238,0,0,0,142.6711,40.77892,-69.5423,-1.197964,-111.2317,-56.30258,0.001067912,-0.1257102,0.09433498,0,0.3,0,0,0,0,
6.38224E+17,55.27167,49.42152,46.67118,49.4467,13.67225,-107.8107,-0.612559,-1.262423,-9.175476,13.70306,-0.9767859,39.19238,0,0,0,151.0133,33.12874,-63.67294,-1.197964,-111.2317,-56.30258,0.001067912,-0.1257102,0.09433498,0,0.3,0,0,0,0,
6.38224E+17,55.27167,46.63952,46.67118,50.03266,15.2104,-110.0813,-0.612559,-1.262423,-9.175476,13.70306,-0.9767859,39.19238,0,0,0,154.9694,28.79922,-60.93071,-1.197964,-111.2317,-56.30258,0.001067912,-0.1257102,0.09433498,0,0.3,0,0,0,0,
6.38224E+17,55.27167,41.05212,46.67118,50.54538,18.50643,-113.597,-0.612559,-1.262423,-9.175476,13.70306,-0.9035407,39.19238,0,0,0,162.3699,19.42432,-55.80091,-1.197964,-111.2317,-56.30258,0.001067912,-0.1257102,0.09433498,0,0.3,0,0,0,0,
6.38224E+17,55.22455,35.3946,46.5311,50.47213,22.16869,-114.9155,-0.612559,-1.262423,-9.175476,13.70306,-0.9767859,39.26562,0,0,0,168.7825,8.847334,-51.15034,-1.197964,-111.2317,-56.30258,0.001067912,-0.1257102,0.09433498,0,0.3,0,0,0,0,
6.38224E+17,55.22455,31.56057,46.04081,50.10591,24.80551,-114.9887,-0.612559,-1.262423,-9.175476,13.70306,-0.9767859,39.26562,0,0,0,172.177,0.5809999,-48.79321,-1.197964,-111.2317,-56.30258,0.001067912,-0.1257102,0.09433498,0,0.3,0,0,0,0,
6.38224E+17,55.22455,27.49277,44.94349,49.4467,27.80857,-114.9887,-0.612559,-1.262423,-9.175476,13.70306,-0.9767859,39.26562,0,0,0,174.5382,-9.476404,-47.15367,-1.197964,-111.2317,-56.30258,0.001067912,-0.1257102,0.09433498,0,0.3,0,0,0,0,
6.38224E+17,55.10675,22.37294,42.81889,47.9818,30.88486,-113.9633,-0.612559,-1.262423,-9.175476,13.70306,-0.9035407,39.19238,0,0,0,175.4842,-23.70551,-45.96124,-1.197964,-111.2317,-56.30258,0.001067912,-0.1257102,0.09433498,0,0.3,0,0,0,0,
6.38224E+17,54.94183,20.15201,41.58148,47.1761,32.27652,-112.8646,-0.612559,-1.262423,-9.175476,13.70306,-0.9767859,39.19238,0,0,0,174.9192,-30.45681,-45.60543,-1.197964,-111.2317,-56.30258,0.001067912,-0.1257102,0.09433498,0,0.3,0,0,0,0,
6.38224E+17,54.39995,15.82704,39.03663,44.75901,34.76685,-111.6194,-0.612559,-1.262423,-9.175476,13.70306,-0.9767859,39.19238,0,0,0,172.6055,-43.85962,-44.77636,-1.197964,-111.2317,-56.30258,0.001067912,-0.1257102,0.09433498,0,0.3,0,0,0,0,
6.38224E+17,53.52823,12.27356,36.51513,41.90245,37.18394,-111.3997,-0.612559,-1.262423,-9.175476,13.70306,-0.9767859,39.19238,0,0,0,168.59,-55.4759,-43.72844,-1.197964,-111.2317,-56.30258,0.001067912,-0.1257102,0.09433498,0,0.3,0,0,0,0,
6.38224E+17,52.44447,10.14614,34.32048,39.11913,39.3813,-111.3997,-0.612559,-1.262423,-9.175476,13.70306,-0.9767859,39.19238,0,0,0,163.6661,-63.29247,-42.51241,-1.197964,-111.2317,-56.30258,0.001067912,-0.1257102,0.09433498,0,0.3,0,0,0,0,
6.38224E+17,51.47852,9.585063,33.22316,37.14151,41.21243,-111.6194,-0.612559,-1.262423,-9.175476,13.70306,-0.9767859,39.19238,0,0,0,160.0355,-65.99866,-40.95398,-1.197964,-111.2317,-56.30258,0.001067912,-0.1257102,0.09433498,0,0.3,0,0,0,0,
6.38224E+17,51.03088,9.655198,33.08308,36.40906,42.01813,-111.6927,-0.612559,-1.262423,-9.175476,13.70306,-0.9767859,39.19238,0,0,0,158.8019,-66.01603,-39.89637,-1.197964,-111.2317,-56.30258,0.001067912,-0.1257102,0.09433498,0,0.3,0,0,0,0,
6.38224E+17,49.92356,10.52019,33.10642,35.53012,43.40979,-111.8392,-0.612559,-1.262423,-9.175476,13.70306,-0.9767859,39.19238,0,0,0,156.0549,-64.00432,-37.0492,-1.197964,-111.2317,-56.30258,0.001067912,-0.1257102,0.09433498,0,0.3,0,0,0,0,
6.38224E+17,48.58064,12.15667,33.10642,34.50468,44.43522,-111.7659,-0.612559,-1.262423,-9.175476,13.70306,-0.9767859,39.19238,0,0,0,152.3733,-60.27005,-33.9233,-1.197964,-111.2317,-56.30258,0.001067912,-0.1257102,0.09433498,0,0.3,0,0,0,0,
6.38224E+17,47.73248,13.3022,33.10642,33.91872,45.02118,-111.6194,-0.612559,-1.262423,-9.175476,13.70306,-0.9767859,39.19238,0,0,0,149.932,-57.66952,-32.07763,-1.197964,-111.2317,-56.30258,0.001067912,-0.1257102,0.09433498,0,0.3,0,0,0,0,
6.38224E+17,46.46024,15.3361,33.10642,32.89329,45.82688,-110.2278,-0.612559,-1.262423,-9.175476,13.70306,-0.9767859,39.19238,0,0,0,146.0208,-53.08312,-29.58873,-1.197964,-111.2317,-56.30258,0.001067912,-0.1257102,0.09433498,0,0.3,0,0,0,0,
6.38224E+17,45.25869,17.6973,33.10642,31.79461,46.48608,-105.9795,-0.612559,-1.262423,-9.175476,13.70306,-0.9767859,39.19238,0,0,0,141.9693,-47.8148,-27.6569,-1.197964,-111.2317,-56.30258,0.001067912,-0.1257102,0.09433498,0,0.3,0,0,0,0,
6.38224E+17,44.64613,19.00648,33.10642,31.35514,46.85231,-103.3427,-0.612559,-1.262423,-9.175476,13.70306,-0.9767859,39.19238,0,0,0,139.7829,-44.92286,-26.82968,-1.197964,-111.2317,-56.30258,0.001067912,-0.1257102,0.09433498,0,0.3,0,0,0,0,
6.38224E+17,43.53881,21.67159,33.08308,30.4762,47.29178,-98.94801,-0.612559,-1.262423,-9.175476,13.70306,-0.9035407,39.19238,0,0,0,135.5056,-39.137,-25.75049,-1.197964,-111.2317,-56.30258,0.001067912,-0.1257102,0.09433498,0,0.3,0,0,0,0,
6.38224E+17,42.57285,24.31333,33.08308,29.15779,47.51152,-95.87171,-0.612559,-1.262423,-9.175476,13.70306,-0.9767859,39.19238,0,0,0,131.4577,-33.47758,-25.25479,-1.197964,-111.2317,-56.30258,0.001067912,-0.1257102,0.09433498,0,0.3,0,0,0,0,
6.38224E+17,41.67757,27.46939,33.12977,27.32666,46.92556,-92.35595,-0.612559,-1.262423,-9.175476,13.70306,-0.9767859,39.19238,0,0,0,127.1338,-26.81096,-25.54561,-1.197964,-111.2317,-56.30258,0.001067912,-0.1257102,0.09433498,0,0.3,0,0,0,0,
6.38224E+17,41.18281,29.40978,33.12977,26.37447,45.97337,-91.47701,-0.612559,-1.262423,-9.175476,13.70306,-0.9767859,39.19238,0,0,0,124.4799,-22.84009,-26.07169,-1.197964,-111.2317,-56.30258,0.001067912,-0.1257102,0.09433498,0,0.3,0,0,0,0,
6.38224E+17,40.92365,30.71896,33.12977,25.71527,45.09443,-91.25727,-0.612559,-1.262423,-9.175476,13.70306,-0.9767859,39.26562,0,0,0,122.8352,-20.2031,-26.66343,-1.197964,-111.2317,-56.30258,0.001067912,-0.1257102,0.09433498,0,0.3,0,0,0,0,
6.38224E+17,40.49957,33.19705,33.19981,24.83632,43.40979,-90.59806,-0.612559,-1.262423,-9.175476,13.70306,-0.9767859,39.19238,0,0,0,119.8893,-15.22095,-27.97552,-1.197964,-111.2317,-56.30258,0.001067912,-0.1257102,0.09433498,0,0.3,0,0,0,0,
6.38224E+17,40.05193,35.16082,33.26986,24.25036,41.72515,-88.84018,-0.612559,-1.262423,-9.175476,13.70306,-0.9767859,39.26562,0,0,0,117.2246,-11.3507,-28.90408,-1.197964,-111.2317,-56.30258,0.001067912,-0.1257102,0.09433498,0,0.3,0,0,0,0,
6.38224E+17,39.46294,36.04919,33.26986,23.81089,40.40673,-85.39766,-0.612559,-1.262423,-9.175476,13.70306,-0.9767859,39.19238,0,0,0,115.0198,-9.669664,-28.63572,-1.197964,-111.2317,-56.30258,0.001067912,-0.1257102,0.09433498,0,0.3,0,0,0,0,
6.38224E+17,38.96818,36.07257,33.26986,23.51791,40.04051,-83.34679,-0.612559,-1.262423,-9.175476,13.70306,-0.9035407,39.19238,0,0,0,113.789,-9.625679,-27.67263,-1.197964,-111.2317,-56.30258,0.001067912,-0.1257102,0.09433498,0,0.3,0,0,0,0,
6.38224E+17,37.7195,36.00243,33.12977,22.63897,39.60104,-80.124,-0.612559,-1.262423,-9.175476,13.70306,-0.9767859,39.19238,0,0,0,110.5882,-9.936194,-25.3662,-1.197964,-111.2317,-56.30258,0.001067912,-0.1257102,0.09433498,0,0.3,0,0,0,0,
6.38224E+17,36.40014,35.72189,32.14919,21.10082,39.82077,-77.48718,-0.612559,-1.262423,-9.175476,13.70306,-0.9767859,39.19238,0,0,0,106.3532,-11.69624,-24.09676,-1.197964,-111.2317,-56.30258,0.001067912,-0.1257102,0.09433498,0,0.3,0,0,0,0,
6.38224E+17,35.45774,35.09068,30.60827,19.48943,40.40673,-76.46174,-0.612559,-1.262423,-9.175476,13.70306,-0.9767859,39.19238,0,0,0,102.6839,-14.76095,-24.16767,-1.197964,-111.2317,-56.30258,0.001067912,-0.1257102,0.09433498,0,0.3,0,0,0,0,
6.38224E+17,34.63314,33.96853,28.57705,17.51181,41.06594,-76.02227,-0.612559,-1.262423,-9.175476,13.70306,-0.9767859,39.19238,0,0,0,99.10347,-19.24695,-24.86897,-1.197964,-111.2317,-56.30258,0.001067912,-0.1257102,0.09433498,0,0.3,0,0,0,0,
6.38224E+17,33.31378,31.70084,25.49521,14.65524,42.4576,-77.99989,-0.612559,-1.262423,-9.175476,13.70306,-0.9767859,39.19238,0,0,0,93.83668,-26.94123,-25.57218,-1.197964,-111.2317,-56.30258,0.001067912,-0.1257102,0.09433498,0,0.3,0,0,0,0,
6.38224E+17,31.75883,28.66168,22.81028,11.13948,44.65495,-83.78626,-0.612559,-1.262423,-9.175476,13.70306,-0.9767859,39.26562,0,0,0,88.79834,-35.61163,-24.90288,-1.197964,-111.2317,-56.30258,0.001067912,-0.1257102,0.09433498,0,0.3,0,0,0,0,
6.38224E+17,30.03895,25.34197,20.42886,7.037747,47.07204,-91.03754,-0.612559,-1.262423,-9.175476,13.70306,-0.9767859,39.26562,0,0,0,83.62966,-44.53666,-23.72631,-1.197964,-111.2317,-56.30258,0.001067912,-0.1257102,0.09433498,0,0.3,0,0,0,0,
6.38224E+17,28.97875,23.44834,19.1681,4.474167,48.31721,-95.50549,-0.612559,-1.262423,-9.175476,13.70306,-0.9767859,39.19238,0,0,0,80.48371,-49.54408,-23.02647,-1.197964,-111.2317,-56.30258,0.001067912,-0.1257102,0.09433498,0,0.3,0,0,0,0,
6.38224E+17,26.92904,19.80134,16.90342,-0.9459759,50.29483,-107.1515,-0.612559,-1.262423,-9.175476,13.70306,-0.9767859,39.19238,0,0,0,74.38126,-59.06514,-21.9205,-1.197964,-111.2317,-56.30258,0.001067912,-0.1257102,0.09433498,0,0.3,0,0,0,0,
6.38224E+17,25.02068,16.03745,15.52593,-6.878834,51.46675,-122.0935,-0.612559,-1.262423,-9.175476,13.70306,-0.9767859,39.19238,0,0,0,69.30154,-68.29397,-19.87231,-1.197964,-111.2317,-56.30258,0.001067912,-0.1257102,0.09433498,0,0.3,0,0,0,0,
6.38224E+17,24.1254,14.35422,15.3625,-9.881886,51.83298,-129.125,-0.612559,-1.262423,-9.175476,13.70306,-0.9767859,39.19238,0,0,0,67.24297,-72.17569,-18.20508,-1.197964,-111.2317,-56.30258,0.001067912,-0.1257102,0.09433498,0,0.3,0,0,0,0,
6.38224E+17,22.57044,12.06315,15.3625,-14.56958,52.19921,-138.7201,-0.612559,-1.262423,-9.175476,13.70306,-0.9767859,39.19238,0,0,0,63.61152,-77.36649,-15.31067,-1.197964,-111.2317,-56.30258,0.001067912,-0.1257102,0.09433498,0,0.3,0,0,0,0,
6.38224E+17,21.10972,11.17478,15.3625,-18.15859,52.41894,-141.8697,-0.612559,-1.262423,-9.175476,13.70306,-0.9767859,39.19238,0,0,0,59.8396,-79.3917,-13.35038,-1.197964,-111.2317,-56.30258,0.001067912,-0.1257102,0.09433498,0,0.3,0,0,0,0,
6.38224E+17,20.42649,11.22154,15.38585,-19.55025,52.41894,-141.8697,-0.612559,-1.262423,-9.175476,13.70306,-0.9767859,39.19238,0,0,0,57.99797,-79.27055,-12.61854,-1.197964,-111.2317,-56.30258,0.001067912,-0.1257102,0.09433498,0,0.3,0,0,0,0,
6.38224E+17,19.24849,11.75924,15.8061,-21.45462,52.27245,-142.2359,-0.612559,-1.262423,-9.175476,13.70306,-0.9767859,39.19238,0,0,0,55.0125,-77.78123,-10.80505,-1.197964,-111.2317,-56.30258,0.001067912,-0.1257102,0.09433498,0,0.3,0,0,0,0,
6.38224E+17,18.23541,12.20342,16.17966,-22.5533,52.19921,-141.9429,-0.612559,-1.262423,-9.175476,13.70306,-0.9767859,39.19238,0,0,0,52.41277,-76.53042,-9.267061,-1.197964,-111.2317,-56.30258,0.001067912,-0.1257102,0.09433498,0,0.3,0,0,0,0,
6.38224E+17,17.45793,12.5541,16.57656,-22.84628,51.97947,-142.0162,-0.612559,-1.262423,-9.175476,13.70306,-0.9767859,39.26562,0,0,0,50.46273,-75.47276,-7.891971,-1.197964,-111.2317,-56.30258,0.001067912,-0.1257102,0.09433498,0,0.3,0,0,0,0,
6.38224E+17,17.08097,12.74112,16.76334,-22.84628,51.90622,-142.0894,-0.612559,-1.262423,-9.175476,13.70306,-0.9767859,39.19238,0,0,0,49.50028,-74.92335,-7.256477,-1.197964,-111.2317,-56.30258,0.001067912,-0.1257102,0.09433498,0,0.3,0,0,0,0,
6.38224E+17,16.42129,12.9749,16.99681,-22.77304,51.68649,-142.0162,-0.612559,-1.262423,-9.175476,13.70306,-0.9767859,39.19238,0,0,0,47.75504,-74.23511,-6.314624,-1.197964,-111.2317,-56.30258,0.001067912,-0.1257102,0.09433498,0,0.3,0,0,0,0,
6.38224E+17,15.90297,12.90477,16.97346,-22.84628,51.54,-142.0894,-0.612559,-1.262423,-9.175476,13.70306,-0.9767859,39.19238,0,0,0,46.28305,-74.41006,-5.904077,-1.197964,-111.2317,-56.30258,0.001067912,-0.1257102,0.09433498,0,0.3,0,0,0,0,
6.38224E+17,15.50245,12.48396,16.52986,-23.13926,51.39351,-142.0894,-0.612559,-1.262423,-9.175476,13.70306,-0.9767859,39.26562,0,0,0,44.93966,-75.66308,-6.329768,-1.197964,-111.2317,-56.30258,0.001067912,-0.1257102,0.09433498,0,0.3,0,0,0,0,
6.38224E+17,15.31397,11.59559,15.59597,-23.50549,51.39351,-142.3092,-0.612559,-1.262423,-9.175476,13.70306,-0.9767859,39.26562,0,0,0,43.96871,-78.28657,-7.78134,-1.197964,-111.2317,-56.30258,0.001067912,-0.1257102,0.09433498,0,0.3,0,0,0,0,
6.38224E+17,15.29041,11.08127,15.08233,-23.65198,51.39351,-142.3824,-0.612559,-1.262423,-9.175476,13.70306,-0.9767859,39.19238,0,0,0,43.66072,-79.77646,-8.64831,-1.197964,-111.2317,-56.30258,0.001067912,-0.1257102,0.09433498,0,0.3,0,0,0,0,
6.38224E+17,15.29041,9.655198,13.6815,-23.57873,51.39351,-142.3824,-0.612559,-1.262423,-9.175476,13.70306,-0.9767859,39.19238,0,0,0,42.98543,-83.851,-11.11839,-1.197964,-111.2317,-56.30258,0.001067912,-0.1257102,0.09433498,0,0.3,0,0,0,0,
6.38224E+17,15.29041,7.784942,11.86041,-23.359,51.39351,-142.1627,-0.612559,-1.262423,-9.175476,13.70306,-0.9767859,39.26562,0,0,0,42.06944,-89.09019,-14.46891,-1.197964,-111.2317,-56.30258,0.001067912,-0.1257102,0.09433498,0,0.3,0,0,0,0,
6.38224E+17,15.29041,6.662788,10.85648,-23.21251,51.46675,-142.0162,-0.612559,-1.262423,-9.175476,13.70306,-0.9767859,39.19238,0,0,0,41.55194,-92.14129,-16.3618,-1.197964,-111.2317,-56.30258,0.001067912,-0.1257102,0.09433498,0,0.3,0,0,0,0,
6.38224E+17,15.29041,3.834026,8.405016,-22.62654,51.97947,-141.8697,-0.612559,-1.262423,-9.175476,13.70306,-0.9767859,39.19238,0,0,0,40.22744,-99.65112,-21.20652,-1.197964,-111.2317,-56.30258,0.001067912,-0.1257102,0.09433498,0,0.3,0,0,0,0,
6.38224E+17,15.29041,0.7948589,6.23372,-22.11383,52.85841,-142.0162,-0.612559,-1.262423,-9.175476,13.70306,-0.9767859,39.19238,0,0,0,38.98104,-107.3616,-25.76559,-1.197964,-111.2317,-56.30258,0.001067912,-0.1257102,0.09433498,0,0.3,0,0,0,0,
6.38224E+17,15.26685,-1.052019,4.27255,-21.89409,53.59086,-142.0162,-0.612559,-1.262423,-9.175476,13.70306,-0.9767859,39.19238,0,0,0,37.72309,-112.0777,-30.14351,-1.197964,-111.2317,-56.30258,0.001067912,-0.1257102,0.09433498,0,0.3,0,0,0,0,
6.38224E+17,15.21973,-0.9117499,2.031212,-21.82085,53.95709,-140.185,-0.612559,-1.262423,-9.175476,13.70306,-0.9767859,39.19238,0,0,0,36.24361,-112.0381,-35.13272,-1.197964,-111.2317,-56.30258,0.001067912,-0.1257102,0.09433498,0,0.3,0,0,0,0,
6.38224E+17,15.07837,-0.9585064,-1.96117,-21.96734,54.32331,-136.6693,-0.612559,-1.262423,-9.175476,13.70306,-0.9767859,39.19238,0,0,0,33.49767,-112.1526,-44.01555,-1.197964,-111.2317,-56.30258,0.001067912,-0.1257102,0.09433498,0,0.3,0,0,0,0,
6.38224E+17,15.05481,-0.9351282,-4.599411,-21.82085,54.39656,-136.0833,-0.612559,-1.262423,-9.175476,13.70306,-0.9767859,39.26562,0,0,0,31.85465,-111.7469,-49.92017,-1.197964,-111.2317,-56.30258,0.001067912,-0.1257102,0.09433498,0,0.3,0,0,0,0,
6.38224E+17,15.03126,-0.9351282,-6.280415,-21.38138,53.88385,-135.9368,-0.612559,-1.262423,-9.175476,13.70306,-0.9767859,39.26562,0,0,0,30.7959,-111.376,-53.66842,-1.197964,-111.2317,-56.30258,0.001067912,-0.1257102,0.09433498,0,0.3,0,0,0,0,
6.38224E+17,15.03126,-0.9351282,-6.583929,-21.16164,53.51762,-136.0101,-0.612559,-1.262423,-9.175476,13.70306,-0.9767859,39.26562,0,0,0,30.61385,-111.2969,-54.34636,-1.197964,-111.2317,-56.30258,0.001067912,-0.1257102,0.09433498,0,0.3,0,0,0,0,
6.38224E+17,15.03126,-0.9351282,-6.794055,-20.79542,53.00491,-136.0101,-0.612559,-1.262423,-9.175476,13.70306,-0.9767859,39.26562,0,0,0,30.48788,-111.2399,-54.81545,-1.197964,-111.2317,-56.30258,0.001067912,-0.1257102,0.09433498,0,0.3,0,0,0,0,
6.38224E+17,15.03126,-0.9351282,-6.794055,-20.57568,52.78517,-136.0101,-0.612559,-1.262423,-9.175476,13.70306,-0.9767859,39.19238,0,0,0,30.48788,-111.2399,-54.81545,-1.197964,-111.2317,-56.30258,0.001067912,-0.1257102,0.09433498,0,0.3,0,0,0,0,
6.38224E+17,15.03126,-0.9351282,-6.887444,-20.20946,52.63868,-136.0101,-0.612559,-1.262423,-9.175476,13.70306,-0.9767859,39.26562,0,0,0,30.43191,-111.214,-55.02388,-1.197964,-111.2317,-56.30258,0.001067912,-0.1257102,0.09433498,0,0.3,0,0,0,0,
6.38224E+17,15.0077,-0.9351282,-7.050874,-19.91648,52.56543,-136.0833,-0.612559,-1.262423,-9.175476,13.70306,-0.9767859,39.19238,0,0,0,30.28754,-111.1679,-55.37605,-1.197964,-111.2317,-56.30258,0.001067912,-0.1257102,0.09433498,0,0.3,0,0,0,0,
6.38224E+17,14.8899,-0.9351282,-7.541167,-19.18402,52.56543,-135.9368,-0.612559,-1.262423,-9.175476,13.70306,-0.9767859,39.26562,0,0,0,29.76436,-111.0229,-56.40788,-1.197964,-111.2317,-56.30258,0.001067912,-0.1257102,0.09433498,0,0.3,0,0,0,0,
6.38224E+17,14.51294,-0.9585064,-8.988697,-18.59806,52.49219,-136.596,-0.612559,-1.262423,-9.175476,13.70306,-0.9767859,39.19238,0,0,0,28.19154,-110.5931,-59.44286,-1.197964,-111.2317,-56.30258,0.001067912,-0.1257102,0.09433498,0,0.3,0,0,0,0,
6.38224E+17,14.3009,-0.9585064,-9.782504,-18.52482,52.3457,-139.6723,-0.612559,-1.262423,-9.175476,13.70306,-0.9767859,39.26562,0,0,0,27.33805,-110.2918,-61.10555,-1.197964,-111.2317,-56.30258,0.001067912,-0.1257102,0.09433498,0,0.3,0,0,0,0,
6.38224E+17,13.75902,-0.9585064,-11.20669,-18.8178,51.24702,-141.9429,-0.612559,-1.262423,-9.175476,13.70306,-0.9767859,39.26562,0,0,0,25.54743,-109.6881,-64.01739,-1.197964,-111.2317,-56.30258,0.001067912,-0.1257102,0.09433498,0,0.3,0,0,0,0,
6.38224E+17,13.45274,-0.9585064,-11.9538,-19.18402,50.66106,-142.1627,-0.612559,-1.262423,-9.175476,13.70306,-0.9767859,39.26562,0,0,0,24.59306,-109.339,-65.53899,-1.197964,-111.2317,-56.30258,0.001067912,-0.1257102,0.09433498,0,0.3,0,0,0,0,
6.38224E+17,12.98154,-0.9818845,-13.09782,-19.84323,50.14834,-142.0894,-0.612559,-1.262423,-9.175476,13.70306,-0.9035407,39.26562,0,0,0,23.16265,-108.816,-67.87386,-1.197964,-111.2317,-56.30258,0.001067912,-0.1257102,0.09433498,0,0.3,0,0,0,0,
6.38224E+17,12.7695,-0.9818845,-13.65815,-20.2827,49.9286,-142.1627,-0.612559,-1.262423,-9.175476,13.70306,-0.9767859,39.19238,0,0,0,22.51022,-108.5142,-69.02617,-1.197964,-111.2317,-56.30258,0.001067912,-0.1257102,0.09433498,0,0.3,0,0,0,0,
6.38224E+17,11.9449,-0.9818845,-15.59597,-21.67436,49.63563,-142.1627,-0.612559,-1.262423,-9.175476,13.70306,-0.9767859,39.19238,0,0,0,20.17532,-107.3754,-72.98171,-1.197964,-111.2317,-56.30258,0.001067912,-0.1257102,0.09433498,0,0.3,0,0,0,0,
6.38224E+17,11.68574,-0.9818845,-16.06292,-22.18707,49.56238,-142.1627,-0.612559,-1.262423,-9.175476,13.70306,-0.9767859,39.19238,0,0,0,19.53197,-107.0789,-73.91531,-1.197964,-111.2317,-56.30258,0.001067912,-0.1257102,0.09433498,0,0.3,0,0,0,0,
6.38224E+17,11.07318,-0.9818845,-16.41313,-23.359,49.12291,-142.2359,-0.612559,-1.262423,-9.175476,13.70306,-0.9767859,39.19238,0,0,0,18.37096,-106.851,-74.47989,-1.197964,-111.2317,-56.30258,0.001067912,-0.1257102,0.09433498,0,0.3,0,0,0,0,
6.38224E+17,10.46062,-0.9818845,-16.41313,-24.8239,48.6102,-142.2359,-0.612559,-1.262423,-9.175476,13.70306,-0.9767859,39.26562,0,0,0,17.36635,-106.851,-74.28885,-1.197964,-111.2317,-56.30258,0.001067912,-0.1257102,0.09433498,0,0.3,0,0,0,0,
6.38224E+17,10.27214,-0.9585064,-16.41313,-25.70284,48.39046,-142.2359,-0.612559,-1.262423,-9.175476,13.70306,-0.9767859,39.19238,0,0,0,17.057,-106.7966,-74.23132,-1.197964,-111.2317,-56.30258,0.001067912,-0.1257102,0.09433498,0,0.3,0,0,0,0,
6.38224E+17,10.27214,-0.9585064,-16.41313,-27.75371,47.95099,-142.2359,-0.612559,-1.262423,-9.175476,13.70306,-0.9767859,39.26562,0,0,0,17.057,-106.7966,-74.23132,-1.197964,-111.2317,-56.30258,0.001067912,-0.1257102,0.09433498,0,0.3,0,0,0,0,
6.38224E+17,10.27214,-0.9351282,-16.41313,-30.24404,47.65801,-142.2359,-0.612559,-1.262423,-9.175476,13.70306,-0.9767859,39.26562,0,0,0,17.05716,-106.7422,-74.23044,-1.197964,-111.2317,-56.30258,0.001067912,-0.1257102,0.09433498,0,0.3,0,0,0,0,
6.38224E+17,10.2957,-0.9117499,-16.36643,-31.70894,47.51152,-142.2359,-0.612559,-1.262423,-9.175476,13.70306,-0.9767859,39.19238,0,0,0,17.11465,-106.7185,-74.13402,-1.197964,-111.2317,-56.30258,0.001067912,-0.1257102,0.09433498,0,0.3,0,0,0,0,
6.38224E+17,10.50774,-0.6779679,-15.92284,-36.25014,47.36503,-142.2359,-0.612559,-1.262423,-9.175476,13.70306,-0.9767859,39.19238,0,0,0,17.64544,-106.4615,-73.2155,-1.197964,-111.2317,-56.30258,0.001067912,-0.1257102,0.09433498,0,0.3,0,0,0,0,
6.38224E+17,11.02606,0.233782,-15.26911,-42.47599,47.58476,-142.2359,-0.612559,-1.262423,-9.175476,13.70306,-0.9767859,39.19238,0,0,0,18.78717,-104.7486,-71.93255,-1.197964,-111.2317,-56.30258,0.001067912,-0.1257102,0.09433498,0,0.3,0,0,0,0,
6.38224E+17,11.68574,1.636474,-14.87221,-47.38342,48.31721,-141.9429,-0.612559,-1.262423,-9.175476,13.70306,-0.9767859,39.19238,0,0,0,20.06589,-101.7247,-71.33392,-1.197964,-111.2317,-56.30258,0.001067912,-0.1257102,0.09433498,0,0.3,0,0,0,0,
6.38224E+17,12.13338,2.59498,-14.82551,-49.65401,48.97642,-141.5034,-0.612559,-1.262423,-9.175476,13.70306,-0.9767859,39.19238,0,0,0,20.828,-99.52323,-71.47147,-1.197964,-111.2317,-56.30258,0.001067912,-0.1257102,0.09433498,0,0.3,0,0,0,0,
6.38224E+17,12.98154,4.769154,-14.82551,-52.36408,50.44132,-135.3509,-0.612559,-1.262423,-9.175476,13.70306,-0.9767859,39.19238,0,0,0,22.18678,-94.47382,-72.10703,-1.197964,-111.2317,-56.30258,0.001067912,-0.1257102,0.09433498,0,0.3,0,0,0,0,
6.38224E+17,13.90038,7.714807,-14.82551,-53.31627,52.05272,-129.0518,-0.612559,-1.262423,-9.175476,13.70306,-0.9767859,39.19238,0,0,0,23.54823,-87.65951,-73.19869,-1.197964,-111.2317,-56.30258,0.001067912,-0.1257102,0.09433498,0,0.3,0,0,0,0,
6.38224E+17,14.6543,11.1514,-14.82551,-52.21759,53.29788,-123.7781,-0.612559,-1.262423,-9.175476,13.70306,-0.9767859,39.26562,0,0,0,24.46661,-79.77052,-74.78484,-1.197964,-111.2317,-56.30258,0.001067912,-0.1257102,0.09433498,0,0.3,0,0,0,0,
6.38224E+17,14.93702,15.10232,-14.66208,-49.50752,54.10358,-120.3356,-0.612559,-1.262423,-9.175476,13.70306,-0.9767859,39.19238,0,0,0,24.48463,-70.91403,-76.56866,-1.197964,-111.2317,-56.30258,0.001067912,-0.1257102,0.09433498,0,0.3,0,0,0,0,
6.38224E+17,14.96058,17.1596,-14.31187,-47.82288,54.39656,-118.7975,-0.612559,-1.262423,-9.175476,13.70306,-0.9767859,39.26562,0,0,0,24.38269,-66.51858,-77.10146,-1.197964,-111.2317,-56.30258,0.001067912,-0.1257102,0.09433498,0,0.3,0,0,0,0,
6.38224E+17,14.96058,21.60146,-13.2379,-43.20844,54.39656,-113.3773,-0.612559,-1.262423,-9.175476,13.70306,-0.9767859,39.19238,0,0,0,24.124,-57.36401,-78.06956,-1.197964,-111.2317,-56.30258,0.001067912,-0.1257102,0.09433498,0,0.3,0,0,0,0,
6.38224E+17,14.91346,25.43548,-11.20669,-37.56856,53.73735,-106.4923,-0.612559,-1.262423,-9.175476,13.70306,-0.9767859,39.19238,0,0,0,24.32253,-50.18425,-77.02554,-1.197964,-111.2317,-56.30258,0.001067912,-0.1257102,0.09433498,0,0.3,0,0,0,0,
6.38224E+17,14.91346,27.32912,-10.2728,-34.49226,53.22464,-103.0497,-0.612559,-1.262423,-9.175476,13.70306,-0.9767859,39.19238,0,0,0,24.36811,-46.64124,-76.85437,-1.197964,-111.2317,-56.30258,0.001067912,-0.1257102,0.09433498,0,0.3,0,0,0,0,
6.38224E+17,14.48938,30.85923,-7.564514,-29.43835,51.68649,-99.16775,-0.612559,-1.262423,-9.175476,13.70306,-0.9035407,39.19238,0,0,0,24.24871,-40.4402,-74.5154,-1.197964,-111.2317,-56.30258,0.001067912,-0.1257102,0.09433498,0,0.3,0,0,0,0,
6.38224E+17,14.27734,34.90366,-5.183093,-25.99582,49.04966,-97.55635,-0.612559,-1.262423,-9.175476,13.70306,-0.9767859,39.19238,0,0,0,23.99958,-33.15211,-74.04004,-1.197964,-111.2317,-56.30258,0.001067912,-0.1257102,0.09433498,0,0.3,0,0,0,0,
6.38224E+17,14.27734,37.31161,-3.595479,-24.53092,47.21854,-97.33662,-0.612559,-1.262423,-9.175476,13.70306,-0.9767859,39.19238,0,0,0,24.09371,-28.90747,-73.67015,-1.197964,-111.2317,-56.30258,0.001067912,-0.1257102,0.09433498,0,0.3,0,0,0,0,
6.38224E+17,14.3009,41.98725,0.2101254,-22.33356,43.2633,-97.11688,-0.612559,-1.262423,-9.175476,13.70306,-0.9767859,39.19238,0,0,0,24.6044,-20.79259,-71.82938,-1.197964,-111.2317,-56.30258,0.001067912,-0.1257102,0.09433498,0,0.3,0,0,0,0,
6.38224E+17,14.3009,46.96681,4.879579,-20.57568,38.7221,-95.79847,-0.612559,-1.262423,-9.175476,13.70306,-0.9767859,39.26562,0,0,0,25.28041,-12.04338,-69.1775,-1.197964,-111.2317,-56.30258,0.001067912,-0.1257102,0.09433498,0,0.3,0,0,0,0,
6.38224E+17,14.3009,51.66583,9.89924,-19.11078,34.10765,-93.60111,-0.612559,-1.262423,-9.175476,13.70306,-0.9767859,39.19238,0,0,0,26.09333,-3.414013,-65.98849,-1.197964,-111.2317,-56.30258,0.001067912,-0.1257102,0.09433498,0,0.3,0,0,0,0,
6.38224E+17,14.3009,57.01944,16.22635,-17.57263,28.24804,-90.15859,-0.612559,-1.262423,-9.175476,13.70306,-0.9767859,39.19238,0,0,0,27.13501,7.173313,-61.90209,-1.197964,-111.2317,-56.30258,0.001067912,-0.1257102,0.09433498,0,0.3,0,0,0,0,
6.38224E+17,14.3009,60.36252,20.4522,-16.69369,24.14631,-87.52177,-0.612559,-1.262423,-9.175476,13.70306,-0.9767859,39.19238,0,0,0,27.79871,14.30989,-59.29845,-1.197964,-111.2317,-56.30258,0.001067912,-0.1257102,0.09433498,0,0.3,0,0,0,0,
6.38224E+17,14.3009,62.32629,23.13714,-16.18097,21.50948,-85.83713,-0.612559,-1.262423,-9.175476,13.70306,-0.9767859,39.19238,0,0,0,28.24117,18.82141,-57.56272,-1.197964,-111.2317,-56.30258,0.001067912,-0.1257102,0.09433498,0,0.3,0,0,0,0,
6.38224E+17,14.3009,65.92653,28.6004,-15.30203,16.16258,-82.83408,-0.612559,-1.262423,-9.175476,13.70306,-0.9767859,39.19238,0,0,0,29.20421,28.02306,-53.78482,-1.197964,-111.2317,-56.30258,0.001067912,-0.1257102,0.09433498,0,0.3,0,0,0,0,
6.38224E+17,14.3009,68.84881,33.40994,-14.56958,10.74244,-80.124,-0.612559,-1.262423,-9.175476,13.70306,-0.9767859,39.19238,0,0,0,30.02275,36.40218,-50.57375,-1.197964,-111.2317,-56.30258,0.001067912,-0.1257102,0.09433498,0,0.3,0,0,0,0,
6.38224E+17,14.3009,69.97096,35.65128,-14.2766,8.105616,-78.73235,-0.612559,-1.262423,-9.175476,13.70306,-0.9767859,39.19238,0,0,0,30.48031,40.2774,-48.77879,-1.197964,-111.2317,-56.30258,0.001067912,-0.1257102,0.09433498,0,0.3,0,0,0,0,
6.38224E+17,14.27734,71.81784,39.69035,-13.76388,3.051698,-76.242,-0.612559,-1.262423,-9.175476,13.70306,-0.9767859,39.19238,0,0,0,31.26417,47.42796,-45.49276,-1.197964,-111.2317,-56.30258,0.001067912,-0.1257102,0.09433498,0,0.3,0,0,0,0,
6.38224E+17,14.27734,73.50108,43.58934,-13.4709,-1.782483,-73.89817,-0.612559,-1.262423,-9.175476,13.70306,-0.9767859,39.26562,0,0,0,32.01414,54.6239,-42.54565,-1.197964,-111.2317,-56.30258,0.001067912,-0.1257102,0.09433498,0,0.3,0,0,0,0,
6.38224E+17,14.13598,75.23106,47.48834,-13.32441,-6.470173,-71.70081,-0.612559,-1.262423,-9.175476,13.70306,-0.9767859,39.26562,0,0,0,32.30873,62.18438,-40.06454,-1.197964,-111.2317,-56.30258,0.001067912,-0.1257102,0.09433498,0,0.3,0,0,0,0,
6.38224E+17,13.80614,76.42335,50.17327,-13.25116,-9.766206,-70.23591,-0.612559,-1.262423,-9.175476,13.70306,-0.9767859,39.19238,0,0,0,31.90921,67.56736,-38.499,-1.197964,-111.2317,-56.30258,0.001067912,-0.1257102,0.09433498,0,0.3,0,0,0,0,
6.38224E+17,13.07578,77.94293,53.67536,-13.4709,-13.86794,-68.03855,-0.612559,-1.262423,-9.175476,13.70306,-0.9035407,39.19238,0,0,0,30.60829,74.76714,-36.56636,-1.197964,-111.2317,-56.30258,0.001067912,-0.1257102,0.09433498,0,0.3,0,0,0,0,
6.38224E+17,11.28522,79.81319,58.088,-15.15554,-19.36132,-64.66927,-0.612559,-1.262423,-9.175476,13.70306,-0.9767859,39.19238,0,0,0,26.76685,84.10695,-34.21495,-1.197964,-111.2317,-56.30258,0.001067912,-0.1257102,0.09433498,0,0.3,0,0,0,0,
6.38224E+17,9.942304,80.49116,60.18925,-16.91342,-22.07139,-62.39867,-0.612559,-1.262423,-9.175476,13.70306,-0.9767859,39.19238,0,0,0,23.78057,88.5746,-32.68497,-1.197964,-111.2317,-56.30258,0.001067912,-0.1257102,0.09433498,0,0.3,0,0,0,0,
6.38224E+17,6.502549,81.21588,64.0649,-22.99277,-26.90557,-56.02634,-0.612559,-1.262423,-9.175476,13.70306,-0.9767859,39.19238,0,0,0,15.88685,96.8149,-28.96801,-1.197964,-111.2317,-56.30258,0.001067912,-0.1257102,0.09433498,0,0.3,0,0,0,0,
6.38224E+17,2.850755,81.14574,67.47359,-33.02736,-29.98187,-47.16368,-0.612559,-1.262423,-9.175476,13.70306,-0.9767859,39.26562,0,0,0,7.146915,104.0233,-24.82658,-1.197964,-111.2317,-56.30258,0.001067912,-0.1257102,0.09433498,0,0.3,0,0,0,0,
6.38224E+17,-0.02355996,80.6548,70.13519,-44.89308,-31.22704,-37.6418,-0.612559,-1.262423,-9.175476,13.70306,-0.9767859,39.19238,0,0,0,-0.06047459,109.6176,-21.28106,-1.197964,-111.2317,-56.30258,0.001067912,-0.1257102,0.09433498,0,0.3,0,0,0,0,
6.38224E+17,-2.403116,80.00021,71.27921,-55.66012,-31.08055,-30.39053,-0.612559,-1.262423,-9.175476,13.70306,-0.9767859,39.26562,0,0,0,-6.266457,111.8746,-19.03097,-1.197964,-111.2317,-56.30258,0.001067912,-0.1257102,0.09433498,0,0.3,0,0,0,0,
6.38224E+17,-3.557554,79.67291,71.3259,-59.83509,-30.42134,-28.04669,-0.612559,-1.262423,-9.175476,13.70306,-0.9767859,39.26562,0,0,0,-9.322259,111.8431,-18.40442,-1.197964,-111.2317,-56.30258,0.001067912,-0.1257102,0.09433498,0,0.3,0,0,0,0,
6.38224E+17,-5.701511,78.92482,71.16247,-65.47498,-28.44372,-25.40986,-0.612559,-1.262423,-9.175476,13.70306,-0.9035407,39.26562,0,0,0,-15.08307,111.1597,-17.27745,-1.197964,-111.2317,-56.30258,0.001067912,-0.1257102,0.09433498,0,0.3,0,0,0,0,
6.38224E+17,-7.609867,78.12995,71.06908,-69.28372,-25.8069,-24.09145,-0.612559,-1.262423,-9.175476,13.70306,-0.9767859,39.19238,0,0,0,-20.33633,110.5861,-16.13624,-1.197964,-111.2317,-56.30258,0.001067912,-0.1257102,0.09433498,0,0.3,0,0,0,0,
6.38224E+17,-8.622946,77.68577,70.95234,-71.0416,-24.342,-23.72522,-0.612559,-1.262423,-9.175476,13.70306,-0.9767859,39.19238,0,0,0,-23.16269,110.1126,-15.60757,-1.197964,-111.2317,-56.30258,0.001067912,-0.1257102,0.09433498,0,0.3,0,0,0,0,
6.38224E+17,-10.60198,76.72726,70.13519,-73.89817,-21.41219,-23.50549,-0.612559,-1.262423,-9.175476,13.70306,-0.9767859,39.19238,0,0,0,-28.70736,107.8254,-14.98295,-1.197964,-111.2317,-56.30258,0.001067912,-0.1257102,0.09433498,0,0.3,0,0,0,0,
6.38224E+17,-13.28782,75.34795,68.47753,-76.16876,-17.60344,-26.50854,-0.612559,-1.262423,-9.175476,13.70306,-0.9767859,39.19238,0,0,0,-36.26521,103.4418,-14.79152,-1.197964,-111.2317,-56.30258,0.001067912,-0.1257102,0.09433498,0,0.3,0,0,0,0,
6.38224E+17,-15.64381,73.75823,66.70313,-77.78016,-13.86794,-32.4414,-0.612559,-1.262423,-9.175476,13.70306,-0.9767859,39.26562,0,0,0,-43.0842,98.63873,-14.49406,-1.197964,-111.2317,-56.30258,0.001067912,-0.1257102,0.09433498,0,0.3,0,0,0,0,
6.38224E+17,-16.75113,72.89324,65.62917,-78.51261,-11.81707,-36.25014,-0.612559,-1.262423,-9.175476,13.70306,-0.9767859,39.19238,0,0,0,-46.31417,95.77471,-14.47589,-1.197964,-111.2317,-56.30258,0.001067912,-0.1257102,0.09433498,0,0.3,0,0,0,0,
6.38224E+17,-18.89509,71.04636,63.15435,-79.53804,-7.788587,-45.40579,-0.612559,-1.262423,-9.175476,13.70306,-0.9767859,39.19238,0,0,0,-52.55568,89.25066,-14.80449,-1.197964,-111.2317,-56.30258,0.001067912,-0.1257102,0.09433498,0,0.3,0,0,0,0,
6.38224E+17,-21.15685,68.59165,60.07252,-80.19725,-3.174141,-58.37019,-0.612559,-1.262423,-9.175476,13.70306,-0.9767859,39.19238,0,0,0,-59.27902,80.97041,-15.17747,-1.197964,-111.2317,-56.30258,0.001067912,-0.1257102,0.09433498,0,0.3,0,0,0,0,
6.38224E+17,-22.33484,67.07206,58.57829,-80.34374,-0.8302955,-65.18199,-0.612559,-1.262423,-9.175476,13.70306,-0.9767859,39.19238,0,0,0,-62.98591,76.645,-15.0401,-1.197964,-111.2317,-56.30258,0.001067912,-0.1257102,0.09433498,0,0.3,0,0,0,0,
6.38224E+17,-23.0652,66.11356,57.73779,-80.34374,0.4148723,-68.84425,-0.612559,-1.262423,-9.175476,13.70306,-0.9767859,39.19238,0,0,0,-65.33273,74.09702,-14.9214,-1.197964,-111.2317,-56.30258,0.001067912,-0.1257102,0.09433498,0,0.3,0,0,0,0,
6.38224E+17,-24.45524,64.17316,55.70658,-80.49023,2.758718,-76.09552,-0.612559,-1.262423,-9.175476,13.70306,-0.9767859,39.19238,0,0,0,-69.65794,68.24676,-15.18262,-1.197964,-111.2317,-56.30258,0.001067912,-0.1257102,0.09433498,0,0.3,0,0,0,0,
6.38224E+17,-25.68036,62.16264,53.62867,-80.49023,4.956073,-84.07924,-0.612559,-1.262423,-9.175476,13.70306,-0.9035407,39.19238,0,0,0,-73.51427,62.18961,-15.46453,-1.197964,-111.2317,-56.30258,0.001067912,-0.1257102,0.09433498,0,0.3,0,0,0,0,
6.38224E+17,-26.74056,60.12874,51.69085,-80.56348,6.933692,-90.67131,-0.612559,-1.262423,-9.175476,13.70306,-0.9767859,39.19238,0,0,0,-76.9651,56.31976,-15.59141,-1.197964,-111.2317,-56.30258,0.001067912,-0.1257102,0.09433498,0,0.3,0,0,0,0,
6.38224E+17,-27.21176,59.1001,50.64022,-80.56348,7.88588,-92.79542,-0.612559,-1.262423,-9.175476,13.70306,-0.9767859,39.19238,0,0,0,-78.46198,53.20411,-15.75653,-1.197964,-111.2317,-56.30258,0.001067912,-0.1257102,0.09433498,0,0.3,0,0,0,0,
6.38224E+17,-27.94211,56.94931,48.49227,-80.63672,9.717009,-95.13927,-0.612559,-1.262423,-9.175476,13.70306,-0.9767859,39.19238,0,0,0,-80.8711,46.74856,-15.88217,-1.197964,-111.2317,-56.30258,0.001067912,-0.1257102,0.09433498,0,0.3,0,0,0,0,
6.38224E+17,-28.34263,54.84526,46.36767,-80.41698,11.47489,-95.43224,-0.612559,-1.262423,-9.175476,13.70306,-0.9767859,39.26562,0,0,0,-82.27184,40.36172,-15.82661,-1.197964,-111.2317,-56.30258,0.001067912,-0.1257102,0.09433498,0,0.3,0,0,0,0,
6.38224E+17,-28.46043,53.69973,45.20031,-80.05076,12.35384,-94.18707,-0.612559,-1.262423,-9.175476,13.70306,-0.9767859,39.26562,0,0,0,-82.71376,36.8577,-15.759,-1.197964,-111.2317,-56.30258,0.001067912,-0.1257102,0.09433498,0,0.3,0,0,0,0,
6.38224E+17,-28.86095,51.24502,42.77219,-79.31831,13.96523,-90.81779,-0.612559,-1.262423,-9.175476,13.70306,-0.9767859,39.26562,0,0,0,-84.00271,29.4535,-15.93394,-1.197964,-111.2317,-56.30258,0.001067912,-0.1257102,0.09433498,0,0.3,0,0,0,0,
6.38224E+17,-29.33215,48.43964,40.08725,-78.58585,15.57662,-89.64587,-0.612559,-1.262423,-9.175476,13.70306,-0.9767859,39.19238,0,0,0,-85.40265,21.10873,-16.36418,-1.197964,-111.2317,-56.30258,0.001067912,-0.1257102,0.09433498,0,0.3,0,0,0,0,
6.38224E+17,-29.52063,47.0837,38.8732,-77.99989,16.52881,-89.3529,-0.612559,-1.262423,-9.175476,13.70306,-0.9767859,39.26562,0,0,0,-85.97877,17.19088,-16.51064,-1.197964,-111.2317,-56.30258,0.001067912,-0.1257102,0.09433498,0,0.3,0,0,0,0,
6.38224E+17,-29.87403,42.99252,34.74073,-75.80254,19.60511,-88.47395,-0.612559,-1.262423,-9.175476,13.70306,-0.9767859,39.19238,0,0,0,-86.43401,4.702827,-17.87888,-1.197964,-111.2317,-56.30258,0.001067912,-0.1257102,0.09433498,0,0.3,0,0,0,0,
6.38224E+17,-29.87403,41.91712,33.55002,-75.14333,20.4108,-88.03448,-0.612559,-1.262423,-9.175476,13.70306,-0.9767859,39.19238,0,0,0,-86.13313,1.300745,-18.40267,-1.197964,-111.2317,-56.30258,0.001067912,-0.1257102,0.09433498,0,0.3,0,0,0,0,
6.38224E+17,-29.87403,39.67281,31.21529,-73.23896,22.46167,-85.25117,-0.612559,-1.262423,-9.175476,13.70306,-0.9767859,39.26562,0,0,0,-85.54737,-5.563389,-19.4224,-1.197964,-111.2317,-56.30258,0.001067912,-0.1257102,0.09433498,0,0.3,0,0,0,0,
6.38224E+17,-29.87403,37.77918,29.34751,-70.96836,24.36604,-82.32136,-0.612559,-1.262423,-9.175476,13.70306,-0.9767859,39.19238,0,0,0,-85.05089,-11.19343,-20.28671,-1.197964,-111.2317,-56.30258,0.001067912,-0.1257102,0.09433498,0,0.3,0,0,0,0,
6.38224E+17,-29.87403,36.8908,28.46032,-69.64995,25.31823,-81.07619,-0.612559,-1.262423,-9.175476,13.70306,-0.9767859,39.26562,0,0,0,-84.7751,-13.83538,-20.76683,-1.197964,-111.2317,-56.30258,0.001067912,-0.1257102,0.09433498,0,0.3,0,0,0,0,
6.38224E+17,-29.77979,35.53487,27.08283,-67.08636,27.00287,-79.39155,-0.612559,-1.262423,-9.175476,13.70306,-0.9767859,39.19238,0,0,0,-84.04935,-17.87529,-21.47144,-1.197964,-111.2317,-56.30258,0.001067912,-0.1257102,0.09433498,0,0.3,0,0,0,0,
6.38224E+17,-29.70911,34.71663,26.24233,-64.59603,28.10155,-78.29288,-0.612559,-1.262423,-9.175476,13.70306,-0.9767859,39.26562,0,0,0,-83.54475,-20.31063,-21.93455,-1.197964,-111.2317,-56.30258,0.001067912,-0.1257102,0.09433498,0,0.3,0,0,0,0,
6.38224E+17,-29.70911,34.29583,25.77538,-62.7649,28.834,-77.92664,-0.612559,-1.262423,-9.175476,13.70306,-0.9035407,39.19238,0,0,0,-83.33567,-21.59426,-22.30098,-1.197964,-111.2317,-56.30258,0.001067912,-0.1257102,0.09433498,0,0.3,0,0,0,0,
6.38224E+17,-29.70911,34.06204,25.47187,-62.17894,29.05373,-77.8534,-0.612559,-1.262423,-9.175476,13.70306,-0.9767859,39.19238,0,0,0,-83.1715,-22.34988,-22.5887,-1.197964,-111.2317,-56.30258,0.001067912,-0.1257102,0.09433498,0,0.3,0,0,0,0,
6.38224E+17,-29.70911,33.36069,24.44459,-61.22675,29.34671,-77.78016,-0.612559,-1.262423,-9.175476,13.70306,-0.9767859,39.19238,0,0,0,-82.54623,-24.71654,-23.68451,-1.197964,-111.2317,-56.30258,0.001067912,-0.1257102,0.09433498,0,0.3,0,0,0,0,
6.38224E+17,-29.70911,32.58922,23.464,-60.64079,29.71294,-77.8534,-0.612559,-1.262423,-9.175476,13.70306,-0.9767859,39.19238,0,0,0,-81.99693,-27.14941,-24.64718,-1.197964,-111.2317,-56.30258,0.001067912,-0.1257102,0.09433498,0,0.3,0,0,0,0,
6.38224E+17,-29.70911,32.05152,22.92702,-60.12807,30.07917,-77.92664,-0.612559,-1.262423,-9.175476,13.70306,-0.9767859,39.19238,0,0,0,-81.75921,-28.69921,-25.0638,-1.197964,-111.2317,-56.30258,0.001067912,-0.1257102,0.09433498,0,0.3,0,0,0,0,
6.38224E+17,-29.70911,31.04625,21.94643,-59.17588,31.03135,-77.99989,-0.612559,-1.262423,-9.175476,13.70306,-0.9767859,39.19238,0,0,0,-81.32047,-31.56404,-25.83271,-1.197964,-111.2317,-56.30258,0.001067912,-0.1257102,0.09433498,0,0.3,0,0,0,0,
6.38224E+17,-29.70911,30.08775,21.05923,-58.51668,32.20328,-77.8534,-0.612559,-1.262423,-9.175476,13.70306,-0.9767859,39.26562,0,0,0,-80.9306,-34.2417,-26.51596,-1.197964,-111.2317,-56.30258,0.001067912,-0.1257102,0.09433498,0,0.3,0,0,0,0,
6.38224E+17,-29.70911,29.57343,20.47555,-58.22369,33.15546,-77.26745,-0.612559,-1.262423,-9.175476,13.70306,-0.9767859,39.19238,0,0,0,-80.5962,-35.76179,-27.10201,-1.197964,-111.2317,-56.30258,0.001067912,-0.1257102,0.09433498,0,0.3,0,0,0,0,
6.38224E+17,-29.70911,29.15262,19.91522,-58.15046,33.88792,-76.97446,-0.612559,-1.262423,-9.175476,13.70306,-0.9767859,39.19238,0,0,0,-80.22762,-37.06556,-27.74796,-1.197964,-111.2317,-56.30258,0.001067912,-0.1257102,0.09433498,0,0.3,0,0,0,0,
6.38224E+17,-29.70911,28.87208,19.56501,-58.22369,34.40063,-76.97446,-0.612559,-1.262423,-9.175476,13.70306,-0.9767859,39.19238,0,0,0,-80.00435,-37.91185,-28.13925,-1.197964,-111.2317,-56.30258,0.001067912,-0.1257102,0.09433498,0,0.3,0,0,0,0,
6.38224E+17,-29.70911,28.03047,18.74786,-58.58992,35.42606,-76.90121,-0.612559,-1.262423,-9.175476,13.70306,-0.9767859,39.19238,0,0,0,-79.57648,-40.25811,-28.88911,-1.197964,-111.2317,-56.30258,0.001067912,-0.1257102,0.09433498,0,0.3,0,0,0,0,
6.38224E+17,-29.70911,26.83818,17.76727,-59.02939,36.37825,-76.90121,-0.612559,-1.262423,-9.175476,13.70306,-0.9767859,39.19238,0,0,0,-79.13599,-43.43591,-29.6611,-1.197964,-111.2317,-56.30258,0.001067912,-0.1257102,0.09433498,0,0.3,0,0,0,0,
6.38224E+17,-29.70911,25.529,16.85673,-59.24913,37.47693,-76.90121,-0.612559,-1.262423,-9.175476,13.70306,-0.9767859,39.19238,0,0,0,-78.79961,-46.80077,-30.25061,-1.197964,-111.2317,-56.30258,0.001067912,-0.1257102,0.09433498,0,0.3,0,0,0,0,
6.38224E+17,-29.70911,24.9913,16.43647,-59.24913,38.06289,-76.90121,-0.612559,-1.262423,-9.175476,13.70306,-0.9767859,39.19238,0,0,0,-78.59985,-48.21273,-30.6007,-1.197964,-111.2317,-56.30258,0.001067912,-0.1257102,0.09433498,0,0.3,0,0,0,0,
6.38224E+17,-29.70911,24.07955,15.50258,-58.73641,39.08832,-76.3885,-0.612559,-1.262423,-9.175476,13.70306,-0.9767859,39.19238,0,0,0,-78.00094,-50.7411,-31.65031,-1.197964,-111.2317,-56.30258,0.001067912,-0.1257102,0.09433498,0,0.3,0,0,0,0,
6.38224E+17,-29.70911,23.23793,14.61539,-57.63773,39.96726,-74.9236,-0.612559,-1.262423,-9.175476,13.70306,-0.9767859,39.26562,0,0,0,-77.40231,-53.0717,-32.69944,-1.197964,-111.2317,-56.30258,0.001067912,-0.1257102,0.09433498,0,0.3,0,0,0,0,
6.38224E+17,-29.70911,22.86388,14.21848,-57.12502,40.33349,-74.26439,-0.612559,-1.262423,-9.175476,13.70306,-0.9767859,39.19238,0,0,0,-77.12785,-54.10274,-33.18044,-1.197964,-111.2317,-56.30258,0.001067912,-0.1257102,0.09433498,0,0.3,0,0,0,0,
6.38224E+17,-29.70911,21.90538,13.28459,-56.46581,40.99269,-73.23896,-0.612559,-1.262423,-9.175476,13.70306,-0.9767859,39.26562,0,0,0,-76.50256,-56.68212,-34.27626,-1.197964,-111.2317,-56.30258,0.001067912,-0.1257102,0.09433498,0,0.3,0,0,0,0,
6.38224E+17,-29.70911,20.43255,11.90711,-56.24608,41.72515,-72.36002,-0.612559,-1.262423,-9.175476,13.70306,-0.9767859,39.26562,0,0,0,-75.56544,-60.57768,-35.91861,-1.197964,-111.2317,-56.30258,0.001067912,-0.1257102,0.09433498,0,0.3,0,0,0,0,
6.38224E+17,-29.68555,18.28176,9.502337,-56.24608,42.82383,-69.50346,-0.612559,-1.262423,-9.175476,13.70306,-0.9767859,39.19238,0,0,0,-73.60928,-66.33971,-39.22354,-1.197964,-111.2317,-56.30258,0.001067912,-0.1257102,0.09433498,0,0.3,0,0,0,0,
6.38224E+17,-29.37927,16.83231,7.354388,-56.31932,43.9225,-65.69471,-0.612559,-1.262423,-9.175476,13.70306,-0.9767859,39.19238,0,0,0,-70.99131,-70.28861,-42.25408,-1.197964,-111.2317,-56.30258,0.001067912,-0.1257102,0.09433498,0,0.3,0,0,0,0,
6.38224E+17,-29.00231,16.03745,6.000247,-56.31932,44.58171,-63.35086,-0.612559,-1.262423,-9.175476,13.70306,-0.9767859,39.19238,0,0,0,-68.89629,-72.42942,-44.06963,-1.197964,-111.2317,-56.30258,0.001067912,-0.1257102,0.09433498,0,0.3,0,0,0,0,
6.38224E+17,-27.91855,14.93867,3.478743,-55.66012,46.04661,-60.34781,-0.612559,-1.262423,-9.175476,13.70306,-0.9767859,39.26562,0,0,0,-64.11493,-75.37865,-47.35273,-1.197964,-111.2317,-56.30258,0.001067912,-0.1257102,0.09433498,0,0.3,0,0,0,0,
6.38224E+17,-26.17512,14.49449,0.7237652,-54.3417,47.51152,-58.95615,-0.612559,-1.262423,-9.175476,13.70306,-0.9767859,39.26562,0,0,0,-57.69364,-76.61361,-50.97238,-1.197964,-111.2317,-56.30258,0.001067912,-0.1257102,0.09433498,0,0.3,0,0,0,0,
6.38224E+17,-25.09136,14.49449,-0.6537234,-53.53601,48.24397,-58.66317,-0.612559,-1.262423,-9.175476,13.70306,-0.9767859,39.19238,0,0,0,-54.10374,-76.61557,-52.80552,-1.197964,-111.2317,-56.30258,0.001067912,-0.1257102,0.09433498,0,0.3,0,0,0,0,
6.38224E+17,-22.52332,14.49449,-3.128534,-50.97242,49.78212,-58.37019,-0.612559,-1.262423,-9.175476,13.62981,-0.9767859,39.19238,0,0,0,-46.66736,-76.42551,-55.81461,-1.197964,-111.2317,-56.30258,0.001067912,-0.1257102,0.09433498,0,0.3,0,0,0,0,
6.38224E+17,-19.55477,14.51786,-5.369871,-47.01719,51.54,-58.22369,-0.612559,-1.262423,-9.175476,13.70306,-0.9767859,39.19238,0,0,0,-39.03112,-75.98634,-58.46344,-1.197964,-111.2317,-56.30258,0.001067912,-0.1257102,0.09433498,0,0.3,0,0,0,0,
6.38224E+17,-16.18569,14.54124,-7.307694,-42.18301,53.44437,-58.22369,-0.612559,-1.262423,-9.175476,13.70306,-0.9767859,39.19238,0,0,0,-31.25265,-75.43575,-60.67734,-1.197964,-111.2317,-56.30258,0.001067912,-0.1257102,0.09433498,0,0.3,0,0,0,0,
6.38224E+17,-13.52342,14.54124,-8.311626,-38.37426,54.90928,-58.29694,-0.612559,-1.262423,-9.175476,13.70306,-0.9767859,39.26562,0,0,0,-25.67634,-75.11826,-61.59257,-1.197964,-111.2317,-56.30258,0.001067912,-0.1257102,0.09433498,0,0.3,0,0,0,0,
6.38224E+17,-10.48418,14.72827,-9.362254,-33.39359,56.52067,-58.37019,-0.612559,-1.262423,-9.175476,13.70306,-0.9035407,39.19238,0,0,0,-19.52031,-74.32146,-62.86535,-1.197964,-111.2317,-56.30258,0.001067912,-0.1257102,0.09433498,0,0.3,0,0,0,0,
6.38224E+17,-7.162228,16.27123,-9.969283,-25.92258,57.98557,-58.37019,-0.612559,-1.262423,-9.175476,13.70306,-0.9767859,39.19238,0,0,0,-13.08174,-70.62388,-64.24547,-1.197964,-111.2317,-56.30258,0.001067912,-0.1257102,0.09433498,0,0.3,0,0,0,0,
6.38224E+17,-5.513031,17.06609,-9.969283,-22.11383,58.3518,-58.00396,-0.612559,-1.262423,-9.175476,13.70306,-0.9767859,39.19238,0,0,0,-10.02922,-68.85168,-64.44027,-1.197964,-111.2317,-56.30258,0.001067912,-0.1257102,0.09433498,0,0.3,0,0,0,0,
6.38224E+17,-1.531397,18.37527,-9.689116,-14.2766,58.86452,-56.17283,-0.612559,-1.262423,-9.175476,13.70306,-0.9767859,39.19238,0,0,0,-2.782251,-66.06065,-64.2795,-1.197964,-111.2317,-56.30258,0.001067912,-0.1257102,0.09433498,0,0.3,0,0,0,0,
6.38224E+17,2.968555,19.56756,-9.245518,-5.413931,59.08425,-53.24303,-0.612559,-1.262423,-9.175476,13.70306,-0.9767859,39.26562,0,0,0,5.397538,-63.60632,-64.26591,-1.197964,-111.2317,-56.30258,0.001067912,-0.1257102,0.09433498,0,0.3,0,0,0,0,
6.38224E+17,8.057507,21.06376,-8.70853,4.620657,58.79127,-49.87375,-0.612559,-1.262423,-9.175476,13.70306,-0.9767859,39.19238,0,0,0,14.61232,-60.53578,-65.12972,-1.197964,-111.2317,-56.30258,0.001067912,-0.1257102,0.09433498,0,0.3,0,0,0,0,
6.38224E+17,12.91086,22.65348,-7.938071,13.7763,57.61935,-47.16368,-0.612559,-1.262423,-9.175476,13.70306,-0.9767859,39.19238,0,0,0,23.38161,-57.36156,-66.34937,-1.197964,-111.2317,-56.30258,0.001067912,-0.1257102,0.09433498,0,0.3,0,0,0,0,
6.38224E+17,15.40822,23.56523,-7.42443,18.3175,56.81365,-46.21149,-0.612559,-1.262423,-9.175476,13.62981,-0.9767859,39.26562,0,0,0,27.89739,-55.56964,-67.12584,-1.197964,-111.2317,-56.30258,0.001067912,-0.1257102,0.09433498,0,0.3,0,0,0,0,
6.38224E+17,19.88461,25.529,-6.327109,25.86176,55.20226,-45.2593,-0.612559,-1.262423,-9.175476,13.70306,-0.9035407,39.26562,0,0,0,35.92927,-51.71819,-69.01311,-1.197964,-111.2317,-56.30258,0.001067912,-0.1257102,0.09433498,0,0.3,0,0,0,0,
6.38224E+17,23.67776,27.5629,-5.229787,31.2819,53.51762,-45.47904,-0.612559,-1.262423,-9.175476,13.70306,-0.9767859,39.19238,0,0,0,42.59301,-47.74089,-71.21799,-1.197964,-111.2317,-56.30258,0.001067912,-0.1257102,0.09433498,0,0.3,0,0,0,0,
6.38224E+17,25.539,28.52141,-4.809536,33.47925,52.63868,-46.21149,-0.612559,-1.262423,-9.175476,13.70306,-0.9767859,39.19238,0,0,0,45.69321,-45.85756,-72.71974,-1.197964,-111.2317,-56.30258,0.001067912,-0.1257102,0.09433498,0,0.3,0,0,0,0,
6.38224E+17,28.36619,30.50856,-3.572132,36.4823,51.17377,-48.04262,-0.612559,-1.262423,-9.175476,13.70306,-0.9767859,39.19238,0,0,0,50.63659,-42.04353,-74.56738,-1.197964,-111.2317,-56.30258,0.001067912,-0.1257102,0.09433498,0,0.3,0,0,0,0,
6.38224E+17,30.29811,32.51908,-2.077907,37.80072,50.0751,-51.11892,-0.612559,-1.262423,-9.175476,13.70306,-0.9767859,39.26562,0,0,0,54.2878,-38.22596,-75.44052,-1.197964,-111.2317,-56.30258,0.001067912,-0.1257102,0.09433498,0,0.3,0,0,0,0,
6.38224E+17,31.26407,34.88028,-0.7237652,37.58098,49.19616,-54.26846,-0.612559,-1.262423,-9.175476,13.70306,-0.9767859,39.19238,0,0,0,55.89919,-33.73136,-76.28197,-1.197964,-111.2317,-56.30258,0.001067912,-0.1257102,0.09433498,0,0.3,0,0,0,0,
6.38224E+17,31.35831,36.28297,-0.1400836,36.92178,48.6102,-56.31932,-0.612559,-1.262423,-9.175476,13.70306,-0.9767859,39.19238,0,0,0,55.76897,-31.08659,-76.83609,-1.197964,-111.2317,-56.30258,0.001067912,-0.1257102,0.09433498,0,0.3,0,0,0,0,
6.38224E+17,31.35831,39.15849,0.9105434,34.50468,47.07204,-61.44649,-0.612559,-1.262423,-9.175476,13.70306,-0.9767859,39.26562,0,0,0,54.91086,-25.77694,-78.2442,-1.197964,-111.2317,-56.30258,0.001067912,-0.1257102,0.09433498,0,0.3,0,0,0,0,
6.38224E+17,31.35831,42.64184,2.848366,30.69594,44.28873,-68.69775,-0.612559,-1.262423,-9.175476,13.70306,-0.9767859,39.19238,0,0,0,54.49463,-19.50218,-78.92721,-1.197964,-111.2317,-56.30258,0.001067912,-0.1257102,0.09433498,0,0.3,0,0,0,0,
6.38224E+17,31.33475,44.81602,4.692801,28.64507,42.38435,-72.5065,-0.612559,-1.262423,-9.175476,13.62981,-0.9767859,39.19238,0,0,0,54.86642,-15.56355,-78.23376,-1.197964,-111.2317,-56.30258,0.001067912,-0.1257102,0.09433498,0,0.3,0,0,0,0,
6.38224E+17,31.31119,46.26546,6.116984,27.69288,41.13919,-74.63062,-0.612559,-1.262423,-9.175476,13.70306,-0.9767859,39.19238,0,0,0,55.29296,-12.88864,-77.44904,-1.197964,-111.2317,-56.30258,0.001067912,-0.1257102,0.09433498,0,0.3,0,0,0,0,
6.38224E+17,30.72219,49.42152,9.292212,26.66745,37.98964,-77.56042,-0.612559,-1.262423,-9.175476,13.70306,-0.9767859,39.19238,0,0,0,55.31493,-6.968719,-75.27118,-1.197964,-111.2317,-56.30258,0.001067912,-0.1257102,0.09433498,0,0.3,0,0,0,0,
