zeyangz2/DNN_classification_different_people_hand/data/srikar_right_9.csv
Timestamp,Therapist joint angle 0,Therapist joint angle 1,Therapist joint angle 2,Therapist joint angle 3,Therapist joint angle 4,Therapist joint angle 5,Patient joint angle 0,Patient joint angle 1,Patient joint angle 2,Patient joint angle 3,Patient joint angle 4,Patient joint angle 5,Virtual joint angle 0,Virtual joint angle 1,Virtual joint angle 2,Therapist position x,Therapist position y,Therapist position z,Patient position x,Patient position y,Patient position z,Virtual position x,Virtual position y,Virtual position z,Assistive Force, Obstacle Force Magnitude, Therapist Constant Force, Patient Constant Force, Recovery Factor, Assistance Level,label
6.38224E+17,0,0,0,0,0,0,0,0,0,0,0,0,0,0,0,0,0,0,0,0,0,0,0,0,0,0.3,0,0,0,0,2
6.38224E+17,4.759112,-1.729987,-3.151881,-77.04771,-66.45797,-142.3824,-56.77951,-0.4675641,5.159746,-69.28372,-8.447793,-36.90935,0,0,0,10.45026,-113.824,-42.82702,-121.5853,-110.5478,-88.7247,0.001067912,-0.1257102,0.09433498,0,0.3,0,0,0,0,
6.38224E+17,4.759112,-1.729987,-3.151881,-76.97446,-66.38472,-142.3824,-56.77951,-0.4675641,5.159746,-69.28372,-8.447793,-36.83611,0,0,0,10.45026,-113.824,-42.82702,-121.5853,-110.5478,-88.7247,0.001067912,-0.1257102,0.09433498,0,0.3,0,0,0,0,
6.38224E+17,4.759112,-1.729987,-3.151881,-77.04771,-66.38472,-142.3824,-56.77951,-0.4675641,5.159746,-69.28372,-8.374548,-36.83611,0,0,0,10.45026,-113.824,-42.82702,-121.5853,-110.5478,-88.7247,0.001067912,-0.1257102,0.09433498,0,0.3,0,0,0,0,
6.38224E+17,4.759112,-1.729987,-3.151881,-76.97446,-66.38472,-142.3824,-56.77951,-0.4675641,5.159746,-69.28372,-8.447793,-36.83611,0,0,0,10.45026,-113.824,-42.82702,-121.5853,-110.5478,-88.7247,0.001067912,-0.1257102,0.09433498,0,0.3,0,0,0,0,
6.38224E+17,4.759112,-1.729987,-3.151881,-77.04771,-66.45797,-142.3824,-56.77951,-0.4675641,5.159746,-69.28372,-8.374548,-36.83611,0,0,0,10.45026,-113.824,-42.82702,-121.5853,-110.5478,-88.7247,0.001067912,-0.1257102,0.09433498,0,0.3,0,0,0,0,
6.38224E+17,4.759112,-1.729987,-3.151881,-77.04771,-66.38472,-142.3824,-56.77951,-0.4675641,5.159746,-69.28372,-8.374548,-36.90935,0,0,0,10.45026,-113.824,-42.82702,-121.5853,-110.5478,-88.7247,0.001067912,-0.1257102,0.09433498,0,0.3,0,0,0,0,
6.38224E+17,4.759112,-1.729987,-3.151881,-76.97446,-66.38472,-142.3824,-56.77951,-0.4675641,5.159746,-69.28372,-8.447793,-36.90935,0,0,0,10.45026,-113.824,-42.82702,-121.5853,-110.5478,-88.7247,0.001067912,-0.1257102,0.09433498,0,0.3,0,0,0,0,
6.38224E+17,4.759112,-1.729987,-3.151881,-77.04771,-66.38472,-142.3824,-56.77951,-0.4675641,5.159746,-69.28372,-8.374548,-36.83611,0,0,0,10.45026,-113.824,-42.82702,-121.5853,-110.5478,-88.7247,0.001067912,-0.1257102,0.09433498,0,0.3,0,0,0,0,
6.38224E+17,4.759112,-1.729987,-3.151881,-76.97446,-66.38472,-142.3824,-56.77951,-0.4675641,5.159746,-69.28372,-8.374548,-36.90935,0,0,0,10.45026,-113.824,-42.82702,-121.5853,-110.5478,-88.7247,0.001067912,-0.1257102,0.09433498,0,0.3,0,0,0,0,
6.38224E+17,4.759112,-1.729987,-3.151881,-77.04771,-66.38472,-142.3824,-56.77951,-0.4675641,5.159746,-69.21047,-8.374548,-36.83611,0,0,0,10.45026,-113.824,-42.82702,-121.5853,-110.5478,-88.7247,0.001067912,-0.1257102,0.09433498,0,0.3,0,0,0,0,
6.38224E+17,4.759112,-1.729987,-3.151881,-76.97446,-66.38472,-142.3824,-56.77951,-0.4675641,5.159746,-69.28372,-8.374548,-36.83611,0,0,0,10.45026,-113.824,-42.82702,-121.5853,-110.5478,-88.7247,0.001067912,-0.1257102,0.09433498,0,0.3,0,0,1.09E-07,0,
6.38224E+17,4.759112,-1.729987,-3.151881,-76.97446,-66.38472,-142.3824,-56.77951,-0.4675641,5.159746,-69.28372,-8.447793,-36.83611,0,0,0,10.45026,-113.824,-42.82702,-121.5853,-110.5478,-88.7247,0.001067912,-0.1257102,0.09433498,0,0.3,0,0,2.18E-07,0,
6.38224E+17,4.759112,-1.729987,-3.151881,-76.97446,-66.45797,-142.3824,-56.77951,-0.4675641,5.159746,-69.28372,-8.374548,-36.90935,0,0,0,10.45026,-113.824,-42.82702,-121.5853,-110.5478,-88.7247,0.001067912,-0.1257102,0.09433498,0,0.3,0,0,2.18E-07,0,
6.38224E+17,4.759112,-1.729987,-3.151881,-77.04771,-66.38472,-142.3824,-56.77951,-0.4675641,5.159746,-69.28372,-8.447793,-36.83611,0,0,0,10.45026,-113.824,-42.82702,-121.5853,-110.5478,-88.7247,0.001067912,-0.1257102,0.09433498,0,0.3,0,0,3.27E-07,0,
6.38224E+17,4.759112,-1.729987,-3.151881,-77.04771,-66.38472,-142.3824,-56.77951,-0.4675641,5.159746,-69.28372,-8.447793,-36.90935,0,0,0,10.45026,-113.824,-42.82702,-121.5853,-110.5478,-88.7247,0.001067912,-0.1257102,0.09433498,0,0.3,0,0,3.27E-07,0,
6.38224E+17,4.759112,-1.729987,-3.151881,-77.04771,-66.38472,-142.3824,-56.77951,-0.4675641,5.159746,-69.28372,-8.374548,-36.90935,0,0,0,10.45026,-113.824,-42.82702,-121.5853,-110.5478,-88.7247,0.001067912,-0.1257102,0.09433498,0,0.3,0,0,3.27E-07,0,
6.38224E+17,4.759112,-1.729987,-3.151881,-77.04771,-66.38472,-142.3824,-56.77951,-0.4675641,5.159746,-69.28372,-8.374548,-36.90935,0,0,0,10.45026,-113.824,-42.82702,-121.5853,-110.5478,-88.7247,0.001067912,-0.1257102,0.09433498,0,0.3,0,0,4.37E-07,0,
6.38224E+17,4.759112,-1.729987,-3.151881,-77.04771,-66.38472,-142.3824,-56.77951,-0.4675641,5.159746,-69.28372,-8.447793,-36.83611,0,0,0,10.45026,-113.824,-42.82702,-121.5853,-110.5478,-88.7247,0.001067912,-0.1257102,0.09433498,0,0.3,0,0,4.37E-07,0,
6.38224E+17,4.759112,-1.729987,-3.151881,-77.04771,-66.38472,-142.3824,-56.77951,-0.4675641,5.159746,-69.28372,-8.374548,-36.83611,0,0,0,10.45026,-113.824,-42.82702,-121.5853,-110.5478,-88.7247,0.001067912,-0.1257102,0.09433498,0,0.3,0,0,4.37E-07,0,
6.38224E+17,4.735552,-1.729987,-3.151881,-76.97446,-66.38472,-142.3824,-56.77951,-0.4675641,5.159746,-69.28372,-8.374548,-36.83611,0,0,0,10.39864,-113.824,-42.82273,-121.5853,-110.5478,-88.7247,0.001067912,-0.1257102,0.09433498,0,0.3,0,0,1.05E-05,0,
6.38224E+17,3.887394,-1.729987,-3.198575,-76.97446,-66.38472,-142.3824,-56.77951,-0.4675641,5.159746,-69.28372,-8.374548,-36.83611,0,0,0,8.532012,-113.818,-42.79082,-121.5853,-110.5478,-88.7247,0.001067912,-0.1257102,0.09433498,0,0.3,0,0,0.000545207,0,
6.38224E+17,3.746034,-1.729987,-3.198575,-76.90121,-66.38472,-142.3824,-56.77951,-0.4675641,5.159746,-69.28372,-8.447793,-36.83611,0,0,0,8.222208,-113.818,-42.77015,-121.5853,-110.5478,-88.7247,0.001067912,-0.1257102,0.09433498,0,0.3,0,0,0.001300595,0,
6.38224E+17,3.816714,-1.729987,-3.198575,-76.90121,-66.45797,-142.3824,-56.77951,-0.4675641,5.159746,-69.28372,-8.374548,-36.83611,0,0,0,8.377116,-113.818,-42.78039,-121.5853,-110.5478,-88.7247,0.001067912,-0.1257102,0.09433498,0,0.3,0,0,0.001946528,0,
6.38224E+17,3.675354,-1.729987,-3.198575,-76.82797,-66.45797,-142.3824,-56.77951,-0.4675641,5.159746,-69.28372,-8.374548,-36.90935,0,0,0,8.067286,-113.818,-42.76011,-121.5853,-110.5478,-88.7247,0.001067912,-0.1257102,0.09433498,0,0.3,0,0,0.002287227,0,
6.38224E+17,2.238196,-1.753365,-3.198575,-76.82797,-66.23824,-142.3824,-56.77951,-0.4675641,5.159746,-69.28372,-8.374548,-36.90935,0,0,0,4.914827,-113.8724,-42.59893,-121.5853,-110.5478,-88.7247,0.001067912,-0.1257102,0.09433498,0,0.3,0,0,0.003571454,0,
6.38224E+17,1.225118,-1.753365,-3.198575,-76.82797,-65.94525,-142.3824,-56.77951,-0.4675641,5.159746,-69.28372,-8.447793,-36.90935,0,0,0,2.6907,-113.8724,-42.53169,-121.5853,-110.5478,-88.7247,0.001067912,-0.1257102,0.09433498,0,0.3,0,0,0.005563488,0,
6.38224E+17,1.013078,-1.753365,-3.198575,-76.68148,-65.94525,-142.4556,-56.77951,-0.4675641,5.159746,-69.28372,-8.374548,-36.83611,0,0,0,2.225056,-113.8724,-42.52259,-121.5853,-110.5478,-88.7247,0.001067912,-0.1257102,0.09433498,0,0.3,0,0,0.006629129,0,
6.38224E+17,1.060198,-1.846878,-3.875646,-76.60824,-66.31148,-142.3824,-56.77951,-0.4675641,5.159746,-69.21047,-8.447793,-36.90935,0,0,0,2.299307,-113.9927,-44.10383,-121.5853,-110.5478,-88.7247,0.001067912,-0.1257102,0.09433498,0,0.3,0,0,0.008719052,0,
6.38224E+17,2.096837,-1.589718,-7.751292,-77.70691,-66.38472,-142.3824,-56.77951,-0.4675641,5.159746,-69.28372,-8.447793,-36.83611,0,0,0,4.219145,-112.481,-53.11389,-121.5853,-110.5478,-88.7247,0.001067912,-0.1257102,0.09433498,0,0.3,0,0,0.01090817,0,
6.38224E+17,3.109915,-1.800122,-8.942002,-80.34374,-65.28604,-142.3824,-56.77951,-0.4675641,5.159746,-69.28372,-8.374548,-36.83611,0,0,0,6.106397,-112.5682,-55.95878,-121.5853,-110.5478,-88.7247,0.001067912,-0.1257102,0.09433498,0,0.3,0,0,0.01279141,0,
6.38224E+17,4.806232,-1.753365,-8.942002,-82.32136,-60.89133,-142.0894,-56.77951,-0.4675641,5.159746,-69.28372,-8.447793,-36.90935,0,0,0,9.431008,-112.4594,-56.18543,-121.5853,-110.5478,-88.7247,0.001067912,-0.1257102,0.09433498,0,0.3,0,0,0.01383708,0,
6.38224E+17,5.86643,-1.753365,-8.942002,-82.02838,-57.44881,-142.0162,-56.77951,-0.4675641,5.159746,-69.28372,-8.374548,-36.83611,0,0,0,11.50476,-112.4594,-56.37913,-121.5853,-110.5478,-88.7247,0.001067912,-0.1257102,0.09433498,0,0.3,0,0,0.01395559,0,
6.38224E+17,8.575826,-1.753365,-8.942002,-79.24506,-48.58614,-142.0894,-56.77951,-0.4675641,5.159746,-69.28372,-8.374548,-36.90935,0,0,0,16.78479,-112.4594,-57.04813,-121.5853,-110.5478,-88.7247,0.001067912,-0.1257102,0.09433498,0,0.3,0,0,0.01325455,0,
6.38224E+17,12.48678,-1.753365,-8.848614,-75.07008,-41.04189,-142.1627,-56.77951,-0.4675641,5.159746,-69.28372,-8.374548,-36.90935,0,0,0,24.38359,-112.493,-58.24249,-121.5853,-110.5478,-88.7247,0.001067912,-0.1257102,0.09433498,0,0.3,0,0,0.01078813,0,
6.38224E+17,17.19877,-1.729987,-8.241585,-69.72319,-35.98798,-140.9175,-56.77951,-0.4675641,5.159746,-69.28372,-8.447793,-36.90935,0,0,0,33.75979,-112.6486,-59.28146,-121.5853,-110.5478,-88.7247,0.001067912,-0.1257102,0.09433498,0,0.3,0,0,0.006687404,0,
6.38224E+17,19.86105,-1.729987,-7.681251,-66.35391,-34.15685,-133.593,-56.77951,-0.4675641,5.159746,-69.28372,-8.374548,-36.83611,0,0,0,39.22824,-112.8292,-59.75256,-121.5853,-110.5478,-88.7247,0.001067912,-0.1257102,0.09433498,0,0.3,0,0,0.003857807,0,
6.38224E+17,25.1856,-1.729987,-6.000247,-58.22369,-31.73976,-111.3997,-56.77951,-0.4675641,5.159746,-69.28372,-8.447793,-36.90935,0,0,0,50.78952,-113.2952,-60.34632,-121.5853,-110.5478,-88.7247,0.001067912,-0.1257102,0.09433498,0,0.3,0,0,0,0,
6.38224E+17,29.99183,-1.729987,-4.01573,-48.55533,-30.49459,-87.00905,-56.77951,-0.4675641,5.159746,-69.28372,-8.374548,-36.83611,0,0,0,61.96003,-113.6984,-60.99673,-121.5853,-110.5478,-88.7247,0.001067912,-0.1257102,0.09433498,0,0.3,0,0,0,0,
6.38224E+17,31.80595,-1.729987,-3.175228,-44.08738,-30.12836,-76.02227,-56.77951,-0.4675641,5.159746,-69.28372,-8.374548,-36.90935,0,0,0,66.35641,-113.821,-61.35286,-121.5853,-110.5478,-88.7247,0.001067912,-0.1257102,0.09433498,0,0.3,0,0,0,0,
6.38224E+17,35.4813,-1.519583,-1.144016,-34.34578,-29.46916,-54.70793,-56.77951,-0.4675641,5.159746,-69.28372,-8.374548,-36.90935,0,0,0,75.82873,-113.5097,-61.96862,-121.5853,-110.5478,-88.7247,0.001067912,-0.1257102,0.09433498,0,0.3,0,0,0,0,
6.38224E+17,38.37918,-1.145532,0.6070289,-26.50854,-28.37048,-42.9887,-56.77951,-0.4675641,5.159746,-69.28372,-8.374548,-36.83611,0,0,0,83.65266,-112.6584,-62.72778,-121.5853,-110.5478,-88.7247,0.001067912,-0.1257102,0.09433498,0,0.3,0,0,0,0,
6.38224E+17,39.62786,-1.005263,1.54092,-23.21251,-27.41829,-39.47293,-56.77951,-0.4675641,5.159746,-69.28372,-8.374548,-36.83611,0,0,0,87.32442,-112.2913,-62.89733,-121.5853,-110.5478,-88.7247,0.001067912,-0.1257102,0.09433498,0,0.3,0,0,0,0,
6.38224E+17,41.70113,-0.5610769,3.478743,-18.30508,-24.19551,-35.73743,-56.77951,-0.4675641,5.159746,-69.28372,-8.374548,-36.90935,0,0,0,94.08897,-111.0601,-62.75105,-121.5853,-110.5478,-88.7247,0.001067912,-0.1257102,0.09433498,0,0.3,0,0,0,0,
6.38224E+17,43.16185,0.2571602,5.019662,-15.15554,-20.75298,-35.95716,-56.77951,-0.4675641,5.159746,-69.28372,-8.374548,-36.90935,0,0,0,99.20019,-108.8901,-62.57147,-121.5853,-110.5478,-88.7247,0.001067912,-0.1257102,0.09433498,0,0.3,0,0,0,0,
6.38224E+17,43.82153,1.145532,6.140331,-13.54414,-18.55563,-37.56856,-56.77951,-0.4675641,5.159746,-69.21047,-8.374548,-36.90935,0,0,0,102.1913,-106.569,-61.86597,-121.5853,-110.5478,-88.7247,0.001067912,-0.1257102,0.09433498,0,0.3,0,0,0,0,
6.38224E+17,44.7168,3.997673,8.685184,-9.881886,-14.16092,-41.08433,-56.77951,-0.4675641,5.159746,-69.28372,-8.447793,-36.90935,0,0,0,107.7653,-99.17425,-59.51408,-121.5853,-110.5478,-88.7247,0.001067912,-0.1257102,0.09433498,0,0.3,0,0,0,0,
6.38224E+17,45.30581,8.46291,11.5569,-5.853402,-10.64515,-42.84221,-56.77951,-0.4675641,5.159746,-69.28372,-8.374548,-36.90935,0,0,0,112.7537,-87.67149,-56.79356,-121.5853,-110.5478,-88.7247,0.001067912,-0.1257102,0.09433498,0,0.3,0,0,0,0,
6.38224E+17,45.35292,13.16193,14.0784,-2.264389,-9.473226,-43.72115,-56.77951,-0.4675641,5.159746,-69.28372,-8.374548,-36.90935,0,0,0,115.457,-75.63036,-54.30671,-121.5853,-110.5478,-88.7247,0.001067912,-0.1257102,0.09433498,0,0.3,0,0,0,0,
6.38224E+17,45.25869,15.80367,15.3625,-0.4332596,-9.473226,-44.38036,-56.77951,-0.4675641,5.159746,-69.28372,-8.374548,-36.83611,0,0,0,116.2302,-68.9185,-53.16462,-121.5853,-110.5478,-88.7247,0.001067912,-0.1257102,0.09433498,0,0.3,0,0,0,0,
6.38224E+17,44.7168,21.60146,18.3276,3.521979,-10.35217,-46.87069,-56.77951,-0.4675641,5.159746,-69.28372,-8.374548,-36.83611,0,0,0,116.7393,-54.14313,-50.451,-121.5853,-110.5478,-88.7247,0.001067912,-0.1257102,0.09433498,0,0.3,0,0,0,0,
6.38224E+17,43.51525,27.3525,21.59622,7.257483,-12.03681,-50.53296,-56.77951,-0.4675641,5.159746,-69.28372,-8.447793,-36.90935,0,0,0,115.347,-39.36946,-46.86435,-121.5853,-110.5478,-88.7247,0.001067912,-0.1257102,0.09433498,0,0.3,0,0,0,0,
6.38224E+17,42.66709,30.08775,23.34727,8.649141,-12.91575,-52.65706,-56.77951,-0.4675641,5.159746,-69.28372,-8.374548,-36.90935,0,0,0,114.0153,-32.22949,-44.65036,-121.5853,-110.5478,-88.7247,0.001067912,-0.1257102,0.09433498,0,0.3,0,0,0,0,
6.38224E+17,40.59381,35.48811,26.8727,10.70001,-14.96661,-57.78423,-56.77951,-0.4675641,5.159746,-69.28372,-8.374548,-36.83611,0,0,0,109.8719,-18.18572,-40.13223,-121.5853,-110.5478,-88.7247,0.001067912,-0.1257102,0.09433498,0,0.3,0,0,0,0,
6.38224E+17,38.14358,39.62605,29.58099,11.57895,-16.7245,-63.05788,-56.77951,-0.4675641,5.159746,-69.28372,-8.374548,-36.83611,0,0,0,104.0948,-7.571798,-35.80072,-121.5853,-110.5478,-88.7247,0.001067912,-0.1257102,0.09433498,0,0.3,0,0,0,0,
6.38224E+17,36.58862,41.54307,31.1219,11.65219,-17.60344,-65.69471,-56.77951,-0.4675641,5.159746,-69.28372,-8.374548,-36.83611,0,0,0,100.5742,-2.371444,-32.87049,-121.5853,-110.5478,-88.7247,0.001067912,-0.1257102,0.09433498,0,0.3,0,0,0,0,
6.38224E+17,32.88971,45.23682,34.55396,10.55352,-20.53325,-70.82186,-56.77951,-0.4675641,5.159746,-69.28372,-8.447793,-36.90935,0,0,0,92.06197,8.205572,-25.98778,-121.5853,-110.5478,-88.7247,0.001067912,-0.1257102,0.09433498,0,0.3,0,0,0,0,
6.38224E+17,29.59131,47.85518,37.16885,8.649141,-23.31656,-72.79948,-56.77951,-0.4675641,5.159746,-69.28372,-8.374548,-36.90935,0,0,0,83.96957,15.96143,-20.48462,-121.5853,-110.5478,-88.7247,0.001067912,-0.1257102,0.09433498,0,0.3,0,0,0,0,
6.38224E+17,25.72748,50.16962,39.57362,5.499599,-26.39286,-73.60519,-56.77951,-0.4675641,5.159746,-69.28372,-8.374548,-36.83611,0,0,0,73.95441,22.96827,-14.87247,-121.5853,-110.5478,-88.7247,0.001067912,-0.1257102,0.09433498,0,0.3,0,0,0,0,
6.38224E+17,23.70132,51.15151,40.71763,3.448734,-27.85776,-73.82492,-56.77951,-0.4675641,5.159746,-69.28372,-8.447793,-36.90935,0,0,0,68.58955,26.13351,-12.10844,-121.5853,-110.5478,-88.7247,0.001067912,-0.1257102,0.09433498,0,0.3,0,0,0,0,
6.38224E+17,19.53121,52.69447,42.65545,-1.385447,-30.42134,-74.04465,-56.77951,-0.4675641,5.159746,-69.28372,-8.374548,-36.83611,0,0,0,57.22732,31.34745,-7.024335,-121.5853,-110.5478,-88.7247,0.001067912,-0.1257102,0.09433498,0,0.3,0,0,0,0,
6.38224E+17,15.62025,53.46595,44.05629,-6.80559,-32.47221,-73.82492,-56.77951,-0.4675641,5.159746,-69.28372,-8.374548,-36.83611,0,0,0,46.34244,34.66425,-2.596273,-121.5853,-110.5478,-88.7247,0.001067912,-0.1257102,0.09433498,0,0.3,0,0,0,0,
6.38224E+17,11.9449,53.55946,45.20031,-13.32441,-33.79062,-71.26134,-56.77951,-0.4675641,5.159746,-69.28372,-8.374548,-36.90935,0,0,0,35.97778,36.66411,1.716159,-121.5853,-110.5478,-88.7247,0.001067912,-0.1257102,0.09433498,0,0.3,0,0,0,0,
6.38224E+17,10.31926,53.53609,45.62056,-16.69369,-34.0836,-69.21047,-56.77951,-0.4675641,5.159746,-69.28372,-8.374548,-36.90935,0,0,0,31.26954,37.32833,3.386953,-121.5853,-110.5478,-88.7247,0.001067912,-0.1257102,0.09433498,0,0.3,0,0,0,0,
6.38224E+17,7.562747,53.48933,46.48441,-22.62654,-34.44983,-65.69471,-56.77951,-0.4675641,5.159746,-69.28372,-8.374548,-36.90935,0,0,0,23.16939,38.71113,6.161924,-121.5853,-110.5478,-88.7247,0.001067912,-0.1257102,0.09433498,0,0.3,0,0,0,0,
6.38224E+17,5.277431,53.34906,47.48834,-27.68046,-34.66956,-63.93682,-56.77951,-0.4675641,5.159746,-69.28372,-8.447793,-36.90935,0,0,0,16.36289,40.22502,8.795217,-121.5853,-110.5478,-88.7247,0.001067912,-0.1257102,0.09433498,0,0.3,0,0,0,0,
6.38224E+17,3.557554,53.0919,48.63235,-31.34272,-34.74281,-63.42411,-56.77951,-0.4675641,5.159746,-69.28372,-8.447793,-36.90935,0,0,0,11.17902,41.84719,11.46104,-121.5853,-110.5478,-88.7247,0.001067912,-0.1257102,0.09433498,0,0.3,0,0,0,0,
6.38224E+17,2.662276,52.99839,49.35612,-32.95412,-34.8893,-63.27761,-56.77951,-0.4675641,5.159746,-69.28372,-8.374548,-36.90935,0,0,0,8.42754,42.98753,12.89154,-121.5853,-110.5478,-88.7247,0.001067912,-0.1257102,0.09433498,0,0.3,0,0,0,0,
6.38224E+17,0.8952785,52.90487,50.89704,-35.81068,-35.25552,-63.64384,-56.77951,-0.4675641,5.159746,-69.28372,-8.447793,-36.83611,0,0,0,2.873582,45.60869,15.53773,-121.5853,-110.5478,-88.7247,0.001067912,-0.1257102,0.09433498,0,0.3,0,0,0,0,
6.38224E+17,-0.9895183,52.78798,52.48465,-38.81373,-35.47526,-66.79338,-56.77951,-0.4675641,5.159746,-69.28372,-8.374548,-36.83611,0,0,0,-3.219336,48.34368,18.03969,-121.5853,-110.5478,-88.7247,0.001067912,-0.1257102,0.09433498,0,0.3,0,0,0,0,
6.38224E+17,-1.955477,52.71785,53.3485,-40.27863,-35.62175,-69.43021,-56.77951,-0.4675641,5.159746,-69.28372,-8.374548,-36.90935,0,0,0,-6.406903,49.84878,19.30037,-121.5853,-110.5478,-88.7247,0.001067912,-0.1257102,0.09433498,0,0.3,0,0,0,0,
6.38224E+17,-3.816714,52.50745,55.14624,-42.91546,-35.76824,-75.43631,-56.77951,-0.4675641,5.159746,-69.28372,-8.374548,-36.83611,0,0,0,-12.68684,52.94685,21.82067,-121.5853,-110.5478,-88.7247,0.001067912,-0.1257102,0.09433498,0,0.3,0,0,0,0,
6.38224E+17,-5.819311,52.08664,57.06072,-46.065,-36.06122,-79.53804,-56.77951,-0.4675641,5.159746,-69.28372,-8.374548,-36.90935,0,0,0,-19.65508,56.0462,24.50409,-121.5853,-110.5478,-88.7247,0.001067912,-0.1257102,0.09433498,0,0.3,0,0,0,0,
6.38224E+17,-7.774787,51.29178,59.13863,-49.87375,-36.28096,-81.22268,-56.77951,-0.4675641,5.159746,-69.28372,-8.374548,-36.90935,0,0,0,-26.76644,59.00485,27.6913,-121.5853,-110.5478,-88.7247,0.001067912,-0.1257102,0.09433498,0,0.3,0,0,0,0,
6.38224E+17,-8.764306,50.66056,60.35268,-52.21759,-36.3542,-80.34374,-56.77951,-0.4675641,5.159746,-69.21047,-8.447793,-36.83611,0,0,0,-30.5388,60.52055,29.73479,-121.5853,-110.5478,-88.7247,0.001067912,-0.1257102,0.09433498,0,0.3,0,0,0,0,
6.38224E+17,-9.211945,50.26314,60.93637,-53.31627,-36.42745,-78.07314,-56.77951,-0.4675641,5.159746,-69.28372,-8.447793,-36.83611,0,0,0,-32.30625,61.11575,30.85166,-121.5853,-110.5478,-88.7247,0.001067912,-0.1257102,0.09433498,0,0.3,0,0,0,0,
6.38224E+17,-9.942304,49.46828,61.77686,-54.92767,-36.64718,-72.06703,-56.77951,-0.4675641,5.159746,-69.28372,-8.374548,-36.83611,0,0,0,-35.24891,61.64008,32.74039,-121.5853,-110.5478,-88.7247,0.001067912,-0.1257102,0.09433498,0,0.3,0,0,0,0,
6.38224E+17,-10.8847,48.79031,62.73411,-56.02634,-36.79367,-66.5004,-56.77951,-0.4675641,5.159746,-69.28372,-8.447793,-36.90935,0,0,0,-38.97267,62.5793,34.32363,-121.5853,-110.5478,-88.7247,0.001067912,-0.1257102,0.09433498,0,0.3,0,0,0,0,
6.38224E+17,-11.40302,48.50977,63.41117,-56.83204,-36.79367,-63.27761,-56.77951,-0.4675641,5.159746,-69.28372,-8.374548,-36.83611,0,0,0,-41.04251,63.55289,35.14278,-121.5853,-110.5478,-88.7247,0.001067912,-0.1257102,0.09433498,0,0.3,0,0,0,0,
6.38224E+17,-12.08626,47.87856,65.04549,-58.95615,-36.79367,-55.29389,-56.77951,-0.4675641,5.159746,-69.28372,-8.447793,-36.90935,0,0,0,-44.04169,65.99883,37.32676,-121.5853,-110.5478,-88.7247,0.001067912,-0.1257102,0.09433498,0,0.3,0,0,0,0,
6.38224E+17,-12.5339,47.20059,66.72649,-61.08026,-36.86692,-46.57772,-56.77951,-0.4675641,5.159746,-69.28372,-8.374548,-36.90935,0,0,0,-46.24673,68.50444,39.67299,-121.5853,-110.5478,-88.7247,0.001067912,-0.1257102,0.09433498,0,0.3,0,0,0,0,
6.38224E+17,-12.91086,46.546,68.31409,-62.91139,-36.86692,-37.7883,-56.77951,-0.4675641,5.159746,-69.21047,-8.447793,-36.90935,0,0,0,-48.17844,70.8771,41.82507,-121.5853,-110.5478,-88.7247,0.001067912,-0.1257102,0.09433498,0,0.3,0,0,0,0,
6.38224E+17,-13.0051,45.98492,69.29469,-63.13113,-36.94016,-31.48921,-56.77951,-0.4675641,5.159746,-69.28372,-8.447793,-36.83611,0,0,0,-48.92209,72.10214,43.46884,-121.5853,-110.5478,-88.7247,0.001067912,-0.1257102,0.09433498,0,0.3,0,0,0,0,
6.38224E+17,-13.0051,45.44723,69.64489,-61.44649,-37.08665,-24.97039,-56.77951,-0.4675641,5.159746,-69.28372,-8.374548,-36.83611,0,0,0,-49.18802,71.99168,44.62027,-121.5853,-110.5478,-88.7247,0.001067912,-0.1257102,0.09433498,0,0.3,0,0,0,0,
6.38224E+17,-13.0051,44.97966,69.36472,-54.48819,-37.89235,-16.84018,-56.77951,-0.4675641,5.159746,-69.28372,-8.447793,-36.90935,0,0,0,-49.31045,70.6143,45.15034,-121.5853,-110.5478,-88.7247,0.001067912,-0.1257102,0.09433498,0,0.3,0,0,0,0,
6.38224E+17,-12.95798,44.81602,69.24799,-49.28778,-38.40507,-12.73845,-56.77951,-0.4675641,5.159746,-69.28372,-8.374548,-36.83611,0,0,0,-49.17361,70.09033,45.35925,-121.5853,-110.5478,-88.7247,0.001067912,-0.1257102,0.09433498,0,0.3,0,0,0,0,
6.38224E+17,-13.07578,44.81602,69.71494,-41.74353,-38.84454,-4.534989,-56.77951,-0.4675641,5.159746,-69.28372,-8.447793,-36.90935,0,0,0,-49.69907,71.10815,45.62875,-121.5853,-110.5478,-88.7247,0.001067912,-0.1257102,0.09433498,0,0.3,0,0,0,0,
6.38224E+17,-13.2407,45.30696,70.06515,-39.39969,-38.55156,0.1527017,-56.77951,-0.4675641,5.159746,-69.28372,-8.447793,-36.83611,0,0,0,-50.19371,72.68062,44.97028,-121.5853,-110.5478,-88.7247,0.001067912,-0.1257102,0.09433498,0,0.3,0,0,0,0,
6.38224E+17,-13.45274,45.84466,70.06515,-39.32644,-37.67262,3.302244,-56.77951,-0.4675641,5.159746,-69.28372,-8.374548,-36.90935,0,0,0,-50.77489,73.55657,43.91384,-121.5853,-110.5478,-88.7247,0.001067912,-0.1257102,0.09433498,0,0.3,0,0,0,0,
6.38224E+17,-13.75902,46.52262,69.87837,-40.49837,-36.86692,5.646089,-56.77951,-0.4675641,5.159746,-69.28372,-8.374548,-36.90935,0,0,0,-51.60263,74.24061,42.3889,-121.5853,-110.5478,-88.7247,0.001067912,-0.1257102,0.09433498,0,0.3,0,0,0,0,
6.38224E+17,-14.04174,46.96681,69.38808,-41.74353,-36.20771,6.451786,-56.77951,-0.4675641,5.159746,-69.28372,-8.447793,-36.90935,0,0,0,-52.36283,73.87925,41.01602,-121.5853,-110.5478,-88.7247,0.001067912,-0.1257102,0.09433498,0,0.3,0,0,0,0,
6.38224E+17,-14.7721,47.48113,67.49695,-45.2593,-34.0836,6.744767,-56.77951,-0.4675641,5.159746,-69.28372,-8.374548,-36.90935,0,0,0,-54.39097,70.59885,37.91826,-121.5853,-110.5478,-88.7247,0.001067912,-0.1257102,0.09433498,0,0.3,0,0,0,0,
6.38224E+17,-15.73805,47.34086,65.18556,-48.9948,-29.5424,5.206618,-56.77951,-0.4675641,5.159746,-69.21047,-8.447793,-36.83611,0,0,0,-57.34028,65.4509,35.12568,-121.5853,-110.5478,-88.7247,0.001067912,-0.1257102,0.09433498,0,0.3,0,0,0,0,
6.38224E+17,-16.37417,47.15384,64.27502,-51.04567,-26.17312,4.474167,-56.77951,-0.4675641,5.159746,-69.28372,-8.447793,-36.90935,0,0,0,-59.43084,63.23903,33.91526,-121.5853,-110.5478,-88.7247,0.001067912,-0.1257102,0.09433498,0,0.3,0,0,0,0,
6.38224E+17,-17.92913,46.99019,64.15829,-55.87985,-18.92185,3.66847,-56.77951,-0.4675641,5.159746,-69.28372,-8.374548,-36.90935,0,0,0,-64.94706,62.73498,32.38097,-121.5853,-110.5478,-88.7247,0.001067912,-0.1257102,0.09433498,0,0.3,0,0,0,0,
6.38224E+17,-18.91865,47.22397,64.1116,-61.73947,-11.08462,3.228999,-56.77951,-0.4675641,5.159746,-69.28372,-8.374548,-36.90935,0,0,0,-68.25928,63.00753,30.80749,-121.5853,-110.5478,-88.7247,0.001067912,-0.1257102,0.09433498,0,0.3,0,0,0,0,
6.38224E+17,-18.96577,47.34086,64.0182,-63.35086,-8.667529,3.155754,-56.77951,-0.4675641,5.159746,-69.28372,-8.374548,-36.90935,0,0,0,-68.32719,62.99662,30.47236,-121.5853,-110.5478,-88.7247,0.001067912,-0.1257102,0.09433498,0,0.3,0,0,0,0,
6.38224E+17,-18.96577,47.43437,63.48121,-66.5004,-2.73467,3.082508,-56.77951,-0.4675641,5.159746,-69.28372,-8.374548,-36.83611,0,0,0,-68.09547,62.02308,29.79812,-121.5853,-110.5478,-88.7247,0.001067912,-0.1257102,0.09433498,0,0.3,0,0,0,0,
6.38224E+17,-18.94221,47.38762,62.89753,-69.43021,3.124943,2.862773,-56.77951,-0.4675641,5.159746,-69.28372,-8.374548,-36.83611,0,0,0,-67.8411,60.73701,29.32235,-121.5853,-110.5478,-88.7247,0.001067912,-0.1257102,0.09433498,0,0.3,0,0,0,0,
6.38224E+17,-18.89509,47.27073,61.66013,-69.5767,11.25516,0.8851534,-56.77951,-0.4675641,5.159746,-69.28372,-8.374548,-36.83611,0,0,0,-67.30947,58.00329,28.29988,-121.5853,-110.5478,-88.7247,0.001067912,-0.1257102,0.09433498,0,0.3,0,0,0,0,
6.38224E+17,-18.91865,47.31749,61.8469,-67.59908,15.72311,-1.165711,-56.77951,-0.4675641,5.159746,-69.28372,-8.374548,-36.83611,0,0,0,-67.43111,58.46004,28.39116,-121.5853,-110.5478,-88.7247,0.001067912,-0.1257102,0.09433498,0,0.3,0,0,0,0,
6.38224E+17,-18.89509,48.48639,64.41511,-65.25523,20.19107,-3.802537,-56.77951,-0.4675641,5.159746,-69.28372,-8.374548,-36.83611,0,0,0,-67.57125,65.61533,29.06469,-121.5853,-110.5478,-88.7247,0.001067912,-0.1257102,0.09433498,0,0.3,0,0,0,0,
6.38224E+17,-18.75373,49.56179,66.07276,-64.52278,21.58273,-5.047705,-56.77951,-0.4675641,5.159746,-69.28372,-8.447793,-36.83611,0,0,0,-66.99586,70.7599,28.97126,-121.5853,-110.5478,-88.7247,0.001067912,-0.1257102,0.09433498,0,0.3,0,0,0,0,
6.38224E+17,-18.40033,51.68921,68.19736,-65.25523,21.94895,-8.636719,-56.77951,-0.4675641,5.159746,-69.21047,-8.447793,-36.90935,0,0,0,-65.17588,78.45676,27.57217,-121.5853,-110.5478,-88.7247,0.001067912,-0.1257102,0.09433498,0,0.3,0,0,0,0,
6.38224E+17,-18.11761,53.27893,69.01452,-68.33153,20.77703,-13.39765,-56.77951,-0.4675641,5.159746,-69.28372,-8.374548,-36.83611,0,0,0,-63.5115,82.48064,25.76163,-121.5853,-110.5478,-88.7247,0.001067912,-0.1257102,0.09433498,0,0.3,0,0,0,0,
6.38224E+17,-17.92913,53.76987,69.27133,-70.60213,20.19107,-15.7415,-56.77951,-0.4675641,5.159746,-69.28372,-8.374548,-36.83611,0,0,0,-62.65528,83.71845,25.29781,-121.5853,-110.5478,-88.7247,0.001067912,-0.1257102,0.09433498,0,0.3,0,0,0,0,
6.38224E+17,-17.52861,54.19068,69.92506,-76.46174,18.9459,-19.55025,-56.77951,-0.4675641,5.159746,-69.28372,-8.374548,-36.83611,0,0,0,-61.22125,85.72042,25.48146,-121.5853,-110.5478,-88.7247,0.001067912,-0.1257102,0.09433498,0,0.3,0,0,0,0,
6.38224E+17,-17.31657,54.40108,70.4854,-81.80864,17.62749,-22.5533,-56.77951,-0.4675641,5.159746,-69.28372,-8.374548,-36.83611,0,0,0,-60.5166,87.23326,25.74869,-121.5853,-110.5478,-88.7247,0.001067912,-0.1257102,0.09433498,0,0.3,0,0,0,0,
6.38224E+17,-17.15165,54.61148,70.64883,-83.78626,16.89503,-24.09145,-56.77951,-0.4675641,5.159746,-69.28372,-8.374548,-36.90935,0,0,0,-59.8774,87.87628,25.66203,-121.5853,-110.5478,-88.7247,0.001067912,-0.1257102,0.09433498,0,0.3,0,0,0,0,
6.38224E+17,-16.56265,55.19594,70.90565,-86.56957,14.77092,-26.87477,-56.77951,-0.4675641,5.159746,-69.28372,-8.374548,-36.83611,0,0,0,-57.61868,89.22276,25.38918,-121.5853,-110.5478,-88.7247,0.001067912,-0.1257102,0.09433498,0,0.3,0,0,0,0,
6.38224E+17,-15.52601,55.94404,70.90565,-85.54414,13.01304,-28.19318,-56.77951,-0.4675641,5.159746,-69.28372,-8.374548,-36.90935,0,0,0,-53.71975,90.20718,25.01619,-121.5853,-110.5478,-88.7247,0.001067912,-0.1257102,0.09433498,0,0.3,0,0,0,0,
6.38224E+17,-14.08886,57.62727,71.02238,-81.51566,11.25516,-28.85239,-56.77951,-0.4675641,5.159746,-69.28372,-8.447793,-36.90935,0,0,0,-48.07689,92.60987,23.20981,-121.5853,-110.5478,-88.7247,0.001067912,-0.1257102,0.09433498,0,0.3,0,0,0,0,
6.38224E+17,-12.27474,60.36252,71.7228,-75.87578,7.88588,-29.21861,-56.77951,-0.4675641,5.159746,-69.28372,-8.374548,-36.90935,0,0,0,-40.93935,97.43353,19.81336,-121.5853,-110.5478,-88.7247,0.001067912,-0.1257102,0.09433498,0,0.3,0,0,0,0,
6.38224E+17,-11.37946,61.69508,72.21309,-73.67843,5.90826,-29.65808,-56.77951,-0.4675641,5.159746,-69.28372,-8.447793,-36.83611,0,0,0,-37.52868,100.0208,18.11645,-121.5853,-110.5478,-88.7247,0.001067912,-0.1257102,0.09433498,0,0.3,0,0,0,0,
6.38224E+17,-8.952785,64.64073,73.52054,-69.28372,-0.02459868,-32.29491,-56.77951,-0.4675641,5.159746,-69.28372,-8.374548,-36.90935,0,0,0,-28.78746,106.0228,14.38134,-121.5853,-110.5478,-88.7247,0.001067912,-0.1257102,0.09433498,0,0.3,0,0,0,0,
6.38224E+17,-6.12559,67.09544,74.85133,-65.10874,-7.495606,-35.51769,-56.77951,-0.4675641,5.159746,-69.28372,-8.374548,-36.90935,0,0,0,-19.27317,111.3383,11.23443,-121.5853,-110.5478,-88.7247,0.001067912,-0.1257102,0.09433498,0,0.3,0,0,0,0,
6.38224E+17,-4.711992,68.05395,75.43501,-62.98463,-11.3776,-37.05584,-56.77951,-0.4675641,5.159746,-69.21047,-8.374548,-36.83611,0,0,0,-14.69627,113.5024,9.947235,-121.5853,-110.5478,-88.7247,0.001067912,-0.1257102,0.09433498,0,0.3,0,0,0,0,
6.38224E+17,-1.437158,69.73718,76.78916,-58.00396,-19.58106,-41.5238,-56.77951,-0.4675641,5.159746,-69.28372,-8.374548,-36.90935,0,0,0,-4.414261,117.9723,7.598319,-121.5853,-110.5478,-88.7247,0.001067912,-0.1257102,0.09433498,0,0.3,0,0,0,0,
6.38224E+17,1.931917,70.97623,77.97987,-52.80355,-27.2718,-47.09043,-56.77951,-0.4675641,5.159746,-69.21047,-8.374548,-36.83611,0,0,0,5.862269,121.646,5.44422,-121.5853,-110.5478,-88.7247,0.001067912,-0.1257102,0.09433498,0,0.3,0,0,0,0,
6.38224E+17,5.560151,71.91135,79.07719,-45.99176,-34.59632,-54.19521,-56.77951,-0.4675641,5.159746,-69.21047,-8.374548,-36.90935,0,0,0,16.69792,124.8415,3.176887,-121.5853,-110.5478,-88.7247,0.001067912,-0.1257102,0.09433498,0,0.3,0,0,0,0,
6.38224E+17,7.492068,72.16852,79.56748,-41.81678,-37.89235,-59.24913,-56.77951,-0.4675641,5.159746,-69.28372,-8.374548,-36.83611,0,0,0,22.42426,126.1474,2.161604,-121.5853,-110.5478,-88.7247,0.001067912,-0.1257102,0.09433498,0,0.3,0,0,0,0,
6.38224E+17,11.9449,72.26203,80.22121,-28.77914,-43.9717,-79.61128,-56.77951,-0.4675641,5.159746,-69.28372,-8.447793,-36.83611,0,0,0,35.60718,127.7117,-0.03562501,-121.5853,-110.5478,-88.7247,0.001067912,-0.1257102,0.09433498,0,0.3,0,0,0,0,
6.38224E+17,15.87941,72.16852,80.7115,-13.91037,-46.82826,-110.5207,-56.77951,-0.4675641,5.159746,-69.28372,-8.447793,-36.90935,0,0,0,47.18078,128.7706,-2.494435,-121.5853,-110.5478,-88.7247,0.001067912,-0.1257102,0.09433498,0,0.3,0,0,0,0,
6.38224E+17,18.14117,72.00487,81.01501,-4.82797,-47.48747,-132.4211,-56.77951,-0.4675641,5.159746,-69.28372,-8.447793,-36.83611,0,0,0,53.83725,129.3509,-4.034637,-121.5853,-110.5478,-88.7247,0.001067912,-0.1257102,0.09433498,0,0.3,0,0,0,0,
6.38224E+17,21.98145,71.42041,81.15509,11.06623,-46.75502,-141.7232,-56.77951,-0.4675641,5.159746,-69.28372,-8.447793,-36.83611,0,0,0,65.22378,129.2461,-6.764833,-121.5853,-110.5478,-88.7247,0.001067912,-0.1257102,0.09433498,0,0.3,0,0,0,0,
6.38224E+17,25.51544,71.21001,81.13174,24.03063,-44.33792,-142.0162,-56.77951,-0.4675641,5.159746,-69.28372,-8.374548,-36.83611,0,0,0,75.2562,129.0356,-10.68145,-121.5853,-110.5478,-88.7247,0.001067912,-0.1257102,0.09433498,0,0.3,0,0,0,0,
6.38224E+17,28.90807,71.21001,80.80489,33.18628,-41.48137,-142.0894,-56.77951,-0.4675641,5.159746,-69.28372,-8.374548,-36.90935,0,0,0,84.39709,128.2843,-15.51583,-121.5853,-110.5478,-88.7247,0.001067912,-0.1257102,0.09433498,0,0.3,0,0,0,0,
6.38224E+17,32.46563,70.95284,79.91769,39.70509,-38.40507,-142.0894,-56.77951,-0.4675641,5.159746,-69.28372,-8.374548,-36.90935,0,0,0,93.83633,126.0545,-20.86128,-121.5853,-110.5478,-88.7247,0.001067912,-0.1257102,0.09433498,0,0.3,0,0,0,0,
6.38224E+17,34.16194,70.64893,79.19392,41.97569,-36.57394,-142.0894,-56.77951,-0.4675641,5.159746,-69.28372,-8.374548,-36.83611,0,0,0,98.3648,124.1653,-23.40359,-121.5853,-110.5478,-88.7247,0.001067912,-0.1257102,0.09433498,0,0.3,0,0,0,0,
6.38224E+17,37.69594,69.7138,77.20941,44.97874,-32.25247,-142.0894,-56.77951,-0.4675641,5.159746,-69.28372,-8.447793,-36.83611,0,0,0,107.7869,118.9065,-28.86962,-121.5853,-110.5478,-88.7247,0.001067912,-0.1257102,0.09433498,0,0.3,0,0,0,0,
6.38224E+17,41.04145,68.26435,75.27159,46.80988,-27.05207,-142.0894,-56.77951,-0.4675641,5.159746,-69.28372,-8.447793,-36.90935,0,0,0,117.1062,113.3165,-33.83136,-121.5853,-110.5478,-88.7247,0.001067912,-0.1257102,0.09433498,0,0.3,0,0,0,0,
6.38224E+17,42.54929,67.37598,74.40773,47.68882,-24.19551,-142.0894,-56.77951,-0.4675641,5.159746,-69.28372,-8.447793,-36.83611,0,0,0,121.5445,110.5955,-35.93632,-121.5853,-110.5478,-88.7247,0.001067912,-0.1257102,0.09433498,0,0.3,0,0,0,0,
6.38224E+17,45.35292,65.38884,72.61,49.00723,-18.04291,-142.1627,-56.77951,-0.4675641,5.159746,-69.28372,-8.374548,-36.83611,0,0,0,130.0454,104.7309,-39.89685,-121.5853,-110.5478,-88.7247,0.001067912,-0.1257102,0.09433498,0,0.3,0,0,0,0,
6.38224E+17,48.06232,63.14453,70.39201,50.39889,-11.23111,-142.0894,-56.77951,-0.4675641,5.159746,-69.28372,-8.447793,-36.90935,0,0,0,138.2537,97.56805,-44.1378,-121.5853,-110.5478,-88.7247,0.001067912,-0.1257102,0.09433498,0,0.3,0,0,0,0,
6.38224E+17,50.27696,60.7132,67.96389,51.64405,-4.492554,-142.0162,-56.77951,-0.4675641,5.159746,-69.28372,-8.374548,-36.90935,0,0,0,145.2455,89.62376,-47.66613,-121.5853,-110.5478,-88.7247,0.001067912,-0.1257102,0.09433498,0,0.3,0,0,0,0,
6.38224E+17,51.21936,59.49752,66.67979,52.08353,-1.269767,-142.0162,-56.77951,-0.4675641,5.159746,-69.28372,-8.374548,-36.83611,0,0,0,148.2247,85.45614,-49.25673,-121.5853,-110.5478,-88.7247,0.001067912,-0.1257102,0.09433498,0,0.3,0,0,0,0,
6.38224E+17,52.93923,56.57525,63.64465,52.66949,5.542034,-142.0162,-56.77951,-0.4675641,5.159746,-69.28372,-8.374548,-36.83611,0,0,0,153.9687,75.44624,-52.07003,-121.5853,-110.5478,-88.7247,0.001067912,-0.1257102,0.09433498,0,0.3,0,0,0,0,
6.38224E+17,54.04655,53.27893,60.46942,52.81598,11.91436,-142.2359,-56.77951,-0.4675641,5.159746,-69.28372,-8.374548,-36.90935,0,0,0,158.4662,64.51084,-53.41416,-121.5853,-110.5478,-88.7247,0.001067912,-0.1257102,0.09433498,0,0.3,0,0,0,0,
6.38224E+17,54.61199,49.16436,56.57042,51.64405,18.9459,-142.2359,-56.77951,-0.4675641,5.159746,-69.28372,-8.447793,-36.90935,0,0,0,161.8151,50.77701,-53.40496,-121.5853,-110.5478,-88.7247,0.001067912,-0.1257102,0.09433498,0,0.3,0,0,0,0,
6.38224E+17,54.58843,47.66816,55.33302,50.76511,21.36299,-142.1627,-56.77951,-0.4675641,5.159746,-69.28372,-8.447793,-36.90935,0,0,0,162.5764,46.07968,-52.76352,-121.5853,-110.5478,-88.7247,0.001067912,-0.1257102,0.09433498,0,0.3,0,0,0,0,
6.38224E+17,54.63555,44.79264,52.76482,47.9818,26.92962,-142.0162,-56.77951,-0.4675641,5.159746,-69.28372,-8.374548,-36.83611,0,0,0,163.7507,36.61232,-52.1313,-121.5853,-110.5478,-88.7247,0.001067912,-0.1257102,0.09433498,0,0.3,0,0,0,0,
6.38224E+17,54.61199,42.10415,49.47286,44.02656,31.61732,-142.0162,-56.77951,-0.4675641,5.159746,-69.28372,-8.374548,-36.90935,0,0,0,163.2904,26.10662,-52.35698,-121.5853,-110.5478,-88.7247,0.001067912,-0.1257102,0.09433498,0,0.3,0,0,0,0,
6.38224E+17,54.32927,39.27538,46.06416,38.31343,34.32739,-142.0894,-56.77951,-0.4675641,5.159746,-69.28372,-8.374548,-36.83611,0,0,0,161.8715,15.24176,-52.15888,-121.5853,-110.5478,-88.7247,0.001067912,-0.1257102,0.09433498,0,0.3,0,0,0,0,
6.38224E+17,53.97587,37.61553,44.07964,34.43144,35.05984,-142.0894,-56.77951,-0.4675641,5.159746,-69.28372,-8.447793,-36.83611,0,0,0,160.4564,8.946373,-51.66835,-121.5853,-110.5478,-88.7247,0.001067912,-0.1257102,0.09433498,0,0.3,0,0,0,0,
6.38224E+17,53.00991,34.15556,40.04056,27.03368,35.27958,-142.0162,-56.77951,-0.4675641,5.159746,-69.28372,-8.374548,-36.90935,0,0,0,156.6627,-3.87308,-50.33871,-121.5853,-110.5478,-88.7247,0.001067912,-0.1257102,0.09433498,0,0.3,0,0,0,0,
6.38224E+17,51.92616,30.78909,36.21161,20.66135,35.49931,-142.0162,-56.77951,-0.4675641,5.159746,-69.28372,-8.374548,-36.83611,0,0,0,152.196,-15.98309,-49.12522,-121.5853,-110.5478,-88.7247,0.001067912,-0.1257102,0.09433498,0,0.3,0,0,0,0,
6.38224E+17,51.47852,29.47991,34.69404,18.3175,35.79229,-141.8697,-56.77951,-0.4675641,5.159746,-69.28372,-8.447793,-36.83611,0,0,0,150.2057,-20.66682,-48.77897,-121.5853,-110.5478,-88.7247,0.001067912,-0.1257102,0.09433498,0,0.3,0,0,0,0,
6.38224E+17,50.41832,27.44601,32.26592,14.28902,37.40368,-142.0162,-56.77951,-0.4675641,5.159746,-69.28372,-8.374548,-36.90935,0,0,0,146.0737,-27.94534,-47.58592,-121.5853,-110.5478,-88.7247,0.001067912,-0.1257102,0.09433498,0,0.3,0,0,0,0,
6.38224E+17,49.61728,26.69791,30.63161,12.60438,39.01508,-142.0894,-56.77951,-0.4675641,5.159746,-69.28372,-8.447793,-36.83611,0,0,0,142.5031,-31.48014,-47.14447,-121.5853,-110.5478,-88.7247,0.001067912,-0.1257102,0.09433498,0,0.3,0,0,0,0,
6.38224E+17,48.4864,25.97318,27.78325,11.35921,40.77296,-142.0162,-56.77951,-0.4675641,5.159746,-69.28372,-8.374548,-36.83611,0,0,0,136.311,-36.22636,-47.69449,-121.5853,-110.5478,-88.7247,0.001067912,-0.1257102,0.09433498,0,0.3,0,0,0,0,
6.38224E+17,47.82672,25.78616,26.00885,10.91974,41.57866,-141.9429,-56.77951,-0.4675641,5.159746,-69.28372,-8.447793,-36.83611,0,0,0,132.3242,-38.48609,-48.47811,-121.5853,-110.5478,-88.7247,0.001067912,-0.1257102,0.09433498,0,0.3,0,0,0,0,
6.38224E+17,46.366,25.69264,22.46007,10.55352,42.67733,-141.9429,-56.77951,-0.4675641,5.159746,-69.28372,-8.374548,-36.83611,0,0,0,123.8437,-42.07186,-50.275,-121.5853,-110.5478,-88.7247,0.001067912,-0.1257102,0.09433498,0,0.3,0,0,0,0,
6.38224E+17,44.41053,25.71602,20.07865,10.70001,43.48303,-142.0162,-56.77951,-0.4675641,5.159746,-69.28372,-8.447793,-36.83611,0,0,0,116.1119,-44.03325,-49.82403,-121.5853,-110.5478,-88.7247,0.001067912,-0.1257102,0.09433498,0,0.3,0,0,0,0,
6.38224E+17,41.88961,26.0667,19.37823,10.62676,44.7282,-142.0162,-56.77951,-0.4675641,5.159746,-69.28372,-8.374548,-36.90935,0,0,0,109.5237,-43.84929,-46.23926,-121.5853,-110.5478,-88.7247,0.001067912,-0.1257102,0.09433498,0,0.3,0,0,0,0,
6.38224E+17,40.45245,26.41737,19.09806,10.26054,45.5339,-142.0162,-56.77951,-0.4675641,5.159746,-69.21047,-8.374548,-36.90935,0,0,0,105.7931,-43.3321,-44.27384,-121.5853,-110.5478,-88.7247,0.001067912,-0.1257102,0.09433498,0,0.3,0,0,0,0,
6.38224E+17,37.34254,27.42263,17.9307,8.795631,47.07204,-142.0894,-56.77951,-0.4675641,5.159746,-69.28372,-8.447793,-36.90935,0,0,0,96.70074,-42.10873,-41.60744,-121.5853,-110.5478,-88.7247,0.001067912,-0.1257102,0.09433498,0,0.3,0,0,0,0,
6.38224E+17,33.90279,29.19938,16.48317,6.012315,48.24397,-142.0894,-56.77951,-0.4675641,5.159746,-69.28372,-8.374548,-36.90935,0,0,0,86.03325,-39.46491,-40.33246,-121.5853,-110.5478,-88.7247,0.001067912,-0.1257102,0.09433498,0,0.3,0,0,0,0,
6.38224E+17,30.41591,32.0749,15.57263,2.569792,48.90318,-142.0894,-56.77951,-0.4675641,5.159746,-69.28372,-8.447793,-36.90935,0,0,0,75.33034,-34.29235,-40.03419,-121.5853,-110.5478,-88.7247,0.001067912,-0.1257102,0.09433498,0,0.3,0,0,0,0,
6.38224E+17,28.64891,33.85164,15.45589,0.8119082,49.04966,-142.0894,-56.77951,-0.4675641,5.159746,-69.28372,-8.374548,-36.83611,0,0,0,70.13371,-30.89566,-39.97657,-121.5853,-110.5478,-88.7247,0.001067912,-0.1257102,0.09433498,0,0.3,0,0,0,0,
6.38224E+17,25.27984,38.52728,15.68936,-2.484124,48.53695,-141.8697,-56.77951,-0.4675641,5.159746,-69.28372,-8.447793,-36.83611,0,0,0,59.94868,-21.96964,-41.41198,-121.5853,-110.5478,-88.7247,0.001067912,-0.1257102,0.09433498,0,0.3,0,0,0,0,
6.38224E+17,21.81652,45.86803,16.76334,-4.754725,46.48608,-137.6215,-56.77951,-0.4675641,5.159746,-69.28372,-8.447793,-36.90935,0,0,0,48.80098,-8.622838,-46.44081,-121.5853,-110.5478,-88.7247,0.001067912,-0.1257102,0.09433498,0,0.3,0,0,0,0,
6.38224E+17,20.00241,50.30989,18.16417,-5.560421,44.50846,-133.2267,-56.77951,-0.4675641,5.159746,-69.28372,-8.447793,-36.83611,0,0,0,43.35011,-0.7406552,-49.26212,-121.5853,-110.5478,-88.7247,0.001067912,-0.1257102,0.09433498,0,0.3,0,0,0,0,
6.38224E+17,16.35061,60.01184,23.09044,-7.318305,38.35587,-126.4882,-56.77951,-0.4675641,5.159746,-69.28372,-8.374548,-36.83611,0,0,0,33.48581,16.18135,-54.21183,-121.5853,-110.5478,-88.7247,0.001067912,-0.1257102,0.09433498,0,0.3,0,0,0,0,
6.38224E+17,12.74594,69.55016,29.93119,-9.588906,29.78619,-121.5808,-56.77951,-0.4675641,5.159746,-69.21047,-8.374548,-36.90935,0,0,0,24.95903,32.73159,-58.01061,-121.5853,-110.5478,-88.7247,0.001067912,-0.1257102,0.09433498,0,0.3,0,0,0,0,
6.38224E+17,11.02606,73.99201,33.64341,-11.12705,24.43929,-119.5299,-56.77951,-0.4675641,5.159746,-69.28372,-8.374548,-36.90935,0,0,0,21.16299,40.51502,-59.73962,-121.5853,-110.5478,-88.7247,0.001067912,-0.1257102,0.09433498,0,0.3,0,0,0,0,
6.38224E+17,7.939706,80.8652,40.50751,-14.34984,14.11172,-116.3071,-56.77951,-0.4675641,5.159746,-69.28372,-8.374548,-36.90935,0,0,0,14.88879,53.62001,-61.59574,-121.5853,-110.5478,-88.7247,0.001067912,-0.1257102,0.09433498,0,0.3,0,0,0,0,
6.38224E+17,4.806232,86.10193,46.81127,-18.15859,3.710905,-111.7659,-56.77951,-0.4675641,5.159746,-69.28372,-8.447793,-36.90935,0,0,0,8.905746,65.12627,-62.43245,-121.5853,-110.5478,-88.7247,0.001067912,-0.1257102,0.09433498,0,0.3,0,0,0,0,
6.38224E+17,1.484278,89.5619,51.57411,-22.40681,-5.737722,-105.5401,-56.77951,-0.4675641,5.159746,-69.21047,-8.447793,-36.83611,0,0,0,2.732409,73.81883,-62.89768,-121.5853,-110.5478,-88.7247,0.001067912,-0.1257102,0.09433498,0,0.3,0,0,0,0,
6.38224E+17,-0.5654391,90.61391,53.25511,-24.67741,-9.766206,-103.0497,-56.77951,-0.4675641,5.159746,-69.28372,-8.447793,-36.90935,0,0,0,-1.040404,76.9153,-62.92962,-121.5853,-110.5478,-88.7247,0.001067912,-0.1257102,0.09433498,0,0.3,0,0,0,0,
6.38224E+17,-5.65439,91.66593,55.61319,-30.39053,-16.21178,-100.1199,-56.77951,-0.4675641,5.159746,-69.28372,-8.374548,-36.83611,0,0,0,-10.46063,81.33061,-62.69711,-121.5853,-110.5478,-88.7247,0.001067912,-0.1257102,0.09433498,0,0.3,0,0,0,0,
6.38224E+17,-11.02606,91.40878,56.85059,-37.49532,-19.6543,-98.36205,-56.77951,-0.4675641,5.159746,-69.28372,-8.374548,-36.83611,0,0,0,-20.72607,83.74069,-61.98195,-121.5853,-110.5478,-88.7247,0.001067912,-0.1257102,0.09433498,0,0.3,0,0,0,0,
6.38224E+17,-13.42918,90.91783,57.10741,-41.23082,-20.46,-97.77609,-56.77951,-0.4675641,5.159746,-69.28372,-8.374548,-36.90935,0,0,0,-25.50881,84.26506,-61.51657,-121.5853,-110.5478,-88.7247,0.001067912,-0.1257102,0.09433498,0,0.3,0,0,0,0,
6.38224E+17,-18.21185,88.90731,56.89729,-48.62858,-20.60649,-97.40987,-56.77951,-0.4675641,5.159746,-69.28372,-8.374548,-36.90935,0,0,0,-35.7065,83.84776,-59.82372,-121.5853,-110.5478,-88.7247,0.001067912,-0.1257102,0.09433498,0,0.3,0,0,0,0,
6.38224E+17,-22.99452,85.51746,56.50039,-55.51363,-18.92185,-100.0467,-56.77951,-0.4675641,5.159746,-69.28372,-8.374548,-36.83611,0,0,0,-47.51047,82.69205,-56.39259,-121.5853,-110.5478,-88.7247,0.001067912,-0.1257102,0.09433498,0,0.3,0,0,0,0,
6.38224E+17,-26.55208,81.00548,55.33302,-62.10569,-15.55258,-103.6357,-56.77951,-0.4675641,5.159746,-69.28372,-8.374548,-36.90935,0,0,0,-58.34593,79.21,-51.59204,-121.5853,-110.5478,-88.7247,0.001067912,-0.1257102,0.09433498,0,0.3,0,0,0,0,
6.38224E+17,-29.21435,76.49348,52.76482,-66.57365,-11.01137,-105.5401,-56.77951,-0.4675641,5.159746,-69.28372,-8.447793,-36.83611,0,0,0,-67.01922,72.32349,-48.50373,-121.5853,-110.5478,-88.7247,0.001067912,-0.1257102,0.09433498,0,0.3,0,0,0,0,
6.38224E+17,-30.46303,74.31931,50.96708,-67.96531,-8.814018,-106.2725,-56.77951,-0.4675641,5.159746,-69.28372,-8.447793,-36.83611,0,0,0,-70.78765,67.7577,-47.99891,-121.5853,-110.5478,-88.7247,0.001067912,-0.1257102,0.09433498,0,0.3,0,0,0,0,
6.38224E+17,-33.3609,69.12935,45.73729,-69.79643,-3.833347,-112.1321,-56.77951,-0.4675641,5.159746,-69.28372,-8.447793,-36.83611,0,0,0,-78.64025,54.87898,-48.90854,-121.5853,-110.5478,-88.7247,0.001067912,-0.1257102,0.09433498,0,0.3,0,0,0,0,
6.38224E+17,-35.88182,62.56007,39.2701,-71.11485,1.51355,-123.7781,-56.77951,-0.4675641,5.159746,-69.28372,-8.447793,-36.83611,0,0,0,-85.48938,38.46173,-50.17213,-121.5853,-110.5478,-88.7247,0.001067912,-0.1257102,0.09433498,0,0.3,0,0,0,0,
6.38224E+17,-36.5415,58.84294,36.09487,-71.48107,4.223621,-128.3926,-56.77951,-0.4675641,5.159746,-69.28372,-8.447793,-36.83611,0,0,0,-87.85383,29.71208,-49.80203,-121.5853,-110.5478,-88.7247,0.001067912,-0.1257102,0.09433498,0,0.3,0,0,0,0,
6.38224E+17,-37.29542,50.87097,30.30475,-71.70081,9.570518,-134.0325,-56.77951,-0.4675641,5.159746,-69.28372,-8.374548,-36.90935,0,0,0,-91.76206,11.66495,-47.87509,-121.5853,-110.5478,-88.7247,0.001067912,-0.1257102,0.09433498,0,0.3,0,0,0,0,
6.38224E+17,-37.38966,41.9405,25.05162,-71.92055,15.43013,-141.357,-56.77951,-0.4675641,5.159746,-69.28372,-8.374548,-36.90935,0,0,0,-94.51936,-8.329723,-44.67756,-121.5853,-110.5478,-88.7247,0.001067912,-0.1257102,0.09433498,0,0.3,0,0,0,0,
6.38224E+17,-36.94202,33.82826,21.54953,-72.653,21.14326,-142.0162,-56.77951,-0.4675641,5.159746,-69.28372,-8.374548,-36.90935,0,0,0,-96.01401,-26.44222,-40.66648,-121.5853,-110.5478,-88.7247,0.001067912,-0.1257102,0.09433498,0,0.3,0,0,0,0,
6.38224E+17,-36.63574,30.04099,20.0553,-73.23896,23.41385,-142.0162,-56.77951,-0.4675641,5.159746,-69.28372,-8.374548,-36.90935,0,0,0,-96.17191,-35.15633,-39.02303,-121.5853,-110.5478,-88.7247,0.001067912,-0.1257102,0.09433498,0,0.3,0,0,0,0,
6.38224E+17,-35.66978,23.51847,17.30033,-74.41088,26.92962,-142.0894,-56.77951,-0.4675641,5.159746,-69.28372,-8.374548,-36.90935,0,0,0,-94.42257,-50.75452,-36.80074,-121.5853,-110.5478,-88.7247,0.001067912,-0.1257102,0.09433498,0,0.3,0,0,0,0,
6.38224E+17,-34.02058,18.00122,15.05899,-74.48412,30.00592,-142.0894,-56.77951,-0.4675641,5.159746,-69.28372,-8.374548,-36.83611,0,0,0,-90.34019,-64.2105,-34.51889,-121.5853,-110.5478,-88.7247,0.001067912,-0.1257102,0.09433498,0,0.3,0,0,0,0,
6.38224E+17,-31.71171,13.11517,12.95773,-73.75167,33.15546,-142.0894,-56.77951,-0.4675641,5.159746,-69.28372,-8.374548,-36.90935,0,0,0,-83.98399,-76.346,-32.43047,-121.5853,-110.5478,-88.7247,0.001067912,-0.1257102,0.09433498,0,0.3,0,0,0,0,
6.38224E+17,-30.81643,11.71248,12.18727,-73.45869,34.0344,-142.0894,-56.77951,-0.4675641,5.159746,-69.28372,-8.374548,-36.90935,0,0,0,-81.31293,-79.92454,-32.03518,-121.5853,-110.5478,-88.7247,0.001067912,-0.1257102,0.09433498,0,0.3,0,0,0,0,
6.38224E+17,-28.41331,8.907095,9.99263,-72.87273,35.71904,-142.0894,-56.77951,-0.4675641,5.159746,-69.28372,-8.374548,-36.83611,0,0,0,-73.6968,-87.33015,-32.12629,-121.5853,-110.5478,-88.7247,0.001067912,-0.1257102,0.09433498,0,0.3,0,0,0,0,
6.38224E+17,-25.79816,6.803057,7.471125,-72.653,36.37825,-142.0894,-56.77951,-0.4675641,5.159746,-69.28372,-8.374548,-36.83611,0,0,0,-65.17159,-93.07169,-33.52504,-121.5853,-110.5478,-88.7247,0.001067912,-0.1257102,0.09433498,0,0.3,0,0,0,0,
6.38224E+17,-22.33484,4.792531,5.626691,-72.21353,36.52474,-142.0894,-56.77951,-0.4675641,5.159746,-69.28372,-8.374548,-36.90935,0,0,0,-55.46688,-98.21638,-33.34169,-121.5853,-110.5478,-88.7247,0.001067912,-0.1257102,0.09433498,0,0.3,0,0,0,0,
6.38224E+17,-20.47361,4.137942,4.972968,-71.92055,36.59798,-142.1627,-56.77951,-0.4675641,5.159746,-69.28372,-8.374548,-36.90935,0,0,0,-50.56427,-99.87577,-32.91956,-121.5853,-110.5478,-88.7247,0.001067912,-0.1257102,0.09433498,0,0.3,0,0,0,0,
6.38224E+17,-16.23281,3.202814,3.782257,-71.48107,36.81772,-142.1627,-56.77951,-0.4675641,5.159746,-69.28372,-8.374548,-36.90935,0,0,0,-39.67753,-102.2592,-32.07041,-121.5853,-110.5478,-88.7247,0.001067912,-0.1257102,0.09433498,0,0.3,0,0,0,0,
6.38224E+17,-11.3559,2.852141,3.058492,-70.96836,37.40368,-142.1627,-56.77951,-0.4675641,5.159746,-69.28372,-8.374548,-36.83611,0,0,0,-27.62541,-103.1747,-30.79689,-121.5853,-110.5478,-88.7247,0.001067912,-0.1257102,0.09433498,0,0.3,0,0,0,0,
6.38224E+17,-8.787866,2.828763,2.895061,-70.60213,37.76991,-142.1627,-56.77951,-0.4675641,5.159746,-69.21047,-8.374548,-36.83611,0,0,0,-21.37689,-103.2488,-30.06998,-121.5853,-110.5478,-88.7247,0.001067912,-0.1257102,0.09433498,0,0.3,0,0,0,0,
6.38224E+17,-2.450236,2.828763,2.871714,-68.69775,38.7221,-142.1627,-56.77951,-0.4675641,5.159746,-69.28372,-8.447793,-36.90935,0,0,0,-5.979602,-103.2516,-28.60955,-121.5853,-110.5478,-88.7247,0.001067912,-0.1257102,0.09433498,0,0.3,0,0,0,0,
6.38224E+17,3.062795,2.852141,2.895061,-65.40173,40.11375,-142.1627,-56.77951,-0.4675641,5.159746,-69.28372,-8.374548,-36.83611,0,0,0,7.475976,-103.1945,-28.62996,-121.5853,-110.5478,-88.7247,0.001067912,-0.1257102,0.09433498,0,0.3,0,0,0,0,
6.38224E+17,6.714589,2.945654,2.98845,-62.32543,41.28568,-142.1627,-56.77951,-0.4675641,5.159746,-69.28372,-8.447793,-36.83611,0,0,0,16.38404,-102.966,-29.18517,-121.5853,-110.5478,-88.7247,0.001067912,-0.1257102,0.09433498,0,0.3,0,0,0,0,
6.38224E+17,13.99462,3.717134,3.875646,-54.48819,43.84926,-142.1627,-56.77951,-0.4675641,5.159746,-69.28372,-8.374548,-36.83611,0,0,0,34.35998,-101.0499,-30.48448,-121.5853,-110.5478,-88.7247,0.001067912,-0.1257102,0.09433498,0,0.3,0,0,0,0,
6.38224E+17,21.6516,5.72766,6.397151,-43.13519,46.41284,-141.9429,-56.77951,-0.4675641,5.159746,-69.28372,-8.374548,-36.90935,0,0,0,54.43738,-95.86134,-31.21785,-121.5853,-110.5478,-88.7247,0.001067912,-0.1257102,0.09433498,0,0.3,0,0,0,0,
6.38224E+17,28.50755,8.860339,10.13271,-30.1708,48.17072,-140.0385,-56.77951,-0.4675641,5.159746,-69.28372,-8.374548,-36.90935,0,0,0,74.08199,-87.3807,-31.95082,-121.5853,-110.5478,-88.7247,0.001067912,-0.1257102,0.09433498,0,0.3,0,0,0,0,
6.38224E+17,34.20906,12.88139,14.66208,-16.91342,48.53695,-137.0355,-56.77951,-0.4675641,5.159746,-69.28372,-8.374548,-36.90935,0,0,0,92.06107,-75.92934,-32.93233,-121.5853,-110.5478,-88.7247,0.001067912,-0.1257102,0.09433498,0,0.3,0,0,0,0,
6.38224E+17,36.4237,15.07894,17.06685,-11.05381,48.17072,-134.8381,-56.77951,-0.4675641,5.159746,-69.28372,-8.374548,-36.90935,0,0,0,99.688,-69.43671,-33.25352,-121.5853,-110.5478,-88.7247,0.001067912,-0.1257102,0.09433498,0,0.3,0,0,0,0,
6.38224E+17,39.93414,20.17539,22.39003,-0.2867693,46.26635,-130.4434,-56.77951,-0.4675641,5.159746,-69.28372,-8.447793,-36.90935,0,0,0,112.9512,-53.9553,-33.42529,-121.5853,-110.5478,-88.7247,0.001067912,-0.1257102,0.09433498,0,0.3,0,0,0,0,
6.38224E+17,41.58333,24.9913,27.3163,7.257483,42.97031,-129.8575,-56.77951,-0.4675641,5.159746,-69.28372,-8.374548,-36.90935,0,0,0,120.8344,-38.79191,-32.17122,-121.5853,-110.5478,-88.7247,0.001067912,-0.1257102,0.09433498,0,0.3,0,0,0,0,
6.38224E+17,41.84249,29.26951,31.6122,11.5057,39.3813,-129.2715,-56.77951,-0.4675641,5.159746,-69.28372,-8.374548,-36.83611,0,0,0,124.2265,-25.01565,-29.61743,-121.5853,-110.5478,-88.7247,0.001067912,-0.1257102,0.09433498,0,0.3,0,0,0,0,
6.38224E+17,41.74825,31.28004,33.62006,12.82412,37.40368,-127.9531,-56.77951,-0.4675641,5.159746,-69.28372,-8.374548,-36.83611,0,0,0,125.0482,-18.45603,-28.23671,-121.5853,-110.5478,-88.7247,0.001067912,-0.1257102,0.09433498,0,0.3,0,0,0,0,
6.38224E+17,41.39485,35.20757,37.51905,14.50875,33.88792,-124.9501,-56.77951,-0.4675641,5.159746,-69.28372,-8.374548,-36.83611,0,0,0,125.7486,-5.53501,-25.69036,-121.5853,-110.5478,-88.7247,0.001067912,-0.1257102,0.09433498,0,0.3,0,0,0,0,
6.38224E+17,40.85297,38.8312,40.90441,15.97366,30.51864,-118.2847,-56.77951,-0.4675641,5.159746,-69.28372,-8.374548,-36.90935,0,0,0,125.0656,6.177848,-23.73065,-121.5853,-110.5478,-88.7247,0.001067912,-0.1257102,0.09433498,0,0.3,0,0,0,0,
6.38224E+17,40.52313,40.25727,42.2352,16.77936,29.20022,-114.5492,-56.77951,-0.4675641,5.159746,-69.28372,-8.374548,-36.90935,0,0,0,124.3636,10.7923,-22.85793,-121.5853,-110.5478,-88.7247,0.001067912,-0.1257102,0.09433498,0,0.3,0,0,0,0,
6.38224E+17,39.32158,43.13279,44.71001,18.53724,26.41691,-104.5146,-56.77951,-0.4675641,5.159746,-69.28372,-8.447793,-36.90935,0,0,0,121.1133,19.75154,-20.49211,-121.5853,-110.5478,-88.7247,0.001067912,-0.1257102,0.09433498,0,0.3,0,0,0,0,
6.38224E+17,37.46034,45.37709,46.04081,20.14863,24.2928,-94.69979,-56.77951,-0.4675641,5.159746,-69.28372,-8.447793,-36.90935,0,0,0,115.3535,25.69688,-17.80273,-121.5853,-110.5478,-88.7247,0.001067912,-0.1257102,0.09433498,0,0.3,0,0,0,0,
6.38224E+17,34.20906,47.06033,45.83068,21.32055,22.75465,-83.20029,-56.77951,-0.4675641,5.159746,-69.28372,-8.447793,-36.83611,0,0,0,104.8482,28.05595,-14.12304,-121.5853,-110.5478,-88.7247,0.001067912,-0.1257102,0.09433498,0,0.3,0,0,0,0,
6.38224E+17,31.64103,47.29411,45.13026,21.46704,22.60816,-76.31525,-56.77951,-0.4675641,5.159746,-69.28372,-8.447793,-36.83611,0,0,0,97.0237,27.26349,-10.89297,-121.5853,-110.5478,-88.7247,0.001067912,-0.1257102,0.09433498,0,0.3,0,0,0,0,
6.38224E+17,29.96827,47.22397,44.42985,21.24731,22.97438,-71.99379,-56.77951,-0.4675641,5.159746,-69.21047,-8.374548,-36.83611,0,0,0,91.86792,26.00446,-9.026393,-121.5853,-110.5478,-88.7247,0.001067912,-0.1257102,0.09433498,0,0.3,0,0,0,0,
6.38224E+17,26.50496,46.89668,42.07177,20.36837,24.36604,-63.57059,-56.77951,-0.4675641,5.159746,-69.28372,-8.447793,-36.83611,0,0,0,80.54056,21.72534,-6.845619,-121.5853,-110.5478,-88.7247,0.001067912,-0.1257102,0.09433498,0,0.3,0,0,0,0,
6.38224E+17,22.92384,46.73303,39.55027,19.04996,26.49015,-56.24608,-56.77951,-0.4675641,5.159746,-69.28372,-8.374548,-36.83611,0,0,0,68.67371,17.62952,-5.965108,-121.5853,-110.5478,-88.7247,0.001067912,-0.1257102,0.09433498,0,0.3,0,0,0,0,
6.38224E+17,20.70921,46.68627,38.14943,17.87803,27.80857,-52.0711,-56.77951,-0.4675641,5.159746,-69.28372,-8.374548,-36.83611,0,0,0,61.4775,15.50982,-5.733523,-121.5853,-110.5478,-88.7247,0.001067912,-0.1257102,0.09433498,0,0.3,0,0,0,0,
6.38224E+17,17.43437,46.56938,35.93144,15.90041,29.4932,-45.99176,-56.77951,-0.4675641,5.159746,-69.28372,-8.374548,-36.90935,0,0,0,50.91234,12.21363,-6.229408,-121.5853,-110.5478,-88.7247,0.001067912,-0.1257102,0.09433498,0,0.3,0,0,0,0,
6.38224E+17,13.9475,46.1252,33.10642,13.84955,31.61732,-39.54618,-56.77951,-0.4675641,5.159746,-69.28372,-8.374548,-36.83611,0,0,0,39.8326,7.774514,-7.964212,-121.5853,-110.5478,-88.7247,0.001067912,-0.1257102,0.09433498,0,0.3,0,0,0,0,
6.38224E+17,10.71978,45.40047,30.56157,12.01842,33.74142,-33.68657,-56.77951,-0.4675641,5.159746,-69.28372,-8.374548,-36.83611,0,0,0,30.02786,3.47399,-9.732259,-121.5853,-110.5478,-88.7247,0.001067912,-0.1257102,0.09433498,0,0.3,0,0,0,0,
6.38224E+17,9.211945,44.93291,29.4409,11.35921,34.76685,-30.9765,-56.77951,-0.4675641,5.159746,-69.28372,-8.447793,-36.90935,0,0,0,25.60559,1.402607,-10.46489,-121.5853,-110.5478,-88.7247,0.001067912,-0.1257102,0.09433498,0,0.3,0,0,0,0,
6.38224E+17,6.431869,43.60035,26.9194,10.26054,36.59798,-25.55635,-56.77951,-0.4675641,5.159746,-69.28372,-8.374548,-36.83611,0,0,0,17.5807,-3.589414,-12.39764,-121.5853,-110.5478,-88.7247,0.001067912,-0.1257102,0.09433498,0,0.3,0,0,0,0,
6.38224E+17,3.934513,41.87036,24.28116,9.747819,38.64885,-20.35595,-56.77951,-0.4675641,5.159746,-69.28372,-8.447793,-36.83611,0,0,0,10.5762,-9.199552,-14.57781,-121.5853,-110.5478,-88.7247,0.001067912,-0.1257102,0.09433498,0,0.3,0,0,0,0,
6.38224E+17,2.803635,40.79496,23.0204,9.821064,39.89402,-17.71912,-56.77951,-0.4675641,5.159746,-69.28372,-8.447793,-36.90935,0,0,0,7.488634,-12.25599,-15.4326,-121.5853,-110.5478,-88.7247,0.001067912,-0.1257102,0.09433498,0,0.3,0,0,0,0,
6.38224E+17,0.6596789,38.31688,20.73237,10.77325,41.94488,-12.88494,-56.77951,-0.4675641,5.159746,-69.28372,-8.374548,-36.83611,0,0,0,1.748089,-18.68646,-16.52814,-121.5853,-110.5478,-88.7247,0.001067912,-0.1257102,0.09433498,0,0.3,0,0,0,0,
6.38224E+17,-1.272238,35.34784,17.97739,12.60438,43.9225,-8.124002,-56.77951,-0.4675641,5.159746,-69.28372,-8.447793,-36.90935,0,0,0,-3.328771,-26.34147,-18.46202,-121.5853,-110.5478,-88.7247,0.001067912,-0.1257102,0.09433498,0,0.3,0,0,0,0,
6.38224E+17,-2.073277,33.78151,16.59991,13.7763,44.94794,-5.853402,-56.77951,-0.4675641,5.159746,-69.28372,-8.374548,-36.90935,0,0,0,-5.388005,-30.29613,-19.51544,-121.5853,-110.5478,-88.7247,0.001067912,-0.1257102,0.09433498,0,0.3,0,0,0,0,
6.38224E+17,-3.345515,30.29815,13.79823,16.8526,47.07204,-1.824918,-56.77951,-0.4675641,5.159746,-69.28372,-8.374548,-36.90935,0,0,0,-8.575011,-38.87669,-21.66001,-121.5853,-110.5478,-88.7247,0.001067912,-0.1257102,0.09433498,0,0.3,0,0,0,0,
6.38224E+17,-3.769594,27.09534,11.83706,20.5881,48.82993,1.983831,-56.77951,-0.4675641,5.159746,-69.21047,-8.374548,-36.83611,0,0,0,-9.603201,-46.42705,-22.59722,-121.5853,-110.5478,-88.7247,0.001067912,-0.1257102,0.09433498,0,0.3,0,0,0,0,
6.38224E+17,-3.769594,23.65874,10.85648,25.71527,50.14834,7.330729,-56.77951,-0.4675641,5.159746,-69.28372,-8.374548,-36.83611,0,0,0,-9.681422,-54.10151,-21.41002,-121.5853,-110.5478,-88.7247,0.001067912,-0.1257102,0.09433498,0,0.3,0,0,0,0,
6.38224E+17,-3.769594,21.85862,10.62301,28.71832,50.7343,10.48027,-56.77951,-0.4675641,5.159746,-69.28372,-8.447793,-36.83611,0,0,0,-9.752874,-58.06602,-20.32555,-121.5853,-110.5478,-88.7247,0.001067912,-0.1257102,0.09433498,0,0.3,0,0,0,0,
6.38224E+17,-3.651794,18.58567,10.06267,34.2117,51.61324,15.82717,-56.77951,-0.4675641,5.159746,-69.28372,-8.447793,-36.90935,0,0,0,-9.534487,-65.44709,-18.95878,-121.5853,-110.5478,-88.7247,0.001067912,-0.1257102,0.09433498,0,0.3,0,0,0,0,
6.38224E+17,-3.227715,15.3361,9.22217,40.14456,52.12596,20.51486,-56.77951,-0.4675641,5.159746,-69.28372,-8.374548,-36.83611,0,0,0,-8.444127,-73.00785,-18.61529,-121.5853,-110.5478,-88.7247,0.001067912,-0.1257102,0.09433498,0,0.3,0,0,0,0,
6.38224E+17,-2.591596,11.89951,8.451711,46.00418,52.49219,26.08149,-56.77951,-0.4675641,5.159746,-69.28372,-8.374548,-36.83611,0,0,0,-6.78625,-81.05563,-18.41987,-121.5853,-110.5478,-88.7247,0.001067912,-0.1257102,0.09433498,0,0.3,0,0,0,0,
6.38224E+17,-2.261756,10.56695,8.19489,48.12829,52.56543,28.05911,-56.77951,-0.4675641,5.159746,-69.28372,-8.374548,-36.83611,0,0,0,-5.923529,-84.18406,-18.37058,-121.5853,-110.5478,-88.7247,0.001067912,-0.1257102,0.09433498,0,0.3,0,0,0,0,
6.38224E+17,-1.083758,6.966705,7.821334,53.40194,52.85841,33.25952,-56.77951,-0.4675641,5.159746,-69.21047,-8.374548,-36.83611,0,0,0,-2.846793,-92.58511,-17.86461,-121.5853,-110.5478,-88.7247,0.001067912,-0.1257102,0.09433498,0,0.3,0,0,0,0,
6.38224E+17,0.8245987,3.413218,7.611208,59.84751,53.29788,39.19238,-56.77951,-0.4675641,5.159746,-69.28372,-8.374548,-36.83611,0,0,0,2.169883,-100.8859,-17.58991,-121.5853,-110.5478,-88.7247,0.001067912,-0.1257102,0.09433498,0,0.3,0,0,0,0,
6.38224E+17,3.062795,0.5844551,7.167611,66.80581,53.59086,44.46603,-56.77951,-0.4675641,5.159746,-69.28372,-8.374548,-36.90935,0,0,0,8.01357,-107.5977,-18.58278,-121.5853,-110.5478,-88.7247,0.001067912,-0.1257102,0.09433498,0,0.3,0,0,0,0,
6.38224E+17,4.311473,-0.5844551,6.957485,70.46806,53.73735,46.95637,-56.77951,-0.4675641,5.159746,-69.28372,-8.374548,-36.90935,0,0,0,11.23888,-110.3783,-19.27694,-121.5853,-110.5478,-88.7247,0.001067912,-0.1257102,0.09433498,0,0.3,0,0,0,0,
6.38224E+17,7.209348,-1.800122,6.280415,77.57285,53.88385,51.13134,-56.77951,-0.4675641,5.159746,-69.28372,-8.374548,-36.83611,0,0,0,18.55721,-113.3886,-21.64709,-121.5853,-110.5478,-88.7247,0.001067912,-0.1257102,0.09433498,0,0.3,0,0,0,0,
6.38224E+17,10.74334,-1.706609,6.23372,83.57895,53.88385,54.28088,-56.77951,-0.4675641,5.159746,-69.28372,-8.374548,-36.90935,0,0,0,27.54589,-113.1829,-23.16953,-121.5853,-110.5478,-88.7247,0.001067912,-0.1257102,0.09433498,0,0.3,0,0,0,0,
6.38224E+17,12.2983,-1.753365,6.327109,86.14253,53.66411,55.52605,-56.77951,-0.4675641,5.159746,-69.28372,-8.374548,-36.90935,0,0,0,31.52066,-113.2679,-23.76259,-121.5853,-110.5478,-88.7247,0.001067912,-0.1257102,0.09433498,0,0.3,0,0,0,0,
6.38224E+17,15.66737,-1.753365,6.74736,91.34293,53.07815,57.35718,-56.77951,-0.4675641,5.159746,-69.28372,-8.374548,-36.83611,0,0,0,40.22565,-113.1565,-24.92925,-121.5853,-110.5478,-88.7247,0.001067912,-0.1257102,0.09433498,0,0.3,0,0,0,0,
6.38224E+17,18.23541,-1.753365,7.237653,95.0052,52.3457,58.08963,-56.77951,-0.4675641,5.159746,-69.28372,-8.374548,-36.83611,0,0,0,46.96573,-113.0176,-25.79989,-121.5853,-110.5478,-88.7247,0.001067912,-0.1257102,0.09433498,0,0.3,0,0,0,0,
6.38224E+17,19.57833,-1.753365,7.541167,96.76308,51.90622,58.16287,-56.77951,-0.4675641,5.159746,-69.28372,-8.374548,-36.83611,0,0,0,50.52841,-112.9268,-26.27971,-121.5853,-110.5478,-88.7247,0.001067912,-0.1257102,0.09433498,0,0.3,0,0,0,0,
6.38224E+17,22.54688,-1.753365,8.078154,100.3521,50.95404,57.43042,-56.77951,-0.4675641,5.159746,-69.28372,-8.374548,-36.83611,0,0,0,58.2929,-112.757,-27.94357,-121.5853,-110.5478,-88.7247,0.001067912,-0.1257102,0.09433498,0,0.3,0,0,0,0,
6.38224E+17,25.63324,-1.753365,8.405016,103.0622,50.22158,56.55148,-56.77951,-0.4675641,5.159746,-69.28372,-8.374548,-36.90935,0,0,0,66.09367,-112.6479,-30.60699,-121.5853,-110.5478,-88.7247,0.001067912,-0.1257102,0.09433498,0,0.3,0,0,0,0,
6.38224E+17,28.64891,-1.753365,8.638489,105.406,49.63563,54.7936,-56.77951,-0.4675641,5.159746,-69.28372,-8.374548,-36.83611,0,0,0,73.50632,-112.5674,-33.80328,-121.5853,-110.5478,-88.7247,0.001067912,-0.1257102,0.09433498,0,0.3,0,0,0,0,
6.38224E+17,31.75883,-1.753365,8.918655,107.6766,49.34265,52.37651,-56.77951,-0.4675641,5.159746,-69.28372,-8.374548,-36.83611,0,0,0,81.03664,-112.4679,-37.44133,-121.5853,-110.5478,-88.7247,0.001067912,-0.1257102,0.09433498,0,0.3,0,0,0,0,
6.38224E+17,33.33735,-1.753365,8.988697,108.702,49.34265,50.98485,-56.77951,-0.4675641,5.159746,-69.28372,-8.447793,-36.90935,0,0,0,84.7005,-112.4425,-39.58878,-121.5853,-110.5478,-88.7247,0.001067912,-0.1257102,0.09433498,0,0.3,0,0,0,0,
6.38224E+17,36.70642,-1.753365,9.408949,110.6064,49.9286,47.32259,-56.77951,-0.4675641,5.159746,-69.28372,-8.374548,-36.83611,0,0,0,92.6982,-112.2861,-44.0149,-121.5853,-110.5478,-88.7247,0.001067912,-0.1257102,0.09433498,0,0.3,0,0,0,0,
6.38224E+17,40.26397,-1.729987,10.83313,111.8516,51.02729,43.4406,-56.77951,-0.4675641,5.159746,-69.28372,-8.447793,-36.90935,0,0,0,102.3447,-111.6493,-47.51537,-121.5853,-110.5478,-88.7247,0.001067912,-0.1257102,0.09433498,0,0.3,0,0,0,0,
6.38224E+17,44.05713,-1.636474,14.10175,112.7305,51.90622,39.92483,-56.77951,-0.4675641,5.159746,-69.28372,-8.447793,-36.83611,0,0,0,115.2832,-109.7896,-49.20869,-121.5853,-110.5478,-88.7247,0.001067912,-0.1257102,0.09433498,0,0.3,0,0,0,0,
6.38224E+17,45.94193,-1.496205,16.34309,113.463,52.27245,38.38668,-56.77951,-0.4675641,5.159746,-69.28372,-8.374548,-36.83611,0,0,0,122.7628,-108.0937,-49.55863,-121.5853,-110.5478,-88.7247,0.001067912,-0.1257102,0.09433498,0,0.3,0,0,0,0,
6.38224E+17,49.21676,-1.215667,22.06317,114.4152,52.78517,36.33582,-56.77951,-0.4675641,5.159746,-69.28372,-8.374548,-36.83611,0,0,0,138.8755,-103.0639,-48.54671,-121.5853,-110.5478,-88.7247,0.001067912,-0.1257102,0.09433498,0,0.3,0,0,0,0,
6.38224E+17,51.36071,-0.5610769,28.06341,115.2941,53.07815,35.38363,-56.77951,-0.4675641,5.159746,-69.28372,-8.374548,-36.90935,0,0,0,153.155,-95.62753,-45.91595,-121.5853,-110.5478,-88.7247,0.001067912,-0.1257102,0.09433498,0,0.3,0,0,0,0,
6.38224E+17,52.02039,-0.09351282,30.91178,115.6603,53.15139,35.09065,-56.77951,-0.4675641,5.159746,-69.28372,-8.374548,-36.90935,0,0,0,159.1074,-91.27651,-44.13285,-121.5853,-110.5478,-88.7247,0.001067912,-0.1257102,0.09433498,0,0.3,0,0,0,0,
6.38224E+17,52.79787,1.005263,36.2583,115.9533,53.29788,34.72442,-56.77951,-0.4675641,5.159746,-69.28372,-8.374548,-36.90935,0,0,0,169.0159,-81.83843,-40.05009,-121.5853,-110.5478,-88.7247,0.001067912,-0.1257102,0.09433498,0,0.3,0,0,0,0,
6.38224E+17,53.10415,1.940391,41.13788,118.9564,53.29788,34.43144,-56.77951,-0.4675641,5.159746,-69.28372,-8.447793,-36.90935,0,0,0,176.7407,-72.5645,-35.66937,-121.5853,-110.5478,-88.7247,0.001067912,-0.1257102,0.09433498,0,0.3,0,0,0,0,
6.38224E+17,54.07011,2.665115,45.92407,120.2015,53.29788,34.2117,-56.77951,-0.4675641,5.159746,-69.28372,-8.447793,-36.83611,0,0,0,185.435,-63.20919,-33.96994,-121.5853,-110.5478,-88.7247,0.001067912,-0.1257102,0.09433498,0,0.3,0,0,0,0,
6.38224E+17,55.24811,3.109301,48.37553,120.2748,53.37113,34.06521,-56.77951,-0.4675641,5.159746,-69.28372,-8.374548,-36.83611,0,0,0,191.3036,-57.99411,-35.62863,-121.5853,-110.5478,-88.7247,0.001067912,-0.1257102,0.09433498,0,0.3,0,0,0,0,
6.38224E+17,55.43659,3.530109,49.9398,120.2748,53.29788,34.06521,-56.77951,-0.4675641,5.159746,-69.28372,-8.447793,-36.83611,0,0,0,193.6531,-54.26224,-34.94013,-121.5853,-110.5478,-88.7247,0.001067912,-0.1257102,0.09433498,0,0.3,0,0,0,0,
6.38224E+17,55.36591,4.605506,52.9049,120.7875,53.37113,34.28495,-56.77951,-0.4675641,5.159746,-69.28372,-8.374548,-36.83611,0,0,0,196.8826,-46.37138,-32.35683,-121.5853,-110.5478,-88.7247,0.001067912,-0.1257102,0.09433498,0,0.3,0,0,0,0,
6.38224E+17,55.34235,6.358871,56.03344,120.7875,53.37113,34.50468,-56.77951,-0.4675641,5.159746,-69.28372,-8.374548,-36.90935,0,0,0,199.9862,-36.38459,-30.09155,-121.5853,-110.5478,-88.7247,0.001067912,-0.1257102,0.09433498,0,0.3,0,0,0,0,
6.38224E+17,55.31879,9.094121,59.53553,120.934,53.37113,34.57793,-56.77951,-0.4675641,5.159746,-69.28372,-8.374548,-36.83611,0,0,0,202.7982,-23.18212,-28.0242,-121.5853,-110.5478,-88.7247,0.001067912,-0.1257102,0.09433498,0,0.3,0,0,0,0,
6.38224E+17,55.29523,10.52019,61.23988,120.7875,53.37113,34.57793,-56.77951,-0.4675641,5.159746,-69.28372,-8.374548,-36.90935,0,0,0,203.8871,-16.46319,-27.14677,-121.5853,-110.5478,-88.7247,0.001067912,-0.1257102,0.09433498,0,0.3,0,0,0,0,
6.38224E+17,55.20099,13.65287,64.43845,119.9085,53.29788,32.89329,-56.77951,-0.4675641,5.159746,-69.28372,-8.374548,-36.90935,0,0,0,205.1912,-2.712123,-25.74362,-121.5853,-110.5478,-88.7247,0.001067912,-0.1257102,0.09433498,0,0.3,0,0,0,0,
6.38224E+17,54.94183,16.59852,67.24013,117.7844,53.22464,29.30428,-56.77951,-0.4675641,5.159746,-69.28372,-8.374548,-36.90935,0,0,0,205.2644,9.854152,-24.31155,-121.5853,-110.5478,-88.7247,0.001067912,-0.1257102,0.09433498,0,0.3,0,0,0,0,
6.38224E+17,54.75335,18.58567,69.27133,115.8068,53.22464,26.30123,-56.77951,-0.4675641,5.159746,-69.28372,-8.374548,-36.90935,0,0,0,205.0781,18.65335,-23.43309,-121.5853,-110.5478,-88.7247,0.001067912,-0.1257102,0.09433498,0,0.3,0,0,0,0,
6.38224E+17,54.70623,20.36242,70.74222,114.5617,53.07815,23.37142,-56.77951,-0.4675641,5.159746,-69.28372,-8.447793,-36.83611,0,0,0,204.789,25.76873,-23.38472,-121.5853,-110.5478,-88.7247,0.001067912,-0.1257102,0.09433498,0,0.3,0,0,0,0,
6.38224E+17,54.70623,22.93402,72.5633,112.2911,52.3457,18.46399,-56.77951,-0.4675641,5.159746,-69.28372,-8.374548,-36.83611,0,0,0,204.0759,35.35402,-23.88951,-121.5853,-110.5478,-88.7247,0.001067912,-0.1257102,0.09433498,0,0.3,0,0,0,0,
6.38224E+17,54.68267,24.07955,73.42715,111.6319,51.83298,16.33988,-56.77951,-0.4675641,5.159746,-69.28372,-8.447793,-36.90935,0,0,0,203.6286,39.72143,-24.08044,-121.5853,-110.5478,-88.7247,0.001067912,-0.1257102,0.09433498,0,0.3,0,0,0,0,
6.38224E+17,54.68267,26.46413,74.94473,109.874,50.29483,12.53114,-56.77951,-0.4675641,5.159746,-69.28372,-8.374548,-36.90935,0,0,0,202.4808,48.13797,-24.89362,-121.5853,-110.5478,-88.7247,0.001067912,-0.1257102,0.09433498,0,0.3,0,0,0,0,
6.38224E+17,54.75335,29.03573,75.66849,107.6034,48.4637,10.77325,-56.77951,-0.4675641,5.159746,-69.28372,-8.374548,-36.90935,0,0,0,200.7309,55.0637,-26.50504,-121.5853,-110.5478,-88.7247,0.001067912,-0.1257102,0.09433498,0,0.3,0,0,0,0,
6.38224E+17,54.77691,32.19178,76.4156,105.5525,46.04661,9.821064,-56.77951,-0.4675641,5.159746,-69.28372,-8.374548,-36.83611,0,0,0,198.0764,63.07196,-28.50286,-121.5853,-110.5478,-88.7247,0.001067912,-0.1257102,0.09433498,0,0.3,0,0,0,0,
6.38224E+17,54.65911,36.39986,76.4623,104.0144,42.60409,9.308348,-56.77951,-0.4675641,5.159746,-69.21047,-8.374548,-36.90935,0,0,0,193.3087,71.26689,-31.27258,-121.5853,-110.5478,-88.7247,0.001067912,-0.1257102,0.09433498,0,0.3,0,0,0,0,
6.38224E+17,54.54131,38.90133,76.43895,103.4284,40.62647,9.161857,-56.77951,-0.4675641,5.159746,-69.28372,-8.374548,-36.90935,0,0,0,190.1196,75.8232,-32.94571,-121.5853,-110.5478,-88.7247,0.001067912,-0.1257102,0.09433498,0,0.3,0,0,0,0,
6.38224E+17,53.62247,44.48872,76.27552,102.4762,36.01203,9.454838,-56.77951,-0.4675641,5.159746,-69.28372,-8.374548,-36.83611,0,0,0,180.8901,85.1598,-35.09578,-121.5853,-110.5478,-88.7247,0.001067912,-0.1257102,0.09433498,0,0.3,0,0,0,0,
6.38224E+17,51.76123,50.30989,76.18213,102.3297,30.88486,9.674574,-56.77951,-0.4675641,5.159746,-69.28372,-8.374548,-36.90935,0,0,0,168.5965,94.1153,-35.49281,-121.5853,-110.5478,-88.7247,0.001067912,-0.1257102,0.09433498,0,0.3,0,0,0,0,
6.38224E+17,50.58324,53.11528,76.20547,102.3297,28.10155,9.674574,-56.77951,-0.4675641,5.159746,-69.28372,-8.374548,-36.90935,0,0,0,161.8808,98.21323,-35.30031,-121.5853,-110.5478,-88.7247,0.001067912,-0.1257102,0.09433498,0,0.3,0,0,0,0,
6.38224E+17,47.94452,58.37537,76.25217,102.2565,22.82789,9.528083,-56.77951,-0.4675641,5.159746,-69.28372,-8.374548,-36.90935,0,0,0,148.0924,105.2072,-34.7471,-121.5853,-110.5478,-88.7247,0.001067912,-0.1257102,0.09433498,0,0.3,0,0,0,0,
6.38224E+17,44.97597,63.51858,76.3689,101.6705,17.70073,8.35616,-56.77951,-0.4675641,5.159746,-69.28372,-8.374548,-36.90935,0,0,0,133.6265,111.2822,-34.61134,-121.5853,-110.5478,-88.7247,0.001067912,-0.1257102,0.09433498,0,0.3,0,0,0,0,
6.38224E+17,41.48909,69.01246,76.4623,101.1578,12.06085,5.93907,-56.77951,-0.4675641,5.159746,-69.28372,-8.374548,-36.83611,0,0,0,117.5277,116.6381,-35.45815,-121.5853,-110.5478,-88.7247,0.001067912,-0.1257102,0.09433498,0,0.3,0,0,0,0,
6.38224E+17,39.55717,71.70095,76.4623,100.8648,9.057802,4.474167,-56.77951,-0.4675641,5.159746,-69.28372,-8.374548,-36.83611,0,0,0,109.2282,118.7413,-36.11466,-121.5853,-110.5478,-88.7247,0.001067912,-0.1257102,0.09433498,0,0.3,0,0,0,0,
6.38224E+17,35.08078,76.82078,76.4623,100.4986,2.905208,0.8119082,-56.77951,-0.4675641,5.159746,-69.28372,-8.374548,-36.90935,0,0,0,91.98482,121.9725,-37.37548,-121.5853,-110.5478,-88.7247,0.001067912,-0.1257102,0.09433498,0,0.3,0,0,0,0,
6.38224E+17,26.92904,83.95113,76.06539,100.4986,-7.349115,-5.706912,-56.77951,-0.4675641,5.159746,-69.28372,-8.374548,-36.90935,0,0,0,64.9791,123.845,-40.42989,-121.5853,-110.5478,-88.7247,0.001067912,-0.1257102,0.09433498,0,0.3,0,0,0,0,
6.38224E+17,21.60448,87.29421,75.27159,100.6451,-13.06224,-8.709964,-56.77951,-0.4675641,5.159746,-69.21047,-8.374548,-36.90935,0,0,0,49.80364,122.6487,-42.58911,-121.5853,-110.5478,-88.7247,0.001067912,-0.1257102,0.09433498,0,0.3,0,0,0,0,
6.38224E+17,10.55486,91.89972,73.8941,102.0367,-24.19551,-12.44547,-56.77951,-0.4675641,5.159746,-69.28372,-8.447793,-36.83611,0,0,0,22.65816,119.6336,-46.74743,-121.5853,-110.5478,-88.7247,0.001067912,-0.1257102,0.09433498,0,0.3,0,0,0,0,
6.38224E+17,4.570632,93.25565,73.14698,105.7722,-30.42134,-14.64282,-56.77951,-0.4675641,5.159746,-69.28372,-8.374548,-36.83611,0,0,0,9.566523,117.8243,-48.68206,-121.5853,-110.5478,-88.7247,0.001067912,-0.1257102,0.09433498,0,0.3,0,0,0,0,
6.38224E+17,-7.609867,93.25565,67.61369,118.3704,-52.61463,-19.03753,-56.77951,-0.4675641,5.159746,-69.28372,-8.374548,-36.83611,0,0,0,-15.32542,105.6985,-53.64201,-121.5853,-110.5478,-88.7247,0.001067912,-0.1257102,0.09433498,0,0.3,0,0,0,0,
6.38224E+17,-8.104627,92.08675,67.4269,118.3704,-57.22908,-15.66825,-56.77951,-0.4675641,5.159746,-69.28372,-8.374548,-36.83611,0,0,0,-16.67505,105.4236,-51.2528,-121.5853,-110.5478,-88.7247,0.001067912,-0.1257102,0.09433498,0,0.3,0,0,0,0,
6.38224E+17,-9.565345,90.26324,67.28682,119.1029,-62.64922,-10.76083,-56.77951,-0.4675641,5.159746,-69.28372,-8.374548,-36.90935,0,0,0,-20.33882,105.2097,-47.65576,-121.5853,-110.5478,-88.7247,0.001067912,-0.1257102,0.09433498,0,0.3,0,0,0,0,
6.38224E+17,-9.895184,89.21123,67.52029,119.1761,-64.99306,-8.124002,-56.77951,-0.4675641,5.159746,-69.28372,-8.447793,-36.83611,0,0,0,-21.48992,105.7002,-45.15718,-121.5853,-110.5478,-88.7247,0.001067912,-0.1257102,0.09433498,0,0.3,0,0,0,0,
6.38224E+17,-10.03654,88.88393,67.75376,119.1029,-65.65227,-7.171815,-56.77951,-0.4675641,5.159746,-69.28372,-8.374548,-36.90935,0,0,0,-21.96256,106.19,-44.25701,-121.5853,-110.5478,-88.7247,0.001067912,-0.1257102,0.09433498,0,0.3,0,0,0,0,
6.38224E+17,-10.03654,88.55663,68.05728,119.0296,-66.38472,-5.267441,-56.77951,-0.4675641,5.159746,-69.28372,-8.374548,-36.83611,0,0,0,-22.14158,106.8275,-43.24548,-121.5853,-110.5478,-88.7247,0.001067912,-0.1257102,0.09433498,0,0.3,0,0,0,0,
6.38224E+17,-10.03654,88.34623,68.05728,116.5393,-66.6777,-4.315253,-56.77951,-0.4675641,5.159746,-69.28372,-8.374548,-36.90935,0,0,0,-22.2269,106.8143,-42.76345,-121.5853,-110.5478,-88.7247,0.001067912,-0.1257102,0.09433498,0,0.3,0,0,0,0,
6.38224E+17,-10.08366,88.2761,67.9172,114.2687,-66.75095,-3.216576,-56.77951,-0.4675641,5.159746,-69.28372,-8.447793,-36.90935,0,0,0,-22.33734,106.5072,-42.74145,-121.5853,-110.5478,-88.7247,0.001067912,-0.1257102,0.09433498,0,0.3,0,0,0,0,
6.38224E+17,-10.83758,88.04231,66.98331,103.8679,-66.89744,3.448734,-56.77951,-0.4675641,5.159746,-69.28372,-8.374548,-36.83611,0,0,0,-23.93369,104.4824,-43.33076,-121.5853,-110.5478,-88.7247,0.001067912,-0.1257102,0.09433498,0,0.3,0,0,0,0,
6.38224E+17,-11.09674,87.55138,65.16222,88.26664,-66.23824,21.32055,-56.77951,-0.4675641,5.159746,-69.28372,-8.447793,-36.90935,0,0,0,-24.38785,100.5645,-44.00665,-121.5853,-110.5478,-88.7247,0.001067912,-0.1257102,0.09433498,0,0.3,0,0,0,0,
6.38224E+17,-11.09674,86.47598,61.98699,73.47112,-63.45492,45.49146,-56.77951,-0.4675641,5.159746,-69.28372,-8.374548,-36.83611,0,0,0,-24.23601,93.81709,-44.78083,-121.5853,-110.5478,-88.7247,0.001067912,-0.1257102,0.09433498,0,0.3,0,0,0,0,
6.38224E+17,-11.09674,85.63436,59.79235,66.07335,-61.25756,59.62778,-56.77951,-0.4675641,5.159746,-69.28372,-8.447793,-36.90935,0,0,0,-24.13388,89.21999,-45.30156,-121.5853,-110.5478,-88.7247,0.001067912,-0.1257102,0.09433498,0,0.3,0,0,0,0,
6.38224E+17,-11.09674,83.78748,55.21629,54.28088,-55.91066,83.13947,-56.77951,-0.4675641,5.159746,-69.28372,-8.374548,-36.90935,0,0,0,-23.85667,79.84335,-46.71491,-121.5853,-110.5478,-88.7247,0.001067912,-0.1257102,0.09433498,0,0.3,0,0,0,0,
6.38224E+17,-11.07318,81.94061,51.20055,47.39584,-50.34403,97.56878,-56.77951,-0.4675641,5.159746,-69.28372,-8.374548,-36.90935,0,0,0,-23.55094,71.82632,-48.01173,-121.5853,-110.5478,-88.7247,0.001067912,-0.1257102,0.09433498,0,0.3,0,0,0,0,
6.38224E+17,-11.07318,80.02359,48.32884,43.4406,-45.29012,106.3582,-56.77951,-0.4675641,5.159746,-69.28372,-8.374548,-36.90935,0,0,0,-23.56815,66.0253,-47.92379,-121.5853,-110.5478,-88.7247,0.001067912,-0.1257102,0.09433498,0,0.3,0,0,0,0,
6.38224E+17,-11.07318,77.91955,46.34432,41.31649,-41.11514,111.9248,-56.77951,-0.4675641,5.159746,-69.21047,-8.374548,-36.90935,0,0,0,-23.8901,61.69236,-46.27871,-121.5853,-110.5478,-88.7247,0.001067912,-0.1257102,0.09433498,0,0.3,0,0,0,0,
6.38224E+17,-11.07318,76.93767,45.38708,40.51079,-39.4305,114.2687,-56.77951,-0.4675641,5.159746,-69.28372,-8.447793,-36.83611,0,0,0,-24.02053,59.59603,-45.61227,-121.5853,-110.5478,-88.7247,0.001067912,-0.1257102,0.09433498,0,0.3,0,0,0,0,
6.38224E+17,-11.04962,74.9739,43.26248,38.60641,-35.84149,119.4691,-56.77951,-0.4675641,5.159746,-69.28372,-8.374548,-36.83611,0,0,0,-24.14186,55.03211,-44.72264,-121.5853,-110.5478,-88.7247,0.001067912,-0.1257102,0.09433498,0,0.3,0,0,0,0,
6.38224E+17,-11.02606,72.75297,40.81102,36.11608,-31.59327,126.7936,-56.77951,-0.4675641,5.159746,-69.28372,-8.447793,-36.90935,0,0,0,-24.23021,49.77543,-43.99839,-121.5853,-110.5478,-88.7247,0.001067912,-0.1257102,0.09433498,0,0.3,0,0,0,0,
6.38224E+17,-11.02606,71.72433,39.64366,34.65118,-29.39591,131.1151,-56.77951,-0.4675641,5.159746,-69.28372,-8.374548,-36.83611,0,0,0,-24.26954,47.29051,-43.79657,-121.5853,-110.5478,-88.7247,0.001067912,-0.1257102,0.09433498,0,0.3,0,0,0,0,
6.38224E+17,-11.02606,69.29299,37.05211,31.20865,-24.19551,143.2738,-56.77951,-0.4675641,5.159746,-69.28372,-8.374548,-36.83611,0,0,0,-24.38507,41.66069,-43.20363,-121.5853,-110.5478,-88.7247,0.001067912,-0.1257102,0.09433498,0,0.3,0,0,0,0,
6.38224E+17,-11.02606,66.53437,34.50726,28.27885,-19.06834,144.8119,-56.77951,-0.4675641,5.159746,-69.28372,-8.374548,-36.90935,0,0,0,-24.60387,35.78418,-42.08071,-121.5853,-110.5478,-88.7247,0.001067912,-0.1257102,0.09433498,0,0.3,0,0,0,0,
6.38224E+17,-11.02606,63.79912,31.65889,25.86176,-13.50171,144.8852,-56.77951,-0.4675641,5.159746,-69.28372,-8.374548,-36.83611,0,0,0,-24.6465,29.49259,-41.86197,-121.5853,-110.5478,-88.7247,0.001067912,-0.1257102,0.09433498,0,0.3,0,0,0,0,
6.38224E+17,-11.02606,62.44318,30.2814,24.90957,-10.64515,144.8119,-56.77951,-0.4675641,5.159746,-69.28372,-8.447793,-36.90935,0,0,0,-24.65911,26.41615,-41.79723,-121.5853,-110.5478,-88.7247,0.001067912,-0.1257102,0.09433498,0,0.3,0,0,0,0,
6.38224E+17,-11.02606,59.77807,27.68986,22.78546,-4.712289,144.8119,-56.77951,-0.4675641,5.159746,-69.28372,-8.374548,-36.83611,0,0,0,-24.68871,20.49714,-41.64531,-121.5853,-110.5478,-88.7247,0.001067912,-0.1257102,0.09433498,0,0.3,0,0,0,0,
6.38224E+17,-11.02606,56.92593,24.93488,20.22188,2.026266,144.8119,-56.77951,-0.4675641,5.159746,-69.28372,-8.447793,-36.83611,0,0,0,-24.67022,14.17261,-41.74024,-121.5853,-110.5478,-88.7247,0.001067912,-0.1257102,0.09433498,0,0.3,0,0,0,0,
6.38224E+17,-11.02606,53.93351,22.83363,16.63286,9.717009,144.7387,-56.77951,-0.4675641,5.159746,-69.28372,-8.374548,-36.90935,0,0,0,-24.91172,8.241288,-40.50081,-121.5853,-110.5478,-88.7247,0.001067912,-0.1257102,0.09433498,0,0.3,0,0,0,0,
6.38224E+17,-11.02606,52.15677,22.36668,13.70306,15.43013,144.8852,-56.77951,-0.4675641,5.159746,-69.28372,-8.374548,-36.90935,0,0,0,-25.3518,5.337732,-38.24226,-121.5853,-110.5478,-88.7247,0.001067912,-0.1257102,0.09433498,0,0.3,0,0,0,0,
6.38224E+17,-11.02606,51.40867,22.15656,11.79868,18.79941,144.8852,-56.77951,-0.4675641,5.159746,-69.28372,-8.374548,-36.83611,0,0,0,-25.52687,4.075329,-37.34381,-121.5853,-110.5478,-88.7247,0.001067912,-0.1257102,0.09433498,0,0.3,0,0,0,0,
6.38224E+17,-11.02606,50.66056,21.99312,7.989935,24.58578,144.8852,-56.77951,-0.4675641,5.159746,-69.28372,-8.374548,-36.83611,0,0,0,-25.71837,2.837476,-36.36101,-121.5853,-110.5478,-88.7247,0.001067912,-0.1257102,0.09433498,0,0.3,0,0,0,0,
6.38224E+17,-11.02606,50.56705,21.87639,3.521979,29.20022,144.8119,-56.77951,-0.4675641,5.159746,-69.28372,-8.374548,-36.90935,0,0,0,-25.70234,2.597883,-36.44327,-121.5853,-110.5478,-88.7247,0.001067912,-0.1257102,0.09433498,0,0.3,0,0,0,0,
6.38224E+17,-11.02606,50.56705,21.87639,1.324624,31.17784,144.5922,-56.77951,-0.4675641,5.159746,-69.28372,-8.374548,-36.83611,0,0,0,-25.70234,2.597883,-36.44327,-121.5853,-110.5478,-88.7247,0.001067912,-0.1257102,0.09433498,0,0.3,0,0,0,0,
6.38224E+17,-11.07318,50.59044,21.85304,-3.582802,34.25414,140.8567,-56.77951,-0.4675641,5.159746,-69.28372,-8.447793,-36.90935,0,0,0,-25.79305,2.612198,-36.55519,-121.5853,-110.5478,-88.7247,0.001067912,-0.1257102,0.09433498,0,0.3,0,0,0,0,
6.38224E+17,-11.19098,50.82421,21.85304,-8.856454,36.59798,137.4874,-56.77951,-0.4675641,5.159746,-69.28372,-8.374548,-36.83611,0,0,0,-25.98224,2.956768,-37.02159,-121.5853,-110.5478,-88.7247,0.001067912,-0.1257102,0.09433498,0,0.3,0,0,0,0,
6.38224E+17,-11.56794,51.38529,21.87639,-14.34984,38.50236,136.3155,-56.77951,-0.4675641,5.159746,-69.28372,-8.447793,-36.90935,0,0,0,-26.65202,3.796942,-38.14165,-121.5853,-110.5478,-88.7247,0.001067912,-0.1257102,0.09433498,0,0.3,0,0,0,0,
6.38224E+17,-11.96846,52.11002,21.99312,-17.64587,39.3813,136.2422,-56.77951,-0.4675641,5.159746,-69.28372,-8.447793,-36.83611,0,0,0,-27.33915,4.942718,-39.38036,-121.5853,-110.5478,-88.7247,0.001067912,-0.1257102,0.09433498,0,0.3,0,0,0,0,
6.38224E+17,-12.55746,53.81662,22.6235,-22.11383,39.67428,135.6563,-56.77951,-0.4675641,5.159746,-69.28372,-8.374548,-36.83611,0,0,0,-28.26927,7.89195,-41.43802,-121.5853,-110.5478,-88.7247,0.001067912,-0.1257102,0.09433498,0,0.3,0,0,0,0,
6.38224E+17,-13.02866,56.87917,23.88425,-27.9002,38.64885,133.5322,-56.77951,-0.4675641,5.159746,-69.28372,-8.374548,-36.83611,0,0,0,-28.59808,13.1027,-44.76016,-121.5853,-110.5478,-88.7247,0.001067912,-0.1257102,0.09433498,0,0.3,0,0,0,0,
6.38224E+17,-13.05222,58.84294,24.95823,-30.68352,37.55017,132.1405,-56.77951,-0.4675641,5.159746,-69.28372,-8.374548,-36.83611,0,0,0,-28.28891,16.56736,-46.32475,-121.5853,-110.5478,-88.7247,0.001067912,-0.1257102,0.09433498,0,0.3,0,0,0,0,
6.38224E+17,-13.05222,62.84061,27.57312,-35.51769,34.54712,129.5769,-56.77951,-0.4675641,5.159746,-69.28372,-8.374548,-36.90935,0,0,0,-27.68673,23.79263,-48.92228,-121.5853,-110.5478,-88.7247,0.001067912,-0.1257102,0.09433498,0,0.3,0,0,0,0,
6.38224E+17,-13.05222,67.16558,30.70166,-39.98565,30.66513,126.7204,-56.77951,-0.4675641,5.159746,-69.28372,-8.374548,-36.83611,0,0,0,-27.06302,31.59005,-51.61268,-121.5853,-110.5478,-88.7247,0.001067912,-0.1257102,0.09433498,0,0.3,0,0,0,0,
6.38224E+17,-13.05222,71.46716,34.78743,-44.16063,26.05068,124.9625,-56.77951,-0.4675641,5.159746,-69.28372,-8.374548,-36.90935,0,0,0,-26.75416,40.26775,-52.94495,-121.5853,-110.5478,-88.7247,0.001067912,-0.1257102,0.09433498,0,0.3,0,0,0,0,
6.38224E+17,-13.05222,73.61797,37.07546,-46.28474,23.56034,124.3765,-56.77951,-0.4675641,5.159746,-69.28372,-8.374548,-36.83611,0,0,0,-26.64953,44.89405,-53.39628,-121.5853,-110.5478,-88.7247,0.001067912,-0.1257102,0.09433498,0,0.3,0,0,0,0,
6.38224E+17,-12.93442,78.57414,42.39864,-51.04567,17.55424,123.6441,-56.77951,-0.4675641,5.159746,-69.28372,-8.447793,-36.83611,0,0,0,-26.03935,55.58209,-54.96924,-121.5853,-110.5478,-88.7247,0.001067912,-0.1257102,0.09433498,0,0.3,0,0,0,0,
6.38224E+17,-12.6517,82.68871,46.9747,-55.22065,12.35384,122.3989,-56.77951,-0.4675641,5.159746,-69.28372,-8.374548,-36.83611,0,0,0,-25.06858,64.62824,-56.67306,-121.5853,-110.5478,-88.7247,0.001067912,-0.1257102,0.09433498,0,0.3,0,0,0,0,
6.38224E+17,-11.92134,87.10719,52.0644,-60.12807,5.981505,121.5199,-56.77951,-0.4675641,5.159746,-69.28372,-8.374548,-36.83611,0,0,0,-23.11572,74.54978,-58.8602,-121.5853,-110.5478,-88.7247,0.001067912,-0.1257102,0.09433498,0,0.3,0,0,0,0,
6.38224E+17,-11.2381,88.95406,54.21235,-62.39867,3.051698,121.3735,-56.77951,-0.4675641,5.159746,-69.28372,-8.374548,-36.83611,0,0,0,-21.5557,78.69699,-59.86444,-121.5853,-110.5478,-88.7247,0.001067912,-0.1257102,0.09433498,0,0.3,0,0,0,0,
6.38224E+17,-9.164824,92.22701,57.48097,-66.5004,-2.88116,121.3002,-56.77951,-0.4675641,5.159746,-69.28372,-8.374548,-36.90935,0,0,0,-17.08395,84.91302,-62.45865,-121.5853,-110.5478,-88.7247,0.001067912,-0.1257102,0.09433498,0,0.3,0,0,0,0,
6.38224E+17,-6.950189,94.77524,59.51218,-69.28372,-8.301303,121.3002,-56.77951,-0.4675641,5.159746,-69.28372,-8.374548,-36.83611,0,0,0,-12.56187,88.58132,-65.30121,-121.5853,-110.5478,-88.7247,0.001067912,-0.1257102,0.09433498,0,0.3,0,0,0,0,
6.38224E+17,-5.772191,95.82726,60.32933,-70.16266,-10.71839,121.3002,-56.77951,-0.4675641,5.159746,-69.28372,-8.374548,-36.90935,0,0,0,-10.29136,90.00082,-66.54198,-121.5853,-110.5478,-88.7247,0.001067912,-0.1257102,0.09433498,0,0.3,0,0,0,0,
6.38224E+17,-2.803635,97.58062,61.40331,-71.11485,-14.82012,121.5932,-56.77951,-0.4675641,5.159746,-69.28372,-8.374548,-36.83611,0,0,0,-4.866419,91.70775,-68.97805,-121.5853,-110.5478,-88.7247,0.001067912,-0.1257102,0.09433498,0,0.3,0,0,0,0,
6.38224E+17,0.6361189,98.86642,62.12708,-70.89511,-18.55563,123.2778,-56.77951,-0.4675641,5.159746,-69.28372,-8.374548,-36.90935,0,0,0,1.080529,92.76377,-71.02979,-121.5853,-110.5478,-88.7247,0.001067912,-0.1257102,0.09433498,0,0.3,0,0,0,0,
6.38224E+17,4.617752,100.012,63.31779,-70.01617,-22.36438,126.2809,-56.77951,-0.4675641,5.159746,-69.28372,-8.447793,-36.83611,0,0,0,7.726031,94.78957,-72.69522,-121.5853,-110.5478,-88.7247,0.001067912,-0.1257102,0.09433498,0,0.3,0,0,0,0,
6.38224E+17,7.232908,100.3626,63.66799,-69.28372,-24.63498,130.3094,-56.77951,-0.4675641,5.159746,-69.28372,-8.447793,-36.83611,0,0,0,12.02711,95.37462,-73.58337,-121.5853,-110.5478,-88.7247,0.001067912,-0.1257102,0.09433498,0,0.3,0,0,0,0,
6.38224E+17,8.858545,100.4561,63.80808,-68.62451,-25.88014,132.6532,-56.77951,-0.4675641,5.159746,-69.28372,-8.374548,-36.83611,0,0,0,14.69995,95.62767,-74.03168,-121.5853,-110.5478,-88.7247,0.001067912,-0.1257102,0.09433498,0,0.3,0,0,0,0,
6.38224E+17,11.92134,100.4094,63.85477,-66.86663,-28.00425,136.8282,-56.77951,-0.4675641,5.159746,-69.28372,-8.447793,-36.83611,0,0,0,19.75042,95.74491,-74.80022,-121.5853,-110.5478,-88.7247,0.001067912,-0.1257102,0.09433498,0,0.3,0,0,0,0,
6.38224E+17,15.47889,100.2457,63.85477,-64.66927,-29.76214,138.9523,-56.77951,-0.4675641,5.159746,-69.28372,-8.374548,-36.83611,0,0,0,25.61724,95.81319,-75.84492,-121.5853,-110.5478,-88.7247,0.001067912,-0.1257102,0.09433498,0,0.3,0,0,0,0,
6.38224E+17,17.36369,100.199,63.85477,-63.71709,-30.56783,139.0255,-56.77951,-0.4675641,5.159746,-69.28372,-8.374548,-36.83611,0,0,0,28.67783,95.8325,-76.63531,-121.5853,-110.5478,-88.7247,0.001067912,-0.1257102,0.09433498,0,0.3,0,0,0,0,
6.38224E+17,20.92125,100.199,63.85477,-61.37324,-32.6187,138.5128,-56.77951,-0.4675641,5.159746,-69.28372,-8.374548,-36.90935,0,0,0,34.31356,95.8325,-78.59154,-121.5853,-110.5478,-88.7247,0.001067912,-0.1257102,0.09433498,0,0.3,0,0,0,0,
6.38224E+17,24.07828,100.1522,63.85477,-58.51668,-34.59632,137.2677,-56.77951,-0.4675641,5.159746,-69.28372,-8.374548,-36.90935,0,0,0,39.24844,95.85173,-80.51971,-121.5853,-110.5478,-88.7247,0.001067912,-0.1257102,0.09433498,0,0.3,0,0,0,0,
6.38224E+17,27.23532,99.98857,63.85477,-55.51363,-36.79367,134.8506,-56.77951,-0.4675641,5.159746,-69.28372,-8.374548,-36.83611,0,0,0,44.19755,95.91833,-82.4811,-121.5853,-110.5478,-88.7247,0.001067912,-0.1257102,0.09433498,0,0.3,0,0,0,0,
6.38224E+17,29.35571,99.77817,63.85477,-53.02329,-38.25858,133.7519,-56.77951,-0.4675641,5.159746,-69.28372,-8.374548,-36.83611,0,0,0,47.58089,96.00238,-83.7547,-121.5853,-110.5478,-88.7247,0.001067912,-0.1257102,0.09433498,0,0.3,0,0,0,0,
6.38224E+17,31.40543,99.56776,63.85477,-50.02024,-39.72348,132.0673,-56.77951,-0.4675641,5.159746,-69.28372,-8.374548,-36.90935,0,0,0,50.82768,96.08466,-85.09863,-121.5853,-110.5478,-88.7247,0.001067912,-0.1257102,0.09433498,0,0.3,0,0,0,0,
6.38224E+17,33.43158,99.1002,63.85477,-46.43123,-41.04189,130.8953,-56.77951,-0.4675641,5.159746,-69.28372,-8.374548,-36.83611,0,0,0,54.33092,96.26115,-86.0516,-121.5853,-110.5478,-88.7247,0.001067912,-0.1257102,0.09433498,0,0.3,0,0,0,0,
6.38224E+17,34.37398,98.70278,63.85477,-44.67334,-41.7011,130.7488,-56.77951,-0.4675641,5.159746,-69.28372,-8.374548,-36.83611,0,0,0,56.19309,96.40428,-86.20207,-121.5853,-110.5478,-88.7247,0.001067912,-0.1257102,0.09433498,0,0.3,0,0,0,0,
6.38224E+17,35.81114,97.74427,63.85477,-42.3295,-42.36031,130.6756,-56.77951,-0.4675641,5.159746,-69.28372,-8.374548,-36.90935,0,0,0,59.52758,96.72337,-85.84679,-121.5853,-110.5478,-88.7247,0.001067912,-0.1257102,0.09433498,0,0.3,0,0,0,0,
6.38224E+17,37.3661,96.78576,63.85477,-40.93784,-42.79977,131.2616,-56.77951,-0.4675641,5.159746,-69.28372,-8.374548,-36.83611,0,0,0,63.08746,97.00547,-85.73376,-121.5853,-110.5478,-88.7247,0.001067912,-0.1257102,0.09433498,0,0.3,0,0,0,0,
6.38224E+17,39.29802,96.06104,63.85477,-39.76591,-43.01951,131.7743,-56.77951,-0.4675641,5.159746,-69.28372,-8.374548,-36.83611,0,0,0,66.89833,97.19417,-86.61043,-121.5853,-110.5478,-88.7247,0.001067912,-0.1257102,0.09433498,0,0.3,0,0,0,0,
6.38224E+17,41.25349,95.45321,63.85477,-38.37426,-43.45898,131.7743,-56.77951,-0.4675641,5.159746,-69.28372,-8.374548,-36.83611,0,0,0,70.57668,97.33607,-87.88262,-121.5853,-110.5478,-88.7247,0.001067912,-0.1257102,0.09433498,0,0.3,0,0,0,0,
6.38224E+17,42.19589,95.12591,63.85477,-37.6418,-43.67872,131.7743,-56.77951,-0.4675641,5.159746,-69.28372,-8.374548,-36.90935,0,0,0,72.40005,97.4063,-88.49236,-121.5853,-110.5478,-88.7247,0.001067912,-0.1257102,0.09433498,0,0.3,0,0,0,0,
6.38224E+17,44.01001,94.4947,63.85477,-36.61637,-44.19143,131.6278,-56.77951,-0.4675641,5.159746,-69.28372,-8.374548,-36.83611,0,0,0,75.90891,97.5295,-89.77149,-121.5853,-110.5478,-88.7247,0.001067912,-0.1257102,0.09433498,0,0.3,0,0,0,0,
6.38224E+17,45.777,93.69984,63.85477,-35.95716,-44.55766,131.701,-56.77951,-0.4675641,5.159746,-69.28372,-8.374548,-36.83611,0,0,0,79.61812,97.66167,-90.86256,-121.5853,-110.5478,-88.7247,0.001067912,-0.1257102,0.09433498,0,0.3,0,0,0,0,
6.38224E+17,46.69584,93.25565,63.85477,-35.73743,-44.7774,131.6278,-56.77951,-0.4675641,5.159746,-69.28372,-8.447793,-36.90935,0,0,0,81.60141,97.72438,-91.44154,-121.5853,-110.5478,-88.7247,0.001067912,-0.1257102,0.09433498,0,0.3,0,0,0,0,
6.38224E+17,48.58064,92.36728,63.85477,-35.44445,-44.99713,131.6278,-56.77951,-0.4675641,5.159746,-69.28372,-8.374548,-36.83611,0,0,0,85.63536,97.8258,-92.80083,-121.5853,-110.5478,-88.7247,0.001067912,-0.1257102,0.09433498,0,0.3,0,0,0,0,
6.38224E+17,50.3712,91.64256,63.85477,-35.00498,-45.29012,131.6278,-56.77951,-0.4675641,5.159746,-69.28372,-8.374548,-36.83611,0,0,0,89.25245,97.8848,-94.43835,-121.5853,-110.5478,-88.7247,0.001067912,-0.1257102,0.09433498,0,0.3,0,0,0,0,
6.38224E+17,51.85547,90.91783,63.80808,-34.85849,-45.72958,131.701,-56.77951,-0.4675641,5.159746,-69.28372,-8.374548,-36.90935,0,0,0,92.42551,97.82495,-95.76308,-121.5853,-110.5478,-88.7247,0.001067912,-0.1257102,0.09433498,0,0.3,0,0,0,0,
6.38224E+17,52.56227,90.40351,63.73803,-35.07822,-45.87607,131.701,-56.77951,-0.4675641,5.159746,-69.28372,-8.374548,-36.83611,0,0,0,94.20707,97.69252,-96.22491,-121.5853,-110.5478,-88.7247,0.001067912,-0.1257102,0.09433498,0,0.3,0,0,0,0,
6.38224E+17,53.78739,89.07095,63.6213,-36.03041,-46.09581,131.994,-56.77951,-0.4675641,5.159746,-69.28372,-8.374548,-36.90935,0,0,0,98.13264,97.43478,-96.49459,-121.5853,-110.5478,-88.7247,0.001067912,-0.1257102,0.09433498,0,0.3,0,0,0,0,
6.38224E+17,55.29523,86.85002,63.6213,-37.86154,-46.16905,134.9971,-56.77951,-0.4675641,5.159746,-69.28372,-8.447793,-36.90935,0,0,0,104.2359,97.25083,-96.1608,-121.5853,-110.5478,-88.7247,0.001067912,-0.1257102,0.09433498,0,0.3,0,0,0,0,
6.38224E+17,55.29523,85.09666,63.5746,-39.69267,-46.16905,139.2453,-56.77951,-0.4675641,5.159746,-69.28372,-8.447793,-36.83611,0,0,0,107.5425,96.86694,-93.87077,-121.5853,-110.5478,-88.7247,0.001067912,-0.1257102,0.09433498,0,0.3,0,0,0,0,
6.38224E+17,55.29523,83.7641,63.5746,-41.74353,-45.94932,143.7865,-56.77951,-0.4675641,5.159746,-69.28372,-8.447793,-36.90935,0,0,0,110.0801,96.56594,-92.11337,-121.5853,-110.5478,-88.7247,0.001067912,-0.1257102,0.09433498,0,0.3,0,0,0,0,
6.38224E+17,55.29523,80.91196,63.38783,-46.94394,-44.85064,144.8119,-56.77951,-0.4675641,5.159746,-69.28372,-8.374548,-36.90935,0,0,0,115.3284,95.29202,-88.47864,-121.5853,-110.5478,-88.7247,0.001067912,-0.1257102,0.09433498,0,0.3,0,0,0,0,
6.38224E+17,55.31879,77.94293,62.73411,-51.77813,-43.166,144.7387,-56.77951,-0.4675641,5.159746,-69.28372,-8.374548,-36.83611,0,0,0,120.3797,92.66792,-85.05354,-121.5853,-110.5478,-88.7247,0.001067912,-0.1257102,0.09433498,0,0.3,0,0,0,0,
6.38224E+17,55.31879,75.02065,61.56674,-55.58687,-40.52918,144.8852,-56.77951,-0.4675641,5.159746,-69.28372,-8.374548,-36.83611,0,0,0,124.7734,88.67607,-82.01334,-121.5853,-110.5478,-88.7247,0.001067912,-0.1257102,0.09433498,0,0.3,0,0,0,0,
6.38224E+17,55.31879,74.03877,61.14649,-56.53906,-39.50375,144.8119,-56.77951,-0.4675641,5.159746,-69.28372,-8.374548,-36.83611,0,0,0,126.1989,87.20813,-81.02693,-121.5853,-110.5478,-88.7247,0.001067912,-0.1257102,0.09433498,0,0.3,0,0,0,0,
6.38224E+17,55.31879,72.72959,60.53946,-57.63773,-37.45288,144.8119,-56.77951,-0.4675641,5.159746,-69.28372,-8.374548,-36.90935,0,0,0,128.0338,85.10308,-79.75726,-121.5853,-110.5478,-88.7247,0.001067912,-0.1257102,0.09433498,0,0.3,0,0,0,0,
6.38224E+17,55.31879,72.56595,60.56281,-57.85748,-36.13447,144.8852,-56.77951,-0.4675641,5.159746,-69.28372,-8.447793,-36.83611,0,0,0,128.3548,85.0368,-79.5352,-121.5853,-110.5478,-88.7247,0.001067912,-0.1257102,0.09433498,0,0.3,0,0,0,0,
6.38224E+17,55.31879,72.72959,60.56281,-56.83204,-35.62175,144.8119,-56.77951,-0.4675641,5.159746,-69.28372,-8.374548,-36.90935,0,0,0,128.0558,85.1504,-79.74206,-121.5853,-110.5478,-88.7247,0.001067912,-0.1257102,0.09433498,0,0.3,0,0,0,0,
6.38224E+17,55.31879,72.77635,60.56281,-55.87985,-35.5485,144.7387,-56.77951,-0.4675641,5.159746,-69.28372,-8.374548,-36.90935,0,0,0,127.9704,85.18266,-79.80119,-121.5853,-110.5478,-88.7247,0.001067912,-0.1257102,0.09433498,0,0.3,0,0,0,0,
6.38224E+17,55.31879,72.72959,60.58615,-53.38951,-35.62175,144.0062,-56.77951,-0.4675641,5.159746,-69.28372,-8.374548,-36.90935,0,0,0,128.0778,85.19772,-79.72687,-121.5853,-110.5478,-88.7247,0.001067912,-0.1257102,0.09433498,0,0.3,0,0,0,0,
6.38224E+17,55.31879,72.16852,60.67955,-50.45971,-36.06122,138.9523,-56.77951,-0.4675641,5.159746,-69.28372,-8.374548,-36.90935,0,0,0,129.1893,84.99337,-78.95776,-121.5853,-110.5478,-88.7247,0.001067912,-0.1257102,0.09433498,0,0.3,0,0,0,0,
6.38224E+17,55.29523,70.67231,60.70289,-47.09043,-36.79367,132.4335,-56.77951,-0.4675641,5.159746,-69.28372,-8.447793,-36.90935,0,0,0,131.8878,83.93126,-77.01027,-121.5853,-110.5478,-88.7247,0.001067912,-0.1257102,0.09433498,0,0.3,0,0,0,0,
6.38224E+17,55.29523,69.85407,60.63285,-45.91851,-37.1599,129.7234,-56.77951,-0.4675641,5.159746,-69.28372,-8.447793,-36.83611,0,0,0,133.2958,83.14604,-76.03519,-121.5853,-110.5478,-88.7247,0.001067912,-0.1257102,0.09433498,0,0.3,0,0,0,0,
6.38224E+17,55.27167,67.63314,59.88574,-43.13519,-37.37963,124.7427,-56.77951,-0.4675641,5.159746,-69.28372,-8.374548,-36.90935,0,0,0,136.5078,79.76241,-73.72761,-121.5853,-110.5478,-88.7247,0.001067912,-0.1257102,0.09433498,0,0.3,0,0,0,0,
6.38224E+17,55.27167,64.17316,58.53159,-40.20539,-36.72043,118.6634,-56.77951,-0.4675641,5.159746,-69.28372,-8.374548,-36.90935,0,0,0,141.2225,73.76784,-70.45957,-121.5853,-110.5478,-88.7247,0.001067912,-0.1257102,0.09433498,0,0.3,0,0,0,0,
6.38224E+17,55.24811,61.99899,57.6444,-38.88697,-36.13447,115.2209,-56.77951,-0.4675641,5.159746,-69.28372,-8.374548,-36.83611,0,0,0,143.9924,69.72473,-68.45185,-121.5853,-110.5478,-88.7247,0.001067912,-0.1257102,0.09433498,0,0.3,0,0,0,0,
6.38224E+17,55.24811,56.27134,55.44976,-36.03041,-33.64413,107.1639,-56.77951,-0.4675641,5.159746,-69.28372,-8.374548,-36.83611,0,0,0,151.0768,58.62744,-63.53689,-121.5853,-110.5478,-88.7247,0.001067912,-0.1257102,0.09433498,0,0.3,0,0,0,0,
6.38224E+17,55.24811,49.2345,53.86214,-33.32034,-30.20161,98.52097,-56.77951,-0.4675641,5.159746,-69.28372,-8.374548,-36.83611,0,0,0,160.0255,45.70722,-57.32852,-121.5853,-110.5478,-88.7247,0.001067912,-0.1257102,0.09433498,0,0.3,0,0,0,0,
6.38224E+17,55.22455,41.47293,53.16172,-31.19623,-26.31961,88.63287,-56.77951,-0.4675641,5.159746,-69.28372,-8.374548,-36.90935,0,0,0,169.7321,31.71208,-50.49096,-121.5853,-110.5478,-88.7247,0.001067912,-0.1257102,0.09433498,0,0.3,0,0,0,0,
6.38224E+17,55.22455,37.68567,53.16172,-30.31729,-24.48849,83.6522,-56.77951,-0.4675641,5.159746,-69.28372,-8.447793,-36.83611,0,0,0,174.3443,24.91962,-47.28833,-121.5853,-110.5478,-88.7247,0.001067912,-0.1257102,0.09433498,0,0.3,0,0,0,0,
6.38224E+17,55.22455,29.03573,53.58197,-28.92563,-21.11921,73.10489,-56.77951,-0.4675641,5.159746,-69.28372,-8.374548,-36.83611,0,0,0,183.9083,8.905907,-40.64722,-121.5853,-110.5478,-88.7247,0.001067912,-0.1257102,0.09433498,0,0.3,0,0,0,0,
6.38224E+17,55.22455,23.02753,53.65202,-28.11993,-19.6543,65.26765,-56.77951,-0.4675641,5.159746,-69.28372,-8.374548,-36.83611,0,0,0,189.0262,-3.521963,-37.09343,-121.5853,-110.5478,-88.7247,0.001067912,-0.1257102,0.09433498,0,0.3,0,0,0,0,
6.38224E+17,55.22455,20.01174,53.65202,-27.60722,-19.36132,60.7997,-56.77951,-0.4675641,5.159746,-69.28372,-8.374548,-36.90935,0,0,0,191.1408,-10.05087,-35.6251,-121.5853,-110.5478,-88.7247,0.001067912,-0.1257102,0.09433498,0,0.3,0,0,0,0,
6.38224E+17,55.22455,14.75165,53.65202,-26.58179,-19.14159,52.30326,-56.77951,-0.4675641,5.159746,-69.28372,-8.374548,-36.90935,0,0,0,194.1438,-21.73006,-33.53989,-121.5853,-110.5478,-88.7247,0.001067912,-0.1257102,0.09433498,0,0.3,0,0,0,0,
6.38224E+17,55.22455,11.05789,53.32516,-25.84933,-19.36132,45.85769,-56.77951,-0.4675641,5.159746,-69.28372,-8.374548,-36.90935,0,0,0,195.3487,-30.71974,-32.70318,-121.5853,-110.5478,-88.7247,0.001067912,-0.1257102,0.09433498,0,0.3,0,0,0,0,
6.38224E+17,55.20099,8.579801,51.78423,-25.48311,-19.58106,40.65728,-56.77951,-0.4675641,5.159746,-69.28372,-8.374548,-36.90935,0,0,0,194.3101,-39.24954,-33.30597,-121.5853,-110.5478,-88.7247,0.001067912,-0.1257102,0.09433498,0,0.3,0,0,0,0,
6.38224E+17,55.17743,6.732923,49.61294,-25.11688,-19.43457,36.33582,-56.77951,-0.4675641,5.159746,-69.28372,-8.374548,-36.83611,0,0,0,192.0971,-47.41971,-34.72677,-121.5853,-110.5478,-88.7247,0.001067912,-0.1257102,0.09433498,0,0.3,0,0,0,0,
6.38224E+17,55.15387,5.938064,48.84248,-24.89715,-19.06834,34.72442,-56.77951,-0.4675641,5.159746,-69.28372,-8.447793,-36.83611,0,0,0,191.2486,-50.61633,-35.20024,-121.5853,-110.5478,-88.7247,0.001067912,-0.1257102,0.09433498,0,0.3,0,0,0,0,
6.38224E+17,55.15387,4.932801,47.8152,-24.0182,-17.23721,32.7468,-56.77951,-0.4675641,5.159746,-69.28372,-8.447793,-36.83611,0,0,0,190.126,-54.73132,-35.98186,-121.5853,-110.5478,-88.7247,0.001067912,-0.1257102,0.09433498,0,0.3,0,0,0,0,
6.38224E+17,55.10675,4.792531,47.51169,-22.77304,-14.23416,32.52707,-56.77951,-0.4675641,5.159746,-69.28372,-8.374548,-36.83611,0,0,0,189.6495,-55.57878,-36.08187,-121.5853,-110.5478,-88.7247,0.001067912,-0.1257102,0.09433498,0,0.3,0,0,0,0,
6.38224E+17,55.05963,4.839288,47.51169,-21.96734,-12.47628,33.11303,-56.77951,-0.4675641,5.159746,-69.28372,-8.447793,-36.83611,0,0,0,189.5332,-55.47034,-35.93118,-121.5853,-110.5478,-88.7247,0.001067912,-0.1257102,0.09433498,0,0.3,0,0,0,0,
6.38224E+17,55.01251,5.002935,47.67512,-19.69674,-8.594284,35.8231,-56.77951,-0.4675641,5.159746,-69.28372,-8.374548,-36.83611,0,0,0,189.6076,-54.81002,-35.647,-121.5853,-110.5478,-88.7247,0.001067912,-0.1257102,0.09433498,0,0.3,0,0,0,0,
6.38224E+17,55.01251,5.657525,48.30549,-16.84018,-3.979838,40.21781,-56.77951,-0.4675641,5.159746,-69.28372,-8.447793,-36.90935,0,0,0,190.2961,-52.203,-35.16514,-121.5853,-110.5478,-88.7247,0.001067912,-0.1257102,0.09433498,0,0.3,0,0,0,0,
6.38224E+17,55.01251,7.036839,49.68298,-13.69064,1.293814,45.34497,-56.77951,-0.4675641,5.159746,-69.28372,-8.374548,-36.90935,0,0,0,191.7287,-46.59325,-34.16249,-121.5853,-110.5478,-88.7247,0.001067912,-0.1257102,0.09433498,0,0.3,0,0,0,0,
6.38224E+17,55.01251,8.158993,50.7803,-11.85951,4.077131,48.20153,-56.77951,-0.4675641,5.159746,-69.28372,-8.447793,-36.83611,0,0,0,192.7842,-42.04153,-33.42375,-121.5853,-110.5478,-88.7247,0.001067912,-0.1257102,0.09433498,0,0.3,0,0,0,0,
6.38224E+17,54.98895,11.17478,52.9049,-8.124002,8.691576,53.1822,-56.77951,-0.4675641,5.159746,-69.28372,-8.374548,-36.83611,0,0,0,194.2655,-31.23511,-32.26796,-121.5853,-110.5478,-88.7247,0.001067912,-0.1257102,0.09433498,0,0.3,0,0,0,0,
6.38224E+17,54.75335,16.29461,55.40306,-3.070086,12.42708,57.50367,-56.77951,-0.4675641,5.159746,-69.28372,-8.374548,-36.83611,0,0,0,194.175,-14.95124,-31.13767,-121.5853,-110.5478,-88.7247,0.001067912,-0.1257102,0.09433498,0,0.3,0,0,0,0,
6.38224E+17,54.09367,23.05091,56.99068,2.350057,14.55119,62.19136,-56.77951,-0.4675641,5.159746,-69.28372,-8.447793,-36.83611,0,0,0,189.9622,2.917225,-30.80835,-121.5853,-110.5478,-88.7247,0.001067912,-0.1257102,0.09433498,0,0.3,0,0,0,0,
6.38224E+17,53.08059,28.70843,57.10741,5.865825,14.91741,66.00011,-56.77951,-0.4675641,5.159746,-69.28372,-8.374548,-36.90935,0,0,0,183.0258,14.98719,-30.83338,-121.5853,-110.5478,-88.7247,0.001067912,-0.1257102,0.09433498,0,0.3,0,0,0,0,
6.38224E+17,52.256,32.44894,57.17745,7.843444,14.55119,68.71018,-56.77951,-0.4675641,5.159746,-69.28372,-8.374548,-36.83611,0,0,0,177.5963,22.61777,-30.86998,-121.5853,-110.5478,-88.7247,0.001067912,-0.1257102,0.09433498,0,0.3,0,0,0,0,
6.38224E+17,50.44188,40.23389,57.50431,11.13948,12.86655,74.64304,-56.77951,-0.4675641,5.159746,-69.28372,-8.447793,-36.83611,0,0,0,165.1999,37.84158,-31.888,-121.5853,-110.5478,-88.7247,0.001067912,-0.1257102,0.09433498,0,0.3,0,0,0,0,
6.38224E+17,48.4864,47.76167,58.20473,13.70306,9.790254,79.62371,-56.77951,-0.4675641,5.159746,-69.28372,-8.447793,-36.90935,0,0,0,151.9904,51.81615,-33.81596,-121.5853,-110.5478,-88.7247,0.001067912,-0.1257102,0.09433498,0,0.3,0,0,0,0,
6.38224E+17,47.11992,51.66583,58.88181,14.80174,7.592898,81.74782,-56.77951,-0.4675641,5.159746,-69.28372,-8.374548,-36.90935,0,0,0,144.2632,59.03464,-34.38577,-121.5853,-110.5478,-88.7247,0.001067912,-0.1257102,0.09433498,0,0.3,0,0,0,0,
