zeyangz2/DNN_classification_different_people_hand/data/srikar_right_4.csv
Timestamp,Therapist joint angle 0,Therapist joint angle 1,Therapist joint angle 2,Therapist joint angle 3,Therapist joint angle 4,Therapist joint angle 5,Patient joint angle 0,Patient joint angle 1,Patient joint angle 2,Patient joint angle 3,Patient joint angle 4,Patient joint angle 5,Virtual joint angle 0,Virtual joint angle 1,Virtual joint angle 2,Therapist position x,Therapist position y,Therapist position z,Patient position x,Patient position y,Patient position z,Virtual position x,Virtual position y,Virtual position z,Assistive Force, Obstacle Force Magnitude, Therapist Constant Force, Patient Constant Force, Recovery Factor, Assistance Level,label
6.38224E+17,0,0,0,0,0,0,0,0,0,0,0,0,0,0,0,0,0,0,0,0,0,0,0,0,0,0.3,0,0,0,0,2
6.38224E+17,-10.4135,1.145532,-5.486608,-17.2064,51.10053,-120.6286,-56.82663,-0.4675641,5.486608,-70.08942,-8.374548,-36.83611,0,0,0,-21.79375,-106.7231,-49.76263,-122.2847,-110.4773,-88.41026,0.001067912,-0.1257102,0.09433498,0,0.3,0,0,0,0,
6.38224E+17,-10.4135,1.145532,-5.486608,-17.2064,51.24702,-120.4088,-56.82663,-0.4675641,5.486608,-70.01617,-8.374548,-36.83611,0,0,0,-21.79375,-106.7231,-49.76263,-122.2847,-110.4773,-88.41026,0.001067912,-0.1257102,0.09433498,0,0.3,0,0,0,0,
6.38224E+17,-10.4135,1.16891,-5.439913,-17.05991,51.61324,-116.6733,-56.82663,-0.4675641,5.486608,-70.01617,-8.447793,-36.90935,0,0,0,-21.8131,-106.6791,-49.65731,-122.2847,-110.4773,-88.41026,0.001067912,-0.1257102,0.09433498,0,0.3,0,0,0,0,
6.38224E+17,-10.4135,1.16891,-5.346524,-16.98667,51.90622,-114.183,-56.82663,-0.4675641,5.486608,-70.01617,-8.374548,-36.90935,0,0,0,-21.85221,-106.6995,-49.44448,-122.2847,-110.4773,-88.41026,0.001067912,-0.1257102,0.09433498,0,0.3,0,0,0,0,
6.38224E+17,-10.4135,1.239045,-4.996315,-16.76693,52.49219,-110.4475,-56.82663,-0.4675641,5.486608,-70.01617,-8.447793,-36.83611,0,0,0,-21.99832,-106.6098,-48.64947,-122.2847,-110.4773,-88.41026,0.001067912,-0.1257102,0.09433498,0,0.3,0,0,0,0,
6.38224E+17,-10.4135,1.519583,-4.669453,-16.76693,53.15139,-107.5177,-56.82663,-0.4675641,5.486608,-70.08942,-8.447793,-36.83611,0,0,0,-22.13249,-106.0211,-47.91938,-122.2847,-110.4773,-88.41026,0.001067912,-0.1257102,0.09433498,0,0.3,0,0,0,0,
6.38224E+17,-10.24858,1.893635,-4.506022,-16.84018,53.66411,-106.419,-56.82663,-0.4675641,5.486608,-70.01617,-8.447793,-36.83611,0,0,0,-21.8486,-105.1814,-47.50859,-122.2847,-110.4773,-88.41026,0.001067912,-0.1257102,0.09433498,0,0.3,0,0,0,0,
6.38224E+17,-10.03654,2.127417,-4.482675,-16.98667,53.95709,-106.2725,-56.82663,-0.4675641,5.486608,-70.01617,-8.447793,-36.90935,0,0,0,-21.40736,-104.6419,-47.39402,-122.2847,-110.4773,-88.41026,0.001067912,-0.1257102,0.09433498,0,0.3,0,0,0,0,
6.38224E+17,-9.282625,2.688493,-4.43598,-17.13316,54.68954,-105.1739,-56.82663,-0.4675641,5.486608,-70.01617,-8.374548,-36.83611,0,0,0,-19.82259,-103.3456,-47.07003,-122.2847,-110.4773,-88.41026,0.001067912,-0.1257102,0.09433498,0,0.3,0,0,0,0,
6.38224E+17,-7.845467,3.530109,-4.43598,-16.03448,55.42199,-102.83,-56.82663,-0.4675641,5.486608,-70.01617,-8.447793,-36.83611,0,0,0,-16.76009,-101.3898,-46.71627,-122.2847,-110.4773,-88.41026,0.001067912,-0.1257102,0.09433498,0,0.3,0,0,0,0,
6.38224E+17,-6.808829,4.231455,-4.43598,-14.64282,55.71497,-100.9989,-56.82663,-0.4675641,5.486608,-70.08942,-8.447793,-36.90935,0,0,0,-14.54368,-99.76121,-46.54265,-122.2847,-110.4773,-88.41026,0.001067912,-0.1257102,0.09433498,0,0.3,0,0,0,0,
6.38224E+17,-6.05491,4.792531,-4.43598,-13.4709,55.86147,-99.9002,-56.82663,-0.4675641,5.486608,-70.01617,-8.447793,-36.90935,0,0,0,-12.92885,-98.45941,-46.46398,-122.2847,-110.4773,-88.41026,0.001067912,-0.1257102,0.09433498,0,0.3,0,0,0,0,
6.38224E+17,-4.429273,6.335493,-4.43598,-10.90732,56.0812,-97.99583,-56.82663,-0.4675641,5.486608,-70.08942,-8.447793,-36.83611,0,0,0,-9.438983,-94.88536,-46.4934,-122.2847,-110.4773,-88.41026,0.001067912,-0.1257102,0.09433498,0,0.3,0,0,0,0,
6.38224E+17,-2.591596,8.252506,-4.459328,-7.684532,56.22769,-96.0182,-56.82663,-0.4675641,5.486608,-70.08942,-8.447793,-36.83611,0,0,0,-5.498367,-90.45581,-46.87334,-122.2847,-110.4773,-88.41026,0.001067912,-0.1257102,0.09433498,0,0.3,0,0,0,0,
6.38224E+17,-0.7774788,10.30979,-4.459328,-4.022273,56.15445,-94.04059,-56.82663,-0.4675641,5.486608,-70.08942,-8.447793,-36.90935,0,0,0,-1.639544,-85.73063,-47.53228,-122.2847,-110.4773,-88.41026,0.001067912,-0.1257102,0.09433498,0,0.3,0,0,0,0,
6.38224E+17,0.04711992,11.38519,-4.459328,-2.191144,56.00795,-93.23489,-56.82663,-0.4675641,5.486608,-70.01617,-8.447793,-36.83611,0,0,0,0.098982,-83.27251,-47.99222,-122.2847,-110.4773,-88.41026,0.001067912,-0.1257102,0.09433498,0,0.3,0,0,0,0,
6.38224E+17,1.554958,13.44247,-4.482675,1.031644,55.12901,-91.76999,-56.82663,-0.4675641,5.486608,-70.08942,-8.374548,-36.90935,0,0,0,3.236606,-78.59236,-49.11952,-122.2847,-110.4773,-88.41026,0.001067912,-0.1257102,0.09433498,0,0.3,0,0,0,0,
6.38224E+17,2.568036,15.47637,-4.459328,3.741715,54.10358,-90.67131,-56.82663,-0.4675641,5.486608,-70.08942,-8.447793,-36.90935,0,0,0,5.293641,-74.01308,-50.32199,-122.2847,-110.4773,-88.41026,0.001067912,-0.1257102,0.09433498,0,0.3,0,0,0,0,
6.38224E+17,2.874315,16.55177,-4.459328,4.767147,53.51762,-90.45158,-56.82663,-0.4675641,5.486608,-70.01617,-8.447793,-36.90935,0,0,0,5.889867,-71.60737,-51.04158,-122.2847,-110.4773,-88.41026,0.001067912,-0.1257102,0.09433498,0,0.3,0,0,0,0,
6.38224E+17,3.180595,18.58567,-4.319244,6.08556,52.27245,-90.37833,-56.82663,-0.4675641,5.486608,-70.01617,-8.374548,-36.83611,0,0,0,6.455625,-67.11965,-52.17675,-122.2847,-110.4773,-88.41026,0.001067912,-0.1257102,0.09433498,0,0.3,0,0,0,0,
6.38224E+17,3.274835,20.50268,-3.828952,6.671522,51.02729,-90.37833,-56.82663,-0.4675641,5.486608,-70.01617,-8.447793,-36.90935,0,0,0,6.626458,-62.99634,-52.54123,-122.2847,-110.4773,-88.41026,0.001067912,-0.1257102,0.09433498,0,0.3,0,0,0,0,
6.38224E+17,3.321954,22.48983,-3.128534,6.744767,49.78212,-90.45158,-56.82663,-0.4675641,5.486608,-70.01617,-8.374548,-36.83611,0,0,0,6.717784,-58.79229,-52.61413,-122.2847,-110.4773,-88.41026,0.001067912,-0.1257102,0.09433498,0,0.3,0,0,0,0,
6.38224E+17,3.651794,25.22508,-2.334727,6.378541,48.31721,-91.18402,-56.82663,-0.4675641,5.486608,-70.01617,-8.447793,-36.90935,0,0,0,7.337492,-53.05882,-53.38242,-122.2847,-110.4773,-88.41026,0.001067912,-0.1257102,0.09433498,0,0.3,0,0,0,0,
6.38224E+17,3.934513,26.46413,-2.007865,6.158805,47.65801,-91.76999,-56.82663,-0.4675641,5.486608,-70.01617,-8.447793,-36.83611,0,0,0,7.870599,-50.49238,-53.91576,-122.2847,-110.4773,-88.41026,0.001067912,-0.1257102,0.09433498,0,0.3,0,0,0,0,
6.38224E+17,5.065392,30.18126,-0.6537234,5.719335,45.97337,-93.01515,-56.82663,-0.4675641,5.486608,-70.01617,-8.374548,-36.83611,0,0,0,10.04342,-42.95131,-55.04271,-122.2847,-110.4773,-88.41026,0.001067912,-0.1257102,0.09433498,0,0.3,0,0,0,0,
6.38224E+17,6.785269,35.09068,1.657656,6.012315,43.84926,-94.11383,-56.82663,-0.4675641,5.486608,-70.08942,-8.447793,-36.90935,0,0,0,13.34728,-33.28499,-56.17104,-122.2847,-110.4773,-88.41026,0.001067912,-0.1257102,0.09433498,0,0.3,0,0,0,0,
6.38224E+17,7.751227,37.87269,3.221923,6.378541,42.53085,-94.62655,-56.82663,-0.4675641,5.486608,-70.01617,-8.447793,-36.83611,0,0,0,15.20793,-27.92445,-56.62213,-122.2847,-110.4773,-88.41026,0.001067912,-0.1257102,0.09433498,0,0.3,0,0,0,0,
6.38224E+17,9.753823,44.11467,7.401083,7.330729,39.23481,-96.0182,-56.82663,-0.4675641,5.486608,-70.01617,-8.447793,-36.90935,0,0,0,19.12966,-16.06454,-57.06645,-122.2847,-110.4773,-88.41026,0.001067912,-0.1257102,0.09433498,0,0.3,0,0,0,0,
6.38224E+17,11.73286,50.70732,12.51413,9.015368,34.76685,-97.33662,-56.82663,-0.4675641,5.486608,-70.01617,-8.374548,-36.83611,0,0,0,23.04807,-3.629563,-57.37565,-122.2847,-110.4773,-88.41026,0.001067912,-0.1257102,0.09433498,0,0.3,0,0,0,0,
6.38224E+17,13.28782,56.97268,17.83731,10.70001,29.4932,-98.87477,-56.82663,-0.4675641,5.486608,-70.08942,-8.447793,-36.90935,0,0,0,26.09361,8.212196,-57.86133,-122.2847,-110.4773,-88.41026,0.001067912,-0.1257102,0.09433498,0,0.3,0,0,0,0,
6.38224E+17,13.87682,59.73131,20.33547,11.43246,26.85638,-99.97345,-56.82663,-0.4675641,5.486608,-70.01617,-8.447793,-36.90935,0,0,0,27.235,13.48172,-58.10721,-122.2847,-110.4773,-88.41026,0.001067912,-0.1257102,0.09433498,0,0.3,0,0,0,0,
6.38224E+17,15.17262,65.73951,26.00885,12.97061,20.26431,-102.9765,-56.82663,-0.4675641,5.486608,-70.01617,-8.374548,-36.90935,0,0,0,29.64512,25.07829,-59.03136,-122.2847,-110.4773,-88.41026,0.001067912,-0.1257102,0.09433498,0,0.3,0,0,0,0,
6.38224E+17,15.99721,69.48002,29.74442,13.92279,15.35689,-105.7598,-56.82663,-0.4675641,5.486608,-70.08942,-8.447793,-36.83611,0,0,0,31.11498,32.45818,-59.81926,-122.2847,-110.4773,-88.41026,0.001067912,-0.1257102,0.09433498,0,0.3,0,0,0,0,
6.38224E+17,16.20925,71.30352,31.54216,14.43551,12.79331,-107.3712,-56.82663,-0.4675641,5.486608,-70.01617,-8.374548,-36.90935,0,0,0,31.40529,36.01485,-60.31742,-122.2847,-110.4773,-88.41026,0.001067912,-0.1257102,0.09433498,0,0.3,0,0,0,0,
6.38224E+17,16.25637,74.50633,34.67069,15.09472,8.105616,-110.008,-56.82663,-0.4675641,5.486608,-70.01617,-8.447793,-36.83611,0,0,0,31.20707,42.18233,-61.32772,-122.2847,-110.4773,-88.41026,0.001067912,-0.1257102,0.09433498,0,0.3,0,0,0,0,
6.38224E+17,16.25637,79.48589,39.62031,15.82717,1.51355,-113.8168,-56.82663,-0.4675641,5.486608,-70.01617,-8.447793,-36.90935,0,0,0,30.61666,51.74325,-63.35246,-122.2847,-110.4773,-88.41026,0.001067912,-0.1257102,0.09433498,0,0.3,0,0,0,0,
6.38224E+17,16.25637,81.40291,41.51144,16.12015,-0.4640697,-115.062,-56.82663,-0.4675641,5.486608,-70.01617,-8.447793,-36.83611,0,0,0,30.32102,55.34607,-64.36636,-122.2847,-110.4773,-88.41026,0.001067912,-0.1257102,0.09433498,0,0.3,0,0,0,0,
6.38224E+17,16.23281,84.90964,45.01353,16.70611,-3.906592,-117.4058,-56.82663,-0.4675641,5.486608,-70.01617,-8.374548,-36.90935,0,0,0,29.67235,61.90364,-66.435,-122.2847,-110.4773,-88.41026,0.001067912,-0.1257102,0.09433498,0,0.3,0,0,0,0,
6.38224E+17,15.92653,87.87867,48.02533,17.14558,-7.12938,-120.4821,-56.82663,-0.4675641,5.486608,-70.01617,-8.447793,-36.83611,0,0,0,28.55834,67.42386,-68.2711,-122.2847,-110.4773,-88.41026,0.001067912,-0.1257102,0.09433498,0,0.3,0,0,0,0,
6.38224E+17,15.73805,89.51514,49.77637,17.36532,-9.033754,-122.4597,-56.82663,-0.4675641,5.486608,-70.01617,-8.447793,-36.90935,0,0,0,27.92282,70.58144,-69.26408,-122.2847,-110.4773,-88.41026,0.001067912,-0.1257102,0.09433498,0,0.3,0,0,0,0,
6.38224E+17,15.33753,92.41404,52.92825,17.73154,-12.98899,-126.5614,-56.82663,-0.4675641,5.486608,-70.01617,-8.447793,-36.83611,0,0,0,26.65699,76.19633,-71.15866,-122.2847,-110.4773,-88.41026,0.001067912,-0.1257102,0.09433498,0,0.3,0,0,0,0,
6.38224E+17,14.32446,94.98564,55.61319,18.02452,-16.94423,-131.1026,-56.82663,-0.4675641,5.486608,-70.01617,-8.447793,-36.90935,0,0,0,24.35958,80.88245,-72.95372,-122.2847,-110.4773,-88.41026,0.001067912,-0.1257102,0.09433498,0,0.3,0,0,0,0,
6.38224E+17,13.49986,95.96753,56.61712,17.95128,-18.84861,-132.2013,-56.82663,-0.4675641,5.486608,-70.08942,-8.374548,-36.90935,0,0,0,22.75723,82.60403,-73.55827,-122.2847,-110.4773,-88.41026,0.001067912,-0.1257102,0.09433498,0,0.3,0,0,0,0,
6.38224E+17,11.26166,97.53387,58.39151,17.36532,-22.21789,-132.7873,-56.82663,-0.4675641,5.486608,-70.08942,-8.447793,-36.83611,0,0,0,18.76417,85.65852,-74.11641,-122.2847,-110.4773,-88.41026,0.001067912,-0.1257102,0.09433498,0,0.3,0,0,0,0,
6.38224E+17,7.115108,98.77291,60.42272,15.09472,-26.09988,-131.9083,-56.82663,-0.4675641,5.486608,-70.08942,-8.447793,-36.90935,0,0,0,11.84564,89.31873,-73.45154,-122.2847,-110.4773,-88.41026,0.001067912,-0.1257102,0.09433498,0,0.3,0,0,0,0,
6.38224E+17,3.416194,98.98331,61.52005,12.3114,-28.59021,-126.8544,-56.82663,-0.4675641,5.486608,-70.01617,-8.374548,-36.83611,0,0,0,5.743758,91.4762,-72.13094,-122.2847,-110.4773,-88.41026,0.001067912,-0.1257102,0.09433498,0,0.3,0,0,0,0,
6.38224E+17,0.8481586,98.95994,62.10373,9.967555,-30.05512,-122.6794,-56.82663,-0.4675641,5.486608,-70.01617,-8.374548,-36.83611,0,0,0,1.437124,92.68202,-71.27486,-122.2847,-110.4773,-88.41026,0.001067912,-0.1257102,0.09433498,0,0.3,0,0,0,0,
6.38224E+17,-5.018272,98.42223,63.45787,3.375489,-32.91168,-112.5716,-56.82663,-0.4675641,5.486608,-70.08942,-8.447793,-36.90935,0,0,0,-8.726729,95.67368,-68.96806,-122.2847,-110.4773,-88.41026,0.001067912,-0.1257102,0.09433498,0,0.3,0,0,0,0,
6.38224E+17,-10.62554,97.01955,64.41511,-5.413931,-35.18228,-100.9256,-56.82663,-0.4675641,5.486608,-70.01617,-8.447793,-36.90935,0,0,0,-19.17248,98.11355,-66.15475,-122.2847,-110.4773,-88.41026,0.001067912,-0.1257102,0.09433498,0,0.3,0,0,0,0,
6.38224E+17,-13.31138,95.87402,64.55519,-10.68758,-35.98798,-94.99277,-56.82663,-0.4675641,5.486608,-70.01617,-8.447793,-36.90935,0,0,0,-24.58253,98.70713,-64.45074,-122.2847,-110.4773,-88.41026,0.001067912,-0.1257102,0.09433498,0,0.3,0,0,0,0,
6.38224E+17,-17.85845,93.16214,64.55519,-21.23489,-36.42745,-83.63977,-56.82663,-0.4675641,5.486608,-70.01617,-8.447793,-36.90935,0,0,0,-34.67146,99.20427,-60.73835,-122.2847,-110.4773,-88.41026,0.001067912,-0.1257102,0.09433498,0,0.3,0,0,0,0,
6.38224E+17,-21.2982,90.56716,64.4618,-29.87782,-35.695,-74.85035,-56.82663,-0.4675641,5.486608,-70.01617,-8.447793,-36.83611,0,0,0,-43.22395,99.20458,-57.47602,-122.2847,-110.4773,-88.41026,0.001067912,-0.1257102,0.09433498,0,0.3,0,0,0,0,
6.38224E+17,-22.66468,89.25798,64.15829,-33.54007,-35.25552,-70.82186,-56.82663,-0.4675641,5.486608,-70.08942,-8.447793,-36.83611,0,0,0,-46.91179,98.56335,-56.00929,-122.2847,-110.4773,-88.41026,0.001067912,-0.1257102,0.09433498,0,0.3,0,0,0,0,
6.38224E+17,-24.4788,86.26557,62.22046,-39.17995,-33.64413,-63.35086,-56.82663,-0.4675641,5.486608,-70.01617,-8.374548,-36.83611,0,0,0,-52.48506,94.26633,-53.06903,-122.2847,-110.4773,-88.41026,0.001067912,-0.1257102,0.09433498,0,0.3,0,0,0,0,
6.38224E+17,-24.7144,84.44207,60.11921,-39.91241,-32.54545,-60.34781,-56.82663,-0.4675641,5.486608,-70.08942,-8.447793,-36.90935,0,0,0,-53.74122,89.63851,-51.5855,-122.2847,-110.4773,-88.41026,0.001067912,-0.1257102,0.09433498,0,0.3,0,0,0,0,
6.38224E+17,-24.78508,82.17439,57.45762,-37.93478,-31.1538,-58.51668,-56.82663,-0.4675641,5.486608,-70.08942,-8.447793,-36.83611,0,0,0,-54.73697,83.72605,-49.80727,-122.2847,-110.4773,-88.41026,0.001067912,-0.1257102,0.09433498,0,0.3,0,0,0,0,
6.38224E+17,-24.8322,81.05223,56.40699,-36.25014,-30.42134,-57.93071,-56.82663,-0.4675641,5.486608,-70.08942,-8.447793,-36.90935,0,0,0,-55.35921,81.296,-48.7183,-122.2847,-110.4773,-88.41026,0.001067912,-0.1257102,0.09433498,0,0.3,0,0,0,0,
6.38224E+17,-25.04424,78.48063,54.51587,-32.36815,-28.80995,-56.75879,-56.82663,-0.4675641,5.486608,-70.01617,-8.447793,-36.90935,0,0,0,-57.23835,76.60728,-45.84899,-122.2847,-110.4773,-88.41026,0.001067912,-0.1257102,0.09433498,0,0.3,0,0,0,0,
6.38224E+17,-25.91596,75.722,52.9049,-28.92563,-27.2718,-55.1474,-56.82663,-0.4675641,5.486608,-70.08942,-8.447793,-36.90935,0,0,0,-60.86058,72.15221,-43.10136,-122.2847,-110.4773,-88.41026,0.001067912,-0.1257102,0.09433498,0,0.3,0,0,0,0,
6.38224E+17,-27.87143,72.4958,51.94767,-26.87477,-25.29418,-52.14435,-56.82663,-0.4675641,5.486608,-70.01617,-8.447793,-36.90935,0,0,0,-67.83951,68.33082,-40.06884,-122.2847,-110.4773,-88.41026,0.001067912,-0.1257102,0.09433498,0,0.3,0,0,0,0,
6.38224E+17,-30.58083,69.45664,51.76089,-27.31424,-23.31656,-48.40885,-56.82663,-0.4675641,5.486608,-70.01617,-8.374548,-36.83611,0,0,0,-77.09261,65.68359,-37.89392,-122.2847,-110.4773,-88.41026,0.001067912,-0.1257102,0.09433498,0,0.3,0,0,0,0,
6.38224E+17,-32.13579,67.86693,51.76089,-28.48616,-22.29113,-46.28474,-56.82663,-0.4675641,5.486608,-70.08942,-8.447793,-36.90935,0,0,0,-82.43735,64.33733,-37.11576,-122.2847,-110.4773,-88.41026,0.001067912,-0.1257102,0.09433498,0,0.3,0,0,0,0,
6.38224E+17,-34.86874,64.66412,51.76089,-32.4414,-20.24026,-42.54923,-56.82663,-0.4675641,5.486608,-70.08942,-8.447793,-36.83611,0,0,0,-92.50158,61.33741,-35.59781,-122.2847,-110.4773,-88.41026,0.001067912,-0.1257102,0.09433498,0,0.3,0,0,0,0,
6.38224E+17,-36.75354,61.60157,51.76089,-37.05584,-17.67669,-39.83916,-56.82663,-0.4675641,5.486608,-70.01617,-8.374548,-36.90935,0,0,0,-100.622,58.11659,-33.61819,-122.2847,-110.4773,-88.41026,0.001067912,-0.1257102,0.09433498,0,0.3,0,0,0,0,
6.38224E+17,-37.50746,60.03522,51.73754,-39.17995,-16.43152,-38.59399,-56.82663,-0.4675641,5.486608,-70.01617,-8.374548,-36.83611,0,0,0,-104.3034,56.29651,-32.45576,-122.2847,-110.4773,-88.41026,0.001067912,-0.1257102,0.09433498,0,0.3,0,0,0,0,
6.38224E+17,-38.7797,56.66877,51.43402,-43.13519,-13.79469,-36.10366,-56.82663,-0.4675641,5.486608,-70.01617,-8.447793,-36.90935,0,0,0,-111.197,51.63254,-29.94841,-122.2847,-110.4773,-88.41026,0.001067912,-0.1257102,0.09433498,0,0.3,0,0,0,0,
6.38224E+17,-39.83989,52.90487,50.99043,-46.065,-11.15786,-33.54007,-56.82663,-0.4675641,5.486608,-70.01617,-8.447793,-36.90935,0,0,0,-117.9088,45.77747,-27.03168,-122.2847,-110.4773,-88.41026,0.001067912,-0.1257102,0.09433498,0,0.3,0,0,0,0,
6.38224E+17,-40.66449,48.81369,50.47679,-48.04262,-8.008322,-31.19623,-56.82663,-0.4675641,5.486608,-70.01617,-8.374548,-36.90935,0,0,0,-124.2486,38.8428,-23.71644,-122.2847,-110.4773,-88.41026,0.001067912,-0.1257102,0.09433498,0,0.3,0,0,0,0,
6.38224E+17,-40.99433,46.68627,50.17327,-48.77507,-6.470173,-30.02431,-56.82663,-0.4675641,5.486608,-70.01617,-8.374548,-36.90935,0,0,0,-127.1874,34.97017,-22.00836,-122.2847,-110.4773,-88.41026,0.001067912,-0.1257102,0.09433498,0,0.3,0,0,0,0,
6.38224E+17,-41.48909,42.19766,49.35612,-49.65401,-3.100896,-27.75371,-56.82663,-0.4675641,5.486608,-70.01617,-8.447793,-36.90935,0,0,0,-132.4771,26.06164,-18.55438,-122.2847,-110.4773,-88.41026,0.001067912,-0.1257102,0.09433498,0,0.3,0,0,0,0,
6.38224E+17,-42.10165,36.39986,48.32884,-49.72726,0.9275885,-25.70284,-56.82663,-0.4675641,5.486608,-70.01617,-8.447793,-36.83611,0,0,0,-138.7436,13.82381,-14.80831,-122.2847,-110.4773,-88.41026,0.001067912,-0.1257102,0.09433498,0,0.3,0,0,0,0,
6.38224E+17,-42.50217,32.91651,47.67512,-49.65401,3.491169,-24.8239,-56.82663,-0.4675641,5.486608,-70.01617,-8.447793,-36.83611,0,0,0,-142.2401,6.025527,-13.13399,-122.2847,-110.4773,-88.41026,0.001067912,-0.1257102,0.09433498,0,0.3,0,0,0,0,
6.38224E+17,-42.73777,30.53193,47.18483,-49.65401,5.468789,-24.45767,-56.82663,-0.4675641,5.486608,-70.08942,-8.374548,-36.90935,0,0,0,-144.3336,0.4648569,-12.14393,-122.2847,-110.4773,-88.41026,0.001067912,-0.1257102,0.09433498,0,0.3,0,0,0,0,
6.38224E+17,-42.87913,26.37061,45.80734,-49.72726,9.643764,-24.09145,-56.82663,-0.4675641,5.486608,-70.08942,-8.374548,-36.90935,0,0,0,-146.3558,-10.3739,-10.73733,-122.2847,-110.4773,-88.41026,0.001067912,-0.1257102,0.09433498,0,0.3,0,0,0,0,
6.38224E+17,-42.87913,22.79375,43.42591,-49.21454,13.89198,-23.79847,-56.82663,-0.4675641,5.486608,-70.01617,-8.447793,-36.90935,0,0,0,-146.0275,-21.83549,-11.09088,-122.2847,-110.4773,-88.41026,0.001067912,-0.1257102,0.09433498,0,0.3,0,0,0,0,
6.38224E+17,-42.87913,21.36768,42.00173,-48.77507,15.8696,-23.79847,-56.82663,-0.4675641,5.486608,-70.01617,-8.447793,-36.90935,0,0,0,-145.2193,-27.1594,-11.96124,-122.2847,-110.4773,-88.41026,0.001067912,-0.1257102,0.09433498,0,0.3,0,0,0,0,
6.38224E+17,-42.59641,19.02986,39.03663,-47.82288,19.01915,-23.72522,-56.82663,-0.4675641,5.486608,-70.01617,-8.447793,-36.90935,0,0,0,-142.167,-36.74853,-13.7251,-122.2847,-110.4773,-88.41026,0.001067912,-0.1257102,0.09433498,0,0.3,0,0,0,0,
6.38224E+17,-41.77181,16.0842,35.62793,-46.50447,21.43624,-22.77304,-56.82663,-0.4675641,5.486608,-70.08942,-8.447793,-36.90935,0,0,0,-137.1029,-48.09455,-14.85684,-122.2847,-110.4773,-88.41026,0.001067912,-0.1257102,0.09433498,0,0.3,0,0,0,0,
6.38224E+17,-39.83989,12.69436,32.21923,-44.74659,23.4871,-20.13621,-56.82663,-0.4675641,5.486608,-70.01617,-8.374548,-36.90935,0,0,0,-128.8896,-60.16231,-13.8708,-122.2847,-110.4773,-88.41026,0.001067912,-0.1257102,0.09433498,0,0.3,0,0,0,0,
6.38224E+17,-38.00222,10.89424,30.09463,-42.62248,25.53797,-18.23184,-56.82663,-0.4675641,5.486608,-70.01617,-8.374548,-36.90935,0,0,0,-121.7915,-66.8215,-12.47644,-122.2847,-110.4773,-88.41026,0.001067912,-0.1257102,0.09433498,0,0.3,0,0,0,0,
6.38224E+17,-36.23522,10.35654,28.25019,-40.13214,27.95506,-16.84018,-56.82663,-0.4675641,5.486608,-70.01617,-8.447793,-36.90935,0,0,0,-114.8481,-70.14383,-11.63218,-122.2847,-110.4773,-88.41026,0.001067912,-0.1257102,0.09433498,0,0.3,0,0,0,0,
6.38224E+17,-33.99702,11.24492,25.35513,-36.54313,31.47083,-15.81474,-56.82663,-0.4675641,5.486608,-70.08942,-8.447793,-36.90935,0,0,0,-105.061,-71.15083,-12.57321,-122.2847,-110.4773,-88.41026,0.001067912,-0.1257102,0.09433498,0,0.3,0,0,0,0,
6.38224E+17,-33.03107,12.08653,23.69748,-34.85849,33.22871,-15.52176,-56.82663,-0.4675641,5.486608,-70.01617,-8.447793,-36.83611,0,0,0,-100.2909,-70.83398,-14.09877,-122.2847,-110.4773,-88.41026,0.001067912,-0.1257102,0.09433498,0,0.3,0,0,0,0,
6.38224E+17,-30.51015,15.35948,17.41706,-29.95106,37.47693,-15.08229,-56.82663,-0.4675641,5.486608,-70.08942,-8.447793,-36.90935,0,0,0,-85.547,-68.56509,-23.17882,-122.2847,-110.4773,-88.41026,0.001067912,-0.1257102,0.09433498,0,0.3,0,0,0,0,
6.38224E+17,-29.73267,16.38812,15.52593,-28.63265,38.28262,-15.00905,-56.82663,-0.4675641,5.486608,-70.01617,-8.374548,-36.90935,0,0,0,-81.15131,-67.51027,-26.26493,-122.2847,-110.4773,-88.41026,0.001067912,-0.1257102,0.09433498,0,0.3,0,0,0,0,
6.38224E+17,-27.80075,18.42202,12.04719,-25.33662,39.45455,-14.34984,-56.82663,-0.4675641,5.486608,-70.01617,-8.447793,-36.90935,0,0,0,-71.98804,-64.92267,-31.81687,-122.2847,-110.4773,-88.41026,0.001067912,-0.1257102,0.09433498,0,0.3,0,0,0,0,
6.38224E+17,-25.8924,20.45593,10.08602,-22.18707,39.82077,-13.39765,-56.82663,-0.4675641,5.486608,-70.01617,-8.447793,-36.83611,0,0,0,-64.75748,-61.33514,-34.94217,-122.2847,-110.4773,-88.41026,0.001067912,-0.1257102,0.09433498,0,0.3,0,0,0,0,
6.38224E+17,-25.0678,21.69497,9.619073,-20.79542,39.74753,-12.37222,-56.82663,-0.4675641,5.486608,-70.01617,-8.447793,-36.90935,0,0,0,-61.93783,-58.8303,-35.9332,-122.2847,-110.4773,-88.41026,0.001067912,-0.1257102,0.09433498,0,0.3,0,0,0,0,
6.38224E+17,-23.772,24.71076,9.619073,-18.30508,38.79534,-10.24811,-56.82663,-0.4675641,5.486608,-70.08942,-8.447793,-36.90935,0,0,0,-57.81293,-52.37983,-37.09686,-122.2847,-110.4773,-88.41026,0.001067912,-0.1257102,0.09433498,0,0.3,0,0,0,0,
6.38224E+17,-22.78248,28.75519,10.69305,-16.5472,37.03746,-9.076189,-56.82663,-0.4675641,5.486608,-70.01617,-8.447793,-36.90935,0,0,0,-54.85106,-43.53398,-37.75274,-122.2847,-110.4773,-88.41026,0.001067912,-0.1257102,0.09433498,0,0.3,0,0,0,0,
6.38224E+17,-22.45264,31.09301,11.83706,-16.03448,35.79229,-8.709964,-56.82663,-0.4675641,5.486608,-70.08942,-8.374548,-36.83611,0,0,0,-54.05905,-38.29851,-37.53419,-122.2847,-110.4773,-88.41026,0.001067912,-0.1257102,0.09433498,0,0.3,0,0,0,0,
6.38224E+17,-21.93432,36.32973,14.89556,-15.96124,32.5695,-8.636719,-56.82663,-0.4675641,5.486608,-70.08942,-8.447793,-36.90935,0,0,0,-52.93419,-26.5182,-36.89966,-122.2847,-110.4773,-88.41026,0.001067912,-0.1257102,0.09433498,0,0.3,0,0,0,0,
6.38224E+17,-21.03905,42.08076,18.95798,-16.62044,27.80857,-8.709964,-56.82663,-0.4675641,5.486608,-70.01617,-8.447793,-36.90935,0,0,0,-51.08431,-13.39854,-35.5414,-122.2847,-110.4773,-88.41026,0.001067912,-0.1257102,0.09433498,0,0.3,0,0,0,0,
6.38224E+17,-20.47361,44.32507,20.73237,-16.84018,25.68446,-8.636719,-56.82663,-0.4675641,5.486608,-70.01617,-8.374548,-36.83611,0,0,0,-49.87916,-8.189376,-34.75455,-122.2847,-110.4773,-88.41026,0.001067912,-0.1257102,0.09433498,0,0.3,0,0,0,0,
6.38224E+17,-18.73017,49.30463,24.84149,-17.27965,20.19107,-8.050756,-56.82663,-0.4675641,5.486608,-70.01617,-8.447793,-36.83611,0,0,0,-45.90957,3.44265,-32.95081,-122.2847,-110.4773,-88.41026,0.001067912,-0.1257102,0.09433498,0,0.3,0,0,0,0,
6.38224E+17,-16.75113,53.65298,28.39028,-17.42614,14.25821,-5.633667,-56.82663,-0.4675641,5.486608,-70.01617,-8.447793,-36.90935,0,0,0,-41.05271,13.44381,-31.95654,-122.2847,-110.4773,-88.41026,0.001067912,-0.1257102,0.09433498,0,0.3,0,0,0,0,
6.38224E+17,-15.14906,56.97268,30.93513,-17.27965,8.838067,-2.044653,-56.82663,-0.4675641,5.486608,-70.08942,-8.447793,-36.90935,0,0,0,-36.90825,20.77113,-32.02612,-122.2847,-110.4773,-88.41026,0.001067912,-0.1257102,0.09433498,0,0.3,0,0,0,0,
6.38224E+17,-14.48938,58.28186,31.93906,-17.27965,6.420976,0.6654179,-56.82663,-0.4675641,5.486608,-70.01617,-8.447793,-36.90935,0,0,0,-35.19119,23.62116,-32.1716,-122.2847,-110.4773,-88.41026,0.001067912,-0.1257102,0.09433498,0,0.3,0,0,0,0,
6.38224E+17,-13.2407,60.3859,33.31655,-17.64587,2.538982,7.623709,-56.82663,-0.4675641,5.486608,-70.08942,-8.447793,-36.90935,0,0,0,-31.86897,27.84717,-32.90878,-122.2847,-110.4773,-88.41026,0.001067912,-0.1257102,0.09433498,0,0.3,0,0,0,0,
6.38224E+17,-11.26166,62.30291,33.83019,-17.71912,0.04864649,14.06928,-56.82663,-0.4675641,5.486608,-70.08942,-8.447793,-36.83611,0,0,0,-26.60261,30.64771,-34.75178,-122.2847,-110.4773,-88.41026,0.001067912,-0.1257102,0.09433498,0,0.3,0,0,0,0,
6.38224E+17,-9.423985,63.4952,34.29713,-16.98667,-1.123276,16.55962,-56.82663,-0.4675641,5.486608,-70.01617,-8.447793,-36.83611,0,0,0,-22.04764,32.52055,-35.51613,-122.2847,-110.4773,-88.41026,0.001067912,-0.1257102,0.09433498,0,0.3,0,0,0,0,
6.38224E+17,-4.382153,66.23045,36.14157,-12.81169,-3.979838,18.39075,-56.82663,-0.4675641,5.486608,-70.01617,-8.374548,-36.90935,0,0,0,-10.11613,37.70003,-36.34165,-122.2847,-110.4773,-88.41026,0.001067912,-0.1257102,0.09433498,0,0.3,0,0,0,0,
6.38224E+17,0.1884797,68.19422,38.0327,-6.80559,-6.470173,17.21883,-56.82663,-0.4675641,5.486608,-70.01617,-8.447793,-36.83611,0,0,0,0.4332147,42.12422,-36.65791,-122.2847,-110.4773,-88.41026,0.001067912,-0.1257102,0.09433498,0,0.3,0,0,0,0,
6.38224E+17,2.897875,69.19948,39.17671,-2.557369,-7.788587,15.90041,-56.82663,-0.4675641,5.486608,-70.08942,-8.447793,-36.83611,0,0,0,6.65284,44.63548,-36.92454,-122.2847,-110.4773,-88.41026,0.001067912,-0.1257102,0.09433498,0,0.3,0,0,0,0,
6.38224E+17,8.410906,70.69569,41.74491,7.184238,-10.05919,12.3114,-56.82663,-0.4675641,5.486608,-70.01617,-8.447793,-36.83611,0,0,0,19.43508,49.7079,-36.90903,-122.2847,-110.4773,-88.41026,0.001067912,-0.1257102,0.09433498,0,0.3,0,0,0,0,
6.38224E+17,13.68834,71.56068,44.38315,18.3175,-11.08462,7.770199,-56.82663,-0.4675641,5.486608,-70.08942,-8.447793,-36.90935,0,0,0,32.05311,54.55134,-36.74645,-122.2847,-110.4773,-88.41026,0.001067912,-0.1257102,0.09433498,0,0.3,0,0,0,0,
6.38224E+17,16.06789,71.77108,45.55051,24.10387,-11.15786,5.279863,-56.82663,-0.4675641,5.486608,-70.01617,-8.374548,-36.90935,0,0,0,37.89291,56.62538,-36.79029,-122.2847,-110.4773,-88.41026,0.001067912,-0.1257102,0.09433498,0,0.3,0,0,0,0,
6.38224E+17,20.21445,71.98148,47.16148,34.94416,-10.42541,0.6654179,-56.82663,-0.4675641,5.486608,-70.01617,-8.447793,-36.83611,0,0,0,48.03982,59.4908,-37.88311,-122.2847,-110.4773,-88.41026,0.001067912,-0.1257102,0.09433498,0,0.3,0,0,0,0,
6.38224E+17,23.70132,72.12176,47.44164,43.07437,-9.25349,-2.117898,-56.82663,-0.4675641,5.486608,-70.01617,-8.374548,-36.83611,0,0,0,55.93877,60.07063,-40.92591,-122.2847,-110.4773,-88.41026,0.001067912,-0.1257102,0.09433498,0,0.3,0,0,0,0,
6.38224E+17,27.47091,72.14513,47.44164,48.42127,-7.12938,-3.363066,-56.82663,-0.4675641,5.486608,-70.01617,-8.374548,-36.83611,0,0,0,64.17127,60.08732,-44.92519,-122.2847,-110.4773,-88.41026,0.001067912,-0.1257102,0.09433498,0,0.3,0,0,0,0,
6.38224E+17,29.94471,72.14513,47.44164,51.05809,-5.591231,-3.875783,-56.82663,-0.4675641,5.486608,-70.01617,-8.447793,-36.90935,0,0,0,69.43879,60.08732,-47.81001,-122.2847,-110.4773,-88.41026,0.001067912,-0.1257102,0.09433498,0,0.3,0,0,0,0,
6.38224E+17,32.88971,72.12176,47.3716,53.54843,-3.686857,-4.901215,-56.82663,-0.4675641,5.486608,-70.01617,-8.374548,-36.83611,0,0,0,75.50831,59.95062,-51.58593,-122.2847,-110.4773,-88.41026,0.001067912,-0.1257102,0.09433498,0,0.3,0,0,0,0,
6.38224E+17,36.7771,72.02824,47.02139,56.2585,-1.416257,-5.853402,-56.82663,-0.4675641,5.486608,-70.08942,-8.447793,-36.90935,0,0,0,83.04308,59.28562,-57.25146,-122.2847,-110.4773,-88.41026,0.001067912,-0.1257102,0.09433498,0,0.3,0,0,0,0,
6.38224E+17,38.35562,71.79446,46.76458,57.50367,-0.3908245,-6.073137,-56.82663,-0.4675641,5.486608,-70.01617,-8.447793,-36.90935,0,0,0,86.13947,58.6803,-59.49592,-122.2847,-110.4773,-88.41026,0.001067912,-0.1257102,0.09433498,0,0.3,0,0,0,0,
6.38224E+17,41.34773,70.62555,45.62056,59.77427,1.66004,-7.025325,-56.82663,-0.4675641,5.486608,-70.01617,-8.447793,-36.83611,0,0,0,92.18789,55.88256,-63.59087,-122.2847,-110.4773,-88.41026,0.001067912,-0.1257102,0.09433498,0,0.3,0,0,0,0,
6.38224E+17,43.25609,68.56827,43.72943,61.6054,3.78415,-7.611286,-56.82663,-0.4675641,5.486608,-70.01617,-8.374548,-36.90935,0,0,0,96.55576,51.11899,-65.73006,-122.2847,-110.4773,-88.41026,0.001067912,-0.1257102,0.09433498,0,0.3,0,0,0,0,
6.38224E+17,44.90529,66.11356,42.00173,63.21679,6.201241,-7.831022,-56.82663,-0.4675641,5.486608,-70.08942,-8.447793,-36.83611,0,0,0,101.1102,46.18288,-66.90499,-122.2847,-110.4773,-88.41026,0.001067912,-0.1257102,0.09433498,0,0.3,0,0,0,0,
6.38224E+17,45.6592,64.61736,40.92776,64.09573,7.446409,-7.757777,-56.82663,-0.4675641,5.486608,-70.08942,-8.374548,-36.83611,0,0,0,103.3604,43.07633,-67.34104,-122.2847,-110.4773,-88.41026,0.001067912,-0.1257102,0.09433498,0,0.3,0,0,0,0,
6.38224E+17,46.7194,61.11063,37.96265,66.00011,10.08323,-6.732344,-56.82663,-0.4675641,5.486608,-70.08942,-8.447793,-36.83611,0,0,0,106.6192,34.97042,-67.94525,-122.2847,-110.4773,-88.41026,0.001067912,-0.1257102,0.09433498,0,0.3,0,0,0,0,
6.38224E+17,47.26128,57.20647,34.32048,67.68475,12.79331,-4.168763,-56.82663,-0.4675641,5.486608,-70.08942,-8.447793,-36.83611,0,0,0,108.266,25.31437,-68.30949,-122.2847,-110.4773,-88.41026,0.001067912,-0.1257102,0.09433498,0,0.3,0,0,0,0,
6.38224E+17,47.44976,52.36718,30.53822,69.58913,15.43013,-0.2135241,-56.82663,-0.4675641,5.486608,-70.08942,-8.374548,-36.83611,0,0,0,109.8988,14.10212,-67.46888,-122.2847,-110.4773,-88.41026,0.001067912,-0.1257102,0.09433498,0,0.3,0,0,0,0,
6.38224E+17,47.44976,49.72544,28.6471,70.54131,16.82179,2.276812,-56.82663,-0.4675641,5.486608,-70.01617,-8.374548,-36.90935,0,0,0,110.6014,8.063583,-66.82391,-122.2847,-110.4773,-88.41026,0.001067912,-0.1257102,0.09433498,0,0.3,0,0,0,0,
6.38224E+17,47.23772,44.3017,24.32785,72.44569,19.53186,7.477218,-56.82663,-0.4675641,5.486608,-70.01617,-8.374548,-36.90935,0,0,0,110.3977,-5.022437,-66.25549,-122.2847,-110.4773,-88.41026,0.001067912,-0.1257102,0.09433498,0,0.3,0,0,0,0,
6.38224E+17,46.90788,39.08836,20.33547,73.69085,21.72922,12.82412,-56.82663,-0.4675641,5.486608,-70.01617,-8.447793,-36.83611,0,0,0,109.4246,-17.60924,-65.98047,-122.2847,-110.4773,-88.41026,0.001067912,-0.1257102,0.09433498,0,0.3,0,0,0,0,
6.38224E+17,46.67228,36.37648,18.49104,74.27681,22.6814,15.46094,-56.82663,-0.4675641,5.486608,-70.01617,-8.447793,-36.90935,0,0,0,108.8672,-24.02723,-65.65923,-122.2847,-110.4773,-88.41026,0.001067912,-0.1257102,0.09433498,0,0.3,0,0,0,0,
6.38224E+17,45.84768,31.25666,15.10568,75.00926,24.14631,19.1232,-56.82663,-0.4675641,5.486608,-70.08942,-8.447793,-36.90935,0,0,0,106.7235,-36.20067,-64.73861,-122.2847,-110.4773,-88.41026,0.001067912,-0.1257102,0.09433498,0,0.3,0,0,0,0,
6.38224E+17,44.41053,26.60439,12.16393,74.71628,25.46472,21.24731,-56.82663,-0.4675641,5.486608,-70.01617,-8.374548,-36.83611,0,0,0,103.1,-47.28831,-63.10641,-122.2847,-110.4773,-88.41026,0.001067912,-0.1257102,0.09433498,0,0.3,0,0,0,0,
6.38224E+17,43.56237,24.26657,10.90317,73.98383,26.05068,21.97976,-56.82663,-0.4675641,5.486608,-70.08942,-8.447793,-36.90935,0,0,0,101.1599,-52.78827,-61.9818,-122.2847,-110.4773,-88.41026,0.001067912,-0.1257102,0.09433498,0,0.3,0,0,0,0,
6.38224E+17,42.36081,20.10526,9.268865,72.00621,27.07611,23.44467,-56.82663,-0.4675641,5.486608,-70.01617,-8.447793,-36.83611,0,0,0,98.84763,-62.42039,-59.94921,-122.2847,-110.4773,-88.41026,0.001067912,-0.1257102,0.09433498,0,0.3,0,0,0,0,
6.38224E+17,41.46553,15.92056,8.451711,69.8821,28.0283,25.49553,-56.82663,-0.4675641,5.486608,-70.08942,-8.447793,-36.90935,0,0,0,97.89135,-71.97336,-57.56974,-122.2847,-110.4773,-88.41026,0.001067912,-0.1257102,0.09433498,0,0.3,0,0,0,0,
6.38224E+17,40.71161,11.87613,7.984766,67.31852,29.12698,27.83937,-56.82663,-0.4675641,5.486608,-70.01617,-8.374548,-36.83611,0,0,0,97.1981,-81.26422,-55.3931,-122.2847,-110.4773,-88.41026,0.001067912,-0.1257102,0.09433498,0,0.3,0,0,0,0,
6.38224E+17,40.24041,9.912358,7.961418,66.1466,29.63969,29.08454,-56.82663,-0.4675641,5.486608,-70.08942,-8.447793,-36.90935,0,0,0,96.78909,-85.75964,-53.97931,-122.2847,-110.4773,-88.41026,0.001067912,-0.1257102,0.09433498,0,0.3,0,0,0,0,
6.38224E+17,38.87394,6.008198,8.358321,64.02249,31.1046,31.79461,-56.82663,-0.4675641,5.486608,-70.01617,-8.447793,-36.83611,0,0,0,95.39763,-94.62576,-50.01231,-122.2847,-110.4773,-88.41026,0.001067912,-0.1257102,0.09433498,0,0.3,0,0,0,0,
6.38224E+17,37.2483,2.59498,8.825266,62.48434,32.5695,35.0174,-56.82663,-0.4675641,5.486608,-70.01617,-8.447793,-36.90935,0,0,0,93.01312,-102.3838,-46.02399,-122.2847,-110.4773,-88.41026,0.001067912,-0.1257102,0.09433498,0,0.3,0,0,0,0,
6.38224E+17,36.23522,0.8883717,8.848614,61.6054,33.30195,36.92178,-56.82663,-0.4675641,5.486608,-70.01617,-8.447793,-36.83611,0,0,0,90.93887,-106.3454,-44.25791,-122.2847,-110.4773,-88.41026,0.001067912,-0.1257102,0.09433498,0,0.3,0,0,0,0,
6.38224E+17,33.97346,-1.239045,8.70853,59.62778,34.98659,40.43755,-56.82663,-0.4675641,5.486608,-70.01617,-8.447793,-36.83611,0,0,0,85.78223,-111.3462,-41.04547,-122.2847,-110.4773,-88.41026,0.001067912,-0.1257102,0.09433498,0,0.3,0,0,0,0,
6.38224E+17,32.44207,-0.8649935,7.681251,57.35718,36.01203,42.26867,-56.82663,-0.4675641,5.486608,-70.01617,-8.374548,-36.83611,0,0,0,81.08852,-110.8166,-40.78206,-122.2847,-110.4773,-88.41026,0.001067912,-0.1257102,0.09433498,0,0.3,0,0,0,0,
6.38224E+17,30.08607,-1.122154,7.517819,54.86684,36.23176,42.48841,-56.82663,-0.4675641,5.486608,-70.08942,-8.374548,-36.90935,0,0,0,75.58167,-111.4653,-37.89169,-122.2847,-110.4773,-88.41026,0.001067912,-0.1257102,0.09433498,0,0.3,0,0,0,0,
6.38224E+17,26.88192,-1.122154,7.214305,51.86379,36.305,41.68271,-56.82663,-0.4675641,5.486608,-70.01617,-8.374548,-36.83611,0,0,0,67.85492,-111.5558,-34.49595,-122.2847,-110.4773,-88.41026,0.001067912,-0.1257102,0.09433498,0,0.3,0,0,0,0,
6.38224E+17,24.8322,-1.098776,7.144264,49.95942,36.37825,40.87702,-56.82663,-0.4675641,5.486608,-70.01617,-8.374548,-36.90935,0,0,0,62.95651,-111.5218,-32.30047,-122.2847,-110.4773,-88.41026,0.001067912,-0.1257102,0.09433498,0,0.3,0,0,0,0,
6.38224E+17,20.92125,-1.098776,6.91079,45.85769,36.45149,39.85158,-56.82663,-0.4675641,5.486608,-70.01617,-8.447793,-36.90935,0,0,0,53.33793,-111.5883,-28.82703,-122.2847,-110.4773,-88.41026,0.001067912,-0.1257102,0.09433498,0,0.3,0,0,0,0,
6.38224E+17,16.63333,-1.098776,6.023595,40.51079,36.96421,38.82615,-56.82663,-0.4675641,5.486608,-70.08942,-8.447793,-36.90935,0,0,0,42.16944,-111.8209,-27.19542,-122.2847,-110.4773,-88.41026,0.001067912,-0.1257102,0.09433498,0,0.3,0,0,0,0,
6.38224E+17,14.4187,-1.098776,5.20644,37.43449,37.33044,38.45993,-56.82663,-0.4675641,5.486608,-70.01617,-8.447793,-36.90935,0,0,0,36.212,-112.007,-27.50438,-122.2847,-110.4773,-88.41026,0.001067912,-0.1257102,0.09433498,0,0.3,0,0,0,0,
6.38224E+17,9.706704,-1.098776,3.385354,30.40295,38.28262,37.58098,-56.82663,-0.4675641,5.486608,-70.01617,-8.447793,-36.83611,0,0,0,23.80698,-112.3244,-29.1715,-122.2847,-110.4773,-88.41026,0.001067912,-0.1257102,0.09433498,0,0.3,0,0,0,0,
6.38224E+17,4.641313,-1.052019,2.264685,22.1995,39.30806,35.67661,-56.82663,-0.4675641,5.486608,-70.01617,-8.447793,-36.83611,0,0,0,11.21494,-112.3442,-30.20752,-122.2847,-110.4773,-88.41026,0.001067912,-0.1257102,0.09433498,0,0.3,0,0,0,0,
6.38224E+17,2.261756,-0.9351282,1.821087,17.58505,39.89402,34.28495,-56.82663,-0.4675641,5.486608,-70.08942,-8.374548,-36.83611,0,0,0,5.429175,-112.109,-30.88725,-122.2847,-110.4773,-88.41026,0.001067912,-0.1257102,0.09433498,0,0.3,0,0,0,0,
6.38224E+17,-2.426676,-0.3039166,0.793807,7.989935,40.91945,30.62269,-56.82663,-0.4675641,5.486608,-70.08942,-8.447793,-36.90935,0,0,0,-5.724292,-110.6945,-33.27567,-122.2847,-110.4773,-88.41026,0.001067912,-0.1257102,0.09433498,0,0.3,0,0,0,0,
6.38224E+17,-6.47899,1.42607,-0.5369871,-2.99684,41.6519,25.49553,-56.82663,-0.4675641,5.486608,-70.01617,-8.447793,-36.90935,0,0,0,-14.90138,-106.6755,-37.13449,-122.2847,-110.4773,-88.41026,0.001067912,-0.1257102,0.09433498,0,0.3,0,0,0,0,
6.38224E+17,-8.622946,3.927538,-1.774392,-13.39765,41.28568,19.48943,-56.82663,-0.4675641,5.486608,-70.01617,-8.374548,-36.83611,0,0,0,-19.32731,-100.8023,-40.89935,-122.2847,-110.4773,-88.41026,0.001067912,-0.1257102,0.09433498,0,0.3,0,0,0,0,
6.38224E+17,-8.905665,7.831698,-3.105186,-21.30813,40.187,13.92279,-56.82663,-0.4675641,5.486608,-70.08942,-8.374548,-36.90935,0,0,0,-19.33286,-91.63345,-44.97279,-122.2847,-110.4773,-88.41026,0.001067912,-0.1257102,0.09433498,0,0.3,0,0,0,0,
6.38224E+17,-8.834986,10.1929,-3.688868,-23.79847,39.30806,11.87193,-56.82663,-0.4675641,5.486608,-70.01617,-8.447793,-36.90935,0,0,0,-18.84016,-86.12574,-47.13958,-122.2847,-110.4773,-88.41026,0.001067912,-0.1257102,0.09433498,0,0.3,0,0,0,0,
6.38224E+17,-8.740746,15.42961,-4.319244,-26.94801,37.25719,8.575896,-56.82663,-0.4675641,5.486608,-70.01617,-8.447793,-36.90935,0,0,0,-18.00781,-74.14292,-51.22553,-122.2847,-110.4773,-88.41026,0.001067912,-0.1257102,0.09433498,0,0.3,0,0,0,0,
6.38224E+17,-8.670066,21.83524,-4.039077,-28.99888,34.10765,6.012315,-56.82663,-0.4675641,5.486608,-70.01617,-8.447793,-36.83611,0,0,0,-17.2437,-60.07074,-55.26681,-122.2847,-110.4773,-88.41026,0.001067912,-0.1257102,0.09433498,0,0.3,0,0,0,0,
6.38224E+17,-8.599386,25.17833,-3.408701,-29.58484,32.13003,5.060128,-56.82663,-0.4675641,5.486608,-70.08942,-8.447793,-36.83611,0,0,0,-16.85913,-53.03206,-56.86612,-122.2847,-110.4773,-88.41026,0.001067912,-0.1257102,0.09433498,0,0.3,0,0,0,0,
6.38224E+17,-8.528707,32.86975,-0.9805852,-30.46378,27.00287,3.228999,-56.82663,-0.4675641,5.486608,-70.01617,-8.447793,-36.83611,0,0,0,-16.27193,-37.60727,-59.84388,-122.2847,-110.4773,-88.41026,0.001067912,-0.1257102,0.09433498,0,0.3,0,0,0,0,
6.38224E+17,-8.528707,40.07024,2.614894,-30.9765,21.07001,1.031644,-56.82663,-0.4675641,5.486608,-70.01617,-8.374548,-36.83611,0,0,0,-16.03631,-24.02025,-61.41509,-122.2847,-110.4773,-88.41026,0.001067912,-0.1257102,0.09433498,0,0.3,0,0,0,0,
6.38224E+17,-8.528707,46.70965,7.144264,-31.6357,14.03847,-0.8727306,-56.82663,-0.4675641,5.486608,-70.08942,-8.374548,-36.90935,0,0,0,-16.02019,-11.90079,-61.52253,-122.2847,-110.4773,-88.41026,0.001067912,-0.1257102,0.09433498,0,0.3,0,0,0,0,
6.38224E+17,-8.528707,49.58517,9.408949,-32.07517,10.52271,-1.312202,-56.82663,-0.4675641,5.486608,-70.01617,-8.374548,-36.90935,0,0,0,-16.05447,-6.677237,-61.29396,-122.2847,-110.4773,-88.41026,0.001067912,-0.1257102,0.09433498,0,0.3,0,0,0,0,
6.38224E+17,-8.670066,55.59337,14.45196,-33.17385,2.905208,-1.898163,-56.82663,-0.4675641,5.486608,-70.01617,-8.374548,-36.90935,0,0,0,-16.37551,4.239724,-60.96035,-122.2847,-110.4773,-88.41026,0.001067912,-0.1257102,0.09433498,0,0.3,0,0,0,0,
6.38224E+17,-9.094145,59.89495,18.53773,-34.63876,-2.807915,-2.044653,-56.82663,-0.4675641,5.486608,-70.01617,-8.374548,-36.83611,0,0,0,-17.27287,12.28098,-60.44123,-122.2847,-110.4773,-88.41026,0.001067912,-0.1257102,0.09433498,0,0.3,0,0,0,0,
6.38224E+17,-9.518225,62.16264,20.82576,-35.73743,-5.810967,-1.971408,-56.82663,-0.4675641,5.486608,-70.01617,-8.447793,-36.90935,0,0,0,-18.13668,16.6306,-60.18083,-122.2847,-110.4773,-88.41026,0.001067912,-0.1257102,0.09433498,0,0.3,0,0,0,0,
6.38224E+17,-11.28522,66.51099,25.30844,-38.66724,-11.59733,-1.751673,-56.82663,-0.4675641,5.486608,-70.01617,-8.447793,-36.83611,0,0,0,-21.55671,25.09914,-60.32418,-122.2847,-110.4773,-88.41026,0.001067912,-0.1257102,0.09433498,0,0.3,0,0,0,0,
6.38224E+17,-14.37158,70.27488,29.93119,-43.72115,-16.13853,-1.678428,-56.82663,-0.4675641,5.486608,-70.08942,-8.447793,-36.90935,0,0,0,-27.68601,33.3109,-60.29762,-122.2847,-110.4773,-88.41026,0.001067912,-0.1257102,0.09433498,0,0.3,0,0,0,0,
6.38224E+17,-16.13857,71.98148,32.56944,-47.60315,-18.1894,-1.312202,-56.82663,-0.4675641,5.486608,-70.01617,-8.447793,-36.83611,0,0,0,-31.41896,37.78073,-59.77086,-122.2847,-110.4773,-88.41026,0.001067912,-0.1257102,0.09433498,0,0.3,0,0,0,0,
6.38224E+17,-19.53121,74.15565,37.23889,-56.31932,-21.48543,1.324624,-56.82663,-0.4675641,5.486608,-70.08942,-8.447793,-36.90935,0,0,0,-39.14998,45.47112,-57.98495,-122.2847,-110.4773,-88.41026,0.001067912,-0.1257102,0.09433498,0,0.3,0,0,0,0,
6.38224E+17,-22.99452,74.66998,40.9511,-65.40173,-23.02358,6.232051,-56.82663,-0.4675641,5.486608,-70.08942,-8.374548,-36.83611,0,0,0,-47.9141,51.24013,-55.44144,-122.2847,-110.4773,-88.41026,0.001067912,-0.1257102,0.09433498,0,0.3,0,0,0,0,
6.38224E+17,-26.19868,74.1089,44.38315,-74.99684,-22.7306,12.45789,-56.82663,-0.4675641,5.486608,-70.08942,-8.447793,-36.83611,0,0,0,-57.29798,56.30152,-51.89834,-122.2847,-110.4773,-88.41026,0.001067912,-0.1257102,0.09433498,0,0.3,0,0,0,0,
6.38224E+17,-28.20127,73.10365,45.94742,-81.07619,-21.9249,16.77936,-56.82663,-0.4675641,5.486608,-70.08942,-8.374548,-36.90935,0,0,0,-63.60605,58.22287,-49.73155,-122.2847,-110.4773,-88.41026,0.001067912,-0.1257102,0.09433498,0,0.3,0,0,0,0,
6.38224E+17,-30.88711,71.09312,47.04474,-87.00905,-20.53325,21.61354,-56.82663,-0.4675641,5.486608,-70.01617,-8.374548,-36.90935,0,0,0,-72.28278,58.63699,-47.51258,-122.2847,-110.4773,-88.41026,0.001067912,-0.1257102,0.09433498,0,0.3,0,0,0,0,
6.38224E+17,-33.66718,68.03057,47.95528,-92.79542,-17.89642,25.86176,-56.82663,-0.4675641,5.486608,-70.01617,-8.447793,-36.90935,0,0,0,-82.55452,57.71072,-44.411,-122.2847,-110.4773,-88.41026,0.001067912,-0.1257102,0.09433498,0,0.3,0,0,0,0,
6.38224E+17,-34.79806,66.41748,48.14206,-94.62655,-16.57801,27.54639,-56.82663,-0.4675641,5.486608,-70.01617,-8.447793,-36.83611,0,0,0,-87.12579,56.58066,-42.98338,-122.2847,-110.4773,-88.41026,0.001067912,-0.1257102,0.09433498,0,0.3,0,0,0,0,
6.38224E+17,-37.6017,62.09251,47.8152,-98.14231,-13.50171,30.25646,-56.82663,-0.4675641,5.486608,-70.08942,-8.447793,-36.83611,0,0,0,-98.37377,51.64426,-40.61689,-122.2847,-110.4773,-88.41026,0.001067912,-0.1257102,0.09433498,0,0.3,0,0,0,0,
6.38224E+17,-40.02837,57.25322,47.3716,-100.4862,-9.985942,31.64813,-56.82663,-0.4675641,5.486608,-70.01617,-8.447793,-36.83611,0,0,0,-109.4969,45.19656,-37.98787,-122.2847,-110.4773,-88.41026,0.001067912,-0.1257102,0.09433498,0,0.3,0,0,0,0,
6.38224E+17,-42.07809,51.50218,47.34826,-102.4638,-6.177193,32.38057,-56.82663,-0.4675641,5.486608,-70.08942,-8.447793,-36.83611,0,0,0,-121.353,37.36393,-33.94263,-122.2847,-110.4773,-88.41026,0.001067912,-0.1257102,0.09433498,0,0.3,0,0,0,0,
6.38224E+17,-42.94981,48.46302,47.34826,-103.2695,-4.346064,32.60031,-56.82663,-0.4675641,5.486608,-70.08942,-8.374548,-36.90935,0,0,0,-127.0744,32.81616,-31.83983,-122.2847,-110.4773,-88.41026,0.001067912,-0.1257102,0.09433498,0,0.3,0,0,0,0,
6.38224E+17,-44.36341,42.64184,47.18483,-104.5146,-0.5373149,33.03978,-56.82663,-0.4675641,5.486608,-70.01617,-8.447793,-36.83611,0,0,0,-136.9827,23.05366,-28.28908,-122.2847,-110.4773,-88.41026,0.001067912,-0.1257102,0.09433498,0,0.3,0,0,0,0,
6.38224E+17,-45.37648,37.03107,46.92801,-104.6611,2.831963,33.91872,-56.82663,-0.4675641,5.486608,-70.08942,-8.374548,-36.90935,0,0,0,-145.0993,12.59282,-25.14519,-122.2847,-110.4773,-88.41026,0.001067912,-0.1257102,0.09433498,0,0.3,0,0,0,0,
6.38224E+17,-46.24821,31.65409,46.85796,-104.3682,6.05475,34.87091,-56.82663,-0.4675641,5.486608,-70.01617,-8.447793,-36.83611,0,0,0,-152.2784,2.144735,-22.56595,-122.2847,-110.4773,-88.41026,0.001067912,-0.1257102,0.09433498,0,0.3,0,0,0,0,
6.38224E+17,-46.7194,29.05911,46.69453,-104.0752,7.592898,35.31038,-56.82663,-0.4675641,5.486608,-70.01617,-8.374548,-36.83611,0,0,0,-155.5044,-3.343495,-21.90942,-122.2847,-110.4773,-88.41026,0.001067912,-0.1257102,0.09433498,0,0.3,0,0,0,0,
6.38224E+17,-47.63824,23.77563,45.85403,-102.6835,10.59595,36.18932,-56.82663,-0.4675641,5.486608,-70.01617,-8.447793,-36.83611,0,0,0,-160.8747,-15.7659,-21.64795,-122.2847,-110.4773,-88.41026,0.001067912,-0.1257102,0.09433498,0,0.3,0,0,0,0,
6.38224E+17,-48.34504,18.95972,44.66332,-100.8524,13.23278,37.06827,-56.82663,-0.4675641,5.486608,-70.08942,-8.447793,-36.83611,0,0,0,-164.2651,-28.16927,-22.22661,-122.2847,-110.4773,-88.41026,0.001067912,-0.1257102,0.09433498,0,0.3,0,0,0,0,
6.38224E+17,-48.67488,16.34136,43.75277,-99.60722,14.47795,37.58098,-56.82663,-0.4675641,5.486608,-70.01617,-8.374548,-36.83611,0,0,0,-165.3503,-35.45347,-22.95772,-122.2847,-110.4773,-88.41026,0.001067912,-0.1257102,0.09433498,0,0.3,0,0,0,0,
6.38224E+17,-49.09896,10.54357,40.83437,-96.38443,17.04152,38.97264,-56.82663,-0.4675641,5.486608,-70.01617,-8.374548,-36.83611,0,0,0,-164.9947,-53.1422,-25.42186,-122.2847,-110.4773,-88.41026,0.001067912,-0.1257102,0.09433498,0,0.3,0,0,0,0,
6.38224E+17,-48.86336,4.324967,37.28558,-91.25727,19.89809,42.41516,-56.82663,-0.4675641,5.486608,-70.01617,-8.447793,-36.83611,0,0,0,-160.9859,-72.69036,-27.73166,-122.2847,-110.4773,-88.41026,0.001067912,-0.1257102,0.09433498,0,0.3,0,0,0,0,
6.38224E+17,-48.53352,1.379314,35.79136,-88.10773,21.2165,44.75901,-56.82663,-0.4675641,5.486608,-70.01617,-8.374548,-36.83611,0,0,0,-158.3356,-81.60722,-28.43155,-122.2847,-110.4773,-88.41026,0.001067912,-0.1257102,0.09433498,0,0.3,0,0,0,0,
6.38224E+17,-47.94452,-1.239045,31.33203,-81.51566,24.21955,49.66644,-56.82663,-0.4675641,5.486608,-70.01617,-8.374548,-36.83611,0,0,0,-150.4746,-93.43686,-32.59797,-122.2847,-110.4773,-88.41026,0.001067912,-0.1257102,0.09433498,0,0.3,0,0,0,0,
6.38224E+17,-47.44976,-1.145532,25.49521,-76.3885,26.27042,53.9879,-56.82663,-0.4675641,5.486608,-70.01617,-8.374548,-36.90935,0,0,0,-140.5019,-99.68047,-39.37687,-122.2847,-110.4773,-88.41026,0.001067912,-0.1257102,0.09433498,0,0.3,0,0,0,0,
6.38224E+17,-46.69584,-1.192288,24.58467,-74.19114,27.14936,55.59929,-56.82663,-0.4675641,5.486608,-70.01617,-8.374548,-36.83611,0,0,0,-137.3939,-100.6862,-38.85771,-122.2847,-110.4773,-88.41026,0.001067912,-0.1257102,0.09433498,0,0.3,0,0,0,0,
6.38224E+17,-45.5414,-1.028641,23.65078,-71.33459,29.12698,57.50367,-56.82663,-0.4675641,5.486608,-70.01617,-8.447793,-36.90935,0,0,0,-133.3464,-101.1935,-37.50012,-122.2847,-110.4773,-88.41026,0.001067912,-0.1257102,0.09433498,0,0.3,0,0,0,0,
6.38224E+17,-44.43409,-0.8182371,22.97371,-70.16266,31.39758,57.0642,-56.82663,-0.4675641,5.486608,-70.01617,-8.374548,-36.83611,0,0,0,-129.7852,-101.3275,-35.97534,-122.2847,-110.4773,-88.41026,0.001067912,-0.1257102,0.09433498,0,0.3,0,0,0,0,
6.38224E+17,-43.68017,0.3974294,20.35881,-70.01617,33.00897,55.01333,-56.82663,-0.4675641,5.486608,-70.01617,-8.374548,-36.83611,0,0,0,-124.1335,-100.745,-38.36162,-122.2847,-110.4773,-88.41026,0.001067912,-0.1257102,0.09433498,0,0.3,0,0,0,0,
6.38224E+17,-43.20897,1.192288,18.63112,-69.94292,33.59494,53.62167,-56.82663,-0.4675641,5.486608,-70.01617,-8.447793,-36.83611,0,0,0,-120.4476,-100.2371,-40.12651,-122.2847,-110.4773,-88.41026,0.001067912,-0.1257102,0.09433498,0,0.3,0,0,0,0,
6.38224E+17,-41.91317,2.805384,14.84886,-69.43021,34.40063,50.54538,-56.82663,-0.4675641,5.486608,-70.01617,-8.374548,-36.83611,0,0,0,-111.7996,-99.02017,-43.80488,-122.2847,-110.4773,-88.41026,0.001067912,-0.1257102,0.09433498,0,0.3,0,0,0,0,
6.38224E+17,-39.60429,5.353609,9.829199,-68.33153,34.8401,45.78444,-56.82663,-0.4675641,5.486608,-70.01617,-8.447793,-36.83611,0,0,0,-99.14926,-95.60072,-48.51742,-122.2847,-110.4773,-88.41026,0.001067912,-0.1257102,0.09433498,0,0.3,0,0,0,0,
6.38224E+17,-38.0729,7.668051,6.420498,-67.45258,34.98659,42.85464,-56.82663,-0.4675641,5.486608,-70.01617,-8.374548,-36.83611,0,0,0,-90.69231,-91.37026,-52.57307,-122.2847,-110.4773,-88.41026,0.001067912,-0.1257102,0.09433498,0,0.3,0,0,0,0,
6.38224E+17,-37.05982,9.187634,4.482675,-66.57365,35.05984,41.02351,-56.82663,-0.4675641,5.486608,-70.08942,-8.447793,-36.83611,0,0,0,-85.61317,-88.30034,-54.98393,-122.2847,-110.4773,-88.41026,0.001067912,-0.1257102,0.09433498,0,0.3,0,0,0,0,
6.38224E+17,-34.68026,12.64761,0.5136398,-63.86357,34.91335,37.14151,-56.82663,-0.4675641,5.486608,-70.01617,-8.374548,-36.83611,0,0,0,-74.71474,-80.79712,-60.36876,-122.2847,-110.4773,-88.41026,0.001067912,-0.1257102,0.09433498,0,0.3,0,0,0,0,
6.38224E+17,-32.37139,16.15434,-3.525437,-60.64079,34.76685,32.7468,-56.82663,-0.4675641,5.486608,-70.01617,-8.447793,-36.90935,0,0,0,-64.18696,-72.64625,-67.0958,-122.2847,-110.4773,-88.41026,0.001067912,-0.1257102,0.09433498,0,0.3,0,0,0,0,
6.38224E+17,-30.51015,19.61431,-7.261,-57.27151,34.54712,27.54639,-56.82663,-0.4675641,5.486608,-70.01617,-8.447793,-36.83611,0,0,0,-55.21553,-64.16678,-74.65058,-122.2847,-110.4773,-88.41026,0.001067912,-0.1257102,0.09433498,0,0.3,0,0,0,0,
6.38224E+17,-29.92115,20.97025,-8.28828,-55.87985,34.32739,25.42229,-56.82663,-0.4675641,5.486608,-70.01617,-8.447793,-36.90935,0,0,0,-52.52188,-60.88348,-77.08962,-122.2847,-110.4773,-88.41026,0.001067912,-0.1257102,0.09433498,0,0.3,0,0,0,0,
6.38224E+17,-28.81383,24.05617,-9.198823,-52.95005,33.3752,22.27274,-56.82663,-0.4675641,5.486608,-70.01617,-8.447793,-36.83611,0,0,0,-48.4137,-53.92732,-80.33615,-122.2847,-110.4773,-88.41026,0.001067912,-0.1257102,0.09433498,0,0.3,0,0,0,0,
6.38224E+17,-27.75363,27.09534,-9.035392,-50.67944,31.9103,20.80784,-56.82663,-0.4675641,5.486608,-70.01617,-8.374548,-36.83611,0,0,0,-45.52998,-47.60808,-81.82505,-122.2847,-110.4773,-88.41026,0.001067912,-0.1257102,0.09433498,0,0.3,0,0,0,0,
6.38224E+17,-27.14108,28.54479,-8.778571,-49.72726,31.03135,20.36837,-56.82663,-0.4675641,5.486608,-70.01617,-8.447793,-36.83611,0,0,0,-44.15355,-44.71717,-82.21872,-122.2847,-110.4773,-88.41026,0.001067912,-0.1257102,0.09433498,0,0.3,0,0,0,0,
6.38224E+17,-25.70392,31.79436,-7.984766,-47.38342,29.20022,20.14863,-56.82663,-0.4675641,5.486608,-70.01617,-8.447793,-36.90935,0,0,0,-41.12387,-38.44878,-82.91585,-122.2847,-110.4773,-88.41026,0.001067912,-0.1257102,0.09433498,0,0.3,0,0,0,0,
6.38224E+17,-24.05472,35.62838,-6.49054,-44.96632,27.07611,20.88108,-56.82663,-0.4675641,5.486608,-70.01617,-8.374548,-36.83611,0,0,0,-38.03593,-31.4655,-83.13902,-122.2847,-110.4773,-88.41026,0.001067912,-0.1257102,0.09433498,0,0.3,0,0,0,0,
6.38224E+17,-21.86364,40.25727,-3.992383,-42.18301,24.51253,22.41923,-56.82663,-0.4675641,5.486608,-70.01617,-8.447793,-36.83611,0,0,0,-34.44012,-23.50286,-82.52018,-122.2847,-110.4773,-88.41026,0.001067912,-0.1257102,0.09433498,0,0.3,0,0,0,0,
6.38224E+17,-19.08357,46.28884,0.2334726,-38.66724,21.14326,25.34904,-56.82663,-0.4675641,5.486608,-70.01617,-8.447793,-36.83611,0,0,0,-30.30514,-13.60917,-80.75274,-122.2847,-110.4773,-88.41026,0.001067912,-0.1257102,0.09433498,0,0.3,0,0,0,0,
6.38224E+17,-17.88201,48.97734,2.334727,-37.27558,19.53186,26.59421,-56.82663,-0.4675641,5.486608,-70.01617,-8.374548,-36.83611,0,0,0,-28.54336,-9.283397,-79.88309,-122.2847,-110.4773,-88.41026,0.001067912,-0.1257102,0.09433498,0,0.3,0,0,0,0,
6.38224E+17,-14.86634,56.03755,8.311626,-33.97955,14.84417,29.59726,-56.82663,-0.4675641,5.486608,-70.01617,-8.447793,-36.83611,0,0,0,-24.05876,2.001655,-77.71628,-122.2847,-110.4773,-88.41026,0.001067912,-0.1257102,0.09433498,0,0.3,0,0,0,0,
6.38224E+17,-11.49726,63.26142,15.45589,-30.83001,8.984557,32.01435,-56.82663,-0.4675641,5.486608,-70.01617,-8.447793,-36.90935,0,0,0,-19.04198,13.91318,-74.73277,-122.2847,-110.4773,-88.41026,0.001067912,-0.1257102,0.09433498,0,0.3,0,0,0,0,
6.38224E+17,-9.565345,67.07206,19.6584,-29.14537,5.322299,32.89329,-56.82663,-0.4675641,5.486608,-70.08942,-8.447793,-36.90935,0,0,0,-16.08715,20.58706,-72.88593,-122.2847,-110.4773,-88.41026,0.001067912,-0.1257102,0.09433498,0,0.3,0,0,0,0,
6.38224E+17,-6.00779,73.64133,28.08676,-25.70284,-2.88116,33.99197,-56.82663,-0.4675641,5.486608,-70.01617,-8.374548,-36.83611,0,0,0,-10.50197,33.65552,-68.56093,-122.2847,-110.4773,-88.41026,0.001067912,-0.1257102,0.09433498,0,0.3,0,0,0,0,
6.38224E+17,-2.874315,78.12995,35.62793,-22.62654,-11.45084,34.43144,-56.82663,-0.4675641,5.486608,-70.01617,-8.374548,-36.83611,0,0,0,-5.270667,45.45939,-63.37419,-122.2847,-110.4773,-88.41026,0.001067912,-0.1257102,0.09433498,0,0.3,0,0,0,0,
6.38224E+17,0.02355996,81.05223,42.25855,-19.76999,-20.31351,34.50468,-56.82663,-0.4675641,5.486608,-70.08942,-8.374548,-36.83611,0,0,0,0.04540265,56.3825,-57.9347,-122.2847,-110.4773,-88.41026,0.001067912,-0.1257102,0.09433498,0,0.3,0,0,0,0,
6.38224E+17,1.295798,82.01073,45.06022,-18.45157,-24.04902,34.13846,-56.82663,-0.4675641,5.486608,-70.01617,-8.374548,-36.83611,0,0,0,2.553704,61.2122,-55.45314,-122.2847,-110.4773,-88.41026,0.001067912,-0.1257102,0.09433498,0,0.3,0,0,0,0,
6.38224E+17,4.052313,83.41343,50.52348,-14.78931,-32.69194,31.64813,-56.82663,-0.4675641,5.486608,-70.01617,-8.374548,-36.83611,0,0,0,8.354758,71.04099,-50.41886,-122.2847,-110.4773,-88.41026,0.001067912,-0.1257102,0.09433498,0,0.3,0,0,0,0,
6.38224E+17,6.12559,83.57708,52.88156,-11.42003,-37.9656,27.98586,-56.82663,-0.4675641,5.486608,-70.01617,-8.447793,-36.83611,0,0,0,12.93829,75.39098,-47.79297,-122.2847,-110.4773,-88.41026,0.001067912,-0.1257102,0.09433498,0,0.3,0,0,0,0,
6.38224E+17,7.468508,83.48357,53.74541,-8.929699,-40.30944,24.98281,-56.82663,-0.4675641,5.486608,-70.08942,-8.447793,-36.90935,0,0,0,15.94437,76.97871,-46.72393,-122.2847,-110.4773,-88.41026,0.001067912,-0.1257102,0.09433498,0,0.3,0,0,0,0,
6.38224E+17,10.5313,82.99262,54.58591,-2.85035,-43.38574,16.8526,-56.82663,-0.4675641,5.486608,-70.01617,-8.447793,-36.83611,0,0,0,22.83683,78.43005,-45.50809,-122.2847,-110.4773,-88.41026,0.001067912,-0.1257102,0.09433498,0,0.3,0,0,0,0,
6.38224E+17,13.80614,82.17439,54.51587,4.474167,-44.70415,6.671522,-56.82663,-0.4675641,5.486608,-70.01617,-8.374548,-36.90935,0,0,0,30.24503,78.05145,-45.27121,-122.2847,-110.4773,-88.41026,0.001067912,-0.1257102,0.09433498,0,0.3,0,0,0,0,
6.38224E+17,16.98673,81.23926,53.93219,10.99299,-44.33792,-2.923595,-56.82663,-0.4675641,5.486608,-70.08942,-8.447793,-36.83611,0,0,0,37.42443,76.6354,-45.83875,-122.2847,-110.4773,-88.41026,0.001067912,-0.1257102,0.09433498,0,0.3,0,0,0,0,
6.38224E+17,19.93173,80.1171,53.16172,16.63286,-42.79977,-10.83407,-56.82663,-0.4675641,5.486608,-70.01617,-8.374548,-36.83611,0,0,0,44.18464,74.77006,-46.50213,-122.2847,-110.4773,-88.41026,0.001067912,-0.1257102,0.09433498,0,0.3,0,0,0,0,
6.38224E+17,21.2982,79.50927,52.71812,19.26969,-41.7011,-13.91037,-56.82663,-0.4675641,5.486608,-70.01617,-8.447793,-36.90935,0,0,0,47.35756,73.69598,-46.87289,-122.2847,-110.4773,-88.41026,0.001067912,-0.1257102,0.09433498,0,0.3,0,0,0,0,
6.38224E+17,24.0076,77.89617,50.7803,23.73765,-38.91778,-18.0121,-56.82663,-0.4675641,5.486608,-70.01617,-8.447793,-36.83611,0,0,0,53.40872,69.4189,-48.43486,-122.2847,-110.4773,-88.41026,0.001067912,-0.1257102,0.09433498,0,0.3,0,0,0,0,
6.38224E+17,26.34004,75.79214,48.2121,26.66745,-35.32877,-20.13621,-56.82663,-0.4675641,5.486608,-70.01617,-8.374548,-36.90935,0,0,0,58.63795,63.75994,-49.91356,-122.2847,-110.4773,-88.41026,0.001067912,-0.1257102,0.09433498,0,0.3,0,0,0,0,
6.38224E+17,27.32955,74.64661,46.74123,27.61964,-33.35115,-20.72217,-56.82663,-0.4675641,5.486608,-70.01617,-8.374548,-36.83611,0,0,0,60.7958,60.55686,-50.70922,-122.2847,-110.4773,-88.41026,0.001067912,-0.1257102,0.09433498,0,0.3,0,0,0,0,
6.38224E+17,29.02587,72.33216,43.23914,28.71832,-29.17617,-21.23489,-56.82663,-0.4675641,5.486608,-70.01617,-8.447793,-36.90935,0,0,0,63.96074,53.26455,-53.08455,-122.2847,-110.4773,-88.41026,0.001067912,-0.1257102,0.09433498,0,0.3,0,0,0,0,
6.38224E+17,30.46303,70.20474,39.17671,29.15779,-24.70822,-20.20946,-56.82663,-0.4675641,5.486608,-70.01617,-8.447793,-36.83611,0,0,0,65.60321,45.44709,-56.81334,-122.2847,-110.4773,-88.41026,0.001067912,-0.1257102,0.09433498,0,0.3,0,0,0,0,
6.38224E+17,31.00491,69.29299,37.26224,29.08454,-22.87709,-19.55025,-56.82663,-0.4675641,5.486608,-70.01617,-8.447793,-36.90935,0,0,0,65.87748,41.95607,-58.73274,-122.2847,-110.4773,-88.41026,0.001067912,-0.1257102,0.09433498,0,0.3,0,0,0,0,
6.38224E+17,32.13579,67.00193,32.80291,28.79156,-18.40914,-17.35289,-56.82663,-0.4675641,5.486608,-70.01617,-8.447793,-36.83611,0,0,0,66.14112,34.01519,-63.05817,-122.2847,-110.4773,-88.41026,0.001067912,-0.1257102,0.09433498,0,0.3,0,0,0,0,
6.38224E+17,33.12531,63.91601,27.89998,28.35209,-13.86794,-14.42309,-56.82663,-0.4675641,5.486608,-70.01617,-8.374548,-36.83611,0,0,0,66.13995,25.2682,-66.9894,-122.2847,-110.4773,-88.41026,0.001067912,-0.1257102,0.09433498,0,0.3,0,0,0,0,
6.38224E+17,34.02058,59.26375,22.27329,27.83937,-8.667529,-11.49328,-56.82663,-0.4675641,5.486608,-70.01617,-8.447793,-36.90935,0,0,0,66.40953,14.56791,-69.97008,-122.2847,-110.4773,-88.41026,0.001067912,-0.1257102,0.09433498,0,0.3,0,0,0,0,
6.38224E+17,34.3033,56.29471,19.37823,27.69288,-5.737722,-10.02838,-56.82663,-0.4675641,5.486608,-70.01617,-8.447793,-36.90935,0,0,0,66.63956,8.488693,-70.67215,-122.2847,-110.4773,-88.41026,0.001067912,-0.1257102,0.09433498,0,0.3,0,0,0,0,
6.38224E+17,34.49178,49.37476,13.70484,27.47315,0.5613627,-7.171815,-56.82663,-0.4675641,5.486608,-70.01617,-8.447793,-36.90935,0,0,0,67.05907,-4.992806,-70.74847,-122.2847,-110.4773,-88.41026,0.001067912,-0.1257102,0.09433498,0,0.3,0,0,0,0,
6.38224E+17,34.60958,42.40806,9.245518,27.32666,7.373164,-4.97446,-56.82663,-0.4675641,5.486608,-70.01617,-8.374548,-36.90935,0,0,0,68.09251,-18.33557,-69.67961,-122.2847,-110.4773,-88.41026,0.001067912,-0.1257102,0.09433498,0,0.3,0,0,0,0,
6.38224E+17,34.72738,38.69093,7.354388,27.39991,11.10867,-3.875783,-56.82663,-0.4675641,5.486608,-70.01617,-8.374548,-36.83611,0,0,0,69.01764,-25.54335,-68.77758,-122.2847,-110.4773,-88.41026,0.001067912,-0.1257102,0.09433498,0,0.3,0,0,0,0,
6.38224E+17,35.17502,31.72422,4.996315,28.2056,18.06696,-1.971408,-56.82663,-0.4675641,5.486608,-70.08942,-8.447793,-36.90935,0,0,0,72.03237,-39.37371,-66.14304,-122.2847,-110.4773,-88.41026,0.001067912,-0.1257102,0.09433498,0,0.3,0,0,0,0,
6.38224E+17,35.74046,25.01468,4.27255,29.817,24.65902,-0.2867693,-56.82663,-0.4675641,5.486608,-70.01617,-8.447793,-36.83611,0,0,0,76.3884,-53.24231,-62.20255,-122.2847,-110.4773,-88.41026,0.001067912,-0.1257102,0.09433498,0,0.3,0,0,0,0,
6.38224E+17,35.90538,21.95213,4.319244,30.76918,27.44234,0.3724372,-56.82663,-0.4675641,5.486608,-70.01617,-8.374548,-36.83611,0,0,0,78.42266,-59.77079,-60.03476,-122.2847,-110.4773,-88.41026,0.001067912,-0.1257102,0.09433498,0,0.3,0,0,0,0,
6.38224E+17,35.99962,15.80367,4.646106,32.89329,33.08222,1.471115,-56.82663,-0.4675641,5.486608,-70.01617,-8.447793,-36.83611,0,0,0,81.76661,-73.24503,-55.80635,-122.2847,-110.4773,-88.41026,0.001067912,-0.1257102,0.09433498,0,0.3,0,0,0,0,
6.38224E+17,35.97606,10.12276,5.276482,34.65118,37.84315,2.203566,-56.82663,-0.4675641,5.486608,-70.01617,-8.374548,-36.90935,0,0,0,84.32059,-85.99763,-52.19063,-122.2847,-110.4773,-88.41026,0.001067912,-0.1257102,0.09433498,0,0.3,0,0,0,0,
6.38224E+17,35.88182,4.067808,6.770707,36.4823,42.23786,2.716283,-56.82663,-0.4675641,5.486608,-70.01617,-8.447793,-36.90935,0,0,0,87.17617,-99.61056,-47.84036,-122.2847,-110.4773,-88.41026,0.001067912,-0.1257102,0.09433498,0,0.3,0,0,0,0,
6.38224E+17,35.88182,0.9585064,7.494472,37.43449,44.28873,3.009263,-56.82663,-0.4675641,5.486608,-70.01617,-8.447793,-36.90935,0,0,0,88.34179,-106.6301,-46.22904,-122.2847,-110.4773,-88.41026,0.001067912,-0.1257102,0.09433498,0,0.3,0,0,0,0,
6.38224E+17,35.85826,-0.7247244,7.611208,38.02045,45.38741,3.082508,-56.82663,-0.4675641,5.486608,-70.01617,-8.447793,-36.90935,0,0,0,88.45402,-110.5118,-45.96796,-122.2847,-110.4773,-88.41026,0.001067912,-0.1257102,0.09433498,0,0.3,0,0,0,0,
6.38224E+17,35.57554,-1.122154,6.560582,38.82615,46.63258,3.155754,-56.82663,-0.4675641,5.486608,-70.01617,-8.447793,-36.83611,0,0,0,86.4287,-111.7383,-47.51872,-122.2847,-110.4773,-88.41026,0.001067912,-0.1257102,0.09433498,0,0.3,0,0,0,0,
6.38224E+17,34.84518,-0.9351282,6.116984,39.63185,47.29178,2.716283,-56.82663,-0.4675641,5.486608,-70.01617,-8.447793,-36.90935,0,0,0,84.29965,-111.4171,-47.26256,-122.2847,-110.4773,-88.41026,0.001067912,-0.1257102,0.09433498,0,0.3,0,0,0,0,
6.38224E+17,34.25618,-0.9818845,6.116984,39.99807,47.43827,2.716283,-56.82663,-0.4675641,5.486608,-70.01617,-8.447793,-36.83611,0,0,0,83.04942,-111.5259,-46.40388,-122.2847,-110.4773,-88.41026,0.001067912,-0.1257102,0.09433498,0,0.3,0,0,0,0,
6.38224E+17,32.72478,-0.9585064,5.9769,40.58403,47.58476,3.009263,-56.82663,-0.4675641,5.486608,-70.01617,-8.447793,-36.90935,0,0,0,79.58601,-111.5058,-44.49994,-122.2847,-110.4773,-88.41026,0.001067912,-0.1257102,0.09433498,0,0.3,0,0,0,0,
6.38224E+17,30.62795,-0.4909423,5.346524,40.87702,47.73125,4.107941,-56.82663,-0.4675641,5.486608,-70.01617,-8.374548,-36.90935,0,0,0,74.26443,-110.5624,-42.91539,-122.2847,-110.4773,-88.41026,0.001067912,-0.1257102,0.09433498,0,0.3,0,0,0,0,
6.38224E+17,29.40283,0.116891,4.506022,40.65728,47.8045,4.986883,-56.82663,-0.4675641,5.486608,-70.01617,-8.374548,-36.83611,0,0,0,70.61102,-109.3158,-43.0501,-122.2847,-110.4773,-88.41026,0.001067912,-0.1257102,0.09433498,0,0.3,0,0,0,0,
6.38224E+17,26.08088,2.641737,1.610961,38.82615,47.95099,7.037747,-56.82663,-0.4675641,5.486608,-70.01617,-8.374548,-36.90935,0,0,0,60.21175,-103.8011,-45.33861,-122.2847,-110.4773,-88.41026,0.001067912,-0.1257102,0.09433498,0,0.3,0,0,0,0,
6.38224E+17,24.05472,4.886045,-0.1400836,36.92178,48.02423,8.06318,-56.82663,-0.4675641,5.486608,-70.08942,-8.447793,-36.90935,0,0,0,54.02424,-98.64162,-47.32079,-122.2847,-110.4773,-88.41026,0.001067912,-0.1257102,0.09433498,0,0.3,0,0,0,0,
6.38224E+17,21.34533,8.673313,-2.451463,33.99197,48.17072,8.942122,-56.82663,-0.4675641,5.486608,-70.01617,-8.447793,-36.90935,0,0,0,45.90664,-89.76873,-50.88021,-122.2847,-110.4773,-88.41026,0.001067912,-0.1257102,0.09433498,0,0.3,0,0,0,0,
6.38224E+17,19.90817,11.05789,-3.595479,32.23409,48.09748,9.235103,-56.82663,-0.4675641,5.486608,-70.01617,-8.447793,-36.90935,0,0,0,41.71686,-84.1609,-53.15975,-122.2847,-110.4773,-88.41026,0.001067912,-0.1257102,0.09433498,0,0.3,0,0,0,0,
6.38224E+17,15.71449,19.68445,-5.883511,25.78851,46.04661,9.161857,-56.82663,-0.4675641,5.486608,-70.01617,-8.447793,-36.90935,0,0,0,30.30421,-64.37999,-60.64393,-122.2847,-110.4773,-88.41026,0.001067912,-0.1257102,0.09433498,0,0.3,0,0,0,0,
6.38224E+17,14.20666,23.1678,-6.070289,23.29818,44.7282,7.843444,-56.82663,-0.4675641,5.486608,-70.01617,-8.447793,-36.90935,0,0,0,26.62676,-56.78903,-63.17346,-122.2847,-110.4773,-88.41026,0.001067912,-0.1257102,0.09433498,0,0.3,0,0,0,0,
6.38224E+17,11.26166,30.85923,-5.393219,17.95128,41.13919,3.155754,-56.82663,-0.4675641,5.486608,-70.01617,-8.447793,-36.90935,0,0,0,19.90747,-41.01039,-68.37473,-122.2847,-110.4773,-88.41026,0.001067912,-0.1257102,0.09433498,0,0.3,0,0,0,0,
6.38224E+17,7.916147,38.62079,-2.544852,12.45789,36.305,-2.70386,-56.82663,-0.4675641,5.486608,-70.01617,-8.447793,-36.83611,0,0,0,13.53337,-26.63633,-71.02177,-122.2847,-110.4773,-88.41026,0.001067912,-0.1257102,0.09433498,0,0.3,0,0,0,0,
6.38224E+17,6.172709,42.82887,-0.2568199,9.381593,33.08222,-5.780157,-56.82663,-0.4675641,5.486608,-70.01617,-8.447793,-36.83611,0,0,0,10.45146,-19.34588,-71.71404,-122.2847,-110.4773,-88.41026,0.001067912,-0.1257102,0.09433498,0,0.3,0,0,0,0,
6.38224E+17,3.439754,50.61381,5.369871,3.66847,25.97744,-10.54109,-56.82663,-0.4675641,5.486608,-70.01617,-8.447793,-36.90935,0,0,0,5.825662,-6.350349,-71.42892,-122.2847,-110.4773,-88.41026,0.001067912,-0.1257102,0.09433498,0,0.3,0,0,0,0,
6.38224E+17,1.272238,58.16497,12.14058,-1.312202,17.84722,-13.4709,-56.82663,-0.4675641,5.486608,-70.01617,-8.447793,-36.90935,0,0,0,2.184407,6.272641,-69.99045,-122.2847,-110.4773,-88.41026,0.001067912,-0.1257102,0.09433498,0,0.3,0,0,0,0,
6.38224E+17,0.3298394,61.69508,15.73606,-3.363066,13.45251,-14.2766,-56.82663,-0.4675641,5.486608,-70.08942,-8.447793,-36.83611,0,0,0,0.572193,12.40401,-68.95655,-122.2847,-110.4773,-88.41026,0.001067912,-0.1257102,0.09433498,0,0.3,0,0,0,0,
6.38224E+17,-1.554958,68.28773,23.11379,-7.171815,4.077131,-15.15554,-56.82663,-0.4675641,5.486608,-70.01617,-8.447793,-36.90935,0,0,0,-2.759166,24.59367,-66.7075,-122.2847,-110.4773,-88.41026,0.001067912,-0.1257102,0.09433498,0,0.3,0,0,0,0,
6.38224E+17,-3.769594,74.03877,30.88843,-11.2003,-5.957458,-14.42309,-56.82663,-0.4675641,5.486608,-70.01617,-8.447793,-36.90935,0,0,0,-6.911516,37.12231,-63.45032,-122.2847,-110.4773,-88.41026,0.001067912,-0.1257102,0.09433498,0,0.3,0,0,0,0,
6.38224E+17,-4.994712,76.14281,34.41387,-13.61739,-11.08462,-13.17792,-56.82663,-0.4675641,5.486608,-70.01617,-8.447793,-36.83611,0,0,0,-9.342177,42.8083,-61.45478,-122.2847,-110.4773,-88.41026,0.001067912,-0.1257102,0.09433498,0,0.3,0,0,0,0,
6.38224E+17,-7.845467,78.17671,39.52692,-20.42919,-20.46,-9.22268,-56.82663,-0.4675641,5.486608,-70.01617,-8.447793,-36.90935,0,0,0,-15.3144,51.0146,-57.20816,-122.2847,-110.4773,-88.41026,0.001067912,-0.1257102,0.09433498,0,0.3,0,0,0,0,
6.38224E+17,-10.83758,78.31698,42.77219,-29.07212,-27.19856,-3.143331,-56.82663,-0.4675641,5.486608,-70.01617,-8.447793,-36.83611,0,0,0,-22.1041,56.05053,-52.88778,-122.2847,-110.4773,-88.41026,0.001067912,-0.1257102,0.09433498,0,0.3,0,0,0,0,
6.38224E+17,-15.2433,76.93767,45.71395,-42.18301,-31.66651,6.525032,-56.82663,-0.4675641,5.486608,-70.01617,-8.447793,-36.83611,0,0,0,-33.02224,60.13909,-47.16995,-122.2847,-110.4773,-88.41026,0.001067912,-0.1257102,0.09433498,0,0.3,0,0,0,0,
6.38224E+17,-18.07049,75.30119,46.06416,-49.65401,-32.54545,12.01842,-56.82663,-0.4675641,5.486608,-70.01617,-8.447793,-36.90935,0,0,0,-40.28197,59.81063,-44.89188,-122.2847,-110.4773,-88.41026,0.001067912,-0.1257102,0.09433498,0,0.3,0,0,0,0,
6.38224E+17,-20.23801,73.73485,45.87738,-54.48819,-32.39896,15.16796,-56.82663,-0.4675641,5.486608,-70.01617,-8.374548,-36.83611,0,0,0,-46.03323,58.525,-43.49099,-122.2847,-110.4773,-88.41026,0.001067912,-0.1257102,0.09433498,0,0.3,0,0,0,0,
6.38224E+17,-24.4788,70.0411,45.43378,-62.7649,-30.64108,20.22188,-56.82663,-0.4675641,5.486608,-70.01617,-8.447793,-36.90935,0,0,0,-58.22635,55.11457,-40.45855,-122.2847,-110.4773,-88.41026,0.001067912,-0.1257102,0.09433498,0,0.3,0,0,0,0,
6.38224E+17,-28.46043,65.38884,44.96684,-69.35696,-27.71127,24.54334,-56.82663,-0.4675641,5.486608,-70.01617,-8.374548,-36.90935,0,0,0,-71.37447,50.23856,-36.67781,-122.2847,-110.4773,-88.41026,0.001067912,-0.1257102,0.09433498,0,0.3,0,0,0,0,
6.38224E+17,-32.06511,60.10536,44.26641,-74.7771,-23.97577,27.83937,-56.82663,-0.4675641,5.486608,-70.01617,-8.447793,-36.90935,0,0,0,-84.69714,43.4647,-33.14835,-122.2847,-110.4773,-88.41026,0.001067912,-0.1257102,0.09433498,0,0.3,0,0,0,0,
6.38224E+17,-33.64362,57.41687,43.98625,-77.04771,-22.07139,28.93805,-56.82663,-0.4675641,5.486608,-70.01617,-8.447793,-36.90935,0,0,0,-91.09381,39.76598,-31.46901,-122.2847,-110.4773,-88.41026,0.001067912,-0.1257102,0.09433498,0,0.3,0,0,0,0,
6.38224E+17,-36.23522,51.96975,43.91621,-80.70996,-17.89642,30.84243,-56.82663,-0.4675641,5.486608,-70.01617,-8.447793,-36.83611,0,0,0,-103.2337,32.32854,-27.48084,-122.2847,-110.4773,-88.41026,0.001067912,-0.1257102,0.09433498,0,0.3,0,0,0,0,
6.38224E+17,-38.49697,46.31222,44.19638,-83.8595,-13.86794,32.67356,-56.82663,-0.4675641,5.486608,-70.08942,-8.447793,-36.90935,0,0,0,-115.2008,24.1714,-23.507,-122.2847,-110.4773,-88.41026,0.001067912,-0.1257102,0.09433498,0,0.3,0,0,0,0,
6.38224E+17,-39.51006,43.67049,44.4065,-85.10468,-11.89032,33.5525,-56.82663,-0.4675641,5.486608,-70.01617,-8.447793,-36.83611,0,0,0,-120.7317,20.16514,-21.94305,-122.2847,-110.4773,-88.41026,0.001067912,-0.1257102,0.09433498,0,0.3,0,0,0,0,
6.38224E+17,-41.18281,38.85457,45.10692,-87.0823,-8.008322,35.09065,-56.82663,-0.4675641,5.486608,-70.08942,-8.447793,-36.90935,0,0,0,-130.5823,12.89,-19.09674,-122.2847,-110.4773,-88.41026,0.001067912,-0.1257102,0.09433498,0,0.3,0,0,0,0,
6.38224E+17,-42.52573,34.76339,46.60114,-88.47395,-4.785534,36.84853,-56.82663,-0.4675641,5.486608,-70.01617,-8.374548,-36.90935,0,0,0,-139.5368,7.76348,-16.20954,-122.2847,-110.4773,-88.41026,0.001067912,-0.1257102,0.09433498,0,0.3,0,0,0,0,
6.38224E+17,-43.11473,33.0334,47.39495,-89.27965,-3.320631,37.72747,-56.82663,-0.4675641,5.486608,-70.01617,-8.447793,-36.83611,0,0,0,-143.4893,5.772736,-15.093,-122.2847,-110.4773,-88.41026,0.001067912,-0.1257102,0.09433498,0,0.3,0,0,0,0,
6.38224E+17,-44.26917,30.29815,49.0526,-90.89104,-0.8302955,38.97264,-56.82663,-0.4675641,5.486608,-70.01617,-8.447793,-36.90935,0,0,0,-150.6745,3.23201,-13.78177,-122.2847,-110.4773,-88.41026,0.001067912,-0.1257102,0.09433498,0,0.3,0,0,0,0,
6.38224E+17,-45.32936,28.54479,50.61687,-92.94191,0.9275885,39.63185,-56.82663,-0.4675641,5.486608,-70.01617,-8.447793,-36.83611,0,0,0,-156.6041,2.459738,-13.53609,-122.2847,-110.4773,-88.41026,0.001067912,-0.1257102,0.09433498,0,0.3,0,0,0,0,
6.38224E+17,-45.82413,27.79668,51.34064,-94.04059,1.66004,39.77834,-56.82663,-0.4675641,5.486608,-70.01617,-8.447793,-36.83611,0,0,0,-159.2853,2.233555,-13.58228,-122.2847,-110.4773,-88.41026,0.001067912,-0.1257102,0.09433498,0,0.3,0,0,0,0,
6.38224E+17,-46.93144,25.94981,52.67143,-95.94496,3.198189,40.07132,-56.82663,-0.4675641,5.486608,-70.08942,-8.447793,-36.83611,0,0,0,-165.0586,0.8403358,-14.0607,-122.2847,-110.4773,-88.41026,0.001067912,-0.1257102,0.09433498,0,0.3,0,0,0,0,
6.38224E+17,-48.15656,24.14968,52.97495,-97.26337,4.663092,40.14456,-56.82663,-0.4675641,5.486608,-70.01617,-8.447793,-36.83611,0,0,0,-169.9591,-2.392194,-16.15697,-122.2847,-110.4773,-88.41026,0.001067912,-0.1257102,0.09433498,0,0.3,0,0,0,0,
6.38224E+17,-48.86336,23.07429,52.88156,-97.6296,5.395544,40.07132,-56.82663,-0.4675641,5.486608,-70.01617,-8.447793,-36.90935,0,0,0,-172.4799,-4.858915,-17.69181,-122.2847,-110.4773,-88.41026,0.001067912,-0.1257102,0.09433498,0,0.3,0,0,0,0,
6.38224E+17,-50.15916,20.24553,52.34457,-98.28881,6.860447,39.63185,-56.82663,-0.4675641,5.486608,-70.01617,-8.374548,-36.83611,0,0,0,-177.1258,-11.9701,-20.56033,-122.2847,-110.4773,-88.41026,0.001067912,-0.1257102,0.09433498,0,0.3,0,0,0,0,
6.38224E+17,-51.4314,16.22447,51.52742,-98.4353,8.618331,39.11913,-56.82663,-0.4675641,5.486608,-70.01617,-8.374548,-36.90935,0,0,0,-181.7359,-22.35423,-23.43513,-122.2847,-110.4773,-88.41026,0.001067912,-0.1257102,0.09433498,0,0.3,0,0,0,0,
6.38224E+17,-52.68008,11.12803,48.98256,-97.40987,10.59595,38.38668,-56.82663,-0.4675641,5.486608,-70.01617,-8.447793,-36.90935,0,0,0,-184.0689,-38.42929,-28.0259,-122.2847,-110.4773,-88.41026,0.001067912,-0.1257102,0.09433498,0,0.3,0,0,0,0,
6.38224E+17,-53.52823,5.493878,45.97077,-94.40681,12.86655,38.02045,-56.82663,-0.4675641,5.486608,-70.01617,-8.447793,-36.90935,0,0,0,-183.84,-56.56478,-32.45567,-122.2847,-110.4773,-88.41026,0.001067912,-0.1257102,0.09433498,0,0.3,0,0,0,0,
6.38224E+17,-53.76383,3.015788,44.45319,-92.86866,13.81874,38.02045,-56.82663,-0.4675641,5.486608,-70.01617,-8.447793,-36.90935,0,0,0,-182.7355,-64.82258,-34.43064,-122.2847,-110.4773,-88.41026,0.001067912,-0.1257102,0.09433498,0,0.3,0,0,0,0,
6.38224E+17,-53.99943,-1.262423,40.13395,-88.62045,15.94285,38.02045,-56.82663,-0.4675641,5.486608,-70.01617,-8.447793,-36.83611,0,0,0,-177.3934,-81.53928,-39.46342,-122.2847,-110.4773,-88.41026,0.001067912,-0.1257102,0.09433498,0,0.3,0,0,0,0,
6.38224E+17,-53.90519,-0.9351282,32.14919,-83.56653,17.70073,38.53317,-56.82663,-0.4675641,5.486608,-70.01617,-8.447793,-36.90935,0,0,0,-165.0761,-91.72916,-47.99733,-122.2847,-110.4773,-88.41026,0.001067912,-0.1257102,0.09433498,0,0.3,0,0,0,0,
6.38224E+17,-53.50467,-1.145532,29.41755,-80.9297,18.28669,39.04589,-56.82663,-0.4675641,5.486608,-70.01617,-8.447793,-36.83611,0,0,0,-159.8332,-95.47223,-50.0998,-122.2847,-110.4773,-88.41026,0.001067912,-0.1257102,0.09433498,0,0.3,0,0,0,0,
6.38224E+17,-52.49159,-0.9117499,25.82208,-76.60824,19.60511,40.14456,-56.82663,-0.4675641,5.486608,-70.01617,-8.447793,-36.83611,0,0,0,-151.8446,-98.80705,-51.80017,-122.2847,-110.4773,-88.41026,0.001067912,-0.1257102,0.09433498,0,0.3,0,0,0,0,
6.38224E+17,-51.10155,-0.9351282,23.65078,-73.45869,21.07001,42.70815,-56.82663,-0.4675641,5.486608,-70.01617,-8.374548,-36.90935,0,0,0,-145.4001,-100.9759,-51.03345,-122.2847,-110.4773,-88.41026,0.001067912,-0.1257102,0.09433498,0,0.3,0,0,0,0,
6.38224E+17,-49.47592,0.4441859,19.82183,-70.96836,22.75465,45.05199,-56.82663,-0.4675641,5.486608,-70.01617,-8.374548,-36.83611,0,0,0,-135.7327,-101.0654,-52.32458,-122.2847,-110.4773,-88.41026,0.001067912,-0.1257102,0.09433498,0,0.3,0,0,0,0,
6.38224E+17,-48.39216,1.893635,17.06685,-69.64995,23.34061,45.7112,-56.82663,-0.4675641,5.486608,-70.01617,-8.374548,-36.90935,0,0,0,-128.915,-99.72123,-53.86238,-122.2847,-110.4773,-88.41026,0.001067912,-0.1257102,0.09433498,0,0.3,0,0,0,0,
6.38224E+17,-45.37648,5.751038,10.73974,-65.62146,24.43929,46.59014,-56.82663,-0.4675641,5.486608,-70.01617,-8.447793,-36.83611,0,0,0,-112.1189,-94.30173,-57.69497,-122.2847,-110.4773,-88.41026,0.001067912,-0.1257102,0.09433498,0,0.3,0,0,0,0,
6.38224E+17,-42.87913,8.579801,7.097569,-61.9592,24.80551,46.88312,-56.82663,-0.4675641,5.486608,-70.01617,-8.447793,-36.83611,0,0,0,-100.9347,-89.08411,-59.65197,-122.2847,-110.4773,-88.41026,0.001067912,-0.1257102,0.09433498,0,0.3,0,0,0,0,
6.38224E+17,-41.41841,10.1929,5.229787,-59.83509,25.17174,47.02961,-56.82663,-0.4675641,5.486608,-70.01617,-8.447793,-36.90935,0,0,0,-94.86688,-85.8469,-60.81432,-122.2847,-110.4773,-88.41026,0.001067912,-0.1257102,0.09433498,0,0.3,0,0,0,0,
6.38224E+17,-38.40274,13.65287,1.844434,-55.58687,25.83095,46.44365,-56.82663,-0.4675641,5.486608,-70.01617,-8.447793,-36.90935,0,0,0,-83.16055,-78.45512,-63.43779,-122.2847,-110.4773,-88.41026,0.001067912,-0.1257102,0.09433498,0,0.3,0,0,0,0,
6.38224E+17,-35.10434,17.62716,-0.8405016,-50.82594,26.63664,44.97874,-56.82663,-0.4675641,5.486608,-70.01617,-8.447793,-36.83611,0,0,0,-71.95974,-69.60437,-65.97814,-122.2847,-110.4773,-88.41026,0.001067912,-0.1257102,0.09433498,0,0.3,0,0,0,0,
6.38224E+17,-33.3609,19.59093,-1.751045,-48.40885,26.85638,44.31954,-56.82663,-0.4675641,5.486608,-70.01617,-8.447793,-36.90935,0,0,0,-66.84481,-65.22514,-66.82385,-122.2847,-110.4773,-88.41026,0.001067912,-0.1257102,0.09433498,0,0.3,0,0,0,0,
6.38224E+17,-29.19079,23.63536,-2.825019,-43.13519,26.70989,43.4406,-56.82663,-0.4675641,5.486608,-70.01617,-8.374548,-36.90935,0,0,0,-56.37632,-56.37599,-67.43838,-122.2847,-110.4773,-88.41026,0.001067912,-0.1257102,0.09433498,0,0.3,0,0,0,0,
6.38224E+17,-25.35052,26.76804,-2.98845,-38.52075,26.12393,43.00113,-56.82663,-0.4675641,5.486608,-70.01617,-8.447793,-36.83611,0,0,0,-47.99945,-49.76053,-67.03768,-122.2847,-110.4773,-88.41026,0.001067912,-0.1257102,0.09433498,0,0.3,0,0,0,0,
6.38224E+17,-20.49717,30.18126,-2.941756,-33.02736,25.24498,42.78139,-56.82663,-0.4675641,5.486608,-70.01617,-8.374548,-36.83611,0,0,0,-37.96774,-42.78426,-66.78536,-122.2847,-110.4773,-88.41026,0.001067912,-0.1257102,0.09433498,0,0.3,0,0,0,0,
6.38224E+17,-17.12809,32.35543,-2.754977,-28.92563,24.51253,42.6349,-56.82663,-0.4675641,5.486608,-70.01617,-8.374548,-36.83611,0,0,0,-31.28781,-38.48097,-66.82454,-122.2847,-110.4773,-88.41026,0.001067912,-0.1257102,0.09433498,0,0.3,0,0,0,0,
6.38224E+17,-12.5339,35.11406,-2.334727,-23.57873,23.41385,42.34192,-56.82663,-0.4675641,5.486608,-70.01617,-8.374548,-36.90935,0,0,0,-22.49364,-33.18558,-67.17107,-122.2847,-110.4773,-88.41026,0.001067912,-0.1257102,0.09433498,0,0.3,0,0,0,0,
6.38224E+17,-7.020868,38.27012,-1.610961,-17.13316,22.16869,41.8292,-56.82663,-0.4675641,5.486608,-70.01617,-8.374548,-36.83611,0,0,0,-12.33849,-27.35435,-68.16274,-122.2847,-110.4773,-88.41026,0.001067912,-0.1257102,0.09433498,0,0.3,0,0,0,0,
6.38224E+17,-4.005194,40.09362,-1.073974,-13.61739,21.36299,41.17,-56.82663,-0.4675641,5.486608,-70.01617,-8.447793,-36.90935,0,0,0,-6.950633,-24.09405,-69.08062,-122.2847,-110.4773,-88.41026,0.001067912,-0.1257102,0.09433498,0,0.3,0,0,0,0,
6.38224E+17,1.908357,43.88089,0.3969035,-6.952079,19.67835,39.19238,-56.82663,-0.4675641,5.486608,-70.01617,-8.374548,-36.83611,0,0,0,3.231527,-17.56372,-71.36375,-122.2847,-110.4773,-88.41026,0.001067912,-0.1257102,0.09433498,0,0.3,0,0,0,0,
6.38224E+17,8.175306,47.92532,2.381421,-0.7994855,17.55424,36.6288,-56.82663,-0.4675641,5.486608,-70.01617,-8.447793,-36.90935,0,0,0,13.4948,-10.90286,-74.41582,-122.2847,-110.4773,-88.41026,0.001067912,-0.1257102,0.09433498,0,0.3,0,0,0,0,
6.38224E+17,15.19618,51.87623,4.996315,5.572844,14.62444,33.5525,-56.82663,-0.4675641,5.486608,-70.01617,-8.374548,-36.83611,0,0,0,24.62372,-4.589666,-77.69574,-122.2847,-110.4773,-88.41026,0.001067912,-0.1257102,0.09433498,0,0.3,0,0,0,0,
6.38224E+17,18.89509,53.65298,6.630623,8.722386,12.86655,31.64813,-56.82663,-0.4675641,5.486608,-70.01617,-8.447793,-36.90935,0,0,0,30.58012,-1.702339,-79.00778,-122.2847,-110.4773,-88.41026,0.001067912,-0.1257102,0.09433498,0,0.3,0,0,0,0,
6.38224E+17,26.19868,56.71552,10.29614,15.60743,9.277537,27.47315,-56.82663,-0.4675641,5.486608,-70.01617,-8.374548,-36.90935,0,0,0,42.83132,3.622066,-81.30019,-122.2847,-110.4773,-88.41026,0.001067912,-0.1257102,0.09433498,0,0.3,0,0,0,0,
6.38224E+17,32.65411,58.67929,13.84493,23.15168,5.468789,23.07844,-56.82663,-0.4675641,5.486608,-70.01617,-8.374548,-36.90935,0,0,0,54.61975,7.791263,-83.1209,-122.2847,-110.4773,-88.41026,0.001067912,-0.1257102,0.09433498,0,0.3,0,0,0,0,
6.38224E+17,38.02578,59.3105,16.81003,30.76918,2.246002,18.24426,-56.82663,-0.4675641,5.486608,-70.01617,-8.374548,-36.83611,0,0,0,65.68246,10.37197,-84.35819,-122.2847,-110.4773,-88.41026,0.001067912,-0.1257102,0.09433498,0,0.3,0,0,0,0,
6.38224E+17,40.19329,59.26375,18.11748,34.3582,1.000834,15.90041,-56.82663,-0.4675641,5.486608,-70.01617,-8.447793,-36.90935,0,0,0,70.74579,11.22957,-84.61378,-122.2847,-110.4773,-88.41026,0.001067912,-0.1257102,0.09433498,0,0.3,0,0,0,0,
6.38224E+17,43.86865,58.95983,21.01254,40.80377,-0.8302955,11.28597,-56.82663,-0.4675641,5.486608,-70.01617,-8.447793,-36.83611,0,0,0,80.78808,13.12259,-84.30677,-122.2847,-110.4773,-88.41026,0.001067912,-0.1257102,0.09433498,0,0.3,0,0,0,0,
6.38224E+17,46.67228,58.42213,24.00099,46.29716,-1.855728,7.037747,-56.82663,-0.4675641,5.486608,-70.01617,-8.374548,-36.83611,0,0,0,90.25365,15.13442,-83.21679,-122.2847,-110.4773,-88.41026,0.001067912,-0.1257102,0.09433498,0,0.3,0,0,0,0,
6.38224E+17,47.82672,57.93119,25.49521,48.86074,-2.148709,4.986883,-56.82663,-0.4675641,5.486608,-70.01617,-8.447793,-36.90935,0,0,0,95.01064,15.98772,-82.28033,-122.2847,-110.4773,-88.41026,0.001067912,-0.1257102,0.09433498,0,0.3,0,0,0,0,
6.38224E+17,49.6644,56.24796,28.04007,53.54843,-2.295199,0.8119082,-56.82663,-0.4675641,5.486608,-70.01617,-8.447793,-36.90935,0,0,0,104.2594,16.52658,-79.82014,-122.2847,-110.4773,-88.41026,0.001067912,-0.1257102,0.09433498,0,0.3,0,0,0,0,
6.38224E+17,50.86596,53.76987,29.93119,57.28393,-1.782483,-2.264389,-56.82663,-0.4675641,5.486608,-70.01617,-8.374548,-36.83611,0,0,0,112.7439,15.35225,-76.61419,-122.2847,-110.4773,-88.41026,0.001067912,-0.1257102,0.09433498,0,0.3,0,0,0,0,
6.38224E+17,52.18531,49.42152,31.33203,61.16593,-0.02459868,-4.754725,-56.82663,-0.4675641,5.486608,-70.01617,-8.374548,-36.83611,0,0,0,123.3062,10.72808,-72.65324,-122.2847,-110.4773,-88.41026,0.001067912,-0.1257102,0.09433498,0,0.3,0,0,0,0,
6.38224E+17,53.00991,46.19533,31.65889,62.92381,1.66004,-5.413931,-56.82663,-0.4675641,5.486608,-70.01617,-8.374548,-36.90935,0,0,0,129.6317,6.083296,-70.70064,-122.2847,-110.4773,-88.41026,0.001067912,-0.1257102,0.09433498,0,0.3,0,0,0,0,
6.38224E+17,53.66959,43.64711,31.65889,63.94925,3.051698,-5.633667,-56.82663,-0.4675641,5.486608,-70.01617,-8.374548,-36.90935,0,0,0,134.121,1.884222,-69.71873,-122.2847,-110.4773,-88.41026,0.001067912,-0.1257102,0.09433498,0,0.3,0,0,0,0,
6.38224E+17,54.98895,38.34025,31.63554,65.78037,6.347731,-5.926647,-56.82663,-0.4675641,5.486608,-70.01617,-8.447793,-36.83611,0,0,0,142.9521,-7.463382,-68.2128,-122.2847,-110.4773,-88.41026,0.001067912,-0.1257102,0.09433498,0,0.3,0,0,0,0,
6.38224E+17,56.16695,32.61259,31.63554,67.09879,10.22972,-6.073137,-56.82663,-0.4675641,5.486608,-70.01617,-8.374548,-36.83611,0,0,0,151.4044,-18.31464,-66.86708,-122.2847,-110.4773,-88.41026,0.001067912,-0.1257102,0.09433498,0,0.3,0,0,0,0,
6.38224E+17,56.23763,29.7137,31.6122,67.46501,12.20734,-6.073137,-56.82663,-0.4675641,5.486608,-70.01617,-8.447793,-36.90935,0,0,0,154.3932,-24.11581,-65.13953,-122.2847,-110.4773,-88.41026,0.001067912,-0.1257102,0.09433498,0,0.3,0,0,0,0,
6.38224E+17,56.26119,23.44834,31.86902,67.39177,16.96828,-5.999893,-56.82663,-0.4675641,5.486608,-70.01617,-8.447793,-36.83611,0,0,0,160.2816,-36.83556,-61.29853,-122.2847,-110.4773,-88.41026,0.001067912,-0.1257102,0.09433498,0,0.3,0,0,0,0,
6.38224E+17,56.26119,18.11811,32.56944,66.58607,22.16869,-5.926647,-56.82663,-0.4675641,5.486608,-70.01617,-8.374548,-36.83611,0,0,0,165.0876,-47.56058,-58.08858,-122.2847,-110.4773,-88.41026,0.001067912,-0.1257102,0.09433498,0,0.3,0,0,0,0,
6.38224E+17,56.28475,13.95679,33.40994,65.19441,27.07611,-5.926647,-56.82663,-0.4675641,5.486608,-70.01617,-8.447793,-36.83611,0,0,0,168.7229,-55.80154,-55.76091,-122.2847,-110.4773,-88.41026,0.001067912,-0.1257102,0.09433498,0,0.3,0,0,0,0,
6.38224E+17,56.28475,12.4372,33.83019,64.53521,28.98049,-5.926647,-56.82663,-0.4675641,5.486608,-70.01617,-8.374548,-36.83611,0,0,0,170.072,-58.70316,-54.86066,-122.2847,-110.4773,-88.41026,0.001067912,-0.1257102,0.09433498,0,0.3,0,0,0,0,
6.38224E+17,56.28475,10.12276,34.36718,63.21679,32.27652,-6.146383,-56.82663,-0.4675641,5.486608,-70.01617,-8.447793,-36.90935,0,0,0,171.8092,-63.28472,-53.70142,-122.2847,-110.4773,-88.41026,0.001067912,-0.1257102,0.09433498,0,0.3,0,0,0,0,
6.38224E+17,56.23763,8.579801,34.15705,61.97163,34.54712,-6.219628,-56.82663,-0.4675641,5.486608,-70.01617,-8.374548,-36.90935,0,0,0,171.8639,-67.10329,-53.46051,-122.2847,-110.4773,-88.41026,0.001067912,-0.1257102,0.09433498,0,0.3,0,0,0,0,
6.38224E+17,56.21407,7.971967,33.64341,61.45891,35.49931,-6.219628,-56.82663,-0.4675641,5.486608,-70.01617,-8.447793,-36.83611,0,0,0,171.1612,-69.16998,-53.82838,-122.2847,-110.4773,-88.41026,0.001067912,-0.1257102,0.09433498,0,0.3,0,0,0,0,
6.38224E+17,56.09627,5.680903,30.70166,60.43347,37.33044,-6.073137,-56.82663,-0.4675641,5.486608,-70.01617,-8.447793,-36.83611,0,0,0,166.642,-78.10928,-56.35548,-122.2847,-110.4773,-88.41026,0.001067912,-0.1257102,0.09433498,0,0.3,0,0,0,0,
6.38224E+17,55.97847,4.909423,29.79111,60.21374,37.55017,-5.926647,-56.82663,-0.4675641,5.486608,-70.01617,-8.447793,-36.83611,0,0,0,165.0314,-80.96461,-56.94467,-122.2847,-110.4773,-88.41026,0.001067912,-0.1257102,0.09433498,0,0.3,0,0,0,0,
6.38224E+17,55.20099,2.641737,27.50308,59.55453,38.13613,-5.633667,-56.82663,-0.4675641,5.486608,-70.01617,-8.447793,-36.90935,0,0,0,159.9526,-88.78339,-57.18414,-122.2847,-110.4773,-88.41026,0.001067912,-0.1257102,0.09433498,0,0.3,0,0,0,0,
6.38224E+17,54.25859,-0.0233782,25.02827,58.16287,38.94183,-5.413931,-56.82663,-0.4675641,5.486608,-70.01617,-8.374548,-36.83611,0,0,0,154.0256,-97.53273,-57.50251,-122.2847,-110.4773,-88.41026,0.001067912,-0.1257102,0.09433498,0,0.3,0,0,0,0,
6.38224E+17,53.33975,-1.16891,22.10986,56.40499,39.96726,-5.413931,-56.82663,-0.4675641,5.486608,-70.01617,-8.447793,-36.90935,0,0,0,147.2123,-102.9143,-58.78011,-122.2847,-110.4773,-88.41026,0.001067912,-0.1257102,0.09433498,0,0.3,0,0,0,0,
6.38224E+17,53.15127,-0.9585064,19.77514,55.67254,40.47998,-5.560421,-56.82663,-0.4675641,5.486608,-70.01617,-8.374548,-36.83611,0,0,0,142.7976,-104.3668,-61.3342,-122.2847,-110.4773,-88.41026,0.001067912,-0.1257102,0.09433498,0,0.3,0,0,0,0,
6.38224E+17,52.23243,-1.122154,18.00074,54.57386,40.99269,-5.999893,-56.82663,-0.4675641,5.486608,-70.01617,-8.374548,-36.90935,0,0,0,137.969,-106.0844,-61.45528,-122.2847,-110.4773,-88.41026,0.001067912,-0.1257102,0.09433498,0,0.3,0,0,0,0,
6.38224E+17,51.05444,-1.098776,16.92677,53.91465,41.35892,-6.146383,-56.82663,-0.4675641,5.486608,-70.01617,-8.447793,-36.90935,0,0,0,133.8887,-106.7801,-60.13951,-122.2847,-110.4773,-88.41026,0.001067912,-0.1257102,0.09433498,0,0.3,0,0,0,0,
6.38224E+17,50.32408,-1.098776,16.45982,53.76817,41.43217,-6.219628,-56.82663,-0.4675641,5.486608,-70.01617,-8.447793,-36.90935,0,0,0,131.6973,-107.0923,-59.10624,-122.2847,-110.4773,-88.41026,0.001067912,-0.1257102,0.09433498,0,0.3,0,0,0,0,
6.38224E+17,48.22724,-1.098776,15.50258,53.62167,41.57866,-6.292873,-56.82663,-0.4675641,5.486608,-70.01617,-8.447793,-36.90935,0,0,0,126.0148,-107.7056,-55.78756,-122.2847,-110.4773,-88.41026,0.001067912,-0.1257102,0.09433498,0,0.3,0,0,0,0,
6.38224E+17,46.27176,-1.098776,14.21848,53.54843,41.72515,-5.780157,-56.82663,-0.4675641,5.486608,-69.94292,-8.447793,-36.90935,0,0,0,120.013,-108.4721,-53.54983,-122.2847,-110.4773,-88.41026,0.001067912,-0.1257102,0.09433498,0,0.3,0,0,0,0,
6.38224E+17,44.85817,-1.098776,12.841,53.47519,41.79839,-4.901215,-56.82663,-0.4675641,5.486608,-70.01617,-8.447793,-36.83611,0,0,0,114.9459,-109.2221,-52.83356,-122.2847,-110.4773,-88.41026,0.001067912,-0.1257102,0.09433498,0,0.3,0,0,0,0,
6.38224E+17,42.47861,-1.098776,10.03932,52.88922,42.09137,-2.85035,-56.82663,-0.4675641,5.486608,-70.01617,-8.447793,-36.90935,0,0,0,105.7351,-110.5153,-52.87383,-122.2847,-110.4773,-88.41026,0.001067912,-0.1257102,0.09433498,0,0.3,0,0,0,0,
6.38224E+17,39.76921,-1.075397,6.817402,51.93703,42.67733,-0.5065048,-56.82663,-0.4675641,5.486608,-70.01617,-8.374548,-36.90935,0,0,0,95.41455,-111.5599,-53.7047,-122.2847,-110.4773,-88.41026,0.001067912,-0.1257102,0.09433498,0,0.3,0,0,0,0,
6.38224E+17,36.8949,-0.8649935,3.198575,50.32565,43.48303,1.764095,-56.82663,-0.4675641,5.486608,-69.94292,-8.447793,-36.90935,0,0,0,84.51431,-111.8054,-55.76664,-122.2847,-110.4773,-88.41026,0.001067912,-0.1257102,0.09433498,0,0.3,0,0,0,0,
6.38224E+17,34.02058,-0.09351282,-0.8171543,48.20153,44.43522,4.107941,-56.82663,-0.4675641,5.486608,-69.94292,-8.447793,-36.83611,0,0,0,73.54396,-110.2041,-59.40105,-122.2847,-110.4773,-88.41026,0.001067912,-0.1257102,0.09433498,0,0.3,0,0,0,0,
6.38224E+17,32.81903,0.5844551,-2.638241,47.02961,45.02118,5.060128,-56.82663,-0.4675641,5.486608,-69.94292,-8.374548,-36.83611,0,0,0,68.9435,-108.4984,-61.44861,-122.2847,-110.4773,-88.41026,0.001067912,-0.1257102,0.09433498,0,0.3,0,0,0,0,
6.38224E+17,30.72219,2.665115,-5.603344,44.53928,45.90012,6.744767,-56.82663,-0.4675641,5.486608,-69.94292,-8.447793,-36.90935,0,0,0,61.39979,-103.1623,-65.03214,-122.2847,-110.4773,-88.41026,0.001067912,-0.1257102,0.09433498,0,0.3,0,0,0,0,
6.38224E+17,29.37927,5.914686,-7.704598,42.34192,46.41284,8.136425,-56.82663,-0.4675641,5.486608,-69.94292,-8.447793,-36.83611,0,0,0,56.30114,-95.05479,-68.347,-122.2847,-110.4773,-88.41026,0.001067912,-0.1257102,0.09433498,0,0.3,0,0,0,0,
6.38224E+17,28.88451,10.12276,-8.848614,40.65728,45.90012,8.942122,-56.82663,-0.4675641,5.486608,-69.94292,-8.374548,-36.83611,0,0,0,53.50298,-84.97559,-71.36757,-122.2847,-110.4773,-88.41026,0.001067912,-0.1257102,0.09433498,0,0.3,0,0,0,0,
6.38224E+17,28.88451,12.7645,-8.96535,39.92483,45.16767,9.161857,-56.82663,-0.4675641,5.486608,-69.94292,-8.374548,-36.83611,0,0,0,52.78413,-78.90792,-72.6706,-122.2847,-110.4773,-88.41026,0.001067912,-0.1257102,0.09433498,0,0.3,0,0,0,0,
6.38224E+17,28.93163,18.235,-8.918655,38.67966,42.89707,9.454838,-56.82663,-0.4675641,5.486608,-69.94292,-8.447793,-36.83611,0,0,0,51.26938,-66.66049,-75.59675,-122.2847,-110.4773,-88.41026,0.001067912,-0.1257102,0.09433498,0,0.3,0,0,0,0,
6.38224E+17,28.83739,24.28995,-8.311626,37.14151,39.52779,9.528083,-56.82663,-0.4675641,5.486608,-69.94292,-8.447793,-36.90935,0,0,0,49.32674,-53.74523,-78.76354,-122.2847,-110.4773,-88.41026,0.001067912,-0.1257102,0.09433498,0,0.3,0,0,0,0,
6.38224E+17,28.74315,27.42263,-7.587861,36.40906,37.62342,9.015368,-56.82663,-0.4675641,5.486608,-69.94292,-8.447793,-36.90935,0,0,0,48.45269,-47.41792,-80.00737,-122.2847,-110.4773,-88.41026,0.001067912,-0.1257102,0.09433498,0,0.3,0,0,0,0,
6.38224E+17,28.43687,33.59448,-5.579997,34.65118,33.15546,6.891257,-56.82663,-0.4675641,5.486608,-69.94292,-8.447793,-36.90935,0,0,0,46.71941,-35.58405,-82.07701,-122.2847,-110.4773,-88.41026,0.001067912,-0.1257102,0.09433498,0,0.3,0,0,0,0,
6.38224E+17,27.84787,39.46241,-3.291965,32.89329,28.39453,3.741715,-56.82663,-0.4675641,5.486608,-69.94292,-8.374548,-36.90935,0,0,0,44.5144,-25.02646,-84.09166,-122.2847,-110.4773,-88.41026,0.001067912,-0.1257102,0.09433498,0,0.3,0,0,0,0,
6.38224E+17,26.55208,46.3356,-0.6537234,30.54945,22.46167,-2.630615,-56.82663,-0.4675641,5.486608,-69.94292,-8.447793,-36.90935,0,0,0,40.47587,-13.52643,-87.35241,-122.2847,-110.4773,-88.41026,0.001067912,-0.1257102,0.09433498,0,0.3,0,0,0,0,
6.38224E+17,25.82172,48.65004,0.5136398,29.67051,20.48405,-5.413931,-56.82663,-0.4675641,5.486608,-69.94292,-8.447793,-36.90935,0,0,0,38.89398,-9.890349,-87.9717,-122.2847,-110.4773,-88.41026,0.001067912,-0.1257102,0.09433498,0,0.3,0,0,0,0,
6.38224E+17,23.44216,54.65824,4.669453,26.66745,14.99066,-12.006,-56.82663,-0.4675641,5.486608,-69.94292,-8.447793,-36.90935,0,0,0,35.00536,-0.781648,-87.62043,-122.2847,-110.4773,-88.41026,0.001067912,-0.1257102,0.09433498,0,0.3,0,0,0,0,
6.38224E+17,22.16992,60.73657,10.78644,23.6644,8.691576,-16.62044,-56.82663,-0.4675641,5.486608,-69.94292,-8.447793,-36.83611,0,0,0,34.01521,8.688152,-84.87305,-122.2847,-110.4773,-88.41026,0.001067912,-0.1257102,0.09433498,0,0.3,0,0,0,0,
6.38224E+17,19.95529,66.88504,16.99681,21.97976,1.953021,-20.20946,-56.82663,-0.4675641,5.486608,-69.94292,-8.447793,-36.83611,0,0,0,31.17,18.46912,-82.50272,-122.2847,-110.4773,-88.41026,0.001067912,-0.1257102,0.09433498,0,0.3,0,0,0,0,
6.38224E+17,18.23541,69.69042,19.86852,21.02757,-1.489502,-21.89409,-56.82663,-0.4675641,5.486608,-70.01617,-8.447793,-36.83611,0,0,0,28.66537,22.99742,-81.34504,-122.2847,-110.4773,-88.41026,0.001067912,-0.1257102,0.09433498,0,0.3,0,0,0,0,
6.38224E+17,13.31138,75.06741,25.86877,18.46399,-9.326735,-24.8239,-56.82663,-0.4675641,5.486608,-70.01617,-8.374548,-36.83611,0,0,0,21.30762,32.20897,-78.29229,-122.2847,-110.4773,-88.41026,0.001067912,-0.1257102,0.09433498,0,0.3,0,0,0,0,
6.38224E+17,7.680547,78.17671,30.67831,14.06928,-17.09072,-26.14231,-56.82663,-0.4675641,5.486608,-70.01617,-8.447793,-36.83611,0,0,0,12.74485,39.1838,-73.84543,-122.2847,-110.4773,-88.41026,0.001067912,-0.1257102,0.09433498,0,0.3,0,0,0,0,
6.38224E+17,4.617752,78.87806,32.54609,11.06623,-20.82623,-25.6296,-56.82663,-0.4675641,5.486608,-70.01617,-8.447793,-36.90935,0,0,0,7.846468,41.78696,-71.2041,-122.2847,-110.4773,-88.41026,0.001067912,-0.1257102,0.09433498,0,0.3,0,0,0,0,
6.38224E+17,-2.520916,78.90144,35.27772,1.983831,-27.56478,-20.06297,-56.82663,-0.4675641,5.486608,-69.94292,-8.374548,-36.90935,0,0,0,-4.516484,45.34411,-65.76486,-122.2847,-110.4773,-88.41026,0.001067912,-0.1257102,0.09433498,0,0.3,0,0,0,0,
6.38224E+17,-7.115108,78.0832,36.44508,-5.853402,-30.56783,-14.20335,-56.82663,-0.4675641,5.486608,-69.94292,-8.374548,-36.83611,0,0,0,-13.22269,46.55581,-62.41964,-122.2847,-110.4773,-88.41026,0.001067912,-0.1257102,0.09433498,0,0.3,0,0,0,0,
6.38224E+17,-12.4161,76.32983,37.49571,-17.49938,-32.69194,-5.267441,-56.82663,-0.4675641,5.486608,-69.94292,-8.447793,-36.90935,0,0,0,-24.22844,47.12275,-58.30018,-122.2847,-110.4773,-88.41026,0.001067912,-0.1257102,0.09433498,0,0.3,0,0,0,0,
6.38224E+17,-14.74854,75.1843,37.84592,-23.50549,-33.20466,-0.5065048,-56.82663,-0.4675641,5.486608,-69.94292,-8.447793,-36.90935,0,0,0,-29.50921,46.96492,-56.25451,-122.2847,-110.4773,-88.41026,0.001067912,-0.1257102,0.09433498,0,0.3,0,0,0,0,
6.38224E+17,-18.63593,72.75297,38.17278,-34.78524,-33.05817,8.722386,-56.82663,-0.4675641,5.486608,-70.01617,-8.447793,-36.90935,0,0,0,-38.97026,45.87077,-52.79198,-122.2847,-110.4773,-88.41026,0.001067912,-0.1257102,0.09433498,0,0.3,0,0,0,0,
6.38224E+17,-21.79296,70.53204,38.19613,-44.52685,-31.95949,16.0469,-56.82663,-0.4675641,5.486608,-69.94292,-8.447793,-36.90935,0,0,0,-47.1123,44.27652,-50.51888,-122.2847,-110.4773,-88.41026,0.001067912,-0.1257102,0.09433498,0,0.3,0,0,0,0,
6.38224E+17,-24.5966,68.428,38.19613,-52.21759,-30.20161,21.24731,-56.82663,-0.4675641,5.486608,-69.94292,-8.374548,-36.83611,0,0,0,-54.7282,42.56008,-48.79449,-122.2847,-110.4773,-88.41026,0.001067912,-0.1257102,0.09433498,0,0.3,0,0,0,0,
6.38224E+17,-27.09396,66.34734,38.14943,-58.95615,-28.0775,24.32361,-56.82663,-0.4675641,5.486608,-69.94292,-8.447793,-36.83611,0,0,0,-61.88261,40.6311,-47.38931,-122.2847,-110.4773,-88.41026,0.001067912,-0.1257102,0.09433498,0,0.3,0,0,0,0,
6.38224E+17,-28.29551,65.20181,38.0327,-61.88596,-26.90557,25.27579,-56.82663,-0.4675641,5.486608,-69.94292,-8.447793,-36.90935,0,0,0,-65.45662,39.36953,-46.76105,-122.2847,-110.4773,-88.41026,0.001067912,-0.1257102,0.09433498,0,0.3,0,0,0,0,
6.38224E+17,-30.98135,62.23278,37.70583,-68.18504,-23.90252,26.22798,-56.82663,-0.4675641,5.486608,-69.94292,-8.447793,-36.83611,0,0,0,-73.96214,35.84308,-45.16551,-122.2847,-110.4773,-88.41026,0.001067912,-0.1257102,0.09433498,0,0.3,0,0,0,0,
6.38224E+17,-32.81903,59.70793,37.26224,-72.06703,-21.77841,25.86176,-56.82663,-0.4675641,5.486608,-69.94292,-8.374548,-36.83611,0,0,0,-80.2149,32.36348,-43.97156,-122.2847,-110.4773,-88.41026,0.001067912,-0.1257102,0.09433498,0,0.3,0,0,0,0,
6.38224E+17,-33.85566,58.04808,36.60851,-73.97141,-20.38675,25.49553,-56.82663,-0.4675641,5.486608,-69.94292,-8.447793,-36.83611,0,0,0,-83.61682,29.45257,-43.7068,-122.2847,-110.4773,-88.41026,0.001067912,-0.1257102,0.09433498,0,0.3,0,0,0,0,
6.38224E+17,-35.8347,54.33094,34.71738,-76.53499,-17.31046,24.76308,-56.82663,-0.4675641,5.486608,-69.94292,-8.374548,-36.90935,0,0,0,-89.98547,22.07348,-43.7412,-122.2847,-110.4773,-88.41026,0.001067912,-0.1257102,0.09433498,0,0.3,0,0,0,0,
6.38224E+17,-37.76662,49.95922,33.2932,-77.78016,-14.08767,24.03063,-56.82663,-0.4675641,5.486608,-69.94292,-8.447793,-36.83611,0,0,0,-97.37128,13.97739,-42.66857,-122.2847,-110.4773,-88.41026,0.001067912,-0.1257102,0.09433498,0,0.3,0,0,0,0,
6.38224E+17,-38.5441,47.6214,32.82626,-78.43936,-12.47628,23.73765,-56.82663,-0.4675641,5.486608,-69.94292,-8.447793,-36.83611,0,0,0,-101.0506,9.800155,-41.51249,-122.2847,-110.4773,-88.41026,0.001067912,-0.1257102,0.09433498,0,0.3,0,0,0,0,
6.38224E+17,-39.43937,43.06265,32.31261,-79.24506,-8.960509,24.10387,-56.82663,-0.4675641,5.486608,-70.01617,-8.447793,-36.90935,0,0,0,-107.1732,1.701094,-38.05789,-122.2847,-110.4773,-88.41026,0.001067912,-0.1257102,0.09433498,0,0.3,0,0,0,0,
6.38224E+17,-39.86345,39.46241,32.26592,-79.17181,-6.177193,27.76613,-56.82663,-0.4675641,5.486608,-69.94292,-8.374548,-36.83611,0,0,0,-111.6172,-4.654528,-34.68418,-122.2847,-110.4773,-88.41026,0.001067912,-0.1257102,0.09433498,0,0.3,0,0,0,0,
6.38224E+17,-40.12262,37.7558,32.406,-78.80559,-5.078516,30.18322,-56.82663,-0.4675641,5.486608,-69.94292,-8.374548,-36.90935,0,0,0,-113.9953,-7.583796,-33.08459,-122.2847,-110.4773,-88.41026,0.001067912,-0.1257102,0.09433498,0,0.3,0,0,0,0,
6.38224E+17,-41.13569,34.38934,33.57337,-78.21963,-2.88116,35.23714,-56.82663,-0.4675641,5.486608,-69.94292,-8.447793,-36.83611,0,0,0,-120.9026,-12.43647,-29.93086,-122.2847,-110.4773,-88.41026,0.001067912,-0.1257102,0.09433498,0,0.3,0,0,0,0,
6.38224E+17,-41.86605,32.65935,34.74073,-78.43936,-1.416257,38.02045,-56.82663,-0.4675641,5.486608,-69.94292,-8.374548,-36.90935,0,0,0,-125.6417,-14.2675,-28.15301,-122.2847,-110.4773,-88.41026,0.001067912,-0.1257102,0.09433498,0,0.3,0,0,0,0,
6.38224E+17,-42.24301,31.7476,35.39445,-78.87884,-0.7570504,39.19238,-56.82663,-0.4675641,5.486608,-69.94292,-8.374548,-36.83611,0,0,0,-128.1588,-15.18889,-27.2236,-122.2847,-110.4773,-88.41026,0.001067912,-0.1257102,0.09433498,0,0.3,0,0,0,0,
6.38224E+17,-42.94981,30.15788,36.93538,-80.05076,0.5613627,40.95026,-56.82663,-0.4675641,5.486608,-69.94292,-8.447793,-36.90935,0,0,0,-133.1592,-16.24553,-25.30325,-122.2847,-110.4773,-88.41026,0.001067912,-0.1257102,0.09433498,0,0.3,0,0,0,0,
6.38224E+17,-43.70373,29.31627,38.68642,-82.02838,1.586795,41.8292,-56.82663,-0.4675641,5.486608,-69.94292,-8.447793,-36.83611,0,0,0,-137.9256,-15.44799,-24.03785,-122.2847,-110.4773,-88.41026,0.001067912,-0.1257102,0.09433498,0,0.3,0,0,0,0,
6.38224E+17,-44.36341,29.26951,40.13395,-84.59196,2.319247,42.19543,-56.82663,-0.4675641,5.486608,-69.94292,-8.447793,-36.83611,0,0,0,-141.4352,-13.4041,-23.73649,-122.2847,-110.4773,-88.41026,0.001067912,-0.1257102,0.09433498,0,0.3,0,0,0,0,
6.38224E+17,-45.04665,29.26951,41.93169,-86.86256,2.831963,42.34192,-56.82663,-0.4675641,5.486608,-69.94292,-8.374548,-36.83611,0,0,0,-145.3831,-10.65742,-23.20347,-122.2847,-110.4773,-88.41026,0.001067912,-0.1257102,0.09433498,0,0.3,0,0,0,0,
6.38224E+17,-45.42361,29.26951,42.98232,-88.10773,3.051698,42.19543,-56.82663,-0.4675641,5.486608,-70.01617,-8.374548,-36.83611,0,0,0,-147.6199,-9.006824,-22.89694,-122.2847,-110.4773,-88.41026,0.001067912,-0.1257102,0.09433498,0,0.3,0,0,0,0,
6.38224E+17,-46.22464,29.26951,44.71001,-91.25727,3.710905,41.31649,-56.82663,-0.4675641,5.486608,-69.94292,-8.374548,-36.90935,0,0,0,-151.7328,-6.221458,-22.9687,-122.2847,-110.4773,-88.41026,0.001067912,-0.1257102,0.09433498,0,0.3,0,0,0,0,
6.38224E+17,-47.28484,29.22275,45.62056,-94.69979,4.443357,39.70509,-56.82663,-0.4675641,5.486608,-69.94292,-8.374548,-36.90935,0,0,0,-155.5337,-4.813609,-24.75145,-122.2847,-110.4773,-88.41026,0.001067912,-0.1257102,0.09433498,0,0.3,0,0,0,0,
6.38224E+17,-48.53352,28.52141,45.6906,-97.48311,5.102563,36.70204,-56.82663,-0.4675641,5.486608,-69.94292,-8.374548,-36.90935,0,0,0,-159.302,-6.126434,-27.57756,-122.2847,-110.4773,-88.41026,0.001067912,-0.1257102,0.09433498,0,0.3,0,0,0,0,
6.38224E+17,-49.16964,27.67979,45.62056,-98.87477,5.468789,34.3582,-56.82663,-0.4675641,5.486608,-69.94292,-8.374548,-36.90935,0,0,0,-161.4669,-7.970875,-28.8261,-122.2847,-110.4773,-88.41026,0.001067912,-0.1257102,0.09433498,0,0.3,0,0,0,0,
6.38224E+17,-50.22984,25.10819,44.96684,-101.2186,6.933692,29.0113,-56.82663,-0.4675641,5.486608,-70.01617,-8.447793,-36.83611,0,0,0,-165.2431,-14.413,-30.82038,-122.2847,-110.4773,-88.41026,0.001067912,-0.1257102,0.09433498,0,0.3,0,0,0,0,
6.38224E+17,-51.17223,21.48457,42.86558,-102.6103,8.984557,23.6644,-56.82663,-0.4675641,5.486608,-69.94292,-8.447793,-36.83611,0,0,0,-167.3364,-25.54959,-33.67454,-122.2847,-110.4773,-88.41026,0.001067912,-0.1257102,0.09433498,0,0.3,0,0,0,0,
6.38224E+17,-51.50208,19.21688,41.18458,-102.4638,10.22972,21.32055,-56.82663,-0.4675641,5.486608,-70.01617,-8.447793,-36.83611,0,0,0,-167.2708,-33.1167,-35.30669,-122.2847,-110.4773,-88.41026,0.001067912,-0.1257102,0.09433498,0,0.3,0,0,0,0,
6.38224E+17,-51.78479,13.79314,36.60851,-100.1199,13.08629,17.87803,-56.82663,-0.4675641,5.486608,-70.01617,-8.447793,-36.83611,0,0,0,-164.231,-51.90097,-39.04232,-122.2847,-110.4773,-88.41026,0.001067912,-0.1257102,0.09433498,0,0.3,0,0,0,0,
6.38224E+17,-51.80835,6.990083,30.81839,-95.57873,16.96828,16.12015,-56.82663,-0.4675641,5.486608,-70.01617,-8.374548,-36.83611,0,0,0,-157.7211,-74.94201,-44.27295,-122.2847,-110.4773,-88.41026,0.001067912,-0.1257102,0.09433498,0,0.3,0,0,0,0,
6.38224E+17,-51.66699,3.506731,28.06341,-92.79542,19.09239,15.68068,-56.82663,-0.4675641,5.486608,-70.01617,-8.447793,-36.90935,0,0,0,-153.6164,-86.16525,-46.88729,-122.2847,-110.4773,-88.41026,0.001067912,-0.1257102,0.09433498,0,0.3,0,0,0,0,
6.38224E+17,-50.9602,-1.309179,23.20718,-86.71607,23.92657,15.09472,-56.82663,-0.4675641,5.486608,-69.94292,-8.374548,-36.90935,0,0,0,-144.3612,-102.2568,-51.28249,-122.2847,-110.4773,-88.41026,0.001067912,-0.1257102,0.09433498,0,0.3,0,0,0,0,
6.38224E+17,-50.98376,-0.7714807,17.02016,-82.24812,27.14936,14.87498,-56.82663,-0.4675641,5.486608,-69.94292,-8.374548,-36.90935,0,0,0,-133.9263,-105.955,-59.83573,-122.2847,-110.4773,-88.41026,0.001067912,-0.1257102,0.09433498,0,0.3,0,0,0,0,
