zeyangz2/DNN_classification_different_people_hand/data/srikar_right_19.csv
Timestamp,Therapist joint angle 0,Therapist joint angle 1,Therapist joint angle 2,Therapist joint angle 3,Therapist joint angle 4,Therapist joint angle 5,Patient joint angle 0,Patient joint angle 1,Patient joint angle 2,Patient joint angle 3,Patient joint angle 4,Patient joint angle 5,Virtual joint angle 0,Virtual joint angle 1,Virtual joint angle 2,Therapist position x,Therapist position y,Therapist position z,Patient position x,Patient position y,Patient position z,Virtual position x,Virtual position y,Virtual position z,Assistive Force, Obstacle Force Magnitude, Therapist Constant Force, Patient Constant Force, Recovery Factor, Assistance Level,label
6.38225E+17,0,0,0,0,0,0,0,0,0,0,0,0,0,0,0,0,0,0,0,0,0,0,0,0,0,0.3,0,0,0,0,2
6.38225E+17,-8.104627,28.82533,22.67019,4.913638,42.09137,0.6654179,0.02355996,-0.8883717,-10.62301,-5.706912,-0.61056,50.61862,0,0,0,-23.71637,-35.40371,-1.806513,0.04471847,-109.7821,-59.59858,0.001067912,-0.1257102,0.09433498,0,0.3,0,0,0.00011269,0,
6.38225E+17,-8.104627,28.82533,22.67019,4.840393,42.09137,0.4456824,0.02355996,-0.8883717,-10.62301,-5.706912,-0.61056,50.61862,0,0,0,-23.71637,-35.40371,-1.806513,0.04471847,-109.7821,-59.59858,0.001067912,-0.1257102,0.09433498,0,0.3,0,0,0.00011269,0,
6.38225E+17,-8.104627,28.82533,22.67019,4.840393,42.09137,0.2259469,0.02355996,-0.8883717,-10.62301,-5.706912,-0.61056,50.61862,0,0,0,-23.71637,-35.40371,-1.806513,0.04471847,-109.7821,-59.59858,0.001067912,-0.1257102,0.09433498,0,0.3,0,0,0.00011269,0,
6.38225E+17,-8.104627,28.82533,22.67019,4.840393,42.16462,0.1527017,0.02355996,-0.8883717,-10.62301,-5.706912,-0.61056,50.61862,0,0,0,-23.71637,-35.40371,-1.806513,0.04471847,-109.7821,-59.59858,0.001067912,-0.1257102,0.09433498,0,0.3,0,0,0.00011269,0,
6.38225E+17,-8.104627,28.82533,22.67019,4.840393,42.16462,0.006211365,0.02355996,-0.8883717,-10.62301,-5.780157,-0.61056,50.61862,0,0,0,-23.71637,-35.40371,-1.806513,0.04471847,-109.7821,-59.59858,0.001067912,-0.1257102,0.09433498,0,0.3,0,0,0.00011269,0,
6.38225E+17,-8.104627,28.82533,22.67019,4.767147,42.16462,-0.2135241,0.02355996,-0.8883717,-10.62301,-5.706912,-0.61056,50.61862,0,0,0,-23.71637,-35.40371,-1.806513,0.04471847,-109.7821,-59.59858,0.001067912,-0.1257102,0.09433498,0,0.3,0,0,0.00011269,0,
6.38225E+17,-8.104627,28.82533,22.67019,4.767147,42.23786,-0.3600145,0.02355996,-0.8883717,-10.62301,-5.706912,-0.61056,50.61862,0,0,0,-23.71637,-35.40371,-1.806513,0.04471847,-109.7821,-59.59858,0.001067912,-0.1257102,0.09433498,0,0.3,0,0,0.00011269,0,
6.38225E+17,-8.104627,28.82533,22.67019,4.767147,42.23786,-0.3600145,0.02355996,-0.8883717,-10.62301,-5.706912,-0.61056,50.61862,0,0,0,-23.71637,-35.40371,-1.806513,0.04471847,-109.7821,-59.59858,0.001067912,-0.1257102,0.09433498,0,0.3,0,0,0.00011269,0,
6.38225E+17,-8.104627,28.82533,22.67019,4.767147,42.23786,-0.4332596,0.02355996,-0.8883717,-10.62301,-5.706912,-0.61056,50.61862,0,0,0,-23.71637,-35.40371,-1.806513,0.04471847,-109.7821,-59.59858,0.001067912,-0.1257102,0.09433498,0,0.3,0,0,0.00011269,0,
6.38225E+17,-8.104627,28.82533,22.67019,4.840393,42.23786,-0.4332596,0.02355996,-0.8883717,-10.62301,-5.706912,-0.61056,50.61862,0,0,0,-23.71637,-35.40371,-1.806513,0.04471847,-109.7821,-59.59858,0.001067912,-0.1257102,0.09433498,0,0.3,0,0,0.00011269,0,
6.38225E+17,-8.104627,28.82533,22.67019,4.840393,42.23786,-0.5065048,0.02355996,-0.8883717,-10.62301,-5.706912,-0.61056,50.61862,0,0,0,-23.71637,-35.40371,-1.806513,0.04471847,-109.7821,-59.59858,0.001067912,-0.1257102,0.09433498,0,0.3,0,0,0.00011269,0,
6.38225E+17,-8.081067,28.82533,22.64685,4.767147,42.16462,-0.7262403,0.02355996,-0.8883717,-10.62301,-5.706912,-0.61056,50.61862,0,0,0,-23.64083,-35.42464,-1.846421,0.04471847,-109.7821,-59.59858,0.001067912,-0.1257102,0.09433498,0,0.3,0,0,0.000142609,0,
6.38225E+17,-8.057507,28.82533,22.55346,4.767147,42.23786,-1.019221,0.02355996,-0.8883717,-10.62301,-5.706912,-0.61056,50.61862,0,0,0,-23.54424,-35.50817,-2.035396,0.04471847,-109.7821,-59.59858,0.001067912,-0.1257102,0.09433498,0,0.3,0,0,0.000332179,0,
6.38225E+17,-8.033947,28.80194,22.48342,4.767147,42.23786,-1.238957,0.02355996,-0.8883717,-10.62301,-5.706912,-0.61056,50.61862,0,0,0,-23.45847,-35.61828,-2.14887,0.04471847,-109.7821,-59.59858,0.001067912,-0.1257102,0.09433498,0,0.3,0,0,0.000658469,0,
6.38225E+17,-8.010387,28.77857,22.43672,4.840393,42.16462,-1.238957,0.02355996,-0.8883717,-10.62301,-5.706912,-0.61056,50.61862,0,0,0,-23.37978,-35.70748,-2.212743,0.04471847,-109.7821,-59.59858,0.001067912,-0.1257102,0.09433498,0,0.3,0,0,0.000865629,0,
6.38225E+17,-7.986827,28.6383,22.24994,4.986883,42.23786,-0.7262403,0.02355996,-0.8883717,-10.62301,-5.706912,-0.61056,50.61862,0,0,0,-23.27739,-36.15907,-2.446017,0.04471847,-109.7821,-59.59858,0.001067912,-0.1257102,0.09433498,0,0.3,0,0,0.001501874,0,
6.38225E+17,-7.963267,28.21749,21.85304,5.060128,42.82383,0.8119082,0.02355996,-0.8883717,-10.62301,-5.706912,-0.61056,50.61862,0,0,0,-23.15515,-37.36717,-2.822636,0.04471847,-109.7821,-59.59858,0.001067912,-0.1257102,0.09433498,0,0.3,0,0,0.002711697,0,
6.38225E+17,-7.939706,27.74993,21.43279,5.060128,43.33654,2.496547,0.02355996,-0.8883717,-10.62301,-5.706912,-0.61056,50.61862,0,0,0,-23.03203,-38.68888,-3.207834,0.04471847,-109.7821,-59.59858,0.001067912,-0.1257102,0.09433498,0,0.3,0,0,0.003830034,0,
6.38225E+17,-7.869027,26.37061,20.59229,4.767147,44.58171,7.110993,0.02355996,-0.8883717,-10.62301,-5.706912,-0.61056,50.61862,0,0,0,-22.77822,-42.24902,-3.541808,0.04471847,-109.7821,-59.59858,0.001067912,-0.1257102,0.09433498,0,0.3,0,0,0.007292551,0,
6.38225E+17,-7.798347,24.66401,20.26543,3.888205,46.33959,12.23815,0.02355996,-0.8883717,-10.62301,-5.706912,-0.61056,50.61862,0,0,0,-22.71033,-46.09893,-2.524965,0.04471847,-109.7821,-59.59858,0.001067912,-0.1257102,0.09433498,0,0.3,0,0,0.01180862,0,
6.38225E+17,-7.727668,22.86388,20.102,1.69085,48.53695,15.68068,0.02355996,-0.8883717,-10.62301,-5.706912,-0.61056,50.61862,0,0,0,-22.68475,-50.06439,-1.177965,0.04471847,-109.7821,-59.59858,0.001067912,-0.1257102,0.09433498,0,0.3,0,0,0.01690242,0,
6.38225E+17,-7.609867,21.08714,19.49497,-1.605182,51.02729,17.43856,0.02355996,-0.8883717,-10.62301,-5.706912,-0.61056,50.61862,0,0,0,-22.36988,-54.37751,-0.9155121,0.04471847,-109.7821,-59.59858,0.001067912,-0.1257102,0.09433498,0,0.3,0,0,0.02286752,0,
6.38225E+17,-7.562747,20.22215,18.8179,-3.875783,52.27245,18.02452,0.02355996,-0.8883717,-10.62301,-5.780157,-0.61056,50.61862,0,0,0,-22.12972,-56.77837,-1.668833,0.04471847,-109.7821,-59.59858,0.001067912,-0.1257102,0.09433498,0,0.3,0,0,0.02638862,0,
6.38225E+17,-7.727668,19.49742,16.48317,-9.22268,54.32331,18.61049,0.02355996,-0.8883717,-10.62301,-5.706912,-0.61056,50.61862,0,0,0,-21.99024,-60.01225,-6.296067,0.04471847,-109.7821,-59.59858,0.001067912,-0.1257102,0.09433498,0,0.3,0,0,0.03493607,0,
6.38225E+17,-7.798347,19.21688,14.03171,-15.59501,55.42199,18.97671,0.02355996,-0.8883717,-10.62301,-5.706912,-0.61056,50.61862,0,0,0,-21.47268,-62.12959,-11.56201,0.04471847,-109.7821,-59.59858,0.001067912,-0.1257102,0.09433498,0,0.3,0,0,0.04540403,0,
6.38225E+17,-7.798347,18.88959,12.56083,-20.2827,55.93471,19.85565,0.02355996,-0.8883717,-10.62301,-5.706912,-0.61056,50.61862,0,0,0,-21.05438,-63.6369,-14.61629,0.04471847,-109.7821,-59.59858,0.001067912,-0.1257102,0.09433498,0,0.3,0,0,0.05656698,0,
6.38225E+17,-7.798347,18.79608,12.16393,-21.82085,56.0812,21.02757,0.02355996,-0.8883717,-10.62301,-5.706912,-0.61056,50.61862,0,0,0,-20.94148,-64.04064,-15.44063,0.04471847,-109.7821,-59.59858,0.001067912,-0.1257102,0.09433498,0,0.3,0,0,0.06209498,0,
6.38225E+17,-7.751227,18.49216,11.67363,-23.50549,56.37418,25.78851,0.02355996,-0.8883717,-10.62301,-5.706912,-0.61056,50.61862,0,0,0,-20.69564,-64.94653,-16.3057,0.04471847,-109.7821,-59.59858,0.001067912,-0.1257102,0.09433498,0,0.3,0,0,0.07288601,0,
6.38225E+17,-7.680547,18.235,11.46351,-22.62654,56.37418,34.3582,0.02355996,-0.8883717,-10.62301,-5.706912,-0.61056,50.61862,0,0,0,-20.46923,-65.61263,-16.56823,0.04471847,-109.7821,-59.59858,0.001067912,-0.1257102,0.09433498,0,0.3,0,0,0.08315239,0,
6.38225E+17,-7.609867,18.18824,11.39347,-21.23489,56.44743,39.85158,0.02355996,-0.8883717,-10.62301,-5.706912,-0.61056,50.61862,0,0,0,-20.26532,-65.7483,-16.66776,0.04471847,-109.7821,-59.59858,0.001067912,-0.1257102,0.09433498,0,0.3,0,0,0.08805859,0,
6.38225E+17,-7.468508,18.18824,11.39347,-16.18097,56.37418,55.4528,0.02355996,-0.8883717,-10.62301,-5.706912,-0.61056,50.61862,0,0,0,-19.89103,-65.7483,-16.61822,0.04471847,-109.7821,-59.59858,0.001067912,-0.1257102,0.09433498,0,0.3,0,0,0.09734013,0,
6.38225E+17,-7.421387,18.18824,11.39347,-9.002944,55.71497,74.35006,0.02355996,-0.8883717,-10.62301,-5.706912,-0.61056,50.61862,0,0,0,-19.76624,-65.7483,-16.60191,0.04471847,-109.7821,-59.59858,0.001067912,-0.1257102,0.09433498,0,0.3,0,0,0.1059646,0,
6.38225E+17,-7.444948,18.42202,11.90711,1.764095,53.22464,102.11,0.02355996,-0.8883717,-10.62301,-5.780157,-0.61056,50.61862,0,0,0,-19.9582,-64.99033,-15.61856,0.04471847,-109.7821,-59.59858,0.001067912,-0.1257102,0.09433498,0,0.3,0,0,0.1137132,0,
6.38225E+17,-7.492068,18.65581,12.3974,8.795631,50.58781,120.2748,0.02355996,-0.8883717,-10.62301,-5.706912,-0.61056,50.61862,0,0,0,-20.20669,-64.23425,-14.70054,0.04471847,-109.7821,-59.59858,0.001067912,-0.1257102,0.09433498,0,0.3,0,0,0.1204922,0,
6.38225E+17,-7.609867,18.84283,12.81765,13.1171,48.24397,130.0896,0.02355996,-0.8883717,-10.62301,-5.706912,-0.61056,50.61862,0,0,0,-20.63043,-63.60857,-13.93499,0.04471847,-109.7821,-59.59858,0.001067912,-0.1257102,0.09433498,0,0.3,0,0,0.1234592,0,
6.38225E+17,-7.963267,19.05324,13.58811,19.48943,43.77601,138.3663,0.02355996,-0.8883717,-10.62301,-5.706912,-0.61056,50.61862,0,0,0,-21.80228,-62.73586,-12.49373,0.04471847,-109.7821,-59.59858,0.001067912,-0.1257102,0.09433498,0,0.3,0,0,0.1286424,0,
6.38225E+17,-8.670066,19.14675,14.68543,25.49553,38.35587,139.8312,0.02355996,-0.8883717,-10.62301,-5.706912,-0.61056,50.61862,0,0,0,-24.0858,-61.90645,-10.39672,0.04471847,-109.7821,-59.59858,0.001067912,-0.1257102,0.09433498,0,0.3,0,0,0.1326944,0,
6.38225E+17,-9.753823,19.14675,15.66602,30.54945,31.98354,138.6593,0.02355996,-0.8883717,-10.62301,-5.706912,-0.61056,50.61862,0,0,0,-27.44218,-61.30902,-8.709774,0.04471847,-109.7821,-59.59858,0.001067912,-0.1257102,0.09433498,0,0.3,0,0,0.1356308,0,
6.38225E+17,-11.49726,19.14675,16.62325,34.28495,24.65902,133.8984,0.02355996,-0.8883717,-10.62301,-5.706912,-0.61056,50.61862,0,0,0,-32.71292,-60.68954,-7.52153,0.04471847,-109.7821,-59.59858,0.001067912,-0.1257102,0.09433498,0,0.3,0,0,0.1374958,0,
6.38225E+17,-13.7119,19.12337,17.51045,36.4823,17.04152,127.2331,0.02355996,-0.8883717,-10.62301,-5.706912,-0.61056,50.61862,0,0,0,-39.37551,-60.13494,-6.970806,0.04471847,-109.7821,-59.59858,0.001067912,-0.1257102,0.09433498,0,0.3,0,0,0.1382045,0,
6.38225E+17,-15.03126,19.09999,18.00074,37.14151,13.08629,124.3033,0.02355996,-0.8883717,-10.62301,-5.706912,-0.61056,50.61862,0,0,0,-43.36731,-59.83836,-6.853446,0.04471847,-109.7821,-59.59858,0.001067912,-0.1257102,0.09433498,0,0.3,0,0,0.1380745,0,
6.38225E+17,-17.90557,18.7727,18.95798,37.06827,5.029318,119.1761,0.02355996,-0.8883717,-10.62301,-5.706912,-0.61056,50.61862,0,0,0,-52.13666,-59.85274,-6.985426,0.04471847,-109.7821,-59.59858,0.001067912,-0.1257102,0.09433498,0,0.3,0,0,0.1366927,0,
6.38225E+17,-20.73277,18.11811,19.47162,35.67661,-2.441689,113.6095,0.02355996,-0.8883717,-10.62301,-5.706912,-0.5373149,50.61862,0,0,0,-60.60259,-60.90452,-8.246857,0.04471847,-109.7821,-59.59858,0.001067912,-0.1257102,0.09433498,0,0.3,0,0,0.1343607,0,
6.38225E+17,-22.09924,17.72068,19.47162,34.28495,-6.030703,110.5332,0.02355996,-0.8883717,-10.62301,-5.706912,-0.61056,50.61862,0,0,0,-64.51044,-61.78462,-9.473907,0.04471847,-109.7821,-59.59858,0.001067912,-0.1257102,0.09433498,0,0.3,0,0,0.132914,0,
6.38225E+17,-23.5364,17.27649,18.88794,31.35514,-10.5719,104.8933,0.02355996,-0.8883717,-10.62301,-5.706912,-0.61056,50.61862,0,0,0,-68.08662,-63.21687,-12.03316,0.04471847,-109.7821,-59.59858,0.001067912,-0.1257102,0.09433498,0,0.3,0,0,0.1299971,0,
6.38225E+17,-23.51284,17.20636,17.23028,28.35209,-13.57495,98.30123,0.02355996,-0.8883717,-10.62301,-5.706912,-0.61056,50.61862,0,0,0,-66.57833,-64.56871,-15.32411,0.04471847,-109.7821,-59.59858,0.001067912,-0.1257102,0.09433498,0,0.3,0,0,0.1278241,0,
6.38225E+17,-23.11232,17.20636,15.54928,27.25341,-14.38065,94.78546,0.02355996,-0.8883717,-10.62301,-5.706912,-0.61056,50.61862,0,0,0,-64.03373,-65.67262,-18.31445,0.04471847,-109.7821,-59.59858,0.001067912,-0.1257102,0.09433498,0,0.3,0,0,0.1274005,0,
6.38225E+17,-21.79296,17.20636,10.97322,25.78851,-14.67363,88.99909,0.02355996,-0.8883717,-10.62301,-5.706912,-0.61056,50.61862,0,0,0,-56.71465,-68.11506,-26.50273,0.04471847,-109.7821,-59.59858,0.001067912,-0.1257102,0.09433498,0,0.3,0,0,0.1284607,0,
6.38225E+17,-19.67257,17.20636,4.996315,24.68983,-12.8425,84.9706,0.02355996,-0.8883717,-10.62301,-5.706912,-0.61056,50.61862,0,0,0,-46.79212,-70.04651,-37.46725,0.04471847,-109.7821,-59.59858,0.001067912,-0.1257102,0.09433498,0,0.3,0,0,0.132404,0,
6.38225E+17,-15.76161,17.20636,-2.21799,24.10387,-8.228058,83.06623,0.02355996,-0.8883717,-10.62301,-5.706912,-0.61056,50.61862,0,0,0,-33.1996,-70.45329,-50.72435,0.04471847,-109.7821,-59.59858,0.001067912,-0.1257102,0.09433498,0,0.3,0,0,0.1391383,0,
6.38225E+17,-12.55746,17.20636,-5.673386,24.4701,-5.078516,83.5057,0.02355996,-0.8883717,-10.62301,-5.706912,-0.61056,50.54538,0,0,0,-24.82906,-69.89999,-56.88248,0.04471847,-109.7821,-59.59858,0.001067912,-0.1257102,0.09433498,0,0.3,0,0,0.147243,0,
6.38225E+17,-10.03654,17.20636,-7.471125,25.1293,-3.100896,84.3114,0.02355996,-0.8883717,-10.62301,-5.706912,-0.61056,50.61862,0,0,0,-19.17787,-69.42113,-59.99105,0.04471847,-109.7821,-59.59858,0.001067912,-0.1257102,0.09433498,0,0.3,0,0,0.1516052,0,
6.38225E+17,-3.369075,17.27649,-9.432296,28.13236,0.268382,87.24121,0.02355996,-0.8883717,-10.62301,-5.706912,-0.61056,50.61862,0,0,0,-6.198799,-68.5944,-63.05236,0.04471847,-109.7821,-59.59858,0.001067912,-0.1257102,0.09433498,0,0.3,0,0,0.1605707,0,
6.38225E+17,4.405713,17.34663,-8.871961,33.5525,2.319247,90.24426,0.02355996,-0.8883717,-10.62301,-5.706912,-0.61056,50.61862,0,0,0,8.197978,-68.646,-61.94646,0.04471847,-109.7821,-59.59858,0.001067912,-0.1257102,0.09433498,0,0.3,0,0,0.1692972,0,
6.38225E+17,8.646505,17.34663,-7.797987,37.58098,2.905208,91.70916,0.02355996,-0.8883717,-10.62301,-5.706912,-0.61056,50.61862,0,0,0,16.41569,-69.00832,-60.39899,0.04471847,-109.7821,-59.59858,0.001067912,-0.1257102,0.09433498,0,0.3,0,0,0.1732801,0,
6.38225E+17,15.76161,17.37,-4.902926,46.3704,3.564415,93.83327,0.02355996,-0.8883717,-10.62301,-5.780157,-0.61056,50.61862,0,0,0,31.47486,-69.70159,-56.83508,0.04471847,-109.7821,-59.59858,0.001067912,-0.1257102,0.09433498,0,0.3,0,0,0.1799219,0,
6.38225E+17,21.74584,17.37,-2.381421,54.94009,4.003886,94.93195,0.02355996,-0.8883717,-10.62301,-5.706912,-0.61056,50.61862,0,0,0,45.09897,-70.07436,-55.2847,0.04471847,-109.7821,-59.59858,0.001067912,-0.1257102,0.09433498,0,0.3,0,0,0.1844772,0,
6.38225E+17,28.15415,17.32325,-0.9105434,62.70407,5.175808,99.10693,0.02355996,-0.8883717,-10.62301,-5.706912,-0.61056,50.61862,0,0,0,59.06662,-70.27657,-57.97924,0.04471847,-109.7821,-59.59858,0.001067912,-0.1257102,0.09433498,0,0.3,0,0,0.1866946,0,
6.38225E+17,32.91327,17.1596,-0.6537234,67.39177,6.713957,106.6512,0.02355996,-0.8883717,-10.62301,-5.706912,-0.61056,50.61862,0,0,0,68.40617,-70.64848,-62.66382,0.04471847,-109.7821,-59.59858,0.001067912,-0.1257102,0.09433498,0,0.3,0,0,0.1867133,0,
6.38225E+17,37.50746,16.9492,-0.700418,70.6878,8.618331,116.9788,0.02355996,-0.8883717,-10.62301,-5.780157,-0.61056,50.61862,0,0,0,76.6729,-71.11536,-68.45486,0.04471847,-109.7821,-59.59858,0.001067912,-0.1257102,0.09433498,0,0.3,0,0,0.1857553,0,
6.38225E+17,43.63305,16.52839,-0.7237652,73.83734,11.47489,135.4365,0.02355996,-0.8883717,-10.62301,-5.706912,-0.61056,50.61862,0,0,0,87.0519,-72.05257,-77.04202,0.04471847,-109.7821,-59.59858,0.001067912,-0.1257102,0.09433498,0,0.3,0,0,0.1828646,0,
6.38225E+17,46.38956,16.22447,-0.7471125,74.86278,12.72006,143.347,0.02355996,-0.8883717,-10.62301,-5.780157,-0.61056,50.61862,0,0,0,91.44739,-72.73051,-81.23406,0.04471847,-109.7821,-59.59858,0.001067912,-0.1257102,0.09433498,0,0.3,0,0,0.1807883,0,
6.38225E+17,53.17484,14.44773,-0.7237652,76.32768,16.16258,144.8852,0.02355996,-0.8883717,-10.62301,-5.706912,-0.61056,50.61862,0,0,0,102.0184,-76.71898,-91.96055,0.04471847,-109.7821,-59.59858,0.001067912,-0.1257102,0.09433498,0,0.3,0,0,0.172647,0,
6.38225E+17,54.49419,13.65287,-0.6537234,76.47417,17.11477,144.8852,0.02355996,-0.8883717,-10.62301,-5.706912,-0.61056,50.61862,0,0,0,104.2486,-78.51553,-93.97427,0.04471847,-109.7821,-59.59858,0.001067912,-0.1257102,0.09433498,0,0.3,0,0,0.1695206,0,
6.38225E+17,54.25859,10.28641,0.2101254,76.40092,19.60511,144.8852,0.02355996,-0.8883717,-10.62301,-5.706912,-0.61056,50.61862,0,0,0,106.8924,-86.18695,-91.42282,0.04471847,-109.7821,-59.59858,0.001067912,-0.1257102,0.09433498,0,0.3,0,0,0.1634655,0,
6.38225E+17,54.25859,5.72766,1.120669,76.54742,22.82789,144.8852,0.02355996,-0.8883717,-10.62301,-5.706912,-0.61056,50.61862,0,0,0,109.8116,-96.66615,-89.32197,0.04471847,-109.7821,-59.59858,0.001067912,-0.1257102,0.09433498,0,0.3,0,0,0.157534,0,
6.38225E+17,54.16435,3.296327,1.190711,76.84039,24.58578,144.8852,0.02355996,-0.8883717,-10.62301,-5.706912,-0.61056,50.61862,0,0,0,110.1744,-102.3036,-88.78543,0.04471847,-109.7821,-59.59858,0.001067912,-0.1257102,0.09433498,0,0.3,0,0,0.1546654,0,
6.38225E+17,53.76383,-0.7247244,0.9572379,77.06013,28.0283,144.3724,0.02355996,-0.8883717,-10.62301,-5.706912,-0.61056,50.61862,0,0,0,109.3467,-111.6681,-88.21426,0.04471847,-109.7821,-59.59858,0.001067912,-0.1257102,0.09433498,0,0.3,0,0,0.1492263,0,
6.38225E+17,53.92875,-0.9351282,0.6303762,77.64609,30.44539,133.6054,0.02355996,-0.8883717,-10.62301,-5.706912,-0.61056,50.61862,0,0,0,108.9563,-112.1682,-88.98138,0.04471847,-109.7821,-59.59858,0.001067912,-0.1257102,0.09433498,0,0.3,0,0,0.1440748,0,
6.38225E+17,54.11723,-0.7714807,0.6770707,78.74477,31.17784,121.8129,0.02355996,-0.8883717,-10.62301,-5.706912,-0.61056,50.61862,0,0,0,109.3095,-111.7862,-89.27321,0.04471847,-109.7821,-59.59858,0.001067912,-0.1257102,0.09433498,0,0.3,0,0,0.1389996,0,
6.38225E+17,54.11723,-0.8883717,0.6303762,79.25748,31.32433,115.1476,0.02355996,-0.8883717,-10.62301,-5.706912,-0.61056,50.61862,0,0,0,109.2183,-112.0594,-89.33922,0.04471847,-109.7821,-59.59858,0.001067912,-0.1257102,0.09433498,0,0.3,0,0,0.1365287,0,
6.38225E+17,54.21147,-1.005263,0.5836816,80.20967,30.88486,99.03368,0.02355996,-0.8883717,-10.62301,-5.706912,-0.61056,50.61862,0,0,0,109.2563,-112.3326,-89.58514,0.04471847,-109.7821,-59.59858,0.001067912,-0.1257102,0.09433498,0,0.3,0,0,0.1317023,0,
6.38225E+17,54.32927,-1.005263,0.6070289,80.72239,28.90724,80.13642,0.02355996,-0.8883717,-10.62301,-5.706912,-0.61056,50.61862,0,0,0,109.4621,-112.332,-89.77826,0.04471847,-109.7821,-59.59858,0.001067912,-0.1257102,0.09433498,0,0.3,0,0,0.1269761,0,
6.38225E+17,54.30571,-1.005263,0.6070289,80.86888,27.29585,67.90449,0.02355996,-0.8883717,-10.62301,-5.706912,-0.61056,50.61862,0,0,0,109.4298,-112.332,-89.73325,0.04471847,-109.7821,-59.59858,0.001067912,-0.1257102,0.09433498,0,0.3,0,0,0.1246706,0,
6.38225E+17,53.74027,-0.9585064,0.5836816,81.52808,22.53491,30.62269,0.02355996,-0.8883717,-10.62301,-5.706912,-0.61056,50.61862,0,0,0,108.6063,-112.2238,-88.68819,0.04471847,-109.7821,-59.59858,0.001067912,-0.1257102,0.09433498,0,0.3,0,0,0.1202739,0,
6.38225E+17,52.42091,-0.9585064,0.5603344,81.82106,16.74854,0.5189275,0.02355996,-0.8883717,-10.62301,-5.706912,-0.61056,50.61862,0,0,0,106.7002,-112.2243,-86.24178,0.04471847,-109.7821,-59.59858,0.001067912,-0.1257102,0.09433498,0,0.3,0,0,0.1163461,0,
6.38225E+17,50.8424,-0.9818845,0.5369871,81.16187,11.03542,-7.611286,0.02355996,-0.8883717,-10.62301,-5.706912,-0.61056,50.61862,0,0,0,104.3551,-112.2793,-83.36858,0.04471847,-109.7821,-59.59858,0.001067912,-0.1257102,0.09433498,0,0.3,0,0,0.1129886,0,
6.38225E+17,49.59372,-0.9818845,0.5369871,79.7702,5.468789,-7.09857,0.02355996,-0.8883717,-10.62301,-5.780157,-0.61056,50.61862,0,0,0,102.4784,-112.2793,-81.11467,0.04471847,-109.7821,-59.59858,0.001067912,-0.1257102,0.09433498,0,0.3,0,0,0.1101088,0,
6.38225E+17,49.24032,-0.9818845,0.5369871,78.89126,2.905208,-5.560421,0.02355996,-0.8883717,-10.62301,-5.706912,-0.61056,50.61862,0,0,0,101.9384,-112.2793,-80.48425,0.04471847,-109.7821,-59.59858,0.001067912,-0.1257102,0.09433498,0,0.3,0,0,0.1087875,0,
6.38225E+17,49.14608,-0.9818845,0.4902926,75.81496,-1.928973,-0.3600145,0.02355996,-0.8883717,-10.62301,-5.706912,-0.61056,50.61862,0,0,0,101.7115,-112.2802,-80.38779,0.04471847,-109.7821,-59.59858,0.001067912,-0.1257102,0.09433498,0,0.3,0,0,0.1062385,0,
6.38225E+17,49.14608,-0.9818845,0.4669453,70.83429,-6.250438,6.451786,0.02355996,-0.8883717,-10.62301,-5.706912,-0.61056,50.61862,0,0,0,101.6704,-112.2807,-80.42332,0.04471847,-109.7821,-59.59858,0.001067912,-0.1257102,0.09433498,0,0.3,0,0,0.103766,0,
6.38225E+17,49.09896,-0.9818845,0.4669453,67.6115,-8.228058,10.48027,0.02355996,-0.8883717,-10.62301,-5.706912,-0.61056,50.61862,0,0,0,101.5981,-112.2807,-80.33974,0.04471847,-109.7821,-59.59858,0.001067912,-0.1257102,0.09433498,0,0.3,0,0,0.1025621,0,
6.38225E+17,48.46284,-0.9818845,0.5603344,60.28699,-11.52409,20.36837,0.02355996,-0.8883717,-10.62301,-5.706912,-0.61056,50.61862,0,0,0,100.7774,-112.2787,-79.07309,0.04471847,-109.7821,-59.59858,0.001067912,-0.1257102,0.09433498,0,0.3,0,0,0.1003081,0,
6.38225E+17,46.88432,-0.9818845,1.02728,51.86379,-13.86794,28.35209,0.02355996,-0.8883717,-10.62301,-5.706912,-0.61056,50.61862,0,0,0,99.0731,-112.2637,-75.58817,0.04471847,-109.7821,-59.59858,0.001067912,-0.1257102,0.09433498,0,0.3,0,0,0.09839753,0,
6.38225E+17,44.99953,-0.9818845,1.167363,42.70815,-15.40608,31.2819,0.02355996,-0.8883717,-10.62301,-5.706912,-0.61056,50.61862,0,0,0,96.19907,-112.2574,-72.14935,0.04471847,-109.7821,-59.59858,0.001067912,-0.1257102,0.09433498,0,0.3,0,0,0.09695958,0,
6.38225E+17,44.29272,-0.9818845,1.167363,37.94721,-15.62582,30.91567,0.02355996,-0.8883717,-10.62301,-5.706912,-0.61056,50.61862,0,0,0,95.00505,-112.2574,-70.96999,0.04471847,-109.7821,-59.59858,0.001067912,-0.1257102,0.09433498,0,0.3,0,0,0.09641129,0,
6.38225E+17,43.75085,-0.9818845,1.307447,27.47315,-15.69907,30.32971,0.02355996,-0.8883717,-10.62301,-5.706912,-0.61056,50.61862,0,0,0,94.30524,-112.2504,-69.84038,0.04471847,-109.7821,-59.59858,0.001067912,-0.1257102,0.09433498,0,0.3,0,0,0.09544773,0,
6.38225E+17,43.86865,-0.9585064,1.634309,15.90041,-15.1131,37.80072,0.02355996,-0.8883717,-10.62301,-5.706912,-0.61056,50.61862,0,0,0,95.03523,-112.1765,-69.48556,0.04471847,-109.7821,-59.59858,0.001067912,-0.1257102,0.09433498,0,0.3,0,0,0.09443894,0,
6.38225E+17,43.93933,-0.9585064,1.727698,3.082508,-12.40303,43.80682,0.02355996,-0.8883717,-10.62301,-5.706912,-0.61056,50.61862,0,0,0,95.30788,-112.1701,-69.44643,0.04471847,-109.7821,-59.59858,0.001067912,-0.1257102,0.09433498,0,0.3,0,0,0.09340895,0,
6.38225E+17,43.89221,-0.9351282,1.96117,-4.242009,-8.374548,30.91567,0.02355996,-0.8883717,-10.62301,-5.706912,-0.61056,50.61862,0,0,0,95.60366,-112.0982,-68.97604,0.04471847,-109.7821,-59.59858,0.001067912,-0.1257102,0.09433498,0,0.3,0,0,0.09237228,0,
6.38225E+17,43.89221,-0.9351282,1.96117,-7.684532,-5.737722,17.07234,0.02355996,-0.8883717,-10.62301,-5.706912,-0.61056,50.61862,0,0,0,95.60366,-112.0982,-68.97604,0.04471847,-109.7821,-59.59858,0.001067912,-0.1257102,0.09433498,0,0.3,0,0,0.0918598,0,
6.38225E+17,43.89221,-0.9117499,1.96117,-13.25116,-0.9767859,-4.534989,0.02355996,-0.8883717,-10.62301,-5.706912,-0.61056,50.61862,0,0,0,95.60427,-112.0438,-68.97541,0.04471847,-109.7821,-59.59858,0.001067912,-0.1257102,0.09433498,0,0.3,0,0,0.09085415,0,
6.38225E+17,43.89221,-0.9117499,1.751045,-17.27965,2.685472,-11.78626,0.02355996,-0.8883717,-10.62301,-5.706912,-0.61056,50.61862,0,0,0,95.2654,-112.0596,-69.32766,0.04471847,-109.7821,-59.59858,0.001067912,-0.1257102,0.09433498,0,0.3,0,0,0.08989681,0,
6.38225E+17,43.86865,-0.9351282,1.354141,-18.89104,3.857395,-11.34679,0.02355996,-0.8883717,-10.62301,-5.706912,-0.61056,50.61862,0,0,0,94.58413,-112.1391,-69.95484,0.04471847,-109.7821,-59.59858,0.001067912,-0.1257102,0.09433498,0,0.3,0,0,0.08947282,0,
6.38225E+17,43.70373,-0.9585064,-0.3035145,-21.45462,5.688524,-5.999893,0.02355996,-0.8883717,-10.62301,-5.706912,-0.61056,50.61862,0,0,0,91.63448,-112.2289,-72.47248,0.04471847,-109.7821,-59.59858,0.001067912,-0.1257102,0.09433498,0,0.3,0,0,0.08887694,0,
6.38225E+17,43.27965,-0.9585064,-3.011797,-22.99277,7.373164,-0.2135241,0.02355996,-0.8883717,-10.62301,-5.706912,-0.61056,50.61862,0,0,0,86.60329,-112.0465,-76.38339,0.04471847,-109.7821,-59.59858,0.001067912,-0.1257102,0.09433498,0,0.3,0,0,0.0887725,0,
6.38225E+17,42.92625,-0.9818845,-4.599411,-23.50549,8.252106,2.057076,0.02355996,-0.8883717,-10.62301,-5.706912,-0.61056,50.54538,0,0,0,83.52289,-111.8557,-78.5512,0.04471847,-109.7821,-59.59858,0.001067912,-0.1257102,0.09433498,0,0.3,0,0,0.08895021,0,
6.38225E+17,41.65401,-0.9818845,-8.498405,-24.23794,9.790254,8.209671,0.02355996,-0.8883717,-10.62301,-5.706912,-0.61056,50.61862,0,0,0,75.51782,-110.8209,-83.45356,0.04471847,-109.7821,-59.59858,0.001067912,-0.1257102,0.09433498,0,0.3,0,0,0.08984215,0,
6.38225E+17,39.93414,-0.9585064,-9.432296,-24.75066,10.81569,13.7763,0.02355996,-0.8883717,-10.62301,-5.706912,-0.61056,50.61862,0,0,0,71.55825,-110.4278,-82.87083,0.04471847,-109.7821,-59.59858,0.001067912,-0.1257102,0.09433498,0,0.3,0,0,0.09127452,0,
6.38225E+17,36.49438,-0.9351282,-10.08602,-26.80152,11.3284,24.54334,0.02355996,-0.8883717,-10.62301,-5.706912,-0.61056,50.54538,0,0,0,65.40942,-110.1155,-79.93611,0.04471847,-109.7821,-59.59858,0.001067912,-0.1257102,0.09433498,0,0.3,0,0,0.09341971,0,
6.38225E+17,34.51534,-0.9351282,-9.922588,-28.48616,11.18191,30.91567,0.02355996,-0.8883717,-10.62301,-5.706912,-0.61056,50.61862,0,0,0,62.52938,-110.1816,-77.42136,0.04471847,-109.7821,-59.59858,0.001067912,-0.1257102,0.09433498,0,0.3,0,0,0.09477834,0,
6.38225E+17,29.92115,-0.8649935,-7.564514,-33.46683,10.37621,44.68576,0.02355996,-0.8883717,-10.62301,-5.706912,-0.61056,50.61862,0,0,0,57.7521,-110.8526,-68.00176,0.04471847,-109.7821,-59.59858,0.001067912,-0.1257102,0.09433498,0,0.3,0,0,0.09805734,0,
6.38225E+17,25.20916,-0.7714807,-3.081839,-41.45055,8.545086,58.96857,0.02355996,-0.8883717,-10.62301,-5.706912,-0.61056,50.61862,0,0,0,53.73827,-111.6026,-54.19773,0.04471847,-109.7821,-59.59858,0.001067912,-0.1257102,0.09433498,0,0.3,0,0,0.1018147,0,
6.38225E+17,21.95788,-0.7247244,1.494225,-50.31322,6.567466,73.7641,0.02355996,-0.8883717,-10.62301,-5.706912,-0.61056,50.61862,0,0,0,51.15914,-111.6413,-41.45823,0.04471847,-109.7821,-59.59858,0.001067912,-0.1257102,0.09433498,0,0.3,0,0,0.1055964,0,
6.38225E+17,19.08357,-0.6312115,4.365939,-60.42105,4.663092,91.56267,0.02355996,-0.8883717,-10.62301,-5.706912,-0.61056,50.61862,0,0,0,46.9147,-111.0821,-32.74266,0.04471847,-109.7821,-59.59858,0.001067912,-0.1257102,0.09433498,0,0.3,0,0,0.1092621,0,
6.38225E+17,17.59929,-0.5143204,4.669453,-65.25523,3.93064,100.1324,0.02355996,-0.8883717,-10.62301,-5.706912,-0.61056,50.61862,0,0,0,43.60012,-110.7544,-30.89911,0.04471847,-109.7821,-59.59858,0.001067912,-0.1257102,0.09433498,0,0.3,0,0,0.1111847,0,
6.38225E+17,14.13598,-0.2805384,4.599411,-73.09246,3.124943,111.4121,0.02355996,-0.8883717,-10.62301,-5.706912,-0.61056,50.61862,0,0,0,35.1784,-110.2235,-28.67018,0.04471847,-109.7821,-59.59858,0.001067912,-0.1257102,0.09433498,0,0.3,0,0,0.1154623,0,
6.38225E+17,8.811425,-0.07013461,4.622759,-81.22268,2.685472,117.8577,0.02355996,-0.8883717,-10.62301,-5.706912,-0.61056,50.61862,0,0,0,22.07323,-109.7294,-25.95343,0.04471847,-109.7821,-59.59858,0.001067912,-0.1257102,0.09433498,0,0.3,0,0,0.1202945,0,
6.38225E+17,5.93711,0.1636474,4.832884,-85.61739,2.392492,118.3704,0.02355996,-0.8883717,-10.62301,-5.706912,-0.61056,50.54538,0,0,0,14.95532,-109.145,-24.54139,0.04471847,-109.7821,-59.59858,0.001067912,-0.1257102,0.09433498,0,0.3,0,0,0.122874,0,
6.38225E+17,-0.8717186,0.9818845,6.583929,-96.53092,1.220569,114.1222,0.02355996,-0.8883717,-10.62301,-5.706912,-0.61056,50.61862,0,0,0,-2.261073,-106.8354,-19.74707,0.04471847,-109.7821,-59.59858,0.001067912,-0.1257102,0.09433498,0,0.3,0,0,0.127866,0,
6.38225E+17,-7.704108,1.8235,9.642421,-108.0304,-0.6838052,109.3612,0.02355996,-0.8883717,-10.62301,-5.706912,-0.61056,50.61862,0,0,0,-20.86177,-103.8728,-14.13625,0.04471847,-109.7821,-59.59858,0.001067912,-0.1257102,0.09433498,0,0.3,0,0,0.1318419,0,
6.38225E+17,-10.34282,2.08066,11.15999,-112.9378,-1.489502,107.0174,0.02355996,-0.8883717,-10.62301,-5.706912,-0.61056,50.61862,0,0,0,-28.55937,-102.637,-11.86285,0.04471847,-109.7821,-59.59858,0.001067912,-0.1257102,0.09433498,0,0.3,0,0,0.1333402,0,
6.38225E+17,-14.98414,2.454711,14.87221,-122.4597,-2.441689,103.0622,0.02355996,-0.8883717,-10.62301,-5.706912,-0.61056,50.61862,0,0,0,-43.29544,-99.82153,-6.590072,0.04471847,-109.7821,-59.59858,0.001067912,-0.1257102,0.09433498,0,0.3,0,0,0.135159,0,
6.38225E+17,-18.49457,2.73525,18.91129,-132.3478,-2.075463,101.4508,0.02355996,-0.8883717,-10.62301,-5.706912,-0.61056,50.61862,0,0,0,-55.96218,-96.43838,-1.043986,0.04471847,-109.7821,-59.59858,0.001067912,-0.1257102,0.09433498,0,0.3,0,0,0.135679,0,
6.38225E+17,-22.3584,3.039166,22.85697,-142.1627,0.04864649,100.938,0.02355996,-0.8883717,-10.62301,-5.706912,-0.61056,50.61862,0,0,0,-70.35856,-92.45898,2.705033,0.04471847,-109.7821,-59.59858,0.001067912,-0.1257102,0.09433498,0,0.3,0,0,0.134878,0,
6.38225E+17,-25.16204,3.693756,23.95429,-145.3855,1.879776,101.0113,0.02355996,-0.8883717,-10.62301,-5.706912,-0.61056,50.61862,0,0,0,-79.59964,-89.92363,1.099177,0.04471847,-109.7821,-59.59858,0.001067912,-0.1257102,0.09433498,0,0.3,0,0,0.13322,0,
6.38225E+17,-26.90548,4.348346,24.04768,-145.9714,2.758718,101.0113,0.02355996,-0.8883717,-10.62301,-5.706912,-0.61056,50.61862,0,0,0,-84.75963,-88.31549,-1.319205,0.04471847,-109.7821,-59.59858,0.001067912,-0.1257102,0.09433498,0,0.3,0,0,0.1321601,0,
6.38225E+17,-30.29811,5.564013,24.00099,-145.8249,2.905208,100.7916,0.02355996,-0.8883717,-10.62301,-5.706912,-0.61056,50.61862,0,0,0,-94.32224,-85.54103,-6.924595,0.04471847,-109.7821,-59.59858,0.001067912,-0.1257102,0.09433498,0,0.3,0,0,0.1296329,0,
6.38225E+17,-33.14886,5.938064,23.83756,-143.4811,1.66004,99.69289,0.02355996,-0.8883717,-10.62301,-5.706912,-0.61056,50.61862,0,0,0,-101.9961,-84.82907,-12.17959,0.04471847,-109.7821,-59.59858,0.001067912,-0.1257102,0.09433498,0,0.3,0,0,0.1266901,0,
6.38225E+17,-34.27974,5.938064,23.81421,-142.3824,1.074079,99.10693,0.02355996,-0.8883717,-10.62301,-5.706912,-0.61056,50.61862,0,0,0,-105.0305,-84.85102,-14.2641,0.04471847,-109.7821,-59.59858,0.001067912,-0.1257102,0.09433498,0,0.3,0,0,0.1250929,0,
6.38225E+17,-36.51794,5.961442,23.81421,-138.9399,-0.02459868,97.78851,0.02355996,-0.8883717,-10.62301,-5.706912,-0.61056,50.61862,0,0,0,-110.9646,-84.79691,-18.48804,0.04471847,-109.7821,-59.59858,0.001067912,-0.1257102,0.09433498,0,0.3,0,0,0.1216554,0,
6.38225E+17,-38.61478,5.961442,23.81421,-135.9368,-0.4640697,96.90957,0.02355996,-0.8883717,-10.62301,-5.706912,-0.61056,50.61862,0,0,0,-116.3736,-84.79691,-22.64842,0.04471847,-109.7821,-59.59858,0.001067912,-0.1257102,0.09433498,0,0.3,0,0,0.1179246,0,
6.38225E+17,-40.66449,5.961442,23.81421,-133.3732,-0.09784385,100.7183,0.02355996,-0.8883717,-10.62301,-5.780157,-0.61056,50.61862,0,0,0,-121.5104,-84.79691,-26.90394,0.04471847,-109.7821,-59.59858,0.001067912,-0.1257102,0.09433498,0,0.3,0,0,0.1139148,0,
6.38225E+17,-42.61997,5.938064,23.81421,-130.6632,0.707853,111.1191,0.02355996,-0.8883717,-10.62301,-5.706912,-0.61056,50.61862,0,0,0,-126.27,-84.85102,-31.12845,0.04471847,-109.7821,-59.59858,0.001067912,-0.1257102,0.09433498,0,0.3,0,0,0.1117233,0,
6.38225E+17,-44.50476,5.938064,23.88425,-127.5869,1.66004,133.5322,0.02355996,-0.8883717,-10.62301,-5.780157,-0.61056,50.54538,0,0,0,-130.8194,-84.78511,-35.24937,0.04471847,-109.7821,-59.59858,0.001067912,-0.1257102,0.09433498,0,0.3,0,0,0.1071764,0,
6.38225E+17,-46.55449,5.961442,23.97764,-122.7527,3.198189,144.7387,0.02355996,-0.8883717,-10.62301,-5.706912,-0.61056,50.61862,0,0,0,-135.6364,-84.64282,-39.88077,0.04471847,-109.7821,-59.59858,0.001067912,-0.1257102,0.09433498,0,0.3,0,0,0.1023112,0,
6.38225E+17,-47.3084,5.961442,24.16442,-120.1891,3.564415,144.8852,0.02355996,-0.8883717,-10.62301,-5.706912,-0.61056,50.61862,0,0,0,-137.6068,-84.46552,-41.40747,0.04471847,-109.7821,-59.59858,0.001067912,-0.1257102,0.09433498,0,0.3,0,0,0.09978836,0,
6.38225E+17,-49.24032,6.054955,25.00492,-113.3041,2.978453,144.9584,0.02355996,-0.8883717,-10.62301,-5.706912,-0.61056,50.61862,0,0,0,-143.1382,-83.43523,-44.97211,0.04471847,-109.7821,-59.59858,0.001067912,-0.1257102,0.09433498,0,0.3,0,0,0.09184904,0,
6.38225E+17,-49.73508,6.125089,25.00492,-111.18,2.465737,144.8852,0.02355996,-0.8883717,-10.62301,-5.706912,-0.61056,50.61862,0,0,0,-144.185,-83.27293,-46.22391,0.04471847,-109.7821,-59.59858,0.001067912,-0.1257102,0.09433498,0,0.3,0,0,0.08913679,0,
6.38225E+17,-50.70104,6.148468,24.93488,-107.1515,1.293814,144.9584,0.02355996,-0.8883717,-10.62301,-5.706912,-0.61056,50.61862,0,0,0,-146.1045,-83.28764,-48.76927,0.04471847,-109.7821,-59.59858,0.001067912,-0.1257102,0.09433498,0,0.3,0,0,0.08366809,0,
6.38225E+17,-51.31359,6.148468,24.37455,-102.3905,0.5613627,144.8852,0.02355996,-0.8883717,-10.62301,-5.706912,-0.61056,50.61862,0,0,0,-146.4494,-83.83166,-51.07894,0.04471847,-109.7821,-59.59858,0.001067912,-0.1257102,0.09433498,0,0.3,0,0,0.07824147,0,
6.38225E+17,-51.47852,6.148468,23.79086,-99.46073,0.268382,144.8852,0.02355996,-0.8883717,-10.62301,-5.706912,-0.61056,50.61862,0,0,0,-145.8161,-84.38598,-52.27338,0.04471847,-109.7821,-59.59858,0.001067912,-0.1257102,0.09433498,0,0.3,0,0,0.07560375,0,
6.38225E+17,-51.57275,6.148468,22.31999,-93.01515,-0.09784385,144.8119,0.02355996,-0.8883717,-10.62301,-5.780157,-0.61056,50.61862,0,0,0,-143.5392,-85.72659,-54.47103,0.04471847,-109.7821,-59.59858,0.001067912,-0.1257102,0.09433498,0,0.3,0,0,0.07059216,0,
6.38225E+17,-51.57275,6.008198,20.73237,-85.69064,-0.171089,144.8852,0.02355996,-0.8883717,-10.62301,-5.706912,-0.5373149,50.61862,0,0,0,-140.8736,-87.40697,-56.58582,0.04471847,-109.7821,-59.59858,0.001067912,-0.1257102,0.09433498,0,0.3,0,0,0.06590114,0,
6.38225E+17,-51.57275,5.844551,20.17204,-82.32136,-0.171089,144.9584,0.02355996,-0.8883717,-10.62301,-5.706912,-0.61056,50.61862,0,0,0,-139.9472,-88.24149,-57.32082,0.04471847,-109.7821,-59.59858,0.001067912,-0.1257102,0.09433498,0,0.3,0,0,0.06366187,0,
6.38225E+17,-51.57275,5.353609,19.35488,-75.21658,-0.2443342,144.8852,0.02355996,-0.8883717,-10.62301,-5.706912,-0.61056,50.54538,0,0,0,-138.6324,-90.02174,-58.36393,0.04471847,-109.7821,-59.59858,0.001067912,-0.1257102,0.09433498,0,0.3,0,0,0.05934378,0,
6.38225E+17,-51.57275,4.722397,18.53773,-69.94292,-0.5373149,140.9299,0.02355996,-0.8883717,-10.62301,-5.706912,-0.61056,50.54538,0,0,0,-137.3243,-92.10262,-59.40173,0.04471847,-109.7821,-59.59858,0.001067912,-0.1257102,0.09433498,0,0.3,0,0,0.05522593,0,
6.38225E+17,-51.57275,4.278211,18.04744,-67.3061,-0.7570504,134.8506,0.02355996,-0.8883717,-10.62301,-5.706912,-0.61056,50.61862,0,0,0,-136.5391,-93.49138,-60.0247,0.04471847,-109.7821,-59.59858,0.001067912,-0.1257102,0.09433498,0,0.3,0,0,0.05325492,0,
6.38225E+17,-51.57275,3.202814,17.30033,-61.9592,-1.196521,120.4945,0.02355996,-0.8883717,-10.62301,-5.706912,-0.61056,50.61862,0,0,0,-135.3691,-96.51679,-60.95292,0.04471847,-109.7821,-59.59858,0.001067912,-0.1257102,0.09433498,0,0.3,0,0,0.04946274,0,
6.38225E+17,-51.54919,2.361199,16.78668,-56.83204,-1.489502,100.4986,0.02355996,-0.8883717,-10.62301,-5.780157,-0.61056,50.61862,0,0,0,-134.5043,-98.82362,-61.54887,0.04471847,-109.7821,-59.59858,0.001067912,-0.1257102,0.09433498,0,0.3,0,0,0.04582212,0,
6.38225E+17,-51.47852,1.636474,15.8061,-51.92461,-1.782483,70.76105,0.02355996,-0.8883717,-10.62301,-5.706912,-0.61056,50.61862,0,0,0,-132.7047,-101.1497,-62.71064,0.04471847,-109.7821,-59.59858,0.001067912,-0.1257102,0.09433498,0,0.3,0,0,0.04238701,0,
6.38225E+17,-51.4314,0.8416153,14.5687,-47.74964,-1.782483,30.25646,0.02355996,-0.8883717,-10.62301,-5.780157,-0.61056,50.61862,0,0,0,-130.476,-103.7537,-64.30936,0.04471847,-109.7821,-59.59858,0.001067912,-0.1257102,0.09433498,0,0.3,0,0,0.03919361,0,
6.38225E+17,-51.38427,0.1870256,13.54141,-45.11281,-1.269767,-26.65503,0.02355996,-0.8883717,-10.62301,-5.706912,-0.61056,50.61862,0,0,0,-128.5889,-105.8577,-65.641,0.04471847,-109.7821,-59.59858,0.001067912,-0.1257102,0.09433498,0,0.3,0,0,0.03622332,0,
6.38225E+17,-51.33715,-0.07013461,13.28459,-44.30712,-0.9767859,-62.54516,0.02355996,-0.8883717,-10.62301,-5.706912,-0.61056,50.54538,0,0,0,-128.0509,-106.5949,-65.89814,0.04471847,-109.7821,-59.59858,0.001067912,-0.1257102,0.09433498,0,0.3,0,0,0.03479644,0,
6.38225E+17,-51.33715,-0.3974294,12.65422,-43.42817,-0.8302955,-109.1291,0.02355996,-0.8883717,-10.62301,-5.706912,-0.61056,50.61862,0,0,0,-126.9321,-107.6859,-66.79327,0.04471847,-109.7821,-59.59858,0.001067912,-0.1257102,0.09433498,0,0.3,0,0,0.03204131,0,
6.38225E+17,-51.33715,-0.4909423,11.5569,-42.84221,-0.5373149,-129.6377,0.02355996,-0.8883717,-10.62301,-5.706912,-0.61056,50.61862,0,0,0,-124.981,-108.4391,-68.35433,0.04471847,-109.7821,-59.59858,0.001067912,-0.1257102,0.09433498,0,0.3,0,0,0.02946956,0,
6.38225E+17,-51.33715,-0.4909423,11.0666,-42.54923,-0.3908245,-137.4017,0.02355996,-0.8883717,-10.62301,-5.706912,-0.61056,50.61862,0,0,0,-124.1073,-108.6629,-69.05337,0.04471847,-109.7821,-59.59858,0.001067912,-0.1257102,0.09433498,0,0.3,0,0,0.02824953,0,
6.38225E+17,-51.33715,-0.5143204,10.31949,-41.74353,0.04864649,-141.7964,0.02355996,-0.8883717,-10.62301,-5.706912,-0.61056,50.61862,0,0,0,-122.7728,-109.04,-70.12111,0.04471847,-109.7821,-59.59858,0.001067912,-0.1257102,0.09433498,0,0.3,0,0,0.02591587,0,
6.38225E+17,-51.33715,-0.5143204,9.782504,-41.08433,0.1951368,-142.0894,0.02355996,-0.8883717,-10.62301,-5.706912,-0.61056,50.61862,0,0,0,-121.8119,-109.2581,-70.88991,0.04471847,-109.7821,-59.59858,0.001067912,-0.1257102,0.09433498,0,0.3,0,0,0.02369545,0,
6.38225E+17,-51.33715,-0.5143204,9.338906,-40.49837,0.3416272,-141.8697,0.02355996,-0.8883717,-10.62301,-5.706912,-0.61056,50.61862,0,0,0,-121.0169,-109.4296,-71.52594,0.04471847,-109.7821,-59.59858,0.001067912,-0.1257102,0.09433498,0,0.3,0,0,0.02156974,0,
6.38225E+17,-51.33715,-0.5143204,9.128781,-40.20539,0.4148723,-136.7425,0.02355996,-0.8883717,-10.62301,-5.780157,-0.61056,50.61862,0,0,0,-120.64,-109.508,-71.82751,0.04471847,-109.7821,-59.59858,0.001067912,-0.1257102,0.09433498,0,0.3,0,0,0.02053865,0,
6.38225E+17,-51.33715,-0.5376987,8.475058,-39.54618,0.6346079,-106.0528,0.02355996,-0.8883717,-10.62301,-5.706912,-0.61056,50.61862,0,0,0,-119.4656,-109.7952,-72.76714,0.04471847,-109.7821,-59.59858,0.001067912,-0.1257102,0.09433498,0,0.3,0,0,0.01857,0,
6.38225E+17,-51.21936,-0.5376987,8.521752,-39.47293,1.074079,-65.10874,0.02355996,-0.8883717,-10.62301,-5.706912,-0.61056,50.61862,0,0,0,-119.3526,-109.7792,-72.4544,0.04471847,-109.7821,-59.59858,0.001067912,-0.1257102,0.09433498,0,0.3,0,0,0.01665152,0,
6.38225E+17,-50.72459,-0.5376987,8.545099,-40.49837,1.66004,-8.636719,0.02355996,-0.8883717,-10.62301,-5.706912,-0.61056,50.61862,0,0,0,-118.5617,-109.7711,-71.39334,0.04471847,-109.7821,-59.59858,0.001067912,-0.1257102,0.09433498,0,0.3,0,0,0.01481394,0,
6.38225E+17,-50.44188,-0.5376987,8.545099,-40.93784,1.953021,19.48943,0.02355996,-0.8883717,-10.62301,-5.706912,-0.61056,50.54538,0,0,0,-118.0818,-109.7711,-70.80949,0.04471847,-109.7821,-59.59858,0.001067912,-0.1257102,0.09433498,0,0.3,0,0,0.01393598,0,
6.38225E+17,-50.18272,-0.6078333,8.28828,-41.74353,2.465737,79.62371,0.02355996,-0.8883717,-10.62301,-5.780157,-0.61056,50.61862,0,0,0,-117.184,-110.0218,-70.65605,0.04471847,-109.7821,-59.59858,0.001067912,-0.1257102,0.09433498,0,0.3,0,0,0.01225364,0,
6.38225E+17,-50.18272,-0.7247244,7.961418,-42.18301,3.124943,115.1476,0.02355996,-0.8883717,-10.62301,-5.706912,-0.61056,50.61862,0,0,0,-116.6031,-110.4014,-71.14032,0.04471847,-109.7821,-59.59858,0.001067912,-0.1257102,0.09433498,0,0.3,0,0,0.01064081,0,
6.38225E+17,-50.18272,-0.7714807,7.77464,-42.3295,3.417924,123.5708,0.02355996,-0.8883717,-10.62301,-5.780157,-0.61056,50.61862,0,0,0,-116.2713,-110.5697,-71.41697,0.04471847,-109.7821,-59.59858,0.001067912,-0.1257102,0.09433498,0,0.3,0,0,0.009859519,0,
6.38225E+17,-50.18272,-0.8883717,7.354388,-42.18301,3.93064,127.6725,0.02355996,-0.8883717,-10.62301,-5.706912,-0.61056,50.61862,0,0,0,-115.5236,-110.9705,-72.04035,0.04471847,-109.7821,-59.59858,0.001067912,-0.1257102,0.09433498,0,0.3,0,0,0.008350263,0,
6.38225E+17,-50.18272,-0.9818845,6.653971,-41.30406,3.857395,118.3704,0.02355996,-0.8883717,-10.62301,-5.706912,-0.61056,50.61862,0,0,0,-114.2781,-111.3869,-73.07868,0.04471847,-109.7821,-59.59858,0.001067912,-0.1257102,0.09433498,0,0.3,0,0,0.006938776,0,
6.38225E+17,-50.18272,-0.9818845,5.883511,-39.69267,3.417924,102.3297,0.02355996,-0.8883717,-10.62301,-5.780157,-0.61056,50.61862,0,0,0,-112.909,-111.5827,-74.22005,0.04471847,-109.7821,-59.59858,0.001067912,-0.1257102,0.09433498,0,0.3,0,0,0.005631498,0,
6.38225E+17,-50.18272,-0.9818845,5.229787,-38.4475,3.124943,90.53724,0.02355996,-0.8883717,-10.62301,-5.780157,-0.61056,50.54538,0,0,0,-111.7459,-111.73,-75.18973,0.04471847,-109.7821,-59.59858,0.001067912,-0.1257102,0.09433498,0,0.3,0,0,0.005035067,0,
6.38225E+17,-50.18272,-0.9818845,3.875646,-35.15147,2.758718,50.83836,0.02355996,-0.8883717,-10.62301,-5.780157,-0.61056,50.61862,0,0,0,-109.3328,-111.9802,-77.20143,0.04471847,-109.7821,-59.59858,0.001067912,-0.1257102,0.09433498,0,0.3,0,0,0.003968638,0,
6.38225E+17,-50.18272,-0.9818845,3.455395,-32.66114,2.685472,14.28902,0.02355996,-0.8883717,-10.62301,-5.706912,-0.61056,50.54538,0,0,0,-108.5831,-112.0427,-77.82645,0.04471847,-109.7821,-59.59858,0.001067912,-0.1257102,0.09433498,0,0.3,0,0,0.002991733,0,
6.38225E+17,-50.18272,-0.9818845,3.385354,-31.6357,2.612227,-2.70386,0.02355996,-0.8883717,-10.62301,-5.706912,-0.61056,50.61862,0,0,0,-108.4581,-112.0524,-77.93066,0.04471847,-109.7821,-59.59858,0.001067912,-0.1257102,0.09433498,0,0.3,0,0,0.002516631,0,
6.38225E+17,-50.18272,-0.9818845,3.362006,-30.02431,2.612227,-31.41597,0.02355996,-0.8883717,-10.62301,-5.706912,-0.61056,50.61862,0,0,0,-108.4165,-112.0556,-77.96539,0.04471847,-109.7821,-59.59858,0.001067912,-0.1257102,0.09433498,0,0.3,0,0,0.001578754,0,
6.38225E+17,-50.18272,-0.9818845,3.362006,-28.92563,2.612227,-58.95615,0.02355996,-0.8883717,-10.62301,-5.780157,-0.61056,50.61862,0,0,0,-108.4165,-112.0556,-77.96539,0.04471847,-109.7821,-59.59858,0.001067912,-0.1257102,0.09433498,0,0.3,0,0,0.000653836,0,
6.38225E+17,-50.18272,-0.9818845,3.362006,-28.11993,2.612227,-93.08839,0.02355996,-0.8883717,-10.62301,-5.706912,-0.61056,50.61862,0,0,0,-108.4165,-112.0556,-77.96539,0.04471847,-109.7821,-59.59858,0.001067912,-0.1257102,0.09433498,0,0.3,0,0,0,0,
6.38225E+17,-50.18272,-0.9818845,3.362006,-27.60722,2.612227,-123.8514,0.02355996,-0.8883717,-10.62301,-5.780157,-0.61056,50.61862,0,0,0,-108.4165,-112.0556,-77.96539,0.04471847,-109.7821,-59.59858,0.001067912,-0.1257102,0.09433498,0,0.3,0,0,0,0,
6.38225E+17,-50.18272,-0.9818845,3.385354,-27.38748,2.612227,-138.2807,0.02355996,-0.8883717,-10.62301,-5.706912,-0.61056,50.61862,0,0,0,-108.4581,-112.0524,-77.93066,0.04471847,-109.7821,-59.59858,0.001067912,-0.1257102,0.09433498,0,0.3,0,0,0,0,
6.38225E+17,-50.18272,-0.9818845,3.385354,-27.0945,2.831963,-141.9429,0.02355996,-0.8883717,-10.62301,-5.780157,-0.61056,50.61862,0,0,0,-108.4581,-112.0524,-77.93066,0.04471847,-109.7821,-59.59858,0.001067912,-0.1257102,0.09433498,0,0.3,0,0,0,0,
6.38225E+17,-50.18272,-0.9818845,3.362006,-26.87477,3.63766,-142.0894,0.02355996,-0.8883717,-10.62301,-5.706912,-0.61056,50.61862,0,0,0,-108.4165,-112.0556,-77.96539,0.04471847,-109.7821,-59.59858,0.001067912,-0.1257102,0.09433498,0,0.3,0,0,0,0,
6.38225E+17,-50.18272,-0.9818845,3.338659,-26.58179,4.809582,-142.0894,0.02355996,-0.8883717,-10.62301,-5.706912,-0.61056,50.61862,0,0,0,-108.3748,-112.0588,-78.00013,0.04471847,-109.7821,-59.59858,0.001067912,-0.1257102,0.09433498,0,0.3,0,0,0,0,
6.38225E+17,-50.18272,-0.9818845,3.315312,-26.50854,5.542034,-141.9429,0.02355996,-0.8883717,-10.62301,-5.706912,-0.61056,50.54538,0,0,0,-108.3331,-112.062,-78.03487,0.04471847,-109.7821,-59.59858,0.001067912,-0.1257102,0.09433498,0,0.3,0,0,0,0,
6.38225E+17,-50.18272,-0.9818845,3.315312,-26.4353,7.373164,-131.4689,0.02355996,-0.8883717,-10.62301,-5.706912,-0.61056,50.61862,0,0,0,-108.3331,-112.062,-78.03487,0.04471847,-109.7821,-59.59858,0.001067912,-0.1257102,0.09433498,0,0.3,0,0,0,0,
6.38225E+17,-50.18272,-0.9818845,3.338659,-26.58179,9.424027,-110.8137,0.02355996,-0.8883717,-10.62301,-5.706912,-0.61056,50.61862,0,0,0,-108.3748,-112.0588,-78.00013,0.04471847,-109.7821,-59.59858,0.001067912,-0.1257102,0.09433498,0,0.3,0,0,0,0,
6.38225E+17,-50.15916,-0.9818845,3.362006,-26.65503,10.59595,-100.5594,0.02355996,-0.8883717,-10.62301,-5.706912,-0.61056,50.61862,0,0,0,-108.3793,-112.0556,-77.92081,0.04471847,-109.7821,-59.59858,0.001067912,-0.1257102,0.09433498,0,0.3,0,0,0,0,
6.38225E+17,-50.06492,-0.9585064,3.408701,-26.80152,12.50033,-83.49328,0.02355996,-0.8883717,-10.62301,-5.780157,-0.61056,50.61862,0,0,0,-108.3143,-111.9948,-77.67245,0.04471847,-109.7821,-59.59858,0.001067912,-0.1257102,0.09433498,0,0.3,0,0,0,0,
6.38225E+17,-49.97068,-0.9585064,3.408701,-26.80152,13.96523,-69.86968,0.02355996,-0.8883717,-10.62301,-5.706912,-0.61056,50.61862,0,0,0,-108.165,-111.9948,-77.49442,0.04471847,-109.7821,-59.59858,0.001067912,-0.1257102,0.09433498,0,0.3,0,0,0,0,
6.38225E+17,-49.97068,-0.9585064,3.385354,-26.58179,14.99066,-56.46581,0.02355996,-0.8883717,-10.62301,-5.706912,-0.61056,50.61862,0,0,0,-108.1235,-111.998,-77.5293,0.04471847,-109.7821,-59.59858,0.001067912,-0.1257102,0.09433498,0,0.3,0,0,0,0,
6.38225E+17,-49.97068,-0.9585064,3.408701,-26.21556,15.35689,-49.8005,0.02355996,-0.8883717,-10.62301,-5.706912,-0.61056,50.61862,0,0,0,-108.165,-111.9948,-77.49442,0.04471847,-109.7821,-59.59858,0.001067912,-0.1257102,0.09433498,0,0.3,0,0,0,0,
6.38225E+17,-49.97068,-0.9585064,3.432048,-25.6296,15.57662,-47.16368,0.02355996,-0.8883717,-10.62301,-5.780157,-0.61056,50.61862,0,0,0,-108.2065,-111.9916,-77.45953,0.04471847,-109.7821,-59.59858,0.001067912,-0.1257102,0.09433498,0,0.3,0,0,0,0,
6.38225E+17,-49.97068,-0.9585064,3.548784,-24.53092,15.8696,-45.84526,0.02355996,-0.8883717,-10.62301,-5.706912,-0.61056,50.61862,0,0,0,-108.4142,-111.975,-77.2851,0.04471847,-109.7821,-59.59858,0.001067912,-0.1257102,0.09433498,0,0.3,0,0,0,0,
6.38225E+17,-49.97068,-0.8883717,3.75891,-23.359,17.04152,-49.87375,0.02355996,-0.8883717,-10.62301,-5.706912,-0.61056,50.54538,0,0,0,-108.7899,-111.7806,-76.96951,0.04471847,-109.7821,-59.59858,0.001067912,-0.1257102,0.09433498,0,0.3,0,0,0,0,
6.38225E+17,-49.97068,-0.8416153,3.828952,-22.84628,17.84722,-53.46276,0.02355996,-0.8883717,-10.62301,-5.706912,-0.61056,50.61862,0,0,0,-108.9157,-111.661,-76.86384,0.04471847,-109.7821,-59.59858,0.001067912,-0.1257102,0.09433498,0,0.3,0,0,0,0,
6.38225E+17,-49.97068,-0.7714807,3.898993,-22.04058,19.60511,-63.42411,0.02355996,-0.8883717,-10.62301,-5.706912,-0.61056,50.61862,0,0,0,-109.042,-111.4868,-76.75774,0.04471847,-109.7821,-59.59858,0.001067912,-0.1257102,0.09433498,0,0.3,0,0,0,0,
6.38225E+17,-49.97068,-0.7714807,3.898993,-21.52787,21.43624,-75.87578,0.02355996,-0.8883717,-10.62301,-5.780157,-0.61056,50.61862,0,0,0,-109.042,-111.4868,-76.75774,0.04471847,-109.7821,-59.59858,0.001067912,-0.1257102,0.09433498,0,0.3,0,0,0,0,
6.38225E+17,-49.97068,-0.7714807,3.898993,-21.38138,22.46167,-82.32136,0.02355996,-0.8883717,-10.62301,-5.706912,-0.61056,50.61862,0,0,0,-109.042,-111.4868,-76.75774,0.04471847,-109.7821,-59.59858,0.001067912,-0.1257102,0.09433498,0,0.3,0,0,0,0,
6.38225E+17,-49.97068,-0.7948589,3.688868,-21.38138,24.43929,-90.52482,0.02355996,-0.8883717,-10.62301,-5.706912,-0.61056,50.61862,0,0,0,-108.6678,-111.5736,-77.07208,0.04471847,-109.7821,-59.59858,0.001067912,-0.1257102,0.09433498,0,0.3,0,0,0,0,
6.38225E+17,-49.97068,-0.8649935,3.408701,-21.52787,25.53797,-93.52787,0.02355996,-0.8883717,-10.62301,-5.706912,-0.61056,50.61862,0,0,0,-108.1676,-111.7772,-77.49219,0.04471847,-109.7821,-59.59858,0.001067912,-0.1257102,0.09433498,0,0.3,0,0,0,0,
6.38225E+17,-49.97068,-0.9818845,3.081839,-21.89409,26.92962,-97.70284,0.02355996,-0.8883717,-10.62301,-5.706912,-0.61056,50.61862,0,0,0,-107.5827,-112.0923,-77.98351,0.04471847,-109.7821,-59.59858,0.001067912,-0.1257102,0.09433498,0,0.3,0,0,0,0,
6.38225E+17,-49.97068,-0.9818845,3.058492,-21.96734,27.66208,-101.7313,0.02355996,-0.8883717,-10.62301,-5.706912,-0.61056,50.61862,0,0,0,-107.5412,-112.0952,-78.01841,0.04471847,-109.7821,-59.59858,0.001067912,-0.1257102,0.09433498,0,0.3,0,0,0,0,
6.38225E+17,-49.97068,-0.9818845,3.058492,-22.11383,29.93268,-114.4027,0.02355996,-0.8883717,-10.62301,-5.706912,-0.61056,50.61862,0,0,0,-107.5412,-112.0952,-78.01841,0.04471847,-109.7821,-59.59858,0.001067912,-0.1257102,0.09433498,0,0.3,0,0,0,0,
6.38225E+17,-49.97068,-0.9818845,3.058492,-21.96734,30.44539,-116.6733,0.02355996,-0.8883717,-10.62301,-5.706912,-0.61056,50.54538,0,0,0,-107.5412,-112.0952,-78.01841,0.04471847,-109.7821,-59.59858,0.001067912,-0.1257102,0.09433498,0,0.3,0,0,0,0,
6.38225E+17,-49.97068,-0.9818845,3.058492,-21.67436,31.61732,-120.0426,0.02355996,-0.8883717,-10.62301,-5.706912,-0.61056,50.61862,0,0,0,-107.5412,-112.0952,-78.01841,0.04471847,-109.7821,-59.59858,0.001067912,-0.1257102,0.09433498,0,0.3,0,0,0,0,
6.38225E+17,-49.97068,-0.9818845,3.058492,-21.89409,33.08222,-123.5584,0.02355996,-0.8883717,-10.62301,-5.706912,-0.61056,50.61862,0,0,0,-107.5412,-112.0952,-78.01841,0.04471847,-109.7821,-59.59858,0.001067912,-0.1257102,0.09433498,0,0.3,0,0,0,0,
6.38225E+17,-49.97068,-0.9818845,3.035145,-22.04058,33.96116,-125.4628,0.02355996,-0.8883717,-10.62301,-5.706912,-0.61056,50.61862,0,0,0,-107.4996,-112.0981,-78.05331,0.04471847,-109.7821,-59.59858,0.001067912,-0.1257102,0.09433498,0,0.3,0,0,0,0,
6.38225E+17,-49.97068,-0.9818845,2.591547,-22.48005,35.42606,-129.418,0.02355996,-0.8883717,-10.62301,-5.706912,-0.61056,50.61862,0,0,0,-106.71,-112.1487,-78.71655,0.04471847,-109.7821,-59.59858,0.001067912,-0.1257102,0.09433498,0,0.3,0,0,0,0,
6.38225E+17,-49.97068,-0.9818845,1.79774,-22.91953,36.81772,-135.4973,0.02355996,-0.8883717,-10.62301,-5.706912,-0.61056,50.61862,0,0,0,-105.2964,-112.2195,-79.90395,0.04471847,-109.7821,-59.59858,0.001067912,-0.1257102,0.09433498,0,0.3,0,0,0,0,
6.38225E+17,-49.97068,-0.9818845,1.214058,-23.06602,37.55017,-138.5004,0.02355996,-0.8883717,-10.62301,-5.706912,-0.61056,50.61862,0,0,0,-104.2566,-112.2552,-80.77737,0.04471847,-109.7821,-59.59858,0.001067912,-0.1257102,0.09433498,0,0.3,0,0,0,0,
6.38225E+17,-49.97068,-0.9818845,-0.350209,-23.13926,38.64885,-141.8697,0.02355996,-0.8883717,-10.62301,-5.706912,-0.61056,50.61862,0,0,0,-101.469,-112.2826,-83.11884,0.04471847,-109.7821,-59.59858,0.001067912,-0.1257102,0.09433498,0,0.3,0,0,0,0,
6.38225E+17,-49.97068,-0.9818845,-1.96117,-22.5533,39.67428,-142.0894,0.02355996,-0.8883717,-10.62301,-5.706912,-0.61056,50.61862,0,0,0,-98.59879,-112.207,-85.52977,0.04471847,-109.7821,-59.59858,0.001067912,-0.1257102,0.09433498,0,0.3,0,0,0,0,
6.38225E+17,-49.97068,-0.9818845,-2.98845,-21.67436,40.47998,-142.0894,0.02355996,-0.8883717,-10.62301,-5.706912,-0.61056,50.61862,0,0,0,-96.76978,-112.1038,-87.06609,0.04471847,-109.7821,-59.59858,0.001067912,-0.1257102,0.09433498,0,0.3,0,0,0,0,
6.38225E+17,-49.97068,-0.9818845,-3.362006,-21.23489,40.99269,-142.0894,0.02355996,-0.8883717,-10.62301,-5.706912,-0.61056,50.61862,0,0,0,-96.10508,-112.0556,-87.62441,0.04471847,-109.7821,-59.59858,0.001067912,-0.1257102,0.09433498,0,0.3,0,0,0,0,
6.38225E+17,-49.97068,-0.9818845,-3.852299,-20.20946,42.53085,-142.0894,0.02355996,-0.8883717,-10.62301,-5.780157,-0.61056,50.61862,0,0,0,-95.23306,-111.9838,-88.35689,0.04471847,-109.7821,-59.59858,0.001067912,-0.1257102,0.09433498,0,0.3,0,0,0,0,
6.38225E+17,-49.97068,-0.9818845,-3.898993,-19.25727,44.65495,-142.0894,0.02355996,-0.8883717,-10.62301,-5.706912,-0.61056,50.61862,0,0,0,-95.15002,-111.9765,-88.42663,0.04471847,-109.7821,-59.59858,0.001067912,-0.1257102,0.09433498,0,0.3,0,0,0,0,
6.38225E+17,-49.97068,-0.8883717,-4.062424,-18.08535,47.07204,-141.7964,0.02355996,-0.8883717,-10.62301,-5.706912,-0.61056,50.61862,0,0,0,-94.8622,-111.7325,-88.6684,0.04471847,-109.7821,-59.59858,0.001067912,-0.1257102,0.09433498,0,0.3,0,0,0,0,
6.38225E+17,-49.97068,-0.6545897,-4.552717,-16.69369,49.48914,-132.4943,0.02355996,-0.8883717,-10.62301,-5.706912,-0.61056,50.61862,0,0,0,-93.99651,-111.1027,-89.39555,0.04471847,-109.7821,-59.59858,0.001067912,-0.1257102,0.09433498,0,0.3,0,0,0,0,
6.38225E+17,-49.97068,-0.6078333,-4.856231,-16.03448,50.51457,-128.5391,0.02355996,-0.8883717,-10.62301,-5.706912,-0.61056,50.54538,0,0,0,-93.45835,-110.936,-89.84759,0.04471847,-109.7821,-59.59858,0.001067912,-0.1257102,0.09433498,0,0.3,0,0,0,0,
6.38225E+17,-49.99424,-0.6312115,-5.673386,-14.34984,52.05272,-125.0233,0.02355996,-0.8883717,-10.62301,-5.706912,-0.61056,50.61862,0,0,0,-92.03956,-110.8158,-91.10386,0.04471847,-109.7821,-59.59858,0.001067912,-0.1257102,0.09433498,0,0.3,0,0,0,0,
6.38225E+17,-49.99424,-0.7714807,-6.210372,-11.85951,53.15139,-124.8036,0.02355996,-0.8883717,-10.62301,-5.706912,-0.61056,50.61862,0,0,0,-91.08434,-111.0129,-91.90555,0.04471847,-109.7821,-59.59858,0.001067912,-0.1257102,0.09433498,0,0.3,0,0,0,0,
6.38225E+17,-49.99424,-0.7948589,-6.303762,-10.32136,53.51762,-124.8036,0.02355996,-0.8883717,-10.62301,-5.706912,-0.61056,50.61862,0,0,0,-90.91827,-111.0436,-92.04492,0.04471847,-109.7821,-59.59858,0.001067912,-0.1257102,0.09433498,0,0.3,0,0,0,0,
6.38225E+17,-49.99424,-0.8416153,-6.397151,-6.439363,53.95709,-124.8036,0.02355996,-0.8883717,-10.62301,-5.706912,-0.61056,50.61862,0,0,0,-90.75162,-111.1284,-92.1848,0.04471847,-109.7821,-59.59858,0.001067912,-0.1257102,0.09433498,0,0.3,0,0,0,0,
6.38225E+17,-49.99424,-0.8649935,-6.607276,-2.557369,54.17683,-124.5106,0.02355996,-0.8883717,-10.62301,-5.780157,-0.61056,50.61862,0,0,0,-90.37881,-111.1274,-92.49768,0.04471847,-109.7821,-59.59858,0.001067912,-0.1257102,0.09433498,0,0.3,0,0,0,0,
6.38225E+17,-49.99424,-0.8883717,-6.677318,-0.5065048,54.25007,-123.3387,0.02355996,-0.8883717,-10.62301,-5.706912,-0.61056,50.61862,0,0,0,-90.25414,-111.163,-92.60231,0.04471847,-109.7821,-59.59858,0.001067912,-0.1257102,0.09433498,0,0.3,0,0,0,0,
6.38225E+17,-49.99424,-0.9117499,-6.653971,4.034696,54.32331,-116.6001,0.02355996,-0.8883717,-10.62301,-5.780157,-0.61056,50.61862,0,0,0,-90.29483,-111.2237,-92.56817,0.04471847,-109.7821,-59.59858,0.001067912,-0.1257102,0.09433498,0,0.3,0,0,0,0,
6.38225E+17,-49.99424,-0.9117499,-6.560582,8.136425,54.25007,-108.6164,0.02355996,-0.8883717,-10.62301,-5.706912,-0.61056,50.61862,0,0,0,-90.46021,-111.2487,-92.42937,0.04471847,-109.7821,-59.59858,0.001067912,-0.1257102,0.09433498,0,0.3,0,0,0,0,
6.38225E+17,-49.99424,-0.8883717,-6.513887,10.11404,54.03033,-105.3936,0.02355996,-0.8883717,-10.62301,-5.706912,-0.61056,50.61862,0,0,0,-90.54356,-111.2067,-92.35941,0.04471847,-109.7821,-59.59858,0.001067912,-0.1257102,0.09433498,0,0.3,0,0,0,0,
6.38225E+17,-49.92356,0.116891,-5.46326,15.82717,53.07815,-95.13927,0.02355996,-0.8883717,-10.62301,-5.706912,-0.61056,50.61862,0,0,0,-92.32262,-109.1222,-90.67198,0.04471847,-109.7821,-59.59858,0.001067912,-0.1257102,0.09433498,0,0.3,0,0,0,0,
6.38225E+17,-49.80576,0.8416153,-4.809536,16.99909,52.49219,-92.50243,0.02355996,-0.8883717,-10.62301,-5.706912,-0.61056,50.61862,0,0,0,-93.30947,-107.5718,-89.51346,0.04471847,-109.7821,-59.59858,0.001067912,-0.1257102,0.09433498,0,0.3,0,0,0,0,
6.38225E+17,-49.12252,2.828763,-3.105186,19.34294,50.58781,-86.42309,0.02355996,-0.8883717,-10.62301,-5.706912,-0.61056,50.61862,0,0,0,-95.24277,-103.2232,-85.91362,0.04471847,-109.7821,-59.59858,0.001067912,-0.1257102,0.09433498,0,0.3,0,0,0,0,
6.38225E+17,-47.73248,5.213339,-0.7704598,21.83327,48.6102,-79.24506,0.02355996,-0.8883717,-10.62301,-5.706912,-0.61056,50.61862,0,0,0,-96.94553,-97.87117,-80.23677,0.04471847,-109.7821,-59.59858,0.001067912,-0.1257102,0.09433498,0,0.3,0,0,0,0,
6.38225E+17,-45.61209,8.32264,1.79774,25.34904,47.36503,-71.70081,0.02355996,-0.8883717,-10.62301,-5.706912,-0.61056,50.61862,0,0,0,-97.28055,-90.63232,-73.12604,0.04471847,-109.7821,-59.59858,0.001067912,-0.1257102,0.09433498,0,0.3,0,0,0,0,
6.38225E+17,-44.26917,10.21628,3.151881,27.54639,47.07204,-67.96531,0.02355996,-0.8883717,-10.62301,-5.706912,-0.61056,50.61862,0,0,0,-96.72445,-86.14675,-69.126,0.04471847,-109.7821,-59.59858,0.001067912,-0.1257102,0.09433498,0,0.3,0,0,0,0,
6.38225E+17,-41.37129,15.59326,6.840749,32.08759,47.29178,-61.1535,0.02355996,-0.8883717,-10.62301,-5.780157,-0.61056,50.61862,0,0,0,-95.38976,-73.20534,-60.0422,0.04471847,-109.7821,-59.59858,0.001067912,-0.1257102,0.09433498,0,0.3,0,0,0,0,
6.38225E+17,-38.33206,23.19118,11.5102,35.23714,48.75668,-55.36714,0.02355996,-0.8883717,-10.62301,-5.706912,-0.61056,50.61862,0,0,0,-92.52646,-54.80494,-51.32586,0.04471847,-109.7821,-59.59858,0.001067912,-0.1257102,0.09433498,0,0.3,0,0,0,0,
6.38225E+17,-36.82422,27.11872,13.40133,35.60336,49.48914,-54.41495,0.02355996,-0.8883717,-10.62301,-5.706912,-0.61056,50.61862,0,0,0,-89.66254,-45.58326,-48.60118,0.04471847,-109.7821,-59.59858,0.001067912,-0.1257102,0.09433498,0,0.3,0,0,0,0,
6.38225E+17,-33.10175,36.56351,17.55714,34.57793,50.44132,-58.51668,0.02355996,-0.8883717,-10.62301,-5.706912,-0.61056,50.54538,0,0,0,-80.4622,-24.34971,-44.92945,0.04471847,-109.7821,-59.59858,0.001067912,-0.1257102,0.09433498,0,0.3,0,0,0,0,
6.38225E+17,-29.99183,43.46008,20.33547,31.79461,50.80755,-66.64689,0.02355996,-0.8883717,-10.62301,-5.706912,-0.61056,50.54538,0,0,0,-71.54927,-9.964161,-44.38221,0.04471847,-109.7821,-59.59858,0.001067912,-0.1257102,0.09433498,0,0.3,0,0,0,0,
6.38225E+17,-27.94211,46.92005,21.80634,29.52402,50.95404,-72.36002,0.02355996,-0.8883717,-10.62301,-5.706912,-0.61056,50.61862,0,0,0,-65.88979,-3.059075,-44.12673,0.04471847,-109.7821,-59.59858,0.001067912,-0.1257102,0.09433498,0,0.3,0,0,0,0,
6.38225E+17,-22.87672,52.57758,24.14107,24.32361,51.54,-87.0823,0.02355996,-0.8883717,-10.62301,-5.706912,-0.61056,50.61862,0,0,0,-52.70401,7.566114,-43.44059,0.04471847,-109.7821,-59.59858,0.001067912,-0.1257102,0.09433498,0,0.3,0,0,0,0,
6.38225E+17,-16.60977,56.03755,25.47187,18.75698,52.63868,-104.4414,0.02355996,-0.8883717,-10.62301,-5.706912,-0.61056,50.61862,0,0,0,-37.68826,13.56309,-42.00595,0.04471847,-109.7821,-59.59858,0.001067912,-0.1257102,0.09433498,0,0.3,0,0,0,0,
6.38225E+17,-9.400424,56.92593,25.82208,14.28902,54.6163,-123.7049,0.02355996,-0.8883717,-10.62301,-5.706912,-0.61056,50.61862,0,0,0,-21.37321,15.05759,-39.25081,0.04471847,-109.7821,-59.59858,0.001067912,-0.1257102,0.09433498,0,0.3,0,0,0,0,
6.38225E+17,-0.8481586,56.92593,24.7948,12.3114,56.96014,-130.9561,0.02355996,-0.8883717,-10.62301,-5.780157,-0.61056,50.54538,0,0,0,-1.905024,14.03552,-39.66902,0.04471847,-109.7821,-59.59858,0.001067912,-0.1257102,0.09433498,0,0.3,0,0,0,0,
6.38225E+17,7.869027,55.96742,24.04768,14.72849,58.20531,-131.3224,0.02355996,-0.8883717,-10.62301,-5.780157,-0.61056,50.61862,0,0,0,17.65729,12.08363,-40.59351,0.04471847,-109.7821,-59.59858,0.001067912,-0.1257102,0.09433498,0,0.3,0,0,0,0,
6.38225E+17,11.9449,54.96216,23.39396,16.99909,58.57154,-131.3956,0.02355996,-0.8883717,-10.62301,-5.706912,-0.61056,50.61862,0,0,0,26.80384,10.14522,-41.64885,0.04471847,-109.7821,-59.59858,0.001067912,-0.1257102,0.09433498,0,0.3,0,0,0,0,
6.38225E+17,18.84797,52.06326,21.64292,21.97976,59.01101,-131.3956,0.02355996,-0.8883717,-10.62301,-5.706912,-0.61056,50.61862,0,0,0,42.37381,4.572921,-44.21851,0.04471847,-109.7821,-59.59858,0.001067912,-0.1257102,0.09433498,0,0.3,0,0,0,0,
6.38225E+17,24.03116,47.85518,18.3743,26.59421,59.30399,-131.4689,0.02355996,-0.8883717,-10.62301,-5.706912,-0.61056,50.61862,0,0,0,53.55681,-4.328969,-48.23528,0.04471847,-109.7821,-59.59858,0.001067912,-0.1257102,0.09433498,0,0.3,0,0,0,0,
6.38225E+17,26.57564,45.54074,16.03957,28.93805,59.30399,-131.4689,0.02355996,-0.8883717,-10.62301,-5.706912,-0.61056,50.61862,0,0,0,58.26812,-9.630449,-51.86756,0.04471847,-109.7821,-59.59858,0.001067912,-0.1257102,0.09433498,0,0.3,0,0,0,0,
6.38225E+17,31.47611,39.76632,10.94987,34.87091,59.37723,-131.4689,0.02355996,-0.8883717,-10.62301,-5.706912,-0.61056,50.61862,0,0,0,66.74585,-22.2738,-59.32866,0.04471847,-109.7821,-59.59858,0.001067912,-0.1257102,0.09433498,0,0.3,0,0,0,0,
6.38225E+17,35.0101,32.2853,6.630623,43.07437,59.45048,-127.8066,0.02355996,-0.8883717,-10.62301,-5.706912,-0.61056,50.61862,0,0,0,73.51178,-37.88108,-63.40369,0.04471847,-109.7821,-59.59858,0.001067912,-0.1257102,0.09433498,0,0.3,0,0,0,0,
6.38225E+17,35.99962,28.38114,5.089704,47.39584,59.45048,-123.8514,0.02355996,-0.8883717,-10.62301,-5.780157,-0.61056,50.61862,0,0,0,75.91306,-46.08833,-63.86317,0.04471847,-109.7821,-59.59858,0.001067912,-0.1257102,0.09433498,0,0.3,0,0,0,0,
6.38225E+17,36.58862,21.60146,3.058492,54.50062,59.45048,-118.651,0.02355996,-0.8883717,-10.62301,-5.780157,-0.61056,50.61862,0,0,0,78.18288,-61.02406,-63.03296,0.04471847,-109.7821,-59.59858,0.001067912,-0.1257102,0.09433498,0,0.3,0,0,0,0,
6.38225E+17,36.56506,18.39865,2.054559,58.5291,59.52373,-117.6255,0.02355996,-0.8883717,-10.62301,-5.706912,-0.61056,50.61862,0,0,0,78.22858,-67.82547,-62.88081,0.04471847,-109.7821,-59.59858,0.001067912,-0.1257102,0.09433498,0,0.3,0,0,0,0,
6.38225E+17,36.44726,21.60146,2.568199,59.26155,59.52373,-117.5523,0.02355996,-0.8883717,-10.62301,-5.706912,-0.61056,50.61862,0,0,0,77.20677,-60.77349,-63.80992,0.04471847,-109.7821,-59.59858,0.001067912,-0.1257102,0.09433498,0,0.3,0,0,0,0,
6.38225E+17,35.5991,27.39925,4.459328,57.35718,59.52373,-119.8229,0.02355996,-0.8883717,-10.62301,-5.706912,-0.61056,50.61862,0,0,0,74.952,-48.23022,-63.65468,0.04471847,-109.7821,-59.59858,0.001067912,-0.1257102,0.09433498,0,0.3,0,0,0,0,
6.38225E+17,34.84518,31.72422,6.443846,54.86684,59.23075,-125.4628,0.02355996,-0.8883717,-10.62301,-5.706912,-0.61056,50.61862,0,0,0,73.35807,-39.03794,-62.97898,0.04471847,-109.7821,-59.59858,0.001067912,-0.1257102,0.09433498,0,0.3,0,0,0,0,
6.38225E+17,33.31378,41.00537,11.79037,48.64101,57.17988,-138.8666,0.02355996,-0.8883717,-10.62301,-5.706912,-0.61056,50.61862,0,0,0,70.23471,-19.69165,-61.48391,0.04471847,-109.7821,-59.59858,0.001067912,-0.1257102,0.09433498,0,0.3,0,0,0,0,
6.38225E+17,31.94731,51.19827,19.47162,42.41516,51.90622,-141.8697,0.02355996,-0.8883717,-10.62301,-5.706912,-0.61056,50.54538,0,0,0,67.73597,1.548911,-59.72763,0.04471847,-109.7821,-59.59858,0.001067912,-0.1257102,0.09433498,0,0.3,0,0,0,0,
6.38225E+17,31.26407,56.17782,23.86091,40.07132,48.17072,-142.0162,0.02355996,-0.8883717,-10.62301,-5.706912,-0.61056,50.61862,0,0,0,66.51669,12.18046,-58.79455,0.04471847,-109.7821,-59.59858,0.001067912,-0.1257102,0.09433498,0,0.3,0,0,0,0,
6.38225E+17,29.61487,64.71087,31.77563,37.50774,39.82077,-142.0894,0.02355996,-0.8883717,-10.62301,-5.706912,-0.61056,50.61862,0,0,0,62.85151,30.55714,-57.77816,0.04471847,-109.7821,-59.59858,0.001067912,-0.1257102,0.09433498,0,0.3,0,0,0,0,
6.38225E+17,27.40023,70.64893,35.06759,37.21476,30.81162,-140.0385,0.02355996,-0.8883717,-10.62301,-5.780157,-0.61056,50.61862,0,0,0,55.59326,40.0229,-61.10081,0.04471847,-109.7821,-59.59858,0.001067912,-0.1257102,0.09433498,0,0.3,0,0,0,0,
6.38225E+17,25.13848,73.26729,32.56944,37.87396,23.92657,-137.6215,0.02355996,-0.8883717,-10.62301,-5.706912,-0.61056,50.61862,0,0,0,46.80426,38.67439,-68.60802,0.04471847,-109.7821,-59.59858,0.001067912,-0.1257102,0.09433498,0,0.3,0,0,0,0,
6.38225E+17,23.23012,73.26729,28.2035,38.24019,20.33756,-132.9338,0.02355996,-0.8883717,-10.62301,-5.706912,-0.61056,50.61862,0,0,0,40.00032,33.53576,-75.15759,0.04471847,-109.7821,-59.59858,0.001067912,-0.1257102,0.09433498,0,0.3,0,0,0,0,
6.38225E+17,20.92125,71.37366,23.32392,38.24019,18.1402,-125.6825,0.02355996,-0.8883717,-10.62301,-5.706912,-0.61056,50.61862,0,0,0,34.06173,27.26255,-79.25031,0.04471847,-109.7821,-59.59858,0.001067912,-0.1257102,0.09433498,0,0.3,0,0,0,0,
6.38225E+17,19.06001,66.79153,19.6117,38.75291,17.26126,-116.6733,0.02355996,-0.8883717,-10.62301,-5.706912,-0.61056,50.61862,0,0,0,31.77686,20.2947,-76.37633,0.04471847,-109.7821,-59.59858,0.001067912,-0.1257102,0.09433498,0,0.3,0,0,0,0,
6.38225E+17,17.41081,64.0329,17.69723,39.33887,17.481,-109.5686,0.02355996,-0.8883717,-10.62301,-5.706912,-0.61056,50.61862,0,0,0,29.60031,16.19836,-73.95772,0.04471847,-109.7821,-59.59858,0.001067912,-0.1257102,0.09433498,0,0.3,0,0,0,0,
6.38225E+17,12.60458,59.1001,16.27304,40.07132,19.01915,-98.14231,0.02355996,-0.8883717,-10.62301,-5.706912,-0.61056,50.61862,0,0,0,23.09811,9.765442,-65.05377,0.04471847,-109.7821,-59.59858,0.001067912,-0.1257102,0.09433498,0,0.3,0,0,0,0,
6.38225E+17,5.84287,55.24269,18.63112,38.38668,21.43624,-91.55025,0.02355996,-0.8883717,-10.62301,-5.706912,-0.61056,50.61862,0,0,0,12.07609,6.545127,-50.34138,0.04471847,-109.7821,-59.59858,0.001067912,-0.1257102,0.09433498,0,0.3,0,0,0,0,
6.38225E+17,-0.7067988,53.37244,25.21505,33.62574,23.85333,-89.13316,0.02355996,-0.8883717,-10.62301,-5.706912,-0.61056,50.61862,0,0,0,-1.682181,9.723679,-31.99294,0.04471847,-109.7821,-59.59858,0.001067912,-0.1257102,0.09433498,0,0.3,0,0,0,0,
6.38225E+17,-5.79575,53.25555,34.22709,27.61964,23.4871,-88.62045,0.02355996,-0.8883717,-10.62301,-5.706912,-0.61056,50.61862,0,0,0,-15.63029,19.94918,-14.35901,0.04471847,-109.7821,-59.59858,0.001067912,-0.1257102,0.09433498,0,0.3,0,0,0,0,
6.38225E+17,-7.586308,53.27893,38.24282,24.98281,21.87571,-88.25421,0.02355996,-0.8883717,-10.62301,-5.780157,-0.61056,50.61862,0,0,0,-21.42356,25.50511,-7.494689,0.04471847,-109.7821,-59.59858,0.001067912,-0.1257102,0.09433498,0,0.3,0,0,0,0,
6.38225E+17,-10.48418,53.18541,45.6906,19.85565,16.16258,-85.91037,0.02355996,-0.8883717,-10.62301,-5.780157,-0.61056,50.61862,0,0,0,-31.90364,36.95785,4.052232,0.04471847,-109.7821,-59.59858,0.001067912,-0.1257102,0.09433498,0,0.3,0,0,0,0,
6.38225E+17,-12.32186,52.76461,50.68691,15.97366,8.691576,-82.90732,0.02355996,-0.8883717,-10.62301,-5.706912,-0.61056,50.61862,0,0,0,-39.23655,45.03253,11.27581,0.04471847,-109.7821,-59.59858,0.001067912,-0.1257102,0.09433498,0,0.3,0,0,0,0,
6.38225E+17,-12.93442,52.20353,51.57411,14.65524,4.956073,-81.29592,0.02355996,-0.8883717,-10.62301,-5.706912,-0.61056,50.61862,0,0,0,-41.67657,45.84493,13.11847,0.04471847,-109.7821,-59.59858,0.001067912,-0.1257102,0.09433498,0,0.3,0,0,0,0,
6.38225E+17,-13.78258,49.91246,49.12265,13.1171,-0.2443342,-77.70691,0.02355996,-0.8883717,-10.62301,-5.706912,-0.61056,50.61862,0,0,0,-44.47888,38.10111,12.97358,0.04471847,-109.7821,-59.59858,0.001067912,-0.1257102,0.09433498,0,0.3,0,0,0,0,
6.38225E+17,-14.25378,45.84466,42.60876,12.75087,-0.4640697,-74.41088,0.02355996,-0.8883717,-10.62301,-5.706912,-0.61056,50.61862,0,0,0,-45.09932,20.87771,9.179934,0.04471847,-109.7821,-59.59858,0.001067912,-0.1257102,0.09433498,0,0.3,0,0,0,0,
6.38225E+17,-14.48938,40.14038,35.09094,12.89736,4.077131,-72.57975,0.02355996,-0.8883717,-10.62301,-5.706912,-0.61056,50.61862,0,0,0,-44.68616,0.2033551,4.570827,0.04471847,-109.7821,-59.59858,0.001067912,-0.1257102,0.09433498,0,0.3,0,0,0,0,
6.38225E+17,-14.46582,36.70378,31.42542,12.89736,7.812634,-72.14028,0.02355996,-0.8883717,-10.62301,-5.706912,-0.61056,50.61862,0,0,0,-44.07479,-10.7398,2.49499,0.04471847,-109.7821,-59.59858,0.001067912,-0.1257102,0.09433498,0,0.3,0,0,0,0,
6.38225E+17,-12.69882,30.4618,25.07496,12.60438,16.82179,-72.57975,0.02355996,-0.8883717,-10.62301,-5.780157,-0.61056,50.61862,0,0,0,-37.69085,-29.82869,-1.086443,0.04471847,-109.7821,-59.59858,0.001067912,-0.1257102,0.09433498,0,0.3,0,0,0,0,
6.38225E+17,-4.452833,26.67453,21.17597,12.09166,31.39758,-76.68148,0.02355996,-0.8883717,-10.62301,-5.706912,-0.61056,50.61862,0,0,0,-12.99109,-41.13187,-1.526878,0.04471847,-109.7821,-59.59858,0.001067912,-0.1257102,0.09433498,0,0.3,0,0,0,0,
6.38225E+17,3.227715,27.96033,21.36275,14.36226,37.69667,-77.56042,0.02355996,-0.8883717,-10.62301,-5.780157,-0.61056,50.61862,0,0,0,9.366807,-38.3154,-2.253942,0.04471847,-109.7821,-59.59858,0.001067912,-0.1257102,0.09433498,0,0.3,0,0,0,0,
6.38225E+17,9.895184,29.176,22.90367,18.39075,41.21243,-77.78016,0.02355996,-0.8883717,-10.62301,-5.706912,-0.61056,50.61862,0,0,0,28.9267,-34.47943,-2.525155,0.04471847,-109.7821,-59.59858,0.001067912,-0.1257102,0.09433498,0,0.3,0,0,0,0,
6.38225E+17,17.69353,30.55531,25.00492,26.00825,44.21548,-80.78321,0.02355996,-0.8883717,-10.62301,-5.706912,-0.61056,50.61862,0,0,0,52.03186,-29.71017,-5.249064,0.04471847,-109.7821,-59.59858,0.001067912,-0.1257102,0.09433498,0,0.3,0,0,0,0,
6.38225E+17,23.3008,32.12165,25.79873,30.91567,45.97337,-93.30813,0.02355996,-0.8883717,-10.62301,-5.706912,-0.61056,50.54538,0,0,0,67.62953,-25.80411,-11.32203,0.04471847,-109.7821,-59.59858,0.001067912,-0.1257102,0.09433498,0,0.3,0,0,0,0,
6.38225E+17,27.14108,33.29056,26.70927,31.20865,46.33959,-105.7598,0.02355996,-0.8883717,-10.62301,-5.706912,-0.61056,50.61862,0,0,0,78.1911,-22.57755,-15.82093,0.04471847,-109.7821,-59.59858,0.001067912,-0.1257102,0.09433498,0,0.3,0,0,0,0,
6.38225E+17,28.57823,33.45421,27.03613,30.4762,46.11986,-112.1321,0.02355996,-0.8883717,-10.62301,-5.706912,-0.61056,50.61862,0,0,0,82.2164,-21.91562,-17.41805,0.04471847,-109.7821,-59.59858,0.001067912,-0.1257102,0.09433498,0,0.3,0,0,0,0,
6.38225E+17,32.08867,32.56584,26.38241,28.27885,45.5339,-120.9948,0.02355996,-0.8883717,-10.62301,-5.706912,-0.61056,50.61862,0,0,0,91.18011,-24.33327,-22.93257,0.04471847,-109.7821,-59.59858,0.001067912,-0.1257102,0.09433498,0,0.3,0,0,0,0,
6.38225E+17,36.56506,29.50329,23.60409,26.00825,45.60714,-132.7873,0.02355996,-0.8883717,-10.62301,-5.706912,-0.61056,50.61862,0,0,0,100.9494,-33.17181,-32.24825,0.04471847,-109.7821,-59.59858,0.001067912,-0.1257102,0.09433498,0,0.3,0,0,0,0,
6.38225E+17,39.27446,27.51615,22.20325,25.05606,46.04661,-140.3315,0.02355996,-0.8883717,-10.62301,-5.780157,-0.61056,50.61862,0,0,0,106.7663,-38.50448,-37.78835,0.04471847,-109.7821,-59.59858,0.001067912,-0.1257102,0.09433498,0,0.3,0,0,0,0,
6.38225E+17,45.28225,23.28469,20.42886,25.27579,46.9988,-142.0162,0.02355996,-0.8883717,-10.62301,-5.706912,-0.61056,50.61862,0,0,0,120.1124,-48.89986,-49.4152,0.04471847,-109.7821,-59.59858,0.001067912,-0.1257102,0.09433498,0,0.3,0,0,0,0,
6.38225E+17,50.65392,19.28702,18.72451,28.79156,47.65801,-142.0894,0.02355996,-0.8883717,-10.62301,-5.706912,-0.61056,50.61862,0,0,0,130.4404,-58.89662,-61.41042,0.04471847,-109.7821,-59.59858,0.001067912,-0.1257102,0.09433498,0,0.3,0,0,0,0,
6.38225E+17,52.79787,17.46352,17.97739,30.84243,47.8045,-142.0894,0.02355996,-0.8883717,-10.62301,-5.706912,-0.61056,50.61862,0,0,0,134.1008,-63.4715,-66.55408,0.04471847,-109.7821,-59.59858,0.001067912,-0.1257102,0.09433498,0,0.3,0,0,0,0,
6.38225E+17,54.44707,14.42435,16.95012,34.3582,48.09748,-142.0894,0.02355996,-0.8883717,-10.62301,-5.706912,-0.61056,50.61862,0,0,0,136.7001,-70.98945,-70.65211,0.04471847,-109.7821,-59.59858,0.001067912,-0.1257102,0.09433498,0,0.3,0,0,0,0,
6.38225E+17,54.39995,13.3022,16.45982,34.65118,48.17072,-142.1627,0.02355996,-0.8883717,-10.62301,-5.706912,-0.61056,50.61862,0,0,0,136.2398,-73.85303,-70.81168,0.04471847,-109.7821,-59.59858,0.001067912,-0.1257102,0.09433498,0,0.3,0,0,0,0,
6.38225E+17,54.35283,14.21395,17.0435,34.13846,48.39046,-142.1627,0.02355996,-0.8883717,-10.62301,-5.706912,-0.61056,50.61862,0,0,0,136.8065,-71.40039,-70.23568,0.04471847,-109.7821,-59.59858,0.001067912,-0.1257102,0.09433498,0,0.3,0,0,0,0,
6.38225E+17,54.32927,15.42961,17.95405,34.13846,48.4637,-142.2359,0.02355996,-0.8883717,-10.62301,-5.706912,-0.61056,50.61862,0,0,0,137.8201,-68.02805,-69.42293,0.04471847,-109.7821,-59.59858,0.001067912,-0.1257102,0.09433498,0,0.3,0,0,0,0,
6.38225E+17,53.64603,19.3104,21.82969,35.31038,48.75668,-142.2359,0.02355996,-0.8883717,-10.62301,-5.706912,-0.61056,50.61862,0,0,0,141.2893,-56.34098,-64.35767,0.04471847,-109.7821,-59.59858,0.001067912,-0.1257102,0.09433498,0,0.3,0,0,0,0,
6.38225E+17,51.26648,24.57049,26.70927,37.43449,48.90318,-142.1627,0.02355996,-0.8883717,-10.62301,-5.706912,-0.61056,50.61862,0,0,0,141.3564,-40.32278,-54.96631,0.04471847,-109.7821,-59.59858,0.001067912,-0.1257102,0.09433498,0,0.3,0,0,0,0,
6.38225E+17,49.61728,27.39925,28.90392,38.31343,48.90318,-142.0162,0.02355996,-0.8883717,-10.62301,-5.706912,-0.61056,50.61862,0,0,0,139.2789,-32.02269,-49.88673,0.04471847,-109.7821,-59.59858,0.001067912,-0.1257102,0.09433498,0,0.3,0,0,0,0,
6.38225E+17,45.02308,33.26719,32.47605,39.19238,48.17072,-142.0894,0.02355996,-0.8883717,-10.62301,-5.706912,-0.61056,50.61862,0,0,0,129.5225,-15.99785,-38.93184,0.04471847,-109.7821,-59.59858,0.001067912,-0.1257102,0.09433498,0,0.3,0,0,0,0,
6.38225E+17,39.93414,37.33499,33.90023,38.82615,46.85231,-141.8697,0.02355996,-0.8883717,-10.62301,-5.706912,-0.61056,50.61862,0,0,0,115.8017,-6.458521,-30.02024,0.04471847,-109.7821,-59.59858,0.001067912,-0.1257102,0.09433498,0,0.3,0,0,0,0,
6.38225E+17,33.14886,38.36363,33.55002,37.87396,45.90012,-136.8158,0.02355996,-0.8883717,-10.62301,-5.706912,-0.61056,50.61862,0,0,0,97.47323,-5.020672,-19.10475,0.04471847,-109.7821,-59.59858,0.001067912,-0.1257102,0.09433498,0,0.3,0,0,0,0,
6.38225E+17,28.71959,36.30635,31.5655,38.16694,46.77906,-125.1698,0.02355996,-0.8883717,-10.62301,-5.706912,-0.61056,50.61862,0,0,0,85.1809,-11.31297,-12.89013,0.04471847,-109.7821,-59.59858,0.001067912,-0.1257102,0.09433498,0,0.3,0,0,0,0,
6.38225E+17,26.55208,34.41272,29.74442,39.33887,48.39046,-114.9155,0.02355996,-0.8883717,-10.62301,-5.706912,-0.61056,50.61862,0,0,0,78.75053,-17.068,-10.75972,0.04471847,-109.7821,-59.59858,0.001067912,-0.1257102,0.09433498,0,0.3,0,0,0,0,
6.38225E+17,23.4186,30.43842,26.05555,44.75901,52.41894,-94.5533,0.02355996,-0.8883717,-10.62301,-5.706912,-0.61056,50.61862,0,0,0,68.97429,-28.89074,-9.10168,0.04471847,-109.7821,-59.59858,0.001067912,-0.1257102,0.09433498,0,0.3,0,0,0,0,
6.38225E+17,20.99193,29.26951,25.21505,52.08353,55.2755,-84.37222,0.02355996,-0.8883717,-10.62301,-5.706912,-0.61056,50.61862,0,0,0,62.02308,-32.09652,-6.706275,0.04471847,-109.7821,-59.59858,0.001067912,-0.1257102,0.09433498,0,0.3,0,0,0,0,
6.38225E+17,19.38985,29.43316,25.54191,54.7936,56.0812,-81.07619,0.02355996,-0.8883717,-10.62301,-5.780157,-0.5373149,50.61862,0,0,0,57.64582,-31.43849,-4.56319,0.04471847,-109.7821,-59.59858,0.001067912,-0.1257102,0.09433498,0,0.3,0,0,0,0,
6.38225E+17,14.93702,31.02288,26.26567,56.11201,57.03339,-76.31525,0.02355996,-0.8883717,-10.62301,-5.706912,-0.61056,50.61862,0,0,0,44.66614,-27.50588,-0.9176929,0.04471847,-109.7821,-59.59858,0.001067912,-0.1257102,0.09433498,0,0.3,0,0,0,0,
6.38225E+17,9.706704,33.12691,27.97002,52.08353,57.17988,-76.242,0.02355996,-0.8883717,-10.62301,-5.780157,-0.61056,50.61862,0,0,0,29.37398,-21.54864,3.373847,0.04471847,-109.7821,-59.59858,0.001067912,-0.1257102,0.09433498,0,0.3,0,0,0,0,
6.38225E+17,5.065392,34.97379,30.14132,45.19848,56.00795,-81.88189,0.02355996,-0.8883717,-10.62301,-5.706912,-0.61056,50.61862,0,0,0,15.55968,-15.53324,7.190292,0.04471847,-109.7821,-59.59858,0.001067912,-0.1257102,0.09433498,0,0.3,0,0,0,0,
6.38225E+17,2.473796,36.07257,31.21529,40.29105,54.10358,-84.59196,0.02355996,-0.8883717,-10.62301,-5.706912,-0.61056,50.61862,0,0,0,7.635113,-12.17664,8.377551,0.04471847,-109.7821,-59.59858,0.001067912,-0.1257102,0.09433498,0,0.3,0,0,0,0,
6.38225E+17,0.1884797,36.58689,31.93906,35.74985,51.32027,-85.69064,0.02355996,-0.8883717,-10.62301,-5.706912,-0.5373149,50.61862,0,0,0,0.5842906,-10.33022,9.267354,0.04471847,-109.7821,-59.59858,0.001067912,-0.1257102,0.09433498,0,0.3,0,0,0,0,
6.38225E+17,-2.096837,35.605,31.63554,32.16084,48.17072,-82.76083,0.02355996,-0.8883717,-10.62301,-5.706912,-0.61056,50.61862,0,0,0,-6.526083,-12.54885,9.894746,0.04471847,-109.7821,-59.59858,0.001067912,-0.1257102,0.09433498,0,0.3,0,0,0,0,
6.38225E+17,-3.109915,34.13218,30.79504,31.13541,47.07204,-79.68453,0.02355996,-0.8883717,-10.62301,-5.706912,-0.61056,50.61862,0,0,0,-9.692096,-16.375,10.03775,0.04471847,-109.7821,-59.59858,0.001067912,-0.1257102,0.09433498,0,0.3,0,0,0,0,
6.38225E+17,-4.429273,29.3864,27.89998,30.98892,47.29178,-72.94598,0.02355996,-0.8883717,-10.62301,-5.706912,-0.61056,50.61862,0,0,0,-13.79225,-29.06573,9.706926,0.04471847,-109.7821,-59.59858,0.001067912,-0.1257102,0.09433498,0,0.3,0,0,0,0,
6.38225E+17,-4.452833,22.93402,23.37061,33.62574,51.32027,-65.47498,0.02355996,-0.8883717,-10.62301,-5.706912,-0.61056,50.61862,0,0,0,-13.64154,-47.09713,6.825785,0.04471847,-109.7821,-59.59858,0.001067912,-0.1257102,0.09433498,0,0.3,0,0,0,0,
6.38225E+17,-1.578517,18.65581,19.30819,42.78139,54.90928,-58.15046,0.02355996,-0.8883717,-10.62301,-5.706912,-0.61056,50.61862,0,0,0,-4.69496,-59.84325,2.020833,0.04471847,-109.7821,-59.59858,0.001067912,-0.1257102,0.09433498,0,0.3,0,0,0,0,
6.38225E+17,-0.4947592,15.68677,18.7712,48.86074,55.86147,-52.58382,0.02355996,-0.8883717,-10.62301,-5.780157,-0.61056,50.61862,0,0,0,-1.479135,-66.85233,2.93756,0.04471847,-109.7821,-59.59858,0.001067912,-0.1257102,0.09433498,0,0.3,0,0,0,0,
6.38225E+17,0.3298394,10.82411,19.23815,59.3348,57.03339,-42.62248,0.02355996,-0.8883717,-10.62301,-5.706912,-0.61056,50.61862,0,0,0,1.006946,-77.51096,6.562783,0.04471847,-109.7821,-59.59858,0.001067912,-0.1257102,0.09433498,0,0.3,0,0,0,0,
6.38225E+17,0,10.98776,19.47162,64.24223,57.61935,-37.12909,0.02355996,-0.8883717,-10.62301,-5.706912,-0.61056,50.54538,0,0,0,0,-76.95687,7.006295,0.04471847,-109.7821,-59.59858,0.001067912,-0.1257102,0.09433498,0,0.3,0,0,0,0,
6.38225E+17,-1.531397,14.21395,20.42886,62.41109,57.91233,-37.93478,0.02355996,-0.8883717,-10.62301,-5.706912,-0.61056,50.61862,0,0,0,-4.698547,-68.86992,7.399803,0.04471847,-109.7821,-59.59858,0.001067912,-0.1257102,0.09433498,0,0.3,0,0,0,0,
6.38225E+17,-2.685836,16.45825,21.47948,59.40804,57.98557,-41.67029,0.02355996,-0.8883717,-10.62301,-5.706912,-0.61056,50.61862,0,0,0,-8.280763,-62.95839,8.170559,0.04471847,-109.7821,-59.59858,0.001067912,-0.1257102,0.09433498,0,0.3,0,0,0,0,
6.38225E+17,-5.018272,21.43781,24.53798,51.13134,57.39961,-53.02329,0.02355996,-0.8883717,-10.62301,-5.706912,-0.61056,50.61862,0,0,0,-15.70182,-49.21841,10.46585,0.04471847,-109.7821,-59.59858,0.001067912,-0.1257102,0.09433498,0,0.3,0,0,0,0,
6.38225E+17,-6.738149,26.39399,27.73655,41.68271,54.46981,-65.69471,0.02355996,-0.8883717,-10.62301,-5.706912,-0.61056,50.61862,0,0,0,-21.29709,-35.3981,11.90763,0.04471847,-109.7821,-59.59858,0.001067912,-0.1257102,0.09433498,0,0.3,0,0,0,0,
6.38225E+17,-7.421387,28.45127,28.85722,37.50774,52.05272,-70.52889,0.02355996,-0.8883717,-10.62301,-5.706912,-0.5373149,50.61862,0,0,0,-23.45687,-29.91185,11.73157,0.04471847,-109.7821,-59.59858,0.001067912,-0.1257102,0.09433498,0,0.3,0,0,0,0,
6.38225E+17,-8.834986,30.81247,29.86115,30.91567,46.33959,-75.87578,0.02355996,-0.8883717,-10.62301,-5.706912,-0.61056,50.61862,0,0,0,-27.78773,-23.98988,10.4257,0.04471847,-109.7821,-59.59858,0.001067912,-0.1257102,0.09433498,0,0.3,0,0,0,0,
6.38225E+17,-10.15434,30.18126,28.74048,26.44772,41.6519,-77.8534,0.02355996,-0.8883717,-10.62301,-5.706912,-0.61056,50.61862,0,0,0,-31.62713,-26.53215,8.233467,0.04471847,-109.7821,-59.59858,0.001067912,-0.1257102,0.09433498,0,0.3,0,0,0,0,
6.38225E+17,-11.02606,24.19644,22.74024,24.25036,39.52779,-76.97446,0.02355996,-0.8883717,-10.62301,-5.706912,-0.61056,50.61862,0,0,0,-33.12192,-44.97861,1.634683,0.04471847,-109.7821,-59.59858,0.001067912,-0.1257102,0.09433498,0,0.3,0,0,0,0,
6.38225E+17,-11.14386,17.25311,18.93463,25.1293,40.84621,-73.75167,0.02355996,-0.8883717,-10.62301,-5.706912,-0.61056,50.61862,0,0,0,-32.97634,-63.23361,-0.9466506,0.04471847,-109.7821,-59.59858,0.001067912,-0.1257102,0.09433498,0,0.3,0,0,0,0,
6.38225E+17,-11.2381,12.46058,18.16417,26.44772,42.60409,-71.55432,0.02355996,-0.8883717,-10.62301,-5.706912,-0.61056,50.61862,0,0,0,-33.47754,-74.58215,0.1357987,0.04471847,-109.7821,-59.59858,0.001067912,-0.1257102,0.09433498,0,0.3,0,0,0,0,
6.38225E+17,-12.0627,5.026314,19.35488,29.37753,46.33959,-67.89206,0.02355996,-0.8883717,-10.62301,-5.706912,-0.61056,50.61862,0,0,0,-36.99646,-90.78036,4.772889,0.04471847,-109.7821,-59.59858,0.001067912,-0.1257102,0.09433498,0,0.3,0,0,0,0,
6.38225E+17,-14.04174,3.647,20.33547,29.52402,49.12291,-66.93987,0.02355996,-0.8883717,-10.62301,-5.706912,-0.61056,50.61862,0,0,0,-43.53273,-93.20654,5.709991,0.04471847,-109.7821,-59.59858,0.001067912,-0.1257102,0.09433498,0,0.3,0,0,0,0,
6.38225E+17,-16.79825,7.130352,21.99312,26.08149,50.00185,-70.74863,0.02355996,-0.8883717,-10.62301,-5.706912,-0.61056,50.61862,0,0,0,-52.67294,-83.74361,6.130424,0.04471847,-109.7821,-59.59858,0.001067912,-0.1257102,0.09433498,0,0.3,0,0,0,0,
6.38225E+17,-18.47101,10.00587,23.65078,23.15168,49.41589,-74.04465,0.02355996,-0.8883717,-10.62301,-5.706912,-0.61056,50.61862,0,0,0,-58.55447,-75.63017,6.945569,0.04471847,-109.7821,-59.59858,0.001067912,-0.1257102,0.09433498,0,0.3,0,0,0,0,
6.38225E+17,-22.16992,16.34136,27.87663,16.12015,45.68039,-81.88189,0.02355996,-0.8883717,-10.62301,-5.706912,-0.61056,50.61862,0,0,0,-71.81564,-57.00629,7.893264,0.04471847,-109.7821,-59.59858,0.001067912,-0.1257102,0.09433498,0,0.3,0,0,0,0,
6.38225E+17,-25.8924,21.39106,32.12584,8.136425,39.52779,-87.88799,0.02355996,-0.8883717,-10.62301,-5.706912,-0.61056,50.61862,0,0,0,-85.18661,-40.94481,7.144177,0.04471847,-109.7821,-59.59858,0.001067912,-0.1257102,0.09433498,0,0.3,0,0,0,0,
6.38225E+17,-29.07299,23.63536,35.60458,-0.140279,32.05679,-90.45158,0.02355996,-0.8883717,-10.62301,-5.706912,-0.61056,50.61862,0,0,0,-97.0869,-31.60883,6.274392,0.04471847,-109.7821,-59.59858,0.001067912,-0.1257102,0.09433498,0,0.3,0,0,0,0,
6.38225E+17,-30.22743,23.47172,36.42173,-4.168763,28.39453,-90.96429,0.02355996,-0.8883717,-10.62301,-5.706912,-0.61056,50.61862,0,0,0,-101.4365,-30.83975,5.743594,0.04471847,-109.7821,-59.59858,0.001067912,-0.1257102,0.09433498,0,0.3,0,0,0,0,
6.38225E+17,-31.26407,20.47931,34.88082,-10.46785,23.70683,-91.11078,0.02355996,-0.8883717,-10.62301,-5.706912,-0.61056,50.61862,0,0,0,-104.4096,-39.38776,3.616498,0.04471847,-109.7821,-59.59858,0.001067912,-0.1257102,0.09433498,0,0.3,0,0,0,0,
6.38225E+17,-31.12271,13.62949,31.19195,-13.10467,22.60816,-90.23183,0.02355996,-0.8883717,-10.62301,-5.706912,-0.61056,50.61862,0,0,0,-102.6807,-59.29962,1.713376,0.04471847,-109.7821,-59.59858,0.001067912,-0.1257102,0.09433498,0,0.3,0,0,0,0,
6.38225E+17,-29.59131,4.605506,29.39421,-12.6652,25.09849,-88.5472,0.02355996,-0.8883717,-10.62301,-5.706912,-0.61056,50.61862,0,0,0,-97.95695,-82.12568,4.14631,0.04471847,-109.7821,-59.59858,0.001067912,-0.1257102,0.09433498,0,0.3,0,0,0,0,
6.38225E+17,-28.22483,1.098776,29.53429,-11.78626,27.00287,-87.96124,0.02355996,-0.8883717,-10.62301,-5.706912,-0.61056,50.61862,0,0,0,-94.1418,-90.11548,7.041137,0.04471847,-109.7821,-59.59858,0.001067912,-0.1257102,0.09433498,0,0.3,0,0,0,0,
6.38225E+17,-23.37148,-0.5376987,29.93119,-8.563474,31.39758,-87.15554,0.02355996,-0.8883717,-10.62301,-5.706912,-0.61056,50.61862,0,0,0,-79.29076,-93.46589,15.13065,0.04471847,-109.7821,-59.59858,0.001067912,-0.1257102,0.09433498,0,0.3,0,0,0,0,
6.38225E+17,-17.15165,4.535372,30.88843,-3.729292,34.62037,-87.44852,0.02355996,-0.8883717,-10.62301,-5.780157,-0.61056,50.61862,0,0,0,-59.3903,-80.54219,24.08376,0.04471847,-109.7821,-59.59858,0.001067912,-0.1257102,0.09433498,0,0.3,0,0,0,0,
6.38225E+17,-13.07578,9.023986,31.72893,0.006211365,36.01203,-88.03448,0.02355996,-0.8883717,-10.62301,-5.706912,-0.61056,50.61862,0,0,0,-45.66157,-69.15459,28.24536,0.04471847,-109.7821,-59.59858,0.001067912,-0.1257102,0.09433498,0,0.3,0,0,0,0,
6.38225E+17,-6.643909,17.01933,33.80684,6.744767,36.52474,-89.27965,0.02355996,-0.8883717,-10.62301,-5.706912,-0.61056,50.61862,0,0,0,-23.33698,-48.42213,32.00075,0.04471847,-109.7821,-59.59858,0.001067912,-0.1257102,0.09433498,0,0.3,0,0,0,0,
6.38225E+17,-1.107318,24.19644,35.79136,13.04385,34.98659,-92.94191,0.02355996,-0.8883717,-10.62301,-5.706912,-0.61056,50.61862,0,0,0,-3.857732,-30.16145,31.23513,0.04471847,-109.7821,-59.59858,0.001067912,-0.1257102,0.09433498,0,0.3,0,0,0,0,
6.38225E+17,1.366478,27.11872,36.14157,15.53419,33.88792,-96.1647,0.02355996,-0.8883717,-10.62301,-5.706912,-0.61056,50.61862,0,0,0,4.705962,-23.55273,28.93139,0.04471847,-109.7821,-59.59858,0.001067912,-0.1257102,0.09433498,0,0.3,0,0,0,0,
6.38225E+17,5.112512,29.69032,35.39445,18.3175,31.98354,-103.7089,0.02355996,-0.8883717,-10.62301,-5.706912,-0.61056,50.61862,0,0,0,17.20569,-19.30493,23.96166,0.04471847,-109.7821,-59.59858,0.001067912,-0.1257102,0.09433498,0,0.3,0,0,0,0,
6.38225E+17,8.670066,28.59154,31.6122,19.34294,31.83705,-111.4729,0.02355996,-0.8883717,-10.62301,-5.706912,-0.61056,50.61862,0,0,0,28.18711,-26.39663,16.49942,0.04471847,-109.7821,-59.59858,0.001067912,-0.1257102,0.09433498,0,0.3,0,0,0,0,
6.38225E+17,10.95538,24.17306,25.75204,18.90347,34.54712,-116.6733,0.02355996,-0.8883717,-10.62301,-5.706912,-0.61056,50.61862,0,0,0,34.13094,-42.15001,7.97142,0.04471847,-109.7821,-59.59858,0.001067912,-0.1257102,0.09433498,0,0.3,0,0,0,0,
6.38225E+17,11.77998,20.38579,22.08651,18.02452,37.47693,-119.8961,0.02355996,-0.8883717,-10.62301,-5.706912,-0.61056,50.61862,0,0,0,35.75523,-53.76331,3.099866,0.04471847,-109.7821,-59.59858,0.001067912,-0.1257102,0.09433498,0,0.3,0,0,0,0,
6.38225E+17,12.51034,12.39045,16.97346,15.24121,43.99575,-127.9531,0.02355996,-0.8883717,-10.62301,-5.706912,-0.61056,50.61862,0,0,0,36.64548,-75.57804,-3.193961,0.04471847,-109.7821,-59.59858,0.001067912,-0.1257102,0.09433498,0,0.3,0,0,0,0,
6.38225E+17,12.62814,5.634147,16.36643,10.26054,50.29483,-140.6245,0.02355996,-0.8883717,-10.62301,-5.780157,-0.61056,50.61862,0,0,0,37.22728,-91.50478,-2.188106,0.04471847,-109.7821,-59.59858,0.001067912,-0.1257102,0.09433498,0,0.3,0,0,0,0,
6.38225E+17,13.1229,2.548224,17.83731,3.082508,54.17683,-142.0894,0.02355996,-0.8883717,-10.62301,-5.706912,-0.61056,50.61862,0,0,0,39.51987,-97.66111,1.169617,0.04471847,-109.7821,-59.59858,0.001067912,-0.1257102,0.09433498,0,0.3,0,0,0,0,
6.38225E+17,14.70142,3.436596,18.60777,-3.729292,55.78822,-142.1627,0.02355996,-0.8883717,-10.62301,-5.706912,-0.61056,50.61862,0,0,0,44.57946,-95.03562,1.5597,0.04471847,-109.7821,-59.59858,0.001067912,-0.1257102,0.09433498,0,0.3,0,0,0,0,
6.38225E+17,15.71449,4.745775,19.00467,-5.780157,55.71497,-142.1627,0.02355996,-0.8883717,-10.62301,-5.706912,-0.5373149,50.61862,0,0,0,47.75457,-91.69868,1.377445,0.04471847,-109.7821,-59.59858,0.001067912,-0.1257102,0.09433498,0,0.3,0,0,0,0,
6.38225E+17,19.08357,8.766827,20.82576,-7.831022,54.25007,-142.1627,0.02355996,-0.8883717,-10.62301,-5.706912,-0.61056,50.61862,0,0,0,58.58941,-80.96334,1.003168,0.04471847,-109.7821,-59.59858,0.001067912,-0.1257102,0.09433498,0,0.3,0,0,0,0,
6.38225E+17,23.772,11.71248,23.34727,-5.633667,51.97947,-142.0162,0.02355996,-0.8883717,-10.62301,-5.706912,-0.61056,50.61862,0,0,0,73.93645,-72.01115,-0.491509,0.04471847,-109.7821,-59.59858,0.001067912,-0.1257102,0.09433498,0,0.3,0,0,0,0,
6.38225E+17,26.43428,12.25018,24.37455,-2.99684,50.66106,-141.9429,0.02355996,-0.8883717,-10.62301,-5.706912,-0.61056,50.61862,0,0,0,82.51118,-69.81983,-2.381666,0.04471847,-109.7821,-59.59858,0.001067912,-0.1257102,0.09433498,0,0.3,0,0,0,0,
6.38225E+17,31.31119,11.36181,24.56132,3.81496,48.31721,-141.7964,0.02355996,-0.8883717,-10.62301,-5.706912,-0.61056,50.61862,0,0,0,96.7478,-71.66361,-9.297802,0.04471847,-109.7821,-59.59858,0.001067912,-0.1257102,0.09433498,0,0.3,0,0,0,0,
6.38225E+17,35.26926,7.527781,22.64685,10.8465,46.41284,-133.6662,0.02355996,-0.8883717,-10.62301,-5.706912,-0.61056,50.61862,0,0,0,105.9837,-82.24837,-18.4934,0.04471847,-109.7821,-59.59858,0.001067912,-0.1257102,0.09433498,0,0.3,0,0,0,0,
6.38225E+17,36.6593,4.81591,21.89973,13.70306,45.68039,-128.1728,0.02355996,-0.8883717,-10.62301,-5.706912,-0.61056,50.61862,0,0,0,109.0322,-89.18185,-21.85499,0.04471847,-109.7821,-59.59858,0.001067912,-0.1257102,0.09433498,0,0.3,0,0,0,0,
6.38225E+17,38.33206,-1.192288,21.71296,18.17101,44.87469,-119.3834,0.02355996,-0.8883717,-10.62301,-5.706912,-0.61056,50.61862,0,0,0,113.2858,-103.3134,-25.07013,0.04471847,-109.7821,-59.59858,0.001067912,-0.1257102,0.09433498,0,0.3,0,0,0,0,
6.38225E+17,38.73257,-0.3272949,18.72451,19.48943,44.21548,-116.9663,0,-0.8883717,-10.62301,-5.706912,-0.61056,50.61862,0,0,0,110.2181,-103.7039,-30.93546,0,-109.7821,-59.59857,0.001067912,-0.1257102,0.09433498,0,0.3,0,0,0,0,
6.38225E+17,38.4263,1.402692,21.29271,18.09777,43.2633,-117.5523,0,-0.8883717,-10.62301,-5.706912,-0.5373149,50.61862,0,0,0,112.9489,-97.6329,-25.97825,0,-109.7821,-59.59857,0.001067912,-0.1257102,0.09433498,0,0.3,0,0,0,0,
6.38225E+17,38.4263,4.324967,27.47973,15.97366,42.4576,-120.1891,0.02355996,-0.8883717,-10.62301,-5.706912,-0.61056,50.61862,0,0,0,120.8848,-84.89831,-15.97505,0.04471847,-109.7821,-59.59858,0.001067912,-0.1257102,0.09433498,0,0.3,0,0,0,0,
6.38225E+17,38.5441,6.125089,29.65103,15.60743,42.09137,-121.1413,0,-0.8883717,-10.62301,-5.706912,-0.61056,50.61862,0,0,0,123.7255,-78.31007,-13.05118,0,-109.7821,-59.59857,0.001067912,-0.1257102,0.09433498,0,0.3,0,0,0,0,
6.38225E+17,39.62786,12.57747,33.83019,16.55962,40.69971,-121.7273,0,-0.8883717,-10.62301,-5.706912,-0.61056,50.61862,0,0,0,130.3598,-58.38445,-10.92791,0,-109.7821,-59.59857,0.001067912,-0.1257102,0.09433498,0,0.3,0,0,0,0,
6.38225E+17,41.08857,20.92349,36.49178,20.51486,38.06289,-120.1159,0.02355996,-0.8883717,-10.62301,-5.706912,-0.61056,50.61862,0,0,0,133.9825,-36.23361,-14.70117,0.04471847,-109.7821,-59.59858,0.001067912,-0.1257102,0.09433498,0,0.3,0,0,0,0,
6.38225E+17,41.55977,29.76045,36.86533,26.81394,34.47387,-118.358,0,-0.8883717,-10.62301,-5.706912,-0.61056,50.61862,0,0,0,129.8699,-17.14478,-21.86703,0,-109.7821,-59.59857,0.001067912,-0.1257102,0.09433498,0,0.3,0,0,0,0,
6.38225E+17,41.30061,33.87502,36.09487,29.96349,32.27652,-116.7466,0.02355996,-0.8883717,-10.62301,-5.706912,-0.61056,50.61862,0,0,0,124.9228,-10.07544,-26.15638,0.04471847,-109.7821,-59.59858,0.001067912,-0.1257102,0.09433498,0,0.3,0,0,0,0,
6.38225E+17,40.19329,39.64943,32.73286,34.79766,28.24804,-111.4729,0,-0.8883717,-10.62301,-5.706912,-0.61056,50.61862,0,0,0,112.7974,-3.735015,-34.84055,0,-109.7821,-59.59857,0.001067912,-0.1257102,0.09433498,0,0.3,0,0,0,0,
6.38225E+17,37.2483,42.59509,27.89998,37.72747,25.17174,-104.0752,0,-0.8883717,-10.62301,-5.706912,-0.61056,50.61862,0,0,0,97.18504,-4.247174,-40.5373,0,-109.7821,-59.59857,0.001067912,-0.1257102,0.09433498,0,0.3,0,0,0,0,
6.38225E+17,34.53891,43.08603,26.35906,38.24019,24.21955,-100.4862,0,-0.8883717,-10.62301,-5.706912,-0.61056,50.54538,0,0,0,88.78461,-5.044684,-39.3553,0,-109.7821,-59.59857,0.001067912,-0.1257102,0.09433498,0,0.3,0,0,0,0,
6.38225E+17,25.0678,44.09129,27.05948,36.84853,23.26737,-89.49938,0,-0.8883717,-10.62301,-5.780157,-0.61056,50.61862,0,0,0,66.28178,-2.617393,-26.64627,0,-109.7821,-59.59857,0.001067912,-0.1257102,0.09433498,0,0.3,0,0,0,0,
6.38225E+17,16.18569,46.40574,28.71714,33.11303,22.6814,-79.02532,0,-0.8883717,-10.62301,-5.706912,-0.61056,50.61862,0,0,0,43.49186,2.979237,-18.51038,0,-109.7821,-59.59857,0.001067912,-0.1257102,0.09433498,0,0.3,0,0,0,0,
6.38225E+17,5.536591,49.72544,31.79898,26.59421,20.48405,-68.84425,0,-0.8883717,-10.62301,-5.706912,-0.61056,50.61862,0,0,0,15.09662,11.75566,-12.60819,0,-109.7821,-59.59857,0.001067912,-0.1257102,0.09433498,0,0.3,0,0,0,0,
6.38225E+17,-0.02355996,51.45543,34.39052,21.97976,18.28669,-63.93682,0,-0.8883717,-10.62301,-5.706912,-0.61056,50.61862,0,0,0,-0.06513951,17.60484,-9.936373,0,-109.7821,-59.59857,0.001067912,-0.1257102,0.09433498,0,0.3,0,0,0,0,
6.38225E+17,-8.905665,53.46595,40.18064,12.16491,12.42708,-55.66012,0,-0.8883717,-10.62301,-5.780157,-0.61056,50.61862,0,0,0,-25.60846,28.61588,-4.923541,0,-109.7821,-59.59857,0.001067912,-0.1257102,0.09433498,0,0.3,0,0,0,0,
6.38225E+17,-14.37158,53.55946,45.94742,2.643037,5.175808,-47.60315,0,-0.8883717,-10.62301,-5.706912,-0.61056,50.61862,0,0,0,-43.44836,37.90589,1.219382,0,-109.7821,-59.59857,0.001067912,-0.1257102,0.09433498,0,0.3,0,0,0,0,
6.38225E+17,-16.63333,52.27366,51.50407,-4.534989,-2.295199,-40.13214,0,-0.8883717,-10.62301,-5.780157,-0.61056,50.61862,0,0,0,-53.23094,45.81725,9.830946,0,-109.7821,-59.59857,0.001067912,-0.1257102,0.09433498,0,0.3,0,0,0,0,
6.38225E+17,-16.82181,50.66056,56.45369,-9.076189,-9.106999,-34.63876,0,-0.8883717,-10.62301,-5.706912,-0.61056,50.54538,0,0,0,-56.62659,52.79278,18.94859,0,-109.7821,-59.59857,0.001067912,-0.1257102,0.09433498,0,0.3,0,0,0,0,
6.38225E+17,-16.75113,49.95922,58.74172,-10.68758,-12.47628,-32.51464,0,-0.8883717,-10.62301,-5.706912,-0.61056,50.61862,0,0,0,-57.5799,56.24611,22.95334,0,-109.7821,-59.59857,0.001067912,-0.1257102,0.09433498,0,0.3,0,0,0,0,
6.38225E+17,-16.75113,49.49166,61.9403,-13.25116,-18.04291,-29.14537,0,-0.8883717,-10.62301,-5.706912,-0.61056,50.61862,0,0,0,-58.88076,62.01083,27.27533,0,-109.7821,-59.59857,0.001067912,-0.1257102,0.09433498,0,0.3,0,0,0,0,
6.38225E+17,-16.75113,50.00598,61.59008,-15.59501,-22.07139,-27.02126,0,-0.8883717,-10.62301,-5.706912,-0.61056,50.54538,0,0,0,-58.50631,62.06618,26.03127,0,-109.7821,-59.59857,0.001067912,-0.1257102,0.09433498,0,0.3,0,0,0,0,
6.38225E+17,-16.79825,50.4034,59.51218,-16.40071,-23.02358,-26.36205,0,-0.8883717,-10.62301,-5.706912,-0.61056,50.61862,0,0,0,-57.77365,58.44718,23.02665,0,-109.7821,-59.59857,0.001067912,-0.1257102,0.09433498,0,0.3,0,0,0,0,
6.38225E+17,-16.79825,51.03462,51.76089,-16.40071,-21.77841,-26.06907,0,-0.8883717,-10.62301,-5.706912,-0.5373149,50.61862,0,0,0,-54.50443,44.49682,12.19728,0,-109.7821,-59.59857,0.001067912,-0.1257102,0.09433498,0,0.3,0,0,0,0,
6.38225E+17,-16.86893,50.30989,39.78374,-14.42309,-15.77231,-30.31729,0,-0.8883717,-10.62301,-5.706912,-0.61056,50.61862,0,0,0,-49.4738,23.48931,-5.194544,0,-109.7821,-59.59857,0.001067912,-0.1257102,0.09433498,0,0.3,0,0,0,0,
6.38225E+17,-17.10453,48.01883,28.76383,-11.34679,-7.202625,-35.44445,0,-0.8883717,-10.62301,-5.706912,-0.61056,50.61862,0,0,0,-45.10682,5.581655,-21.76926,0,-109.7821,-59.59857,0.001067912,-0.1257102,0.09433498,0,0.3,0,0,0,0,
6.38225E+17,-17.19877,46.84992,26.28902,-9.881886,-3.027651,-37.86154,0,-0.8883717,-10.62301,-5.706912,-0.5373149,50.61862,0,0,0,-44.43009,1.079677,-24.80867,0,-109.7821,-59.59857,0.001067912,-0.1257102,0.09433498,0,0.3,0,0,0,0,
6.38225E+17,-17.22233,45.56412,26.66258,-7.904267,3.93064,-42.40274,0,-0.8883717,-10.62301,-5.706912,-0.61056,50.61862,0,0,0,-45.3591,-0.6037008,-22.02034,0,-109.7821,-59.59857,0.001067912,-0.1257102,0.09433498,0,0.3,0,0,0,0,
6.38225E+17,-17.22233,46.82654,32.91964,-7.757777,7.739389,-45.18605,0,-0.8883717,-10.62301,-5.706912,-0.5373149,50.61862,0,0,0,-48.47132,8.661773,-11.98025,0,-109.7821,-59.59857,0.001067912,-0.1257102,0.09433498,0,0.3,0,0,0,0,
6.38225E+17,-17.22233,48.83707,39.20006,-8.563474,7.446409,-45.91851,0,-0.8883717,-10.62301,-5.706912,-0.61056,50.61862,0,0,0,-50.94137,20.40257,-4.011787,0,-109.7821,-59.59857,0.001067912,-0.1257102,0.09433498,0,0.3,0,0,0,0,
6.38225E+17,-17.22233,50.7307,44.31311,-9.442415,5.835015,-46.065,0,-0.8883717,-10.62301,-5.706912,-0.5373149,50.61862,0,0,0,-52.57249,31.17052,1.250227,0,-109.7821,-59.59857,0.001067912,-0.1257102,0.09433498,0,0.3,0,0,0,0,
6.38225E+17,-17.15165,54.21405,54.30574,-12.07924,-0.61056,-44.08738,0,-0.8883717,-10.62301,-5.706912,-0.61056,50.61862,0,0,0,-54.93335,53.72012,9.642529,0,-109.7821,-59.59857,0.001067912,-0.1257102,0.09433498,0,0.3,0,0,0,0,
6.38225E+17,-17.01029,55.54661,62.26716,-16.18097,-10.05919,-40.13214,0,-0.8883717,-10.62301,-5.706912,-0.61056,50.61862,0,0,0,-56.59913,71.25428,16.65854,0,-109.7821,-59.59857,0.001067912,-0.1257102,0.09433498,0,0.3,0,0,0,0,
6.38225E+17,-16.96317,55.21932,64.78866,-18.52482,-14.96661,-37.49532,0,-0.8883717,-10.62301,-5.706912,-0.61056,50.61862,0,0,0,-57.39302,76.07436,19.8066,0,-109.7821,-59.59857,0.001067912,-0.1257102,0.09433498,0,0.3,0,0,0,0,
6.38225E+17,-16.98673,54.07378,65.349,-22.33356,-21.70517,-32.95412,0,-0.8883717,-10.62301,-5.706912,-0.61056,50.61862,0,0,0,-58.26625,75.71431,22.38829,0,-109.7821,-59.59857,0.001067912,-0.1257102,0.09433498,0,0.3,0,0,0,0,
6.38225E+17,-17.81133,53.98027,59.769,-24.0182,-24.63498,-29.80457,0,-0.8883717,-10.62301,-5.780157,-0.61056,50.61862,0,0,0,-59.22917,64.06536,16.002,0,-109.7821,-59.59857,0.001067912,-0.1257102,0.09433498,0,0.3,0,0,0,0,
6.38225E+17,-19.88461,53.65298,48.74909,-23.13926,-21.99815,-30.02431,0,-0.8883717,-10.62301,-5.706912,-0.61056,50.54538,0,0,0,-60.98121,42.83035,0.2502496,0,-109.7821,-59.59857,0.001067912,-0.1257102,0.09433498,0,0.3,0,0,0,0,
6.38225E+17,-21.93432,52.13339,39.52692,-21.96734,-16.50476,-31.85544,0,-0.8883717,-10.62301,-5.706912,-0.61056,50.61862,0,0,0,-62.27829,25.76581,-13.69568,0,-109.7821,-59.59857,0.001067912,-0.1257102,0.09433498,0,0.3,0,0,0,0,
6.38225E+17,-23.72488,49.70206,32.10249,-21.0884,-10.20568,-34.41902,0,-0.8883717,-10.62301,-5.706912,-0.5373149,50.54538,0,0,0,-63.21355,12.09429,-24.51524,0,-109.7821,-59.59857,0.001067912,-0.1257102,0.09433498,0,0.3,0,0,0,0,
6.38225E+17,-25.93952,45.68101,24.60802,-21.23489,-1.489502,-40.64486,0,-0.8883717,-10.62301,-5.706912,-0.61056,50.61862,0,0,0,-65.04175,-2.482115,-34.6366,0,-109.7821,-59.59857,0.001067912,-0.1257102,0.09433498,0,0.3,0,0,0,0,
6.38225E+17,-27.75363,42.78211,21.85304,-23.21251,6.860447,-52.43733,0,-0.8883717,-10.62301,-5.706912,-0.61056,50.61862,0,0,0,-68.68999,-9.844742,-37.8119,0,-109.7821,-59.59857,0.001067912,-0.1257102,0.09433498,0,0.3,0,0,0,0,
6.38225E+17,-28.05991,44.79264,24.63136,-25.99582,12.35384,-63.93682,0,-0.8883717,-10.62301,-5.706912,-0.61056,50.61862,0,0,0,-70.65832,-3.915417,-35.7956,0,-109.7821,-59.59857,0.001067912,-0.1257102,0.09433498,0,0.3,0,0,0,0,
6.38225E+17,-28.05991,47.15384,26.98944,-27.02126,13.23278,-66.72014,0,-0.8883717,-10.62301,-5.706912,-0.61056,50.61862,0,0,0,-71.12368,2.292968,-34.9226,0,-109.7821,-59.59857,0.001067912,-0.1257102,0.09433498,0,0.3,0,0,0,0,
6.38225E+17,-28.05991,53.67635,34.64734,-28.77914,12.06085,-68.69775,0,-0.8883717,-10.62301,-5.706912,-0.61056,50.61862,0,0,0,-72.81799,21.08532,-31.74407,0,-109.7821,-59.59857,0.001067912,-0.1257102,0.09433498,0,0.3,0,0,0,0,
6.38225E+17,-28.17771,59.33388,44.24307,-30.68352,6.567466,-66.5004,0,-0.8883717,-10.62301,-5.706912,-0.5373149,50.61862,0,0,0,-76.04998,42.52142,-26.38482,0,-109.7821,-59.59857,0.001067912,-0.1257102,0.09433498,0,0.3,0,0,0,0,
6.38225E+17,-28.41331,60.78333,48.74909,-32.00193,2.758718,-64.81577,0,-0.8883717,-10.62301,-5.706912,-0.5373149,50.61862,0,0,0,-78.67654,51.80987,-22.92155,0,-109.7821,-59.59857,0.001067912,-0.1257102,0.09433498,0,0.3,0,0,0,0,
6.38225E+17,-29.35571,60.19888,55.44976,-35.88392,-5.00527,-59.6886,0,-0.8883717,-10.62301,-5.706912,-0.5373149,50.61862,0,0,0,-86.33184,63.43861,-14.85837,0,-109.7821,-59.59857,0.001067912,-0.1257102,0.09433498,0,0.3,0,0,0,0,
6.38225E+17,-30.67507,56.2012,57.2475,-40.0589,-10.27892,-52.95005,0,-0.8883717,-10.62301,-5.780157,-0.61056,50.61862,0,0,0,-95.05928,62.01949,-8.093124,0,-109.7821,-59.59857,0.001067912,-0.1257102,0.09433498,0,0.3,0,0,0,0,
6.38225E+17,-31.71171,49.51503,53.55863,-41.23082,-11.96356,-45.33255,0,-0.8883717,-10.62301,-5.706912,-0.61056,50.61862,0,0,0,-101.8978,45.56297,-3.438781,0,-109.7821,-59.59857,0.001067912,-0.1257102,0.09433498,0,0.3,0,0,0,0,
6.38225E+17,-32.01799,45.65763,50.85035,-40.27863,-11.45084,-42.18301,0,-0.8883717,-10.62301,-5.706912,-0.61056,50.61862,0,0,0,-104.2435,34.52845,-1.641967,0,-109.7821,-59.59857,0.001067912,-0.1257102,0.09433498,0,0.3,0,0,0,0,
