zeyangz2/DNN_classification_different_people_hand/data/srikar_right_20.csv
Timestamp,Therapist joint angle 0,Therapist joint angle 1,Therapist joint angle 2,Therapist joint angle 3,Therapist joint angle 4,Therapist joint angle 5,Patient joint angle 0,Patient joint angle 1,Patient joint angle 2,Patient joint angle 3,Patient joint angle 4,Patient joint angle 5,Virtual joint angle 0,Virtual joint angle 1,Virtual joint angle 2,Therapist position x,Therapist position y,Therapist position z,Patient position x,Patient position y,Patient position z,Virtual position x,Virtual position y,Virtual position z,Assistive Force, Obstacle Force Magnitude, Therapist Constant Force, Patient Constant Force, Recovery Factor, Assistance Level,label
6.38225E+17,0,0,0,0,0,0,0,0,0,0,0,0,0,0,0,0,0,0,0,0,0,0,0,0,0,0.3,0,0,0,0,2
6.38225E+17,-14.11242,46.47587,23.88425,24.98281,48.24397,0.6654179,0.02355996,-0.8883717,-10.62301,-5.706912,-0.5373149,50.54538,0,0,0,-35.55579,-1.890607,-26.92618,0.04471847,-109.7821,-59.59858,0.001067912,-0.1257102,0.09433498,0,0.3,0,0,0,0,
6.38225E+17,-14.11242,46.47587,23.88425,24.90957,48.24397,0.6654179,0.02355996,-0.8883717,-10.62301,-5.706912,-0.61056,50.61862,0,0,0,-35.55579,-1.890607,-26.92618,0.04471847,-109.7821,-59.59858,0.001067912,-0.1257102,0.09433498,0,0.3,0,0,0,0,
6.38225E+17,-14.11242,46.47587,23.88425,24.90957,48.31721,0.6654179,0.02355996,-0.8883717,-10.62301,-5.706912,-0.5373149,50.61862,0,0,0,-35.55579,-1.890607,-26.92618,0.04471847,-109.7821,-59.59858,0.001067912,-0.1257102,0.09433498,0,0.3,0,0,0,0,
6.38225E+17,-14.11242,46.45249,23.88425,24.76308,48.31721,0.8119082,0.02355996,-0.8883717,-10.62301,-5.706912,-0.5373149,50.61862,0,0,0,-35.56541,-1.928085,-26.88792,0.04471847,-109.7821,-59.59858,0.001067912,-0.1257102,0.09433498,0,0.3,0,0,0,0,
6.38225E+17,-14.11242,46.45249,23.88425,24.61659,48.31721,0.8119082,0.02355996,-0.8883717,-10.62301,-5.706912,-0.61056,50.61862,0,0,0,-35.56541,-1.928085,-26.88792,0.04471847,-109.7821,-59.59858,0.001067912,-0.1257102,0.09433498,0,0.3,0,0,0,0,
6.38225E+17,-14.11242,46.40574,23.88425,24.39685,48.24397,0.8851534,0.02355996,-0.8883717,-10.62301,-5.706912,-0.61056,50.61862,0,0,0,-35.58463,-2.00309,-26.81146,0.04471847,-109.7821,-59.59858,0.001067912,-0.1257102,0.09433498,0,0.3,0,0,0,0,
6.38225E+17,-14.11242,46.35898,23.88425,24.25036,48.24397,1.104889,0.02355996,-0.8883717,-10.62301,-5.706912,-0.5373149,50.61862,0,0,0,-35.60384,-2.078159,-26.73506,0.04471847,-109.7821,-59.59858,0.001067912,-0.1257102,0.09433498,0,0.3,0,0,0,0,
6.38225E+17,-14.11242,46.31222,23.88425,24.10387,48.24397,1.178134,0.02355996,-0.8883717,-10.62301,-5.706912,-0.61056,50.61862,0,0,0,-35.62304,-2.153292,-26.65871,0.04471847,-109.7821,-59.59858,0.001067912,-0.1257102,0.09433498,0,0.3,0,0,0,0,
6.38225E+17,-14.11242,46.19533,23.79086,23.95738,48.17072,1.324624,0.02355996,-0.8883717,-10.62301,-5.706912,-0.5373149,50.54538,0,0,0,-35.62248,-2.429249,-26.66092,0.04471847,-109.7821,-59.59858,0.001067912,-0.1257102,0.09433498,0,0.3,0,0,0,0,
6.38225E+17,-14.11242,46.0083,23.60409,23.73765,48.09748,1.324624,0.02355996,-0.8883717,-10.62301,-5.706912,-0.61056,50.54538,0,0,0,-35.6019,-2.905777,-26.74277,0.04471847,-109.7821,-59.59858,0.001067912,-0.1257102,0.09433498,0,0.3,0,0,0,0,
6.38225E+17,-14.11242,45.96155,23.53404,23.73765,48.17072,1.324624,0.02355996,-0.8883717,-10.62301,-5.706912,-0.61056,50.54538,0,0,0,-35.58455,-3.046572,-26.81178,0.04471847,-109.7821,-59.59858,0.001067912,-0.1257102,0.09433498,0,0.3,0,0,0,0,
6.38225E+17,-14.11242,45.93817,23.53404,23.51791,47.73125,1.324624,0.02355996,-0.8883717,-10.62301,-5.706912,-0.61056,50.61862,0,0,0,-35.59409,-3.084403,-26.77386,0.04471847,-109.7821,-59.59858,0.001067912,-0.1257102,0.09433498,0,0.3,0,0,0,0,
6.38225E+17,-14.11242,45.93817,23.58074,23.29818,47.07204,1.324624,0.02355996,-0.8883717,-10.62301,-5.706912,-0.5373149,50.61862,0,0,0,-35.61838,-3.040969,-26.67724,0.04471847,-109.7821,-59.59858,0.001067912,-0.1257102,0.09433498,0,0.3,0,0,0,0,
6.38225E+17,-14.11242,45.70439,24.39789,22.71221,45.97337,1.324624,0.02355996,-0.8883717,-10.62301,-5.706912,-0.61056,50.61862,0,0,0,-36.13718,-2.646935,-24.6137,0.04471847,-109.7821,-59.59858,0.001067912,-0.1257102,0.09433498,0,0.3,0,0,0,0,
6.38225E+17,-14.11242,45.35371,25.49521,22.27274,45.09443,1.324624,0.02355996,-0.8883717,-10.62301,-5.706912,-0.5373149,50.61862,0,0,0,-36.84378,-2.14154,-21.80316,0.04471847,-109.7821,-59.59858,0.001067912,-0.1257102,0.09433498,0,0.3,0,0,0,0,
6.38225E+17,-14.11242,44.79264,27.08283,21.76003,43.84926,1.324624,0.02355996,-0.8883717,-10.62301,-5.706912,-0.5373149,50.61862,0,0,0,-37.87694,-1.427267,-17.69376,0.04471847,-109.7821,-59.59858,0.001067912,-0.1257102,0.09433498,0,0.3,0,0,0,0,
6.38225E+17,-14.11242,44.5121,27.89998,21.54029,43.19005,1.324624,0.02355996,-0.8883717,-10.62301,-5.706912,-0.5373149,50.61862,0,0,0,-38.40018,-1.013834,-15.61258,0.04471847,-109.7821,-59.59858,0.001067912,-0.1257102,0.09433498,0,0.3,0,0,0,0,
6.38225E+17,-14.11242,44.16143,28.97396,21.10082,41.79839,1.324624,0.02355996,-0.8883717,-10.62301,-5.706912,-0.5373149,50.61862,0,0,0,-39.07516,-0.4073289,-12.9278,0.04471847,-109.7821,-59.59858,0.001067912,-0.1257102,0.09433498,0,0.3,0,0,0,0,
6.38225E+17,-14.11242,43.90427,29.34751,20.88108,40.187,1.324624,0.02355996,-0.8883717,-10.62301,-5.706912,-0.61056,50.61862,0,0,0,-39.36172,-0.4139942,-11.78804,0.04471847,-109.7821,-59.59858,0.001067912,-0.1257102,0.09433498,0,0.3,0,0,0,0,
6.38225E+17,-14.11242,43.81075,29.34751,20.80784,39.3813,1.324624,0.02355996,-0.8883717,-10.62301,-5.706912,-0.61056,50.61862,0,0,0,-39.39848,-0.5709278,-11.6418,0.04471847,-109.7821,-59.59858,0.001067912,-0.1257102,0.09433498,0,0.3,0,0,0,0,
6.38225E+17,-14.11242,43.46008,29.34751,20.95433,37.55017,1.324624,0.02355996,-0.8883717,-10.62301,-5.706912,-0.5373149,50.61862,0,0,0,-39.53581,-1.161615,-11.0956,0.04471847,-109.7821,-59.59858,0.001067912,-0.1257102,0.09433498,0,0.3,0,0,0,0,
6.38225E+17,-14.11242,42.75873,29.34751,21.90652,35.57256,1.324624,0.02355996,-0.8883717,-10.62301,-5.706912,-0.61056,50.61862,0,0,0,-39.8078,-2.353276,-10.01376,0.04471847,-109.7821,-59.59858,0.001067912,-0.1257102,0.09433498,0,0.3,0,0,0,0,
6.38225E+17,-14.37158,41.6132,29.4876,23.44467,33.52169,1.617605,0.02355996,-0.8883717,-10.62301,-5.706912,-0.5373149,50.61862,0,0,0,-41.03844,-4.16861,-8.185991,0.04471847,-109.7821,-59.59858,0.001067912,-0.1257102,0.09433498,0,0.3,0,0,0,0,
6.38225E+17,-14.70142,40.95861,29.86115,24.25036,32.27652,1.910586,0.02355996,-0.8883717,-10.62301,-5.706912,-0.61056,50.61862,0,0,0,-42.4066,-4.882975,-6.721923,0.04471847,-109.7821,-59.59858,0.001067912,-0.1257102,0.09433498,0,0.3,0,0,0,0,
6.38225E+17,-15.57313,39.64943,31.42542,25.86176,29.71294,2.423302,0.02355996,-0.8883717,-10.62301,-5.706912,-0.5373149,50.61862,0,0,0,-46.23067,-5.35106,-2.47008,0.04471847,-109.7821,-59.59858,0.001067912,-0.1257102,0.09433498,0,0.3,0,0,0,0,
6.38225E+17,-16.65689,38.31688,33.80684,27.10692,26.49015,2.789528,0.02355996,-0.8883717,-10.62301,-5.706912,-0.61056,50.61862,0,0,0,-51.25717,-4.77457,2.967229,0.04471847,-109.7821,-59.59858,0.001067912,-0.1257102,0.09433498,0,0.3,0,0,0,0,
6.38225E+17,-18.23541,37.35837,36.93538,28.05911,22.46167,3.009263,0.02355996,-0.8883717,-10.62301,-5.706912,-0.61056,50.61862,0,0,0,-58.24287,-2.321923,8.428415,0.04471847,-109.7821,-59.59858,0.001067912,-0.1257102,0.09433498,0,0.3,0,0,0,0,
6.38225E+17,-18.89509,37.12459,38.07939,28.2056,20.70378,3.009263,0.02355996,-0.8883717,-10.62301,-5.706912,-0.5373149,50.61862,0,0,0,-61.06493,-1.133958,10.05597,0.04471847,-109.7821,-59.59858,0.001067912,-0.1257102,0.09433498,0,0.3,0,0,0,0,
6.38225E+17,-20.96836,36.51675,41.16123,28.05911,15.79636,3.228999,0.02355996,-0.8883717,-10.62301,-5.706912,-0.61056,50.61862,0,0,0,-69.75955,2.307017,13.68019,0.04471847,-109.7821,-59.59858,0.001067912,-0.1257102,0.09433498,0,0.3,0,0,0,0,
6.38225E+17,-23.60708,35.20757,44.38315,27.47315,9.8635,4.107941,0.02355996,-0.8883717,-10.62301,-5.706912,-0.61056,50.61862,0,0,0,-80.98476,4.92929,16.95437,0.04471847,-109.7821,-59.59858,0.001067912,-0.1257102,0.09433498,0,0.3,0,0,0,0,
6.38225E+17,-26.64632,32.93989,47.90859,26.00825,2.905208,5.646089,0.02355996,-0.8883717,-10.62301,-5.706912,-0.5373149,50.61862,0,0,0,-94.57078,6.473686,20.12279,0.04471847,-109.7821,-59.59858,0.001067912,-0.1257102,0.09433498,0,0.3,0,0,0,0,
6.38225E+17,-28.01279,31.72422,49.58959,25.34904,-0.6838052,6.451786,0.02355996,-0.8883717,-10.62301,-5.780157,-0.5373149,50.61862,0,0,0,-100.9607,7.024367,21.42717,0.04471847,-109.7821,-59.59858,0.001067912,-0.1257102,0.09433498,0,0.3,0,0,0,0,
6.38225E+17,-30.62795,29.15262,53.44189,24.17712,-9.180244,8.136425,0.02355996,-0.8883717,-10.62301,-5.780157,-0.5373149,50.61862,0,0,0,-113.9011,8.88151,24.03205,0.04471847,-109.7821,-59.59858,0.001067912,-0.1257102,0.09433498,0,0.3,0,0,0,0,
6.38225E+17,-33.14886,25.87967,58.13469,24.4701,-19.50781,10.62676,0.02355996,-0.8883717,-10.62301,-5.706912,-0.5373149,50.61862,0,0,0,-127.5338,11.15626,26.9222,0.04471847,-109.7821,-59.59858,0.001067912,-0.1257102,0.09433498,0,0.3,0,0,0,0,
6.38225E+17,-34.49178,23.33145,60.30599,25.86176,-26.39286,11.72544,0.02355996,-0.8883717,-10.62301,-5.706912,-0.5373149,50.61862,0,0,0,-134.9378,10.1059,28.04608,0.04471847,-109.7821,-59.59858,0.001067912,-0.1257102,0.09433498,0,0.3,0,0,0,0,
6.38225E+17,-36.75354,17.06609,61.70683,31.06216,-39.35725,12.09166,0.02355996,-0.8883717,-10.62301,-5.706912,-0.61056,50.61862,0,0,0,-146.5402,-0.7208467,27.8659,0.04471847,-109.7821,-59.59858,0.001067912,-0.1257102,0.09433498,0,0.3,0,0,0,0,
6.38225E+17,-38.00222,12.9749,61.28657,33.62574,-45.5831,12.01842,0.02355996,-0.8883717,-10.62301,-5.706912,-0.61056,50.54538,0,0,0,-152.013,-10.77491,26.20224,0.04471847,-109.7821,-59.59858,0.001067912,-0.1257102,0.09433498,0,0.3,0,0,0,0,
6.38225E+17,-39.43937,9.094121,59.55888,32.7468,-51.14973,14.72849,0.02355996,-0.8883717,-10.62301,-5.706912,-0.61056,50.61862,0,0,0,-156.6818,-23.13527,22.13056,0.04471847,-109.7821,-59.59858,0.001067912,-0.1257102,0.09433498,0,0.3,0,0,0,0,
6.38225E+17,-39.9577,8.088859,57.94791,30.25646,-52.90761,18.3175,0.02355996,-0.8883717,-10.62301,-5.706912,-0.61056,50.61862,0,0,0,-157.374,-28.65401,19.48256,0.04471847,-109.7821,-59.59858,0.001067912,-0.1257102,0.09433498,0,0.3,0,0,0,0,
6.38225E+17,-40.45245,7.644672,53.60532,23.15168,-54.59225,27.47315,0.02355996,-0.8883717,-10.62301,-5.706912,-0.5373149,50.61862,0,0,0,-155.3947,-38.033,13.89985,0.04471847,-109.7821,-59.59858,0.001067912,-0.1257102,0.09433498,0,0.3,0,0,0,0,
6.38225E+17,-40.35821,8.439531,48.16541,16.92585,-53.71331,35.38363,0.02355996,-0.8883717,-10.62301,-5.706912,-0.61056,50.61862,0,0,0,-149.7567,-46.02092,7.873789,0.04471847,-109.7821,-59.59858,0.001067912,-0.1257102,0.09433498,0,0.3,0,0,0,0,
6.38225E+17,-39.93414,9.748712,41.76826,12.38465,-50.41727,41.46298,0.02355996,-0.8883717,-10.62301,-5.706912,-0.5373149,50.61862,0,0,0,-141.3808,-53.52865,0.5350224,0.04471847,-109.7821,-59.59858,0.001067912,-0.1257102,0.09433498,0,0.3,0,0,0,0,
6.38225E+17,-39.08598,11.31505,35.32441,9.821064,-45.50985,46.44365,0.02355996,-0.8883717,-10.62301,-5.706912,-0.61056,50.54538,0,0,0,-131.0539,-59.28534,-7.007532,0.04471847,-109.7821,-59.59858,0.001067912,-0.1257102,0.09433498,0,0.3,0,0,0,0,
6.38225E+17,-38.40274,12.4372,31.84567,9.015368,-42.50679,49.22696,0.02355996,-0.8883717,-10.62301,-5.706912,-0.5373149,50.61862,0,0,0,-124.5976,-61.20762,-11.16233,0.04471847,-109.7821,-59.59858,0.001067912,-0.1257102,0.09433498,0,0.3,0,0,0,0,
6.38225E+17,-36.28234,14.98543,25.68199,8.868877,-36.79367,53.76817,0.02355996,-0.8883717,-10.62301,-5.706912,-0.61056,50.61862,0,0,0,-110.4266,-62.34603,-17.92518,0.04471847,-109.7821,-59.59858,0.001067912,-0.1257102,0.09433498,0,0.3,0,0,0,0,
6.38225E+17,-32.25359,18.18824,20.4522,11.06623,-30.93406,56.84446,0.02355996,-0.8883717,-10.62301,-5.706912,-0.61056,50.61862,0,0,0,-92.47564,-59.97029,-21.80531,0.04471847,-109.7821,-59.59858,0.001067912,-0.1257102,0.09433498,0,0.3,0,0,0,0,
6.38225E+17,-29.40283,20.08188,18.39765,13.41008,-28.22399,57.79665,0.02355996,-0.8883717,-10.62301,-5.706912,-0.5373149,50.61862,0,0,0,-82.14979,-57.39694,-22.57446,0.04471847,-109.7821,-59.59858,0.001067912,-0.1257102,0.09433498,0,0.3,0,0,0,0,
6.38225E+17,-23.4186,23.77563,15.85279,19.56267,-23.68279,57.86989,0.02355996,-0.8883717,-10.62301,-5.706912,-0.61056,50.61862,0,0,0,-62.97908,-51.16739,-22.94347,0.04471847,-109.7821,-59.59858,0.001067912,-0.1257102,0.09433498,0,0.3,0,0,0,0,
6.38225E+17,-16.84537,27.51615,14.61539,27.83937,-20.02053,56.47824,0.02355996,-0.8883717,-10.62301,-5.706912,-0.5373149,50.61862,0,0,0,-44.02303,-44.07748,-22.95492,0.04471847,-109.7821,-59.59858,0.001067912,-0.1257102,0.09433498,0,0.3,0,0,0,0,
6.38225E+17,-13.42918,29.12924,14.31187,32.38057,-18.40914,55.74578,0.02355996,-0.8883717,-10.62301,-5.780157,-0.61056,50.61862,0,0,0,-34.70841,-40.94914,-22.98775,0.04471847,-109.7821,-59.59858,0.001067912,-0.1257102,0.09433498,0,0.3,0,0,0,0,
6.38225E+17,-6.596789,32.19178,14.19514,41.46298,-15.03986,53.76817,0.02355996,-0.8883717,-10.62301,-5.706912,-0.5373149,50.61862,0,0,0,-16.72109,-34.88544,-23.76285,0.04471847,-109.7821,-59.59858,0.001067912,-0.1257102,0.09433498,0,0.3,0,0,0,0,
6.38225E+17,0.02355996,34.99717,14.1251,49.00723,-11.45084,51.93703,0.02355996,-0.8883717,-10.62301,-5.706912,-0.5373149,50.61862,0,0,0,0.05829994,-29.48717,-26.5696,0.04471847,-109.7821,-59.59858,0.001067912,-0.1257102,0.09433498,0,0.3,0,0,0,0,
6.38225E+17,8.740746,37.89607,14.05505,56.55148,-6.323683,49.95942,0.02355996,-0.8883717,-10.62301,-5.706912,-0.61056,50.61862,0,0,0,20.91243,-24.10017,-32.33366,0.04471847,-109.7821,-59.59858,0.001067912,-0.1257102,0.09433498,0,0.3,0,0,0,0,
6.38225E+17,14.39514,39.11173,14.0784,60.65321,-2.58818,48.34802,0.02355996,-0.8883717,-10.62301,-5.706912,-0.5373149,50.61862,0,0,0,33.78724,-21.87286,-36.71099,0.04471847,-109.7821,-59.59858,0.001067912,-0.1257102,0.09433498,0,0.3,0,0,0,0,
6.38225E+17,17.41081,39.60268,14.14844,62.55759,-0.09784385,46.95637,0.02355996,-0.8883717,-10.62301,-5.706912,-0.61056,50.61862,0,0,0,40.49636,-20.94963,-39.21135,0.04471847,-109.7821,-59.59858,0.001067912,-0.1257102,0.09433498,0,0.3,0,0,0,0,
6.38225E+17,22.90028,40.46767,14.19514,65.19441,5.76177,42.41516,0.02355996,-0.8883717,-10.62301,-5.706912,-0.61056,50.61862,0,0,0,52.20149,-19.38165,-44.77346,0.04471847,-109.7821,-59.59858,0.001067912,-0.1257102,0.09433498,0,0.3,0,0,0,0,
6.38225E+17,28.08347,40.58456,14.70878,66.00011,12.20734,36.33582,0.02355996,-0.8883717,-10.62301,-5.706912,-0.61056,50.61862,0,0,0,63.61373,-18.87651,-49.12932,0.04471847,-109.7821,-59.59858,0.001067912,-0.1257102,0.09433498,0,0.3,0,0,0,0,
6.38225E+17,30.60439,40.58456,15.43254,65.85361,15.94285,32.30733,0.02355996,-0.8883717,-10.62301,-5.706912,-0.5373149,50.61862,0,0,0,69.62406,-18.43853,-50.64272,0.04471847,-109.7821,-59.59858,0.001067912,-0.1257102,0.09433498,0,0.3,0,0,0,0,
6.38225E+17,35.5991,40.37416,17.72057,64.60844,22.53491,22.49248,0.02355996,-0.8883717,-10.62301,-5.706912,-0.61056,50.61862,0,0,0,82.76357,-17.29187,-52.74323,0.04471847,-109.7821,-59.59858,0.001067912,-0.1257102,0.09433498,0,0.3,0,0,0,0,
6.38225E+17,40.21685,39.50917,20.96585,63.0703,27.58883,11.65219,0.02355996,-0.8883717,-10.62301,-5.706912,-0.5373149,50.61862,0,0,0,97.23764,-16.33393,-53.35342,0.04471847,-109.7821,-59.59858,0.001067912,-0.1257102,0.09433498,0,0.3,0,0,0,0,
6.38225E+17,44.19849,37.31161,24.49128,61.16593,31.9103,-0.2867693,0.02355996,-0.8883717,-10.62301,-5.706912,-0.5373149,50.61862,0,0,0,112.4782,-17.1717,-52.68003,0.04471847,-109.7821,-59.59858,0.001067912,-0.1257102,0.09433498,0,0.3,0,0,0,0,
6.38225E+17,46.50736,34.43609,26.14894,59.62778,34.54712,-9.295925,0.02355996,-0.8883717,-10.62301,-5.706912,-0.5373149,50.61862,0,0,0,122.4215,-20.94418,-52.2062,0.04471847,-109.7821,-59.59858,0.001067912,-0.1257102,0.09433498,0,0.3,0,0,0,0,
6.38225E+17,48.133,30.48518,26.59254,57.86989,37.1107,-17.64587,0.02355996,-0.8883717,-10.62301,-5.706912,-0.5373149,50.54538,0,0,0,130.0306,-28.24273,-51.81537,0.04471847,-109.7821,-59.59858,0.001067912,-0.1257102,0.09433498,0,0.3,0,0,0,0,
6.38225E+17,49.0754,23.77563,26.24233,54.42737,40.99269,-28.5594,0.02355996,-0.8883717,-10.62301,-5.706912,-0.5373149,50.61862,0,0,0,136.7555,-42.49501,-49.78585,0.04471847,-109.7821,-59.59858,0.001067912,-0.1257102,0.09433498,0,0.3,0,0,0,0,
6.38225E+17,49.14608,19.68445,26.17229,52.01028,43.33654,-34.93173,0.02355996,-0.8883717,-10.62301,-5.706912,-0.61056,50.61862,0,0,0,139.4569,-51.4103,-47.74479,0.04471847,-109.7821,-59.59858,0.001067912,-0.1257102,0.09433498,0,0.3,0,0,0,0,
6.38225E+17,49.16964,7.55116,26.31237,41.90245,49.48914,-55.36714,0.02355996,-0.8883717,-10.62301,-5.706912,-0.61056,50.61862,0,0,0,144.7491,-78.66,-43.272,0.04471847,-109.7821,-59.59858,0.001067912,-0.1257102,0.09433498,0,0.3,0,0,0,0,
6.38225E+17,49.26388,3.24957,26.28902,37.50774,51.02729,-60.78728,0.02355996,-0.8883717,-10.62301,-5.706912,-0.5373149,50.61862,0,0,0,145.6315,-88.6488,-42.92731,0.04471847,-109.7821,-59.59858,0.001067912,-0.1257102,0.09433498,0,0.3,0,0,0,0,
6.38225E+17,48.58064,-1.309179,25.61195,29.15779,52.19921,-70.96836,0.02355996,-0.8883717,-10.62301,-5.706912,-0.61056,50.61862,0,0,0,143.1977,-99.94406,-42.01822,0.04471847,-109.7821,-59.59858,0.001067912,-0.1257102,0.09433498,0,0.3,0,0,0,0,
6.38225E+17,48.03876,-1.005263,18.3276,20.14863,50.36808,-96.38443,0.02355996,-0.8883717,-10.62301,-5.706912,-0.5373149,50.54538,0,0,0,130.3239,-105.5752,-51.1654,0.04471847,-109.7821,-59.59858,0.001067912,-0.1257102,0.09433498,0,0.3,0,0,0,0,
6.38225E+17,47.4262,-1.122154,16.43647,16.0469,48.53695,-106.2725,0,-0.8883717,-10.62301,-5.706912,-0.61056,50.61862,0,0,0,125.9668,-107.1621,-52.62384,0,-109.7821,-59.59857,0.001067912,-0.1257102,0.09433498,0,0.3,0,0,0,0,
6.38225E+17,45.87124,-1.052019,11.32342,8.722386,44.36197,-121.7273,0,-0.8883717,-10.62301,-5.706912,-0.5373149,50.61862,0,0,0,114.4929,-109.8526,-57.2872,0,-109.7821,-59.59857,0.001067912,-0.1257102,0.09433498,0,0.3,0,0,0,0,
6.38225E+17,43.63305,-1.098776,8.218237,2.423302,40.47998,-140.1118,0,-0.8883717,-10.62301,-5.706912,-0.61056,50.54538,0,0,0,105.1527,-111.1877,-58.05621,0,-109.7821,-59.59857,0.001067912,-0.1257102,0.09433498,0,0.3,0,0,0,0,
6.38225E+17,42.29013,-1.075397,7.167611,-0.6529952,38.64885,-141.7964,0.02355996,-0.8883717,-10.62301,-5.706912,-0.61056,50.54538,0,0,0,100.9091,-111.4607,-57.41391,0.04471847,-109.7821,-59.59858,0.001067912,-0.1257102,0.09433498,0,0.3,0,0,0,0,
6.38225E+17,38.96818,-1.075397,6.163678,-6.512609,34.76685,-142.1627,0.02355996,-0.8883717,-10.62301,-5.706912,-0.61056,50.54538,0,0,0,92.85175,-111.7319,-53.55733,0.04471847,-109.7821,-59.59858,0.001067912,-0.1257102,0.09433498,0,0.3,0,0,0,0,
6.38225E+17,34.49178,-1.052019,5.9769,-12.59196,29.93268,-142.1627,0.02355996,-0.8883717,-10.62301,-5.706912,-0.61056,50.61862,0,0,0,83.36491,-111.7234,-47.01602,0.04471847,-109.7821,-59.59858,0.001067912,-0.1257102,0.09433498,0,0.3,0,0,0,0,
6.38225E+17,29.19079,-1.052019,6.070289,-18.37833,25.09849,-142.1627,0.02355996,-0.8883717,-10.62301,-5.706912,-0.61056,50.61862,0,0,0,71.90401,-111.7006,-39.64435,0.04471847,-109.7821,-59.59858,0.001067912,-0.1257102,0.09433498,0,0.3,0,0,0,0,
6.38225E+17,26.03376,-1.028641,6.210372,-21.67436,22.6814,-142.2359,0.02355996,-0.8883717,-10.62301,-5.706912,-0.61056,50.61862,0,0,0,64.84942,-111.6114,-35.58757,0.04471847,-109.7821,-59.59858,0.001067912,-0.1257102,0.09433498,0,0.3,0,0,0,0,
6.38225E+17,18.96577,-1.028641,6.607276,-29.80457,18.79941,-142.1627,0.02355996,-0.8883717,-10.62301,-5.706912,-0.5373149,50.61862,0,0,0,48.31894,-111.5082,-27.74878,0.04471847,-109.7821,-59.59858,0.001067912,-0.1257102,0.09433498,0,0.3,0,0,0,0,
6.38225E+17,11.0025,-1.005263,7.377736,-40.35188,16.30907,-142.1627,0.02355996,-0.8883717,-10.62301,-5.706912,-0.61056,50.61862,0,0,0,28.71423,-111.2355,-20.66252,0.04471847,-109.7821,-59.59858,0.001067912,-0.1257102,0.09433498,0,0.3,0,0,0,0,
6.38225E+17,2.850755,-0.9818845,9.572379,-53.38951,14.84417,-142.1627,0.02355996,-0.8883717,-10.62301,-5.706912,-0.5373149,50.61862,0,0,0,7.734002,-110.4284,-13.0368,0.04471847,-109.7821,-59.59858,0.001067912,-0.1257102,0.09433498,0,0.3,0,0,0,0,
6.38225E+17,-3.958073,-0.9818845,12.09388,-67.45258,14.4047,-142.2359,0.02355996,-0.8883717,-10.62301,-5.706912,-0.61056,50.54538,0,0,0,-11.13184,-109.3255,-7.465519,0.04471847,-109.7821,-59.59858,0.001067912,-0.1257102,0.09433498,0,0.3,0,0,0,0,
6.38225E+17,-6.549669,-0.9818845,13.05112,-73.16571,14.55119,-142.1627,0.02355996,-0.8883717,-10.62301,-5.706912,-0.61056,50.61862,0,0,0,-18.64311,-108.8406,-5.973178,0.04471847,-109.7821,-59.59858,0.001067912,-0.1257102,0.09433498,0,0.3,0,0,0,0,
6.38225E+17,-11.30878,-0.9818845,14.522,-83.78626,15.64987,-141.9429,0.02355996,-0.8883717,-10.62301,-5.706912,-0.5373149,50.61862,0,0,0,-32.70264,-108.0248,-4.819707,0.04471847,-109.7821,-59.59858,0.001067912,-0.1257102,0.09433498,0,0.3,0,0,0,0,
6.38225E+17,-14.63074,-0.9818845,15.54928,-90.74455,18.06696,-138.5004,0.02355996,-0.8883717,-10.62301,-5.706912,-0.61056,50.61862,0,0,0,-42.70694,-107.4045,-4.755364,0.04471847,-109.7821,-59.59858,0.001067912,-0.1257102,0.09433498,0,0.3,0,0,0,0,
6.38225E+17,-15.76161,-0.9585064,15.99288,-93.08839,20.11782,-133.007,0.02355996,-0.8883717,-10.62301,-5.706912,-0.61056,50.61862,0,0,0,-46.1975,-107.0695,-4.673015,0.04471847,-109.7821,-59.59858,0.001067912,-0.1257102,0.09433498,0,0.3,0,0,0,0,
6.38225E+17,-16.20925,-0.7247244,16.13296,-95.72523,25.83095,-122.533,0.02355996,-0.8883717,-10.62301,-5.706912,-0.61056,50.61862,0,0,0,-47.56454,-106.4353,-4.730416,0.04471847,-109.7821,-59.59858,0.001067912,-0.1257102,0.09433498,0,0.3,0,0,0,0,
6.38225E+17,-15.90297,-0.07013461,15.85279,-95.359,33.88792,-116.0141,0.02355996,-0.8883717,-10.62301,-5.706912,-0.5373149,50.61862,0,0,0,-46.52036,-105.0915,-5.071163,0.04471847,-109.7821,-59.59858,0.001067912,-0.1257102,0.09433498,0,0.3,0,0,0,0,
6.38225E+17,-17.08097,2.59498,14.82551,-92.42919,42.75058,-114.4027,0.02355996,-0.8883717,-10.62301,-5.706912,-0.61056,50.61862,0,0,0,-49.14993,-99.52323,-8.396662,0.04471847,-109.7821,-59.59858,0.001067912,-0.1257102,0.09433498,0,0.3,0,0,0,0,
6.38225E+17,-18.77729,5.447122,14.17179,-90.30508,46.77906,-112.8646,0.02355996,-0.8883717,-10.62301,-5.780157,-0.5373149,50.61862,0,0,0,-53.23936,-93.2831,-11.75697,0.04471847,-109.7821,-59.59858,0.001067912,-0.1257102,0.09433498,0,0.3,0,0,0,0,
6.38225E+17,-22.16992,10.98776,13.49472,-87.30203,50.7343,-107.8107,0.02355996,-0.8883717,-10.62301,-5.706912,-0.61056,50.61862,0,0,0,-61.1403,-80.90199,-18.30518,0.04471847,-109.7821,-59.59858,0.001067912,-0.1257102,0.09433498,0,0.3,0,0,0,0,
6.38225E+17,-25.3034,16.78555,13.44803,-83.78626,53.22464,-97.26337,0.02355996,-0.8883717,-10.62301,-5.706912,-0.61056,50.61862,0,0,0,-67.8219,-67.83352,-24.89368,0.04471847,-109.7821,-59.59858,0.001067912,-0.1257102,0.09433498,0,0.3,0,0,0,0,
6.38225E+17,-26.88192,21.83524,13.26125,-76.09552,55.64173,-83.12706,0.02355996,-0.8883717,-10.62301,-5.706912,-0.5373149,50.61862,0,0,0,-69.8,-56.84607,-30.65899,0.04471847,-109.7821,-59.59858,0.001067912,-0.1257102,0.09433498,0,0.3,0,0,0,0,
6.38225E+17,-27.25887,23.63536,13.14451,-72.57975,56.22769,-78.6591,0.02355996,-0.8883717,-10.62301,-5.706912,-0.61056,50.61862,0,0,0,-69.84166,-53.04422,-32.79563,0.04471847,-109.7821,-59.59858,0.001067912,-0.1257102,0.09433498,0,0.3,0,0,0,0,
6.38225E+17,-27.94211,27.82006,13.07447,-61.29999,57.32637,-64.66927,0.02355996,-0.8883717,-10.62301,-5.706912,-0.61056,50.61862,0,0,0,-69.39807,-44.30919,-37.51249,0.04471847,-109.7821,-59.59858,0.001067912,-0.1257102,0.09433498,0,0.3,0,0,0,0,
6.38225E+17,-27.98923,30.64882,13.65815,-48.11587,57.32637,-49.06805,0.02355996,-0.8883717,-10.62301,-5.706912,-0.61056,50.61862,0,0,0,-68.61708,-38.25065,-39.24152,0.04471847,-109.7821,-59.59858,0.001067912,-0.1257102,0.09433498,0,0.3,0,0,0,0,
6.38225E+17,-27.98923,33.50097,16.43647,-35.00498,55.49524,-34.93173,0.02355996,-0.8883717,-10.62301,-5.706912,-0.5373149,50.61862,0,0,0,-69.89326,-30.94785,-36.84027,0.04471847,-109.7821,-59.59858,0.001067912,-0.1257102,0.09433498,0,0.3,0,0,0,0,
6.38225E+17,-27.98923,34.99717,18.72451,-28.99888,53.8106,-27.82695,0.02355996,-0.8883717,-10.62301,-5.706912,-0.61056,50.61862,0,0,0,-71.3558,-26.46117,-34.08841,0.04471847,-109.7821,-59.59858,0.001067912,-0.1257102,0.09433498,0,0.3,0,0,0,0,
6.38225E+17,-27.98923,37.82593,23.69748,-18.52482,48.6102,-14.13011,0.02355996,-0.8883717,-10.62301,-5.706912,-0.61056,50.61862,0,0,0,-74.58418,-16.97713,-28.01396,0.04471847,-109.7821,-59.59858,0.001067912,-0.1257102,0.09433498,0,0.3,0,0,0,0,
6.38225E+17,-28.01279,40.25727,28.22684,-10.61434,41.13919,0.07945653,0.02355996,-0.8883717,-10.62301,-5.706912,-0.61056,50.61862,0,0,0,-77.41823,-7.96874,-22.82589,0.04471847,-109.7821,-59.59858,0.001067912,-0.1257102,0.09433498,0,0.3,0,0,0,0,
6.38225E+17,-28.20127,41.70671,30.30475,-7.538041,36.96421,8.575896,0.02355996,-0.8883717,-10.62301,-5.706912,-0.61056,50.61862,0,0,0,-78.84464,-3.058083,-21.31322,0.04471847,-109.7821,-59.59858,0.001067912,-0.1257102,0.09433498,0,0.3,0,0,0,0,
6.38225E+17,-29.59131,45.19007,33.7368,-2.264389,26.92962,26.00825,0.02355996,-0.8883717,-10.62301,-5.706912,-0.61056,50.61862,0,0,0,-82.97939,7.061427,-22.22825,0.04471847,-109.7821,-59.59858,0.001067912,-0.1257102,0.09433498,0,0.3,0,0,0,0,
6.38225E+17,-31.38187,47.0837,36.2583,-0.4332596,19.89809,34.57793,0.02355996,-0.8883717,-10.62301,-5.706912,-0.61056,50.61862,0,0,0,-88.35316,13.48081,-23.50123,0.04471847,-109.7821,-59.59858,0.001067912,-0.1257102,0.09433498,0,0.3,0,0,0,0,
6.38225E+17,-32.53631,47.99545,38.24282,-0.2867693,15.8696,37.94721,0.02355996,-0.8883717,-10.62301,-5.706912,-0.61056,50.54538,0,0,0,-92.38884,17.70892,-23.53116,0.04471847,-109.7821,-59.59858,0.001067912,-0.1257102,0.09433498,0,0.3,0,0,0,0,
6.38225E+17,-34.72738,49.88908,42.14182,-1.605182,7.88588,42.78139,0.02355996,-0.8883717,-10.62301,-5.706912,-0.61056,50.61862,0,0,0,-99.91306,26.4587,-24.20445,0.04471847,-109.7821,-59.59858,0.001067912,-0.1257102,0.09433498,0,0.3,0,0,0,0,
6.38225E+17,-36.49438,52.57758,45.59721,-4.095518,0.04864649,47.39584,0.02355996,-0.8883717,-10.62301,-5.706912,-0.61056,50.61862,0,0,0,-104.8566,35.94874,-26.6154,0.04471847,-109.7821,-59.59858,0.001067912,-0.1257102,0.09433498,0,0.3,0,0,0,0,
6.38225E+17,-38.28493,56.06093,49.89311,-7.09857,-7.935077,51.27783,0.02355996,-0.8883717,-10.62301,-5.706912,-0.61056,50.61862,0,0,0,-109.3191,48.07524,-29.85319,0.04471847,-109.7821,-59.59858,0.001067912,-0.1257102,0.09433498,0,0.3,0,0,0,0,
6.38225E+17,-40.21685,59.47415,55.28632,-11.2003,-16.28502,54.13439,0.02355996,-0.8883717,-10.62301,-5.706912,-0.5373149,50.61862,0,0,0,-114.5097,62.27811,-32.92685,0.04471847,-109.7821,-59.59858,0.001067912,-0.1257102,0.09433498,0,0.3,0,0,0,0,
6.38225E+17,-42.24301,62.30291,60.81963,-18.23184,-25.29418,58.01638,0.02355996,-0.8883717,-10.62301,-5.706912,-0.5373149,50.61862,0,0,0,-119.9389,76.40418,-36.27518,0.04471847,-109.7821,-59.59858,0.001067912,-0.1257102,0.09433498,0,0.3,0,0,0,0,
6.38225E+17,-43.20897,63.19128,63.48121,-23.50549,-29.76214,61.09268,0.02355996,-0.8883717,-10.62301,-5.706912,-0.5373149,50.61862,0,0,0,-122.8711,82.82757,-37.54662,0.04471847,-109.7821,-59.59858,0.001067912,-0.1257102,0.09433498,0,0.3,0,0,0,0,
6.38225E+17,-44.69325,63.65885,67.31017,-37.42207,-36.50069,68.12422,0.02355996,-0.8883717,-10.62301,-5.706912,-0.61056,50.61862,0,0,0,-128.1425,91.41526,-38.82796,0.04471847,-109.7821,-59.59858,0.001067912,-0.1257102,0.09433498,0,0.3,0,0,0,0,
6.38225E+17,-45.51785,63.56533,69.1546,-52.21759,-40.2362,72.88515,0.02355996,-0.8883717,-10.62301,-5.706912,-0.61056,50.54538,0,0,0,-131.2681,95.30499,-39.43353,0.04471847,-109.7821,-59.59858,0.001067912,-0.1257102,0.09433498,0,0.3,0,0,0,0,
6.38225E+17,-45.87124,63.7056,69.69159,-58.29694,-41.26163,74.13033,0.02355996,-0.8883717,-10.62301,-5.706912,-0.61056,50.61862,0,0,0,-132.1661,96.62001,-40.14346,0.04471847,-109.7821,-59.59858,0.001067912,-0.1257102,0.09433498,0,0.3,0,0,0,0,
6.38225E+17,-46.6016,64.0329,71.13912,-69.64995,-42.21382,75.59522,0.02355996,-0.8883717,-10.62301,-5.706912,-0.61056,50.61862,0,0,0,-134.1132,100.1295,-41.53258,0.04471847,-109.7821,-59.59858,0.001067912,-0.1257102,0.09433498,0,0.3,0,0,0,0,
6.38225E+17,-47.56756,64.38357,73.35711,-80.41698,-41.77435,77.35311,0.02355996,-0.8883717,-10.62301,-5.706912,-0.61056,50.61862,0,0,0,-136.8513,105.4006,-43.24546,0.04471847,-109.7821,-59.59858,0.001067912,-0.1257102,0.09433498,0,0.3,0,0,0,0,
6.38225E+17,-48.18012,64.64073,74.66456,-86.05686,-40.8954,78.3053,0.02355996,-0.8883717,-10.62301,-5.780157,-0.61056,50.61862,0,0,0,-138.403,108.5834,-44.51703,0.04471847,-109.7821,-59.59858,0.001067912,-0.1257102,0.09433498,0,0.3,0,0,0,0,
6.38225E+17,-49.02828,65.08492,76.8592,-94.77303,-38.11209,79.40398,0.02355996,-0.8883717,-10.62301,-5.706912,-0.61056,50.61862,0,0,0,-140.4627,113.9731,-46.3693,0.04471847,-109.7821,-59.59858,0.001067912,-0.1257102,0.09433498,0,0.3,0,0,0,0,
6.38225E+17,-49.4288,65.87978,78.63359,-100.4862,-34.74281,79.84344,0.02355996,-0.8883717,-10.62301,-5.706912,-0.5373149,50.61862,0,0,0,-140.6992,118.7762,-47.87882,0.04471847,-109.7821,-59.59858,0.001067912,-0.1257102,0.09433498,0,0.3,0,0,0,0,
6.38225E+17,-49.40524,67.91368,80.99167,-103.0497,-30.42134,79.91669,0.02355996,-0.8883717,-10.62301,-5.706912,-0.61056,50.54538,0,0,0,-138.0807,126.0349,-50.02245,0.04471847,-109.7821,-59.59858,0.001067912,-0.1257102,0.09433498,0,0.3,0,0,0,0,
6.38225E+17,-49.12252,69.55016,82.43919,-104.1484,-27.56478,79.91669,0.02355996,-0.8883717,-10.62301,-5.706912,-0.61056,50.54538,0,0,0,-135.1786,130.7501,-51.34762,0.04471847,-109.7821,-59.59858,0.001067912,-0.1257102,0.09433498,0,0.3,0,0,0,0,
6.38225E+17,-48.81624,70.62555,83.41978,-104.7344,-25.8069,79.91669,0.02355996,-0.8883717,-10.62301,-5.706912,-0.5373149,50.61862,0,0,0,-132.9916,133.8673,-51.99125,0.04471847,-109.7821,-59.59858,0.001067912,-0.1257102,0.09433498,0,0.3,0,0,0,0,
6.38225E+17,-47.87384,72.58932,85.28756,-106.1993,-21.99815,81.74782,0.02355996,-0.8883717,-10.62301,-5.706912,-0.61056,50.61862,0,0,0,-128.1605,139.6352,-52.44174,0.04471847,-109.7821,-59.59858,0.001067912,-0.1257102,0.09433498,0,0.3,0,0,0,0,
6.38225E+17,-46.55449,74.27255,86.45493,-107.5177,-18.26265,89.07233,0.02355996,-0.8883717,-10.62301,-5.706912,-0.61056,50.61862,0,0,0,-122.8737,143.4621,-51.96904,0.04471847,-109.7821,-59.59858,0.001067912,-0.1257102,0.09433498,0,0.3,0,0,0,0,
6.38225E+17,-45.82413,74.83363,86.82848,-107.8107,-16.43152,96.25037,0.02355996,-0.8883717,-10.62301,-5.780157,-0.61056,50.54538,0,0,0,-120.5141,144.6778,-51.25388,0.04471847,-109.7821,-59.59858,0.001067912,-0.1257102,0.09433498,0,0.3,0,0,0,0,
6.38225E+17,-44.12781,75.02065,86.89852,-107.005,-12.76926,113.756,0.02355996,-0.8883717,-10.62301,-5.706912,-0.5373149,50.61862,0,0,0,-116.7085,144.9538,-48.03303,0.04471847,-109.7821,-59.59858,0.001067912,-0.1257102,0.09433498,0,0.3,0,0,0,0,
6.38225E+17,-41.53621,74.57647,86.85183,-104.8076,-8.667529,134.7041,0.02355996,-0.8883717,-10.62301,-5.706912,-0.61056,50.61862,0,0,0,-111.8064,144.5742,-42.13662,0.04471847,-109.7821,-59.59858,0.001067912,-0.1257102,0.09433498,0,0.3,0,0,0,0,
6.38225E+17,-38.26138,74.50633,86.87518,-102.83,-4.932025,144.6654,0.02355996,-0.8883717,-10.62301,-5.706912,-0.5373149,50.54538,0,0,0,-104.5131,144.585,-35.82986,0.04471847,-109.7821,-59.59858,0.001067912,-0.1257102,0.09433498,0,0.3,0,0,0,0,
6.38225E+17,-35.33994,74.85701,87.20203,-101.9511,-2.661425,144.8852,0.02355996,-0.8883717,-10.62301,-5.706912,-0.61056,50.61862,0,0,0,-97.19062,145.5603,-31.28546,0.04471847,-109.7821,-59.59858,0.001067912,-0.1257102,0.09433498,0,0.3,0,0,0,0,
6.38225E+17,-31.80595,75.67525,87.9725,-101.8046,-0.9035407,144.8852,0.02355996,-0.8883717,-10.62301,-5.706912,-0.61056,50.61862,0,0,0,-87.62616,147.8362,-27.05622,0.04471847,-109.7821,-59.59858,0.001067912,-0.1257102,0.09433498,0,0.3,0,0,0,0,
6.38225E+17,-26.76412,77.70914,89.84028,-104.2949,0.1951368,144.8852,0.02355996,-0.8883717,-10.62301,-5.706912,-0.61056,50.61862,0,0,0,-72.83282,153.2718,-23.94084,0.04471847,-109.7821,-59.59858,0.001067912,-0.1257102,0.09433498,0,0.3,0,0,0,0,
6.38225E+17,-24.62016,78.85468,90.35392,-106.0528,0.1218917,144.8119,0.02355996,-0.8883717,-10.62301,-5.706912,-0.61056,50.61862,0,0,0,-66.29107,155.0087,-23.69225,0.04471847,-109.7821,-59.59858,0.001067912,-0.1257102,0.09433498,0,0.3,0,0,0,0,
6.38225E+17,-17.08097,83.27316,89.74689,-111.9124,-2.148709,144.8852,0.02355996,-0.8883717,-10.62301,-5.780157,-0.61056,50.61862,0,0,0,-43.75554,155.1929,-25.95214,0.04471847,-109.7821,-59.59858,0.001067912,-0.1257102,0.09433498,0,0.3,0,0,0,0,
6.38225E+17,-14.44226,84.69923,89.42003,-113.597,-3.540367,144.8852,0.02355996,-0.8883717,-10.62301,-5.706912,-0.61056,50.61862,0,0,0,-36.32885,154.7799,-27.29044,0.04471847,-109.7821,-59.59858,0.001067912,-0.1257102,0.09433498,0,0.3,0,0,0,0,
6.38225E+17,-8.622946,87.87867,89.06982,-118.2115,-7.935077,144.8852,0.02355996,-0.8883717,-10.62301,-5.780157,-0.61056,50.61862,0,0,0,-20.73077,154.4438,-31.64444,0.04471847,-109.7821,-59.59858,0.001067912,-0.1257102,0.09433498,0,0.3,0,0,0,0,
6.38225E+17,-2.450236,90.38013,87.27208,-123.9979,-13.94118,144.8852,0.02355996,-0.8883717,-10.62301,-5.706912,-0.5373149,50.61862,0,0,0,-5.65665,150.3505,-36.1568,0.04471847,-109.7821,-59.59858,0.001067912,-0.1257102,0.09433498,0,0.3,0,0,0,0,
6.38225E+17,0.588999,91.29189,85.451,-126.4149,-17.38371,144.8852,0.02355996,-0.8883717,-10.62301,-5.706912,-0.61056,50.61862,0,0,0,1.335586,146.0899,-38.43341,0.04471847,-109.7821,-59.59858,0.001067912,-0.1257102,0.09433498,0,0.3,0,0,0,0,
6.38225E+17,6.549669,92.55431,80.3146,-127.9531,-25.66041,144.8852,0.02355996,-0.8883717,-10.62301,-5.706912,-0.5373149,50.61862,0,0,0,14.31582,134.1329,-43.66277,0.04471847,-109.7821,-59.59858,0.001067912,-0.1257102,0.09433498,0,0.3,0,0,0,0,
6.38225E+17,12.51034,92.90498,74.7346,-122.6062,-35.18228,141.0032,0.02355996,-0.8883717,-10.62301,-5.706912,-0.61056,50.61862,0,0,0,26.40261,121.4188,-49.35715,0.04471847,-109.7821,-59.59858,0.001067912,-0.1257102,0.09433498,0,0.3,0,0,0,0,
6.38225E+17,15.43177,92.81147,72.51661,-117.1128,-40.08971,136.3155,0.02355996,-0.8883717,-10.62301,-5.706912,-0.61056,50.61862,0,0,0,32.10358,116.4772,-52.05064,0.04471847,-109.7821,-59.59858,0.001067912,-0.1257102,0.09433498,0,0.3,0,0,0,0,
6.38225E+17,21.41601,92.3439,70.06515,-100.1932,-50.12429,122.6186,0.02355996,-0.8883717,-10.62301,-5.706912,-0.61056,50.61862,0,0,0,43.78214,111.1226,-56.72294,0.04471847,-109.7821,-59.59858,0.001067912,-0.1257102,0.09433498,0,0.3,0,0,0,0,
6.38225E+17,23.8898,91.54904,69.10791,-77.8534,-58.03477,106.3582,0.02355996,-0.8883717,-10.62301,-5.706912,-0.61056,50.61862,0,0,0,48.9935,109.0974,-57.73672,0.04471847,-109.7821,-59.59858,0.001067912,-0.1257102,0.09433498,0,0.3,0,0,0,0,
6.38225E+17,25.13848,91.40878,68.64096,-56.97853,-61.55054,93.32056,0.02355996,-0.8883717,-10.62301,-5.706912,-0.61056,50.61862,0,0,0,51.36458,108.0921,-58.88979,0.04471847,-109.7821,-59.59858,0.001067912,-0.1257102,0.09433498,0,0.3,0,0,0,0,
6.38225E+17,25.46832,91.61918,68.78104,-48.92156,-62.50273,88.33988,0.02355996,-0.8883717,-10.62301,-5.706912,-0.61056,50.61862,0,0,0,51.83426,108.383,-59.52238,0.04471847,-109.7821,-59.59858,0.001067912,-0.1257102,0.09433498,0,0.3,0,0,0,0,
6.38225E+17,25.96308,92.3439,69.2013,-37.27558,-63.45492,81.74782,0.02355996,-0.8883717,-10.62301,-5.780157,-0.61056,50.61862,0,0,0,52.18759,109.2377,-61.17434,0.04471847,-109.7821,-59.59858,0.001067912,-0.1257102,0.09433498,0,0.3,0,0,0,0,
6.38225E+17,26.2458,93.23228,69.80833,-30.1708,-63.96763,78.37854,0.02355996,-0.8883717,-10.62301,-5.706912,-0.61056,50.61862,0,0,0,52.02131,110.4605,-62.84172,0.04471847,-109.7821,-59.59858,0.001067912,-0.1257102,0.09433498,0,0.3,0,0,0,0,
6.38225E+17,26.26936,94.19078,70.01845,-26.21556,-64.04088,76.91364,0.02355996,-0.8883717,-10.62301,-5.706912,-0.5373149,50.61862,0,0,0,51.15376,110.7754,-64.70872,0.04471847,-109.7821,-59.59858,0.001067912,-0.1257102,0.09433498,0,0.3,0,0,0,0,
6.38225E+17,26.22224,95.31293,70.01845,-23.72522,-62.9422,75.96145,0.02355996,-0.8883717,-10.62301,-5.706912,-0.61056,50.61862,0,0,0,49.9185,110.5591,-67.00151,0.04471847,-109.7821,-59.59858,0.001067912,-0.1257102,0.09433498,0,0.3,0,0,0,0,
6.38225E+17,26.22224,95.80387,69.9951,-22.48005,-61.77028,75.229,0.02355996,-0.8883717,-10.62301,-5.706912,-0.61056,50.61862,0,0,0,49.4078,110.3973,-68.03838,0.04471847,-109.7821,-59.59858,0.001067912,-0.1257102,0.09433498,0,0.3,0,0,0,0,
6.38225E+17,26.22224,96.27144,69.9951,-19.33051,-58.401,73.54436,0.02355996,-0.8883717,-10.62301,-5.706912,-0.61056,50.61862,0,0,0,48.92964,110.2829,-69.00919,0.04471847,-109.7821,-59.59858,0.001067912,-0.1257102,0.09433498,0,0.3,0,0,0,0,
6.38225E+17,26.22224,96.24806,69.92506,-15.37527,-53.93304,71.78648,0.02355996,-0.8883717,-10.62301,-5.706912,-0.61056,50.61862,0,0,0,48.92886,110.1357,-69.01077,0.04471847,-109.7821,-59.59858,0.001067912,-0.1257102,0.09433498,0,0.3,0,0,0,0,
6.38225E+17,26.22224,96.24806,69.92506,-12.51871,-50.92999,70.90753,0.02355996,-0.8883717,-10.62301,-5.780157,-0.61056,50.61862,0,0,0,48.92886,110.1357,-69.01077,0.04471847,-109.7821,-59.59858,0.001067912,-0.1257102,0.09433498,0,0.3,0,0,0,0,
6.38225E+17,26.22224,96.24806,69.92506,-7.684532,-46.31554,69.07641,0.02355996,-0.8883717,-10.62301,-5.706912,-0.61056,50.61862,0,0,0,48.92886,110.1357,-69.01077,0.04471847,-109.7821,-59.59858,0.001067912,-0.1257102,0.09433498,0,0.3,0,0,0,0,
6.38225E+17,26.17512,96.20131,69.9484,-2.484124,-41.99408,66.65932,0.02355996,-0.8883717,-10.62301,-5.706912,-0.61056,50.61862,0,0,0,48.90309,110.1985,-68.85676,0.04471847,-109.7821,-59.59858,0.001067912,-0.1257102,0.09433498,0,0.3,0,0,0,0,
6.38225E+17,26.128,96.22469,69.9484,2.057076,-38.47831,64.68169,0.02355996,-0.8883717,-10.62301,-5.706912,-0.5373149,50.54538,0,0,0,48.79742,110.1926,-68.86514,0.04471847,-109.7821,-59.59858,0.001067912,-0.1257102,0.09433498,0,0.3,0,0,0,0,
6.38225E+17,26.128,96.22469,69.9484,4.474167,-36.72043,63.58302,0.02355996,-0.8883717,-10.62301,-5.706912,-0.61056,50.54538,0,0,0,48.79742,110.1926,-68.86514,0.04471847,-109.7821,-59.59858,0.001067912,-0.1257102,0.09433498,0,0.3,0,0,0,0,
6.38225E+17,26.03376,96.10779,69.9484,9.528083,-33.20466,62.11811,0.02355996,-0.8883717,-10.62301,-5.706912,-0.5373149,50.61862,0,0,0,48.75244,110.2218,-68.54197,0.04471847,-109.7821,-59.59858,0.001067912,-0.1257102,0.09433498,0,0.3,0,0,0,0,
6.38225E+17,25.23272,95.49996,69.9484,15.3877,-29.02968,61.6054,0.02355996,-0.8883717,-10.62301,-5.706912,-0.61056,50.61862,0,0,0,47.9523,110.3649,-66.59703,0.04471847,-109.7821,-59.59858,0.001067912,-0.1257102,0.09433498,0,0.3,0,0,0,0,
6.38225E+17,22.7118,94.1674,69.9484,22.05301,-23.97577,61.45891,0.02355996,-0.8883717,-10.62301,-5.706912,-0.61056,50.61862,0,0,0,44.62354,110.6262,-61.7357,0.04471847,-109.7821,-59.59858,0.001067912,-0.1257102,0.09433498,0,0.3,0,0,0,0,
6.38225E+17,21.36888,93.58295,69.9484,24.10387,-22.36438,61.67865,0.02355996,-0.8883717,-10.62301,-5.706912,-0.61056,50.61862,0,0,0,42.60715,110.7181,-59.45533,0.04471847,-109.7821,-59.59858,0.001067912,-0.1257102,0.09433498,0,0.3,0,0,0,0,
6.38225E+17,16.82181,91.99323,69.64489,29.15779,-18.48238,62.77732,0.02355996,-0.8883717,-10.62301,-5.706912,-0.61056,50.61862,0,0,0,34.83892,110.2352,-53.1165,0.04471847,-109.7821,-59.59858,0.001067912,-0.1257102,0.09433498,0,0.3,0,0,0,0,
6.38225E+17,12.39254,91.01134,68.22071,33.33276,-15.18635,68.05097,0.02355996,-0.8883717,-10.62301,-5.706912,-0.61056,50.61862,0,0,0,26.07013,107.2021,-49.70261,0.04471847,-109.7821,-59.59858,0.001067912,-0.1257102,0.09433498,0,0.3,0,0,0,0,
6.38225E+17,10.5313,90.80094,66.37627,37.288,-11.96356,75.96145,0.02355996,-0.8883717,-10.62301,-5.706912,-0.61056,50.61862,0,0,0,21.98953,103.2498,-50.0658,0.04471847,-109.7821,-59.59858,0.001067912,-0.1257102,0.09433498,0,0.3,0,0,0,0,
6.38225E+17,10.81402,90.89445,65.81594,39.5586,-10.35217,79.40398,0.02355996,-0.8883717,-10.62301,-5.780157,-0.61056,50.61862,0,0,0,22.43294,102.0544,-50.90855,0.04471847,-109.7821,-59.59858,0.001067912,-0.1257102,0.09433498,0,0.3,0,0,0,0,
6.38225E+17,13.02866,91.03472,65.62917,44.83226,-6.763155,84.89736,0.02355996,-0.8883717,-10.62301,-5.706912,-0.61056,50.61862,0,0,0,26.84061,101.6526,-52.35529,0.04471847,-109.7821,-59.59858,0.001067912,-0.1257102,0.09433498,0,0.3,0,0,0,0,
6.38225E+17,16.60977,91.01134,65.88599,50.76511,-2.73467,89.07233,0.02355996,-0.8883717,-10.62301,-5.706912,-0.61056,50.61862,0,0,0,34.11911,102.1986,-53.97098,0.04471847,-109.7821,-59.59858,0.001067912,-0.1257102,0.09433498,0,0.3,0,0,0,0,
6.38225E+17,18.73017,90.94121,65.95602,53.32869,-0.5373149,91.04996,0.02355996,-0.8883717,-10.62301,-5.706912,-0.61056,50.61862,0,0,0,38.40147,102.3502,-55.09413,0.04471847,-109.7821,-59.59858,0.001067912,-0.1257102,0.09433498,0,0.3,0,0,0,0,
6.38225E+17,24.19608,90.59054,66.11945,58.5291,5.468789,96.54334,0.02355996,-0.8883717,-10.62301,-5.706912,-0.61056,50.61862,0,0,0,49.41268,102.7087,-58.38168,0.04471847,-109.7821,-59.59858,0.001067912,-0.1257102,0.09433498,0,0.3,0,0,0,0,
6.38225E+17,28.90807,89.18784,66.30624,62.26461,10.6692,100.3521,0.02355996,-0.8883717,-10.62301,-5.706912,-0.5373149,50.61862,0,0,0,59.94211,103.1002,-59.80121,0.04471847,-109.7821,-59.59858,0.001067912,-0.1257102,0.09433498,0,0.3,0,0,0,0,
6.38225E+17,31.52323,87.62151,66.44632,64.16898,14.03847,101.6705,0.02355996,-0.8883717,-10.62301,-5.706912,-0.61056,50.61862,0,0,0,66.806,103.2974,-59.43166,0.04471847,-109.7821,-59.59858,0.001067912,-0.1257102,0.09433498,0,0.3,0,0,0,0,
6.38225E+17,35.22214,83.06276,66.46967,68.19746,21.58273,102.9157,0.02355996,-0.8883717,-10.62301,-5.706912,-0.61056,50.61862,0,0,0,79.80353,102.4858,-55.31405,0.04471847,-109.7821,-59.59858,0.001067912,-0.1257102,0.09433498,0,0.3,0,0,0,0,
6.38225E+17,36.40014,77.73253,66.44632,71.93297,29.34671,102.9157,0.02355996,-0.8883717,-10.62301,-5.706912,-0.61056,50.61862,0,0,0,89.35358,100.3674,-47.15436,0.04471847,-109.7821,-59.59858,0.001067912,-0.1257102,0.09433498,0,0.3,0,0,0,0,
6.38225E+17,37.1305,71.98148,65.81594,74.78953,37.76991,101.3043,0.02355996,-0.8883717,-10.62301,-5.706912,-0.61056,50.61862,0,0,0,98.3286,95.53067,-38.48004,0.04471847,-109.7821,-59.59858,0.001067912,-0.1257102,0.09433498,0,0.3,0,0,0,0,
6.38225E+17,38.30849,66.9318,65.23226,75.52198,45.90012,97.71527,0.02355996,-0.8883717,-10.62301,-5.706912,-0.61056,50.54538,0,0,0,107.4488,90.17144,-32.33776,0.04471847,-109.7821,-59.59858,0.001067912,-0.1257102,0.09433498,0,0.3,0,0,0,0,
6.38225E+17,39.55717,65.5291,65.20892,75.08251,49.34265,95.81089,0.02355996,-0.8883717,-10.62301,-5.706912,-0.61056,50.54538,0,0,0,112.2753,88.8063,-32.42569,0.04471847,-109.7821,-59.59858,0.001067912,-0.1257102,0.09433498,0,0.3,0,0,0,0,
6.38225E+17,44.22205,65.66937,65.20892,72.44569,53.8106,91.41618,0.02355996,-0.8883717,-10.62301,-5.706912,-0.5373149,50.61862,0,0,0,122.7505,88.94117,-42.22008,0.04471847,-109.7821,-59.59858,0.001067912,-0.1257102,0.09433498,0,0.3,0,0,0,0,
6.38225E+17,48.08588,64.73425,64.48515,68.12422,56.0812,86.582,0.02355996,-0.8883717,-10.62301,-5.706912,-0.61056,50.61862,0,0,0,131.9082,86.50359,-49.93684,0.04471847,-109.7821,-59.59858,0.001067912,-0.1257102,0.09433498,0,0.3,0,0,0,0,
6.38225E+17,49.12252,62.51331,62.80414,62.48434,57.17988,81.16187,0.02355996,-0.8883717,-10.62301,-5.706912,-0.61056,50.61862,0,0,0,136.2169,80.70177,-50.44884,0.04471847,-109.7821,-59.59858,0.001067912,-0.1257102,0.09433498,0,0.3,0,0,0,0,
6.38225E+17,49.09896,61.11063,61.59008,59.3348,57.47286,78.23206,0.02355996,-0.8883717,-10.62301,-5.706912,-0.61056,50.61862,0,0,0,137.3472,76.66036,-49.37179,0.04471847,-109.7821,-59.59858,0.001067912,-0.1257102,0.09433498,0,0.3,0,0,0,0,
6.38225E+17,49.02828,58.21173,58.81176,52.30326,57.83909,72.8119,0.02355996,-0.8883717,-10.62301,-5.706912,-0.61056,50.61862,0,0,0,139.1703,67.64208,-47.49167,0.04471847,-109.7821,-59.59858,0.001067912,-0.1257102,0.09433498,0,0.3,0,0,0,0,
6.38225E+17,49.02828,54.63486,55.94005,44.17305,57.98557,67.31852,0.02355996,-0.8883717,-10.62301,-5.706912,-0.61056,50.61862,0,0,0,141.6858,57.41026,-45.30711,0.04471847,-109.7821,-59.59858,0.001067912,-0.1257102,0.09433498,0,0.3,0,0,0,0,
6.38225E+17,49.02828,52.8815,54.72599,40.14456,57.98557,64.68169,0.02355996,-0.8883717,-10.62301,-5.706912,-0.5373149,50.61862,0,0,0,142.9573,52.6739,-44.20297,0.04471847,-109.7821,-59.59858,0.001067912,-0.1257102,0.09433498,0,0.3,0,0,0,0,
6.38225E+17,49.02828,49.39814,52.48465,31.79461,57.98557,58.89533,0.02355996,-0.8883717,-10.62301,-5.706912,-0.61056,50.61862,0,0,0,145.3862,43.38935,-42.09368,0.04471847,-109.7821,-59.59858,0.001067912,-0.1257102,0.09433498,0,0.3,0,0,0,0,
6.38225E+17,49.12252,46.28884,50.03319,23.59116,57.47286,53.1822,0.02355996,-0.8883717,-10.62301,-5.706912,-0.5373149,50.61862,0,0,0,146.9498,34.08319,-41.15913,0.04471847,-109.7821,-59.59858,0.001067912,-0.1257102,0.09433498,0,0.3,0,0,0,0,
6.38225E+17,49.80576,42.78211,46.34432,15.24121,56.22769,47.39584,0.02355996,-0.8883717,-10.62301,-5.780157,-0.61056,50.61862,0,0,0,148.4564,21.86838,-42.92017,0.04471847,-109.7821,-59.59858,0.001067912,-0.1257102,0.09433498,0,0.3,0,0,0,0,
6.38225E+17,49.57016,40.42091,43.566,10.77325,55.2755,44.24629,0.02355996,-0.8883717,-10.62301,-5.706912,-0.61056,50.61862,0,0,0,147.2337,13.19097,-42.91199,0.04471847,-109.7821,-59.59858,0.001067912,-0.1257102,0.09433498,0,0.3,0,0,0,0,
6.38225E+17,49.26388,38.97147,41.81495,8.209671,54.76279,42.56165,0.02355996,-0.8883717,-10.62301,-5.706912,-0.61056,50.61862,0,0,0,145.924,7.832226,-42.67541,0.04471847,-109.7821,-59.59858,0.001067912,-0.1257102,0.09433498,0,0.3,0,0,0,0,
6.38225E+17,48.55708,35.83878,37.37897,2.936018,53.51762,38.75291,0.02355996,-0.8883717,-10.62301,-5.706912,-0.61056,50.61862,0,0,0,141.7202,-4.537605,-43.21802,0.04471847,-109.7821,-59.59858,0.001067912,-0.1257102,0.09433498,0,0.3,0,0,0,0,
6.38225E+17,48.133,33.78151,33.31655,-1.385447,52.19921,35.45687,0.02355996,-0.8883717,-10.62301,-5.706912,-0.61056,50.61862,0,0,0,137.0837,-13.93752,-45.49425,0.04471847,-109.7821,-59.59858,0.001067912,-0.1257102,0.09433498,0,0.3,0,0,0,0,
6.38225E+17,47.99164,33.17367,31.68224,-3.143331,51.54,34.06521,0.02355996,-0.8883717,-10.62301,-5.706912,-0.61056,50.61862,0,0,0,134.9764,-17.16111,-46.78103,0.04471847,-109.7821,-59.59858,0.001067912,-0.1257102,0.09433498,0,0.3,0,0,0,0,
6.38225E+17,47.75604,32.91651,30.30475,-5.340686,50.36808,31.9411,0.02355996,-0.8883717,-10.62301,-5.706912,-0.61056,50.61862,0,0,0,132.6825,-19.31364,-47.85519,0.04471847,-109.7821,-59.59858,0.001067912,-0.1257102,0.09433498,0,0.3,0,0,0,0,
6.38225E+17,47.37908,32.93989,30.2814,-6.292873,49.70887,30.84243,0.02355996,-0.8883717,-10.62301,-5.706912,-0.61056,50.61862,0,0,0,131.8306,-19.29539,-47.03666,0.04471847,-109.7821,-59.59858,0.001067912,-0.1257102,0.09433498,0,0.3,0,0,0,0,
6.38225E+17,46.88432,33.10354,30.35144,-6.219628,49.34265,30.4762,0.02355996,-0.8883717,-10.62301,-5.706912,-0.61056,50.61862,0,0,0,130.7294,-18.89375,-45.9485,0.04471847,-109.7821,-59.59858,0.001067912,-0.1257102,0.09433498,0,0.3,0,0,0,0,
6.38225E+17,46.27176,33.43083,30.49153,-5.340686,49.48914,30.40295,0.02355996,-0.8883717,-10.62301,-5.706912,-0.61056,50.61862,0,0,0,129.3145,-18.09175,-44.65237,0.04471847,-109.7821,-59.59858,0.001067912,-0.1257102,0.09433498,0,0.3,0,0,0,0,
6.38225E+17,45.5414,33.87502,30.58492,-4.315253,49.9286,30.54945,0.02355996,-0.8883717,-10.62301,-5.706912,-0.61056,50.54538,0,0,0,127.452,-17.12077,-43.28419,0.04471847,-109.7821,-59.59858,0.001067912,-0.1257102,0.09433498,0,0.3,0,0,0,0,
6.38225E+17,43.56237,34.99717,30.67831,-2.410879,51.32027,31.06216,0.02355996,-0.8883717,-10.62301,-5.706912,-0.61056,50.61862,0,0,0,122.1681,-14.85605,-39.89203,0.04471847,-109.7821,-59.59858,0.001067912,-0.1257102,0.09433498,0,0.3,0,0,0,0,
6.38225E+17,42.07809,35.79203,30.70166,-1.385447,51.97947,31.20865,0.02355996,-0.8883717,-10.62301,-5.706912,-0.61056,50.61862,0,0,0,118.113,-13.32028,-37.53127,0.04471847,-109.7821,-59.59858,0.001067912,-0.1257102,0.09433498,0,0.3,0,0,0,0,
6.38225E+17,36.16454,38.59741,30.67831,0.2259469,53.95709,30.91567,0.02355996,-0.8883717,-10.62301,-5.706912,-0.5373149,50.61862,0,0,0,101.6499,-8.147429,-29.28251,0.04471847,-109.7821,-59.59858,0.001067912,-0.1257102,0.09433498,0,0.3,0,0,0,0,
6.38225E+17,34.1855,39.25201,30.67831,0.006211365,54.25007,30.98892,0.02355996,-0.8883717,-10.62301,-5.780157,-0.61056,50.61862,0,0,0,96.24892,-6.962203,-26.64691,0.04471847,-109.7821,-59.59858,0.001067912,-0.1257102,0.09433498,0,0.3,0,0,0,0,
6.38225E+17,30.29811,40.23389,30.93513,-0.7994855,54.68954,32.60031,0.02355996,-0.8883717,-10.62301,-5.706912,-0.61056,50.61862,0,0,0,85.9425,-4.898942,-21.26589,0.04471847,-109.7821,-59.59858,0.001067912,-0.1257102,0.09433498,0,0.3,0,0,0,0,
6.38225E+17,26.50496,40.98199,31.5655,-1.312202,54.98252,36.84853,0.02355996,-0.8883717,-10.62301,-5.780157,-0.61056,50.61862,0,0,0,76.07794,-2.816003,-15.79431,0.04471847,-109.7821,-59.59858,0.001067912,-0.1257102,0.09433498,0,0.3,0,0,0,0,
6.38225E+17,24.40812,41.33266,31.91571,-1.605182,54.98252,39.70509,0.02355996,-0.8883717,-10.62301,-5.706912,-0.5373149,50.61862,0,0,0,70.50969,-1.772727,-12.97079,0.04471847,-109.7821,-59.59858,0.001067912,-0.1257102,0.09433498,0,0.3,0,0,0,0,
6.38225E+17,20.19089,42.31455,32.21923,-2.264389,54.90928,46.22392,0.02355996,-0.8883717,-10.62301,-5.706912,-0.5373149,50.61862,0,0,0,58.57313,0.305251,-9.074728,0.04471847,-109.7821,-59.59858,0.001067912,-0.1257102,0.09433498,0,0.3,0,0,0,0,
6.38225E+17,15.90297,43.60035,31.89237,-2.85035,54.32331,53.1822,0.02355996,-0.8883717,-10.62301,-5.780157,-0.61056,50.61862,0,0,0,45.76498,2.09159,-7.722415,0.04471847,-109.7821,-59.59858,0.001067912,-0.1257102,0.09433498,0,0.3,0,0,0,0,
6.38225E+17,11.33234,44.79264,31.07521,-3.363066,53.59086,60.43347,0.02355996,-0.8883717,-10.62301,-5.706912,-0.5373149,50.61862,0,0,0,32.12054,3.087806,-8.073261,0.04471847,-109.7821,-59.59858,0.001067912,-0.1257102,0.09433498,0,0.3,0,0,0,0,
6.38225E+17,8.834986,45.19007,30.86509,-3.949028,52.85841,63.58302,0.02355996,-0.8883717,-10.62301,-5.706912,-0.61056,50.54538,0,0,0,24.94141,3.490301,-7.886436,0.04471847,-109.7821,-59.59858,0.001067912,-0.1257102,0.09433498,0,0.3,0,0,0,0,
6.38225E+17,4.311473,45.96155,30.95848,-5.633667,51.17377,69.51588,0.02355996,-0.8883717,-10.62301,-5.706912,-0.61056,50.61862,0,0,0,12.12586,4.858766,-7.511931,0.04471847,-109.7821,-59.59858,0.001067912,-0.1257102,0.09433498,0,0.3,0,0,0,0,
6.38225E+17,1.060198,47.20059,31.33203,-6.512609,49.48914,75.88821,0.02355996,-0.8883717,-10.62301,-5.706912,-0.61056,50.61862,0,0,0,2.959428,7.290475,-8.433334,0.04471847,-109.7821,-59.59858,0.001067912,-0.1257102,0.09433498,0,0.3,0,0,0,0,
6.38225E+17,-0.4947592,48.27599,31.5655,-6.80559,48.39046,79.47723,0.02355996,-0.8883717,-10.62301,-5.706912,-0.61056,50.61862,0,0,0,-1.369136,9.257183,-9.800603,0.04471847,-109.7821,-59.59858,0.001067912,-0.1257102,0.09433498,0,0.3,0,0,0,0,
6.38225E+17,-3.486874,51.22165,32.33596,-7.24506,45.09443,85.77631,0.02355996,-0.8883717,-10.62301,-5.706912,-0.61056,50.61862,0,0,0,-9.417652,14.63535,-13.79168,0.04471847,-109.7821,-59.59858,0.001067912,-0.1257102,0.09433498,0,0.3,0,0,0,0,
6.38225E+17,-6.10203,53.98027,34.39052,-7.831022,40.69971,90.53724,0.02355996,-0.8883717,-10.62301,-5.706912,-0.5373149,50.61862,0,0,0,-16.34229,21.16407,-15.4826,0.04471847,-109.7821,-59.59858,0.001067912,-0.1257102,0.09433498,0,0.3,0,0,0,0,
6.38225E+17,-8.010387,56.55187,36.86533,-8.563474,36.08527,94.78546,0.02355996,-0.8883717,-10.62301,-5.706912,-0.61056,50.61862,0,0,0,-21.39085,27.92889,-16.34615,0.04471847,-109.7821,-59.59858,0.001067912,-0.1257102,0.09433498,0,0.3,0,0,0,0,
6.38225E+17,-9.636024,58.95983,39.3168,-9.149435,30.95811,97.42229,0.02355996,-0.8883717,-10.62301,-5.706912,-0.61056,50.61862,0,0,0,-25.65265,34.43825,-17.2602,0.04471847,-109.7821,-59.59858,0.001067912,-0.1257102,0.09433498,0,0.3,0,0,0,0,
6.38225E+17,-10.4135,60.05861,40.60089,-9.442415,28.32128,98.52097,0.02355996,-0.8883717,-10.62301,-5.706912,-0.61056,50.54538,0,0,0,-27.7162,37.65515,-17.5365,0.04471847,-109.7821,-59.59858,0.001067912,-0.1257102,0.09433498,0,0.3,0,0,0,0,
6.38225E+17,-11.89778,61.90548,42.98232,-10.32136,23.12087,100.5718,0.02355996,-0.8883717,-10.62301,-5.706912,-0.61056,50.61862,0,0,0,-31.69035,43.43354,-17.93966,0.04471847,-109.7821,-59.59858,0.001067912,-0.1257102,0.09433498,0,0.3,0,0,0,0,
6.38225E+17,-13.54698,63.12115,44.45319,-11.49328,18.35994,101.5973,0.02355996,-0.8883717,-10.62301,-5.706912,-0.5373149,50.61862,0,0,0,-35.99764,47.10519,-18.94878,0.04471847,-109.7821,-59.59858,0.001067912,-0.1257102,0.09433498,0,0.3,0,0,0,0,
6.38225E+17,-14.56006,63.4952,45.13026,-12.51871,16.23583,101.817,0.02355996,-0.8883717,-10.62301,-5.780157,-0.61056,50.61862,0,0,0,-38.71912,48.60645,-19.27902,0.04471847,-109.7821,-59.59858,0.001067912,-0.1257102,0.09433498,0,0.3,0,0,0,0,
6.38225E+17,-16.79825,63.75236,46.25093,-14.86256,12.86655,102.8424,0.02355996,-0.8883717,-10.62301,-5.706912,-0.5373149,50.61862,0,0,0,-44.88297,50.73871,-19.67403,0.04471847,-109.7821,-59.59858,0.001067912,-0.1257102,0.09433498,0,0.3,0,0,0,0,
6.38225E+17,-19.79037,63.68222,46.95135,-17.86561,10.22972,105.113,0.02355996,-0.8883717,-10.62301,-5.706912,-0.61056,50.61862,0,0,0,-53.01122,51.85088,-21.02796,0.04471847,-109.7821,-59.59858,0.001067912,-0.1257102,0.09433498,0,0.3,0,0,0,0,
6.38225E+17,-21.60448,63.63547,47.09144,-19.76999,9.131048,106.4314,0.02355996,-0.8883717,-10.62301,-5.706912,-0.61056,50.61862,0,0,0,-57.76617,52.04111,-22.48266,0.04471847,-109.7821,-59.59858,0.001067912,-0.1257102,0.09433498,0,0.3,0,0,0,0,
6.38225E+17,-25.49188,63.2848,47.20817,-24.16469,7.519653,107.6034,0.02355996,-0.8883717,-10.62301,-5.706912,-0.61056,50.61862,0,0,0,-67.91622,51.87563,-25.90871,0.04471847,-109.7821,-59.59858,0.001067912,-0.1257102,0.09433498,0,0.3,0,0,0,0,
6.38225E+17,-29.07299,62.23278,47.23152,-29.51159,6.274486,107.9696,0.02355996,-0.8883717,-10.62301,-5.706912,-0.5373149,50.61862,0,0,0,-77.75644,50.79477,-28.49416,0.04471847,-109.7821,-59.59858,0.001067912,-0.1257102,0.09433498,0,0.3,0,0,0,0,
6.38225E+17,-32.04155,60.24563,47.23152,-34.63876,5.835015,108.1161,0.02355996,-0.8883717,-10.62301,-5.706912,-0.61056,50.61862,0,0,0,-87.04579,48.5696,-29.27213,0.04471847,-109.7821,-59.59858,0.001067912,-0.1257102,0.09433498,0,0.3,0,0,0,0,
6.38225E+17,-35.26926,56.29471,47.18483,-40.35188,6.05475,108.0428,0.02355996,-0.8883717,-10.62301,-5.706912,-0.61056,50.61862,0,0,0,-99.21088,43.65484,-28.06994,0.04471847,-109.7821,-59.59858,0.001067912,-0.1257102,0.09433498,0,0.3,0,0,0,0,
6.38225E+17,-36.68286,52.90487,47.23152,-43.50142,6.787202,108.1161,0.02355996,-0.8883717,-10.62301,-5.706912,-0.61056,50.61862,0,0,0,-106.5266,39.165,-25.34434,0.04471847,-109.7821,-59.59858,0.001067912,-0.1257102,0.09433498,0,0.3,0,0,0,0,
6.38225E+17,-37.38966,50.38003,47.27821,-45.11281,7.592898,108.702,0.02355996,-0.8883717,-10.62301,-5.780157,-0.61056,50.61862,0,0,0,-111.1252,35.59845,-22.94987,0.04471847,-109.7821,-59.59858,0.001067912,-0.1257102,0.09433498,0,0.3,0,0,0,0,
6.38225E+17,-38.70901,45.65763,47.32491,-47.16368,9.497273,112.1446,0.02355996,-0.8883717,-10.62301,-5.706912,-0.61056,50.61862,0,0,0,-119.5976,28.32875,-19.11588,0.04471847,-109.7821,-59.59858,0.001067912,-0.1257102,0.09433498,0,0.3,0,0,0,0,
6.38225E+17,-40.90009,41.0755,47.27821,-48.3356,11.62138,115.7336,0.02355996,-0.8883717,-10.62301,-5.706912,-0.5373149,50.61862,0,0,0,-129.9608,20.49817,-18.31963,0.04471847,-109.7821,-59.59858,0.001067912,-0.1257102,0.09433498,0,0.3,0,0,0,0,
6.38225E+17,-43.75085,36.21284,47.23152,-49.94699,13.74549,117.1252,0.02355996,-0.8883717,-10.62301,-5.706912,-0.5373149,50.61862,0,0,0,-142.0965,11.58171,-19.91843,0.04471847,-109.7821,-59.59858,0.001067912,-0.1257102,0.09433498,0,0.3,0,0,0,0,
6.38225E+17,-45.89481,31.81774,47.23152,-51.99786,15.72311,116.8323,0.02355996,-0.8883717,-10.62301,-5.706912,-0.61056,50.61862,0,0,0,-151.6579,3.10497,-21.35658,0.04471847,-109.7821,-59.59858,0.001067912,-0.1257102,0.09433498,0,0.3,0,0,0,0,
6.38225E+17,-46.67228,30.01761,47.18483,-52.95005,16.52881,116.466,0.02355996,-0.8883717,-10.62301,-5.706912,-0.5373149,50.61862,0,0,0,-155.1507,-0.5689138,-22.00163,0.04471847,-109.7821,-59.59858,0.001067912,-0.1257102,0.09433498,0,0.3,0,0,0,0,
6.38225E+17,-47.8974,27.18885,46.78792,-54.19521,17.70073,115.7336,0.02355996,-0.8883717,-10.62301,-5.706912,-0.61056,50.61862,0,0,0,-160.115,-7.023922,-23.66182,0.04471847,-109.7821,-59.59858,0.001067912,-0.1257102,0.09433498,0,0.3,0,0,0,0,
6.38225E+17,-49.02828,24.38347,46.39102,-54.85442,18.35994,113.9025,0.02355996,-0.8883717,-10.62301,-5.706912,-0.61056,50.61862,0,0,0,-164.6044,-13.57348,-25.40415,0.04471847,-109.7821,-59.59858,0.001067912,-0.1257102,0.09433498,0,0.3,0,0,0,0,
6.38225E+17,-49.64084,22.81713,46.04081,-55.07415,18.50643,112.8038,0.02355996,-0.8883717,-10.62301,-5.706912,-0.5373149,50.61862,0,0,0,-166.8056,-17.5024,-26.59222,0.04471847,-109.7821,-59.59858,0.001067912,-0.1257102,0.09433498,0,0.3,0,0,0,0,
6.38225E+17,-50.81884,18.74932,45.15361,-55.58687,19.23888,109.6542,0.02355996,-0.8883717,-10.62301,-5.706912,-0.61056,50.61862,0,0,0,-171.1682,-27.8271,-28.84232,0.04471847,-109.7821,-59.59858,0.001067912,-0.1257102,0.09433498,0,0.3,0,0,0,0,
6.38225E+17,-51.31359,14.63475,44.21972,-56.24608,20.19107,107.0174,0.02355996,-0.8883717,-10.62301,-5.780157,-0.61056,50.61862,0,0,0,-173.3068,-38.52631,-29.57257,0.04471847,-109.7821,-59.59858,0.001067912,-0.1257102,0.09433498,0,0.3,0,0,0,0,
6.38225E+17,-51.4314,10.80073,42.14182,-56.24608,21.87571,105.992,0.02355996,-0.8883717,-10.62301,-5.706912,-0.5373149,50.61862,0,0,0,-172.3703,-50.53824,-30.90315,0.04471847,-109.7821,-59.59858,0.001067912,-0.1257102,0.09433498,0,0.3,0,0,0,0,
6.38225E+17,-51.38427,9.140878,40.88106,-55.87985,22.82789,106.0652,0.02355996,-0.8883717,-10.62301,-5.706912,-0.61056,50.61862,0,0,0,-171.0631,-56.2876,-31.71527,0.04471847,-109.7821,-59.59858,0.001067912,-0.1257102,0.09433498,0,0.3,0,0,0,0,
6.38225E+17,-51.14867,6.826435,39.10667,-54.70793,24.87876,107.3104,0.02355996,-0.8883717,-10.62301,-5.706912,-0.5373149,50.54538,0,0,0,-168.6186,-64.27573,-32.52832,0.04471847,-109.7821,-59.59858,0.001067912,-0.1257102,0.09433498,0,0.3,0,0,0,0,
6.38225E+17,-50.77172,5.938064,37.23889,-53.53601,26.92962,109.2148,0.02355996,-0.8883717,-10.62301,-5.706912,-0.61056,50.61862,0,0,0,-165.2522,-69.01701,-33.43769,0.04471847,-109.7821,-59.59858,0.001067912,-0.1257102,0.09433498,0,0.3,0,0,0,0,
6.38225E+17,-49.14608,6.429006,33.01303,-52.29084,29.27347,113.463,0.02355996,-0.8883717,-10.62301,-5.706912,-0.61056,50.61862,0,0,0,-155.1823,-73.53873,-34.14521,0.04471847,-109.7821,-59.59858,0.001067912,-0.1257102,0.09433498,0,0.3,0,0,0,0,
6.38225E+17,-46.86076,7.527781,29.69772,-50.45971,30.59188,117.1252,0.02355996,-0.8883717,-10.62301,-5.706912,-0.61056,50.61862,0,0,0,-144.6732,-75.01487,-32.78126,0.04471847,-109.7821,-59.59858,0.001067912,-0.1257102,0.09433498,0,0.3,0,0,0,0,
6.38225E+17,-44.92884,8.766827,27.15287,-48.3356,31.54407,120.4945,0.02355996,-0.8883717,-10.62301,-5.706912,-0.61056,50.61862,0,0,0,-136.0538,-74.97942,-31.95789,0.04471847,-109.7821,-59.59858,0.001067912,-0.1257102,0.09433498,0,0.3,0,0,0,0,
6.38225E+17,-40.61737,12.46058,22.2266,-42.54923,33.66818,129.5037,0.02355996,-0.8883717,-10.62301,-5.780157,-0.61056,50.61862,0,0,0,-117.6048,-71.31879,-31.22232,0.04471847,-109.7821,-59.59858,0.001067912,-0.1257102,0.09433498,0,0.3,0,0,0,0,
6.38225E+17,-35.31638,17.74406,17.81396,-34.49226,35.49931,143.933,0.02355996,-0.8883717,-10.62301,-5.780157,-0.5373149,50.61862,0,0,0,-97.00459,-62.96604,-31.42853,0.04471847,-109.7821,-59.59858,0.001067912,-0.1257102,0.09433498,0,0.3,0,0,0,0,
6.38225E+17,-30.51015,22.48983,15.75941,-26.72828,36.45149,144.8852,0.02355996,-0.8883717,-10.62301,-5.780157,-0.61056,50.54538,0,0,0,-80.93916,-53.97849,-30.99821,0.04471847,-109.7821,-59.59858,0.001067912,-0.1257102,0.09433498,0,0.3,0,0,0,0,
6.38225E+17,-27.98923,25.15495,15.15238,-22.18707,36.45149,144.8119,0.02355996,-0.8883717,-10.62301,-5.706912,-0.5373149,50.61862,0,0,0,-73.00483,-48.68119,-30.98562,0.04471847,-109.7821,-59.59858,0.001067912,-0.1257102,0.09433498,0,0.3,0,0,0,0,
6.38225E+17,-23.27724,30.27477,14.89556,-13.61739,35.93878,144.8852,0.02355996,-0.8883717,-10.62301,-5.706912,-0.5373149,50.61862,0,0,0,-59.05661,-38.29085,-31.072,0.04471847,-109.7821,-59.59858,0.001067912,-0.1257102,0.09433498,0,0.3,0,0,0,0,
6.38225E+17,-18.65949,34.88028,15.3625,-6.80559,34.8401,144.8852,0.02355996,-0.8883717,-10.62301,-5.706912,-0.61056,50.61862,0,0,0,-46.30258,-28.97727,-31.23576,0.04471847,-109.7821,-59.59858,0.001067912,-0.1257102,0.09433498,0,0.3,0,0,0,0,
6.38225E+17,-14.63074,37.84931,16.41313,-2.337634,34.0344,144.8119,0.02355996,-0.8883717,-10.62301,-5.706912,-0.61056,50.54538,0,0,0,-36.11417,-22.74408,-30.00984,0.04471847,-109.7821,-59.59858,0.001067912,-0.1257102,0.09433498,0,0.3,0,0,0,0,
6.38225E+17,-10.03654,40.39754,18.07078,1.983831,33.15546,144.8852,0.02355996,-0.8883717,-10.62301,-5.706912,-0.61056,50.61862,0,0,0,-24.90737,-16.99996,-27.6182,0.04471847,-109.7821,-59.59858,0.001067912,-0.1257102,0.09433498,0,0.3,0,0,0,0,
6.38225E+17,-3.958073,43.06265,20.80241,7.330729,31.98354,144.8852,0.02355996,-0.8883717,-10.62301,-5.706912,-0.61056,50.61862,0,0,0,-9.994019,-10.25594,-23.91006,0.04471847,-109.7821,-59.59858,0.001067912,-0.1257102,0.09433498,0,0.3,0,0,0,0,
6.38225E+17,-0.8717186,44.41859,22.41338,10.18729,31.25109,144.8119,0.02355996,-0.8883717,-10.62301,-5.706912,-0.61056,50.61862,0,0,0,-2.222567,-6.595341,-22.27773,0.04471847,-109.7821,-59.59858,0.001067912,-0.1257102,0.09433498,0,0.3,0,0,0,0,
6.38225E+17,8.175306,48.48639,29.09069,17.73154,28.17479,141.0764,0.02355996,-0.8883717,-10.62301,-5.780157,-0.61056,50.61862,0,0,0,21.78796,6.6742,-16.68907,0.04471847,-109.7821,-59.59858,0.001067912,-0.1257102,0.09433498,0,0.3,0,0,0,0,
6.38225E+17,10.97894,49.46828,31.91571,19.70916,27.00287,139.5383,0.02355996,-0.8883717,-10.62301,-5.780157,-0.61056,50.61862,0,0,0,29.93052,11.51112,-14.06811,0.04471847,-109.7821,-59.59858,0.001067912,-0.1257102,0.09433498,0,0.3,0,0,0,0,
6.38225E+17,16.60977,50.21638,38.96659,24.61659,23.99982,138.4396,0.02355996,-0.8883717,-10.62301,-5.780157,-0.5373149,50.61862,0,0,0,48.36292,22.14367,-6.22084,0.04471847,-109.7821,-59.59858,0.001067912,-0.1257102,0.09433498,0,0.3,0,0,0,0,
6.38225E+17,20.96836,48.9072,46.20424,30.25646,21.28975,138.6593,0.02355996,-0.8883717,-10.62301,-5.706912,-0.61056,50.61862,0,0,0,65.80975,31.55852,3.373588,0.04471847,-109.7821,-59.59858,0.001067912,-0.1257102,0.09433498,0,0.3,0,0,0,0,
6.38225E+17,22.64112,47.52789,49.68298,33.03978,20.11782,139.465,0.02355996,-0.8883717,-10.62301,-5.706912,-0.61056,50.61862,0,0,0,73.80346,35.43015,8.593359,0.04471847,-109.7821,-59.59858,0.001067912,-0.1257102,0.09433498,0,0.3,0,0,0,0,
6.38225E+17,24.85576,43.74062,55.23963,37.65423,18.65292,141.2961,0.02355996,-0.8883717,-10.62301,-5.706912,-0.5373149,50.61862,0,0,0,86.54502,39.5186,18.47289,0.04471847,-109.7821,-59.59858,0.001067912,-0.1257102,0.09433498,0,0.3,0,0,0,0,
6.38225E+17,25.72748,39.50917,57.85452,39.77834,18.43318,141.5159,0.02355996,-0.8883717,-10.62301,-5.706912,-0.61056,50.61862,0,0,0,93.67253,37.23585,26.04851,0.04471847,-109.7821,-59.59858,0.001067912,-0.1257102,0.09433498,0,0.3,0,0,0,0,
6.38225E+17,25.8924,37.94283,58.0413,39.77834,18.57967,141.4426,0.02355996,-0.8883717,-10.62301,-5.706912,-0.61056,50.61862,0,0,0,95.32831,34.76036,28.03722,0.04471847,-109.7821,-59.59858,0.001067912,-0.1257102,0.09433498,0,0.3,0,0,0,0,
6.38225E+17,26.31648,34.22569,57.36423,38.16694,19.45862,141.0764,0.02355996,-0.8883717,-10.62301,-5.780157,-0.61056,50.61862,0,0,0,98.66452,26.43806,31.13803,0.04471847,-109.7821,-59.59858,0.001067912,-0.1257102,0.09433498,0,0.3,0,0,0,0,
6.38225E+17,26.64632,30.15788,55.94005,35.31038,20.99677,138.4396,0.02355996,-0.8883717,-10.62301,-5.780157,-0.5373149,50.61862,0,0,0,101.2557,15.65896,33.44535,0.04471847,-109.7821,-59.59858,0.001067912,-0.1257102,0.09433498,0,0.3,0,0,0,0,
6.38225E+17,26.57564,26.55764,54.86607,32.45382,22.97438,136.169,0.02355996,-0.8883717,-10.62301,-5.706912,-0.61056,50.61862,0,0,0,102.152,6.228965,35.85965,0.04471847,-109.7821,-59.59858,0.001067912,-0.1257102,0.09433498,0,0.3,0,0,0,0,
6.38225E+17,26.50496,24.54711,54.70264,30.76918,24.21955,135.5098,0.02355996,-0.8883717,-10.62301,-5.706912,-0.61056,50.61862,0,0,0,102.7028,1.69681,37.59534,0.04471847,-109.7821,-59.59858,0.001067912,-0.1257102,0.09433498,0,0.3,0,0,0,0,
6.38225E+17,26.10444,21.57808,54.88942,27.69288,26.27042,139.2453,0.02355996,-0.8883717,-10.62301,-5.706912,-0.61056,50.54538,0,0,0,102.5619,-4.305118,40.96382,0.04471847,-109.7821,-59.59858,0.001067912,-0.1257102,0.09433498,0,0.3,0,0,0,0,
6.38225E+17,25.56256,20.15201,54.72599,24.90957,27.73532,144.6654,0.02355996,-0.8883717,-10.62301,-5.780157,-0.5373149,50.61862,0,0,0,100.9932,-7.717258,42.79306,0.04471847,-109.7821,-59.59858,0.001067912,-0.1257102,0.09433498,0,0.3,0,0,0,0,
6.38225E+17,25.37408,19.35715,54.14231,22.63897,28.61426,144.9584,0.02355996,-0.8883717,-10.62301,-5.706912,-0.61056,50.61862,0,0,0,100.2274,-10.56336,42.97519,0.04471847,-109.7821,-59.59858,0.001067912,-0.1257102,0.09433498,0,0.3,0,0,0,0,
6.38225E+17,25.37408,18.51554,53.27846,20.95433,29.41996,144.8852,0.02355996,-0.8883717,-10.62301,-5.706912,-0.61056,50.61862,0,0,0,99.98991,-14.03664,42.47437,0.04471847,-109.7821,-59.59858,0.001067912,-0.1257102,0.09433498,0,0.3,0,0,0,0,
6.38225E+17,25.37408,17.13622,51.85428,19.34294,30.59188,144.8852,0.02355996,-0.8883717,-10.62301,-5.706912,-0.61056,50.61862,0,0,0,99.54765,-19.7246,41.5419,0.04471847,-109.7821,-59.59858,0.001067912,-0.1257102,0.09433498,0,0.3,0,0,0,0,
6.38225E+17,25.37408,16.36474,51.01377,18.97671,31.32433,144.8119,0.02355996,-0.8883717,-10.62301,-5.706912,-0.61056,50.61862,0,0,0,99.24682,-22.97345,40.9076,0.04471847,-109.7821,-59.59858,0.001067912,-0.1257102,0.09433498,0,0.3,0,0,0,0,
6.38225E+17,25.37408,14.23733,48.2588,18.97671,33.66818,144.8852,0.02355996,-0.8883717,-10.62301,-5.706912,-0.61056,50.61862,0,0,0,98.02737,-32.63409,38.33646,0.04471847,-109.7821,-59.59858,0.001067912,-0.1257102,0.09433498,0,0.3,0,0,0,0,
6.38225E+17,25.35052,12.27356,45.66725,19.19645,35.79229,144.8119,0.02355996,-0.8883717,-10.62301,-5.706912,-0.5373149,50.61862,0,0,0,96.62877,-41.49075,35.60411,0.04471847,-109.7821,-59.59858,0.001067912,-0.1257102,0.09433498,0,0.3,0,0,0,0,
6.38225E+17,25.32696,11.1514,44.52324,19.41618,36.96421,144.8852,0.02355996,-0.8883717,-10.62301,-5.706912,-0.61056,50.61862,0,0,0,95.96764,-45.93385,34.42413,0.04471847,-109.7821,-59.59858,0.001067912,-0.1257102,0.09433498,0,0.3,0,0,0,0,
6.38225E+17,25.16204,8.533044,41.90834,20.07539,39.16157,144.8852,0.02355996,-0.8883717,-10.62301,-5.706912,-0.61056,50.54538,0,0,0,93.94082,-56.10453,31.62821,0.04471847,-109.7821,-59.59858,0.001067912,-0.1257102,0.09433498,0,0.3,0,0,0,0,
6.38225E+17,24.57304,5.657525,39.41019,21.32055,40.91945,144.8852,0.02355996,-0.8883717,-10.62301,-5.706912,-0.61056,50.61862,0,0,0,90.38982,-66.53306,29.32418,0.04471847,-109.7821,-59.59858,0.001067912,-0.1257102,0.09433498,0,0.3,0,0,0,0,
6.38225E+17,23.37148,2.782006,36.51513,22.34599,42.60409,144.8852,0.02355996,-0.8883717,-10.62301,-5.706912,-0.61056,50.54538,0,0,0,84.31301,-77.35108,26.75224,0.04471847,-109.7821,-59.59858,0.001067912,-0.1257102,0.09433498,0,0.3,0,0,0,0,
6.38225E+17,21.27464,-0.2104038,32.77956,23.22493,44.21548,144.8852,0.02355996,-0.8883717,-10.62301,-5.706912,-0.5373149,50.61862,0,0,0,74.58005,-89.25501,23.18834,0.04471847,-109.7821,-59.59858,0.001067912,-0.1257102,0.09433498,0,0.3,0,0,0,0,
6.38225E+17,19.93173,-1.122154,30.86509,23.29818,44.87469,144.8852,0.02355996,-0.8883717,-10.62301,-5.706912,-0.61056,50.61862,0,0,0,68.77164,-93.7262,21.30136,0.04471847,-109.7821,-59.59858,0.001067912,-0.1257102,0.09433498,0,0.3,0,0,0,0,
6.38225E+17,17.24589,-0.7247244,22.85697,22.63897,46.26635,136.9014,0.02355996,-0.8883717,-10.62301,-5.706912,-0.61056,50.61862,0,0,0,54.88807,-101.2157,8.463223,0.04471847,-109.7821,-59.59858,0.001067912,-0.1257102,0.09433498,0,0.3,0,0,0,0,
6.38225E+17,13.45274,-1.052019,16.29639,20.36837,47.21854,122.8384,0.02355996,-0.8883717,-10.62301,-5.780157,-0.61056,50.61862,0,0,0,39.72298,-107.0907,-2.288546,0.04471847,-109.7821,-59.59858,0.001067912,-0.1257102,0.09433498,0,0.3,0,0,0,0,
6.38225E+17,11.37946,-1.005263,13.77489,18.46399,47.51152,115.4406,0.02355996,-0.8883717,-10.62301,-5.706912,-0.61056,50.61862,0,0,0,32.57149,-108.5042,-6.514023,0.04471847,-109.7821,-59.59858,0.001067912,-0.1257102,0.09433498,0,0.3,0,0,0,0,
6.38225E+17,6.691029,-0.9818845,10.7164,12.89736,47.87774,100.8648,0.02355996,-0.8883717,-10.62301,-5.706912,-0.5373149,50.61862,0,0,0,18.42415,-109.9594,-11.30046,0.04471847,-109.7821,-59.59858,0.001067912,-0.1257102,0.09433498,0,0.3,0,0,0,0,
6.38225E+17,1.955477,-0.9818845,10.52962,6.08556,48.09748,91.04996,0.02355996,-0.8883717,-10.62301,-5.706912,-0.61056,50.61862,0,0,0,5.381155,-110.0396,-10.74254,0.04471847,-109.7821,-59.59858,0.001067912,-0.1257102,0.09433498,0,0.3,0,0,0,0,
6.38225E+17,-2.568036,-0.8649935,10.80978,-1.019221,48.4637,85.19034,0.02355996,-0.8883717,-10.62301,-5.706912,-0.61056,50.61862,0,0,0,-7.094731,-109.6468,-10.16455,0.04471847,-109.7821,-59.59858,0.001067912,-0.1257102,0.09433498,0,0.3,0,0,0,0,
6.38225E+17,-4.900472,-0.7481025,10.90317,-4.754725,48.68344,82.62676,0.02355996,-0.8883717,-10.62301,-5.706912,-0.61056,50.54538,0,0,0,-13.54516,-109.3339,-10.36785,0.04471847,-109.7821,-59.59858,0.001067912,-0.1257102,0.09433498,0,0.3,0,0,0,0,
6.38225E+17,-8.811425,-0.3272949,10.97322,-11.42003,48.90318,79.03775,0.02355996,-0.8883717,-10.62301,-5.706912,-0.5373149,50.61862,0,0,0,-24.31487,-108.3236,-11.49236,0.04471847,-109.7821,-59.59858,0.001067912,-0.1257102,0.09433498,0,0.3,0,0,0,0,
6.38225E+17,-12.48678,0.2805384,10.97322,-17.13316,49.04966,76.62066,0.02355996,-0.8883717,-10.62301,-5.706912,-0.61056,50.54538,0,0,0,-34.32004,-106.9089,-13.37306,0.04471847,-109.7821,-59.59858,0.001067912,-0.1257102,0.09433498,0,0.3,0,0,0,0,
6.38225E+17,-14.25378,0.7714807,10.97322,-19.55025,49.04966,75.66847,0.02355996,-0.8883717,-10.62301,-5.706912,-0.61056,50.61862,0,0,0,-39.07986,-105.7664,-14.51518,0.04471847,-109.7821,-59.59858,0.001067912,-0.1257102,0.09433498,0,0.3,0,0,0,0,
6.38225E+17,-17.74065,2.501468,10.99656,-23.65198,49.12291,74.64304,0.02355996,-0.8883717,-10.62301,-5.780157,-0.61056,50.61862,0,0,0,-48.34495,-101.7315,-17.23551,0.04471847,-109.7821,-59.59858,0.001067912,-0.1257102,0.09433498,0,0.3,0,0,0,0,
6.38225E+17,-21.32176,5.400365,10.99656,-27.38748,49.12291,75.08251,0.02355996,-0.8883717,-10.62301,-5.706912,-0.61056,50.61862,0,0,0,-57.52038,-95.00132,-20.98329,0.04471847,-109.7821,-59.59858,0.001067912,-0.1257102,0.09433498,0,0.3,0,0,0,0,
6.38225E+17,-23.20656,7.223865,10.99656,-29.21861,48.97642,75.66847,0.02355996,-0.8883717,-10.62301,-5.706912,-0.61056,50.61862,0,0,0,-62.15229,-90.78322,-23.38369,0.04471847,-109.7821,-59.59858,0.001067912,-0.1257102,0.09433498,0,0.3,0,0,0,0,
6.38225E+17,-27.18819,11.82937,11.58024,-32.58789,48.31721,76.6939,0.02355996,-0.8883717,-10.62301,-5.706912,-0.5373149,50.61862,0,0,0,-71.86658,-79.94914,-28.44185,0.04471847,-109.7821,-59.59858,0.001067912,-0.1257102,0.09433498,0,0.3,0,0,0,0,
6.38225E+17,-31.90019,16.90244,13.61146,-35.95716,46.33959,78.81802,0.02355996,-0.8883717,-10.62301,-5.706912,-0.5373149,50.61862,0,0,0,-84.0071,-67.48415,-33.38792,0.04471847,-109.7821,-59.59858,0.001067912,-0.1257102,0.09433498,0,0.3,0,0,0,0,
6.38225E+17,-34.49178,19.59093,15.45589,-37.93478,44.7282,80.06318,0.02355996,-0.8883717,-10.62301,-5.706912,-0.5373149,50.61862,0,0,0,-91.26736,-60.46493,-35.51436,0.04471847,-109.7821,-59.59858,0.001067912,-0.1257102,0.09433498,0,0.3,0,0,0,0,
6.38225E+17,-39.29802,24.47698,21.01254,-41.96327,40.84621,83.5057,0.02355996,-0.8883717,-10.62301,-5.706912,-0.61056,50.61862,0,0,0,-107.1516,-45.8819,-37.42711,0.04471847,-109.7821,-59.59858,0.001067912,-0.1257102,0.09433498,0,0.3,0,0,0,0,
6.38225E+17,-43.49169,28.96559,28.46032,-46.28474,36.15851,89.73154,0.02355996,-0.8883717,-10.62301,-5.706912,-0.61056,50.61862,0,0,0,-124.0344,-29.30499,-37.60701,0.04471847,-109.7821,-59.59858,0.001067912,-0.1257102,0.09433498,0,0.3,0,0,0,0,
6.38225E+17,-46.29532,33.17367,37.56575,-50.53296,29.85943,102.0367,0.02355996,-0.8883717,-10.62301,-5.706912,-0.61056,50.61862,0,0,0,-139.4609,-9.38417,-35.05651,0.04471847,-109.7821,-59.59858,0.001067912,-0.1257102,0.09433498,0,0.3,0,0,0,0,
6.38225E+17,-47.09636,35.02055,43.49596,-52.51057,25.61121,113.3165,0.02355996,-0.8883717,-10.62301,-5.780157,-0.61056,50.61862,0,0,0,-147.2264,3.140437,-31.52138,0.04471847,-109.7821,-59.59858,0.001067912,-0.1257102,0.09433498,0,0.3,0,0,0,0,
6.38225E+17,-47.33196,35.62838,47.13813,-53.46276,23.12087,120.4945,0.02355996,-0.8883717,-10.62301,-5.706912,-0.61056,50.61862,0,0,0,-151.5685,10.3207,-28.6431,0.04471847,-109.7821,-59.59858,0.001067912,-0.1257102,0.09433498,0,0.3,0,0,0,0,
6.38225E+17,-47.49688,36.07257,53.97888,-55.58687,18.72616,132.5067,0.02355996,-0.8883717,-10.62301,-5.780157,-0.61056,50.61862,0,0,0,-158.976,23.44681,-22.65939,0.04471847,-109.7821,-59.59858,0.001067912,-0.1257102,0.09433498,0,0.3,0,0,0,0,
6.38225E+17,-47.47332,36.11932,60.18925,-58.37019,15.35689,140.7834,0.02355996,-0.8883717,-10.62301,-5.706912,-0.5373149,50.61862,0,0,0,-164.6544,35.66248,-17.3309,0.04471847,-109.7821,-59.59858,0.001067912,-0.1257102,0.09433498,0,0.3,0,0,0,0,
6.38225E+17,-47.40264,36.16608,62.68741,-59.39562,14.33146,143.7865,0.02355996,-0.8883717,-10.62301,-5.706912,-0.61056,50.61862,0,0,0,-166.4669,40.85659,-15.29001,0.04471847,-109.7821,-59.59858,0.001067912,-0.1257102,0.09433498,0,0.3,0,0,0,0,
6.38225E+17,-47.14348,36.49338,68.15067,-62.39867,12.64682,144.8119,0.02355996,-0.8883717,-10.62301,-5.706912,-0.61056,50.54538,0,0,0,-169.3179,53.02874,-11.24937,0.04471847,-109.7821,-59.59858,0.001067912,-0.1257102,0.09433498,0,0.3,0,0,0,0,
6.38225E+17,-46.38956,37.28823,72.49326,-65.84119,11.76787,144.8852,0.02355996,-0.8883717,-10.62301,-5.706912,-0.5373149,50.61862,0,0,0,-168.8957,64.02269,-7.454151,0.04471847,-109.7821,-59.59858,0.001067912,-0.1257102,0.09433498,0,0.3,0,0,0,0,
6.38225E+17,-45.72989,37.9662,74.22095,-67.37935,11.54814,144.8852,0.02355996,-0.8883717,-10.62301,-5.706912,-0.61056,50.61862,0,0,0,-167.1668,69.12482,-5.388847,0.04471847,-109.7821,-59.59858,0.001067912,-0.1257102,0.09433498,0,0.3,0,0,0,0,
6.38225E+17,-42.85557,41.35604,77.48958,-71.48107,11.84112,144.8852,0.02355996,-0.8883717,-10.62301,-5.706912,-0.61056,50.54538,0,0,0,-156.6247,82.57326,0.4605777,0.04471847,-109.7821,-59.59858,0.001067912,-0.1257102,0.09433498,0,0.3,0,0,0,0,
6.38225E+17,-40.80585,44.60561,79.26397,-73.89817,12.06085,144.8119,0.02355996,-0.8883717,-10.62301,-5.706912,-0.61056,50.61862,0,0,0,-147.6613,92.15037,2.68198,0.04471847,-109.7821,-59.59858,0.001067912,-0.1257102,0.09433498,0,0.3,0,0,0,0,
6.38225E+17,-38.16714,49.58517,82.36916,-77.70691,11.40165,144.8119,0.02355996,-0.8883717,-10.62301,-5.706912,-0.61056,50.61862,0,0,0,-135.0992,107.1712,3.533242,0.04471847,-109.7821,-59.59858,0.001067912,-0.1257102,0.09433498,0,0.3,0,0,0,0,
6.38225E+17,-36.61218,52.22691,83.91008,-79.97752,10.74244,144.7387,0.02355996,-0.8883717,-10.62301,-5.706912,-0.61056,50.61862,0,0,0,-127.7951,114.6085,3.649861,0.04471847,-109.7821,-59.59858,0.001067912,-0.1257102,0.09433498,0,0.3,0,0,0,0,
6.38225E+17,-31.47611,60.29239,86.08137,-87.52177,7.153428,144.8852,0.02355996,-0.8883717,-10.62301,-5.706912,-0.61056,50.61862,0,0,0,-103.9707,130.0601,1.473679,0.04471847,-109.7821,-59.59858,0.001067912,-0.1257102,0.09433498,0,0.3,0,0,0,0,
6.38225E+17,-30.03895,62.7471,86.15141,-89.13316,5.395544,144.8852,0.02355996,-0.8883717,-10.62301,-5.706912,-0.61056,50.61862,0,0,0,-97.17065,132.9469,-0.3094236,0.04471847,-109.7821,-59.59858,0.001067912,-0.1257102,0.09433498,0,0.3,0,0,0,0,
6.38225E+17,-26.90548,67.58639,86.15141,-92.06297,1.000834,144.8852,0.02355996,-0.8883717,-10.62301,-5.706912,-0.61056,50.61862,0,0,0,-83.21584,137.6757,-4.361458,0.04471847,-109.7821,-59.59858,0.001067912,-0.1257102,0.09433498,0,0.3,0,0,0,0,
6.38225E+17,-22.99452,71.88798,86.15141,-94.5533,-4.199574,144.8852,0.02355996,-0.8883717,-10.62301,-5.706912,-0.5373149,50.61862,0,0,0,-68.16901,141.1421,-7.711162,0.04471847,-109.7821,-59.59858,0.001067912,-0.1257102,0.09433498,0,0.3,0,0,0,0,
6.38225E+17,-20.59141,74.03877,86.15141,-95.57873,-7.27587,144.8852,0.02355996,-0.8883717,-10.62301,-5.706912,-0.61056,50.61862,0,0,0,-59.6903,142.6086,-9.474162,0.04471847,-109.7821,-59.59858,0.001067912,-0.1257102,0.09433498,0,0.3,0,0,0,0,
6.38225E+17,-15.50245,77.77929,86.10472,-97.70284,-13.72145,144.8119,0.02355996,-0.8883717,-10.62301,-5.706912,-0.61056,50.61862,0,0,0,-43.10398,144.6193,-12.9479,0.04471847,-109.7821,-59.59858,0.001067912,-0.1257102,0.09433498,0,0.3,0,0,0,0,
6.38225E+17,-9.282625,81.12236,85.8479,-100.2664,-20.53325,144.8852,0.02355996,-0.8883717,-10.62301,-5.706912,-0.61056,50.61862,0,0,0,-24.77302,145.4474,-16.78196,0.04471847,-109.7821,-59.59858,0.001067912,-0.1257102,0.09433498,0,0.3,0,0,0,0,
6.38225E+17,-5.72507,82.64195,85.61442,-101.5116,-24.26875,144.8119,0.02355996,-0.8883717,-10.62301,-5.706912,-0.5373149,50.61862,0,0,0,-14.96702,145.4049,-19.06076,0.04471847,-109.7821,-59.59858,0.001067912,-0.1257102,0.09433498,0,0.3,0,0,0,0,
6.38225E+17,2.073277,85.09666,84.49376,-104.4414,-33.20466,144.7387,0.02355996,-0.8883717,-10.62301,-5.706912,-0.61056,50.61862,0,0,0,5.214379,143.4165,-24.31157,0.04471847,-109.7821,-59.59858,0.001067912,-0.1257102,0.09433498,0,0.3,0,0,0,0,
6.38225E+17,10.43706,85.91489,81.48196,-105.6866,-44.41117,144.8852,0.02355996,-0.8883717,-10.62301,-5.706912,-0.61056,50.61862,0,0,0,25.6115,136.6093,-29.31053,0.04471847,-109.7821,-59.59858,0.001067912,-0.1257102,0.09433498,0,0.3,0,0,0,0,
6.38225E+17,13.90038,85.58761,80.78154,-103.3427,-50.12429,144.8852,0.02355996,-0.8883717,-10.62301,-5.706912,-0.61056,50.61862,0,0,0,34.08614,134.9422,-30.61818,0.04471847,-109.7821,-59.59858,0.001067912,-0.1257102,0.09433498,0,0.3,0,0,0,0,
6.38225E+17,13.87682,85.00314,80.43134,-94.84628,-58.18126,144.8119,0.02355996,-0.8883717,-10.62301,-5.706912,-0.61056,50.61862,0,0,0,34.32273,134.0265,-29.41722,0.04471847,-109.7821,-59.59858,0.001067912,-0.1257102,0.09433498,0,0.3,0,0,0,0,
6.38225E+17,15.05481,84.97977,79.80096,-82.68758,-61.69703,144.8852,0.02355996,-0.8883717,-10.62301,-5.706912,-0.61056,50.54538,0,0,0,37.1204,132.5764,-30.34306,0.04471847,-109.7821,-59.59858,0.001067912,-0.1257102,0.09433498,0,0.3,0,0,0,0,
6.38225E+17,15.10193,85.02653,79.28732,-69.50346,-63.23518,136.9014,0.02355996,-0.8883717,-10.62301,-5.706912,-0.61056,50.54538,0,0,0,37.14911,131.4103,-30.68775,0.04471847,-109.7821,-59.59858,0.001067912,-0.1257102,0.09433498,0,0.3,0,0,0,0,
6.38225E+17,14.51294,85.07328,78.86706,-53.82899,-63.89439,122.8384,0.02355996,-0.8883717,-10.62301,-5.706912,-0.61056,50.61862,0,0,0,35.6584,130.4593,-30.59751,0.04471847,-109.7821,-59.59858,0.001067912,-0.1257102,0.09433498,0,0.3,0,0,0,0,
6.38225E+17,13.3585,84.93301,77.95652,-34.712,-63.82114,105.6257,0.02355996,-0.8883717,-10.62301,-5.706912,-0.61056,50.61862,0,0,0,32.8526,128.3549,-30.0048,0.04471847,-109.7821,-59.59858,0.001067912,-0.1257102,0.09433498,0,0.3,0,0,0,0,
6.38225E+17,12.7695,84.55896,77.20941,-25.19013,-63.16194,97.71527,0.02355996,-0.8883717,-10.62301,-5.706912,-0.61056,50.61862,0,0,0,31.53767,126.577,-29.19357,0.04471847,-109.7821,-59.59858,0.001067912,-0.1257102,0.09433498,0,0.3,0,0,0,0,
6.38225E+17,11.16742,82.96925,74.89803,-7.684532,-59.8659,84.60438,0.02355996,-0.8883717,-10.62301,-5.780157,-0.5373149,50.61862,0,0,0,28.09606,120.9546,-26.02987,0.04471847,-109.7821,-59.59858,0.001067912,-0.1257102,0.09433498,0,0.3,0,0,0,0,
6.38225E+17,9.588904,80.58467,72.58665,3.302244,-54.66549,78.59828,0.02355996,-0.8883717,-10.62301,-5.706912,-0.61056,50.61862,0,0,0,24.82898,114.9968,-21.37915,0.04471847,-109.7821,-59.59858,0.001067912,-0.1257102,0.09433498,0,0.3,0,0,0,0,
6.38225E+17,8.622946,79.08846,71.60606,7.403974,-51.51595,77.4996,0.02355996,-0.8883717,-10.62301,-5.706912,-0.61056,50.61862,0,0,0,22.75647,112.2107,-18.28633,0.04471847,-109.7821,-59.59858,0.001067912,-0.1257102,0.09433498,0,0.3,0,0,0,0,
6.38225E+17,6.45543,76.42335,69.83167,12.3114,-45.72958,78.23206,0.02355996,-0.8883717,-10.62301,-5.706912,-0.5373149,50.61862,0,0,0,17.59274,106.9974,-12.86526,0.04471847,-109.7821,-59.59858,0.001067912,-0.1257102,0.09433498,0,0.3,0,0,0,0,
6.38225E+17,4.052313,74.27255,67.9172,14.28902,-40.67567,82.55352,0.02355996,-0.8883717,-10.62301,-5.706912,-0.61056,50.54538,0,0,0,11.28653,101.5752,-9.035583,0.04471847,-109.7821,-59.59858,0.001067912,-0.1257102,0.09433498,0,0.3,0,0,0,0,
6.38225E+17,2.780076,73.31404,66.95996,14.582,-38.55156,86.72849,0.02355996,-0.8883717,-10.62301,-5.706912,-0.61056,50.61862,0,0,0,7.808945,98.89525,-7.538395,0.04471847,-109.7821,-59.59858,0.001067912,-0.1257102,0.09433498,0,0.3,0,0,0,0,
6.38225E+17,0.2827196,71.58406,64.34506,14.36226,-34.30334,100.3521,0.02355996,-0.8883717,-10.62301,-5.706912,-0.61056,50.54538,0,0,0,0.801001,92.13699,-6.020905,0.04471847,-109.7821,-59.59858,0.001067912,-0.1257102,0.09433498,0,0.3,0,0,0,0,
6.38225E+17,-1.531397,69.78394,59.86239,12.89736,-29.76214,121.0805,0.02355996,-0.8883717,-10.62301,-5.706912,-0.61056,50.54538,0,0,0,-4.313498,81.53296,-7.003032,0.04471847,-109.7821,-59.59858,0.001067912,-0.1257102,0.09433498,0,0.3,0,0,0,0,
6.38225E+17,-1.908357,67.51625,53.65202,11.35921,-24.19551,136.6085,0.02355996,-0.8883717,-10.62301,-5.706912,-0.5373149,50.61862,0,0,0,-5.27488,67.52887,-10.03758,0.04471847,-109.7821,-59.59858,0.001067912,-0.1257102,0.09433498,0,0.3,0,0,0,0,
6.38225E+17,-1.460718,63.7056,45.80734,10.33378,-16.13853,140.2707,0.02355996,-0.8883717,-10.62301,-5.706912,-0.5373149,50.61862,0,0,0,-3.943132,49.94752,-13.71648,0.04471847,-109.7821,-59.59858,0.001067912,-0.1257102,0.09433498,0,0.3,0,0,0,0,
6.38225E+17,-1.177998,62.04575,43.14575,10.26054,-13.13548,140.3439,0.02355996,-0.8883717,-10.62301,-5.780157,-0.61056,50.61862,0,0,0,-3.159887,43.84665,-14.68022,0.04471847,-109.7821,-59.59858,0.001067912,-0.1257102,0.09433498,0,0.3,0,0,0,0,
6.38225E+17,-0.09423985,57.04282,35.8614,10.62676,-4.639044,141.0032,0.02355996,-0.8883717,-10.62301,-5.780157,-0.61056,50.61862,0,0,0,-0.2478113,27.16925,-17.68622,0.04471847,-109.7821,-59.59858,0.001067912,-0.1257102,0.09433498,0,0.3,0,0,0,0,
6.38225E+17,2.026157,51.78272,28.92726,11.72544,4.956073,143.933,0.02355996,-0.8883717,-10.62301,-5.706912,-0.61056,50.61862,0,0,0,5.197208,11.40662,-21.4443,0.04471847,-109.7821,-59.59858,0.001067912,-0.1257102,0.09433498,0,0.3,0,0,0,0,
6.38225E+17,6.832388,47.85518,24.60802,14.14253,14.4047,144.8119,0.02355996,-0.8883717,-10.62301,-5.706912,-0.5373149,50.61862,0,0,0,17.25077,0.9836504,-24.37301,0.04471847,-109.7821,-59.59858,0.001067912,-0.1257102,0.09433498,0,0.3,0,0,0,0,
6.38225E+17,10.38994,46.8733,23.9076,16.26664,18.79941,144.8852,0.02355996,-0.8883717,-10.62301,-5.780157,-0.5373149,50.61862,0,0,0,26.18662,-1.233933,-25.52913,0.04471847,-109.7821,-59.59858,0.001067912,-0.1257102,0.09433498,0,0.3,0,0,0,0,
6.38225E+17,18.02337,46.99019,24.81814,21.83327,24.65902,144.8852,0.02355996,-0.8883717,-10.62301,-5.706912,-0.61056,50.61862,0,0,0,45.46193,-0.1739679,-28.62652,0.04471847,-109.7821,-59.59858,0.001067912,-0.1257102,0.09433498,0,0.3,0,0,0,0,
6.38225E+17,25.39764,47.92532,27.45638,28.86481,27.51558,141.6624,0.02355996,-0.8883717,-10.62301,-5.706912,-0.61056,50.61862,0,0,0,64.69572,4.002238,-32.08663,0.04471847,-109.7821,-59.59858,0.001067912,-0.1257102,0.09433498,0,0.3,0,0,0,0,
6.38225E+17,28.08347,48.13572,28.57705,31.72137,28.10155,138.0733,0.02355996,-0.8883717,-10.62301,-5.706912,-0.61056,50.61862,0,0,0,71.92243,5.55486,-33.55769,0.04471847,-109.7821,-59.59858,0.001067912,-0.1257102,0.09433498,0,0.3,0,0,0,0,
6.38225E+17,32.81903,48.22923,31.00517,36.4823,28.46777,130.4559,0.02355996,-0.8883717,-10.62301,-5.706912,-0.61056,50.61862,0,0,0,85.37493,8.507497,-35.9706,0.04471847,-109.7821,-59.59858,0.001067912,-0.1257102,0.09433498,0,0.3,0,0,0,0,
6.38225E+17,35.90538,48.29937,33.85353,38.67966,28.17479,125.2555,0.02355996,-0.8883717,-10.62301,-5.706912,-0.61056,50.61862,0,0,0,95.58822,12.1708,-36.32616,0.04471847,-109.7821,-59.59858,0.001067912,-0.1257102,0.09433498,0,0.3,0,0,0,0,
6.38225E+17,38.96818,48.9072,39.10667,41.02351,27.14936,119.1029,0.02355996,-0.8883717,-10.62301,-5.780157,-0.5373149,50.61862,0,0,0,108.0186,20.3727,-34.80659,0.04471847,-109.7821,-59.59858,0.001067912,-0.1257102,0.09433498,0,0.3,0,0,0,0,
6.38225E+17,40.33466,49.46828,42.84223,42.48841,26.19717,115.9533,0.02355996,-0.8883717,-10.62301,-5.780157,-0.5373149,50.61862,0,0,0,114.7806,26.9261,-33.17113,0.04471847,-109.7821,-59.59858,0.001067912,-0.1257102,0.09433498,0,0.3,0,0,0,0,
6.38225E+17,42.29013,50.33327,50.96708,46.07742,23.92657,110.3867,0.02355996,-0.8883717,-10.62301,-5.780157,-0.61056,50.61862,0,0,0,126.9763,42.01947,-28.75657,0.04471847,-109.7821,-59.59858,0.001067912,-0.1257102,0.09433498,0,0.3,0,0,0,0,
6.38225E+17,43.11473,50.9411,60.25929,50.61862,21.50948,103.2087,0.02355996,-0.8883717,-10.62301,-5.706912,-0.5373149,50.61862,0,0,0,136.5634,60.7444,-22.49035,0.04471847,-109.7821,-59.59858,0.001067912,-0.1257102,0.09433498,0,0.3,0,0,0,0,
6.38225E+17,42.92625,51.52556,68.31409,55.81903,19.16564,93.90652,0.02355996,-0.8883717,-10.62301,-5.706912,-0.61056,50.54538,0,0,0,140.8954,78.47258,-16.86773,0.04471847,-109.7821,-59.59858,0.001067912,-0.1257102,0.09433498,0,0.3,0,0,0,0,
6.38225E+17,42.54929,51.99313,71.20916,58.30937,18.21345,89.29208,0.02355996,-0.8883717,-10.62301,-5.706912,-0.61056,50.61862,0,0,0,140.8938,85.46743,-14.85675,0.04471847,-109.7821,-59.59858,0.001067912,-0.1257102,0.09433498,0,0.3,0,0,0,0,
6.38225E+17,41.34773,53.60622,74.61787,62.55759,16.52881,80.5759,0.02355996,-0.8883717,-10.62301,-5.706912,-0.61056,50.61862,0,0,0,137.2083,95.31935,-12.43126,0.04471847,-109.7821,-59.59858,0.001067912,-0.1257102,0.09433498,0,0.3,0,0,0,0,
6.38225E+17,39.69854,56.29471,75.08481,65.19441,14.91741,72.22594,0.02355996,-0.8883717,-10.62301,-5.780157,-0.61056,50.61862,0,0,0,129.5738,99.96143,-12.26945,0.04471847,-109.7821,-59.59858,0.001067912,-0.1257102,0.09433498,0,0.3,0,0,0,0,
6.38225E+17,37.3661,59.6378,74.54782,66.36633,12.79331,66.00011,0.02355996,-0.8883717,-10.62301,-5.706912,-0.5373149,50.61862,0,0,0,118.9132,102.8817,-12.62715,0.04471847,-109.7821,-59.59858,0.001067912,-0.1257102,0.09433498,0,0.3,0,0,0,0,
6.38225E+17,35.85826,61.60157,74.10422,66.65932,11.40165,63.94925,0.02355996,-0.8883717,-10.62301,-5.780157,-0.61056,50.61862,0,0,0,112.2781,104.1299,-13.00572,0.04471847,-109.7821,-59.59858,0.001067912,-0.1257102,0.09433498,0,0.3,0,0,0,0,
6.38225E+17,31.97087,66.02005,73.59058,66.65932,8.105616,61.75189,0.02355996,-0.8883717,-10.62301,-5.780157,-0.5373149,50.61862,0,0,0,96.42719,107.519,-13.85949,0.04471847,-109.7821,-59.59858,0.001067912,-0.1257102,0.09433498,0,0.3,0,0,0,0,
6.38225E+17,26.90548,70.67231,73.59058,66.36633,3.710905,61.97163,0.02355996,-0.8883717,-10.62301,-5.780157,-0.61056,50.61862,0,0,0,77.85752,111.5133,-14.92078,0.04471847,-109.7821,-59.59858,0.001067912,-0.1257102,0.09433498,0,0.3,0,0,0,0,
6.38225E+17,24.07828,72.77635,73.54388,66.21985,1.147324,62.77732,0.02355996,-0.8883717,-10.62301,-5.706912,-0.5373149,50.61862,0,0,0,68.28551,112.9446,-15.54046,0.04471847,-109.7821,-59.59858,0.001067912,-0.1257102,0.09433498,0,0.3,0,0,0,0,
6.38225E+17,17.59929,76.44672,72.28313,64.97468,-5.371496,66.73256,0.02355996,-0.8883717,-10.62301,-5.706912,-0.61056,50.54538,0,0,0,47.85602,112.4063,-17.48224,0.04471847,-109.7821,-59.59858,0.001067912,-0.1257102,0.09433498,0,0.3,0,0,0,0,
6.38225E+17,11.28522,78.31698,68.01058,61.67865,-12.03681,73.91058,0.02355996,-0.8883717,-10.62301,-5.780157,-0.61056,50.54538,0,0,0,29.48161,104.0064,-20.61066,0.04471847,-109.7821,-59.59858,0.001067912,-0.1257102,0.09433498,0,0.3,0,0,0,0,
6.38225E+17,3.840273,77.84942,57.78448,51.7173,-18.1894,90.75697,0.02355996,-0.8883717,-10.62301,-5.706912,-0.5373149,50.61862,0,0,0,9.436031,82.62305,-27.778,0.04471847,-109.7821,-59.59858,0.001067912,-0.1257102,0.09433498,0,0.3,0,0,0,0,
6.38225E+17,-0.5183191,75.39471,48.98256,41.38973,-18.92185,108.0428,0.02355996,-0.8883717,-10.62301,-5.706912,-0.61056,50.61862,0,0,0,-1.214362,64.87482,-34.11623,0.04471847,-109.7821,-59.59858,0.001067912,-0.1257102,0.09433498,0,0.3,0,0,0,0,
6.38225E+17,-2.591596,72.93999,43.58934,35.38363,-17.60344,116.9788,0.02355996,-0.8883717,-10.62301,-5.780157,-0.61056,50.61862,0,0,0,-5.926254,54.24692,-37.41994,0.04471847,-109.7821,-59.59858,0.001067912,-0.1257102,0.09433498,0,0.3,0,0,0,0,
6.38225E+17,-5.65439,65.34208,33.38659,24.25036,-11.52409,128.6247,0.02355996,-0.8883717,-10.62301,-5.780157,-0.61056,50.61862,0,0,0,-12.71146,33.19632,-39.9636,0.04471847,-109.7821,-59.59858,0.001067912,-0.1257102,0.09433498,0,0.3,0,0,0,0,
6.38225E+17,-6.973749,55.85053,27.7132,17.29207,-3.027651,140.1975,0.02355996,-0.8883717,-10.62301,-5.706912,-0.61056,50.61862,0,0,0,-16.61806,15.6543,-32.49216,0.04471847,-109.7821,-59.59858,0.001067912,-0.1257102,0.09433498,0,0.3,0,0,0,0,
6.38225E+17,-7.232908,50.9411,26.26567,15.60743,1.733285,144.3724,0.02355996,-0.8883717,-10.62301,-5.706912,-0.61056,50.61862,0,0,0,-18.00895,7.314255,-26.44995,0.04471847,-109.7821,-59.59858,0.001067912,-0.1257102,0.09433498,0,0.3,0,0,0,0,
6.38225E+17,-8.033947,41.9405,25.91546,14.14253,11.62138,144.8852,0.02355996,-0.8883717,-10.62301,-5.706912,-0.61056,50.61862,0,0,0,-22.0081,-7.464703,-12.42464,0.04471847,-109.7821,-59.59858,0.001067912,-0.1257102,0.09433498,0,0.3,0,0,0,0,
6.38225E+17,-10.22502,36.3531,26.38241,13.33683,20.33756,144.8852,0.02355996,-0.8883717,-10.62301,-5.706912,-0.61056,50.54538,0,0,0,-29.58329,-17.06683,-4.344002,0.04471847,-109.7821,-59.59858,0.001067912,-0.1257102,0.09433498,0,0.3,0,0,0,0,
6.38225E+17,-14.11242,34.81015,26.28902,10.8465,26.85638,144.8852,0.02355996,-0.8883717,-10.62301,-5.706912,-0.61056,50.61862,0,0,0,-41.0961,-20.08374,-4.88949,0.04471847,-109.7821,-59.59858,0.001067912,-0.1257102,0.09433498,0,0.3,0,0,0,0,
6.38225E+17,-17.57573,35.46473,26.14894,7.330729,30.07917,144.9584,0.02355996,-0.8883717,-10.62301,-5.706912,-0.5373149,50.54538,0,0,0,-50.54251,-18.98192,-8.785338,0.04471847,-109.7821,-59.59858,0.001067912,-0.1257102,0.09433498,0,0.3,0,0,0,0,
6.38225E+17,-21.48668,36.72716,26.70927,1.983831,31.76381,144.8119,0.02355996,-0.8883717,-10.62301,-5.706912,-0.61056,50.61862,0,0,0,-61.10182,-16.0274,-13.12822,0.04471847,-109.7821,-59.59858,0.001067912,-0.1257102,0.09433498,0,0.3,0,0,0,0,
6.38225E+17,-26.05732,38.71431,28.83387,-5.633667,31.98354,144.4457,0.02355996,-0.8883717,-10.62301,-5.706912,-0.61056,50.61862,0,0,0,-73.95573,-10.06541,-17.10249,0.04471847,-109.7821,-59.59858,0.001067912,-0.1257102,0.09433498,0,0.3,0,0,0,0,
6.38225E+17,-27.96567,39.81308,29.95454,-9.36917,31.39758,143.7865,0.02355996,-0.8883717,-10.62301,-5.706912,-0.5373149,50.61862,0,0,0,-79.25807,-6.805336,-19.07157,0.04471847,-109.7821,-59.59858,0.001067912,-0.1257102,0.09433498,0,0.3,0,0,0,0,
6.38225E+17,-33.62006,42.75873,33.47998,-20.13621,27.73532,140.4172,0.02355996,-0.8883717,-10.62301,-5.780157,-0.5373149,50.61862,0,0,0,-94.94008,2.658618,-25.5622,0.04471847,-109.7821,-59.59858,0.001067912,-0.1257102,0.09433498,0,0.3,0,0,0,0,
6.38225E+17,-35.74046,43.20292,35.11428,-23.57873,26.19717,140.2707,0.02355996,-0.8883717,-10.62301,-5.780157,-0.61056,50.61862,0,0,0,-101.5819,5.558168,-27.19431,0.04471847,-109.7821,-59.59858,0.001067912,-0.1257102,0.09433498,0,0.3,0,0,0,0,
6.38225E+17,-40.59381,42.87563,38.05604,-30.75676,23.63359,137.2677,0.02355996,-0.8883717,-10.62301,-5.780157,-0.61056,50.61862,0,0,0,-117.0754,9.081681,-31.72592,0.04471847,-109.7821,-59.59858,0.001067912,-0.1257102,0.09433498,0,0.3,0,0,0,0,
6.38225E+17,-46.15396,40.98199,40.48416,-39.76591,22.0222,132.287,0.02355996,-0.8883717,-10.62301,-5.706912,-0.5373149,50.61862,0,0,0,-135.041,9.379756,-38.64188,0.04471847,-109.7821,-59.59858,0.001067912,-0.1257102,0.09433498,0,0.3,0,0,0,0,
6.38225E+17,-48.3686,39.60268,41.93169,-44.45361,21.65597,129.0642,0.02355996,-0.8883717,-10.62301,-5.706912,-0.61056,50.61862,0,0,0,-143.3985,9.150613,-40.89428,0.04471847,-109.7821,-59.59858,0.001067912,-0.1257102,0.09433498,0,0.3,0,0,0,0,
6.38225E+17,-51.69056,36.04919,44.0096,-54.19521,21.50948,122.6186,0.02355996,-0.8883717,-10.62301,-5.706912,-0.61056,50.61862,0,0,0,-157.2988,5.915306,-44.08078,0.04471847,-109.7821,-59.59858,0.001067912,-0.1257102,0.09433498,0,0.3,0,0,0,0,
6.38225E+17,-53.52823,31.49044,43.61269,-61.73947,22.46167,118.8099,0.02355996,-0.8883717,-10.62301,-5.706912,-0.61056,50.61862,0,0,0,-165.4083,-3.541734,-46.0804,0.04471847,-109.7821,-59.59858,0.001067912,-0.1257102,0.09433498,0,0.3,0,0,0,0,
6.38225E+17,-54.16435,28.75519,42.6788,-64.2298,23.4871,117.8577,0.02355996,-0.8883717,-10.62301,-5.706912,-0.61056,50.61862,0,0,0,-168.0597,-10.53387,-46.98249,0.04471847,-109.7821,-59.59858,0.001067912,-0.1257102,0.09433498,0,0.3,0,0,0,0,
6.38225E+17,-54.51775,22.74699,40.48416,-67.01311,25.97744,116.2463,0.02355996,-0.8883717,-10.62301,-5.780157,-0.61056,50.61862,0,0,0,-170.6389,-26.51263,-46.71419,0.04471847,-109.7821,-59.59858,0.001067912,-0.1257102,0.09433498,0,0.3,0,0,0,0,
6.38225E+17,-54.14079,15.24259,38.10274,-67.45258,29.27347,114.6349,0.02355996,-0.8883717,-10.62301,-5.706912,-0.61056,50.61862,0,0,0,-170.9628,-46.52528,-44.77897,0.04471847,-109.7821,-59.59858,0.001067912,-0.1257102,0.09433498,0,0.3,0,0,0,0,
6.38225E+17,-53.52823,10.96438,36.95872,-66.86663,31.32433,114.0489,0.02355996,-0.8883717,-10.62301,-5.706912,-0.61056,50.61862,0,0,0,-169.7489,-57.84285,-42.87185,0.04471847,-109.7821,-59.59858,0.001067912,-0.1257102,0.09433498,0,0.3,0,0,0,0,
6.38225E+17,-51.87903,4.488615,35.37111,-64.37629,34.8401,114.1222,0.02355996,-0.8883717,-10.62301,-5.706912,-0.5373149,50.61862,0,0,0,-165.3138,-74.95013,-38.6297,0.04471847,-109.7821,-59.59858,0.001067912,-0.1257102,0.09433498,0,0.3,0,0,0,0,
6.38225E+17,-49.35812,-1.122154,33.17647,-60.12807,38.5756,115.8801,0.02355996,-0.8883717,-10.62301,-5.706912,-0.61056,50.61862,0,0,0,-156.5366,-90.87404,-33.98333,0.04471847,-109.7821,-59.59858,0.001067912,-0.1257102,0.09433498,0,0.3,0,0,0,0,
6.38225E+17,-46.0126,-0.3740513,25.12166,-55.1474,43.11681,114.7082,0.02355996,-0.8883717,-10.62301,-5.706912,-0.5373149,50.61862,0,0,0,-136.6747,-98.25677,-36.4229,0.04471847,-109.7821,-59.59858,0.001067912,-0.1257102,0.09433498,0,0.3,0,0,0,0,
6.38225E+17,-43.75085,-0.3974294,22.06317,-53.60925,45.02118,110.6797,0.02355996,-0.8883717,-10.62301,-5.706912,-0.61056,50.61862,0,0,0,-126.8509,-101.1598,-35.8437,0.04471847,-109.7821,-59.59858,0.001067912,-0.1257102,0.09433498,0,0.3,0,0,0,0,
6.38225E+17,-41.86605,-0.4441859,21.05923,-52.73031,46.11986,107.8963,0.02355996,-0.8883717,-10.62301,-5.706912,-0.61056,50.61862,0,0,0,-120.9734,-102.1273,-33.36213,0.04471847,-109.7821,-59.59858,0.001067912,-0.1257102,0.09433498,0,0.3,0,0,0,0,
6.38225E+17,-37.20118,-0.5610769,20.56894,-50.6062,48.6102,103.8679,0.02355996,-0.8883717,-10.62301,-5.706912,-0.61056,50.61862,0,0,0,-108.9481,-102.8048,-24.82231,0.04471847,-109.7821,-59.59858,0.001067912,-0.1257102,0.09433498,0,0.3,0,0,0,0,
6.38225E+17,-32.01799,-0.3039166,20.54559,-47.5299,51.02729,102.403,0.02355996,-0.8883717,-10.62301,-5.780157,-0.61056,50.61862,0,0,0,-95.51167,-102.2254,-15.6061,0.04471847,-109.7821,-59.59858,0.001067912,-0.1257102,0.09433498,0,0.3,0,0,0,0,
6.38225E+17,-26.15156,0.233782,20.54559,-42.9887,53.59086,101.8902,0.02355996,-0.8883717,-10.62301,-5.706912,-0.5373149,50.61862,0,0,0,-79.39989,-100.9739,-6.643128,0.04471847,-109.7821,-59.59858,0.001067912,-0.1257102,0.09433498,0,0.3,0,0,0,0,
6.38225E+17,-22.92384,0.7714807,20.54559,-40.20539,54.76279,101.817,0.02355996,-0.8883717,-10.62301,-5.706912,-0.5373149,50.61862,0,0,0,-70.16484,-99.72255,-2.439196,0.04471847,-109.7821,-59.59858,0.001067912,-0.1257102,0.09433498,0,0.3,0,0,0,0,
6.38225E+17,-16.89249,2.665115,20.38216,-34.63876,56.52067,102.1832,0.02355996,-0.8883717,-10.62301,-5.706912,-0.5373149,50.61862,0,0,0,-52.20181,-95.45048,3.547383,0.04471847,-109.7821,-59.59858,0.001067912,-0.1257102,0.09433498,0,0.3,0,0,0,0,
6.38225E+17,-10.62554,5.680903,20.14869,-28.48616,57.47286,102.403,0.02355996,-0.8883717,-10.62301,-5.706912,-0.61056,50.61862,0,0,0,-32.93722,-88.63917,7.215592,0.04471847,-109.7821,-59.59858,0.001067912,-0.1257102,0.09433498,0,0.3,0,0,0,0,
6.38225E+17,-7.586308,7.364134,20.14869,-25.11688,57.76584,102.6227,0.02355996,-0.8883717,-10.62301,-5.706912,-0.5373149,50.61862,0,0,0,-23.5237,-84.74712,8.273879,0.04471847,-109.7821,-59.59858,0.001067912,-0.1257102,0.09433498,0,0.3,0,0,0,0,
6.38225E+17,-0.9895183,11.4787,20.24208,-16.25422,58.05882,105.0398,0.02355996,-0.8883717,-10.62301,-5.706912,-0.61056,50.61862,0,0,0,-3.053596,-75.22707,8.44388,0.04471847,-109.7821,-59.59858,0.001067912,-0.1257102,0.09433498,0,0.3,0,0,0,0,
6.38225E+17,5.395231,16.01407,20.54559,-5.926647,57.39961,107.0174,0.02355996,-0.8883717,-10.62301,-5.706912,-0.61056,50.54538,0,0,0,16.45208,-64.73032,5.849578,0.04471847,-109.7821,-59.59858,0.001067912,-0.1257102,0.09433498,0,0.3,0,0,0,0,
6.38225E+17,11.77998,20.36242,21.61957,4.620657,55.12901,107.6034,0.02355996,-0.8883717,-10.62301,-5.780157,-0.5373149,50.61862,0,0,0,35.55317,-54.21884,2.130983,0.04471847,-109.7821,-59.59858,0.001067912,-0.1257102,0.09433498,0,0.3,0,0,0,0,
6.38225E+17,17.24589,23.93928,23.41731,13.99604,52.19921,107.6766,0.02355996,-0.8883717,-10.62301,-5.706912,-0.61056,50.61862,0,0,0,51.84583,-44.90738,-1.336849,0.04471847,-109.7821,-59.59858,0.001067912,-0.1257102,0.09433498,0,0.3,0,0,0,0,
6.38225E+17,19.24849,25.15495,24.16442,17.51181,50.95404,107.5301,0.02355996,-0.8883717,-10.62301,-5.706912,-0.5373149,50.61862,0,0,0,57.78743,-41.63237,-2.858176,0.04471847,-109.7821,-59.59858,0.001067912,-0.1257102,0.09433498,0,0.3,0,0,0,0,
6.38225E+17,23.25368,26.95507,25.72869,23.6644,48.6102,105.8455,0.02355996,-0.8883717,-10.62301,-5.780157,-0.61056,50.61862,0,0,0,69.7821,-36.33321,-5.956528,0.04471847,-109.7821,-59.59858,0.001067912,-0.1257102,0.09433498,0,0.3,0,0,0,0,
6.38225E+17,27.16464,27.63304,26.8727,27.76613,46.85231,103.6481,0.02355996,-0.8883717,-10.62301,-5.706912,-0.5373149,50.61862,0,0,0,81.45522,-33.75128,-9.614372,0.04471847,-109.7821,-59.59858,0.001067912,-0.1257102,0.09433498,0,0.3,0,0,0,0,
6.38225E+17,29.12011,27.63304,27.05948,29.37753,46.11986,102.7692,0.02355996,-0.8883717,-10.62301,-5.706912,-0.5373149,50.61862,0,0,0,87.01284,-33.55415,-12.14783,0.04471847,-109.7821,-59.59858,0.001067912,-0.1257102,0.09433498,0,0.3,0,0,0,0,
6.38225E+17,33.26667,27.37588,27.05948,32.16084,44.87469,101.0113,0.02355996,-0.8883717,-10.62301,-5.706912,-0.5373149,50.61862,0,0,0,98.23133,-34.08502,-18.61731,0.04471847,-109.7821,-59.59858,0.001067912,-0.1257102,0.09433498,0,0.3,0,0,0,0,
6.38225E+17,37.20118,26.58102,27.03613,34.65118,43.62952,99.76613,0.02355996,-0.8883717,-10.62301,-5.706912,-0.61056,50.54538,0,0,0,108.7521,-35.75835,-25.08056,0.04471847,-109.7821,-59.59858,0.001067912,-0.1257102,0.09433498,0,0.3,0,0,0,0,
6.38225E+17,41.06501,24.64063,26.89605,36.92178,42.60409,98.59421,0.02355996,-0.8883717,-10.62301,-5.706912,-0.61056,50.61862,0,0,0,119.2506,-39.97836,-31.48188,0.04471847,-109.7821,-59.59858,0.001067912,-0.1257102,0.09433498,0,0.3,0,0,0,0,
6.38225E+17,42.76133,23.19118,26.80266,37.87396,42.16462,97.20255,0.02355996,-0.8883717,-10.62301,-5.780157,-0.5373149,50.61862,0,0,0,124.0467,-43.16025,-34.21025,0.04471847,-109.7821,-59.59858,0.001067912,-0.1257102,0.09433498,0,0.3,0,0,0,0,
6.38225E+17,45.89481,18.7727,26.77931,38.89939,41.06594,92.88109,0.02355996,-0.8883717,-10.62301,-5.780157,-0.61056,50.61862,0,0,0,133.8022,-52.78405,-38.66309,0.04471847,-109.7821,-59.59858,0.001067912,-0.1257102,0.09433498,0,0.3,0,0,0,0,
