zeyangz2/DNN_classification_different_people_hand/data/srikar_right_26.csv
Timestamp,Therapist joint angle 0,Therapist joint angle 1,Therapist joint angle 2,Therapist joint angle 3,Therapist joint angle 4,Therapist joint angle 5,Patient joint angle 0,Patient joint angle 1,Patient joint angle 2,Patient joint angle 3,Patient joint angle 4,Patient joint angle 5,Virtual joint angle 0,Virtual joint angle 1,Virtual joint angle 2,Therapist position x,Therapist position y,Therapist position z,Patient position x,Patient position y,Patient position z,Virtual position x,Virtual position y,Virtual position z,Assistive Force, Obstacle Force Magnitude, Therapist Constant Force, Patient Constant Force, Recovery Factor, Assistance Level,label
6.38225E+17,0,0,0,0,0,0,0,0,0,0,0,0,0,0,0,0,0,0,0,0,0,0,0,0,0,0.3,0,0,0,0,2
6.38225E+17,32.93682,-41.19239,-70.36866,52.08353,-17.45695,-26.28881,47.92096,-0.8883717,-9.082087,-78.29288,-7.715342,14.43551,0,0,0,-13.73024,-109.2741,-189.5438,83.34011,-110.3957,-93.10179,0.001067912,-0.1257102,0.09433498,0,0.3,0,0,0,0,
6.38225E+17,32.93682,-41.19239,-70.36866,52.08353,-17.5302,-26.28881,47.92096,-0.8883717,-9.082087,-78.29288,-7.715342,14.50875,0,0,0,-13.73024,-109.2741,-189.5438,83.34011,-110.3957,-93.10179,0.001067912,-0.1257102,0.09433498,0,0.3,0,0,0,0,
6.38225E+17,32.93682,-41.19239,-70.36866,52.08353,-17.45695,-26.28881,47.92096,-0.8883717,-9.082087,-78.29288,-7.715342,14.50875,0,0,0,-13.73024,-109.2741,-189.5438,83.34011,-110.3957,-93.10179,0.001067912,-0.1257102,0.09433498,0,0.3,0,0,0,0,
6.38225E+17,32.93682,-41.19239,-70.36866,52.08353,-17.5302,-26.28881,47.92096,-0.8883717,-9.082087,-78.29288,-7.715342,14.50875,0,0,0,-13.73024,-109.2741,-189.5438,83.34011,-110.3957,-93.10179,0.001067912,-0.1257102,0.09433498,0,0.3,0,0,0,0,
6.38225E+17,32.93682,-41.19239,-70.36866,52.08353,-17.45695,-26.28881,47.92096,-0.8883717,-9.082087,-78.29288,-7.715342,14.50875,0,0,0,-13.73024,-109.2741,-189.5438,83.34011,-110.3957,-93.10179,0.001067912,-0.1257102,0.09433498,0,0.3,0,0,0,0,
6.38225E+17,32.93682,-41.19239,-70.36866,52.08353,-17.45695,-26.28881,47.92096,-0.8883717,-9.082087,-78.29288,-7.715342,14.43551,0,0,0,-13.73024,-109.2741,-189.5438,83.34011,-110.3957,-93.10179,0.001067912,-0.1257102,0.09433498,0,0.3,0,0,0,0,
6.38225E+17,32.93682,-41.19239,-70.36866,52.08353,-17.45695,-26.28881,47.92096,-0.8883717,-9.082087,-78.29288,-7.715342,14.43551,0,0,0,-13.73024,-109.2741,-189.5438,83.34011,-110.3957,-93.10179,0.001067912,-0.1257102,0.09433498,0,0.3,0,0,0,0,
6.38225E+17,32.93682,-41.19239,-70.36866,52.08353,-17.45695,-26.28881,47.92096,-0.8883717,-9.082087,-78.29288,-7.715342,14.43551,0,0,0,-13.73024,-109.2741,-189.5438,83.34011,-110.3957,-93.10179,0.001067912,-0.1257102,0.09433498,0,0.3,0,0,0,0,
6.38225E+17,32.93682,-41.19239,-70.36866,52.01028,-17.45695,-26.28881,47.92096,-0.8883717,-9.082087,-78.21963,-7.715342,14.43551,0,0,0,-13.73024,-109.2741,-189.5438,83.34011,-110.3957,-93.10179,0.001067912,-0.1257102,0.09433498,0,0.3,0,0,0,0,
6.38225E+17,32.93682,-41.19239,-70.36866,52.08353,-17.45695,-26.36205,47.92096,-0.8883717,-9.082087,-78.29288,-7.715342,14.50875,0,0,0,-13.73024,-109.2741,-189.5438,83.34011,-110.3957,-93.10179,0.001067912,-0.1257102,0.09433498,0,0.3,0,0,0,0,
6.38225E+17,32.93682,-41.19239,-70.36866,52.08353,-17.45695,-26.28881,47.92096,-0.8883717,-9.082087,-78.29288,-7.715342,14.50875,0,0,0,-13.73024,-109.2741,-189.5438,83.34011,-110.3957,-93.10179,0.001067912,-0.1257102,0.09433498,0,0.3,0,0,0,0,
6.38225E+17,32.93682,-41.19239,-70.36866,52.08353,-17.45695,-26.28881,47.92096,-0.8883717,-9.082087,-78.29288,-7.715342,14.50875,0,0,0,-13.73024,-109.2741,-189.5438,83.34011,-110.3957,-93.10179,0.001067912,-0.1257102,0.09433498,0,0.3,0,0,0,0,
6.38225E+17,32.93682,-41.19239,-70.36866,52.08353,-17.45695,-26.28881,47.92096,-0.8883717,-9.082087,-78.29288,-7.715342,14.50875,0,0,0,-13.73024,-109.2741,-189.5438,83.34011,-110.3957,-93.10179,0.001067912,-0.1257102,0.09433498,0,0.3,0,0,0,0,
6.38225E+17,32.93682,-41.19239,-70.36866,52.01028,-17.45695,-26.28881,47.92096,-0.8883717,-9.082087,-78.29288,-7.715342,14.50875,0,0,0,-13.73024,-109.2741,-189.5438,83.34011,-110.3957,-93.10179,0.001067912,-0.1257102,0.09433498,0,0.3,0,0,0,0,
6.38225E+17,32.93682,-41.19239,-70.36866,52.01028,-17.45695,-26.28881,47.92096,-0.8883717,-9.082087,-78.29288,-7.642097,14.50875,0,0,0,-13.73024,-109.2741,-189.5438,83.34011,-110.3957,-93.10179,0.001067912,-0.1257102,0.09433498,0,0.3,0,0,0,0,
6.38225E+17,32.93682,-41.19239,-70.36866,52.08353,-17.45695,-26.28881,47.92096,-0.8883717,-9.082087,-78.29288,-7.715342,14.50875,0,0,0,-13.73024,-109.2741,-189.5438,83.34011,-110.3957,-93.10179,0.001067912,-0.1257102,0.09433498,0,0.3,0,0,0,0,
6.38225E+17,32.93682,-41.19239,-70.36866,52.08353,-17.45695,-26.28881,47.92096,-0.8883717,-9.082087,-78.29288,-7.715342,14.50875,0,0,0,-13.73024,-109.2741,-189.5438,83.34011,-110.3957,-93.10179,0.001067912,-0.1257102,0.09433498,0,0.3,0,0,0,0,
6.38225E+17,32.93682,-41.19239,-70.36866,52.08353,-17.45695,-26.28881,47.92096,-0.8883717,-9.082087,-78.29288,-7.715342,14.50875,0,0,0,-13.73024,-109.2741,-189.5438,83.34011,-110.3957,-93.10179,0.001067912,-0.1257102,0.09433498,0,0.3,0,0,0,0,
6.38225E+17,32.93682,-41.19239,-70.36866,52.08353,-17.5302,-26.28881,47.92096,-0.8883717,-9.082087,-78.29288,-7.715342,14.50875,0,0,0,-13.73024,-109.2741,-189.5438,83.34011,-110.3957,-93.10179,0.001067912,-0.1257102,0.09433498,0,0.3,0,0,0,0,
6.38225E+17,32.93682,-41.19239,-70.36866,52.08353,-17.45695,-26.28881,47.92096,-0.8883717,-9.082087,-78.29288,-7.715342,14.43551,0,0,0,-13.73024,-109.2741,-189.5438,83.34011,-110.3957,-93.10179,0.001067912,-0.1257102,0.09433498,0,0.3,0,0,0,0,
6.38225E+17,32.93682,-41.19239,-70.36866,52.08353,-17.45695,-26.28881,47.92096,-0.8883717,-9.082087,-78.29288,-7.715342,14.43551,0,0,0,-13.73024,-109.2741,-189.5438,83.34011,-110.3957,-93.10179,0.001067912,-0.1257102,0.09433498,0,0.3,0,0,0,0,
6.38225E+17,32.93682,-41.19239,-70.36866,52.08353,-17.45695,-26.28881,47.92096,-0.8883717,-9.082087,-78.29288,-7.715342,14.50875,0,0,0,-13.73024,-109.2741,-189.5438,83.34011,-110.3957,-93.10179,0.001067912,-0.1257102,0.09433498,0,0.3,0,0,0,0,
6.38225E+17,32.93682,-41.19239,-70.36866,52.08353,-17.5302,-26.28881,47.92096,-0.8883717,-9.082087,-78.29288,-7.715342,14.50875,0,0,0,-13.73024,-109.2741,-189.5438,83.34011,-110.3957,-93.10179,0.001067912,-0.1257102,0.09433498,0,0.3,0,0,0,0,
6.38225E+17,32.93682,-41.19239,-70.36866,52.01028,-17.45695,-26.28881,47.92096,-0.8883717,-9.082087,-78.29288,-7.715342,14.50875,0,0,0,-13.73024,-109.2741,-189.5438,83.34011,-110.3957,-93.10179,0.001067912,-0.1257102,0.09433498,0,0.3,0,0,0,0,
6.38225E+17,32.93682,-41.19239,-70.36866,52.08353,-17.45695,-26.28881,47.92096,-0.8883717,-9.082087,-78.29288,-7.715342,14.50875,0,0,0,-13.73024,-109.2741,-189.5438,83.34011,-110.3957,-93.10179,0.001067912,-0.1257102,0.09433498,0,0.3,0,0,0,0,
6.38225E+17,32.93682,-41.19239,-70.36866,52.01028,-17.45695,-26.28881,47.92096,-0.8883717,-9.082087,-78.29288,-7.715342,14.43551,0,0,0,-13.73024,-109.2741,-189.5438,83.34011,-110.3957,-93.10179,0.001067912,-0.1257102,0.09433498,0,0.3,0,0,0,0,
6.38225E+17,32.93682,-41.19239,-70.36866,52.08353,-17.45695,-26.28881,47.92096,-0.8883717,-9.082087,-78.29288,-7.715342,14.50875,0,0,0,-13.73024,-109.2741,-189.5438,83.34011,-110.3957,-93.10179,0.001067912,-0.1257102,0.09433498,0,0.3,0,0,0,0,
6.38225E+17,32.93682,-41.19239,-70.36866,52.08353,-17.45695,-26.28881,47.92096,-0.8883717,-9.082087,-78.29288,-7.715342,14.50875,0,0,0,-13.73024,-109.2741,-189.5438,83.34011,-110.3957,-93.10179,0.001067912,-0.1257102,0.09433498,0,0.3,0,0,0,0,
6.38225E+17,32.93682,-41.19239,-70.36866,52.08353,-17.45695,-26.28881,47.92096,-0.8883717,-9.082087,-78.29288,-7.642097,14.50875,0,0,0,-13.73024,-109.2741,-189.5438,83.34011,-110.3957,-93.10179,0.001067912,-0.1257102,0.09433498,0,0.3,0,0,0,0,
6.38225E+17,32.93682,-41.19239,-70.36866,52.08353,-17.45695,-26.28881,47.92096,-0.8883717,-9.082087,-78.29288,-7.715342,14.43551,0,0,0,-13.73024,-109.2741,-189.5438,83.34011,-110.3957,-93.10179,0.001067912,-0.1257102,0.09433498,0,0.3,0,0,0,0,
6.38225E+17,32.93682,-41.19239,-70.36866,52.08353,-17.45695,-26.28881,47.92096,-0.8883717,-9.082087,-78.29288,-7.715342,14.43551,0,0,0,-13.73024,-109.2741,-189.5438,83.34011,-110.3957,-93.10179,0.001067912,-0.1257102,0.09433498,0,0.3,0,0,0,0,
6.38225E+17,32.70123,-41.19239,-70.34531,52.08353,-17.45695,-26.28881,47.92096,-0.8883717,-9.082087,-78.29288,-7.715342,14.50875,0,0,0,-13.63311,-109.3253,-189.5847,83.34011,-110.3957,-93.10179,0.001067912,-0.1257102,0.09433498,0,0.3,0,0,4.91E-06,0,
6.38225E+17,30.25099,-41.16902,-70.22857,52.81598,-17.45695,-26.36205,47.92096,-0.8883717,-9.082087,-78.29288,-7.715342,14.50875,0,0,0,-12.6486,-109.5401,-190.0381,83.34011,-110.3957,-93.10179,0.001067912,-0.1257102,0.09433498,0,0.3,0,0,8.24E-05,0,
6.38225E+17,29.33215,-41.16902,-70.13519,52.96247,-17.45695,-26.36205,47.92096,-0.8883717,-9.082087,-78.29288,-7.715342,14.50875,0,0,0,-12.26309,-109.7446,-190.1739,83.34011,-110.3957,-93.10179,0.001067912,-0.1257102,0.09433498,0,0.3,0,0,0.000155443,0,
6.38225E+17,26.19868,-41.16902,-69.01452,53.1822,-17.5302,-26.36205,47.92096,-0.8883717,-9.082087,-78.29288,-7.642097,14.50875,0,0,0,-10.64996,-112.1888,-189.9948,83.34011,-110.3957,-93.10179,0.001067912,-0.1257102,0.09433498,0,0.3,0,0,0.00052911,0,
6.38225E+17,22.54688,-41.16902,-66.65645,53.25545,-17.5302,-26.36205,47.92096,-0.8883717,-9.082087,-78.29288,-7.715342,14.43551,0,0,0,-8.455863,-117.271,-188.7171,83.34011,-110.3957,-93.10179,0.001067912,-0.1257102,0.09433498,0,0.3,0,0,0.001339667,0,
6.38225E+17,19.13069,-41.16902,-63.27109,53.25545,-17.45695,-26.36205,47.92096,-0.8883717,-9.082087,-78.29288,-7.715342,14.43551,0,0,0,-6.134604,-124.4088,-186.035,83.34011,-110.3957,-93.10179,0.001067912,-0.1257102,0.09433498,0,0.3,0,0,0.002736539,0,
6.38225E+17,17.57573,-41.16902,-61.30993,53.25545,-17.5302,-26.36205,47.92096,-0.8883717,-9.082087,-78.29288,-7.715342,14.43551,0,0,0,-5.011584,-128.4495,-184.1718,83.34011,-110.3957,-93.10179,0.001067912,-0.1257102,0.09433498,0,0.3,0,0,0.003669868,0,
6.38225E+17,14.37158,-41.16902,-57.13076,53.32869,-17.45695,-26.36205,47.92096,-0.8883717,-9.082087,-78.29288,-7.715342,14.50875,0,0,0,-2.884233,-136.8042,-179.6065,83.34011,-110.3957,-93.10179,0.001067912,-0.1257102,0.09433498,0,0.3,0,0,0.005978325,0,
6.38225E+17,11.14386,-41.14564,-52.99829,53.25545,-17.45695,-26.36205,47.92096,-0.8883717,-9.082087,-78.29288,-7.715342,14.50875,0,0,0,-1.174682,-144.6462,-174.3132,83.34011,-110.3957,-93.10179,0.001067912,-0.1257102,0.09433498,0,0.3,0,0,0.008786787,0,
6.38225E+17,8.128186,-41.05212,-49.0993,53.25545,-17.5302,-26.28881,47.92096,-0.8883717,-9.082087,-78.29288,-7.715342,14.50875,0,0,0,-0.03267505,-151.5379,-168.5788,83.34011,-110.3957,-93.10179,0.001067912,-0.1257102,0.09433498,0,0.3,0,0,0.01194628,0,
6.38225E+17,6.21983,-41.00537,-46.50775,53.25545,-17.5302,-26.36205,47.92096,-0.8883717,-9.082087,-78.29288,-7.715342,14.50875,0,0,0,0.4215894,-155.9239,-164.4817,83.34011,-110.3957,-93.10179,0.001067912,-0.1257102,0.09433498,0,0.3,0,0,0.01364121,0,
6.38225E+17,4.028753,-40.98199,-43.1224,53.32869,-17.45695,-26.28881,47.92096,-0.8883717,-9.082087,-78.29288,-7.642097,14.50875,0,0,0,0.6685243,-161.4353,-158.8581,83.34011,-110.3957,-93.10179,0.001067912,-0.1257102,0.09433498,0,0.3,0,0,0.01706442,0,
6.38225E+17,2.049716,-40.93523,-39.2701,53.32869,-17.45695,-26.36205,47.92096,-0.8883717,-9.082087,-78.29288,-7.642097,14.43551,0,0,0,0.5841367,-167.2573,-152.0286,83.34011,-110.3957,-93.10179,0.001067912,-0.1257102,0.09433498,0,0.3,0,0,0.02050425,0,
6.38225E+17,1.154438,-40.8651,-37.35563,53.32869,-17.45695,-26.36205,47.92096,-0.8883717,-9.082087,-78.29288,-7.715342,14.50875,0,0,0,0.4016325,-169.8962,-148.4193,83.34011,-110.3957,-93.10179,0.001067912,-0.1257102,0.09433498,0,0.3,0,0,0.02220632,0,
6.38225E+17,-0.4005193,-40.70145,-33.52667,53.40194,-17.45695,-26.36205,47.92096,-0.8883717,-9.082087,-78.29288,-7.642097,14.50875,0,0,0,-0.1918316,-174.7743,-140.9082,83.34011,-110.3957,-93.10179,0.001067912,-0.1257102,0.09433498,0,0.3,0,0,0.02552806,0,
6.38225E+17,-1.790557,-40.3274,-29.81446,53.40194,-17.45695,-26.36205,47.92096,-0.8883717,-9.082087,-78.29288,-7.715342,14.43551,0,0,0,-1.104856,-178.6478,-133.0074,83.34011,-110.3957,-93.10179,0.001067912,-0.1257102,0.09433498,0,0.3,0,0,0.02871219,0,
6.38225E+17,-3.039235,-39.5793,-26.24233,53.47519,-17.45695,-26.36205,47.92096,-0.8883717,-9.082087,-78.29288,-7.642097,14.50875,0,0,0,-2.323087,-181.2192,-124.5962,83.34011,-110.3957,-93.10179,0.001067912,-0.1257102,0.09433498,0,0.3,0,0,0.03177144,0,
6.38225E+17,-3.651794,-39.13511,-24.25781,53.54843,-17.45695,-26.36205,47.92096,-0.8883717,-9.082087,-78.29288,-7.715342,14.43551,0,0,0,-3.098541,-182.39,-119.8005,83.34011,-110.3957,-93.10179,0.001067912,-0.1257102,0.09433498,0,0.3,0,0,0.03323934,0,
6.38225E+17,-4.688432,-38.17661,-20.47555,53.62167,-17.45695,-26.36205,47.92096,-0.8883717,-9.082087,-78.29288,-7.715342,14.50875,0,0,0,-4.755543,-183.9971,-110.3639,83.34011,-110.3957,-93.10179,0.001067912,-0.1257102,0.09433498,0,0.3,0,0,0.03601491,0,
6.38225E+17,-5.583711,-37.07783,-16.2497,53.40194,-17.45695,-26.36205,47.92096,-0.8883717,-9.082087,-78.29288,-7.715342,14.50875,0,0,0,-6.720937,-185.0695,-99.60334,83.34011,-110.3957,-93.10179,0.001067912,-0.1257102,0.09433498,0,0.3,0,0,0.03850178,0,
6.38225E+17,-5.98423,-36.65702,-13.75154,52.81598,-17.5302,-26.36205,47.92096,-0.8883717,-9.082087,-78.29288,-7.715342,14.50875,0,0,0,-7.84805,-185.7907,-93.48258,83.34011,-110.3957,-93.10179,0.001067912,-0.1257102,0.09433498,0,0.3,0,0,0.03958977,0,
6.38225E+17,-6.526109,-35.90892,-8.498405,50.47213,-17.45695,-26.36205,47.92096,-0.8883717,-9.082087,-78.29288,-7.642097,14.50875,0,0,0,-10.03584,-186.7454,-80.622,83.34011,-110.3957,-93.10179,0.001067912,-0.1257102,0.09433498,0,0.3,0,0,0.04133734,0,
6.38225E+17,-6.832388,-34.76339,-3.385354,45.19848,-17.45695,-26.14231,47.92096,-0.8883717,-9.082087,-78.29288,-7.715342,14.50875,0,0,0,-12.09572,-185.802,-67.39767,83.34011,-110.3957,-93.10179,0.001067912,-0.1257102,0.09433498,0,0.3,0,0,0.04253751,0,
6.38225E+17,-6.855949,-32.91651,1.354141,37.288,-17.45695,-25.99582,47.92096,-0.8883717,-9.082087,-78.29288,-7.715342,14.50875,0,0,0,-13.73915,-182.4273,-54.07922,83.34011,-110.3957,-93.10179,0.001067912,-0.1257102,0.09433498,0,0.3,0,0,0.04325362,0,
6.38225E+17,-6.761709,-31.60733,3.852299,32.08759,-17.45695,-25.99582,47.92096,-0.8883717,-9.082087,-78.29288,-7.715342,14.50875,0,0,0,-14.42648,-179.5868,-46.67434,83.34011,-110.3957,-93.10179,0.001067912,-0.1257102,0.09433498,0,0.3,0,0,0.04344118,0,
6.38225E+17,-6.384749,-28.73181,8.03146,21.32055,-17.45695,-25.92258,47.92096,-0.8883717,-9.082087,-78.29288,-7.642097,14.50875,0,0,0,-15.07522,-172.7948,-33.62772,83.34011,-110.3957,-93.10179,0.001067912,-0.1257102,0.09433498,0,0.3,0,0,0.04353217,0,
6.38225E+17,-5.465911,-25.10819,11.5102,7.330729,-17.45695,-26.14231,47.92096,-0.8883717,-9.082087,-78.29288,-7.715342,14.43551,0,0,0,-14.03641,-163.9025,-21.66154,83.34011,-110.3957,-93.10179,0.001067912,-0.1257102,0.09433498,0,0.3,0,0,0.04339858,0,
6.38225E+17,-5.018272,-23.40158,13.33129,1.104889,-17.5302,-27.97344,47.92096,-0.8883717,-9.082087,-78.29288,-7.715342,14.50875,0,0,0,-13.39473,-159.3697,-15.80785,83.34011,-110.3957,-93.10179,0.001067912,-0.1257102,0.09433498,0,0.3,0,0,0.04323544,0,
6.38225E+17,-4.170113,-19.87147,17.67388,-9.66215,-17.45695,-32.00193,47.92096,-0.8883717,-9.082087,-78.29288,-7.715342,14.43551,0,0,0,-12.06354,-149.0331,-2.894303,83.34011,-110.3957,-93.10179,0.001067912,-0.1257102,0.09433498,0,0.3,0,0,0.04245823,0,
6.38225E+17,-3.227715,-16.22447,21.17597,-17.71912,-17.45695,-34.05279,47.92096,-0.8883717,-9.082087,-78.29288,-7.715342,14.43551,0,0,0,-9.921394,-138.2538,7.580219,83.34011,-110.3957,-93.10179,0.001067912,-0.1257102,0.09433498,0,0.3,0,0,0.04130444,0,
6.38225E+17,-1.861237,-13.02166,24.21111,-23.13926,-17.45695,-35.00498,47.92096,-0.8883717,-9.082087,-78.29288,-7.642097,14.43551,0,0,0,-5.995874,-128.317,16.16033,83.34011,-110.3957,-93.10179,0.001067912,-0.1257102,0.09433498,0,0.3,0,0,0.03985505,0,
6.38225E+17,-0.9188384,-11.61897,25.6353,-25.40986,-17.45695,-35.29796,47.92096,-0.8883717,-9.082087,-78.29288,-7.642097,14.50875,0,0,0,-3.019755,-123.7308,19.93597,83.34011,-110.3957,-93.10179,0.001067912,-0.1257102,0.09433498,0,0.3,0,0,0.03907761,0,
6.38225E+17,1.225118,-9.304525,27.97002,-29.51159,-17.45695,-35.59094,47.92096,-0.8883717,-9.082087,-78.29288,-7.642097,14.50875,0,0,0,4.150807,-115.9841,25.74355,83.34011,-110.3957,-93.10179,0.001067912,-0.1257102,0.09433498,0,0.3,0,0,0.03755284,0,
6.38225E+17,3.887394,-7.130352,30.00124,-34.27253,-17.45695,-35.73743,47.92096,-0.8883717,-9.082087,-78.29288,-7.715342,14.50875,0,0,0,13.4911,-108.6854,30.18836,83.34011,-110.3957,-93.10179,0.001067912,-0.1257102,0.09433498,0,0.3,0,0,0.03619243,0,
6.38225E+17,5.395231,-6.101711,30.67831,-36.76286,-17.5302,-35.73743,47.92096,-0.8883717,-9.082087,-78.21963,-7.642097,14.50875,0,0,0,18.86452,-105.5113,31.39318,83.34011,-110.3957,-93.10179,0.001067912,-0.1257102,0.09433498,0,0.3,0,0,0.03564927,0,
6.38225E+17,8.811425,-4.208076,31.00517,-42.76897,-17.5302,-35.73743,47.92096,-0.8883717,-9.082087,-78.29288,-7.715342,14.50875,0,0,0,30.8941,-100.7321,30.95088,83.34011,-110.3957,-93.10179,0.001067912,-0.1257102,0.09433498,0,0.3,0,0,0.03509351,0,
6.38225E+17,14.23022,-2.571602,30.07128,-52.58382,-17.5302,-35.88392,47.92096,-0.8883717,-9.082087,-78.29288,-7.715342,14.50875,0,0,0,49.17216,-98.03458,25.54644,83.34011,-110.3957,-93.10179,0.001067912,-0.1257102,0.09433498,0,0.3,0,0,0.03565028,0,
6.38225E+17,17.22233,-1.917013,29.79111,-57.19827,-17.5302,-35.81068,47.92096,-0.8883717,-9.082087,-78.29288,-7.715342,14.43551,0,0,0,59.07658,-96.83762,22.23262,83.34011,-110.3957,-93.10179,0.001067912,-0.1257102,0.09433498,0,0.3,0,0,0.03706722,0,
6.38225E+17,18.82441,-1.706609,29.55764,-60.20132,-17.5302,-35.73743,47.92096,-0.8883717,-9.082087,-78.29288,-7.715342,14.50875,0,0,0,64.23444,-96.61719,20.07425,83.34011,-110.3957,-93.10179,0.001067912,-0.1257102,0.09433498,0,0.3,0,0,0.03805162,0,
6.38225E+17,22.8296,-1.589718,29.16073,-67.08636,-17.5302,-35.81068,47.92096,-0.8883717,-9.082087,-78.29288,-7.715342,14.50875,0,0,0,76.92907,-96.79814,14.39267,83.34011,-110.3957,-93.10179,0.001067912,-0.1257102,0.09433498,0,0.3,0,0,0.04059514,0,
6.38225E+17,27.25887,-1.753365,28.13346,-75.36307,-17.45695,-35.73743,47.92096,-0.8883717,-9.082087,-78.29288,-7.642097,14.50875,0,0,0,89.84615,-98.32507,6.030732,83.34011,-110.3957,-93.10179,0.001067912,-0.1257102,0.09433498,0,0.3,0,0,0.04402069,0,
6.38225E+17,30.03895,-1.870256,27.10618,-81.29592,-17.45695,-35.73743,47.92096,-0.8883717,-9.082087,-78.29288,-7.642097,14.50875,0,0,0,97.13355,-99.70538,-0.3735749,83.34011,-110.3957,-93.10179,0.001067912,-0.1257102,0.09433498,0,0.3,0,0,0.04615218,0,
6.38225E+17,34.79806,-1.800122,24.95823,-89.64587,-17.5302,-36.03041,47.92096,-0.8883717,-9.082087,-78.29288,-7.642097,14.50875,0,0,0,108.1748,-101.7361,-12.6957,83.34011,-110.3957,-93.10179,0.001067912,-0.1257102,0.09433498,0,0.3,0,0,0.05116238,0,
6.38225E+17,39.2509,-1.870256,23.32392,-94.48006,-17.38371,-36.10366,47.92096,-0.8883717,-9.082087,-78.29288,-7.715342,14.43551,0,0,0,117.7336,-103.4548,-24.25589,83.34011,-110.3957,-93.10179,0.001067912,-0.1257102,0.09433498,0,0.3,0,0,0.05693319,0,
6.38225E+17,42.76133,-2.47809,22.48342,-101.0721,-16.13853,-36.03041,47.92096,-0.8883717,-9.082087,-78.29288,-7.715342,14.50875,0,0,0,125.0757,-105.6298,-33.09749,83.34011,-110.3957,-93.10179,0.001067912,-0.1257102,0.09433498,0,0.3,0,0,0.06306919,0,
6.38225E+17,44.90529,-3.24957,22.06317,-109.2023,-13.94118,-36.03041,47.92096,-0.8883717,-9.082087,-78.29288,-7.715342,14.50875,0,0,0,129.3457,-107.7938,-38.5759,83.34011,-110.3957,-93.10179,0.001067912,-0.1257102,0.09433498,0,0.3,0,0,0.06621491,0,
6.38225E+17,46.4838,-3.763891,21.57287,-119.7496,-10.64515,-36.03041,47.92096,-0.8883717,-9.082087,-78.29288,-7.715342,14.50875,0,0,0,132.0502,-109.4127,-42.96807,83.34011,-110.3957,-93.10179,0.001067912,-0.1257102,0.09433498,0,0.3,0,0,0.07246928,0,
6.38225E+17,48.10944,-4.348346,20.91915,-139.7456,-3.760103,-36.03041,47.92096,-0.8883717,-9.082087,-78.29288,-7.642097,14.50875,0,0,0,134.4268,-111.3209,-47.77575,83.34011,-110.3957,-93.10179,0.001067912,-0.1257102,0.09433498,0,0.3,0,0,0.07873663,0,
6.38225E+17,48.69844,-4.488615,20.56894,-151.3916,0.5613627,-36.03041,47.92096,-0.8883717,-9.082087,-78.29288,-7.715342,14.50875,0,0,0,135.0676,-111.9351,-49.68369,83.34011,-110.3957,-93.10179,0.001067912,-0.1257102,0.09433498,0,0.3,0,0,0.08185793,0,
6.38225E+17,49.12252,-5.049692,18.65447,-169.5564,13.23278,-35.07822,47.92096,-0.8883717,-9.082087,-78.29288,-7.642097,14.50875,0,0,0,132.6867,-114.7319,-53.50444,83.34011,-110.3957,-93.10179,0.001067912,-0.1257102,0.09433498,0,0.3,0,0,0.08825046,0,
6.38225E+17,48.86336,-5.797795,17.11355,-169.6296,24.87876,-25.92258,47.92096,-0.8883717,-9.082087,-78.29288,-7.642097,14.50875,0,0,0,129.4715,-117.5665,-55.25894,83.34011,-110.3957,-93.10179,0.001067912,-0.1257102,0.09433498,0,0.3,0,0,0.09485301,0,
6.38225E+17,48.58064,-6.312115,15.61932,-170.8015,30.44539,-19.69674,47.92096,-0.8883717,-9.082087,-78.29288,-7.642097,14.50875,0,0,0,126.3151,-119.7367,-56.9124,83.34011,-110.3957,-93.10179,0.001067912,-0.1257102,0.09433498,0,0.3,0,0,0.09829612,0,
6.38225E+17,47.94452,-7.901833,13.42468,-170.948,37.25719,-7.24506,47.92096,-0.8883717,-9.082087,-78.29288,-7.642097,14.50875,0,0,0,121.0591,-124.6888,-59.13546,83.34011,-110.3957,-93.10179,0.001067912,-0.1257102,0.09433498,0,0.3,0,0,0.1053889,0,
6.38225E+17,47.68536,-9.585063,12.91104,-171.241,37.62342,5.93907,47.92096,-0.8883717,-9.082087,-78.29288,-7.642097,14.50875,0,0,0,119.2628,-128.833,-59.7735,83.34011,-110.3957,-93.10179,0.001067912,-0.1257102,0.09433498,0,0.3,0,0,0.1124023,0,
6.38225E+17,47.8974,-10.59033,12.95773,-171.3142,35.20633,19.1232,47.92096,-0.8883717,-9.082087,-78.29288,-7.642097,14.50875,0,0,0,119.4383,-131.1121,-60.41935,83.34011,-110.3957,-93.10179,0.001067912,-0.1257102,0.09433498,0,0.3,0,0,0.11918,0,
6.38225E+17,47.92096,-11.03451,12.81765,-171.3142,33.59494,23.37142,47.92096,-0.8883717,-9.082087,-78.29288,-7.715342,14.50875,0,0,0,119.1029,-132.2003,-60.81142,83.34011,-110.3957,-93.10179,0.001067912,-0.1257102,0.09433498,0,0.3,0,0,0.1224977,0,
6.38225E+17,47.47332,-12.69436,12.841,-171.3142,28.98049,21.61354,47.92096,-0.8883717,-9.082087,-78.29288,-7.642097,14.50875,0,0,0,117.7128,-135.9687,-60.38522,83.34011,-110.3957,-93.10179,0.001067912,-0.1257102,0.09433498,0,0.3,0,0,0.128949,0,
6.38225E+17,46.27176,-17.29987,14.40526,-171.3142,24.87876,13.04385,47.92096,-0.8883717,-9.082087,-78.29288,-7.642097,14.43551,0,0,0,115.9759,-145.4622,-57.41166,83.34011,-110.3957,-93.10179,0.001067912,-0.1257102,0.09433498,0,0.3,0,0,0.1347842,0,
6.38225E+17,44.08069,-20.64295,15.71271,-171.3875,22.82789,7.770199,47.92096,-0.8883717,-9.082087,-78.29288,-7.715342,14.43551,0,0,0,111.9344,-152.0286,-52.76475,83.34011,-110.3957,-93.10179,0.001067912,-0.1257102,0.09433498,0,0.3,0,0,0.1399502,0,
6.38225E+17,42.99693,-20.99363,15.64267,-171.3875,22.0222,6.818012,47.92096,-0.8883717,-9.082087,-78.29288,-7.642097,14.50875,0,0,0,109.4233,-152.8355,-50.99524,83.34011,-110.3957,-93.10179,0.001067912,-0.1257102,0.09433498,0,0.3,0,0,0.1424077,0,
6.38225E+17,40.97078,-21.29754,15.64267,-171.3875,20.26431,6.012315,47.92096,-0.8883717,-9.082087,-78.29288,-7.715342,14.50875,0,0,0,105.0384,-153.4952,-47.39253,83.34011,-110.3957,-93.10179,0.001067912,-0.1257102,0.09433498,0,0.3,0,0,0.1471451,0,
6.38225E+17,38.6619,-21.29754,16.45982,-171.4607,20.48405,3.155754,47.92096,-0.8883717,-9.082087,-78.29288,-7.642097,14.50875,0,0,0,101.222,-152.9694,-41.83195,83.34011,-110.3957,-93.10179,0.001067912,-0.1257102,0.09433498,0,0.3,0,0,0.1515717,0,
6.38225E+17,37.34254,-21.25079,17.18359,-171.4607,21.36299,0.2259469,47.92096,-0.8883717,-9.082087,-78.29288,-7.715342,14.50875,0,0,0,99.28407,-152.3805,-38.22156,83.34011,-110.3957,-93.10179,0.001067912,-0.1257102,0.09433498,0,0.3,0,0,0.1536226,0,
6.38225E+17,34.70382,-21.15727,19.09806,-171.4607,23.4871,-8.124002,47.92096,-0.8883717,-9.082087,-78.29288,-7.715342,14.43551,0,0,0,95.64336,-150.7903,-30.24313,83.34011,-110.3957,-93.10179,0.001067912,-0.1257102,0.09433498,0,0.3,0,0,0.1573324,0,
6.38225E+17,32.06511,-21.04038,20.63898,-171.3875,25.97744,-18.67131,47.92096,-0.8883717,-9.082087,-78.29288,-7.715342,14.50875,0,0,0,91.02631,-149.3177,-23.04512,83.34011,-110.3957,-93.10179,0.001067912,-0.1257102,0.09433498,0,0.3,0,0,0.1605157,0,
6.38225E+17,29.30859,-20.92349,21.43279,-171.4607,28.68751,-29.14537,47.92096,-0.8883717,-9.082087,-78.29288,-7.642097,14.50875,0,0,0,84.82481,-148.4005,-17.24705,83.34011,-110.3957,-93.10179,0.001067912,-0.1257102,0.09433498,0,0.3,0,0,0.1632343,0,
6.38225E+17,28.13059,-20.92349,21.94643,-171.4607,29.93268,-37.42207,47.92096,-0.8883717,-9.082087,-78.29288,-7.642097,14.50875,0,0,0,82.22416,-147.9587,-14.55553,83.34011,-110.3957,-93.10179,0.001067912,-0.1257102,0.09433498,0,0.3,0,0,0.1644275,0,
6.38225E+17,26.31648,-20.82998,23.11379,-171.4607,31.76381,-53.38951,47.92096,-0.8883717,-9.082087,-78.29288,-7.642097,14.50875,0,0,0,78.4612,-146.7143,-9.710692,83.34011,-110.3957,-93.10179,0.001067912,-0.1257102,0.09433498,0,0.3,0,0,0.1665225,0,
6.38225E+17,25.68036,-20.82998,24.70141,-171.3875,32.71599,-65.91444,47.92096,-0.8883717,-9.082087,-78.29288,-7.715342,14.43551,0,0,0,78.15893,-145.2169,-5.805161,83.34011,-110.3957,-93.10179,0.001067912,-0.1257102,0.09433498,0,0.3,0,0,0.1682877,0,
6.38225E+17,25.72748,-20.8066,25.98551,-171.4607,33.22871,-73.23896,47.92096,-0.8883717,-9.082087,-78.29288,-7.715342,14.50875,0,0,0,79.47342,-143.8868,-3.418895,83.34011,-110.3957,-93.10179,0.001067912,-0.1257102,0.09433498,0,0.3,0,0,0.1690481,0,
6.38225E+17,26.83479,-20.43255,26.96609,-170.362,31.69056,-88.76694,47.92096,-0.8883717,-9.082087,-78.29288,-7.715342,14.43551,0,0,0,83.70647,-142.0546,-2.889122,83.34011,-110.3957,-93.10179,0.001067912,-0.1257102,0.09433498,0,0.3,0,0,0.1705294,0,
6.38225E+17,28.15415,-20.15201,27.22291,-167.066,24.80551,-94.62655,47.92096,-0.8883717,-9.082087,-78.29288,-7.642097,14.50875,0,0,0,87.85195,-141.17,-4.191525,83.34011,-110.3957,-93.10179,0.001067912,-0.1257102,0.09433498,0,0.3,0,0,0.1720998,0,
6.38225E+17,28.79027,-19.87147,27.01279,-165.1616,14.4047,-95.50549,47.92096,-0.8883717,-9.082087,-78.29288,-7.715342,14.50875,0,0,0,89.56702,-140.7794,-5.362646,83.34011,-110.3957,-93.10179,0.001067912,-0.1257102,0.09433498,0,0.3,0,0,0.1737282,0,
6.38225E+17,28.55467,-20.01174,25.16835,-170.362,4.077131,-95.65198,47.92096,-0.8883717,-9.082087,-78.29288,-7.715342,14.50875,0,0,0,87.0001,-142.9741,-8.479727,83.34011,-110.3957,-93.10179,0.001067912,-0.1257102,0.09433498,0,0.3,0,0,0.1754825,0,
6.38225E+17,28.13059,-20.15201,24.53798,-170.8015,0.268382,-95.72523,47.92096,-0.8883717,-9.082087,-78.29288,-7.642097,14.50875,0,0,0,85.13392,-143.8973,-9.113028,83.34011,-110.3957,-93.10179,0.001067912,-0.1257102,0.09433498,0,0.3,0,0,0.1763813,0,
6.38225E+17,27.44736,-20.40917,23.86091,-159.9612,-3.760103,-101.1454,47.92096,-0.8883717,-9.082087,-78.29288,-7.715342,14.50875,0,0,0,82.47092,-145.1047,-9.568809,83.34011,-110.3957,-93.10179,0.001067912,-0.1257102,0.09433498,0,0.3,0,0,0.1781636,0,
6.38225E+17,26.90548,-20.15201,24.02434,-142.6021,-3.247386,-114.3295,47.92096,-0.8883717,-9.082087,-78.29288,-7.642097,14.50875,0,0,0,81.21676,-144.3889,-8.30094,83.34011,-110.3957,-93.10179,0.001067912,-0.1257102,0.09433498,0,0.3,0,0,0.1798272,0,
6.38225E+17,26.69344,-20.15201,24.02434,-134.4719,-2.148709,-117.772,47.92096,-0.8883717,-9.082087,-78.29288,-7.642097,14.50875,0,0,0,80.62389,-144.3889,-8.00147,83.34011,-110.3957,-93.10179,0.001067912,-0.1257102,0.09433498,0,0.3,0,0,0.1806305,0,
6.38225E+17,26.15156,-19.68445,24.7948,-121.7273,1.220569,-121.1413,47.92096,-0.8883717,-9.082087,-78.29288,-7.715342,14.50875,0,0,0,79.98688,-142.6248,-5.447653,83.34011,-110.3957,-93.10179,0.001067912,-0.1257102,0.09433498,0,0.3,0,0,0.1821172,0,
6.38225E+17,25.51544,-18.9831,25.42517,-115.5014,4.882828,-121.4343,47.92096,-0.8883717,-9.082087,-78.29288,-7.715342,14.43551,0,0,0,78.97842,-140.4619,-2.883057,83.34011,-110.3957,-93.10179,0.001067912,-0.1257102,0.09433498,0,0.3,0,0,0.1834243,0,
6.38225E+17,24.54948,-18.65581,25.77538,-110.6672,7.739389,-122.7527,47.92096,-0.8883717,-9.082087,-78.29288,-7.715342,14.50875,0,0,0,76.58519,-139.3887,-0.6829993,83.34011,-110.3957,-93.10179,0.001067912,-0.1257102,0.09433498,0,0.3,0,0,0.184572,0,
6.38225E+17,24.05472,-18.46878,26.0322,-108.3234,8.764822,-125.1698,47.92096,-0.8883717,-9.082087,-78.29288,-7.715342,14.50875,0,0,0,75.41016,-138.715,0.5895751,83.34011,-110.3957,-93.10179,0.001067912,-0.1257102,0.09433498,0,0.3,0,0,0.1850762,0,
6.38225E+17,23.58352,-17.90771,26.56919,-102.1708,9.497273,-139.5258,47.92096,-0.8883717,-9.082087,-78.29288,-7.642097,14.50875,0,0,0,74.6296,-136.9206,2.604412,83.34011,-110.3957,-93.10179,0.001067912,-0.1257102,0.09433498,0,0.3,0,0,0.1859744,0,
6.38225E+17,23.84268,-17.60379,26.94275,-92.35595,7.373164,-142.0162,47.92096,-0.8883717,-9.082087,-78.29288,-7.715342,14.50875,0,0,0,75.8031,-135.8556,3.172473,83.34011,-110.3957,-93.10179,0.001067912,-0.1257102,0.09433498,0,0.3,0,0,0.1868275,0,
6.38225E+17,24.57304,-17.58041,28.57705,-76.16876,2.319247,-142.0894,47.92096,-0.8883717,-9.082087,-78.29288,-7.715342,14.50875,0,0,0,79.38982,-134.0322,5.268205,83.34011,-110.3957,-93.10179,0.001067912,-0.1257102,0.09433498,0,0.3,0,0,0.1875864,0,
6.38225E+17,24.14896,-17.60379,29.25412,-63.71709,-0.4640697,-142.0894,47.92096,-0.8883717,-9.082087,-78.29288,-7.642097,14.50875,0,0,0,78.66019,-133.3221,7.094686,83.34011,-110.3957,-93.10179,0.001067912,-0.1257102,0.09433498,0,0.3,0,0,0.1882308,0,
6.38225E+17,23.51284,-17.60379,29.79111,-57.418,-1.269767,-142.0894,47.92096,-0.8883717,-9.082087,-78.29288,-7.642097,14.50875,0,0,0,77.1414,-132.7062,8.954383,83.34011,-110.3957,-93.10179,0.001067912,-0.1257102,0.09433498,0,0.3,0,0,0.1884624,0,
6.38225E+17,22.28772,-17.55703,30.35144,-49.87375,-1.050031,-142.1627,47.92096,-0.8883717,-9.082087,-78.29288,-7.642097,14.50875,0,0,0,73.77335,-131.949,11.63787,83.34011,-110.3957,-93.10179,0.001067912,-0.1257102,0.09433498,0,0.3,0,0,0.1887638,0,
6.38225E+17,21.93432,-17.41676,30.46818,-44.08738,1.51355,-142.0894,47.92096,-0.8883717,-9.082087,-78.29288,-7.715342,14.50875,0,0,0,72.78596,-131.5001,12.39783,83.34011,-110.3957,-93.10179,0.001067912,-0.1257102,0.09433498,0,0.3,0,0,0.1889742,0,
6.38225E+17,22.07568,-17.34663,30.53822,-40.64486,3.124943,-142.1627,47.92096,-0.8883717,-9.082087,-78.21963,-7.642097,14.50875,0,0,0,73.3028,-131.2616,12.39305,83.34011,-110.3957,-93.10179,0.001067912,-0.1257102,0.09433498,0,0.3,0,0,0.1890787,0,
6.38225E+17,22.40552,-16.85568,31.02851,-33.02736,6.274486,-142.0894,47.92096,-0.8883717,-9.082087,-78.29288,-7.715342,14.50875,0,0,0,74.84381,-129.5855,13.18502,83.34011,-110.3957,-93.10179,0.001067912,-0.1257102,0.09433498,0,0.3,0,0,0.1892735,0,
6.38225E+17,22.21704,-15.73353,31.42542,-26.58179,8.398596,-142.1627,47.92096,-0.8883717,-9.082087,-78.29288,-7.715342,14.50875,0,0,0,74.82198,-126.5999,14.83988,83.34011,-110.3957,-93.10179,0.001067912,-0.1257102,0.09433498,0,0.3,0,0,0.1893921,0,
6.38225E+17,21.60448,-14.2607,31.37873,-20.94191,10.59595,-142.1627,47.92096,-0.8883717,-9.082087,-78.29288,-7.642097,14.50875,0,0,0,73.15166,-123.3455,16.36778,83.34011,-110.3957,-93.10179,0.001067912,-0.1257102,0.09433498,0,0.3,0,0,0.1894266,0,
6.38225E+17,21.08616,-13.16193,30.88843,-17.42614,11.98761,-142.1627,47.92096,-0.8883717,-9.082087,-78.29288,-7.715342,14.50875,0,0,0,71.34434,-121.4511,16.67619,83.34011,-110.3957,-93.10179,0.001067912,-0.1257102,0.09433498,0,0.3,0,0,0.1894244,0,
6.38225E+17,20.42649,-11.89951,28.85722,-14.42309,13.74549,-142.1627,47.92096,-0.8883717,-9.082087,-78.29288,-7.642097,14.50875,0,0,0,68.00121,-120.9375,14.24136,83.34011,-110.3957,-93.10179,0.001067912,-0.1257102,0.09433498,0,0.3,0,0,0.1895001,0,
6.38225E+17,19.34273,-9.351281,22.31999,-11.85951,17.92047,-142.0162,47.92096,-0.8883717,-9.082087,-78.29288,-7.715342,14.50875,0,0,0,60.35503,-121.6767,3.585752,83.34011,-110.3957,-93.10179,0.001067912,-0.1257102,0.09433498,0,0.3,0,0,0.1900478,0,
6.38225E+17,18.61237,-7.714807,17.9307,-11.42003,20.92352,-141.7964,47.92096,-0.8883717,-9.082087,-78.29288,-7.642097,14.43551,0,0,0,55.27822,-121.4243,-4.211304,83.34011,-110.3957,-93.10179,0.001067912,-0.1257102,0.09433498,0,0.3,0,0,0.1906114,0,
6.38225E+17,15.47889,-2.805384,-0.3035145,-13.03143,33.96116,-134.3987,47.92096,-0.8883717,-9.082087,-78.29288,-7.642097,14.43551,0,0,0,35.35772,-116.5248,-40.67155,83.34011,-110.3957,-93.10179,0.001067912,-0.1257102,0.09433498,0,0.3,0,0,0.1937692,0,
6.38225E+17,14.48938,-2.407955,-6.257067,-14.13011,38.13613,-133.2267,47.92096,-0.8883717,-9.082087,-78.21963,-7.642097,14.50875,0,0,0,29.69842,-114.8082,-53.42682,83.34011,-110.3957,-93.10179,0.001067912,-0.1257102,0.09433498,0,0.3,0,0,0.195187,0,
6.38225E+17,12.74594,-4.044429,-18.93463,-16.69369,47.21854,-133.1535,47.92096,-0.8883717,-9.082087,-78.29288,-7.715342,14.50875,0,0,0,19.80079,-112.1895,-80.81428,83.34011,-110.3957,-93.10179,0.001067912,-0.1257102,0.09433498,0,0.3,0,0,0.1981308,0,
6.38225E+17,11.49726,-9.187634,-31.02851,-19.40376,56.0812,-134.6184,47.92096,-0.8883717,-9.082087,-78.29288,-7.642097,14.50875,0,0,0,12.5377,-112.2108,-106.7102,83.34011,-110.3957,-93.10179,0.001067912,-0.1257102,0.09433498,0,0.3,0,0,0.2006898,0,
6.38225E+17,11.16742,-12.81126,-36.02483,-20.57568,60.47591,-135.4973,47.92096,-0.8883717,-9.082087,-78.29288,-7.715342,14.43551,0,0,0,9.994184,-114.0675,-117.7246,83.34011,-110.3957,-93.10179,0.001067912,-0.1257102,0.09433498,0,0.3,0,0,0.2017085,0,
6.38225E+17,11.1203,-21.92875,-43.07571,-22.04058,69.26534,-136.0833,47.92096,-0.8883717,-9.082087,-78.29288,-7.642097,14.50875,0,0,0,6.293091,-123.8558,-136.3339,83.34011,-110.3957,-93.10179,0.001067912,-0.1257102,0.09433498,0,0.3,0,0,0.2030255,0,
6.38225E+17,11.33234,-30.8826,-46.76458,-22.48005,77.98151,-136.0833,47.92096,-0.8883717,-9.082087,-78.29288,-7.642097,14.50875,0,0,0,3.397918,-136.4404,-151.3949,83.34011,-110.3957,-93.10179,0.001067912,-0.1257102,0.09433498,0,0.3,0,0,0.203661,0,
6.38225E+17,11.52082,-34.90366,-48.51562,-22.69979,82.59595,-136.0833,47.92096,-0.8883717,-9.082087,-78.29288,-7.642097,14.50875,0,0,0,1.890399,-141.2858,-159.0756,83.34011,-110.3957,-93.10179,0.001067912,-0.1257102,0.09433498,0,0.3,0,0,0.2036516,0,
6.38225E+17,12.2983,-40.30402,-51.29394,-23.21251,89.62749,-137.9877,47.92096,-0.8883717,-9.082087,-78.21963,-7.642097,14.50875,0,0,0,-0.5039214,-146.2937,-170.6615,83.34011,-110.3957,-93.10179,0.001067912,-0.1257102,0.09433498,0,0.3,0,0,0.2031354,0,
6.38225E+17,14.32446,-41.19239,-54.58591,-24.31118,94.75465,-140.2583,47.92096,-0.8883717,-9.082087,-78.29288,-7.642097,14.50875,0,0,0,-2.061467,-141.7468,-176.423,83.34011,-110.3957,-93.10179,0.001067912,-0.1257102,0.09433498,0,0.3,0,0,0.2022932,0,
6.38225E+17,18.09405,-40.42091,-55.89336,-25.70284,96.51254,-140.4048,47.92096,-0.8883717,-9.082087,-78.29288,-7.642097,14.50875,0,0,0,-2.762152,-137.8879,-176.8038,83.34011,-110.3957,-93.10179,0.001067912,-0.1257102,0.09433498,0,0.3,0,0,0.2014449,0,
6.38225E+17,21.10972,-40.49105,-55.72992,-26.28881,96.87876,-140.478,47.92096,-0.8883717,-9.082087,-78.29288,-7.715342,14.50875,0,0,0,-3.164241,-138.3267,-176.5462,83.34011,-110.3957,-93.10179,0.001067912,-0.1257102,0.09433498,0,0.3,0,0,0.2010168,0,
6.38225E+17,29.59131,-40.44429,-54.6326,-25.6296,97.0985,-141.7964,47.92096,-0.8883717,-9.082087,-78.29288,-7.642097,14.50875,0,0,0,-3.583547,-140.3405,-174.6604,83.34011,-110.3957,-93.10179,0.001067912,-0.1257102,0.09433498,0,0.3,0,0,0.200187,0,
6.38225E+17,39.88701,-40.44429,-51.87762,-21.23489,96.36604,-142.0162,47.92096,-0.8883717,-9.082087,-78.29288,-7.642097,14.50875,0,0,0,-2.19403,-145.478,-170.9752,83.34011,-110.3957,-93.10179,0.001067912,-0.1257102,0.09433498,0,0.3,0,0,0.1994688,0,
6.38225E+17,51.33715,-40.44429,-46.85796,-12.88494,94.09544,-142.1627,47.92096,-0.8883717,-9.082087,-78.29288,-7.642097,14.50875,0,0,0,3.26704,-154.3412,-165.7361,83.34011,-110.3957,-93.10179,0.001067912,-0.1257102,0.09433498,0,0.3,0,0,0.1989773,0,
6.38225E+17,60.5491,-40.3274,-40.43747,-3.656047,90.43319,-142.0894,47.92096,-0.8883717,-9.082087,-78.29288,-7.642097,14.50875,0,0,0,13.20742,-164.4426,-160.8925,83.34011,-110.3957,-93.10179,0.001067912,-0.1257102,0.09433498,0,0.3,0,0,0.1987889,0,
6.38225E+17,64.60141,-40.04686,-36.79529,1.471115,87.94285,-142.0894,47.92096,-0.8883717,-9.082087,-78.29288,-7.642097,14.50875,0,0,0,20.06409,-169.2333,-158.8235,83.34011,-110.3957,-93.10179,0.001067912,-0.1257102,0.09433498,0,0.3,0,0,0.1988204,0,
6.38225E+17,69.80817,-39.20525,-30.53822,10.11404,82.96217,-142.1627,47.92096,-0.8883717,-9.082087,-78.29288,-7.642097,14.50875,0,0,0,33.38794,-175.7936,-156.071,83.34011,-110.3957,-93.10179,0.001067912,-0.1257102,0.09433498,0,0.3,0,0,0.1990979,0,
6.38225E+17,70.58564,-38.2935,-28.01672,16.48637,78.86045,-142.1627,47.92096,-0.8883717,-9.082087,-78.29288,-7.715342,14.43551,0,0,0,39.63159,-177.0084,-154.3824,83.34011,-110.3957,-93.10179,0.001067912,-0.1257102,0.09433498,0,0.3,0,0,0.1996082,0,
6.38225E+17,70.09088,-37.82593,-28.01672,18.24426,77.54203,-142.1627,47.92096,-0.8883717,-9.082087,-78.29288,-7.642097,14.43551,0,0,0,40.14026,-176.1516,-153.8122,83.34011,-110.3957,-93.10179,0.001067912,-0.1257102,0.09433498,0,0.3,0,0,0.199899,0,
6.38225E+17,68.34745,-36.70378,-29.02065,20.44161,76.44335,-142.1627,47.92096,-0.8883717,-9.082087,-78.29288,-7.642097,14.50875,0,0,0,39.24101,-172.9576,-152.7717,83.34011,-110.3957,-93.10179,0.001067912,-0.1257102,0.09433498,0,0.3,0,0,0.2005725,0,
6.38225E+17,64.22446,-35.67514,-32.82626,21.76003,76.95608,-141.8697,47.92096,-0.8883717,-9.082087,-78.29288,-7.642097,14.50875,0,0,0,32.45143,-166.4747,-152.6794,83.34011,-110.3957,-93.10179,0.001067912,-0.1257102,0.09433498,0,0.3,0,0,0.2013046,0,
6.38225E+17,56.49679,-34.83352,-38.35956,21.17406,78.20124,-134.6184,47.92096,-0.8883717,-9.082087,-78.29288,-7.715342,14.50875,0,0,0,22.26345,-157.3827,-153.6124,83.34011,-110.3957,-93.10179,0.001067912,-0.1257102,0.09433498,0,0.3,0,0,0.2019685,0,
6.38225E+17,51.1958,-34.3192,-40.9978,19.78241,79.15343,-128.9053,47.92096,-0.8883717,-9.082087,-78.29288,-7.642097,14.50875,0,0,0,17.65362,-152.477,-154.154,83.34011,-110.3957,-93.10179,0.001067912,-0.1257102,0.09433498,0,0.3,0,0,0.2022514,0,
6.38225E+17,37.76662,-32.86975,-44.17303,14.94823,81.49727,-117.5523,47.92096,-0.8883717,-9.082087,-78.29288,-7.715342,14.50875,0,0,0,11.68522,-144.667,-153.2674,83.34011,-110.3957,-93.10179,0.001067912,-0.1257102,0.09433498,0,0.3,0,0,0.2027759,0,
6.38225E+17,22.52332,-31.28004,-43.58934,7.184238,82.81569,-107.0782,47.92096,-0.8883717,-9.082087,-78.29288,-7.642097,14.50875,0,0,0,8.436276,-142.4736,-148.0065,83.34011,-110.3957,-93.10179,0.001067912,-0.1257102,0.09433498,0,0.3,0,0,0.20335,0,
6.38225E+17,14.7721,-30.48518,-41.88499,1.69085,82.59595,-103.2695,47.92096,-0.8883717,-9.082087,-78.29288,-7.715342,14.43551,0,0,0,6.600351,-143.5778,-143.3193,83.34011,-110.3957,-93.10179,0.001067912,-0.1257102,0.09433498,0,0.3,0,0,0.2036643,0,
6.38225E+17,0.7303588,-28.94222,-36.07153,-12.88494,80.17886,-99.75371,47.92096,-0.8883717,-9.082087,-78.29288,-7.642097,14.43551,0,0,0,0.4866723,-148.9662,-130.1732,83.34011,-110.3957,-93.10179,0.001067912,-0.1257102,0.09433498,0,0.3,0,0,0.2042469,0,
6.38225E+17,-9.518225,-27.63304,-28.81053,-29.07212,75.27144,-99.75371,47.92096,-0.8883717,-9.082087,-78.29288,-7.642097,14.43551,0,0,0,-8.909053,-155.3423,-115.2154,83.34011,-110.3957,-93.10179,0.001067912,-0.1257102,0.09433498,0,0.3,0,0,0.2045584,0,
6.38225E+17,-13.26426,-27.07196,-24.7481,-37.6418,72.12189,-101.8046,47.92096,-0.8883717,-9.082087,-78.29288,-7.642097,14.50875,0,0,0,-14.43546,-158.4415,-107.1131,83.34011,-110.3957,-93.10179,0.001067912,-0.1257102,0.09433498,0,0.3,0,0,0.2045317,0,
6.38225E+17,-17.01029,-26.39399,-18.3743,-51.63163,66.40877,-106.0528,47.92096,-0.8883717,-9.082087,-78.29288,-7.642097,14.50875,0,0,0,-22.64706,-162.4811,-94.32236,83.34011,-110.3957,-93.10179,0.001067912,-0.1257102,0.09433498,0,0.3,0,0,0.2041322,0,
6.38225E+17,-17.55217,-25.48224,-16.2497,-61.59297,62.16055,-107.2247,47.92096,-0.8883717,-9.082087,-78.29288,-7.642097,14.50875,0,0,0,-25.04965,-162.0442,-89.15417,83.34011,-110.3957,-93.10179,0.001067912,-0.1257102,0.09433498,0,0.3,0,0,0.2035386,0,
6.38225E+17,-16.39773,-23.65874,-17.69723,-66.72014,60.18293,-106.0528,47.92096,-0.8883717,-9.082087,-78.29288,-7.642097,14.50875,0,0,0,-23.03752,-157.2012,-90.06378,83.34011,-110.3957,-93.10179,0.001067912,-0.1257102,0.09433498,0,0.3,0,0,0.2030875,0,
6.38225E+17,-15.29041,-22.46645,-19.49497,-68.11179,59.74346,-105.1006,47.92096,-0.8883717,-9.082087,-78.29288,-7.715342,14.50875,0,0,0,-20.76125,-153.3138,-92.40973,83.34011,-110.3957,-93.10179,0.001067912,-0.1257102,0.09433498,0,0.3,0,0,0.2029944,0,
6.38225E+17,-10.93182,-19.61431,-25.54191,-68.40478,59.74346,-104.3682,47.92096,-0.8883717,-9.082087,-78.29288,-7.642097,14.50875,0,0,0,-12.91748,-141.7316,-101.4706,83.34011,-110.3957,-93.10179,0.001067912,-0.1257102,0.09433498,0,0.3,0,0,0.2032288,0,
6.38225E+17,-1.979037,-15.71015,-31.72893,-61.9592,61.20837,-104.2949,47.92096,-0.8883717,-9.082087,-78.29288,-7.642097,14.50875,0,0,0,-2.011238,-126.1776,-110.1451,83.34011,-110.3957,-93.10179,0.001067912,-0.1257102,0.09433498,0,0.3,0,0,0.2040943,0,
6.38225E+17,3.675354,-12.50734,-32.406,-55.44038,62.30704,-103.5625,47.92096,-0.8883717,-9.082087,-78.29288,-7.642097,14.50875,0,0,0,3.764199,-118.1125,-109.7497,83.34011,-110.3957,-93.10179,0.001067912,-0.1257102,0.09433498,0,0.3,0,0,0.2053657,0,
6.38225E+17,10.48418,-6.38225,-30.2814,-45.40579,63.03949,-102.6103,47.92096,-0.8883717,-9.082087,-78.21963,-7.642097,14.50875,0,0,0,11.87901,-106.629,-104.1577,83.34011,-110.3957,-93.10179,0.001067912,-0.1257102,0.09433498,0,0.3,0,0,0.2070939,0,
6.38225E+17,13.49986,-2.197551,-27.57312,-40.35188,62.60002,-102.537,47.92096,-0.8883717,-9.082087,-78.21963,-7.715342,14.43551,0,0,0,16.69744,-99.96754,-98.7994,83.34011,-110.3957,-93.10179,0.001067912,-0.1257102,0.09433498,0,0.3,0,0,0.2081294,0,
6.38225E+17,18.54169,7.995345,-18.28091,-31.04974,58.71803,-103.7822,47.92096,-0.8883717,-9.082087,-78.29288,-7.642097,14.50875,0,0,0,28.69108,-84.72182,-82.8083,83.34011,-110.3957,-93.10179,0.001067912,-0.1257102,0.09433498,0,0.3,0,0,0.2104497,0,
6.38225E+17,21.62804,17.65055,-6.023595,-23.87171,50.0751,-109.4221,47.92096,-0.8883717,-9.082087,-78.29288,-7.715342,14.50875,0,0,0,41.67857,-68.8306,-63.23231,83.34011,-110.3957,-93.10179,0.001067912,-0.1257102,0.09433498,0,0.3,0,0,0.2126497,0,
6.38225E+17,22.38196,21.46119,0.9105434,-20.94191,43.62952,-113.89,47.92096,-0.8883717,-9.082087,-78.29288,-7.642097,14.50875,0,0,0,48.06324,-61.19427,-51.63555,83.34011,-110.3957,-93.10179,0.001067912,-0.1257102,0.09433498,0,0.3,0,0,0.2135067,0,
6.38225E+17,22.45264,25.90305,13.37798,-17.57263,27.58883,-121.947,47.92096,-0.8883717,-9.082087,-78.29288,-7.715342,14.50875,0,0,0,57.59603,-48.12763,-28.97516,83.34011,-110.3957,-93.10179,0.001067912,-0.1257102,0.09433498,0,0.3,0,0,0.2144773,0,
6.38225E+17,22.2406,26.55764,19.49497,-18.15859,11.98761,-123.7049,47.92096,-0.8883717,-9.082087,-78.29288,-7.642097,14.50875,0,0,0,61.99084,-42.73465,-16.75325,83.34011,-110.3957,-93.10179,0.001067912,-0.1257102,0.09433498,0,0.3,0,0,0.2147379,0,
6.38225E+17,22.14636,26.53426,19.72844,-19.03753,5.835015,-123.7781,47.92096,-0.8883717,-9.082087,-78.29288,-7.642097,14.50875,0,0,0,61.94354,-42.60094,-16.15487,83.34011,-110.3957,-93.10179,0.001067912,-0.1257102,0.09433498,0,0.3,0,0,0.214804,0,
6.38225E+17,21.67517,26.69791,16.73999,-19.40376,0.4148723,-123.7781,47.92096,-0.8883717,-9.082087,-78.29288,-7.642097,14.50875,0,0,0,58.18716,-44.43652,-21.94743,83.34011,-110.3957,-93.10179,0.001067912,-0.1257102,0.09433498,0,0.3,0,0,0.2150781,0,
6.38225E+17,20.66209,26.46413,8.755224,-19.18402,0.8543434,-122.4597,47.92096,-0.8883717,-9.082087,-78.29288,-7.642097,14.43551,0,0,0,49.28492,-49.02041,-37.65977,83.34011,-110.3957,-93.10179,0.001067912,-0.1257102,0.09433498,0,0.3,0,0,0.2157972,0,
6.38225E+17,19.67257,22.51321,-3.24527,-18.8178,6.933692,-119.0904,47.92096,-0.8883717,-9.082087,-78.29288,-7.642097,14.50875,0,0,0,38.92908,-58.72691,-59.46104,83.34011,-110.3957,-93.10179,0.001067912,-0.1257102,0.09433498,0,0.3,0,0,0.2171475,0,
6.38225E+17,18.68305,11.52545,-16.85673,-18.96429,18.72616,-118.065,47.92096,-0.8883717,-9.082087,-78.29288,-7.715342,14.50875,0,0,0,29.46817,-77.62657,-81.20515,83.34011,-110.3957,-93.10179,0.001067912,-0.1257102,0.09433498,0,0.3,0,0,0.2190598,0,
6.38225E+17,18.51813,6.358871,-20.68568,-19.18402,23.63359,-117.8453,47.92096,-0.8883717,-9.082087,-78.29288,-7.642097,14.50875,0,0,0,27.13135,-86.63399,-87.34813,83.34011,-110.3957,-93.10179,0.001067912,-0.1257102,0.09433498,0,0.3,0,0,0.2201445,0,
6.38225E+17,18.56525,-8.907095,-26.9194,-19.55025,37.62342,-117.0396,47.92096,-0.8883717,-9.082087,-78.29288,-7.642097,14.50875,0,0,0,22.72293,-116.1977,-100.6945,83.34011,-110.3957,-93.10179,0.001067912,-0.1257102,0.09433498,0,0.3,0,0,0.2223314,0,
6.38225E+17,18.61237,-24.05617,-28.06341,-19.40376,52.12596,-116.6001,47.92096,-0.8883717,-9.082087,-78.29288,-7.715342,14.50875,0,0,0,18.84144,-148.6794,-112.4037,83.34011,-110.3957,-93.10179,0.001067912,-0.1257102,0.09433498,0,0.3,0,0,0.223913,0,
6.38225E+17,18.58881,-37.66228,-25.28509,-19.25727,64.57764,-116.6733,47.92096,-0.8883717,-9.082087,-78.29288,-7.642097,14.50875,0,0,0,15.4945,-178.7019,-122.2793,83.34011,-110.3957,-93.10179,0.001067912,-0.1257102,0.09433498,0,0.3,0,0,0.2244364,0,
6.38225E+17,18.44745,-41.51969,-23.88425,-19.18402,68.67937,-117.0396,47.92096,-0.8883717,-9.082087,-78.29288,-7.642097,14.43551,0,0,0,14.50877,-186.9753,-124.8553,83.34011,-110.3957,-93.10179,0.001067912,-0.1257102,0.09433498,0,0.3,0,0,0.2243987,0,
6.38225E+17,18.42389,-39.36889,-28.67044,-19.18402,75.0517,-121.947,47.92096,-0.8883717,-9.082087,-78.29288,-7.642097,14.50875,0,0,0,12.3613,-178.2358,-131.2422,83.34011,-110.3957,-93.10179,0.001067912,-0.1257102,0.09433498,0,0.3,0,0,0.2243752,0,
6.38225E+17,18.73017,-34.95041,-28.95061,-19.55025,78.71396,-125.1698,47.92096,-0.8883717,-9.105433,-78.29288,-7.642097,14.43551,0,0,0,14.37016,-169.7281,-125.9687,83.30029,-110.3871,-93.13775,0.001067912,-0.1257102,0.09433498,0,0.3,0,0,0.2247028,0,
6.38225E+17,19.15425,-27.21223,-28.69379,-19.69674,81.13105,-125.3163,47.94452,-0.8883717,-9.082087,-78.29288,-7.715342,14.50875,0,0,0,17.90363,-154.6037,-116.8053,83.37105,-110.3957,-93.13606,0.001067912,-0.1257102,0.09433498,0,0.3,0,0,0.2255866,0,
6.38225E+17,19.71969,-18.84283,-28.88057,-19.62349,81.64377,-124.8036,47.92096,-0.8883717,-9.082087,-78.29288,-7.715342,14.43551,0,0,0,20.8516,-136.4835,-110.1767,83.34011,-110.3957,-93.10179,0.001067912,-0.1257102,0.09433498,0,0.3,0,0,0.2264092,0,
6.38225E+17,20.82701,-4.511993,-27.73655,-19.11078,79.37316,-124.8768,47.94452,-0.8883717,-9.082087,-78.29288,-7.788587,14.50875,0,0,0,25.19934,-105.168,-102.1063,83.37105,-110.3957,-93.13606,0.001067912,-0.1257102,0.09433498,0,0.3,0,0,0.2284123,0,
6.38225E+17,21.81652,14.00354,-19.12141,-18.37833,70.87672,-128.5391,47.94452,-0.8883717,-9.082087,-78.29288,-7.788587,14.50875,0,0,0,31.85116,-70.37434,-88.78298,83.37105,-110.3957,-93.13606,0.001067912,-0.1257102,0.09433498,0,0.3,0,0,0.2303474,0,
6.38225E+17,21.84008,22.81713,-11.79037,-17.93885,63.55221,-133.0803,47.94452,-0.8883717,-9.082087,-78.29288,-7.788587,14.50875,0,0,0,35.58993,-55.4746,-79.54906,83.37105,-110.3957,-93.13606,0.001067912,-0.1257102,0.09433498,0,0.3,0,0,0.2310482,0,
6.38225E+17,21.34533,34.45947,1.751045,-18.0121,43.99575,-141.7964,47.94452,-0.8883717,-9.082087,-78.29288,-7.715342,14.43551,0,0,0,41.50388,-34.48521,-62.14636,83.37105,-110.3957,-93.13606,0.001067912,-0.1257102,0.09433498,0,0.3,0,0,0.2318322,0,
6.38225E+17,20.54428,37.28823,6.49054,-21.23489,23.56034,-142.1627,47.94452,-0.8883717,-9.082087,-78.29288,-7.788587,14.50875,0,0,0,42.5212,-28.35853,-54.88931,83.37105,-110.3957,-93.13606,0.001067912,-0.1257102,0.09433498,0,0.3,0,0,0.2321262,0,
6.38225E+17,19.90817,35.72189,2.965103,-24.89715,12.86655,-141.6499,47.94452,-0.8883717,-9.082087,-78.29288,-7.715342,14.50875,0,0,0,39.21337,-31.96488,-60.07249,83.37105,-110.3957,-93.13606,0.001067912,-0.1257102,0.09433498,0,0.3,0,0,0.2324767,0,
6.38225E+17,19.69613,34.17893,-0.1400836,-25.70284,11.62138,-139.5991,47.94452,-0.8883717,-9.082087,-78.29288,-7.788587,14.43551,0,0,0,37.07103,-35.08634,-64.79259,83.37105,-110.3957,-93.13606,0.001067912,-0.1257102,0.09433498,0,0.3,0,0,0.2327443,0,
6.38225E+17,19.27205,28.89546,-8.661836,-25.70284,13.96523,-131.9083,47.94452,-0.8883717,-9.082087,-78.29288,-7.715342,14.43551,0,0,0,31.90482,-44.04261,-77.10146,83.37105,-110.3957,-93.13606,0.001067912,-0.1257102,0.09433498,0,0.3,0,0,0.233512,0,
6.38225E+17,18.82441,18.88959,-18.8179,-24.97039,21.43624,-125.536,47.94452,-0.8883717,-9.082087,-78.29288,-7.788587,14.43551,0,0,0,26.83146,-59.70079,-89.64302,83.37105,-110.3957,-93.13606,0.001067912,-0.1257102,0.09433498,0,0.3,0,0,0.2346861,0,
6.38225E+17,18.77729,5.610769,-25.65865,-24.09145,32.20328,-119.9694,47.94452,-0.8883717,-9.082087,-78.29288,-7.715342,14.50875,0,0,0,24.13194,-83.81271,-97.37067,83.37105,-110.3957,-93.13606,0.001067912,-0.1257102,0.09433498,0,0.3,0,0,0.2362762,0,
6.38225E+17,18.94221,-1.519583,-26.73262,-23.50549,38.50236,-116.9663,47.94452,-0.8883717,-9.082087,-78.29288,-7.715342,14.50875,0,0,0,23.80027,-99.2832,-99.00186,83.37105,-110.3957,-93.13606,0.001067912,-0.1257102,0.09433498,0,0.3,0,0,0.2372139,0,
6.38225E+17,19.48409,-14.7984,-24.46794,-21.82085,51.39351,-110.0813,47.94452,-0.8883717,-9.082087,-78.29288,-7.788587,14.43551,0,0,0,24.58074,-132.0844,-98.87481,83.37105,-110.3957,-93.13606,0.001067912,-0.1257102,0.09433498,0,0.3,0,0,0.2390486,0,
6.38225E+17,19.95529,-24.19644,-20.00861,-19.477,62.60002,-103.7089,47.94452,-0.8883717,-9.082087,-78.29288,-7.715342,14.50875,0,0,0,25.94032,-156.6068,-96.90614,83.37105,-110.3957,-93.13606,0.001067912,-0.1257102,0.09433498,0,0.3,0,0,0.2404553,0,
6.38225E+17,19.97885,-26.16021,-18.7712,-18.15859,66.6285,-101.4383,47.94452,-0.8883717,-9.082087,-78.29288,-7.715342,14.50875,0,0,0,26.23353,-161.699,-96.1911,83.37105,-110.3957,-93.13606,0.001067912,-0.1257102,0.09433498,0,0.3,0,0,0.241029,0,
6.38225E+17,19.79037,-24.64063,-18.91129,-15.96124,72.41488,-99.31424,47.94452,-0.8883717,-9.082087,-78.29288,-7.642097,14.50875,0,0,0,26.40516,-158.399,-94.96814,83.37105,-110.3957,-93.13606,0.001067912,-0.1257102,0.09433498,0,0.3,0,0,0.2422125,0,
6.38225E+17,19.67257,-17.4869,-20.0553,-14.86256,74.68548,-99.09451,47.94452,-0.8883717,-9.082087,-78.29288,-7.715342,14.50875,0,0,0,27.42239,-141.984,-91.64655,83.37105,-110.3957,-93.13606,0.001067912,-0.1257102,0.09433498,0,0.3,0,0,0.2437457,0,
6.38225E+17,20.00241,-0.8416153,-17.11355,-14.9358,70.58374,-106.5655,47.94452,-0.8883717,-9.082087,-78.29288,-7.715342,14.50875,0,0,0,32.18617,-106.0544,-79.93078,83.37105,-110.3957,-93.13606,0.001067912,-0.1257102,0.09433498,0,0.3,0,0,0.2457265,0,
6.38225E+17,20.28513,7.761563,-12.21062,-15.08229,65.52982,-112.7181,47.94452,-0.8883717,-9.082087,-78.29288,-7.715342,14.43551,0,0,0,36.02964,-88.97414,-70.87146,83.37105,-110.3957,-93.13606,0.001067912,-0.1257102,0.09433498,0,0.3,0,0,0.2477279,0,
6.38225E+17,20.49717,18.91297,-2.358074,-14.78931,52.93166,-116.6001,47.94452,-0.8883717,-9.082087,-78.29288,-7.715342,14.50875,0,0,0,42.25186,-66.66414,-55.32522,83.37105,-110.3957,-93.13606,0.001067912,-0.1257102,0.09433498,0,0.3,0,0,0.2492121,0,
6.38225E+17,20.40293,22.81713,2.451463,-14.34984,44.50846,-117.2593,47.94452,-0.8883717,-9.082087,-78.29288,-7.715342,14.43551,0,0,0,44.83907,-58.16602,-47.80022,83.37105,-110.3957,-93.13606,0.001067912,-0.1257102,0.09433498,0,0.3,0,0,0.2496958,0,
6.38225E+17,20.07309,25.92643,6.934138,-13.61739,29.20022,-117.9918,47.94452,-0.8883717,-9.082087,-78.29288,-7.715342,14.50875,0,0,0,46.68742,-50.72178,-40.58469,83.37105,-110.3957,-93.13606,0.001067912,-0.1257102,0.09433498,0,0.3,0,0,0.2503676,0,
6.38225E+17,19.95529,25.41211,4.202508,-13.61739,19.53186,-117.9918,47.94452,-0.8883717,-9.082087,-78.29288,-7.715342,14.43551,0,0,0,44.44229,-52.41751,-45.94869,83.37105,-110.3957,-93.13606,0.001067912,-0.1257102,0.09433498,0,0.3,0,0,0.2510539,0,
6.38225E+17,19.95529,24.59387,1.587614,-13.76388,17.92047,-117.8453,47.94452,-0.8883717,-9.082087,-78.29288,-7.715342,14.50875,0,0,0,42.64279,-54.45074,-50.90481,83.37105,-110.3957,-93.13606,0.001067912,-0.1257102,0.09433498,0,0.3,0,0,0.2514874,0,
6.38225E+17,19.95529,21.95213,-5.159746,-14.05686,19.09239,-116.4536,47.94452,-0.8883717,-9.082087,-78.29288,-7.715342,14.50875,0,0,0,38.11801,-59.60917,-63.36679,83.37105,-110.3957,-93.13606,0.001067912,-0.1257102,0.09433498,0,0.3,0,0,0.2525563,0,
6.38225E+17,19.88461,17.90771,-13.16786,-14.2766,23.78008,-114.9887,47.94452,-0.8883717,-9.082087,-78.29288,-7.715342,14.43551,0,0,0,32.82628,-65.49075,-77.59223,83.37105,-110.3957,-93.13606,0.001067912,-0.1257102,0.09433498,0,0.3,0,0,0.2538286,0,
6.38225E+17,19.74325,12.71774,-19.6117,-14.2766,29.41996,-114.0365,47.94452,-0.8883717,-9.082087,-78.29288,-7.715342,14.50875,0,0,0,28.8217,-72.90745,-88.04517,83.37105,-110.3957,-93.13606,0.001067912,-0.1257102,0.09433498,0,0.3,0,0,0.2545419,0,
6.38225E+17,19.62545,6.966705,-23.95429,-13.98362,35.49931,-112.2054,47.94452,-0.8883717,-9.082087,-78.29288,-7.715342,14.43551,0,0,0,26.2732,-82.34016,-94.66986,83.37105,-110.3957,-93.13606,0.001067912,-0.1257102,0.09433498,0,0.3,0,0,0.2560264,0,
6.38225E+17,19.60189,-0.4441859,-26.24233,-13.10467,44.21548,-108.3234,47.94452,-0.8883717,-9.082087,-78.29288,-7.642097,14.50875,0,0,0,24.95414,-97.28967,-98.27794,83.37105,-110.3957,-93.13606,0.001067912,-0.1257102,0.09433498,0,0.3,0,0,0.2576388,0,
6.38225E+17,19.60189,-4.488615,-23.93095,-12.15249,52.12596,-105.1739,47.94452,-0.8883717,-9.082087,-78.29288,-7.715342,14.50875,0,0,0,26.45265,-108.9727,-94.07008,83.37105,-110.3957,-93.13606,0.001067912,-0.1257102,0.09433498,0,0.3,0,0,0.2593617,0,
6.38225E+17,19.62545,-3.24957,-18.21087,-11.34679,56.66716,-103.4892,47.94452,-0.8883717,-9.082087,-78.29288,-7.715342,14.43551,0,0,0,30.71924,-110.8799,-82.20146,83.37105,-110.3957,-93.13606,0.001067912,-0.1257102,0.09433498,0,0.3,0,0,0.2611911,0,
6.38225E+17,19.69613,-1.472827,-14.87221,-11.12705,56.96014,-103.1962,47.94452,-0.8883717,-9.082087,-78.29288,-7.715342,14.50875,0,0,0,33.39302,-108.9603,-75.06703,83.37105,-110.3957,-93.13606,0.001067912,-0.1257102,0.09433498,0,0.3,0,0,0.2621252,0,
6.38225E+17,19.79037,3.623622,-5.673386,-10.76083,53.66411,-103.0497,47.94452,-0.8883717,-9.082087,-78.29288,-7.715342,14.50875,0,0,0,40.59596,-100.9188,-55.53086,83.37105,-110.3957,-93.13606,0.001067912,-0.1257102,0.09433498,0,0.3,0,0,0.2638726,0,
6.38225E+17,19.62545,8.182371,7.307694,-10.32136,44.65495,-103.1962,47.94452,-0.8883717,-9.082087,-78.29288,-7.715342,14.50875,0,0,0,50.02929,-89.93789,-28.04867,83.37105,-110.3957,-93.13606,0.001067912,-0.1257102,0.09433498,0,0.3,0,0,0.2650402,0,
6.38225E+17,18.65949,9.678576,20.56894,-9.66215,30.15241,-104.0752,47.94452,-0.8883717,-9.082087,-78.29288,-7.715342,14.50875,0,0,0,57.04663,-79.08005,0.5802068,83.37105,-110.3957,-93.13606,0.001067912,-0.1257102,0.09433498,0,0.3,0,0,0.2652279,0,
6.38225E+17,17.88201,9.327903,25.82208,-9.735395,21.50948,-104.7344,47.94452,-0.8883717,-9.082087,-78.21963,-7.715342,14.50875,0,0,0,58.23997,-75.07118,12.15818,83.37105,-110.3957,-93.13606,0.001067912,-0.1257102,0.09433498,0,0.3,0,0,0.2649729,0,
6.38225E+17,16.89249,8.766827,30.49153,-13.25116,7.592898,-102.0975,47.94452,-0.8883717,-9.082087,-78.21963,-7.715342,14.43551,0,0,0,57.95708,-71.23389,22.49913,83.37105,-110.3957,-93.13606,0.001067912,-0.1257102,0.09433498,0,0.3,0,0,0.2641246,0,
6.38225E+17,16.56265,9.327903,30.2814,-19.98972,-0.9767859,-95.94496,47.94452,-0.8883717,-9.082087,-78.29288,-7.715342,14.50875,0,0,0,56.67866,-70.19167,22.22843,83.37105,-110.3957,-93.13606,0.001067912,-0.1257102,0.09433498,0,0.3,0,0,0.2631895,0,
6.38225E+17,16.56265,9.795467,28.90392,-22.48005,-2.954405,-94.33356,47.94452,-0.8883717,-9.082087,-78.29288,-7.715342,14.50875,0,0,0,55.83245,-70.70175,19.38313,83.37105,-110.3957,-93.13606,0.001067912,-0.1257102,0.09433498,0,0.3,0,0,0.2627811,0,
6.38225E+17,16.70401,9.538307,20.47555,-23.65198,-2.148709,-93.01515,47.94452,-0.8883717,-9.082087,-78.29288,-7.715342,14.50875,0,0,0,51.20617,-79.47813,2.285647,83.37105,-110.3957,-93.13606,0.001067912,-0.1257102,0.09433498,0,0.3,0,0,0.2623947,0,
6.38225E+17,17.03385,6.171845,12.67757,-21.82085,4.370111,-92.86866,47.94452,-0.8883717,-9.082087,-78.29288,-7.715342,14.50875,0,0,0,47.40965,-92.41243,-13.60709,83.37105,-110.3957,-93.13606,0.001067912,-0.1257102,0.09433498,0,0.3,0,0,0.2626794,0,
6.38225E+17,17.17521,3.38984,9.408949,-20.72217,9.131048,-92.86866,47.94452,-0.8883717,-9.082087,-78.29288,-7.788587,14.50875,0,0,0,45.7461,-100.3211,-20.34158,83.37105,-110.3957,-93.13606,0.001067912,-0.1257102,0.09433498,0,0.3,0,0,0.2630212,0,
6.38225E+17,17.31657,-2.969032,2.614894,-18.8178,19.60511,-92.57568,47.94452,-0.8883717,-9.082087,-78.29288,-7.715342,14.50875,0,0,0,41.44933,-116.7682,-35.40697,83.37105,-110.3957,-93.13606,0.001067912,-0.1257102,0.09433498,0,0.3,0,0,0.2640136,0,
6.38225E+17,17.31657,-9.865602,-4.669453,-17.05991,31.61732,-91.84323,47.94452,-0.8883717,-9.082087,-78.29288,-7.715342,14.50875,0,0,0,35.87362,-132.4053,-53.29028,83.37105,-110.3957,-93.13606,0.001067912,-0.1257102,0.09433498,0,0.3,0,0,0.2652699,0,
6.38225E+17,17.29301,-15.59326,-10.73974,-15.44852,43.2633,-91.62349,47.94452,-0.8883717,-9.082087,-78.29288,-7.715342,14.50875,0,0,0,30.79372,-143.5096,-69.44026,83.37105,-110.3957,-93.13606,0.001067912,-0.1257102,0.09433498,0,0.3,0,0,0.2665378,0,
6.38225E+17,17.24589,-20.54944,-16.83338,-14.34984,53.66411,-92.13622,47.94452,-0.8883717,-9.082087,-78.21963,-7.715342,14.50875,0,0,0,25.57025,-151.094,-85.97947,83.37105,-110.3957,-93.13606,0.001067912,-0.1257102,0.09433498,0,0.3,0,0,0.267658,0,
6.38225E+17,17.22233,-22.72361,-19.6584,-13.98362,58.27856,-93.67436,47.94452,-0.8883717,-9.082087,-78.29288,-7.715342,14.50875,0,0,0,23.13535,-153.739,-93.71475,83.37105,-110.3957,-93.13606,0.001067912,-0.1257102,0.09433498,0,0.3,0,0,0.2681318,0,
6.38225E+17,16.98673,-26.18359,-24.88819,-13.83713,66.70175,-99.68047,47.94452,-0.8883717,-9.082087,-78.29288,-7.715342,14.43551,0,0,0,18.565,-156.4564,-107.5763,83.37105,-110.3957,-93.13606,0.001067912,-0.1257102,0.09433498,0,0.3,0,0,0.2688929,0,
6.38225E+17,16.75113,-28.12398,-29.23078,-14.64282,72.56136,-106.2725,47.94452,-0.8883717,-9.082087,-78.29288,-7.715342,14.50875,0,0,0,15.12747,-155.8779,-118.0905,83.37105,-110.3957,-93.13606,0.001067912,-0.1257102,0.09433498,0,0.3,0,0,0.2694386,0,
6.38225E+17,16.82181,-29.36302,-33.85353,-15.81474,77.10256,-112.1321,47.94452,-0.8883717,-9.082087,-78.29288,-7.715342,14.50875,0,0,0,12.13527,-152.7794,-128.2113,83.37105,-110.3957,-93.13606,0.001067912,-0.1257102,0.09433498,0,0.3,0,0,0.2698322,0,
6.38225E+17,16.89249,-29.76045,-36.32835,-16.40071,79.15343,-115.9409,47.94452,-0.8883717,-9.082087,-78.29288,-7.715342,14.50875,0,0,0,10.6828,-150.2731,-133.1722,83.37105,-110.3957,-93.13606,0.001067912,-0.1257102,0.09433498,0,0.3,0,0,0.2699728,0,
6.38225E+17,17.05741,-29.85397,-38.8732,-17.27965,81.64377,-122.6794,47.94452,-0.8883717,-9.082087,-78.29288,-7.715342,14.50875,0,0,0,9.375916,-146.8483,-137.7923,83.37105,-110.3957,-93.13606,0.001067912,-0.1257102,0.09433498,0,0.3,0,0,0.2702013,0,
6.38225E+17,17.41081,-29.08249,-38.54634,-17.93885,83.54814,-124.2908,47.94452,-0.8883717,-9.082087,-78.29288,-7.715342,14.43551,0,0,0,10.00614,-145.7608,-136.4415,83.37105,-110.3957,-93.13606,0.001067912,-0.1257102,0.09433498,0,0.3,0,0,0.270449,0,
6.38225E+17,17.66997,-28.03047,-37.42567,-17.93885,84.20734,-122.24,47.94452,-0.8883717,-9.082087,-78.29288,-7.715342,14.43551,0,0,0,11.12959,-145.2155,-133.4132,83.37105,-110.3957,-93.13606,0.001067912,-0.1257102,0.09433498,0,0.3,0,0,0.2706276,0,
6.38225E+17,18.30609,-24.14968,-33.3399,-16.91342,84.72006,-114.0365,47.94452,-0.8883717,-9.082087,-78.29288,-7.715342,14.43551,0,0,0,15.19879,-142.6103,-122.4095,83.37105,-110.3957,-93.13606,0.001067912,-0.1257102,0.09433498,0,0.3,0,0,0.2712052,0,
6.38225E+17,18.91865,-18.32851,-26.73262,-14.86256,83.10867,-104.8809,47.94452,-0.8883717,-9.082087,-78.29288,-7.715342,14.50875,0,0,0,21.59358,-137.6808,-105.3472,83.37105,-110.3957,-93.13606,0.001067912,-0.1257102,0.09433498,0,0.3,0,0,0.2721846,0,
6.38225E+17,19.27205,-10.80073,-15.61932,-12.29898,76.88283,-96.75066,47.94452,-0.8883717,-9.082087,-78.29288,-7.715342,14.50875,0,0,0,31.38282,-130.0646,-78.59438,83.37105,-110.3957,-93.13606,0.001067912,-0.1257102,0.09433498,0,0.3,0,0,0.2735621,0,
6.38225E+17,19.24849,-6.63941,-6.74736,-10.90732,69.92454,-93.82085,47.94452,-0.8883717,-9.082087,-78.29288,-7.715342,14.50875,0,0,0,38.50106,-124.4944,-58.09055,83.37105,-110.3957,-93.13606,0.001067912,-0.1257102,0.09433498,0,0.3,0,0,0.2750084,0,
6.38225E+17,19.15425,-4.699019,-0.793807,-10.17487,64.50439,-93.01515,47.94452,-0.8883717,-9.082087,-78.29288,-7.715342,14.50875,0,0,0,43.00056,-120.9114,-44.551,83.37105,-110.3957,-93.13606,0.001067912,-0.1257102,0.09433498,0,0.3,0,0,0.2756174,0,
6.38225E+17,18.80085,-2.945654,11.39347,-8.783209,51.17377,-92.35595,47.94452,-0.8883717,-9.082087,-78.29288,-7.715342,14.50875,0,0,0,51.40894,-114.2249,-17.34458,83.37105,-110.3957,-93.13606,0.001067912,-0.1257102,0.09433498,0,0.3,0,0,0.2763346,0,
6.38225E+17,18.04693,-3.553487,21.47948,-7.611286,36.23176,-92.20946,47.94452,-0.8883717,-9.082087,-78.29288,-7.715342,14.50875,0,0,0,56.35873,-109.0037,4.62212,83.37105,-110.3957,-93.13606,0.001067912,-0.1257102,0.09433498,0,0.3,0,0,0.2764046,0,
6.38225E+17,17.52861,-4.16132,25.14501,-7.318305,28.98049,-92.35595,47.94452,-0.8883717,-9.082087,-78.29288,-7.715342,14.50875,0,0,0,57.12226,-107.0397,12.50372,83.37105,-110.3957,-93.13606,0.001067912,-0.1257102,0.09433498,0,0.3,0,0,0.2762354,0,
6.38225E+17,16.77469,-4.792531,28.34358,-8.124002,16.96828,-92.35595,47.94452,-0.8883717,-9.082087,-78.29288,-7.715342,14.43551,0,0,0,56.62297,-105.1547,19.49415,83.37105,-110.3957,-93.13606,0.001067912,-0.1257102,0.09433498,0,0.3,0,0,0.2756959,0,
6.38225E+17,16.89249,-4.745775,26.63923,-10.10162,10.44946,-91.25727,47.94452,-0.8883717,-9.082087,-78.29288,-7.715342,14.43551,0,0,0,55.98925,-106.8772,16.01917,83.37105,-110.3957,-93.13606,0.001067912,-0.1257102,0.09433498,0,0.3,0,0,0.2751909,0,
6.38225E+17,17.22233,-4.745775,24.00099,-10.61434,9.643764,-90.96429,47.94452,-0.8883717,-9.082087,-78.29288,-7.715342,14.43551,0,0,0,55.40648,-109.503,10.39277,83.37105,-110.3957,-93.13606,0.001067912,-0.1257102,0.09433498,0,0.3,0,0,0.2750546,0,
6.38225E+17,18.25897,-4.769154,13.82158,-10.24811,14.11172,-90.81779,47.94452,-0.8883717,-9.082087,-78.29288,-7.715342,14.50875,0,0,0,51.61683,-117.2257,-11.8994,83.37105,-110.3957,-93.13606,0.001067912,-0.1257102,0.09433498,0,0.3,0,0,0.2752402,0,
6.38225E+17,18.80085,-4.81591,6.000247,-9.735395,20.19107,-90.81779,47.94452,-0.8883717,-9.082087,-78.29288,-7.715342,14.50875,0,0,0,47.31668,-120.4648,-29.36492,83.37105,-110.3957,-93.13606,0.001067912,-0.1257102,0.09433498,0,0.3,0,0,0.275934,0,
6.38225E+17,19.36629,-5.236718,-5.323177,-9.149435,30.51864,-90.81779,47.94452,-0.8883717,-9.082087,-78.29288,-7.715342,14.50875,0,0,0,39.9327,-121.5958,-54.74165,83.37105,-110.3957,-93.13606,0.001067912,-0.1257102,0.09433498,0,0.3,0,0,0.2771619,0,
6.38225E+17,19.60189,-5.657525,-11.41681,-9.002944,36.52474,-90.81779,47.94452,-0.8883717,-9.082087,-78.29288,-7.715342,14.50875,0,0,0,35.6633,-120.5073,-68.20625,83.37105,-110.3957,-93.13606,0.001067912,-0.1257102,0.09433498,0,0.3,0,0,0.2778968,0,
6.38225E+17,19.83749,-8.392776,-28.81053,-9.002944,52.63868,-92.50243,47.94452,-0.8883717,-9.082087,-78.29288,-7.715342,14.50875,0,0,0,22.96018,-112.9572,-104.7063,83.37105,-110.3957,-93.13606,0.001067912,-0.1257102,0.09433498,0,0.3,0,0,0.2799572,0,
6.38225E+17,19.81393,-10.02925,-34.22709,-9.295925,57.32637,-94.77303,47.94452,-0.8883717,-9.082087,-78.29288,-7.715342,14.43551,0,0,0,19.08596,-110.1288,-115.3771,83.37105,-110.3957,-93.13606,0.001067912,-0.1257102,0.09433498,0,0.3,0,0,0.2804604,0,
6.38225E+17,19.81393,-14.07368,-43.37922,-10.32136,66.55526,-102.1708,47.94452,-0.8883717,-9.082087,-78.29288,-7.715342,14.50875,0,0,0,12.79917,-105.9986,-132.826,83.37105,-110.3957,-93.13606,0.001067912,-0.1257102,0.09433498,0,0.3,0,0,0.281128,0,
6.38225E+17,19.81393,-18.46878,-49.33278,-11.42003,74.31925,-109.1291,47.94452,-0.8883717,-9.082087,-78.29288,-7.715342,14.50875,0,0,0,8.58774,-105.7931,-144.5148,83.37105,-110.3957,-93.13606,0.001067912,-0.1257102,0.09433498,0,0.3,0,0,0.2814451,0,
6.38225E+17,19.81393,-20.15201,-50.66357,-11.78626,77.83501,-110.2278,47.94452,-0.8883717,-9.082087,-78.29288,-7.715342,14.50875,0,0,0,7.473774,-107.1176,-147.6066,83.37105,-110.3957,-93.13606,0.001067912,-0.1257102,0.09433498,0,0.3,0,0,0.2815242,0,
6.38225E+17,19.81393,-21.18065,-50.64022,-12.006,83.25516,-109.8615,47.94452,-0.8883717,-9.082087,-78.29288,-7.715342,14.50875,0,0,0,7.199056,-109.3996,-148.3691,83.37105,-110.3957,-93.13606,0.001067912,-0.1257102,0.09433498,0,0.3,0,0,0.2816554,0,
6.38225E+17,19.86105,-19.26364,-47.72181,-12.006,86.62444,-105.7598,47.94452,-0.8883717,-9.082087,-78.29288,-7.715342,14.50875,0,0,0,9.247674,-110.3529,-142.7492,83.37105,-110.3957,-93.13606,0.001067912,-0.1257102,0.09433498,0,0.3,0,0,0.2819018,0,
6.38225E+17,19.90817,-17.46352,-45.15361,-12.07924,87.35689,-103.5625,47.94452,-0.8883717,-9.082087,-78.29288,-7.715342,14.43551,0,0,0,11.12067,-110.7077,-137.6432,83.37105,-110.3957,-93.13606,0.001067912,-0.1257102,0.09433498,0,0.3,0,0,0.282118,0,
6.38225E+17,20.21445,-12.90477,-38.31286,-11.93275,86.55119,-99.09451,47.94452,-0.8883717,-9.082087,-78.29288,-7.715342,14.50875,0,0,0,16.34756,-111.0626,-123.9532,83.37105,-110.3957,-93.13606,0.001067912,-0.1257102,0.09433498,0,0.3,0,0,0.2828291,0,
6.38225E+17,20.68565,-7.106974,-27.7132,-11.05381,82.22973,-94.26032,47.94452,-0.8883717,-9.082087,-78.29288,-7.715342,14.50875,0,0,0,24.83689,-111.2013,-102.5712,83.37105,-110.3957,-93.13606,0.001067912,-0.1257102,0.09433498,0,0.3,0,0,0.2839563,0,
6.38225E+17,20.80345,-2.127417,-16.92677,-9.735395,74.75871,-91.03754,47.94452,-0.8883717,-9.082087,-78.29288,-7.715342,14.43551,0,0,0,33.53925,-109.1732,-80.0733,83.37105,-110.3957,-93.13606,0.001067912,-0.1257102,0.09433498,0,0.3,0,0,0.2853937,0,
6.38225E+17,20.61497,0.0233782,-11.0666,-8.856454,69.26534,-90.0121,47.94452,-0.8883717,-9.082087,-78.29288,-7.715342,14.43551,0,0,0,37.9385,-107.4659,-67.49625,83.37105,-110.3957,-93.13606,0.001067912,-0.1257102,0.09433498,0,0.3,0,0,0.2861171,0,
6.38225E+17,19.86105,2.431333,-1.097321,-7.24506,56.81365,-88.91342,47.94452,-0.8883717,-9.082087,-78.29288,-7.715342,14.43551,0,0,0,44.39596,-104.3186,-45.4465,83.37105,-110.3957,-93.13606,0.001067912,-0.1257102,0.09433498,0,0.3,0,0,0.2873434,0,
6.38225E+17,18.80085,2.571602,5.650038,-6.292873,44.65495,-88.47395,47.94452,-0.8883717,-9.082087,-78.29288,-7.715342,14.50875,0,0,0,47.1638,-103.369,-29.81399,83.37105,-110.3957,-93.13606,0.001067912,-0.1257102,0.09433498,0,0.3,0,0,0.288196,0,
6.38225E+17,18.25897,2.361199,7.844682,-6.219628,39.45455,-88.40071,47.94452,-0.8883717,-9.082087,-78.29288,-7.715342,14.50875,0,0,0,47.44725,-103.2582,-24.53739,83.37105,-110.3957,-93.13606,0.001067912,-0.1257102,0.09433498,0,0.3,0,0,0.2885047,0,
6.38225E+17,17.31657,2.150795,10.83313,-7.24506,30.22566,-87.88799,47.94452,-0.8883717,-9.082087,-78.29288,-7.715342,14.43551,0,0,0,47.12384,-102.619,-17.20676,83.37105,-110.3957,-93.13606,0.001067912,-0.1257102,0.09433498,0,0.3,0,0,0.2889505,0,
6.38225E+17,17.03385,2.174173,10.97322,-9.442415,23.99982,-87.0823,47.94452,-0.8883717,-9.082087,-78.29288,-7.715342,14.43551,0,0,0,46.47065,-102.5029,-16.67193,83.37105,-110.3957,-93.13606,0.001067912,-0.1257102,0.09433498,0,0.3,0,0,0.2893194,0,
6.38225E+17,17.05741,2.150795,9.619073,-10.3946,22.09544,-86.78931,47.94452,-0.8883717,-9.082087,-78.29288,-7.715342,14.50875,0,0,0,45.62406,-103.1206,-19.65349,83.37105,-110.3957,-93.13606,0.001067912,-0.1257102,0.09433498,0,0.3,0,0,0.289542,0,
6.38225E+17,17.10453,2.104038,3.035145,-11.34679,22.0222,-86.05686,47.94452,-0.8883717,-9.082087,-78.29288,-7.715342,14.50875,0,0,0,41.27058,-104.9171,-34.23565,83.37105,-110.3957,-93.13606,0.001067912,-0.1257102,0.09433498,0,0.3,0,0,0.2902106,0,
6.38225E+17,17.10453,1.846878,-4.576064,-11.2003,25.97744,-85.39766,47.94452,-0.8883717,-9.082087,-78.29288,-7.715342,14.50875,0,0,0,36.07088,-105.2772,-51.13274,83.37105,-110.3957,-93.13606,0.001067912,-0.1257102,0.09433498,0,0.3,0,0,0.2911769,0,
6.38225E+17,17.10453,0.8883717,-13.96167,-10.76083,32.86248,-84.73845,47.94452,-0.8883717,-9.082087,-78.29288,-7.642097,14.50875,0,0,0,29.75284,-103.993,-71.66408,83.37105,-110.3957,-93.13606,0.001067912,-0.1257102,0.09433498,0,0.3,0,0,0.2923433,0,
6.38225E+17,17.10453,0.09351282,-18.65447,-10.61434,36.89096,-84.59196,47.94452,-0.8883717,-9.082087,-78.29288,-7.715342,14.50875,0,0,0,26.67528,-102.7768,-81.66505,83.37105,-110.3957,-93.13606,0.001067912,-0.1257102,0.09433498,0,0.3,0,0,0.292933,0,
6.38225E+17,17.10453,-1.987147,-26.77931,-10.68758,44.87469,-84.44547,47.94452,-0.8883717,-9.082087,-78.29288,-7.642097,14.43551,0,0,0,21.52583,-100.322,-98.39887,83.37105,-110.3957,-93.13606,0.001067912,-0.1257102,0.09433498,0,0.3,0,0,0.2940089,0,
6.38225E+17,17.10453,-4.932801,-34.20374,-10.90732,52.05272,-84.44547,47.94452,-0.8883717,-9.082087,-78.29288,-7.715342,14.50875,0,0,0,17.02786,-98.4027,-113.0156,83.37105,-110.3957,-93.13606,0.001067912,-0.1257102,0.09433498,0,0.3,0,0,0.2948692,0,
6.38225E+17,17.10453,-8.790204,-41.16123,-10.98056,59.30399,-84.51871,47.94452,-0.8883717,-9.082087,-78.29288,-7.715342,14.50875,0,0,0,12.94563,-97.42207,-126.2814,83.37105,-110.3957,-93.13606,0.001067912,-0.1257102,0.09433498,0,0.3,0,0,0.2954616,0,
6.38225E+17,17.10453,-11.01113,-44.07964,-10.98056,63.11274,-84.51871,47.94452,-0.8883717,-9.082087,-78.29288,-7.715342,14.50875,0,0,0,11.21438,-97.91493,-131.9073,83.37105,-110.3957,-93.13606,0.001067912,-0.1257102,0.09433498,0,0.3,0,0,0.2956661,0,
6.38225E+17,17.19877,-15.40624,-47.55838,-11.27355,70.36401,-84.51871,47.94452,-0.8883717,-9.082087,-78.29288,-7.715342,14.50875,0,0,0,8.915154,-102.0656,-139.5476,83.37105,-110.3957,-93.13606,0.001067912,-0.1257102,0.09433498,0,0.3,0,0,0.2959471,0,
6.38225E+17,17.50505,-17.86095,-47.8152,-11.85951,76.07713,-83.8595,47.94452,-0.8883717,-9.082087,-78.29288,-7.715342,14.50875,0,0,0,8.456096,-107.0972,-141.5389,83.37105,-110.3957,-93.13606,0.001067912,-0.1257102,0.09433498,0,0.3,0,0,0.2961606,0,
6.38225E+17,17.78777,-18.18824,-47.13813,-12.15249,78.64072,-82.54109,47.94452,-0.8883717,-9.082087,-78.29288,-7.642097,14.50875,0,0,0,8.841654,-108.983,-140.7913,83.37105,-110.3957,-93.13606,0.001067912,-0.1257102,0.09433498,0,0.3,0,0,0.2962778,0,
6.38225E+17,18.28253,-17.37,-44.54658,-11.93275,82.08324,-80.124,47.94452,-0.8883717,-9.082087,-78.29288,-7.715342,14.50875,0,0,0,10.57971,-111.4964,-136.3271,83.37105,-110.3957,-93.13606,0.001067912,-0.1257102,0.09433498,0,0.3,0,0,0.2965905,0,
6.38225E+17,18.47101,-15.24259,-39.62031,-11.12705,83.18191,-77.63367,47.94452,-0.8883717,-9.082087,-78.29288,-7.715342,14.50875,0,0,0,13.82054,-114.4264,-126.9752,83.37105,-110.3957,-93.13606,0.001067912,-0.1257102,0.09433498,0,0.3,0,0,0.2970873,0,
6.38225E+17,18.47101,-11.78261,-31.54216,-10.02838,81.57052,-73.89817,47.94452,-0.8883717,-9.082087,-78.21963,-7.715342,14.50875,0,0,0,19.25706,-117.5282,-110.6998,83.37105,-110.3957,-93.13606,0.001067912,-0.1257102,0.09433498,0,0.3,0,0,0.2978753,0,
6.38225E+17,18.47101,-9.88898,-26.89605,-9.442415,79.5929,-71.48107,47.94452,-0.8883717,-9.082087,-78.29288,-7.642097,14.50875,0,0,0,22.50874,-118.4768,-100.9652,83.37105,-110.3957,-93.13606,0.001067912,-0.1257102,0.09433498,0,0.3,0,0,0.298379,0,
6.38225E+17,18.35321,-5.938064,-17.13689,-8.270493,72.41488,-66.86663,47.94452,-0.8883717,-9.082087,-78.29288,-7.715342,14.50875,0,0,0,29.39102,-117.8752,-79.75584,83.37105,-110.3957,-93.13606,0.001067912,-0.1257102,0.09433498,0,0.3,0,0,0.2995234,0,
6.38225E+17,17.97625,-3.132679,-7.961418,-7.171815,62.67326,-64.74252,47.94452,-0.8883717,-9.082087,-78.29288,-7.715342,14.50875,0,0,0,35.39314,-116.0021,-59.26728,83.37105,-110.3957,-93.13606,0.001067912,-0.1257102,0.09433498,0,0.3,0,0,0.300638,0,
6.38225E+17,17.41081,-2.33782,0.9105434,-5.560421,48.17072,-63.79033,47.94452,-0.8883717,-9.082087,-78.29288,-7.715342,14.50875,0,0,0,40.50197,-115.4227,-39.19347,83.37105,-110.3957,-93.13606,0.001067912,-0.1257102,0.09433498,0,0.3,0,0,0.3017189,0,
6.38225E+17,17.19877,-2.454711,3.175228,-4.168763,40.62647,-63.49735,47.94452,-0.8883717,-9.082087,-78.29288,-7.715342,14.50875,0,0,0,41.57777,-115.5066,-34.02372,83.37105,-110.3957,-93.13606,0.001067912,-0.1257102,0.09433498,0,0.3,0,0,0.3036773,0,
6.38225E+17,17.10453,-2.454711,3.268617,-2.85035,36.305,-63.49735,47.94452,-0.8883717,-9.082087,-78.29288,-7.715342,14.50875,0,0,0,41.4206,-115.4944,-33.7481,83.37105,-110.3957,-93.13606,0.001067912,-0.1257102,0.09433498,0,0.3,0,0,0.3046166,0,
6.38225E+17,16.96317,-2.454711,1.307447,-0.3600145,31.39758,-63.20437,47.94452,-0.8883717,-9.082087,-78.29288,-7.715342,14.43551,0,0,0,39.75781,-115.6766,-38.00846,83.37105,-110.3957,-93.13606,0.001067912,-0.1257102,0.09433498,0,0.3,0,0,0.3064957,0,
6.38225E+17,17.03385,-2.454711,-3.105186,1.837341,30.07917,-59.83509,47.94452,-0.8883717,-9.082087,-78.29288,-7.715342,14.50875,0,0,0,36.91124,-115.5155,-47.8734,83.37105,-110.3957,-93.13606,0.001067912,-0.1257102,0.09433498,0,0.3,0,0,0.3084723,0,
6.38225E+17,17.36369,-2.454711,-9.22217,3.009263,31.69056,-53.82899,47.94452,-0.8883717,-9.082087,-78.29288,-7.715342,14.43551,0,0,0,33.38202,-113.9877,-61.5908,83.37105,-110.3957,-93.13606,0.001067912,-0.1257102,0.09433498,0,0.3,0,0,0.3106142,0,
6.38225E+17,17.83489,-2.641737,-16.97346,3.228999,35.27958,-46.87069,47.94452,-0.8883717,-9.082087,-78.29288,-7.715342,14.50875,0,0,0,28.87548,-110.3375,-78.6012,83.37105,-110.3957,-93.13606,0.001067912,-0.1257102,0.09433498,0,0.3,0,0,0.3129147,0,
6.38225E+17,17.88201,-2.945654,-21.19932,2.789528,37.76991,-43.06195,47.94452,-0.8883717,-9.082087,-78.29288,-7.715342,14.50875,0,0,0,26.08538,-107.8286,-87.50134,83.37105,-110.3957,-93.13606,0.001067912,-0.1257102,0.09433498,0,0.3,0,0,0.3140903,0,
6.38225E+17,17.88201,-3.787269,-27.97002,0.6654179,42.89707,-36.39664,47.94452,-0.8883717,-9.082087,-78.29288,-7.715342,14.43551,0,0,0,21.6526,-103.2319,-101.2402,83.37105,-110.3957,-93.13606,0.001067912,-0.1257102,0.09433498,0,0.3,0,0,0.3163719,0,
6.38225E+17,18.04693,-5.07307,-34.27379,-2.777105,48.6102,-31.12299,47.94452,-0.8883717,-9.082087,-78.29288,-7.715342,14.50875,0,0,0,17.88509,-98.6362,-113.4584,83.37105,-110.3957,-93.13606,0.001067912,-0.1257102,0.09433498,0,0.3,0,0,0.3184719,0,
6.38225E+17,18.35321,-6.312115,-38.21947,-6.219628,53.59086,-30.31729,47.94452,-0.8883717,-9.082087,-78.29288,-7.715342,14.50875,0,0,0,15.75668,-96.07708,-120.8542,83.37105,-110.3957,-93.13606,0.001067912,-0.1257102,0.09433498,0,0.3,0,0,0.3204032,0,
6.38225E+17,18.56525,-7.036839,-39.92382,-8.197248,56.15445,-32.95412,47.94452,-0.8883717,-9.082087,-78.29288,-7.715342,14.50875,0,0,0,14.88947,-95.25227,-124.0179,83.37105,-110.3957,-93.13606,0.001067912,-0.1257102,0.09433498,0,0.3,0,0,0.3213148,0,
6.38225E+17,18.82441,-8.696692,-42.2819,-11.63977,60.69564,-43.20844,47.94452,-0.8883717,-9.082087,-78.29288,-7.715342,14.43551,0,0,0,13.58493,-95.47118,-128.5002,83.37105,-110.3957,-93.13606,0.001067912,-0.1257102,0.09433498,0,0.3,0,0,0.3230494,0,
6.38225E+17,18.82441,-10.47344,-43.47261,-14.2766,64.43115,-62.61841,47.94452,-0.8883717,-9.082087,-78.29288,-7.715342,14.43551,0,0,0,12.7075,-97.66286,-131.074,83.37105,-110.3957,-93.13606,0.001067912,-0.1257102,0.09433498,0,0.3,0,0,0.3247088,0,
6.38225E+17,18.82441,-11.24492,-43.9629,-15.00905,66.11579,-76.53499,47.94452,-0.8883717,-9.082087,-78.29288,-7.715342,14.50875,0,0,0,12.33223,-98.63761,-132.1748,83.37105,-110.3957,-93.13606,0.001067912,-0.1257102,0.09433498,0,0.3,0,0,0.325522,0,
6.38225E+17,18.80085,-12.5541,-44.73336,-15.7415,68.67937,-104.0019,47.94452,-0.8883717,-9.082087,-78.29288,-7.715342,14.50875,0,0,0,11.70162,-100.3656,-133.9784,83.37105,-110.3957,-93.13606,0.001067912,-0.1257102,0.09433498,0,0.3,0,0,0.3271188,0,
6.38225E+17,18.80085,-13.69963,-45.55051,-16.10773,69.99778,-120.9216,47.94452,-0.8883717,-9.082087,-78.29288,-7.715342,14.43551,0,0,0,11.07416,-101.6139,-135.8214,83.37105,-110.3957,-93.13606,0.001067912,-0.1257102,0.09433498,0,0.3,0,0,0.3286807,0,
6.38225E+17,18.80085,-14.68151,-46.01746,-15.15554,69.41182,-139.5991,47.94452,-0.8883717,-9.082087,-78.29288,-7.715342,14.50875,0,0,0,10.64937,-103.0505,-137.0692,83.37105,-110.3957,-93.13606,0.001067912,-0.1257102,0.09433498,0,0.3,0,0,0.3302046,0,
6.38225E+17,18.80085,-15.00881,-45.99411,-13.83713,68.16666,-141.9429,47.94452,-0.8883717,-9.082087,-78.29288,-7.642097,14.50875,0,0,0,10.59864,-103.8259,-137.2182,83.37105,-110.3957,-93.13606,0.001067912,-0.1257102,0.09433498,0,0.3,0,0,0.3317114,0,
6.38225E+17,18.80085,-15.1257,-45.80734,-12.73845,66.92149,-142.0894,47.94452,-0.8883717,-9.082087,-78.29288,-7.715342,14.43551,0,0,0,10.67334,-104.4007,-136.9988,83.37105,-110.3957,-93.13606,0.001067912,-0.1257102,0.09433498,0,0.3,0,0,0.3324641,0,
6.38225E+17,18.75373,-15.35948,-45.38708,-10.32136,64.13817,-142.1627,47.94452,-0.8883717,-9.082087,-78.29288,-7.642097,14.50875,0,0,0,10.82159,-105.6245,-136.4774,83.37105,-110.3957,-93.13606,0.001067912,-0.1257102,0.09433498,0,0.3,0,0,0.3339805,0,
6.38225E+17,18.61237,-15.8738,-45.45713,-7.831022,60.91539,-142.1627,47.94452,-0.8883717,-9.082087,-78.29288,-7.715342,14.50875,0,0,0,10.60356,-106.6612,-136.8647,83.37105,-110.3957,-93.13606,0.001067912,-0.1257102,0.09433498,0,0.3,0,0,0.3355053,0,
6.38225E+17,18.56525,-16.69204,-45.83068,-5.999893,57.39961,-142.1627,47.94452,-0.8883717,-9.082087,-78.29288,-7.715342,14.50875,0,0,0,10.21414,-107.8675,-137.9383,83.37105,-110.3957,-93.13606,0.001067912,-0.1257102,0.09433498,0,0.3,0,0,0.3370152,0,
6.38225E+17,18.56525,-17.27649,-45.94742,-5.120951,55.34875,-142.1627,47.94452,-0.8883717,-9.082087,-78.29288,-7.715342,14.50875,0,0,0,10.02742,-108.9734,-138.4942,83.37105,-110.3957,-93.13606,0.001067912,-0.1257102,0.09433498,0,0.3,0,0,0.3377609,0,
6.38225E+17,18.54169,-18.7727,-46.08751,-3.363066,51.24702,-139.5258,47.94452,-0.8883717,-9.082087,-78.29288,-7.715342,14.43551,0,0,0,9.600518,-112.0501,-139.7263,83.37105,-110.3957,-93.13606,0.001067912,-0.1257102,0.09433498,0,0.3,0,0,0.3392332,0,
6.38225E+17,18.44745,-20.66633,-46.39102,-1.824918,47.73125,-124.1443,47.94452,-0.8883717,-9.082087,-78.29288,-7.715342,14.50875,0,0,0,8.928282,-115.6885,-141.5846,83.37105,-110.3957,-93.13606,0.001067912,-0.1257102,0.09433498,0,0.3,0,0,0.3406688,0,
6.38225E+17,18.44745,-22.16254,-46.5778,-0.9459759,45.5339,-110.887,47.94452,-0.8883717,-9.082087,-78.29288,-7.642097,14.50875,0,0,0,8.431259,-118.615,-143.0746,83.37105,-110.3957,-93.13606,0.001067912,-0.1257102,0.09433498,0,0.3,0,0,0.3413683,0,
6.38225E+17,18.42389,-23.51847,-46.74123,-0.4332596,43.84926,-96.89715,47.94452,-0.8883717,-9.082087,-78.29288,-7.642097,14.50875,0,0,0,7.951221,-121.2466,-144.481,83.37105,-110.3957,-93.13606,0.001067912,-0.1257102,0.09433498,0,0.3,0,0,0.3427186,0,
6.38225E+17,18.35321,-25.29522,-46.90466,-0.140279,41.94488,-71.99379,47.94452,-0.8883717,-9.082087,-78.29288,-7.715342,14.50875,0,0,0,7.30181,-124.7347,-146.34,83.37105,-110.3957,-93.13606,0.001067912,-0.1257102,0.09433498,0,0.3,0,0,0.344018,0,
6.38225E+17,18.35321,-25.99656,-46.85796,-0.140279,41.21243,-56.75879,47.94452,-0.8883717,-9.082087,-78.29288,-7.715342,14.50875,0,0,0,7.102749,-126.2856,-146.94,83.37105,-110.3957,-93.13606,0.001067912,-0.1257102,0.09433498,0,0.3,0,0,0.3446451,0,
6.38225E+17,18.25897,-26.74467,-46.5778,-1.238957,38.42912,2.130321,47.94452,-0.8883717,-9.082087,-78.29288,-7.715342,14.50875,0,0,0,6.965286,-128.3202,-147.2382,83.37105,-110.3957,-93.13606,0.001067912,-0.1257102,0.09433498,0,0.3,0,0,0.3464778,0,
6.38225E+17,18.14117,-26.76804,-46.60114,-1.751673,37.55017,18.75698,47.94452,-0.8883717,-9.082087,-78.29288,-7.715342,14.50875,0,0,0,6.902611,-128.3293,-147.2827,83.37105,-110.3957,-93.13606,0.001067912,-0.1257102,0.09433498,0,0.3,0,0,0.347084,0,
6.38225E+17,17.85845,-26.95507,-46.95135,-2.923595,35.86554,47.90855,47.94452,-0.8883717,-9.082087,-78.29288,-7.642097,14.50875,0,0,0,6.567078,-128.1237,-147.9674,83.37105,-110.3957,-93.13606,0.001067912,-0.1257102,0.09433498,0,0.3,0,0,0.3482832,0,
6.38225E+17,17.83489,-27.46939,-47.48834,-4.095518,34.62037,64.02249,47.94452,-0.8883717,-9.082087,-78.29288,-7.715342,14.50875,0,0,0,6.131069,-128.2709,-149.2938,83.37105,-110.3957,-93.13606,0.001067912,-0.1257102,0.09433498,0,0.3,0,0,0.3494416,0,
6.38225E+17,17.83489,-27.72655,-47.67512,-4.534989,34.0344,67.31852,47.94452,-0.8883717,-9.082087,-78.29288,-7.715342,14.50875,0,0,0,5.95634,-128.4804,-149.8369,83.37105,-110.3957,-93.13606,0.001067912,-0.1257102,0.09433498,0,0.3,0,0,0.3499947,0,
6.38225E+17,17.83489,-28.05384,-48.16541,-5.120951,33.22871,66.58607,47.94452,-0.8883717,-9.082087,-78.29288,-7.715342,14.43551,0,0,0,5.61299,-128.3068,-150.9041,83.37105,-110.3957,-93.13606,0.001067912,-0.1257102,0.09433498,0,0.3,0,0,0.351031,0,
6.38225E+17,17.92913,-28.45127,-49.4962,-5.413931,32.93573,52.44975,47.94452,-0.8883717,-9.082087,-78.29288,-7.715342,14.50875,0,0,0,4.879251,-126.7901,-153.2698,83.37105,-110.3957,-93.13606,0.001067912,-0.1257102,0.09433498,0,0.3,0,0,0.3519559,0,
6.38225E+17,18.02337,-28.82533,-50.14993,-5.487176,33.15546,38.53317,47.94452,-0.8883717,-9.082087,-78.29288,-7.715342,14.43551,0,0,0,4.471247,-126.3916,-154.608,83.37105,-110.3957,-93.13606,0.001067912,-0.1257102,0.09433498,0,0.3,0,0,0.3523642,0,
6.38225E+17,18.18829,-30.01761,-51.13051,-5.853402,34.54712,-26.94801,47.94452,-0.8883717,-9.082087,-78.29288,-7.642097,14.50875,0,0,0,3.633532,-127.0441,-157.2909,83.37105,-110.3957,-93.13606,0.001067912,-0.1257102,0.09433498,0,0.3,0,0,0.3530621,0,
6.38225E+17,18.18829,-31.56057,-51.73754,-6.585854,37.76991,-117.772,47.94452,-0.8883717,-9.082087,-78.29288,-7.642097,14.50875,0,0,0,2.784852,-129.0243,-159.874,83.37105,-110.3957,-93.13606,0.001067912,-0.1257102,0.09433498,0,0.3,0,0,0.3536039,0,
6.38225E+17,18.18829,-32.58922,-52.04106,-6.80559,40.69971,-132.714,47.94452,-0.8883717,-9.082087,-78.29288,-7.642097,14.43551,0,0,0,2.251944,-130.4971,-161.496,83.37105,-110.3957,-93.13606,0.001067912,-0.1257102,0.09433498,0,0.3,0,0,0.3540031,0,
6.38225E+17,18.18829,-33.17367,-52.25118,-6.878834,42.4576,-139.3061,47.94452,-0.8883717,-9.082087,-78.29288,-7.642097,14.50875,0,0,0,1.927759,-131.2533,-162.4827,83.37105,-110.3957,-93.13606,0.001067912,-0.1257102,0.09433498,0,0.3,0,0,0.3541572,0,
6.38225E+17,18.18829,-34.13218,-52.67143,-6.80559,45.90012,-142.1627,47.94452,-0.8883717,-9.082087,-78.21963,-7.642097,14.50875,0,0,0,1.355865,-132.3346,-164.2233,83.37105,-110.3957,-93.13606,0.001067912,-0.1257102,0.09433498,0,0.3,0,0,0.3543959,0,
6.38225E+17,18.18829,-34.71663,-52.97495,-6.732344,48.4637,-142.2359,47.94452,-0.8883717,-9.082087,-78.21963,-7.715342,14.50875,0,0,0,0.9825956,-132.8938,-165.3594,83.37105,-110.3957,-93.13606,0.001067912,-0.1257102,0.09433498,0,0.3,0,0,0.3545597,0,
6.38225E+17,18.18829,-35.1842,-53.53528,-6.732344,49.9286,-141.8697,47.94452,-0.8883717,-9.082087,-78.29288,-7.715342,14.43551,0,0,0,0.5444788,-132.7408,-166.6928,83.37105,-110.3957,-93.13606,0.001067912,-0.1257102,0.09433498,0,0.3,0,0,0.3546734,0,
6.38225E+17,18.18829,-35.72189,-54.09562,-6.512609,50.44132,-139.1596,47.94452,-0.8883717,-9.082087,-78.29288,-7.642097,14.50875,0,0,0,0.07757559,-132.7076,-168.1139,83.37105,-110.3957,-93.13606,0.001067912,-0.1257102,0.09433498,0,0.3,0,0,0.354745,0,
6.38225E+17,18.18829,-36.02581,-54.35244,-6.292873,50.44132,-136.889,47.94452,-0.8883717,-9.082087,-78.29288,-7.715342,14.43551,0,0,0,-0.1608805,-132.7958,-168.8397,83.37105,-110.3957,-93.13606,0.001067912,-0.1257102,0.09433498,0,0.3,0,0,0.3547656,0,
6.38225E+17,18.18829,-36.6804,-54.67929,-5.413931,50.29483,-124.5106,47.94452,-0.8883717,-9.082087,-78.21963,-7.715342,14.50875,0,0,0,-0.5806002,-133.4034,-170.1171,83.37105,-110.3957,-93.13606,0.001067912,-0.1257102,0.09433498,0,0.3,0,0,0.3547738,0,
6.38225E+17,18.18829,-37.31161,-54.65595,-4.315253,49.9286,-107.6642,47.94452,-0.8883717,-9.082087,-78.29288,-7.642097,14.50875,0,0,0,-0.8467323,-134.621,-170.9271,83.37105,-110.3957,-93.13606,0.001067912,-0.1257102,0.09433498,0,0.3,0,0,0.3547507,0,
6.38225E+17,18.18829,-37.70904,-54.65595,-3.143331,49.34265,-85.17792,47.94452,-0.8883717,-9.082087,-78.29288,-7.642097,14.50875,0,0,0,-1.022537,-135.3548,-171.4622,83.37105,-110.3957,-93.13606,0.001067912,-0.1257102,0.09433498,0,0.3,0,0,0.3547207,0,
6.38225E+17,18.18829,-37.73242,-54.6326,-2.630615,48.97642,-71.62756,47.94452,-0.8883717,-9.082087,-78.29288,-7.642097,14.50875,0,0,0,-1.023113,-135.4421,-171.464,83.37105,-110.3957,-93.13606,0.001067912,-0.1257102,0.09433498,0,0.3,0,0,0.3547114,0,
6.38225E+17,18.18829,-37.68567,-53.7921,-1.971408,47.95099,-30.53703,47.94452,-0.8883717,-9.082087,-78.29288,-7.642097,14.50875,0,0,0,-0.6452692,-136.9428,-170.3139,83.37105,-110.3957,-93.13606,0.001067912,-0.1257102,0.09433498,0,0.3,0,0,0.3547514,0,
6.38225E+17,18.11761,-37.68567,-52.99829,-2.117898,47.65801,47.76206,47.94452,-0.8883717,-9.082087,-78.29288,-7.642097,14.50875,0,0,0,-0.3002696,-138.4259,-169.2677,83.37105,-110.3957,-93.13606,0.001067912,-0.1257102,0.09433498,0,0.3,0,0,0.3548977,0,
6.38225E+17,18.07049,-37.66228,-52.88156,-2.264389,47.8045,84.9706,47.94452,-0.8883717,-9.082087,-78.29288,-7.715342,14.50875,0,0,0,-0.2384112,-138.5997,-169.0807,83.37105,-110.3957,-93.13606,0.001067912,-0.1257102,0.09433498,0,0.3,0,0,0.3550114,0,
6.38225E+17,18.07049,-37.77918,-52.99829,-2.557369,47.43827,128.991,47.94452,-0.8883717,-9.082087,-78.29288,-7.642097,14.50875,0,0,0,-0.3408288,-138.5981,-169.3946,83.37105,-110.3957,-93.13606,0.001067912,-0.1257102,0.09433498,0,0.3,0,0,0.3553005,0,
6.38225E+17,18.07049,-37.91945,-53.06834,-2.923595,46.9988,139.5383,47.94452,-0.8883717,-9.082087,-78.29288,-7.715342,14.50875,0,0,0,-0.4333706,-138.7256,-169.6782,83.37105,-110.3957,-93.13606,0.001067912,-0.1257102,0.09433498,0,0.3,0,0,0.3556604,0,
6.38225E+17,18.07049,-37.9662,-53.44189,-3.216576,46.70582,137.7804,47.94452,-0.8883717,-9.082087,-78.29288,-7.715342,14.50875,0,0,0,-0.6154625,-138.1147,-170.2363,83.37105,-110.3957,-93.13606,0.001067912,-0.1257102,0.09433498,0,0.3,0,0,0.3560725,0,
6.38225E+17,18.07049,-37.98958,-53.7921,-3.363066,46.63258,128.698,47.94452,-0.8883717,-9.082087,-78.29288,-7.642097,14.50875,0,0,0,-0.775819,-137.5014,-170.7278,83.37105,-110.3957,-93.13606,0.001067912,-0.1257102,0.09433498,0,0.3,0,0,0.3565176,0,
6.38225E+17,18.07049,-38.01296,-54.11897,-3.289821,46.70582,121.4467,47.94452,-0.8883717,-9.082087,-78.21963,-7.715342,14.50875,0,0,0,-0.925058,-136.9292,-171.1852,83.37105,-110.3957,-93.13606,0.001067912,-0.1257102,0.09433498,0,0.3,0,0,0.3567852,0,
6.38225E+17,18.07049,-38.05972,-54.84273,-3.070086,46.55933,103.0622,47.94452,-0.8883717,-9.082087,-78.21963,-7.642097,14.50875,0,0,0,-1.249417,-135.6439,-172.1793,83.37105,-110.3957,-93.13606,0.001067912,-0.1257102,0.09433498,0,0.3,0,0,0.3573591,0,
6.38225E+17,18.07049,-38.10647,-55.19294,-2.410879,46.55933,82.33378,47.94452,-0.8883717,-9.082087,-78.29288,-7.642097,14.50875,0,0,0,-1.415188,-135.0617,-172.6873,83.37105,-110.3957,-93.13606,0.001067912,-0.1257102,0.09433498,0,0.3,0,0,0.3580053,0,
6.38225E+17,18.07049,-38.10647,-55.72992,-2.117898,46.63258,71.27377,47.94452,-0.8883717,-9.082087,-78.29288,-7.642097,14.50875,0,0,0,-1.634978,-134.0322,-173.361,83.37105,-110.3957,-93.13606,0.001067912,-0.1257102,0.09433498,0,0.3,0,0,0.3583474,0,
6.38225E+17,18.07049,-38.27012,-56.68716,-1.312202,46.77906,26.37447,47.94452,-0.8883717,-9.082087,-78.29288,-7.715342,14.43551,0,0,0,-2.092361,-132.4801,-174.7628,83.37105,-110.3957,-93.13606,0.001067912,-0.1257102,0.09433498,0,0.3,0,0,0.3590312,0,
6.38225E+17,18.07049,-38.62079,-56.66381,-1.385447,46.70582,-67.15961,47.94452,-0.8883717,-9.082087,-78.29288,-7.642097,14.50875,0,0,0,-2.240508,-133.1647,-175.2168,83.37105,-110.3957,-93.13606,0.001067912,-0.1257102,0.09433498,0,0.3,0,0,0.3596854,0,
6.38225E+17,18.07049,-38.78444,-56.68716,-1.531937,46.77906,-92.79542,47.94452,-0.8883717,-9.082087,-78.29288,-7.715342,14.50875,0,0,0,-2.323639,-133.4165,-175.4716,83.37105,-110.3957,-93.13606,0.001067912,-0.1257102,0.09433498,0,0.3,0,0,0.3599914,0,
6.38225E+17,18.07049,-39.13511,-56.96733,-2.191144,47.8045,-120.4088,47.94452,-0.8883717,-9.082087,-78.29288,-7.715342,14.50875,0,0,0,-2.59349,-133.5054,-176.2987,83.37105,-110.3957,-93.13606,0.001067912,-0.1257102,0.09433498,0,0.3,0,0,0.3605084,0,
6.38225E+17,18.07049,-39.29876,-57.10741,-2.777105,48.53695,-138.7934,47.94452,-0.8883717,-9.082087,-78.29288,-7.642097,14.50875,0,0,0,-2.72321,-133.5269,-176.6962,83.37105,-110.3957,-93.13606,0.001067912,-0.1257102,0.09433498,0,0.3,0,0,0.3608346,0,
6.38225E+17,18.07049,-39.43903,-57.48097,-3.289821,49.56238,-141.8697,47.94452,-0.8883717,-9.082087,-78.29288,-7.642097,14.50875,0,0,0,-2.933158,-133.0477,-177.3397,83.37105,-110.3957,-93.13606,0.001067912,-0.1257102,0.09433498,0,0.3,0,0,0.3608591,0,
6.38225E+17,18.07049,-39.50917,-57.55101,-3.363066,50.14834,-141.9429,47.94452,-0.8883717,-9.082087,-78.29288,-7.715342,14.50875,0,0,0,-2.992503,-133.0362,-177.5216,83.37105,-110.3957,-93.13606,0.001067912,-0.1257102,0.09433498,0,0.3,0,0,0.3607998,0,
6.38225E+17,18.07049,-39.55592,-57.55101,-3.582802,51.24702,-141.6499,47.94452,-0.8883717,-9.082087,-78.29288,-7.642097,14.50875,0,0,0,-3.013988,-133.1202,-177.5874,83.37105,-110.3957,-93.13606,0.001067912,-0.1257102,0.09433498,0,0.3,0,0,0.360538,0,
6.38225E+17,18.07049,-39.5793,-57.76114,-3.436311,51.97947,-126.7079,47.94452,-0.8883717,-9.082087,-78.29288,-7.715342,14.50875,0,0,0,-3.105896,-132.7489,-177.8691,83.37105,-110.3957,-93.13606,0.001067912,-0.1257102,0.09433498,0,0.3,0,0,0.360056,0,
6.38225E+17,18.07049,-39.62605,-58.25143,-3.070086,52.71193,-99.31424,47.94452,-0.8883717,-9.082087,-78.29288,-7.715342,14.50875,0,0,0,-3.314948,-131.865,-178.5098,83.37105,-110.3957,-93.13606,0.001067912,-0.1257102,0.09433498,0,0.3,0,0,0.3592953,0,
6.38225E+17,18.07049,-39.64943,-58.22808,-2.99684,53.29788,-68.771,47.94452,-0.8883717,-9.082087,-78.29288,-7.642097,14.50875,0,0,0,-3.316843,-131.9531,-178.5156,83.37105,-110.3957,-93.13606,0.001067912,-0.1257102,0.09433498,0,0.3,0,0,0.3582257,0,
6.38225E+17,18.07049,-39.64943,-58.13469,-2.923595,53.37113,-55.07415,47.94452,-0.8883717,-9.082087,-78.29288,-7.715342,14.50875,0,0,0,-3.281297,-132.1378,-178.4067,83.37105,-110.3957,-93.13606,0.001067912,-0.1257102,0.09433498,0,0.3,0,0,0.3575968,0,
6.38225E+17,18.07049,-39.64943,-57.31754,-2.70386,53.00491,-22.48005,47.94452,-0.8883717,-9.082087,-78.29288,-7.642097,14.50875,0,0,0,-2.966298,-133.7458,-177.4413,83.37105,-110.3957,-93.13606,0.001067912,-0.1257102,0.09433498,0,0.3,0,0,0.3562155,0,
6.38225E+17,18.07049,-39.64943,-56.05679,-2.630615,52.63868,23.6644,47.94452,-0.8883717,-9.082087,-78.29288,-7.642097,14.50875,0,0,0,-2.466433,-136.1979,-175.9092,83.37105,-110.3957,-93.13606,0.001067912,-0.1257102,0.09433498,0,0.3,0,0,0.3547432,0,
6.38225E+17,18.07049,-39.64943,-55.44976,-2.557369,52.56543,51.79055,47.94452,-0.8883717,-9.082087,-78.29288,-7.715342,14.50875,0,0,0,-2.219816,-137.3657,-175.1534,83.37105,-110.3957,-93.13606,0.001067912,-0.1257102,0.09433498,0,0.3,0,0,0.3539973,0,
6.38225E+17,18.07049,-39.64943,-54.65595,-2.044653,52.49219,110.2402,47.94452,-0.8883717,-9.082087,-78.29288,-7.642097,14.50875,0,0,0,-1.891551,-138.8801,-174.1473,83.37105,-110.3957,-93.13606,0.001067912,-0.1257102,0.09433498,0,0.3,0,0,0.3524764,0,
6.38225E+17,18.04693,-39.64943,-54.25905,-1.312202,52.19921,144.1527,47.94452,-0.8883717,-9.082087,-78.29288,-7.642097,14.50875,0,0,0,-1.722812,-139.6317,-173.6375,83.37105,-110.3957,-93.13606,0.001067912,-0.1257102,0.09433498,0,0.3,0,0,0.3509285,0,
6.38225E+17,18.02337,-39.64943,-54.25905,-1.019221,52.12596,144.8119,47.94452,-0.8883717,-9.082087,-78.29288,-7.715342,14.43551,0,0,0,-1.720638,-139.6317,-173.6382,83.37105,-110.3957,-93.13606,0.001067912,-0.1257102,0.09433498,0,0.3,0,0,0.3501324,0,
6.38225E+17,17.99981,-39.71957,-54.16566,-0.3600145,51.97947,144.8852,47.94452,-0.8883717,-9.082087,-78.29288,-7.642097,14.50875,0,0,0,-1.711396,-139.9336,-173.6172,83.37105,-110.3957,-93.13606,0.001067912,-0.1257102,0.09433498,0,0.3,0,0,0.3484358,0,
6.38225E+17,17.74065,-39.74295,-53.48859,0.5921727,51.97947,144.7387,47.94452,-0.8883717,-9.082087,-78.29288,-7.715342,14.43551,0,0,0,-1.414749,-141.2475,-172.7722,83.37105,-110.3957,-93.13606,0.001067912,-0.1257102,0.09433498,0,0.3,0,0,0.3466182,0,
6.38225E+17,16.96317,-39.74295,-52.85821,1.764095,52.3457,144.8852,47.94452,-0.8883717,-9.082087,-78.29288,-7.715342,14.50875,0,0,0,-1.098045,-142.4219,-171.9498,83.37105,-110.3957,-93.13606,0.001067912,-0.1257102,0.09433498,0,0.3,0,0,0.3446676,0,
6.38225E+17,16.37417,-39.74295,-52.9049,2.130321,52.71193,137.2677,47.94452,-0.8883717,-9.082087,-78.29288,-7.642097,14.50875,0,0,0,-1.07947,-142.3353,-172.0238,83.37105,-110.3957,-93.13606,0.001067912,-0.1257102,0.09433498,0,0.3,0,0,0.3426939,0,
6.38225E+17,15.97365,-39.74295,-53.04499,2.276812,53.07815,127.9655,47.94452,-0.8883717,-9.082087,-78.29288,-7.715342,14.50875,0,0,0,-1.10779,-142.075,-172.22,83.37105,-110.3957,-93.13606,0.001067912,-0.1257102,0.09433498,0,0.3,0,0,0.3417122,0,
6.38225E+17,15.52601,-39.74295,-53.3952,2.057076,53.88385,106.6512,47.94452,-0.8883717,-9.082087,-78.29288,-7.642097,14.50875,0,0,0,-1.208152,-141.4221,-172.6988,83.37105,-110.3957,-93.13606,0.001067912,-0.1257102,0.09433498,0,0.3,0,0,0.3397504,0,
6.38225E+17,15.52601,-39.74295,-53.67536,2.057076,54.39656,81.74782,47.94452,-0.8883717,-9.082087,-78.29288,-7.642097,14.50875,0,0,0,-1.311886,-140.8977,-173.0722,83.37105,-110.3957,-93.13606,0.001067912,-0.1257102,0.09433498,0,0.3,0,0,0.3377966,0,
6.38225E+17,15.52601,-39.76632,-53.65202,2.569792,54.25007,53.03571,47.94452,-0.8883717,-9.082087,-78.29288,-7.715342,14.50875,0,0,0,-1.312582,-140.9833,-173.0747,83.37105,-110.3957,-93.13606,0.001067912,-0.1257102,0.09433498,0,0.3,0,0,0.3359759,0,
6.38225E+17,15.52601,-39.76632,-53.62867,2.862773,54.25007,36.77529,47.94452,-0.8883717,-9.082087,-78.29288,-7.715342,14.50875,0,0,0,-1.303959,-141.0271,-173.0436,83.37105,-110.3957,-93.13606,0.001067912,-0.1257102,0.09433498,0,0.3,0,0,0.3351309,0,
6.38225E+17,15.52601,-39.85984,-53.7921,3.302244,54.25007,-0.140279,47.94452,-0.8883717,-9.082087,-78.29288,-7.642097,14.50875,0,0,0,-1.401521,-140.8877,-173.3948,83.37105,-110.3957,-93.13606,0.001067912,-0.1257102,0.09433498,0,0.3,0,0,0.3335098,0,
6.38225E+17,15.52601,-40.09362,-53.65202,3.302244,53.73735,-78.73235,47.94452,-0.8883717,-9.082087,-78.29288,-7.642097,14.50875,0,0,0,-1.443455,-141.5675,-173.5458,83.37105,-110.3957,-93.13606,0.001067912,-0.1257102,0.09433498,0,0.3,0,0,0.3319125,0,
6.38225E+17,15.52601,-40.09362,-53.25511,2.862773,53.15139,-140.8443,47.94452,-0.8883717,-9.082087,-78.29288,-7.715342,14.50875,0,0,0,-1.296215,-142.3096,-173.0158,83.37105,-110.3957,-93.13606,0.001067912,-0.1257102,0.09433498,0,0.3,0,0,0.3303749,0,
6.38225E+17,15.52601,-40.09362,-53.27846,2.716283,52.93166,-141.8697,47.94452,-0.8883717,-9.082087,-78.29288,-7.642097,14.50875,0,0,0,-1.304914,-142.266,-173.0471,83.37105,-110.3957,-93.13606,0.001067912,-0.1257102,0.09433498,0,0.3,0,0,0.3296474,0,
6.38225E+17,15.52601,-40.09362,-53.46524,2.130321,52.56543,-142.0894,47.94452,-0.8883717,-9.082087,-78.29288,-7.642097,14.50875,0,0,0,-1.374337,-141.9172,-173.297,83.37105,-110.3957,-93.13606,0.001067912,-0.1257102,0.09433498,0,0.3,0,0,0.328294,0,
6.38225E+17,15.52601,-40.09362,-53.51193,1.397869,51.90622,-142.1627,47.94452,-0.8883717,-9.082087,-78.29288,-7.715342,14.50875,0,0,0,-1.391645,-141.8298,-173.3593,83.37105,-110.3957,-93.13606,0.001067912,-0.1257102,0.09433498,0,0.3,0,0,0.3270818,0,
6.38225E+17,15.52601,-40.21051,-54.00222,0.738663,51.17377,-142.1627,47.94452,-0.8883717,-9.082087,-78.29288,-7.642097,14.50875,0,0,0,-1.619184,-141.1174,-174.1783,83.37105,-110.3957,-93.13606,0.001067912,-0.1257102,0.09433498,0,0.3,0,0,0.3259962,0,
6.38225E+17,15.52601,-40.30402,-54.25905,0.299192,50.95404,-142.1627,47.94452,-0.8883717,-9.082087,-78.29288,-7.642097,14.50875,0,0,0,-1.750579,-140.7992,-174.6513,83.37105,-110.3957,-93.13606,0.001067912,-0.1257102,0.09433498,0,0.3,0,0,0.3254947,0,
6.38225E+17,15.52601,-40.63132,-54.6326,-0.7262403,50.66106,-142.1627,47.94452,-0.8883717,-9.082087,-78.29288,-7.715342,14.43551,0,0,0,-2.018235,-140.6714,-175.6147,83.37105,-110.3957,-93.13606,0.001067912,-0.1257102,0.09433498,0,0.3,0,0,0.3245597,0,
6.38225E+17,15.52601,-40.88848,-54.98281,-1.531937,50.51457,-140.3315,47.94452,-0.8883717,-9.082087,-78.29288,-7.715342,14.50875,0,0,0,-2.248573,-140.4586,-176.4438,83.37105,-110.3957,-93.13606,0.001067912,-0.1257102,0.09433498,0,0.3,0,0,0.3236996,0,
6.38225E+17,15.52601,-40.98199,-55.33302,-1.751673,50.51457,-131.1026,47.94452,-0.8883717,-9.082087,-78.29288,-7.715342,14.43551,0,0,0,-2.411391,-139.9541,-177.0299,83.37105,-110.3957,-93.13606,0.001067912,-0.1257102,0.09433498,0,0.3,0,0,0.3232996,0,
6.38225E+17,15.52601,-41.00537,-56.12683,-2.044653,50.44132,-107.4445,47.94452,-0.8883717,-9.082087,-78.29288,-7.715342,14.50875,0,0,0,-2.699411,-138.4684,-178.0666,83.37105,-110.3957,-93.13606,0.001067912,-0.1257102,0.09433498,0,0.3,0,0,0.3224874,0,
6.38225E+17,15.54957,-41.00537,-56.45369,-2.191144,50.44132,-85.03143,47.94452,-0.8883717,-9.082087,-78.29288,-7.642097,14.50875,0,0,0,-2.816585,-137.8356,-178.4723,83.37105,-110.3957,-93.13606,0.001067912,-0.1257102,0.09433498,0,0.3,0,0,0.3216186,0,
6.38225E+17,15.57313,-41.00537,-56.47704,-2.191144,50.22158,-66.79338,47.94452,-0.8883717,-9.082087,-78.29288,-7.715342,14.43551,0,0,0,-2.828806,-137.7903,-178.5,83.37105,-110.3957,-93.13606,0.001067912,-0.1257102,0.09433498,0,0.3,0,0,0.3207121,0,
6.38225E+17,15.57313,-41.00537,-56.43034,-2.191144,49.9286,-56.46581,47.94452,-0.8883717,-9.082087,-78.29288,-7.642097,14.50875,0,0,0,-2.812683,-137.8808,-178.4422,83.37105,-110.3957,-93.13606,0.001067912,-0.1257102,0.09433498,0,0.3,0,0,0.320238,0,
6.38225E+17,15.57313,-41.00537,-55.9167,-2.191144,48.97642,-27.53397,47.94452,-0.8883717,-9.082087,-78.29288,-7.715342,14.50875,0,0,0,-2.634024,-138.8739,-177.8011,83.37105,-110.3957,-93.13606,0.001067912,-0.1257102,0.09433498,0,0.3,0,0,0.3192534,0,
6.38225E+17,15.54957,-41.00537,-55.23963,-2.630615,48.24397,7.110993,47.94452,-0.8883717,-9.082087,-78.29288,-7.642097,14.50875,0,0,0,-2.391346,-140.1738,-176.944,83.37105,-110.3957,-93.13606,0.001067912,-0.1257102,0.09433498,0,0.3,0,0,0.3182701,0,
6.38225E+17,15.54957,-41.00537,-54.81938,-2.85035,48.09748,27.03368,47.94452,-0.8883717,-9.082087,-78.29288,-7.715342,14.50875,0,0,0,-2.241066,-140.9753,-176.404,83.37105,-110.3957,-93.13606,0.001067912,-0.1257102,0.09433498,0,0.3,0,0,0.317797,0,
6.38225E+17,15.54957,-41.00537,-54.25905,-3.070086,48.09748,63.80275,47.94452,-0.8883717,-9.082087,-78.29288,-7.715342,14.50875,0,0,0,-2.038249,-142.0375,-175.6751,83.37105,-110.3957,-93.13606,0.001067912,-0.1257102,0.09433498,0,0.3,0,0,0.3168719,0,
6.38225E+17,15.54957,-41.00537,-53.7921,-3.070086,48.17072,96.98281,47.94452,-0.8883717,-9.082087,-78.29288,-7.715342,14.43551,0,0,0,-1.867114,-142.917,-175.06,83.37105,-110.3957,-93.13606,0.001067912,-0.1257102,0.09433498,0,0.3,0,0,0.3159961,0,
6.38225E+17,15.54957,-41.00537,-53.32516,-2.630615,48.53695,130.6756,47.94452,-0.8883717,-9.082087,-78.21963,-7.715342,14.43551,0,0,0,-1.694064,-143.7913,-174.4381,83.37105,-110.3957,-93.13606,0.001067912,-0.1257102,0.09433498,0,0.3,0,0,0.3151871,0,
