zeyangz2/DNN_classification_different_people_hand/data/srikar_right_13.csv
Timestamp,Therapist joint angle 0,Therapist joint angle 1,Therapist joint angle 2,Therapist joint angle 3,Therapist joint angle 4,Therapist joint angle 5,Patient joint angle 0,Patient joint angle 1,Patient joint angle 2,Patient joint angle 3,Patient joint angle 4,Patient joint angle 5,Virtual joint angle 0,Virtual joint angle 1,Virtual joint angle 2,Therapist position x,Therapist position y,Therapist position z,Patient position x,Patient position y,Patient position z,Virtual position x,Virtual position y,Virtual position z,Assistive Force, Obstacle Force Magnitude, Therapist Constant Force, Patient Constant Force, Recovery Factor, Assistance Level,label
6.38224E+17,0,0,0,0,0,0,0,0,0,0,0,0,0,0,0,0,0,0,0,0,0,0,0,0,0,0.3,0,0,0,0,2
6.38224E+17,-31.28763,-0.9117499,-2.194643,-76.242,-62.79571,72.73866,-0.612559,-1.262423,-9.175476,13.70306,-0.9767859,39.19238,0,0,0,-66.59249,-112.0241,-58.7713,-1.197964,-111.2317,-56.30258,0.001067912,-0.1257102,0.09433498,0,0.3,0,0,1.17E-07,0,
6.38224E+17,-31.28763,-0.9117499,-2.194643,-76.31525,-62.79571,72.73866,-0.612559,-1.262423,-9.175476,13.70306,-0.9767859,39.19238,0,0,0,-66.59249,-112.0241,-58.7713,-1.197964,-111.2317,-56.30258,0.001067912,-0.1257102,0.09433498,0,0.3,0,0,1.17E-07,0,
6.38224E+17,-31.28763,-0.9117499,-2.194643,-76.242,-62.72246,72.8119,-0.612559,-1.262423,-9.175476,13.70306,-0.9767859,39.19238,0,0,0,-66.59249,-112.0241,-58.7713,-1.197964,-111.2317,-56.30258,0.001067912,-0.1257102,0.09433498,0,0.3,0,0,1.17E-07,0,
6.38224E+17,-31.28763,-0.9117499,-2.194643,-76.31525,-62.79571,72.8119,-0.612559,-1.262423,-9.175476,13.70306,-0.9767859,39.26562,0,0,0,-66.59249,-112.0241,-58.7713,-1.197964,-111.2317,-56.30258,0.001067912,-0.1257102,0.09433498,0,0.3,0,0,0,0,
6.38224E+17,-31.28763,-0.9117499,-2.194643,-76.31525,-62.79571,72.8119,-0.612559,-1.262423,-9.175476,13.70306,-0.9767859,39.19238,0,0,0,-66.59249,-112.0241,-58.7713,-1.197964,-111.2317,-56.30258,0.001067912,-0.1257102,0.09433498,0,0.3,0,0,0,0,
6.38224E+17,-31.28763,-0.9117499,-2.194643,-76.242,-62.79571,72.73866,-0.612559,-1.262423,-9.175476,13.62981,-0.9767859,39.19238,0,0,0,-66.59249,-112.0241,-58.7713,-1.197964,-111.2317,-56.30258,0.001067912,-0.1257102,0.09433498,0,0.3,0,0,0,0,
6.38224E+17,-31.28763,-0.9117499,-2.194643,-76.31525,-62.79571,72.8119,-0.612559,-1.262423,-9.175476,13.70306,-0.9035407,39.19238,0,0,0,-66.59249,-112.0241,-58.7713,-1.197964,-111.2317,-56.30258,0.001067912,-0.1257102,0.09433498,0,0.3,0,0,0,0,
6.38224E+17,-31.28763,-0.9117499,-2.194643,-76.31525,-62.79571,72.8119,-0.612559,-1.262423,-9.175476,13.62981,-0.9767859,39.19238,0,0,0,-66.59249,-112.0241,-58.7713,-1.197964,-111.2317,-56.30258,0.001067912,-0.1257102,0.09433498,0,0.3,0,0,0,0,
6.38224E+17,-31.28763,-0.9117499,-2.194643,-76.31525,-62.79571,72.73866,-0.612559,-1.262423,-9.175476,13.70306,-0.9035407,39.19238,0,0,0,-66.59249,-112.0241,-58.7713,-1.197964,-111.2317,-56.30258,0.001067912,-0.1257102,0.09433498,0,0.3,0,0,0,0,
6.38224E+17,-31.28763,-0.9117499,-2.194643,-76.242,-62.79571,72.73866,-0.612559,-1.262423,-9.175476,13.62981,-0.9767859,39.19238,0,0,0,-66.59249,-112.0241,-58.7713,-1.197964,-111.2317,-56.30258,0.001067912,-0.1257102,0.09433498,0,0.3,0,0,0,0,
6.38224E+17,-31.28763,-0.9117499,-2.194643,-76.31525,-62.79571,72.73866,-0.612559,-1.262423,-9.175476,13.70306,-0.9035407,39.19238,0,0,0,-66.59249,-112.0241,-58.7713,-1.197964,-111.2317,-56.30258,0.001067912,-0.1257102,0.09433498,0,0.3,0,0,0,0,
6.38224E+17,-31.28763,-0.9117499,-2.194643,-76.242,-62.79571,72.73866,-0.612559,-1.262423,-9.175476,13.70306,-0.9767859,39.19238,0,0,0,-66.59249,-112.0241,-58.7713,-1.197964,-111.2317,-56.30258,0.001067912,-0.1257102,0.09433498,0,0.3,0,0,0,0,
6.38224E+17,-31.28763,-0.9117499,-2.194643,-76.31525,-62.79571,72.73866,-0.612559,-1.262423,-9.175476,13.70306,-0.9767859,39.19238,0,0,0,-66.59249,-112.0241,-58.7713,-1.197964,-111.2317,-56.30258,0.001067912,-0.1257102,0.09433498,0,0.3,0,0,0,0,
6.38224E+17,-31.28763,-0.9117499,-2.194643,-76.31525,-62.79571,72.73866,-0.612559,-1.262423,-9.175476,13.70306,-0.9767859,39.19238,0,0,0,-66.59249,-112.0241,-58.7713,-1.197964,-111.2317,-56.30258,0.001067912,-0.1257102,0.09433498,0,0.3,0,0,0,0,
6.38224E+17,-31.28763,-0.9117499,-2.194643,-76.31525,-62.79571,72.73866,-0.612559,-1.262423,-9.175476,13.70306,-0.9767859,39.19238,0,0,0,-66.59249,-112.0241,-58.7713,-1.197964,-111.2317,-56.30258,0.001067912,-0.1257102,0.09433498,0,0.3,0,0,0,0,
6.38224E+17,-31.28763,-0.9117499,-2.194643,-76.31525,-62.79571,72.8119,-0.612559,-1.262423,-9.175476,13.62981,-0.9767859,39.19238,0,0,0,-66.59249,-112.0241,-58.7713,-1.197964,-111.2317,-56.30258,0.001067912,-0.1257102,0.09433498,0,0.3,0,0,0,0,
6.38224E+17,-31.28763,-0.9117499,-2.194643,-76.31525,-62.79571,72.73866,-0.612559,-1.262423,-9.175476,13.70306,-0.9035407,39.19238,0,0,0,-66.59249,-112.0241,-58.7713,-1.197964,-111.2317,-56.30258,0.001067912,-0.1257102,0.09433498,0,0.3,0,0,0,0,
6.38224E+17,-31.28763,-0.9117499,-2.194643,-76.31525,-62.79571,72.73866,-0.612559,-1.262423,-9.175476,13.70306,-0.9035407,39.19238,0,0,0,-66.59249,-112.0241,-58.7713,-1.197964,-111.2317,-56.30258,0.001067912,-0.1257102,0.09433498,0,0.3,0,0,0,0,
6.38224E+17,-31.28763,-0.9117499,-2.194643,-76.31525,-62.79571,72.73866,-0.612559,-1.262423,-9.175476,13.62981,-0.9767859,39.19238,0,0,0,-66.59249,-112.0241,-58.7713,-1.197964,-111.2317,-56.30258,0.001067912,-0.1257102,0.09433498,0,0.3,0,0,0,0,
6.38224E+17,-31.28763,-0.9117499,-2.194643,-76.31525,-62.79571,72.73866,-0.612559,-1.262423,-9.175476,13.70306,-0.9767859,39.19238,0,0,0,-66.59249,-112.0241,-58.7713,-1.197964,-111.2317,-56.30258,0.001067912,-0.1257102,0.09433498,0,0.3,0,0,1.17E-07,0,
6.38224E+17,-31.28763,-0.9117499,-2.194643,-76.31525,-62.79571,72.73866,-0.612559,-1.262423,-9.175476,13.70306,-0.9035407,39.19238,0,0,0,-66.59249,-112.0241,-58.7713,-1.197964,-111.2317,-56.30258,0.001067912,-0.1257102,0.09433498,0,0.3,0,0,2.33E-07,0,
6.38224E+17,-31.28763,-0.9117499,-2.194643,-76.31525,-62.79571,72.73866,-0.612559,-1.262423,-9.175476,13.70306,-0.9767859,39.19238,0,0,0,-66.59249,-112.0241,-58.7713,-1.197964,-111.2317,-56.30258,0.001067912,-0.1257102,0.09433498,0,0.3,0,0,2.33E-07,0,
6.38224E+17,-31.28763,-0.9117499,-2.194643,-76.31525,-62.79571,72.73866,-0.612559,-1.262423,-9.175476,13.70306,-0.9767859,39.19238,0,0,0,-66.59249,-112.0241,-58.7713,-1.197964,-111.2317,-56.30258,0.001067912,-0.1257102,0.09433498,0,0.3,0,0,3.50E-07,0,
6.38224E+17,-31.28763,-0.9117499,-2.194643,-76.31525,-62.79571,72.8119,-0.612559,-1.262423,-9.175476,13.62981,-0.9767859,39.19238,0,0,0,-66.59249,-112.0241,-58.7713,-1.197964,-111.2317,-56.30258,0.001067912,-0.1257102,0.09433498,0,0.3,0,0,4.66E-07,0,
6.38224E+17,-31.28763,-0.9117499,-2.194643,-76.31525,-62.79571,72.8119,-0.612559,-1.262423,-9.175476,13.70306,-0.9035407,39.26562,0,0,0,-66.59249,-112.0241,-58.7713,-1.197964,-111.2317,-56.30258,0.001067912,-0.1257102,0.09433498,0,0.3,0,0,4.66E-07,0,
6.38224E+17,-31.28763,-0.9117499,-2.21799,-76.16876,-62.79571,72.8119,-0.612559,-1.262423,-9.175476,13.70306,-0.9767859,39.26562,0,0,0,-66.56429,-112.022,-58.8177,-1.197964,-111.2317,-56.30258,0.001067912,-0.1257102,0.09433498,0,0.3,0,0,9.44E-06,0,
6.38224E+17,-31.09915,-1.005263,-3.898993,-74.70387,-62.79571,72.66542,-0.612559,-1.262423,-9.175476,13.70306,-0.9767859,39.19238,0,0,0,-64.18387,-112.0309,-61.94761,-1.197964,-111.2317,-56.30258,0.001067912,-0.1257102,0.09433498,0,0.3,0,0,0.000759373,0,
6.38224E+17,-30.43947,-0.9351282,-7.868029,-68.91749,-62.57597,72.44569,-0.612559,-1.262423,-9.175476,13.70306,-0.9767859,39.19238,0,0,0,-58.30157,-110.921,-69.13403,-1.197964,-111.2317,-56.30258,0.001067912,-0.1257102,0.09433498,0,0.3,0,0,0.004360509,0,
6.38224E+17,-30.10963,-0.9585064,-9.035392,-66.28067,-62.06326,72.59217,-0.612559,-1.262423,-9.175476,13.70306,-0.9767859,39.19238,0,0,0,-56.38086,-110.576,-71.12558,-1.197964,-111.2317,-56.30258,0.001067912,-0.1257102,0.09433498,0,0.3,0,0,0.006810694,0,
6.38224E+17,-29.87403,-0.9351282,-8.942002,-63.86357,-60.6716,69.80886,-0.612559,-1.262423,-9.175476,13.62981,-0.9767859,39.19238,0,0,0,-56.08798,-110.5556,-70.70763,-1.197964,-111.2317,-56.30258,0.001067912,-0.1257102,0.09433498,0,0.3,0,0,0.01168472,0,
6.38224E+17,-29.87403,-0.9351282,-8.405016,-62.32543,-58.98696,66.51283,-0.612559,-1.262423,-9.175476,13.70306,-0.9767859,39.19238,0,0,0,-56.70337,-110.7441,-69.63631,-1.197964,-111.2317,-56.30258,0.001067912,-0.1257102,0.09433498,0,0.3,0,0,0.01602471,0,
6.38224E+17,-29.87403,-0.9351282,-8.381668,-59.39562,-57.88828,64.82819,-0.612559,-1.262423,-9.175476,13.62981,-0.9767859,39.19238,0,0,0,-56.73014,-110.752,-69.5897,-1.197964,-111.2317,-56.30258,0.001067912,-0.1257102,0.09433498,0,0.3,0,0,0.02000588,0,
6.38224E+17,-29.87403,-0.9351282,-8.451711,-55.44038,-57.37556,64.31547,-0.612559,-1.262423,-9.175476,13.70306,-0.9767859,39.26562,0,0,0,-56.64982,-110.7281,-69.72953,-1.197964,-111.2317,-56.30258,0.001067912,-0.1257102,0.09433498,0,0.3,0,0,0.02372453,0,
6.38224E+17,-29.82691,-0.9351282,-8.451711,-54.63469,-57.15583,66.21985,-0.612559,-1.262423,-9.175476,13.70306,-0.9767859,39.19238,0,0,0,-56.5687,-110.7281,-69.68298,-1.197964,-111.2317,-56.30258,0.001067912,-0.1257102,0.09433498,0,0.3,0,0,0.02551833,0,
6.38224E+17,-29.54419,-0.9351282,-8.334974,-57.71098,-55.25146,76.84039,-0.612559,-1.262423,-9.175476,13.70306,-0.9767859,39.19238,0,0,0,-56.21368,-110.7678,-69.17121,-1.197964,-111.2317,-56.30258,0.001067912,-0.1257102,0.09433498,0,0.3,0,0,0.02909073,0,
6.38224E+17,-29.16723,-0.9351282,-8.311626,-61.08026,-50.56377,95.95738,-0.612559,-1.262423,-9.175476,13.70306,-0.9035407,39.19238,0,0,0,-55.58616,-110.7757,-68.75658,-1.197964,-111.2317,-56.30258,0.001067912,-0.1257102,0.09433498,0,0.3,0,0,0.03277091,0,
6.38224E+17,-29.04943,-0.9351282,-8.451711,-62.03245,-47.26773,107.9696,-0.612559,-1.262423,-9.175476,13.70306,-0.9035407,39.19238,0,0,0,-55.22466,-110.7281,-68.92447,-1.197964,-111.2317,-56.30258,0.001067912,-0.1257102,0.09433498,0,0.3,0,0,0.03463728,0,
6.38224E+17,-28.76671,-0.9117499,-8.801919,-64.01007,-41.26163,117.8577,-0.612559,-1.262423,-9.175476,13.70306,-0.9767859,39.19238,0,0,0,-54.346,-110.5515,-69.35881,-1.197964,-111.2317,-56.30258,0.001067912,-0.1257102,0.09433498,0,0.3,0,0,0.03845286,0,
6.38224E+17,-28.27195,-0.9117499,-8.825266,-68.25829,-36.20771,121.3735,-0.612559,-1.262423,-9.175476,13.70306,-0.9767859,39.19238,0,0,0,-53.46374,-110.5432,-68.94051,-1.197964,-111.2317,-56.30258,0.001067912,-0.1257102,0.09433498,0,0.3,0,0,0.04244522,0,
6.38224E+17,-27.89499,-0.9117499,-8.825266,-70.52889,-34.01036,122.2524,-0.612559,-1.262423,-9.175476,13.70306,-0.9767859,39.26562,0,0,0,-52.80856,-110.5432,-68.59092,-1.197964,-111.2317,-56.30258,0.001067912,-0.1257102,0.09433498,0,0.3,0,0,0.04457343,0,
6.38224E+17,-26.81124,-0.9117499,-8.825266,-72.5065,-29.68889,122.8384,-0.612559,-1.262423,-9.175476,13.70306,-0.9767859,39.19238,0,0,0,-50.91226,-110.5432,-67.60994,-1.197964,-111.2317,-56.30258,0.001067912,-0.1257102,0.09433498,0,0.3,0,0,0.04929835,0,
6.38224E+17,-25.20916,-0.9117499,-8.825266,-71.48107,-26.4661,122.9116,-0.612559,-1.262423,-9.175476,13.70306,-0.9767859,39.19238,0,0,0,-48.07588,-110.5432,-66.22592,-1.197964,-111.2317,-56.30258,0.001067912,-0.1257102,0.09433498,0,0.3,0,0,0.05490581,0,
6.38224E+17,-22.97096,-0.7481025,-8.825266,-67.89206,-24.342,122.3989,-0.612559,-1.262423,-9.175476,13.70306,-0.9767859,39.19238,0,0,0,-44.05301,-110.1623,-64.4212,-1.197964,-111.2317,-56.30258,0.001067912,-0.1257102,0.09433498,0,0.3,0,0,0.06187971,0,
6.38224E+17,-19.93173,-0.5376987,-8.801919,-61.51973,-22.95034,119.9085,-0.612559,-1.262423,-9.175476,13.62981,-0.9035407,39.19238,0,0,0,-38.50094,-109.681,-62.17605,-1.197964,-111.2317,-56.30258,0.001067912,-0.1257102,0.09433498,0,0.3,0,0,0.07060003,0,
6.38224E+17,-18.75373,-0.5143204,-8.801919,-58.95615,-22.65736,118.3704,-0.612559,-1.262423,-9.175476,13.62981,-0.9767859,39.19238,0,0,0,-36.31019,-109.6266,-61.4065,-1.197964,-111.2317,-56.30258,0.001067912,-0.1257102,0.09433498,0,0.3,0,0,0.07555775,0,
6.38224E+17,-15.21973,-0.4441859,-8.801919,-51.04567,-21.70517,113.5362,-0.612559,-1.262423,-9.175476,13.70306,-0.9767859,39.19238,0,0,0,-29.64943,-109.4634,-59.37036,-1.197964,-111.2317,-56.30258,0.001067912,-0.1257102,0.09433498,0,0.3,0,0,0.0870626,0,
6.38224E+17,-11.54438,-0.1402692,-8.801919,-43.28168,-20.60649,109.5077,-0.612559,-1.262423,-9.175476,13.70306,-0.9767859,39.19238,0,0,0,-22.60324,-108.756,-57.69035,-1.197964,-111.2317,-56.30258,0.001067912,-0.1257102,0.09433498,0,0.3,0,0,0.1005986,0,
6.38224E+17,-7.704108,0.233782,-8.778571,-36.1769,-18.70212,107.3104,-0.612559,-1.262423,-9.175476,13.70306,-0.9767859,39.19238,0,0,0,-15.14813,-107.8938,-56.37245,-1.197964,-111.2317,-56.30258,0.001067912,-0.1257102,0.09433498,0,0.3,0,0,0.1161287,0,
6.38224E+17,-5.701511,0.3740513,-8.70853,-33.02736,-17.60344,106.4314,-0.612559,-1.262423,-9.175476,13.70306,-0.9767859,39.19238,0,0,0,-11.24168,-107.5921,-55.75289,-1.197964,-111.2317,-56.30258,0.001067912,-0.1257102,0.09433498,0,0.3,0,0,0.1246043,0,
6.38224E+17,-1.649197,0.6545897,-8.381668,-27.38748,-15.03986,103.7946,-0.612559,-1.262423,-9.175476,13.62981,-0.9767859,39.19238,0,0,0,-3.278132,-107.0522,-54.49385,-1.197964,-111.2317,-56.30258,0.001067912,-0.1257102,0.09433498,0,0.3,0,0,0.1426151,0,
6.38224E+17,2.403116,1.052019,-7.914723,-21.52787,-12.11005,102.0367,-0.612559,-1.262423,-9.175476,13.70306,-0.9767859,39.26562,0,0,0,4.820496,-106.2814,-53.48576,-1.197964,-111.2317,-56.30258,0.001067912,-0.1257102,0.09433498,0,0.3,0,0,0.1595103,0,
6.38224E+17,4.122993,1.239045,-7.681251,-18.67131,-10.64515,101.7438,-0.612559,-1.262423,-9.175476,13.70306,-0.9767859,39.19238,0,0,0,8.303827,-105.9199,-53.15389,-1.197964,-111.2317,-56.30258,0.001067912,-0.1257102,0.09433498,0,0.3,0,0,0.1669252,0,
6.38224E+17,7.939706,1.800122,-6.934138,-11.93275,-7.12938,102.1832,-0.612559,-1.262423,-9.175476,13.70306,-0.9767859,39.19238,0,0,0,16.18689,-104.8357,-52.28827,-1.197964,-111.2317,-56.30258,0.001067912,-0.1257102,0.09433498,0,0.3,0,0,0.1794264,0,
6.38224E+17,10.5313,2.59498,-6.257067,-7.171815,-4.126328,102.5494,-0.612559,-1.262423,-9.175476,13.70306,-0.9035407,39.19238,0,0,0,21.69137,-103.1681,-51.66962,-1.197964,-111.2317,-56.30258,0.001067912,-0.1257102,0.09433498,0,0.3,0,0,0.1893744,0,
6.38224E+17,13.45274,4.208076,-4.996315,-1.385447,-0.5373149,102.6227,-0.612559,-1.262423,-9.175476,13.70306,-0.9767859,39.19238,0,0,0,28.23749,-99.70825,-50.30349,-1.197964,-111.2317,-56.30258,0.001067912,-0.1257102,0.09433498,0,0.3,0,0,0.1965962,0,
6.38224E+17,14.70142,5.189961,-4.179161,1.251379,1.000834,102.6227,-0.612559,-1.262423,-9.175476,13.70306,-0.9767859,39.19238,0,0,0,31.23683,-97.58284,-49.29427,-1.197964,-111.2317,-56.30258,0.001067912,-0.1257102,0.09433498,0,0.3,0,0,0.1992266,0,
6.38224E+17,16.77469,7.457647,-2.568199,5.93907,3.417924,102.3297,-0.612559,-1.262423,-9.175476,13.62981,-0.9767859,39.19238,0,0,0,36.43595,-92.55813,-47.47538,-1.197964,-111.2317,-56.30258,0.001067912,-0.1257102,0.09433498,0,0.3,0,0,0.2026743,0,
6.38224E+17,18.32965,10.16952,-1.587614,9.528083,4.956073,102.0367,-0.612559,-1.262423,-9.175476,13.70306,-0.9035407,39.19238,0,0,0,40.1157,-86.40439,-47.26156,-1.197964,-111.2317,-56.30258,0.001067912,-0.1257102,0.09433498,0,0.3,0,0,0.2040612,0,
6.38224E+17,19.34273,13.18531,-1.377489,11.43246,6.05475,101.9635,-0.612559,-1.262423,-9.175476,13.70306,-0.9767859,39.19238,0,0,0,41.94179,-79.54417,-48.86877,-1.197964,-111.2317,-56.30258,0.001067912,-0.1257102,0.09433498,0,0.3,0,0,0.2038261,0,
6.38224E+17,19.71969,14.89192,-1.307447,11.65219,6.494221,101.9635,-0.612559,-1.262423,-9.175476,13.70306,-0.9767859,39.19238,0,0,0,42.45686,-75.69481,-49.90084,-1.197964,-111.2317,-56.30258,0.001067912,-0.1257102,0.09433498,0,0.3,0,0,0.2031581,0,
6.38224E+17,20.02597,18.235,-0.6303762,11.21272,7.006938,101.8902,-0.612559,-1.262423,-9.175476,13.62981,-0.9767859,39.19238,0,0,0,42.86951,-68.26469,-50.73286,-1.197964,-111.2317,-56.30258,0.001067912,-0.1257102,0.09433498,0,0.3,0,0,0.2007662,0,
6.38224E+17,20.09665,21.06376,0.6537234,9.967555,7.006938,101.817,-0.612559,-1.262423,-9.175476,13.62981,-0.9035407,39.26562,0,0,0,43.28084,-62.06444,-50.05809,-1.197964,-111.2317,-56.30258,0.001067912,-0.1257102,0.09433498,0,0.3,0,0,0.1969527,0,
6.38224E+17,20.19089,22.34956,2.241338,8.795631,7.739389,99.32666,-0.612559,-1.262423,-9.175476,13.70306,-0.9035407,39.19238,0,0,0,44.36822,-59.1908,-47.70149,-1.197964,-111.2317,-56.30258,0.001067912,-0.1257102,0.09433498,0,0.3,0,0,0.1923637,0,
6.38224E+17,20.19089,22.67686,2.801672,8.35616,8.984557,97.42229,-0.612559,-1.262423,-9.175476,13.70306,-0.9035407,39.19238,0,0,0,44.71723,-58.42973,-46.75245,-1.197964,-111.2317,-56.30258,0.001067912,-0.1257102,0.09433498,0,0.3,0,0,0.1899181,0,
6.38224E+17,20.21445,23.98604,3.922341,7.257483,12.28059,95.37142,-0.612559,-1.262423,-9.175476,13.70306,-0.9767859,39.19238,0,0,0,45.24993,-55.47901,-45.45991,-1.197964,-111.2317,-56.30258,0.001067912,-0.1257102,0.09433498,0,0.3,0,0,0.1846259,0,
6.38224E+17,20.47361,26.16021,5.72008,5.719335,14.62444,93.90652,-0.612559,-1.262423,-9.175476,13.70306,-0.9767859,39.19238,0,0,0,46.51356,-50.54431,-43.76891,-1.197964,-111.2317,-56.30258,0.001067912,-0.1257102,0.09433498,0,0.3,0,0,0.1783839,0,
6.38224E+17,20.77989,27.49277,6.770707,4.986883,15.2104,93.46705,-0.612559,-1.262423,-9.175476,13.70306,-0.9767859,39.19238,0,0,0,47.54466,-47.51076,-43.05531,-1.197964,-111.2317,-56.30258,0.001067912,-0.1257102,0.09433498,0,0.3,0,0,0.1747561,0,
6.38224E+17,22.09924,30.90598,9.035392,4.034696,15.72311,92.88109,-0.612559,-1.262423,-9.175476,13.70306,-0.9767859,39.19238,0,0,0,50.92319,-39.85265,-42.93655,-1.197964,-111.2317,-56.30258,0.001067912,-0.1257102,0.09433498,0,0.3,0,0,0.1661315,0,
6.38224E+17,24.21964,34.95041,10.7164,4.547412,15.28364,92.7346,-0.612559,-1.262423,-9.175476,13.70306,-0.9767859,39.19238,0,0,0,55.01105,-31.28247,-46.057,-1.197964,-111.2317,-56.30258,0.001067912,-0.1257102,0.09433498,0,0.3,0,0,0.1556041,0,
6.38224E+17,26.62276,39.71957,13.56476,6.598277,14.77092,93.02757,-0.612559,-1.262423,-9.175476,13.70306,-0.9035407,39.19238,0,0,0,59.97866,-21.06554,-48.69411,-1.197964,-111.2317,-56.30258,0.001067912,-0.1257102,0.09433498,0,0.3,0,0,0.1428958,0,
6.38224E+17,27.56516,42.29117,15.61932,7.989935,14.62444,93.32056,-0.612559,-1.262423,-9.175476,13.70306,-0.9767859,39.19238,0,0,0,62.26275,-15.34461,-49.07572,-1.197964,-111.2317,-56.30258,0.001067912,-0.1257102,0.09433498,0,0.3,0,0,0.1288092,0,
6.38224E+17,27.98923,43.81075,16.83338,8.868877,14.55119,93.3938,-0.612559,-1.262423,-9.175476,13.70306,-0.9767859,39.19238,0,0,0,63.28406,-11.97073,-49.27602,-1.197964,-111.2317,-56.30258,0.001067912,-0.1257102,0.09433498,0,0.3,0,0,0.1212843,0,
6.38224E+17,28.48399,46.7564,18.72451,9.967555,14.47795,93.68678,-0.612559,-1.262423,-9.175476,13.70306,-0.9035407,39.19238,0,0,0,63.98557,-5.803708,-50.42469,-1.197964,-111.2317,-56.30258,0.001067912,-0.1257102,0.09433498,0,0.3,0,0,0.105547,0,
6.38224E+17,28.50755,49.04747,20.102,10.0408,15.28364,94.41924,-0.612559,-1.262423,-9.175476,13.70306,-0.9035407,39.19238,0,0,0,63.58894,-1.163652,-51.27055,-1.197964,-111.2317,-56.30258,0.001067912,-0.1257102,0.09433498,0,0.3,0,0,0.08934095,0,
6.38224E+17,28.50755,51.45543,21.82969,10.11404,17.11477,94.78546,-0.612559,-1.262423,-9.175476,13.70306,-0.9035407,39.19238,0,0,0,63.32458,3.85828,-51.75729,-1.197964,-111.2317,-56.30258,0.001067912,-0.1257102,0.09433498,0,0.3,0,0,0.07270602,0,
6.38224E+17,28.50755,54.33094,24.02434,11.06623,19.01915,94.8587,-0.612559,-1.262423,-9.175476,13.70306,-0.9767859,39.19238,0,0,0,63.02258,9.885111,-52.31332,-1.197964,-111.2317,-56.30258,0.001067912,-0.1257102,0.09433498,0,0.3,0,0,0.05543984,0,
6.38224E+17,28.46043,57.53376,25.91546,12.89736,19.67835,94.8587,-0.612559,-1.262423,-9.175476,13.70306,-0.9767859,39.26562,0,0,0,61.88621,15.91814,-54.18183,-1.197964,-111.2317,-56.30258,0.001067912,-0.1257102,0.09433498,0,0.3,0,0,0.03756275,0,
6.38224E+17,28.38975,58.93645,26.45245,13.99604,19.45862,94.78546,-0.612559,-1.262423,-9.175476,13.70306,-0.9767859,39.19238,0,0,0,60.95889,18.18818,-55.56068,-1.197964,-111.2317,-56.30258,0.001067912,-0.1257102,0.09433498,0,0.3,0,0,0.02850873,0,
6.38224E+17,27.98923,61.25089,26.56919,16.33988,18.50643,93.90652,-0.612559,-1.262423,-9.175476,13.70306,-0.9767859,39.19238,0,0,0,58.09186,20.99495,-59.04556,-1.197964,-111.2317,-56.30258,0.001067912,-0.1257102,0.09433498,0,0.3,0,0,0.01051255,0,
6.38224E+17,27.51804,62.06913,25.70534,18.53724,17.62749,91.41618,-0.612559,-1.262423,-9.175476,13.62981,-0.9767859,39.19238,0,0,0,55.58266,21.01328,-61.6587,-1.197964,-111.2317,-56.30258,0.001067912,-0.1257102,0.09433498,0,0.3,0,0,0,0,
6.38224E+17,27.37668,62.02237,24.86484,19.70916,17.55424,89.21883,-0.612559,-1.262423,-9.175476,13.62981,-0.9767859,39.19238,0,0,0,54.55013,20.12675,-63.00719,-1.197964,-111.2317,-56.30258,0.001067912,-0.1257102,0.09433498,0,0.3,0,0,0,0,
6.38224E+17,27.11752,61.22752,22.15656,21.61354,18.06696,85.41007,-0.612559,-1.262423,-9.175476,13.70306,-0.9767859,39.19238,0,0,0,52.18064,16.73332,-66.45691,-1.197964,-111.2317,-56.30258,0.001067912,-0.1257102,0.09433498,0,0.3,0,0,0,0,
6.38224E+17,26.57564,59.77807,19.98526,22.78546,19.7516,87.31445,-0.612559,-1.262423,-9.175476,13.70306,-0.9035407,39.19238,0,0,0,50.41869,13.25562,-67.55918,-1.197964,-111.2317,-56.30258,0.001067912,-0.1257102,0.09433498,0,0.3,0,0,0,0,
6.38224E+17,26.29292,58.93645,19.07472,23.07844,20.85028,89.29208,-0.612559,-1.262423,-9.175476,13.70306,-0.9767859,39.19238,0,0,0,49.78252,11.54883,-67.59135,-1.197964,-111.2317,-56.30258,0.001067912,-0.1257102,0.09433498,0,0.3,0,0,0,0,
6.38224E+17,25.93952,56.99606,17.30033,23.51791,23.70683,94.41924,-0.612559,-1.262423,-9.175476,13.70306,-0.9767859,39.19238,0,0,0,49.11855,7.864596,-67.37164,-1.197964,-111.2317,-56.30258,0.001067912,-0.1257102,0.09433498,0,0.3,0,0,0,0,
6.38224E+17,25.8924,55.07904,15.66602,23.73765,26.78313,99.91262,-0.612559,-1.262423,-9.175476,13.70306,-0.9767859,39.19238,0,0,0,49.05868,4.293018,-67.28352,-1.197964,-111.2317,-56.30258,0.001067912,-0.1257102,0.09433498,0,0.3,0,0,0,0,
6.38224E+17,25.86884,54.14392,14.82551,24.03063,28.24804,102.9157,-0.612559,-1.262423,-9.175476,13.70306,-0.9767859,39.19238,0,0,0,48.9678,2.51824,-67.36505,-1.197964,-111.2317,-56.30258,0.001067912,-0.1257102,0.09433498,0,0.3,0,0,0,0,
6.38224E+17,25.68036,52.43731,13.54141,25.1293,30.81162,109.2148,-0.612559,-1.262423,-9.175476,13.62981,-0.9767859,39.19238,0,0,0,48.75956,-0.5882109,-66.94617,-1.197964,-111.2317,-56.30258,0.001067912,-0.1257102,0.09433498,0,0.3,0,0,0,0,
6.38224E+17,25.27984,50.89435,12.72426,26.00825,32.93573,113.8292,-0.612559,-1.262423,-9.175476,13.70306,-0.9767859,39.19238,0,0,0,48.46149,-3.247615,-65.73549,-1.197964,-111.2317,-56.30258,0.001067912,-0.1257102,0.09433498,0,0.3,0,0,0,0,
6.38224E+17,24.7144,49.49166,12.32736,26.59421,35.13308,116.8323,-0.612559,-1.262423,-9.175476,13.70306,-0.9035407,39.19238,0,0,0,48.11796,-5.537927,-63.80327,-1.197964,-111.2317,-56.30258,0.001067912,-0.1257102,0.09433498,0,0.3,0,0,0,0,
6.38224E+17,24.50236,48.93058,12.25731,26.7407,36.23176,118.0774,-0.612559,-1.262423,-9.175476,13.62981,-0.9767859,39.19238,0,0,0,48.0747,-6.425705,-62.8712,-1.197964,-111.2317,-56.30258,0.001067912,-0.1257102,0.09433498,0,0.3,0,0,0,0,
6.38224E+17,24.31388,48.11234,11.9538,27.03368,38.13613,119.9818,-0.612559,-1.262423,-9.175476,13.62981,-0.9767859,39.19238,0,0,0,48.03052,-7.83517,-62.04286,-1.197964,-111.2317,-56.30258,0.001067912,-0.1257102,0.09433498,0,0.3,0,0,0,0,
6.38224E+17,24.29032,47.24735,11.32342,27.61964,39.52779,120.8607,-0.612559,-1.262423,-9.175476,13.70306,-0.9767859,39.19238,0,0,0,48.00801,-9.486554,-61.97612,-1.197964,-111.2317,-56.30258,0.001067912,-0.1257102,0.09433498,0,0.3,0,0,0,0,
6.38224E+17,24.26676,46.61614,10.80978,28.05911,40.04051,121.1537,-0.612559,-1.262423,-9.175476,13.70306,-0.9767859,39.19238,0,0,0,47.92317,-10.7192,-62.04755,-1.197964,-111.2317,-56.30258,0.001067912,-0.1257102,0.09433498,0,0.3,0,0,0,0,
6.38224E+17,24.2432,44.76926,9.502337,28.86481,40.99269,121.3002,-0.612559,-1.262423,-9.175476,13.70306,-0.9767859,39.19238,0,0,0,47.91256,-14.2581,-61.95434,-1.197964,-111.2317,-56.30258,0.001067912,-0.1257102,0.09433498,0,0.3,0,0,0,0,
6.38224E+17,24.17252,42.26779,8.334974,29.817,42.16462,121.5199,-0.612559,-1.262423,-9.175476,13.70306,-0.9767859,39.19238,0,0,0,48.32367,-18.90073,-60.68689,-1.197964,-111.2317,-56.30258,0.001067912,-0.1257102,0.09433498,0,0.3,0,0,0,0,
6.38224E+17,23.93692,39.29876,7.821334,31.13541,43.9225,123.1313,-0.612559,-1.262423,-9.175476,13.70306,-0.9767859,39.26562,0,0,0,49.23147,-24.30037,-57.44587,-1.197964,-111.2317,-56.30258,0.001067912,-0.1257102,0.09433498,0,0.3,0,0,0,0,
6.38224E+17,23.58352,35.90892,7.821334,32.7468,46.04661,125.9147,-0.612559,-1.262423,-9.175476,13.70306,-0.9767859,39.26562,0,0,0,50.47228,-30.54991,-52.73289,-1.197964,-111.2317,-56.30258,0.001067912,-0.1257102,0.09433498,0,0.3,0,0,0,0,
6.38224E+17,23.58352,34.1088,7.727945,33.77223,47.14529,128.0388,-0.612559,-1.262423,-9.175476,13.70306,-0.9767859,39.26562,0,0,0,51.34772,-34.01072,-50.72752,-1.197964,-111.2317,-56.30258,0.001067912,-0.1257102,0.09433498,0,0.3,0,0,0,0,
6.38224E+17,23.58352,31.44369,7.517819,35.45687,48.4637,130.3826,-0.612559,-1.262423,-9.175476,13.70306,-0.9767859,39.19238,0,0,0,52.49712,-39.29036,-48.09456,-1.197964,-111.2317,-56.30258,0.001067912,-0.1257102,0.09433498,0,0.3,0,0,0,0,
6.38224E+17,23.58352,28.77857,7.447778,36.77529,49.2694,131.1151,-0.612559,-1.262423,-9.175476,13.70306,-0.9767859,39.19238,0,0,0,53.67734,-44.67685,-45.39105,-1.197964,-111.2317,-56.30258,0.001067912,-0.1257102,0.09433498,0,0.3,0,0,0,0,
6.38224E+17,23.55996,27.58628,7.447778,37.21476,49.48914,131.2616,-0.612559,-1.262423,-9.175476,13.70306,-0.9767859,39.19238,0,0,0,54.17072,-47.21923,-44.12155,-1.197964,-111.2317,-56.30258,0.001067912,-0.1257102,0.09433498,0,0.3,0,0,0,0,
6.38224E+17,23.46572,25.41211,7.447778,37.87396,49.85536,131.3348,-0.612559,-1.262423,-9.175476,13.70306,-0.9767859,39.19238,0,0,0,54.84526,-51.65103,-42.00788,-1.197964,-111.2317,-56.30258,0.001067912,-0.1257102,0.09433498,0,0.3,0,0,0,0,
6.38224E+17,23.27724,24.10293,7.42443,38.24019,50.00185,131.2616,-0.612559,-1.262423,-9.175476,13.70306,-0.9767859,39.19238,0,0,0,54.9123,-54.42493,-40.70552,-1.197964,-111.2317,-56.30258,0.001067912,-0.1257102,0.09433498,0,0.3,0,0,0,0,
6.38224E+17,22.7118,23.7055,7.354388,38.38668,50.14834,130.6023,-0.612559,-1.262423,-9.175476,13.70306,-0.9767859,39.19238,0,0,0,53.73225,-55.29153,-39.97321,-1.197964,-111.2317,-56.30258,0.001067912,-0.1257102,0.09433498,0,0.3,0,0,0,0,
6.38224E+17,22.16992,23.72888,7.237653,38.45993,50.22158,130.2361,-0.612559,-1.262423,-9.175476,13.70306,-0.9767859,39.19238,0,0,0,52.40578,-55.27621,-39.74062,-1.197964,-111.2317,-56.30258,0.001067912,-0.1257102,0.09433498,0,0.3,0,0,0,0,
6.38224E+17,20.68565,23.82239,7.097569,37.80072,50.29483,130.0896,-0.612559,-1.262423,-9.175476,13.70306,-0.9767859,39.19238,0,0,0,48.91161,-55.11773,-38.81104,-1.197964,-111.2317,-56.30258,0.001067912,-0.1257102,0.09433498,0,0.3,0,0,0,0,
6.38224E+17,18.68305,24.26657,7.027527,36.4823,50.29483,130.0896,-0.612559,-1.262423,-9.175476,13.70306,-0.9767859,39.19238,0,0,0,44.16827,-54.19368,-37.73322,-1.197964,-111.2317,-56.30258,0.001067912,-0.1257102,0.09433498,0,0.3,0,0,0,0,
6.38224E+17,15.64381,25.66927,7.00418,33.91872,50.51457,130.0164,-0.612559,-1.262423,-9.175476,13.70306,-0.9035407,39.19238,0,0,0,36.79475,-51.24086,-36.95403,-1.197964,-111.2317,-56.30258,0.001067912,-0.1257102,0.09433498,0,0.3,0,0,0,0,
6.38224E+17,13.07578,27.3525,7.027527,31.2819,50.66106,130.0164,-0.612559,-1.262423,-9.175476,13.70306,-0.9035407,39.26562,0,0,0,30.48711,-47.72874,-37.08811,-1.197964,-111.2317,-56.30258,0.001067912,-0.1257102,0.09433498,0,0.3,0,0,0,0,
6.38224E+17,11.3559,28.52141,7.214305,29.23104,50.7343,129.9431,-0.612559,-1.262423,-9.175476,13.62981,-0.9767859,39.19238,0,0,0,26.36778,-45.27142,-37.05891,-1.197964,-111.2317,-56.30258,0.001067912,-0.1257102,0.09433498,0,0.3,0,0,0,0,
6.38224E+17,7.586308,31.70084,8.171543,24.4701,50.7343,130.0164,-0.612559,-1.262423,-9.175476,13.70306,-0.9767859,39.19238,0,0,0,17.48052,-38.57278,-37.10032,-1.197964,-111.2317,-56.30258,0.001067912,-0.1257102,0.09433498,0,0.3,0,0,0,0,
6.38224E+17,3.769594,36.54013,9.689116,18.97671,49.70887,129.9431,-0.612559,-1.262423,-9.175476,13.70306,-0.9767859,39.19238,0,0,0,8.519275,-28.70314,-39.04853,-1.197964,-111.2317,-56.30258,0.001067912,-0.1257102,0.09433498,0,0.3,0,0,0,0,
6.38224E+17,1.955477,39.41565,10.80978,16.19339,48.4637,130.0164,-0.612559,-1.262423,-9.175476,13.70306,-0.9767859,39.19238,0,0,0,4.368772,-22.96428,-40.39399,-1.197964,-111.2317,-56.30258,0.001067912,-0.1257102,0.09433498,0,0.3,0,0,0,0,
6.38224E+17,-1.766997,46.49924,14.70878,9.747819,43.77601,129.8699,-0.612559,-1.262423,-9.175476,13.70306,-0.9767859,39.19238,0,0,0,-3.874475,-8.902505,-42.75801,-1.197964,-111.2317,-56.30258,0.001067912,-0.1257102,0.09433498,0,0.3,0,0,0,0,
6.38224E+17,-4.382153,53.91014,20.56894,3.81496,37.1107,129.4304,-0.612559,-1.262423,-9.175476,13.70306,-0.9767859,39.26562,0,0,0,-9.581672,6.260395,-43.31591,-1.197964,-111.2317,-56.30258,0.001067912,-0.1257102,0.09433498,0,0.3,0,0,0,0,
6.38224E+17,-5.677951,60.99373,27.66651,-0.6529952,28.76075,129.4304,-0.612559,-1.262423,-9.175476,13.70306,-0.9767859,39.26562,0,0,0,-12.5234,21.87001,-42.39125,-1.197964,-111.2317,-56.30258,0.001067912,-0.1257102,0.09433498,0,0.3,0,0,0,0,
6.38224E+17,-5.79575,65.20181,32.49939,-2.85035,22.46167,129.5769,-0.612559,-1.262423,-9.175476,13.70306,-0.9767859,39.19238,0,0,0,-12.88313,31.93688,-41.42432,-1.197964,-111.2317,-56.30258,0.001067912,-0.1257102,0.09433498,0,0.3,0,0,0,0,
6.38224E+17,-5.79575,69.45664,38.52299,-4.461744,14.03847,130.3826,-0.612559,-1.262423,-9.175476,13.70306,-0.9767859,39.19238,0,0,0,-13.11246,43.89238,-39.16491,-1.197964,-111.2317,-56.30258,0.001067912,-0.1257102,0.09433498,0,0.3,0,0,0,0,
6.38224E+17,-5.819311,73.08027,45.13026,-5.487176,3.857395,131.4081,-0.612559,-1.262423,-9.175476,13.70306,-0.9767859,39.19238,0,0,0,-13.51711,56.84966,-35.72112,-1.197964,-111.2317,-56.30258,0.001067912,-0.1257102,0.09433498,0,0.3,0,0,0,0,
6.38224E+17,-6.03135,75.09079,50.71026,-5.999893,-5.884212,133.0927,-0.612559,-1.262423,-9.175476,13.70306,-0.9035407,39.19238,0,0,0,-14.44917,67.76788,-31.59512,-1.197964,-111.2317,-56.30258,0.001067912,-0.1257102,0.09433498,0,0.3,0,0,0,0,
6.38224E+17,-6.33763,75.55836,52.97495,-6.073137,-10.35217,133.9716,-0.612559,-1.262423,-9.175476,13.70306,-0.9767859,39.19238,0,0,0,-15.42324,72.18783,-29.48426,-1.197964,-111.2317,-56.30258,0.001067912,-0.1257102,0.09433498,0,0.3,0,0,0,0,
6.38224E+17,-7.869027,75.60511,56.10348,-6.659099,-17.96966,136.8282,-0.612559,-1.262423,-9.175476,13.70306,-0.9767859,39.19238,0,0,0,-19.69272,78.14494,-25.8665,-1.197964,-111.2317,-56.30258,0.001067912,-0.1257102,0.09433498,0,0.3,0,0,0,0,
6.38224E+17,-11.07318,74.95052,57.5977,-9.149435,-23.90252,143.347,-0.612559,-1.262423,-9.175476,13.70306,-0.9767859,39.19238,0,0,0,-28.27412,80.66934,-23.8777,-1.197964,-111.2317,-56.30258,0.001067912,-0.1257102,0.09433498,0,0.3,0,0,0,0,
6.38224E+17,-15.07837,73.59459,57.38758,-14.56958,-27.2718,144.9584,-0.612559,-1.262423,-9.175476,13.70306,-0.9767859,39.26562,0,0,0,-39.01783,79.40152,-23.52617,-1.197964,-111.2317,-56.30258,0.001067912,-0.1257102,0.09433498,0,0.3,0,0,0,0,
6.38224E+17,-16.93961,72.84648,56.61712,-17.71912,-27.71127,144.8852,-0.612559,-1.262423,-9.175476,13.62981,-0.9767859,39.19238,0,0,0,-43.90215,77.39497,-24.20937,-1.197964,-111.2317,-56.30258,0.001067912,-0.1257102,0.09433498,0,0.3,0,0,0,0,
6.38224E+17,-20.87413,70.60218,54.02557,-24.53092,-26.90557,144.8119,-0.612559,-1.262423,-9.175476,13.62981,-0.9767859,39.19238,0,0,0,-54.23355,70.79742,-26.13368,-1.197964,-111.2317,-56.30258,0.001067912,-0.1257102,0.09433498,0,0.3,0,0,0,0,
6.38224E+17,-24.92644,67.4695,50.54683,-30.61027,-23.82928,144.8119,-0.612559,-1.262423,-9.175476,13.70306,-0.9035407,39.19238,0,0,0,-64.93003,61.78525,-28.63906,-1.197964,-111.2317,-56.30258,0.001067912,-0.1257102,0.09433498,0,0.3,0,0,0,0,
6.38224E+17,-26.69344,65.76289,48.7024,-33.17385,-21.85166,144.8119,-0.612559,-1.262423,-9.175476,13.70306,-0.9767859,39.19238,0,0,0,-69.59568,56.93875,-29.93489,-1.197964,-111.2317,-56.30258,0.001067912,-0.1257102,0.09433498,0,0.3,0,0,0,0,
6.38224E+17,-30.08607,61.71846,44.19638,-37.56856,-17.01748,144.8852,-0.612559,-1.262423,-9.175476,13.70306,-0.9767859,39.19238,0,0,0,-78.27442,45.1761,-33.24384,-1.197964,-111.2317,-56.30258,0.001067912,-0.1257102,0.09433498,0,0.3,0,0,0,0,
6.38224E+17,-32.88971,57.13633,39.52692,-40.7181,-11.30435,144.7387,-0.612559,-1.262423,-9.175476,13.70306,-0.9767859,39.19238,0,0,0,-85.37997,32.50294,-36.32066,-1.197964,-111.2317,-56.30258,0.001067912,-0.1257102,0.09433498,0,0.3,0,0,0,0,
6.38224E+17,-35.10434,52.60096,35.44115,-42.54923,-5.810967,144.8119,-0.612559,-1.262423,-9.175476,13.70306,-0.9767859,39.19238,0,0,0,-91.04292,20.64476,-38.8299,-1.197964,-111.2317,-56.30258,0.001067912,-0.1257102,0.09433498,0,0.3,0,0,0,0,
6.38224E+17,-36.1881,50.02935,33.17647,-43.20844,-3.100896,144.9584,-0.612559,-1.262423,-9.175476,13.70306,-0.9767859,39.19238,0,0,0,-93.6642,13.93342,-40.31832,-1.197964,-111.2317,-56.30258,0.001067912,-0.1257102,0.09433498,0,0.3,0,0,0,0,
6.38224E+17,-37.9551,44.88615,29.18408,-44.16063,2.172756,144.9584,-0.612559,-1.262423,-9.175476,13.70306,-0.9767859,39.19238,0,0,0,-98.10169,1.03291,-42.58252,-1.197964,-111.2317,-56.30258,0.001067912,-0.1257102,0.09433498,0,0.3,0,0,0,0,
6.38224E+17,-39.27446,38.59741,24.42124,-45.03957,8.471841,144.8119,-0.612559,-1.262423,-9.175476,13.70306,-0.9767859,39.26562,0,0,0,-100.8755,-14.8796,-44.99203,-1.197964,-111.2317,-56.30258,0.001067912,-0.1257102,0.09433498,0,0.3,0,0,0,0,
6.38224E+17,-39.55717,34.6465,21.22267,-45.18605,12.42708,143.347,-0.612559,-1.262423,-9.175476,13.70306,-0.9035407,39.26562,0,0,0,-100.6064,-25.14528,-46.55251,-1.197964,-111.2317,-56.30258,0.001067912,-0.1257102,0.09433498,0,0.3,0,0,0,0,
6.38224E+17,-39.58073,32.16841,19.26149,-45.03957,14.77092,141.2961,-0.612559,-1.262423,-9.175476,13.62981,-0.9767859,39.19238,0,0,0,-99.95111,-31.53863,-47.44711,-1.197964,-111.2317,-56.30258,0.001067912,-0.1257102,0.09433498,0,0.3,0,0,0,0,
6.38224E+17,-39.46294,27.25899,15.47924,-44.89308,20.04458,135.583,-0.612559,-1.262423,-9.175476,13.70306,-0.9767859,39.19238,0,0,0,-97.96211,-44.08695,-49.3557,-1.197964,-111.2317,-56.30258,0.001067912,-0.1257102,0.09433498,0,0.3,0,0,0,0,
6.38224E+17,-39.15665,22.74699,12.3974,-45.69878,25.39147,128.112,-0.612559,-1.262423,-9.175476,13.70306,-0.9767859,39.19238,0,0,0,-95.73132,-55.3291,-50.79034,-1.197964,-111.2317,-56.30258,0.001067912,-0.1257102,0.09433498,0,0.3,0,0,0,0,
6.38224E+17,-38.85038,21.04038,11.04326,-46.50447,27.44234,124.23,-0.612559,-1.262423,-9.175476,13.70306,-0.9767859,39.19238,0,0,0,-94.09484,-59.65464,-51.53009,-1.197964,-111.2317,-56.30258,0.001067912,-0.1257102,0.09433498,0,0.3,0,0,0,0,
6.38224E+17,-37.9551,17.88433,8.054807,-49.1413,30.73837,114.7814,-0.612559,-1.262423,-9.175476,13.70306,-0.9767859,39.19238,0,0,0,-89.54505,-67.73315,-53.55223,-1.197964,-111.2317,-56.30258,0.001067912,-0.1257102,0.09433498,0,0.3,0,0,0,0,
6.38224E+17,-36.58862,15.24259,5.183093,-52.43733,33.15546,103.8679,-0.612559,-1.262423,-9.175476,13.70306,-0.9767859,39.19238,0,0,0,-83.86974,-74.39617,-55.37243,-1.197964,-111.2317,-56.30258,0.001067912,-0.1257102,0.09433498,0,0.3,0,0,0,0,
6.38224E+17,-34.7745,13.09179,2.73163,-56.02634,34.62037,93.32056,-0.612559,-1.262423,-9.175476,13.70306,-0.9767859,39.26562,0,0,0,-77.70377,-79.64313,-56.4427,-1.197964,-111.2317,-56.30258,0.001067912,-0.1257102,0.09433498,0,0.3,0,0,0,0,
6.38224E+17,-32.81903,11.40856,0.8871961,-58.37019,35.57256,85.48332,-0.612559,-1.262423,-9.175476,13.70306,-0.9767859,39.19238,0,0,0,-71.96507,-83.60687,-56.76346,-1.197964,-111.2317,-56.30258,0.001067912,-0.1257102,0.09433498,0,0.3,0,0,0,0,
6.38224E+17,-30.65151,10.05263,-0.7471125,-59.83509,36.67123,78.89126,-0.612559,-1.262423,-9.175476,13.70306,-0.9035407,39.26562,0,0,0,-66.05368,-86.71207,-56.88815,-1.197964,-111.2317,-56.30258,0.001067912,-0.1257102,0.09433498,0,0.3,0,0,0,0,
6.38224E+17,-27.35312,9.023986,-2.591547,-60.64079,38.64885,71.71323,-0.612559,-1.262423,-9.175476,13.62981,-0.9767859,39.19238,0,0,0,-57.74199,-88.94794,-56.73096,-1.197964,-111.2317,-56.30258,0.001067912,-0.1257102,0.09433498,0,0.3,0,0,0,0,
6.38224E+17,-25.70392,8.836961,-3.50209,-60.56754,39.60104,68.92992,-0.612559,-1.262423,-9.175476,13.70306,-0.9035407,39.19238,0,0,0,-53.61715,-89.26531,-56.96127,-1.197964,-111.2317,-56.30258,0.001067912,-0.1257102,0.09433498,0,0.3,0,0,0,0,
6.38224E+17,-19.64901,8.953853,-6.537234,-58.58992,43.11681,61.82513,-0.612559,-1.262423,-9.175476,13.70306,-0.9767859,39.19238,0,0,0,-39.18851,-88.37852,-58.59304,-1.197964,-111.2317,-56.30258,0.001067912,-0.1257102,0.09433498,0,0.3,0,0,0,0,
6.38224E+17,-17.41081,9.023986,-7.307694,-57.5645,44.36197,60.06725,-0.612559,-1.262423,-9.175476,13.70306,-0.9767859,39.19238,0,0,0,-34.3319,-88.00117,-58.86917,-1.197964,-111.2317,-56.30258,0.001067912,-0.1257102,0.09433498,0,0.3,0,0,0,0,
6.38224E+17,-11.68574,9.257769,-8.685184,-54.48819,47.07204,56.47824,-0.612559,-1.262423,-9.175476,13.70306,-0.9767859,39.19238,0,0,0,-22.57885,-87.01801,-59.18403,-1.197964,-111.2317,-56.30258,0.001067912,-0.1257102,0.09433498,0,0.3,0,0,0,0,
6.38224E+17,-4.829792,9.865602,-9.502337,-49.36103,50.0751,53.84141,-0.612559,-1.262423,-9.175476,13.70306,-0.9767859,39.19238,0,0,0,-9.207975,-85.32241,-59.37472,-1.197964,-111.2317,-56.30258,0.001067912,-0.1257102,0.09433498,0,0.3,0,0,0,0,
6.38224E+17,-1.130878,10.35654,-9.665768,-45.84526,51.61324,53.1822,-0.612559,-1.262423,-9.175476,13.70306,-0.9767859,39.19238,0,0,0,-2.147068,-84.13422,-59.58324,-1.197964,-111.2317,-56.30258,0.001067912,-0.1257102,0.09433498,0,0.3,0,0,0,0,
6.38224E+17,6.973749,12.13329,-9.89924,-36.03041,54.76279,53.62167,-0.612559,-1.262423,-9.175476,13.62981,-0.9767859,39.19238,0,0,0,13.04553,-79.98625,-61.69877,-1.197964,-111.2317,-56.30258,0.001067912,-0.1257102,0.09433498,0,0.3,0,0,0,0,
6.38224E+17,15.87941,14.96205,-9.595726,-22.62654,56.52067,56.40499,-0.612559,-1.262423,-9.175476,13.70306,-0.9767859,39.19238,0,0,0,29.16728,-73.70603,-65.81767,-1.197964,-111.2317,-56.30258,0.001067912,-0.1257102,0.09433498,0,0.3,0,0,0,0,
6.38224E+17,24.26676,18.9831,-8.591794,-7.24506,56.96014,61.75189,-0.612559,-1.262423,-9.175476,13.70306,-0.9767859,39.26562,0,0,0,43.63682,-65.1262,-71.55547,-1.197964,-111.2317,-56.30258,0.001067912,-0.1257102,0.09433498,0,0.3,0,0,0,0,
6.38224E+17,28.31907,21.5547,-7.797987,0.5189275,56.22769,64.31547,-0.612559,-1.262423,-9.175476,13.70306,-0.9035407,39.19238,0,0,0,50.25189,-59.77549,-75.0965,-1.197964,-111.2317,-56.30258,0.001067912,-0.1257102,0.09433498,0,0.3,0,0,0,0,
6.38224E+17,36.02318,28.12398,-5.04301,15.3877,52.49219,68.05097,-0.612559,-1.262423,-9.175476,13.70306,-0.9767859,39.19238,0,0,0,62.27134,-46.62514,-82.71373,-1.197964,-111.2317,-56.30258,0.001067912,-0.1257102,0.09433498,0,0.3,0,0,0,0,
6.38224E+17,40.92365,34.36596,-1.470878,24.90957,47.8045,69.44263,-0.612559,-1.262423,-9.175476,13.70306,-0.9035407,39.19238,0,0,0,69.86183,-34.6831,-87.76654,-1.197964,-111.2317,-56.30258,0.001067912,-0.1257102,0.09433498,0,0.3,0,0,0,0,
6.38224E+17,42.78489,37.77918,0.700418,28.64507,45.16767,69.58913,-0.612559,-1.262423,-9.175476,13.70306,-0.9767859,39.19238,0,0,0,72.69784,-28.29718,-89.80193,-1.197964,-111.2317,-56.30258,0.001067912,-0.1257102,0.09433498,0,0.3,0,0,0,0,
6.38224E+17,45.49429,45.09655,5.9769,33.84548,39.52779,68.63693,-0.612559,-1.262423,-9.175476,13.70306,-0.9767859,39.19238,0,0,0,77.03709,-14.82365,-92.63076,-1.197964,-111.2317,-56.30258,0.001067912,-0.1257102,0.09433498,0,0.3,0,0,0,0,
6.38224E+17,46.81364,52.60096,11.97715,36.77529,33.52169,66.51283,-0.612559,-1.262423,-9.175476,13.70306,-0.9767859,39.19238,0,0,0,79.23093,-1.160488,-93.98269,-1.197964,-111.2317,-56.30258,0.001067912,-0.1257102,0.09433498,0,0.3,0,0,0,0,
6.38224E+17,46.97857,59.66118,18.28091,38.0937,27.58883,64.16898,-0.612559,-1.262423,-9.175476,13.70306,-0.9767859,39.19238,0,0,0,79.82533,11.81835,-93.85582,-1.197964,-111.2317,-56.30258,0.001067912,-0.1257102,0.09433498,0,0.3,0,0,0,0,
6.38224E+17,46.55449,66.95518,25.77538,38.97264,21.2165,61.67865,-0.612559,-1.262423,-9.175476,13.70306,-0.9035407,39.26562,0,0,0,79.99854,25.97609,-92.57866,-1.197964,-111.2317,-56.30258,0.001067912,-0.1257102,0.09433498,0,0.3,0,0,0,0,
6.38224E+17,46.0126,70.71906,29.8378,39.41211,17.84722,60.14049,-0.612559,-1.262423,-9.175476,13.70306,-0.9035407,39.19238,0,0,0,79.41762,33.54774,-91.69106,-1.197964,-111.2317,-56.30258,0.001067912,-0.1257102,0.09433498,0,0.3,0,0,0,0,
6.38224E+17,43.91577,78.17671,38.07939,40.43755,10.52271,56.69797,-0.612559,-1.262423,-9.175476,13.70306,-0.9035407,39.19238,0,0,0,75.99539,48.9035,-89.42258,-1.197964,-111.2317,-56.30258,0.001067912,-0.1257102,0.09433498,0,0.3,0,0,0,0,
6.38224E+17,39.67498,86.19543,47.11478,41.8292,1.293814,52.74273,-0.612559,-1.262423,-9.175476,13.70306,-0.9767859,39.19238,0,0,0,68.02888,65.6572,-86.33596,-1.197964,-111.2317,-56.30258,0.001067912,-0.1257102,0.09433498,0,0.3,0,0,0,0,
6.38224E+17,34.27974,92.4608,54.42248,42.6349,-7.12938,49.66644,-0.612559,-1.262423,-9.175476,13.70306,-0.9767859,39.19238,0,0,0,57.86212,78.99347,-83.46285,-1.197964,-111.2317,-56.30258,0.001067912,-0.1257102,0.09433498,0,0.3,0,0,0,0,
6.38224E+17,30.39235,95.59347,58.15804,43.00113,-12.25654,47.76206,-0.612559,-1.262423,-9.175476,13.70306,-0.9767859,39.19238,0,0,0,50.73561,85.71252,-81.84679,-1.197964,-111.2317,-56.30258,0.001067912,-0.1257102,0.09433498,0,0.3,0,0,0,0,
6.38224E+17,20.52073,100.4795,64.27502,42.78139,-23.90252,44.53928,-0.612559,-1.262423,-9.175476,13.70306,-0.9767859,39.19238,0,0,0,33.61008,96.5949,-78.5548,-1.197964,-111.2317,-56.30258,0.001067912,-0.1257102,0.09433498,0,0.3,0,0,0,0,
6.38224E+17,8.952785,101.7887,68.08063,38.24019,-37.1599,44.31954,-0.612559,-1.262423,-9.175476,13.70306,-0.9767859,39.19238,0,0,0,15.01214,104.1076,-73.05891,-1.197964,-111.2317,-56.30258,0.001067912,-0.1257102,0.09433498,0,0.3,0,0,0,0,
6.38224E+17,3.816714,101.6718,69.2013,31.50163,-43.166,50.03266,-0.612559,-1.262423,-9.175476,13.70306,-0.9767859,39.19238,0,0,0,6.502242,106.592,-70.884,-1.197964,-111.2317,-56.30258,0.001067912,-0.1257102,0.09433498,0,0.3,0,0,0,0,
6.38224E+17,-5.277431,100.4561,71.34924,0.9583986,-50.7835,90.02452,-0.612559,-1.262423,-9.175476,13.70306,-0.9035407,39.19238,0,0,0,-9.395265,111.8404,-66.63654,-1.197964,-111.2317,-56.30258,0.001067912,-0.1257102,0.09433498,0,0.3,0,0,0,0,
6.38224E+17,-14.01818,97.65076,71.95628,-42.25625,-51.14973,140.4904,-0.612559,-1.262423,-9.175476,13.62981,-0.9767859,39.19238,0,0,0,-26.41235,114.2087,-62.55885,-1.197964,-111.2317,-56.30258,0.001067912,-0.1257102,0.09433498,0,0.3,0,0,0,0,
6.38224E+17,-17.59929,95.96753,71.41929,-57.63773,-49.24535,143.347,-0.612559,-1.262423,-9.175476,13.62981,-0.9035407,39.19238,0,0,0,-34.02603,113.4867,-61.08176,-1.197964,-111.2317,-56.30258,0.001067912,-0.1257102,0.09433498,0,0.3,0,0,0,0,
6.38224E+17,-24.4788,92.20364,69.01452,-76.53499,-43.23925,142.9808,-0.612559,-1.262423,-9.175476,13.70306,-0.9767859,39.19238,0,0,0,-49.46488,108.8446,-59.70271,-1.197964,-111.2317,-56.30258,0.001067912,-0.1257102,0.09433498,0,0.3,0,0,0,0,
6.38224E+17,-29.30859,89.04758,65.81594,-82.02838,-38.33182,138.0733,-0.612559,-1.262423,-9.175476,13.70306,-0.9767859,39.19238,0,0,0,-60.63257,102.0522,-60.34198,-1.197964,-111.2317,-56.30258,0.001067912,-0.1257102,0.09433498,0,0.3,0,0,0,0,
6.38224E+17,-31.94731,87.03706,63.85477,-83.34679,-35.47526,134.7041,-0.612559,-1.262423,-9.175476,13.70306,-0.9767859,39.19238,0,0,0,-66.98823,97.76133,-60.92672,-1.197964,-111.2317,-56.30258,0.001067912,-0.1257102,0.09433498,0,0.3,0,0,0,0,
6.38224E+17,-36.49438,82.52505,59.72231,-84.37222,-29.68889,128.5515,-0.612559,-1.262423,-9.175476,13.70306,-0.9767859,39.19238,0,0,0,-78.80823,88.33284,-61.82494,-1.197964,-111.2317,-56.30258,0.001067912,-0.1257102,0.09433498,0,0.3,0,0,0,0,
6.38224E+17,-40.5467,77.45199,54.51587,-84.15249,-24.12226,123.2046,-0.612559,-1.262423,-9.175476,13.62981,-0.9767859,39.19238,0,0,0,-89.42007,76.10816,-63.82516,-1.197964,-111.2317,-56.30258,0.001067912,-0.1257102,0.09433498,0,0.3,0,0,0,0,
6.38224E+17,-43.79797,71.74771,48.74909,-83.42004,-18.92185,118.1507,-0.612559,-1.262423,-9.175476,13.70306,-0.9767859,39.19238,0,0,0,-98.29586,62.06535,-65.84075,-1.197964,-111.2317,-56.30258,0.001067912,-0.1257102,0.09433498,0,0.3,0,0,0,0,
6.38224E+17,-46.46024,65.29533,42.63211,-81.88189,-13.57495,114.3419,-0.612559,-1.262423,-9.175476,13.70306,-0.9767859,39.19238,0,0,0,-105.8703,46.38706,-67.7431,-1.197964,-111.2317,-56.30258,0.001067912,-0.1257102,0.09433498,0,0.3,0,0,0,0,
6.38224E+17,-47.63824,61.74184,39.50357,-81.07619,-10.79164,112.877,-0.612559,-1.262423,-9.175476,13.70306,-0.9035407,39.19238,0,0,0,-109.3294,37.91693,-68.65224,-1.197964,-111.2317,-56.30258,0.001067912,-0.1257102,0.09433498,0,0.3,0,0,0,0,
6.38224E+17,-49.64084,54.26081,33.80684,-79.61128,-5.810967,109.9472,-0.612559,-1.262423,-9.175476,13.62981,-0.9767859,39.19238,0,0,0,-115.8884,20.78517,-69.86357,-1.197964,-111.2317,-56.30258,0.001067912,-0.1257102,0.09433498,0,0.3,0,0,0,0,
6.38224E+17,-51.1958,45.5875,29.11404,-78.73235,-0.6838052,106.7977,-0.612559,-1.262423,-9.175476,13.70306,-0.9767859,39.19238,0,0,0,-123.2858,2.102938,-69.21081,-1.197964,-111.2317,-56.30258,0.001067912,-0.1257102,0.09433498,0,0.3,0,0,0,0,
6.38224E+17,-52.09107,36.93756,25.42517,-78.51261,4.882828,105.406,-0.612559,-1.262423,-9.175476,13.70306,-0.9035407,39.19238,0,0,0,-129.2654,-16.94869,-67.6873,-1.197964,-111.2317,-56.30258,0.001067912,-0.1257102,0.09433498,0,0.3,0,0,0,0,
6.38224E+17,-52.30311,32.58922,23.9076,-78.58585,7.739389,104.8933,-0.612559,-1.262423,-9.175476,13.70306,-0.9767859,39.19238,0,0,0,-131.6622,-26.73466,-66.60129,-1.197964,-111.2317,-56.30258,0.001067912,-0.1257102,0.09433498,0,0.3,0,0,0,0,
6.38224E+17,-52.37379,24.85103,21.75965,-78.80559,12.86655,103.3551,-0.612559,-1.262423,-9.175476,13.70306,-0.9767859,39.26562,0,0,0,-134.9879,-44.4567,-64.29696,-1.197964,-111.2317,-56.30258,0.001067912,-0.1257102,0.09433498,0,0.3,0,0,0,0,
6.38224E+17,-52.04396,17.74406,20.21873,-79.09857,17.84722,100.2788,-0.612559,-1.262423,-9.175476,13.70306,-0.9767859,39.19238,0,0,0,-136.4806,-61.14251,-61.88821,-1.197964,-111.2317,-56.30258,0.001067912,-0.1257102,0.09433498,0,0.3,0,0,0,0,
6.38224E+17,-51.61988,14.61138,19.42492,-79.17181,20.33756,98.00825,-0.612559,-1.262423,-9.175476,13.70306,-0.9767859,39.19238,0,0,0,-135.9186,-68.77039,-60.69897,-1.197964,-111.2317,-56.30258,0.001067912,-0.1257102,0.09433498,0,0.3,0,0,0,0,
6.38224E+17,-50.39476,9.818846,17.34702,-78.73235,24.73227,92.80784,-0.612559,-1.262423,-9.175476,13.62981,-0.9767859,39.19238,0,0,0,-131.868,-81.19411,-59.23894,-1.197964,-111.2317,-56.30258,0.001067912,-0.1257102,0.09433498,0,0.3,0,0,0,0,
6.38224E+17,-48.18012,6.475762,14.21848,-77.63367,28.61426,86.80173,-0.612559,-1.262423,-9.175476,13.62981,-0.9767859,39.19238,0,0,0,-123.1536,-90.87538,-58.16102,-1.197964,-111.2317,-56.30258,0.001067912,-0.1257102,0.09433498,0,0.3,0,0,0,0,
6.38224E+17,-44.90529,4.699019,9.408949,-75.72929,32.42301,80.28292,-0.612559,-1.262423,-9.175476,13.70306,-0.9035407,39.19238,0,0,0,-109.2097,-97.28177,-58.77859,-1.197964,-111.2317,-56.30258,0.001067912,-0.1257102,0.09433498,0,0.3,0,0,0,0,
6.38224E+17,-42.29013,4.55875,5.416566,-74.33764,34.76685,74.71628,-0.612559,-1.262423,-9.175476,13.70306,-0.9767859,39.19238,0,0,0,-97.91545,-98.80573,-60.70508,-1.197964,-111.2317,-56.30258,0.001067912,-0.1257102,0.09433498,0,0.3,0,0,0,0,
6.38224E+17,-40.5467,4.745775,3.011797,-73.53194,36.01203,71.27377,-0.612559,-1.262423,-9.175476,13.70306,-0.9767859,39.19238,0,0,0,-90.94395,-98.78313,-62.04386,-1.197964,-111.2317,-56.30258,0.001067912,-0.1257102,0.09433498,0,0.3,0,0,0,0,
6.38224E+17,-36.14098,5.423743,-2.428116,-71.8473,38.13613,63.21679,-0.612559,-1.262423,-9.175476,13.62981,-0.9767859,39.19238,0,0,0,-74.96234,-97.27592,-65.70526,-1.197964,-111.2317,-56.30258,0.001067912,-0.1257102,0.09433498,0,0.3,0,0,0,0,
6.38224E+17,-30.15675,6.499141,-7.891376,-69.06399,40.11375,54.50062,-0.612559,-1.262423,-9.175476,13.70306,-0.9767859,39.19238,0,0,0,-57.36266,-93.64353,-69.61973,-1.197964,-111.2317,-56.30258,0.001067912,-0.1257102,0.09433498,0,0.3,0,0,0,0,
6.38224E+17,-26.85836,7.223865,-9.852547,-67.08636,41.50541,51.13134,-0.612559,-1.262423,-9.175476,13.70306,-0.9767859,39.19238,0,0,0,-49.45868,-91.26498,-70.68575,-1.197964,-111.2317,-56.30258,0.001067912,-0.1257102,0.09433498,0,0.3,0,0,0,0,
6.38224E+17,-19.10713,9.164255,-12.88769,-61.44649,44.94794,46.5169,-0.612559,-1.262423,-9.175476,13.62981,-0.9767859,39.19238,0,0,0,-33.35726,-85.40276,-72.05873,-1.197964,-111.2317,-56.30258,0.001067912,-0.1257102,0.09433498,0,0.3,0,0,0,0,
6.38224E+17,-10.69622,11.85275,-14.42861,-53.24303,48.90318,44.53928,-0.612559,-1.262423,-9.175476,13.62981,-0.9767859,39.19238,0,0,0,-18.05526,-78.40428,-72.76071,-1.197964,-111.2317,-56.30258,0.001067912,-0.1257102,0.09433498,0,0.3,0,0,0,0,
6.38224E+17,-2.450236,15.3361,-14.75547,-42.84221,52.41894,46.5169,-0.612559,-1.262423,-9.175476,13.70306,-0.9767859,39.19238,0,0,0,-4.045933,-70.33382,-73.79848,-1.197964,-111.2317,-56.30258,0.001067912,-0.1257102,0.09433498,0,0.3,0,0,0,0,
6.38224E+17,3.722474,18.235,-13.91497,-33.24709,54.46981,50.61862,-0.612559,-1.262423,-9.175476,13.70306,-0.9767859,39.19238,0,0,0,6.140816,-64.35944,-73.96448,-1.197964,-111.2317,-56.30258,0.001067912,-0.1257102,0.09433498,0,0.3,0,0,0,0,
6.38224E+17,10.57842,21.74173,-12.44409,-21.30813,55.78822,57.13744,-0.612559,-1.262423,-9.175476,13.70306,-0.9035407,39.26562,0,0,0,17.46384,-57.47122,-74.83804,-1.197964,-111.2317,-56.30258,0.001067912,-0.1257102,0.09433498,0,0.3,0,0,0,0,
6.38224E+17,18.30609,27.04858,-9.175476,-5.780157,55.20226,65.3409,-0.612559,-1.262423,-9.175476,13.70306,-0.9767859,39.19238,0,0,0,30.62427,-47.65338,-75.78376,-1.197964,-111.2317,-56.30258,0.001067912,-0.1257102,0.09433498,0,0.3,0,0,0,0,
6.38224E+17,21.5338,29.57343,-6.840749,1.178134,53.95709,68.78342,-0.612559,-1.262423,-9.175476,13.70306,-0.9767859,39.19238,0,0,0,36.73964,-43.23732,-75.24212,-1.197964,-111.2317,-56.30258,0.001067912,-0.1257102,0.09433498,0,0.3,0,0,0,0,
6.38224E+17,27.32955,36.04919,-2.404768,12.82412,50.0751,74.13033,-0.612559,-1.262423,-9.175476,13.70306,-0.9767859,39.19238,0,0,0,46.92995,-31.40881,-77.53985,-1.197964,-111.2317,-56.30258,0.001067912,-0.1257102,0.09433498,0,0.3,0,0,0,0,
6.38224E+17,31.05203,42.64184,3.198575,20.5881,44.65495,76.32768,-0.612559,-1.262423,-9.175476,13.62981,-0.9767859,39.19238,0,0,0,54.43568,-19.45919,-77.93988,-1.197964,-111.2317,-56.30258,0.001067912,-0.1257102,0.09433498,0,0.3,0,0,0,0,
6.38224E+17,33.07819,49.2345,9.945935,25.56878,38.79534,76.47417,-0.612559,-1.262423,-9.175476,13.70306,-0.9767859,39.19238,0,0,0,60.09338,-6.998173,-76.09018,-1.197964,-111.2317,-56.30258,0.001067912,-0.1257102,0.09433498,0,0.3,0,0,0,0,
6.38224E+17,33.64362,55.49986,16.76334,28.35209,32.5695,75.59522,-0.612559,-1.262423,-9.175476,13.62981,-0.9767859,39.19238,0,0,0,63.15406,5.563843,-73.45232,-1.197964,-111.2317,-56.30258,0.001067912,-0.1257102,0.09433498,0,0.3,0,0,0,0,
6.38224E+17,33.66718,58.63254,20.31212,29.08454,29.34671,74.71628,-0.612559,-1.262423,-9.175476,13.70306,-0.9035407,39.19238,0,0,0,64.14165,12.15273,-72.05422,-1.197964,-111.2317,-56.30258,0.001067912,-0.1257102,0.09433498,0,0.3,0,0,0,0,
6.38224E+17,33.66718,64.5706,27.80659,30.25646,22.60816,73.10489,-0.612559,-1.262423,-9.175476,13.70306,-0.9035407,39.19238,0,0,0,66.22841,25.82868,-68.92137,-1.197964,-111.2317,-56.30258,0.001067912,-0.1257102,0.09433498,0,0.3,0,0,0,0,
6.38224E+17,33.66718,69.73718,35.44115,31.42839,15.35689,71.42025,-0.612559,-1.262423,-9.175476,13.70306,-0.9767859,39.19238,0,0,0,68.4688,39.8057,-65.55787,-1.197964,-111.2317,-56.30258,0.001067912,-0.1257102,0.09433498,0,0.3,0,0,0,0,
6.38224E+17,33.66718,71.77108,38.9199,32.23409,11.98761,70.6878,-0.612559,-1.262423,-9.175476,13.70306,-0.9035407,39.19238,0,0,0,69.56689,46.25809,-63.90931,-1.197964,-111.2317,-56.30258,0.001067912,-0.1257102,0.09433498,0,0.3,0,0,0,0,
6.38224E+17,33.76143,75.1843,46.15754,34.50468,5.175808,69.22289,-0.612559,-1.262423,-9.175476,13.70306,-0.9767859,39.19238,0,0,0,72.3998,59.89798,-60.0428,-1.197964,-111.2317,-56.30258,0.001067912,-0.1257102,0.09433498,0,0.3,0,0,0,0,
6.38224E+17,34.25618,76.84415,52.43796,38.02045,-1.343012,67.24528,-0.612559,-1.262423,-9.175476,13.70306,-0.9767859,39.19238,0,0,0,76.58526,71.90733,-55.89558,-1.197964,-111.2317,-56.30258,0.001067912,-0.1257102,0.09433498,0,0.3,0,0,0,0,
6.38224E+17,34.70382,76.91429,54.6326,39.99807,-3.906592,65.85361,-0.612559,-1.262423,-9.175476,13.70306,-0.9767859,39.19238,0,0,0,79.09921,76.05195,-54.13251,-1.197964,-111.2317,-56.30258,0.001067912,-0.1257102,0.09433498,0,0.3,0,0,0,0,
6.38224E+17,36.21166,75.46484,56.52373,44.0998,-7.788587,61.89838,-0.612559,-1.262423,-9.175476,13.70306,-0.9767859,39.26562,0,0,0,85.48236,78.87724,-51.60303,-1.197964,-111.2317,-56.30258,0.001067912,-0.1257102,0.09433498,0,0.3,0,0,0,0,
6.38224E+17,38.7797,72.09838,55.49645,47.1761,-9.033754,57.86989,-0.612559,-1.262423,-9.175476,13.62981,-0.9767859,39.19238,0,0,0,94.50165,74.70687,-50.72832,-1.197964,-111.2317,-56.30258,0.001067912,-0.1257102,0.09433498,0,0.3,0,0,0,0,
6.38224E+17,40.24041,70.08785,54.58591,47.9818,-8.447793,56.33175,-0.612559,-1.262423,-9.175476,13.70306,-0.9035407,39.19238,0,0,0,99.54446,71.45392,-50.72343,-1.197964,-111.2317,-56.30258,0.001067912,-0.1257102,0.09433498,0,0.3,0,0,0,0,
6.38224E+17,43.27965,65.73951,52.5547,49.15372,-5.664476,54.13439,-0.612559,-1.262423,-9.175476,13.62981,-0.9767859,39.19238,0,0,0,110.1439,63.84613,-51.38491,-1.197964,-111.2317,-56.30258,0.001067912,-0.1257102,0.09433498,0,0.3,0,0,0,0,
6.38224E+17,46.46024,60.7132,50.50013,49.88617,-1.562747,52.30326,-0.612559,-1.262423,-9.175476,13.70306,-0.9035407,39.19238,0,0,0,121.8759,54.83467,-52.53324,-1.197964,-111.2317,-56.30258,0.001067912,-0.1257102,0.09433498,0,0.3,0,0,0,0,
6.38224E+17,49.52304,55.07904,48.81913,50.2524,3.198189,50.32565,-0.612559,-1.262423,-9.175476,13.62981,-0.9035407,39.19238,0,0,0,134.4095,44.88661,-53.64689,-1.197964,-111.2317,-56.30258,0.001067912,-0.1257102,0.09433498,0,0.3,0,0,0,0,
6.38224E+17,50.93663,51.89961,48.23545,50.32565,5.835015,48.93398,-0.612559,-1.262423,-9.175476,13.70306,-0.9035407,39.19238,0,0,0,141.1171,39.46665,-53.81699,-1.197964,-111.2317,-56.30258,0.001067912,-0.1257102,0.09433498,0,0.3,0,0,0,0,
6.38224E+17,53.24551,45.40047,47.65177,50.39889,10.44946,45.5647,-0.612559,-1.262423,-9.175476,13.70306,-0.9767859,39.19238,0,0,0,153.9804,28.47023,-53.34859,-1.197964,-111.2317,-56.30258,0.001067912,-0.1257102,0.09433498,0,0.3,0,0,0,0,
6.38224E+17,54.98895,38.71431,47.25487,50.10591,14.84417,42.34192,-0.612559,-1.262423,-9.175476,13.70306,-0.9767859,39.19238,0,0,0,165.4293,16.24232,-52.4676,-1.197964,-111.2317,-56.30258,0.001067912,-0.1257102,0.09433498,0,0.3,0,0,0,0,
6.38224E+17,55.31879,35.20757,47.13813,49.66644,16.89503,40.51079,-0.612559,-1.262423,-9.175476,13.70306,-0.9767859,39.19238,0,0,0,169.9767,9.522552,-50.73503,-1.197964,-111.2317,-56.30258,0.001067912,-0.1257102,0.09433498,0,0.3,0,0,0,0,
6.38224E+17,55.27167,27.39925,46.90466,47.9818,21.28975,36.77529,-0.612559,-1.262423,-9.175476,13.70306,-0.9767859,39.19238,0,0,0,177.3296,-6.390544,-45.4314,-1.197964,-111.2317,-56.30258,0.001067912,-0.1257102,0.09433498,0,0.3,0,0,0,0,
6.38224E+17,55.27167,18.21162,46.99805,43.66033,26.70989,30.62269,-0.612559,-1.262423,-9.175476,13.62981,-0.9767859,39.19238,0,0,0,184.256,-25.92225,-40.63025,-1.197964,-111.2317,-56.30258,0.001067912,-0.1257102,0.09433498,0,0.3,0,0,0,0,
6.38224E+17,55.27167,13.8399,47.02139,41.09675,28.834,26.7407,-0.612559,-1.262423,-9.175476,13.70306,-0.9767859,39.19238,0,0,0,186.5945,-35.65946,-39.00932,-1.197964,-111.2317,-56.30258,0.001067912,-0.1257102,0.09433498,0,0.3,0,0,0,0,
6.38224E+17,55.27167,11.26829,46.99805,39.48536,29.85943,24.32361,-0.612559,-1.262423,-9.175476,13.70306,-0.9035407,39.19238,0,0,0,187.6331,-41.54076,-38.28937,-1.197964,-111.2317,-56.30258,0.001067912,-0.1257102,0.09433498,0,0.3,0,0,0,0,
6.38224E+17,55.27167,6.429006,46.90466,36.18932,31.39758,19.63592,-0.612559,-1.262423,-9.175476,13.70306,-0.9767859,39.19238,0,0,0,188.9346,-52.82518,-37.38719,-1.197964,-111.2317,-56.30258,0.001067912,-0.1257102,0.09433498,0,0.3,0,0,0,0,
6.38224E+17,55.27167,2.291064,46.29763,33.03978,32.20328,16.0469,-0.612559,-1.262423,-9.175476,13.70306,-0.9767859,39.19238,0,0,0,188.7385,-63.45237,-37.52317,-1.197964,-111.2317,-56.30258,0.001067912,-0.1257102,0.09433498,0,0.3,0,0,0,0,
6.38224E+17,55.27167,-0.9351282,44.87344,30.40295,32.71599,13.7763,-0.612559,-1.262423,-9.175476,13.70306,-0.9035407,39.19238,0,0,0,186.905,-73.32705,-38.79405,-1.197964,-111.2317,-56.30258,0.001067912,-0.1257102,0.09433498,0,0.3,0,0,0,0,
6.38224E+17,55.24811,-1.005263,43.1224,29.30428,32.86248,13.1171,-0.612559,-1.262423,-9.175476,13.70306,-0.9035407,39.19238,0,0,0,184.4408,-76.32104,-40.38985,-1.197964,-111.2317,-56.30258,0.001067912,-0.1257102,0.09433498,0,0.3,0,0,0,0,
6.38224E+17,55.22455,-0.9818845,38.59303,27.54639,33.00897,13.1171,-0.612559,-1.262423,-9.175476,13.70306,-0.9767859,39.19238,0,0,0,177.8417,-83.161,-44.8598,-1.197964,-111.2317,-56.30258,0.001067912,-0.1257102,0.09433498,0,0.3,0,0,0,0,
6.38224E+17,55.20099,-0.9818845,34.5773,26.59421,33.52169,14.43551,-0.612559,-1.262423,-9.175476,13.62981,-0.9767859,39.19238,0,0,0,171.6295,-88.73035,-49.06875,-1.197964,-111.2317,-56.30258,0.001067912,-0.1257102,0.09433498,0,0.3,0,0,0,0,
6.38224E+17,55.15387,-0.9818845,32.94299,26.59421,33.88792,15.46094,-0.612559,-1.262423,-9.175476,13.70306,-0.9767859,39.19238,0,0,0,168.9362,-90.84405,-50.73442,-1.197964,-111.2317,-56.30258,0.001067912,-0.1257102,0.09433498,0,0.3,0,0,0,0,
6.38224E+17,54.75335,-0.9585064,29.76777,27.18017,34.91335,17.29207,-0.612559,-1.262423,-9.175476,13.70306,-0.9767859,39.26562,0,0,0,162.9575,-94.63451,-53.1973,-1.197964,-111.2317,-56.30258,0.001067912,-0.1257102,0.09433498,0,0.3,0,0,0,0,
6.38224E+17,53.66959,-0.9585064,26.45245,28.2056,36.01203,16.99909,-0.612559,-1.262423,-9.175476,13.70306,-0.9035407,39.19238,0,0,0,155.2682,-98.26955,-54.16724,-1.197964,-111.2317,-56.30258,0.001067912,-0.1257102,0.09433498,0,0.3,0,0,0,0,
6.38224E+17,52.72719,-0.9585064,24.7948,28.64507,36.45149,16.33988,-0.612559,-1.262423,-9.175476,13.70306,-0.9035407,39.19238,0,0,0,150.6012,-99.93793,-53.73557,-1.197964,-111.2317,-56.30258,0.001067912,-0.1257102,0.09433498,0,0.3,0,0,0,0,
6.38224E+17,50.34764,-0.9585064,21.7363,28.93805,37.47693,15.68068,-0.612559,-1.262423,-9.175476,13.70306,-0.9767859,39.19238,0,0,0,140.6783,-102.7493,-51.7541,-1.197964,-111.2317,-56.30258,0.001067912,-0.1257102,0.09433498,0,0.3,0,0,0,0,
6.38224E+17,47.4262,-0.9585064,19.49497,28.27885,38.86858,16.63286,-0.612559,-1.262423,-9.175476,13.70306,-0.9767859,39.19238,0,0,0,130.9577,-104.5859,-48.03869,-1.197964,-111.2317,-56.30258,0.001067912,-0.1257102,0.09433498,0,0.3,0,0,0,0,
6.38224E+17,45.80056,-0.9351282,18.3276,27.61964,39.74753,18.24426,-0.612559,-1.262423,-9.175476,13.70306,-0.9035407,39.19238,0,0,0,125.6499,-105.412,-46.1632,-1.197964,-111.2317,-56.30258,0.001067912,-0.1257102,0.09433498,0,0.3,0,0,0,0,
6.38224E+17,42.64353,-0.9351282,16.34309,25.78851,41.21243,20.80784,-0.612559,-1.262423,-9.175476,13.62981,-0.9767859,39.19238,0,0,0,115.7434,-106.7882,-42.67175,-1.197964,-111.2317,-56.30258,0.001067912,-0.1257102,0.09433498,0,0.3,0,0,0,0,
6.38224E+17,39.46294,-0.9351282,14.17179,23.44467,42.60409,22.34599,-0.612559,-1.262423,-9.175476,13.70306,-0.9767859,39.26562,0,0,0,105.4936,-108.1179,-40.20723,-1.197964,-111.2317,-56.30258,0.001067912,-0.1257102,0.09433498,0,0.3,0,0,0,0,
6.38224E+17,37.79018,-0.9351282,13.02777,22.12625,43.48303,22.93195,-0.612559,-1.262423,-9.175476,13.70306,-0.9767859,39.19238,0,0,0,100.1222,-108.744,-39.22747,-1.197964,-111.2317,-56.30258,0.001067912,-0.1257102,0.09433498,0,0.3,0,0,0,0,
6.38224E+17,34.58602,-0.9117499,10.90317,19.1232,44.7282,23.51791,-0.612559,-1.262423,-9.175476,13.70306,-0.9767859,39.19238,0,0,0,90.00333,-109.7147,-37.81463,-1.197964,-111.2317,-56.30258,0.001067912,-0.1257102,0.09433498,0,0.3,0,0,0,0,
6.38224E+17,30.88711,-0.9117499,8.778571,15.60743,45.82688,23.15168,-0.612559,-1.262423,-9.175476,13.62981,-0.9767859,39.19238,0,0,0,78.89365,-110.5598,-36.46098,-1.197964,-111.2317,-56.30258,0.001067912,-0.1257102,0.09433498,0,0.3,0,0,0,0,
6.38224E+17,26.83479,-0.9117499,7.167611,11.28597,46.70582,21.02757,-0.612559,-1.262423,-9.175476,13.70306,-0.9767859,39.19238,0,0,0,67.70007,-111.0798,-34.52864,-1.197964,-111.2317,-56.30258,0.001067912,-0.1257102,0.09433498,0,0.3,0,0,0,0,
6.38224E+17,24.45524,-0.9117499,6.513887,8.50265,46.9988,19.48943,-0.612559,-1.262423,-9.175476,13.62981,-0.9035407,39.19238,0,0,0,61.46017,-111.2611,-33.2083,-1.197964,-111.2317,-56.30258,0.001067912,-0.1257102,0.09433498,0,0.3,0,0,0,0,
6.38224E+17,20.35581,-0.9117499,6.023595,3.009263,47.43827,16.92585,-0.612559,-1.262423,-9.175476,13.62981,-0.9767859,39.19238,0,0,0,51.24741,-111.3857,-30.22386,-1.197964,-111.2317,-56.30258,0.001067912,-0.1257102,0.09433498,0,0.3,0,0,0,0,
6.38224E+17,16.37417,-0.8416153,5.860164,-2.777105,47.65801,15.09472,-0.612559,-1.262423,-9.175476,13.70306,-0.9767859,39.19238,0,0,0,41.42675,-111.2618,-27.35938,-1.197964,-111.2317,-56.30258,0.001067912,-0.1257102,0.09433498,0,0.3,0,0,0,0,
6.38224E+17,14.4187,-0.7013461,5.673386,-5.340686,47.58476,14.50875,-0.612559,-1.262423,-9.175476,13.62981,-0.9767859,39.19238,0,0,0,36.48501,-110.9791,-26.44252,-1.197964,-111.2317,-56.30258,0.001067912,-0.1257102,0.09433498,0,0.3,0,0,0,0,
6.38224E+17,10.08366,-0.1870256,5.579997,-10.17487,47.14529,14.06928,-0.612559,-1.262423,-9.175476,13.70306,-0.9767859,39.19238,0,0,0,25.61782,-109.8034,-24.29448,-1.197964,-111.2317,-56.30258,0.001067912,-0.1257102,0.09433498,0,0.3,0,0,0,0,
6.38224E+17,6.03135,0.7948589,5.883511,-14.71607,46.11986,13.99604,-0.612559,-1.262423,-9.175476,13.62981,-0.9767859,39.19238,0,0,0,15.44634,-107.4477,-22.15737,-1.197964,-111.2317,-56.30258,0.001067912,-0.1257102,0.09433498,0,0.3,0,0,0,0,
6.38224E+17,3.958073,1.519583,6.210372,-16.98667,45.38741,14.06928,-0.612559,-1.262423,-9.175476,13.70306,-0.9767859,39.19238,0,0,0,10.1972,-105.6812,-20.97354,-1.197964,-111.2317,-56.30258,0.001067912,-0.1257102,0.09433498,0,0.3,0,0,0,0,
6.38224E+17,-0.09423985,3.413218,7.190958,-21.23489,43.77601,15.09472,-0.612559,-1.262423,-9.175476,13.62981,-0.9767859,39.26562,0,0,0,-0.2463997,-101.0119,-18.54444,-1.197964,-111.2317,-56.30258,0.001067912,-0.1257102,0.09433498,0,0.3,0,0,0,0,
6.38224E+17,-3.863834,5.751038,8.311626,-25.55635,41.94488,17.36532,-0.612559,-1.262423,-9.175476,13.70306,-0.9767859,39.19238,0,0,0,-10.2396,-95.23687,-16.73991,-1.197964,-111.2317,-56.30258,0.001067912,-0.1257102,0.09433498,0,0.3,0,0,0,0,
6.38224E+17,-8.033947,9.585063,9.759157,-30.83001,39.16157,20.95433,-0.612559,-1.262423,-9.175476,13.70306,-0.9035407,39.26562,0,0,0,-21.53588,-85.86595,-15.77022,-1.197964,-111.2317,-56.30258,0.001067912,-0.1257102,0.09433498,0,0.3,0,0,0,0,
6.38224E+17,-9.636024,11.80599,10.17941,-33.17385,37.62342,22.8587,-0.612559,-1.262423,-9.175476,13.70306,-0.9767859,39.19238,0,0,0,-25.79395,-80.61776,-16.42795,-1.197964,-111.2317,-56.30258,0.001067912,-0.1257102,0.09433498,0,0.3,0,0,0,0,
6.38224E+17,-11.21454,15.96731,10.29614,-36.10366,35.57256,25.56878,-0.612559,-1.262423,-9.175476,13.70306,-0.9767859,39.19238,0,0,0,-29.56917,-71.16957,-19.21343,-1.197964,-111.2317,-56.30258,0.001067912,-0.1257102,0.09433498,0,0.3,0,0,0,0,
6.38224E+17,-11.5915,18.16486,10.29614,-37.05584,34.69361,26.7407,-0.612559,-1.262423,-9.175476,13.70306,-0.9767859,39.19238,0,0,0,-30.24814,-66.2805,-20.88149,-1.197964,-111.2317,-56.30258,0.001067912,-0.1257102,0.09433498,0,0.3,0,0,0,0,
6.38224E+17,-11.75642,23.1678,10.17941,-38.52075,32.5695,29.37753,-0.612559,-1.262423,-9.175476,13.70306,-0.9767859,39.19238,0,0,0,-29.78098,-55.4377,-25.25284,-1.197964,-111.2317,-56.30258,0.001067912,-0.1257102,0.09433498,0,0.3,0,0,0,0,
6.38224E+17,-11.68574,29.08249,10.15606,-39.03346,30.22566,32.16084,-0.612559,-1.262423,-9.175476,13.70306,-0.9767859,39.19238,0,0,0,-28.36642,-43.09335,-31.20186,-1.197964,-111.2317,-56.30258,0.001067912,-0.1257102,0.09433498,0,0.3,0,0,0,0,
6.38224E+17,-11.56794,32.0749,10.20275,-39.03346,28.834,33.40601,-0.612559,-1.262423,-9.175476,13.70306,-0.9767859,39.19238,0,0,0,-27.39544,-37.07885,-34.50967,-1.197964,-111.2317,-56.30258,0.001067912,-0.1257102,0.09433498,0,0.3,0,0,0,0,
6.38224E+17,-10.97894,38.78444,11.13665,-38.52075,25.68446,36.11608,-0.612559,-1.262423,-9.175476,13.62981,-0.9767859,39.19238,0,0,0,-24.70187,-23.95954,-41.02004,-1.197964,-111.2317,-56.30258,0.001067912,-0.1257102,0.09433498,0,0.3,0,0,0,0,
6.38224E+17,-10.03654,45.44723,13.2379,-37.56856,21.72922,39.26562,-0.612559,-1.262423,-9.175476,13.70306,-0.9767859,39.26562,0,0,0,-21.62599,-11.43076,-46.1587,-1.197964,-111.2317,-56.30258,0.001067912,-0.1257102,0.09433498,0,0.3,0,0,0,0,
6.38224E+17,-9.211945,51.058,16.01623,-36.25014,17.62749,43.73357,-0.612559,-1.262423,-9.175476,13.70306,-0.9767859,39.19238,0,0,0,-19.30769,-1.106528,-49.29802,-1.197964,-111.2317,-56.30258,0.001067912,-0.1257102,0.09433498,0,0.3,0,0,0,0,
6.38224E+17,-9.070585,53.76987,17.69723,-35.59094,15.43013,46.44365,-0.612559,-1.262423,-9.175476,13.70306,-0.9035407,39.19238,0,0,0,-18.81574,3.877353,-50.49199,-1.197964,-111.2317,-56.30258,0.001067912,-0.1257102,0.09433498,0,0.3,0,0,0,0,
6.38224E+17,-9.164824,57.88443,20.84911,-34.63876,11.40165,52.44975,-0.612559,-1.262423,-9.175476,13.70306,-0.9035407,39.19238,0,0,0,-18.85069,11.67608,-51.50783,-1.197964,-111.2317,-56.30258,0.001067912,-0.1257102,0.09433498,0,0.3,0,0,0,0,
6.38224E+17,-9.565345,60.80671,23.464,-33.97955,7.666144,58.89533,-0.612559,-1.262423,-9.175476,13.70306,-0.9767859,39.19238,0,0,0,-19.6314,17.43843,-51.85371,-1.197964,-111.2317,-56.30258,0.001067912,-0.1257102,0.09433498,0,0.3,0,0,0,0,
6.38224E+17,-10.60198,62.56007,25.33178,-33.46683,4.443357,65.56064,-0.612559,-1.262423,-9.175476,13.70306,-0.9767859,39.19238,0,0,0,-21.80322,21.16961,-51.86783,-1.197964,-111.2317,-56.30258,0.001067912,-0.1257102,0.09433498,0,0.3,0,0,0,0,
6.38224E+17,-11.5915,63.00426,25.93881,-33.32034,3.051698,68.63693,-0.612559,-1.262423,-9.175476,13.70306,-0.9767859,39.19238,0,0,0,-23.88276,22.25367,-51.91457,-1.197964,-111.2317,-56.30258,0.001067912,-0.1257102,0.09433498,0,0.3,0,0,0,0,
6.38224E+17,-14.70142,63.05101,26.49915,-33.61332,0.9275885,74.49654,-0.612559,-1.262423,-9.175476,13.70306,-0.9767859,39.19238,0,0,0,-30.4367,22.87919,-52.34389,-1.197964,-111.2317,-56.30258,0.001067912,-0.1257102,0.09433498,0,0.3,0,0,0,0,
6.38224E+17,-18.96577,62.23278,27.05948,-35.44445,-0.3908245,79.91669,-0.612559,-1.262423,-9.175476,13.70306,-0.9767859,39.19238,0,0,0,-39.90653,22.59162,-52.22769,-1.197964,-111.2317,-56.30258,0.001067912,-0.1257102,0.09433498,0,0.3,0,0,0,0,
6.38224E+17,-21.39244,61.41454,27.45638,-37.27558,-0.7570504,82.48027,-0.612559,-1.262423,-9.175476,13.70306,-0.9035407,39.19238,0,0,0,-45.69929,22.11549,-51.69389,-1.197964,-111.2317,-56.30258,0.001067912,-0.1257102,0.09433498,0,0.3,0,0,0,0,
6.38224E+17,-26.15156,58.74942,27.97002,-42.40274,-0.9035407,87.02148,-0.612559,-1.262423,-9.175476,13.70306,-0.9767859,39.19238,0,0,0,-58.05608,19.578,-50.11222,-1.197964,-111.2317,-56.30258,0.001067912,-0.1257102,0.09433498,0,0.3,0,0,0,0,
6.38224E+17,-30.20387,55.10242,28.57705,-48.62858,-0.171089,90.39075,-0.612559,-1.262423,-9.175476,13.70306,-0.9035407,39.19238,0,0,0,-70.47005,15.6159,-47.28914,-1.197964,-111.2317,-56.30258,0.001067912,-0.1257102,0.09433498,0,0.3,0,0,0,0,
6.38224E+17,-32.04155,52.97501,28.88057,-52.0711,0.5613627,91.78241,-0.612559,-1.262423,-9.175476,13.70306,-0.9767859,39.19238,0,0,0,-76.77071,13.04799,-45.68919,-1.197964,-111.2317,-56.30258,0.001067912,-0.1257102,0.09433498,0,0.3,0,0,0,0,
6.38224E+17,-34.86874,48.88382,29.37086,-58.00396,2.172756,93.76003,-0.612559,-1.262423,-9.175476,13.70306,-0.9767859,39.19238,0,0,0,-87.52261,7.603284,-42.74331,-1.197964,-111.2317,-56.30258,0.001067912,-0.1257102,0.09433498,0,0.3,0,0,0,0,
6.38224E+17,-37.41322,44.34845,30.16467,-64.08331,4.516602,95.37142,-0.612559,-1.262423,-9.175476,13.70306,-0.9767859,39.19238,0,0,0,-98.64661,1.271962,-39.38726,-1.197964,-111.2317,-56.30258,0.001067912,-0.1257102,0.09433498,0,0.3,0,0,0,0,
6.38224E+17,-39.15665,41.05212,31.54216,-68.25829,6.567466,96.54334,-0.612559,-1.262423,-9.175476,13.70306,-0.9767859,39.19238,0,0,0,-107.5472,-2.721278,-36.28028,-1.197964,-111.2317,-56.30258,0.001067912,-0.1257102,0.09433498,0,0.3,0,0,0,0,
6.38224E+17,-39.98125,39.43903,32.52274,-70.30915,7.666144,97.34904,-0.612559,-1.262423,-9.175476,13.70306,-0.9767859,39.19238,0,0,0,-112.2383,-4.376317,-34.50072,-1.197964,-111.2317,-56.30258,0.001067912,-0.1257102,0.09433498,0,0.3,0,0,0,0,
6.38224E+17,-41.48909,36.42324,34.34383,-74.1179,9.424027,98.59421,-0.612559,-1.262423,-9.175476,13.62981,-0.9767859,39.19238,0,0,0,-120.9226,-7.576755,-31.61939,-1.197964,-111.2317,-56.30258,0.001067912,-0.1257102,0.09433498,0,0.3,0,0,0,0,
6.38224E+17,-42.92625,33.64123,35.60458,-77.34068,11.03542,99.61964,-0.612559,-1.262423,-9.175476,13.70306,-0.9767859,39.19238,0,0,0,-128.4824,-11.1961,-30.2134,-1.197964,-111.2317,-56.30258,0.001067912,-0.1257102,0.09433498,0,0.3,0,0,0,0,
6.38224E+17,-43.56237,32.35543,36.07153,-78.58585,11.69463,100.0591,-0.612559,-1.262423,-9.175476,13.70306,-0.9767859,39.19238,0,0,0,-131.7384,-13.06958,-29.82898,-1.197964,-111.2317,-56.30258,0.001067912,-0.1257102,0.09433498,0,0.3,0,0,0,0,
6.38224E+17,-44.76393,29.45654,36.77194,-80.41698,13.01304,101.1578,-0.612559,-1.262423,-9.175476,13.70306,-0.9767859,39.19238,0,0,0,-137.9779,-17.89001,-29.23037,-1.197964,-111.2317,-56.30258,0.001067912,-0.1257102,0.09433498,0,0.3,0,0,0,0,
6.38224E+17,-45.96548,26.51088,36.93538,-81.51566,14.18496,102.2565,-0.612559,-1.262423,-9.175476,13.62981,-0.9767859,39.19238,0,0,0,-143.3961,-23.71535,-29.707,-1.197964,-111.2317,-56.30258,0.001067912,-0.1257102,0.09433498,0,0.3,0,0,0,0,
6.38224E+17,-46.55449,24.96792,36.93538,-81.88189,14.69768,102.6959,-0.612559,-1.262423,-9.175476,13.70306,-0.9767859,39.19238,0,0,0,-145.9459,-26.95003,-30.116,-1.197964,-111.2317,-56.30258,0.001067912,-0.1257102,0.09433498,0,0.3,0,0,0,0,
6.38224E+17,-47.85028,21.3443,36.86533,-82.61434,15.8696,103.3551,-0.612559,-1.262423,-9.175476,13.70306,-0.9767859,39.19238,0,0,0,-151.3963,-34.80078,-31.31408,-1.197964,-111.2317,-56.30258,0.001067912,-0.1257102,0.09433498,0,0.3,0,0,0,0,
6.38224E+17,-48.722,18.37527,36.37504,-83.05381,16.89503,104.1608,-0.612559,-1.262423,-9.175476,13.70306,-0.9767859,39.19238,0,0,0,-154.5394,-41.97987,-32.68895,-1.197964,-111.2317,-56.30258,0.001067912,-0.1257102,0.09433498,0,0.3,0,0,0,0,
6.38224E+17,-49.1932,16.64528,35.90809,-83.20029,17.55424,104.5271,-0.612559,-1.262423,-9.175476,13.70306,-0.9767859,39.19238,0,0,0,-155.9024,-46.46048,-33.74633,-1.197964,-111.2317,-56.30258,0.001067912,-0.1257102,0.09433498,0,0.3,0,0,0,0,
6.38224E+17,-50.1356,13.3022,35.27772,-83.42004,18.87265,105.3328,-0.612559,-1.262423,-9.175476,13.70306,-0.9767859,39.26562,0,0,0,-158.7223,-54.8298,-35.805,-1.197964,-111.2317,-56.30258,0.001067912,-0.1257102,0.09433498,0,0.3,0,0,0,0,
6.38224E+17,-51.00732,10.05263,34.46056,-83.27354,20.11782,107.0906,-0.612559,-1.262423,-9.175476,13.70306,-0.9767859,39.19238,0,0,0,-160.6973,-63.32259,-38.25387,-1.197964,-111.2317,-56.30258,0.001067912,-0.1257102,0.09433498,0,0.3,0,0,0,0,
6.38224E+17,-51.69056,7.340756,33.3399,-82.76083,20.99677,108.5555,-0.612559,-1.262423,-9.175476,13.62981,-0.9767859,39.19238,0,0,0,-161.2873,-71.01576,-40.9298,-1.197964,-111.2317,-56.30258,0.001067912,-0.1257102,0.09433498,0,0.3,0,0,0,0,
6.38224E+17,-52.20887,5.07307,31.40207,-81.7354,21.87571,109.5077,-0.612559,-1.262423,-9.175476,13.70306,-0.9035407,39.19238,0,0,0,-159.8742,-78.67686,-44.37852,-1.197964,-111.2317,-56.30258,0.001067912,-0.1257102,0.09433498,0,0.3,0,0,0,0,
6.38224E+17,-52.35023,4.208076,30.63161,-80.9297,22.46167,109.874,-0.612559,-1.262423,-9.175476,13.62981,-0.9767859,39.19238,0,0,0,-159.0918,-81.60742,-45.61256,-1.197964,-111.2317,-56.30258,0.001067912,-0.1257102,0.09433498,0,0.3,0,0,0,0,
6.38224E+17,-52.75076,2.548224,30.00124,-79.17181,23.78008,110.4599,-0.612559,-1.262423,-9.175476,13.70306,-0.9035407,39.19238,0,0,0,-159.1189,-86.20428,-47.35647,-1.197964,-111.2317,-56.30258,0.001067912,-0.1257102,0.09433498,0,0.3,0,0,0,0,
6.38224E+17,-53.22195,1.332558,29.95454,-78.43936,24.95201,110.6064,-0.612559,-1.262423,-9.175476,13.70306,-0.9767859,39.19238,0,0,0,-160.1099,-89.08624,-48.66814,-1.197964,-111.2317,-56.30258,0.001067912,-0.1257102,0.09433498,0,0.3,0,0,0,0,
6.38224E+17,-53.74027,0.1636474,29.34751,-78.6591,25.97744,109.9472,-0.612559,-1.262423,-9.175476,13.70306,-0.9767859,39.19238,0,0,0,-160.2246,-92.50541,-50.8266,-1.197964,-111.2317,-56.30258,0.001067912,-0.1257102,0.09433498,0,0.3,0,0,0,0,
6.38224E+17,-53.95231,-0.5376987,28.76383,-79.09857,26.49015,108.9218,-0.612559,-1.262423,-9.175476,13.70306,-0.9767859,39.19238,0,0,0,-159.694,-94.79745,-52.12228,-1.197964,-111.2317,-56.30258,0.001067912,-0.1257102,0.09433498,0,0.3,0,0,0,0,
6.38224E+17,-54.42351,-0.9818845,26.52249,-79.90427,27.58883,106.2117,-0.612559,-1.262423,-9.175476,13.70306,-0.9767859,39.19238,0,0,0,-156.8751,-98.25125,-56.1358,-1.197964,-111.2317,-56.30258,0.001067912,-0.1257102,0.09433498,0,0.3,0,0,0,0,
6.38224E+17,-55.03607,-0.9818845,23.81421,-81.00294,28.39453,103.2819,-0.612559,-1.262423,-9.175476,13.70306,-0.9767859,39.19238,0,0,0,-153.3911,-100.9316,-61.08826,-1.197964,-111.2317,-56.30258,0.001067912,-0.1257102,0.09433498,0,0.3,0,0,0,0,
6.38224E+17,-55.46015,-0.9585064,21.57287,-82.3946,28.90724,99.39991,-0.612559,-1.262423,-9.175476,13.70306,-0.9767859,39.19238,0,0,0,-150.2175,-102.8896,-64.95449,-1.197964,-111.2317,-56.30258,0.001067912,-0.1257102,0.09433498,0,0.3,0,0,0,0,
6.38224E+17,-55.46015,-0.9585064,20.8958,-83.27354,29.27347,97.27579,-0.612559,-1.262423,-9.175476,13.70306,-0.9767859,39.19238,0,0,0,-149.0075,-103.4604,-65.78728,-1.197964,-111.2317,-56.30258,0.001067912,-0.1257102,0.09433498,0,0.3,0,0,0,0,
6.38224E+17,-55.46015,-0.9351282,19.6584,-85.39766,30.07917,93.68678,-0.612559,-1.262423,-9.175476,13.70306,-0.9767859,39.19238,0,0,0,-146.7831,-104.404,-67.31841,-1.197964,-111.2317,-56.30258,0.001067912,-0.1257102,0.09433498,0,0.3,0,0,0,0,
6.38224E+17,-55.36591,-0.8883717,17.39371,-87.44852,31.17784,90.24426,-0.612559,-1.262423,-9.175476,13.70306,-0.9767859,39.19238,0,0,0,-142.5063,-105.9698,-69.9163,-1.197964,-111.2317,-56.30258,0.001067912,-0.1257102,0.09433498,0,0.3,0,0,0,0,
6.38224E+17,-55.20099,-0.6078333,15.57263,-88.10773,31.83705,88.8526,-0.612559,-1.262423,-9.175476,13.62981,-0.9767859,39.19238,0,0,0,-138.8922,-106.5195,-71.821,-1.197964,-111.2317,-56.30258,0.001067912,-0.1257102,0.09433498,0,0.3,0,0,0,0,
6.38224E+17,-55.17743,-0.233782,14.66208,-88.03448,32.13003,88.33988,-0.612559,-1.262423,-9.175476,13.70306,-0.9035407,39.19238,0,0,0,-137.1782,-106.2016,-72.92849,-1.197964,-111.2317,-56.30258,0.001067912,-0.1257102,0.09433498,0,0.3,0,0,0,0,
6.38224E+17,-55.17743,1.332558,12.88769,-87.52177,32.64275,87.82717,-0.612559,-1.262423,-9.175476,13.70306,-0.9767859,39.19238,0,0,0,-133.857,-103.5397,-75.23875,-1.197964,-111.2317,-56.30258,0.001067912,-0.1257102,0.09433498,0,0.3,0,0,0,0,
6.38224E+17,-55.22455,4.208076,11.1133,-87.22878,32.71599,87.60744,-0.612559,-1.262423,-9.175476,13.70306,-0.9767859,39.19238,0,0,0,-130.35,-97.71436,-77.8372,-1.197964,-111.2317,-56.30258,0.001067912,-0.1257102,0.09433498,0,0.3,0,0,0,0,
6.38224E+17,-55.27167,5.98482,10.17941,-86.93581,32.42301,87.60744,-0.612559,-1.262423,-9.175476,13.70306,-0.9767859,39.19238,0,0,0,-128.3669,-93.99723,-79.3706,-1.197964,-111.2317,-56.30258,0.001067912,-0.1257102,0.09433498,0,0.3,0,0,0,0,
6.38224E+17,-55.27167,9.748712,8.218237,-86.2766,31.39758,87.53419,-0.612559,-1.262423,-9.175476,13.70306,-0.9767859,39.19238,0,0,0,-123.6788,-86.0508,-82.62024,-1.197964,-111.2317,-56.30258,0.001067912,-0.1257102,0.09433498,0,0.3,0,0,0,0,
6.38224E+17,-55.24811,13.98017,5.9769,-85.4709,29.93268,87.53419,-0.612559,-1.262423,-9.175476,13.62981,-0.9035407,39.19238,0,0,0,-117.7274,-77.05962,-86.67384,-1.197964,-111.2317,-56.30258,0.001067912,-0.1257102,0.09433498,0,0.3,0,0,0,0,
6.38224E+17,-54.91827,18.37527,2.941756,-84.44547,28.24804,87.53419,-0.612559,-1.262423,-9.175476,13.70306,-0.9767859,39.19238,0,0,0,-109.161,-67.7871,-91.68232,-1.197964,-111.2317,-56.30258,0.001067912,-0.1257102,0.09433498,0,0.3,0,0,0,0,
6.38224E+17,-54.23503,21.50795,0.2568199,-83.27354,26.92962,87.53419,-0.612559,-1.262423,-9.175476,13.70306,-0.9767859,39.19238,0,0,0,-101.1535,-61.10851,-95.48977,-1.197964,-111.2317,-56.30258,0.001067912,-0.1257102,0.09433498,0,0.3,0,0,0,0,
6.38224E+17,-53.00991,24.68738,-2.684936,-81.22268,25.7577,87.3877,-0.612559,-1.262423,-9.175476,13.70306,-0.9035407,39.19238,0,0,0,-91.78733,-54.15772,-99.20818,-1.197964,-111.2317,-56.30258,0.001067912,-0.1257102,0.09433498,0,0.3,0,0,0,0,
6.38224E+17,-50.74816,28.6383,-5.673386,-77.56042,24.80551,86.72849,-0.612559,-1.262423,-9.175476,13.70306,-0.9035407,39.19238,0,0,0,-80.42142,-45.43499,-102.6386,-1.197964,-111.2317,-56.30258,0.001067912,-0.1257102,0.09433498,0,0.3,0,0,0,0,
6.38224E+17,-49.40524,30.53193,-6.630623,-75.43631,24.51253,86.21577,-0.612559,-1.262423,-9.175476,13.70306,-0.9767859,39.19238,0,0,0,-75.5252,-41.36378,-103.6291,-1.197964,-111.2317,-56.30258,0.001067912,-0.1257102,0.09433498,0,0.3,0,0,0,0,
6.38224E+17,-44.59901,37.52202,-7.471125,-68.69775,23.99982,85.19034,-0.612559,-1.262423,-9.175476,13.70306,-0.9767859,39.19238,0,0,0,-62.08569,-27.64894,-105.3891,-1.197964,-111.2317,-56.30258,0.001067912,-0.1257102,0.09433498,0,0.3,0,0,0,0,
6.38224E+17,-43.13829,39.64943,-7.377736,-66.64689,23.85333,85.04385,-0.612559,-1.262423,-9.175476,13.70306,-0.9767859,39.19238,0,0,0,-58.49653,-23.80691,-105.9229,-1.197964,-111.2317,-56.30258,0.001067912,-0.1257102,0.09433498,0,0.3,0,0,0,0,
6.38224E+17,-39.60429,44.18481,-4.482675,-61.44649,23.41385,85.1171,-0.612559,-1.262423,-9.175476,13.70306,-0.9767859,39.19238,0,0,0,-54.31495,-16.65048,-102.7045,-1.197964,-111.2317,-56.30258,0.001067912,-0.1257102,0.09433498,0,0.3,0,0,0,0,
6.38224E+17,-37.08338,48.25261,-0.4435981,-56.83204,22.90114,85.48332,-0.612559,-1.262423,-9.175476,13.62981,-0.9035407,39.19238,0,0,0,-52.91624,-10.50521,-98.33998,-1.197964,-111.2317,-56.30258,0.001067912,-0.1257102,0.09433498,0,0.3,0,0,0,0,
6.38224E+17,-34.68026,54.77513,6.070289,-51.63163,20.85028,85.9228,-0.612559,-1.262423,-9.175476,13.70306,-0.9767859,39.19238,0,0,0,-51.78782,-0.3193985,-93.50381,-1.197964,-111.2317,-56.30258,0.001067912,-0.1257102,0.09433498,0,0.3,0,0,0,0,
6.38224E+17,-33.87922,59.28712,10.62301,-48.92156,18.57967,87.53419,-0.612559,-1.262423,-9.175476,13.70306,-0.9767859,39.19238,0,0,0,-51.66905,6.931428,-91.39808,-1.197964,-111.2317,-56.30258,0.001067912,-0.1257102,0.09433498,0,0.3,0,0,0,0,
6.38224E+17,-33.45514,62.30291,13.75154,-47.45666,16.6753,89.07233,-0.612559,-1.262423,-9.175476,13.70306,-0.9767859,39.19238,0,0,0,-51.64405,11.89278,-90.19147,-1.197964,-111.2317,-56.30258,0.001067912,-0.1257102,0.09433498,0,0.3,0,0,0,0,
6.38224E+17,-32.70123,68.89557,21.29271,-45.2593,11.3284,93.17406,-0.612559,-1.262423,-9.175476,13.70306,-0.9767859,39.19238,0,0,0,-52.10194,23.50845,-87.19671,-1.197964,-111.2317,-56.30258,0.001067912,-0.1257102,0.09433498,0,0.3,0,0,0,0,
6.38224E+17,-31.92375,74.36607,28.55371,-44.74659,5.542034,98.30123,-0.612559,-1.262423,-9.175476,13.70306,-0.9767859,39.19238,0,0,0,-52.70741,34.6359,-83.75019,-1.197964,-111.2317,-56.30258,0.001067912,-0.1257102,0.09433498,0,0.3,0,0,0,0,
6.38224E+17,-30.53371,78.76117,35.0209,-45.47904,-0.9035407,104.3806,-0.612559,-1.262423,-9.175476,13.70306,-0.9767859,39.19238,0,0,0,-52.08279,44.93676,-80.0498,-1.197964,-111.2317,-56.30258,0.001067912,-0.1257102,0.09433498,0,0.3,0,0,0,0,
6.38224E+17,-29.56775,80.67818,37.77588,-45.99176,-3.979838,107.1639,-0.612559,-1.262423,-9.175476,13.70306,-0.9767859,39.19238,0,0,0,-50.9671,49.53742,-78.51398,-1.197964,-111.2317,-56.30258,0.001067912,-0.1257102,0.09433498,0,0.3,0,0,0,0,
6.38224E+17,-26.9526,84.20829,42.7255,-46.94394,-9.839451,111.5586,-0.612559,-1.262423,-9.175476,13.70306,-0.9767859,39.19238,0,0,0,-47.10789,58.05868,-75.70614,-1.197964,-111.2317,-56.30258,0.001067912,-0.1257102,0.09433498,0,0.3,0,0,0,0,
6.38224E+17,-23.93692,87.29421,47.16148,-47.5299,-15.33284,114.7082,-0.612559,-1.262423,-9.175476,13.70306,-0.9035407,39.19238,0,0,0,-42.22725,65.88206,-73.22434,-1.197964,-111.2317,-56.30258,0.001067912,-0.1257102,0.09433498,0,0.3,0,0,0,0,
6.38224E+17,-22.14636,88.79042,49.33278,-47.5299,-18.1894,116.0266,-0.612559,-1.262423,-9.175476,13.70306,-0.9035407,39.19238,0,0,0,-39.19093,69.77081,-72.058,-1.197964,-111.2317,-56.30258,0.001067912,-0.1257102,0.09433498,0,0.3,0,0,0,0,
6.38224E+17,-18.61237,91.22175,53.04499,-47.16368,-23.60954,117.7112,-0.612559,-1.262423,-9.175476,13.70306,-0.9035407,39.19238,0,0,0,-33.10296,76.5013,-70.05674,-1.197964,-111.2317,-56.30258,0.001067912,-0.1257102,0.09433498,0,0.3,0,0,0,0,
6.38224E+17,-14.84277,93.13876,56.03344,-46.13824,-28.59021,118.2972,-0.612559,-1.262423,-9.175476,13.70306,-0.9767859,39.19238,0,0,0,-26.46061,81.99611,-68.50251,-1.197964,-111.2317,-56.30258,0.001067912,-0.1257102,0.09433498,0,0.3,0,0,0,0,
6.38224E+17,-10.57842,94.37781,57.87787,-43.7944,-33.20466,118.2239,-0.612559,-1.262423,-9.175476,13.70306,-0.9767859,39.19238,0,0,0,-18.86432,85.40531,-67.33906,-1.197964,-111.2317,-56.30258,0.001067912,-0.1257102,0.09433498,0,0.3,0,0,0,0,
6.38224E+17,-4.853352,95.12591,58.43821,-37.86154,-37.67262,113.5362,-0.612559,-1.262423,-9.175476,13.70306,-0.9767859,39.19238,0,0,0,-8.605267,86.36893,-67.00444,-1.197964,-111.2317,-56.30258,0.001067912,-0.1257102,0.09433498,0,0.3,0,0,0,0,
6.38224E+17,-2.450236,95.24281,58.34481,-34.34578,-39.06427,110.1669,-0.612559,-1.262423,-9.175476,13.70306,-0.9767859,39.19238,0,0,0,-4.331828,86.15924,-67.11726,-1.197964,-111.2317,-56.30258,0.001067912,-0.1257102,0.09433498,0,0.3,0,0,0,0,
6.38224E+17,3.321954,95.19604,58.0413,-23.21251,-41.18839,100.1324,-0.612559,-1.262423,-9.175476,13.70306,-0.9767859,39.19238,0,0,0,5.856164,85.56882,-67.45837,-1.197964,-111.2317,-56.30258,0.001067912,-0.1257102,0.09433498,0,0.3,0,0,0,0,
6.38224E+17,8.434465,95.00902,57.78448,-10.98056,-41.99408,90.17101,-0.612559,-1.262423,-9.175476,13.62981,-0.9035407,39.19238,0,0,0,14.84052,85.10112,-68.26682,-1.197964,-111.2317,-56.30258,0.001067912,-0.1257102,0.09433498,0,0.3,0,0,0,0,
6.38224E+17,10.93182,94.79861,57.43428,-4.681479,-41.92084,85.33684,-0.612559,-1.262423,-9.175476,13.70306,-0.9767859,39.19238,0,0,0,19.1971,84.45472,-68.95818,-1.197964,-111.2317,-56.30258,0.001067912,-0.1257102,0.09433498,0,0.3,0,0,0,0,
6.38224E+17,15.17262,94.30767,56.31361,5.572844,-40.74891,77.20662,-0.612559,-1.262423,-9.175476,13.70306,-0.9767859,39.19238,0,0,0,26.41945,82.36114,-70.92625,-1.197964,-111.2317,-56.30258,0.001067912,-0.1257102,0.09433498,0,0.3,0,0,0,0,
6.38224E+17,19.03645,93.7466,54.44583,12.97061,-38.55156,70.98078,-0.612559,-1.262423,-9.175476,13.70306,-0.9035407,39.19238,0,0,0,32.54371,78.87565,-74.03116,-1.197964,-111.2317,-56.30258,0.001067912,-0.1257102,0.09433498,0,0.3,0,0,0,0,
6.38224E+17,22.64112,92.95174,51.90097,17.95128,-35.695,66.29308,-0.612559,-1.262423,-9.175476,13.70306,-0.9035407,39.19238,0,0,0,37.75372,74.24313,-77.83567,-1.197964,-111.2317,-56.30258,0.001067912,-0.1257102,0.09433498,0,0.3,0,0,0,0,
6.38224E+17,24.4788,92.36728,50.26667,20.00214,-34.01036,64.24223,-0.612559,-1.262423,-9.175476,13.70306,-0.9767859,39.19238,0,0,0,40.20991,71.34682,-80.03082,-1.197964,-111.2317,-56.30258,0.001067912,-0.1257102,0.09433498,0,0.3,0,0,0,0,
6.38224E+17,27.98923,90.8477,46.74123,23.29818,-29.90863,60.94619,-0.612559,-1.262423,-9.175476,13.70306,-0.9035407,39.19238,0,0,0,44.65041,65.30138,-84.33672,-1.197964,-111.2317,-56.30258,0.001067912,-0.1257102,0.09433498,0,0.3,0,0,0,0,
6.38224E+17,30.22743,89.53852,44.28976,24.98281,-26.61259,58.82208,-0.612559,-1.262423,-9.175476,13.70306,-0.9767859,39.19238,0,0,0,47.41875,61.24141,-86.96607,-1.197964,-111.2317,-56.30258,0.001067912,-0.1257102,0.09433498,0,0.3,0,0,0,0,
6.38224E+17,31.52323,88.60339,42.79554,25.935,-24.70822,57.86989,-0.612559,-1.262423,-9.175476,13.70306,-0.9767859,39.19238,0,0,0,49.06684,58.81045,-88.353,-1.197964,-111.2317,-56.30258,0.001067912,-0.1257102,0.09433498,0,0.3,0,0,0,0,
6.38224E+17,33.71431,86.61625,40.1573,27.25341,-21.04596,56.2585,-0.612559,-1.262423,-9.175476,13.62981,-0.9767859,39.26562,0,0,0,52.10086,54.5512,-90.27029,-1.197964,-111.2317,-56.30258,0.001067912,-0.1257102,0.09433498,0,0.3,0,0,0,0,
6.38224E+17,35.57554,84.53558,37.89261,28.35209,-17.60344,55.15982,-0.612559,-1.262423,-9.175476,13.70306,-0.9767859,39.19238,0,0,0,55.03597,50.85907,-91.4072,-1.197964,-111.2317,-56.30258,0.001067912,-0.1257102,0.09433498,0,0.3,0,0,0,0,
6.38224E+17,36.40014,83.39005,36.72525,28.79156,-15.99205,54.7936,-0.612559,-1.262423,-9.175476,13.70306,-0.9767859,39.19238,0,0,0,56.42856,48.93194,-91.81255,-1.197964,-111.2317,-56.30258,0.001067912,-0.1257102,0.09433498,0,0.3,0,0,0,0,
6.38224E+17,38.04934,81.12236,34.48391,29.817,-12.76926,54.28088,-0.612559,-1.262423,-9.175476,13.70306,-0.9767859,39.19238,0,0,0,59.21707,45.18406,-92.68998,-1.197964,-111.2317,-56.30258,0.001067912,-0.1257102,0.09433498,0,0.3,0,0,0,0,
6.38224E+17,39.81633,77.91955,31.30868,30.91567,-8.814018,53.91465,-0.612559,-1.262423,-9.175476,13.70306,-0.9767859,39.19238,0,0,0,62.24205,39.81534,-93.68806,-1.197964,-111.2317,-56.30258,0.001067912,-0.1257102,0.09433498,0,0.3,0,0,0,0,
6.38224E+17,40.94721,75.09079,28.46032,31.50163,-5.884212,53.91465,-0.612559,-1.262423,-9.175476,13.70306,-0.9035407,39.19238,0,0,0,64.1321,34.97643,-94.43703,-1.197964,-111.2317,-56.30258,0.001067912,-0.1257102,0.09433498,0,0.3,0,0,0,0,
6.38224E+17,41.77181,72.30878,25.70534,31.9411,-3.540367,53.91465,-0.612559,-1.262423,-9.175476,13.70306,-0.9767859,39.19238,0,0,0,65.52603,30.24039,-94.99052,-1.197964,-111.2317,-56.30258,0.001067912,-0.1257102,0.09433498,0,0.3,0,0,0,0,
6.38224E+17,42.73777,68.10071,21.71296,32.52707,-0.09784385,53.91465,-0.612559,-1.262423,-9.175476,13.70306,-0.9767859,39.19238,0,0,0,67.23336,23.1889,-95.58621,-1.197964,-111.2317,-56.30258,0.001067912,-0.1257102,0.09433498,0,0.3,0,0,0,0,
6.38224E+17,43.68017,62.23278,16.78668,33.25952,4.663092,54.35413,-0.612559,-1.262423,-9.175476,13.70306,-0.9767859,39.19238,0,0,0,69.50376,13.67692,-95.56805,-1.197964,-111.2317,-56.30258,0.001067912,-0.1257102,0.09433498,0,0.3,0,0,0,0,
6.38224E+17,44.08069,58.91307,14.28853,33.5525,7.226673,54.7936,-0.612559,-1.262423,-9.175476,13.70306,-0.9767859,39.19238,0,0,0,70.79501,8.324086,-95.24593,-1.197964,-111.2317,-56.30258,0.001067912,-0.1257102,0.09433498,0,0.3,0,0,0,0,
6.38224E+17,44.62257,51.47881,9.362254,34.50468,12.86655,56.11201,-0.612559,-1.262423,-9.175476,13.62981,-0.9767859,39.26562,0,0,0,73.57552,-3.893638,-93.79868,-1.197964,-111.2317,-56.30258,0.001067912,-0.1257102,0.09433498,0,0.3,0,0,0,0,
6.38224E+17,44.85817,43.29643,4.94962,35.45687,19.16564,57.7234,-0.612559,-1.262423,-9.175476,13.70306,-0.9767859,39.26562,0,0,0,76.57297,-18.0549,-91.39698,-1.197964,-111.2317,-56.30258,0.001067912,-0.1257102,0.09433498,0,0.3,0,0,0,0,
6.38224E+17,44.85817,35.02055,1.821087,36.55555,25.68446,58.82208,-0.612559,-1.262423,-9.175476,13.62981,-0.9035407,39.19238,0,0,0,80.01832,-33.40706,-87.93453,-1.197964,-111.2317,-56.30258,0.001067912,-0.1257102,0.09433498,0,0.3,0,0,0,0,
6.38224E+17,44.85817,31.13977,0.9338906,37.06827,28.68751,59.18831,-0.612559,-1.262423,-9.175476,13.70306,-0.9035407,39.19238,0,0,0,82.03891,-41.02333,-85.90391,-1.197964,-111.2317,-56.30258,0.001067912,-0.1257102,0.09433498,0,0.3,0,0,0,0,
6.38224E+17,44.85817,23.35482,0.3735563,38.16694,34.76685,59.70102,-0.612559,-1.262423,-9.175476,13.70306,-0.9767859,39.19238,0,0,0,86.96573,-57.134,-80.95264,-1.197964,-111.2317,-56.30258,0.001067912,-0.1257102,0.09433498,0,0.3,0,0,0,0,
6.38224E+17,44.83461,16.99595,0.7471125,38.97264,39.82077,59.70102,-0.612559,-1.262423,-9.175476,13.70306,-0.9767859,39.19238,0,0,0,91.13976,-71.0099,-76.68253,-1.197964,-111.2317,-56.30258,0.001067912,-0.1257102,0.09433498,0,0.3,0,0,0,0,
6.38224E+17,44.83461,12.34369,1.470878,38.82615,43.9225,57.65016,-0.612559,-1.262423,-9.175476,13.70306,-0.9767859,39.19238,0,0,0,94.26002,-81.44911,-73.54421,-1.197964,-111.2317,-56.30258,0.001067912,-0.1257102,0.09433498,0,0.3,0,0,0,0,
6.38224E+17,44.85817,10.98776,1.867781,38.53317,45.38741,56.11201,-0.612559,-1.262423,-9.175476,13.70306,-0.9767859,39.19238,0,0,0,95.40037,-84.51275,-72.47614,-1.197964,-111.2317,-56.30258,0.001067912,-0.1257102,0.09433498,0,0.3,0,0,0,0,
6.38224E+17,45.18801,10.09938,2.73163,37.43449,47.58476,52.96247,-0.612559,-1.262423,-9.175476,13.70306,-0.9767859,39.19238,0,0,0,97.64425,-86.46474,-71.34446,-1.197964,-111.2317,-56.30258,0.001067912,-0.1257102,0.09433498,0,0.3,0,0,0,0,
6.38224E+17,46.4838,11.22154,3.852299,36.4823,48.90318,50.61862,-0.612559,-1.262423,-9.175476,13.70306,-0.9767859,39.19238,0,0,0,101.3509,-83.74838,-72.11712,-1.197964,-111.2317,-56.30258,0.001067912,-0.1257102,0.09433498,0,0.3,0,0,0,0,
6.38224E+17,47.44976,12.32031,4.902926,36.33582,49.12291,49.66644,-0.612559,-1.262423,-9.175476,13.70306,-0.9767859,39.19238,0,0,0,104.3706,-81.05827,-72.54348,-1.197964,-111.2317,-56.30258,0.001067912,-0.1257102,0.09433498,0,0.3,0,0,0,0,
6.38224E+17,49.92356,15.21921,8.545099,36.92178,48.4637,48.27478,-0.612559,-1.262423,-9.175476,13.70306,-0.9767859,39.19238,0,0,0,113.6205,-73.51364,-72.75246,-1.197964,-111.2317,-56.30258,0.001067912,-0.1257102,0.09433498,0,0.3,0,0,0,0,
6.38224E+17,52.65651,19.26364,14.05505,38.97264,45.90012,46.66338,-0.612559,-1.262423,-9.175476,13.70306,-0.9035407,39.19238,0,0,0,125.8255,-62.01366,-72.34566,-1.197964,-111.2317,-56.30258,0.001067912,-0.1257102,0.09433498,0,0.3,0,0,0,0,
6.38224E+17,55.34235,25.31859,22.29664,42.6349,41.43217,43.88007,-0.612559,-1.262423,-9.175476,13.70306,-0.9767859,39.19238,0,0,0,140.7689,-43.00239,-71.03085,-1.197964,-111.2317,-56.30258,0.001067912,-0.1257102,0.09433498,0,0.3,0,0,0,0,
6.38224E+17,55.31879,28.96559,27.7599,44.75901,38.50236,41.90245,-0.612559,-1.262423,-9.175476,13.70306,-0.9767859,39.19238,0,0,0,147.0158,-30.07306,-66.62274,-1.197964,-111.2317,-56.30258,0.001067912,-0.1257102,0.09433498,0,0.3,0,0,0,0,
6.38224E+17,55.29523,31.23328,31.68224,45.63795,36.81772,40.80377,-0.612559,-1.262423,-9.175476,13.70306,-0.9035407,39.19238,0,0,0,151.3144,-20.98223,-63.55629,-1.197964,-111.2317,-56.30258,0.001067912,-0.1257102,0.09433498,0,0.3,0,0,0,0,
6.38224E+17,55.31879,35.72189,38.98993,47.24934,33.52169,38.60641,-0.612559,-1.262423,-9.175476,13.70306,-0.9767859,39.19238,0,0,0,158.0217,-2.44056,-59.0072,-1.197964,-111.2317,-56.30258,0.001067912,-0.1257102,0.09433498,0,0.3,0,0,0,0,
6.38224E+17,55.31879,40.84172,46.88131,49.30021,29.4932,36.11608,-0.612559,-1.262423,-9.175476,13.70306,-0.9767859,39.19238,0,0,0,163.0018,19.4108,-55.5613,-1.197964,-111.2317,-56.30258,0.001067912,-0.1257102,0.09433498,0,0.3,0,0,0,0,
6.38224E+17,55.29523,43.48346,51.2706,50.69187,27.14936,34.72442,-0.612559,-1.262423,-9.175476,13.70306,-0.9767859,39.19238,0,0,0,165.0628,31.68464,-54.03474,-1.197964,-111.2317,-56.30258,0.001067912,-0.1257102,0.09433498,0,0.3,0,0,0,0,
6.38224E+17,55.22455,48.55653,59.93243,54.13439,22.38842,31.57488,-0.612559,-1.262423,-9.175476,13.70306,-0.9035407,39.19238,0,0,0,167.2913,56.49923,-52.18581,-1.197964,-111.2317,-56.30258,0.001067912,-0.1257102,0.09433498,0,0.3,0,0,0,0,
6.38224E+17,54.80047,53.95689,68.15067,58.89533,17.26126,27.32666,-0.612559,-1.262423,-9.175476,13.70306,-0.9035407,39.19238,0,0,0,165.2548,81.54493,-51.7776,-1.197964,-111.2317,-56.30258,0.001067912,-0.1257102,0.09433498,0,0.3,0,0,0,0,
6.38224E+17,53.85807,59.21699,74.64121,64.53521,11.76787,21.3938,-0.612559,-1.262423,-9.175476,13.62981,-0.9767859,39.19238,0,0,0,158.9554,102.5931,-52.25947,-1.197964,-111.2317,-56.30258,0.001067912,-0.1257102,0.09433498,0,0.3,0,0,0,0,
6.38224E+17,53.12771,62.32629,77.76974,68.63693,7.959125,16.70611,-0.612559,-1.262423,-9.175476,13.70306,-0.9035407,39.19238,0,0,0,153.8,113.1967,-52.98997,-1.197964,-111.2317,-56.30258,0.001067912,-0.1257102,0.09433498,0,0.3,0,0,0,0,
6.38224E+17,52.58583,64.52384,79.87099,72.1527,4.443357,12.23815,-0.612559,-1.262423,-9.175476,13.70306,-0.9767859,39.19238,0,0,0,149.8223,120.282,-53.74352,-1.197964,-111.2317,-56.30258,0.001067912,-0.1257102,0.09433498,0,0.3,0,0,0,0,
6.38224E+17,52.06751,66.55774,81.90221,75.96145,0.3416272,6.158805,-0.612559,-1.262423,-9.175476,13.70306,-0.9035407,39.19238,0,0,0,145.9715,126.9094,-54.58128,-1.197964,-111.2317,-56.30258,0.001067912,-0.1257102,0.09433498,0,0.3,0,0,0,0,
6.38224E+17,51.94971,67.25909,82.60263,77.42635,-1.269767,3.448734,-0.612559,-1.262423,-9.175476,13.70306,-0.9767859,39.19238,0,0,0,144.728,129.1648,-55.07141,-1.197964,-111.2317,-56.30258,0.001067912,-0.1257102,0.09433498,0,0.3,0,0,0,0,
6.38224E+17,51.87903,68.89557,83.84003,80.94212,-4.272818,-2.630615,-0.612559,-1.262423,-9.175476,13.70306,-0.9767859,39.19238,0,0,0,142.076,133.4465,-56.86425,-1.197964,-111.2317,-56.30258,0.001067912,-0.1257102,0.09433498,0,0.3,0,0,0,0,
6.38224E+17,51.87903,69.31638,84.21359,81.67458,-4.85878,-3.949028,-0.612559,-1.262423,-9.175476,13.70306,-0.9767859,39.19238,0,0,0,141.4273,134.6605,-57.37323,-1.197964,-111.2317,-56.30258,0.001067912,-0.1257102,0.09433498,0,0.3,0,0,0,0,
6.38224E+17,51.94971,70.41515,84.75057,83.13947,-5.884212,-6.219628,-0.612559,-1.262423,-9.175476,13.62981,-0.9767859,39.26562,0,0,0,139.768,136.7848,-58.95356,-1.197964,-111.2317,-56.30258,0.001067912,-0.1257102,0.09433498,0,0.3,0,0,0,0,
6.38224E+17,52.20887,71.93473,84.75057,84.45789,-6.836399,-7.831022,-0.612559,-1.262423,-9.175476,13.62981,-0.9767859,39.19238,0,0,0,137.6161,137.9259,-61.6381,-1.197964,-111.2317,-56.30258,0.001067912,-0.1257102,0.09433498,0,0.3,0,0,0,0,
6.38224E+17,52.37379,72.72959,84.51711,84.9706,-7.349115,-8.563474,-0.612559,-1.262423,-9.175476,13.70306,-0.9767859,39.26562,0,0,0,136.4864,137.9464,-63.14181,-1.197964,-111.2317,-56.30258,0.001067912,-0.1257102,0.09433498,0,0.3,0,0,0,0,
6.38224E+17,52.77431,74.15565,83.34974,85.77631,-8.374548,-9.735395,-0.612559,-1.262423,-9.175476,13.70306,-0.9767859,39.19238,0,0,0,134.4568,136.1906,-66.19672,-1.197964,-111.2317,-56.30258,0.001067912,-0.1257102,0.09433498,0,0.3,0,0,0,0,
6.38224E+17,53.29263,75.60511,81.27184,85.70306,-9.033754,-9.955132,-0.612559,-1.262423,-9.175476,13.70306,-0.9767859,39.19238,0,0,0,132.2458,132.2781,-69.75053,-1.197964,-111.2317,-56.30258,0.001067912,-0.1257102,0.09433498,0,0.3,0,0,0,0,
6.38224E+17,53.62247,76.39997,79.8243,85.19034,-9.326735,-9.515661,-0.612559,-1.262423,-9.175476,13.70306,-0.9767859,39.19238,0,0,0,130.9206,129.4024,-71.90623,-1.197964,-111.2317,-56.30258,0.001067912,-0.1257102,0.09433498,0,0.3,0,0,0,0,
6.38224E+17,54.51775,78.31698,75.85527,83.35921,-9.985942,-6.878834,-0.612559,-1.262423,-9.175476,13.70306,-0.9767859,39.19238,0,0,0,127.2825,121.3503,-77.61974,-1.197964,-111.2317,-56.30258,0.001067912,-0.1257102,0.09433498,0,0.3,0,0,0,0,
6.38224E+17,55.24811,80.07035,70.62548,80.06318,-10.49866,-2.484124,-0.612559,-1.262423,-9.175476,13.70306,-0.9767859,39.19238,0,0,0,122.2526,110.4647,-83.53435,-1.197964,-111.2317,-56.30258,0.001067912,-0.1257102,0.09433498,0,0.3,0,0,0,0,
6.38224E+17,55.24811,81.63669,65.44238,75.96145,-11.23111,3.082508,-0.612559,-1.262423,-9.175476,13.62981,-0.9767859,39.19238,0,0,0,115.5894,99.86058,-88.15712,-1.197964,-111.2317,-56.30258,0.001067912,-0.1257102,0.09433498,0,0.3,0,0,0,0,
6.38224E+17,55.22455,82.50168,62.66406,73.61761,-11.74383,6.232051,-0.612559,-1.262423,-9.175476,13.70306,-0.9035407,39.19238,0,0,0,111.595,94.32445,-90.86037,-1.197964,-111.2317,-56.30258,0.001067912,-0.1257102,0.09433498,0,0.3,0,0,0,0,
6.38224E+17,55.20099,83.57708,56.38364,68.63693,-12.54952,12.60438,-0.612559,-1.262423,-9.175476,13.62981,-0.9767859,39.26562,0,0,0,103.4384,82.03653,-96.46106,-1.197964,-111.2317,-56.30258,0.001067912,-0.1257102,0.09433498,0,0.3,0,0,0,0,
6.38224E+17,54.96539,83.36668,48.93587,63.14355,-12.47628,19.78241,-0.612559,-1.262423,-9.175476,13.70306,-0.9767859,39.19238,0,0,0,94.93758,68.20926,-101.7885,-1.197964,-111.2317,-56.30258,0.001067912,-0.1257102,0.09433498,0,0.3,0,0,0,0,
6.38224E+17,54.32927,82.38479,40.46081,57.35718,-11.45084,27.10692,-0.612559,-1.262423,-9.175476,13.70306,-0.9767859,39.19238,0,0,0,84.65504,54.06456,-107.5847,-1.197964,-111.2317,-56.30258,0.001067912,-0.1257102,0.09433498,0,0.3,0,0,0,0,
6.38224E+17,53.08059,80.91196,31.98576,51.20458,-9.619716,31.86786,-0.612559,-1.262423,-9.175476,13.70306,-0.9767859,39.19238,0,0,0,73.31203,41.92125,-113.2669,-1.197964,-111.2317,-56.30258,0.001067912,-0.1257102,0.09433498,0,0.3,0,0,0,0,
6.38224E+17,52.91567,79.53265,31.1686,48.20153,-8.447793,33.25952,-0.612559,-1.262423,-9.175476,13.70306,-0.9767859,39.19238,0,0,0,74.38432,40.3802,-112.1256,-1.197964,-111.2317,-56.30258,0.001067912,-0.1257102,0.09433498,0,0.3,0,0,0,0,
6.38224E+17,53.12771,76.77402,28.22684,44.46603,-6.323683,35.53012,-0.612559,-1.262423,-9.175476,13.70306,-0.9767859,39.19238,0,0,0,74.86098,35.67065,-112.1994,-1.197964,-111.2317,-56.30258,0.001067912,-0.1257102,0.09433498,0,0.3,0,0,0,0,
6.38224E+17,53.05703,73.59459,25.09831,42.48841,-3.613612,37.43449,-0.612559,-1.262423,-9.175476,13.70306,-0.9767859,39.19238,0,0,0,75.30845,30.51169,-111.7185,-1.197964,-111.2317,-56.30258,0.001067912,-0.1257102,0.09433498,0,0.3,0,0,0,0,
6.38224E+17,52.86855,72.42567,23.88425,41.90245,-2.148709,38.53317,-0.612559,-1.262423,-9.175476,13.62981,-0.9767859,39.19238,0,0,0,75.146,28.54542,-111.4527,-1.197964,-111.2317,-56.30258,0.001067912,-0.1257102,0.09433498,0,0.3,0,0,0,0,
6.38224E+17,52.84499,70.2515,21.7363,41.09675,0.5613627,41.17,-0.612559,-1.262423,-9.175476,13.70306,-0.9767859,39.19238,0,0,0,75.2708,24.98844,-111.3095,-1.197964,-111.2317,-56.30258,0.001067912,-0.1257102,0.09433498,0,0.3,0,0,0,0,
6.38224E+17,52.84499,68.54489,20.00861,40.73053,3.124943,43.73357,-0.612559,-1.262423,-9.175476,13.62981,-0.9767859,39.19238,0,0,0,75.23955,22.15828,-111.3331,-1.197964,-111.2317,-56.30258,0.001067912,-0.1257102,0.09433498,0,0.3,0,0,0,0,
6.38224E+17,52.84499,67.84354,19.40158,40.73053,4.223621,44.75901,-0.612559,-1.262423,-9.175476,13.70306,-0.9035407,39.19238,0,0,0,75.38735,21.07558,-111.2211,-1.197964,-111.2317,-56.30258,0.001067912,-0.1257102,0.09433498,0,0.3,0,0,0,0,
6.38224E+17,52.63295,66.69801,18.58442,40.87702,5.90826,46.44365,-0.612559,-1.262423,-9.175476,13.70306,-0.9035407,39.19238,0,0,0,75.70054,19.42652,-110.5415,-1.197964,-111.2317,-56.30258,0.001067912,-0.1257102,0.09433498,0,0.3,0,0,0,0,
6.38224E+17,52.32668,65.78626,18.3743,41.09675,7.153428,47.8353,-0.612559,-1.262423,-9.175476,13.70306,-0.9035407,39.19238,0,0,0,76.56055,18.41662,-109.2342,-1.197964,-111.2317,-56.30258,0.001067912,-0.1257102,0.09433498,0,0.3,0,0,0,0,
6.38224E+17,51.78479,64.5706,18.44434,41.8292,7.959125,49.88617,-0.612559,-1.262423,-9.175476,13.70306,-0.9767859,39.19238,0,0,0,78.13715,17.28039,-106.8285,-1.197964,-111.2317,-56.30258,0.001067912,-0.1257102,0.09433498,0,0.3,0,0,0,0,
6.38224E+17,50.27696,63.63547,19.26149,42.19543,9.057802,53.40194,-0.612559,-1.262423,-9.175476,13.70306,-0.9767859,39.19238,0,0,0,79.3814,16.9444,-102.3923,-1.197964,-111.2317,-56.30258,0.001067912,-0.1257102,0.09433498,0,0.3,0,0,0,0,
6.38224E+17,49.5466,63.4952,19.82183,42.19543,9.424027,55.08658,-0.612559,-1.262423,-9.175476,13.70306,-0.9767859,39.19238,0,0,0,79.69183,17.23528,-100.3988,-1.197964,-111.2317,-56.30258,0.001067912,-0.1257102,0.09433498,0,0.3,0,0,0,0,
