zeyangz2/DNN_classification_different_people_hand/data/srikar_right_1.csv
Timestamp,Therapist joint angle 0,Therapist joint angle 1,Therapist joint angle 2,Therapist joint angle 3,Therapist joint angle 4,Therapist joint angle 5,Patient joint angle 0,Patient joint angle 1,Patient joint angle 2,Patient joint angle 3,Patient joint angle 4,Patient joint angle 5,Virtual joint angle 0,Virtual joint angle 1,Virtual joint angle 2,Therapist position x,Therapist position y,Therapist position z,Patient position x,Patient position y,Patient position z,Virtual position x,Virtual position y,Virtual position z,Assistive Force, Obstacle Force Magnitude, Therapist Constant Force, Patient Constant Force, Recovery Factor, Assistance Level,label
6.38224E+17,0,0,0,0,0,0,0,0,0,0,0,0,0,0,0,0,0,0,0,0,0,0,0,0,0,0.3,0,0,0,0,2
6.38224E+17,37.03626,-1.052019,-12.58418,27.91262,10.37621,-132.3478,-56.82663,-0.4675641,5.673386,-70.30915,-8.447793,-36.90935,0,0,0,62.80639,-109.2449,-85.11276,-122.6469,-110.435,-88.17352,0.001067912,-0.1257102,0.09433498,0,0.3,0,0,0.01474986,0,
6.38224E+17,37.03626,-1.028641,-12.53748,27.91262,10.37621,-132.714,-56.82663,-0.4675641,5.673386,-70.30915,-8.447793,-36.90935,0,0,0,62.87087,-109.2141,-85.0273,-122.6469,-110.435,-88.17352,0.001067912,-0.1257102,0.09433498,0,0.3,0,0,0.01464497,0,
6.38224E+17,37.03626,-1.005263,-12.53748,27.91262,10.44946,-132.8605,-56.82663,-0.4675641,5.673386,-70.23591,-8.447793,-36.90935,0,0,0,62.87145,-109.1597,-85.02653,-122.6469,-110.435,-88.17352,0.001067912,-0.1257102,0.09433498,0,0.3,0,0,0.01460307,0,
6.38224E+17,37.03626,-1.005263,-12.53748,27.91262,10.52271,-133.007,-56.82663,-0.4675641,5.673386,-70.30915,-8.447793,-36.90935,0,0,0,62.87145,-109.1597,-85.02653,-122.6469,-110.435,-88.17352,0.001067912,-0.1257102,0.09433498,0,0.3,0,0,0.01455079,0,
6.38224E+17,37.03626,-1.005263,-12.53748,27.91262,10.59595,-133.0803,-56.82663,-0.4675641,5.673386,-70.30915,-8.447793,-36.90935,0,0,0,62.87145,-109.1597,-85.02653,-122.6469,-110.435,-88.17352,0.001067912,-0.1257102,0.09433498,0,0.3,0,0,0.01451942,0,
6.38224E+17,37.03626,-1.005263,-12.56083,27.83937,10.6692,-133.0803,-56.82663,-0.4675641,5.673386,-70.30915,-8.447793,-36.83611,0,0,0,62.83951,-109.1479,-85.06886,-122.6469,-110.435,-88.17352,0.001067912,-0.1257102,0.09433498,0,0.3,0,0,0.01451286,0,
6.38224E+17,37.03626,-1.005263,-12.56083,27.91262,10.6692,-133.007,-56.82663,-0.4675641,5.673386,-70.30915,-8.447793,-36.83611,0,0,0,62.83951,-109.1479,-85.06886,-122.6469,-110.435,-88.17352,0.001067912,-0.1257102,0.09433498,0,0.3,0,0,0.01451699,0,
6.38224E+17,37.03626,-1.005263,-12.58418,27.91262,10.6692,-133.007,-56.82663,-0.4675641,5.673386,-70.30915,-8.447793,-36.83611,0,0,0,62.80756,-109.1361,-85.1112,-122.6469,-110.435,-88.17352,0.001067912,-0.1257102,0.09433498,0,0.3,0,0,0.01453515,0,
6.38224E+17,37.03626,-1.005263,-12.60752,27.91262,10.74244,-132.9338,-56.82663,-0.4675641,5.673386,-70.30915,-8.447793,-36.83611,0,0,0,62.77562,-109.1242,-85.15353,-122.6469,-110.435,-88.17352,0.001067912,-0.1257102,0.09433498,0,0.3,0,0,0.01456943,0,
6.38224E+17,37.03626,-1.005263,-12.60752,27.91262,10.6692,-133.007,-56.82663,-0.4675641,5.673386,-70.30915,-8.447793,-36.83611,0,0,0,62.77562,-109.1242,-85.15353,-122.6469,-110.435,-88.17352,0.001067912,-0.1257102,0.09433498,0,0.3,0,0,0.01458848,0,
6.38224E+17,37.0127,-1.005263,-12.60752,27.91262,10.6692,-129.9307,-56.82663,-0.4675641,5.673386,-70.30915,-8.447793,-36.90935,0,0,0,62.74141,-109.1242,-85.12772,-122.6469,-110.435,-88.17352,0.001067912,-0.1257102,0.09433498,0,0.3,0,0,0.01462982,0,
6.38224E+17,36.98914,-1.005263,-12.70091,27.76613,10.96218,-127.0742,-56.82663,-0.4675641,5.673386,-70.30915,-8.447793,-36.83611,0,0,0,62.57958,-109.0766,-85.27132,-122.6469,-110.435,-88.17352,0.001067912,-0.1257102,0.09433498,0,0.3,0,0,0.01473527,0,
6.38224E+17,36.98914,-1.075397,-12.7943,27.39991,11.62138,-122.9724,-56.82663,-0.4675641,5.673386,-70.30915,-8.447793,-36.90935,0,0,0,62.45025,-109.1918,-85.44302,-122.6469,-110.435,-88.17352,0.001067912,-0.1257102,0.09433498,0,0.3,0,0,0.0148814,0,
6.38224E+17,37.1305,-1.075397,-12.7943,26.7407,12.42708,-120.0426,-56.82663,-0.4675641,5.673386,-70.30915,-8.447793,-36.83611,0,0,0,62.65461,-109.1918,-85.59736,-122.6469,-110.435,-88.17352,0.001067912,-0.1257102,0.09433498,0,0.3,0,0,0.01490977,0,
6.38224E+17,37.64882,-1.075397,-12.60752,26.00825,13.37927,-119.2369,-56.82663,-0.4675641,5.673386,-70.23591,-8.447793,-36.83611,0,0,0,63.65968,-109.2874,-85.83176,-122.6469,-110.435,-88.17352,0.001067912,-0.1257102,0.09433498,0,0.3,0,0,0.01472376,0,
6.38224E+17,39.06242,-1.075397,-11.67363,25.34904,14.84417,-119.1637,-56.82663,-0.4675641,5.673386,-70.30915,-8.447793,-36.83611,0,0,0,67.01501,-109.7445,-85.77743,-122.6469,-110.435,-88.17352,0.001067912,-0.1257102,0.09433498,0,0.3,0,0,0.01354575,0,
6.38224E+17,39.93414,-1.075397,-10.92652,25.42229,15.43013,-119.1637,-56.82663,-0.4675641,5.673386,-70.30915,-8.447793,-36.90935,0,0,0,69.35802,-110.0852,-85.49909,-122.6469,-110.435,-88.17352,0.001067912,-0.1257102,0.09433498,0,0.3,0,0,0.01242763,0,
6.38224E+17,42.99693,-1.028641,-7.984766,27.54639,16.82179,-121.8737,-56.82663,-0.4675641,5.673386,-70.23591,-8.447793,-36.83611,0,0,0,78.29224,-111.1011,-84.38282,-122.6469,-110.435,-88.17352,0.001067912,-0.1257102,0.09433498,0,0.3,0,0,0.006658589,0,
6.38224E+17,43.63305,-1.005263,-7.144264,28.35209,17.04152,-122.8992,-56.82663,-0.4675641,5.673386,-70.30915,-8.447793,-36.83611,0,0,0,80.55838,-111.3042,-83.85301,-122.6469,-110.435,-88.17352,0.001067912,-0.1257102,0.09433498,0,0.3,0,0,0.004120282,0,
6.38224E+17,44.78749,-0.8416153,-5.229787,30.25646,17.481,-124.9501,-56.82663,-0.4675641,5.673386,-70.23591,-8.447793,-36.83611,0,0,0,85.3693,-111.4036,-82.34506,-122.6469,-110.435,-88.17352,0.001067912,-0.1257102,0.09433498,0,0.3,0,0,0,0,
6.38224E+17,45.777,-0.6078333,-3.105186,31.9411,17.92047,-127.9531,-56.82663,-0.4675641,5.673386,-70.23591,-8.447793,-36.83611,0,0,0,90.38078,-111.2189,-80.38793,-122.6469,-110.435,-88.17352,0.001067912,-0.1257102,0.09433498,0,0.3,0,0,0,0,
6.38224E+17,46.6016,-0.3272949,-0.7471125,33.25952,18.35994,-130.8096,-56.82663,-0.4675641,5.673386,-70.30915,-8.447793,-36.90935,0,0,0,95.62633,-110.7504,-77.92574,-122.6469,-110.435,-88.17352,0.001067912,-0.1257102,0.09433498,0,0.3,0,0,0,0,
6.38224E+17,46.97857,-0.1870256,0.5836816,33.84548,18.65292,-132.8605,-56.82663,-0.4675641,5.673386,-70.30915,-8.447793,-36.90935,0,0,0,98.48461,-110.4284,-76.4427,-122.6469,-110.435,-88.17352,0.001067912,-0.1257102,0.09433498,0,0.3,0,0,0,0,
6.38224E+17,47.85028,0.1636474,3.50209,35.0174,19.45862,-137.7679,-56.82663,-0.4675641,5.673386,-70.30915,-8.447793,-36.90935,0,0,0,104.9036,-109.3701,-73.39683,-122.6469,-110.435,-88.17352,0.001067912,-0.1257102,0.09433498,0,0.3,0,0,0,0,
6.38224E+17,48.8398,0.4441859,6.560582,36.18932,20.33756,-141.2837,-56.82663,-0.4675641,5.673386,-70.30915,-8.447793,-36.83611,0,0,0,111.8631,-108.093,-70.55846,-122.6469,-110.435,-88.17352,0.001067912,-0.1257102,0.09433498,0,0.3,0,0,0,0,
6.38224E+17,49.40524,0.6312115,8.008113,36.70204,20.70378,-141.6499,-56.82663,-0.4675641,5.673386,-70.30915,-8.447793,-36.83611,0,0,0,115.357,-107.2306,-69.49536,-122.6469,-110.435,-88.17352,0.001067912,-0.1257102,0.09433498,0,0.3,0,0,0,0,
6.38224E+17,51.03088,2.010525,11.25338,37.80072,21.58273,-141.7232,-56.82663,-0.4675641,5.673386,-70.30915,-8.447793,-36.83611,0,0,0,123.8463,-102.7579,-68.1717,-122.6469,-110.435,-88.17352,0.001067912,-0.1257102,0.09433498,0,0.3,0,0,0,0,
6.38224E+17,52.77431,3.997673,13.82158,38.89939,21.80246,-141.8697,-56.82663,-0.4675641,5.673386,-70.23591,-8.447793,-36.83611,0,0,0,131.2893,-96.84214,-68.60316,-122.6469,-110.435,-88.17352,0.001067912,-0.1257102,0.09433498,0,0.3,0,0,0,0,
6.38224E+17,53.90519,5.517256,15.52593,39.70509,21.58273,-141.7964,-56.82663,-0.4675641,5.673386,-70.23591,-8.447793,-36.90935,0,0,0,136.096,-92.31297,-69.12598,-122.6469,-110.435,-88.17352,0.001067912,-0.1257102,0.09433498,0,0.3,0,0,0,0,
6.38224E+17,56.16695,8.813582,18.72451,41.68271,20.70378,-141.8697,-56.82663,-0.4675641,5.673386,-70.23591,-8.447793,-36.90935,0,0,0,145.0199,-82.51029,-71.14647,-122.6469,-110.435,-88.17352,0.001067912,-0.1257102,0.09433498,0,0.3,0,0,0,0,
6.38224E+17,56.35543,11.99302,20.87246,43.95331,19.67835,-141.7964,-56.82663,-0.4675641,5.673386,-70.30915,-8.447793,-36.90935,0,0,0,148.1421,-73.53989,-69.75843,-122.6469,-110.435,-88.17352,0.001067912,-0.1257102,0.09433498,0,0.3,0,0,0,0,
6.38224E+17,56.21407,14.51786,20.82576,44.83226,19.09239,-141.8697,-56.82663,-0.4675641,5.673386,-70.30915,-8.447793,-36.83611,0,0,0,146.6942,-67.85928,-70.19893,-122.6469,-110.435,-88.17352,0.001067912,-0.1257102,0.09433498,0,0.3,0,0,0,0,
6.38224E+17,56.21407,17.86095,21.71296,44.97874,18.43318,-141.9429,-56.82663,-0.4675641,5.673386,-70.23591,-8.521038,-36.83611,0,0,0,146.4907,-59.63917,-70.3351,-122.6469,-110.435,-88.17352,0.001067912,-0.1257102,0.09433498,0,0.3,0,0,0,0,
6.38224E+17,56.21407,19.63769,22.69354,45.05199,17.92047,-141.9429,-56.82663,-0.4675641,5.673386,-70.30915,-8.447793,-36.83611,0,0,0,147.1422,-54.86116,-69.89921,-122.6469,-110.435,-88.17352,0.001067912,-0.1257102,0.09433498,0,0.3,0,0,0,0,
6.38224E+17,56.21407,23.61198,24.32785,45.78444,16.52881,-142.0162,-56.82663,-0.4675641,5.673386,-70.30915,-8.447793,-36.83611,0,0,0,147.2084,-44.74683,-69.85489,-122.6469,-110.435,-88.17352,0.001067912,-0.1257102,0.09433498,0,0.3,0,0,0,0,
6.38224E+17,56.19051,28.19411,25.16835,46.44365,14.77092,-142.0162,-56.82663,-0.4675641,5.673386,-70.30915,-8.447793,-36.83611,0,0,0,144.7741,-34.33746,-71.39745,-122.6469,-110.435,-88.17352,0.001067912,-0.1257102,0.09433498,0,0.3,0,0,0,0,
6.38224E+17,56.14339,33.22043,25.84542,46.95637,12.57357,-142.0162,-56.82663,-0.4675641,5.673386,-70.30915,-8.447793,-36.83611,0,0,0,140.9162,-23.60413,-73.81307,-122.6469,-110.435,-88.17352,0.001067912,-0.1257102,0.09433498,0,0.3,0,0,0,0,
6.38224E+17,56.02559,35.605,26.14894,47.1761,11.40165,-142.0162,-56.82663,-0.4675641,5.673386,-70.30915,-8.447793,-36.83611,0,0,0,138.6472,-18.71626,-74.92136,-122.6469,-110.435,-88.17352,0.001067912,-0.1257102,0.09433498,0,0.3,0,0,0,0,
6.38224E+17,55.34235,40.16375,26.98944,47.39584,8.838067,-142.0162,-56.82663,-0.4675641,5.673386,-70.23591,-8.447793,-36.83611,0,0,0,133.6045,-9.469546,-75.98386,-122.6469,-110.435,-88.17352,0.001067912,-0.1257102,0.09433498,0,0.3,0,0,0,0,
6.38224E+17,54.30571,43.69386,27.47973,47.39584,6.201241,-142.0162,-56.82663,-0.4675641,5.673386,-70.30915,-8.447793,-36.90935,0,0,0,128.2777,-2.835829,-76.19253,-122.6469,-110.435,-88.17352,0.001067912,-0.1257102,0.09433498,0,0.3,0,0,0,0,
6.38224E+17,53.69315,45.07318,27.45638,47.32259,5.175808,-142.0894,-56.82663,-0.4675641,5.673386,-70.30915,-8.447793,-36.90935,0,0,0,125.4368,-0.5666941,-76.18442,-122.6469,-110.435,-88.17352,0.001067912,-0.1257102,0.09433498,0,0.3,0,0,0,0,
6.38224E+17,52.11464,47.36424,27.40969,47.02961,3.417924,-142.0894,-56.82663,-0.4675641,5.673386,-70.30915,-8.447793,-36.90935,0,0,0,119.736,3.072391,-75.18717,-122.6469,-110.435,-88.17352,0.001067912,-0.1257102,0.09433498,0,0.3,0,0,0,0,
6.38224E+17,49.75864,49.35139,27.38634,46.59014,1.953021,-142.0894,-56.82663,-0.4675641,5.673386,-70.30915,-8.447793,-36.83611,0,0,0,113.1301,6.120356,-72.60758,-122.6469,-110.435,-88.17352,0.001067912,-0.1257102,0.09433498,0,0.3,0,0,0,0,
6.38224E+17,46.17752,52.29704,27.363,45.34497,-0.09784385,-142.0894,-56.82663,-0.4675641,5.673386,-70.30915,-8.447793,-36.83611,0,0,0,103.0601,10.42565,-69.44124,-122.6469,-110.435,-88.17352,0.001067912,-0.1257102,0.09433498,0,0.3,0,0,0,0,
6.38224E+17,42.92625,54.40108,27.363,43.95331,-1.855728,-142.0162,-56.82663,-0.4675641,5.673386,-70.30915,-8.447793,-36.90935,0,0,0,94.6091,13.34866,-66.63197,-122.6469,-110.435,-88.17352,0.001067912,-0.1257102,0.09433498,0,0.3,0,0,0,0,
6.38224E+17,40.49957,55.59337,27.363,42.70815,-3.393876,-142.0162,-56.82663,-0.4675641,5.673386,-70.30915,-8.447793,-36.83611,0,0,0,88.74127,14.94037,-64.44576,-122.6469,-110.435,-88.17352,0.001067912,-0.1257102,0.09433498,0,0.3,0,0,0,0,
6.38224E+17,35.3635,57.44025,27.363,39.41211,-6.103948,-142.0894,-56.82663,-0.4675641,5.673386,-70.30915,-8.447793,-36.83611,0,0,0,77.0085,17.31167,-59.8422,-122.6469,-110.435,-88.17352,0.001067912,-0.1257102,0.09433498,0,0.3,0,0,0,0,
6.38224E+17,29.07299,58.93645,27.363,35.0174,-9.106999,-141.7964,-56.82663,-0.4675641,5.673386,-70.30915,-8.447793,-36.83611,0,0,0,63.21778,19.14722,-54.64397,-122.6469,-110.435,-88.17352,0.001067912,-0.1257102,0.09433498,0,0.3,0,0,0,0,
6.38224E+17,25.35052,59.47415,27.363,32.16084,-10.5719,-141.4302,-56.82663,-0.4675641,5.673386,-70.30915,-8.447793,-36.83611,0,0,0,55.24192,19.78791,-51.751,-122.6469,-110.435,-88.17352,0.001067912,-0.1257102,0.09433498,0,0.3,0,0,0,0,
6.38224E+17,17.36369,59.75469,27.363,25.1293,-13.94118,-135.0579,-56.82663,-0.4675641,5.673386,-70.23591,-8.447793,-36.83611,0,0,0,38.33709,20.11817,-45.74397,-122.6469,-110.435,-88.17352,0.001067912,-0.1257102,0.09433498,0,0.3,0,0,0,0,
6.38224E+17,9.188385,58.93645,27.64316,16.26664,-16.79774,-125.9022,-56.82663,-0.4675641,5.673386,-70.30915,-8.447793,-36.83611,0,0,0,20.86658,19.44834,-39.35016,-122.6469,-110.435,-88.17352,0.001067912,-0.1257102,0.09433498,0,0.3,0,0,0,0,
6.38224E+17,2.096837,56.94931,28.04007,6.08556,-18.77536,-118.2847,-56.82663,-0.4675641,5.673386,-70.30915,-8.447793,-36.83611,0,0,0,4.954559,17.42516,-33.02777,-122.6469,-110.435,-88.17352,0.001067912,-0.1257102,0.09433498,0,0.3,0,0,0,0,
6.38224E+17,-2.308876,54.72837,28.13346,-2.044653,-19.87404,-112.3519,-56.82663,-0.4675641,5.673386,-70.30915,-8.447793,-36.83611,0,0,0,-5.635349,14.62517,-28.58204,-122.6469,-110.435,-88.17352,0.001067912,-0.1257102,0.09433498,0,0.3,0,0,0,0,
6.38224E+17,-5.91355,52.25029,27.89998,-10.32136,-20.53325,-106.7852,-56.82663,-0.4675641,5.673386,-70.23591,-8.447793,-36.83611,0,0,0,-14.83982,10.93869,-25.07944,-122.6469,-110.435,-88.17352,0.001067912,-0.1257102,0.09433498,0,0.3,0,0,0,0,
6.38224E+17,-9.023465,49.42152,27.17622,-18.96429,-20.53325,-103.4892,-56.82663,-0.4675641,5.673386,-70.30915,-8.447793,-36.90935,0,0,0,-23.15688,6.002454,-22.52978,-122.6469,-110.435,-88.17352,0.001067912,-0.1257102,0.09433498,0,0.3,0,0,0,0,
6.38224E+17,-10.20146,48.11234,26.56919,-22.5533,-20.38675,-102.83,-56.82663,-0.4675641,5.673386,-70.30915,-8.447793,-36.90935,0,0,0,-26.33245,3.355566,-22.02181,-122.6469,-110.435,-88.17352,0.001067912,-0.1257102,0.09433498,0,0.3,0,0,0,0,
6.38224E+17,-11.73286,45.89141,25.02827,-28.04669,-19.80079,-102.537,-56.82663,-0.4675641,5.673386,-70.30915,-8.447793,-36.83611,0,0,0,-30.34577,-1.730091,-22.23787,-122.6469,-110.435,-88.17352,0.001067912,-0.1257102,0.09433498,0,0.3,0,0,0,0,
6.38224E+17,-12.48678,44.48872,23.67413,-31.6357,-18.70212,-102.9033,-56.82663,-0.4675641,5.673386,-70.30915,-8.447793,-36.83611,0,0,0,-32.14565,-5.330274,-23.19183,-122.6469,-110.435,-88.17352,0.001067912,-0.1257102,0.09433498,0,0.3,0,0,0,0,
6.38224E+17,-13.0051,43.46008,22.55346,-33.61332,-17.74993,-105.5401,-56.82663,-0.4675641,5.673386,-70.30915,-8.447793,-36.90935,0,0,0,-33.29172,-8.077003,-24.20625,-122.6469,-110.435,-88.17352,0.001067912,-0.1257102,0.09433498,0,0.3,0,0,0,0,
6.38224E+17,-13.61766,41.56644,21.05923,-34.712,-16.94423,-108.8361,-56.82663,-0.4675641,5.673386,-70.30915,-8.447793,-36.90935,0,0,0,-34.77185,-12.61733,-24.81397,-122.6469,-110.435,-88.17352,0.001067912,-0.1257102,0.09433498,0,0.3,0,0,0,0,
6.38224E+17,-14.20666,39.67281,19.89187,-35.07822,-16.21178,-109.6418,-56.82663,-0.4675641,5.673386,-70.30915,-8.447793,-36.83611,0,0,0,-36.32502,-16.91287,-24.865,-122.6469,-110.435,-88.17352,0.001067912,-0.1257102,0.09433498,0,0.3,0,0,0,0,
6.38224E+17,-15.33753,35.62838,17.55714,-35.59094,-14.67363,-109.9348,-56.82663,-0.4675641,5.673386,-70.30915,-8.447793,-36.83611,0,0,0,-39.30925,-26.1083,-25.02854,-122.6469,-110.435,-88.17352,0.001067912,-0.1257102,0.09433498,0,0.3,0,0,0,0,
6.38224E+17,-16.91605,29.47991,14.59204,-36.32339,-11.81707,-109.6418,-56.82663,-0.4675641,5.673386,-70.30915,-8.447793,-36.83611,0,0,0,-43.55256,-40.0747,-25.14589,-122.6469,-110.435,-88.17352,0.001067912,-0.1257102,0.09433498,0,0.3,0,0,0,0,
6.38224E+17,-17.71709,26.01994,13.40133,-36.83611,-9.839451,-109.5686,-56.82663,-0.4675641,5.673386,-70.30915,-8.447793,-36.90935,0,0,0,-45.87291,-47.87045,-24.75908,-122.6469,-110.435,-88.17352,0.001067912,-0.1257102,0.09433498,0,0.3,0,0,0,0,
6.38224E+17,-18.84797,18.95972,11.83706,-38.00803,-5.371496,-109.6418,-56.82663,-0.4675641,5.673386,-70.23591,-8.447793,-36.83611,0,0,0,-49.57953,-63.83843,-23.10979,-122.6469,-110.435,-88.17352,0.001067912,-0.1257102,0.09433498,0,0.3,0,0,0,0,
6.38224E+17,-18.89509,11.75924,10.94987,-39.2532,-0.02459868,-110.5207,-56.82663,-0.4675641,5.673386,-70.30915,-8.447793,-36.83611,0,0,0,-50.47998,-80.39552,-20.86878,-122.6469,-110.435,-88.17352,0.001067912,-0.1257102,0.09433498,0,0.3,0,0,0,0,
6.38224E+17,-18.70661,5.564013,11.44016,-39.61942,5.249053,-113.7435,-56.82663,-0.4675641,5.673386,-70.30915,-8.447793,-36.90935,0,0,0,-51.04966,-94.42133,-17.58753,-122.6469,-110.435,-88.17352,0.001067912,-0.1257102,0.09433498,0,0.3,0,0,0,0,
6.38224E+17,-18.70661,2.782006,12.28066,-39.54618,7.446409,-115.4282,-56.82663,-0.4675641,5.673386,-70.23591,-8.447793,-36.90935,0,0,0,-51.81475,-100.4763,-15.32803,-122.6469,-110.435,-88.17352,0.001067912,-0.1257102,0.09433498,0,0.3,0,0,0,0,
6.38224E+17,-19.15425,-1.239045,14.80217,-39.10671,11.25516,-116.8198,-56.82663,-0.4675641,5.673386,-70.30915,-8.447793,-36.83611,0,0,0,-54.92188,-108.4581,-10.2294,-122.6469,-110.435,-88.17352,0.001067912,-0.1257102,0.09433498,0,0.3,0,0,0,0,
6.38224E+17,-21.46313,-0.5376987,15.92284,-38.88697,12.64682,-115.6479,-56.82663,-0.4675641,5.673386,-70.30915,-8.447793,-36.90935,0,0,0,-62.17694,-106.1351,-10.20623,-122.6469,-110.435,-88.17352,0.001067912,-0.1257102,0.09433498,0,0.3,0,0,0,0,
6.38224E+17,-23.46572,-1.145532,17.79062,-39.69267,12.42708,-114.9887,-56.82663,-0.4675641,5.673386,-70.30915,-8.447793,-36.90935,0,0,0,-69.31355,-106.2891,-8.678585,-122.6469,-110.435,-88.17352,0.001067912,-0.1257102,0.09433498,0,0.3,0,0,0,0,
6.38224E+17,-24.7144,-1.145532,18.88794,-40.49837,12.1341,-114.9887,-56.82663,-0.4675641,5.673386,-70.30915,-8.447793,-36.83611,0,0,0,-73.79015,-105.4855,-8.024862,-122.6469,-110.435,-88.17352,0.001067912,-0.1257102,0.09433498,0,0.3,0,0,0,0,
6.38224E+17,-27.49447,-1.075397,21.43279,-43.13519,11.03542,-114.9887,-56.82663,-0.4675641,5.673386,-70.30915,-8.447793,-36.83611,0,0,0,-84.04755,-103.2812,-6.858133,-122.6469,-110.435,-88.17352,0.001067912,-0.1257102,0.09433498,0,0.3,0,0,0,0,
6.38224E+17,-30.32167,-1.075397,24.46794,-46.28474,9.643764,-114.2563,-56.82663,-0.4675641,5.673386,-70.23591,-8.447793,-36.90935,0,0,0,-95.19425,-100.527,-5.585907,-122.6469,-110.435,-88.17352,0.001067912,-0.1257102,0.09433498,0,0.3,0,0,0,0,
6.38224E+17,-32.96038,-1.005263,28.01672,-49.94699,8.325351,-112.2054,-56.82663,-0.4675641,5.673386,-70.30915,-8.447793,-36.83611,0,0,0,-106.6181,-96.71231,-3.923766,-122.6469,-110.435,-88.17352,0.001067912,-0.1257102,0.09433498,0,0.3,0,0,0,0,
6.38224E+17,-34.16194,-0.7948589,29.60433,-51.70488,7.88588,-111.3997,-56.82663,-0.4675641,5.673386,-70.30915,-8.447793,-36.83611,0,0,0,-111.8649,-94.44206,-3.51039,-122.6469,-110.435,-88.17352,0.001067912,-0.1257102,0.09433498,0,0.3,0,0,0,0,
6.38224E+17,-36.47082,0.1402692,32.21923,-54.85442,7.226673,-108.5431,-56.82663,-0.4675641,5.673386,-70.23591,-8.447793,-36.90935,0,0,0,-121.5257,-89.13955,-3.942354,-122.6469,-110.435,-88.17352,0.001067912,-0.1257102,0.09433498,0,0.3,0,0,0,0,
6.38224E+17,-38.73257,2.104038,34.01696,-57.71098,7.080183,-105.1006,-56.82663,-0.4675641,5.673386,-70.30915,-8.447793,-36.83611,0,0,0,-130.0559,-82.28424,-6.202714,-122.6469,-110.435,-88.17352,0.001067912,-0.1257102,0.09433498,0,0.3,0,0,0,0,
6.38224E+17,-39.69854,3.109301,34.78743,-58.8829,7.006938,-103.9287,-56.82663,-0.4675641,5.673386,-70.30915,-8.447793,-36.90935,0,0,0,-133.648,-78.93392,-7.361793,-122.6469,-110.435,-88.17352,0.001067912,-0.1257102,0.09433498,0,0.3,0,0,0,0,
6.38224E+17,-41.41841,5.493878,36.09487,-60.93377,7.519653,-101.0721,-56.82663,-0.4675641,5.673386,-70.30915,-8.447793,-36.90935,0,0,0,-139.7842,-71.63564,-9.898586,-122.6469,-110.435,-88.17352,0.001067912,-0.1257102,0.09433498,0,0.3,0,0,0,0,
6.38224E+17,-42.54929,8.673313,36.28165,-62.47192,8.398596,-98.50854,-56.82663,-0.4675641,5.673386,-70.30915,-8.447793,-36.83611,0,0,0,-142.5045,-64.03658,-13.10197,-122.6469,-110.435,-88.17352,0.001067912,-0.1257102,0.09433498,0,0.3,0,0,0.002951349,0,
6.38224E+17,-42.92625,10.4033,36.2583,-62.83814,8.838067,-97.40987,-56.82663,-0.4675641,5.673386,-70.30915,-8.447793,-36.90935,0,0,0,-143.0386,-60.09818,-14.56349,-122.6469,-110.435,-88.17352,0.001067912,-0.1257102,0.09433498,0,0.3,0,0,0.006525826,0,
6.38224E+17,-43.06761,17.04271,35.8147,-61.9592,10.44946,-95.50549,-56.82663,-0.4675641,5.673386,-70.30915,-8.447793,-36.83611,0,0,0,-140.3457,-45.70252,-18.2033,-122.6469,-110.435,-88.17352,0.001067912,-0.1257102,0.09433498,0,0.3,0,0,0.01658212,0,
6.38224E+17,-42.90269,18.86621,35.51119,-61.37324,10.81569,-95.43224,-56.82663,-0.4675641,5.673386,-70.30915,-8.447793,-36.90935,0,0,0,-138.6316,-42.0772,-19.17863,-122.6469,-110.435,-88.17352,0.001067912,-0.1257102,0.09433498,0,0.3,0,0,0.01971527,0,
6.38224E+17,-41.77181,22.67686,33.99362,-59.39562,11.54814,-95.87171,-56.82663,-0.4675641,5.673386,-70.30915,-8.447793,-36.83611,0,0,0,-131.6325,-35.79959,-20.98118,-122.6469,-110.435,-88.17352,0.001067912,-0.1257102,0.09433498,0,0.3,0,0,0.02571896,0,
6.38224E+17,-38.73257,26.09007,32.59278,-56.02634,12.86655,-99.24099,-56.82663,-0.4675641,5.673386,-70.23591,-8.447793,-36.90935,0,0,0,-119.8772,-30.35493,-18.89307,-122.6469,-110.435,-88.17352,0.001067912,-0.1257102,0.09433498,0,0.3,0,0,0.03128124,0,
6.38224E+17,-35.66978,31.02288,32.75621,-50.67944,14.4047,-100.6326,-56.82663,-0.4675641,5.673386,-70.30915,-8.447793,-36.83611,0,0,0,-108.7079,-20.06877,-16.8984,-122.6469,-110.435,-88.17352,0.001067912,-0.1257102,0.09433498,0,0.3,0,0,0.03607514,0,
6.38224E+17,-34.3033,33.87502,32.8963,-48.11587,14.47795,-101.2186,-56.82663,-0.4675641,5.673386,-70.23591,-8.447793,-36.90935,0,0,0,-103.2127,-14.29095,-17.06461,-122.6469,-110.435,-88.17352,0.001067912,-0.1257102,0.09433498,0,0.3,0,0,0.0381555,0,
6.38224E+17,-30.55727,39.5793,33.01303,-42.84221,13.89198,-105.3203,-56.82663,-0.4675641,5.673386,-70.30915,-8.447793,-36.83611,0,0,0,-89.18936,-3.506837,-17.282,-122.6469,-110.435,-88.17352,0.001067912,-0.1257102,0.09433498,0,0.3,0,0,0.04165614,0,
6.38224E+17,-25.49188,44.11467,33.17647,-37.05584,12.64682,-112.3519,-56.82663,-0.4675641,5.673386,-70.30915,-8.447793,-36.83611,0,0,0,-72.60998,4.561981,-16.06446,-122.6469,-110.435,-88.17352,0.001067912,-0.1257102,0.09433498,0,0.3,0,0,0.04426821,0,
6.38224E+17,-22.64112,45.77452,33.19981,-33.97955,12.1341,-116.6733,-56.82663,-0.4675641,5.673386,-70.30915,-8.447793,-36.83611,0,0,0,-63.91326,7.325918,-15.11833,-122.6469,-110.435,-88.17352,0.001067912,-0.1257102,0.09433498,0,0.3,0,0,0.0452508,0,
6.38224E+17,-15.83229,48.11234,33.24651,-26.50854,11.62138,-127.6601,-56.82663,-0.4675641,5.673386,-70.30915,-8.447793,-36.83611,0,0,0,-44.23605,11.09991,-12.35877,-122.6469,-110.435,-88.17352,0.001067912,-0.1257102,0.09433498,0,0.3,0,0,0.04657325,0,
6.38224E+17,-10.4135,49.18774,33.24651,-20.20946,11.76787,-135.9368,-56.82663,-0.4675641,5.673386,-70.30915,-8.447793,-36.90935,0,0,0,-28.96775,12.75343,-10.72637,-122.6469,-110.435,-88.17352,0.001067912,-0.1257102,0.09433498,0,0.3,0,0,0.04715293,0,
6.38224E+17,-7.303588,49.72544,33.10642,-16.40071,12.1341,-140.3315,-56.82663,-0.4675641,5.673386,-70.30915,-8.447793,-36.83611,0,0,0,-20.21817,13.38848,-10.6009,-122.6469,-110.435,-88.17352,0.001067912,-0.1257102,0.09433498,0,0.3,0,0,0.04718341,0,
6.38224E+17,-1.295798,50.5203,32.4527,-9.442415,13.23278,-141.4302,-56.82663,-0.4675641,5.673386,-70.30915,-8.447793,-36.90935,0,0,0,-3.535488,13.75082,-12.04937,-122.6469,-110.435,-88.17352,0.001067912,-0.1257102,0.09433498,0,0.3,0,0,0.04678131,0,
6.38224E+17,5.088952,50.66056,32.21923,-2.410879,14.55119,-141.5767,-56.82663,-0.4675641,5.673386,-70.30915,-8.447793,-36.90935,0,0,0,13.80466,13.66743,-13.33421,-122.6469,-110.435,-88.17352,0.001067912,-0.1257102,0.09433498,0,0.3,0,0,0.04571766,0,
6.38224E+17,11.16742,50.23976,32.61613,4.620657,15.8696,-141.6499,-56.82663,-0.4675641,5.673386,-70.30915,-8.447793,-36.83611,0,0,0,30.43902,13.53902,-14.16161,-122.6469,-110.435,-88.17352,0.001067912,-0.1257102,0.09433498,0,0.3,0,0,0.04396645,0,
6.38224E+17,16.37417,49.21112,32.56944,10.8465,17.11477,-141.6499,-56.82663,-0.4675641,5.673386,-70.30915,-8.447793,-36.83611,0,0,0,44.79511,11.93286,-15.89557,-122.6469,-110.435,-88.17352,0.001067912,-0.1257102,0.09433498,0,0.3,0,0,0.04165347,0,
6.38224E+17,18.16473,48.48639,32.38266,12.75087,17.70073,-141.6499,-56.82663,-0.4675641,5.673386,-70.23591,-8.447793,-36.83611,0,0,0,49.81845,10.58951,-16.51138,-122.6469,-110.435,-88.17352,0.001067912,-0.1257102,0.09433498,0,0.3,0,0,0.04035996,0,
6.38224E+17,21.55737,46.52262,31.98576,15.02147,19.53186,-141.7232,-56.82663,-0.4675641,5.673386,-70.30915,-8.521038,-36.90935,0,0,0,59.66756,7.01013,-17.3187,-122.6469,-110.435,-88.17352,0.001067912,-0.1257102,0.09433498,0,0.3,0,0,0.03754056,0,
6.38224E+17,24.17252,44.46534,32.0091,14.72849,21.43624,-141.7964,-56.82663,-0.4675641,5.673386,-70.30915,-8.447793,-36.83611,0,0,0,67.91365,3.682714,-17.04123,-122.6469,-110.435,-88.17352,0.001067912,-0.1257102,0.09433498,0,0.3,0,0,0.03446674,0,
6.38224E+17,25.35052,43.55359,32.03245,14.21577,22.24193,-141.7232,-56.82663,-0.4675641,5.673386,-70.30915,-8.447793,-36.83611,0,0,0,71.66093,2.185343,-17.09544,-122.6469,-110.435,-88.17352,0.001067912,-0.1257102,0.09433498,0,0.3,0,0,0.03286143,0,
6.38224E+17,27.82431,42.29117,32.19588,13.1171,24.07306,-141.7964,-56.82663,-0.4675641,5.673386,-70.30915,-8.447793,-36.90935,0,0,0,79.20698,0.2360476,-18.27501,-122.6469,-110.435,-88.17352,0.001067912,-0.1257102,0.09433498,0,0.3,0,0,0.02948018,0,
6.38224E+17,30.34523,42.24441,32.61613,12.53114,25.7577,-141.7964,-56.82663,-0.4675641,5.673386,-70.30915,-8.447793,-36.90935,0,0,0,86.18539,0.6796916,-21.12829,-122.6469,-110.435,-88.17352,0.001067912,-0.1257102,0.09433498,0,0.3,0,0,0.02587425,0,
6.38224E+17,33.19599,42.31455,33.78349,13.19034,26.78313,-141.7964,-56.82663,-0.4675641,5.673386,-70.30915,-8.447793,-36.83611,0,0,0,94.58531,2.288112,-23.78639,-122.6469,-110.435,-88.17352,0.001067912,-0.1257102,0.09433498,0,0.3,0,0,0.02196211,0,
6.38224E+17,34.63314,42.36131,34.78743,13.99604,26.92962,-141.8697,-56.82663,-0.4675641,5.673386,-70.30915,-8.447793,-36.90935,0,0,0,99.23679,3.684751,-24.67596,-122.6469,-110.435,-88.17352,0.001067912,-0.1257102,0.09433498,0,0.3,0,0,0.0198563,0,
6.38224E+17,36.7771,42.4782,37.51905,16.12015,26.34366,-141.8697,-56.82663,-0.4675641,5.673386,-70.23591,-8.447793,-36.90935,0,0,0,107.5054,7.635869,-24.52471,-122.6469,-110.435,-88.17352,0.001067912,-0.1257102,0.09433498,0,0.3,0,0,0.01532938,0,
6.38224E+17,38.02578,42.45482,39.22341,18.09777,25.39147,-141.7964,-56.82663,-0.4675641,5.673386,-70.30915,-8.447793,-36.83611,0,0,0,112.5524,10.05799,-24.42297,-122.6469,-110.435,-88.17352,0.001067912,-0.1257102,0.09433498,0,0.3,0,0,0.01053037,0,
6.38224E+17,39.46294,42.92238,39.2701,19.56267,23.92657,-141.7964,-56.82663,-0.4675641,5.673386,-70.30915,-8.447793,-36.83611,0,0,0,115.7113,10.92663,-27.79576,-122.6469,-110.435,-88.17352,0.001067912,-0.1257102,0.09433498,0,0.3,0,0,0.005668296,0,
6.38224E+17,40.42889,43.38995,38.9199,20.07539,22.90114,-141.7964,-56.82663,-0.4675641,5.673386,-70.30915,-8.447793,-36.83611,0,0,0,117.1715,11.20647,-30.81455,-122.6469,-110.435,-88.17352,0.001067912,-0.1257102,0.09433498,0,0.3,0,0,0.000852182,0,
6.38224E+17,40.94721,43.764,38.9199,20.36837,22.46167,-141.7964,-56.82663,-0.4675641,5.673386,-70.30915,-8.447793,-36.83611,0,0,0,118.0176,11.83715,-32.33341,-122.6469,-110.435,-88.17352,0.001067912,-0.1257102,0.09433498,0,0.3,0,0,0,0,
6.38224E+17,41.58333,45.0498,39.59696,21.32055,21.58273,-141.7964,-56.82663,-0.4675641,5.673386,-70.30915,-8.447793,-36.83611,0,0,0,118.9404,14.97216,-34.30568,-122.6469,-110.435,-88.17352,0.001067912,-0.1257102,0.09433498,0,0.3,0,0,0,0,
6.38224E+17,41.25349,47.17721,40.71763,22.56572,20.99677,-141.8697,-56.82663,-0.4675641,5.673386,-70.30915,-8.447793,-36.83611,0,0,0,117.1283,20.08639,-34.80721,-122.6469,-110.435,-88.17352,0.001067912,-0.1257102,0.09433498,0,0.3,0,0,0,0,
6.38224E+17,40.68805,48.76693,41.02114,23.51791,20.77703,-141.7964,-56.82663,-0.4675641,5.673386,-70.30915,-8.447793,-36.90935,0,0,0,114.3612,23.02559,-35.3367,-122.6469,-110.435,-88.17352,0.001067912,-0.1257102,0.09433498,0,0.3,0,0,0,0,
6.38224E+17,37.86086,53.04515,40.9511,25.20255,20.19107,-141.7232,-56.82663,-0.4675641,5.673386,-70.30915,-8.447793,-36.83611,0,0,0,102.844,29.1961,-36.05474,-122.6469,-110.435,-88.17352,0.001067912,-0.1257102,0.09433498,0,0.3,0,0,0,0,
6.38224E+17,33.92635,56.57525,40.9511,25.78851,19.45862,-139.4526,-56.82663,-0.4675641,5.673386,-70.30915,-8.521038,-36.90935,0,0,0,89.77705,33.9301,-34.88027,-122.6469,-110.435,-88.17352,0.001067912,-0.1257102,0.09433498,0,0.3,0,0,0,0,
6.38224E+17,27.98923,61.08725,41.13788,24.90957,18.1402,-129.1983,-56.82663,-0.4675641,5.673386,-70.23591,-8.447793,-36.83611,0,0,0,71.42789,39.64915,-33.95274,-122.6469,-110.435,-88.17352,0.001067912,-0.1257102,0.09433498,0,0.3,0,0,0,0,
6.38224E+17,23.46572,64.45371,41.18458,23.15168,16.60205,-122.4597,-56.82663,-0.4675641,5.673386,-70.30915,-8.447793,-36.90935,0,0,0,57.86453,43.30515,-35.05267,-122.6469,-110.435,-88.17352,0.001067912,-0.1257102,0.09433498,0,0.3,0,0,0,0,
6.38224E+17,19.22493,67.11882,40.85772,20.80784,14.55119,-116.8931,-56.82663,-0.4675641,5.673386,-70.30915,-8.447793,-36.83611,0,0,0,45.79743,45.34964,-37.0217,-122.6469,-110.435,-88.17352,0.001067912,-0.1257102,0.09433498,0,0.3,0,0,0,0,
6.38224E+17,13.26426,68.17085,39.52692,17.29207,11.91436,-109.8615,-56.82663,-0.4675641,5.673386,-70.30915,-8.447793,-36.90935,0,0,0,30.84954,44.28209,-37.48267,-122.6469,-110.435,-88.17352,0.001067912,-0.1257102,0.09433498,0,0.3,0,0,0,0,
6.38224E+17,10.20146,67.58639,38.59303,15.24121,11.18191,-106.6388,-56.82663,-0.4675641,5.673386,-70.30915,-8.447793,-36.83611,0,0,0,23.73745,42.40026,-36.44212,-122.6469,-110.435,-88.17352,0.001067912,-0.1257102,0.09433498,0,0.3,0,0,0,0,
6.38224E+17,0.1413598,63.44844,35.51119,7.91669,11.84112,-97.19013,-56.82663,-0.4675641,5.673386,-70.30915,-8.447793,-36.83611,0,0,0,0.3381674,34.08873,-31.28464,-122.6469,-110.435,-88.17352,0.001067912,-0.1257102,0.09433498,0,0.3,0,0,0,0,
6.38224E+17,-3.463314,62.06913,35.16098,5.206618,12.79331,-93.96734,-56.82663,-0.4675641,5.673386,-70.30915,-8.447793,-36.83611,0,0,0,-8.412313,32.14791,-29.34937,-122.6469,-110.435,-88.17352,0.001067912,-0.1257102,0.09433498,0,0.3,0,0,0,0,
6.38224E+17,-10.74334,60.29239,35.44115,-0.8727306,14.69768,-87.37527,-56.82663,-0.4675641,5.673386,-70.30915,-8.447793,-36.83611,0,0,0,-26.73304,30.53145,-27.45369,-122.6469,-110.435,-88.17352,0.001067912,-0.1257102,0.09433498,0,0.3,0,0,0,0,
6.38224E+17,-18.09405,59.47415,36.53847,-7.611286,15.57662,-81.95513,-56.82663,-0.4675641,5.673386,-70.30915,-8.447793,-36.83611,0,0,0,-45.69333,31.07667,-28.50191,-122.6469,-110.435,-88.17352,0.001067912,-0.1257102,0.09433498,0,0.3,0,0,0,0,
6.38224E+17,-21.39244,59.26375,37.47236,-11.12705,15.50338,-79.90427,-56.82663,-0.4675641,5.673386,-70.30915,-8.447793,-36.83611,0,0,0,-54.45074,32.13538,-29.35412,-122.6469,-110.435,-88.17352,0.001067912,-0.1257102,0.09433498,0,0.3,0,0,0,0,
6.38224E+17,-27.47091,59.19361,39.99387,-19.18402,14.77092,-76.16876,-56.82663,-0.4675641,5.673386,-70.30915,-8.447793,-36.83611,0,0,0,-71.03923,35.72348,-31.7156,-122.6469,-110.435,-88.17352,0.001067912,-0.1257102,0.09433498,0,0.3,0,0,0,0,
6.38224E+17,-31.59391,59.19361,42.65545,-26.80152,13.52576,-74.33764,-56.82663,-0.4675641,5.673386,-70.30915,-8.447793,-36.83611,0,0,0,-83.11603,39.81355,-33.21463,-122.6469,-110.435,-88.17352,0.001067912,-0.1257102,0.09433498,0,0.3,0,0,0,0,
6.38224E+17,-32.96038,59.28712,43.98625,-30.31729,12.72006,-73.97141,-56.82663,-0.4675641,5.673386,-70.30915,-8.447793,-36.90935,0,0,0,-87.43918,42.0498,-33.50145,-122.6469,-110.435,-88.17352,0.001067912,-0.1257102,0.09433498,0,0.3,0,0,0,0,
6.38224E+17,-34.60958,59.87158,46.71788,-36.25014,11.03542,-73.38544,-56.82663,-0.4675641,5.673386,-70.23591,-8.447793,-36.83611,0,0,0,-93.15503,47.26116,-33.3624,-122.6469,-110.435,-88.17352,0.001067912,-0.1257102,0.09433498,0,0.3,0,0,0,0,
6.38224E+17,-35.57554,61.15738,49.72968,-41.01108,8.764822,-71.70081,-56.82663,-0.4675641,5.673386,-70.30915,-8.447793,-36.90935,0,0,0,-96.61856,53.96095,-33.27284,-122.6469,-110.435,-88.17352,0.001067912,-0.1257102,0.09433498,0,0.3,0,0,0,0,
6.38224E+17,-35.99962,62.77048,52.01771,-43.7944,6.860447,-70.16266,-56.82663,-0.4675641,5.673386,-70.23591,-8.447793,-36.83611,0,0,0,-97.64301,59.85627,-33.95406,-122.6469,-110.435,-88.17352,0.001067912,-0.1257102,0.09433498,0,0.3,0,0,0,0,
6.38224E+17,-36.09386,63.93939,53.3952,-45.18605,5.615279,-69.28372,-56.82663,-0.4675641,5.673386,-70.30915,-8.447793,-36.90935,0,0,0,-97.57578,63.62671,-34.51008,-122.6469,-110.435,-88.17352,0.001067912,-0.1257102,0.09433498,0,0.3,0,0,0,0,
6.38224E+17,-36.11742,66.53437,55.98674,-47.89613,2.538982,-67.15961,-56.82663,-0.4675641,5.673386,-70.23591,-8.447793,-36.83611,0,0,0,-96.45319,71.07788,-36.16411,-122.6469,-110.435,-88.17352,0.001067912,-0.1257102,0.09433498,0,0.3,0,0,0,0,
6.38224E+17,-36.09386,68.94232,58.50825,-50.53296,-0.61056,-64.81577,-56.82663,-0.4675641,5.673386,-70.30915,-8.447793,-36.83611,0,0,0,-95.21384,78.13596,-37.74984,-122.6469,-110.435,-88.17352,0.001067912,-0.1257102,0.09433498,0,0.3,0,0,0,0,
6.38224E+17,-35.8347,71.16325,61.21653,-53.16978,-3.906592,-62.69165,-56.82663,-0.4675641,5.673386,-70.30915,-8.447793,-36.90935,0,0,0,-93.6303,85.34995,-38.69396,-122.6469,-110.435,-88.17352,0.001067912,-0.1257102,0.09433498,0,0.3,0,0,0,0,
6.38224E+17,-35.22214,73.8985,64.08825,-55.66012,-7.202625,-59.83509,-56.82663,-0.4675641,5.673386,-70.30915,-8.447793,-36.83611,0,0,0,-90.50754,93.1968,-40.15259,-122.6469,-110.435,-88.17352,0.001067912,-0.1257102,0.09433498,0,0.3,0,0,0,0,
6.38224E+17,-34.7745,75.5116,65.27895,-57.19827,-8.740773,-58.80966,-56.82663,-0.4675641,5.673386,-70.30915,-8.447793,-36.90935,0,0,0,-88.11372,96.69217,-41.4505,-122.6469,-110.435,-88.17352,0.001067912,-0.1257102,0.09433498,0,0.3,0,0,0,0,
6.38224E+17,-33.3609,79.18198,67.66038,-60.64079,-11.96356,-57.34475,-56.82663,-0.4675641,5.673386,-70.23591,-8.374548,-36.83611,0,0,0,-81.5904,103.6443,-44.42775,-122.6469,-110.435,-88.17352,0.001067912,-0.1257102,0.09433498,0,0.3,0,0,0,0,
6.38224E+17,-30.79287,83.64721,69.97176,-63.86357,-15.55258,-55.9531,-56.82663,-0.4675641,5.673386,-70.30915,-8.447793,-36.83611,0,0,0,-71.69186,110.211,-48.05173,-122.6469,-110.435,-88.17352,0.001067912,-0.1257102,0.09433498,0,0.3,0,0,0,0,
6.38224E+17,-28.93163,85.96165,70.69552,-65.62146,-17.45695,-55.51363,-56.82663,-0.4675641,5.673386,-70.23591,-8.447793,-36.90935,0,0,0,-65.42614,112.285,-49.98524,-122.6469,-110.435,-88.17352,0.001067912,-0.1257102,0.09433498,0,0.3,0,0,0,0,
6.38224E+17,-24.14896,90.31,71.34924,-67.74557,-21.55868,-55.00091,-56.82663,-0.4675641,5.673386,-70.23591,-8.447793,-36.83611,0,0,0,-51.39478,114.0529,-53.71844,-122.6469,-110.435,-88.17352,0.001067912,-0.1257102,0.09433498,0,0.3,0,0,0,0,
6.38224E+17,-17.99981,94.12065,72.04967,-66.72014,-26.39286,-55.51363,-56.82663,-0.4675641,5.673386,-70.30915,-8.447793,-36.90935,0,0,0,-36.2402,115.2578,-56.81288,-122.6469,-110.435,-88.17352,0.001067912,-0.1257102,0.09433498,0,0.3,0,0,0,0,
6.38224E+17,-11.21454,97.37022,72.98355,-63.64384,-31.88625,-58.29694,-56.82663,-0.4675641,5.673386,-70.30915,-8.447793,-36.83611,0,0,0,-21.4721,116.5739,-60.05222,-122.6469,-110.435,-88.17352,0.001067912,-0.1257102,0.09433498,0,0.3,0,0,0,0,
6.38224E+17,-7.421387,98.77291,73.61393,-61.37324,-35.10904,-60.78728,-56.82663,-0.4675641,5.673386,-70.30915,-8.447793,-36.83611,0,0,0,-13.89763,117.5208,-61.65601,-122.6469,-110.435,-88.17352,0.001067912,-0.1257102,0.09433498,0,0.3,0,0,0,0,
6.38224E+17,-0.1413598,100.6899,74.89803,-54.70793,-41.40812,-69.43021,-56.82663,-0.4675641,5.673386,-70.23591,-8.447793,-36.83611,0,0,0,-0.25661,119.6431,-64.34133,-122.6469,-110.435,-88.17352,0.001067912,-0.1257102,0.09433498,0,0.3,0,0,0,0,
6.38224E+17,6.785269,101.5783,76.04205,-42.03651,-47.85369,-92.42919,-56.82663,-0.4675641,5.673386,-70.30915,-8.447793,-36.83611,0,0,0,12.12776,121.8212,-66.42063,-122.6469,-110.435,-88.17352,0.001067912,-0.1257102,0.09433498,0,0.3,0,0,0,0,
6.38224E+17,13.8297,101.2978,75.972,-16.62044,-52.83437,-140.0385,-56.82663,-0.4675641,5.673386,-70.30915,-8.447793,-36.83611,0,0,0,24.68027,121.7925,-68.09427,-122.6469,-110.435,-88.17352,0.001067912,-0.1257102,0.09433498,0,0.3,0,0,0,0,
6.38224E+17,16.79825,100.9938,75.94866,-1.605182,-53.8598,-141.4302,-56.82663,-0.4675641,5.673386,-70.30915,-8.447793,-36.90935,0,0,0,30.03595,121.8765,-68.85518,-122.6469,-110.435,-88.17352,0.001067912,-0.1257102,0.09433498,0,0.3,0,0,0,0,
6.38224E+17,18.49457,100.8068,75.972,4.986883,-54.07953,-141.4302,-56.82663,-0.4675641,5.673386,-70.30915,-8.447793,-36.83611,0,0,0,33.1078,122.0115,-69.37005,-122.6469,-110.435,-88.17352,0.001067912,-0.1257102,0.09433498,0,0.3,0,0,0,0,
6.38224E+17,21.86364,100.012,75.34162,15.46094,-53.71331,-141.5767,-56.82663,-0.4675641,5.673386,-70.23591,-8.447793,-36.83611,0,0,0,39.40961,120.9244,-70.13548,-122.6469,-110.435,-88.17352,0.001067912,-0.1257102,0.09433498,0,0.3,0,0,0,0,
6.38224E+17,25.72748,98.0248,73.35711,22.56572,-51.66244,-141.5767,-56.82663,-0.4675641,5.673386,-70.30915,-8.447793,-36.83611,0,0,0,47.38012,117.202,-70.02209,-122.6469,-110.435,-88.17352,0.001067912,-0.1257102,0.09433498,0,0.3,0,0,0,0,
6.38224E+17,27.87143,96.73901,72.30648,25.05606,-49.9778,-141.5767,-56.82663,-0.4675641,5.673386,-70.23591,-8.447793,-36.90935,0,0,0,52.07539,115.2502,-69.87801,-122.6469,-110.435,-88.17352,0.001067912,-0.1257102,0.09433498,0,0.3,0,0,0,0,
6.38224E+17,32.13579,93.60633,70.18188,29.67051,-45.29012,-141.5767,-56.82663,-0.4675641,5.673386,-70.30915,-8.447793,-36.90935,0,0,0,62.26976,111.2256,-69.2211,-122.6469,-110.435,-88.17352,0.001067912,-0.1257102,0.09433498,0,0.3,0,0,0,0,
6.38224E+17,35.66978,89.79568,68.10397,32.7468,-40.2362,-141.6499,-56.82663,-0.4675641,5.673386,-70.30915,-8.447793,-36.83611,0,0,0,72.42608,106.9698,-67.44618,-122.6469,-110.435,-88.17352,0.001067912,-0.1257102,0.09433498,0,0.3,0,0,0,0,
6.38224E+17,38.96818,85.54085,66.86657,35.0174,-35.32877,-141.6499,-56.82663,-0.4675641,5.673386,-70.30915,-8.447793,-36.83611,0,0,0,83.63929,103.9066,-64.94669,-122.6469,-110.435,-88.17352,0.001067912,-0.1257102,0.09433498,0,0.3,0,0,0,0,
6.38224E+17,40.87653,82.61857,66.1428,36.40906,-32.47221,-141.6499,-56.82663,-0.4675641,5.673386,-70.30915,-8.447793,-36.83611,0,0,0,91.02361,101.6604,-63.18247,-122.6469,-110.435,-88.17352,0.001067912,-0.1257102,0.09433498,0,0.3,0,0,0,0,
6.38224E+17,43.02049,78.69103,64.83536,37.94721,-28.88319,-141.6499,-56.82663,-0.4675641,5.673386,-70.30915,-8.374548,-36.90935,0,0,0,100.1855,97.40767,-60.99122,-122.6469,-110.435,-88.17352,0.001067912,-0.1257102,0.09433498,0,0.3,0,0,0,0,
6.38224E+17,45.28225,73.47769,62.75745,38.97264,-24.26875,-141.6499,-56.82663,-0.4675641,5.673386,-70.30915,-8.447793,-36.83611,0,0,0,111.1929,90.15179,-58.24721,-122.6469,-110.435,-88.17352,0.001067912,-0.1257102,0.09433498,0,0.3,0,0,0,0,
6.38224E+17,46.13041,70.81258,61.77686,39.26562,-21.9249,-141.6499,-56.82663,-0.4675641,5.673386,-70.30915,-8.447793,-36.90935,0,0,0,116.3009,86.23012,-56.54998,-122.6469,-110.435,-88.17352,0.001067912,-0.1257102,0.09433498,0,0.3,0,0,0,0,
6.38224E+17,47.37908,65.5291,60.07252,39.41211,-17.01748,-141.7232,-56.82663,-0.4675641,5.673386,-70.23591,-8.447793,-36.83611,0,0,0,125.6879,78.19262,-52.6893,-122.6469,-110.435,-88.17352,0.001067912,-0.1257102,0.09433498,0,0.3,0,0,0,0,
6.38224E+17,48.22724,59.56767,58.53159,39.11913,-11.67058,-141.7232,-56.82663,-0.4675641,5.673386,-70.30915,-8.447793,-36.90935,0,0,0,135.1992,68.71561,-47.58361,-122.6469,-110.435,-88.17352,0.001067912,-0.1257102,0.09433498,0,0.3,0,0,0,0,
6.38224E+17,48.4864,53.44257,57.08406,38.24019,-6.543418,-141.4302,-56.82663,-0.4675641,5.673386,-70.30915,-8.447793,-36.83611,0,0,0,143.2977,58.0013,-41.51027,-122.6469,-110.435,-88.17352,0.001067912,-0.1257102,0.09433498,0,0.3,0,0,0,0,
6.38224E+17,48.2508,47.38762,55.94005,36.99502,-1.562747,-141.9429,-56.82663,-0.4675641,5.673386,-70.30915,-8.447793,-36.83611,0,0,0,149.7779,46.80503,-34.67189,-122.6469,-110.435,-88.17352,0.001067912,-0.1257102,0.09433498,0,0.3,0,0,0,0,
6.38224E+17,47.82672,44.53548,55.14624,36.26257,1.147324,-141.7964,-56.82663,-0.4675641,5.673386,-70.30915,-8.447793,-36.83611,0,0,0,151.5459,40.66776,-31.06532,-122.6469,-110.435,-88.17352,0.001067912,-0.1257102,0.09433498,0,0.3,0,0,0,0,
6.38224E+17,46.17752,40.30402,52.64809,34.43144,6.201241,-140.9175,-56.82663,-0.4675641,5.673386,-70.30915,-8.447793,-36.83611,0,0,0,149.8524,28.70192,-24.53383,-122.6469,-110.435,-88.17352,0.001067912,-0.1257102,0.09433498,0,0.3,0,0,0,0,
6.38224E+17,43.63305,37.31161,49.51955,31.57488,10.96218,-133.3,-56.82663,-0.4675641,5.673386,-70.30915,-8.447793,-36.90935,0,0,0,143.1756,17.61076,-18.17436,-122.6469,-110.435,-88.17352,0.001067912,-0.1257102,0.09433498,0,0.3,0,0,0,0,
6.38224E+17,42.07809,36.21284,48.00198,29.74375,13.52576,-129.3448,-56.82663,-0.4675641,5.673386,-70.30915,-8.447793,-36.83611,0,0,0,138.5131,12.90623,-14.93659,-122.6469,-110.435,-88.17352,0.001067912,-0.1257102,0.09433498,0,0.3,0,0,0,0,
6.38224E+17,38.96818,35.1842,45.52717,26.15474,17.99371,-123.1189,-56.82663,-0.4675641,5.673386,-70.30915,-8.447793,-36.90935,0,0,0,128.3837,6.766049,-9.629193,-122.6469,-110.435,-88.17352,0.001067912,-0.1257102,0.09433498,0,0.3,0,0,0,0,
6.38224E+17,35.10434,35.46473,43.05236,22.27274,22.6814,-114.6225,-56.82663,-0.4675641,5.673386,-70.30915,-8.447793,-36.83611,0,0,0,114.8084,3.277035,-5.020418,-122.6469,-110.435,-88.17352,0.001067912,-0.1257102,0.09433498,0,0.3,0,0,0,0,
6.38224E+17,33.66718,35.65176,42.30524,21.24731,24.14631,-110.9602,-56.82663,-0.4675641,5.673386,-70.30915,-8.447793,-36.90935,0,0,0,109.827,2.452427,-3.466922,-122.6469,-110.435,-88.17352,0.001067912,-0.1257102,0.09433498,0,0.3,0,0,0,0,
6.38224E+17,29.52063,36.49338,40.22734,18.75698,27.80857,-100.9256,-56.82663,-0.4675641,5.673386,-70.23591,-8.447793,-36.90935,0,0,0,95.2578,0.8461038,-0.1237714,-122.6469,-110.435,-88.17352,0.001067912,-0.1257102,0.09433498,0,0.3,0,0,0,0,
6.38224E+17,25.0678,38.76106,38.0327,16.26664,30.95811,-91.18402,-56.82663,-0.4675641,5.673386,-70.30915,-8.447793,-36.83611,0,0,0,78.86568,1.802602,0.2568272,-122.6469,-110.435,-88.17352,0.001067912,-0.1257102,0.09433498,0,0.3,0,0,0,0,
6.38224E+17,21.60448,43.31981,35.8147,13.84955,32.64275,-83.05381,-56.82663,-0.4675641,5.673386,-70.23591,-8.447793,-36.90935,0,0,0,64.45248,6.702091,-5.598848,-122.6469,-110.435,-88.17352,0.001067912,-0.1257102,0.09433498,0,0.3,0,0,0,0,
6.38224E+17,20.00241,46.546,34.88082,12.75087,32.5695,-79.31831,-56.82663,-0.4675641,5.673386,-70.30915,-8.447793,-36.90935,0,0,0,57.45692,10.75955,-10.50903,-122.6469,-110.435,-88.17352,0.001067912,-0.1257102,0.09433498,0,0.3,0,0,0,0,
6.38224E+17,17.19877,52.3438,34.27379,11.13948,30.51864,-75.65604,-56.82663,-0.4675641,5.673386,-70.23591,-8.447793,-36.90935,0,0,0,46.29351,18.72738,-18.78848,-122.6469,-110.435,-88.17352,0.001067912,-0.1257102,0.09433498,0,0.3,0,0,0,0,
6.38224E+17,13.45274,57.74416,34.74073,9.161857,26.78313,-74.26439,-56.82663,-0.4675641,5.673386,-70.30915,-8.447793,-36.83611,0,0,0,34.23585,26.54164,-25.22743,-122.6469,-110.435,-88.17352,0.001067912,-0.1257102,0.09433498,0,0.3,0,0,0,0,
6.38224E+17,11.2381,60.08199,35.34776,7.989935,24.58578,-73.67843,-56.82663,-0.4675641,5.673386,-70.30915,-8.447793,-36.90935,0,0,0,27.99697,30.16209,-27.44683,-122.6469,-110.435,-88.17352,0.001067912,-0.1257102,0.09433498,0,0.3,0,0,0,0,
6.38224E+17,5.465911,64.54722,36.93538,4.181186,19.16564,-71.92055,-56.82663,-0.4675641,5.673386,-70.30915,-8.447793,-36.83611,0,0,0,13.09177,37.16852,-31.53364,-122.6469,-110.435,-88.17352,0.001067912,-0.1257102,0.09433498,0,0.3,0,0,0,0,
6.38224E+17,1.649197,67.44612,38.61638,0.5921727,15.06391,-70.45564,-56.82663,-0.4675641,5.673386,-70.30915,-8.447793,-36.90935,0,0,0,3.867185,42.30932,-34.03485,-122.6469,-110.435,-88.17352,0.001067912,-0.1257102,0.09433498,0,0.3,0,0,0,0,
6.38224E+17,-2.120397,70.97623,41.65152,-3.363066,10.30297,-68.55127,-56.82663,-0.4675641,5.673386,-70.30915,-8.447793,-36.83611,0,0,0,-4.887296,49.77765,-36.34942,-122.6469,-110.435,-88.17352,0.001067912,-0.1257102,0.09433498,0,0.3,0,0,0,0,
6.38224E+17,-3.816714,72.84648,43.65939,-5.120951,7.666144,-67.67233,-56.82663,-0.4675641,5.673386,-70.30915,-8.447793,-36.90935,0,0,0,-8.745979,54.29537,-37.25129,-122.6469,-110.435,-88.17352,0.001067912,-0.1257102,0.09433498,0,0.3,0,0,0,0,
6.38224E+17,-6.879509,76.35321,48.02533,-8.563474,1.733285,-65.91444,-56.82663,-0.4675641,5.673386,-70.30915,-8.447793,-36.90935,0,0,0,-15.64348,63.7506,-38.69046,-122.6469,-110.435,-88.17352,0.001067912,-0.1257102,0.09433498,0,0.3,0,0,0,0,
6.38224E+17,-10.10722,78.94819,52.5547,-12.22573,-5.078516,-63.79033,-56.82663,-0.4675641,5.673386,-70.30915,-8.447793,-36.83611,0,0,0,-23.06544,73.14961,-38.95587,-122.6469,-110.435,-88.17352,0.001067912,-0.1257102,0.09433498,0,0.3,0,0,0,0,
6.38224E+17,-13.09934,79.83656,55.89336,-16.25422,-11.30435,-60.86052,-56.82663,-0.4675641,5.673386,-70.30915,-8.447793,-36.83611,0,0,0,-30.357,79.83351,-37.89174,-122.6469,-110.435,-88.17352,0.001067912,-0.1257102,0.09433498,0,0.3,0,0,0,0,
6.38224E+17,-16.13857,79.369,58.0413,-21.16164,-15.99205,-56.17283,-56.82663,-0.4675641,5.673386,-70.23591,-8.447793,-36.83611,0,0,0,-38.28611,83.82794,-36.03903,-122.6469,-110.435,-88.17352,0.001067912,-0.1257102,0.09433498,0,0.3,0,0,0,0,
6.38224E+17,-17.88201,78.8313,58.90515,-23.87171,-17.67669,-53.31627,-56.82663,-0.4675641,5.673386,-70.30915,-8.447793,-36.83611,0,0,0,-42.99396,85.30505,-35.09511,-122.6469,-110.435,-88.17352,0.001067912,-0.1257102,0.09433498,0,0.3,0,0,0,0,
6.38224E+17,-21.91076,77.45199,60.70289,-29.65808,-19.6543,-46.87069,-56.82663,-0.4675641,5.673386,-70.23591,-8.447793,-36.90935,0,0,0,-54.20741,88.26156,-33.57801,-122.6469,-110.435,-88.17352,0.001067912,-0.1257102,0.09433498,0,0.3,0,0,0,0,
6.38224E+17,-25.46832,75.53497,61.75352,-36.46988,-20.09377,-40.13214,-56.82663,-0.4675641,5.673386,-70.23591,-8.447793,-36.83611,0,0,0,-64.8372,89.36288,-32.22231,-122.6469,-110.435,-88.17352,0.001067912,-0.1257102,0.09433498,0,0.3,0,0,0,0,
6.38224E+17,-26.88192,74.36607,61.91695,-40.0589,-19.80079,-36.83611,-56.82663,-0.4675641,5.673386,-70.23591,-8.447793,-36.90935,0,0,0,-69.44473,88.99183,-31.35982,-122.6469,-110.435,-88.17352,0.001067912,-0.1257102,0.09433498,0,0.3,0,0,0,0,
6.38224E+17,-29.33215,72.23865,61.9403,-45.91851,-18.62887,-31.48921,-56.82663,-0.4675641,5.673386,-70.30915,-8.447793,-36.83611,0,0,0,-77.57343,87.61723,-30.29735,-122.6469,-110.435,-88.17352,0.001067912,-0.1257102,0.09433498,0,0.3,0,0,0,0,
6.38224E+17,-32.06511,69.78394,61.52005,-50.45971,-16.43152,-27.31424,-56.82663,-0.4675641,5.673386,-70.30915,-8.447793,-36.83611,0,0,0,-86.68947,84.89701,-29.968,-122.6469,-110.435,-88.17352,0.001067912,-0.1257102,0.09433498,0,0.3,0,0,0,0,
6.38224E+17,-33.43158,68.19422,60.93637,-52.21759,-15.03986,-25.84933,-56.82663,-0.4675641,5.673386,-70.30915,-8.447793,-36.90935,0,0,0,-91.50745,82.37972,-29.73799,-122.6469,-110.435,-88.17352,0.001067912,-0.1257102,0.09433498,0,0.3,0,0,0,0,
6.38224E+17,-35.57554,64.45371,59.09193,-55.1474,-11.30435,-23.57873,-56.82663,-0.4675641,5.673386,-70.30915,-8.447793,-36.83611,0,0,0,-100.0184,75.16648,-28.51966,-122.6469,-110.435,-88.17352,0.001067912,-0.1257102,0.09433498,0,0.3,0,0,0,0,
6.38224E+17,-37.17762,60.54955,56.3603,-56.68555,-6.616664,-21.67436,-56.82663,-0.4675641,5.673386,-70.30915,-8.447793,-36.90935,0,0,0,-106.7071,65.59696,-27.65452,-122.6469,-110.435,-88.17352,0.001067912,-0.1257102,0.09433498,0,0.3,0,0,0,0,
6.38224E+17,-39.22733,55.40634,52.85821,-56.90528,-0.7570504,-19.98972,-56.82663,-0.4675641,5.673386,-70.30915,-8.447793,-36.83611,0,0,0,-115.1023,52.60828,-27.35808,-122.6469,-110.435,-88.17352,0.001067912,-0.1257102,0.09433498,0,0.3,0,0,0,0,
6.38224E+17,-40.14618,52.29704,50.66357,-56.75879,3.051698,-19.477,-56.82663,-0.4675641,5.673386,-70.23591,-8.447793,-36.83611,0,0,0,-119.0773,44.32851,-27.17224,-122.6469,-110.435,-88.17352,0.001067912,-0.1257102,0.09433498,0,0.3,0,0,0,0,
6.38224E+17,-40.45245,50.33327,48.58566,-56.39257,5.76177,-19.18402,-56.82663,-0.4675641,5.673386,-70.30915,-8.447793,-36.90935,0,0,0,-120.1124,37.78791,-27.47987,-122.6469,-110.435,-88.17352,0.001067912,-0.1257102,0.09433498,0,0.3,0,0,0,0,
6.38224E+17,-40.49957,46.94343,44.75671,-54.78117,10.52271,-19.25727,-56.82663,-0.4675641,5.673386,-70.23591,-8.447793,-36.83611,0,0,0,-120.1028,26.09395,-27.72557,-122.6469,-110.435,-88.17352,0.001067912,-0.1257102,0.09433498,0,0.3,0,0,0,0,
6.38224E+17,-40.45245,43.99778,41.51144,-53.16978,15.2104,-20.86866,-56.82663,-0.4675641,5.673386,-70.30915,-8.447793,-36.83611,0,0,0,-119.582,16.12337,-28.10191,-122.6469,-110.435,-88.17352,0.001067912,-0.1257102,0.09433498,0,0.3,0,0,0,0,
6.38224E+17,-39.76921,41.21577,37.86926,-52.0711,19.45862,-24.23794,-56.82663,-0.4675641,5.673386,-70.30915,-8.447793,-36.83611,0,0,0,-116.5328,5.945567,-28.33006,-122.6469,-110.435,-88.17352,0.001067912,-0.1257102,0.09433498,0,0.3,0,0,0,0,
6.38224E+17,-39.06242,39.95335,36.04818,-51.48514,21.36299,-26.36205,-56.82663,-0.4675641,5.673386,-70.30915,-8.447793,-36.90935,0,0,0,-113.8671,1.166056,-28.04863,-122.6469,-110.435,-88.17352,0.001067912,-0.1257102,0.09433498,0,0.3,0,0,0,0,
6.38224E+17,-36.56506,38.38701,32.28927,-49.50752,25.46472,-30.90325,-56.82663,-0.4675641,5.673386,-70.30915,-8.447793,-36.83611,0,0,0,-104.7059,-6.572649,-27.18367,-122.6469,-110.435,-88.17352,0.001067912,-0.1257102,0.09433498,0,0.3,0,0,0,0,
6.38224E+17,-33.26667,38.41039,29.58099,-46.21149,28.98049,-33.68657,-56.82663,-0.4675641,5.673386,-70.23591,-8.447793,-36.83611,0,0,0,-93.42627,-9.77,-25.9416,-122.6469,-110.435,-88.17352,0.001067912,-0.1257102,0.09433498,0,0.3,0,0,0,0,
6.38224E+17,-30.55727,39.01822,28.50701,-43.13519,30.95811,-34.712,-56.82663,-0.4675641,5.673386,-70.23591,-8.447793,-36.83611,0,0,0,-85.02937,-9.879648,-24.32815,-122.6469,-110.435,-88.17352,0.001067912,-0.1257102,0.09433498,0,0.3,0,0,0,0,
6.38224E+17,-27.80075,40.49105,27.73655,-39.32644,32.34977,-35.29796,-56.82663,-0.4675641,5.673386,-70.23591,-8.447793,-36.83611,0,0,0,-76.24477,-8.089619,-23.74354,-122.6469,-110.435,-88.17352,0.001067912,-0.1257102,0.09433498,0,0.3,0,0,0,0,
6.38224E+17,-24.2432,43.64711,26.77931,-34.34578,32.93573,-35.73743,-56.82663,-0.4675641,5.673386,-70.30915,-8.447793,-36.90935,0,0,0,-64.29104,-3.657891,-25.58393,-122.6469,-110.435,-88.17352,0.001067912,-0.1257102,0.09433498,0,0.3,0,0,0,0,
6.38224E+17,-22.49976,45.30696,26.54584,-31.78219,32.5695,-36.03041,-56.82663,-0.4675641,5.673386,-70.23591,-8.447793,-36.90935,0,0,0,-58.69621,-1.145355,-26.64316,-122.6469,-110.435,-88.17352,0.001067912,-0.1257102,0.09433498,0,0.3,0,0,0,0,
6.38224E+17,-17.05741,50.54368,27.61982,-22.62654,29.56645,-36.90935,-56.82663,-0.4675641,5.673386,-70.30915,-8.447793,-36.83611,0,0,0,-42.99158,8.156891,-28.23319,-122.6469,-110.435,-88.17352,0.001067912,-0.1257102,0.09433498,0,0.3,0,0,0,0,
6.38224E+17,-15.50245,52.27366,28.32023,-19.91648,28.17479,-37.34882,-56.82663,-0.4675641,5.673386,-70.30915,-8.447793,-36.83611,0,0,0,-38.71726,11.43284,-28.76329,-122.6469,-110.435,-88.17352,0.001067912,-0.1257102,0.09433498,0,0.3,0,0,0,0,
6.38224E+17,-12.32186,55.73364,30.00124,-14.71607,25.09849,-38.4475,-56.82663,-0.4675641,5.673386,-70.30915,-8.447793,-36.83611,0,0,0,-30.25182,18.07125,-29.85652,-122.6469,-110.435,-88.17352,0.001067912,-0.1257102,0.09433498,0,0.3,0,0,0,0,
6.38224E+17,-9.353305,59.05334,31.5655,-10.54109,21.65597,-39.91241,-56.82663,-0.4675641,5.673386,-70.30915,-8.447793,-36.83611,0,0,0,-22.48961,24.09731,-31.81075,-122.6469,-110.435,-88.17352,0.001067912,-0.1257102,0.09433498,0,0.3,0,0,0,0,
6.38224E+17,-7.727668,60.61968,32.406,-8.563474,19.82484,-41.15757,-56.82663,-0.4675641,5.673386,-70.30915,-8.447793,-36.90935,0,0,0,-18.40639,26.9652,-32.70674,-122.6469,-110.435,-88.17352,0.001067912,-0.1257102,0.09433498,0,0.3,0,0,0,0,
6.38224E+17,-4.688432,63.42507,34.34383,-5.413931,16.45556,-44.23387,-56.82663,-0.4675641,5.673386,-70.30915,-8.447793,-36.90935,0,0,0,-11.02529,32.50888,-33.91439,-122.6469,-110.435,-88.17352,0.001067912,-0.1257102,0.09433498,0,0.3,0,0,0,0,
6.38224E+17,-1.861237,65.90316,36.56182,-3.216576,12.9398,-47.45666,-56.82663,-0.4675641,5.673386,-70.23591,-8.447793,-36.83611,0,0,0,-4.348269,37.97076,-34.54124,-122.6469,-110.435,-88.17352,0.001067912,-0.1257102,0.09433498,0,0.3,0,0,0,0,
6.38224E+17,1.602077,68.35786,39.10667,-1.238957,9.350782,-51.19216,-56.82663,-0.4675641,5.673386,-70.23591,-8.447793,-36.90935,0,0,0,3.726597,43.82356,-35.10887,-122.6469,-110.435,-88.17352,0.001067912,-0.1257102,0.09433498,0,0.3,0,0,0,0,
6.38224E+17,3.533994,69.55016,40.48416,-0.140279,7.373164,-53.02329,-56.82663,-0.4675641,5.673386,-70.30915,-8.447793,-36.83611,0,0,0,8.20849,46.87199,-35.43657,-122.6469,-110.435,-88.17352,0.001067912,-0.1257102,0.09433498,0,0.3,0,0,0,0,
6.38224E+17,8.104627,72.02824,43.82282,2.936018,2.758718,-57.418,-56.82663,-0.4675641,5.673386,-70.30915,-8.447793,-36.90935,0,0,0,18.81824,53.98372,-36.20266,-122.6469,-110.435,-88.17352,0.001067912,-0.1257102,0.09433498,0,0.3,0,0,0,0,
6.38224E+17,11.9449,73.71148,46.60114,6.232051,-1.709238,-62.10569,-56.82663,-0.4675641,5.673386,-70.30915,-8.447793,-36.83611,0,0,0,27.79451,59.72634,-36.96598,-122.6469,-110.435,-88.17352,0.001067912,-0.1257102,0.09433498,0,0.3,0,0,0,0,
6.38224E+17,13.92394,74.34269,47.95528,8.282915,-4.272818,-65.40173,-56.82663,-0.4675641,5.673386,-70.30915,-8.447793,-36.83611,0,0,0,32.48977,62.44591,-37.29974,-122.6469,-110.435,-88.17352,0.001067912,-0.1257102,0.09433498,0,0.3,0,0,0,0,
6.38224E+17,17.62285,74.69336,50.12658,12.3114,-9.619716,-75.07008,-56.82663,-0.4675641,5.673386,-70.30915,-8.447793,-36.83611,0,0,0,41.6413,66.47981,-37.26139,-122.6469,-110.435,-88.17352,0.001067912,-0.1257102,0.09433498,0,0.3,0,0,0,0,
6.38224E+17,20.70921,74.20242,50.52348,16.19339,-14.4539,-84.6652,-56.82663,-0.4675641,5.673386,-70.30915,-8.447793,-36.90935,0,0,0,49.23666,66.88445,-38.11225,-122.6469,-110.435,-88.17352,0.001067912,-0.1257102,0.09433498,0,0.3,0,0,0,0,
6.38224E+17,23.60708,73.61797,49.72968,19.56267,-17.74993,-88.62045,-56.82663,-0.4675641,5.673386,-70.30915,-8.447793,-36.90935,0,0,0,55.80706,65.08958,-40.65569,-122.6469,-110.435,-88.17352,0.001067912,-0.1257102,0.09433498,0,0.3,0,0,0,0,
6.38224E+17,26.5992,72.91661,49.0526,22.63897,-19.87404,-89.64587,-56.82663,-0.4675641,5.673386,-70.23591,-8.447793,-36.83611,0,0,0,62.63711,63.42333,-43.2622,-122.6469,-110.435,-88.17352,0.001067912,-0.1257102,0.09433498,0,0.3,0,0,0,0,
6.38224E+17,28.08347,72.33216,48.84248,24.39685,-20.60649,-89.57263,-56.82663,-0.4675641,5.673386,-70.30915,-8.447793,-36.90935,0,0,0,66.31612,62.64832,-44.06467,-122.6469,-110.435,-88.17352,0.001067912,-0.1257102,0.09433498,0,0.3,0,0,0,0,
6.38224E+17,31.09915,70.32163,48.44558,28.05911,-21.19245,-88.84018,-56.82663,-0.4675641,5.673386,-70.23591,-8.447793,-36.90935,0,0,0,74.73718,60.45685,-44.4526,-122.6469,-110.435,-88.17352,0.001067912,-0.1257102,0.09433498,0,0.3,0,0,0,0,
6.38224E+17,33.90279,66.46423,47.69846,32.08759,-20.38675,-87.0823,-56.82663,-0.4675641,5.673386,-70.30915,-8.447793,-36.83611,0,0,0,84.71474,55.85788,-42.29441,-122.6469,-110.435,-88.17352,0.001067912,-0.1257102,0.09433498,0,0.3,0,0,0,0,
6.38224E+17,35.15146,63.98614,47.23152,33.99197,-19.28808,-86.56957,-56.82663,-0.4675641,5.673386,-70.23591,-8.447793,-36.83611,0,0,0,90.03333,52.64038,-40.4898,-122.6469,-110.435,-88.17352,0.001067912,-0.1257102,0.09433498,0,0.3,0,0,0,0,
6.38224E+17,37.29542,58.65591,46.43771,37.14151,-15.62582,-86.1301,-56.82663,-0.4675641,5.673386,-70.30915,-8.447793,-36.83611,0,0,0,100.5801,45.34156,-36.29785,-122.6469,-110.435,-88.17352,0.001067912,-0.1257102,0.09433498,0,0.3,0,0,0,0,
6.38224E+17,39.13309,53.27893,45.99411,39.48536,-11.08462,-86.05686,-56.82663,-0.4675641,5.673386,-70.23591,-8.447793,-36.90935,0,0,0,110.8551,37.59491,-32.10373,-122.6469,-110.435,-88.17352,0.001067912,-0.1257102,0.09433498,0,0.3,0,0,0,0,
6.38224E+17,40.05193,50.30989,46.01746,40.51079,-8.594284,-86.05686,-56.82663,-0.4675641,5.673386,-70.30915,-8.447793,-36.90935,0,0,0,116.5436,33.36068,-29.71408,-122.6469,-110.435,-88.17352,0.001067912,-0.1257102,0.09433498,0,0.3,0,0,0,0,
6.38224E+17,41.44197,45.14331,46.39102,42.26867,-3.686857,-84.88493,-56.82663,-0.4675641,5.673386,-70.30915,-8.447793,-36.83611,0,0,0,126.1577,25.90234,-25.46337,-122.6469,-110.435,-88.17352,0.001067912,-0.1257102,0.09433498,0,0.3,0,0,0,0,
6.38224E+17,42.59641,41.23915,46.20424,43.80682,0.6346079,-81.51566,-56.82663,-0.4675641,5.673386,-70.30915,-8.447793,-36.83611,0,0,0,133.016,18.96461,-23.67795,-122.6469,-110.435,-88.17352,0.001067912,-0.1257102,0.09433498,0,0.3,0,0,0,0,
6.38224E+17,43.49169,38.19999,45.59721,44.97874,4.150376,-79.02532,-56.82663,-0.4675641,5.673386,-70.30915,-8.447793,-36.90935,0,0,0,137.6942,12.50998,-23.20841,-122.6469,-110.435,-88.17352,0.001067912,-0.1257102,0.09433498,0,0.3,0,0,0,0,
6.38224E+17,43.46813,35.62838,43.566,45.63795,7.006938,-76.53499,-56.82663,-0.4675641,5.673386,-70.30915,-8.447793,-36.83611,0,0,0,137.791,4.406923,-22.98667,-122.6469,-110.435,-88.17352,0.001067912,-0.1257102,0.09433498,0,0.3,0,0,0,0,
6.38224E+17,43.35033,34.62312,42.60876,45.63795,7.812634,-75.50956,-56.82663,-0.4675641,5.673386,-70.30915,-8.447793,-36.90935,0,0,0,137.2991,0.9715018,-22.90792,-122.6469,-110.435,-88.17352,0.001067912,-0.1257102,0.09433498,0,0.3,0,0,0,0,
6.38224E+17,42.57285,31.7476,39.69035,45.05199,10.15648,-74.1179,-56.82663,-0.4675641,5.673386,-70.30915,-8.447793,-36.83611,0,0,0,134.3311,-9.097897,-22.12702,-122.6469,-110.435,-88.17352,0.001067912,-0.1257102,0.09433498,0,0.3,0,0,0,0,
6.38224E+17,40.85297,28.68506,36.56182,43.88007,12.86655,-73.67843,-56.82663,-0.4675641,5.673386,-70.30915,-8.447793,-36.83611,0,0,0,128.4819,-19.75138,-19.78023,-122.6469,-110.435,-88.17352,0.001067912,-0.1257102,0.09433498,0,0.3,0,0,0,0,
6.38224E+17,38.49697,25.78616,33.62006,41.97569,15.94285,-73.82492,-56.82663,-0.4675641,5.673386,-70.30915,-8.447793,-36.83611,0,0,0,120.7008,-29.68514,-16.59186,-122.6469,-110.435,-88.17352,0.001067912,-0.1257102,0.09433498,0,0.3,0,0,0,0,
6.38224E+17,37.20118,24.61725,32.28927,40.87702,17.62749,-74.26439,-56.82663,-0.4675641,5.673386,-70.30915,-8.447793,-36.90935,0,0,0,116.3671,-33.83147,-15.04851,-122.6469,-110.435,-88.17352,0.001067912,-0.1257102,0.09433498,0,0.3,0,0,0,0,
6.38224E+17,34.3033,22.79375,29.86115,38.31343,20.85028,-74.85035,-56.82663,-0.4675641,5.673386,-70.30915,-8.447793,-36.83611,0,0,0,106.702,-40.63393,-11.95011,-122.6469,-110.435,-88.17352,0.001067912,-0.1257102,0.09433498,0,0.3,0,0,0,0,
6.38224E+17,31.40543,22.23267,27.78325,35.89634,23.70683,-74.99684,-56.82663,-0.4675641,5.673386,-70.23591,-8.447793,-36.90935,0,0,0,96.7114,-44.17159,-9.945037,-122.6469,-110.435,-88.17352,0.001067912,-0.1257102,0.09433498,0,0.3,0,0,0,0,
6.38224E+17,29.94471,22.34956,26.61588,34.72442,25.02525,-74.99684,-56.82663,-0.4675641,5.673386,-70.30915,-8.447793,-36.83611,0,0,0,91.38428,-45.16173,-9.714466,-122.6469,-110.435,-88.17352,0.001067912,-0.1257102,0.09433498,0,0.3,0,0,0,0,
6.38224E+17,25.8924,23.33145,23.55739,31.72137,27.73532,-73.01923,-56.82663,-0.4675641,5.673386,-70.23591,-8.447793,-36.83611,0,0,0,76.74323,-46.07343,-10.25017,-122.6469,-110.435,-88.17352,0.001067912,-0.1257102,0.09433498,0,0.3,0,0,0,0,
6.38224E+17,22.26416,24.73414,20.77907,28.71832,29.41996,-70.16266,-56.82663,-0.4675641,5.673386,-70.30915,-8.447793,-36.83611,0,0,0,63.81216,-45.53155,-12.48225,-122.6469,-110.435,-88.17352,0.001067912,-0.1257102,0.09433498,0,0.3,0,0,0,0,
6.38224E+17,17.85845,27.0252,17.81396,24.68983,30.81162,-67.3061,-56.82663,-0.4675641,5.673386,-70.23591,-8.447793,-36.83611,0,0,0,48.93921,-43.01463,-16.45476,-122.6469,-110.435,-88.17352,0.001067912,-0.1257102,0.09433498,0,0.3,0,0,0,0,
6.38224E+17,15.50245,28.49803,16.50652,22.49248,31.39758,-65.91444,-56.82663,-0.4675641,5.673386,-70.30915,-8.447793,-36.90935,0,0,0,41.44984,-40.87921,-18.91154,-122.6469,-110.435,-88.17352,0.001067912,-0.1257102,0.09433498,0,0.3,0,0,0,0,
6.38224E+17,10.97894,32.14503,14.84886,17.58505,31.83705,-63.79033,-56.82663,-0.4675641,5.673386,-70.23591,-8.447793,-36.83611,0,0,0,28.01143,-34.59605,-23.96039,-122.6469,-110.435,-88.17352,0.001067912,-0.1257102,0.09433498,0,0.3,0,0,0,0,
6.38224E+17,7.020868,36.65702,14.59204,12.45789,30.95811,-62.47192,-56.82663,-0.4675641,5.673386,-70.30915,-8.447793,-36.90935,0,0,0,17.18224,-26.08559,-28.832,-122.6469,-110.435,-88.17352,0.001067912,-0.1257102,0.09433498,0,0.3,0,0,0,0,
6.38224E+17,3.769594,41.77685,15.73606,7.770199,28.834,-61.51973,-56.82663,-0.4675641,5.673386,-70.30915,-8.447793,-36.90935,0,0,0,8.743733,-15.92807,-33.09872,-122.6469,-110.435,-88.17352,0.001067912,-0.1257102,0.09433498,0,0.3,0,0,0,0,
6.38224E+17,2.191077,44.74588,16.95012,5.499599,27.14936,-60.78728,-56.82663,-0.4675641,5.673386,-70.30915,-8.447793,-36.90935,0,0,0,5.10731,-10.33358,-34.86098,-122.6469,-110.435,-88.17352,0.001067912,-0.1257102,0.09433498,0,0.3,0,0,0,0,
6.38224E+17,-0.4947592,50.68394,20.24208,1.54436,23.19412,-58.80966,-56.82663,-0.4675641,5.673386,-70.30915,-8.447793,-36.90935,0,0,0,-1.127979,1.403726,-37.7272,-122.6469,-110.435,-88.17352,0.001067912,-0.1257102,0.09433498,0,0.3,0,0,0,0,
6.38224E+17,-2.803635,56.34147,24.28116,-1.898163,18.28669,-56.6123,-56.82663,-0.4675641,5.673386,-70.23591,-8.447793,-36.90935,0,0,0,-6.297257,12.79094,-39.76045,-122.6469,-110.435,-88.17352,0.001067912,-0.1257102,0.09433498,0,0.3,0,0,0,0,
6.38224E+17,-4.052313,59.19361,26.70927,-3.509557,15.28364,-55.36714,-56.82663,-0.4675641,5.673386,-70.30915,-8.447793,-36.83611,0,0,0,-9.061638,18.76331,-40.44093,-122.6469,-110.435,-88.17352,0.001067912,-0.1257102,0.09433498,0,0.3,0,0,0,0,
6.38224E+17,-6.36119,64.07965,31.28534,-6.219628,9.350782,-52.95005,-56.82663,-0.4675641,5.673386,-70.30915,-8.447793,-36.83611,0,0,0,-14.13076,29.32553,-41.59641,-122.6469,-110.435,-88.17352,0.001067912,-0.1257102,0.09433498,0,0.3,0,0,0,0,
6.38224E+17,-8.717185,68.26435,36.07153,-9.295925,2.612227,-50.6062,-56.82663,-0.4675641,5.673386,-70.30915,-8.447793,-36.83611,0,0,0,-19.38396,39.43464,-41.92884,-122.6469,-110.435,-88.17352,0.001067912,-0.1257102,0.09433498,0,0.3,0,0,0,0,
6.38224E+17,-10.74334,71.1165,39.97052,-12.07924,-3.760103,-48.55533,-56.82663,-0.4675641,5.673386,-70.30915,-8.447793,-36.83611,0,0,0,-24.01355,47.32679,-41.78675,-122.6469,-110.435,-88.17352,0.001067912,-0.1257102,0.09433498,0,0.3,0,0,0,0,
6.38224E+17,-11.54438,72.26203,41.69822,-13.32441,-6.470173,-47.74964,-56.82663,-0.4675641,5.673386,-70.30915,-8.447793,-36.90935,0,0,0,-25.88289,50.79355,-41.63403,-122.6469,-110.435,-88.17352,0.001067912,-0.1257102,0.09433498,0,0.3,0,0,0,0,
6.38224E+17,-13.42918,74.45957,45.71395,-15.66825,-12.11005,-46.50447,-56.82663,-0.4675641,5.673386,-70.23591,-8.447793,-36.83611,0,0,0,-30.46734,58.7145,-40.74977,-122.6469,-110.435,-88.17352,0.001067912,-0.1257102,0.09433498,0,0.3,0,0,0,0,
6.38224E+17,-15.40822,75.86227,48.74909,-18.15859,-17.09072,-44.16063,-56.82663,-0.4675641,5.673386,-70.30915,-8.447793,-36.83611,0,0,0,-35.29156,64.73566,-40.29652,-122.6469,-110.435,-88.17352,0.001067912,-0.1257102,0.09433498,0,0.3,0,0,0,0,
6.38224E+17,-17.05741,76.4701,51.31729,-21.30813,-21.77841,-42.54923,-56.82663,-0.4675641,5.673386,-70.30915,-8.447793,-36.90935,0,0,0,-39.68551,69.65456,-39.00822,-122.6469,-110.435,-88.17352,0.001067912,-0.1257102,0.09433498,0,0.3,0,0,0,0,
6.38224E+17,-17.22233,76.4701,53.37185,-22.5533,-24.92796,-44.96632,-56.82663,-0.4675641,5.673386,-70.23591,-8.447793,-36.83611,0,0,0,-40.92252,73.44009,-36.33288,-122.6469,-110.435,-88.17352,0.001067912,-0.1257102,0.09433498,0,0.3,0,0,0,0,
6.38224E+17,-17.29301,76.4701,54.6326,-22.5533,-26.61259,-46.79745,-56.82663,-0.4675641,5.673386,-70.23591,-8.447793,-36.90935,0,0,0,-41.59799,75.81399,-34.73682,-122.6469,-110.435,-88.17352,0.001067912,-0.1257102,0.09433498,0,0.3,0,0,0,0,
6.38224E+17,-18.23541,76.2597,57.10741,-22.33356,-30.78757,-49.58077,-56.82663,-0.4675641,5.673386,-70.30915,-8.447793,-36.83611,0,0,0,-44.95004,80.466,-31.91791,-122.6469,-110.435,-88.17352,0.001067912,-0.1257102,0.09433498,0,0.3,0,0,0,0,
6.38224E+17,-20.04953,75.60511,58.62498,-24.38443,-34.59632,-49.28778,-56.82663,-0.4675641,5.673386,-70.30915,-8.447793,-36.83611,0,0,0,-50.39722,83.08652,-30.25629,-122.6469,-110.435,-88.17352,0.001067912,-0.1257102,0.09433498,0,0.3,0,0,0,0,
6.38224E+17,-21.48668,75.34795,58.85846,-26.72828,-36.13447,-46.87069,-56.82663,-0.4675641,5.673386,-70.30915,-8.447793,-36.90935,0,0,0,-54.16033,83.40093,-30.76223,-122.6469,-110.435,-88.17352,0.001067912,-0.1257102,0.09433498,0,0.3,0,0,0,0,
6.38224E+17,-24.69084,74.41282,58.67168,-35.15147,-37.67262,-39.10671,-56.82663,-0.4675641,5.673386,-70.30915,-8.447793,-36.83611,0,0,0,-62.54947,82.46156,-32.3004,-122.6469,-110.435,-88.17352,0.001067912,-0.1257102,0.09433498,0,0.3,0,0,0,0,
6.38224E+17,-27.51804,72.26203,57.10741,-46.72421,-37.30639,-29.51159,-56.82663,-0.4675641,5.673386,-70.30915,-8.447793,-36.83611,0,0,0,-70.50529,77.94268,-33.01462,-122.6469,-110.435,-88.17352,0.001067912,-0.1257102,0.09433498,0,0.3,0,0,0,0,
6.38224E+17,-28.57823,70.81258,55.68323,-52.14435,-36.50069,-24.8239,-56.82663,-0.4675641,5.673386,-70.30915,-8.447793,-36.90935,0,0,0,-73.6504,74.11377,-33.14342,-122.6469,-110.435,-88.17352,0.001067912,-0.1257102,0.09433498,0,0.3,0,0,0,0,
6.38224E+17,-29.87403,66.83829,50.99043,-63.27761,-33.05817,-15.59501,-56.82663,-0.4675641,5.673386,-70.23591,-8.447793,-36.83611,0,0,0,-77.73697,62.01458,-33.01936,-122.6469,-110.435,-88.17352,0.001067912,-0.1257102,0.09433498,0,0.3,0,0,0,0,
6.38224E+17,-30.46303,64.29005,47.53503,-67.23285,-30.71432,-12.15249,-56.82663,-0.4675641,5.673386,-70.30915,-8.447793,-36.90935,0,0,0,-79.20092,53.46876,-33.69491,-122.6469,-110.435,-88.17352,0.001067912,-0.1257102,0.09433498,0,0.3,0,0,0,0,
6.38224E+17,-31.75883,60.7132,42.60876,-69.43021,-27.56478,-9.002944,-56.82663,-0.4675641,5.673386,-70.23591,-8.447793,-36.83611,0,0,0,-81.85126,41.51072,-36.12537,-122.6469,-110.435,-88.17352,0.001067912,-0.1257102,0.09433498,0,0.3,0,0,0,0,
6.38224E+17,-32.72478,58.74942,39.97052,-69.50346,-25.73365,-7.977511,-56.82663,-0.4675641,5.673386,-70.30915,-8.447793,-36.90935,0,0,0,-83.70863,35.15569,-38.08438,-122.6469,-110.435,-88.17352,0.001067912,-0.1257102,0.09433498,0,0.3,0,0,0,0,
6.38224E+17,-35.17502,52.74123,33.87688,-68.84425,-18.9951,-6.659099,-56.82663,-0.4675641,5.673386,-70.30915,-8.521038,-36.90935,0,0,0,-89.328,18.77237,-41.60223,-122.6469,-110.435,-88.17352,0.001067912,-0.1257102,0.09433498,0,0.3,0,0,0,0,
6.38224E+17,-35.88182,51.12813,32.21923,-68.84425,-16.94423,-6.659099,-56.82663,-0.4675641,5.673386,-70.23591,-8.447793,-36.83611,0,0,0,-90.72176,14.35382,-42.93906,-122.6469,-110.435,-88.17352,0.001067912,-0.1257102,0.09433498,0,0.3,0,0,0,0,
6.38224E+17,-37.15406,48.11234,28.62375,-68.84425,-13.35522,-7.09857,-56.82663,-0.4675641,5.673386,-70.30915,-8.447793,-36.83611,0,0,0,-92.35529,5.570563,-46.4736,-122.6469,-110.435,-88.17352,0.001067912,-0.1257102,0.09433498,0,0.3,0,0,0,0,
6.38224E+17,-37.27186,45.42385,25.12166,-68.47802,-10.27892,-8.490229,-56.82663,-0.4675641,5.673386,-70.30915,-8.447793,-36.90935,0,0,0,-90.96392,-2.39857,-48.82104,-122.6469,-110.435,-88.17352,0.001067912,-0.1257102,0.09433498,0,0.3,0,0,0,0,
6.38224E+17,-36.8949,44.3017,23.30057,-68.03855,-8.887264,-9.955132,-56.82663,-0.4675641,5.673386,-70.30915,-8.447793,-36.90935,0,0,0,-88.96097,-5.987798,-49.84314,-122.6469,-110.435,-88.17352,0.001067912,-0.1257102,0.09433498,0,0.3,0,0,0,0,
6.38224E+17,-35.33994,42.61847,19.28484,-66.64689,-6.689909,-13.4709,-56.82663,-0.4675641,5.673386,-70.30915,-8.447793,-36.83611,0,0,0,-82.23503,-12.22447,-52.37682,-122.6469,-110.435,-88.17352,0.001067912,-0.1257102,0.09433498,0,0.3,0,0,0,0,
6.38224E+17,-32.13579,41.16902,15.12903,-63.79033,-5.225006,-17.86561,-56.82663,-0.4675641,5.673386,-70.23591,-8.447793,-36.90935,0,0,0,-71.90891,-17.59619,-53.87628,-122.6469,-110.435,-88.17352,0.001067912,-0.1257102,0.09433498,0,0.3,0,0,0,0,
6.38224E+17,-29.92115,40.67807,13.30794,-61.9592,-4.639044,-20.13621,-56.82663,-0.4675641,5.673386,-70.30915,-8.447793,-36.90935,0,0,0,-65.75563,-19.50052,-54.09508,-122.6469,-110.435,-88.17352,0.001067912,-0.1257102,0.09433498,0,0.3,0,0,0,0,
6.38224E+17,-24.54948,40.00011,9.922588,-56.68555,-3.467122,-24.97039,-56.82663,-0.4675641,5.673386,-70.30915,-8.447793,-36.90935,0,0,0,-51.98904,-22.28936,-54.53104,-122.6469,-110.435,-88.17352,0.001067912,-0.1257102,0.09433498,0,0.3,0,0,0,0,
6.38224E+17,-18.68305,39.85984,7.751292,-50.02024,-2.441689,-29.14537,-56.82663,-0.4675641,5.673386,-70.30915,-8.447793,-36.83611,0,0,0,-38.55101,-23.31599,-54.3449,-122.6469,-110.435,-88.17352,0.001067912,-0.1257102,0.09433498,0,0.3,0,0,0,0,
6.38224E+17,-12.67526,40.07024,6.397151,-43.13519,-1.343012,-32.29491,-56.82663,-0.4675641,5.673386,-70.23591,-8.447793,-36.83611,0,0,0,-25.6518,-23.3288,-54.29438,-122.6469,-110.435,-88.17352,0.001067912,-0.1257102,0.09433498,0,0.3,0,0,0,0,
6.38224E+17,-9.753823,40.3274,6.000247,-39.54618,-0.7570504,-33.54007,-56.82663,-0.4675641,5.673386,-70.30915,-8.521038,-36.83611,0,0,0,-19.58441,-22.97139,-54.42102,-122.6469,-110.435,-88.17352,0.001067912,-0.1257102,0.09433498,0,0.3,0,0,0,0,
6.38224E+17,-4.170113,41.19239,5.743428,-32.4414,0.1951368,-36.25014,-56.82663,-0.4675641,5.673386,-70.30915,-8.447793,-36.83611,0,0,0,-8.267382,-21.50766,-54.95995,-122.6469,-110.435,-88.17352,0.001067912,-0.1257102,0.09433498,0,0.3,0,0,0,0,
6.38224E+17,2.756516,42.57171,6.443846,-23.13926,1.000834,-39.61942,-56.82663,-0.4675641,5.673386,-70.30915,-8.447793,-36.90935,0,0,0,5.442486,-18.94461,-55.31205,-122.6469,-110.435,-88.17352,0.001067912,-0.1257102,0.09433498,0,0.3,0,0,0,0,
6.38224E+17,5.418791,43.60035,7.401083,-18.8178,1.147324,-41.08433,-56.82663,-0.4675641,5.673386,-70.23591,-8.447793,-36.90935,0,0,0,10.7415,-16.92767,-55.11317,-122.6469,-110.435,-88.17352,0.001067912,-0.1257102,0.09433498,0,0.3,0,0,0,0,
6.38224E+17,8.552266,45.89141,9.619073,-13.17792,0.707853,-43.20844,-56.82663,-0.4675641,5.673386,-70.23591,-8.374548,-36.90935,0,0,0,17.11621,-12.37693,-54.5331,-122.6469,-110.435,-88.17352,0.001067912,-0.1257102,0.09433498,0,0.3,0,0,0,0,
6.38224E+17,9.659584,47.45775,11.1133,-10.54109,0.1951368,-44.01414,-56.82663,-0.4675641,5.673386,-70.30915,-8.447793,-36.90935,0,0,0,19.44156,-9.249937,-54.12714,-122.6469,-110.435,-88.17352,0.001067912,-0.1257102,0.09433498,0,0.3,0,0,0,0,
6.38224E+17,10.57842,54.5881,17.67388,-4.315253,-2.661425,-45.11281,-56.82663,-0.4675641,5.673386,-70.23591,-8.447793,-36.90935,0,0,0,21.61753,4.975373,-52.59669,-122.6469,-110.435,-88.17352,0.001067912,-0.1257102,0.09433498,0,0.3,0,0,0,0,
6.38224E+17,10.10722,57.2766,20.28877,-2.99684,-4.053083,-45.2593,-56.82663,-0.4675641,5.673386,-70.30915,-8.521038,-36.90935,0,0,0,20.76517,10.45948,-51.86006,-122.6469,-110.435,-88.17352,0.001067912,-0.1257102,0.09433498,0,0.3,0,0,0,0,
6.38224E+17,7.609867,63.54195,27.03613,-1.165711,-8.521038,-45.18605,-56.82663,-0.4675641,5.673386,-70.23591,-8.447793,-36.83611,0,0,0,15.89491,23.95552,-49.37949,-122.6469,-110.435,-88.17352,0.001067912,-0.1257102,0.09433498,0,0.3,0,0,0,0,
6.38224E+17,4.099433,68.84881,34.20374,-1.605182,-14.30741,-43.94089,-56.82663,-0.4675641,5.673386,-70.30915,-8.447793,-36.90935,0,0,0,8.79853,37.43011,-45.58716,-122.6469,-110.435,-88.17352,0.001067912,-0.1257102,0.09433498,0,0.3,0,0,0,0,
6.38224E+17,2.426676,70.95284,37.86926,-2.85035,-17.74993,-42.62248,-56.82663,-0.4675641,5.673386,-70.30915,-8.447793,-36.83611,0,0,0,5.308555,44.13084,-43.0857,-122.6469,-110.435,-88.17352,0.001067912,-0.1257102,0.09433498,0,0.3,0,0,0,0,
6.38224E+17,-0.6832389,73.94525,44.54658,-6.659099,-24.85471,-38.88697,-56.82663,-0.4675641,5.673386,-70.30915,-8.447793,-36.90935,0,0,0,-1.555218,56.46314,-37.93703,-122.6469,-110.435,-88.17352,0.001067912,-0.1257102,0.09433498,0,0.3,0,0,0,0,
6.38224E+17,-3.628234,75.30119,50.24332,-12.44547,-31.73976,-33.54007,-56.82663,-0.4675641,5.673386,-70.23591,-8.374548,-36.83611,0,0,0,-8.62861,67.05471,-32.27225,-122.6469,-110.435,-88.17352,0.001067912,-0.1257102,0.09433498,0,0.3,0,0,0,0,
6.38224E+17,-4.735552,75.48822,52.36792,-16.03448,-34.59632,-30.46378,-56.82663,-0.4675641,5.673386,-70.23591,-8.447793,-36.90935,0,0,0,-11.47714,71.02361,-29.8036,-122.6469,-110.435,-88.17352,0.001067912,-0.1257102,0.09433498,0,0.3,0,0,0,0,
6.38224E+17,-6.973749,75.44146,55.44976,-24.09145,-39.06427,-22.77304,-56.82663,-0.4675641,5.673386,-70.30915,-8.447793,-36.90935,0,0,0,-17.4049,76.79169,-26.05952,-122.6469,-110.435,-88.17352,0.001067912,-0.1257102,0.09433498,0,0.3,0,0,0,0,
6.38224E+17,-10.1779,75.04404,57.38758,-33.83306,-41.62786,-14.49633,-56.82663,-0.4675641,5.673386,-70.30915,-8.447793,-36.90935,0,0,0,-25.92971,80.31326,-23.91916,-122.6469,-110.435,-88.17352,0.001067912,-0.1257102,0.09433498,0,0.3,0,0,0,0,
6.38224E+17,-13.73546,74.31931,57.78448,-43.20844,-42.14057,-7.611286,-56.82663,-0.4675641,5.673386,-70.30915,-8.447793,-36.83611,0,0,0,-35.34568,80.64748,-23.74518,-122.6469,-110.435,-88.17352,0.001067912,-0.1257102,0.09433498,0,0.3,0,0,0,0,
6.38224E+17,-15.83229,73.8985,57.5977,-47.5299,-41.55461,-4.681479,-56.82663,-0.4675641,5.673386,-70.30915,-8.447793,-36.83611,0,0,0,-40.80648,80.01192,-24.45256,-122.6469,-110.435,-88.17352,0.001067912,-0.1257102,0.09433498,0,0.3,0,0,0,0,
6.38224E+17,-20.30869,72.70621,56.31361,-54.92767,-39.35725,-0.2867693,-56.82663,-0.4675641,5.673386,-70.23591,-8.447793,-36.83611,0,0,0,-52.26985,76.70949,-27.11205,-122.6469,-110.435,-88.17352,0.001067912,-0.1257102,0.09433498,0,0.3,0,0,0,0,
6.38224E+17,-25.3034,70.53204,52.88156,-60.42105,-35.695,2.276812,-56.82663,-0.4675641,5.673386,-70.23591,-8.447793,-36.83611,0,0,0,-64.44286,68.6041,-32.04099,-122.6469,-110.435,-88.17352,0.001067912,-0.1257102,0.09433498,0,0.3,0,0,0,0,
6.38224E+17,-27.6594,68.94232,50.29001,-61.9592,-33.2779,2.643037,-56.82663,-0.4675641,5.673386,-70.30915,-8.447793,-36.90935,0,0,0,-69.86346,62.5972,-35.05027,-122.6469,-110.435,-88.17352,0.001067912,-0.1257102,0.09433498,0,0.3,0,0,0,0,
6.38224E+17,-31.87663,64.3602,43.70608,-62.47192,-27.2718,1.69085,-56.82663,-0.4675641,5.673386,-70.23591,-8.447793,-36.83611,0,0,0,-79.13013,47.17142,-41.10646,-122.6469,-110.435,-88.17352,0.001067912,-0.1257102,0.09433498,0,0.3,0,0,0,0,
6.38224E+17,-35.50486,58.04808,36.32835,-60.86052,-19.87404,-1.678428,-56.82663,-0.4675641,5.673386,-70.30915,-8.447793,-36.90935,0,0,0,-86.86487,29.065,-46.5918,-122.6469,-110.435,-88.17352,0.001067912,-0.1257102,0.09433498,0,0.3,0,0,0,0,
6.38224E+17,-37.10694,54.35432,32.94299,-60.12807,-15.77231,-3.949028,-56.82663,-0.4675641,5.673386,-70.23591,-8.447793,-36.90935,0,0,0,-90.63374,19.80614,-48.54088,-122.6469,-110.435,-88.17352,0.001067912,-0.1257102,0.09433498,0,0.3,0,0,0,0,
6.38224E+17,-39.7221,45.91479,26.45245,-59.39562,-6.177193,-9.66215,-56.82663,-0.4675641,5.673386,-70.23591,-8.447793,-36.90935,0,0,0,-97.2507,-0.2527387,-51.30283,-122.6469,-110.435,-88.17352,0.001067912,-0.1257102,0.09433498,0,0.3,0,0,0,0,
6.38224E+17,-40.66449,39.55592,21.3861,-59.39562,1.367059,-13.83713,-56.82663,-0.4675641,5.673386,-70.30915,-8.447793,-36.90935,0,0,0,-98.68228,-15.89668,-53.47734,-122.6469,-110.435,-88.17352,0.001067912,-0.1257102,0.09433498,0,0.3,0,0,0,0,
6.38224E+17,-40.68805,36.39986,19.1681,-59.46887,5.322299,-16.25422,-56.82663,-0.4675641,5.673386,-70.30915,-8.521038,-36.83611,0,0,0,-98.51929,-23.47483,-53.76244,-122.6469,-110.435,-88.17352,0.001067912,-0.1257102,0.09433498,0,0.3,0,0,0,0,
6.38224E+17,-40.26397,31.04625,15.57263,-59.54211,13.23278,-21.23489,-56.82663,-0.4675641,5.673386,-70.30915,-8.447793,-36.83611,0,0,0,-96.97681,-36.33227,-53.853,-122.6469,-110.435,-88.17352,0.001067912,-0.1257102,0.09433498,0,0.3,0,0,0,0,
6.38224E+17,-39.32158,27.79668,12.56083,-59.61535,19.67835,-25.48311,-56.82663,-0.4675641,5.673386,-70.30915,-8.447793,-36.90935,0,0,0,-93.1263,-44.62253,-54.65926,-122.6469,-110.435,-88.17352,0.001067912,-0.1257102,0.09433498,0,0.3,0,0,0,0,
6.38224E+17,-37.41322,25.85629,9.852547,-59.17588,24.65902,-29.14537,-56.82663,-0.4675641,5.673386,-70.30915,-8.447793,-36.90935,0,0,0,-86.7706,-49.87728,-54.91302,-122.6469,-110.435,-88.17352,0.001067912,-0.1257102,0.09433498,0,0.3,0,0,0,0,
6.38224E+17,-34.53891,25.06143,7.190958,-57.93071,28.834,-32.51464,-56.82663,-0.4675641,5.673386,-70.30915,-8.447793,-36.83611,0,0,0,-77.95095,-52.46544,-55.09548,-122.6469,-110.435,-88.17352,0.001067912,-0.1257102,0.09433498,0,0.3,0,0,0,0,
6.38224E+17,-32.55987,25.08481,5.813469,-56.83204,30.51864,-33.9063,-56.82663,-0.4675641,5.673386,-70.30915,-8.447793,-36.90935,0,0,0,-72.26669,-52.77919,-55.17515,-122.6469,-110.435,-88.17352,0.001067912,-0.1257102,0.09433498,0,0.3,0,0,0,0,
6.38224E+17,-28.13059,25.34197,3.408701,-53.46276,33.08222,-35.81068,-56.82663,-0.4675641,5.673386,-70.23591,-8.447793,-36.83611,0,0,0,-60.56025,-52.68761,-55.07635,-122.6469,-110.435,-88.17352,0.001067912,-0.1257102,0.09433498,0,0.3,0,0,0,0,
6.38224E+17,-22.594,26.25372,1.190711,-48.62858,35.6458,-37.49532,-56.82663,-0.4675641,5.673386,-70.23591,-8.447793,-36.90935,0,0,0,-47.01255,-50.98424,-55.37627,-122.6469,-110.435,-88.17352,0.001067912,-0.1257102,0.09433498,0,0.3,0,0,0,0,
6.38224E+17,-15.92653,28.82533,-0.3969035,-42.03651,37.69667,-38.74048,-56.82663,-0.4675641,5.673386,-70.30915,-8.447793,-36.83611,0,0,0,-31.80441,-45.7033,-56.89568,-122.6469,-110.435,-88.17352,0.001067912,-0.1257102,0.09433498,0,0.3,0,0,0,0,
6.38224E+17,-12.39254,30.71896,-0.6303762,-38.15452,38.42912,-39.03346,-56.82663,-0.4675641,5.673386,-70.30915,-8.447793,-36.83611,0,0,0,-24.28756,-41.87309,-57.81521,-122.6469,-110.435,-88.17352,0.001067912,-0.1257102,0.09433498,0,0.3,0,0,0,0,
6.38224E+17,-5.088952,35.48811,0.1400836,-29.14537,38.06289,-38.88697,-56.82663,-0.4675641,5.673386,-70.30915,-8.447793,-36.83611,0,0,0,-9.660063,-32.58539,-59.87488,-122.6469,-110.435,-88.17352,0.001067912,-0.1257102,0.09433498,0,0.3,0,0,0,0,
6.38224E+17,2.332436,40.79496,2.801672,-19.55025,35.71904,-38.52075,-56.82663,-0.4675641,5.673386,-70.30915,-8.447793,-36.90935,0,0,0,4.373794,-22.71584,-60.96809,-122.6469,-110.435,-88.17352,0.001067912,-0.1257102,0.09433498,0,0.3,0,0,0,0,
6.38224E+17,5.98423,43.41333,4.809536,-14.78931,33.81467,-38.4475,-56.82663,-0.4675641,5.673386,-70.30915,-8.447793,-36.83611,0,0,0,11.26451,-17.88482,-60.89081,-122.6469,-110.435,-88.17352,0.001067912,-0.1257102,0.09433498,0,0.3,0,0,0,0,
6.38224E+17,13.64122,48.3695,10.03932,-5.706912,28.68751,-38.96022,-56.82663,-0.4675641,5.673386,-70.30915,-8.447793,-36.83611,0,0,0,26.37501,-8.286454,-59.67091,-122.6469,-110.435,-88.17352,0.001067912,-0.1257102,0.09433498,0,0.3,0,0,0,0,
6.38224E+17,20.68565,52.20353,16.13296,2.569792,22.82789,-41.67029,-56.82663,-0.4675641,5.673386,-70.30915,-8.447793,-36.90935,0,0,0,41.95729,0.6235971,-57.22906,-122.6469,-110.435,-88.17352,0.001067912,-0.1257102,0.09433498,0,0.3,0,0,0,0,
6.38224E+17,28.36619,55.33621,25.35513,12.60438,14.62444,-48.04262,-56.82663,-0.4675641,5.673386,-70.23591,-8.447793,-36.90935,0,0,0,63.1644,12.52634,-51.36495,-122.6469,-110.435,-88.17352,0.001067912,-0.1257102,0.09433498,0,0.3,0,0,0,0,
6.38224E+17,31.75883,55.75702,30.39814,18.61049,9.8635,-53.16978,-56.82663,-0.4675641,5.673386,-70.30915,-8.447793,-36.83611,0,0,0,75.01068,18.56654,-47.17581,-122.6469,-110.435,-88.17352,0.001067912,-0.1257102,0.09433498,0,0.3,0,0,0,0,
6.38224E+17,33.50227,55.40634,33.19981,22.34599,7.006938,-57.05178,-56.82663,-0.4675641,5.673386,-70.23591,-8.447793,-36.90935,0,0,0,82.09283,21.54085,-44.33191,-122.6469,-110.435,-88.17352,0.001067912,-0.1257102,0.09433498,0,0.3,0,0,0,0,
6.38224E+17,36.11742,53.27893,37.89261,28.86481,2.538982,-65.32848,-56.82663,-0.4675641,5.673386,-70.30915,-8.447793,-36.90935,0,0,0,95.27386,25.00254,-37.78033,-122.6469,-110.435,-88.17352,0.001067912,-0.1257102,0.09433498,0,0.3,0,0,0,0,
6.38224E+17,37.81374,49.86571,41.88499,34.28495,0.04864649,-72.28677,-56.82663,-0.4675641,5.673386,-70.30915,-8.447793,-36.83611,0,0,0,107.2823,26.02358,-30.11092,-122.6469,-110.435,-88.17352,0.001067912,-0.1257102,0.09433498,0,0.3,0,0,0,0,
6.38224E+17,38.75614,45.7979,44.92014,38.53317,-0.6838052,-77.26745,-56.82663,-0.4675641,5.673386,-70.30915,-8.447793,-36.83611,0,0,0,117.1457,24.5226,-22.42148,-122.6469,-110.435,-88.17352,0.001067912,-0.1257102,0.09433498,0,0.3,0,0,0,0,
6.38224E+17,38.99174,41.47293,46.22758,41.17,0.04864649,-80.19725,-56.82663,-0.4675641,5.673386,-70.30915,-8.447793,-36.83611,0,0,0,123.4545,19.41225,-15.85139,-122.6469,-110.435,-88.17352,0.001067912,-0.1257102,0.09433498,0,0.3,0,0,0,0,
6.38224E+17,38.96818,39.32214,46.39102,41.8292,0.8543434,-81.00294,-56.82663,-0.4675641,5.673386,-70.30915,-8.447793,-36.90935,0,0,0,125.5971,15.8753,-13.07418,-122.6469,-110.435,-88.17352,0.001067912,-0.1257102,0.09433498,0,0.3,0,0,0,0,
6.38224E+17,38.85038,35.1842,46.32097,42.19543,3.051698,-81.95513,-56.82663,-0.4675641,5.673386,-70.30915,-8.447793,-36.90935,0,0,0,128.8632,8.093319,-8.364727,-122.6469,-110.435,-88.17352,0.001067912,-0.1257102,0.09433498,0,0.3,0,0,0,0,
6.38224E+17,38.75614,31.35017,45.45713,41.97569,5.76177,-82.17487,-56.82663,-0.4675641,5.673386,-70.30915,-8.447793,-36.83611,0,0,0,130.7875,-0.8097764,-5.427918,-122.6469,-110.435,-88.17352,0.001067912,-0.1257102,0.09433498,0,0.3,0,0,0,0,
6.38224E+17,38.49697,27.32912,43.26248,41.38973,8.984557,-82.02838,-56.82663,-0.4675641,5.673386,-70.23591,-8.447793,-36.83611,0,0,0,130.63,-12.53723,-4.107838,-122.6469,-110.435,-88.17352,0.001067912,-0.1257102,0.09433498,0,0.3,0,0,0,0,
6.38224E+17,38.28493,24.80427,41.62818,40.80377,10.81569,-81.66216,-56.82663,-0.4675641,5.673386,-70.30915,-8.447793,-36.83611,0,0,0,129.882,-20.38236,-3.801968,-122.6469,-110.435,-88.17352,0.001067912,-0.1257102,0.09433498,0,0.3,0,0,0,0,
6.38224E+17,37.46034,19.42729,38.31286,39.11913,14.55119,-81.14944,-56.82663,-0.4675641,5.673386,-70.23591,-8.447793,-36.90935,0,0,0,126.7688,-36.92779,-2.904634,-122.6469,-110.435,-88.17352,0.001067912,-0.1257102,0.09433498,0,0.3,0,0,0,0,
6.38224E+17,35.97606,13.88665,35.25437,36.92178,18.72616,-80.41698,-56.82663,-0.4675641,5.673386,-70.30915,-8.447793,-36.83611,0,0,0,121.2627,-53.53902,-1.299506,-122.6469,-110.435,-88.17352,0.001067912,-0.1257102,0.09433498,0,0.3,0,0,0,0,
6.38224E+17,35.08078,11.17478,33.76015,35.53012,20.92352,-79.90427,-56.82663,-0.4675641,5.673386,-70.30915,-8.447793,-36.90935,0,0,0,117.7777,-61.66978,-0.649779,-122.6469,-110.435,-88.17352,0.001067912,-0.1257102,0.09433498,0,0.3,0,0,0,0,
6.38224E+17,32.98395,6.24198,31.07521,32.89329,25.53797,-79.09857,-56.82663,-0.4675641,5.673386,-70.30915,-8.447793,-36.83611,0,0,0,109.6374,-76.36417,0.5803873,-122.6469,-110.435,-88.17352,0.001067912,-0.1257102,0.09433498,0,0.3,0,0,0,0,
6.38224E+17,30.48659,2.454711,28.50701,30.03673,29.85943,-77.99989,-56.82663,-0.4675641,5.673386,-70.23591,-8.447793,-36.90935,0,0,0,99.87993,-88.12113,1.303261,-122.6469,-110.435,-88.17352,0.001067912,-0.1257102,0.09433498,0,0.3,0,0,0,0,
6.38224E+17,26.81124,-0.9117499,25.02827,26.30123,34.40063,-76.02227,-56.82663,-0.4675641,5.673386,-70.30915,-8.447793,-36.83611,0,0,0,85.58672,-99.60023,1.000382,-122.6469,-110.435,-88.17352,0.001067912,-0.1257102,0.09433498,0,0.3,0,0,0,0,
6.38224E+17,24.17252,-1.16891,21.87639,23.95738,37.03746,-74.41088,-56.82663,-0.4675641,5.673386,-70.30915,-8.447793,-36.90935,0,0,0,74.93961,-103.1178,-1.387686,-122.6469,-110.435,-88.17352,0.001067912,-0.1257102,0.09433498,0,0.3,0,0,0,0,
6.38224E+17,22.31128,-0.9818845,18.72451,22.34599,38.7221,-73.53194,-56.82663,-0.4675641,5.673386,-70.30915,-8.447793,-36.90935,0,0,0,66.86881,-105.2273,-5.398405,-122.6469,-110.435,-88.17352,0.001067912,-0.1257102,0.09433498,0,0.3,0,0,0,0,
6.38224E+17,18.09405,-1.145532,14.89556,19.48943,41.6519,-72.06703,-56.82663,-0.4675641,5.673386,-70.30915,-8.447793,-36.83611,0,0,0,52.05345,-108.1848,-9.036246,-122.6469,-110.435,-88.17352,0.001067912,-0.1257102,0.09433498,0,0.3,0,0,0,0,
6.38224E+17,14.08886,-1.028641,11.25338,16.48637,44.58171,-70.01617,-56.82663,-0.4675641,5.673386,-70.23591,-8.447793,-36.83611,0,0,0,38.79036,-109.8301,-13.79187,-122.6469,-110.435,-88.17352,0.001067912,-0.1257102,0.09433498,0,0.3,0,0,0,0,
6.38224E+17,9.777385,-0.6779679,8.70853,13.26359,47.43827,-67.81882,-56.82663,-0.4675641,5.673386,-70.30915,-8.447793,-36.83611,0,0,0,26.0727,-110.0405,-17.04912,-122.6469,-110.435,-88.17352,0.001067912,-0.1257102,0.09433498,0,0.3,0,0,0,0,
6.38224E+17,7.562747,-0.2104038,7.167611,11.43246,48.68344,-67.01311,-56.82663,-0.4675641,5.673386,-70.23591,-8.374548,-36.83611,0,0,0,19.74014,-109.4476,-19.6672,-122.6469,-110.435,-88.17352,0.001067912,-0.1257102,0.09433498,0,0.3,0,0,0,0,
6.38224E+17,3.557554,1.706609,4.342592,7.989935,50.51457,-66.06093,-56.82663,-0.4675641,5.673386,-70.30915,-8.447793,-36.90935,0,0,0,8.897396,-105.6458,-25.2382,-122.6469,-110.435,-88.17352,0.001067912,-0.1257102,0.09433498,0,0.3,0,0,0,0,
6.38224E+17,-0.6596789,5.493878,1.400836,3.96145,51.75974,-64.88901,-56.82663,-0.4675641,5.673386,-70.30915,-8.447793,-36.90935,0,0,0,-1.565781,-97.1933,-32.36159,-122.6469,-110.435,-88.17352,0.001067912,-0.1257102,0.09433498,0,0.3,0,0,0,0,
6.38224E+17,-3.227715,8.626557,-0.2101254,1.324624,52.12596,-64.2298,-56.82663,-0.4675641,5.673386,-70.23591,-8.447793,-36.90935,0,0,0,-7.395723,-89.99745,-37.20601,-122.6469,-110.435,-88.17352,0.001067912,-0.1257102,0.09433498,0,0.3,0,0,0,0,
6.38224E+17,-6.314069,12.92815,-1.54092,-2.117898,51.90622,-63.49735,-56.82663,-0.4675641,5.673386,-70.23591,-8.447793,-36.90935,0,0,0,-13.89949,-80.11752,-42.73278,-122.6469,-110.435,-88.17352,0.001067912,-0.1257102,0.09433498,0,0.3,0,0,0,0,
6.38224E+17,-10.46062,18.95972,-2.007865,-6.80559,50.22158,-62.7649,-56.82663,-0.4675641,5.673386,-70.30915,-8.447793,-36.90935,0,0,0,-22.0492,-66.59225,-48.92515,-122.6469,-110.435,-88.17352,0.001067912,-0.1257102,0.09433498,0,0.3,0,0,0,0,
6.38224E+17,-14.7721,24.9913,-1.237405,-11.49328,46.92556,-62.17894,-56.82663,-0.4675641,5.673386,-70.30915,-8.447793,-36.83611,0,0,0,-30.08321,-53.63111,-54.26469,-122.6469,-110.435,-88.17352,0.001067912,-0.1257102,0.09433498,0,0.3,0,0,0,0,
6.38224E+17,-19.22493,30.4618,0.9805852,-16.25422,42.53085,-61.9592,-56.82663,-0.4675641,5.673386,-70.30915,-8.447793,-36.83611,0,0,0,-38.5997,-42.37685,-57.66184,-122.6469,-110.435,-88.17352,0.001067912,-0.1257102,0.09433498,0,0.3,0,0,0,0,
6.38224E+17,-21.51024,32.98664,2.498158,-18.8178,40.11375,-61.73947,-56.82663,-0.4675641,5.673386,-70.30915,-8.447793,-36.83611,0,0,0,-43.14431,-37.27172,-58.87919,-122.6469,-110.435,-88.17352,0.001067912,-0.1257102,0.09433498,0,0.3,0,0,0,0,
6.38224E+17,-25.96308,37.84931,6.257067,-23.87171,34.8401,-60.86052,-56.82663,-0.4675641,5.673386,-70.30915,-8.447793,-36.83611,0,0,0,-52.46083,-27.38381,-60.61319,-122.6469,-110.435,-88.17352,0.001067912,-0.1257102,0.09433498,0,0.3,0,0,0,0,
6.38224E+17,-29.87403,42.78211,10.87983,-28.63265,29.12698,-59.24913,-56.82663,-0.4675641,5.673386,-70.30915,-8.447793,-36.90935,0,0,0,-61.28604,-17.03012,-61.65843,-122.6469,-110.435,-88.17352,0.001067912,-0.1257102,0.09433498,0,0.3,0,0,0,0,
6.38224E+17,-31.80595,45.82128,14.0784,-31.41597,25.61121,-58.07721,-56.82663,-0.4675641,5.673386,-70.30915,-8.447793,-36.83611,0,0,0,-66.07485,-10.36012,-61.80686,-122.6469,-110.435,-88.17352,0.001067912,-0.1257102,0.09433498,0,0.3,0,0,0,0,
6.38224E+17,-34.3033,50.54368,19.6117,-35.44445,19.67835,-55.87985,-56.82663,-0.4675641,5.673386,-70.30915,-8.447793,-36.90935,0,0,0,-72.98318,0.6965435,-61.3739,-122.6469,-110.435,-88.17352,0.001067912,-0.1257102,0.09433498,0,0.3,0,0,0,0,
6.38224E+17,-36.68286,54.79851,26.10224,-39.83916,12.86655,-52.58382,-56.82663,-0.4675641,5.673386,-70.23591,-8.447793,-36.83611,0,0,0,-80.96999,12.56459,-59.65257,-122.6469,-110.435,-88.17352,0.001067912,-0.1257102,0.09433498,0,0.3,0,0,0,0,
6.38224E+17,-39.2509,56.71552,31.98576,-45.2593,6.347731,-48.40885,-56.82663,-0.4675641,5.673386,-70.30915,-8.447793,-36.83611,0,0,0,-90.99654,21.71996,-56.97935,-122.6469,-110.435,-88.17352,0.001067912,-0.1257102,0.09433498,0,0.3,0,0,0,0,
6.38224E+17,-40.71161,56.5285,34.41387,-48.26236,3.710905,-45.91851,-56.82663,-0.4675641,5.673386,-70.30915,-8.447793,-36.83611,0,0,0,-97.12716,24.57462,-55.47554,-122.6469,-110.435,-88.17352,0.001067912,-0.1257102,0.09433498,0,0.3,0,0,0,0,
6.38224E+17,-43.84509,53.81662,37.82257,-55.1474,0.1951368,-40.79135,-56.82663,-0.4675641,5.673386,-70.30915,-8.447793,-36.83611,0,0,0,-111.1792,25.64604,-52.59588,-122.6469,-110.435,-88.17352,0.001067912,-0.1257102,0.09433498,0,0.3,0,0,0,0,
6.38224E+17,-46.29532,48.74355,38.10274,-61.37324,-0.4640697,-37.42207,-56.82663,-0.4675641,5.673386,-70.30915,-8.447793,-36.83611,0,0,0,-123.0552,18.66409,-50.73671,-122.6469,-110.435,-88.17352,0.001067912,-0.1257102,0.09433498,0,0.3,0,0,0,0,
6.38224E+17,-47.4262,45.23682,37.49571,-64.44954,0.1218917,-36.32339,-56.82663,-0.4675641,5.673386,-70.30915,-8.447793,-36.90935,0,0,0,-128.9246,12.23188,-49.90654,-122.6469,-110.435,-88.17352,0.001067912,-0.1257102,0.09433498,0,0.3,0,0,0,0,
6.38224E+17,-48.9576,37.14796,35.8147,-68.84425,3.124943,-35.07822,-56.82663,-0.4675641,5.673386,-70.30915,-8.447793,-36.83611,0,0,0,-139.0203,-4.258543,-47.32077,-122.6469,-110.435,-88.17352,0.001067912,-0.1257102,0.09433498,0,0.3,0,0,0,0,
6.38224E+17,-49.0754,28.21749,33.26986,-71.1881,7.959125,-34.93173,-56.82663,-0.4675641,5.673386,-70.30915,-8.447793,-36.83611,0,0,0,-144.0545,-25.0929,-43.4578,-122.6469,-110.435,-88.17352,0.001067912,-0.1257102,0.09433498,0,0.3,0,0,0,0,
6.38224E+17,-47.94452,19.63769,30.93513,-70.89511,14.25821,-35.15147,-56.82663,-0.4675641,5.673386,-70.30915,-8.447793,-36.83611,0,0,0,-144.1518,-46.21585,-38.30215,-122.6469,-110.435,-88.17352,0.001067912,-0.1257102,0.09433498,0,0.3,0,0,0,0,
6.38224E+17,-46.17752,12.32031,28.76383,-68.55127,20.70378,-35.66418,-56.82663,-0.4675641,5.673386,-70.30915,-8.447793,-36.83611,0,0,0,-140.2913,-65.09223,-33.70978,-122.6469,-110.435,-88.17352,0.001067912,-0.1257102,0.09433498,0,0.3,0,0,0,0,
6.38224E+17,-45.21157,9.164255,27.68986,-67.23285,23.63359,-36.54313,-56.82663,-0.4675641,5.673386,-70.30915,-8.447793,-36.90935,0,0,0,-137.4101,-73.49018,-31.95091,-122.6469,-110.435,-88.17352,0.001067912,-0.1257102,0.09433498,0,0.3,0,0,0,0,
6.38224E+17,-42.43149,3.319705,25.16835,-63.64384,28.98049,-40.57161,-56.82663,-0.4675641,5.673386,-70.30915,-8.447793,-36.83611,0,0,0,-128.0847,-89.61808,-28.23405,-122.6469,-110.435,-88.17352,0.001067912,-0.1257102,0.09433498,0,0.3,0,0,0,0,
6.38224E+17,-38.47342,-0.1636474,21.7363,-59.61535,33.30195,-44.74659,-56.82663,-0.4675641,5.673386,-70.23591,-8.447793,-36.83611,0,0,0,-113.688,-100.8994,-25.28837,-122.6469,-110.435,-88.17352,0.001067912,-0.1257102,0.09433498,0,0.3,0,0,0,0,
6.38224E+17,-36.23522,-1.122154,20.03195,-57.19827,35.20633,-46.28474,-56.82663,-0.4675641,5.673386,-70.23591,-8.447793,-36.90935,0,0,0,-105.8088,-104.5441,-23.96695,-122.6469,-110.435,-88.17352,0.001067912,-0.1257102,0.09433498,0,0.3,0,0,0,0,
6.38224E+17,-31.92375,-0.9351282,15.99288,-51.85137,38.86858,-48.40885,-56.82663,-0.4675641,5.673386,-70.23591,-8.447793,-36.83611,0,0,0,-89.93269,-107.0151,-24.00049,-122.6469,-110.435,-88.17352,0.001067912,-0.1257102,0.09433498,0,0.3,0,0,0,0,
6.38224E+17,-27.47091,0.1402692,12.86434,-47.5299,41.79839,-51.04567,-56.82663,-0.4675641,5.673386,-70.30915,-8.447793,-36.83611,0,0,0,-75.20966,-106.3264,-23.69435,-122.6469,-110.435,-88.17352,0.001067912,-0.1257102,0.09433498,0,0.3,0,0,0,0,
6.38224E+17,-24.92644,1.192288,10.83313,-45.40579,43.40979,-52.73031,-56.82663,-0.4675641,5.673386,-70.30915,-8.447793,-36.90935,0,0,0,-66.75169,-104.8488,-24.71938,-122.6469,-110.435,-88.17352,0.001067912,-0.1257102,0.09433498,0,0.3,0,0,0,0,
6.38224E+17,-19.43697,4.582128,5.836816,-41.15757,46.04661,-56.17283,-56.82663,-0.4675641,5.673386,-70.30915,-8.447793,-36.90935,0,0,0,-48.74572,-98.65559,-30.21355,-122.6469,-110.435,-88.17352,0.001067912,-0.1257102,0.09433498,0,0.3,0,0,0,0,
6.38224E+17,-12.98154,10.02925,0.5836816,-35.66418,47.87774,-59.39562,-56.82663,-0.4675641,5.673386,-70.23591,-8.447793,-36.83611,0,0,0,-29.80276,-86.77006,-39.07002,-122.6469,-110.435,-88.17352,0.001067912,-0.1257102,0.09433498,0,0.3,0,0,0,0,
6.38224E+17,-5.348111,17.41676,-2.171296,-26.65503,48.68344,-60.20132,-56.82663,-0.4675641,5.673386,-70.23591,-8.447793,-36.90935,0,0,0,-11.38836,-69.98994,-46.69787,-122.6469,-110.435,-88.17352,0.001067912,-0.1257102,0.09433498,0,0.3,0,0,0,0,
6.38224E+17,2.544476,26.60439,-1.564267,-14.9358,46.55933,-57.418,-56.82663,-0.4675641,5.673386,-70.23591,-8.447793,-36.83611,0,0,0,5.131634,-50.23248,-52.87329,-122.6469,-110.435,-88.17352,0.001067912,-0.1257102,0.09433498,0,0.3,0,0,0,0,
6.38224E+17,5.088952,30.22802,-0.4435981,-10.46785,44.94794,-56.53906,-56.82663,-0.4675641,5.673386,-70.30915,-8.447793,-36.90935,0,0,0,10.12854,-42.86195,-54.61428,-122.6469,-110.435,-88.17352,0.001067912,-0.1257102,0.09433498,0,0.3,0,0,0,0,
6.38224E+17,10.31926,40.04686,4.506022,-0.4332596,39.08832,-55.29389,-56.82663,-0.4675641,5.673386,-70.30915,-8.447793,-36.83611,0,0,0,20.16292,-23.78858,-57.61227,-122.6469,-110.435,-88.17352,0.001067912,-0.1257102,0.09433498,0,0.3,0,0,0,0,
6.38224E+17,13.09934,49.02409,10.83313,6.598277,31.54407,-55.29389,-56.82663,-0.4675641,5.673386,-70.30915,-8.447793,-36.83611,0,0,0,25.49841,-6.946234,-58.77139,-122.6469,-110.435,-88.17352,0.001067912,-0.1257102,0.09433498,0,0.3,0,0,0,0,
6.38224E+17,13.61766,53.3023,14.24183,9.235103,27.36909,-55.80661,-56.82663,-0.4675641,5.673386,-70.30915,-8.447793,-36.83611,0,0,0,26.48604,1.018366,-59.01728,-122.6469,-110.435,-88.17352,0.001067912,-0.1257102,0.09433498,0,0.3,0,0,0,0,
6.38224E+17,13.40562,61.25089,21.31605,12.53114,18.72616,-57.5645,-56.82663,-0.4675641,5.673386,-70.30915,-8.447793,-36.83611,0,0,0,26.10843,16.03506,-58.80594,-122.6469,-110.435,-88.17352,0.001067912,-0.1257102,0.09433498,0,0.3,0,0,0,0,
6.38224E+17,12.2983,68.87218,29.16073,14.21577,9.570518,-59.61535,-56.82663,-0.4675641,5.673386,-70.23591,-8.447793,-36.83611,0,0,0,24.07816,31.28732,-57.90185,-122.6469,-110.435,-88.17352,0.001067912,-0.1257102,0.09433498,0,0.3,0,0,0,0,
6.38224E+17,10.13078,75.41808,36.56182,15.09472,0.268382,-61.08026,-56.82663,-0.4675641,5.673386,-70.23591,-8.447793,-36.83611,0,0,0,19.87761,45.29595,-57.10398,-122.6469,-110.435,-88.17352,0.001067912,-0.1257102,0.09433498,0,0.3,0,0,0,0,
6.38224E+17,8.434465,78.48063,40.36742,15.24121,-4.785534,-61.51973,-56.82663,-0.4675641,5.673386,-70.30915,-8.447793,-36.90935,0,0,0,16.57447,52.4137,-56.57324,-122.6469,-110.435,-88.17352,0.001067912,-0.1257102,0.09433498,0,0.3,0,0,0,0,
6.38224E+17,4.193673,84.0914,48.09537,14.50875,-15.40608,-61.88596,-56.82663,-0.4675641,5.673386,-70.30915,-8.447793,-36.90935,0,0,0,8.261574,66.92806,-55.67844,-122.6469,-110.435,-88.17352,0.001067912,-0.1257102,0.09433498,0,0.3,0,0,0,0,
6.38224E+17,0.09423985,87.59813,53.93219,12.60438,-24.26875,-60.56754,-56.82663,-0.4675641,5.673386,-70.30915,-8.447793,-36.83611,0,0,0,0.1864836,78.07404,-54.97211,-122.6469,-110.435,-88.17352,0.001067912,-0.1257102,0.09433498,0,0.3,0,0,0,0,
6.38224E+17,-2.379556,88.86055,56.47704,10.77325,-28.80995,-58.66317,-56.82663,-0.4675641,5.673386,-70.23591,-8.447793,-36.90935,0,0,0,-4.725749,83.02827,-54.6272,-122.6469,-110.435,-88.17352,0.001067912,-0.1257102,0.09433498,0,0.3,0,0,0,0,
6.38224E+17,-7.916147,90.49702,61.02975,3.448734,-37.59937,-49.87375,-56.82663,-0.4675641,5.673386,-70.30915,-8.447793,-36.83611,0,0,0,-15.9081,92.10619,-53.94337,-122.6469,-110.435,-88.17352,0.001067912,-0.1257102,0.09433498,0,0.3,0,0,0,0,
6.38224E+17,-13.31138,90.94121,64.0649,-10.17487,-43.45898,-34.34578,-56.82663,-0.4675641,5.673386,-70.30915,-8.447793,-36.83611,0,0,0,-27.10647,98.36101,-53.78318,-122.6469,-110.435,-88.17352,0.001067912,-0.1257102,0.09433498,0,0.3,0,0,0,0,
6.38224E+17,-18.47101,90.91783,66.51636,-30.39053,-46.38879,-13.54414,-56.82663,-0.4675641,5.673386,-70.30915,-8.447793,-36.90935,0,0,0,-38.07254,103.5446,-54.37155,-122.6469,-110.435,-88.17352,0.001067912,-0.1257102,0.09433498,0,0.3,0,0,0,0,
6.38224E+17,-22.8296,90.66068,68.10397,-50.45971,-46.46204,6.671522,-56.82663,-0.4675641,5.673386,-70.30915,-8.447793,-36.90935,0,0,0,-47.40981,106.9618,-55.72944,-122.6469,-110.435,-88.17352,0.001067912,-0.1257102,0.09433498,0,0.3,0,0,0,0,
6.38224E+17,-24.87932,90.49702,68.52423,-59.6886,-45.5831,16.12015,-56.82663,-0.4675641,5.673386,-70.30915,-8.447793,-36.83611,0,0,0,-51.71982,107.8745,-56.8238,-122.6469,-110.435,-88.17352,0.001067912,-0.1257102,0.09433498,0,0.3,0,0,0,0,
6.38224E+17,-27.94211,90.19311,69.38808,-71.70081,-43.23925,29.08454,-56.82663,-0.4675641,5.673386,-70.30915,-8.447793,-36.83611,0,0,0,-58.27455,109.7552,-58.48388,-122.6469,-110.435,-88.17352,0.001067912,-0.1257102,0.09433498,0,0.3,0,0,0,0,
6.38224E+17,-30.60439,89.95933,70.60213,-80.56348,-40.45593,38.97264,-56.82663,-0.4675641,5.673386,-70.23591,-8.447793,-36.83611,0,0,0,-64.08392,112.411,-60.00896,-122.6469,-110.435,-88.17352,0.001067912,-0.1257102,0.09433498,0,0.3,0,0,0,0,
6.38224E+17,-31.73527,89.91257,71.16247,-83.8595,-39.06427,43.00113,-56.82663,-0.4675641,5.673386,-70.30915,-8.447793,-36.83611,0,0,0,-66.49158,113.643,-60.83904,-122.6469,-110.435,-88.17352,0.001067912,-0.1257102,0.09433498,0,0.3,0,0,0,0,
6.38224E+17,-33.52582,89.91257,72.51661,-89.05991,-36.42745,49.4467,-56.82663,-0.4675641,5.673386,-70.23591,-8.447793,-36.83611,0,0,0,-70.36092,116.6376,-62.15027,-122.6469,-110.435,-88.17352,0.001067912,-0.1257102,0.09433498,0,0.3,0,0,0,0,
6.38224E+17,-34.11483,89.9827,74.38438,-93.60111,-34.23009,54.94009,-56.82663,-0.4675641,5.673386,-70.30915,-8.447793,-36.90935,0,0,0,-72.0518,120.8045,-61.98921,-122.6469,-110.435,-88.17352,0.001067912,-0.1257102,0.09433498,0,0.3,0,0,0,0,
6.38224E+17,-34.04414,90.59054,76.53234,-97.70284,-32.76519,59.99401,-56.82663,-0.4675641,5.673386,-70.23591,-8.447793,-36.83611,0,0,0,-71.83124,125.6362,-62.03259,-122.6469,-110.435,-88.17352,0.001067912,-0.1257102,0.09433498,0,0.3,0,0,0,0,
6.38224E+17,-33.73786,91.05811,77.79309,-99.97345,-32.25247,62.33785,-56.82663,-0.4675641,5.673386,-70.30915,-8.447793,-36.83611,0,0,0,-71.01965,128.4814,-62.01283,-122.6469,-110.435,-88.17352,0.001067912,-0.1257102,0.09433498,0,0.3,0,0,0,0,
6.38224E+17,-32.27715,92.62444,80.08112,-104.8076,-31.52002,66.51283,-56.82663,-0.4675641,5.673386,-70.23591,-8.447793,-36.83611,0,0,0,-66.88582,133.5901,-62.4536,-122.6469,-110.435,-88.17352,0.001067912,-0.1257102,0.09433498,0,0.3,0,0,0,0,
6.38224E+17,-29.66199,94.89213,82.27576,-109.3488,-31.73976,70.24833,-56.82663,-0.4675641,5.673386,-70.23591,-8.447793,-36.90935,0,0,0,-59.76592,138.2913,-63.40748,-122.6469,-110.435,-88.17352,0.001067912,-0.1257102,0.09433498,0,0.3,0,0,0,0,
6.38224E+17,-24.87932,98.09494,85.05409,-115.5014,-33.13141,74.56979,-56.82663,-0.4675641,5.673386,-70.30915,-8.447793,-36.90935,0,0,0,-47.99271,143.8745,-64.86076,-122.6469,-110.435,-88.17352,0.001067912,-0.1257102,0.09433498,0,0.3,0,0,0,0,
6.38224E+17,-19.95529,100.573,86.99191,-122.24,-34.81605,78.3053,-56.82663,-0.4675641,5.673386,-70.23591,-8.447793,-36.83611,0,0,0,-37.0972,147.4382,-66.17826,-122.6469,-110.435,-88.17352,0.001067912,-0.1257102,0.09433498,0,0.3,0,0,0,0,
6.38224E+17,-16.56265,101.6718,87.99585,-128.1728,-36.20771,81.16187,-56.82663,-0.4675641,5.673386,-70.30915,-8.447793,-36.83611,0,0,0,-30.2997,149.2791,-66.46916,-122.6469,-110.435,-88.17352,0.001067912,-0.1257102,0.09433498,0,0.3,0,0,0,0,
