zeyangz2/DNN_classification_different_people_hand/data/srikar_right_14.csv
Timestamp,Therapist joint angle 0,Therapist joint angle 1,Therapist joint angle 2,Therapist joint angle 3,Therapist joint angle 4,Therapist joint angle 5,Patient joint angle 0,Patient joint angle 1,Patient joint angle 2,Patient joint angle 3,Patient joint angle 4,Patient joint angle 5,Virtual joint angle 0,Virtual joint angle 1,Virtual joint angle 2,Therapist position x,Therapist position y,Therapist position z,Patient position x,Patient position y,Patient position z,Virtual position x,Virtual position y,Virtual position z,Assistive Force, Obstacle Force Magnitude, Therapist Constant Force, Patient Constant Force, Recovery Factor, Assistance Level,label
6.38224E+17,0,0,0,0,0,0,0,0,0,0,0,0,0,0,0,0,0,0,0,0,0,0,0,0,0,0.3,0,0,0,0,2
6.38224E+17,-18.65949,-0.9117499,-3.548784,-106.8585,-62.72246,69.95535,-0.612559,-1.262423,-9.175476,13.70306,-0.9767859,39.11913,0,0,0,-40.01816,-111.8662,-49.84559,-1.197964,-111.2317,-56.30258,0.001067912,-0.1257102,0.09433498,0,0.3,0,0,0,0,
6.38224E+17,-18.65949,-0.9117499,-3.548784,-106.8585,-62.72246,69.95535,-0.612559,-1.262423,-9.175476,13.70306,-0.9767859,39.19238,0,0,0,-40.01816,-111.8662,-49.84559,-1.197964,-111.2317,-56.30258,0.001067912,-0.1257102,0.09433498,0,0.3,0,0,0,0,
6.38224E+17,-18.65949,-0.9117499,-3.548784,-106.8585,-62.72246,69.95535,-0.612559,-1.262423,-9.175476,13.70306,-0.9767859,39.19238,0,0,0,-40.01816,-111.8662,-49.84559,-1.197964,-111.2317,-56.30258,0.001067912,-0.1257102,0.09433498,0,0.3,0,0,0,0,
6.38224E+17,-18.65949,-0.9117499,-3.548784,-106.9317,-62.79571,69.95535,-0.612559,-1.262423,-9.175476,13.70306,-0.9767859,39.19238,0,0,0,-40.01816,-111.8662,-49.84559,-1.197964,-111.2317,-56.30258,0.001067912,-0.1257102,0.09433498,0,0.3,0,0,0,0,
6.38224E+17,-18.65949,-0.9117499,-3.548784,-106.8585,-62.72246,70.02859,-0.612559,-1.262423,-9.175476,13.70306,-0.9767859,39.19238,0,0,0,-40.01816,-111.8662,-49.84559,-1.197964,-111.2317,-56.30258,0.001067912,-0.1257102,0.09433498,0,0.3,0,0,0,0,
6.38224E+17,-18.65949,-0.9117499,-3.548784,-106.9317,-62.72246,69.95535,-0.612559,-1.262423,-9.175476,13.70306,-0.9035407,39.26562,0,0,0,-40.01816,-111.8662,-49.84559,-1.197964,-111.2317,-56.30258,0.001067912,-0.1257102,0.09433498,0,0.3,0,0,0,0,
6.38224E+17,-18.65949,-0.9117499,-3.548784,-106.8585,-62.72246,69.95535,-0.612559,-1.262423,-9.175476,13.70306,-0.9767859,39.19238,0,0,0,-40.01816,-111.8662,-49.84559,-1.197964,-111.2317,-56.30258,0.001067912,-0.1257102,0.09433498,0,0.3,0,0,0,0,
6.38224E+17,-18.65949,-0.9117499,-3.548784,-106.8585,-62.72246,69.95535,-0.612559,-1.262423,-9.175476,13.70306,-0.9767859,39.19238,0,0,0,-40.01816,-111.8662,-49.84559,-1.197964,-111.2317,-56.30258,0.001067912,-0.1257102,0.09433498,0,0.3,0,0,0,0,
6.38224E+17,-18.65949,-0.9117499,-3.548784,-106.9317,-62.72246,69.95535,-0.612559,-1.262423,-9.175476,13.70306,-0.9767859,39.19238,0,0,0,-40.01816,-111.8662,-49.84559,-1.197964,-111.2317,-56.30258,0.001067912,-0.1257102,0.09433498,0,0.3,0,0,0,0,
6.38224E+17,-18.65949,-0.9117499,-3.548784,-106.9317,-62.72246,69.95535,-0.612559,-1.262423,-9.175476,13.70306,-0.9767859,39.19238,0,0,0,-40.01816,-111.8662,-49.84559,-1.197964,-111.2317,-56.30258,0.001067912,-0.1257102,0.09433498,0,0.3,0,0,0,0,
6.38224E+17,-18.65949,-0.9117499,-3.548784,-106.8585,-62.79571,69.95535,-0.612559,-1.262423,-9.175476,13.70306,-0.9767859,39.19238,0,0,0,-40.01816,-111.8662,-49.84559,-1.197964,-111.2317,-56.30258,0.001067912,-0.1257102,0.09433498,0,0.3,0,0,0,0,
6.38224E+17,-18.65949,-0.9117499,-3.548784,-106.8585,-62.72246,69.95535,-0.612559,-1.262423,-9.175476,13.62981,-0.9767859,39.19238,0,0,0,-40.01816,-111.8662,-49.84559,-1.197964,-111.2317,-56.30258,0.001067912,-0.1257102,0.09433498,0,0.3,0,0,0,0,
6.38224E+17,-18.65949,-0.9117499,-3.548784,-106.9317,-62.72246,69.95535,-0.612559,-1.262423,-9.175476,13.70306,-0.9767859,39.19238,0,0,0,-40.01816,-111.8662,-49.84559,-1.197964,-111.2317,-56.30258,0.001067912,-0.1257102,0.09433498,0,0.3,0,0,0,0,
6.38224E+17,-18.65949,-0.9117499,-3.548784,-106.9317,-62.72246,70.02859,-0.612559,-1.262423,-9.175476,13.62981,-0.9767859,39.19238,0,0,0,-40.01816,-111.8662,-49.84559,-1.197964,-111.2317,-56.30258,0.001067912,-0.1257102,0.09433498,0,0.3,0,0,0,0,
6.38224E+17,-18.65949,-0.9117499,-3.548784,-106.9317,-62.72246,69.95535,-0.612559,-1.262423,-9.175476,13.70306,-0.9767859,39.19238,0,0,0,-40.01816,-111.8662,-49.84559,-1.197964,-111.2317,-56.30258,0.001067912,-0.1257102,0.09433498,0,0.3,0,0,0,0,
6.38224E+17,-18.65949,-0.9117499,-3.548784,-106.8585,-62.72246,70.02859,-0.612559,-1.262423,-9.175476,13.70306,-0.9767859,39.19238,0,0,0,-40.01816,-111.8662,-49.84559,-1.197964,-111.2317,-56.30258,0.001067912,-0.1257102,0.09433498,0,0.3,0,0,0,0,
6.38224E+17,-18.65949,-0.9117499,-3.548784,-106.8585,-62.72246,69.95535,-0.612559,-1.262423,-9.175476,13.70306,-0.9035407,39.19238,0,0,0,-40.01816,-111.8662,-49.84559,-1.197964,-111.2317,-56.30258,0.001067912,-0.1257102,0.09433498,0,0.3,0,0,0,0,
6.38224E+17,-18.65949,-0.9117499,-3.548784,-106.9317,-62.72246,69.95535,-0.612559,-1.262423,-9.175476,13.70306,-0.9767859,39.19238,0,0,0,-40.01816,-111.8662,-49.84559,-1.197964,-111.2317,-56.30258,0.001067912,-0.1257102,0.09433498,0,0.3,0,0,0,0,
6.38224E+17,-18.65949,-0.9117499,-3.548784,-106.9317,-62.72246,69.95535,-0.612559,-1.262423,-9.175476,13.70306,-0.9035407,39.19238,0,0,0,-40.01816,-111.8662,-49.84559,-1.197964,-111.2317,-56.30258,0.001067912,-0.1257102,0.09433498,0,0.3,0,0,0,0,
6.38224E+17,-18.65949,-0.9117499,-3.548784,-106.9317,-62.72246,69.95535,-0.612559,-1.262423,-9.175476,13.70306,-0.9035407,39.19238,0,0,0,-40.01816,-111.8662,-49.84559,-1.197964,-111.2317,-56.30258,0.001067912,-0.1257102,0.09433498,0,0.3,0,0,0,0,
6.38224E+17,-18.65949,-0.9117499,-3.548784,-106.9317,-62.72246,69.95535,-0.612559,-1.262423,-9.175476,13.70306,-0.9767859,39.19238,0,0,0,-40.01816,-111.8662,-49.84559,-1.197964,-111.2317,-56.30258,0.001067912,-0.1257102,0.09433498,0,0.3,0,0,0,0,
6.38224E+17,-18.65949,-0.9117499,-3.548784,-106.9317,-62.79571,69.95535,-0.612559,-1.262423,-9.175476,13.70306,-0.9767859,39.26562,0,0,0,-40.01816,-111.8662,-49.84559,-1.197964,-111.2317,-56.30258,0.001067912,-0.1257102,0.09433498,0,0.3,0,0,0,0,
6.38224E+17,-18.65949,-0.9351282,-3.712215,-106.9317,-62.72246,69.95535,-0.612559,-1.262423,-9.175476,13.62981,-0.9767859,39.19238,0,0,0,-39.89643,-111.8965,-50.20607,-1.197964,-111.2317,-56.30258,0.001067912,-0.1257102,0.09433498,0,0.3,0,0,0.000112623,0,
6.38224E+17,-18.63593,-0.9351282,-5.930205,-107.3712,-61.62378,69.73561,-0.612559,-1.262423,-9.175476,13.70306,-0.9035407,39.26562,0,0,0,-38.2042,-111.4627,-55.06355,-1.197964,-111.2317,-56.30258,0.001067912,-0.1257102,0.09433498,0,0.3,0,0,0.002313709,0,
6.38224E+17,-18.63593,-0.9117499,-6.887444,-107.6642,-60.15888,69.36938,-0.612559,-1.262423,-9.175476,13.62981,-0.9035407,39.19238,0,0,0,-37.49702,-111.1596,-57.16056,-1.197964,-111.2317,-56.30258,0.001067912,-0.1257102,0.09433498,0,0.3,0,0,0.004061784,0,
6.38224E+17,-18.61237,-0.9117499,-7.634556,-109.715,-55.69093,68.85667,-0.612559,-1.262423,-9.175476,13.70306,-0.9767859,39.19238,0,0,0,-36.90078,-110.9398,-58.77981,-1.197964,-111.2317,-56.30258,0.001067912,-0.1257102,0.09433498,0,0.3,0,0,0.00788834,0,
6.38224E+17,-18.61237,-0.9117499,-7.494472,-113.0843,-50.05105,68.56369,-0.612559,-1.262423,-9.175476,13.70306,-0.9035407,39.19238,0,0,0,-37.00393,-110.9828,-58.47352,-1.197964,-111.2317,-56.30258,0.001067912,-0.1257102,0.09433498,0,0.3,0,0,0.01132925,0,
6.38224E+17,-18.61237,-0.9117499,-7.494472,-112.9378,-47.19449,68.49045,-0.612559,-1.262423,-9.175476,13.70306,-0.9035407,39.19238,0,0,0,-37.00393,-110.9828,-58.47352,-1.197964,-111.2317,-56.30258,0.001067912,-0.1257102,0.09433498,0,0.3,0,0,0.01293843,0,
6.38224E+17,-18.61237,-0.9117499,-7.494472,-110.9602,-42.79977,68.4172,-0.612559,-1.262423,-9.175476,13.70306,-0.9767859,39.19238,0,0,0,-37.00393,-110.9828,-58.47352,-1.197964,-111.2317,-56.30258,0.001067912,-0.1257102,0.09433498,0,0.3,0,0,0.01596384,0,
6.38224E+17,-18.61237,-0.9117499,-7.494472,-108.5431,-39.21077,68.4172,-0.612559,-1.262423,-9.175476,13.70306,-0.9767859,39.19238,0,0,0,-37.00393,-110.9828,-58.47352,-1.197964,-111.2317,-56.30258,0.001067912,-0.1257102,0.09433498,0,0.3,0,0,0.01875643,0,
6.38224E+17,-18.61237,-0.9117499,-7.494472,-106.126,-35.91473,67.09879,-0.612559,-1.262423,-9.175476,13.70306,-0.9767859,39.19238,0,0,0,-37.00393,-110.9828,-58.47352,-1.197964,-111.2317,-56.30258,0.001067912,-0.1257102,0.09433498,0,0.3,0,0,0.0213422,0,
6.38224E+17,-18.63593,-0.9117499,-7.517819,-100.8524,-32.17923,65.63388,-0.612559,-1.262423,-9.175476,13.70306,-0.9767859,39.26562,0,0,0,-37.03189,-110.9757,-58.53979,-1.197964,-111.2317,-56.30258,0.001067912,-0.1257102,0.09433498,0,0.3,0,0,0.0237288,0,
6.38224E+17,-18.65949,-0.8883717,-7.517819,-98.50854,-30.64108,65.19441,-0.612559,-1.262423,-9.175476,13.70306,-0.9035407,39.19238,0,0,0,-37.07732,-110.9213,-58.55422,-1.197964,-111.2317,-56.30258,0.001067912,-0.1257102,0.09433498,0,0.3,0,0,0.02483137,0,
6.38224E+17,-18.65949,-0.8883717,-7.517819,-93.60111,-27.71127,61.67865,-0.612559,-1.262423,-9.175476,13.70306,-0.9035407,39.19238,0,0,0,-37.07732,-110.9213,-58.55422,-1.197964,-111.2317,-56.30258,0.001067912,-0.1257102,0.09433498,0,0.3,0,0,0.02692439,0,
6.38224E+17,-18.65949,-0.8883717,-7.517819,-88.62045,-25.8069,54.06115,-0.612559,-1.262423,-9.175476,13.62981,-0.9035407,39.19238,0,0,0,-37.07732,-110.9213,-58.55422,-1.197964,-111.2317,-56.30258,0.001067912,-0.1257102,0.09433498,0,0.3,0,0,0.02888017,0,
6.38224E+17,-18.65949,-0.8883717,-7.494472,-83.63977,-24.78147,44.75901,-0.612559,-1.262423,-9.175476,13.70306,-0.9035407,39.19238,0,0,0,-37.09455,-110.9284,-58.50318,-1.197964,-111.2317,-56.30258,0.001067912,-0.1257102,0.09433498,0,0.3,0,0,0.03070026,0,
6.38224E+17,-18.65949,-0.8883717,-7.494472,-80.85645,-24.63498,40.80377,-0.612559,-1.262423,-9.175476,13.70306,-0.9035407,39.19238,0,0,0,-37.09455,-110.9284,-58.50318,-1.197964,-111.2317,-56.30258,0.001067912,-0.1257102,0.09433498,0,0.3,0,0,0.0315677,0,
6.38224E+17,-18.70661,-0.8883717,-7.494472,-75.58281,-24.342,36.55555,-0.612559,-1.262423,-9.175476,13.70306,-0.9767859,39.19238,0,0,0,-37.18488,-110.9284,-58.53373,-1.197964,-111.2317,-56.30258,0.001067912,-0.1257102,0.09433498,0,0.3,0,0,0.03317059,0,
6.38224E+17,-18.70661,-0.8883717,-7.447778,-69.43021,-23.90252,37.80072,-0.612559,-1.262423,-9.175476,13.70306,-0.9035407,39.19238,0,0,0,-37.21944,-110.9425,-58.43166,-1.197964,-111.2317,-56.30258,0.001067912,-0.1257102,0.09433498,0,0.3,0,0,0.03464622,0,
6.38224E+17,-18.73017,-0.8883717,-7.447778,-66.64689,-23.46305,39.19238,-0.612559,-1.262423,-9.175476,13.70306,-0.9767859,39.26562,0,0,0,-37.26463,-110.9425,-58.44698,-1.197964,-111.2317,-56.30258,0.001067912,-0.1257102,0.09433498,0,0.3,0,0,0.03533243,0,
6.38224E+17,-18.77729,-0.8883717,-7.42443,-59.39562,-21.48543,41.97569,-0.612559,-1.262423,-9.175476,13.62981,-0.9767859,39.19238,0,0,0,-37.37234,-110.9495,-58.42665,-1.197964,-111.2317,-56.30258,0.001067912,-0.1257102,0.09433498,0,0.3,0,0,0.03659231,0,
6.38224E+17,-18.80085,-0.8883717,-7.261,-54.12197,-19.28808,43.80682,-0.612559,-1.262423,-9.175476,13.70306,-0.9035407,39.19238,0,0,0,-37.53912,-110.9981,-58.0849,-1.197964,-111.2317,-56.30258,0.001067912,-0.1257102,0.09433498,0,0.3,0,0,0.03768975,0,
6.38224E+17,-18.77729,-0.8883717,-6.817402,-51.11892,-17.89642,45.05199,-0.612559,-1.262423,-9.175476,13.70306,-0.9767859,39.19238,0,0,0,-37.8236,-111.1247,-57.09937,-1.197964,-111.2317,-56.30258,0.001067912,-0.1257102,0.09433498,0,0.3,0,0,0.03811581,0,
6.38224E+17,-18.63593,-0.8883717,-5.159746,-45.91851,-15.33284,48.20153,-0.612559,-1.262423,-9.175476,13.62981,-0.9767859,39.19238,0,0,0,-38.77509,-111.5272,-53.37073,-1.197964,-111.2317,-56.30258,0.001067912,-0.1257102,0.09433498,0,0.3,0,0,0.038428,0,
6.38224E+17,-18.44745,-0.8883717,-3.75891,-41.67029,-13.20873,51.86379,-0.612559,-1.262423,-9.175476,13.62981,-0.9767859,39.19238,0,0,0,-39.42516,-111.7806,-50.16047,-1.197964,-111.2317,-56.30258,0.001067912,-0.1257102,0.09433498,0,0.3,0,0,0.03802015,0,
6.38224E+17,-18.11761,-0.8883717,-2.638241,-38.22777,-11.81707,56.2585,-0.612559,-1.262423,-9.175476,13.70306,-0.9035407,39.19238,0,0,0,-39.55393,-111.9262,-47.46044,-1.197964,-111.2317,-56.30258,0.001067912,-0.1257102,0.09433498,0,0.3,0,0,0.03713826,0,
6.38224E+17,-17.62285,-0.7481025,-2.451463,-36.03041,-10.5719,61.67865,-0.612559,-1.262423,-9.175476,13.70306,-0.9767859,39.19238,0,0,0,-38.64145,-111.619,-46.70506,-1.197964,-111.2317,-56.30258,0.001067912,-0.1257102,0.09433498,0,0.3,0,0,0.03649684,0,
6.38224E+17,-17.17521,-0.5376987,-2.568199,-35.3712,-9.692961,64.68169,-0.612559,-1.262423,-9.175476,13.70306,-0.9035407,39.19238,0,0,0,-37.61137,-111.1175,-46.66095,-1.197964,-111.2317,-56.30258,0.001067912,-0.1257102,0.09433498,0,0.3,0,0,0.03657457,0,
6.38224E+17,-15.69093,0.7481025,-3.362006,-34.27253,-7.495606,69.95535,-0.612559,-1.262423,-9.175476,13.70306,-0.9767859,39.19238,0,0,0,-33.94622,-108.0294,-47.5091,-1.197964,-111.2317,-56.30258,0.001067912,-0.1257102,0.09433498,0,0.3,0,0,0.03826963,0,
6.38224E+17,-13.33494,3.90416,-4.342592,-32.36815,-5.737722,73.91058,-0.612559,-1.262423,-9.175476,13.62981,-0.9767859,39.26562,0,0,0,-28.35602,-100.5377,-48.72147,-1.197964,-111.2317,-56.30258,0.001067912,-0.1257102,0.09433498,0,0.3,0,0,0.04244627,0,
6.38224E+17,-11.99202,6.38225,-4.78619,-30.90325,-5.225006,75.81496,-0.612559,-1.262423,-9.175476,13.70306,-0.9767859,39.26562,0,0,0,-25.22335,-94.71169,-49.60217,-1.197964,-111.2317,-56.30258,0.001067912,-0.1257102,0.09433498,0,0.3,0,0,0.0446899,0,
6.38224E+17,-9.612464,12.25018,-4.832884,-27.68046,-5.298251,80.20967,-0.612559,-1.262423,-9.175476,13.62981,-0.9035407,39.19238,0,0,0,-19.88419,-81.2316,-50.94292,-1.197964,-111.2317,-56.30258,0.001067912,-0.1257102,0.09433498,0,0.3,0,0,0.04678418,0,
6.38224E+17,-7.256468,19.09999,-2.825019,-24.60417,-6.909645,87.16796,-0.612559,-1.262423,-9.175476,13.70306,-0.9767859,39.19238,0,0,0,-15.08616,-66.20345,-49.86994,-1.197964,-111.2317,-56.30258,0.001067912,-0.1257102,0.09433498,0,0.3,0,0,0.04299979,0,
6.38224E+17,-4.570632,26.58102,1.237405,-21.52787,-10.27892,96.03063,-0.612559,-1.262423,-9.175476,13.70306,-0.9035407,39.19238,0,0,0,-9.732691,-50.29974,-46.60345,-1.197964,-111.2317,-56.30258,0.001067912,-0.1257102,0.09433498,0,0.3,0,0,0.03173257,0,
6.38224E+17,-3.227715,30.06437,3.782257,-19.84323,-12.8425,100.5718,-0.612559,-1.262423,-9.175476,13.70306,-0.9035407,39.19238,0,0,0,-6.993347,-42.90486,-44.34111,-1.197964,-111.2317,-56.30258,0.001067912,-0.1257102,0.09433498,0,0.3,0,0,0.02330854,0,
6.38224E+17,-0.9188384,36.18946,8.801919,-16.5472,-19.06834,109.3612,-0.612559,-1.262423,-9.175476,13.70306,-0.9767859,39.19238,0,0,0,-2.053061,-29.6921,-40.33874,-1.197964,-111.2317,-56.30258,0.001067912,-0.1257102,0.09433498,0,0.3,0,0,0.001556752,0,
6.38224E+17,0.588999,40.98199,13.14451,-13.69064,-25.44067,115.9533,-0.612559,-1.262423,-9.175476,13.70306,-0.9767859,39.19238,0,0,0,1.346579,-19.05234,-37.36406,-1.197964,-111.2317,-56.30258,0.001067912,-0.1257102,0.09433498,0,0.3,0,0,0,0,
6.38224E+17,1.437158,45.86803,18.30426,-11.34679,-32.39896,123.4976,-0.612559,-1.262423,-9.175476,13.70306,-0.9767859,39.19238,0,0,0,3.379188,-7.542423,-33.6587,-1.197964,-111.2317,-56.30258,0.001067912,-0.1257102,0.09433498,0,0.3,0,0,0,0,
6.38224E+17,1.578517,49.28125,22.95036,-10.54109,-37.59937,129.0642,-0.612559,-1.262423,-9.175476,13.70306,-0.9767859,39.19238,0,0,0,3.828681,1.624339,-29.41471,-1.197964,-111.2317,-56.30258,0.001067912,-0.1257102,0.09433498,0,0.3,0,0,0,0,
6.38224E+17,1.554958,51.15151,25.79873,-10.68758,-40.82215,132.58,-0.612559,-1.262423,-9.175476,13.70306,-0.9035407,39.19238,0,0,0,3.844625,7.145166,-26.72123,-1.197964,-111.2317,-56.30258,0.001067912,-0.1257102,0.09433498,0,0.3,0,0,0,0,
6.38224E+17,1.507838,54.705,31.68224,-13.17792,-48.21992,143.8597,-0.612559,-1.262423,-9.175476,13.62981,-0.9035407,39.26562,0,0,0,3.870331,18.71129,-21.31663,-1.197964,-111.2317,-56.30258,0.001067912,-0.1257102,0.09433498,0,0.3,0,0,0,0,
6.38224E+17,2.238196,57.53376,35.4645,-18.8178,-55.61768,144.8852,-0.612559,-1.262423,-9.175476,13.70306,-0.9035407,39.19238,0,0,0,5.817169,27.24818,-19.51155,-1.197964,-111.2317,-56.30258,0.001067912,-0.1257102,0.09433498,0,0.3,0,0,0,0,
6.38224E+17,2.332436,58.67929,36.07153,-20.2827,-57.81504,144.8119,-0.612559,-1.262423,-9.175476,13.70306,-0.9035407,39.19238,0,0,0,6.0165,29.48255,-20.63765,-1.197964,-111.2317,-56.30258,0.001067912,-0.1257102,0.09433498,0,0.3,0,0,0,0,
6.38224E+17,2.002597,61.57819,37.51905,-22.5533,-60.89133,144.8852,-0.612559,-1.262423,-9.175476,13.62981,-0.9767859,39.19238,0,0,0,5.055905,34.86032,-23.75571,-1.197964,-111.2317,-56.30258,0.001067912,-0.1257102,0.09433498,0,0.3,0,0,0,0,
6.38224E+17,2.002597,64.61736,38.9199,-24.38443,-62.20975,144.8119,-0.612559,-1.262423,-9.175476,13.70306,-0.9035407,39.19238,0,0,0,4.925011,40.07743,-27.49917,-1.197964,-111.2317,-56.30258,0.001067912,-0.1257102,0.09433498,0,0.3,0,0,0,0,
6.38224E+17,2.096837,67.72665,40.32073,-26.21556,-62.79571,144.8852,-0.612559,-1.262423,-9.175476,13.70306,-0.9035407,39.19238,0,0,0,5.006382,45.07963,-31.61234,-1.197964,-111.2317,-56.30258,0.001067912,-0.1257102,0.09433498,0,0.3,0,0,0,0,
6.38224E+17,2.214636,69.43327,41.20792,-27.75371,-62.9422,144.8119,-0.612559,-1.262423,-9.175476,13.62981,-0.9767859,39.19238,0,0,0,5.205057,47.87838,-33.75488,-1.197964,-111.2317,-56.30258,0.001067912,-0.1257102,0.09433498,0,0.3,0,0,0,0,
6.38224E+17,2.568036,72.47243,42.86558,-31.34272,-63.16194,144.8852,-0.612559,-1.262423,-9.175476,13.70306,-0.9767859,39.19238,0,0,0,5.863976,52.76973,-37.6057,-1.197964,-111.2317,-56.30258,0.001067912,-0.1257102,0.09433498,0,0.3,0,0,0,0,
6.38224E+17,3.369075,75.30119,44.59328,-35.07822,-63.16194,144.8852,-0.612559,-1.262423,-9.175476,13.70306,-0.9767859,39.19238,0,0,0,7.490332,57.3762,-41.11338,-1.197964,-111.2317,-56.30258,0.001067912,-0.1257102,0.09433498,0,0.3,0,0,0,0,
6.38224E+17,3.840273,76.7974,45.66725,-37.20233,-63.23518,144.8119,-0.612559,-1.262423,-9.175476,13.70306,-0.9035407,39.26562,0,0,0,8.428223,59.98715,-42.79169,-1.197964,-111.2317,-56.30258,0.001067912,-0.1257102,0.09433498,0,0.3,0,0,0,0,
6.38224E+17,4.523513,79.71967,47.3716,-42.69572,-63.16194,144.8852,-0.612559,-1.262423,-9.175476,13.62981,-0.9767859,39.19238,0,0,0,9.614981,64.2492,-46.81773,-1.197964,-111.2317,-56.30258,0.001067912,-0.1257102,0.09433498,0,0.3,0,0,0,0,
6.38224E+17,4.311473,82.8056,48.18876,-48.3356,-62.35624,142.2483,-0.612559,-1.262423,-9.175476,13.70306,-0.9767859,39.19238,0,0,0,8.727614,66.74851,-52.58648,-1.197964,-111.2317,-56.30258,0.001067912,-0.1257102,0.09433498,0,0.3,0,0,0,0,
6.38224E+17,4.122993,84.34856,48.46893,-50.31322,-61.3308,137.3409,-0.612559,-1.262423,-9.175476,13.70306,-0.9035407,39.19238,0,0,0,8.121361,67.6373,-55.6852,-1.197964,-111.2317,-56.30258,0.001067912,-0.1257102,0.09433498,0,0.3,0,0,0,0,
6.38224E+17,4.193673,86.89678,49.58959,-54.26846,-58.84047,134.9971,-0.612559,-1.262423,-9.175476,13.62981,-0.9767859,39.19238,0,0,0,7.952993,70.05923,-59.88686,-1.197964,-111.2317,-56.30258,0.001067912,-0.1257102,0.09433498,0,0.3,0,0,0,0,
6.38224E+17,4.193673,89.60866,50.87369,-59.90833,-56.27689,143.7132,-0.612559,-1.262423,-9.175476,13.70306,-0.9035407,39.19238,0,0,0,7.631497,72.54876,-64.27144,-1.197964,-111.2317,-56.30258,0.001067912,-0.1257102,0.09433498,0,0.3,0,0,0,0,
6.38224E+17,4.193673,92.53093,51.13051,-64.01007,-53.8598,144.8119,-0.612559,-1.262423,-9.175476,13.70306,-0.9767859,39.19238,0,0,0,7.161778,72.88632,-70.67747,-1.197964,-111.2317,-56.30258,0.001067912,-0.1257102,0.09433498,0,0.3,0,0,0,0,
6.38224E+17,4.193673,93.98038,51.10716,-64.44954,-52.76112,144.8119,-0.612559,-1.262423,-9.175476,13.70306,-0.9035407,39.26562,0,0,0,6.912996,72.65245,-74.07037,-1.197964,-111.2317,-56.30258,0.001067912,-0.1257102,0.09433498,0,0.3,0,0,0,0,
6.38224E+17,4.146553,96.59874,51.10716,-63.42411,-51.14973,144.8852,-0.612559,-1.262423,-9.175476,13.70306,-0.9767859,39.19238,0,0,0,6.396732,72.0907,-80.11632,-1.197964,-111.2317,-56.30258,0.001067912,-0.1257102,0.09433498,0,0.3,0,0,0,0,
6.38224E+17,4.075873,98.21183,51.13051,-62.54516,-50.27078,144.9584,-0.612559,-1.262423,-9.175476,13.70306,-0.9767859,39.19238,0,0,0,6.025694,71.64913,-83.78793,-1.197964,-111.2317,-56.30258,0.001067912,-0.1257102,0.09433498,0,0.3,0,0,0,0,
6.38224E+17,3.887394,99.26385,50.85035,-63.57059,-49.90456,144.8852,-0.612559,-1.262423,-9.175476,13.70306,-0.9035407,39.19238,0,0,0,5.555594,70.77051,-86.59251,-1.197964,-111.2317,-56.30258,0.001067912,-0.1257102,0.09433498,0,0.3,0,0,0,0,
6.38224E+17,3.887394,99.35736,50.64022,-67.81882,-49.83131,144.8852,-0.612559,-1.262423,-9.175476,13.62981,-0.9035407,39.19238,0,0,0,5.520054,70.35661,-87.11553,-1.197964,-111.2317,-56.30258,0.001067912,-0.1257102,0.09433498,0,0.3,0,0,0,0,
6.38224E+17,3.887394,99.00669,50.24332,-72.79948,-49.75807,144.8119,-0.612559,-1.262423,-9.175476,13.70306,-0.9035407,39.19238,0,0,0,5.534792,69.77465,-86.89864,-1.197964,-111.2317,-56.30258,0.001067912,-0.1257102,0.09433498,0,0.3,0,0,0,0,
6.38224E+17,3.958073,97.55724,48.81913,-83.63977,-49.17211,144.9584,-0.612559,-1.262423,-9.175476,13.70306,-0.9767859,39.19238,0,0,0,5.717195,67.73898,-85.72144,-1.197964,-111.2317,-56.30258,0.001067912,-0.1257102,0.09433498,0,0.3,0,0,0,0,
6.38224E+17,4.099433,94.75185,46.06416,-92.13622,-48.00018,144.8119,-0.612559,-1.262423,-9.175476,13.70306,-0.9767859,39.19238,0,0,0,6.075075,63.71642,-83.58658,-1.197964,-111.2317,-56.30258,0.001067912,-0.1257102,0.09433498,0,0.3,0,0,0,0,
6.38224E+17,4.217233,92.8816,44.21972,-94.5533,-47.26773,144.8852,-0.612559,-1.262423,-9.175476,13.70306,-0.9767859,39.19238,0,0,0,6.346054,60.96336,-82.28759,-1.197964,-111.2317,-56.30258,0.001067912,-0.1257102,0.09433498,0,0.3,0,0,0,0,
6.38224E+17,4.547072,87.92542,39.3168,-96.97039,-45.94932,144.8119,-0.612559,-1.262423,-9.175476,13.70306,-0.9767859,39.26562,0,0,0,7.081033,53.44577,-79.31223,-1.197964,-111.2317,-56.30258,0.001067912,-0.1257102,0.09433498,0,0.3,0,0,0,0,
6.38224E+17,4.664873,82.75884,34.20374,-95.87171,-44.85064,144.8119,-0.612559,-1.262423,-9.175476,13.62981,-0.9767859,39.19238,0,0,0,7.46336,45.35016,-76.88474,-1.197964,-111.2317,-56.30258,0.001067912,-0.1257102,0.09433498,0,0.3,0,0,0,0,
6.38224E+17,4.664873,77.96631,29.51094,-93.30813,-44.11819,142.8343,-0.612559,-1.262423,-9.175476,13.70306,-0.9767859,39.26562,0,0,0,7.603188,37.72027,-75.17112,-1.197964,-111.2317,-56.30258,0.001067912,-0.1257102,0.09433498,0,0.3,0,0,0,0,
6.38224E+17,4.664873,74.90376,26.40576,-91.11078,-43.75196,138.8058,-0.612559,-1.262423,-9.175476,13.62981,-0.9767859,39.19238,0,0,0,7.64754,32.66085,-74.62757,-1.197964,-111.2317,-56.30258,0.001067912,-0.1257102,0.09433498,0,0.3,0,0,0,0,
6.38224E+17,4.664873,71.1165,22.6235,-87.96124,-43.38574,134.4111,-0.612559,-1.262423,-9.175476,13.70306,-0.9035407,39.19238,0,0,0,7.681732,26.43386,-74.20855,-1.197964,-111.2317,-56.30258,0.001067912,-0.1257102,0.09433498,0,0.3,0,0,0,0,
6.38224E+17,4.664873,66.69801,18.16417,-83.56653,-42.87302,129.5769,-0.612559,-1.262423,-9.175476,13.70306,-0.9035407,39.19238,0,0,0,7.670877,19.1182,-74.34157,-1.197964,-111.2317,-56.30258,0.001067912,-0.1257102,0.09433498,0,0.3,0,0,0,0,
6.38224E+17,4.641313,64.5706,16.06292,-81.00294,-42.43355,127.5993,-0.612559,-1.262423,-9.175476,13.70306,-0.9035407,39.19238,0,0,0,7.618984,15.63659,-74.50146,-1.197964,-111.2317,-56.30258,0.001067912,-0.1257102,0.09433498,0,0.3,0,0,0,0,
6.38224E+17,4.641313,60.80671,12.30401,-76.02227,-41.40812,125.1822,-0.612559,-1.262423,-9.175476,13.70306,-0.9767859,39.19238,0,0,0,7.562494,9.474733,-75.1973,-1.197964,-111.2317,-56.30258,0.001067912,-0.1257102,0.09433498,0,0.3,0,0,0,0,
6.38224E+17,4.641313,57.60389,9.338906,-71.92055,-40.08971,123.4243,-0.612559,-1.262423,-9.175476,13.70306,-0.9767859,39.19238,0,0,0,7.532142,4.363437,-75.57117,-1.197964,-111.2317,-56.30258,0.001067912,-0.1257102,0.09433498,0,0.3,0,0,0,0,
6.38224E+17,4.641313,55.10242,6.887444,-69.06399,-39.21077,119.7621,-0.612559,-1.262423,-9.175476,13.70306,-0.9767859,39.19238,0,0,0,7.46726,0.3327821,-76.37035,-1.197964,-111.2317,-56.30258,0.001067912,-0.1257102,0.09433498,0,0.3,0,0,0,0,
6.38224E+17,4.641313,52.5542,4.622759,-66.5004,-38.84454,113.9757,-0.612559,-1.262423,-9.175476,13.70306,-0.9767859,39.19238,0,0,0,7.430304,-3.695791,-76.82557,-1.197964,-111.2317,-56.30258,0.001067912,-0.1257102,0.09433498,0,0.3,0,0,0,0,
6.38224E+17,4.641313,51.24502,3.408701,-65.32848,-38.91778,110.0205,-0.612559,-1.262423,-9.175476,13.70306,-0.9767859,39.19238,0,0,0,7.396246,-5.773736,-77.24509,-1.197964,-111.2317,-56.30258,0.001067912,-0.1257102,0.09433498,0,0.3,0,0,0,0,
6.38224E+17,4.617752,48.46302,0.9338906,-62.91139,-39.57699,101.5973,-0.612559,-1.262423,-9.175476,13.70306,-0.9035407,39.19238,0,0,0,7.293864,-10.1661,-78.04581,-1.197964,-111.2317,-56.30258,0.001067912,-0.1257102,0.09433498,0,0.3,0,0,0,0,
6.38224E+17,4.617752,45.28358,-0.793807,-60.56754,-40.45593,95.88414,-0.612559,-1.262423,-9.175476,13.62981,-0.9767859,39.19238,0,0,0,7.404894,-15.22898,-76.67116,-1.197964,-111.2317,-56.30258,0.001067912,-0.1257102,0.09433498,0,0.3,0,0,0,0,
6.38224E+17,4.617752,43.46008,-1.400836,-59.61535,-40.96865,93.17406,-0.612559,-1.262423,-9.175476,13.62981,-0.9767859,39.19238,0,0,0,7.530102,-18.23548,-75.12098,-1.197964,-111.2317,-56.30258,0.001067912,-0.1257102,0.09433498,0,0.3,0,0,0,0,
6.38224E+17,4.617752,39.76632,-2.101254,-58.95615,-41.84759,86.80173,-0.612559,-1.262423,-9.175476,13.62981,-0.9767859,39.19238,0,0,0,7.858476,-24.61194,-71.05544,-1.197964,-111.2317,-56.30258,0.001067912,-0.1257102,0.09433498,0,0.3,0,0,0,0,
6.38224E+17,4.617752,35.9323,-2.334727,-59.83509,-42.72653,81.2351,-0.612559,-1.262423,-9.175476,13.70306,-0.9767859,39.19238,0,0,0,8.255477,-31.63567,-66.14023,-1.197964,-111.2317,-56.30258,0.001067912,-0.1257102,0.09433498,0,0.3,0,0,0,0,
6.38224E+17,4.617752,32.33206,-2.334727,-61.9592,-43.45898,76.98688,-0.612559,-1.262423,-9.175476,13.70306,-0.9767859,39.19238,0,0,0,8.643289,-38.75436,-61.33879,-1.197964,-111.2317,-56.30258,0.001067912,-0.1257102,0.09433498,0,0.3,0,0,0,0,
6.38224E+17,4.617752,30.69558,-2.334727,-63.35086,-43.75196,74.56979,-0.612559,-1.262423,-9.175476,13.70306,-0.9767859,39.19238,0,0,0,8.794202,-41.81725,-59.47036,-1.197964,-111.2317,-56.30258,0.001067912,-0.1257102,0.09433498,0,0.3,0,0,0,0,
6.38224E+17,4.617752,27.8902,-2.334727,-66.06093,-44.19143,69.36938,-0.612559,-1.262423,-9.175476,13.70306,-0.9767859,39.19238,0,0,0,9.051366,-47.51103,-56.28645,-1.197964,-111.2317,-56.30258,0.001067912,-0.1257102,0.09433498,0,0.3,0,0,0,0,
6.38224E+17,4.617752,24.87441,-2.334727,-68.84425,-44.7774,66.21985,-0.612559,-1.262423,-9.175476,13.70306,-0.9035407,39.19238,0,0,0,9.302434,-53.79821,-53.17801,-1.197964,-111.2317,-56.30258,0.001067912,-0.1257102,0.09433498,0,0.3,0,0,0,0,
6.38224E+17,4.617752,23.23793,-2.334727,-69.94292,-45.21687,65.70713,-0.612559,-1.262423,-9.175476,13.70306,-0.9767859,39.19238,0,0,0,9.427423,-57.27602,-51.63055,-1.197964,-111.2317,-56.30258,0.001067912,-0.1257102,0.09433498,0,0.3,0,0,0,0,
6.38224E+17,4.617752,22.27943,-2.334727,-70.30915,-45.65634,65.56064,-0.612559,-1.262423,-9.175476,13.70306,-0.9035407,39.19238,0,0,0,9.496901,-59.33313,-50.77036,-1.197964,-111.2317,-56.30258,0.001067912,-0.1257102,0.09433498,0,0.3,0,0,0,0,
6.38224E+17,4.617752,20.17539,-2.334727,-69.72319,-46.82826,65.3409,-0.612559,-1.262423,-9.175476,13.62981,-0.9035407,39.19238,0,0,0,9.639635,-63.89755,-49.00318,-1.197964,-111.2317,-56.30258,0.001067912,-0.1257102,0.09433498,0,0.3,0,0,0,0,
6.38224E+17,4.617752,17.86095,-2.334727,-67.59908,-48.29316,65.26765,-0.612559,-1.262423,-9.175476,13.70306,-0.9767859,39.19238,0,0,0,9.780943,-68.9898,-47.25367,-1.197964,-111.2317,-56.30258,0.001067912,-0.1257102,0.09433498,0,0.3,0,0,0,0,
6.38224E+17,4.617752,15.38286,-2.334727,-64.37629,-49.68482,65.12117,-0.612559,-1.262423,-9.175476,13.70306,-0.9035407,39.19238,0,0,0,9.913756,-74.51586,-45.60934,-1.197964,-111.2317,-56.30258,0.001067912,-0.1257102,0.09433498,0,0.3,0,0,0,0,
6.38224E+17,4.617752,14.07368,-2.334727,-62.25218,-50.19754,65.04792,-0.612559,-1.262423,-9.175476,13.70306,-0.9767859,39.19238,0,0,0,9.97612,-77.46266,-44.83722,-1.197964,-111.2317,-56.30258,0.001067912,-0.1257102,0.09433498,0,0.3,0,0,0,0,
6.38224E+17,4.617752,11.45532,-2.334727,-58.15046,-50.71025,64.90143,-0.612559,-1.262423,-9.175476,13.70306,-0.9767859,39.19238,0,0,0,10.08451,-83.4055,-43.49528,-1.197964,-111.2317,-56.30258,0.001067912,-0.1257102,0.09433498,0,0.3,0,0,0,0,
6.38224E+17,4.617752,8.649935,-2.334727,-54.12197,-50.92999,64.82819,-0.612559,-1.262423,-9.175476,13.70306,-0.9767859,39.19238,0,0,0,10.17625,-89.83386,-42.3594,-1.197964,-111.2317,-56.30258,0.001067912,-0.1257102,0.09433498,0,0.3,0,0,0,0,
6.38224E+17,4.617752,6.616032,-2.334727,-51.19216,-50.63701,64.75494,-0.612559,-1.262423,-9.175476,13.70306,-0.9767859,39.19238,0,0,0,10.22687,-94.52538,-41.73271,-1.197964,-111.2317,-56.30258,0.001067912,-0.1257102,0.09433498,0,0.3,0,0,0,0,
6.38224E+17,4.617752,4.909423,-2.334727,-48.92156,-49.9778,64.75494,-0.612559,-1.262423,-9.175476,13.70306,-0.9767859,39.19238,0,0,0,10.25898,-98.4771,-41.3352,-1.197964,-111.2317,-56.30258,0.001067912,-0.1257102,0.09433498,0,0.3,0,0,0,0,
6.38224E+17,4.617752,2.852141,-2.334727,-46.21149,-48.87913,64.68169,-0.612559,-1.262423,-9.175476,13.70306,-0.9035407,39.19238,0,0,0,10.28507,-103.254,-41.0122,-1.197964,-111.2317,-56.30258,0.001067912,-0.1257102,0.09433498,0,0.3,0,0,0,0,
6.38224E+17,4.617752,1.145532,-2.334727,-43.28168,-47.63396,63.80275,-0.612559,-1.262423,-9.175476,13.70306,-0.9035407,39.19238,0,0,0,10.29622,-107.2234,-40.87412,-1.197964,-111.2317,-56.30258,0.001067912,-0.1257102,0.09433498,0,0.3,0,0,0,0,
6.38224E+17,4.617752,0.2104038,-2.334727,-40.27863,-46.46204,62.33785,-0.612559,-1.262423,-9.175476,13.70306,-0.9035407,39.19238,0,0,0,10.29829,-109.3996,-40.84845,-1.197964,-111.2317,-56.30258,0.001067912,-0.1257102,0.09433498,0,0.3,0,0,0,0,
6.38224E+17,4.617752,0.04675641,-2.334727,-39.03346,-46.09581,61.75189,-0.612559,-1.262423,-9.175476,13.70306,-0.9035407,39.19238,0,0,0,10.29836,-109.7805,-40.8476,-1.197964,-111.2317,-56.30258,0.001067912,-0.1257102,0.09433498,0,0.3,0,0,0,0,
6.38224E+17,4.617752,-0.04675641,-2.334727,-36.03041,-45.50985,60.50672,-0.612559,-1.262423,-9.175476,13.70306,-0.9767859,39.19238,0,0,0,10.29836,-109.9981,-40.8476,-1.197964,-111.2317,-56.30258,0.001067912,-0.1257102,0.09433498,0,0.3,0,0,0,0,
6.38224E+17,4.617752,-0.04675641,-2.334727,-32.36815,-45.21687,58.89533,-0.612559,-1.262423,-9.175476,13.70306,-0.9767859,39.19238,0,0,0,10.29836,-109.9981,-40.8476,-1.197964,-111.2317,-56.30258,0.001067912,-0.1257102,0.09433498,0,0.3,0,0,0,0,
6.38224E+17,4.594193,-0.04675641,-2.334727,-30.39053,-45.14362,57.94314,-0.612559,-1.262423,-9.175476,13.70306,-0.9767859,39.26562,0,0,0,10.24593,-109.9981,-40.84338,-1.197964,-111.2317,-56.30258,0.001067912,-0.1257102,0.09433498,0,0.3,0,0,0,0,
6.38224E+17,4.476392,0.1870256,-2.334727,-26.58179,-45.07038,56.84446,-0.612559,-1.262423,-9.175476,13.70306,-0.9035407,39.19238,0,0,0,9.983706,-109.454,-40.82324,-1.197964,-111.2317,-56.30258,0.001067912,-0.1257102,0.09433498,0,0.3,0,0,0,0,
6.38224E+17,4.217233,0.7481025,-2.334727,-23.21251,-45.07038,56.2585,-0.612559,-1.262423,-9.175476,13.62981,-0.9767859,39.19238,0,0,0,9.405994,-108.1482,-40.79002,-1.197964,-111.2317,-56.30258,0.001067912,-0.1257102,0.09433498,0,0.3,0,0,0,0,
6.38224E+17,3.981634,2.431333,-2.334727,-20.13621,-45.36336,56.03876,-0.612559,-1.262423,-9.175476,13.70306,-0.9035407,39.19238,0,0,0,8.873844,-104.2323,-40.86083,-1.197964,-111.2317,-56.30258,0.001067912,-0.1257102,0.09433498,0,0.3,0,0,0,0,
6.38224E+17,3.863834,3.787269,-2.334727,-19.18402,-45.80283,56.03876,-0.612559,-1.262423,-9.175476,13.70306,-0.9035407,39.19238,0,0,0,8.600175,-101.0812,-41.01364,-1.197964,-111.2317,-56.30258,0.001067912,-0.1257102,0.09433498,0,0.3,0,0,0,0,
6.38224E+17,3.628234,7.621294,-2.194643,-19.69674,-47.048,56.55148,-0.612559,-1.262423,-9.175476,13.62981,-0.9767859,39.19238,0,0,0,8.040998,-92.21667,-41.53921,-1.197964,-111.2317,-56.30258,0.001067912,-0.1257102,0.09433498,0,0.3,0,0,0,0,
6.38224E+17,3.274835,11.96964,-1.354141,-23.28575,-48.36641,59.77427,-0.612559,-1.262423,-9.175476,13.70306,-0.9035407,39.19238,0,0,0,7.272041,-82.30685,-41.25856,-1.197964,-111.2317,-56.30258,0.001067912,-0.1257102,0.09433498,0,0.3,0,0,0,0,
6.38224E+17,2.968555,14.63475,-0.5136398,-27.0945,-49.17211,63.0703,-0.612559,-1.262423,-9.175476,13.70306,-0.9767859,39.19238,0,0,0,6.619951,-76.30293,-40.69336,-1.197964,-111.2317,-56.30258,0.001067912,-0.1257102,0.09433498,0,0.3,0,0,0,0,
6.38224E+17,1.979037,20.19877,2.311379,-40.86459,-50.49052,75.52198,-0.612559,-1.262423,-9.175476,13.70306,-0.9767859,39.19238,0,0,0,4.507601,-63.84869,-37.90078,-1.197964,-111.2317,-56.30258,0.001067912,-0.1257102,0.09433498,0,0.3,0,0,0,0,
6.38224E+17,0.5654391,24.68738,6.74736,-64.30305,-51.00323,98.15474,-0.612559,-1.262423,-9.175476,13.70306,-0.9767859,39.19238,0,0,0,1.350316,-53.38051,-31.52732,-1.197964,-111.2317,-56.30258,0.001067912,-0.1257102,0.09433498,0,0.3,0,0,0,0,
6.38224E+17,-1.177998,27.74993,11.48686,-95.50549,-48.95237,128.6247,-0.612559,-1.262423,-9.175476,13.70306,-0.9035407,39.19238,0,0,0,-2.972119,-45.23951,-23.81164,-1.197964,-111.2317,-56.30258,0.001067912,-0.1257102,0.09433498,0,0.3,0,0,0,0,
6.38224E+17,-3.251275,29.31627,15.4092,-120.1891,-44.41117,143.933,-0.612559,-1.262423,-9.175476,13.70306,-0.9767859,39.19238,0,0,0,-8.603917,-39.91428,-16.88974,-1.197964,-111.2317,-56.30258,0.001067912,-0.1257102,0.09433498,0,0.3,0,0,0,0,
6.38224E+17,-4.452833,29.69032,17.0902,-128.0996,-41.62786,144.7387,-0.612559,-1.262423,-9.175476,13.70306,-0.9035407,39.26562,0,0,0,-12.03641,-38.06187,-13.7863,-1.197964,-111.2317,-56.30258,0.001067912,-0.1257102,0.09433498,0,0.3,0,0,0,0,
6.38224E+17,-7.138669,29.78383,19.96191,-136.889,-35.84149,144.8119,-0.612559,-1.262423,-9.175476,13.70306,-0.9767859,39.19238,0,0,0,-20.04,-35.74948,-8.339746,-1.197964,-111.2317,-56.30258,0.001067912,-0.1257102,0.09433498,0,0.3,0,0,0,0,
6.38224E+17,-10.34282,29.59681,22.99706,-142.8951,-29.76214,144.8119,-0.612559,-1.262423,-9.175476,13.62981,-0.9035407,39.19238,0,0,0,-30.17101,-33.54132,-3.032087,-1.197964,-111.2317,-56.30258,0.001067912,-0.1257102,0.09433498,0,0.3,0,0,0,0,
6.38224E+17,-12.0627,29.29289,24.49128,-145.239,-26.53935,144.7387,-0.612559,-1.262423,-9.175476,13.70306,-0.9035407,39.19238,0,0,0,-35.85701,-32.75703,-0.5591449,-1.197964,-111.2317,-56.30258,0.001067912,-0.1257102,0.09433498,0,0.3,0,0,0,0,
6.38224E+17,-15.26685,28.35776,27.3163,-148.7547,-20.67974,144.7387,-0.612559,-1.262423,-9.175476,13.70306,-0.9035407,39.19238,0,0,0,-47.01292,-31.79171,3.89171,-1.197964,-111.2317,-56.30258,0.001067912,-0.1257102,0.09433498,0,0.3,0,0,0,0,
6.38224E+17,-18.73017,27.04858,30.07128,-151.0986,-14.82012,144.8119,-0.612559,-1.262423,-9.175476,13.70306,-0.9767859,39.19238,0,0,0,-59.59286,-31.4111,7.404734,-1.197964,-111.2317,-56.30258,0.001067912,-0.1257102,0.09433498,0,0.3,0,0,0,0,
6.38224E+17,-22.594,25.2017,32.56944,-152.3437,-9.25349,144.2992,-0.612559,-1.262423,-9.175476,13.70306,-0.9767859,39.19238,0,0,0,-73.93602,-32.24808,9.322295,-1.197964,-111.2317,-56.30258,0.001067912,-0.1257102,0.09433498,0,0.3,0,0,0,0,
6.38224E+17,-24.54948,24.26657,33.55002,-152.417,-6.909645,143.4935,-0.612559,-1.262423,-9.175476,13.70306,-0.9035407,39.19238,0,0,0,-81.12868,-32.97985,9.264019,-1.197964,-111.2317,-56.30258,0.001067912,-0.1257102,0.09433498,0,0.3,0,0,0,0,
6.38224E+17,-28.79027,22.06903,34.71738,-151.3183,-2.807915,141.2961,-0.612559,-1.262423,-9.175476,13.70306,-0.9767859,39.19238,0,0,0,-96.09288,-36.15717,6.512619,-1.197964,-111.2317,-56.30258,0.001067912,-0.1257102,0.09433498,0,0.3,0,0,0,0,
6.38224E+17,-33.10175,19.66107,34.92751,-148.3885,0.1218917,138.8058,-0.612559,-1.262423,-9.175476,13.70306,-0.9035407,39.26562,0,0,0,-110.2761,-41.11427,0.8019591,-1.197964,-111.2317,-56.30258,0.001067912,-0.1257102,0.09433498,0,0.3,0,0,0,0,
6.38224E+17,-37.76662,16.24785,34.41387,-143.9205,2.319247,136.7549,-0.612559,-1.262423,-9.175476,13.62981,-0.9035407,39.19238,0,0,0,-124.5649,-49.35025,-7.568535,-1.197964,-111.2317,-56.30258,0.001067912,-0.1257102,0.09433498,0,0.3,0,0,0,0,
6.38224E+17,-40.40533,13.8399,33.03638,-140.1118,2.905208,136.6085,-0.612559,-1.262423,-9.175476,13.70306,-0.9035407,39.19238,0,0,0,-131.0494,-56.54198,-14.39652,-1.197964,-111.2317,-56.30258,0.001067912,-0.1257102,0.09433498,0,0.3,0,0,0,0,
6.38224E+17,-41.67757,12.5541,31.54216,-138.4272,2.978453,136.6085,-0.612559,-1.262423,-9.175476,13.70306,-0.9035407,39.19238,0,0,0,-132.9348,-61.31314,-19.02961,-1.197964,-111.2317,-56.30258,0.001067912,-0.1257102,0.09433498,0,0.3,0,0,0,0,
6.38224E+17,-43.77441,9.094121,26.82601,-134.8381,2.099511,136.0225,-0.612559,-1.262423,-9.175476,13.70306,-0.9035407,39.19238,0,0,0,-132.7274,-74.57214,-29.81931,-1.197964,-111.2317,-56.30258,0.001067912,-0.1257102,0.09433498,0,0.3,0,0,0,0,
6.38224E+17,-45.44716,4.395102,21.71296,-130.5899,1.293814,133.1659,-0.612559,-1.262423,-9.175476,13.70306,-0.9767859,39.19238,0,0,0,-129.9017,-90.31956,-40.46028,-1.197964,-111.2317,-56.30258,0.001067912,-0.1257102,0.09433498,0,0.3,0,0,0,0,
6.38224E+17,-46.13041,1.846878,19.40158,-128.6123,1.147324,131.9208,-0.612559,-1.262423,-9.175476,13.70306,-0.9035407,39.19238,0,0,0,-128.0193,-98.12984,-45.28509,-1.197964,-111.2317,-56.30258,0.001067912,-0.1257102,0.09433498,0,0.3,0,0,0,0,
6.38224E+17,-47.26128,-1.098776,14.10175,-124.4373,1.733285,130.4559,-0.612559,-1.262423,-9.175476,13.70306,-0.9035407,39.19238,0,0,0,-121.7842,-108.5386,-55.8183,-1.197964,-111.2317,-56.30258,0.001067912,-0.1257102,0.09433498,0,0.3,0,0,0,0,
6.38224E+17,-47.70892,0.6312115,8.264932,-120.1159,1.51355,127.0133,-0.612559,-1.262423,-9.175476,13.70306,-0.9767859,39.19238,0,0,0,-112.8179,-107.146,-65.72572,-1.197964,-111.2317,-56.30258,0.001067912,-0.1257102,0.09433498,0,0.3,0,0,0,0,
6.38224E+17,-47.82672,0.7714807,6.700665,-118.358,1.000834,124.816,-0.612559,-1.262423,-9.175476,13.70306,-0.9035407,39.19238,0,0,0,-110.3506,-107.2936,-68.38394,-1.197964,-111.2317,-56.30258,0.001067912,-0.1257102,0.09433498,0,0.3,0,0,0,0,
6.38224E+17,-47.70892,0.8883717,5.486608,-116.3804,0.707853,122.2524,-0.612559,-1.262423,-9.175476,13.62981,-0.9767859,39.19238,0,0,0,-108.0636,-107.3216,-70.05048,-1.197964,-111.2317,-56.30258,0.001067912,-0.1257102,0.09433498,0,0.3,0,0,0,0,
6.38224E+17,-47.21416,1.987147,5.579997,-117.0396,1.074079,123.7173,-0.612559,-1.262423,-9.175476,13.70306,-0.9767859,39.19238,0,0,0,-107.3224,-104.7442,-69.01764,-1.197964,-111.2317,-56.30258,0.001067912,-0.1257102,0.09433498,0,0.3,0,0,0,0,
6.38224E+17,-45.72989,5.283474,5.696733,-119.4567,0.8543434,128.405,-0.612559,-1.262423,-9.175476,13.62981,-0.9767859,39.19238,0,0,0,-104.5587,-97.0621,-66.42181,-1.197964,-111.2317,-56.30258,0.001067912,-0.1257102,0.09433498,0,0.3,0,0,0,0,
6.38224E+17,-44.78749,7.784942,5.883511,-120.7751,0.1218917,130.3826,-0.612559,-1.262423,-9.175476,13.70306,-0.9035407,39.19238,0,0,0,-102.7062,-91.23461,-64.87911,-1.197964,-111.2317,-56.30258,0.001067912,-0.1257102,0.09433498,0,0.3,0,0,0,0,
6.38224E+17,-41.88961,15.80367,6.700665,-123.4119,-4.199574,132.8729,-0.612559,-1.262423,-9.175476,13.70306,-0.9767859,39.19238,0,0,0,-96.061,-72.77235,-61.2492,-1.197964,-111.2317,-56.30258,0.001067912,-0.1257102,0.09433498,0,0.3,0,0,0,0,
6.38224E+17,-40.92365,18.74932,7.00418,-123.9979,-6.103948,133.3124,-0.612559,-1.262423,-9.175476,13.70306,-0.9767859,39.19238,0,0,0,-93.36767,-66.1424,-60.65328,-1.197964,-111.2317,-56.30258,0.001067912,-0.1257102,0.09433498,0,0.3,0,0,0,0,
6.38224E+17,-39.4865,24.19644,7.517819,-124.5838,-9.619716,133.6786,-0.612559,-1.262423,-9.175476,13.70306,-0.9767859,39.26562,0,0,0,-88.44135,-54.19807,-61.01052,-1.197964,-111.2317,-56.30258,0.001067912,-0.1257102,0.09433498,0,0.3,0,0,0,0,
6.38224E+17,-38.09645,29.97086,7.914723,-124.7303,-12.8425,133.3124,-0.612559,-1.262423,-9.175476,13.62981,-0.9767859,39.19238,0,0,0,-82.60259,-42.11347,-62.98959,-1.197964,-111.2317,-56.30258,0.001067912,-0.1257102,0.09433498,0,0.3,0,0,0,0,
6.38224E+17,-37.15406,33.10354,7.961418,-124.4373,-14.52714,132.2137,-0.612559,-1.262423,-9.175476,13.70306,-0.9035407,39.26562,0,0,0,-78.62058,-35.88512,-64.59856,-1.197964,-111.2317,-56.30258,0.001067912,-0.1257102,0.09433498,0,0.3,0,0,0,0,
6.38224E+17,-33.97346,40.39754,8.241585,-121.947,-18.26265,130.1629,-0.612559,-1.262423,-9.175476,13.62981,-0.9767859,39.19238,0,0,0,-67.43159,-22.2004,-68.27862,-1.197964,-111.2317,-56.30258,0.001067912,-0.1257102,0.09433498,0,0.3,0,0,0,0,
6.38224E+17,-29.09655,48.06559,10.06267,-118.1382,-22.51087,128.9177,-0.612559,-1.262423,-9.175476,13.62981,-0.9035407,39.19238,0,0,0,-54.66533,-8.748271,-70.12188,-1.197964,-111.2317,-56.30258,0.001067912,-0.1257102,0.09433498,0,0.3,0,0,0,0,
6.38224E+17,-22.33484,56.31809,14.0784,-115.7212,-27.34505,130.0164,-0.612559,-1.262423,-9.175476,13.70306,-0.9035407,39.19238,0,0,0,-40.43049,4.969769,-69.94079,-1.197964,-111.2317,-56.30258,0.001067912,-0.1257102,0.09433498,0,0.3,0,0,0,0,
6.38224E+17,-18.40033,60.29239,16.92677,-115.7212,-29.76214,133.9716,-0.612559,-1.262423,-9.175476,13.70306,-0.9035407,39.19238,0,0,0,-33.11517,11.60026,-68.80404,-1.197964,-111.2317,-56.30258,0.001067912,-0.1257102,0.09433498,0,0.3,0,0,0,0,
6.38224E+17,-9.541784,67.58639,24.00099,-122.3865,-34.30334,144.5189,-0.612559,-1.262423,-9.175476,13.70306,-0.9035407,39.19238,0,0,0,-17.41968,24.80578,-64.7184,-1.197964,-111.2317,-56.30258,0.001067912,-0.1257102,0.09433498,0,0.3,0,0,0,0,
6.38224E+17,-1.319358,73.31404,29.74442,-138.8666,-37.9656,144.7387,-0.612559,-1.262423,-9.175476,13.70306,-0.9767859,39.19238,0,0,0,-2.404912,35.30426,-63.93029,-1.197964,-111.2317,-56.30258,0.001067912,-0.1257102,0.09433498,0,0.3,0,0,0,0,
6.38224E+17,2.850755,75.9324,32.19588,-150.8056,-39.65023,144.7387,-0.612559,-1.262423,-9.175476,13.70306,-0.9767859,39.19238,0,0,0,5.145727,39.85582,-65.01419,-1.197964,-111.2317,-56.30258,0.001067912,-0.1257102,0.09433498,0,0.3,0,0,0,0,
6.38224E+17,6.05491,79.67291,33.24651,-154.1749,-42.28706,144.8119,-0.612559,-1.262423,-9.175476,13.70306,-0.9767859,39.19238,0,0,0,10.23312,43.01657,-71.87782,-1.197964,-111.2317,-56.30258,0.001067912,-0.1257102,0.09433498,0,0.3,0,0,0,0,
6.38224E+17,8.198866,81.21588,35.11428,-153.8087,-44.33792,144.8119,-0.612559,-1.262423,-9.175476,13.70306,-0.9767859,39.19238,0,0,0,13.84285,46.05476,-72.27383,-1.197964,-111.2317,-56.30258,0.001067912,-0.1257102,0.09433498,0,0.3,0,0,0,0,
6.38224E+17,8.717185,81.61331,37.21554,-153.5157,-44.48441,144.8119,-0.612559,-1.262423,-9.175476,13.62981,-0.9767859,39.19238,0,0,0,15.17113,49.07859,-69.40469,-1.197964,-111.2317,-56.30258,0.001067912,-0.1257102,0.09433498,0,0.3,0,0,0,0,
6.38224E+17,9.211945,81.61331,38.54634,-149.8534,-42.79977,144.8119,-0.612559,-1.262423,-9.175476,13.70306,-0.9767859,39.19238,0,0,0,16.41632,50.98035,-67.12632,-1.197964,-111.2317,-56.30258,0.001067912,-0.1257102,0.09433498,0,0.3,0,0,0,0,
6.38224E+17,9.541784,81.63669,39.10667,-147.8025,-41.62786,144.8119,-0.612559,-1.262423,-9.175476,13.70306,-0.9035407,39.19238,0,0,0,17.15825,51.80592,-66.27367,-1.197964,-111.2317,-56.30258,0.001067912,-0.1257102,0.09433498,0,0.3,0,0,0,0,
6.38224E+17,9.848064,81.75358,40.5542,-145.239,-39.65023,144.7387,-0.612559,-1.262423,-9.175476,13.62981,-0.9035407,39.19238,0,0,0,18.10011,54.00304,-64.08309,-1.197964,-111.2317,-56.30258,0.001067912,-0.1257102,0.09433498,0,0.3,0,0,0,0,
6.38224E+17,10.08366,81.66006,41.79161,-143.1881,-37.67262,144.7387,-0.612559,-1.262423,-9.175476,13.70306,-0.9035407,39.19238,0,0,0,18.94595,55.86757,-61.81209,-1.197964,-111.2317,-56.30258,0.001067912,-0.1257102,0.09433498,0,0.3,0,0,0,0,
6.38224E+17,10.31926,81.61331,42.16516,-142.6021,-36.79367,144.7387,-0.612559,-1.262423,-9.175476,13.70306,-0.9035407,39.19238,0,0,0,19.51894,56.43325,-61.14911,-1.197964,-111.2317,-56.30258,0.001067912,-0.1257102,0.09433498,0,0.3,0,0,0,0,
6.38224E+17,11.02606,81.47304,42.56207,-142.3824,-35.62175,144.8119,-0.612559,-1.262423,-9.175476,13.70306,-0.9767859,39.19238,0,0,0,21.03214,57.00769,-60.41115,-1.197964,-111.2317,-56.30258,0.001067912,-0.1257102,0.09433498,0,0.3,0,0,0,0,
6.38224E+17,12.34542,81.02885,42.58541,-144.4333,-35.03579,144.8852,-0.612559,-1.262423,-9.175476,13.70306,-0.9035407,39.19238,0,0,0,23.73889,56.8872,-59.8868,-1.197964,-111.2317,-56.30258,0.001067912,-0.1257102,0.09433498,0,0.3,0,0,0,0,
6.38224E+17,13.05222,80.74831,42.53872,-147.1433,-34.96254,144.8119,-0.612559,-1.262423,-9.175476,13.70306,-0.9035407,39.19238,0,0,0,25.20256,56.7103,-59.63784,-1.197964,-111.2317,-56.30258,0.001067912,-0.1257102,0.09433498,0,0.3,0,0,0,0,
6.38224E+17,13.8297,79.95346,41.53479,-154.2481,-35.18228,144.9584,-0.612559,-1.262423,-9.175476,13.62981,-0.9035407,39.26562,0,0,0,26.6965,54.83568,-59.90399,-1.197964,-111.2317,-56.30258,0.001067912,-0.1257102,0.09433498,0,0.3,0,0,0,0,
6.38224E+17,12.5339,79.62616,39.36349,-155.2735,-35.84149,144.8852,-0.612559,-1.262423,-9.175476,13.70306,-0.9035407,39.19238,0,0,0,23.56546,51.42229,-62.34991,-1.197964,-111.2317,-56.30258,0.001067912,-0.1257102,0.09433498,0,0.3,0,0,0,0,
6.38224E+17,10.36638,79.64954,37.05211,-155.3468,-37.08665,137.9269,-0.612559,-1.262423,-9.175476,13.62981,-0.9767859,39.19238,0,0,0,18.76933,48.10501,-65.74491,-1.197964,-111.2317,-56.30258,0.001067912,-0.1257102,0.09433498,0,0.3,0,0,0,0,
6.38224E+17,6.950189,79.67291,34.99755,-155.3468,-39.21077,127.3796,-0.612559,-1.262423,-9.175476,13.70306,-0.9035407,39.19238,0,0,0,11.97293,45.2403,-68.7692,-1.197964,-111.2317,-56.30258,0.001067912,-0.1257102,0.09433498,0,0.3,0,0,0,0,
6.38224E+17,5.607271,79.64954,34.15705,-155.2735,-40.08971,123.7173,-0.612559,-1.262423,-9.175476,13.70306,-0.9767859,39.19238,0,0,0,9.656593,44.18267,-69.99296,-1.197964,-111.2317,-56.30258,0.001067912,-0.1257102,0.09433498,0,0.3,0,0,0,0,
6.38224E+17,3.180595,79.62616,32.0091,-155.0538,-43.166,115.8801,-0.612559,-1.262423,-9.175476,13.70306,-0.9035407,39.19238,0,0,0,5.253997,41.44424,-73.80083,-1.197964,-111.2317,-56.30258,0.001067912,-0.1257102,0.09433498,0,0.3,0,0,0,0,
6.38224E+17,1.931917,79.15859,30.67831,-154.4678,-47.63396,109.7275,-0.612559,-1.262423,-9.175476,13.70306,-0.9767859,39.19238,0,0,0,3.139235,39.63285,-75.2835,-1.197964,-111.2317,-56.30258,0.001067912,-0.1257102,0.09433498,0,0.3,0,0,0,0,
6.38224E+17,-0.07067989,77.63902,29.20743,-154.1749,-52.10191,105.2595,-0.612559,-1.262423,-9.175476,13.70306,-0.9767859,39.19238,0,0,0,-0.1154861,37.21299,-74.73262,-1.197964,-111.2317,-56.30258,0.001067912,-0.1257102,0.09433498,0,0.3,0,0,0,0,
6.38224E+17,-0.7539188,76.86753,28.39028,-154.1749,-54.29927,106.5047,-0.612559,-1.262423,-9.175476,13.62981,-0.9767859,39.26562,0,0,0,-1.232931,35.90065,-74.65599,-1.197964,-111.2317,-56.30258,0.001067912,-0.1257102,0.09433498,0,0.3,0,0,0,0,
6.38224E+17,-1.884797,75.20768,26.84936,-154.2481,-58.47424,118.2972,-0.612559,-1.262423,-9.175476,13.70306,-0.9767859,39.19238,0,0,0,-3.100652,33.30598,-74.12756,-1.197964,-111.2317,-56.30258,0.001067912,-0.1257102,0.09433498,0,0.3,0,0,0,0,
6.38224E+17,-3.910954,73.96864,26.05555,-152.6367,-61.18431,138.0733,-0.612559,-1.262423,-9.175476,13.70306,-0.9767859,39.19238,0,0,0,-6.506812,31.71665,-73.17279,-1.197964,-111.2317,-56.30258,0.001067912,-0.1257102,0.09433498,0,0.3,0,0,0,0,
6.38224E+17,-4.499953,73.3608,25.54191,-147.7293,-61.84352,141.5891,-0.612559,-1.262423,-9.175476,13.70306,-0.9767859,39.19238,0,0,0,-7.506938,30.7985,-72.96431,-1.197964,-111.2317,-56.30258,0.001067912,-0.1257102,0.09433498,0,0.3,0,0,0,0,
6.38224E+17,-5.489471,72.44905,24.65471,-133.7395,-62.72246,141.5891,-0.612559,-1.262423,-9.175476,13.70306,-0.9035407,39.19238,0,0,0,-9.168229,29.29888,-72.95055,-1.197964,-111.2317,-56.30258,0.001067912,-0.1257102,0.09433498,0,0.3,0,0,0,0,
6.38224E+17,-5.72507,71.95811,24.07103,-127.9531,-62.9422,139.0255,-0.612559,-1.262423,-9.175476,13.62981,-0.9035407,39.19238,0,0,0,-9.545514,28.38927,-73.13786,-1.197964,-111.2317,-56.30258,0.001067912,-0.1257102,0.09433498,0,0.3,0,0,0,0,
6.38224E+17,-5.819311,71.63082,23.76752,-127.5869,-63.08869,138.5861,-0.612559,-1.262423,-9.175476,13.70306,-0.9035407,39.19238,0,0,0,-9.710002,27.86487,-73.0762,-1.197964,-111.2317,-56.30258,0.001067912,-0.1257102,0.09433498,0,0.3,0,0,0,0,
6.38224E+17,-6.10203,70.88271,23.0204,-128.3926,-63.16194,138.9523,-0.612559,-1.262423,-9.175476,13.70306,-0.9035407,39.19238,0,0,0,-10.18562,26.61501,-73.07267,-1.197964,-111.2317,-56.30258,0.001067912,-0.1257102,0.09433498,0,0.3,0,0,0,0,
6.38224E+17,-6.26695,69.59691,21.75965,-128.4658,-63.23518,139.0988,-0.612559,-1.262423,-9.175476,13.70306,-0.9035407,39.19238,0,0,0,-10.4711,24.48562,-72.99971,-1.197964,-111.2317,-56.30258,0.001067912,-0.1257102,0.09433498,0,0.3,0,0,0,0,
6.38224E+17,-6.26695,67.4695,19.58836,-129.4913,-63.23518,138.7326,-0.612559,-1.262423,-9.175476,13.70306,-0.9035407,39.19238,0,0,0,-10.45798,20.8897,-73.11916,-1.197964,-111.2317,-56.30258,0.001067912,-0.1257102,0.09433498,0,0.3,0,0,0,0,
6.38224E+17,-6.26695,64.24331,16.88007,-134.5452,-63.23518,135.1435,-0.612559,-1.262423,-9.175476,13.70306,-0.9035407,39.19238,0,0,0,-10.55238,15.84677,-72.25961,-1.197964,-111.2317,-56.30258,0.001067912,-0.1257102,0.09433498,0,0.3,0,0,0,0,
6.38224E+17,-6.26695,62.32629,15.47924,-136.9623,-63.23518,133.3857,-0.612559,-1.262423,-9.175476,13.70306,-0.9035407,39.19238,0,0,0,-10.64561,12.93264,-71.41061,-1.197964,-111.2317,-56.30258,0.001067912,-0.1257102,0.09433498,0,0.3,0,0,0,0,
6.38224E+17,-6.26695,58.42213,13.07447,-139.3061,-63.23518,131.7743,-0.612559,-1.262423,-9.175476,13.70306,-0.9035407,39.19238,0,0,0,-10.91563,7.061615,-68.95184,-1.197964,-111.2317,-56.30258,0.001067912,-0.1257102,0.09433498,0,0.3,0,0,0,0,
6.38224E+17,-6.26695,54.35432,10.62301,-144.067,-63.23518,127.8923,-0.612559,-1.262423,-9.175476,13.70306,-0.9035407,39.19238,0,0,0,-11.16662,0.6504976,-66.66625,-1.197964,-111.2317,-56.30258,0.001067912,-0.1257102,0.09433498,0,0.3,0,0,0,0,
6.38224E+17,-6.21983,49.93584,8.451711,-145.3122,-63.23518,122.6919,-0.612559,-1.262423,-9.175476,13.70306,-0.9035407,39.19238,0,0,0,-11.42257,-6.49585,-63.54132,-1.197964,-111.2317,-56.30258,0.001067912,-0.1257102,0.09433498,0,0.3,0,0,0,0,
6.38224E+17,-6.21983,48.01883,7.821334,-144.067,-63.23518,121.5932,-0.612559,-1.262423,-9.175476,13.70306,-0.9035407,39.19238,0,0,0,-11.62989,-9.631796,-61.63901,-1.197964,-111.2317,-56.30258,0.001067912,-0.1257102,0.09433498,0,0.3,0,0,0,0,
6.38224E+17,-6.21983,44.83939,6.864096,-143.0416,-63.23518,121.7397,-0.612559,-1.262423,-9.175476,13.70306,-0.9767859,39.19238,0,0,0,-11.97129,-15.0162,-58.5065,-1.197964,-111.2317,-56.30258,0.001067912,-0.1257102,0.09433498,0,0.3,0,0,0,0,
6.38224E+17,-6.172709,41.80023,5.906858,-139.8921,-63.23518,125.7682,-0.612559,-1.262423,-9.175476,13.70306,-0.9767859,39.26562,0,0,0,-12.16463,-20.40948,-55.87377,-1.197964,-111.2317,-56.30258,0.001067912,-0.1257102,0.09433498,0,0.3,0,0,0,0,
6.38224E+17,-6.14915,40.25727,5.346524,-136.2298,-63.16194,126.8668,-0.612559,-1.262423,-9.175476,13.70306,-0.9767859,39.19238,0,0,0,-12.23186,-23.2463,-54.81546,-1.197964,-111.2317,-56.30258,0.001067912,-0.1257102,0.09433498,0,0.3,0,0,0,0,
6.38224E+17,-6.05491,36.61026,3.805604,-126.5614,-62.57597,127.5261,-0.612559,-1.262423,-9.175476,13.62981,-0.9035407,39.19238,0,0,0,-12.22448,-30.18019,-53.10443,-1.197964,-111.2317,-56.30258,0.001067912,-0.1257102,0.09433498,0,0.3,0,0,0,0,
6.38224E+17,-6.00779,32.58922,2.101254,-117.4058,-61.40405,127.4528,-0.612559,-1.262423,-9.175476,13.62981,-0.9035407,39.19238,0,0,0,-12.27118,-38.0864,-51.75004,-1.197964,-111.2317,-56.30258,0.001067912,-0.1257102,0.09433498,0,0.3,0,0,0,0,
6.38224E+17,-5.98423,27.49277,0.2334726,-108.9094,-59.49968,127.3796,-0.612559,-1.262423,-9.175476,13.70306,-0.9767859,39.19238,0,0,0,-12.38901,-48.43965,-50.16352,-1.197964,-111.2317,-56.30258,0.001067912,-0.1257102,0.09433498,0,0.3,0,0,0,0,
6.38224E+17,-5.98423,23.63536,-0.7704598,-104.0019,-57.81504,127.3796,-0.612559,-1.262423,-9.175476,13.70306,-0.9035407,39.19238,0,0,0,-12.54923,-56.52599,-48.63506,-1.197964,-111.2317,-56.30258,0.001067912,-0.1257102,0.09433498,0,0.3,0,0,0,0,
6.38224E+17,-5.98423,21.41443,-1.214058,-101.4383,-56.7896,127.3796,-0.612559,-1.262423,-9.175476,13.70306,-0.9767859,39.19238,0,0,0,-12.64804,-61.28247,-47.69246,-1.197964,-111.2317,-56.30258,0.001067912,-0.1257102,0.09433498,0,0.3,0,0,0,0,
6.38224E+17,-5.96067,16.87906,-1.681003,-96.82391,-54.519,127.3796,-0.612559,-1.262423,-9.175476,13.70306,-0.9767859,39.19238,0,0,0,-12.84504,-71.2241,-45.32531,-1.197964,-111.2317,-56.30258,0.001067912,-0.1257102,0.09433498,0,0.3,0,0,0,0,
6.38224E+17,-5.96067,13.13855,-1.727698,-94.11383,-52.32165,127.3796,-0.612559,-1.262423,-9.175476,13.62981,-0.9767859,39.19238,0,0,0,-13.06784,-79.62804,-43.19146,-1.197964,-111.2317,-56.30258,0.001067912,-0.1257102,0.09433498,0,0.3,0,0,0,0,
6.38224E+17,-5.96067,10.42668,-1.821087,-92.57568,-50.41727,127.3796,-0.612559,-1.262423,-9.175476,13.70306,-0.9035407,39.19238,0,0,0,-13.1791,-85.79935,-42.1258,-1.197964,-111.2317,-56.30258,0.001067912,-0.1257102,0.09433498,0,0.3,0,0,0,0,
6.38224E+17,-5.819311,8.042102,-1.984518,-90.30508,-49.09886,126.5739,-0.612559,-1.262423,-9.175476,13.70306,-0.9035407,39.19238,0,0,0,-12.91939,-91.26426,-41.58591,-1.197964,-111.2317,-56.30258,0.001067912,-0.1257102,0.09433498,0,0.3,0,0,0,0,
6.38224E+17,-5.513031,5.938064,-2.288032,-85.83713,-48.21992,123.0581,-0.612559,-1.262423,-9.175476,13.62981,-0.9035407,39.19238,0,0,0,-12.23102,-96.09818,-41.62815,-1.197964,-111.2317,-56.30258,0.001067912,-0.1257102,0.09433498,0,0.3,0,0,0,0,
6.38224E+17,-5.348111,5.260096,-2.47481,-83.12706,-48.00018,120.641,-0.612559,-1.262423,-9.175476,13.70306,-0.9767859,39.19238,0,0,0,-11.84008,-97.65048,-41.87263,-1.197964,-111.2317,-56.30258,0.001067912,-0.1257102,0.09433498,0,0.3,0,0,0,0,
6.38224E+17,-4.829792,4.184699,-2.941756,-76.242,-47.85369,114.5617,-0.612559,-1.262423,-9.175476,13.62981,-0.9767859,39.19238,0,0,0,-10.6214,-100.0935,-42.64707,-1.197964,-111.2317,-56.30258,0.001067912,-0.1257102,0.09433498,0,0.3,0,0,0,0,
6.38224E+17,-3.769594,3.553487,-3.712215,-67.23285,-48.43966,106.5047,-0.612559,-1.262423,-9.175476,13.70306,-0.9035407,39.19238,0,0,0,-8.182535,-101.4551,-44.1594,-1.197964,-111.2317,-56.30258,0.001067912,-0.1257102,0.09433498,0,0.3,0,0,0,0,
6.38224E+17,-2.921435,3.319705,-4.109118,-61.59297,-48.87913,101.5973,-0.612559,-1.262423,-9.175476,13.62981,-0.9767859,39.19238,0,0,0,-6.297984,-101.9353,-44.93972,-1.197964,-111.2317,-56.30258,0.001067912,-0.1257102,0.09433498,0,0.3,0,0,0,0,
6.38224E+17,-0.5654391,3.062545,-4.669453,-48.3356,-49.61158,91.19645,-0.612559,-1.262423,-9.175476,13.70306,-0.9035407,39.19238,0,0,0,-1.20697,-102.433,-46.05205,-1.197964,-111.2317,-56.30258,0.001067912,-0.1257102,0.09433498,0,0.3,0,0,0,0,
6.38224E+17,2.615156,3.24957,-5.113051,-33.32034,-49.9778,80.94212,-0.612559,-1.262423,-9.175476,13.70306,-0.9767859,39.19238,0,0,0,5.53236,-101.9104,-47.225,-1.197964,-111.2317,-56.30258,0.001067912,-0.1257102,0.09433498,0,0.3,0,0,0,0,
6.38224E+17,6.761709,3.90416,-5.673386,-18.23184,-50.05105,71.56674,-0.612559,-1.262423,-9.175476,13.70306,-0.9767859,39.19238,0,0,0,14.11211,-100.2673,-49.32579,-1.197964,-111.2317,-56.30258,0.001067912,-0.1257102,0.09433498,0,0.3,0,0,0,0,
6.38224E+17,9.211945,4.465237,-5.860164,-11.56653,-50.05105,67.83124,-0.612559,-1.262423,-9.175476,13.70306,-0.9767859,39.19238,0,0,0,19.10319,-98.92126,-50.55892,-1.197964,-111.2317,-56.30258,0.001067912,-0.1257102,0.09433498,0,0.3,0,0,0,0,
6.38224E+17,15.33753,6.288737,-5.860164,1.764095,-49.9778,61.38566,-0.612559,-1.262423,-9.175476,13.62981,-0.9767859,39.19238,0,0,0,31.4582,-94.69611,-53.65345,-1.197964,-111.2317,-56.30258,0.001067912,-0.1257102,0.09433498,0,0.3,0,0,0,0,
6.38224E+17,24.26676,8.275885,-5.04301,18.75698,-49.83131,54.06115,-0.612559,-1.262423,-9.175476,13.70306,-0.9767859,39.19238,0,0,0,49.41666,-90.28944,-58.73471,-1.197964,-111.2317,-56.30258,0.001067912,-0.1257102,0.09433498,0,0.3,0,0,0,0,
6.38224E+17,29.40283,9.164255,-3.898993,30.03673,-49.53833,48.34802,-0.612559,-1.262423,-9.175476,13.62981,-0.9035407,39.19238,0,0,0,60.18045,-88.45332,-61.55924,-1.197964,-111.2317,-56.30258,0.001067912,-0.1257102,0.09433498,0,0.3,0,0,0,0,
6.38224E+17,35.92894,10.77735,-1.727698,46.29716,-48.65939,38.82615,-0.612559,-1.262423,-9.175476,13.70306,-0.9035407,39.19238,0,0,0,74.508,-85.00386,-65.5306,-1.197964,-111.2317,-56.30258,0.001067912,-0.1257102,0.09433498,0,0.3,0,0,0,0,
6.38224E+17,38.87394,12.0164,-0.5603344,54.42737,-48.21992,33.69899,-0.612559,-1.262423,-9.175476,13.70306,-0.9767859,39.19238,0,0,0,81.03934,-82.23127,-67.8233,-1.197964,-111.2317,-56.30258,0.001067912,-0.1257102,0.09433498,0,0.3,0,0,0,0,
6.38224E+17,43.86865,14.7984,1.354141,69.00316,-47.19449,22.78546,-0.612559,-1.262423,-9.175476,13.62981,-0.9035407,39.19238,0,0,0,91.53116,-75.90266,-73.13082,-1.197964,-111.2317,-56.30258,0.001067912,-0.1257102,0.09433498,0,0.3,0,0,0,0,
6.38224E+17,47.544,17.51027,3.081839,78.74477,-46.2423,13.04385,-0.612559,-1.262423,-9.175476,13.70306,-0.9035407,39.19238,0,0,0,99.11563,-69.68522,-77.66719,-1.197964,-111.2317,-56.30258,0.001067912,-0.1257102,0.09433498,0,0.3,0,0,0,0,
6.38224E+17,49.02828,18.9831,4.249202,82.48027,-45.80283,8.06318,-0.612559,-1.262423,-9.175476,13.70306,-0.9767859,39.19238,0,0,0,102.6681,-66.25613,-79.19093,-1.197964,-111.2317,-56.30258,0.001067912,-0.1257102,0.09433498,0,0.3,0,0,0,0,
6.38224E+17,50.88952,21.81186,7.027527,88.77935,-44.92389,-1.238957,-0.612559,-1.262423,-9.175476,13.70306,-0.9767859,39.19238,0,0,0,108.722,-59.45067,-79.96095,-1.197964,-111.2317,-56.30258,0.001067912,-0.1257102,0.09433498,0,0.3,0,0,0,0,
6.38224E+17,51.59631,24.66401,10.2728,96.90957,-43.89846,-13.25116,-0.612559,-1.262423,-9.175476,13.70306,-0.9767859,39.19238,0,0,0,113.6027,-52.21592,-78.29768,-1.197964,-111.2317,-56.30258,0.001067912,-0.1257102,0.09433498,0,0.3,0,0,0,0,
6.38224E+17,51.61988,26.13683,11.90711,100.938,-43.45898,-20.20946,-0.612559,-1.262423,-9.175476,13.70306,-0.9035407,39.19238,0,0,0,115.4131,-48.38791,-76.93983,-1.197964,-111.2317,-56.30258,0.001067912,-0.1257102,0.09433498,0,0.3,0,0,0,0,
6.38224E+17,51.61988,29.24613,15.3625,109.288,-42.36031,-34.19928,-0.612559,-1.262423,-9.175476,13.62981,-0.9767859,39.19238,0,0,0,118.9029,-40.08548,-74.17586,-1.197964,-111.2317,-56.30258,0.001067912,-0.1257102,0.09433498,0,0.3,0,0,0,0,
6.38224E+17,51.61988,32.44894,18.86459,116.2463,-40.67567,-48.84832,-0.612559,-1.262423,-9.175476,13.62981,-0.9035407,39.19238,0,0,0,122.0126,-31.28849,-71.71287,-1.197964,-111.2317,-56.30258,0.001067912,-0.1257102,0.09433498,0,0.3,0,0,0,0,
6.38224E+17,51.69056,35.79203,22.31999,120.2748,-38.40507,-65.47498,-0.612559,-1.262423,-9.175476,13.62981,-0.9767859,39.19238,0,0,0,124.6139,-22.02,-69.90252,-1.197964,-111.2317,-56.30258,0.001067912,-0.1257102,0.09433498,0,0.3,0,0,0,0,
6.38224E+17,51.9026,37.45188,23.53404,120.4945,-37.1599,-74.1179,-0.612559,-1.262423,-9.175476,13.70306,-0.9035407,39.19238,0,0,0,125.2118,-17.81889,-70.18054,-1.197964,-111.2317,-56.30258,0.001067912,-0.1257102,0.09433498,0,0.3,0,0,0,0,
6.38224E+17,52.11464,40.81834,26.96609,120.5678,-34.0836,-91.91647,-0.612559,-1.262423,-9.175476,13.70306,-0.9035407,39.19238,0,0,0,127.373,-8.335577,-69.24507,-1.197964,-111.2317,-56.30258,0.001067912,-0.1257102,0.09433498,0,0.3,0,0,0,0,
6.38224E+17,52.09107,43.15617,29.81446,119.6156,-30.05512,-110.5207,-0.612559,-1.262423,-9.175476,13.70306,-0.9767859,39.19238,0,0,0,129.0615,-1.13984,-67.84607,-1.197964,-111.2317,-56.30258,0.001067912,-0.1257102,0.09433498,0,0.3,0,0,0,0,
6.38224E+17,52.09107,44.02116,30.81839,118.2239,-27.71127,-119.5299,-0.612559,-1.262423,-9.175476,13.70306,-0.9767859,39.19238,0,0,0,129.5578,1.497728,-67.45962,-1.197964,-111.2317,-56.30258,0.001067912,-0.1257102,0.09433498,0,0.3,0,0,0,0,
6.38224E+17,52.09107,44.95628,31.82232,114.4152,-22.80385,-133.593,-0.612559,-1.262423,-9.175476,13.70306,-0.9767859,39.19238,0,0,0,129.9293,4.264915,-67.17031,-1.197964,-111.2317,-56.30258,0.001067912,-0.1257102,0.09433498,0,0.3,0,0,0,0,
6.38224E+17,52.09107,44.81602,31.58885,109.6542,-17.96966,-141.4302,-0.612559,-1.262423,-9.175476,13.62981,-0.9767859,39.26562,0,0,0,129.7463,3.748035,-67.31279,-1.197964,-111.2317,-56.30258,0.001067912,-0.1257102,0.09433498,0,0.3,0,0,0,0,
6.38224E+17,52.09107,44.7225,31.5655,107.1639,-15.47933,-141.8697,-0.612559,-1.262423,-9.175476,13.70306,-0.9035407,39.26562,0,0,0,129.8307,3.565067,-67.24706,-1.197964,-111.2317,-56.30258,0.001067912,-0.1257102,0.09433498,0,0.3,0,0,0,0,
6.38224E+17,52.18531,44.7225,31.63554,104.0144,-11.3776,-142.0162,-0.612559,-1.262423,-9.175476,13.62981,-0.9767859,39.19238,0,0,0,130.1065,3.650486,-67.37562,-1.197964,-111.2317,-56.30258,0.001067912,-0.1257102,0.09433498,0,0.3,0,0,0,0,
6.38224E+17,52.79787,44.7225,32.26592,102.6959,-8.447793,-141.9429,-0.612559,-1.262423,-9.175476,13.70306,-0.9035407,39.19238,0,0,0,132.1701,4.426875,-68.01967,-1.197964,-111.2317,-56.30258,0.001067912,-0.1257102,0.09433498,0,0.3,0,0,0,0,
6.38224E+17,53.99943,44.7225,33.64341,102.8424,-6.177193,-136.3031,-0.612559,-1.262423,-9.175476,13.70306,-0.9035407,39.19238,0,0,0,136.4212,6.170797,-69.23209,-1.197964,-111.2317,-56.30258,0.001067912,-0.1257102,0.09433498,0,0.3,0,0,0,0,
6.38224E+17,54.80047,44.7225,34.90416,104.2341,-5.444741,-130.004,-0.612559,-1.262423,-9.175476,13.70306,-0.9767859,39.19238,0,0,0,139.775,7.823193,-69.75133,-1.197964,-111.2317,-56.30258,0.001067912,-0.1257102,0.09433498,0,0.3,0,0,0,0,
6.38224E+17,55.24811,44.7225,35.8614,105.4793,-5.15176,-126.4882,-0.612559,-1.262423,-9.175476,13.70306,-0.9767859,39.19238,0,0,0,142.0334,9.113196,-69.81098,-1.197964,-111.2317,-56.30258,0.001067912,-0.1257102,0.09433498,0,0.3,0,0,0,0,
6.38224E+17,55.24811,44.74588,38.35956,108.995,-4.785534,-122.1667,-0.612559,-1.262423,-9.175476,13.62981,-0.9767859,39.19238,0,0,0,145.8112,12.65959,-67.19,-1.197964,-111.2317,-56.30258,0.001067912,-0.1257102,0.09433498,0,0.3,0,0,0,0,
6.38224E+17,55.22455,44.83939,40.64759,112.877,-4.419309,-118.9439,-0.612559,-1.262423,-9.175476,13.62981,-0.9767859,39.19238,0,0,0,149.0184,16.20129,-64.87416,-1.197964,-111.2317,-56.30258,0.001067912,-0.1257102,0.09433498,0,0.3,0,0,0,0,
6.38224E+17,55.22455,44.90953,42.65545,116.5393,-3.979838,-117.1128,-0.612559,-1.262423,-9.175476,13.70306,-0.9035407,39.19238,0,0,0,151.7918,19.42254,-62.94839,-1.197964,-111.2317,-56.30258,0.001067912,-0.1257102,0.09433498,0,0.3,0,0,0,0,
6.38224E+17,55.22455,44.97966,43.72943,118.5169,-3.760103,-116.2339,-0.612559,-1.262423,-9.175476,13.70306,-0.9767859,39.19238,0,0,0,153.1939,21.24888,-61.97479,-1.197964,-111.2317,-56.30258,0.001067912,-0.1257102,0.09433498,0,0.3,0,0,0,0,
6.38224E+17,55.24811,45.23682,45.31704,120.641,-3.247386,-114.5492,-0.612559,-1.262423,-9.175476,13.70306,-0.9035407,39.19238,0,0,0,155.0537,24.26214,-60.77786,-1.197964,-111.2317,-56.30258,0.001067912,-0.1257102,0.09433498,0,0.3,0,0,0,0,
6.38224E+17,55.27167,45.72776,46.18089,121.1537,-2.954405,-114.183,-0.612559,-1.262423,-9.175476,13.70306,-0.9035407,39.19238,0,0,0,155.5813,26.50336,-60.50653,-1.197964,-111.2317,-56.30258,0.001067912,-0.1257102,0.09433498,0,0.3,0,0,0,0,
6.38224E+17,55.27167,46.24208,46.76458,121.227,-2.514934,-114.183,-0.612559,-1.262423,-9.175476,13.70306,-0.9767859,39.19238,0,0,0,155.6427,28.32005,-60.46396,-1.197964,-111.2317,-56.30258,0.001067912,-0.1257102,0.09433498,0,0.3,0,0,0,0,
6.38224E+17,55.24811,46.84992,47.34826,121.227,-2.075463,-114.183,-0.612559,-1.262423,-9.175476,13.70306,-0.9767859,39.19238,0,0,0,155.515,30.28744,-60.45781,-1.197964,-111.2317,-56.30258,0.001067912,-0.1257102,0.09433498,0,0.3,0,0,0,0,
6.38224E+17,55.24811,47.76167,48.2588,121.227,-1.562747,-114.2563,-0.612559,-1.262423,-9.175476,13.70306,-0.9767859,39.19238,0,0,0,155.4031,33.2963,-60.53546,-1.197964,-111.2317,-56.30258,0.001067912,-0.1257102,0.09433498,0,0.3,0,0,0,0,
6.38224E+17,55.24811,48.29937,48.79579,121.227,-1.343012,-114.2563,-0.612559,-1.262423,-9.175476,13.70306,-0.9035407,39.19238,0,0,0,155.3186,35.0696,-60.59403,-1.197964,-111.2317,-56.30258,0.001067912,-0.1257102,0.09433498,0,0.3,0,0,0,0,
6.38224E+17,55.24811,50.4034,50.89704,121.3002,-0.8302955,-113.6703,-0.612559,-1.262423,-9.175476,13.70306,-0.9035407,39.19238,0,0,0,154.857,41.99703,-60.91428,-1.197964,-111.2317,-56.30258,0.001067912,-0.1257102,0.09433498,0,0.3,0,0,0,0,
6.38224E+17,55.24811,51.15151,51.59746,121.3002,-0.8302955,-113.0843,-0.612559,-1.262423,-9.175476,13.70306,-0.9767859,39.19238,0,0,0,154.5872,44.36927,-61.10149,-1.197964,-111.2317,-56.30258,0.001067912,-0.1257102,0.09433498,0,0.3,0,0,0,0,
6.38224E+17,55.24811,52.90487,53.20842,121.3735,-0.7570504,-110.8137,-0.612559,-1.262423,-9.175476,13.62981,-0.9767859,39.19238,0,0,0,153.8236,49.85055,-61.63127,-1.197964,-111.2317,-56.30258,0.001067912,-0.1257102,0.09433498,0,0.3,0,0,0,0,
6.38224E+17,55.24811,54.84526,55.00616,121.3735,-0.9767859,-106.6388,-0.612559,-1.262423,-9.175476,13.70306,-0.9035407,39.19238,0,0,0,152.842,55.90229,-62.31228,-1.197964,-111.2317,-56.30258,0.001067912,-0.1257102,0.09433498,0,0.3,0,0,0,0,
6.38224E+17,55.24811,55.85053,55.77662,121.3735,-0.9767859,-103.6357,-0.612559,-1.262423,-9.175476,13.70306,-0.9035407,39.19238,0,0,0,152.0974,58.70843,-62.82882,-1.197964,-111.2317,-56.30258,0.001067912,-0.1257102,0.09433498,0,0.3,0,0,0,0,
6.38224E+17,55.20099,57.55714,56.43034,121.3002,-1.050031,-97.48311,-0.612559,-1.262423,-9.175476,13.70306,-0.9035407,39.19238,0,0,0,149.9813,62.15171,-64.11414,-1.197964,-111.2317,-56.30258,0.001067912,-0.1257102,0.09433498,0,0.3,0,0,0,0,
6.38224E+17,54.91827,59.1001,56.29026,119.8353,-0.9767859,-90.96429,-0.612559,-1.262423,-9.175476,13.70306,-0.9767859,39.19238,0,0,0,146.8163,63.76571,-65.23567,-1.197964,-111.2317,-56.30258,0.001067912,-0.1257102,0.09433498,0,0.3,0,0,0,0,
6.38224E+17,54.14079,60.68982,55.5198,119.0296,-0.9035407,-84.95818,-0.612559,-1.262423,-9.175476,13.70306,-0.9767859,39.19238,0,0,0,141.9949,64.13654,-65.71679,-1.197964,-111.2317,-56.30258,0.001067912,-0.1257102,0.09433498,0,0.3,0,0,0,0,
6.38224E+17,53.57535,61.48467,54.95946,118.5169,-0.9035407,-83.49328,-0.612559,-1.262423,-9.175476,13.70306,-0.9767859,39.19238,0,0,0,139.0739,63.95956,-65.7235,-1.197964,-111.2317,-56.30258,0.001067912,-0.1257102,0.09433498,0,0.3,0,0,0,0,
6.38224E+17,52.06751,63.54195,53.37185,117.8577,-1.269767,-84.44547,-0.612559,-1.262423,-9.175476,13.62981,-0.9767859,39.19238,0,0,0,131.269,63.17386,-66.04025,-1.197964,-111.2317,-56.30258,0.001067912,-0.1257102,0.09433498,0,0.3,0,0,0,0,
6.38224E+17,50.8424,65.55248,52.01771,116.8323,-2.075463,-87.30203,-0.612559,-1.262423,-9.175476,13.62981,-0.9035407,39.19238,0,0,0,124.2945,62.67796,-67.13095,-1.197964,-111.2317,-56.30258,0.001067912,-0.1257102,0.09433498,0,0.3,0,0,0,0,
6.38224E+17,50.06492,66.86166,51.36399,116.6125,-2.73467,-88.69369,-0.612559,-1.262423,-9.175476,13.62981,-0.9767859,39.26562,0,0,0,120.0487,62.71333,-67.84877,-1.197964,-111.2317,-56.30258,0.001067912,-0.1257102,0.09433498,0,0.3,0,0,0,0,
6.38224E+17,47.99164,69.80731,50.45344,116.3928,-4.565799,-90.59806,-0.612559,-1.262423,-9.175476,13.70306,-0.9035407,39.19238,0,0,0,110.6076,63.5993,-68.72928,-1.197964,-111.2317,-56.30258,0.001067912,-0.1257102,0.09433498,0,0.3,0,0,0,0,
6.38224E+17,44.59901,73.03351,50.14993,116.5393,-7.27587,-91.33051,-0.612559,-1.262423,-9.175476,13.70306,-0.9035407,39.19238,0,0,0,99.20486,65.44788,-67.74672,-1.197964,-111.2317,-56.30258,0.001067912,-0.1257102,0.09433498,0,0.3,0,0,0,0,
6.38224E+17,39.93414,76.18957,50.50013,119.1029,-10.49866,-92.06297,-0.612559,-1.262423,-9.175476,13.70306,-0.9767859,39.19238,0,0,0,86.48302,68.02417,-65.0426,-1.197964,-111.2317,-56.30258,0.001067912,-0.1257102,0.09433498,0,0.3,0,0,0,0,
6.38224E+17,34.68026,78.97157,50.26667,121.1537,-14.23416,-93.01515,-0.612559,-1.262423,-9.175476,13.70306,-0.9035407,39.19238,0,0,0,72.8652,68.99797,-63.0418,-1.197964,-111.2317,-56.30258,0.001067912,-0.1257102,0.09433498,0,0.3,0,0,0,0,
6.38224E+17,32.3007,80.28075,49.70633,121.3002,-16.28502,-94.11383,-0.612559,-1.262423,-9.175476,13.62981,-0.9035407,39.19238,0,0,0,66.38045,68.54782,-63.34938,-1.197964,-111.2317,-56.30258,0.001067912,-0.1257102,0.09433498,0,0.3,0,0,0,0,
6.38224E+17,26.90548,82.66533,48.46893,121.3002,-20.82623,-97.19013,-0.612559,-1.262423,-9.175476,13.70306,-0.9035407,39.19238,0,0,0,52.87669,67.19431,-64.14903,-1.197964,-111.2317,-56.30258,0.001067912,-0.1257102,0.09433498,0,0.3,0,0,0,0,
6.38224E+17,21.13329,84.32518,46.76458,121.3002,-25.66041,-101.8778,-0.612559,-1.262423,-9.175476,13.70306,-0.9767859,39.19238,0,0,0,39.78094,64.70203,-65.43335,-1.197964,-111.2317,-56.30258,0.001067912,-0.1257102,0.09433498,0,0.3,0,0,0,0,
6.38224E+17,18.18829,84.72261,45.78399,121.3002,-28.00425,-104.7344,-0.612559,-1.262423,-9.175476,13.62981,-0.9767859,39.19238,0,0,0,33.66103,63.14106,-65.89883,-1.197964,-111.2317,-56.30258,0.001067912,-0.1257102,0.09433498,0,0.3,0,0,0,0,
6.38224E+17,12.43966,84.60572,43.40257,121.3735,-32.98492,-113.0111,-0.612559,-1.262423,-9.175476,13.70306,-0.9767859,39.19238,0,0,0,22.43801,59.22481,-66.63185,-1.197964,-111.2317,-56.30258,0.001067912,-0.1257102,0.09433498,0,0.3,0,0,0,0,
6.38224E+17,7.374268,83.74072,40.88106,121.3002,-37.52613,-121.0681,-0.612559,-1.262423,-9.175476,13.70306,-0.9035407,39.19238,0,0,0,13.06801,55.08315,-67.3769,-1.197964,-111.2317,-56.30258,0.001067912,-0.1257102,0.09433498,0,0.3,0,0,0,0,
6.38224E+17,2.992115,82.10425,38.21947,121.3002,-41.92084,-129.3448,-0.612559,-1.262423,-9.175476,13.62981,-0.9035407,39.19238,0,0,0,5.262593,50.66982,-67.66864,-1.197964,-111.2317,-56.30258,0.001067912,-0.1257102,0.09433498,0,0.3,0,0,0,0,
6.38224E+17,1.060198,80.84183,36.7019,121.3002,-43.9717,-133.0803,-0.612559,-1.262423,-9.175476,13.70306,-0.9035407,39.19238,0,0,0,1.867329,48.08601,-67.44636,-1.197964,-111.2317,-56.30258,0.001067912,-0.1257102,0.09433498,0,0.3,0,0,0,0,
6.38224E+17,-2.308876,77.07793,32.94299,121.3002,-47.7072,-138.7934,-0.612559,-1.262423,-9.175476,13.62981,-0.9767859,39.19238,0,0,0,-4.122799,41.414,-66.09632,-1.197964,-111.2317,-56.30258,0.001067912,-0.1257102,0.09433498,0,0.3,0,0,0,0,
6.38224E+17,-5.465911,72.14513,28.74048,121.3002,-51.14973,-141.7964,-0.612559,-1.262423,-9.175476,13.70306,-0.9767859,39.19238,0,0,0,-10.00223,33.3552,-63.821,-1.197964,-111.2317,-56.30258,0.001067912,-0.1257102,0.09433498,0,0.3,0,0,0,0,
6.38224E+17,-9.188385,65.3187,22.78693,120.934,-55.03172,-142.0162,-0.612559,-1.262423,-9.175476,13.70306,-0.9767859,39.19238,0,0,0,-17.1386,21.57551,-62.397,-1.197964,-111.2317,-56.30258,0.001067912,-0.1257102,0.09433498,0,0.3,0,0,0,0,
6.38224E+17,-12.10982,59.96509,17.81396,119.3226,-58.25451,-142.0894,-0.612559,-1.262423,-9.175476,13.70306,-0.9767859,39.19238,0,0,0,-22.56056,11.83733,-63.20231,-1.197964,-111.2317,-56.30258,0.001067912,-0.1257102,0.09433498,0,0.3,0,0,0,0,
6.38224E+17,-13.19358,57.04282,16.29639,116.2463,-59.8659,-142.0894,-0.612559,-1.262423,-9.175476,13.62981,-0.9767859,39.19238,0,0,0,-25.09812,7.248569,-61.28966,-1.197964,-111.2317,-56.30258,0.001067912,-0.1257102,0.09433498,0,0.3,0,0,0,0,
6.38224E+17,-13.33494,50.87097,12.53748,111.6319,-61.84352,-142.0894,-0.612559,-1.262423,-9.175476,13.70306,-0.9767859,39.19238,0,0,0,-26.08583,-3.377,-58.29894,-1.197964,-111.2317,-56.30258,0.001067912,-0.1257102,0.09433498,0,0.3,0,0,0,0,
6.38224E+17,-13.33494,46.47587,9.432296,105.9187,-62.72246,-142.0894,-0.612559,-1.262423,-9.175476,13.62981,-0.9767859,39.19238,0,0,0,-26.221,-11.5071,-57.72868,-1.197964,-111.2317,-56.30258,0.001067912,-0.1257102,0.09433498,0,0.3,0,0,0,0,
6.38224E+17,-13.31138,44.74588,8.03146,103.8679,-62.9422,-142.0894,-0.612559,-1.262423,-9.175476,13.62981,-0.9035407,39.19238,0,0,0,-26.09602,-14.81848,-58.05391,-1.197964,-111.2317,-56.30258,0.001067912,-0.1257102,0.09433498,0,0.3,0,0,0,0,
6.38224E+17,-12.86374,42.99252,6.000247,101.4508,-63.16194,-142.0894,-0.612559,-1.262423,-9.175476,13.70306,-0.9035407,39.19238,0,0,0,-24.81855,-18.33769,-59.67049,-1.197964,-111.2317,-56.30258,0.001067912,-0.1257102,0.09433498,0,0.3,0,0,0,0,
6.38224E+17,-11.9449,42.87563,4.669453,100.2788,-63.30842,-142.0894,-0.612559,-1.262423,-9.175476,13.70306,-0.9767859,39.19238,0,0,0,-22.47267,-18.82484,-62.1222,-1.197964,-111.2317,-56.30258,0.001067912,-0.1257102,0.09433498,0,0.3,0,0,0,0,
6.38224E+17,-11.16742,43.38995,4.552717,98.52097,-63.30842,-142.0894,-0.612559,-1.262423,-9.175476,13.70306,-0.9035407,39.19238,0,0,0,-20.81822,-17.97313,-62.89563,-1.197964,-111.2317,-56.30258,0.001067912,-0.1257102,0.09433498,0,0.3,0,0,0,0,
6.38224E+17,-10.8847,43.9744,4.552717,96.83633,-63.38167,-142.1627,-0.612559,-1.262423,-9.175476,13.70306,-0.9767859,39.19238,0,0,0,-20.12022,-16.98942,-63.71675,-1.197964,-111.2317,-56.30258,0.001067912,-0.1257102,0.09433498,0,0.3,0,0,0,0,
6.38224E+17,-10.8847,45.23682,4.78619,94.41924,-63.38167,-142.1627,-0.612559,-1.262423,-9.175476,13.70306,-0.9035407,39.19238,0,0,0,-19.83288,-14.85338,-65.211,-1.197964,-111.2317,-56.30258,0.001067912,-0.1257102,0.09433498,0,0.3,0,0,0,0,
6.38224E+17,-10.8847,47.71491,6.023595,89.95128,-63.38167,-142.1627,-0.612559,-1.262423,-9.175476,13.70306,-0.9767859,39.19238,0,0,0,-19.58466,-10.61058,-66.50188,-1.197964,-111.2317,-56.30258,0.001067912,-0.1257102,0.09433498,0,0.3,0,0,0,0,
6.38224E+17,-10.8847,49.49166,6.864096,87.46095,-63.38167,-142.1627,-0.612559,-1.262423,-9.175476,13.70306,-0.9035407,39.19238,0,0,0,-19.36597,-7.656682,-67.63911,-1.197964,-111.2317,-56.30258,0.001067912,-0.1257102,0.09433498,0,0.3,0,0,0,0,
6.38224E+17,-10.8847,54.07378,8.731878,83.06623,-63.38167,-142.1627,-0.612559,-1.262423,-9.175476,13.62981,-0.9035407,39.19238,0,0,0,-18.59746,-0.4711535,-71.63571,-1.197964,-111.2317,-56.30258,0.001067912,-0.1257102,0.09433498,0,0.3,0,0,0,0,
6.38224E+17,-10.74334,59.56767,10.97322,79.84344,-63.38167,-142.1627,-0.612559,-1.262423,-9.175476,13.70306,-0.9035407,39.19238,0,0,0,-17.32264,7.416228,-77.05114,-1.197964,-111.2317,-56.30258,0.001067912,-0.1257102,0.09433498,0,0.3,0,0,0,0,
6.38224E+17,-9.447544,63.26142,14.38192,81.08862,-63.38167,-142.1627,-0.612559,-1.262423,-9.175476,13.70306,-0.9035407,39.19238,0,0,0,-15.28497,13.26968,-76.49411,-1.197964,-111.2317,-56.30258,0.001067912,-0.1257102,0.09433498,0,0.3,0,0,0,0,
6.38224E+17,-8.528707,64.45371,15.59597,86.28902,-63.38167,-142.1627,-0.612559,-1.262423,-9.175476,13.70306,-0.9767859,39.19238,0,0,0,-13.84535,15.22307,-76.02505,-1.197964,-111.2317,-56.30258,0.001067912,-0.1257102,0.09433498,0,0.3,0,0,0,0,
6.38224E+17,-8.505146,64.75762,15.92284,87.3877,-63.38167,-142.1627,-0.612559,-1.262423,-9.175476,13.70306,-0.9035407,39.19238,0,0,0,-13.82116,15.73303,-75.92725,-1.197964,-111.2317,-56.30258,0.001067912,-0.1257102,0.09433498,0,0.3,0,0,0,0,
6.38224E+17,-8.505146,65.57586,16.71664,89.43856,-63.38167,-142.1627,-0.612559,-1.262423,-9.175476,13.70306,-0.9767859,39.19238,0,0,0,-13.82778,17.05195,-75.88295,-1.197964,-111.2317,-56.30258,0.001067912,-0.1257102,0.09433498,0,0.3,0,0,0,0,
6.38224E+17,-8.458026,67.11882,18.25756,91.26969,-63.38167,-142.1627,-0.612559,-1.262423,-9.175476,13.70306,-0.9035407,39.19238,0,0,0,-13.77103,19.57025,-75.74186,-1.197964,-111.2317,-56.30258,0.001067912,-0.1257102,0.09433498,0,0.3,0,0,0,0,
6.38224E+17,-8.434465,68.17085,19.30819,92.07539,-63.38167,-142.1627,-0.612559,-1.262423,-9.175476,13.70306,-0.9767859,39.19238,0,0,0,-13.74036,21.28881,-75.6862,-1.197964,-111.2317,-56.30258,0.001067912,-0.1257102,0.09433498,0,0.3,0,0,0,0,
6.38224E+17,-8.387346,70.60218,21.75965,93.3938,-63.38167,-142.1627,-0.612559,-1.262423,-9.175476,13.70306,-0.9035407,39.26562,0,0,0,-13.67095,25.28199,-75.6288,-1.197964,-111.2317,-56.30258,0.001067912,-0.1257102,0.09433498,0,0.3,0,0,0,0,
6.38224E+17,-8.104627,73.38418,24.51463,95.44467,-63.38167,-142.1627,-0.612559,-1.262423,-9.175476,13.62981,-0.9767859,39.19238,0,0,0,-13.1764,29.80258,-75.82132,-1.197964,-111.2317,-56.30258,0.001067912,-0.1257102,0.09433498,0,0.3,0,0,0,0,
6.38224E+17,-7.067988,76.63375,27.82994,100.2788,-63.23518,-142.1627,-0.612559,-1.262423,-9.175476,13.70306,-0.9035407,39.19238,0,0,0,-11.4534,35.16149,-75.97588,-1.197964,-111.2317,-56.30258,0.001067912,-0.1257102,0.09433498,0,0.3,0,0,0,0,
6.38224E+17,-6.10203,78.69103,29.95454,104.6736,-62.86895,-142.1627,-0.612559,-1.262423,-9.175476,13.70306,-0.9767859,39.19238,0,0,0,-9.857478,38.57352,-76.14217,-1.197964,-111.2317,-56.30258,0.001067912,-0.1257102,0.09433498,0,0.3,0,0,0,0,
6.38224E+17,-3.769594,83.24978,34.43722,116.759,-61.4773,-142.2359,-0.612559,-1.262423,-9.175476,13.70306,-0.9767859,39.19238,0,0,0,-5.988255,45.79569,-77.46314,-1.197964,-111.2317,-56.30258,0.001067912,-0.1257102,0.09433498,0,0.3,0,0,0,0,
6.38224E+17,1.060198,88.69691,39.92382,118.3704,-58.98696,-142.2359,-0.612559,-1.262423,-9.175476,13.70306,-0.9767859,39.19238,0,0,0,1.639586,54.39962,-79.75277,-1.197964,-111.2317,-56.30258,0.001067912,-0.1257102,0.09433498,0,0.3,0,0,0,0,
6.38224E+17,4.170113,91.71269,42.88893,118.4436,-57.5953,-142.1627,-0.612559,-1.262423,-9.175476,13.70306,-0.9767859,39.19238,0,0,0,6.309718,58.93829,-81.80999,-1.197964,-111.2317,-56.30258,0.001067912,-0.1257102,0.09433498,0,0.3,0,0,0,0,
6.38224E+17,6.596789,93.51281,44.66332,118.4436,-56.71636,-142.1627,-0.612559,-1.262423,-9.175476,13.70306,-0.9767859,39.19238,0,0,0,9.829994,61.60431,-83.35012,-1.197964,-111.2317,-56.30258,0.001067912,-0.1257102,0.09433498,0,0.3,0,0,0,0,
6.38224E+17,11.61506,96.64549,47.76851,118.4436,-55.61768,-142.1627,-0.612559,-1.262423,-9.175476,13.70306,-0.9767859,39.19238,0,0,0,16.77225,66.17582,-86.75089,-1.197964,-111.2317,-56.30258,0.001067912,-0.1257102,0.09433498,0,0.3,0,0,0,0,
6.38224E+17,16.86893,98.74953,49.86976,118.4436,-55.03172,-138.7201,-0.612559,-1.262423,-9.175476,13.70306,-0.9767859,39.19238,0,0,0,23.69995,69.20046,-90.19193,-1.197964,-111.2317,-56.30258,0.001067912,-0.1257102,0.09433498,0,0.3,0,0,0,0,
6.38224E+17,21.01549,99.17034,50.3367,118.4436,-55.17821,-128.3193,-0.612559,-1.262423,-9.175476,13.70306,-0.9035407,39.26562,0,0,0,29.1924,69.8817,-92.3626,-1.197964,-111.2317,-56.30258,0.001067912,-0.1257102,0.09433498,0,0.3,0,0,0,0,
6.38224E+17,22.16992,98.86642,50.00984,118.4436,-55.91066,-126.9277,-0.612559,-1.262423,-9.175476,13.70306,-0.9035407,39.19238,0,0,0,30.79718,69.40834,-92.77044,-1.197964,-111.2317,-56.30258,0.001067912,-0.1257102,0.09433498,0,0.3,0,0,0,0,
6.38224E+17,23.84268,97.69751,48.93587,118.4436,-58.91372,-125.0233,-0.612559,-1.262423,-9.175476,13.70306,-0.9035407,39.19238,0,0,0,33.42196,67.90032,-92.72489,-1.197964,-111.2317,-56.30258,0.001067912,-0.1257102,0.09433498,0,0.3,0,0,0,0,
6.38224E+17,27.6594,97.34684,49.28608,118.5169,-61.3308,-122.533,-0.612559,-1.262423,-9.175476,13.62981,-0.9767859,39.19238,0,0,0,39.0051,68.62334,-93.92812,-1.197964,-111.2317,-56.30258,0.001067912,-0.1257102,0.09433498,0,0.3,0,0,0,0,
6.38224E+17,29.44995,97.22995,49.28608,117.4915,-61.99001,-122.1667,-0.612559,-1.262423,-9.175476,13.70306,-0.9767859,39.19238,0,0,0,41.44413,68.65786,-94.94823,-1.197964,-111.2317,-56.30258,0.001067912,-0.1257102,0.09433498,0,0.3,0,0,0,0,
6.38224E+17,33.43158,96.87927,49.28608,117.1252,-62.79571,-122.0935,-0.612559,-1.262423,-9.175476,13.70306,-0.9035407,39.19238,0,0,0,46.88712,68.75809,-97.32717,-1.197964,-111.2317,-56.30258,0.001067912,-0.1257102,0.09433498,0,0.3,0,0,0,0,
6.38224E+17,37.10694,96.13117,48.95922,116.466,-63.16194,-122.0935,-0.612559,-1.262423,-9.175476,13.70306,-0.9767859,39.19238,0,0,0,52.08677,68.38015,-99.49628,-1.197964,-111.2317,-56.30258,0.001067912,-0.1257102,0.09433498,0,0.3,0,0,0,0,
6.38224E+17,40.31109,95.19604,48.58566,116.6125,-63.23518,-121.947,-0.612559,-1.262423,-9.175476,13.62981,-0.9767859,39.19238,0,0,0,56.88427,67.94105,-101.3007,-1.197964,-111.2317,-56.30258,0.001067912,-0.1257102,0.09433498,0,0.3,0,0,0,0,
6.38224E+17,43.32677,93.98038,47.88524,116.6858,-63.30842,-122.0202,-0.612559,-1.262423,-9.175476,13.70306,-0.9767859,39.19238,0,0,0,61.523,66.95147,-103.1245,-1.197964,-111.2317,-56.30258,0.001067912,-0.1257102,0.09433498,0,0.3,0,0,0,0,
6.38224E+17,44.33985,93.34917,47.48834,116.759,-63.30842,-122.0202,-0.612559,-1.262423,-9.175476,13.70306,-0.9035407,39.19238,0,0,0,63.25664,66.36228,-103.6186,-1.197964,-111.2317,-56.30258,0.001067912,-0.1257102,0.09433498,0,0.3,0,0,0,0,
6.38224E+17,45.56496,92.20364,46.48441,116.5393,-63.30842,-123.5584,-0.612559,-1.262423,-9.175476,13.70306,-0.9767859,39.19238,0,0,0,65.38952,64.78298,-104.2375,-1.197964,-111.2317,-56.30258,0.001067912,-0.1257102,0.09433498,0,0.3,0,0,0,0,
6.38224E+17,45.94193,91.68932,45.2937,116.6858,-63.30842,-128.3193,-0.612559,-1.262423,-9.175476,13.70306,-0.9035407,39.19238,0,0,0,65.28346,62.83393,-105.1785,-1.197964,-111.2317,-56.30258,0.001067912,-0.1257102,0.09433498,0,0.3,0,0,0,0,
6.38224E+17,45.98904,91.64256,44.73336,116.759,-63.30842,-130.9561,-0.612559,-1.262423,-9.175476,13.70306,-0.9035407,39.19238,0,0,0,64.75056,61.91473,-105.7972,-1.197964,-111.2317,-56.30258,0.001067912,-0.1257102,0.09433498,0,0.3,0,0,0,0,
6.38224E+17,45.96548,91.64256,43.49596,116.759,-63.38167,-134.4719,-0.612559,-1.262423,-9.175476,13.70306,-0.9035407,39.19238,0,0,0,63.23839,59.91006,-107.2077,-1.197964,-111.2317,-56.30258,0.001067912,-0.1257102,0.09433498,0,0.3,0,0,0,0,
6.38224E+17,45.80056,91.36201,42.63211,115.7336,-63.30842,-136.6693,-0.612559,-1.262423,-9.175476,13.70306,-0.9767859,39.19238,0,0,0,62.47702,58.55437,-107.5949,-1.197964,-111.2317,-56.30258,0.001067912,-0.1257102,0.09433498,0,0.3,0,0,0,0,
6.38224E+17,45.63565,90.63729,41.95504,118.0774,-62.72246,-141.6499,-0.612559,-1.262423,-9.175476,13.70306,-0.9035407,39.19238,0,0,0,62.67423,57.5234,-107.0512,-1.197964,-111.2317,-56.30258,0.001067912,-0.1257102,0.09433498,0,0.3,0,0,0,0,
6.38224E+17,45.49429,90.19311,41.51144,118.2239,-62.1365,-141.6499,-0.612559,-1.262423,-9.175476,13.70306,-0.9767859,39.19238,0,0,0,62.72037,56.8078,-106.7026,-1.197964,-111.2317,-56.30258,0.001067912,-0.1257102,0.09433498,0,0.3,0,0,0,0,
6.38224E+17,45.49429,88.86055,40.20399,118.5169,-60.89133,-142.0162,-0.612559,-1.262423,-9.175476,13.70306,-0.9767859,39.19238,0,0,0,63.28098,54.82743,-106.1516,-1.197964,-111.2317,-56.30258,0.001067912,-0.1257102,0.09433498,0,0.3,0,0,0,0,
6.38224E+17,45.42361,88.29947,39.667,117.6379,-59.35318,-142.2359,-0.612559,-1.262423,-9.175476,13.62981,-0.9767859,39.19238,0,0,0,63.45148,53.99281,-105.8299,-1.197964,-111.2317,-56.30258,0.001067912,-0.1257102,0.09433498,0,0.3,0,0,0,0,
6.38224E+17,45.30581,88.13583,39.50357,116.3195,-58.25451,-142.2359,-0.612559,-1.262423,-9.175476,13.70306,-0.9035407,39.26562,0,0,0,63.38504,53.73858,-105.638,-1.197964,-111.2317,-56.30258,0.001067912,-0.1257102,0.09433498,0,0.3,0,0,0,0,
6.38224E+17,44.92884,87.62151,38.98993,115.2209,-55.91066,-142.2359,-0.612559,-1.262423,-9.175476,13.62981,-0.9035407,39.19238,0,0,0,63.16206,52.93796,-105.0309,-1.197964,-111.2317,-56.30258,0.001067912,-0.1257102,0.09433498,0,0.3,0,0,0,0,
6.38224E+17,44.76393,86.70975,38.07939,115.5138,-53.49357,-142.1627,-0.612559,-1.262423,-9.175476,13.70306,-0.9035407,39.19238,0,0,0,63.30466,51.51281,-104.5215,-1.197964,-111.2317,-56.30258,0.001067912,-0.1257102,0.09433498,0,0.3,0,0,0,0,
6.38224E+17,44.7168,85.54085,36.93538,113.8292,-51.29622,-142.2359,-0.612559,-1.262423,-9.175476,13.70306,-0.9035407,39.19238,0,0,0,63.67581,49.70786,-104.0416,-1.197964,-111.2317,-56.30258,0.001067912,-0.1257102,0.09433498,0,0.3,0,0,0,0,
6.38224E+17,44.66969,84.0914,35.51119,109.1415,-49.24535,-142.2359,-0.612559,-1.262423,-9.175476,13.70306,-0.9767859,39.19238,0,0,0,64.10492,47.44438,-103.5016,-1.197964,-111.2317,-56.30258,0.001067912,-0.1257102,0.09433498,0,0.3,0,0,0,0,
6.38224E+17,44.66969,83.39005,34.78743,106.8709,-48.43966,-142.2359,-0.612559,-1.262423,-9.175476,13.70306,-0.9035407,39.19238,0,0,0,64.27733,46.29665,-103.3272,-1.197964,-111.2317,-56.30258,0.001067912,-0.1257102,0.09433498,0,0.3,0,0,0,0,
6.38224E+17,44.62257,81.98736,33.38659,102.8424,-47.34098,-142.2359,-0.612559,-1.262423,-9.175476,13.70306,-0.9767859,39.19238,0,0,0,64.60169,44.05401,-102.8915,-1.197964,-111.2317,-56.30258,0.001067912,-0.1257102,0.09433498,0,0.3,0,0,0,0,
6.38224E+17,44.62257,80.9821,32.38266,100.3521,-47.19449,-142.3092,-0.612559,-1.262423,-9.175476,13.70306,-0.9035407,39.19238,0,0,0,64.84873,42.43896,-102.6412,-1.197964,-111.2317,-56.30258,0.001067912,-0.1257102,0.09433498,0,0.3,0,0,0,0,
6.38224E+17,44.62257,80.07035,31.49546,98.30123,-48.07343,-142.3092,-0.612559,-1.262423,-9.175476,13.70306,-0.9767859,39.19238,0,0,0,65.08812,40.99736,-102.3987,-1.197964,-111.2317,-56.30258,0.001067912,-0.1257102,0.09433498,0,0.3,0,0,0,0,
6.38224E+17,44.62257,79.55603,31.02851,97.12931,-48.80588,-142.3092,-0.612559,-1.262423,-9.175476,13.70306,-0.9767859,39.19238,0,0,0,65.26315,40.22168,-102.2213,-1.197964,-111.2317,-56.30258,0.001067912,-0.1257102,0.09433498,0,0.3,0,0,0,0,
6.38224E+17,44.57545,78.31698,29.81446,93.61353,-50.71025,-142.0162,-0.612559,-1.262423,-9.175476,13.62981,-0.9767859,39.19238,0,0,0,65.48498,38.23758,-101.8873,-1.197964,-111.2317,-56.30258,0.001067912,-0.1257102,0.09433498,0,0.3,0,0,0,0,
6.38224E+17,44.57545,77.05456,28.50701,88.63287,-52.68787,-141.5034,-0.612559,-1.262423,-9.175476,13.70306,-0.9035407,39.19238,0,0,0,65.63467,36.12828,-101.7354,-1.197964,-111.2317,-56.30258,0.001067912,-0.1257102,0.09433498,0,0.3,0,0,0,0,
6.38224E+17,44.57545,76.35321,27.80659,85.55657,-53.56682,-139.3793,-0.612559,-1.262423,-9.175476,13.62981,-0.9035407,39.19238,0,0,0,65.74087,34.98363,-101.6276,-1.197964,-111.2317,-56.30258,0.001067912,-0.1257102,0.09433498,0,0.3,0,0,0,0,
6.38224E+17,44.57545,74.78687,26.24233,78.52503,-54.95848,-130.004,-0.612559,-1.262423,-9.175476,13.70306,-0.9767859,39.19238,0,0,0,65.94253,32.42106,-101.4229,-1.197964,-111.2317,-56.30258,0.001067912,-0.1257102,0.09433498,0,0.3,0,0,0,0,
6.38224E+17,44.57545,73.24391,24.67806,70.61456,-55.69093,-118.1382,-0.612559,-1.262423,-9.175476,13.70306,-0.9767859,39.19238,0,0,0,66.05843,29.86716,-101.3053,-1.197964,-111.2317,-56.30258,0.001067912,-0.1257102,0.09433498,0,0.3,0,0,0,0,
6.38224E+17,44.57545,72.12176,23.55739,61.89838,-55.91066,-110.887,-0.612559,-1.262423,-9.175476,13.70306,-0.9767859,39.19238,0,0,0,66.13756,28.02403,-101.225,-1.197964,-111.2317,-56.30258,0.001067912,-0.1257102,0.09433498,0,0.3,0,0,0,0,
6.38224E+17,44.57545,71.67757,23.13714,57.35718,-55.39795,-109.7883,-0.612559,-1.262423,-9.175476,13.62981,-0.9767859,39.19238,0,0,0,66.19696,27.31523,-101.1647,-1.197964,-111.2317,-56.30258,0.001067912,-0.1257102,0.09433498,0,0.3,0,0,0,0,
6.38224E+17,44.57545,71.37366,22.81028,55.15982,-54.88523,-108.4699,-0.612559,-1.262423,-9.175476,13.70306,-0.9767859,39.19238,0,0,0,66.17625,26.79417,-101.1857,-1.197964,-111.2317,-56.30258,0.001067912,-0.1257102,0.09433498,0,0.3,0,0,0,0,
6.38224E+17,44.57545,70.74244,22.2266,52.81598,-53.42033,-104.0752,-0.612559,-1.262423,-9.175476,13.62981,-0.9767859,39.19238,0,0,0,66.27074,25.79703,-101.0898,-1.197964,-111.2317,-56.30258,0.001067912,-0.1257102,0.09433498,0,0.3,0,0,0,0,
6.38224E+17,44.57545,70.13461,21.68961,50.98485,-52.02867,-99.68047,-0.612559,-1.262423,-9.175476,13.70306,-0.9767859,39.19238,0,0,0,66.39279,24.85605,-100.9659,-1.197964,-111.2317,-56.30258,0.001067912,-0.1257102,0.09433498,0,0.3,0,0,0,0,
6.38224E+17,44.57545,69.85407,21.45614,50.32565,-51.36946,-97.04363,-0.612559,-1.262423,-9.175476,13.70306,-0.9035407,39.19238,0,0,0,66.46873,24.43288,-100.8888,-1.197964,-111.2317,-56.30258,0.001067912,-0.1257102,0.09433498,0,0.3,0,0,0,0,
6.38224E+17,44.55189,69.22286,20.87246,49.66644,-50.05105,-91.55025,-0.612559,-1.262423,-9.175476,13.70306,-0.9767859,39.19238,0,0,0,66.51785,23.42887,-100.7834,-1.197964,-111.2317,-56.30258,0.001067912,-0.1257102,0.09433498,0,0.3,0,0,0,0,
6.38224E+17,44.52832,68.52151,20.17204,49.88617,-48.43966,-88.10773,-0.612559,-1.262423,-9.175476,13.70306,-0.9767859,39.19238,0,0,0,66.48718,22.26902,-100.759,-1.197964,-111.2317,-56.30258,0.001067912,-0.1257102,0.09433498,0,0.3,0,0,0,0,
6.38224E+17,44.52832,67.82017,19.37823,51.05809,-46.97475,-84.44547,-0.612559,-1.262423,-9.175476,13.70306,-0.9035407,39.19238,0,0,0,66.3306,21.03701,-100.9182,-1.197964,-111.2317,-56.30258,0.001067912,-0.1257102,0.09433498,0,0.3,0,0,0,0,
6.38224E+17,44.52832,67.23571,18.70116,52.23001,-46.02256,-77.78016,-0.612559,-1.262423,-9.175476,13.70306,-0.9767859,39.19238,0,0,0,66.16747,20.00301,-101.0841,-1.197964,-111.2317,-56.30258,0.001067912,-0.1257102,0.09433498,0,0.3,0,0,0,0,
6.38224E+17,44.52832,66.48761,17.9307,53.76817,-44.7774,-71.0416,-0.612559,-1.262423,-9.175476,13.70306,-0.9767859,39.19238,0,0,0,66.09647,18.75533,-101.1562,-1.197964,-111.2317,-56.30258,0.001067912,-0.1257102,0.09433498,0,0.3,0,0,0,0,
6.38224E+17,44.50476,65.22519,16.71664,55.89228,-42.58004,-65.84119,-0.612559,-1.262423,-9.175476,13.62981,-0.9767859,39.19238,0,0,0,66.05742,16.71221,-101.1407,-1.197964,-111.2317,-56.30258,0.001067912,-0.1257102,0.09433498,0,0.3,0,0,0,0,
6.38224E+17,44.48121,64.3602,15.89949,56.99095,-41.18839,-64.30305,-0.612559,-1.262423,-9.175476,13.70306,-0.9767859,39.19238,0,0,0,66.02708,15.32078,-101.1163,-1.197964,-111.2317,-56.30258,0.001067912,-0.1257102,0.09433498,0,0.3,0,0,0,0,
6.38224E+17,44.08069,61.29765,12.95773,59.62778,-36.72043,-62.17894,-0.612559,-1.262423,-9.175476,13.70306,-0.9767859,39.19238,0,0,0,65.35406,10.36047,-100.8643,-1.197964,-111.2317,-56.30258,0.001067912,-0.1257102,0.09433498,0,0.3,0,0,0,0,
6.38224E+17,43.79797,59.94172,11.72033,60.21374,-35.10904,-61.9592,-0.612559,-1.262423,-9.175476,13.70306,-0.9035407,39.19238,0,0,0,64.97632,8.196839,-100.5885,-1.197964,-111.2317,-56.30258,0.001067912,-0.1257102,0.09433498,0,0.3,0,0,0,0,
6.38224E+17,43.23253,57.18309,9.338906,60.94619,-31.88625,-61.73947,-0.612559,-1.262423,-9.175476,13.70306,-0.9035407,39.19238,0,0,0,64.32406,3.835679,-99.92972,-1.197964,-111.2317,-56.30258,0.001067912,-0.1257102,0.09433498,0,0.3,0,0,0,0,
6.38224E+17,43.04405,54.07378,6.817402,61.01944,-28.0775,-64.15656,-0.612559,-1.262423,-9.175476,13.70306,-0.9767859,39.19238,0,0,0,64.20952,-1.073885,-99.59976,-1.197964,-111.2317,-56.30258,0.001067912,-0.1257102,0.09433498,0,0.3,0,0,0,0,
6.38224E+17,43.11473,52.57758,5.696733,60.94619,-25.95339,-67.89206,-0.612559,-1.262423,-9.175476,13.70306,-0.9767859,39.19238,0,0,0,64.4311,-3.437928,-99.53289,-1.197964,-111.2317,-56.30258,0.001067912,-0.1257102,0.09433498,0,0.3,0,0,0,0,
6.38224E+17,43.18541,50.00598,3.805604,60.7997,-21.63192,-82.90732,-0.612559,-1.262423,-9.175476,13.70306,-0.9767859,39.19238,0,0,0,64.71028,-7.544994,-99.40537,-1.197964,-111.2317,-56.30258,0.001067912,-0.1257102,0.09433498,0,0.3,0,0,0,0,
6.38224E+17,43.18541,47.73829,2.171296,60.65321,-17.01748,-98.80152,-0.612559,-1.262423,-9.175476,13.70306,-0.9035407,39.19238,0,0,0,64.8313,-11.2145,-99.27644,-1.197964,-111.2317,-56.30258,0.001067912,-0.1257102,0.09433498,0,0.3,0,0,0,0,
6.38224E+17,43.18541,46.80317,1.587614,60.65321,-14.74688,-103.8554,-0.612559,-1.262423,-9.175476,13.70306,-0.9767859,39.19238,0,0,0,64.99622,-12.73581,-99.10072,-1.197964,-111.2317,-56.30258,0.001067912,-0.1257102,0.09433498,0,0.3,0,0,0,0,
6.38224E+17,43.16185,44.90953,0.7471125,60.72646,-9.766206,-110.5207,-0.612559,-1.262423,-9.175476,13.62981,-0.9767859,39.19238,0,0,0,65.79321,-15.84498,-98.19379,-1.197964,-111.2317,-56.30258,0.001067912,-0.1257102,0.09433498,0,0.3,0,0,0,0,
6.38224E+17,43.09117,43.31981,0.6070289,61.16593,-5.15176,-113.3773,-0.612559,-1.262423,-9.175476,13.62981,-0.9767859,39.19238,0,0,0,67.24332,-18.50509,-96.47002,-1.197964,-111.2317,-56.30258,0.001067912,-0.1257102,0.09433498,0,0.3,0,0,0,0,
6.38224E+17,43.02049,42.61847,0.6070289,61.38566,-3.100896,-113.6703,-0.612559,-1.262423,-9.175476,13.70306,-0.9035407,39.19238,0,0,0,67.91367,-19.69948,-95.57371,-1.197964,-111.2317,-56.30258,0.001067912,-0.1257102,0.09433498,0,0.3,0,0,0,0,
6.38224E+17,42.87913,41.09888,0.6070289,61.45891,0.9275885,-113.6703,-0.612559,-1.262423,-9.175476,13.70306,-0.9035407,39.19238,0,0,0,69.33973,-22.33349,-93.67703,-1.197964,-111.2317,-56.30258,0.001067912,-0.1257102,0.09433498,0,0.3,0,0,0,0,
6.38224E+17,42.87913,39.64943,0.6070289,61.45891,4.223621,-115.7944,-0.612559,-1.262423,-9.175476,13.70306,-0.9035407,39.19238,0,0,0,70.82664,-24.90341,-92.07575,-1.197964,-111.2317,-56.30258,0.001067912,-0.1257102,0.09433498,0,0.3,0,0,0,0,
6.38224E+17,43.02049,38.17661,0.3969035,61.53215,7.080183,-140.1118,-0.612559,-1.262423,-9.175476,13.70306,-0.9767859,39.19238,0,0,0,72.14995,-27.57484,-91.0341,-1.197964,-111.2317,-56.30258,0.001067912,-0.1257102,0.09433498,0,0.3,0,0,0,0,
6.38224E+17,43.11473,37.47526,0.2334726,61.53215,8.105616,-141.7964,-0.612559,-1.262423,-9.175476,13.70306,-0.9035407,39.26562,0,0,0,72.70123,-28.86625,-90.6998,-1.197964,-111.2317,-56.30258,0.001067912,-0.1257102,0.09433498,0,0.3,0,0,0,0,
6.38224E+17,43.18541,35.83878,-0.350209,60.7997,9.790254,-142.0894,-0.612559,-1.262423,-9.175476,13.70306,-0.9035407,39.19238,0,0,0,73.4234,-31.92021,-90.12211,-1.197964,-111.2317,-56.30258,0.001067912,-0.1257102,0.09433498,0,0.3,0,0,0,0,
6.38224E+17,44.01001,33.99191,-2.404768,59.3348,11.69463,-142.0894,-0.612559,-1.262423,-9.175476,13.70306,-0.9767859,39.19238,0,0,0,72.92973,-35.32981,-92.85545,-1.197964,-111.2317,-56.30258,0.001067912,-0.1257102,0.09433498,0,0.3,0,0,0,0,
6.38224E+17,44.52832,32.93989,-3.992383,58.08963,13.01304,-142.0894,-0.612559,-1.262423,-9.175476,13.70306,-0.9767859,39.19238,0,0,0,71.96946,-37.16616,-95.18574,-1.197964,-111.2317,-56.30258,0.001067912,-0.1257102,0.09433498,0,0.3,0,0,0,0,
6.38224E+17,44.66969,30.6722,-6.817402,54.86684,16.30907,-142.1627,-0.612559,-1.262423,-9.175476,13.70306,-0.9035407,39.26562,0,0,0,69.50388,-41.03189,-98.04008,-1.197964,-111.2317,-56.30258,0.001067912,-0.1257102,0.09433498,0,0.3,0,0,0,0,
6.38224E+17,44.66969,28.77857,-8.568447,51.57081,19.01915,-142.1627,-0.612559,-1.262423,-9.175476,13.70306,-0.9035407,39.26562,0,0,0,68.20095,-44.31349,-99.35812,-1.197964,-111.2317,-56.30258,0.001067912,-0.1257102,0.09433498,0,0.3,0,0,0,0,
6.38224E+17,44.66969,27.58628,-9.549031,49.59319,20.48405,-142.1627,-0.612559,-1.262423,-9.175476,13.70306,-0.9035407,39.19238,0,0,0,67.53786,-46.40008,-100.0289,-1.197964,-111.2317,-56.30258,0.001067912,-0.1257102,0.09433498,0,0.3,0,0,0,0,
6.38224E+17,44.66969,24.96792,-12.07054,45.49146,23.04763,-142.1627,-0.612559,-1.262423,-9.175476,13.70306,-0.9035407,39.19238,0,0,0,65.38219,-50.76328,-102.2096,-1.197964,-111.2317,-56.30258,0.001067912,-0.1257102,0.09433498,0,0.3,0,0,0,0,
6.38224E+17,45.02308,22.74699,-12.23397,41.68271,25.31823,-142.0894,-0.612559,-1.262423,-9.175476,13.70306,-0.9767859,39.11913,0,0,0,67.00468,-55.41023,-101.3993,-1.197964,-111.2317,-56.30258,0.001067912,-0.1257102,0.09433498,0,0.3,0,0,0,0,
6.38224E+17,45.80056,21.06376,-11.27673,38.24019,26.85638,-142.0894,-0.612559,-1.262423,-9.175476,13.70306,-0.9035407,39.19238,0,0,0,70.51843,-59.49869,-99.77518,-1.197964,-111.2317,-56.30258,0.001067912,-0.1257102,0.09433498,0,0.3,0,0,0,0,
6.38224E+17,47.0728,20.01174,-10.7164,34.43144,28.10155,-142.1627,-0.612559,-1.262423,-9.175476,13.70306,-0.9767859,39.19238,0,0,0,73.58993,-62.04026,-99.90089,-1.197964,-111.2317,-56.30258,0.001067912,-0.1257102,0.09433498,0,0.3,0,0,0,0,
6.38224E+17,47.82672,19.68445,-10.48292,32.52707,28.68751,-142.1627,-0.612559,-1.262423,-9.175476,13.70306,-0.9767859,39.26562,0,0,0,75.07172,-62.85671,-100.3429,-1.197964,-111.2317,-56.30258,0.001067912,-0.1257102,0.09433498,0,0.3,0,0,0,0,
6.38224E+17,49.09896,19.26364,-9.89924,29.0113,29.4932,-142.1627,-0.612559,-1.262423,-9.175476,13.70306,-0.9767859,39.19238,0,0,0,77.82054,-64.02042,-100.9373,-1.197964,-111.2317,-56.30258,0.001067912,-0.1257102,0.09433498,0,0.3,0,0,0,0,
6.38224E+17,49.6644,18.9831,-9.198823,25.78851,29.56645,-142.2359,-0.612559,-1.262423,-9.175476,13.70306,-0.9035407,39.19238,0,0,0,79.87045,-64.90774,-100.5296,-1.197964,-111.2317,-56.30258,0.001067912,-0.1257102,0.09433498,0,0.3,0,0,0,0,
6.38224E+17,49.7822,18.72594,-8.825266,24.03063,29.27347,-142.1627,-0.612559,-1.262423,-9.175476,13.62981,-0.9035407,39.19238,0,0,0,80.8131,-65.61032,-100.0146,-1.197964,-111.2317,-56.30258,0.001067912,-0.1257102,0.09433498,0,0.3,0,0,0,0,
6.38224E+17,49.9,17.97784,-8.148195,19.78241,28.10155,-142.2359,-0.612559,-1.262423,-9.175476,13.70306,-0.9035407,39.19238,0,0,0,82.56492,-67.49545,-98.82388,-1.197964,-111.2317,-56.30258,0.001067912,-0.1257102,0.09433498,0,0.3,0,0,0,0,
6.38224E+17,49.82932,17.32325,-7.727945,15.31445,26.34366,-142.2359,-0.612559,-1.262423,-9.175476,13.70306,-0.9035407,39.19238,0,0,0,83.57229,-69.08228,-97.79921,-1.197964,-111.2317,-56.30258,0.001067912,-0.1257102,0.09433498,0,0.3,0,0,0,0,
6.38224E+17,49.52304,17.06609,-7.447778,11.13948,24.58578,-142.2359,-0.612559,-1.262423,-9.175476,13.70306,-0.9767859,39.19238,0,0,0,83.82021,-69.74015,-96.81905,-1.197964,-111.2317,-56.30258,0.001067912,-0.1257102,0.09433498,0,0.3,0,0,0,0,
6.38224E+17,49.33456,17.01933,-7.331042,9.161857,23.70683,-142.2359,-0.612559,-1.262423,-9.175476,13.70306,-0.9035407,39.19238,0,0,0,83.81301,-69.87914,-96.34734,-1.197964,-111.2317,-56.30258,0.001067912,-0.1257102,0.09433498,0,0.3,0,0,0,0,
6.38224E+17,48.74556,17.01933,-7.214305,5.133373,21.80246,-142.2359,-0.612559,-1.262423,-9.175476,13.70306,-0.9767859,39.19238,0,0,0,83.27102,-69.91353,-95.31186,-1.197964,-111.2317,-56.30258,0.001067912,-0.1257102,0.09433498,0,0.3,0,0,0,0,
6.38224E+17,48.08588,17.01933,-7.190958,1.471115,19.82484,-142.2359,-0.612559,-1.262423,-9.175476,13.70306,-0.9767859,39.26562,0,0,0,82.46471,-69.92034,-94.32196,-1.197964,-111.2317,-56.30258,0.001067912,-0.1257102,0.09433498,0,0.3,0,0,0,0,
6.38224E+17,47.11992,17.18298,-7.214305,-2.337634,18.21345,-142.2359,-0.612559,-1.262423,-9.175476,13.62981,-0.9767859,39.19238,0,0,0,81.08342,-69.54949,-93.05516,-1.197964,-111.2317,-56.30258,0.001067912,-0.1257102,0.09433498,0,0.3,0,0,0,0,
6.38224E+17,46.41312,17.27649,-7.331042,-3.802537,17.70073,-142.2359,-0.612559,-1.262423,-9.175476,13.70306,-0.9035407,39.19238,0,0,0,79.90653,-69.30723,-92.29092,-1.197964,-111.2317,-56.30258,0.001067912,-0.1257102,0.09433498,0,0.3,0,0,0,0,
6.38224E+17,43.37389,17.51027,-7.844682,-8.490229,16.16258,-142.2359,-0.612559,-1.262423,-9.175476,13.62981,-0.9035407,39.19238,0,0,0,74.83602,-68.63015,-89.14085,-1.197964,-111.2317,-56.30258,0.001067912,-0.1257102,0.09433498,0,0.3,0,0,0,0,
6.38224E+17,39.10954,17.67392,-7.868029,-15.30203,14.11172,-142.2359,-0.612559,-1.262423,-9.175476,13.62981,-0.9767859,39.19238,0,0,0,68.63242,-68.25966,-83.92654,-1.197964,-111.2317,-56.30258,0.001067912,-0.1257102,0.09433498,0,0.3,0,0,0,0,
6.38224E+17,34.04414,18.32851,-7.704598,-24.60417,10.74244,-142.2359,-0.612559,-1.262423,-9.175476,13.70306,-0.9035407,39.19238,0,0,0,60.85781,-66.86229,-78.27436,-1.197964,-111.2317,-56.30258,0.001067912,-0.1257102,0.09433498,0,0.3,0,0,0,0,
6.38224E+17,31.05203,18.9831,-7.704598,-30.09755,8.764822,-142.2359,-0.612559,-1.262423,-9.175476,13.70306,-0.9035407,39.19238,0,0,0,55.82165,-65.41885,-75.63797,-1.197964,-111.2317,-56.30258,0.001067912,-0.1257102,0.09433498,0,0.3,0,0,0,0,
6.38224E+17,24.54948,20.08188,-7.564514,-41.15757,4.882828,-142.2359,-0.612559,-1.262423,-9.175476,13.70306,-0.9767859,39.19238,0,0,0,44.74217,-63.05208,-70.39652,-1.197964,-111.2317,-56.30258,0.001067912,-0.1257102,0.09433498,0,0.3,0,0,0,0,
6.38224E+17,17.55217,21.04038,-6.420498,-53.53601,1.074079,-142.2359,-0.612559,-1.262423,-9.175476,13.70306,-0.9767859,39.19238,0,0,0,33.03667,-61.28753,-63.90278,-1.197964,-111.2317,-56.30258,0.001067912,-0.1257102,0.09433498,0,0.3,0,0,0,0,
6.38224E+17,14.1831,21.57808,-5.579997,-60.12807,-0.9035407,-142.2359,-0.612559,-1.262423,-9.175476,13.70306,-0.9035407,39.19238,0,0,0,27.20671,-60.32613,-60.69658,-1.197964,-111.2317,-56.30258,0.001067912,-0.1257102,0.09433498,0,0.3,0,0,0,0,
6.38224E+17,6.502549,22.91064,-2.708283,-77.12095,-5.664476,-142.2359,-0.612559,-1.262423,-9.175476,13.70306,-0.9035407,39.19238,0,0,0,13.19667,-57.93857,-52.57012,-1.197964,-111.2317,-56.30258,0.001067912,-0.1257102,0.09433498,0,0.3,0,0,0,0,
