zeyangz2/DNN_classification_different_people_hand/data/srikar_right_10.csv
Timestamp,Therapist joint angle 0,Therapist joint angle 1,Therapist joint angle 2,Therapist joint angle 3,Therapist joint angle 4,Therapist joint angle 5,Patient joint angle 0,Patient joint angle 1,Patient joint angle 2,Patient joint angle 3,Patient joint angle 4,Patient joint angle 5,Virtual joint angle 0,Virtual joint angle 1,Virtual joint angle 2,Therapist position x,Therapist position y,Therapist position z,Patient position x,Patient position y,Patient position z,Virtual position x,Virtual position y,Virtual position z,Assistive Force, Obstacle Force Magnitude, Therapist Constant Force, Patient Constant Force, Recovery Factor, Assistance Level,label
6.38224E+17,0,0,0,0,0,0,0,0,0,0,0,0,0,0,0,0,0,0,0,0,0,0,0,0,0,0.3,0,0,0,0,2
6.38224E+17,48.86336,-0.6312115,-9.525684,24.83632,-46.68177,29.45077,-0.6361189,-1.262423,-9.175476,13.70306,-1.050031,39.26562,0,0,0,83.80511,-109.6304,-95.14771,-1.244037,-111.2317,-56.30309,0.001067912,-0.1257102,0.09433498,0,0.3,0,0,1.27E-05,0,
6.38224E+17,48.86336,-0.6312115,-9.525684,24.83632,-46.68177,29.45077,-0.6361189,-1.262423,-9.175476,13.70306,-1.050031,39.26562,0,0,0,83.80511,-109.6304,-95.14771,-1.244037,-111.2317,-56.30309,0.001067912,-0.1257102,0.09433498,0,0.3,0,0,1.27E-05,0,
6.38224E+17,48.86336,-0.6312115,-9.525684,24.83632,-46.68177,29.45077,-0.6361189,-1.262423,-9.175476,13.70306,-1.050031,39.26562,0,0,0,83.80511,-109.6304,-95.14771,-1.244037,-111.2317,-56.30309,0.001067912,-0.1257102,0.09433498,0,0.3,0,0,1.27E-05,0,
6.38224E+17,48.86336,-0.6312115,-9.525684,24.83632,-46.75502,29.45077,-0.6361189,-1.262423,-9.175476,13.70306,-1.050031,39.19238,0,0,0,83.80511,-109.6304,-95.14771,-1.244037,-111.2317,-56.30309,0.001067912,-0.1257102,0.09433498,0,0.3,0,0,1.26E-05,0,
6.38224E+17,48.86336,-0.6312115,-9.525684,24.83632,-46.68177,29.45077,-0.6361189,-1.262423,-9.175476,13.70306,-1.050031,39.26562,0,0,0,83.80511,-109.6304,-95.14771,-1.244037,-111.2317,-56.30309,0.001067912,-0.1257102,0.09433498,0,0.3,0,0,1.26E-05,0,
6.38224E+17,48.8398,-0.6312115,-9.525684,24.83632,-46.68177,29.45077,-0.6361189,-1.262423,-9.175476,13.70306,-1.050031,39.19238,0,0,0,83.775,-109.6304,-95.11326,-1.244037,-111.2317,-56.30309,0.001067912,-0.1257102,0.09433498,0,0.3,0,0,5.32E-05,0,
6.38224E+17,48.8398,-0.6312115,-9.525684,24.83632,-46.68177,29.45077,-0.6361189,-1.262423,-9.175476,13.70306,-1.050031,39.26562,0,0,0,83.775,-109.6304,-95.11326,-1.244037,-111.2317,-56.30309,0.001067912,-0.1257102,0.09433498,0,0.3,0,0,0.000115606,0,
6.38224E+17,48.8398,-0.6312115,-9.525684,24.83632,-46.68177,29.45077,-0.6361189,-1.262423,-9.175476,13.70306,-1.050031,39.19238,0,0,0,83.775,-109.6304,-95.11326,-1.244037,-111.2317,-56.30309,0.001067912,-0.1257102,0.09433498,0,0.3,0,0,0.000140163,0,
6.38224E+17,48.8398,-0.6312115,-9.525684,24.83632,-46.75502,29.45077,-0.6361189,-1.262423,-9.175476,13.70306,-1.050031,39.19238,0,0,0,83.775,-109.6304,-95.11326,-1.244037,-111.2317,-56.30309,0.001067912,-0.1257102,0.09433498,0,0.3,0,0,0.000179976,0,
6.38224E+17,48.8398,-0.6312115,-9.525684,24.83632,-46.68177,29.45077,-0.6361189,-1.262423,-9.175476,13.70306,-1.050031,39.19238,0,0,0,83.775,-109.6304,-95.11326,-1.244037,-111.2317,-56.30309,0.001067912,-0.1257102,0.09433498,0,0.3,0,0,0.000210978,0,
6.38224E+17,48.8398,-0.6312115,-9.525684,24.83632,-46.68177,29.45077,-0.6361189,-1.262423,-9.175476,13.70306,-0.9767859,39.26562,0,0,0,83.775,-109.6304,-95.11326,-1.244037,-111.2317,-56.30309,0.001067912,-0.1257102,0.09433498,0,0.3,0,0,0.00023578,0,
6.38224E+17,48.8398,-0.6312115,-9.525684,24.83632,-46.68177,29.45077,-0.6361189,-1.262423,-9.175476,13.70306,-1.050031,39.26562,0,0,0,83.775,-109.6304,-95.11326,-1.244037,-111.2317,-56.30309,0.001067912,-0.1257102,0.09433498,0,0.3,0,0,0.000246386,0,
6.38224E+17,48.8398,-0.6312115,-9.525684,24.83632,-46.68177,29.45077,-0.6361189,-1.262423,-9.175476,13.70306,-1.050031,39.19238,0,0,0,83.775,-109.6304,-95.11326,-1.244037,-111.2317,-56.30309,0.001067912,-0.1257102,0.09433498,0,0.3,0,0,0.000264743,0,
6.38224E+17,48.8398,-0.6312115,-9.525684,24.83632,-46.75502,29.45077,-0.6361189,-1.262423,-9.175476,13.70306,-1.050031,39.19238,0,0,0,83.775,-109.6304,-95.11326,-1.244037,-111.2317,-56.30309,0.001067912,-0.1257102,0.09433498,0,0.3,0,0,0.000280162,0,
6.38224E+17,48.8398,-0.6312115,-9.525684,24.83632,-46.68177,29.45077,-0.6361189,-1.262423,-9.175476,13.70306,-1.050031,39.19238,0,0,0,83.775,-109.6304,-95.11326,-1.244037,-111.2317,-56.30309,0.001067912,-0.1257102,0.09433498,0,0.3,0,0,0.000287015,0,
6.38224E+17,48.8398,-0.6312115,-9.525684,24.83632,-46.68177,29.45077,-0.6361189,-1.262423,-9.175476,13.70306,-1.050031,39.19238,0,0,0,83.775,-109.6304,-95.11326,-1.244037,-111.2317,-56.30309,0.001067912,-0.1257102,0.09433498,0,0.3,0,0,0.000299171,0,
6.38224E+17,48.8398,-0.6312115,-9.525684,24.83632,-46.68177,29.45077,-0.6361189,-1.262423,-9.175476,13.70306,-1.050031,39.19238,0,0,0,83.775,-109.6304,-95.11326,-1.244037,-111.2317,-56.30309,0.001067912,-0.1257102,0.09433498,0,0.3,0,0,0.000309777,0,
6.38224E+17,48.8398,-0.6312115,-9.525684,24.83632,-46.68177,29.45077,-0.6361189,-1.262423,-9.175476,13.70306,-1.050031,39.26562,0,0,0,83.775,-109.6304,-95.11326,-1.244037,-111.2317,-56.30309,0.001067912,-0.1257102,0.09433498,0,0.3,0,0,0.000318996,0,
6.38224E+17,48.8398,-0.6312115,-9.525684,24.83632,-46.68177,29.45077,-0.6361189,-1.262423,-9.175476,13.70306,-1.050031,39.19238,0,0,0,83.775,-109.6304,-95.11326,-1.244037,-111.2317,-56.30309,0.001067912,-0.1257102,0.09433498,0,0.3,0,0,0.000327155,0,
6.38224E+17,48.8398,-0.6312115,-9.525684,24.83632,-46.75502,29.45077,-0.6361189,-1.262423,-9.175476,13.70306,-1.050031,39.26562,0,0,0,83.775,-109.6304,-95.11326,-1.244037,-111.2317,-56.30309,0.001067912,-0.1257102,0.09433498,0,0.3,0,0,0.000330908,0,
6.38224E+17,48.8398,-0.6312115,-9.525684,24.83632,-46.75502,29.45077,-0.6361189,-1.262423,-9.175476,13.70306,-1.050031,39.26562,0,0,0,83.775,-109.6304,-95.11326,-1.244037,-111.2317,-56.30309,0.001067912,-0.1257102,0.09433498,0,0.3,0,0,0.000337761,0,
6.38224E+17,48.8398,-0.6312115,-9.525684,24.83632,-46.68177,29.45077,-0.6361189,-1.262423,-9.175476,13.70306,-0.9767859,39.19238,0,0,0,83.775,-109.6304,-95.11326,-1.244037,-111.2317,-56.30309,0.001067912,-0.1257102,0.09433498,0,0.3,0,0,0.00034388,0,
6.38224E+17,48.8398,-0.6312115,-9.525684,24.83632,-46.75502,29.45077,-0.6361189,-1.262423,-9.175476,13.70306,-1.050031,39.19238,0,0,0,83.775,-109.6304,-95.11326,-1.244037,-111.2317,-56.30309,0.001067912,-0.1257102,0.09433498,0,0.3,0,0,0.000349428,0,
6.38224E+17,48.8398,-0.6312115,-9.525684,24.83632,-46.75502,29.45077,-0.6361189,-1.262423,-9.175476,13.7763,-1.050031,39.19238,0,0,0,83.775,-109.6304,-95.11326,-1.244037,-111.2317,-56.30309,0.001067912,-0.1257102,0.09433498,0,0.3,0,0,0.000354486,0,
6.38224E+17,48.8398,-0.6312115,-9.525684,24.83632,-46.68177,29.45077,-0.6361189,-1.262423,-9.175476,13.70306,-1.050031,39.19238,0,0,0,83.775,-109.6304,-95.11326,-1.244037,-111.2317,-56.30309,0.001067912,-0.1257102,0.09433498,0,0.3,0,0,0.000356852,0,
6.38224E+17,48.8398,-0.6312115,-9.525684,24.83632,-46.68177,29.45077,-0.6361189,-1.262423,-9.175476,13.70306,-1.050031,39.19238,0,0,0,83.775,-109.6304,-95.11326,-1.244037,-111.2317,-56.30309,0.001067912,-0.1257102,0.09433498,0,0.3,0,0,0.000361257,0,
6.38224E+17,48.8398,-0.6312115,-9.525684,24.83632,-46.68177,29.45077,-0.6361189,-1.262423,-9.175476,13.70306,-1.050031,39.19238,0,0,0,83.775,-109.6304,-95.11326,-1.244037,-111.2317,-56.30309,0.001067912,-0.1257102,0.09433498,0,0.3,0,0,0.000365255,0,
6.38224E+17,48.8398,-0.6312115,-9.525684,24.83632,-46.68177,29.45077,-0.6361189,-1.262423,-9.175476,13.70306,-1.050031,39.26562,0,0,0,83.775,-109.6304,-95.11326,-1.244037,-111.2317,-56.30309,0.001067912,-0.1257102,0.09433498,0,0.3,0,0,0.000368926,0,
6.38224E+17,48.8398,-0.6312115,-9.525684,24.83632,-46.68177,29.45077,-0.6361189,-1.262423,-9.175476,13.70306,-1.050031,39.19238,0,0,0,83.775,-109.6304,-95.11326,-1.244037,-111.2317,-56.30309,0.001067912,-0.1257102,0.09433498,0,0.3,0,0,0.000370721,0,
6.38224E+17,48.8398,-0.6312115,-9.525684,24.83632,-46.75502,29.45077,-0.6361189,-1.262423,-9.175476,13.70306,-1.050031,39.26562,0,0,0,83.775,-109.6304,-95.11326,-1.244037,-111.2317,-56.30309,0.001067912,-0.1257102,0.09433498,0,0.3,0,0,0.000373985,0,
6.38224E+17,48.8398,-0.6312115,-9.525684,24.83632,-46.75502,29.45077,-0.6361189,-1.262423,-9.175476,13.70306,-1.050031,39.26562,0,0,0,83.775,-109.6304,-95.11326,-1.244037,-111.2317,-56.30309,0.001067912,-0.1257102,0.09433498,0,0.3,0,0,0.000377003,0,
6.38224E+17,48.8398,-0.6312115,-9.525684,24.83632,-46.68177,29.45077,-0.6361189,-1.262423,-9.175476,13.70306,-1.050031,39.19238,0,0,0,83.775,-109.6304,-95.11326,-1.244037,-111.2317,-56.30309,0.001067912,-0.1257102,0.09433498,0,0.3,0,0,0.000378472,0,
6.38224E+17,48.8398,-0.6312115,-9.525684,24.83632,-46.68177,29.45077,-0.6361189,-1.262423,-9.175476,13.70306,-1.050031,39.19238,0,0,0,83.775,-109.6304,-95.11326,-1.244037,-111.2317,-56.30309,0.001067912,-0.1257102,0.09433498,0,0.3,0,0,0.000381164,0,
6.38224E+17,48.8398,-0.6312115,-9.525684,24.83632,-46.75502,29.45077,-0.6361189,-1.262423,-9.175476,13.70306,-1.050031,39.26562,0,0,0,83.775,-109.6304,-95.11326,-1.244037,-111.2317,-56.30309,0.001067912,-0.1257102,0.09433498,0,0.3,0,0,0.000383693,0,
6.38224E+17,48.8398,-0.6312115,-9.525684,24.83632,-46.68177,29.45077,-0.6361189,-1.262423,-9.175476,13.70306,-1.050031,39.19238,0,0,0,83.775,-109.6304,-95.11326,-1.244037,-111.2317,-56.30309,0.001067912,-0.1257102,0.09433498,0,0.3,0,0,0.000386141,0,
6.38224E+17,48.8398,-0.6312115,-9.525684,24.83632,-46.68177,29.45077,-0.6361189,-1.262423,-9.175476,13.70306,-1.050031,39.26562,0,0,0,83.775,-109.6304,-95.11326,-1.244037,-111.2317,-56.30309,0.001067912,-0.1257102,0.09433498,0,0.3,0,0,0.000388343,0,
6.38224E+17,48.41572,-0.7481025,-9.712462,25.78851,-46.75502,29.08454,-0.6361189,-1.262423,-9.175476,13.7763,-1.050031,39.26562,0,0,0,82.90761,-109.8298,-94.78185,-1.244037,-111.2317,-56.30309,0.001067912,-0.1257102,0.09433498,0,0.3,0,0,0.000606583,0,
6.38224E+17,48.15656,-0.7714807,-9.73581,27.25341,-46.97475,28.27885,-0.6361189,-1.262423,-9.175476,13.70306,-1.050031,39.26562,0,0,0,82.53357,-109.875,-94.4438,-1.244037,-111.2317,-56.30309,0.001067912,-0.1257102,0.09433498,0,0.3,0,0,0.000829554,0,
6.38224E+17,47.52044,-0.9351282,-9.969283,28.27885,-47.12124,27.32666,-0.6361189,-1.262423,-9.175476,13.70306,-1.050031,39.26562,0,0,0,81.30894,-110.1628,-93.89744,-1.244037,-111.2317,-56.30309,0.001067912,-0.1257102,0.09433498,0,0.3,0,0,0.001536486,0,
6.38224E+17,46.64872,-0.9351282,-10.38953,25.49553,-44.85064,25.86176,-0.6361189,-1.262423,-9.175476,13.70306,-1.050031,39.19238,0,0,0,79.46679,-109.99,-93.3299,-1.244037,-111.2317,-56.30309,0.001067912,-0.1257102,0.09433498,0,0.3,0,0,0.002758217,0,
6.38224E+17,46.15396,-0.9351282,-10.2728,23.51791,-42.43355,23.81089,-0.6361189,-1.262423,-9.175476,13.70306,-1.050031,39.26562,0,0,0,79.00879,-110.0387,-92.46133,-1.244037,-111.2317,-56.30309,0.001067912,-0.1257102,0.09433498,0,0.3,0,0,0.003534496,0,
6.38224E+17,45.56496,-0.9117499,-10.10937,20.51486,-37.59937,20.22188,-0.6361189,-1.262423,-9.175476,13.70306,-1.050031,39.19238,0,0,0,78.49244,-110.0516,-91.39044,-1.244037,-111.2317,-56.30309,0.001067912,-0.1257102,0.09433498,0,0.3,0,0,0.00522534,0,
6.38224E+17,45.42361,-0.9117499,-10.06267,19.34294,-33.13141,19.04996,-0.6361189,-1.262423,-9.175476,13.70306,-1.050031,39.19238,0,0,0,78.37854,-110.0706,-91.12193,-1.244037,-111.2317,-56.30309,0.001067912,-0.1257102,0.09433498,0,0.3,0,0,0.006951918,0,
6.38224E+17,45.49429,-0.8649935,-9.502337,19.63592,-28.66346,17.6583,-0.6361189,-1.262423,-9.175476,13.7763,-1.050031,39.19238,0,0,0,79.3915,-110.1834,-90.31662,-1.244037,-111.2317,-56.30309,0.001067912,-0.1257102,0.09433498,0,0.3,0,0,0.00843676,0,
6.38224E+17,45.68277,-0.8649935,-9.198823,20.07539,-26.61259,16.55962,-0.6361189,-1.262423,-9.175476,13.70306,-1.050031,39.19238,0,0,0,80.14647,-110.2982,-90.09126,-1.244037,-111.2317,-56.30309,0.001067912,-0.1257102,0.09433498,0,0.3,0,0,0.009058844,0,
6.38224E+17,46.15396,-0.7247244,-8.428363,21.54029,-22.7306,14.94823,-0.6361189,-1.262423,-9.175476,13.70306,-1.050031,39.26562,0,0,0,82.06857,-110.2465,-89.52239,-1.244037,-111.2317,-56.30309,0.001067912,-0.1257102,0.09433498,0,0.3,0,0,0.009951789,0,
6.38224E+17,46.41312,-0.4208077,-7.564514,23.81089,-18.9951,13.33683,-0.6361189,-1.262423,-9.175476,13.70306,-1.050031,39.26562,0,0,0,83.87151,-109.8189,-88.51686,-1.244037,-111.2317,-56.30309,0.001067912,-0.1257102,0.09433498,0,0.3,0,0,0.01043134,0,
6.38224E+17,46.34245,-0.3740513,-7.144264,26.08149,-15.03986,11.94517,-0.6361189,-1.262423,-9.175476,13.70306,-1.050031,39.26562,0,0,0,84.47531,-109.8353,-87.74327,-1.244037,-111.2317,-56.30309,0.001067912,-0.1257102,0.09433498,0,0.3,0,0,0.01075018,0,
6.38224E+17,46.20108,-0.3272949,-6.794055,26.88719,-12.8425,11.13948,-0.6361189,-1.262423,-9.175476,13.70306,-1.050031,39.19238,0,0,0,84.86062,-109.8253,-86.97467,-1.244037,-111.2317,-56.30309,0.001067912,-0.1257102,0.09433498,0,0.3,0,0,0.01088626,0,
6.38224E+17,45.80056,0.116891,-5.883511,28.05911,-8.301303,8.50265,-0.6361189,-1.262423,-9.175476,13.70306,-0.9767859,39.19238,0,0,0,85.80105,-109.0255,-84.91376,-1.244037,-111.2317,-56.30309,0.001067912,-0.1257102,0.09433498,0,0.3,0,0,0.01111095,0,
6.38224E+17,45.6592,1.776743,-4.529369,28.64507,-4.126328,5.353109,-0.6361189,-1.262423,-9.175476,13.70306,-1.050031,39.19238,0,0,0,87.79396,-105.449,-82.55334,-1.244037,-111.2317,-56.30309,0.001067912,-0.1257102,0.09433498,0,0.3,0,0,0.01109691,0,
6.38224E+17,45.6592,3.039166,-3.595479,28.79156,-2.295199,3.66847,-0.6361189,-1.262423,-9.175476,13.70306,-1.050031,39.19238,0,0,0,89.25625,-102.6675,-81.12431,-1.244037,-111.2317,-56.30309,0.001067912,-0.1257102,0.09433498,0,0.3,0,0,0.01089067,0,
6.38224E+17,45.72989,5.914686,-1.260752,29.0113,0.1951368,0.299192,-0.6361189,-1.262423,-9.175476,13.70306,-1.050031,39.19238,0,0,0,92.87693,-96.22633,-77.80973,-1.244037,-111.2317,-56.30309,0.001067912,-0.1257102,0.09433498,0,0.3,0,0,0.009915402,0,
6.38224E+17,46.15396,8.275885,1.050627,29.15779,1.293814,-2.117898,-0.6361189,-1.262423,-9.175476,13.70306,-1.050031,39.26562,0,0,0,96.93445,-90.78323,-75.24358,-1.244037,-111.2317,-56.30309,0.001067912,-0.1257102,0.09433498,0,0.3,0,0,0.008018149,0,
6.38224E+17,46.46024,9.094121,1.937823,29.08454,1.733285,-2.777105,-0.6361189,-1.262423,-9.175476,13.70306,-1.050031,39.19238,0,0,0,98.7186,-88.84687,-74.53928,-1.244037,-111.2317,-56.30309,0.001067912,-0.1257102,0.09433498,0,0.3,0,0,0.006761254,0,
6.38224E+17,47.00212,10.33317,3.945688,27.76613,3.344679,-3.436311,-0.6361189,-1.262423,-9.175476,13.70306,-1.050031,39.26562,0,0,0,102.6587,-85.76471,-72.62635,-1.244037,-111.2317,-56.30309,0.001067912,-0.1257102,0.09433498,0,0.3,0,0,0.00371643,0,
6.38224E+17,48.55708,13.69963,8.19489,27.39991,4.150376,-2.99684,-0.6361189,-1.262423,-9.175476,13.70306,-1.050031,39.26562,0,0,0,111.3659,-77.05683,-70.01936,-1.244037,-111.2317,-56.30309,0.001067912,-0.1257102,0.09433498,0,0.3,0,0,0,0,
6.38224E+17,50.32408,16.76217,11.5569,29.0113,3.198189,-2.484124,-0.6361189,-1.262423,-9.175476,13.70306,-1.050031,39.19238,0,0,0,118.8363,-68.83839,-69.77454,-1.244037,-111.2317,-56.30309,0.001067912,-0.1257102,0.09433498,0,0.3,0,0,0,0,
6.38224E+17,51.17223,18.35189,13.44803,30.4762,2.392492,-2.484124,-0.6361189,-1.262423,-9.175476,13.70306,-1.050031,39.19238,0,0,0,122.7604,-64.35818,-69.55013,-1.244037,-111.2317,-56.30309,0.001067912,-0.1257102,0.09433498,0,0.3,0,0,0,0,
6.38224E+17,52.77431,21.46119,17.44041,33.5525,0.3416272,-2.484124,-0.6361189,-1.262423,-9.175476,13.70306,-1.050031,39.19238,0,0,0,130.643,-55.08091,-69.09419,-1.244037,-111.2317,-56.30309,0.001067912,-0.1257102,0.09433498,0,0.3,0,0,0,0,
6.38224E+17,53.78739,24.14968,20.47555,35.96959,-1.562747,-2.557369,-0.6361189,-1.262423,-9.175476,13.70306,-1.050031,39.19238,0,0,0,135.8105,-47.01875,-68.9058,-1.244037,-111.2317,-56.30309,0.001067912,-0.1257102,0.09433498,0,0.3,0,0,0,0,
6.38224E+17,53.78739,26.23034,22.39003,34.87091,-2.73467,-3.216576,-0.6361189,-1.262423,-9.175476,13.70306,-1.050031,39.19238,0,0,0,137.494,-41.00889,-67.67316,-1.244037,-111.2317,-56.30309,0.001067912,-0.1257102,0.09433498,0,0.3,0,0,0,0,
6.38224E+17,53.05703,27.04858,24.04768,28.27885,-1.196521,-4.242009,-0.6361189,-1.262423,-9.175476,13.70306,-1.050031,39.19238,0,0,0,138.3507,-37.78575,-64.31105,-1.244037,-111.2317,-56.30309,0.001067912,-0.1257102,0.09433498,0,0.3,0,0,0,0,
6.38224E+17,52.63295,27.21223,25.42517,23.81089,0.7810982,-4.461744,-0.6361189,-1.262423,-9.175476,13.70306,-1.050031,39.19238,0,0,0,139.7529,-36.1053,-61.62813,-1.244037,-111.2317,-56.30309,0.001067912,-0.1257102,0.09433498,0,0.3,0,0,0,0,
6.38224E+17,52.60939,27.72655,28.36693,16.26664,5.615279,-3.143331,-0.6361189,-1.262423,-9.175476,13.70306,-1.050031,39.19238,0,0,0,144.1211,-31.94634,-58.19852,-1.244037,-111.2317,-56.30309,0.001067912,-0.1257102,0.09433498,0,0.3,0,0,0,0,
6.38224E+17,53.24551,29.36302,30.21136,13.04385,9.570518,-2.557369,-0.6361189,-1.262423,-9.175476,13.70306,-1.050031,39.26562,0,0,0,146.8766,-26.50072,-58.65414,-1.244037,-111.2317,-56.30309,0.001067912,-0.1257102,0.09433498,0,0.3,0,0,0,0,
6.38224E+17,53.64603,30.78909,30.3281,13.19034,10.74244,-3.875783,-0.6361189,-1.262423,-9.175476,13.70306,-1.050031,39.26562,0,0,0,146.4892,-23.49168,-60.53039,-1.244037,-111.2317,-56.30309,0.001067912,-0.1257102,0.09433498,0,0.3,0,0,0,0,
6.38224E+17,54.04655,34.34258,30.18801,15.97366,12.28059,-7.904267,-0.6361189,-1.262423,-9.175476,13.70306,-1.050031,39.19238,0,0,0,143.4083,-16.68703,-64.33566,-1.244037,-111.2317,-56.30309,0.001067912,-0.1257102,0.09433498,0,0.3,0,0,0,0,
6.38224E+17,53.92875,38.24674,30.25806,19.9289,12.79331,-10.61434,-0.6361189,-1.262423,-9.175476,13.70306,-1.050031,39.19238,0,0,0,138.9614,-9.282798,-67.12439,-1.244037,-111.2317,-56.30309,0.001067912,-0.1257102,0.09433498,0,0.3,0,0,0,0,
6.38224E+17,53.41043,41.96388,30.70166,24.03063,12.35384,-12.22573,-0.6361189,-1.262423,-9.175476,13.70306,-0.9767859,39.19238,0,0,0,134.2804,-2.143268,-68.66251,-1.244037,-111.2317,-56.30309,0.001067912,-0.1257102,0.09433498,0,0.3,0,0,0,0,
6.38224E+17,52.91567,43.95102,31.05186,26.30123,11.98761,-13.39765,-0.6361189,-1.262423,-9.175476,13.70306,-1.050031,39.19238,0,0,0,131.4585,1.659617,-68.98519,-1.244037,-111.2317,-56.30309,0.001067912,-0.1257102,0.09433498,0,0.3,0,0,0,0,
6.38224E+17,51.61988,47.411,31.68224,30.40295,11.54814,-16.10773,-0.6361189,-1.262423,-9.175476,13.70306,-1.050031,39.19238,0,0,0,125.6442,8.048491,-68.8366,-1.244037,-111.2317,-56.30309,0.001067912,-0.1257102,0.09433498,0,0.3,0,0,0,0,
6.38224E+17,49.1932,50.47354,31.79898,32.96654,10.6692,-18.30508,-0.6361189,-1.262423,-9.175476,13.70306,-1.050031,39.26562,0,0,0,117.4252,12.87251,-66.96696,-1.244037,-111.2317,-56.30309,0.001067912,-0.1257102,0.09433498,0,0.3,0,0,0,0,
6.38224E+17,46.8372,52.81136,31.40207,32.89329,9.131048,-19.40376,-0.6361189,-1.262423,-9.175476,13.70306,-1.050031,39.19238,0,0,0,109.4725,15.76476,-65.68219,-1.244037,-111.2317,-56.30309,0.001067912,-0.1257102,0.09433498,0,0.3,0,0,0,0,
6.38224E+17,45.49429,53.32568,30.2814,32.67356,8.471841,-19.76999,-0.6361189,-1.262423,-9.175476,13.70306,-1.050031,39.26562,0,0,0,104.7568,15.14686,-65.38525,-1.244037,-111.2317,-56.30309,0.001067912,-0.1257102,0.09433498,0,0.3,0,0,0,0,
6.38224E+17,44.69325,53.16203,29.06735,32.60031,8.325351,-19.76999,-0.6361189,-1.262423,-9.175476,13.70306,-1.050031,39.26562,0,0,0,101.7951,13.52011,-65.45906,-1.244037,-111.2317,-56.30309,0.001067912,-0.1257102,0.09433498,0,0.3,0,0,0,0,
6.38224E+17,42.97337,51.85285,25.77538,32.16084,8.838067,-18.59806,-0.6361189,-1.262423,-9.175476,13.70306,-1.050031,39.19238,0,0,0,95.67384,8.137609,-65.65672,-1.244037,-111.2317,-56.30309,0.001067912,-0.1257102,0.09433498,0,0.3,0,0,0,0,
6.38224E+17,41.18281,49.53841,21.99312,31.20865,10.37621,-15.81474,-0.6361189,-1.262423,-9.175476,13.70306,-1.050031,39.19238,0,0,0,89.86373,1.162213,-65.63733,-1.244037,-111.2317,-56.30309,0.001067912,-0.1257102,0.09433498,0,0.3,0,0,0,0,
6.38224E+17,40.14618,48.08897,20.00861,30.69594,11.47489,-13.91037,-0.6361189,-1.262423,-9.175476,13.70306,-0.9767859,39.19238,0,0,0,86.84762,-2.714369,-65.38367,-1.244037,-111.2317,-56.30309,0.001067912,-0.1257102,0.09433498,0,0.3,0,0,0,0,
6.38224E+17,37.69594,44.93291,16.43647,29.15779,14.47795,-9.955132,-0.6361189,-1.262423,-9.175476,13.70306,-1.050031,39.19238,0,0,0,80.79653,-10.36832,-63.79618,-1.244037,-111.2317,-56.30309,0.001067912,-0.1257102,0.09433498,0,0.3,0,0,0,0,
6.38224E+17,34.96298,41.98725,13.47137,27.54639,17.77398,-5.560421,-0.6361189,-1.262423,-9.175476,13.70306,-1.050031,39.26562,0,0,0,74.6012,-17.12455,-61.66181,-1.244037,-111.2317,-56.30309,0.001067912,-0.1257102,0.09433498,0,0.3,0,0,0,0,
6.38224E+17,33.47871,40.60794,12.23397,26.81394,19.45862,-3.436311,-0.6361189,-1.262423,-9.175476,13.70306,-1.050031,39.19238,0,0,0,71.43252,-20.17691,-60.34004,-1.244037,-111.2317,-56.30309,0.001067912,-0.1257102,0.09433498,0,0.3,0,0,0,0,
6.38224E+17,29.04943,37.54539,9.875894,24.83632,23.78008,2.862773,-0.6361189,-1.262423,-9.175476,13.70306,-1.050031,39.26562,0,0,0,62.44392,-26.76183,-55.92704,-1.244037,-111.2317,-56.30309,0.001067912,-0.1257102,0.09433498,0,0.3,0,0,0,0,
6.38224E+17,25.25628,35.83878,8.498405,23.15168,26.70989,7.403974,-0.6361189,-1.262423,-9.175476,13.70306,-1.050031,39.19238,0,0,0,54.53209,-30.45851,-52.75825,-1.244037,-111.2317,-56.30309,0.001067912,-0.1257102,0.09433498,0,0.3,0,0,0,0,
6.38224E+17,20.33225,34.38934,7.377736,20.22188,29.56645,11.94517,-0.6361189,-1.262423,-9.175476,13.70306,-1.050031,39.19238,0,0,0,44.18568,-33.57814,-49.10688,-1.244037,-111.2317,-56.30309,0.001067912,-0.1257102,0.09433498,0,0.3,0,0,0,0,
6.38224E+17,17.50505,33.94515,7.074222,18.09777,30.73837,14.14253,-0.6361189,-1.262423,-9.175476,13.70306,-1.050031,39.26562,0,0,0,38.21421,-34.52236,-47.18724,-1.244037,-111.2317,-56.30309,0.001067912,-0.1257102,0.09433498,0,0.3,0,0,0,0,
6.38224E+17,11.85066,33.54772,7.027527,13.55657,32.42301,18.02452,-0.6361189,-1.262423,-9.175476,13.70306,-1.050031,39.26562,0,0,0,26.17377,-35.30482,-43.61429,-1.244037,-111.2317,-56.30309,0.001067912,-0.1257102,0.09433498,0,0.3,0,0,0,0,
6.38224E+17,5.98423,33.50097,7.401083,7.989935,33.3752,21.24731,-0.6361189,-1.262423,-9.175476,13.7763,-1.050031,39.26562,0,0,0,13.38368,-35.28635,-40.67474,-1.244037,-111.2317,-56.30309,0.001067912,-0.1257102,0.09433498,0,0.3,0,0,0,0,
6.38224E+17,0.3533994,33.50097,8.241585,1.54436,33.52169,23.88414,-0.6361189,-1.262423,-9.175476,13.70306,-1.050031,39.19238,0,0,0,0.803762,-35.02015,-38.03968,-1.244037,-111.2317,-56.30309,0.001067912,-0.1257102,0.09433498,0,0.3,0,0,0,0,
6.38224E+17,-5.277431,33.54772,9.502337,-5.780157,33.00897,25.64202,-0.6361189,-1.262423,-9.175476,13.70306,-1.050031,39.26562,0,0,0,-12.24708,-34.4769,-35.76263,-1.244037,-111.2317,-56.30309,0.001067912,-0.1257102,0.09433498,0,0.3,0,0,0,0,
6.38224E+17,-7.680547,33.64123,10.15606,-9.515661,32.5695,26.15474,-0.6361189,-1.262423,-9.175476,13.70306,-1.050031,39.19238,0,0,0,-17.97997,-34.03588,-35.02642,-1.244037,-111.2317,-56.30309,0.001067912,-0.1257102,0.09433498,0,0.3,0,0,0,0,
6.38224E+17,-12.08626,34.1088,11.34677,-16.91342,31.1046,25.86176,-0.6361189,-1.262423,-9.175476,13.70306,-1.050031,39.26562,0,0,0,-28.6116,-32.61543,-34.73246,-1.244037,-111.2317,-56.30309,0.001067912,-0.1257102,0.09433498,0,0.3,0,0,0,0,
6.38224E+17,-15.52601,35.02055,12.58418,-23.21251,29.4932,24.68983,-0.6361189,-1.262423,-9.175476,13.70306,-1.050031,39.26562,0,0,0,-37.00885,-30.27094,-35.1353,-1.244037,-111.2317,-56.30309,0.001067912,-0.1257102,0.09433498,0,0.3,0,0,0,0,
6.38224E+17,-16.86893,35.51149,13.02777,-26.06907,28.61426,24.32361,-0.6361189,-1.262423,-9.175476,13.70306,-1.050031,39.26562,0,0,0,-40.22144,-29.10918,-35.70713,-1.244037,-111.2317,-56.30309,0.001067912,-0.1257102,0.09433498,0,0.3,0,0,0,0,
6.38224E+17,-19.15425,36.28297,13.70484,-30.75676,26.92962,23.88414,-0.6361189,-1.262423,-9.175476,13.70306,-1.050031,39.19238,0,0,0,-45.63628,-27.29039,-36.96274,-1.244037,-111.2317,-56.30309,0.001067912,-0.1257102,0.09433498,0,0.3,0,0,0,0,
6.38224E+17,-21.25109,36.98432,14.42861,-34.34578,25.7577,23.6644,-0.6361189,-1.262423,-9.175476,13.70306,-0.9767859,39.26562,0,0,0,-50.6522,-25.57111,-38.10538,-1.244037,-111.2317,-56.30309,0.001067912,-0.1257102,0.09433498,0,0.3,0,0,0,0,
6.38224E+17,-23.39504,38.03634,15.64267,-37.34882,25.02525,23.73765,-0.6361189,-1.262423,-9.175476,13.70306,-1.050031,39.19238,0,0,0,-55.98079,-22.8959,-38.9553,-1.244037,-111.2317,-56.30309,0.001067912,-0.1257102,0.09433498,0,0.3,0,0,0,0,
6.38224E+17,-24.52592,38.80782,16.43647,-38.81373,24.58578,23.81089,-0.6361189,-1.262423,-9.175476,13.70306,-1.050031,39.26562,0,0,0,-58.79752,-20.97873,-39.48514,-1.244037,-111.2317,-56.30309,0.001067912,-0.1257102,0.09433498,0,0.3,0,0,0,0,
6.38224E+17,-26.717,40.58456,18.21087,-41.37731,23.92657,25.1293,-0.6361189,-1.262423,-9.175476,13.70306,-1.050031,39.26562,0,0,0,-64.26627,-16.56742,-40.6651,-1.244037,-111.2317,-56.30309,0.001067912,-0.1257102,0.09433498,0,0.3,0,0,0,0,
6.38224E+17,-29.63843,43.15617,21.24601,-44.6001,22.90114,27.61964,-0.6361189,-1.262423,-9.175476,13.70306,-1.050031,39.26562,0,0,0,-72.00295,-9.726657,-41.79959,-1.244037,-111.2317,-56.30309,0.001067912,-0.1257102,0.09433498,0,0.3,0,0,0,0,
6.38224E+17,-31.42899,44.88615,23.69748,-46.50447,22.0222,29.45077,-0.6361189,-1.262423,-9.175476,13.70306,-1.050031,39.26562,0,0,0,-77.21203,-4.650831,-42.00018,-1.244037,-111.2317,-56.30309,0.001067912,-0.1257102,0.09433498,0,0.3,0,0,0,0,
6.38224E+17,-32.53631,45.93817,25.37848,-47.82288,21.36299,30.69594,-0.6361189,-1.262423,-9.175476,13.70306,-1.050031,39.26562,0,0,0,-80.61561,-1.307297,-41.98562,-1.244037,-111.2317,-56.30309,0.001067912,-0.1257102,0.09433498,0,0.3,0,0,0,0,
6.38224E+17,-34.60958,47.85518,29.16073,-50.45971,19.67835,33.5525,-0.6361189,-1.262423,-9.175476,13.70306,-1.050031,39.19238,0,0,0,-87.7276,5.773801,-41.2271,-1.244037,-111.2317,-56.30309,0.001067912,-0.1257102,0.09433498,0,0.3,0,0,0,0,
6.38224E+17,-35.99962,49.74882,32.91964,-52.73031,18.21345,36.6288,-0.6361189,-1.262423,-9.175476,13.70306,-1.050031,39.26562,0,0,0,-93.24154,13.1868,-40.01224,-1.244037,-111.2317,-56.30309,0.001067912,-0.1257102,0.09433498,0,0.3,0,0,0,0,
6.38224E+17,-37.29542,52.03988,37.19219,-54.78117,16.52881,39.99807,-0.6361189,-1.262423,-9.175476,13.70306,-1.050031,39.19238,0,0,0,-98.54404,22.26011,-38.97099,-1.244037,-111.2317,-56.30309,0.001067912,-0.1257102,0.09433498,0,0.3,0,0,0,0,
6.38224E+17,-37.86086,53.04515,39.15337,-55.80661,15.64987,41.68271,-0.6361189,-1.262423,-9.175476,13.70306,-1.050031,39.19238,0,0,0,-100.8784,26.50383,-38.58319,-1.244037,-111.2317,-56.30309,0.001067912,-0.1257102,0.09433498,0,0.3,0,0,0,0,
6.38224E+17,-38.70901,54.93878,43.37922,-58.22369,13.74549,44.75901,-0.6361189,-1.262423,-9.175476,13.70306,-1.050031,39.19238,0,0,0,-105.1809,35.58018,-37.10513,-1.244037,-111.2317,-56.30309,0.001067912,-0.1257102,0.09433498,0,0.3,0,0,0,0,
6.38224E+17,-39.22733,56.78566,47.55838,-60.34781,12.28059,47.61557,-0.6361189,-1.262423,-9.175476,13.70306,-1.050031,39.26562,0,0,0,-108.4268,44.92451,-35.53503,-1.244037,-111.2317,-56.30309,0.001067912,-0.1257102,0.09433498,0,0.3,0,0,0,0,
6.38224E+17,-39.43937,57.76754,49.61294,-61.59297,11.47489,49.08047,-0.6361189,-1.262423,-9.175476,13.70306,-1.050031,39.19238,0,0,0,-109.7056,49.74573,-34.97921,-1.244037,-111.2317,-56.30309,0.001067912,-0.1257102,0.09433498,0,0.3,0,0,0,0,
6.38224E+17,-39.69854,59.68455,53.46524,-64.01007,9.936745,51.86379,-0.6361189,-1.262423,-9.175476,13.70306,-1.050031,39.26562,0,0,0,-111.4334,59.08101,-34.12081,-1.244037,-111.2317,-56.30309,0.001067912,-0.1257102,0.09433498,0,0.3,0,0,0,0,
6.38224E+17,-39.7221,61.6717,57.27084,-66.35391,8.471841,54.57386,-0.6361189,-1.262423,-9.175476,13.70306,-1.050031,39.26562,0,0,0,-112.128,68.63227,-33.39713,-1.244037,-111.2317,-56.30309,0.001067912,-0.1257102,0.09433498,0,0.3,0,0,0,0,
6.38224E+17,-39.7221,62.70034,58.85846,-67.45258,7.88588,55.89228,-0.6361189,-1.262423,-9.175476,13.70306,-1.050031,39.26562,0,0,0,-112.0238,72.88498,-33.52248,-1.244037,-111.2317,-56.30309,0.001067912,-0.1257102,0.09433498,0,0.3,0,0,0,0,
6.38224E+17,-39.67498,64.89789,61.68347,-69.50346,6.713957,57.94314,-0.6361189,-1.262423,-9.175476,13.70306,-1.050031,39.26562,0,0,0,-111.0647,80.852,-34.453,-1.244037,-111.2317,-56.30309,0.001067912,-0.1257102,0.09433498,0,0.3,0,0,0,0,
6.38224E+17,-39.46294,67.18896,63.80808,-71.33459,5.76177,59.48129,-0.6361189,-1.262423,-9.175476,13.70306,-1.050031,39.19238,0,0,0,-108.9106,87.41255,-36.05655,-1.244037,-111.2317,-56.30309,0.001067912,-0.1257102,0.09433498,0,0.3,0,0,0,0,
6.38224E+17,-39.06242,69.90083,65.76924,-72.79948,4.882828,60.94619,-0.6361189,-1.262423,-9.175476,13.70306,-1.050031,39.19238,0,0,0,-105.507,93.85036,-38.34958,-1.244037,-111.2317,-56.30309,0.001067912,-0.1257102,0.09433498,0,0.3,0,0,0,0,
6.38224E+17,-38.70901,71.44379,66.56306,-73.45869,4.516602,61.53215,-0.6361189,-1.262423,-9.175476,13.70306,-1.050031,39.26562,0,0,0,-103.0509,96.72881,-39.76297,-1.244037,-111.2317,-56.30309,0.001067912,-0.1257102,0.09433498,0,0.3,0,0,0,0,
6.38224E+17,-37.50746,75.39471,67.94054,-74.33764,3.344679,62.55759,-0.6361189,-1.262423,-9.175476,13.70306,-1.050031,39.26562,0,0,0,-95.72171,102.3088,-43.63665,-1.244037,-111.2317,-56.30309,0.001067912,-0.1257102,0.09433498,0,0.3,0,0,0,0,
6.38224E+17,-35.66978,79.81319,69.5982,-74.48412,1.66004,63.14355,-0.6361189,-1.262423,-9.175476,13.70306,-1.050031,39.26562,0,0,0,-86.63257,108.1119,-47.65374,-1.244037,-111.2317,-56.30309,0.001067912,-0.1257102,0.09433498,0,0.3,0,0,0,0,
6.38224E+17,-34.39754,82.26789,70.53209,-74.41088,0.5613627,63.36329,-0.6361189,-1.262423,-9.175476,13.70306,-1.050031,39.26562,0,0,0,-81.16217,111.0448,-49.80473,-1.244037,-111.2317,-56.30309,0.001067912,-0.1257102,0.09433498,0,0.3,0,0,0,0,
6.38224E+17,-31.21695,87.17731,72.1664,-73.82492,-2.221954,63.65627,-0.6361189,-1.262423,-9.175476,13.70306,-1.050031,39.26562,0,0,0,-69.19524,115.6993,-54.17132,-1.244037,-111.2317,-56.30309,0.001067912,-0.1257102,0.09433498,0,0.3,0,0,0,0,
6.38224E+17,-26.99972,92.08675,73.61393,-73.01923,-5.884212,63.80275,-0.6361189,-1.262423,-9.175476,13.70306,-1.050031,39.26562,0,0,0,-55.87573,118.9924,-58.68636,-1.244037,-111.2317,-56.30309,0.001067912,-0.1257102,0.09433498,0,0.3,0,0,0,0,
6.38224E+17,-20.09665,97.74427,74.71125,-71.11485,-10.93813,63.72951,-0.6361189,-1.262423,-9.175476,13.70306,-1.050031,39.26562,0,0,0,-38.02381,120.3215,-64.42621,-1.244037,-111.2317,-56.30309,0.001067912,-0.1257102,0.09433498,0,0.3,0,0,0,0,
6.38224E+17,-13.73546,101.1809,75.1782,-68.55127,-15.69907,62.55759,-0.6361189,-1.262423,-9.175476,13.70306,-1.050031,39.19238,0,0,0,-24.46942,120.0563,-68.24168,-1.244037,-111.2317,-56.30309,0.001067912,-0.1257102,0.09433498,0,0.3,0,0,0,0,
6.38224E+17,-10.08366,101.8121,74.96807,-66.64689,-18.48238,61.45891,-0.6361189,-1.262423,-9.175476,13.70306,-1.050031,39.19238,0,0,0,-17.76946,119.2909,-68.4278,-1.244037,-111.2317,-56.30309,0.001067912,-0.1257102,0.09433498,0,0.3,0,0,0,0,
6.38224E+17,-3.345515,101.7419,74.08087,-61.88596,-23.46305,58.08963,-0.6361189,-1.262423,-9.175476,13.70306,-1.050031,39.19238,0,0,0,-5.899826,117.3343,-67.42355,-1.244037,-111.2317,-56.30309,0.001067912,-0.1257102,0.09433498,0,0.3,0,0,0,0,
6.38224E+17,4.146553,101.7653,73.8007,-56.24608,-27.78452,53.62167,-0.6361189,-1.262423,-9.175476,13.70306,-1.050031,39.19238,0,0,0,7.293337,116.6966,-67.74894,-1.244037,-111.2317,-56.30309,0.001067912,-0.1257102,0.09433498,0,0.3,0,0,0,0,
6.38224E+17,8.151747,101.7419,73.61393,-52.80355,-30.12836,50.61862,-0.6361189,-1.262423,-9.175476,13.70306,-1.050031,39.19238,0,0,0,14.29246,116.2904,-68.57204,-1.244037,-111.2317,-56.30309,0.001067912,-0.1257102,0.09433498,0,0.3,0,0,0,0,
6.38224E+17,16.18569,101.5082,73.42715,-43.7944,-35.40202,43.00113,-0.6361189,-1.262423,-9.175476,13.70306,-1.050031,39.19238,0,0,0,28.21132,115.9832,-71.15543,-1.244037,-111.2317,-56.30309,0.001067912,-0.1257102,0.09433498,0,0.3,0,0,0,0,
6.38224E+17,23.74844,99.96519,71.83953,-31.48921,-40.60242,30.54945,-0.6361189,-1.262423,-9.175476,13.70306,-1.050031,39.26562,0,0,0,41.73457,113.1257,-73.49397,-1.244037,-111.2317,-56.30309,0.001067912,-0.1257102,0.09433498,0,0.3,0,0,0,0,
6.38224E+17,26.81124,98.74953,70.57878,-25.04364,-42.14057,23.37142,-0.6361189,-1.262423,-9.175476,13.70306,-1.050031,39.26562,0,0,0,47.57602,110.8079,-74.21137,-1.244037,-111.2317,-56.30309,0.001067912,-0.1257102,0.09433498,0,0.3,0,0,0,0,
6.38224E+17,33.45514,94.86874,67.00665,-8.490229,-43.45898,4.693902,-0.6361189,-1.262423,-9.175476,13.70306,-1.050031,39.26562,0,0,0,61.43371,104.1291,-75.37573,-1.244037,-111.2317,-56.30309,0.001067912,-0.1257102,0.09433498,0,0.3,0,0,0,0,
6.38224E+17,37.05982,91.82958,64.1116,1.178134,-42.43355,-6.366118,-0.6361189,-1.262423,-9.175476,13.70306,-1.050031,39.26562,0,0,0,69.73268,98.40877,-76.01234,-1.244037,-111.2317,-56.30309,0.001067912,-0.1257102,0.09433498,0,0.3,0,0,0,0,
6.38224E+17,38.99174,89.72555,62.05703,6.598277,-41.04189,-12.29898,-0.6361189,-1.262423,-9.175476,13.70306,-0.9767859,39.26562,0,0,0,74.52474,94.21167,-76.29246,-1.244037,-111.2317,-56.30309,0.001067912,-0.1257102,0.09433498,0,0.3,0,0,0,0,
6.38224E+17,41.96029,85.44733,57.92457,14.582,-37.52613,-20.13621,-0.6361189,-1.262423,-9.175476,13.70306,-1.050031,39.19238,0,0,0,82.62669,85.46569,-76.45577,-1.244037,-111.2317,-56.30309,0.001067912,-0.1257102,0.09433498,0,0.3,0,0,0,0,
6.38224E+17,43.77441,80.95872,53.74541,19.9289,-33.4244,-24.53092,-0.6361189,-1.262423,-9.175476,13.70306,-1.050031,39.19238,0,0,0,88.891,76.18341,-75.5724,-1.244037,-111.2317,-56.30309,0.001067912,-0.1257102,0.09433498,0,0.3,0,0,0,0,
6.38224E+17,44.26917,78.76117,51.76089,21.76003,-31.37353,-25.77609,-0.6361189,-1.262423,-9.175476,13.70306,-1.050031,39.19238,0,0,0,91.25172,71.60651,-74.74016,-1.244037,-111.2317,-56.30309,0.001067912,-0.1257102,0.09433498,0,0.3,0,0,0,0,
6.38224E+17,44.99953,74.13229,47.39495,24.54334,-26.75908,-26.87477,-0.6361189,-1.262423,-9.175476,13.70306,-0.9767859,39.26562,0,0,0,95.18341,61.34871,-73.16501,-1.244037,-111.2317,-56.30309,0.001067912,-0.1257102,0.09433498,0,0.3,0,0,0,0,
6.38224E+17,45.28225,69.03584,42.42198,26.30123,-21.77841,-25.92258,-0.6361189,-1.262423,-9.175476,13.70306,-1.050031,39.26562,0,0,0,97.82326,49.4343,-71.4858,-1.244037,-111.2317,-56.30309,0.001067912,-0.1257102,0.09433498,0,0.3,0,0,0,0,
6.38224E+17,45.777,63.8225,37.23889,27.47315,-16.43152,-23.57873,-0.6361189,-1.262423,-9.175476,13.70306,-1.050031,39.26562,0,0,0,99.98661,36.85999,-71.03916,-1.244037,-111.2317,-56.30309,0.001067912,-0.1257102,0.09433498,0,0.3,0,0,0,0,
6.38224E+17,46.24821,59.70793,33.55002,28.27885,-11.74383,-21.52787,-0.6361189,-1.262423,-9.175476,13.70306,-1.050031,39.26562,0,0,0,101.8219,27.35873,-70.87067,-1.244037,-111.2317,-56.30309,0.001067912,-0.1257102,0.09433498,0,0.3,0,0,0,0,
6.38224E+17,46.43668,55.28945,30.16467,29.37753,-7.12938,-19.76999,-0.6361189,-1.262423,-9.175476,13.70306,-1.050031,39.26562,0,0,0,103.5764,17.67654,-69.84191,-1.244037,-111.2317,-56.30309,0.001067912,-0.1257102,0.09433498,0,0.3,0,0,0,0,
6.38224E+17,46.38956,48.83707,25.79873,31.06216,-0.9035407,-17.2064,-0.6361189,-1.262423,-9.175476,13.62981,-1.050031,39.19238,0,0,0,105.5708,3.682535,-67.77961,-1.244037,-111.2317,-56.30309,0.001067912,-0.1257102,0.09433498,0,0.3,0,0,0,0,
6.38224E+17,46.27176,41.98725,21.783,32.82005,5.688524,-14.71607,-0.6361189,-1.262423,-9.175476,13.70306,-1.050031,39.26562,0,0,0,107.3847,-11.27176,-65.62961,-1.244037,-111.2317,-56.30309,0.001067912,-0.1257102,0.09433498,0,0.3,0,0,0,0,
6.38224E+17,46.13041,35.83878,19.05137,34.43144,11.69463,-13.10467,-0.6361189,-1.262423,-9.175476,13.70306,-1.050031,39.19238,0,0,0,109.313,-24.61863,-63.26742,-1.244037,-111.2317,-56.30309,0.001067912,-0.1257102,0.09433498,0,0.3,0,0,0,0,
6.38224E+17,45.87124,32.823,17.81396,35.23714,14.62444,-12.6652,-0.6361189,-1.262423,-9.175476,13.70306,-0.9767859,39.19238,0,0,0,109.7165,-31.32474,-61.9205,-1.244037,-111.2317,-56.30309,0.001067912,-0.1257102,0.09433498,0,0.3,0,0,0,0,
6.38224E+17,45.07021,27.60966,15.85279,36.4823,19.82484,-12.22573,-0.6361189,-1.262423,-9.175476,13.70306,-1.050031,39.19238,0,0,0,109.4466,-43.12782,-59.17125,-1.244037,-111.2317,-56.30309,0.001067912,-0.1257102,0.09433498,0,0.3,0,0,0,0,
6.38224E+17,43.63305,22.91064,14.84886,37.06827,24.21955,-12.6652,-0.6361189,-1.262423,-9.175476,13.70306,-1.050031,39.26562,0,0,0,108.3386,-53.63432,-54.71455,-1.244037,-111.2317,-56.30309,0.001067912,-0.1257102,0.09433498,0,0.3,0,0,0,0,
6.38224E+17,42.80845,21.017,14.73212,37.14151,26.05068,-13.03143,-0.6361189,-1.262423,-9.175476,13.70306,-1.050031,39.19238,0,0,0,107.6336,-57.79085,-52.15062,-1.244037,-111.2317,-56.30309,0.001067912,-0.1257102,0.09433498,0,0.3,0,0,0,0,
6.38224E+17,40.71161,17.90771,14.66208,36.84853,29.27347,-13.4709,-0.6361189,-1.262423,-9.175476,13.70306,-1.050031,39.19238,0,0,0,104.7796,-64.65446,-46.58237,-1.244037,-111.2317,-56.30309,0.001067912,-0.1257102,0.09433498,0,0.3,0,0,0,0,
6.38224E+17,37.88441,16.22447,14.00836,36.18932,31.69056,-13.39765,-0.6361189,-1.262423,-9.175476,13.70306,-1.050031,39.19238,0,0,0,98.44682,-68.77607,-41.8185,-1.244037,-111.2317,-56.30309,0.001067912,-0.1257102,0.09433498,0,0.3,0,0,0,0,
6.38224E+17,36.3059,15.96731,13.42468,35.53012,32.71599,-13.32441,-0.6361189,-1.262423,-9.175476,13.70306,-0.9767859,39.26562,0,0,0,94.24078,-69.67323,-40.08441,-1.244037,-111.2317,-56.30309,0.001067912,-0.1257102,0.09433498,0,0.3,0,0,0,0,
6.38224E+17,32.86615,16.24785,12.32736,33.5525,34.47387,-12.59196,-0.6361189,-1.262423,-9.175476,13.70306,-1.050031,39.19238,0,0,0,84.92581,-69.61505,-36.90445,-1.244037,-111.2317,-56.30309,0.001067912,-0.1257102,0.09433498,0,0.3,0,0,0,0,
6.38224E+17,29.07299,17.46352,11.04326,30.4762,35.79229,-10.90732,-0.6361189,-1.262423,-9.175476,13.70306,-1.050031,39.19238,0,0,0,74.22328,-67.5126,-34.84903,-1.244037,-111.2317,-56.30309,0.001067912,-0.1257102,0.09433498,0,0.3,0,0,0,0,
6.38224E+17,25.46832,19.75458,9.47899,26.88719,36.67123,-9.588906,-0.6361189,-1.262423,-9.175476,13.70306,-1.050031,39.26562,0,0,0,63.41089,-63.10802,-35.2169,-1.244037,-111.2317,-56.30309,0.001067912,-0.1257102,0.09433498,0,0.3,0,0,0,0,
6.38224E+17,23.74844,21.39106,8.685184,24.90957,36.89096,-9.22268,-0.6361189,-1.262423,-9.175476,13.70306,-1.050031,39.19238,0,0,0,58.11293,-59.83393,-36.26858,-1.244037,-111.2317,-56.30309,0.001067912,-0.1257102,0.09433498,0,0.3,0,0,0,0,
6.38224E+17,20.80345,25.43548,7.634556,20.66135,36.305,-8.783209,-0.6361189,-1.262423,-9.175476,13.70306,-1.050031,39.19238,0,0,0,49.06239,-51.54484,-39.21574,-1.244037,-111.2317,-56.30309,0.001067912,-0.1257102,0.09433498,0,0.3,0,0,0,0,
6.38224E+17,18.42389,30.4618,7.587861,16.41313,34.76685,-8.563474,-0.6361189,-1.262423,-9.175476,13.70306,-1.050031,39.26562,0,0,0,41.89227,-41.22871,-42.5923,-1.244037,-111.2317,-56.30309,0.001067912,-0.1257102,0.09433498,0,0.3,0,0,0,0,
6.38224E+17,16.60977,36.1427,8.661836,12.97061,31.69056,-8.490229,-0.6361189,-1.262423,-9.175476,13.70306,-1.050031,39.26562,0,0,0,36.5232,-29.82945,-45.91165,-1.244037,-111.2317,-56.30309,0.001067912,-0.1257102,0.09433498,0,0.3,0,0,0,0,
6.38224E+17,15.12549,41.4028,10.73974,10.18729,27.58883,-8.416983,-0.6361189,-1.262423,-9.175476,13.70306,-1.050031,39.26562,0,0,0,32.5835,-19.47339,-47.80348,-1.244037,-111.2317,-56.30309,0.001067912,-0.1257102,0.09433498,0,0.3,0,0,0,0,
6.38224E+17,14.39514,43.92765,12.00049,9.015368,25.39147,-8.416983,-0.6361189,-1.262423,-9.175476,13.70306,-1.050031,39.26562,0,0,0,30.76943,-14.57426,-48.46874,-1.244037,-111.2317,-56.30309,0.001067912,-0.1257102,0.09433498,0,0.3,0,0,0,0,
6.38224E+17,12.93442,48.55653,14.61539,6.964502,20.70378,-8.343738,-0.6361189,-1.262423,-9.175476,13.70306,-1.050031,39.26562,0,0,0,27.28778,-5.724613,-49.53332,-1.244037,-111.2317,-56.30309,0.001067912,-0.1257102,0.09433498,0,0.3,0,0,0,0,
6.38224E+17,11.5915,52.46069,17.11355,4.913638,16.01609,-8.197248,-0.6361189,-1.262423,-9.175476,13.70306,-1.050031,39.26562,0,0,0,24.21063,1.642219,-50.3161,-1.244037,-111.2317,-56.30309,0.001067912,-0.1257102,0.09433498,0,0.3,0,0,0,0,
6.38224E+17,10.8847,54.1673,18.3276,3.81496,13.67225,-8.124002,-0.6361189,-1.262423,-9.175476,13.70306,-0.9767859,39.19238,0,0,0,22.65956,4.875119,-50.51115,-1.244037,-111.2317,-56.30309,0.001067912,-0.1257102,0.09433498,0,0.3,0,0,0,0,
6.38224E+17,9.353305,57.01944,20.52225,1.617605,9.277537,-7.684532,-0.6361189,-1.262423,-9.175476,13.70306,-1.050031,39.19238,0,0,0,19.39509,10.32426,-50.59829,-1.244037,-111.2317,-56.30309,0.001067912,-0.1257102,0.09433498,0,0.3,0,0,0,0,
6.38224E+17,7.492068,58.88969,22.13321,-0.5065048,5.542034,-6.585854,-0.6361189,-1.262423,-9.175476,13.70306,-0.9767859,39.26562,0,0,0,15.53471,13.99733,-50.22575,-1.244037,-111.2317,-56.30309,0.001067912,-0.1257102,0.09433498,0,0.3,0,0,0,0,
6.38224E+17,4.499953,59.80144,23.0671,-2.923595,2.685472,-4.754725,-0.6361189,-1.262423,-9.175476,13.70306,-1.050031,39.19238,0,0,0,9.361838,15.91452,-49.39531,-1.244037,-111.2317,-56.30309,0.001067912,-0.1257102,0.09433498,0,0.3,0,0,0,0,
6.38224E+17,2.709396,59.89495,23.27722,-4.534989,1.586795,-3.582802,-0.6361189,-1.262423,-9.175476,13.70306,-0.9767859,39.26562,0,0,0,5.652761,16.21627,-48.89977,-1.244037,-111.2317,-56.30309,0.001067912,-0.1257102,0.09433498,0,0.3,0,0,0,0,
6.38224E+17,-1.979037,59.66118,23.62743,-8.709964,0.1951368,-0.8727306,-0.6361189,-1.262423,-9.175476,13.70306,-1.050031,39.26562,0,0,0,-4.17175,16.26678,-47.62025,-1.244037,-111.2317,-56.30309,0.001067912,-0.1257102,0.09433498,0,0.3,0,0,0,0,
6.38224E+17,-7.067988,58.74942,23.97764,-14.34984,-0.6838052,1.471115,-0.6361189,-1.262423,-9.175476,13.70306,-1.050031,39.26562,0,0,0,-15.18036,15.50936,-45.91716,-1.244037,-111.2317,-56.30309,0.001067912,-0.1257102,0.09433498,0,0.3,0,0,0,0,
6.38224E+17,-12.01558,56.43498,24.11773,-20.86866,-1.050031,4.254431,-0.6361189,-1.262423,-9.175476,13.70306,-1.050031,39.19238,0,0,0,-26.6916,12.7555,-42.94361,-1.244037,-111.2317,-56.30309,0.001067912,-0.1257102,0.09433498,0,0.3,0,0,0,0,
6.38224E+17,-13.87682,54.93878,24.09438,-23.72522,-0.9035407,5.426354,-0.6361189,-1.262423,-9.175476,13.70306,-1.050031,39.26562,0,0,0,-31.4285,10.77035,-41.13263,-1.244037,-111.2317,-56.30309,0.001067912,-0.1257102,0.09433498,0,0.3,0,0,0,0,
6.38224E+17,-17.19877,51.01124,23.9076,-29.65808,0.1218917,7.696954,-0.6361189,-1.262423,-9.175476,13.70306,-1.050031,39.19238,0,0,0,-40.78754,5.090276,-36.57674,-1.244037,-111.2317,-56.30309,0.001067912,-0.1257102,0.09433498,0,0.3,0,0,0,0,
6.38224E+17,-19.41341,46.35898,23.81421,-34.93173,2.172756,10.0408,-0.6361189,-1.262423,-9.175476,13.70306,-1.050031,39.19238,0,0,0,-48.48551,-2.144071,-30.77071,-1.244037,-111.2317,-56.30309,0.001067912,-0.1257102,0.09433498,0,0.3,0,0,0,0,
6.38224E+17,-19.93173,44.5121,23.76752,-36.39664,3.198189,11.13948,-0.6361189,-1.262423,-9.175476,13.70306,-1.050031,39.19238,0,0,0,-50.73815,-5.204029,-28.42955,-1.244037,-111.2317,-56.30309,0.001067912,-0.1257102,0.09433498,0,0.3,0,0,0,0,
6.38224E+17,-20.63853,39.64943,23.72082,-38.96022,6.201241,15.02147,-0.6361189,-1.262423,-9.175476,13.70306,-1.050031,39.19238,0,0,0,-55.0978,-13.64502,-22.06343,-1.244037,-111.2317,-56.30309,0.001067912,-0.1257102,0.09433498,0,0.3,0,0,0,0,
6.38224E+17,-20.80345,34.57636,23.53404,-40.0589,9.717009,19.85565,-0.6361189,-1.262423,-9.175476,13.70306,-1.050031,39.26562,0,0,0,-57.90662,-23.23167,-15.93735,-1.244037,-111.2317,-56.30309,0.001067912,-0.1257102,0.09433498,0,0.3,0,0,0,0,
6.38224E+17,-20.80345,30.20464,23.39396,-39.91241,13.74549,24.4701,-0.6361189,-1.262423,-9.175476,13.70306,-1.050031,39.26562,0,0,0,-59.73574,-31.95112,-11.12303,-1.244037,-111.2317,-56.30309,0.001067912,-0.1257102,0.09433498,0,0.3,0,0,0,0,
6.38224E+17,-20.75632,28.45127,23.18383,-39.83916,15.79636,26.15474,-0.6361189,-1.262423,-9.175476,13.70306,-1.050031,39.26562,0,0,0,-60.15556,-35.70208,-9.62501,-1.244037,-111.2317,-56.30309,0.001067912,-0.1257102,0.09433498,0,0.3,0,0,0,0,
6.38224E+17,-19.95529,25.76278,21.66626,-39.47293,19.60511,27.83937,-0.6361189,-1.262423,-9.175476,13.70306,-0.9767859,39.19238,0,0,0,-57.78938,-42.61877,-9.188627,-1.244037,-111.2317,-56.30309,0.001067912,-0.1257102,0.09433498,0,0.3,0,0,0,0,
6.38224E+17,-18.32965,24.2432,18.91129,-38.88697,22.38842,25.34904,-0.6361189,-1.262423,-9.175476,13.70306,-1.050031,39.19238,0,0,0,-51.82981,-48.04705,-11.90274,-1.244037,-111.2317,-56.30309,0.001067912,-0.1257102,0.09433498,0,0.3,0,0,0,0,
6.38224E+17,-16.98673,23.42496,16.88007,-38.4475,23.78008,22.27274,-0.6361189,-1.262423,-9.175476,13.70306,-1.050031,39.19238,0,0,0,-47.05964,-51.24158,-14.29728,-1.244037,-111.2317,-56.30309,0.001067912,-0.1257102,0.09433498,0,0.3,0,0,0,0,
6.38224E+17,-13.14646,21.53132,13.05112,-36.83611,26.19717,14.14253,-0.6361189,-1.262423,-9.175476,13.70306,-1.050031,39.19238,0,0,0,-35.06175,-57.61467,-18.2326,-1.244037,-111.2317,-56.30309,0.001067912,-0.1257102,0.09433498,0,0.3,0,0,0,0,
6.38224E+17,-7.727668,19.47404,10.55296,-33.39359,28.98049,6.525032,-0.6361189,-1.262423,-9.175476,13.70306,-1.050031,39.26562,0,0,0,-20.18903,-63.28833,-19.56985,-1.244037,-111.2317,-56.30309,0.001067912,-0.1257102,0.09433498,0,0.3,0,0,0,0,
6.38224E+17,-1.390038,18.235,9.292212,-27.68046,32.05679,1.837341,-0.6361189,-1.262423,-9.175476,13.70306,-1.050031,39.19238,0,0,0,-3.594731,-66.5229,-20.20832,-1.244037,-111.2317,-56.30309,0.001067912,-0.1257102,0.09433498,0,0.3,0,0,0,0,
6.38224E+17,4.994712,18.21162,8.848614,-20.2827,34.98659,-0.4332596,-0.6361189,-1.262423,-9.175476,13.70306,-1.050031,39.26562,0,0,0,12.81429,-66.73734,-21.7261,-1.244037,-111.2317,-56.30309,0.001067912,-0.1257102,0.09433498,0,0.3,0,0,0,0,
6.38224E+17,7.963267,18.42202,8.871961,-16.5472,36.15851,-1.092466,-0.6361189,-1.262423,-9.175476,13.70306,-1.050031,39.19238,0,0,0,20.37656,-66.26409,-22.68572,-1.244037,-111.2317,-56.30309,0.001067912,-0.1257102,0.09433498,0,0.3,0,0,0,0,
6.38224E+17,13.8297,19.14675,8.988697,-8.563474,38.13613,-1.898163,-0.6361189,-1.262423,-9.175476,13.70306,-1.050031,39.26562,0,0,0,35.09248,-64.62505,-25.79804,-1.244037,-111.2317,-56.30309,0.001067912,-0.1257102,0.09433498,0,0.3,0,0,0,0,
6.38224E+17,18.98933,20.19877,9.408949,-1.019221,39.30806,-2.337634,-0.6361189,-1.262423,-9.175476,13.70306,-0.9767859,39.26562,0,0,0,47.81607,-62.16317,-29.39799,-1.244037,-111.2317,-56.30309,0.001067912,-0.1257102,0.09433498,0,0.3,0,0,0,0,
6.38224E+17,23.6542,21.53132,9.922588,5.426354,39.67428,-2.85035,-0.6361189,-1.262423,-9.175476,13.70306,-1.050031,39.26562,0,0,0,58.98793,-59.06451,-33.67937,-1.244037,-111.2317,-56.30309,0.001067912,-0.1257102,0.09433498,0,0.3,0,0,0,0,
6.38224E+17,25.68036,22.20929,10.2728,8.136425,39.67428,-3.289821,-0.6361189,-1.262423,-9.175476,13.70306,-1.050031,39.19238,0,0,0,63.80546,-57.45728,-35.65565,-1.244037,-111.2317,-56.30309,0.001067912,-0.1257102,0.09433498,0,0.3,0,0,0,0,
6.38224E+17,29.66199,23.89252,11.34677,12.97061,39.01508,-4.681479,-0.6361189,-1.262423,-9.175476,13.70306,-1.050031,39.19238,0,0,0,73.32125,-53.38387,-39.60578,-1.244037,-111.2317,-56.30309,0.001067912,-0.1257102,0.09433498,0,0.3,0,0,0,0,
6.38224E+17,33.54939,26.23034,12.95773,17.36532,37.84315,-6.219628,-0.6361189,-1.262423,-9.175476,13.70306,-0.9767859,39.26562,0,0,0,82.63281,-47.66618,-43.73893,-1.244037,-111.2317,-56.30309,0.001067912,-0.1257102,0.09433498,0,0.3,0,0,0,0,
6.38224E+17,35.22214,27.53952,14.00836,19.26969,36.96421,-6.878834,-0.6361189,-1.262423,-9.175476,13.70306,-1.050031,39.19238,0,0,0,86.81186,-44.37847,-45.38725,-1.244037,-111.2317,-56.30309,0.001067912,-0.1257102,0.09433498,0,0.3,0,0,0,0,
6.38224E+17,38.21426,30.55531,16.85673,23.59116,34.8401,-7.977511,-0.6361189,-1.262423,-9.175476,13.70306,-1.050031,39.19238,0,0,0,94.9567,-36.47921,-47.74332,-1.244037,-111.2317,-56.30309,0.001067912,-0.1257102,0.09433498,0,0.3,0,0,0,0,
6.38224E+17,40.24041,33.8984,20.0553,27.54639,32.05679,-8.929699,-0.6361189,-1.262423,-9.175476,13.70306,-1.050031,39.26562,0,0,0,101.0426,-27.54172,-48.95321,-1.244037,-111.2317,-56.30309,0.001067912,-0.1257102,0.09433498,0,0.3,0,0,0,0,
6.38224E+17,41.41841,38.17661,24.16442,31.20865,28.0283,-10.3946,-0.6361189,-1.262423,-9.175476,13.70306,-1.050031,39.26562,0,0,0,105.4617,-15.89318,-48.80465,-1.244037,-111.2317,-56.30309,0.001067912,-0.1257102,0.09433498,0,0.3,0,0,0,0,
6.38224E+17,41.74825,41.35604,27.10618,33.11303,25.24498,-11.49328,-0.6361189,-1.262423,-9.175476,13.70306,-1.050031,39.19238,0,0,0,107.1065,-7.244162,-48.33994,-1.244037,-111.2317,-56.30309,0.001067912,-0.1257102,0.09433498,0,0.3,0,0,0,0,
6.38224E+17,41.77181,43.34319,28.92726,33.99197,23.34061,-12.22573,-0.6361189,-1.262423,-9.175476,13.70306,-1.050031,39.26562,0,0,0,107.5729,-1.835512,-47.91702,-1.244037,-111.2317,-56.30309,0.001067912,-0.1257102,0.09433498,0,0.3,0,0,0,0,
6.38224E+17,41.77181,47.83181,33.19981,35.53012,19.16564,-13.98362,-0.6361189,-1.262423,-9.175476,13.70306,-0.9767859,39.26562,0,0,0,108.2761,10.60324,-47.12982,-1.244037,-111.2317,-56.30309,0.001067912,-0.1257102,0.09433498,0,0.3,0,0,0,0,
6.38224E+17,41.65401,53.02177,38.70977,37.288,14.03847,-16.10773,-0.6361189,-1.262423,-9.175476,13.70306,-1.050031,39.19238,0,0,0,108.7372,25.82234,-46.10863,-1.244037,-111.2317,-56.30309,0.001067912,-0.1257102,0.09433498,0,0.3,0,0,0,0,
6.38224E+17,41.48909,55.6635,41.53479,38.16694,11.40165,-17.35289,-0.6361189,-1.262423,-9.175476,13.70306,-1.050031,39.19238,0,0,0,108.4061,33.64273,-45.77222,-1.244037,-111.2317,-56.30309,0.001067912,-0.1257102,0.09433498,0,0.3,0,0,0,0,
6.38224E+17,40.68805,61.76521,48.30549,40.87702,5.029318,-20.86866,-0.6361189,-1.262423,-9.175476,13.70306,-1.050031,39.19238,0,0,0,106.0438,52.13461,-45.01075,-1.244037,-111.2317,-56.30309,0.001067912,-0.1257102,0.09433498,0,0.3,0,0,0,0,
6.38224E+17,38.59122,68.10071,55.4731,44.61252,-2.807915,-25.70284,-0.6361189,-1.262423,-9.175476,13.70306,-1.050031,39.26562,0,0,0,99.55091,71.49572,-43.60551,-1.244037,-111.2317,-56.30309,0.001067912,-0.1257102,0.09433498,0,0.3,0,0,0,0,
6.38224E+17,34.82162,73.54783,60.79628,48.71425,-11.23111,-31.41597,-0.6361189,-1.262423,-9.175476,13.70306,-1.050031,39.19238,0,0,0,88.03276,86.17654,-41.7894,-1.244037,-111.2317,-56.30309,0.001067912,-0.1257102,0.09433498,0,0.3,0,0,0,0,
6.38224E+17,30.46303,77.17145,63.24775,51.57081,-18.11616,-35.3712,-0.6361189,-1.262423,-9.175476,13.70306,-1.050031,39.19238,0,0,0,75.38049,93.34611,-40.19029,-1.244037,-111.2317,-56.30309,0.001067912,-0.1257102,0.09433498,0,0.3,0,0,0,0,
6.38224E+17,25.35052,79.95346,63.90147,52.88922,-24.92796,-37.6418,-0.6361189,-1.262423,-9.175476,13.70306,-1.050031,39.19238,0,0,0,61.23305,95.99243,-39.10555,-1.244037,-111.2317,-56.30309,0.001067912,-0.1257102,0.09433498,0,0.3,0,0,0,0,
6.38224E+17,17.59929,82.50168,63.13101,50.83836,-33.86386,-36.03041,-0.6361189,-1.262423,-9.175476,13.70306,-0.9767859,39.26562,0,0,0,41.22823,95.29188,-38.37658,-1.244037,-111.2317,-56.30309,0.001067912,-0.1257102,0.09433498,0,0.3,0,0,0,0,
6.38224E+17,13.26426,83.08614,62.19712,47.10286,-38.18533,-31.70894,-0.6361189,-1.262423,-9.175476,13.70306,-1.050031,39.26562,0,0,0,30.74715,93.53172,-37.91702,-1.244037,-111.2317,-56.30309,0.001067912,-0.1257102,0.09433498,0,0.3,0,0,0,0,
6.38224E+17,4.476392,82.64195,59.11527,30.98892,-44.92389,-13.69064,-0.6361189,-1.262423,-9.175476,13.70306,-1.050031,39.19238,0,0,0,10.26486,87.15167,-37.23191,-1.244037,-111.2317,-56.30309,0.001067912,-0.1257102,0.09433498,0,0.3,0,0,0,0,
6.38224E+17,-3.015675,80.23399,54.93612,8.50265,-45.94932,9.161857,-0.6361189,-1.262423,-9.175476,13.70306,-0.9767859,39.19238,0,0,0,-6.932206,78.15942,-36.76443,-1.244037,-111.2317,-56.30309,0.001067912,-0.1257102,0.09433498,0,0.3,0,0,0,0,
6.38224E+17,-6.00779,78.43387,52.69478,-1.898163,-44.55766,18.39075,-0.6361189,-1.262423,-9.175476,13.70306,-1.050031,39.19238,0,0,0,-13.89992,73.17397,-36.27387,-1.244037,-111.2317,-56.30309,0.001067912,-0.1257102,0.09433498,0,0.3,0,0,0,0,
6.38224E+17,-10.4135,74.36607,47.79185,-17.49938,-39.72348,31.13541,-0.6361189,-1.262423,-9.175476,13.70306,-1.050031,39.19238,0,0,0,-24.34897,62.17848,-35.85875,-1.244037,-111.2317,-56.30309,0.001067912,-0.1257102,0.09433498,0,0.3,0,0,0,0,
6.38224E+17,-13.33494,69.66705,41.90834,-26.14231,-33.57088,37.72747,-0.6361189,-1.262423,-9.175476,13.70306,-1.050031,39.26562,0,0,0,-31.2304,49.14988,-36.59504,-1.244037,-111.2317,-56.30309,0.001067912,-0.1257102,0.09433498,0,0.3,0,0,0,0,
6.38224E+17,-15.36109,64.43033,35.79136,-29.87782,-26.68584,40.14456,-0.6361189,-1.262423,-9.175476,13.70306,-1.050031,39.26562,0,0,0,-35.90547,35.47272,-37.64943,-1.244037,-111.2317,-56.30309,0.001067912,-0.1257102,0.09433498,0,0.3,0,0,0,0,
6.38224E+17,-16.04433,61.32103,32.38266,-30.83001,-22.87709,40.29105,-0.6361189,-1.262423,-9.175476,13.70306,-1.050031,39.26562,0,0,0,-37.42567,27.72818,-38.21131,-1.244037,-111.2317,-56.30309,0.001067912,-0.1257102,0.09433498,0,0.3,0,0,0,0,
6.38224E+17,-16.56265,54.26081,25.51856,-31.48921,-14.52714,39.04589,-0.6361189,-1.262423,-9.175476,13.70306,-1.050031,39.26562,0,0,0,-38.57964,11.24694,-38.6284,-1.244037,-111.2317,-56.30309,0.001067912,-0.1257102,0.09433498,0,0.3,0,0,0,0,
6.38224E+17,-16.56265,47.0837,19.33154,-30.90325,-5.225006,36.70204,-0.6361189,-1.262423,-9.175476,13.70306,-1.050031,39.19238,0,0,0,-38.46799,-4.82281,-39.0038,-1.244037,-111.2317,-56.30309,0.001067912,-0.1257102,0.09433498,0,0.3,0,0,0,0,
6.38224E+17,-16.25637,40.95861,13.72819,-30.53703,4.223621,32.89329,-0.6361189,-1.262423,-9.175476,13.70306,-1.050031,39.19238,0,0,0,-37.04945,-18.77777,-41.29171,-1.244037,-111.2317,-56.30309,0.001067912,-0.1257102,0.09433498,0,0.3,0,0,0,0,
6.38224E+17,-15.76161,39.01822,11.72033,-30.53703,7.959125,30.54945,-0.6361189,-1.262423,-9.175476,13.70306,-1.050031,39.19238,0,0,0,-35.50106,-23.26693,-42.57033,-1.244037,-111.2317,-56.30309,0.001067912,-0.1257102,0.09433498,0,0.3,0,0,0,0,
6.38224E+17,-13.7119,36.1427,7.914723,-30.46378,15.13715,24.54334,-0.6361189,-1.262423,-9.175476,13.70306,-1.050031,39.19238,0,0,0,-29.87865,-30.08011,-45.89337,-1.244037,-111.2317,-56.30309,0.001067912,-0.1257102,0.09433498,0,0.3,0,0,0,0,
6.38224E+17,-10.7669,35.41798,5.439913,-29.21861,20.70378,18.90347,-0.6361189,-1.262423,-9.175476,13.70306,-1.050031,39.19238,0,0,0,-22.6633,-32.11817,-49.17084,-1.244037,-111.2317,-56.30309,0.001067912,-0.1257102,0.09433498,0,0.3,0,0,0,0,
6.38224E+17,-8.929225,35.58163,4.552717,-28.04669,23.04763,16.63286,-0.6361189,-1.262423,-9.175476,13.70306,-1.050031,39.26562,0,0,0,-18.4762,-31.98792,-50.75592,-1.244037,-111.2317,-56.30309,0.001067912,-0.1257102,0.09433498,0,0.3,0,0,0,0,
6.38224E+17,-5.395231,36.18946,3.478743,-24.89715,26.19717,13.84955,-0.6361189,-1.262423,-9.175476,13.70306,-1.050031,39.19238,0,0,0,-10.88007,-31.01682,-53.14855,-1.244037,-111.2317,-56.30309,0.001067912,-0.1257102,0.09433498,0,0.3,0,0,0,0,
6.38224E+17,-1.507838,36.79729,2.661588,-20.57568,28.68751,12.3114,-0.6361189,-1.262423,-9.175476,13.70306,-1.050031,39.26562,0,0,0,-2.972754,-29.9814,-55.41547,-1.244037,-111.2317,-56.30309,0.001067912,-0.1257102,0.09433498,0,0.3,0,0,0,0,
6.38224E+17,2.803635,37.49864,1.96117,-16.32746,30.44539,10.99299,-0.6361189,-1.262423,-9.175476,13.70306,-1.050031,39.26562,0,0,0,5.398012,-28.74607,-58.12297,-1.244037,-111.2317,-56.30309,0.001067912,-0.1257102,0.09433498,0,0.3,0,0,0,0,
6.38224E+17,5.465911,37.89607,1.657656,-14.13011,31.1046,10.0408,-0.6361189,-1.262423,-9.175476,13.62981,-1.050031,39.26562,0,0,0,10.39096,-28.03649,-59.75854,-1.244037,-111.2317,-56.30309,0.001067912,-0.1257102,0.09433498,0,0.3,0,0,0,0,
6.38224E+17,13.2407,38.90133,1.564267,-8.490229,32.13003,6.671522,-0.6361189,-1.262423,-9.175476,13.70306,-1.050031,39.19238,0,0,0,24.60304,-26.20902,-63.78853,-1.244037,-111.2317,-56.30309,0.001067912,-0.1257102,0.09433498,0,0.3,0,0,0,0,
6.38224E+17,21.36888,39.7897,2.801672,-2.044653,32.49626,4.107941,-0.6361189,-1.262423,-9.175476,13.70306,-0.9767859,39.19238,0,0,0,39.7106,-24.50039,-66.85828,-1.244037,-111.2317,-56.30309,0.001067912,-0.1257102,0.09433498,0,0.3,0,0,0,0,
6.38224E+17,25.86884,40.3274,4.085772,2.130321,32.42301,2.789528,-0.6361189,-1.262423,-9.175476,13.70306,-1.050031,39.19238,0,0,0,48.50124,-23.36305,-68.32722,-1.244037,-111.2317,-56.30309,0.001067912,-0.1257102,0.09433498,0,0.3,0,0,0,0,
6.38224E+17,33.40803,41.54307,7.657903,11.06623,31.17784,0.8119082,-0.6361189,-1.262423,-9.175476,13.70306,-1.050031,39.19238,0,0,0,64.73749,-20.37527,-70.20036,-1.244037,-111.2317,-56.30309,0.001067912,-0.1257102,0.09433498,0,0.3,0,0,0,0,
6.38224E+17,38.99174,43.06265,11.60359,20.07539,28.98049,-1.165711,-0.6361189,-1.262423,-9.175476,13.70306,-1.050031,39.26562,0,0,0,78.17815,-16.22361,-71.77955,-1.244037,-111.2317,-56.30309,0.001067912,-0.1257102,0.09433498,0,0.3,0,0,0,0,
6.38224E+17,42.17233,44.88615,14.9189,27.39991,26.34366,-3.656047,-0.6361189,-1.262423,-9.175476,13.70306,-0.9767859,39.19238,0,0,0,86.47894,-11.39979,-72.88441,-1.244037,-111.2317,-56.30309,0.001067912,-0.1257102,0.09433498,0,0.3,0,0,0,0,
6.38224E+17,43.72729,46.82654,17.51045,31.64813,24.07306,-6.146383,-0.6361189,-1.262423,-9.175476,13.70306,-1.050031,39.26562,0,0,0,90.80066,-6.570599,-73.42309,-1.244037,-111.2317,-56.30309,0.001067912,-0.1257102,0.09433498,0,0.3,0,0,0,0,
6.38224E+17,44.24561,47.85518,18.79455,33.03978,22.90114,-7.538041,-0.6361189,-1.262423,-9.175476,13.70306,-1.050031,39.19238,0,0,0,92.40871,-4.017251,-73.47526,-1.244037,-111.2317,-56.30309,0.001067912,-0.1257102,0.09433498,0,0.3,0,0,0,0,
6.38224E+17,44.90529,49.74882,21.26936,34.72442,20.70378,-10.02838,-0.6361189,-1.262423,-9.175476,13.70306,-1.050031,39.19238,0,0,0,94.97382,0.8583575,-73.06167,-1.244037,-111.2317,-56.30309,0.001067912,-0.1257102,0.09433498,0,0.3,0,0,0,0,
6.38224E+17,45.51785,51.64245,23.83756,35.89634,18.43318,-12.07924,-0.6361189,-1.262423,-9.175476,13.7763,-1.050031,39.19238,0,0,0,97.49217,5.942293,-72.60438,-1.244037,-111.2317,-56.30309,0.001067912,-0.1257102,0.09433498,0,0.3,0,0,0,0,
6.38224E+17,45.80056,52.48407,24.93488,36.33582,17.481,-12.95818,-0.6361189,-1.262423,-9.175476,13.70306,-1.050031,39.19238,0,0,0,98.52346,8.200971,-72.54201,-1.244037,-111.2317,-56.30309,0.001067912,-0.1257102,0.09433498,0,0.3,0,0,0,0,
6.38224E+17,46.62516,54.30756,27.22291,37.36125,15.28364,-14.49633,-0.6361189,-1.262423,-9.175476,13.70306,-1.050031,39.19238,0,0,0,100.8921,13.07232,-73.02494,-1.244037,-111.2317,-56.30309,0.001067912,-0.1257102,0.09433498,0,0.3,0,0,0,0,
6.38224E+17,47.8974,56.2012,29.39421,38.31343,13.37927,-15.7415,-0.6361189,-1.262423,-9.175476,13.70306,-1.050031,39.19238,0,0,0,103.5978,17.98035,-74.73365,-1.244037,-111.2317,-56.30309,0.001067912,-0.1257102,0.09433498,0,0.3,0,0,0,0,
6.38224E+17,49.71152,57.86105,31.75228,39.33887,11.54814,-17.13316,-0.6361189,-1.262423,-9.175476,13.70306,-1.050031,39.26562,0,0,0,107.6415,22.87384,-77.1006,-1.244037,-111.2317,-56.30309,0.001067912,-0.1257102,0.09433498,0,0.3,0,0,0,0,
6.38224E+17,50.79528,58.67929,33.08308,40.07132,10.59595,-18.0121,-0.6361189,-1.262423,-9.175476,13.70306,-1.050031,39.19238,0,0,0,110.119,25.53574,-78.52402,-1.244037,-111.2317,-56.30309,0.001067912,-0.1257102,0.09433498,0,0.3,0,0,0,0,
6.38224E+17,53.24551,60.24563,35.95479,42.12218,8.618331,-20.20946,-0.6361189,-1.262423,-9.175476,13.70306,-1.050031,39.26562,0,0,0,115.7546,31.17503,-81.8978,-1.244037,-111.2317,-56.30309,0.001067912,-0.1257102,0.09433498,0,0.3,0,0,0,0,
6.38224E+17,55.31879,61.76521,38.96659,44.46603,6.640712,-23.43224,-0.6361189,-1.262423,-9.175476,13.70306,-1.050031,39.26562,0,0,0,120.8377,37.1522,-84.73661,-1.244037,-111.2317,-56.30309,0.001067912,-0.1257102,0.09433498,0,0.3,0,0,0,0,
6.38224E+17,55.29523,63.58871,40.83437,45.7112,5.029318,-28.48616,-0.6361189,-1.262423,-9.175476,13.62981,-1.050031,39.26562,0,0,0,120.4452,41.88847,-84.93494,-1.244037,-111.2317,-56.30309,0.001067912,-0.1257102,0.09433498,0,0.3,0,0,0,0,
6.38224E+17,55.29523,65.99667,44.17303,45.49146,4.077131,-33.68657,-0.6361189,-1.262423,-9.175476,13.70306,-1.050031,39.26562,0,0,0,120.9858,49.52435,-84.56055,-1.244037,-111.2317,-56.30309,0.001067912,-0.1257102,0.09433498,0,0.3,0,0,0,0,
6.38224E+17,55.29523,68.17085,46.90466,45.85769,3.124943,-36.61637,-0.6361189,-1.262423,-9.175476,13.70306,-1.050031,39.19238,0,0,0,120.8149,56.03172,-84.67893,-1.244037,-111.2317,-56.30309,0.001067912,-0.1257102,0.09433498,0,0.3,0,0,0,0,
6.38224E+17,55.17743,73.94525,53.16172,48.34802,0.1951368,-41.96327,-0.6361189,-1.262423,-9.175476,13.70306,-1.050031,39.26562,0,0,0,117.8871,71.54796,-86.34747,-1.244037,-111.2317,-56.30309,0.001067912,-0.1257102,0.09433498,0,0.3,0,0,0,0,
6.38224E+17,53.41043,80.70156,58.99854,52.74273,-4.85878,-48.70182,-0.6361189,-1.262423,-9.175476,13.70306,-1.050031,39.19238,0,0,0,109.0757,86.26456,-87.37402,-1.244037,-111.2317,-56.30309,0.001067912,-0.1257102,0.09433498,0,0.3,0,0,0,0,
6.38224E+17,51.76123,83.69397,60.84298,54.64711,-7.715342,-52.36408,-0.6361189,-1.262423,-9.175476,13.70306,-1.050031,39.19238,0,0,0,102.9709,90.92439,-87.207,-1.244037,-111.2317,-56.30309,0.001067912,-0.1257102,0.09433498,0,0.3,0,0,0,0,
6.38224E+17,46.43668,89.14109,63.41117,57.13744,-14.38065,-58.44344,-0.6361189,-1.262423,-9.175476,13.70306,-1.050031,39.19238,0,0,0,87.8565,96.9996,-84.79258,-1.244037,-111.2317,-56.30309,0.001067912,-0.1257102,0.09433498,0,0.3,0,0,0,0,
6.38224E+17,39.39226,93.27904,65.18556,57.35718,-21.04596,-60.93377,-0.6361189,-1.262423,-9.175476,13.70306,-1.050031,39.26562,0,0,0,71.97332,100.5173,-80.70409,-1.244037,-111.2317,-56.30309,0.001067912,-0.1257102,0.09433498,0,0.3,0,0,0,0,
6.38224E+17,29.77979,96.27144,65.81594,55.37956,-28.51697,-59.39562,-0.6361189,-1.262423,-9.175476,13.70306,-0.9767859,39.26562,0,0,0,53.18291,101.2726,-75.41142,-1.244037,-111.2317,-56.30309,0.001067912,-0.1257102,0.09433498,0,0.3,0,0,0,0,
6.38224E+17,21.74584,97.55724,65.51243,51.42432,-34.23009,-54.12197,-0.6361189,-1.262423,-9.175476,13.70306,-0.9767859,39.19238,0,0,0,38.46338,100.2687,-71.92045,-1.244037,-111.2317,-56.30309,0.001067912,-0.1257102,0.09433498,0,0.3,0,0,0,0,
6.38224E+17,12.74594,97.86116,64.39176,43.00113,-40.2362,-43.64791,-0.6361189,-1.262423,-9.175476,13.70306,-0.9767859,39.19238,0,0,0,22.50682,97.8109,-68.8514,-1.244037,-111.2317,-56.30309,0.001067912,-0.1257102,0.09433498,0,0.3,0,0,0,0,
6.38224E+17,1.013078,96.01428,61.77686,23.07844,-45.14362,-21.96734,-0.6361189,-1.262423,-9.175476,13.70306,-1.050031,39.19238,0,0,0,1.830377,92.90392,-64.84174,-1.244037,-111.2317,-56.30309,0.001067912,-0.1257102,0.09433498,0,0.3,0,0,0,0,
6.38224E+17,-4.382153,94.09727,60.11921,10.40703,-45.4366,-9.66215,-0.6361189,-1.262423,-9.175476,13.70306,-1.050031,39.26562,0,0,0,-8.106564,89.92461,-62.56504,-1.244037,-111.2317,-56.30309,0.001067912,-0.1257102,0.09433498,0,0.3,0,0,0,0,
6.38224E+17,-12.13338,89.11771,56.26691,-13.03143,-42.50679,11.21272,-0.6361189,-1.262423,-9.175476,13.70306,-1.050031,39.19238,0,0,0,-23.74111,82.63163,-57.92154,-1.244037,-111.2317,-56.30309,0.001067912,-0.1257102,0.09433498,0,0.3,0,0,0,0,
6.38224E+17,-16.82181,84.11478,52.15779,-27.82695,-37.52613,24.61659,-0.6361189,-1.262423,-9.175476,13.70306,-1.050031,39.26562,0,0,0,-34.4324,74.18839,-54.46112,-1.244037,-111.2317,-56.30309,0.001067912,-0.1257102,0.09433498,0,0.3,0,0,0,0,
6.38224E+17,-20.52073,79.34563,48.51562,-35.81068,-32.25247,32.82005,-0.6361189,-1.262423,-9.175476,13.70306,-1.050031,39.26562,0,0,0,-43.6611,66.06793,-51.70174,-1.244037,-111.2317,-56.30309,0.001067912,-0.1257102,0.09433498,0,0.3,0,0,0,0,
6.38224E+17,-23.72488,75.20768,45.76064,-40.64486,-27.2718,37.14151,-0.6361189,-1.262423,-9.175476,13.70306,-1.050031,39.26562,0,0,0,-52.13694,59.24784,-49.71873,-1.244037,-111.2317,-56.30309,0.001067912,-0.1257102,0.09433498,0,0.3,0,0,0,0,
6.38224E+17,-25.20916,73.10365,44.52324,-42.54923,-25.0012,38.53317,-0.6361189,-1.262423,-9.175476,13.70306,-1.050031,39.26562,0,0,0,-56.33348,55.86952,-48.68491,-1.244037,-111.2317,-56.30309,0.001067912,-0.1257102,0.09433498,0,0.3,0,0,0,0,
6.38224E+17,-27.73007,68.82543,42.18851,-45.47904,-20.53325,40.43755,-0.6361189,-1.262423,-9.175476,13.70306,-1.050031,39.19238,0,0,0,-64.08278,48.89251,-46.44581,-1.244037,-111.2317,-56.30309,0.001067912,-0.1257102,0.09433498,0,0.3,0,0,0,0,
6.38224E+17,-30.06251,63.98614,40.22734,-47.60315,-16.65125,41.8292,-0.6361189,-1.262423,-9.175476,13.70306,-1.050031,39.26562,0,0,0,-72.43966,41.37893,-43.19636,-1.244037,-111.2317,-56.30309,0.001067912,-0.1257102,0.09433498,0,0.3,0,0,0,0,
6.38224E+17,-31.21695,61.48467,39.48022,-48.55533,-14.82012,42.48841,-0.6361189,-1.262423,-9.175476,13.70306,-1.050031,39.19238,0,0,0,-76.93658,37.59783,-41.39737,-1.244037,-111.2317,-56.30309,0.001067912,-0.1257102,0.09433498,0,0.3,0,0,0,0,
6.38224E+17,-33.57294,56.08431,38.26617,-50.31322,-11.15786,43.88007,-0.6361189,-1.262423,-9.175476,13.70306,-0.9767859,39.19238,0,0,0,-86.81593,29.31306,-37.54757,-1.244037,-111.2317,-56.30309,0.001067912,-0.1257102,0.09433498,0,0.3,0,0,0,0,
6.38224E+17,-35.81114,49.91246,37.23889,-52.14435,-7.642097,44.9055,-0.6361189,-1.262423,-9.175476,13.70306,-1.050031,39.19238,0,0,0,-97.46095,19.20843,-33.27243,-1.244037,-111.2317,-56.30309,0.001067912,-0.1257102,0.09433498,0,0.3,0,0,0,0,
6.38224E+17,-37.34254,44.11467,36.91203,-53.90223,-4.492554,45.63795,-0.6361189,-1.262423,-9.175476,13.70306,-1.050031,39.26562,0,0,0,-106.6528,9.553346,-28.56359,-1.244037,-111.2317,-56.30309,0.001067912,-0.1257102,0.09433498,0,0.3,0,0,0,0,
6.38224E+17,-37.97866,41.33266,36.93538,-54.63469,-3.027651,46.07742,-0.6361189,-1.262423,-9.175476,13.70306,-1.050031,39.19238,0,0,0,-110.9279,4.829823,-26.25969,-1.244037,-111.2317,-56.30309,0.001067912,-0.1257102,0.09433498,0,0.3,0,0,0,0,
6.38224E+17,-38.8975,36.1427,37.07546,-55.66012,-0.6838052,47.10286,-0.6361189,-1.262423,-9.175476,13.70306,-1.050031,39.26562,0,0,0,-118.1003,-4.392648,-21.97358,-1.244037,-111.2317,-56.30309,0.001067912,-0.1257102,0.09433498,0,0.3,0,0,0,0,
6.38224E+17,-39.55717,30.81247,37.6358,-56.02634,1.586795,48.93398,-0.6361189,-1.262423,-9.175476,13.70306,-1.050031,39.26562,0,0,0,-124.7943,-13.94513,-17.26977,-1.244037,-111.2317,-56.30309,0.001067912,-0.1257102,0.09433498,0,0.3,0,0,0,0,
6.38224E+17,-39.76921,28.47465,38.24282,-55.87985,2.392492,50.03266,-0.6361189,-1.262423,-9.175476,13.70306,-1.050031,39.19238,0,0,0,-127.7868,-17.80509,-14.80788,-1.244037,-111.2317,-56.30309,0.001067912,-0.1257102,0.09433498,0,0.3,0,0,0,0,
6.38224E+17,-39.83989,27.3525,38.63972,-55.80661,2.831963,50.83836,-0.6361189,-1.262423,-9.175476,13.70306,-1.050031,39.19238,0,0,0,-129.2229,-19.53858,-13.47131,-1.244037,-111.2317,-56.30309,0.001067912,-0.1257102,0.09433498,0,0.3,0,0,0,0,
6.38224E+17,-39.86345,26.16021,39.08332,-55.66012,3.564415,52.523,-0.6361189,-1.262423,-9.175476,13.62981,-1.050031,39.26562,0,0,0,-130.6025,-21.36857,-11.94851,-1.244037,-111.2317,-56.30309,0.001067912,-0.1257102,0.09433498,0,0.3,0,0,0,0,
6.38224E+17,-39.81633,26.20697,39.13002,-55.66012,3.93064,53.69492,-0.6361189,-1.262423,-9.175476,13.70306,-1.050031,39.19238,0,0,0,-130.4971,-21.20236,-11.81327,-1.244037,-111.2317,-56.30309,0.001067912,-0.1257102,0.09433498,0,0.3,0,0,0,0,
6.38224E+17,-39.58073,26.83818,39.20006,-56.02634,4.370111,54.28088,-0.6361189,-1.262423,-9.175476,13.70306,-1.050031,39.26562,0,0,0,-129.5149,-19.78494,-11.68618,-1.244037,-111.2317,-56.30309,0.001067912,-0.1257102,0.09433498,0,0.3,0,0,0,0,
6.38224E+17,-39.27446,27.37588,39.03663,-56.46581,4.736337,54.28088,-0.6361189,-1.262423,-9.175476,13.70306,-1.050031,39.19238,0,0,0,-128.1278,-18.91096,-11.66596,-1.244037,-111.2317,-56.30309,0.001067912,-0.1257102,0.09433498,0,0.3,0,0,0,0,
6.38224E+17,-37.69594,29.57343,36.91203,-57.63773,6.640712,52.01028,-0.6361189,-1.262423,-9.175476,13.70306,-1.050031,39.19238,0,0,0,-119.8887,-17.45778,-13.20938,-1.244037,-111.2317,-56.30309,0.001067912,-0.1257102,0.09433498,0,0.3,0,0,0,0,
6.38224E+17,-34.93942,34.17893,33.03638,-57.418,9.277537,47.10286,-0.6361189,-1.262423,-9.175476,13.70306,-0.9767859,39.19238,0,0,0,-104.8159,-13.52732,-18.32005,-1.244037,-111.2317,-56.30309,0.001067912,-0.1257102,0.09433498,0,0.3,0,0,0,0,
6.38224E+17,-32.93682,36.72716,30.81839,-56.46581,10.6692,44.02656,-0.6361189,-1.262423,-9.175476,13.70306,-1.050031,39.19238,0,0,0,-95.25688,-11.4264,-21.31259,-1.244037,-111.2317,-56.30309,0.001067912,-0.1257102,0.09433498,0,0.3,0,0,0,0,
6.38224E+17,-27.84787,40.23389,26.49915,-53.24303,13.45251,37.72747,-0.6361189,-1.262423,-9.175476,13.70306,-1.050031,39.26562,0,0,0,-75.34734,-9.858376,-25.73002,-1.244037,-111.2317,-56.30309,0.001067912,-0.1257102,0.09433498,0,0.3,0,0,0,0,
6.38224E+17,-21.86364,41.51969,22.6235,-48.62858,16.82179,30.62269,-0.6361189,-1.262423,-9.175476,13.70306,-1.050031,39.19238,0,0,0,-56.28406,-11.34436,-28.08188,-1.244037,-111.2317,-56.30309,0.001067912,-0.1257102,0.09433498,0,0.3,0,0,0,0,
6.38224E+17,-18.73017,41.8236,21.10593,-45.99176,18.57967,26.96043,-0.6361189,-1.262423,-9.175476,13.70306,-1.050031,39.19238,0,0,0,-47.32899,-12.13133,-28.76459,-1.244037,-111.2317,-56.30309,0.001067912,-0.1257102,0.09433498,0,0.3,0,0,0,0,
6.38224E+17,-8.764306,44.39521,16.83338,-37.56856,23.92657,15.16796,-0.6361189,-1.262423,-9.175476,13.70306,-1.050031,39.19238,0,0,0,-20.40228,-10.99394,-36.01399,-1.244037,-111.2317,-56.30309,0.001067912,-0.1257102,0.09433498,0,0.3,0,0,0,0,
6.38224E+17,-5.79575,45.86803,15.85279,-35.29796,24.95201,11.87193,-0.6361189,-1.262423,-9.175476,13.70306,-1.050031,39.19238,0,0,0,-13.05504,-9.217906,-39.73069,-1.244037,-111.2317,-56.30309,0.001067912,-0.1257102,0.09433498,0,0.3,0,0,0,0,
6.38224E+17,2.544476,50.35665,14.68543,-29.3651,25.7577,3.96145,-0.6361189,-1.262423,-9.175476,13.70306,-1.050031,39.26562,0,0,0,5.277843,-2.960156,-49.58319,-1.244037,-111.2317,-56.30309,0.001067912,-0.1257102,0.09433498,0,0.3,0,0,0,0,
6.38224E+17,13.28782,55.24269,15.59597,-21.0884,24.2928,-3.289821,-0.6361189,-1.262423,-9.175476,13.70306,-1.050031,39.19238,0,0,0,25.71354,4.466678,-59.47066,-1.244037,-111.2317,-56.30309,0.001067912,-0.1257102,0.09433498,0,0.3,0,0,0,0,
6.38224E+17,18.68305,57.04282,16.83338,-16.32746,23.12087,-6.366118,-0.6361189,-1.262423,-9.175476,13.70306,-1.050031,39.19238,0,0,0,35.60844,7.604882,-63.04683,-1.244037,-111.2317,-56.30309,0.001067912,-0.1257102,0.09433498,0,0.3,0,0,0,0,
6.38224E+17,29.16723,59.5209,20.28877,-5.487176,20.04458,-11.93275,-0.6361189,-1.262423,-9.175476,13.70306,-1.050031,39.26562,0,0,0,55.49946,13.19638,-68.9119,-1.244037,-111.2317,-56.30309,0.001067912,-0.1257102,0.09433498,0,0.3,0,0,0,0,
6.38224E+17,37.55458,60.47941,24.09438,6.012315,16.6753,-17.64587,-0.6361189,-1.262423,-9.175476,13.70306,-1.050031,39.26562,0,0,0,73.23059,17.65655,-73.10204,-1.244037,-111.2317,-56.30309,0.001067912,-0.1257102,0.09433498,0,0.3,0,0,0,0,
6.38224E+17,42.76133,60.45603,27.08283,15.24121,13.96523,-22.99277,-0.6361189,-1.262423,-9.175476,13.70306,-0.9767859,39.26562,0,0,0,85.86294,20.63343,-75.50084,-1.244037,-111.2317,-56.30309,0.001067912,-0.1257102,0.09433498,0,0.3,0,0,0,0,
6.38224E+17,44.62257,60.40928,28.43697,18.90347,12.86655,-25.6296,-0.6361189,-1.262423,-9.175476,13.70306,-1.050031,39.19238,0,0,0,90.85873,22.04762,-76.28625,-1.244037,-111.2317,-56.30309,0.001067912,-0.1257102,0.09433498,0,0.3,0,0,0,0,
6.38224E+17,47.70892,60.45603,31.84567,25.56878,10.37621,-31.34272,-0.6361189,-1.262423,-9.175476,13.70306,-0.9767859,39.19238,0,0,0,100.6881,26.08437,-76.75952,-1.244037,-111.2317,-56.30309,0.001067912,-0.1257102,0.09433498,0,0.3,0,0,0,0,
6.38224E+17,48.9576,60.54955,34.53061,28.64507,8.984557,-34.49226,-0.6361189,-1.262423,-9.175476,13.70306,-1.050031,39.19238,0,0,0,106.4612,29.61181,-75.66632,-1.244037,-111.2317,-56.30309,0.001067912,-0.1257102,0.09433498,0,0.3,0,0,0,0,
6.38224E+17,49.47592,60.7132,36.305,30.25646,8.03237,-36.25014,-0.6361189,-1.262423,-9.175476,13.70306,-1.050031,39.19238,0,0,0,109.6011,32.19181,-74.66216,-1.244037,-111.2317,-56.30309,0.001067912,-0.1257102,0.09433498,0,0.3,0,0,0,0,
6.38224E+17,49.87644,61.13401,39.92382,32.82005,6.05475,-39.39969,-0.6361189,-1.262423,-9.175476,13.70306,-1.050031,39.19238,0,0,0,114.665,37.86552,-71.71247,-1.244037,-111.2317,-56.30309,0.001067912,-0.1257102,0.09433498,0,0.3,0,0,0,0,
6.38224E+17,49.75864,61.55481,43.84616,34.87091,3.857395,-42.40274,-0.6361189,-1.262423,-9.175476,13.70306,-1.050031,39.26562,0,0,0,118.9969,44.42875,-67.64251,-1.244037,-111.2317,-56.30309,0.001067912,-0.1257102,0.09433498,0,0.3,0,0,0,0,
6.38224E+17,49.26388,61.62495,47.46499,36.84853,1.733285,-44.96632,-0.6361189,-1.262423,-9.175476,13.70306,-1.050031,39.19238,0,0,0,122.474,50.52873,-62.87131,-1.244037,-111.2317,-56.30309,0.001067912,-0.1257102,0.09433498,0,0.3,0,0,0,0,
6.38224E+17,48.29792,61.57819,50.29001,38.45993,-0.3908245,-46.79745,-0.6361189,-1.262423,-9.175476,13.70306,-1.050031,39.26562,0,0,0,123.978,55.42941,-57.88152,-1.244037,-111.2317,-56.30309,0.001067912,-0.1257102,0.09433498,0,0.3,0,0,0,0,
6.38224E+17,47.73248,61.57819,51.24725,38.89939,-1.416257,-47.38342,-0.6361189,-1.262423,-9.175476,13.70306,-1.050031,39.26562,0,0,0,123.9245,57.15509,-55.71572,-1.244037,-111.2317,-56.30309,0.001067912,-0.1257102,0.09433498,0,0.3,0,0,0,0,
6.38224E+17,46.43668,61.53143,52.71812,39.63185,-3.247386,-48.3356,-0.6361189,-1.262423,-9.175476,13.70306,-1.050031,39.26562,0,0,0,122.9428,59.80016,-51.42317,-1.244037,-111.2317,-56.30309,0.001067912,-0.1257102,0.09433498,0,0.3,0,0,0,0,
6.38224E+17,44.9524,61.60157,53.3952,39.70509,-4.712289,-48.62858,-0.6361189,-1.262423,-9.175476,13.70306,-1.050031,39.19238,0,0,0,120.4406,61.13731,-47.70919,-1.244037,-111.2317,-56.30309,0.001067912,-0.1257102,0.09433498,0,0.3,0,0,0,0,
6.38224E+17,43.27965,61.8821,53.30181,39.26562,-5.517986,-48.62858,-0.6361189,-1.262423,-9.175476,13.70306,-1.050031,39.19238,0,0,0,116.3844,61.27205,-44.75797,-1.244037,-111.2317,-56.30309,0.001067912,-0.1257102,0.09433498,0,0.3,0,0,0,0,
6.38224E+17,42.45505,62.13927,53.23177,39.04589,-5.810967,-48.26236,-0.6361189,-1.262423,-9.175476,13.70306,-1.050031,39.19238,0,0,0,114.1711,61.42229,-43.5577,-1.244037,-111.2317,-56.30309,0.001067912,-0.1257102,0.09433498,0,0.3,0,0,0,0,
6.38224E+17,40.09905,62.91074,52.83487,38.45993,-6.396928,-46.13824,-0.6361189,-1.262423,-9.175476,13.70306,-1.050031,39.19238,0,0,0,107.5607,61.51262,-40.61327,-1.244037,-111.2317,-56.30309,0.001067912,-0.1257102,0.09433498,0,0.3,0,0,0,0,
6.38224E+17,36.70642,64.24331,52.15779,37.50774,-7.12938,-42.40274,-0.6361189,-1.262423,-9.175476,13.70306,-1.050031,39.19238,0,0,0,97.57951,61.64258,-37.46765,-1.244037,-111.2317,-56.30309,0.001067912,-0.1257102,0.09433498,0,0.3,0,0,0,0,
6.38224E+17,34.53891,65.20181,51.87762,36.77529,-7.715342,-39.83916,-0.6361189,-1.262423,-9.175476,13.70306,-1.050031,39.19238,0,0,0,91.18835,62.08118,-35.86292,-1.244037,-111.2317,-56.30309,0.001067912,-0.1257102,0.09433498,0,0.3,0,0,0,0,
6.38224E+17,30.01539,67.28246,51.50407,34.94416,-9.180244,-34.63876,-0.6361189,-1.262423,-9.175476,13.70306,-1.050031,39.26562,0,0,0,77.9687,63.34978,-33.38797,-1.244037,-111.2317,-56.30309,0.001067912,-0.1257102,0.09433498,0,0.3,0,0,0,0,
6.38224E+17,23.79556,69.62029,50.64022,32.16084,-11.30435,-28.41291,-0.6361189,-1.262423,-9.175476,13.70306,-1.050031,39.19238,0,0,0,60.33606,63.78405,-31.52113,-1.244037,-111.2317,-56.30309,0.001067912,-0.1257102,0.09433498,0,0.3,0,0,0,0,
6.38224E+17,14.1831,71.98148,48.84248,26.66745,-14.67363,-18.74455,-0.6361189,-1.262423,-9.175476,13.70306,-1.050031,39.26562,0,0,0,34.70679,62.39824,-31.01974,-1.244037,-111.2317,-56.30309,0.001067912,-0.1257102,0.09433498,0,0.3,0,0,0,0,
6.38224E+17,5.513031,72.37891,46.71788,20.07539,-17.09072,-10.32136,-0.6361189,-1.262423,-9.175476,13.70306,-1.050031,39.19238,0,0,0,13.20462,59.01954,-31.54095,-1.244037,-111.2317,-56.30309,0.001067912,-0.1257102,0.09433498,0,0.3,0,0,0,0,
6.38224E+17,0.4476392,71.86459,45.41043,15.09472,-18.11616,-5.120951,-0.6361189,-1.262423,-9.175476,13.70306,-1.050031,39.19238,0,0,0,1.06622,56.46083,-31.88143,-1.244037,-111.2317,-56.30309,0.001067912,-0.1257102,0.09433498,0,0.3,0,0,0,0,
6.38224E+17,-10.24858,68.68517,42.51537,1.397869,-18.84861,6.08556,-0.6361189,-1.262423,-9.175476,13.70306,-1.050031,39.19238,0,0,0,-24.65748,49.28672,-31.9731,-1.244037,-111.2317,-56.30309,0.001067912,-0.1257102,0.09433498,0,0.3,0,0,0,0,
6.38224E+17,-17.38725,62.70034,38.61638,-12.006,-17.01748,14.36226,-0.6361189,-1.262423,-9.175476,13.70306,-1.050031,39.19238,0,0,0,-43.14615,37.6555,-30.56303,-1.244037,-111.2317,-56.30309,0.001067912,-0.1257102,0.09433498,0,0.3,0,0,0,0,
6.38224E+17,-19.90817,58.74942,36.07153,-17.93885,-15.03986,17.43856,-0.6361189,-1.262423,-9.175476,13.70306,-1.050031,39.19238,0,0,0,-50.29227,29.56732,-29.481,-1.244037,-111.2317,-56.30309,0.001067912,-0.1257102,0.09433498,0,0.3,0,0,0,0,
6.38224E+17,-23.27724,50.21638,30.74835,-26.94801,-9.106999,21.3938,-0.6361189,-1.262423,-9.175476,13.70306,-1.050031,39.26562,0,0,0,-60.66298,11.2212,-27.33798,-1.244037,-111.2317,-56.30309,0.001067912,-0.1257102,0.09433498,0,0.3,0,0,0,0,
6.38224E+17,-25.1856,41.84698,25.79873,-32.36815,-1.709238,23.51791,-0.6361189,-1.262423,-9.175476,13.70306,-1.050031,39.26562,0,0,0,-66.96982,-7.745203,-25.93898,-1.244037,-111.2317,-56.30309,0.001067912,-0.1257102,0.09433498,0,0.3,0,0,0,0,
6.38224E+17,-25.84528,37.73242,23.53404,-34.27253,2.319247,24.10387,-0.6361189,-1.262423,-9.175476,13.70306,-1.050031,39.19238,0,0,0,-69.18813,-17.30153,-25.51563,-1.244037,-111.2317,-56.30309,0.001067912,-0.1257102,0.09433498,0,0.3,0,0,0,0,
6.38224E+17,-26.50496,28.07722,19.2148,-37.56856,11.98761,23.88414,-0.6361189,-1.262423,-9.175476,13.70306,-1.050031,39.19238,0,0,0,-72.09285,-39.80859,-23.78543,-1.244037,-111.2317,-56.30309,0.001067912,-0.1257102,0.09433498,0,0.3,0,0,0,0,
6.38224E+17,-26.41072,21.76511,17.0435,-38.96022,18.28669,22.41923,-0.6361189,-1.262423,-9.175476,13.70306,-1.050031,39.19238,0,0,0,-72.47095,-54.69711,-22.42675,-1.244037,-111.2317,-56.30309,0.001067912,-0.1257102,0.09433498,0,0.3,0,0,0,0,
6.38224E+17,-25.60968,13.76976,15.12903,-40.64486,26.05068,18.61049,-0.6361189,-1.262423,-9.175476,13.70306,-1.050031,39.19238,0,0,0,-71.0258,-73.63807,-20.17195,-1.244037,-111.2317,-56.30309,0.001067912,-0.1257102,0.09433498,0,0.3,0,0,0,0,
6.38224E+17,-24.80864,10.23965,14.42861,-41.5238,29.85943,15.82717,-0.6361189,-1.262423,-9.175476,13.70306,-1.050031,39.26562,0,0,0,-69.00283,-82.08891,-19.07331,-1.244037,-111.2317,-56.30309,0.001067912,-0.1257102,0.09433498,0,0.3,0,0,0,0,
6.38224E+17,-22.3584,4.488615,10.94987,-43.94089,38.06289,5.646089,-0.6361189,-1.262423,-9.175476,13.70306,-1.050031,39.19238,0,0,0,-60.20608,-97.13609,-21.97758,-1.244037,-111.2317,-56.30309,0.001067912,-0.1257102,0.09433498,0,0.3,0,0,0,0,
6.38224E+17,-21.15685,3.553487,9.198823,-44.81983,40.11375,1.031644,-0.6361189,-1.262423,-9.175476,13.70306,-1.050031,39.26562,0,0,0,-55.73039,-100.02,-24.34687,-1.244037,-111.2317,-56.30309,0.001067912,-0.1257102,0.09433498,0,0.3,0,0,0,0,
6.38224E+17,-17.76421,2.524846,4.879579,-46.57772,43.04356,-9.881886,-0.6361189,-1.262423,-9.175476,13.70306,-1.050031,39.19238,0,0,0,-44.10641,-103.6423,-30.67923,-1.244037,-111.2317,-56.30309,0.001067912,-0.1257102,0.09433498,0,0.3,0,0,0,0,
6.38224E+17,-12.5339,2.267686,0.4669453,-46.43123,45.16767,-20.94191,-0.6361189,-1.262423,-9.175476,13.70306,-1.050031,39.26562,0,0,0,-29.15243,-104.7191,-37.21911,-1.244037,-111.2317,-56.30309,0.001067912,-0.1257102,0.09433498,0,0.3,0,0,0,0,
6.38224E+17,-9.282625,2.291064,-1.214058,-44.81983,46.33959,-25.04364,-0.6361189,-1.262423,-9.175476,13.70306,-1.050031,39.26562,0,0,0,-21.03702,-104.6393,-39.63984,-1.244037,-111.2317,-56.30309,0.001067912,-0.1257102,0.09433498,0,0.3,0,0,0,0,
6.38224E+17,-2.638716,2.501468,-3.198575,-38.96022,49.12291,-29.80457,-0.6361189,-1.262423,-9.175476,13.70306,-1.050031,39.19238,0,0,0,-5.790772,-103.9722,-42.70092,-1.244037,-111.2317,-56.30309,0.001067912,-0.1257102,0.09433498,0,0.3,0,0,0,0,
6.38224E+17,3.533994,2.922275,-5.183093,-31.41597,51.68649,-32.66114,-0.6361189,-1.262423,-9.175476,13.70306,-0.9767859,39.19238,0,0,0,7.466537,-102.6564,-47.45041,-1.244037,-111.2317,-56.30309,0.001067912,-0.1257102,0.09433498,0,0.3,0,0,0,0,
6.38224E+17,6.408309,3.226192,-5.72008,-27.68046,52.56543,-34.19928,-0.6361189,-1.262423,-9.175476,13.70306,-1.050031,39.19238,0,0,0,13.37659,-101.8314,-49.25097,-1.244037,-111.2317,-56.30309,0.001067912,-0.1257102,0.09433498,0,0.3,0,0,0,0,
6.38224E+17,12.27474,4.067808,-6.210372,-20.42919,53.88385,-36.9826,-0.6361189,-1.262423,-9.175476,13.70306,-1.050031,39.19238,0,0,0,25.21184,-99.75797,-52.47265,-1.244037,-111.2317,-56.30309,0.001067912,-0.1257102,0.09433498,0,0.3,0,0,0,0,
6.38224E+17,18.54169,5.493878,-6.140331,-13.03143,54.90928,-38.74048,-0.6361189,-1.262423,-9.175476,13.70306,-1.050031,39.19238,0,0,0,37.67403,-96.46811,-56.02587,-1.244037,-111.2317,-56.30309,0.001067912,-0.1257102,0.09433498,0,0.3,0,0,0,0,
6.38224E+17,21.86364,6.522519,-5.883511,-8.856454,55.20226,-39.10671,-0.6361189,-1.262423,-9.175476,13.70306,-1.050031,39.26562,0,0,0,44.24757,-94.14984,-58.07858,-1.244037,-111.2317,-56.30309,0.001067912,-0.1257102,0.09433498,0,0.3,0,0,0,0,
6.38224E+17,28.88451,8.97723,-4.506022,-0.2867693,55.56849,-38.52075,-0.6361189,-1.262423,-9.175476,13.70306,-1.050031,39.19238,0,0,0,58.56448,-88.77963,-62.19282,-1.244037,-111.2317,-56.30309,0.001067912,-0.1257102,0.09433498,0,0.3,0,0,0,0,
6.38224E+17,36.63574,12.03977,-1.02728,9.528083,54.68954,-35.73743,-0.6361189,-1.262423,-9.175476,13.70306,-1.050031,39.26562,0,0,0,76.39635,-82.163,-65.61617,-1.244037,-111.2317,-56.30309,0.001067912,-0.1257102,0.09433498,0,0.3,0,0,0,0,
6.38224E+17,43.77441,15.99069,3.572132,18.90347,52.41894,-33.17385,-0.6361189,-1.262423,-9.175476,13.70306,-1.050031,39.26562,0,0,0,94.43256,-73.00551,-69.78855,-1.244037,-111.2317,-56.30309,0.001067912,-0.1257102,0.09433498,0,0.3,0,0,0,0,
6.38224E+17,50.41832,20.85336,9.805852,27.98586,48.24397,-31.85544,-0.6361189,-1.262423,-9.175476,13.70306,-1.050031,39.19238,0,0,0,113.5464,-60.58224,-74.47736,-1.244037,-111.2317,-56.30309,0.001067912,-0.1257102,0.09433498,0,0.3,0,0,0,0,
6.38224E+17,54.94183,25.71602,16.66995,35.31038,43.19005,-32.58789,-0.6361189,-1.262423,-9.175476,13.70306,-1.050031,39.19238,0,0,0,129.6573,-46.53367,-77.36669,-1.244037,-111.2317,-56.30309,0.001067912,-0.1257102,0.09433498,0,0.3,0,0,0,0,
6.38224E+17,55.38947,28.26425,20.19538,38.60641,40.47998,-33.9063,-0.6361189,-1.262423,-9.175476,13.70306,-1.050031,39.19238,0,0,0,134.5546,-38.65537,-75.49047,-1.244037,-111.2317,-56.30309,0.001067912,-0.1257102,0.09433498,0,0.3,0,0,0,0,
6.38224E+17,55.22455,31.44369,25.51856,41.97569,36.96421,-36.1769,-0.6361189,-1.262423,-9.175476,13.70306,-1.050031,39.19238,0,0,0,140.6354,-27.42775,-70.69516,-1.244037,-111.2317,-56.30309,0.001067912,-0.1257102,0.09433498,0,0.3,0,0,0,0,
6.38224E+17,55.27167,36.47,29.32417,44.17305,34.10765,-37.34882,-0.6361189,-1.262423,-9.175476,13.70306,-1.050031,39.19238,0,0,0,141.8074,-13.64943,-70.05408,-1.244037,-111.2317,-56.30309,0.001067912,-0.1257102,0.09433498,0,0.3,0,0,0,0,
6.38224E+17,55.24811,39.25201,30.70166,45.12524,32.34977,-37.6418,-0.6361189,-1.262423,-9.175476,13.70306,-1.050031,39.19238,0,0,0,140.7831,-6.934469,-70.67839,-1.244037,-111.2317,-56.30309,0.001067912,-0.1257102,0.09433498,0,0.3,0,0,0,0,
6.38224E+17,54.80047,46.10182,33.62006,47.1761,27.80857,-38.08128,-0.6361189,-1.262423,-9.175476,13.70306,-1.050031,39.26562,0,0,0,135.8885,8.394221,-72.49287,-1.244037,-111.2317,-56.30309,0.001067912,-0.1257102,0.09433498,0,0.3,0,0,0,0,
6.38224E+17,52.84499,53.58284,35.93144,48.93398,22.16869,-38.52075,-0.6361189,-1.262423,-9.175476,13.70306,-1.050031,39.26562,0,0,0,125.4617,22.68276,-73.27457,-1.244037,-111.2317,-56.30309,0.001067912,-0.1257102,0.09433498,0,0.3,0,0,0,0,
6.38224E+17,51.33715,57.08957,36.53847,49.4467,19.31213,-38.52075,-0.6361189,-1.262423,-9.175476,13.62981,-1.050031,39.26562,0,0,0,118.5654,28.15909,-73.48736,-1.244037,-111.2317,-56.30309,0.001067912,-0.1257102,0.09433498,0,0.3,0,0,0,0,
6.38224E+17,47.02568,63.30818,36.81864,48.93398,13.45251,-38.4475,-0.6361189,-1.262423,-9.175476,13.70306,-1.050031,39.19238,0,0,0,102.2964,35.73808,-73.04278,-1.244037,-111.2317,-56.30309,0.001067912,-0.1257102,0.09433498,0,0.3,0,0,0,0,
6.38224E+17,41.65401,68.10071,36.77194,46.73663,8.03237,-36.90935,-0.6361189,-1.262423,-9.175476,13.70306,-1.050031,39.19238,0,0,0,86.11216,40.26094,-71.5435,-1.244037,-111.2317,-56.30309,0.001067912,-0.1257102,0.09433498,0,0.3,0,0,0,0,
6.38224E+17,38.21426,70.22812,36.72525,44.75901,5.102563,-35.22471,-0.6361189,-1.262423,-9.175476,13.70306,-1.050031,39.19238,0,0,0,77.23241,41.95695,-70.25535,-1.244037,-111.2317,-56.30309,0.001067912,-0.1257102,0.09433498,0,0.3,0,0,0,0,
6.38224E+17,27.51804,73.75823,36.37504,37.58098,-2.514934,-29.07212,-0.6361189,-1.262423,-9.175476,13.70306,-1.050031,39.19238,0,0,0,53.77193,44.01096,-65.13442,-1.244037,-111.2317,-56.30309,0.001067912,-0.1257102,0.09433498,0,0.3,0,0,0,0,
6.38224E+17,23.84268,74.29593,36.32835,34.57793,-4.712289,-26.50854,-0.6361189,-1.262423,-9.175476,13.70306,-1.050031,39.19238,0,0,0,46.52319,44.29091,-63.08027,-1.244037,-111.2317,-56.30309,0.001067912,-0.1257102,0.09433498,0,0.3,0,0,0,0,
6.38224E+17,17.57573,74.55309,36.305,29.23104,-7.861832,-21.67436,-0.6361189,-1.262423,-9.175476,13.70306,-1.050031,39.19238,0,0,0,34.56651,44.41944,-59.22219,-1.244037,-111.2317,-56.30309,0.001067912,-0.1257102,0.09433498,0,0.3,0,0,0,0,
6.38224E+17,9.188385,74.34269,36.32835,22.1995,-10.93813,-15.22878,-0.6361189,-1.262423,-9.175476,13.70306,-1.050031,39.26562,0,0,0,18.36125,44.32032,-54.83841,-1.244037,-111.2317,-56.30309,0.001067912,-0.1257102,0.09433498,0,0.3,0,0,0,0,
6.38224E+17,1.460718,73.43093,36.53847,15.02147,-12.98899,-9.588906,-0.6361189,-1.262423,-9.175476,13.70306,-1.050031,39.26562,0,0,0,2.993197,44.02184,-50.96904,-1.244037,-111.2317,-56.30309,0.001067912,-0.1257102,0.09433498,0,0.3,0,0,0,0,
6.38224E+17,-2.944995,72.4958,36.77194,9.967555,-13.94118,-5.999893,-0.6361189,-1.262423,-9.175476,13.70306,-1.050031,39.19238,0,0,0,-6.161976,43.70859,-48.57247,-1.244037,-111.2317,-56.30309,0.001067912,-0.1257102,0.09433498,0,0.3,0,0,0,0,
6.38224E+17,-9.989424,69.90083,36.98207,0.07945653,-15.40608,1.251379,-0.6361189,-1.262423,-9.175476,13.70306,-1.050031,39.26562,0,0,0,-21.86438,42.05573,-44.21694,-1.244037,-111.2317,-56.30309,0.001067912,-0.1257102,0.09433498,0,0.3,0,0,0,0,
6.38224E+17,-16.04433,66.20708,36.60851,-10.32136,-15.62582,8.575896,-0.6361189,-1.262423,-9.175476,13.70306,-1.050031,39.19238,0,0,0,-36.84718,38.32262,-40.22287,-1.244037,-111.2317,-56.30309,0.001067912,-0.1257102,0.09433498,0,0.3,0,0,0,0,
6.38224E+17,-18.42389,64.26668,36.2583,-14.64282,-15.40608,11.65219,-0.6361189,-1.262423,-9.175476,13.70306,-1.050031,39.19238,0,0,0,-43.22385,35.94701,-38.59495,-1.244037,-111.2317,-56.30309,0.001067912,-0.1257102,0.09433498,0,0.3,0,0,0,0,
6.38224E+17,-23.5364,59.35726,35.11428,-24.38443,-14.01443,17.95128,-0.6361189,-1.262423,-9.175476,13.70306,-1.050031,39.19238,0,0,0,-57.77148,28.99814,-35.7152,-1.244037,-111.2317,-56.30309,0.001067912,-0.1257102,0.09433498,0,0.3,0,0,0,0,
6.38224E+17,-26.64632,55.56999,33.92358,-30.39053,-12.47628,21.3938,-0.6361189,-1.262423,-9.175476,13.70306,-1.050031,39.19238,0,0,0,-67.19011,22.68789,-34.44492,-1.244037,-111.2317,-56.30309,0.001067912,-0.1257102,0.09433498,0,0.3,0,0,0,0,
6.38224E+17,-28.36619,53.06852,32.77956,-33.54007,-11.23111,22.8587,-0.6361189,-1.262423,-9.175476,13.70306,-1.050031,39.19238,0,0,0,-72.36868,17.82862,-34.31796,-1.244037,-111.2317,-56.30309,0.001067912,-0.1257102,0.09433498,0,0.3,0,0,0,0,
6.38224E+17,-31.40543,47.13046,29.67438,-39.17995,-7.642097,24.25036,-0.6361189,-1.262423,-9.175476,13.70306,-1.050031,39.26562,0,0,0,-81.67561,5.221285,-34.57236,-1.244037,-111.2317,-56.30309,0.001067912,-0.1257102,0.09433498,0,0.3,0,0,0,0,
6.38224E+17,-33.69075,39.88321,25.47187,-43.7944,-3.100896,23.44467,-0.6361189,-1.262423,-9.175476,13.70306,-1.050031,39.26562,0,0,0,-88.57392,-11.53059,-35.49252,-1.244037,-111.2317,-56.30309,0.001067912,-0.1257102,0.09433498,0,0.3,0,0,0,0,
6.38224E+17,-34.96298,31.09301,21.68961,-46.94394,2.538982,20.73459,-0.6361189,-1.262423,-9.175476,13.70306,-1.050031,39.19238,0,0,0,-93.6788,-31.69298,-34.37867,-1.244037,-111.2317,-56.30309,0.001067912,-0.1257102,0.09433498,0,0.3,0,0,0,0,
6.38224E+17,-35.29282,21.53132,19.82183,-49.36103,9.424027,17.36532,-0.6361189,-1.262423,-9.175476,13.70306,-1.050031,39.26562,0,0,0,-97.79257,-53.15847,-30.1959,-1.244037,-111.2317,-56.30309,0.001067912,-0.1257102,0.09433498,0,0.3,0,0,0,0,
6.38224E+17,-35.33994,16.92582,19.42492,-50.23997,13.08629,16.0469,-0.6361189,-1.262423,-9.175476,13.70306,-1.050031,39.19238,0,0,0,-99.44423,-63.58683,-28.10728,-1.244037,-111.2317,-56.30309,0.001067912,-0.1257102,0.09433498,0,0.3,0,0,0,0,
6.38224E+17,-35.3635,8.673313,18.67781,-51.55839,20.26431,13.1171,-0.6361189,-1.262423,-9.175476,13.70306,-1.050031,39.26562,0,0,0,-101.0112,-82.86781,-26.02148,-1.244037,-111.2317,-56.30309,0.001067912,-0.1257102,0.09433498,0,0.3,0,0,0,0,
6.38224E+17,-35.10434,1.706609,17.58049,-52.43733,26.34366,8.282915,-0.6361189,-1.262423,-9.175476,13.70306,-1.050031,39.19238,0,0,0,-99.81361,-99.80033,-26.35247,-1.244037,-111.2317,-56.30309,0.001067912,-0.1257102,0.09433498,0,0.3,0,0,0,0,
6.38224E+17,-34.37398,-1.075397,16.03957,-53.53601,30.88486,-0.6529952,-0.6361189,-1.262423,-9.175476,13.70306,-1.050031,39.19238,0,0,0,-96.07738,-107.3116,-27.89574,-1.244037,-111.2317,-56.30309,0.001067912,-0.1257102,0.09433498,0,0.3,0,0,0,0,
6.38224E+17,-34.53891,-0.6545897,14.05505,-54.63469,32.71599,-8.050756,-0.6361189,-1.262423,-9.175476,13.70306,-1.050031,39.19238,0,0,0,-93.96089,-107.5313,-31.83472,-1.244037,-111.2317,-56.30309,0.001067912,-0.1257102,0.09433498,0,0.3,0,0,0,0,
6.38224E+17,-34.20906,0.0233782,12.25731,-58.44344,34.32739,-26.80152,-0.6596789,-1.262423,-9.175476,13.70306,-1.050031,39.26562,0,0,0,-90.88784,-106.9057,-34.6581,-1.290111,-111.2317,-56.3036,0.001067912,-0.1257102,0.09433498,0,0.3,0,0,0,0,
6.38224E+17,-32.81903,-0.2104038,9.969283,-64.08331,34.69361,-48.48209,-0.6361189,-1.262423,-9.175476,13.70306,-1.050031,39.26562,0,0,0,-84.78561,-108.4762,-36.88438,-1.244037,-111.2317,-56.30309,0.001067912,-0.1257102,0.09433498,0,0.3,0,0,0,0,
6.38224E+17,-31.64103,-0.3272949,7.77464,-66.42715,34.62037,-58.66317,-0.6361189,-1.262423,-9.175476,13.70306,-1.050031,39.26562,0,0,0,-79.41697,-109.536,-39.46643,-1.244037,-111.2317,-56.30309,0.001067912,-0.1257102,0.09433498,0,0.3,0,0,0,0,
6.38224E+17,-27.84787,-0.4675641,3.058492,-68.69775,34.54712,-74.99684,-0.6361189,-1.262423,-9.175476,13.70306,-1.050031,39.26562,0,0,0,-65.61269,-110.8982,-44.15609,-1.244037,-111.2317,-56.30309,0.001067912,-0.1257102,0.09433498,0,0.3,0,0,0,0,
6.38224E+17,-22.09924,-0.4909423,-1.237405,-67.59908,35.71904,-85.61739,-0.6361189,-1.262423,-9.175476,13.70306,-1.050031,39.19238,0,0,0,-49.08265,-111.1115,-47.46943,-1.244037,-111.2317,-56.30309,0.001067912,-0.1257102,0.09433498,0,0.3,0,0,0,0,
6.38224E+17,-18.75373,-0.4441859,-2.918408,-65.91444,36.96421,-88.84018,-0.6361189,-1.262423,-9.175476,13.70306,-0.9767859,39.19238,0,0,0,-40.6881,-110.8608,-48.51236,-1.244037,-111.2317,-56.30309,0.001067912,-0.1257102,0.09433498,0,0.3,0,0,0,0,
6.38224E+17,-11.49726,-0.3272949,-4.599411,-61.51973,40.187,-94.04059,-0.6361189,-1.262423,-9.175476,13.70306,-1.050031,39.19238,0,0,0,-24.44766,-110.3323,-48.1565,-1.244037,-111.2317,-56.30309,0.001067912,-0.1257102,0.09433498,0,0.3,0,0,0,0,
6.38224E+17,-3.934513,0.2571602,-5.650038,-56.6123,44.50846,-97.6296,-0.6361189,-1.262423,-9.175476,13.70306,-1.050031,39.19238,0,0,0,-8.249052,-108.7536,-48.41327,-1.244037,-111.2317,-56.30309,0.001067912,-0.1257102,0.09433498,0,0.3,0,0,0,0,
6.38224E+17,4.476392,1.753365,-6.91079,-49.28778,49.48914,-98.72827,-0.6361189,-1.262423,-9.175476,13.70306,-1.050031,39.19238,0,0,0,9.150573,-104.951,-51.46525,-1.244037,-111.2317,-56.30309,0.001067912,-0.1257102,0.09433498,0,0.3,0,0,0,0,
6.38224E+17,8.811425,2.711872,-7.377736,-44.6001,51.75974,-97.99583,-0.6361189,-1.262423,-9.175476,13.70306,-1.050031,39.19238,0,0,0,17.78103,-102.5868,-53.6428,-1.244037,-111.2317,-56.30309,0.001067912,-0.1257102,0.09433498,0,0.3,0,0,0,0,
6.38224E+17,17.15165,5.166583,-7.681251,-33.10061,55.20226,-93.60111,-0.6361189,-1.262423,-9.175476,13.70306,-1.050031,39.19238,0,0,0,33.90911,-96.79505,-58.47924,-1.244037,-111.2317,-56.30309,0.001067912,-0.1257102,0.09433498,0,0.3,0,0,0,0,
6.38224E+17,25.3034,8.696692,-7.494472,-18.59806,57.17988,-87.44852,-0.6361189,-1.262423,-9.175476,13.70306,-1.050031,39.26562,0,0,0,48.90609,-88.69783,-64.90424,-1.244037,-111.2317,-56.30309,0.001067912,-0.1257102,0.09433498,0,0.3,0,0,0,0,
6.38224E+17,29.35571,10.89424,-7.097569,-10.61434,57.39961,-84.44547,-0.6361189,-1.262423,-9.175476,13.70306,-1.050031,39.26562,0,0,0,56.11669,-83.77544,-68.57867,-1.244037,-111.2317,-56.30309,0.001067912,-0.1257102,0.09433498,0,0.3,0,0,0,0,
6.38224E+17,35.85826,15.75691,-5.299829,3.595225,55.93471,-80.70996,-0.6361189,-1.262423,-9.175476,13.70306,-1.050031,39.26562,0,0,0,67.9635,-73.21786,-74.31796,-1.244037,-111.2317,-56.30309,0.001067912,-0.1257102,0.09433498,0,0.3,0,0,0,0,
6.38224E+17,42.03097,22.91064,-1.02728,18.39075,51.54,-77.92664,-0.6361189,-1.262423,-9.175476,13.70306,-1.050031,39.19238,0,0,0,80.63824,-58.06608,-78.88945,-1.244037,-111.2317,-56.30309,0.001067912,-0.1257102,0.09433498,0,0.3,0,0,0,0,
6.38224E+17,44.41053,27.21223,1.844434,24.83632,48.31721,-76.75472,-0.6361189,-1.262423,-9.175476,13.70306,-0.9767859,39.19238,0,0,0,85.99261,-48.95159,-80.5695,-1.244037,-111.2317,-56.30309,0.001067912,-0.1257102,0.09433498,0,0.3,0,0,0,0,
6.38224E+17,45.5414,30.04099,3.688868,28.13236,46.1931,-76.16876,-0.6361189,-1.262423,-9.175476,13.70306,-1.050031,39.19238,0,0,0,88.51746,-42.96611,-81.48978,-1.244037,-111.2317,-56.30309,0.001067912,-0.1257102,0.09433498,0,0.3,0,0,0,0,
6.38224E+17,46.88432,35.9323,7.261,32.60031,42.01813,-75.65604,-0.6361189,-1.262423,-9.175476,13.70306,-1.050031,39.19238,0,0,0,91.12208,-30.67699,-83.03269,-1.244037,-111.2317,-56.30309,0.001067912,-0.1257102,0.09433498,0,0.3,0,0,0,0,
6.38224E+17,47.44976,41.84698,10.80978,34.79766,38.06289,-75.58281,-0.6361189,-1.262423,-9.175476,13.70306,-1.050031,39.19238,0,0,0,91.60378,-18.67014,-84.26273,-1.244037,-111.2317,-56.30309,0.001067912,-0.1257102,0.09433498,0,0.3,0,0,0,0,
6.38224E+17,47.56756,48.25261,14.84886,36.11608,33.96116,-75.50956,-0.6361189,-1.262423,-9.175476,13.70306,-1.050031,39.19238,0,0,0,90.75677,-6.056005,-85.38341,-1.244037,-111.2317,-56.30309,0.001067912,-0.1257102,0.09433498,0,0.3,0,0,0,0,
6.38224E+17,47.544,51.64245,17.16024,36.6288,31.69056,-75.50956,-0.6361189,-1.262423,-9.175476,13.70306,-1.050031,39.26562,0,0,0,90.08257,0.5031602,-85.93171,-1.244037,-111.2317,-56.30309,0.001067912,-0.1257102,0.09433498,0,0.3,0,0,0,0,
6.38224E+17,47.49688,58.88969,22.71689,37.72747,26.85638,-75.65604,-0.6361189,-1.262423,-9.175476,13.70306,-1.050031,39.26562,0,0,0,88.76162,14.51554,-87.00607,-1.244037,-111.2317,-56.30309,0.001067912,-0.1257102,0.09433498,0,0.3,0,0,0,0,
6.38224E+17,47.26128,66.72139,29.30082,38.89939,20.99677,-76.75472,-0.6361189,-1.262423,-9.175476,13.70306,-0.9767859,39.19238,0,0,0,86.63724,29.555,-88.29499,-1.244037,-111.2317,-56.30309,0.001067912,-0.1257102,0.09433498,0,0.3,0,0,0,0,
6.38224E+17,46.90788,70.29826,32.33596,39.5586,17.99371,-77.70691,-0.6361189,-1.262423,-9.175476,13.70306,-0.9767859,39.26562,0,0,0,84.91573,36.22281,-88.90918,-1.244037,-111.2317,-56.30309,0.001067912,-0.1257102,0.09433498,0,0.3,0,0,0,0,
6.38224E+17,45.63565,77.47537,38.77981,40.65728,11.10867,-81.29592,-0.6361189,-1.262423,-9.175476,13.70306,-0.9767859,39.19238,0,0,0,80.38365,49.57249,-89.73042,-1.244037,-111.2317,-56.30309,0.001067912,-0.1257102,0.09433498,0,0.3,0,0,0,0,
6.38224E+17,43.79797,83.9745,45.20031,41.60947,3.93064,-86.71607,-0.6361189,-1.262423,-9.175476,13.70306,-0.9767859,39.26562,0,0,0,75.17756,62.00081,-89.95,-1.244037,-111.2317,-56.30309,0.001067912,-0.1257102,0.09433498,0,0.3,0,0,0,0,
6.38224E+17,41.55977,89.63203,51.6675,42.41516,-3.613612,-92.86866,-0.6361189,-1.262423,-9.175476,13.70306,-1.050031,39.19238,0,0,0,69.96189,73.99036,-89.43849,-1.244037,-111.2317,-56.30309,0.001067912,-0.1257102,0.09433498,0,0.3,0,0,0,0,
6.38224E+17,37.86086,94.72849,58.99854,43.80682,-12.69601,-101.4383,-0.6361189,-1.262423,-9.175476,13.70306,-0.9767859,39.19238,0,0,0,63.40545,87.56291,-86.78722,-1.244037,-111.2317,-56.30309,0.001067912,-0.1257102,0.09433498,0,0.3,0,0,0,0,
6.38224E+17,36.4237,95.94415,61.21653,44.31954,-15.77231,-104.7344,-0.6361189,-1.262423,-9.175476,13.70306,-1.050031,39.26562,0,0,0,61.19469,91.77489,-85.41937,-1.244037,-111.2317,-56.30309,0.001067912,-0.1257102,0.09433498,0,0.3,0,0,0,0,
6.38224E+17,32.18291,98.09494,66.44632,46.07742,-24.12226,-116.0874,-0.6361189,-1.262423,-9.175476,13.70306,-1.050031,39.26562,0,0,0,55.10662,102.0836,-80.78424,-1.244037,-111.2317,-56.30309,0.001067912,-0.1257102,0.09433498,0,0.3,0,0,0,0,
6.38224E+17,27.61227,98.53912,69.9951,47.8353,-31.37353,-126.7812,-0.6361189,-1.262423,-9.175476,13.70306,-0.9767859,39.19238,0,0,0,48.89946,109.6027,-74.86275,-1.244037,-111.2317,-56.30309,0.001067912,-0.1257102,0.09433498,0,0.3,0,0,0,0,
6.38224E+17,22.09924,98.09494,72.5633,49.08047,-38.11209,-132.8605,-0.6361189,-1.262423,-9.175476,13.70306,-1.050031,39.19238,0,0,0,40.79826,115.4127,-67.87219,-1.244037,-111.2317,-56.30309,0.001067912,-0.1257102,0.09433498,0,0.3,0,0,0,0,
6.38224E+17,18.80085,97.69751,73.49719,49.00723,-41.55461,-133.593,-0.6361189,-1.262423,-9.175476,13.70306,-0.9767859,39.19238,0,0,0,35.4493,117.6187,-64.22343,-1.244037,-111.2317,-56.30309,0.001067912,-0.1257102,0.09433498,0,0.3,0,0,0,0,
6.38224E+17,12.20406,96.71563,74.36105,45.63795,-48.07343,-125.829,-0.6361189,-1.262423,-9.175476,13.70306,-1.050031,39.19238,0,0,0,23.8493,119.8373,-58.08046,-1.244037,-111.2317,-56.30309,0.001067912,-0.1257102,0.09433498,0,0.3,0,0,0,0,
6.38224E+17,6.12559,95.31293,74.26765,33.25952,-53.34708,-103.3427,-0.6361189,-1.262423,-9.175476,13.70306,-0.9767859,39.19238,0,0,0,12.37889,119.9701,-53.00539,-1.244037,-111.2317,-56.30309,0.001067912,-0.1257102,0.09433498,0,0.3,0,0,0,0,
6.38224E+17,2.992115,94.37781,74.03418,21.76003,-54.95848,-88.91342,-0.6361189,-1.262423,-9.175476,13.70306,-0.9767859,39.26562,0,0,0,6.160844,119.6312,-50.48373,-1.244037,-111.2317,-56.30309,0.001067912,-0.1257102,0.09433498,0,0.3,0,0,0,0,
6.38224E+17,-4.523513,91.71269,73.73067,-11.71302,-54.95848,-58.22369,-0.6361189,-1.262423,-9.175476,13.70306,-1.050031,39.19238,0,0,0,-9.78159,119.282,-44.7118,-1.244037,-111.2317,-56.30309,0.001067912,-0.1257102,0.09433498,0,0.3,0,0,0,0,
6.38224E+17,-9.353305,89.09434,73.21703,-34.12604,-51.95542,-42.25625,-0.6361189,-1.262423,-9.175476,13.70306,-1.050031,39.19238,0,0,0,-21.09172,118.1789,-40.29764,-1.244037,-111.2317,-56.30309,0.001067912,-0.1257102,0.09433498,0,0.3,0,0,0,0,
6.38224E+17,-11.63862,87.36434,72.91351,-43.86765,-49.53833,-36.25014,-0.6361189,-1.262423,-9.175476,13.70306,-0.9767859,39.26562,0,0,0,-26.95147,117.3787,-37.50051,-1.244037,-111.2317,-56.30309,0.001067912,-0.1257102,0.09433498,0,0.3,0,0,0,0,
6.38224E+17,-15.12549,84.20829,72.68004,-56.24608,-44.99713,-29.21861,-0.6361189,-1.262423,-9.175476,13.70306,-1.050031,39.26562,0,0,0,-36.72913,116.32,-32.46621,-1.244037,-111.2317,-56.30309,0.001067912,-0.1257102,0.09433498,0,0.3,0,0,0,0,
6.38224E+17,-18.32965,81.26263,72.61,-63.49735,-40.96865,-26.36205,-0.6361189,-1.262423,-9.175476,13.70306,-1.050031,39.26562,0,0,0,-46.38997,115.2976,-28.32282,-1.244037,-111.2317,-56.30309,0.001067912,-0.1257102,0.09433498,0,0.3,0,0,0,0,
6.38224E+17,-21.55737,78.31698,72.58665,-68.47802,-37.23314,-26.50854,-0.6361189,-1.262423,-9.175476,13.70306,-0.9767859,39.19238,0,0,0,-56.6734,114.0306,-24.89754,-1.244037,-111.2317,-56.30309,0.001067912,-0.1257102,0.09433498,0,0.3,0,0,0,0,
6.38224E+17,-25.02068,75.34795,72.58665,-72.653,-33.35115,-28.5594,-0.6361189,-1.262423,-9.175476,13.70306,-1.050031,39.19238,0,0,0,-68.08122,112.4567,-22.48681,-1.244037,-111.2317,-56.30309,0.001067912,-0.1257102,0.09433498,0,0.3,0,0,0,0,
