zeyangz2/DNN_classification_different_people_hand/data/zeyang_right_2.csv
Timestamp,Therapist joint angle 0,Therapist joint angle 1,Therapist joint angle 2,Therapist joint angle 3,Therapist joint angle 4,Therapist joint angle 5,Patient joint angle 0,Patient joint angle 1,Patient joint angle 2,Patient joint angle 3,Patient joint angle 4,Patient joint angle 5,Virtual joint angle 0,Virtual joint angle 1,Virtual joint angle 2,Therapist position x,Therapist position y,Therapist position z,Patient position x,Patient position y,Patient position z,Virtual position x,Virtual position y,Virtual position z,Assistive Force, Obstacle Force Magnitude, Therapist Constant Force, Patient Constant Force, Recovery Factor, Assistance Level,label
6.38223E+17,0,0,0,0,0,0,0,0,0,0,0,0,0,0,0,0,0,0,0,0,0,0,0,0,0,0.3,0,0,0,0,0
6.38223E+17,4.005194,-0.9818845,-5.323177,19.04996,-63.23518,49.4467,-4.570632,-0.4441859,0.1400836,-35.22471,-8.447793,45.05199,0,0,0,8.448617,-111.71,-47.68633,-10.65206,-111.0334,-35.10307,0.001067912,-0.1257102,0.09433498,0,0.3,0,0,0,0,
6.38223E+17,4.005194,-0.9818845,-5.323177,18.97671,-63.23518,49.37346,-4.570632,-0.4441859,0.1400836,-35.22471,-8.447793,45.05199,0,0,0,8.448617,-111.71,-47.68633,-10.65206,-111.0334,-35.10307,0.001067912,-0.1257102,0.09433498,0,0.3,0,0,0,0,
6.38223E+17,4.005194,-0.9818845,-5.323177,19.04996,-63.23518,49.37346,-4.570632,-0.4441859,0.1400836,-35.22471,-8.447793,45.05199,0,0,0,8.448617,-111.71,-47.68633,-10.65206,-111.0334,-35.10307,0.001067912,-0.1257102,0.09433498,0,0.3,0,0,0,0,
6.38223E+17,4.005194,-0.9818845,-5.323177,19.04996,-63.16194,49.37346,-4.570632,-0.4441859,0.1400836,-35.22471,-8.447793,45.05199,0,0,0,8.448617,-111.71,-47.68633,-10.65206,-111.0334,-35.10307,0.001067912,-0.1257102,0.09433498,0,0.3,0,0,0,0,
6.38223E+17,4.005194,-0.9818845,-5.323177,19.04996,-63.23518,49.37346,-4.570632,-0.4441859,0.1400836,-35.22471,-8.447793,45.05199,0,0,0,8.448617,-111.71,-47.68633,-10.65206,-111.0334,-35.10307,0.001067912,-0.1257102,0.09433498,0,0.3,0,0,0,0,
6.38223E+17,4.005194,-0.9818845,-5.323177,19.04996,-63.23518,49.37346,-4.570632,-0.4441859,0.1400836,-35.22471,-8.447793,45.05199,0,0,0,8.448617,-111.71,-47.68633,-10.65206,-111.0334,-35.10307,0.001067912,-0.1257102,0.09433498,0,0.3,0,0,8.34E-08,0,
6.38223E+17,4.005194,-0.9818845,-5.323177,19.04996,-63.23518,49.37346,-4.570632,-0.4441859,0.1400836,-35.15147,-8.447793,45.05199,0,0,0,8.448617,-111.71,-47.68633,-10.65206,-111.0334,-35.10307,0.001067912,-0.1257102,0.09433498,0,0.3,0,0,8.34E-08,0,
6.38223E+17,4.005194,-0.9818845,-5.323177,18.97671,-63.23518,49.37346,-4.570632,-0.4441859,0.1400836,-35.22471,-8.447793,45.05199,0,0,0,8.448617,-111.71,-47.68633,-10.65206,-111.0334,-35.10307,0.001067912,-0.1257102,0.09433498,0,0.3,0,0,8.34E-08,0,
6.38223E+17,4.005194,-0.9818845,-5.323177,19.04996,-63.23518,49.4467,-4.570632,-0.4441859,0.1400836,-35.22471,-8.447793,45.05199,0,0,0,8.448617,-111.71,-47.68633,-10.65206,-111.0334,-35.10307,0.001067912,-0.1257102,0.09433498,0,0.3,0,0,8.34E-08,0,
6.38223E+17,4.005194,-0.9818845,-5.323177,19.04996,-63.23518,49.37346,-4.570632,-0.4441859,0.1400836,-35.22471,-8.447793,45.05199,0,0,0,8.448617,-111.71,-47.68633,-10.65206,-111.0334,-35.10307,0.001067912,-0.1257102,0.09433498,0,0.3,0,0,8.34E-08,0,
6.38223E+17,4.005194,-0.9818845,-5.323177,19.04996,-63.23518,49.37346,-4.570632,-0.4441859,0.1400836,-35.22471,-8.447793,45.05199,0,0,0,8.448617,-111.71,-47.68633,-10.65206,-111.0334,-35.10307,0.001067912,-0.1257102,0.09433498,0,0.3,0,0,8.34E-08,0,
6.38223E+17,4.005194,-0.9818845,-5.323177,19.04996,-63.16194,49.37346,-4.570632,-0.4441859,0.1400836,-35.22471,-8.447793,45.05199,0,0,0,8.448617,-111.71,-47.68633,-10.65206,-111.0334,-35.10307,0.001067912,-0.1257102,0.09433498,0,0.3,0,0,8.34E-08,0,
6.38223E+17,4.005194,-0.9818845,-5.323177,18.97671,-63.23518,49.37346,-4.570632,-0.4441859,0.1400836,-35.15147,-8.447793,45.05199,0,0,0,8.448617,-111.71,-47.68633,-10.65206,-111.0334,-35.10307,0.001067912,-0.1257102,0.09433498,0,0.3,0,0,8.34E-08,0,
6.38223E+17,4.005194,-0.9818845,-5.323177,19.04996,-63.23518,49.37346,-4.570632,-0.4441859,0.1400836,-35.15147,-8.447793,45.05199,0,0,0,8.448617,-111.71,-47.68633,-10.65206,-111.0334,-35.10307,0.001067912,-0.1257102,0.09433498,0,0.3,0,0,8.34E-08,0,
6.38223E+17,4.005194,-0.9818845,-5.323177,19.04996,-63.23518,49.37346,-4.570632,-0.4441859,0.1400836,-35.22471,-8.447793,45.12524,0,0,0,8.448617,-111.71,-47.68633,-10.65206,-111.0334,-35.10307,0.001067912,-0.1257102,0.09433498,0,0.3,0,0,8.34E-08,0,
6.38223E+17,4.005194,-0.9818845,-5.323177,19.04996,-63.23518,49.4467,-4.570632,-0.4441859,0.1400836,-35.22471,-8.447793,45.05199,0,0,0,8.448617,-111.71,-47.68633,-10.65206,-111.0334,-35.10307,0.001067912,-0.1257102,0.09433498,0,0.3,0,0,8.34E-08,0,
6.38223E+17,4.005194,-0.9818845,-5.323177,19.04996,-63.23518,49.37346,-4.570632,-0.4441859,0.1400836,-35.22471,-8.447793,45.05199,0,0,0,8.448617,-111.71,-47.68633,-10.65206,-111.0334,-35.10307,0.001067912,-0.1257102,0.09433498,0,0.3,0,0,8.34E-08,0,
6.38223E+17,4.005194,-0.9818845,-5.323177,19.04996,-63.23518,49.37346,-4.570632,-0.4441859,0.1400836,-35.22471,-8.447793,45.12524,0,0,0,8.448617,-111.71,-47.68633,-10.65206,-111.0334,-35.10307,0.001067912,-0.1257102,0.09433498,0,0.3,0,0,8.34E-08,0,
6.38223E+17,4.005194,-0.9818845,-5.323177,18.97671,-63.23518,49.37346,-4.570632,-0.4441859,0.1400836,-35.22471,-8.447793,45.12524,0,0,0,8.448617,-111.71,-47.68633,-10.65206,-111.0334,-35.10307,0.001067912,-0.1257102,0.09433498,0,0.3,0,0,8.34E-08,0,
6.38223E+17,4.005194,-0.9818845,-5.323177,19.04996,-63.23518,49.37346,-4.570632,-0.4441859,0.1400836,-35.22471,-8.447793,45.12524,0,0,0,8.448617,-111.71,-47.68633,-10.65206,-111.0334,-35.10307,0.001067912,-0.1257102,0.09433498,0,0.3,0,0,8.34E-08,0,
6.38223E+17,4.005194,-0.9818845,-5.323177,19.04996,-63.16194,49.37346,-4.570632,-0.4441859,0.1400836,-35.22471,-8.447793,45.05199,0,0,0,8.448617,-111.71,-47.68633,-10.65206,-111.0334,-35.10307,0.001067912,-0.1257102,0.09433498,0,0.3,0,0,8.34E-08,0,
6.38223E+17,4.005194,-0.9818845,-5.323177,19.04996,-63.23518,49.37346,-4.570632,-0.4441859,0.1400836,-35.22471,-8.447793,45.05199,0,0,0,8.448617,-111.71,-47.68633,-10.65206,-111.0334,-35.10307,0.001067912,-0.1257102,0.09433498,0,0.3,0,0,8.34E-08,0,
6.38223E+17,4.005194,-0.9818845,-5.323177,19.04996,-63.23518,49.37346,-4.570632,-0.4441859,0.1400836,-35.15147,-8.447793,45.05199,0,0,0,8.448617,-111.71,-47.68633,-10.65206,-111.0334,-35.10307,0.001067912,-0.1257102,0.09433498,0,0.3,0,0,8.34E-08,0,
6.38223E+17,4.005194,-0.9818845,-5.323177,19.04996,-63.23518,49.37346,-4.570632,-0.4441859,0.1400836,-35.22471,-8.447793,45.05199,0,0,0,8.448617,-111.71,-47.68633,-10.65206,-111.0334,-35.10307,0.001067912,-0.1257102,0.09433498,0,0.3,0,0,8.34E-08,0,
6.38223E+17,4.005194,-0.9818845,-5.323177,19.04996,-63.23518,49.37346,-4.570632,-0.4441859,0.1400836,-35.22471,-8.447793,45.05199,0,0,0,8.448617,-111.71,-47.68633,-10.65206,-111.0334,-35.10307,0.001067912,-0.1257102,0.09433498,0,0.3,0,0,8.34E-08,0,
6.38223E+17,4.005194,-0.9818845,-5.323177,19.04996,-63.23518,49.37346,-4.570632,-0.4441859,0.1400836,-35.22471,-8.447793,45.05199,0,0,0,8.448617,-111.71,-47.68633,-10.65206,-111.0334,-35.10307,0.001067912,-0.1257102,0.09433498,0,0.3,0,0,0,0,
6.38223E+17,4.005194,-0.9818845,-5.323177,19.04996,-63.23518,49.37346,-4.570632,-0.4441859,0.1400836,-35.22471,-8.447793,45.05199,0,0,0,8.448617,-111.71,-47.68633,-10.65206,-111.0334,-35.10307,0.001067912,-0.1257102,0.09433498,0,0.3,0,0,0,0,
6.38223E+17,4.005194,-0.9818845,-5.323177,19.04996,-63.16194,49.37346,-4.570632,-0.4441859,0.1400836,-35.22471,-8.447793,45.05199,0,0,0,8.448617,-111.71,-47.68633,-10.65206,-111.0334,-35.10307,0.001067912,-0.1257102,0.09433498,0,0.3,0,0,0,0,
6.38223E+17,4.005194,-0.9818845,-5.323177,19.04996,-63.16194,49.37346,-4.570632,-0.4441859,0.1400836,-35.22471,-8.447793,45.05199,0,0,0,8.448617,-111.71,-47.68633,-10.65206,-111.0334,-35.10307,0.001067912,-0.1257102,0.09433498,0,0.3,0,0,0,0,
6.38223E+17,4.005194,-0.9818845,-5.323177,19.04996,-63.16194,49.37346,-4.570632,-0.4441859,0.1400836,-35.22471,-8.447793,45.05199,0,0,0,8.448617,-111.71,-47.68633,-10.65206,-111.0334,-35.10307,0.001067912,-0.1257102,0.09433498,0,0.3,0,0,0,0,
6.38223E+17,4.005194,-0.9818845,-5.323177,19.04996,-63.23518,49.37346,-4.570632,-0.4441859,0.1400836,-35.15147,-8.447793,45.05199,0,0,0,8.448617,-111.71,-47.68633,-10.65206,-111.0334,-35.10307,0.001067912,-0.1257102,0.09433498,0,0.3,0,0,0,0,
6.38223E+17,4.005194,-0.9818845,-5.323177,19.04996,-63.23518,49.37346,-4.570632,-0.4441859,0.1400836,-35.22471,-8.521038,45.05199,0,0,0,8.448617,-111.71,-47.68633,-10.65206,-111.0334,-35.10307,0.001067912,-0.1257102,0.09433498,0,0.3,0,0,0,0,
6.38223E+17,4.005194,-0.9818845,-5.323177,19.04996,-63.23518,49.37346,-4.570632,-0.4441859,0.1400836,-35.22471,-8.521038,45.05199,0,0,0,8.448617,-111.71,-47.68633,-10.65206,-111.0334,-35.10307,0.001067912,-0.1257102,0.09433498,0,0.3,0,0,0,0,
6.38223E+17,3.934513,-1.005263,-5.766775,17.95128,-63.16194,50.03266,-4.570632,-0.4441859,0.1400836,-35.15147,-8.447793,45.05199,0,0,0,8.229186,-111.6647,-48.70211,-10.65206,-111.0334,-35.10307,0.001067912,-0.1257102,0.09433498,0,0.3,0,0,0,0,
6.38223E+17,3.958073,-1.005263,-5.626691,7.550464,-63.08869,52.44975,-4.570632,-0.4441859,0.1400836,-35.22471,-8.447793,45.05199,0,0,0,8.300777,-111.697,-48.38186,-10.65206,-111.0334,-35.10307,0.001067912,-0.1257102,0.09433498,0,0.3,0,0,0,0,
6.38223E+17,3.981634,-1.005263,-5.650038,-0.7262403,-63.08869,53.03571,-4.570632,-0.4441859,0.1400836,-35.22471,-8.447793,45.05199,0,0,0,8.346353,-111.6917,-48.43922,-10.65206,-111.0334,-35.10307,0.001067912,-0.1257102,0.09433498,0,0.3,0,0,0,0,
6.38223E+17,3.981634,-1.005263,-5.626691,-11.12705,-63.08869,53.54843,-4.570632,-0.4441859,0.1400836,-35.22471,-8.447793,45.05199,0,0,0,8.350108,-111.697,-48.38528,-10.65206,-111.0334,-35.10307,0.001067912,-0.1257102,0.09433498,0,0.3,0,0,0,0,
6.38223E+17,3.958073,-1.005263,-5.626691,-17.27965,-63.08869,53.76817,-4.570632,-0.4441859,0.1400836,-35.22471,-8.447793,45.05199,0,0,0,8.300777,-111.697,-48.38186,-10.65206,-111.0334,-35.10307,0.001067912,-0.1257102,0.09433498,0,0.3,0,0,0,0,
6.38223E+17,3.958073,-1.005263,-5.626691,-20.06297,-63.01544,53.91465,-4.570632,-0.4441859,0.1400836,-35.15147,-8.447793,45.05199,0,0,0,8.300777,-111.697,-48.38186,-10.65206,-111.0334,-35.10307,0.001067912,-0.1257102,0.09433498,0,0.3,0,0,0,0,
6.38223E+17,3.981634,-1.005263,-5.673386,-20.72217,-63.08869,53.9879,-4.570632,-0.4441859,0.1400836,-35.22471,-8.521038,45.05199,0,0,0,8.342598,-111.6863,-48.49317,-10.65206,-111.0334,-35.10307,0.001067912,-0.1257102,0.09433498,0,0.3,0,0,0,0,
6.38223E+17,4.193673,-1.005263,-6.420498,-23.28575,-63.16194,58.16287,-4.570632,-0.4441859,0.1400836,-35.15147,-8.447793,45.05199,0,0,0,8.659657,-111.5032,-50.24937,-10.65206,-111.0334,-35.10307,0.001067912,-0.1257102,0.09433498,0,0.3,0,0,0,0,
6.38223E+17,4.358593,-1.005263,-7.074222,-31.19623,-63.23518,64.53521,-4.570632,-0.4441859,0.1400836,-35.22471,-8.447793,45.05199,0,0,0,8.884732,-111.3244,-51.78135,-10.65206,-111.0334,-35.10307,0.001067912,-0.1257102,0.09433498,0,0.3,0,0,0,0,
6.38223E+17,4.358593,-1.005263,-7.00418,-46.65096,-63.01544,72.07946,-4.570632,-0.4441859,0.1400836,-35.22471,-8.447793,45.12524,0,0,0,8.897027,-111.3444,-51.62003,-10.65206,-111.0334,-35.10307,0.001067912,-0.1257102,0.09433498,0,0.3,0,0,0,0,
6.38223E+17,4.358593,-1.005263,-6.934138,-52.43733,-62.28299,73.91058,-4.570632,-0.4441859,0.1400836,-35.22471,-8.447793,45.05199,0,0,0,8.909325,-111.3642,-51.45868,-10.65206,-111.0334,-35.10307,0.001067912,-0.1257102,0.09433498,0,0.3,0,0,0,0,
6.38223E+17,4.358593,-1.005263,-6.770707,-56.46581,-60.74484,75.30224,-4.570632,-0.4441859,0.1400836,-35.22471,-8.447793,45.05199,0,0,0,8.938025,-111.4095,-51.08212,-10.65206,-111.0334,-35.10307,0.001067912,-0.1257102,0.09433498,0,0.3,0,0,0,0,
6.38223E+17,4.358593,-1.005263,-6.397151,-55.00091,-59.64616,71.42025,-4.570632,-0.4441859,0.1400836,-35.22471,-8.447793,45.05199,0,0,0,9.003664,-111.5092,-50.22094,-10.65206,-111.0334,-35.10307,0.001067912,-0.1257102,0.09433498,0,0.3,0,0,0,0,
6.38223E+17,4.358593,-1.005263,-6.350456,-47.96938,-58.32775,60.06725,-4.570632,-0.4441859,0.1400836,-35.22471,-8.447793,45.05199,0,0,0,9.011872,-111.5213,-50.11325,-10.65206,-111.0334,-35.10307,0.001067912,-0.1257102,0.09433498,0,0.3,0,0,0,0,
6.38223E+17,4.335033,-0.9818845,-6.327109,-40.42512,-56.7896,49.81293,-4.570632,-0.4441859,0.1400836,-35.22471,-8.447793,45.05199,0,0,0,8.967406,-111.4729,-50.05476,-10.65206,-111.0334,-35.10307,0.001067912,-0.1257102,0.09433498,0,0.3,0,0,0,0,
6.38223E+17,4.287913,-0.9818845,-6.327109,-36.03041,-55.69093,45.05199,-4.570632,-0.4441859,0.1400836,-35.22471,-8.447793,45.05199,0,0,0,8.870117,-111.4729,-50.04743,-10.65206,-111.0334,-35.10307,0.001067912,-0.1257102,0.09433498,0,0.3,0,0,0,0,
6.38223E+17,4.028753,-0.8416153,-6.350456,-27.38748,-53.12735,38.67966,-4.570632,-0.4441859,0.1400836,-35.22471,-8.447793,45.05199,0,0,0,8.331494,-111.1405,-50.05721,-10.65206,-111.0334,-35.10307,0.001067912,-0.1257102,0.09433498,0,0.3,0,0,0,0,
6.38223E+17,3.392634,-0.7481025,-6.350456,-21.82085,-49.90456,35.53012,-4.570632,-0.4441859,0.1400836,-35.22471,-8.521038,45.05199,0,0,0,7.017856,-110.9228,-49.96899,-10.65206,-111.0334,-35.10307,0.001067912,-0.1257102,0.09433498,0,0.3,0,0,0,0,
6.38223E+17,2.756516,-0.7481025,-6.373804,-18.23184,-45.87607,33.91872,-4.570632,-0.4441859,0.1400836,-35.22471,-8.447793,45.05199,0,0,0,5.700543,-110.9168,-49.95231,-10.65206,-111.0334,-35.10307,0.001067912,-0.1257102,0.09433498,0,0.3,0,0,0,0,
6.38223E+17,2.355996,-0.7481025,-6.373804,-15.66825,-41.7011,32.38057,-4.570632,-0.4441859,0.1400836,-35.22471,-8.447793,45.12524,0,0,0,4.872766,-110.9168,-49.91536,-10.65206,-111.0334,-35.10307,0.001067912,-0.1257102,0.09433498,0,0.3,0,0,0,0,
6.38223E+17,2.049716,-0.7714807,-6.397151,-13.03143,-37.45288,31.72137,-4.570632,-0.4441859,0.1400836,-35.22471,-8.447793,45.12524,0,0,0,4.23764,-110.9652,-49.94569,-10.65206,-111.0334,-35.10307,0.001067912,-0.1257102,0.09433498,0,0.3,0,0,0,0,
6.38223E+17,1.719877,-0.7948589,-6.467193,-10.02838,-32.32572,34.13846,-4.570632,-0.4441859,0.1400836,-35.22471,-8.447793,45.05199,0,0,0,3.551061,-111.0013,-50.08591,-10.65206,-111.0334,-35.10307,0.001067912,-0.1257102,0.09433498,0,0.3,0,0,0,0,
6.38223E+17,1.460718,-0.7948589,-6.513887,-7.904267,-28.00425,37.65423,-4.570632,-0.4441859,0.1400836,-35.22471,-8.447793,45.05199,0,0,0,3.013343,-110.989,-50.17901,-10.65206,-111.0334,-35.10307,0.001067912,-0.1257102,0.09433498,0,0.3,0,0,0,0,
6.38223E+17,1.366478,-0.7948589,-6.560582,-6.952079,-25.58716,39.26562,-4.570632,-0.4441859,0.1400836,-35.22471,-8.447793,45.05199,0,0,0,2.816397,-110.9767,-50.28215,-10.65206,-111.0334,-35.10307,0.001067912,-0.1257102,0.09433498,0,0.3,0,0,0,0,
6.38223E+17,1.248678,-0.7948589,-6.607276,-5.047705,-20.24026,42.41516,-4.570632,-0.4441859,0.1400836,-35.22471,-8.447793,45.12524,0,0,0,2.571292,-110.9642,-50.38454,-10.65206,-111.0334,-35.10307,0.001067912,-0.1257102,0.09433498,0,0.3,0,0,0,0,
6.38223E+17,1.248678,-0.7948589,-6.513887,-2.777105,-14.01443,45.5647,-4.570632,-0.4441859,0.1400836,-35.22471,-8.447793,45.05199,0,0,0,2.575998,-110.989,-50.16866,-10.65206,-111.0334,-35.10307,0.001067912,-0.1257102,0.09433498,0,0.3,0,0,0,0,
6.38223E+17,1.295798,-0.8182371,-5.953553,-0.3600145,-7.495606,47.54232,-4.570632,-0.4441859,0.1400836,-35.22471,-8.447793,45.05199,0,0,0,2.702488,-111.1851,-48.87551,-10.65206,-111.0334,-35.10307,0.001067912,-0.1257102,0.09433498,0,0.3,0,0,0,0,
6.38223E+17,1.295798,-0.350673,-5.019662,1.764095,-0.3908245,53.32869,-4.570632,-0.4441859,0.1400836,-35.22471,-8.447793,45.05199,0,0,0,2.751666,-110.3047,-46.70142,-10.65206,-111.0334,-35.10307,0.001067912,-0.1257102,0.09433498,0,0.3,0,0,0.000914791,0,
6.38223E+17,1.319358,-0.1636474,-4.622759,2.643037,5.981505,59.3348,-4.570632,-0.4441859,0.1400836,-35.22471,-8.447793,45.12524,0,0,0,2.822927,-109.9471,-45.78037,-10.65206,-111.0334,-35.10307,0.001067912,-0.1257102,0.09433498,0,0.3,0,0,0.005011052,0,
6.38223E+17,1.342918,-0.1636474,-4.389286,2.789528,13.15953,62.77732,-4.570632,-0.4441859,0.1400836,-35.22471,-8.447793,45.05199,0,0,0,2.886022,-109.9898,-45.23999,-10.65206,-111.0334,-35.10307,0.001067912,-0.1257102,0.09433498,0,0.3,0,0,0.009327862,0,
6.38223E+17,1.342918,-0.1870256,-4.552717,1.983831,17.77398,64.02249,-4.570632,-0.4441859,0.1400836,-35.22471,-8.447793,45.05199,0,0,0,2.877131,-110.0145,-45.61926,-10.65206,-111.0334,-35.10307,0.001067912,-0.1257102,0.09433498,0,0.3,0,0,0.01341696,0,
6.38223E+17,1.366478,-0.3974294,-5.393219,0.1527017,22.82789,65.3409,-4.570632,-0.4441859,0.1400836,-35.22471,-8.447793,45.05199,0,0,0,2.881065,-110.3346,-47.5712,-10.65206,-111.0334,-35.10307,0.001067912,-0.1257102,0.09433498,0,0.3,0,0,0.01670553,0,
6.38223E+17,1.366478,-0.6545897,-6.23372,-0.7262403,24.87876,66.73256,-4.570632,-0.4441859,0.1400836,-35.15147,-8.447793,45.05199,0,0,0,2.834524,-110.735,-49.52224,-10.65206,-111.0334,-35.10307,0.001067912,-0.1257102,0.09433498,0,0.3,0,0,0.01768442,0,
6.38223E+17,1.390038,-1.005263,-7.938071,-1.898163,28.17479,72.37244,-4.570632,-0.4441859,0.1400836,-35.15147,-8.447793,45.05199,0,0,0,2.787612,-111.0618,-53.47033,-10.65206,-111.0334,-35.10307,0.001067912,-0.1257102,0.09433498,0,0.3,0,0,0.0175919,0,
6.38223E+17,1.413598,-0.9818845,-8.358321,-3.143331,30.15241,79.25748,-4.570632,-0.4441859,0.1400836,-35.15147,-8.447793,45.05199,0,0,0,2.810988,-110.8687,-54.43846,-10.65206,-111.0334,-35.10307,0.001067912,-0.1257102,0.09433498,0,0.3,0,0,0.01690783,0,
6.38223E+17,1.413598,-0.9818845,-8.451711,-4.901215,31.32433,86.43551,-4.570632,-0.4441859,0.1400836,-35.22471,-8.447793,45.05199,0,0,0,2.805684,-110.837,-54.65342,-10.65206,-111.0334,-35.10307,0.001067912,-0.1257102,0.09433498,0,0.3,0,0,0.01609773,0,
6.38223E+17,1.413598,-0.9818845,-8.661836,-6.952079,31.9103,94.34599,-4.570632,-0.4441859,0.1400836,-35.22471,-8.447793,45.05199,0,0,0,2.793754,-110.7642,-55.13687,-10.65206,-111.0334,-35.10307,0.001067912,-0.1257102,0.09433498,0,0.3,0,0,0.01507908,0,
6.38223E+17,1.413598,-0.9818845,-8.661836,-8.929699,32.20328,98.81395,-4.570632,-0.4441859,0.1400836,-35.22471,-8.447793,45.05199,0,0,0,2.793754,-110.7642,-55.13687,-10.65206,-111.0334,-35.10307,0.001067912,-0.1257102,0.09433498,0,0.3,0,0,0.01403343,0,
6.38223E+17,1.413598,-0.9818845,-8.661836,-9.955132,32.34977,99.61964,-4.570632,-0.4441859,0.1400836,-35.22471,-8.447793,45.05199,0,0,0,2.793754,-110.7642,-55.13687,-10.65206,-111.0334,-35.10307,0.001067912,-0.1257102,0.09433498,0,0.3,0,0,0.01301878,0,
6.38223E+17,1.413598,-0.9818845,-8.685184,-10.61434,32.42301,99.98587,-4.570632,-0.4441859,0.1400836,-35.22471,-8.447793,45.05199,0,0,0,2.792428,-110.756,-55.19057,-10.65206,-111.0334,-35.10307,0.001067912,-0.1257102,0.09433498,0,0.3,0,0,0.0125085,0,
6.38223E+17,1.413598,-1.005263,-8.685184,-11.63977,32.49626,100.2056,-4.570632,-0.4441859,0.1400836,-35.22471,-8.447793,45.05199,0,0,0,2.792405,-110.8104,-55.19151,-10.65206,-111.0334,-35.10307,0.001067912,-0.1257102,0.09433498,0,0.3,0,0,0.0114961,0,
6.38223E+17,1.413598,-0.7013461,-7.120916,-12.73845,33.08222,97.64202,-4.570632,-0.4441859,0.1400836,-35.15147,-8.447793,45.05199,0,0,0,2.881623,-110.6037,-51.5761,-10.65206,-111.0334,-35.10307,0.001067912,-0.1257102,0.09433498,0,0.3,0,0,0.01154061,0,
6.38223E+17,1.366478,-0.1636474,-6.210372,-12.81169,33.3752,96.10387,-4.570632,-0.4441859,0.1400836,-35.22471,-8.447793,45.05199,0,0,0,2.836007,-109.5983,-49.46008,-10.65206,-111.0334,-35.10307,0.001067912,-0.1257102,0.09433498,0,0.3,0,0,0.01242315,0,
6.38223E+17,0.7303588,1.472827,-4.225855,-12.81169,33.74142,93.83327,-4.570632,-0.4441859,0.1400836,-35.22471,-8.521038,45.05199,0,0,0,1.573972,-106.21,-44.88041,-10.65206,-111.0334,-35.10307,0.001067912,-0.1257102,0.09433498,0,0.3,0,0,0.01572039,0,
6.38223E+17,-0.8010387,3.623622,-2.007865,-13.10467,33.22871,92.66135,-4.570632,-0.4441859,0.1400836,-35.22471,-8.447793,45.05199,0,0,0,-1.795229,-101.4901,-39.95129,-10.65206,-111.0334,-35.10307,0.001067912,-0.1257102,0.09433498,0,0.3,0,0,0.020582,0,
6.38223E+17,-3.887394,6.89657,1.610961,-15.52176,31.25109,90.97672,-4.570632,-0.4441859,0.1400836,-35.22471,-8.447793,45.05199,0,0,0,-9.22931,-93.93497,-32.52921,-10.65206,-111.0334,-35.10307,0.001067912,-0.1257102,0.09433498,0,0.3,0,0,0.02457982,0,
6.38223E+17,-5.701511,8.953853,3.945688,-17.93885,29.41996,89.65829,-4.570632,-0.4441859,0.1400836,-35.15147,-8.447793,45.05199,0,0,0,-13.99794,-88.92947,-28.14612,-10.65206,-111.0334,-35.10307,0.001067912,-0.1257102,0.09433498,0,0.3,0,0,0.0251632,0,
6.38223E+17,-7.751227,11.82937,7.634556,-21.60111,26.12393,87.68068,-4.570632,-0.4441859,0.1400836,-35.22471,-8.447793,45.05199,0,0,0,-19.99265,-81.48148,-21.47034,-10.65206,-111.0334,-35.10307,0.001067912,-0.1257102,0.09433498,0,0.3,0,0,0.02007588,0,
6.38223E+17,-9.306185,14.51786,11.34677,-24.8239,22.53491,86.28902,-4.570632,-0.4441859,0.1400836,-35.22471,-8.447793,45.05199,0,0,0,-25.11818,-73.96516,-15.06616,-10.65206,-111.0334,-35.10307,0.001067912,-0.1257102,0.09433498,0,0.3,0,0,0.009084474,0,
6.38223E+17,-10.48418,17.46352,15.33915,-28.04669,18.50643,84.89736,-4.570632,-0.4441859,0.1400836,-35.22471,-8.447793,45.05199,0,0,0,-29.56535,-65.23152,-8.583537,-10.65206,-111.0334,-35.10307,0.001067912,-0.1257102,0.09433498,0,0.3,0,0,0,0,
6.38223E+17,-10.8847,18.9831,17.39371,-29.3651,16.52881,84.23816,-4.570632,-0.4441859,0.1400836,-35.15147,-8.447793,45.12524,0,0,0,-31.33892,-60.525,-5.374946,-10.65206,-111.0334,-35.10307,0.001067912,-0.1257102,0.09433498,0,0.3,0,0,0,0,
6.38223E+17,-11.5915,22.13916,21.50283,-31.92868,12.28059,83.43246,-4.570632,-0.4441859,0.1400836,-35.22471,-8.521038,45.05199,0,0,0,-34.64025,-50.46483,0.531314,-10.65206,-111.0334,-35.10307,0.001067912,-0.1257102,0.09433498,0,0.3,0,0,0,0,
6.38223E+17,-12.27474,25.31859,25.51856,-34.27253,8.178861,83.5057,-4.570632,-0.4441859,0.1400836,-35.22471,-8.521038,45.05199,0,0,0,-37.8403,-39.96385,5.569625,-10.65206,-111.0334,-35.10307,0.001067912,-0.1257102,0.09433498,0,0.3,0,0,0,0,
6.38223E+17,-12.69882,29.59681,30.35144,-37.56856,2.831963,84.82411,-4.570632,-0.4441859,0.1400836,-35.22471,-8.447793,45.05199,0,0,0,-40.30136,-25.86266,10.49844,-10.65206,-111.0334,-35.10307,0.001067912,-0.1257102,0.09433498,0,0.3,0,0,0,0,
6.38223E+17,-12.69882,31.958,32.56944,-39.03346,0.04864649,85.9228,-4.570632,-0.4441859,0.1400836,-35.22471,-8.447793,45.05199,0,0,0,-40.65115,-18.44751,12.05071,-10.65206,-111.0334,-35.10307,0.001067912,-0.1257102,0.09433498,0,0.3,0,0,0,0,
6.38223E+17,-12.69882,35.79203,36.07153,-41.15757,-4.272818,87.68068,-4.570632,-0.4441859,0.1400836,-35.22471,-8.447793,45.05199,0,0,0,-41.03757,-6.445426,13.76557,-10.65206,-111.0334,-35.10307,0.001067912,-0.1257102,0.09433498,0,0.3,0,0,0,0,
6.38223E+17,-12.4161,39.41565,38.89655,-43.28168,-8.081567,89.43856,-4.570632,-0.4441859,0.1400836,-35.15147,-8.447793,45.05199,0,0,0,-40.15383,4.235683,14.0357,-10.65206,-111.0334,-35.10307,0.001067912,-0.1257102,0.09433498,0,0.3,0,0,0,0,
6.38223E+17,-11.61506,43.31981,41.65152,-45.11281,-11.96356,91.34293,-4.570632,-0.4441859,0.1400836,-35.22471,-8.447793,45.05199,0,0,0,-37.37612,15.1982,13.48957,-10.65206,-111.0334,-35.10307,0.001067912,-0.1257102,0.09433498,0,0.3,0,0,0,0,
6.38223E+17,-10.67266,46.63952,44.05629,-46.065,-15.47933,93.3938,-4.570632,-0.4441859,0.1400836,-35.22471,-8.447793,45.05199,0,0,0,-34.12883,24.46899,12.7453,-10.65206,-111.0334,-35.10307,0.001067912,-0.1257102,0.09433498,0,0.3,0,0,0,0,
6.38223E+17,-10.03654,48.43964,45.36374,-46.43123,-17.38371,94.63897,-4.570632,-0.4441859,0.1400836,-35.22471,-8.447793,45.05199,0,0,0,-31.95441,29.43791,12.19903,-10.65206,-111.0334,-35.10307,0.001067912,-0.1257102,0.09433498,0,0.3,0,0,0,0,
6.38223E+17,-8.505146,52.0165,47.4183,-46.87069,-21.11921,97.12931,-4.570632,-0.4441859,0.1400836,-35.22471,-8.521038,45.12524,0,0,0,-26.65948,38.22482,9.923209,-10.65206,-111.0334,-35.10307,0.001067912,-0.1257102,0.09433498,0,0.3,0,0,0,0,
6.38223E+17,-5.513031,56.43498,48.86583,-45.18605,-26.02663,99.10693,-4.570632,-0.4441859,0.1400836,-35.22471,-8.447793,45.05199,0,0,0,-16.73215,46.74417,5.006702,-10.65206,-111.0334,-35.10307,0.001067912,-0.1257102,0.09433498,0,0.3,0,0,0,0,
6.38223E+17,-3.722474,58.30524,49.12265,-43.06195,-28.22399,99.47314,-4.570632,-0.4441859,0.1400836,-35.22471,-8.447793,45.05199,0,0,0,-11.09474,49.54222,2.178297,-10.65206,-111.0334,-35.10307,0.001067912,-0.1257102,0.09433498,0,0.3,0,0,0,0,
6.38223E+17,-0.7303588,60.73657,49.28608,-38.74048,-30.93406,99.25342,-4.570632,-0.4441859,0.1400836,-35.22471,-8.447793,45.05199,0,0,0,-2.119299,52.70018,-2.102518,-10.65206,-111.0334,-35.10307,0.001067912,-0.1257102,0.09433498,0,0.3,0,0,0,0,
6.38223E+17,2.780076,62.72372,49.28608,-32.73438,-33.2779,96.83633,-4.570632,-0.4441859,0.1400836,-35.22471,-8.447793,45.05199,0,0,0,7.866509,54.89053,-6.352946,-10.65206,-111.0334,-35.10307,0.001067912,-0.1257102,0.09433498,0,0.3,0,0,0,0,
6.38223E+17,6.808829,64.21992,49.26273,-24.38443,-35.32877,91.92889,-4.570632,-0.4441859,0.1400836,-35.15147,-8.447793,45.05199,0,0,0,18.85494,56.40462,-10.4347,-10.65206,-111.0334,-35.10307,0.001067912,-0.1257102,0.09433498,0,0.3,0,0,0,0,
6.38223E+17,9.612464,64.87452,49.07595,-18.37833,-36.20771,87.60744,-4.570632,-0.4441859,0.1400836,-35.22471,-8.447793,45.05199,0,0,0,26.27934,56.73044,-13.18251,-10.65206,-111.0334,-35.10307,0.001067912,-0.1257102,0.09433498,0,0.3,0,0,0,0,
6.38223E+17,12.74594,65.06154,48.2121,-11.63977,-36.57394,82.55352,-4.570632,-0.4441859,0.1400836,-35.15147,-8.447793,45.05199,0,0,0,34.34174,55.4055,-16.53134,-10.65206,-111.0334,-35.10307,0.001067912,-0.1257102,0.09433498,0,0.3,0,0,0,0,
6.38223E+17,14.5365,64.96803,47.58173,-8.124002,-36.42745,80.13642,-4.570632,-0.4441859,0.1400836,-35.22471,-8.447793,45.05199,0,0,0,38.87133,54.22505,-18.43972,-10.65206,-111.0334,-35.10307,0.001067912,-0.1257102,0.09433498,0,0.3,0,0,0,0,
6.38223E+17,17.81133,64.64073,46.46106,-1.824918,-35.25552,75.66847,-4.570632,-0.4441859,0.1400836,-35.22471,-8.447793,45.05199,0,0,0,47.03851,51.99259,-21.94168,-10.65206,-111.0334,-35.10307,0.001067912,-0.1257102,0.09433498,0,0.3,0,0,0,0,
6.38223E+17,20.87413,64.12641,45.17696,3.66847,-33.71738,71.63998,-4.570632,-0.4441859,0.1400836,-35.22471,-8.447793,45.05199,0,0,0,54.43643,49.33185,-25.60168,-10.65206,-111.0334,-35.10307,0.001067912,-0.1257102,0.09433498,0,0.3,0,0,0,0,
6.38223E+17,23.91336,63.61209,43.93955,8.50265,-31.73976,68.05097,-4.570632,-0.4441859,0.1400836,-35.22471,-8.447793,45.12524,0,0,0,61.53218,46.78404,-29.58211,-10.65206,-111.0334,-35.10307,0.001067912,-0.1257102,0.09433498,0,0.3,0,0,0,0,
6.38223E+17,26.92904,62.7471,42.51537,13.04385,-29.68889,64.68169,-4.570632,-0.4441859,0.1400836,-35.15147,-8.447793,45.12524,0,0,0,68.46731,43.60558,-33.56289,-10.65206,-111.0334,-35.10307,0.001067912,-0.1257102,0.09433498,0,0.3,0,0,0,0,
6.38223E+17,30.34523,60.83008,39.97052,17.43856,-26.31961,61.01944,-4.570632,-0.4441859,0.1400836,-35.22471,-8.447793,45.05199,0,0,0,76.11384,37.59219,-38.3325,-10.65206,-111.0334,-35.10307,0.001067912,-0.1257102,0.09433498,0,0.3,0,0,0,0,
6.38223E+17,32.65411,59.1001,37.79922,19.63592,-23.82928,59.04182,-4.570632,-0.4441859,0.1400836,-35.22471,-8.447793,45.05199,0,0,0,81.04836,32.40479,-41.88149,-10.65206,-111.0334,-35.10307,0.001067912,-0.1257102,0.09433498,0,0.3,0,0,0,0,
6.38223E+17,35.10434,56.5285,35.09094,21.97976,-20.09377,57.13744,-4.570632,-0.4441859,0.1400836,-35.22471,-8.521038,45.05199,0,0,0,86.37808,25.47288,-45.46622,-10.65206,-111.0334,-35.10307,0.001067912,-0.1257102,0.09433498,0,0.3,0,0,0,0,
6.38223E+17,36.16454,55.1258,33.55002,22.93195,-18.04291,56.40499,-4.570632,-0.4441859,0.1400836,-35.22471,-8.447793,45.05199,0,0,0,88.48302,21.61722,-47.29617,-10.65206,-111.0334,-35.10307,0.001067912,-0.1257102,0.09433498,0,0.3,0,0,0,0,
6.38223E+17,39.27446,50.77746,29.16073,24.98281,-11.67058,55.01333,-4.570632,-0.4441859,0.1400836,-35.22471,-8.447793,45.12524,0,0,0,94.51102,10.20696,-52.77501,-10.65206,-111.0334,-35.10307,0.001067912,-0.1257102,0.09433498,0,0.3,0,0,0,0,
6.38223E+17,40.19329,49.16436,27.87663,25.64202,-9.546471,54.72035,-4.570632,-0.4441859,0.1400836,-35.22471,-8.521038,45.12524,0,0,0,96.51276,6.36549,-54.11546,-10.65206,-111.0334,-35.10307,0.001067912,-0.1257102,0.09433498,0,0.3,0,0,0,0,
6.38223E+17,41.98385,45.40047,24.77145,26.96043,-4.785534,54.35413,-4.570632,-0.4441859,0.1400836,-35.22471,-8.447793,45.05199,0,0,0,100.007,-2.780542,-57.21799,-10.65206,-111.0334,-35.10307,0.001067912,-0.1257102,0.09433498,0,0.3,0,0,0,0,
6.38223E+17,43.51525,41.91712,22.24994,28.13236,-0.5373149,54.13439,-4.570632,-0.4441859,0.1400836,-35.22471,-8.447793,45.05199,0,0,0,103.0893,-10.98575,-59.77438,-10.65206,-111.0334,-35.10307,0.001067912,-0.1257102,0.09433498,0,0.3,0,0,0,0,
6.38223E+17,45.42361,37.24148,20.19538,29.74375,4.736337,54.06115,-4.570632,-0.4441859,0.1400836,-35.22471,-8.447793,45.05199,0,0,0,108.4103,-21.10159,-61.53096,-10.65206,-111.0334,-35.10307,0.001067912,-0.1257102,0.09433498,0,0.3,0,0,0,0,
6.38223E+17,46.46024,34.01529,19.1681,30.98892,8.178861,54.06115,-4.570632,-0.4441859,0.1400836,-35.15147,-8.447793,45.05199,0,0,0,111.8635,-28.00912,-62.04787,-10.65206,-111.0334,-35.10307,0.001067912,-0.1257102,0.09433498,0,0.3,0,0,0,0,
6.38223E+17,47.40264,30.11112,17.76727,32.16084,12.1341,54.06115,-4.570632,-0.4441859,0.1400836,-35.22471,-8.447793,45.12524,0,0,0,114.8705,-36.74086,-62.73091,-10.65206,-111.0334,-35.10307,0.001067912,-0.1257102,0.09433498,0,0.3,0,0,0,0,
6.38223E+17,47.87384,28.19411,16.97346,32.52707,14.03847,54.13439,-4.570632,-0.4441859,0.1400836,-35.22471,-8.447793,45.05199,0,0,0,116.0394,-41.18871,-63.40408,-10.65206,-111.0334,-35.10307,0.001067912,-0.1257102,0.09433498,0,0.3,0,0,0,0,
6.38223E+17,49.12252,21.50795,15.38585,33.11303,19.97133,54.06115,-4.570632,-0.4441859,0.1400836,-35.22471,-8.447793,45.12524,0,0,0,120.5577,-56.33072,-64.00252,-10.65206,-111.0334,-35.10307,0.001067912,-0.1257102,0.09433498,0,0.3,0,0,0,0,
6.38223E+17,49.35812,19.61431,15.15238,33.25952,21.72922,53.9879,-4.570632,-0.4441859,0.1400836,-35.22471,-8.447793,45.12524,0,0,0,121.7625,-60.60012,-63.83244,-10.65206,-111.0334,-35.10307,0.001067912,-0.1257102,0.09433498,0,0.3,0,0,0,0,
6.38223E+17,49.73508,15.24259,14.77882,33.33276,25.83095,53.47519,-4.570632,-0.4441859,0.1400836,-35.22471,-8.447793,45.05199,0,0,0,124.1314,-70.52991,-63.20948,-10.65206,-111.0334,-35.10307,0.001067912,-0.1257102,0.09433498,0,0.3,0,0,0,0,
6.38223E+17,50.04136,11.22154,14.75547,32.7468,29.27347,51.93703,-4.570632,-0.4441859,0.1400836,-35.22471,-8.447793,45.05199,0,0,0,126.293,-79.65202,-62.53281,-10.65206,-111.0334,-35.10307,0.001067912,-0.1257102,0.09433498,0,0.3,0,0,0,0,
6.38223E+17,50.46544,7.223865,14.87221,31.57488,32.78923,49.66644,-4.570632,-0.4441859,0.1400836,-35.22471,-8.447793,45.05199,0,0,0,128.4252,-88.76458,-62.35424,-10.65206,-111.0334,-35.10307,0.001067912,-0.1257102,0.09433498,0,0.3,0,0,0,0,
6.38223E+17,50.74816,5.540634,15.05899,30.98892,34.25414,48.64101,-4.570632,-0.4441859,0.1400836,-35.22471,-8.447793,45.05199,0,0,0,129.6091,-92.54545,-62.44798,-10.65206,-111.0334,-35.10307,0.001067912,-0.1257102,0.09433498,0,0.3,0,0,0,0,
6.38223E+17,51.12512,3.413218,15.43254,30.25646,35.79229,47.46908,-4.570632,-0.4441859,0.1400836,-35.15147,-8.447793,45.05199,0,0,0,131.2569,-97.25278,-62.53397,-10.65206,-111.0334,-35.10307,0.001067912,-0.1257102,0.09433498,0,0.3,0,0,0,0,
6.38223E+17,51.40784,1.42607,16.01623,29.52402,36.67123,46.3704,-4.570632,-0.4441859,0.1400836,-35.22471,-8.447793,45.05199,0,0,0,132.9521,-101.5051,-62.24549,-10.65206,-111.0334,-35.10307,0.001067912,-0.1257102,0.09433498,0,0.3,0,0,0,0,
6.38223E+17,51.64344,-0.7714807,17.13689,28.57183,37.76991,44.75901,-4.570632,-0.4441859,0.1400836,-35.22471,-8.521038,45.05199,0,0,0,135.3705,-105.8752,-61.22369,-10.65206,-111.0334,-35.10307,0.001067912,-0.1257102,0.09433498,0,0.3,0,0,0,0,
6.38223E+17,51.99683,-1.052019,17.5338,27.76613,38.42912,43.4406,-4.570632,-0.4441859,0.1400836,-35.22471,-8.447793,45.05199,0,0,0,136.7153,-106.2528,-61.52416,-10.65206,-111.0334,-35.10307,0.001067912,-0.1257102,0.09433498,0,0.3,0,0,0,0,
6.38223E+17,52.44447,-1.005263,17.67388,27.54639,38.7221,42.92788,-4.570632,-0.4441859,0.1400836,-35.22471,-8.447793,45.05199,0,0,0,137.7936,-106.0454,-62.40493,-10.65206,-111.0334,-35.10307,0.001067912,-0.1257102,0.09433498,0,0.3,0,0,0,0,
6.38223E+17,52.9628,-1.028641,18.63112,27.83937,38.86858,42.41516,-4.570632,-0.4441859,0.1400836,-35.22471,-8.447793,45.12524,0,0,0,140.4355,-105.4057,-62.38124,-10.65206,-111.0334,-35.10307,0.001067912,-0.1257102,0.09433498,0,0.3,0,0,0,0,
6.38223E+17,53.33975,-1.028641,19.75179,28.57183,38.86858,42.04893,-4.570632,-0.4441859,0.1400836,-35.22471,-8.447793,45.05199,0,0,0,143.1056,-104.5483,-61.83675,-10.65206,-111.0334,-35.10307,0.001067912,-0.1257102,0.09433498,0,0.3,0,0,0,0,
6.38223E+17,53.95231,-1.005263,22.01647,29.59726,38.86858,41.90245,-4.570632,-0.4441859,0.1400836,-35.22471,-8.447793,45.05199,0,0,0,148.2183,-102.6151,-60.4745,-10.65206,-111.0334,-35.10307,0.001067912,-0.1257102,0.09433498,0,0.3,0,0,0,0,
6.38223E+17,54.98895,-0.9818845,25.21505,31.42839,38.94183,41.8292,-4.570632,-0.4441859,0.1400836,-35.22471,-8.447793,45.05199,0,0,0,155.7323,-99.5789,-59.26027,-10.65206,-111.0334,-35.10307,0.001067912,-0.1257102,0.09433498,0,0.3,0,0,0,0,
6.38223E+17,55.31879,-0.9818845,28.39028,33.69899,38.86858,41.75596,-4.570632,-0.4441859,0.1400836,-35.22471,-8.521038,45.05199,0,0,0,161.7812,-96.24702,-56.40584,-10.65206,-111.0334,-35.10307,0.001067912,-0.1257102,0.09433498,0,0.3,0,0,0,0,
6.38223E+17,55.31879,-0.8649935,31.30868,35.60336,38.79534,41.24324,-4.570632,-0.4441859,0.1400836,-35.22471,-8.447793,45.05199,0,0,0,166.6288,-92.59469,-53.05156,-10.65206,-111.0334,-35.10307,0.001067912,-0.1257102,0.09433498,0,0.3,0,0,0,0,
6.38223E+17,55.34235,-0.4441859,33.12977,37.14151,38.86858,40.95026,-4.570632,-0.4441859,0.1400836,-35.22471,-8.447793,45.12524,0,0,0,169.6348,-89.35573,-51.0747,-10.65206,-111.0334,-35.10307,0.001067912,-0.1257102,0.09433498,0,0.3,0,0,0,0,
6.38223E+17,55.34235,0,33.83019,38.02045,38.86858,40.95026,-4.570632,-0.4441859,0.1400836,-35.22471,-8.447793,45.05199,0,0,0,170.7565,-87.42268,-50.29922,-10.65206,-111.0334,-35.10307,0.001067912,-0.1257102,0.09433498,0,0.3,0,0,0,0,
6.38223E+17,55.34235,1.239045,35.0209,40.14456,38.86858,40.95026,-4.570632,-0.4441859,0.1400836,-35.22471,-8.447793,45.05199,0,0,0,172.6111,-82.9725,-49.01704,-10.65206,-111.0334,-35.10307,0.001067912,-0.1257102,0.09433498,0,0.3,0,0,0,0,
6.38223E+17,55.31879,2.711872,36.32835,42.6349,38.20938,41.38973,-4.570632,-0.4441859,0.1400836,-35.22471,-8.447793,45.05199,0,0,0,174.4976,-77.77222,-47.6068,-10.65206,-111.0334,-35.10307,0.001067912,-0.1257102,0.09433498,0,0.3,0,0,0,0,
6.38223E+17,55.31879,4.395102,37.65914,45.27173,37.33044,42.48841,-4.570632,-0.4441859,0.1400836,-35.22471,-8.447793,45.12524,0,0,0,176.3321,-71.99867,-46.33736,-10.65206,-111.0334,-35.10307,0.001067912,-0.1257102,0.09433498,0,0.3,0,0,0,0,
6.38223E+17,55.31879,6.803057,38.98993,48.49451,35.79229,44.39278,-4.570632,-0.4441859,0.1400836,-35.22471,-8.447793,45.05199,0,0,0,177.8806,-64.50092,-45.26589,-10.65206,-111.0334,-35.10307,0.001067912,-0.1257102,0.09433498,0,0.3,0,0,0,0,
6.38223E+17,55.29523,9.281147,40.06391,51.49756,34.1809,46.22392,-4.570632,-0.4441859,0.1400836,-35.15147,-8.447793,45.12524,0,0,0,178.7517,-57.19979,-44.55444,-10.65206,-111.0334,-35.10307,0.001067912,-0.1257102,0.09433498,0,0.3,0,0,0,0,
6.38223E+17,55.27167,13.16193,40.88106,55.37956,31.54407,48.56776,-4.570632,-0.4441859,0.1400836,-35.15147,-8.447793,45.05199,0,0,0,178.4455,-47.1076,-44.65789,-10.65206,-111.0334,-35.10307,0.001067912,-0.1257102,0.09433498,0,0.3,0,0,0,0,
6.38223E+17,55.27167,16.03745,40.90441,57.57691,29.56645,49.81293,-4.570632,-0.4441859,0.1400836,-35.15147,-8.447793,45.05199,0,0,0,177.093,-40.59633,-45.59541,-10.65206,-111.0334,-35.10307,0.001067912,-0.1257102,0.09433498,0,0.3,0,0,0,0,
6.38223E+17,55.22455,20.15201,40.88106,60.36023,26.41691,51.64405,-4.570632,-0.4441859,0.1400836,-35.22471,-8.447793,45.05199,0,0,0,174.5157,-31.53123,-47.16928,-10.65206,-111.0334,-35.10307,0.001067912,-0.1257102,0.09433498,0,0.3,0,0,0,0,
6.38223E+17,55.20099,22.37294,40.83437,61.75189,24.65902,52.523,-4.570632,-0.4441859,0.1400836,-35.22471,-8.521038,45.05199,0,0,0,172.8592,-26.78551,-48.21414,-10.65206,-111.0334,-35.10307,0.001067912,-0.1257102,0.09433498,0,0.3,0,0,0,0,
6.38223E+17,54.82403,29.01235,40.13395,64.68169,18.79941,54.42737,-4.570632,-0.4441859,0.1400836,-35.22471,-8.521038,45.05199,0,0,0,165.5787,-13.92686,-51.65101,-10.65206,-111.0334,-35.10307,0.001067912,-0.1257102,0.09433498,0,0.3,0,0,0,0,
6.38223E+17,54.58843,31.13977,39.94717,65.41415,16.6753,54.86684,-4.570632,-0.4441859,0.1400836,-35.22471,-8.447793,45.05199,0,0,0,162.804,-9.922063,-52.60172,-10.65206,-111.0334,-35.10307,0.001067912,-0.1257102,0.09433498,0,0.3,0,0,0,0,
6.38223E+17,53.78739,35.74527,39.41019,66.29308,12.1341,55.37956,-4.570632,-0.4441859,0.1400836,-35.22471,-8.447793,45.05199,0,0,0,155.6291,-1.778212,-54.39415,-10.65206,-111.0334,-35.10307,0.001067912,-0.1257102,0.09433498,0,0.3,0,0,0,0,
6.38223E+17,52.72719,40.16375,38.28952,66.43958,7.88588,55.59929,-4.570632,-0.4441859,0.1400836,-35.15147,-8.521038,45.05199,0,0,0,146.8458,4.69228,-56.5936,-10.65206,-111.0334,-35.10307,0.001067912,-0.1257102,0.09433498,0,0.3,0,0,0,0,
6.38223E+17,50.74816,45.72776,36.79529,65.41415,2.026266,55.74578,-4.570632,-0.4441859,0.1400836,-35.22471,-8.447793,45.05199,0,0,0,133.9342,12.04865,-58.91396,-10.65206,-111.0334,-35.10307,0.001067912,-0.1257102,0.09433498,0,0.3,0,0,0,0,
6.38223E+17,49.05184,48.72018,35.65128,64.16898,-1.855728,55.74578,-4.570632,-0.4441859,0.1400836,-35.15147,-8.447793,45.12524,0,0,0,125.153,15.20458,-59.75484,-10.65206,-111.0334,-35.10307,0.001067912,-0.1257102,0.09433498,0,0.3,0,0,0,0,
6.38223E+17,46.55449,51.64245,33.6901,61.53215,-6.763155,55.23307,-4.570632,-0.4441859,0.1400836,-35.22471,-8.447793,45.05199,0,0,0,113.7846,16.963,-60.57788,-10.65206,-111.0334,-35.10307,0.001067912,-0.1257102,0.09433498,0,0.3,0,0,0,0,
6.38223E+17,45.02308,52.67109,32.38266,59.55453,-9.326735,54.64711,-4.570632,-0.4441859,0.1400836,-35.22471,-8.447793,45.05199,0,0,0,107.7219,16.77285,-60.71483,-10.65206,-111.0334,-35.10307,0.001067912,-0.1257102,0.09433498,0,0.3,0,0,0,0,
6.38223E+17,41.13569,53.65298,28.97396,53.69492,-14.16092,52.23001,-4.570632,-0.4441859,0.1400836,-35.22471,-8.447793,45.12524,0,0,0,94.48587,14.0958,-60.17492,-10.65206,-111.0334,-35.10307,0.001067912,-0.1257102,0.09433498,0,0.3,0,0,0,0,
6.38223E+17,39.81633,53.65298,27.7599,51.49756,-15.18635,51.05809,-4.570632,-0.4441859,0.1400836,-35.22471,-8.447793,45.05199,0,0,0,90.37805,12.75334,-59.93775,-10.65206,-111.0334,-35.10307,0.001067912,-0.1257102,0.09433498,0,0.3,0,0,0,0,
6.38223E+17,37.0127,53.53609,25.49521,46.95637,-16.7245,48.20153,-4.570632,-0.4441859,0.1400836,-35.22471,-8.447793,45.05199,0,0,0,82.26263,10.2297,-59.23413,-10.65206,-111.0334,-35.10307,0.001067912,-0.1257102,0.09433498,0,0.3,0,0,0,0,
6.38223E+17,33.78498,52.92825,23.464,41.90245,-17.38371,44.46603,-4.570632,-0.4441859,0.1400836,-35.22471,-8.447793,45.05199,0,0,0,74.2262,7.424122,-57.40934,-10.65206,-111.0334,-35.10307,0.001067912,-0.1257102,0.09433498,0,0.3,0,0,0,0,
6.38223E+17,29.44995,51.85285,21.50283,34.79766,-17.01748,40.51079,-4.570632,-0.4441859,0.1400836,-35.15147,-8.447793,45.05199,0,0,0,64.52937,4.151278,-54.06191,-10.65206,-111.0334,-35.10307,0.001067912,-0.1257102,0.09433498,0,0.3,0,0,0,0,
6.38223E+17,27.16464,51.33854,21.01254,30.98892,-16.50476,39.19238,-4.570632,-0.4441859,0.1400836,-35.22471,-8.447793,45.05199,0,0,0,59.86346,2.993957,-51.69123,-10.65206,-111.0334,-35.10307,0.001067912,-0.1257102,0.09433498,0,0.3,0,0,0,0,
6.38223E+17,23.98404,50.66056,20.33547,26.66745,-15.77231,37.94721,-4.570632,-0.4441859,0.1400836,-35.22471,-8.447793,45.05199,0,0,0,53.19779,1.444611,-48.77617,-10.65206,-111.0334,-35.10307,0.001067912,-0.1257102,0.09433498,0,0.3,0,0,0,0,
6.38223E+17,22.38196,50.42678,20.0553,24.68983,-15.25959,37.36125,-4.570632,-0.4441859,0.1400836,-35.22471,-8.447793,45.05199,0,0,0,49.76091,0.873733,-47.51303,-10.65206,-111.0334,-35.10307,0.001067912,-0.1257102,0.09433498,0,0.3,0,0,0,0,
6.38223E+17,17.24589,49.79557,19.12141,18.09777,-13.13548,34.50468,-4.570632,-0.4441859,0.1400836,-35.22471,-8.447793,45.12524,0,0,0,38.47072,-0.7970739,-44.42266,-10.65206,-111.0334,-35.10307,0.001067912,-0.1257102,0.09433498,0,0.3,0,0,0,0,
6.38223E+17,15.66737,49.4449,18.98133,16.12015,-12.40303,33.47925,-4.570632,-0.4441859,0.1400836,-35.22471,-8.447793,45.12524,0,0,0,35.12699,-1.432241,-43.10805,-10.65206,-111.0334,-35.10307,0.001067912,-0.1257102,0.09433498,0,0.3,0,0,0,0,
6.38223E+17,12.69882,48.48639,18.88794,12.60438,-10.42541,31.35514,-4.570632,-0.4441859,0.1400836,-35.22471,-8.447793,45.05199,0,0,0,28.91855,-2.967315,-40.01596,-10.65206,-111.0334,-35.10307,0.001067912,-0.1257102,0.09433498,0,0.3,0,0,0,0,
6.38223E+17,10.1779,47.0837,19.00467,8.868877,-7.935077,29.15779,-4.570632,-0.4441859,0.1400836,-35.22471,-8.447793,45.05199,0,0,0,23.71855,-5.072591,-36.2355,-10.65206,-111.0334,-35.10307,0.001067912,-0.1257102,0.09433498,0,0.3,0,0,0,0,
6.38223E+17,8.670066,45.2602,19.00467,5.499599,-4.565799,26.88719,-4.570632,-0.4441859,0.1400836,-35.22471,-8.447793,45.05199,0,0,0,20.69544,-8.011427,-32.63052,-10.65206,-111.0334,-35.10307,0.001067912,-0.1257102,0.09433498,0,0.3,0,0,0,0,
6.38223E+17,8.057507,43.46008,18.91129,3.082508,-0.9035407,23.95738,-4.570632,-0.4441859,0.1400836,-35.22471,-8.447793,45.05199,0,0,0,19.62503,-11.07731,-29.72037,-10.65206,-111.0334,-35.10307,0.001067912,-0.1257102,0.09433498,0,0.3,0,0,0,0,
6.38223E+17,8.010387,42.50157,18.88794,2.350057,3.198189,19.48943,-4.570632,-0.4441859,0.1400836,-35.22471,-8.521038,45.05199,0,0,0,19.71579,-12.72692,-28.24917,-10.65206,-111.0334,-35.10307,0.001067912,-0.1257102,0.09433498,0,0.3,0,0,0,0,
6.38223E+17,7.963267,42.10415,19.07472,2.643037,7.299919,11.5057,-4.570632,-0.4441859,0.1400836,-35.22471,-8.447793,45.05199,0,0,0,19.74376,-13.26964,-27.20935,-10.65206,-111.0334,-35.10307,0.001067912,-0.1257102,0.09433498,0,0.3,0,0,0,0,
6.38223E+17,7.916147,41.96388,19.09806,2.057076,10.81569,4.107941,-4.570632,-0.4441859,0.1400836,-35.22471,-8.447793,45.12524,0,0,0,19.66486,-13.49435,-26.92579,-10.65206,-111.0334,-35.10307,0.001067912,-0.1257102,0.09433498,0,0.3,0,0,0,0,
6.38223E+17,7.939706,41.89374,18.74786,0.8119082,12.64682,0.07945653,-4.570632,-0.4441859,0.1400836,-35.22471,-8.447793,45.05199,0,0,0,19.63157,-13.88011,-27.5895,-10.65206,-111.0334,-35.10307,0.001067912,-0.1257102,0.09433498,0,0.3,0,0,0,0,
6.38223E+17,8.151747,41.35604,18.02409,-1.165711,14.84417,-4.388499,-4.570632,-0.4441859,0.1400836,-35.22471,-8.447793,45.05199,0,0,0,20.04357,-15.34688,-28.42258,-10.65206,-111.0334,-35.10307,0.001067912,-0.1257102,0.09433498,0,0.3,0,0,0,0,
6.38223E+17,8.340226,40.8651,17.884,-1.971408,16.16258,-6.878834,-4.570632,-0.4441859,0.1400836,-35.22471,-8.447793,45.05199,0,0,0,20.56775,-16.30828,-28.05281,-10.65206,-111.0334,-35.10307,0.001067912,-0.1257102,0.09433498,0,0.3,0,0,0,0,
6.38223E+17,9.329745,38.94809,16.81003,-3.216576,20.63054,-13.54414,-4.570632,-0.4441859,0.1400836,-35.22471,-8.447793,45.05199,0,0,0,23.06477,-20.47586,-27.95889,-10.65206,-111.0334,-35.10307,0.001067912,-0.1257102,0.09433498,0,0.3,0,0,0,0,
6.38223E+17,9.541784,38.08309,15.99288,-3.363066,22.38842,-15.15554,-4.570632,-0.4441859,0.1400836,-35.22471,-8.447793,45.05199,0,0,0,23.48955,-22.58805,-28.60809,-10.65206,-111.0334,-35.10307,0.001067912,-0.1257102,0.09433498,0,0.3,0,0,0,0,
6.38223E+17,9.471104,35.65176,13.79823,-4.022273,25.83095,-17.49938,-4.570632,-0.4441859,0.1400836,-35.22471,-8.447793,45.05199,0,0,0,23.06356,-28.42772,-30.09932,-10.65206,-111.0334,-35.10307,0.001067912,-0.1257102,0.09433498,0,0.3,0,0,0,0,
6.38223E+17,9.353305,32.47232,11.62694,-6.146383,29.41996,-20.20946,-4.570632,-0.4441859,0.1400836,-35.22471,-8.447793,45.05199,0,0,0,22.65165,-35.66917,-30.82701,-10.65206,-111.0334,-35.10307,0.001067912,-0.1257102,0.09433498,0,0.3,0,0,0,0,
6.38223E+17,9.306185,28.28763,9.058739,-9.22268,34.62037,-23.57873,-4.570632,-0.4441859,0.1400836,-35.22471,-8.447793,45.05199,0,0,0,22.38408,-45.14248,-31.751,-10.65206,-111.0334,-35.10307,0.001067912,-0.1257102,0.09433498,0,0.3,0,0,0,0,
6.38223E+17,9.211945,25.99656,7.891376,-10.68758,37.55017,-25.04364,-4.570632,-0.4441859,0.1400836,-35.22471,-8.447793,45.05199,0,0,0,22.11858,-50.28759,-31.9659,-10.65206,-111.0334,-35.10307,0.001067912,-0.1257102,0.09433498,0,0.3,0,0,0,0,
6.38223E+17,8.976345,22.81713,6.583929,-12.81169,41.43217,-26.94801,-4.570632,-0.4441859,0.1400836,-35.22471,-8.447793,45.05199,0,0,0,21.56362,-57.40861,-31.8379,-10.65206,-111.0334,-35.10307,0.001067912,-0.1257102,0.09433498,0,0.3,0,0,0,0,
6.38223E+17,8.905665,19.66107,5.299829,-15.30203,44.80145,-28.5594,-4.570632,-0.4441859,0.1400836,-35.15147,-8.447793,45.05199,0,0,0,21.34692,-64.56359,-32.11953,-10.65206,-111.0334,-35.10307,0.001067912,-0.1257102,0.09433498,0,0.3,0,0,0,0,
6.38223E+17,8.764306,16.57515,3.128534,-17.35289,47.73125,-29.58484,-4.570632,-0.4441859,0.1400836,-35.22471,-8.447793,45.12524,0,0,0,20.58316,-71.76015,-34.84079,-10.65206,-111.0334,-35.10307,0.001067912,-0.1257102,0.09433498,0,0.3,0,0,0,0,
6.38223E+17,8.434465,14.47111,1.400836,-18.37833,49.19616,-29.87782,-4.570632,-0.4441859,0.1400836,-35.22471,-8.447793,45.05199,0,0,0,19.41714,-76.63708,-37.40249,-10.65206,-111.0334,-35.10307,0.001067912,-0.1257102,0.09433498,0,0.3,0,0,0,0,
6.38223E+17,8.269547,13.16193,0.5603344,-18.8178,49.85536,-29.65808,-4.570632,-0.4441859,0.1400836,-35.22471,-8.521038,45.05199,0,0,0,18.86349,-79.62931,-38.56261,-10.65206,-111.0334,-35.10307,0.001067912,-0.1257102,0.09433498,0,0.3,0,0,0,0,
6.38223E+17,7.845467,11.26829,-0.5136398,-18.67131,50.58781,-28.92563,-4.570632,-0.4441859,0.1400836,-35.15147,-8.447793,45.05199,0,0,0,17.68844,-83.93759,-39.97895,-10.65206,-111.0334,-35.10307,0.001067912,-0.1257102,0.09433498,0,0.3,0,0,0,0,
6.38223E+17,7.468508,8.813582,-1.751045,-17.42614,51.10053,-28.48616,-4.570632,-0.4441859,0.1400836,-35.22471,-8.447793,45.05199,0,0,0,16.59869,-89.50583,-41.73268,-10.65206,-111.0334,-35.10307,0.001067912,-0.1257102,0.09433498,0,0.3,0,0,0,0,
6.38223E+17,7.492068,7.130352,-2.241338,-16.76693,51.17377,-28.48616,-4.570632,-0.4441859,0.1400836,-35.22471,-8.447793,45.05199,0,0,0,16.5729,-93.34563,-42.33153,-10.65206,-111.0334,-35.10307,0.001067912,-0.1257102,0.09433498,0,0.3,0,0,0,0,
6.38223E+17,7.727668,4.41848,-2.684936,-15.52176,51.32027,-28.5594,-4.570632,-0.4441859,0.1400836,-35.22471,-8.447793,45.12524,0,0,0,17.03763,-99.58025,-42.79365,-10.65206,-111.0334,-35.10307,0.001067912,-0.1257102,0.09433498,0,0.3,0,0,0,0,
6.38223E+17,8.081067,1.42607,-2.778325,-14.34984,51.39351,-28.63265,-4.570632,-0.4441859,0.1400836,-35.22471,-8.447793,45.05199,0,0,0,17.83111,-106.5246,-42.76458,-10.65206,-111.0334,-35.10307,0.001067912,-0.1257102,0.09433498,0,0.3,0,0,0,0,
6.38223E+17,8.458026,-0.9585064,-2.638241,-13.03143,51.39351,-28.77914,-4.570632,-0.4441859,0.1400836,-35.22471,-8.447793,45.05199,0,0,0,18.7082,-112.0894,-42.54009,-10.65206,-111.0334,-35.10307,0.001067912,-0.1257102,0.09433498,0,0.3,0,0,0,0,
6.38223E+17,8.505146,-1.005263,-2.778325,-12.006,51.02729,-29.65808,-4.570632,-0.4441859,0.1400836,-35.22471,-8.447793,45.12524,0,0,0,18.76322,-112.1828,-42.87945,-10.65206,-111.0334,-35.10307,0.001067912,-0.1257102,0.09433498,0,0.3,0,0,0,0,
6.38223E+17,8.717185,-1.028641,-2.825019,-11.2003,50.66106,-29.95106,-4.570632,-0.4441859,0.1400836,-35.22471,-8.447793,45.05199,0,0,0,19.21083,-112.2319,-43.05799,-10.65206,-111.0334,-35.10307,0.001067912,-0.1257102,0.09433498,0,0.3,0,0,0,0,
6.38223E+17,9.518225,-1.005263,-2.778325,-8.636719,49.70887,-29.14537,-4.570632,-0.4441859,0.1400836,-35.15147,-8.447793,45.05199,0,0,0,20.97869,-112.1828,-43.23081,-10.65206,-111.0334,-35.10307,0.001067912,-0.1257102,0.09433498,0,0.3,0,0,0,0,
6.38223E+17,10.60198,-0.9818845,-2.381421,-4.901215,48.6102,-25.77609,-4.570632,-0.4441859,0.1400836,-35.22471,-8.447793,45.05199,0,0,0,23.5114,-112.17,-42.74199,-10.65206,-111.0334,-35.10307,0.001067912,-0.1257102,0.09433498,0,0.3,0,0,0,0,
6.38223E+17,11.80354,-0.9351282,-2.101254,0.006211365,47.29178,-20.50244,-4.570632,-0.4441859,0.1400836,-35.22471,-8.447793,45.12524,0,0,0,26.27383,-112.0867,-42.62307,-10.65206,-111.0334,-35.10307,0.001067912,-0.1257102,0.09433498,0,0.3,0,0,0,0,
6.38223E+17,12.91086,-0.7247244,-1.914476,4.693902,45.75363,-15.44852,-4.570632,-0.4441859,0.1400836,-35.22471,-8.447793,45.05199,0,0,0,28.79727,-111.6122,-42.72393,-10.65206,-111.0334,-35.10307,0.001067912,-0.1257102,0.09433498,0,0.3,0,0,0,0,
6.38223E+17,14.1831,-0.1636474,-1.587614,9.454838,43.84926,-10.90732,-4.570632,-0.4441859,0.1400836,-35.22471,-8.447793,45.05199,0,0,0,31.76823,-110.3297,-42.64726,-10.65206,-111.0334,-35.10307,0.001067912,-0.1257102,0.09433498,0,0.3,0,0,0,0,
6.38223E+17,15.87941,0.8182371,-0.9572379,14.87498,41.21243,-6.292873,-4.570632,-0.4441859,0.1400836,-35.15147,-8.447793,45.05199,0,0,0,35.87311,-108.0771,-42.24451,-10.65206,-111.0334,-35.10307,0.001067912,-0.1257102,0.09433498,0,0.3,0,0,0,0,
6.38223E+17,17.17521,1.753365,-0.09338906,18.83022,38.86858,-2.923595,-4.570632,-0.4441859,0.1400836,-35.22471,-8.447793,45.05199,0,0,0,39.29493,-105.9197,-41.21389,-10.65206,-111.0334,-35.10307,0.001067912,-0.1257102,0.09433498,0,0.3,0,0,0,0,
6.38223E+17,18.11761,2.524846,0.7237652,21.68678,37.18394,-0.3600145,-4.570632,-0.4441859,0.1400836,-35.22471,-8.447793,45.05199,0,0,0,41.95121,-104.1149,-40.13357,-10.65206,-111.0334,-35.10307,0.001067912,-0.1257102,0.09433498,0,0.3,0,0,0,0,
6.38223E+17,19.74325,4.301589,2.521505,26.81394,33.81467,4.620657,-4.570632,-0.4441859,0.1400836,-35.22471,-8.447793,45.05199,0,0,0,46.90129,-99.86879,-37.67065,-10.65206,-111.0334,-35.10307,0.001067912,-0.1257102,0.09433498,0,0.3,0,0,0,0,
6.38223E+17,21.15685,6.358871,4.412633,31.57488,30.00592,9.161857,-4.570632,-0.4441859,0.1400836,-35.22471,-8.447793,45.05199,0,0,0,51.53587,-94.83547,-35.1852,-10.65206,-111.0334,-35.10307,0.001067912,-0.1257102,0.09433498,0,0.3,0,0,0,0,
6.38223E+17,22.38196,8.509666,6.630623,36.04284,25.97744,13.1171,-4.570632,-0.4441859,0.1400836,-35.22471,-8.447793,45.05199,0,0,0,56.08102,-89.37541,-32.16556,-10.65206,-111.0334,-35.10307,0.001067912,-0.1257102,0.09433498,0,0.3,0,0,0,0,
6.38223E+17,23.4186,10.63708,8.70853,40.14456,21.94895,15.97366,-4.570632,-0.4441859,0.1400836,-35.22471,-8.447793,45.12524,0,0,0,60.11319,-83.84792,-29.56024,-10.65206,-111.0334,-35.10307,0.001067912,-0.1257102,0.09433498,0,0.3,0,0,0,0,
6.38223E+17,24.52592,12.90477,10.92652,43.80682,17.84722,17.51181,-4.570632,-0.4441859,0.1400836,-35.22471,-8.447793,45.05199,0,0,0,64.54081,-77.67458,-27.05161,-10.65206,-111.0334,-35.10307,0.001067912,-0.1257102,0.09433498,0,0.3,0,0,0,0,
6.38223E+17,25.58612,15.26597,13.42468,47.61557,13.37927,18.09777,-4.570632,-0.4441859,0.1400836,-35.22471,-8.447793,45.05199,0,0,0,68.92776,-71.24528,-24.39716,-10.65206,-111.0334,-35.10307,0.001067912,-0.1257102,0.09433498,0,0.3,0,0,0,0,
6.38223E+17,26.26936,17.04271,15.54928,50.32565,10.15648,17.73154,-4.570632,-0.4441859,0.1400836,-35.22471,-8.447793,45.05199,0,0,0,72.24905,-66.03661,-21.9681,-10.65206,-111.0334,-35.10307,0.001067912,-0.1257102,0.09433498,0,0.3,0,0,0,0,
6.38223E+17,26.97615,19.02986,18.28091,53.9879,6.567466,16.48637,-4.570632,-0.4441859,0.1400836,-35.22471,-8.447793,45.05199,0,0,0,76.15865,-59.78962,-18.72635,-10.65206,-111.0334,-35.10307,0.001067912,-0.1257102,0.09433498,0,0.3,0,0,0,0,
6.38223E+17,27.32955,19.87147,19.54166,55.81903,4.882828,15.75392,-4.570632,-0.4441859,0.1400836,-35.15147,-8.447793,45.05199,0,0,0,78.05502,-56.99166,-17.31239,-10.65206,-111.0334,-35.10307,0.001067912,-0.1257102,0.09433498,0,0.3,0,0,0,0,
6.38223E+17,28.03635,21.64822,22.57681,60.36023,1.586795,13.7763,-4.570632,-0.4441859,0.1400836,-35.22471,-8.447793,45.05199,0,0,0,82.32148,-50.58709,-13.76251,-10.65206,-111.0334,-35.10307,0.001067912,-0.1257102,0.09433498,0,0.3,0,0,0,0,
6.38223E+17,28.76671,23.00415,25.23839,64.97468,-0.9767859,11.35921,-4.570632,-0.4441859,0.1400836,-35.22471,-8.447793,45.05199,0,0,0,86.43346,-45.15772,-10.91152,-10.65206,-111.0334,-35.10307,0.001067912,-0.1257102,0.09433498,0,0.3,0,0,0,0,
6.38223E+17,29.52063,24.12631,28.08676,70.10184,-2.88116,8.06318,-4.570632,-0.4441859,0.1400836,-35.22471,-8.447793,45.05199,0,0,0,90.90192,-39.78938,-7.816303,-10.65206,-111.0334,-35.10307,0.001067912,-0.1257102,0.09433498,0,0.3,0,0,0,0,
6.38223E+17,30.15675,25.13157,30.725,75.37549,-4.126328,4.986883,-4.570632,-0.4441859,0.1400836,-35.22471,-8.447793,45.05199,0,0,0,94.87577,-34.64806,-5.053697,-10.65206,-111.0334,-35.10307,0.001067912,-0.1257102,0.09433498,0,0.3,0,0,0,0,
6.38223E+17,30.88711,26.01994,33.45663,81.2351,-4.639044,0.8851534,-4.570632,-0.4441859,0.1400836,-35.22471,-8.447793,45.05199,0,0,0,99.2561,-29.40585,-2.420435,-10.65206,-111.0334,-35.10307,0.001067912,-0.1257102,0.09433498,0,0.3,0,0,0,0,
6.38223E+17,31.31119,26.46413,34.9742,84.09167,-4.565799,-1.678428,-4.570632,-0.4441859,0.1400836,-35.22471,-8.447793,45.05199,0,0,0,101.7618,-26.49261,-1.054902,-10.65206,-111.0334,-35.10307,0.001067912,-0.1257102,0.09433498,0,0.3,0,0,0,0,
6.38223E+17,31.75883,26.86156,36.93538,87.31445,-4.199574,-4.681479,-4.570632,-0.4441859,0.1400836,-35.22471,-8.447793,45.05199,0,0,0,104.7919,-22.98614,0.933471,-10.65206,-111.0334,-35.10307,0.001067912,-0.1257102,0.09433498,0,0.3,0,0,0,0,
6.38223E+17,32.20647,27.1421,38.75646,90.17101,-3.686857,-7.318305,-4.570632,-0.4441859,0.1400836,-35.15147,-8.447793,45.05199,0,0,0,107.737,-19.80407,2.690576,-10.65206,-111.0334,-35.10307,0.001067912,-0.1257102,0.09433498,0,0.3,0,0,0,0,
6.38223E+17,32.65411,27.42263,40.74098,92.95433,-2.73467,-10.17487,-4.570632,-0.4441859,0.1400836,-35.22471,-8.521038,45.05199,0,0,0,110.8245,-16.27059,4.581386,-10.65206,-111.0334,-35.10307,0.001067912,-0.1257102,0.09433498,0,0.3,0,0,0,0,
6.38223E+17,32.81903,27.53952,41.69822,94.1995,-2.295199,-11.49328,-4.570632,-0.4441859,0.1400836,-35.22471,-8.521038,45.05199,0,0,0,112.162,-14.56121,5.56446,-10.65206,-111.0334,-35.10307,0.001067912,-0.1257102,0.09433498,0,0.3,0,0,0,0,
6.38223E+17,33.21954,27.67979,43.5193,96.39685,-1.269767,-13.91037,-4.570632,-0.4441859,0.1400836,-35.22471,-8.447793,45.05199,0,0,0,115.001,-11.4027,7.259124,-10.65206,-111.0334,-35.10307,0.001067912,-0.1257102,0.09433498,0,0.3,0,0,0,0,
6.38223E+17,33.62006,27.72655,45.41043,98.52097,-0.2443342,-16.10773,-4.570632,-0.4441859,0.1400836,-35.15147,-8.447793,45.12524,0,0,0,117.9369,-8.223433,9.024453,-10.65206,-111.0334,-35.10307,0.001067912,-0.1257102,0.09433498,0,0.3,0,0,0,0,
6.38223E+17,34.20906,27.72655,47.95528,101.0845,1.586795,-19.18402,-4.570632,-0.4441859,0.1400836,-35.22471,-8.447793,45.05199,0,0,0,122.0383,-3.914492,11.16276,-10.65206,-111.0334,-35.10307,0.001067912,-0.1257102,0.09433498,0,0.3,0,0,0,0,
6.38223E+17,34.44466,27.72655,48.98256,101.9635,2.246002,-20.35595,-4.570632,-0.4441859,0.1400836,-35.22471,-8.447793,45.05199,0,0,0,123.672,-2.124707,11.9667,-10.65206,-111.0334,-35.10307,0.001067912,-0.1257102,0.09433498,0,0.3,0,0,0,0,
6.38223E+17,34.86874,27.72655,50.59352,103.2087,3.271434,-22.33356,-4.570632,-0.4441859,0.1400836,-35.22471,-8.447793,45.05199,0,0,0,126.387,0.7384294,13.03238,-10.65206,-111.0334,-35.10307,0.001067912,-0.1257102,0.09433498,0,0.3,0,0,0,0,
6.38223E+17,35.33994,27.72655,51.78423,104.1608,4.443357,-24.45767,-4.570632,-0.4441859,0.1400836,-35.22471,-8.521038,45.05199,0,0,0,128.8791,2.897798,13.40368,-10.65206,-111.0334,-35.10307,0.001067912,-0.1257102,0.09433498,0,0.3,0,0,0,0,
6.38223E+17,35.9525,27.72655,52.46131,104.5271,5.322299,-27.31424,-4.570632,-0.4441859,0.1400836,-35.15147,-8.447793,45.05199,0,0,0,131.3829,4.141623,12.79864,-10.65206,-111.0334,-35.10307,0.001067912,-0.1257102,0.09433498,0,0.3,0,0,0,0,
6.38223E+17,36.21166,27.72655,52.57804,104.5271,5.615279,-28.41291,-4.570632,-0.4441859,0.1400836,-35.15147,-8.447793,45.05199,0,0,0,132.2986,4.357228,12.33591,-10.65206,-111.0334,-35.10307,0.001067912,-0.1257102,0.09433498,0,0.3,0,0,0,0,
6.38223E+17,36.7771,27.72655,52.5547,103.9411,5.76177,-31.85544,-4.570632,-0.4441859,0.1400836,-35.22471,-8.447793,45.05199,0,0,0,134.0555,4.31408,10.99505,-10.65206,-111.0334,-35.10307,0.001067912,-0.1257102,0.09433498,0,0.3,0,0,0,0,
6.38223E+17,36.91846,27.72655,52.48465,103.5749,5.468789,-34.56551,-4.570632,-0.4441859,0.1400836,-35.22471,-8.447793,45.05199,0,0,0,134.438,4.184718,10.58446,-10.65206,-111.0334,-35.10307,0.001067912,-0.1257102,0.09433498,0,0.3,0,0,0,0,
6.38223E+17,37.03626,27.67979,52.22783,103.3551,5.029318,-37.56856,-4.570632,-0.4441859,0.1400836,-35.22471,-8.447793,45.05199,0,0,0,134.6161,3.615082,10.05665,-10.65206,-111.0334,-35.10307,0.001067912,-0.1257102,0.09433498,0,0.3,0,0,0,0,
6.38223E+17,37.10694,27.67979,52.04106,103.0622,4.736337,-38.88697,-4.570632,-0.4441859,0.1400836,-35.22471,-8.447793,45.12524,0,0,0,134.6752,3.271901,9.677658,-10.65206,-111.0334,-35.10307,0.001067912,-0.1257102,0.09433498,0,0.3,0,0,0,0,
6.38223E+17,37.34254,27.67979,51.6208,102.403,4.370111,-41.08433,-4.570632,-0.4441859,0.1400836,-35.22471,-8.447793,45.12524,0,0,0,135.0394,2.502937,8.641826,-10.65206,-111.0334,-35.10307,0.001067912,-0.1257102,0.09433498,0,0.3,0,0,0,0,
6.38223E+17,37.8373,27.86682,51.41068,101.524,4.296866,-44.81983,-4.570632,-0.4441859,0.1400836,-35.22471,-8.447793,45.05199,0,0,0,136.2516,2.50526,7.068617,-10.65206,-111.0334,-35.10307,0.001067912,-0.1257102,0.09433498,0,0.3,0,0,0,0,
6.38223E+17,39.15665,28.68506,50.12658,99.61964,4.150376,-50.82594,-4.570632,-0.4441859,0.1400836,-35.22471,-8.447793,45.05199,0,0,0,138.4914,1.86745,1.719738,-10.65206,-111.0334,-35.10307,0.001067912,-0.1257102,0.09433498,0,0.3,0,0,0,0,
6.38223E+17,40.66449,29.9241,47.51169,96.25037,3.564415,-54.12197,-4.570632,-0.4441859,0.1400836,-35.22471,-8.447793,45.05199,0,0,0,139.3879,-0.197942,-6.093334,-10.65206,-111.0334,-35.10307,0.001067912,-0.1257102,0.09433498,0,0.3,0,0,0,0,
6.38223E+17,41.44197,30.76572,45.38708,93.54029,2.831963,-55.1474,-4.570632,-0.4441859,0.1400836,-35.15147,-8.447793,45.05199,0,0,0,138.667,-2.091147,-11.29524,-10.65206,-111.0334,-35.10307,0.001067912,-0.1257102,0.09433498,0,0.3,0,0,0,0,
6.38223E+17,42.57285,32.26192,40.57755,87.46095,1.074079,-54.85442,-4.570632,-0.4441859,0.1400836,-35.22471,-8.447793,45.05199,0,0,0,134.9699,-6.75187,-21.43167,-10.65206,-111.0334,-35.10307,0.001067912,-0.1257102,0.09433498,0,0.3,0,0,0,0,
6.38223E+17,42.59641,33.01003,36.21161,81.01537,-0.7570504,-51.99786,-4.570632,-0.4441859,0.1400836,-35.15147,-8.447793,45.12524,0,0,0,129.0059,-11.59502,-28.03954,-10.65206,-111.0334,-35.10307,0.001067912,-0.1257102,0.09433498,0,0.3,0,0,0,0,
6.38223E+17,42.03097,33.2438,31.65889,75.15575,-1.928973,-48.11587,-4.570632,-0.4441859,0.1400836,-35.22471,-8.447793,45.12524,0,0,0,121.5314,-17.05306,-33.52234,-10.65206,-111.0334,-35.10307,0.001067912,-0.1257102,0.09433498,0,0.3,0,0,0,0,
6.38223E+17,41.22993,33.01003,26.40576,69.07641,-2.368444,-42.91546,-4.570632,-0.4441859,0.1400836,-35.22471,-8.447793,45.05199,0,0,0,112.7875,-23.44003,-39.64956,-10.65206,-111.0334,-35.10307,0.001067912,-0.1257102,0.09433498,0,0.3,0,0,0,0,
6.38223E+17,40.05193,32.33206,22.15656,63.14355,-2.221954,-37.71505,-4.570632,-0.4441859,0.1400836,-35.22471,-8.447793,45.05199,0,0,0,104.8664,-28.83408,-43.60487,-10.65206,-111.0334,-35.10307,0.001067912,-0.1257102,0.09433498,0,0.3,0,0,0,0,
6.38223E+17,38.6619,30.60207,17.58049,56.91771,-1.343012,-32.80762,-4.570632,-0.4441859,0.1400836,-35.22471,-8.447793,45.05199,0,0,0,96.86665,-35.88688,-47.27573,-10.65206,-111.0334,-35.10307,0.001067912,-0.1257102,0.09433498,0,0.3,0,0,0,0,
6.38223E+17,37.90798,29.05911,14.5687,53.40194,-0.09784385,-30.46378,-4.570632,-0.4441859,0.1400836,-35.15147,-8.447793,45.05199,0,0,0,92.22482,-40.94272,-49.91602,-10.65206,-111.0334,-35.10307,0.001067912,-0.1257102,0.09433498,0,0.3,0,0,0,0,
6.38223E+17,37.03626,26.88494,11.25338,49.66644,1.367059,-28.92563,-4.570632,-0.4441859,0.1400836,-35.15147,-8.447793,45.05199,0,0,0,87.3124,-47.13528,-52.63497,-10.65206,-111.0334,-35.10307,0.001067912,-0.1257102,0.09433498,0,0.3,0,0,0,0,
6.38223E+17,36.44726,25.48224,9.689116,47.9818,2.246002,-28.48616,-4.570632,-0.4441859,0.1400836,-35.22471,-8.447793,45.05199,0,0,0,84.84724,-50.72647,-53.46451,-10.65206,-111.0334,-35.10307,0.001067912,-0.1257102,0.09433498,0,0.3,0,0,0,0,
6.38223E+17,34.09126,20.64295,4.972968,42.6349,6.201241,-27.75371,-4.570632,-0.4441859,0.1400836,-35.22471,-8.447793,45.05199,0,0,0,76.42472,-62.48639,-55.43408,-10.65206,-111.0334,-35.10307,0.001067912,-0.1257102,0.09433498,0,0.3,0,0,0,0,
6.38223E+17,33.31378,19.1935,3.898993,40.58403,7.959125,-27.68046,-4.570632,-0.4441859,0.1400836,-35.22471,-8.447793,45.12524,0,0,0,74.148,-65.85126,-55.52961,-10.65206,-111.0334,-35.10307,0.001067912,-0.1257102,0.09433498,0,0.3,0,0,0,0,
6.38223E+17,31.47611,16.48163,2.404768,36.92178,11.10867,-27.9002,-4.570632,-0.4441859,0.1400836,-35.22471,-8.447793,45.05199,0,0,0,69.68831,-72.05011,-54.5225,-10.65206,-111.0334,-35.10307,0.001067912,-0.1257102,0.09433498,0,0.3,0,0,0,0,
6.38223E+17,29.00231,14.42435,1.377489,32.96654,14.33146,-29.3651,-4.570632,-0.4441859,0.1400836,-35.15147,-8.447793,45.05199,0,0,0,64.17025,-76.74377,-52.59483,-10.65206,-111.0334,-35.10307,0.001067912,-0.1257102,0.09433498,0,0.3,0,0,0,0,
6.38223E+17,24.78508,13.60611,1.190711,26.52096,18.50643,-32.95412,-4.570632,-0.4441859,0.1400836,-35.15147,-8.447793,45.05199,0,0,0,55.49523,-78.60117,-48.16513,-10.65206,-111.0334,-35.10307,0.001067912,-0.1257102,0.09433498,0,0.3,0,0,0,0,
6.38223E+17,22.33484,14.02692,1.424183,22.1995,20.63054,-36.76286,-4.570632,-0.4441859,0.1400836,-35.15147,-8.447793,45.05199,0,0,0,50.42395,-77.63773,-45.61636,-10.65206,-111.0334,-35.10307,0.001067912,-0.1257102,0.09433498,0,0.3,0,0,0,0,
6.38223E+17,19.22493,14.86854,1.867781,15.82717,23.19412,-43.94089,-4.570632,-0.4441859,0.1400836,-35.22471,-8.447793,45.05199,0,0,0,43.87009,-75.71127,-42.54853,-10.65206,-111.0334,-35.10307,0.001067912,-0.1257102,0.09433498,0,0.3,0,0,0,0,
6.38223E+17,16.91605,15.26597,2.21799,9.161857,25.31823,-51.70488,-4.570632,-0.4441859,0.1400836,-35.15147,-8.447793,45.05199,0,0,0,38.93341,-74.78903,-40.33402,-10.65206,-111.0334,-35.10307,0.001067912,-0.1257102,0.09433498,0,0.3,0,0,0,0,
6.38223E+17,15.47889,15.26597,2.544852,2.936018,27.51558,-58.44344,-4.570632,-0.4441859,0.1400836,-35.22471,-8.447793,45.05199,0,0,0,35.91331,-74.75742,-38.66531,-10.65206,-111.0334,-35.10307,0.001067912,-0.1257102,0.09433498,0,0.3,0,0,0,0,
6.38223E+17,15.12549,15.21921,3.058492,-1.019221,29.34671,-62.25218,-4.570632,-0.4441859,0.1400836,-35.22471,-8.521038,45.05199,0,0,0,35.43176,-74.80399,-37.266,-10.65206,-111.0334,-35.10307,0.001067912,-0.1257102,0.09433498,0,0.3,0,0,0,0,
6.38223E+17,15.26685,15.05556,3.291965,-2.557369,30.22566,-63.42411,-4.570632,-0.4441859,0.1400836,-35.22471,-8.447793,45.12524,0,0,0,35.92411,-75.14154,-36.73446,-10.65206,-111.0334,-35.10307,0.001067912,-0.1257102,0.09433498,0,0.3,0,0,0,0,
6.38223E+17,16.30349,14.19057,3.735562,-3.656047,31.9103,-63.93682,-4.570632,-0.4441859,0.1400836,-35.22471,-8.447793,45.05199,0,0,0,38.73135,-77.02622,-35.92908,-10.65206,-111.0334,-35.10307,0.001067912,-0.1257102,0.09433498,0,0.3,0,0,0,0,
6.38223E+17,18.32965,12.60085,4.599411,-1.751673,34.47387,-61.22675,-4.570632,-0.4441859,0.1400836,-35.22471,-8.521038,45.05199,0,0,0,44.28913,-80.47924,-34.66414,-10.65206,-111.0334,-35.10307,0.001067912,-0.1257102,0.09433498,0,0.3,0,0,0,0,
6.38223E+17,19.46053,11.59559,4.94962,0.3724372,35.42606,-58.8829,-4.570632,-0.4441859,0.1400836,-35.15147,-8.447793,45.05199,0,0,0,47.35293,-82.69905,-34.3361,-10.65206,-111.0334,-35.10307,0.001067912,-0.1257102,0.09433498,0,0.3,0,0,0,0,
6.38223E+17,21.08616,9.88898,5.136398,4.400921,37.03746,-54.63469,-4.570632,-0.4441859,0.1400836,-35.22471,-8.521038,45.05199,0,0,0,51.55784,-86.56304,-34.63862,-10.65206,-111.0334,-35.10307,0.001067912,-0.1257102,0.09433498,0,0.3,0,0,0,0,
6.38223E+17,22.80604,8.182371,5.113051,8.209671,38.13613,-51.04567,-4.570632,-0.4441859,0.1400836,-35.22471,-8.447793,45.05199,0,0,0,55.76849,-90.49042,-35.72115,-10.65206,-111.0334,-35.10307,0.001067912,-0.1257102,0.09433498,0,0.3,0,0,0,0,
6.38223E+17,26.0102,6.218602,5.089704,13.55657,39.08832,-46.57772,-4.570632,-0.4441859,0.1400836,-35.15147,-8.447793,45.05199,0,0,0,63.32193,-95.02945,-38.57942,-10.65206,-111.0334,-35.10307,0.001067912,-0.1257102,0.09433498,0,0.3,0,0,0,0,
6.38223E+17,28.71959,5.283474,5.113051,17.73154,39.30806,-43.28168,-4.570632,-0.4441859,0.1400836,-35.22471,-8.447793,45.05199,0,0,0,69.51624,-97.19006,-41.47901,-10.65206,-111.0334,-35.10307,0.001067912,-0.1257102,0.09433498,0,0.3,0,0,0,0,
6.38223E+17,30.34523,5.189961,5.136398,20.51486,39.08832,-41.45055,-4.570632,-0.4441859,0.1400836,-35.22471,-8.447793,45.05199,0,0,0,73.12483,-97.40193,-43.43832,-10.65206,-111.0334,-35.10307,0.001067912,-0.1257102,0.09433498,0,0.3,0,0,0,0,
6.38223E+17,33.66718,5.821173,5.369871,26.22798,37.62342,-37.6418,-4.570632,-0.4441859,0.1400836,-35.22471,-8.447793,45.05199,0,0,0,80.46199,-95.88988,-47.55251,-10.65206,-111.0334,-35.10307,0.001067912,-0.1257102,0.09433498,0,0.3,0,0,0,0,
6.38223E+17,37.8373,8.626557,5.696733,33.77223,33.96116,-34.34578,-4.570632,-0.4441859,0.1400836,-35.22471,-8.447793,45.05199,0,0,0,88.99401,-89.33977,-53.7737,-10.65206,-111.0334,-35.10307,0.001067912,-0.1257102,0.09433498,0,0.3,0,0,0,0,
6.38223E+17,38.94461,10.076,5.813469,35.96959,32.20328,-33.83306,-4.570632,-0.4441859,0.1400836,-35.15147,-8.447793,45.05199,0,0,0,91.01698,-85.984,-55.73098,-10.65206,-111.0334,-35.10307,0.001067912,-0.1257102,0.09433498,0,0.3,0,0,0,0,
6.38223E+17,40.61737,13.41909,6.187026,39.19238,28.46777,-33.10061,-4.570632,-0.4441859,0.1400836,-35.22471,-8.447793,45.05199,0,0,0,93.7974,-78.27649,-58.98183,-10.65206,-111.0334,-35.10307,0.001067912,-0.1257102,0.09433498,0,0.3,0,0,0,0,
6.38223E+17,41.44197,17.06609,6.350456,41.02351,24.36604,-32.07517,-4.570632,-0.4441859,0.1400836,-35.15147,-8.447793,45.05199,0,0,0,94.13517,-70.04692,-61.73215,-10.65206,-111.0334,-35.10307,0.001067912,-0.1257102,0.09433498,0,0.3,0,0,0,0,
6.38223E+17,41.53621,21.90538,6.607276,41.17,18.79941,-29.87782,-4.570632,-0.4441859,0.1400836,-35.22471,-8.447793,45.12524,0,0,0,92.21372,-59.36478,-64.25399,-10.65206,-111.0334,-35.10307,0.001067912,-0.1257102,0.09433498,0,0.3,0,0,0,0,
6.38223E+17,41.53621,24.21982,6.794055,40.65728,16.30907,-28.77914,-4.570632,-0.4441859,0.1400836,-35.22471,-8.521038,45.05199,0,0,0,91.10088,-54.35828,-65.51023,-10.65206,-111.0334,-35.10307,0.001067912,-0.1257102,0.09433498,0,0.3,0,0,0,0,
6.38223E+17,41.53621,27.74993,7.120916,39.70509,12.64682,-27.38748,-4.570632,-0.4441859,0.1400836,-35.15147,-8.447793,45.05199,0,0,0,89.21505,-46.88189,-67.63906,-10.65206,-111.0334,-35.10307,0.001067912,-0.1257102,0.09433498,0,0.3,0,0,0,0,
6.38223E+17,41.58333,30.53193,7.261,38.75291,9.8635,-26.36205,-4.570632,-0.4441859,0.1400836,-35.22471,-8.447793,45.05199,0,0,0,87.42007,-41.18636,-69.82868,-10.65206,-111.0334,-35.10307,0.001067912,-0.1257102,0.09433498,0,0.3,0,0,0,0,
6.38223E+17,41.91317,33.08016,7.261,37.50774,7.592898,-25.77609,-4.570632,-0.4441859,0.1400836,-35.22471,-8.447793,45.05199,0,0,0,85.89794,-36.14662,-72.65944,-10.65206,-111.0334,-35.10307,0.001067912,-0.1257102,0.09433498,0,0.3,0,0,0,0,
6.38223E+17,42.64353,34.76339,7.261,36.77529,6.127995,-25.55635,-4.570632,-0.4441859,0.1400836,-35.22471,-8.447793,45.05199,0,0,0,85.62974,-32.89596,-75.37023,-10.65206,-111.0334,-35.10307,0.001067912,-0.1257102,0.09433498,0,0.3,0,0,0,0,
6.38223E+17,43.18541,35.44136,7.261,36.6288,5.542034,-25.48311,-4.570632,-0.4441859,0.1400836,-35.22471,-8.447793,45.05199,0,0,0,85.88431,-31.60505,-76.84582,-10.65206,-111.0334,-35.10307,0.001067912,-0.1257102,0.09433498,0,0.3,0,0,0,0,
6.38223E+17,44.59901,36.16608,6.934138,36.99502,4.809582,-25.40986,-4.570632,-0.4441859,0.1400836,-35.22471,-8.447793,45.05199,0,0,0,86.89264,-30.33108,-80.23251,-10.65206,-111.0334,-35.10307,0.001067912,-0.1257102,0.09433498,0,0.3,0,0,0,0,
6.38223E+17,47.23772,36.47,6.163678,38.31343,4.736337,-25.26337,-4.570632,-0.4441859,0.1400836,-35.22471,-8.447793,45.05199,0,0,0,89.24179,-29.96566,-85.82027,-10.65206,-111.0334,-35.10307,0.001067912,-0.1257102,0.09433498,0,0.3,0,0,0,0,
6.38223E+17,48.62776,36.49338,5.696733,39.19238,5.029318,-25.33662,-4.570632,-0.4441859,0.1400836,-35.22471,-8.447793,45.05199,0,0,0,90.38211,-30.03419,-88.74525,-10.65206,-111.0334,-35.10307,0.001067912,-0.1257102,0.09433498,0,0.3,0,0,0,0,
6.38223E+17,50.65392,36.49338,4.832884,40.80377,5.76177,-25.26337,-4.570632,-0.4441859,0.1400836,-35.22471,-8.521038,45.05199,0,0,0,91.59187,-30.21867,-93.25983,-10.65206,-111.0334,-35.10307,0.001067912,-0.1257102,0.09433498,0,0.3,0,0,0,0,
6.38223E+17,52.35023,36.49338,3.642174,42.26867,6.567466,-25.26337,-4.570632,-0.4441859,0.1400836,-35.22471,-8.447793,45.05199,0,0,0,91.58642,-30.42344,-97.69215,-10.65206,-111.0334,-35.10307,0.001067912,-0.1257102,0.09433498,0,0.3,0,0,0,0,
6.38223E+17,54.04655,36.44662,1.79774,43.29411,7.226673,-25.33662,-4.570632,-0.4441859,0.1400836,-35.22471,-8.447793,45.05199,0,0,0,90.21938,-30.71465,-102.9137,-10.65206,-111.0334,-35.10307,0.001067912,-0.1257102,0.09433498,0,0.3,0,0,0,0,
6.38223E+17,55.13031,36.30635,0.5369871,43.73357,7.666144,-25.26337,-4.570632,-0.4441859,0.1400836,-35.22471,-8.447793,45.05199,0,0,0,89.19287,-31.03728,-106.1983,-10.65206,-111.0334,-35.10307,0.001067912,-0.1257102,0.09433498,0,0.3,0,0,0,0,
6.38223E+17,55.29523,36.18946,-0.1867781,43.95331,7.959125,-25.26337,-4.570632,-0.4441859,0.1400836,-35.22471,-8.447793,45.05199,0,0,0,88.11884,-31.26183,-107.3228,-10.65206,-111.0334,-35.10307,0.001067912,-0.1257102,0.09433498,0,0.3,0,0,0,0,
6.38223E+17,55.27167,36.1427,-2.264685,43.58709,8.764822,-24.38443,-4.570632,-0.4441859,0.1400836,-35.15147,-8.447793,45.05199,0,0,0,84.17303,-31.24623,-110.0042,-10.65206,-111.0334,-35.10307,0.001067912,-0.1257102,0.09433498,0,0.3,0,0,0,0,
6.38223E+17,55.27167,36.09594,-3.922341,41.97569,9.717009,-22.33356,-4.570632,-0.4441859,0.1400836,-35.22471,-8.521038,45.05199,0,0,0,81.05972,-31.12594,-112.1623,-10.65206,-111.0334,-35.10307,0.001067912,-0.1257102,0.09433498,0,0.3,0,0,0,0,
6.38223E+17,55.27167,36.07257,-4.155813,41.68271,9.8635,-21.52787,-4.570632,-0.4441859,0.1400836,-35.22471,-8.447793,45.05199,0,0,0,80.64058,-31.13164,-112.4528,-10.65206,-111.0334,-35.10307,0.001067912,-0.1257102,0.09433498,0,0.3,0,0,0,0,
6.38223E+17,55.27167,36.04919,-4.739495,41.31649,10.22972,-20.06297,-4.570632,-0.4441859,0.1400836,-35.22471,-8.447793,45.05199,0,0,0,79.5538,-31.07028,-113.2061,-10.65206,-111.0334,-35.10307,0.001067912,-0.1257102,0.09433498,0,0.3,0,0,0,0,
6.38223E+17,55.27167,35.9323,-5.229787,41.24324,10.52271,-19.18402,-4.570632,-0.4441859,0.1400836,-35.22471,-8.447793,45.05199,0,0,0,78.75091,-31.19125,-113.7626,-10.65206,-111.0334,-35.10307,0.001067912,-0.1257102,0.09433498,0,0.3,0,0,0,0,
6.38223E+17,55.27167,35.53487,-5.650038,41.38973,10.96218,-18.52482,-4.570632,-0.4441859,0.1400836,-35.22471,-8.447793,45.05199,0,0,0,78.39465,-31.84937,-114.0096,-10.65206,-111.0334,-35.10307,0.001067912,-0.1257102,0.09433498,0,0.3,0,0,0,0,
6.38223E+17,55.27167,35.37122,-5.766775,41.53622,11.25516,-18.30508,-4.570632,-0.4441859,0.1400836,-35.22471,-8.447793,45.05199,0,0,0,78.35403,-32.1326,-114.0378,-10.65206,-111.0334,-35.10307,0.001067912,-0.1257102,0.09433498,0,0.3,0,0,0,0,
6.38223E+17,55.22455,35.27771,-5.556649,41.68271,11.54814,-18.23184,-4.570632,-0.4441859,0.1400836,-35.22471,-8.447793,45.05199,0,0,0,78.81244,-32.35841,-113.624,-10.65206,-111.0334,-35.10307,0.001067912,-0.1257102,0.09433498,0,0.3,0,0,0,0,
6.38223E+17,55.15387,35.32447,-4.412633,42.26867,11.76787,-18.15859,-4.570632,-0.4441859,0.1400836,-35.22471,-8.447793,45.05199,0,0,0,80.87011,-32.50095,-112.0472,-10.65206,-111.0334,-35.10307,0.001067912,-0.1257102,0.09433498,0,0.3,0,0,0,0,
6.38223E+17,54.72979,35.81541,-2.194643,43.14762,11.98761,-18.23184,-4.570632,-0.4441859,0.1400836,-35.15147,-8.447793,45.05199,0,0,0,84.11582,-31.869,-108.8583,-10.65206,-111.0334,-35.10307,0.001067912,-0.1257102,0.09433498,0,0.3,0,0,0,0,
6.38223E+17,54.07011,36.75054,1.377489,44.39278,12.64682,-19.25727,-4.570632,-0.4441859,0.1400836,-35.15147,-8.447793,45.05199,0,0,0,89.11311,-30.17388,-103.772,-10.65206,-111.0334,-35.10307,0.001067912,-0.1257102,0.09433498,0,0.3,0,0,0,0,
6.38223E+17,53.43399,37.47526,4.085772,45.63795,13.01304,-20.79542,-4.570632,-0.4441859,0.1400836,-35.22471,-8.447793,45.05199,0,0,0,92.62961,-28.52844,-99.64241,-10.65206,-111.0334,-35.10307,0.001067912,-0.1257102,0.09433498,0,0.3,0,0,0,0,
6.38223E+17,51.94971,39.34552,9.315559,48.20153,13.89198,-24.8239,-4.570632,-0.4441859,0.1400836,-35.22471,-8.447793,45.05199,0,0,0,98.20545,-23.69806,-91.4846,-10.65206,-111.0334,-35.10307,0.001067912,-0.1257102,0.09433498,0,0.3,0,0,0,0,
6.38223E+17,49.09896,43.15617,17.13689,51.79055,14.25821,-31.48921,-4.570632,-0.4441859,0.1400836,-35.22471,-8.447793,45.05199,0,0,0,103.2254,-12.86977,-78.93009,-10.65206,-111.0334,-35.10307,0.001067912,-0.1257102,0.09433498,0,0.3,0,0,0,0,
6.38223E+17,47.21416,45.40047,20.38216,52.96247,13.81874,-34.27253,-4.570632,-0.4441859,0.1400836,-35.22471,-8.447793,45.05199,0,0,0,102.8004,-6.701576,-73.203,-10.65206,-111.0334,-35.10307,0.001067912,-0.1257102,0.09433498,0,0.3,0,0,0,0,
6.38223E+17,44.24561,47.85518,24.42124,53.1822,12.64682,-37.34882,-4.570632,-0.4441859,0.1400836,-35.22471,-8.447793,45.05199,0,0,0,100.9004,0.8032795,-64.75694,-10.65206,-111.0334,-35.10307,0.001067912,-0.1257102,0.09433498,0,0.3,0,0,0,0,
6.38223E+17,41.51265,48.50977,27.89998,52.23001,11.76787,-39.2532,-4.570632,-0.4441859,0.1400836,-35.22471,-8.447793,45.05199,0,0,0,99.90943,5.388147,-55.47316,-10.65206,-111.0334,-35.10307,0.001067912,-0.1257102,0.09433498,0,0.3,0,0,0,0,
6.38223E+17,38.96818,47.66816,30.58492,50.76511,12.28059,-40.49837,-4.570632,-0.4441859,0.1400836,-35.22471,-8.447793,45.05199,0,0,0,99.14523,7.132099,-45.7767,-10.65206,-111.0334,-35.10307,0.001067912,-0.1257102,0.09433498,0,0.3,0,0,0,0,
6.38223E+17,37.20118,46.56938,31.44877,49.15372,13.45251,-41.30406,-4.570632,-0.4441859,0.1400836,-35.22471,-8.447793,45.05199,0,0,0,97.49326,6.427931,-39.91285,-10.65206,-111.0334,-35.10307,0.001067912,-0.1257102,0.09433498,0,0.3,0,0,0,0,
6.38223E+17,36.23522,45.77452,31.51881,47.9818,14.4047,-41.89003,-4.570632,-0.4441859,0.1400836,-35.22471,-8.521038,45.05199,0,0,0,96.18522,5.231992,-37.09893,-10.65206,-111.0334,-35.10307,0.001067912,-0.1257102,0.09433498,0,0.3,0,0,0,0,
6.38223E+17,34.63314,44.04454,31.23864,45.19848,16.74854,-42.91546,-4.570632,-0.4441859,0.1400836,-35.22471,-8.447793,45.05199,0,0,0,93.77717,2.041015,-32.58035,-10.65206,-111.0334,-35.10307,0.001067912,-0.1257102,0.09433498,0,0.3,0,0,0,0,
6.38223E+17,33.3609,42.01063,29.97789,42.26867,19.31213,-43.42817,-4.570632,-0.4441859,0.1400836,-35.22471,-8.447793,45.05199,0,0,0,91.12698,-2.913257,-29.94328,-10.65206,-111.0334,-35.10307,0.001067912,-0.1257102,0.09433498,0,0.3,0,0,0,0,
6.38223E+17,32.18291,39.60268,27.97002,39.33887,22.16869,-43.42817,-4.570632,-0.4441859,0.1400836,-35.22471,-8.447793,45.05199,0,0,0,88.03547,-9.41851,-28.45951,-10.65206,-111.0334,-35.10307,0.001067912,-0.1257102,0.09433498,0,0.3,0,0,0,0,
6.38223E+17,31.33475,37.05445,25.40182,36.84853,25.09849,-42.47599,-4.570632,-0.4441859,0.1400836,-35.15147,-8.447793,45.12524,0,0,0,85.09061,-16.75473,-28.59155,-10.65206,-111.0334,-35.10307,0.001067912,-0.1257102,0.09433498,0,0.3,0,0,0,0,
6.38223E+17,30.72219,34.29583,22.50677,35.16389,27.95506,-40.79135,-4.570632,-0.4441859,0.1400836,-35.22471,-8.447793,45.12524,0,0,0,82.35884,-24.70514,-29.76418,-10.65206,-111.0334,-35.10307,0.001067912,-0.1257102,0.09433498,0,0.3,0,0,0,0,
6.38223E+17,30.41591,32.72948,20.80241,34.50468,29.20022,-39.76591,-4.570632,-0.4441859,0.1400836,-35.15147,-8.447793,45.05199,0,0,0,80.76939,-29.20823,-30.76946,-10.65206,-111.0334,-35.10307,0.001067912,-0.1257102,0.09433498,0,0.3,0,0,0,0,
6.38223E+17,29.89759,29.57343,17.46376,33.40601,31.32433,-37.93478,-4.570632,-0.4441859,0.1400836,-35.22471,-8.447793,45.05199,0,0,0,77.75658,-38.04013,-33.11401,-10.65206,-111.0334,-35.10307,0.001067912,-0.1257102,0.09433498,0,0.3,0,0,0,0,
6.38223E+17,29.49707,26.04332,13.98501,32.45382,33.3752,-36.61637,-4.570632,-0.4441859,0.1400836,-35.22471,-8.447793,45.05199,0,0,0,74.85954,-47.49998,-36.02043,-10.65206,-111.0334,-35.10307,0.001067912,-0.1257102,0.09433498,0,0.3,0,0,0,0,
6.38223E+17,29.09655,22.16254,10.36619,31.86786,35.20633,-35.81068,-4.570632,-0.4441859,0.1400836,-35.22471,-8.447793,45.12524,0,0,0,71.72311,-57.51911,-39.47076,-10.65206,-111.0334,-35.10307,0.001067912,-0.1257102,0.09433498,0,0.3,0,0,0,0,
6.38223E+17,28.74315,20.29228,8.755224,31.64813,36.01203,-35.07822,-4.570632,-0.4441859,0.1400836,-35.22471,-8.447793,45.05199,0,0,0,69.90678,-62.19914,-40.89066,-10.65206,-111.0334,-35.10307,0.001067912,-0.1257102,0.09433498,0,0.3,0,0,0,0,
6.38223E+17,27.16464,16.64528,6.046942,31.35514,37.62342,-32.80762,-4.570632,-0.4441859,0.1400836,-35.22471,-8.447793,45.05199,0,0,0,64.74305,-71.0605,-42.18216,-10.65206,-111.0334,-35.10307,0.001067912,-0.1257102,0.09433498,0,0.3,0,0,0,0,
6.38223E+17,24.33744,14.70489,3.712215,30.40295,39.16157,-30.1708,-4.570632,-0.4441859,0.1400836,-35.22471,-8.447793,45.05199,0,0,0,56.71291,-75.87058,-42.96334,-10.65206,-111.0334,-35.10307,0.001067912,-0.1257102,0.09433498,0,0.3,0,0,0,0,
6.38223E+17,19.90817,14.33084,1.02728,27.69288,40.33349,-28.11993,-4.570632,-0.4441859,0.1400836,-35.22471,-8.447793,45.05199,0,0,0,44.80861,-76.9717,-44.62268,-10.65206,-111.0334,-35.10307,0.001067912,-0.1257102,0.09433498,0,0.3,0,0,0,0,
6.38223E+17,14.1831,14.37759,-0.6537234,23.22493,40.99269,-27.24099,-4.570632,-0.4441859,0.1400836,-35.22471,-8.447793,45.05199,0,0,0,31.27749,-76.87904,-44.58905,-10.65206,-111.0334,-35.10307,0.001067912,-0.1257102,0.09433498,0,0.3,0,0,0,0,
6.38223E+17,8.481586,14.54124,-0.9572379,18.02452,41.35892,-26.80152,-4.570632,-0.4441859,0.1400836,-35.22471,-8.521038,45.05199,0,0,0,18.7094,-76.5003,-42.88667,-10.65206,-111.0334,-35.10307,0.001067912,-0.1257102,0.09433498,0,0.3,0,0,0,0,
6.38223E+17,3.039235,15.00881,-0.8638488,12.16491,41.57866,-26.72828,-4.570632,-0.4441859,0.1400836,-35.22471,-8.447793,45.05199,0,0,0,6.722403,-75.45153,-41.73788,-10.65206,-111.0334,-35.10307,0.001067912,-0.1257102,0.09433498,0,0.3,0,0,0,0,
6.38223E+17,-4.358593,16.06083,-0.09338906,2.057076,41.21243,-28.33967,-4.570632,-0.4441859,0.1400836,-35.22471,-8.521038,45.05199,0,0,0,-9.722314,-73.10752,-40.79218,-10.65206,-111.0334,-35.10307,0.001067912,-0.1257102,0.09433498,0,0.3,0,0,0,0,
6.38223E+17,-11.02606,17.27649,1.70435,-8.929699,39.45455,-31.41597,-4.570632,-0.4441859,0.1400836,-35.15147,-8.447793,45.05199,0,0,0,-25.11179,-70.33831,-39.47403,-10.65206,-111.0334,-35.10307,0.001067912,-0.1257102,0.09433498,0,0.3,0,0,0,0,
6.38223E+17,-16.49197,18.63243,3.151881,-19.91648,36.59798,-35.07822,-4.570632,-0.4441859,0.1400836,-35.22471,-8.521038,45.05199,0,0,0,-37.95285,-67.19353,-40.15738,-10.65206,-111.0334,-35.10307,0.001067912,-0.1257102,0.09433498,0,0.3,0,0,0,0,
6.38223E+17,-19.41341,20.0585,3.712215,-28.04669,33.96116,-39.83916,-4.570632,-0.4441859,0.1400836,-35.22471,-8.447793,45.05199,0,0,0,-44.50431,-63.98391,-42.06749,-10.65206,-111.0334,-35.10307,0.001067912,-0.1257102,0.09433498,0,0.3,0,0,0,0,
6.38223E+17,-20.21445,20.99363,3.735562,-31.6357,32.49626,-42.3295,-4.570632,-0.4441859,0.1400836,-35.22471,-8.447793,45.05199,0,0,0,-46.02048,-61.94217,-43.36724,-10.65206,-111.0334,-35.10307,0.001067912,-0.1257102,0.09433498,0,0.3,0,0,0,0,
6.38223E+17,-20.42649,22.91064,3.151881,-35.81068,30.00592,-45.84526,-4.570632,-0.4441859,0.1400836,-35.22471,-8.447793,45.05199,0,0,0,-45.42737,-57.88579,-46.3721,-10.65206,-111.0334,-35.10307,0.001067912,-0.1257102,0.09433498,0,0.3,0,0,0,0,
6.38223E+17,-20.42649,24.61725,2.358074,-37.05584,28.39453,-47.6764,-4.570632,-0.4441859,0.1400836,-35.22471,-8.447793,45.05199,0,0,0,-44.22474,-54.33954,-49.6013,-10.65206,-111.0334,-35.10307,0.001067912,-0.1257102,0.09433498,0,0.3,0,0,0,0,
6.38223E+17,-20.42649,26.90831,1.891129,-36.90935,27.58883,-48.48209,-4.570632,-0.4441859,0.1400836,-35.22471,-8.447793,45.05199,0,0,0,-43.03691,-49.57795,-52.79078,-10.65206,-111.0334,-35.10307,0.001067912,-0.1257102,0.09433498,0,0.3,0,0,0,0,
6.38223E+17,-20.42649,29.85397,1.564267,-36.1769,26.70989,-48.55533,-4.570632,-0.4441859,0.1400836,-35.22471,-8.447793,45.05199,0,0,0,-41.63433,-43.56987,-56.55687,-10.65206,-111.0334,-35.10307,0.001067912,-0.1257102,0.09433498,0,0.3,0,0,0,0,
6.38223E+17,-20.42649,33.85164,1.610961,-34.712,25.02525,-48.62858,-4.570632,-0.4441859,0.1400836,-35.22471,-8.521038,45.05199,0,0,0,-39.95892,-35.66544,-61.05555,-10.65206,-111.0334,-35.10307,0.001067912,-0.1257102,0.09433498,0,0.3,0,0,0,0,
6.38223E+17,-20.37937,37.59215,2.101254,-33.17385,22.90114,-48.70182,-4.570632,-0.4441859,0.1400836,-35.22471,-8.521038,45.05199,0,0,0,-38.49813,-28.56195,-64.71743,-10.65206,-111.0334,-35.10307,0.001067912,-0.1257102,0.09433498,0,0.3,0,0,0,0,
6.38223E+17,-20.30869,40.60794,2.754977,-32.00193,20.99677,-48.84832,-4.570632,-0.4441859,0.1400836,-35.15147,-8.447793,45.05199,0,0,0,-37.36163,-23.05111,-67.39543,-10.65206,-111.0334,-35.10307,0.001067912,-0.1257102,0.09433498,0,0.3,0,0,0,0,
6.38223E+17,-20.30869,42.43144,3.198575,-31.19623,19.82484,-48.92156,-4.570632,-0.4441859,0.1400836,-35.22471,-8.447793,45.05199,0,0,0,-36.7431,-19.82002,-69.06675,-10.65206,-111.0334,-35.10307,0.001067912,-0.1257102,0.09433498,0,0.3,0,0,0,0,
6.38223E+17,-20.30869,45.84466,4.319244,-29.73133,17.11477,-49.36103,-4.570632,-0.4441859,0.1400836,-35.22471,-8.447793,45.05199,0,0,0,-35.72663,-13.94881,-71.81335,-10.65206,-111.0334,-35.10307,0.001067912,-0.1257102,0.09433498,0,0.3,0,0,0,0,
6.38223E+17,-20.33225,50.54368,6.443846,-27.75371,12.79331,-50.09349,-4.570632,-0.4441859,0.1400836,-35.22471,-8.447793,45.05199,0,0,0,-34.64501,-6.196773,-74.85412,-10.65206,-111.0334,-35.10307,0.001067912,-0.1257102,0.09433498,0,0.3,0,0,0,0,
6.38223E+17,-20.45005,52.3438,7.401083,-27.16775,11.10867,-50.16673,-4.570632,-0.4441859,0.1400836,-35.22471,-8.447793,45.12524,0,0,0,-34.46523,-3.317063,-75.92297,-10.65206,-111.0334,-35.10307,0.001067912,-0.1257102,0.09433498,0,0.3,0,0,0,0,
6.38223E+17,-21.03905,55.49986,9.549031,-26.4353,8.03237,-50.23997,-4.570632,-0.4441859,0.1400836,-35.15147,-8.447793,45.05199,0,0,0,-35.05753,1.744733,-77.2077,-10.65206,-111.0334,-35.10307,0.001067912,-0.1257102,0.09433498,0,0.3,0,0,0,0,
6.38223E+17,-22.54688,58.42213,12.23397,-26.50854,4.809582,-50.23997,-4.570632,-0.4441859,0.1400836,-35.22471,-8.521038,45.05199,0,0,0,-37.61044,6.633085,-77.7601,-10.65206,-111.0334,-35.10307,0.001067912,-0.1257102,0.09433498,0,0.3,0,0,0,0,
6.38223E+17,-25.70392,61.92886,16.52986,-28.41291,0.6346079,-50.23997,-4.570632,-0.4441859,0.1400836,-35.22471,-8.447793,45.05199,0,0,0,-43.67145,13.17439,-77.62331,-10.65206,-111.0334,-35.10307,0.001067912,-0.1257102,0.09433498,0,0.3,0,0,0,0,
6.38223E+17,-27.80075,64.0329,19.82183,-31.04974,-2.075463,-50.23997,-4.570632,-0.4441859,0.1400836,-35.15147,-8.447793,45.05199,0,0,0,-48.32188,17.7885,-76.70233,-10.65206,-111.0334,-35.10307,0.001067912,-0.1257102,0.09433498,0,0.3,0,0,0,0,
6.38223E+17,-30.60439,66.44086,24.72475,-36.1769,-5.884212,-49.94699,-4.570632,-0.4441859,0.1400836,-35.22471,-8.447793,45.12524,0,0,0,-55.53053,24.45953,-74.46941,-10.65206,-111.0334,-35.10307,0.001067912,-0.1257102,0.09433498,0,0.3,0,0,0,0,
6.38223E+17,-31.85307,67.30585,27.22291,-39.32644,-7.642097,-49.43428,-4.570632,-0.4441859,0.1400836,-35.22471,-8.447793,45.12524,0,0,0,-59.34438,27.79642,-72.83496,-10.65206,-111.0334,-35.10307,0.001067912,-0.1257102,0.09433498,0,0.3,0,0,0,0,
6.38223E+17,-35.08078,67.98382,33.66676,-50.31322,-12.03681,-46.50447,-4.570632,-0.4441859,0.1400836,-35.22471,-8.447793,45.05199,0,0,0,-71.21652,35.99186,-66.94685,-10.65206,-111.0334,-35.10307,0.001067912,-0.1257102,0.09433498,0,0.3,0,0,0,0,
6.38223E+17,-35.85826,67.84354,35.4178,-53.75574,-12.76926,-45.40579,-4.570632,-0.4441859,0.1400836,-35.22471,-8.447793,45.05199,0,0,0,-74.72947,38.17981,-64.95679,-10.65206,-111.0334,-35.10307,0.001067912,-0.1257102,0.09433498,0,0.3,0,0,0,0,
6.38223E+17,-37.22474,67.18896,38.14943,-60.56754,-13.72145,-43.86765,-4.570632,-0.4441859,0.1400836,-35.22471,-8.447793,45.05199,0,0,0,-81.10539,41.40373,-61.59334,-10.65206,-111.0334,-35.10307,0.001067912,-0.1257102,0.09433498,0,0.3,0,0,0,0,
6.38223E+17,-38.28493,66.0668,39.83044,-66.35391,-13.6482,-43.28168,-4.570632,-0.4441859,0.1400836,-35.22471,-8.447793,45.05199,0,0,0,-86.43615,42.82919,-58.84367,-10.65206,-111.0334,-35.10307,0.001067912,-0.1257102,0.09433498,0,0.3,0,0,0,0,
6.38223E+17,-39.39226,64.31344,41.23127,-72.57975,-12.40303,-44.96632,-4.570632,-0.4441859,0.1400836,-35.22471,-8.521038,45.05199,0,0,0,-92.45946,43.23561,-55.75698,-10.65206,-111.0334,-35.10307,0.001067912,-0.1257102,0.09433498,0,0.3,0,0,0,0,
6.38223E+17,-39.9577,63.26142,41.55813,-75.43631,-11.59733,-46.79745,-4.570632,-0.4441859,0.1400836,-35.22471,-8.447793,45.05199,0,0,0,-95.34333,42.65716,-54.55371,-10.65206,-111.0334,-35.10307,0.001067912,-0.1257102,0.09433498,0,0.3,0,0,0,0,
6.38223E+17,-40.71161,61.41454,41.62818,-79.17181,-9.766206,-50.6062,-4.570632,-0.4441859,0.1400836,-35.22471,-8.447793,45.05199,0,0,0,-99.39501,40.7699,-52.84,-10.65206,-111.0334,-35.10307,0.001067912,-0.1257102,0.09433498,0,0.3,0,0,0,0,
6.38223E+17,-41.79537,58.84294,41.55813,-82.32136,-7.495606,-55.73336,-4.570632,-0.4441859,0.1400836,-35.22471,-8.447793,45.12524,0,0,0,-104.9394,37.68102,-50.96254,-10.65206,-111.0334,-35.10307,0.001067912,-0.1257102,0.09433498,0,0.3,0,0,0,0,
6.38223E+17,-42.97337,55.54661,41.09119,-85.61739,-5.00527,-61.59297,-4.570632,-0.4441859,0.1400836,-35.22471,-8.447793,45.05199,0,0,0,-111.1692,32.80748,-49.02449,-10.65206,-111.0334,-35.10307,0.001067912,-0.1257102,0.09433498,0,0.3,0,0,0,0,
6.38223E+17,-44.05713,51.54894,40.41412,-88.62045,-2.295199,-67.01311,-4.570632,-0.4441859,0.1400836,-35.22471,-8.447793,45.05199,0,0,0,-117.7792,26.25183,-46.62922,-10.65206,-111.0334,-35.10307,0.001067912,-0.1257102,0.09433498,0,0.3,0,0,0,0,
6.38223E+17,-44.90529,47.80843,39.85378,-90.74455,-0.02459868,-71.1881,-4.570632,-0.4441859,0.1400836,-35.15147,-8.447793,45.05199,0,0,0,-123.549,19.77903,-44.39189,-10.65206,-111.0334,-35.10307,0.001067912,-0.1257102,0.09433498,0,0.3,0,0,0,0,
6.38223E+17,-45.37648,45.63425,39.62031,-91.69674,1.367059,-73.60519,-4.570632,-0.4441859,0.1400836,-35.22471,-8.447793,45.12524,0,0,0,-126.8886,15.96289,-43.11804,-10.65206,-111.0334,-35.10307,0.001067912,-0.1257102,0.09433498,0,0.3,0,0,0,0,
6.38223E+17,-46.08328,41.30928,39.34014,-93.38138,4.150376,-78.07314,-4.570632,-0.4441859,0.1400836,-35.15147,-8.447793,45.12524,0,0,0,-133.0487,8.245065,-40.23956,-10.65206,-111.0334,-35.10307,0.001067912,-0.1257102,0.09433498,0,0.3,0,0,0,0,
6.38223E+17,-46.74296,37.24148,39.05998,-95.13927,6.933692,-82.98056,-4.570632,-0.4441859,0.1400836,-35.22471,-8.447793,45.05199,0,0,0,-138.5108,0.5056511,-38.01997,-10.65206,-111.0334,-35.10307,0.001067912,-0.1257102,0.09433498,0,0.3,0,0,0,0,
6.38223E+17,-47.40264,33.29056,38.8265,-96.67741,9.497273,-88.40071,-4.570632,-0.4441859,0.1400836,-35.22471,-8.447793,45.12524,0,0,0,-143.5985,-7.342225,-36.31663,-10.65206,-111.0334,-35.10307,0.001067912,-0.1257102,0.09433498,0,0.3,0,0,0,0,
6.38223E+17,-48.0152,29.22275,38.80315,-98.14231,11.69463,-94.11383,-4.570632,-0.4441859,0.1400836,-35.22471,-8.447793,45.05199,0,0,0,-148.6211,-15.46781,-34.60234,-10.65206,-111.0334,-35.10307,0.001067912,-0.1257102,0.09433498,0,0.3,0,0,0,0,
6.38223E+17,-48.67488,24.10293,38.80315,-99.60722,14.25821,-100.9256,-4.570632,-0.4441859,0.1400836,-35.22471,-8.447793,45.05199,0,0,0,-154.1653,-26.11303,-32.79263,-10.65206,-111.0334,-35.10307,0.001067912,-0.1257102,0.09433498,0,0.3,0,0,0,0,
6.38223E+17,-49.09896,21.017,38.8265,-100.3397,15.94285,-104.4414,-4.570632,-0.4441859,0.1400836,-35.22471,-8.447793,45.05199,0,0,0,-157.2789,-32.71074,-32.10576,-10.65206,-111.0334,-35.10307,0.001067912,-0.1257102,0.09433498,0,0.3,0,0,0,0,
6.38223E+17,-49.33456,18.9831,38.8265,-100.8524,16.89503,-107.3712,-4.570632,-0.4441859,0.1400836,-35.15147,-8.447793,45.05199,0,0,0,-159.0658,-37.15873,-31.69868,-10.65206,-111.0334,-35.10307,0.001067912,-0.1257102,0.09433498,0,0.3,0,0,0,0,
6.38223E+17,-49.49948,14.86854,38.80315,-101.4383,19.01915,-111.3264,-4.570632,-0.4441859,0.1400836,-35.15147,-8.447793,45.05199,0,0,0,-161.5458,-46.35223,-30.37433,-10.65206,-111.0334,-35.10307,0.001067912,-0.1257102,0.09433498,0,0.3,0,0,0,0,
6.38223E+17,-49.49948,9.818846,38.80315,-100.5594,22.0222,-112.4251,-4.570632,-0.4441859,0.1400836,-35.15147,-8.447793,45.05199,0,0,0,-163.4556,-57.82946,-28.74315,-10.65206,-111.0334,-35.10307,0.001067912,-0.1257102,0.09433498,0,0.3,0,0,0,0,
6.38223E+17,-49.45236,8.603179,38.73312,-100.1199,22.90114,-112.4251,-4.570632,-0.4441859,0.1400836,-35.22471,-8.447793,45.05199,0,0,0,-163.5883,-60.72434,-28.39699,-10.65206,-111.0334,-35.10307,0.001067912,-0.1257102,0.09433498,0,0.3,0,0,0,0,
6.38223E+17,-49.02828,6.592653,38.0327,-99.02126,24.43929,-112.1321,-4.570632,-0.4441859,0.1400836,-35.22471,-8.447793,45.05199,0,0,0,-162.0502,-66.37448,-27.62222,-10.65206,-111.0334,-35.10307,0.001067912,-0.1257102,0.09433498,0,0.3,0,0,0,0,
6.38223E+17,-48.32148,5.07307,36.86533,-97.19013,25.90419,-109.6418,-4.570632,-0.4441859,0.1400836,-35.22471,-8.447793,45.05199,0,0,0,-158.9594,-71.54475,-26.82918,-10.65206,-111.0334,-35.10307,0.001067912,-0.1257102,0.09433498,0,0.3,0,0,0,0,
6.38223E+17,-47.33196,3.974295,35.58123,-94.33356,27.44234,-104.8076,-4.570632,-0.4441859,0.1400836,-35.22471,-8.447793,45.05199,0,0,0,-154.8673,-75.86006,-25.60244,-10.65206,-111.0334,-35.10307,0.001067912,-0.1257102,0.09433498,0,0.3,0,0,0,0,
6.38223E+17,-46.79008,3.647,34.76408,-92.72218,27.95506,-102.0243,-4.570632,-0.4441859,0.1400836,-35.22471,-8.447793,45.05199,0,0,0,-152.4142,-77.71565,-25.1739,-10.65206,-111.0334,-35.10307,0.001067912,-0.1257102,0.09433498,0,0.3,0,0,0,0,
6.38223E+17,-45.94193,3.366461,32.98969,-89.79237,28.54102,-97.26337,-4.570632,-0.4441859,0.1400836,-35.22471,-8.447793,45.05199,0,0,0,-147.843,-80.66921,-25.28983,-10.65206,-111.0334,-35.10307,0.001067912,-0.1257102,0.09433498,0,0.3,0,0,0,0,
6.38223E+17,-44.92884,3.296327,30.37479,-85.91037,28.98049,-90.59806,-4.570632,-0.4441859,0.1400836,-35.22471,-8.447793,45.05199,0,0,0,-141.64,-84.02824,-26.35781,-10.65206,-111.0334,-35.10307,0.001067912,-0.1257102,0.09433498,0,0.3,0,0,0,0,
6.38223E+17,-43.63305,3.600243,26.70927,-80.19725,29.34671,-81.29592,-4.570632,-0.4441859,0.1400836,-35.22471,-8.447793,45.05199,0,0,0,-133.1929,-87.3977,-28.64512,-10.65206,-111.0334,-35.10307,0.001067912,-0.1257102,0.09433498,0,0.3,0,0,0,0,
6.38223E+17,-42.64353,4.605506,23.5107,-75.36307,29.41996,-74.04465,-4.570632,-0.4441859,0.1400836,-35.22471,-8.447793,45.05199,0,0,0,-126.0811,-88.22273,-31.4467,-10.65206,-111.0334,-35.10307,0.001067912,-0.1257102,0.09433498,0,0.3,0,0,0,0,
6.38223E+17,-42.14877,5.564013,21.75965,-72.79948,29.12698,-70.01617,-4.570632,-0.4441859,0.1400836,-35.22471,-8.447793,45.05199,0,0,0,-122.2375,-87.56911,-33.29834,-10.65206,-111.0334,-35.10307,0.001067912,-0.1257102,0.09433498,0,0.3,0,0,0,0,
6.38223E+17,-41.30061,8.042102,18.79455,-68.03855,28.0283,-62.7649,-4.570632,-0.4441859,0.1400836,-35.22471,-8.447793,45.05199,0,0,0,-115.5022,-84.234,-36.87949,-10.65206,-111.0334,-35.10307,0.001067912,-0.1257102,0.09433498,0,0.3,0,0,0,0,
6.38223E+17,-39.60429,12.36707,15.54928,-61.59297,24.65902,-51.92461,-4.570632,-0.4441859,0.1400836,-35.22471,-8.447793,45.05199,0,0,0,-105.8235,-76.55933,-40.45086,-10.65206,-111.0334,-35.10307,0.001067912,-0.1257102,0.09433498,0,0.3,0,0,0,0,
6.38223E+17,-38.96818,13.72301,15.01229,-59.46887,23.26737,-48.18911,-4.570632,-0.4441859,0.1400836,-35.22471,-8.447793,45.05199,0,0,0,-103.1909,-73.81441,-40.77503,-10.65206,-111.0334,-35.10307,0.001067912,-0.1257102,0.09433498,0,0.3,0,0,0,0,
6.38223E+17,-37.79018,16.48163,14.54535,-55.22065,19.97133,-39.83916,-4.570632,-0.4441859,0.1400836,-35.15147,-8.447793,45.05199,0,0,0,-98.87749,-67.89356,-40.83278,-10.65206,-111.0334,-35.10307,0.001067912,-0.1257102,0.09433498,0,0.3,0,0,0,0,
6.38223E+17,-37.08338,18.86621,14.35857,-51.85137,16.82179,-32.4414,-4.570632,-0.4441859,0.1400836,-35.22471,-8.447793,45.05199,0,0,0,-96.02723,-62.71453,-41.30265,-10.65206,-111.0334,-35.10307,0.001067912,-0.1257102,0.09433498,0,0.3,0,0,0,0,
6.38223E+17,-36.44726,21.53132,13.86828,-48.62858,12.86655,-24.16469,-4.570632,-0.4441859,0.1400836,-35.22471,-8.447793,45.05199,0,0,0,-92.68114,-57.172,-42.8572,-10.65206,-111.0334,-35.10307,0.001067912,-0.1257102,0.09433498,0,0.3,0,0,0,0,
6.38223E+17,-36.11742,23.07429,13.6348,-46.72421,10.08323,-19.55025,-4.570632,-0.4441859,0.1400836,-35.22471,-8.447793,45.05199,0,0,0,-90.84279,-53.97883,-43.85297,-10.65206,-111.0334,-35.10307,0.001067912,-0.1257102,0.09433498,0,0.3,0,0,0,0,
6.38223E+17,-36.04674,24.89779,13.51807,-44.89308,6.860447,-14.49633,-4.570632,-0.4441859,0.1400836,-35.22471,-8.447793,45.05199,0,0,0,-89.51856,-50.16525,-45.3494,-10.65206,-111.0334,-35.10307,0.001067912,-0.1257102,0.09433498,0,0.3,0,0,0,0,
6.38223E+17,-36.04674,25.87967,13.40133,-44.16063,5.102563,-12.15249,-4.570632,-0.4441859,0.1400836,-35.22471,-8.447793,45.12524,0,0,0,-88.78652,-48.16399,-46.35525,-10.65206,-111.0334,-35.10307,0.001067912,-0.1257102,0.09433498,0,0.3,0,0,0,0,
6.38223E+17,-36.40014,28.17073,12.93439,-42.76897,0.6346079,-6.366118,-4.570632,-0.4441859,0.1400836,-35.22471,-8.447793,45.05199,0,0,0,-87.47165,-43.66191,-49.70694,-10.65206,-111.0334,-35.10307,0.001067912,-0.1257102,0.09433498,0,0.3,0,0,0,0,
6.38223E+17,-36.82422,28.75519,12.70091,-42.47599,-0.6838052,-4.461744,-4.570632,-0.4441859,0.1400836,-35.22471,-8.447793,45.05199,0,0,0,-87.64127,-42.58662,-51.30068,-10.65206,-111.0334,-35.10307,0.001067912,-0.1257102,0.09433498,0,0.3,0,0,0,0,
6.38223E+17,-38.1907,29.55005,11.9538,-42.76897,-2.88116,-1.605182,-4.570632,-0.4441859,0.1400836,-35.22471,-8.447793,45.12524,0,0,0,-88.80019,-41.34226,-55.46738,-10.65206,-111.0334,-35.10307,0.001067912,-0.1257102,0.09433498,0,0.3,0,0,0,0,
6.38223E+17,-40.00481,29.73707,11.01991,-44.01414,-4.199574,-0.0670338,-4.570632,-0.4441859,0.1400836,-35.22471,-8.447793,45.05199,0,0,0,-90.82155,-41.39679,-60.13156,-10.65206,-111.0334,-35.10307,0.001067912,-0.1257102,0.09433498,0,0.3,0,0,0,0,
6.38223E+17,-42.78489,29.73707,9.712462,-46.94394,-4.419309,0.8851534,-4.570632,-0.4441859,0.1400836,-35.22471,-8.447793,45.05199,0,0,0,-93.93038,-41.94432,-66.86074,-10.65206,-111.0334,-35.10307,0.001067912,-0.1257102,0.09433498,0,0.3,0,0,0,0,
6.38223E+17,-44.43409,29.73707,8.942002,-49.06805,-3.979838,0.6654179,-4.570632,-0.4441859,0.1400836,-35.15147,-8.447793,45.05199,0,0,0,-95.57356,-42.23494,-70.86958,-10.65206,-111.0334,-35.10307,0.001067912,-0.1257102,0.09433498,0,0.3,0,0,0,0,
6.38223E+17,-46.6016,29.73707,7.914723,-51.92461,-2.88116,-1.165711,-4.570632,-0.4441859,0.1400836,-35.22471,-8.447793,45.05199,0,0,0,-97.47359,-42.58537,-76.17897,-10.65206,-111.0334,-35.10307,0.001067912,-0.1257102,0.09433498,0,0.3,0,0,0,0,
6.38223E+17,-47.73248,29.73707,7.447778,-53.31627,-2.368444,-2.264389,-4.570632,-0.4441859,0.1400836,-35.22471,-8.447793,45.05199,0,0,0,-98.47672,-42.73063,-78.84508,-10.65206,-111.0334,-35.10307,0.001067912,-0.1257102,0.09433498,0,0.3,0,0,0,0,
6.38223E+17,-51.14867,29.73707,6.467193,-58.00396,-0.6838052,-5.413931,-4.570632,-0.4441859,0.1400836,-35.22471,-8.447793,45.05199,0,0,0,-101.871,-43.00708,-86.29328,-10.65206,-111.0334,-35.10307,0.001067912,-0.1257102,0.09433498,0,0.3,0,0,0,0,
6.38223E+17,-53.05703,29.73707,5.883511,-60.56754,0.04864649,-6.732344,-4.570632,-0.4441859,0.1400836,-35.22471,-8.447793,45.05199,0,0,0,-103.4676,-43.15321,-90.54292,-10.65206,-111.0334,-35.10307,0.001067912,-0.1257102,0.09433498,0,0.3,0,0,0,0,
6.38223E+17,-53.99943,29.73707,5.416566,-61.88596,0.4881175,-7.24506,-4.570632,-0.4441859,0.1400836,-35.22471,-8.447793,45.12524,0,0,0,-103.8584,-43.2602,-92.89088,-10.65206,-111.0334,-35.10307,0.001067912,-0.1257102,0.09433498,0,0.3,0,0,0,0,
6.38223E+17,-55.90779,29.73707,4.132466,-64.2298,1.293814,-7.904267,-4.570632,-0.4441859,0.1400836,-35.22471,-8.447793,45.05199,0,0,0,-103.8473,-43.50895,-98.06066,-10.65206,-111.0334,-35.10307,0.001067912,-0.1257102,0.09433498,0,0.3,0,0,0,0,
6.38223E+17,-57.43919,29.66694,2.614894,-65.98769,2.026266,-8.709964,-4.570632,-0.4441859,0.1400836,-35.22471,-8.447793,45.05199,0,0,0,-102.7853,-43.85858,-102.7151,-10.65206,-111.0334,-35.10307,0.001067912,-0.1257102,0.09433498,0,0.3,0,0,0,0,
6.38223E+17,-57.43919,29.78383,-0.2101254,-66.64689,2.831963,-9.36917,-4.570632,-0.4441859,0.1400836,-35.22471,-8.521038,45.05199,0,0,0,-97.13186,-43.76028,-106.3251,-10.65206,-111.0334,-35.10307,0.001067912,-0.1257102,0.09433498,0,0.3,0,0,0,0,
6.38223E+17,-57.43919,30.06437,-2.895061,-65.18199,3.78415,-9.442415,-4.570632,-0.4441859,0.1400836,-35.22471,-8.447793,45.12524,0,0,0,-91.59305,-43.02511,-109.862,-10.65206,-111.0334,-35.10307,0.001067912,-0.1257102,0.09433498,0,0.3,0,0,0,0,
6.38223E+17,-57.43919,30.48518,-4.902926,-63.05788,4.809582,-9.22268,-4.570632,-0.4441859,0.1400836,-35.15147,-8.447793,45.05199,0,0,0,-87.24763,-41.86155,-112.6368,-10.65206,-111.0334,-35.10307,0.001067912,-0.1257102,0.09433498,0,0.3,0,0,0,0,
6.38223E+17,-57.43919,30.95274,-6.91079,-60.20132,5.981505,-8.856454,-4.570632,-0.4441859,0.1400836,-35.22471,-8.447793,45.05199,0,0,0,-82.86166,-40.44515,-115.4376,-10.65206,-111.0334,-35.10307,0.001067912,-0.1257102,0.09433498,0,0.3,0,0,0,0,
6.38223E+17,-57.41562,31.09301,-7.634556,-59.17588,6.494221,-8.709964,-4.570632,-0.4441859,0.1400836,-35.22471,-8.447793,45.05199,0,0,0,-81.2902,-39.95214,-116.394,-10.65206,-111.0334,-35.10307,0.001067912,-0.1257102,0.09433498,0,0.3,0,0,0,0,
6.38223E+17,-57.41562,31.16315,-8.19489,-58.22369,7.006938,-8.490229,-4.570632,-0.4441859,0.1400836,-35.22471,-8.447793,45.05199,0,0,0,-80.13072,-39.63284,-117.135,-10.65206,-111.0334,-35.10307,0.001067912,-0.1257102,0.09433498,0,0.3,0,0,0,0,
6.38223E+17,-57.39207,31.18653,-8.19489,-57.78423,7.226673,-8.416983,-4.570632,-0.4441859,0.1400836,-35.22471,-8.447793,45.05199,0,0,0,-80.08593,-39.58628,-117.1173,-10.65206,-111.0334,-35.10307,0.001067912,-0.1257102,0.09433498,0,0.3,0,0,0,0,
6.38223E+17,-57.39207,31.2099,-8.101501,-57.78423,7.080183,-8.343738,-4.570632,-0.4441859,0.1400836,-35.22471,-8.447793,45.05199,0,0,0,-80.24343,-39.57055,-117.0165,-10.65206,-111.0334,-35.10307,0.001067912,-0.1257102,0.09433498,0,0.3,0,0,0,0,
6.38223E+17,-57.06223,31.49044,-7.77464,-58.07721,6.860447,-8.270493,-4.570632,-0.4441859,0.1400836,-35.22471,-8.447793,45.05199,0,0,0,-80.29383,-39.11801,-116.3305,-10.65206,-111.0334,-35.10307,0.001067912,-0.1257102,0.09433498,0,0.3,0,0,0,0,
6.38223E+17,-56.11983,32.2853,-7.214305,-58.58992,6.420976,-7.977511,-4.570632,-0.4441859,0.1400836,-35.15147,-8.447793,45.05199,0,0,0,-79.68951,-37.71736,-114.8409,-10.65206,-111.0334,-35.10307,0.001067912,-0.1257102,0.09433498,0,0.3,0,0,0,0,
6.38223E+17,-54.32927,33.43083,-6.630623,-58.29694,5.76177,-7.09857,-4.570632,-0.4441859,0.1400836,-35.22471,-8.521038,45.12524,0,0,0,-77.89909,-35.64155,-112.4342,-10.65206,-111.0334,-35.10307,0.001067912,-0.1257102,0.09433498,0,0.3,0,0,0,0,
6.38223E+17,-50.63036,34.69325,-6.093637,-56.24608,4.809582,-5.120951,-4.570632,-0.4441859,0.1400836,-35.22471,-8.447793,45.12524,0,0,0,-73.81754,-33.34602,-107.7811,-10.65206,-111.0334,-35.10307,0.001067912,-0.1257102,0.09433498,0,0.3,0,0,0,0,
6.38223E+17,-47.40264,35.27771,-5.650038,-53.6825,4.443357,-2.923595,-4.570632,-0.4441859,0.1400836,-35.22471,-8.447793,45.05199,0,0,0,-70.47202,-32.33719,-103.5536,-10.65206,-111.0334,-35.10307,0.001067912,-0.1257102,0.09433498,0,0.3,0,0,0,0,
