zeyangz2/DNN_classification_different_people_hand/data/zeyang_right_5.csv
Timestamp,Therapist joint angle 0,Therapist joint angle 1,Therapist joint angle 2,Therapist joint angle 3,Therapist joint angle 4,Therapist joint angle 5,Patient joint angle 0,Patient joint angle 1,Patient joint angle 2,Patient joint angle 3,Patient joint angle 4,Patient joint angle 5,Virtual joint angle 0,Virtual joint angle 1,Virtual joint angle 2,Therapist position x,Therapist position y,Therapist position z,Patient position x,Patient position y,Patient position z,Virtual position x,Virtual position y,Virtual position z,Assistive Force, Obstacle Force Magnitude, Therapist Constant Force, Patient Constant Force, Recovery Factor, Assistance Level,label
6.38223E+17,0,0,0,0,0,0,0,0,0,0,0,0,0,0,0,0,0,0,0,0,0,0,0,0,0,0.3,0,0,0,0,0
6.38223E+17,8.269547,-0.9818845,-3.24527,25.34904,-63.30842,-62.32543,-4.570632,-0.4441859,0.1400836,-35.22471,-8.447793,45.05199,0,0,0,18.09117,-112.0713,-43.8764,-10.65206,-111.0334,-35.10307,0.001067912,-0.1257102,0.09433498,0,0.3,0,0,0,0,
6.38223E+17,8.269547,-0.9818845,-3.24527,25.42229,-63.30842,-62.32543,-4.570632,-0.4441859,0.1400836,-35.22471,-8.447793,45.05199,0,0,0,18.09117,-112.0713,-43.8764,-10.65206,-111.0334,-35.10307,0.001067912,-0.1257102,0.09433498,0,0.3,0,0,0,0,
6.38223E+17,8.269547,-0.9818845,-3.24527,25.42229,-63.30842,-62.32543,-4.570632,-0.4441859,0.1400836,-35.22471,-8.447793,45.05199,0,0,0,18.09117,-112.0713,-43.8764,-10.65206,-111.0334,-35.10307,0.001067912,-0.1257102,0.09433498,0,0.3,0,0,0,0,
6.38223E+17,8.269547,-0.9818845,-3.24527,25.42229,-63.38167,-62.32543,-4.570632,-0.4441859,0.1400836,-35.22471,-8.447793,45.05199,0,0,0,18.09117,-112.0713,-43.8764,-10.65206,-111.0334,-35.10307,0.001067912,-0.1257102,0.09433498,0,0.3,0,0,0,0,
6.38223E+17,8.269547,-0.9818845,-3.24527,25.42229,-63.30842,-62.25218,-4.570632,-0.4441859,0.1400836,-35.22471,-8.447793,45.05199,0,0,0,18.09117,-112.0713,-43.8764,-10.65206,-111.0334,-35.10307,0.001067912,-0.1257102,0.09433498,0,0.3,0,0,0,0,
6.38223E+17,8.269547,-0.9818845,-3.24527,25.34904,-63.38167,-62.32543,-4.570632,-0.4441859,0.1400836,-35.22471,-8.447793,45.05199,0,0,0,18.09117,-112.0713,-43.8764,-10.65206,-111.0334,-35.10307,0.001067912,-0.1257102,0.09433498,0,0.3,0,0,0,0,
6.38223E+17,8.269547,-0.9818845,-3.24527,25.42229,-63.30842,-62.25218,-4.570632,-0.4441859,0.1400836,-35.22471,-8.447793,45.05199,0,0,0,18.09117,-112.0713,-43.8764,-10.65206,-111.0334,-35.10307,0.001067912,-0.1257102,0.09433498,0,0.3,0,0,0,0,
6.38223E+17,8.269547,-0.9818845,-3.24527,25.34904,-63.30842,-62.32543,-4.570632,-0.4441859,0.1400836,-35.22471,-8.447793,45.05199,0,0,0,18.09117,-112.0713,-43.8764,-10.65206,-111.0334,-35.10307,0.001067912,-0.1257102,0.09433498,0,0.3,0,0,0,0,
6.38223E+17,8.269547,-0.9818845,-3.24527,25.34904,-63.30842,-62.25218,-4.570632,-0.4441859,0.1400836,-35.22471,-8.447793,45.05199,0,0,0,18.09117,-112.0713,-43.8764,-10.65206,-111.0334,-35.10307,0.001067912,-0.1257102,0.09433498,0,0.3,0,0,0,0,
6.38223E+17,8.269547,-0.9818845,-3.24527,25.42229,-63.30842,-62.32543,-4.570632,-0.4441859,0.1400836,-35.22471,-8.447793,45.05199,0,0,0,18.09117,-112.0713,-43.8764,-10.65206,-111.0334,-35.10307,0.001067912,-0.1257102,0.09433498,0,0.3,0,0,6.34E-08,0,
6.38223E+17,8.269547,-0.9818845,-3.24527,25.42229,-63.30842,-62.32543,-4.570632,-0.4441859,0.1400836,-35.22471,-8.447793,45.05199,0,0,0,18.09117,-112.0713,-43.8764,-10.65206,-111.0334,-35.10307,0.001067912,-0.1257102,0.09433498,0,0.3,0,0,1.27E-07,0,
6.38223E+17,8.269547,-0.9818845,-3.24527,25.34904,-63.30842,-62.32543,-4.570632,-0.4441859,0.1400836,-35.22471,-8.447793,45.05199,0,0,0,18.09117,-112.0713,-43.8764,-10.65206,-111.0334,-35.10307,0.001067912,-0.1257102,0.09433498,0,0.3,0,0,1.90E-07,0,
6.38223E+17,8.269547,-0.9818845,-3.24527,25.42229,-63.30842,-62.32543,-4.570632,-0.4441859,0.1400836,-35.22471,-8.447793,45.12524,0,0,0,18.09117,-112.0713,-43.8764,-10.65206,-111.0334,-35.10307,0.001067912,-0.1257102,0.09433498,0,0.3,0,0,2.54E-07,0,
6.38223E+17,8.269547,-0.9818845,-3.24527,25.34904,-63.30842,-62.32543,-4.570632,-0.4441859,0.1400836,-35.22471,-8.447793,45.05199,0,0,0,18.09117,-112.0713,-43.8764,-10.65206,-111.0334,-35.10307,0.001067912,-0.1257102,0.09433498,0,0.3,0,0,3.17E-07,0,
6.38223E+17,8.269547,-0.9818845,-3.24527,25.34904,-63.30842,-62.25218,-4.570632,-0.4441859,0.1400836,-35.15147,-8.447793,45.12524,0,0,0,18.09117,-112.0713,-43.8764,-10.65206,-111.0334,-35.10307,0.001067912,-0.1257102,0.09433498,0,0.3,0,0,3.17E-07,0,
6.38223E+17,8.269547,-0.9818845,-3.24527,25.34904,-63.30842,-62.32543,-4.570632,-0.4441859,0.1400836,-35.22471,-8.447793,45.12524,0,0,0,18.09117,-112.0713,-43.8764,-10.65206,-111.0334,-35.10307,0.001067912,-0.1257102,0.09433498,0,0.3,0,0,3.81E-07,0,
6.38223E+17,8.269547,-0.9818845,-3.24527,25.34904,-63.30842,-62.25218,-4.570632,-0.4441859,0.1400836,-35.15147,-8.447793,45.05199,0,0,0,18.09117,-112.0713,-43.8764,-10.65206,-111.0334,-35.10307,0.001067912,-0.1257102,0.09433498,0,0.3,0,0,3.81E-07,0,
6.38223E+17,8.269547,-0.9818845,-3.24527,25.34904,-63.30842,-62.32543,-4.570632,-0.4441859,0.1400836,-35.22471,-8.447793,45.05199,0,0,0,18.09117,-112.0713,-43.8764,-10.65206,-111.0334,-35.10307,0.001067912,-0.1257102,0.09433498,0,0.3,0,0,3.81E-07,0,
6.38223E+17,8.269547,-0.9818845,-3.24527,25.34904,-63.30842,-62.32543,-4.570632,-0.4441859,0.1400836,-35.22471,-8.447793,45.05199,0,0,0,18.09117,-112.0713,-43.8764,-10.65206,-111.0334,-35.10307,0.001067912,-0.1257102,0.09433498,0,0.3,0,0,2.54E-07,0,
6.38223E+17,8.269547,-0.9818845,-3.24527,25.42229,-63.30842,-62.32543,-4.570632,-0.4441859,0.1400836,-35.22471,-8.447793,45.05199,0,0,0,18.09117,-112.0713,-43.8764,-10.65206,-111.0334,-35.10307,0.001067912,-0.1257102,0.09433498,0,0.3,0,0,2.54E-07,0,
6.38223E+17,8.269547,-0.9818845,-3.24527,25.42229,-63.30842,-62.32543,-4.570632,-0.4441859,0.1400836,-35.22471,-8.521038,45.05199,0,0,0,18.09117,-112.0713,-43.8764,-10.65206,-111.0334,-35.10307,0.001067912,-0.1257102,0.09433498,0,0.3,0,0,1.90E-07,0,
6.38223E+17,8.269547,-0.9818845,-3.24527,25.34904,-63.30842,-62.25218,-4.570632,-0.4441859,0.1400836,-35.22471,-8.447793,45.12524,0,0,0,18.09117,-112.0713,-43.8764,-10.65206,-111.0334,-35.10307,0.001067912,-0.1257102,0.09433498,0,0.3,0,0,1.27E-07,0,
6.38223E+17,8.269547,-0.9818845,-3.24527,25.42229,-63.30842,-62.25218,-4.570632,-0.4441859,0.1400836,-35.22471,-8.447793,45.05199,0,0,0,18.09117,-112.0713,-43.8764,-10.65206,-111.0334,-35.10307,0.001067912,-0.1257102,0.09433498,0,0.3,0,0,6.34E-08,0,
6.38223E+17,8.269547,-0.9818845,-3.24527,25.34904,-63.30842,-62.32543,-4.570632,-0.4441859,0.1400836,-35.22471,-8.447793,45.05199,0,0,0,18.09117,-112.0713,-43.8764,-10.65206,-111.0334,-35.10307,0.001067912,-0.1257102,0.09433498,0,0.3,0,0,0,0,
6.38223E+17,8.269547,-0.9818845,-3.24527,25.34904,-63.30842,-62.32543,-4.570632,-0.4441859,0.1400836,-35.15147,-8.447793,45.05199,0,0,0,18.09117,-112.0713,-43.8764,-10.65206,-111.0334,-35.10307,0.001067912,-0.1257102,0.09433498,0,0.3,0,0,0,0,
6.38223E+17,8.269547,-0.9818845,-3.24527,25.42229,-63.30842,-62.32543,-4.570632,-0.4441859,0.1400836,-35.22471,-8.447793,45.05199,0,0,0,18.09117,-112.0713,-43.8764,-10.65206,-111.0334,-35.10307,0.001067912,-0.1257102,0.09433498,0,0.3,0,0,0,0,
6.38223E+17,8.269547,-0.9818845,-3.24527,25.34904,-63.30842,-62.32543,-4.570632,-0.4441859,0.1400836,-35.22471,-8.447793,45.05199,0,0,0,18.09117,-112.0713,-43.8764,-10.65206,-111.0334,-35.10307,0.001067912,-0.1257102,0.09433498,0,0.3,0,0,0,0,
6.38223E+17,8.269547,-0.9818845,-3.24527,25.42229,-63.30842,-62.32543,-4.570632,-0.4441859,0.1400836,-35.22471,-8.447793,45.12524,0,0,0,18.09117,-112.0713,-43.8764,-10.65206,-111.0334,-35.10307,0.001067912,-0.1257102,0.09433498,0,0.3,0,0,0,0,
6.38223E+17,8.269547,-0.9818845,-3.24527,25.42229,-63.30842,-62.32543,-4.570632,-0.4441859,0.1400836,-35.22471,-8.447793,45.12524,0,0,0,18.09117,-112.0713,-43.8764,-10.65206,-111.0334,-35.10307,0.001067912,-0.1257102,0.09433498,0,0.3,0,0,0,0,
6.38223E+17,8.269547,-0.9818845,-3.24527,25.34904,-63.38167,-62.32543,-4.570632,-0.4441859,0.1400836,-35.22471,-8.447793,45.05199,0,0,0,18.09117,-112.0713,-43.8764,-10.65206,-111.0334,-35.10307,0.001067912,-0.1257102,0.09433498,0,0.3,0,0,0,0,
6.38223E+17,8.269547,-0.9818845,-3.24527,25.42229,-63.30842,-62.32543,-4.570632,-0.4441859,0.1400836,-35.22471,-8.447793,45.05199,0,0,0,18.09117,-112.0713,-43.8764,-10.65206,-111.0334,-35.10307,0.001067912,-0.1257102,0.09433498,0,0.3,0,0,0,0,
6.38223E+17,8.269547,-0.9818845,-3.24527,25.42229,-63.30842,-62.25218,-4.570632,-0.4441859,0.1400836,-35.22471,-8.447793,45.05199,0,0,0,18.09117,-112.0713,-43.8764,-10.65206,-111.0334,-35.10307,0.001067912,-0.1257102,0.09433498,0,0.3,0,0,0,0,
6.38223E+17,8.269547,-0.9818845,-3.24527,25.42229,-63.30842,-62.32543,-4.570632,-0.4441859,0.1400836,-35.22471,-8.447793,45.05199,0,0,0,18.09117,-112.0713,-43.8764,-10.65206,-111.0334,-35.10307,0.001067912,-0.1257102,0.09433498,0,0.3,0,0,0,0,
6.38223E+17,8.269547,-0.9818845,-3.24527,25.42229,-63.30842,-62.25218,-4.570632,-0.4441859,0.1400836,-35.22471,-8.447793,45.05199,0,0,0,18.09117,-112.0713,-43.8764,-10.65206,-111.0334,-35.10307,0.001067912,-0.1257102,0.09433498,0,0.3,0,0,0,0,
6.38223E+17,8.269547,-0.9818845,-3.24527,25.34904,-63.30842,-62.32543,-4.570632,-0.4441859,0.1400836,-35.15147,-8.447793,45.05199,0,0,0,18.09117,-112.0713,-43.8764,-10.65206,-111.0334,-35.10307,0.001067912,-0.1257102,0.09433498,0,0.3,0,0,0,0,
6.38223E+17,8.269547,-0.9818845,-3.24527,25.42229,-63.30842,-62.32543,-4.570632,-0.4441859,0.1400836,-35.22471,-8.447793,45.05199,0,0,0,18.09117,-112.0713,-43.8764,-10.65206,-111.0334,-35.10307,0.001067912,-0.1257102,0.09433498,0,0.3,0,0,0,0,
6.38223E+17,8.269547,-0.9818845,-3.24527,25.42229,-63.30842,-62.32543,-4.570632,-0.4441859,0.1400836,-35.22471,-8.447793,45.05199,0,0,0,18.09117,-112.0713,-43.8764,-10.65206,-111.0334,-35.10307,0.001067912,-0.1257102,0.09433498,0,0.3,0,0,0,0,
6.38223E+17,8.269547,-0.9818845,-3.24527,25.42229,-63.30842,-62.32543,-4.570632,-0.4441859,0.1400836,-35.22471,-8.447793,45.12524,0,0,0,18.09117,-112.0713,-43.8764,-10.65206,-111.0334,-35.10307,0.001067912,-0.1257102,0.09433498,0,0.3,0,0,0,0,
6.38223E+17,8.269547,-0.9818845,-3.24527,25.34904,-63.30842,-62.32543,-4.570632,-0.4441859,0.1400836,-35.22471,-8.447793,45.12524,0,0,0,18.09117,-112.0713,-43.8764,-10.65206,-111.0334,-35.10307,0.001067912,-0.1257102,0.09433498,0,0.3,0,0,0,0,
6.38223E+17,8.269547,-0.9818845,-3.24527,25.42229,-63.30842,-62.25218,-4.570632,-0.4441859,0.1400836,-35.22471,-8.447793,45.12524,0,0,0,18.09117,-112.0713,-43.8764,-10.65206,-111.0334,-35.10307,0.001067912,-0.1257102,0.09433498,0,0.3,0,0,0,0,
6.38223E+17,8.269547,-0.9818845,-3.24527,25.42229,-63.30842,-62.25218,-4.570632,-0.4441859,0.1400836,-35.22471,-8.447793,45.05199,0,0,0,18.09117,-112.0713,-43.8764,-10.65206,-111.0334,-35.10307,0.001067912,-0.1257102,0.09433498,0,0.3,0,0,0,0,
6.38223E+17,8.269547,-0.9818845,-3.151881,24.98281,-63.30842,-62.25218,-4.570632,-0.4441859,0.1400836,-35.22471,-8.447793,45.05199,0,0,0,18.12239,-112.0834,-43.66164,-10.65206,-111.0334,-35.10307,0.001067912,-0.1257102,0.09433498,0,0.3,0,0,1.27E-05,0,
6.38223E+17,8.293106,-0.9818845,-3.011797,22.63897,-63.23518,-62.32543,-4.570632,-0.4441859,0.1400836,-35.22471,-8.447793,45.05199,0,0,0,18.22061,-112.1009,-43.34695,-10.65206,-111.0334,-35.10307,0.001067912,-0.1257102,0.09433498,0,0.3,0,0,4.15E-05,0,
6.38223E+17,8.269547,-0.9818845,-3.011797,13.48332,-62.72246,-61.1535,-4.570632,-0.4441859,0.1400836,-35.22471,-8.447793,45.05199,0,0,0,18.16921,-112.1009,-43.33947,-10.65206,-111.0334,-35.10307,0.001067912,-0.1257102,0.09433498,0,0.3,0,0,8.33E-05,0,
6.38223E+17,8.151747,-0.9117499,-3.011797,0.5921727,-60.96458,-60.05483,-4.570632,-0.4441859,0.1400836,-35.22471,-8.447793,45.05199,0,0,0,17.91253,-111.9377,-43.29971,-10.65206,-111.0334,-35.10307,0.001067912,-0.1257102,0.09433498,0,0.3,0,0,0.000242809,0,
6.38223E+17,7.421387,-0.4675641,-3.198575,-9.588906,-57.5953,-62.61841,-4.570632,-0.4441859,0.1400836,-35.22471,-8.447793,45.05199,0,0,0,16.26262,-110.8805,-43.49963,-10.65206,-111.0334,-35.10307,0.001067912,-0.1257102,0.09433498,0,0.3,0,0,0.001299992,0,
6.38223E+17,7.067988,-0.4208077,-3.221923,-12.07924,-56.05715,-64.44954,-4.570632,-0.4441859,0.1400836,-35.22471,-8.447793,45.05199,0,0,0,15.48567,-110.7686,-43.4547,-10.65206,-111.0334,-35.10307,0.001067912,-0.1257102,0.09433498,0,0.3,0,0,0.002267865,0,
6.38223E+17,6.36119,-0.4675641,-3.221923,-16.03448,-51.5892,-67.37935,-4.570632,-0.4441859,0.1400836,-35.22471,-8.447793,45.05199,0,0,0,13.94374,-110.8774,-43.27402,-10.65206,-111.0334,-35.10307,0.001067912,-0.1257102,0.09433498,0,0.3,0,0,0.005049258,0,
6.38223E+17,6.10203,-0.5143204,-3.198575,-17.86561,-46.68177,-68.55127,-4.570632,-0.4441859,0.1400836,-35.22471,-8.447793,45.05199,0,0,0,13.38352,-110.9893,-43.15921,-10.65206,-111.0334,-35.10307,0.001067912,-0.1257102,0.09433498,0,0.3,0,0,0.008262225,0,
6.38223E+17,6.14915,-0.9818845,-2.778325,-17.35289,-39.72348,-67.59908,-4.570632,-0.4441859,0.1400836,-35.22471,-8.447793,45.05199,0,0,0,13.58958,-112.1284,-42.21325,-10.65206,-111.0334,-35.10307,0.001067912,-0.1257102,0.09433498,0,0.3,0,0,0.01143048,0,
6.38223E+17,6.14915,-1.005263,-2.381421,-16.76693,-37.1599,-66.20742,-4.570632,-0.4441859,0.1400836,-35.22471,-8.447793,45.05199,0,0,0,13.68833,-112.2244,-41.29668,-10.65206,-111.0334,-35.10307,0.001067912,-0.1257102,0.09433498,0,0.3,0,0,0.01453549,0,
6.38223E+17,6.172709,-0.9818845,-1.937823,-15.81474,-33.49764,-64.44954,-4.570632,-0.4441859,0.1400836,-35.22471,-8.447793,45.05199,0,0,0,13.85161,-112.2089,-40.27567,-10.65206,-111.0334,-35.10307,0.001067912,-0.1257102,0.09433498,0,0.3,0,0,0.01758969,0,
6.38223E+17,6.172709,-0.9818845,-1.914476,-14.71607,-29.5424,-63.20437,-4.570632,-0.4441859,0.1400836,-35.22471,-8.447793,45.05199,0,0,0,13.85744,-112.2107,-40.22168,-10.65206,-111.0334,-35.10307,0.001067912,-0.1257102,0.09433498,0,0.3,0,0,0.02053689,0,
6.38223E+17,6.172709,-0.9117499,-1.937823,-14.20335,-25.07445,-62.32543,-4.570632,-0.4441859,0.1400836,-35.22471,-8.521038,45.12524,0,0,0,13.8519,-112.0457,-40.27299,-10.65206,-111.0334,-35.10307,0.001067912,-0.1257102,0.09433498,0,0.3,0,0,0.02337023,0,
6.38223E+17,6.19627,-0.4909423,-2.358074,-14.20335,-21.55868,-65.10874,-4.570632,-0.4441859,0.1400836,-35.22471,-8.447793,45.12524,0,0,0,13.80036,-111.0297,-41.23847,-10.65206,-111.0334,-35.10307,0.001067912,-0.1257102,0.09433498,0,0.3,0,0,0.0260417,0,
6.38223E+17,6.314069,1.028641,-3.058492,-14.13011,-17.09072,-77.78016,-4.570632,-0.4441859,0.1400836,-35.22471,-8.447793,45.05199,0,0,0,13.88076,-107.4161,-42.90205,-10.65206,-111.0334,-35.10307,0.001067912,-0.1257102,0.09433498,0,0.3,0,0,0.0282455,0,
6.38223E+17,6.33763,2.291064,-3.198575,-13.83713,-14.89337,-83.05381,-4.570632,-0.4441859,0.1400836,-35.22471,-8.447793,45.05199,0,0,0,13.88702,-104.4615,-43.3159,-10.65206,-111.0334,-35.10307,0.001067912,-0.1257102,0.09433498,0,0.3,0,0,0.02902219,0,
6.38223E+17,6.33763,5.423743,-3.198575,-13.25116,-10.93813,-87.96124,-4.570632,-0.4441859,0.1400836,-35.22471,-8.447793,45.05199,0,0,0,13.83288,-97.1879,-43.80334,-10.65206,-111.0334,-35.10307,0.001067912,-0.1257102,0.09433498,0,0.3,0,0,0.02938374,0,
6.38223E+17,6.33763,7.855076,-3.198575,-12.95818,-8.447793,-89.20641,-4.570632,-0.4441859,0.1400836,-35.22471,-8.447793,45.05199,0,0,0,13.76066,-91.5676,-44.45355,-10.65206,-111.0334,-35.10307,0.001067912,-0.1257102,0.09433498,0,0.3,0,0,0.02786511,0,
6.38223E+17,6.33763,9.304525,-3.221923,-12.81169,-6.177193,-89.86562,-4.570632,-0.4441859,0.1400836,-35.15147,-8.447793,45.05199,0,0,0,13.69912,-88.22896,-45.00765,-10.65206,-111.0334,-35.10307,0.001067912,-0.1257102,0.09433498,0,0.3,0,0,0.02486425,0,
6.38223E+17,6.33763,9.257769,-3.198575,-12.73845,-3.247386,-90.45158,-4.570632,-0.4441859,0.1400836,-35.15147,-8.447793,45.05199,0,0,0,13.70705,-88.33939,-44.93629,-10.65206,-111.0334,-35.10307,0.001067912,-0.1257102,0.09433498,0,0.3,0,0,0.02170913,0,
6.38223E+17,6.33763,9.140878,-3.221923,-12.37222,0.8543434,-92.72218,-4.570632,-0.4441859,0.1400836,-35.22471,-8.447793,45.05199,0,0,0,13.70586,-88.6049,-44.94698,-10.65206,-111.0334,-35.10307,0.001067912,-0.1257102,0.09433498,0,0.3,0,0,0.01880957,0,
6.38223E+17,6.314069,9.117499,-3.24527,-11.71302,3.857395,-95.50549,-4.570632,-0.4441859,0.1400836,-35.22471,-8.447793,45.05199,0,0,0,13.6501,-88.65556,-44.9867,-10.65206,-111.0334,-35.10307,0.001067912,-0.1257102,0.09433498,0,0.3,0,0,0.01603363,0,
6.38223E+17,6.314069,9.047364,-3.128534,-10.68758,7.519653,-97.55635,-4.570632,-0.4441859,0.1400836,-35.22471,-8.447793,45.05199,0,0,0,13.68277,-88.83185,-44.69146,-10.65206,-111.0334,-35.10307,0.001067912,-0.1257102,0.09433498,0,0.3,0,0,0.0134301,0,
6.38223E+17,6.314069,9.047364,-2.98845,-10.24811,9.350782,-97.99583,-4.570632,-0.4441859,0.1400836,-35.22471,-8.447793,45.05199,0,0,0,13.71857,-88.84924,-44.36787,-10.65206,-111.0334,-35.10307,0.001067912,-0.1257102,0.09433498,0,0.3,0,0,0.01219544,0,
6.38223E+17,6.314069,9.047364,-2.918408,-9.295925,13.81874,-97.99583,-4.570632,-0.4441859,0.1400836,-35.22471,-8.447793,45.05199,0,0,0,13.73648,-88.85764,-44.20606,-10.65206,-111.0334,-35.10307,0.001067912,-0.1257102,0.09433498,0,0.3,0,0,0.008637539,0,
6.38223E+17,6.314069,9.000608,-2.965103,-8.856454,15.2104,-97.77609,-4.570632,-0.4441859,0.1400836,-35.22471,-8.447793,45.12524,0,0,0,13.72642,-88.95954,-44.29697,-10.65206,-111.0334,-35.10307,0.001067912,-0.1257102,0.09433498,0,0.3,0,0,0.007501703,0,
6.38223E+17,6.314069,8.72007,-3.362006,-7.977511,17.55424,-97.40987,-4.570632,-0.4441859,0.1400836,-35.22471,-8.447793,45.05199,0,0,0,13.63604,-89.5537,-45.11376,-10.65206,-111.0334,-35.10307,0.001067912,-0.1257102,0.09433498,0,0.3,0,0,0.005356448,0,
6.38223E+17,6.26695,8.182371,-3.945688,-6.952079,19.45862,-95.50549,-4.570632,-0.4441859,0.1400836,-35.22471,-8.447793,45.05199,0,0,0,13.40677,-90.70496,-46.26736,-10.65206,-111.0334,-35.10307,0.001067912,-0.1257102,0.09433498,0,0.3,0,0,0.003496499,0,
6.38223E+17,6.21983,7.504403,-4.529369,-5.340686,21.43624,-87.59501,-4.570632,-0.4441859,0.1400836,-35.22471,-8.447793,45.05199,0,0,0,13.18292,-92.16772,-47.38908,-10.65206,-111.0334,-35.10307,0.001067912,-0.1257102,0.09433498,0,0.3,0,0,0.001995054,0,
6.38223E+17,6.21983,7.293999,-4.669453,-4.315253,22.46167,-80.05076,-4.570632,-0.4441859,0.1400836,-35.22471,-8.447793,45.05199,0,0,0,13.15454,-92.62719,-47.64945,-10.65206,-111.0334,-35.10307,0.001067912,-0.1257102,0.09433498,0,0.3,0,0,0.000695824,0,
6.38223E+17,6.21983,7.177108,-4.809536,-3.216576,23.19412,-66.57365,-4.570632,-0.4441859,0.1400836,-35.22471,-8.447793,45.05199,0,0,0,13.12305,-92.87013,-47.93839,-10.65206,-111.0334,-35.10307,0.001067912,-0.1257102,0.09433498,0,0.3,0,0,0,0,
6.38223E+17,6.21983,7.106974,-4.809536,-2.85035,23.19412,-59.17588,-4.570632,-0.4441859,0.1400836,-35.22471,-8.447793,45.05199,0,0,0,13.12525,-93.0321,-47.91822,-10.65206,-111.0334,-35.10307,0.001067912,-0.1257102,0.09433498,0,0.3,0,0,0,0,
6.38223E+17,6.21983,6.569275,-5.579997,-2.923595,21.94895,-31.34272,-4.570632,-0.4441859,0.1400836,-35.22471,-8.447793,45.05199,0,0,0,12.94792,-94.11227,-49.54537,-10.65206,-111.0334,-35.10307,0.001067912,-0.1257102,0.09433498,0,0.3,0,0,0,0,
6.38223E+17,6.21983,6.125089,-5.953553,-3.070086,21.50948,-22.99277,-4.570632,-0.4441859,0.1400836,-35.22471,-8.447793,45.05199,0,0,0,12.86658,-95.05238,-50.29167,-10.65206,-111.0334,-35.10307,0.001067912,-0.1257102,0.09433498,0,0.3,0,0,0,0,
6.38223E+17,6.24339,5.07307,-6.537234,-3.875783,20.92352,-11.71302,-4.570632,-0.4441859,0.1400836,-35.22471,-8.447793,45.05199,0,0,0,12.79425,-97.34135,-51.40189,-10.65206,-111.0334,-35.10307,0.001067912,-0.1257102,0.09433498,0,0.3,0,0,0,0,
6.38223E+17,6.24339,3.763891,-7.190958,-5.120951,20.70378,-5.413931,-4.570632,-0.4441859,0.1400836,-35.22471,-8.447793,45.12524,0,0,0,12.6555,-100.1974,-52.67014,-10.65206,-111.0334,-35.10307,0.001067912,-0.1257102,0.09433498,0,0.3,0,0,0,0,
6.38223E+17,6.24339,1.800122,-7.471125,-6.292873,21.14326,-1.898163,-4.570632,-0.4441859,0.1400836,-35.22471,-8.447793,45.05199,0,0,0,12.60929,-104.679,-53.09253,-10.65206,-111.0334,-35.10307,0.001067912,-0.1257102,0.09433498,0,0.3,0,0,0,0,
6.38223E+17,6.24339,1.005263,-7.587861,-6.732344,21.65597,-0.8727306,-4.570632,-0.4441859,0.1400836,-35.22471,-8.447793,45.12524,0,0,0,12.58492,-106.4928,-53.31527,-10.65206,-111.0334,-35.10307,0.001067912,-0.1257102,0.09433498,0,0.3,0,0,0,0,
6.38223E+17,6.24339,0.4675641,-8.101501,-7.464796,22.24193,0.006211365,-4.570632,-0.4441859,0.1400836,-35.22471,-8.447793,45.05199,0,0,0,12.45788,-107.581,-54.47651,-10.65206,-111.0334,-35.10307,0.001067912,-0.1257102,0.09433498,0,0.3,0,0,0,0,
6.38223E+17,6.24339,0.3272949,-8.381668,-7.831022,22.38842,0.299192,-4.570632,-0.4441859,0.1400836,-35.22471,-8.447793,45.12524,0,0,0,12.38795,-107.8139,-55.11575,-10.65206,-111.0334,-35.10307,0.001067912,-0.1257102,0.09433498,0,0.3,0,0,0,0,
6.38223E+17,6.24339,0.116891,-8.661836,-9.149435,22.6814,0.5189275,-4.570632,-0.4441859,0.1400836,-35.22471,-8.447793,45.05199,0,0,0,12.31802,-108.207,-55.7549,-10.65206,-111.0334,-35.10307,0.001067912,-0.1257102,0.09433498,0,0.3,0,0,0,0,
6.38223E+17,6.24339,0.09351282,-8.685184,-10.17487,22.53491,0.2259469,-4.570632,-0.4441859,0.1400836,-35.15147,-8.447793,45.05199,0,0,0,12.31219,-108.2532,-55.8082,-10.65206,-111.0334,-35.10307,0.001067912,-0.1257102,0.09433498,0,0.3,0,0,0,0,
6.38223E+17,6.24339,0.09351282,-8.685184,-10.76083,22.38842,0.07945653,-4.570632,-0.4441859,0.1400836,-35.22471,-8.447793,45.05199,0,0,0,12.31219,-108.2532,-55.8082,-10.65206,-111.0334,-35.10307,0.001067912,-0.1257102,0.09433498,0,0.3,0,0,0,0,
6.38223E+17,6.24339,0.04675641,-8.778571,-11.63977,22.09544,-1.092466,-4.570632,-0.4441859,0.1400836,-35.15147,-8.447793,45.05199,0,0,0,12.28884,-108.3291,-56.02163,-10.65206,-111.0334,-35.10307,0.001067912,-0.1257102,0.09433498,0,0.3,0,0,0,0,
6.38223E+17,6.24339,-0.0233782,-8.895308,-12.6652,21.94895,-3.582802,-4.570632,-0.4441859,0.1400836,-35.22471,-8.521038,45.05199,0,0,0,12.25965,-108.4505,-56.28847,-10.65206,-111.0334,-35.10307,0.001067912,-0.1257102,0.09433498,0,0.3,0,0,0,0,
6.38223E+17,6.26695,0.04675641,-8.755224,-13.25116,22.0222,-5.047705,-4.570632,-0.4441859,0.1400836,-35.22471,-8.447793,45.05199,0,0,0,12.34089,-108.3373,-55.9733,-10.65206,-111.0334,-35.10307,0.001067912,-0.1257102,0.09433498,0,0.3,0,0,0,0,
6.38223E+17,6.36119,0.2571602,-7.984766,-15.08229,22.16869,-6.878834,-4.570632,-0.4441859,0.1400836,-35.22471,-8.447793,45.12524,0,0,0,12.72213,-108.1087,-54.23192,-10.65206,-111.0334,-35.10307,0.001067912,-0.1257102,0.09433498,0,0.3,0,0,0,0,
6.38223E+17,6.855949,0.4208077,-7.074222,-17.79236,22.09544,-7.977511,-4.570632,-0.4441859,0.1400836,-35.22471,-8.447793,45.12524,0,0,0,13.95759,-108.0055,-52.26239,-10.65206,-111.0334,-35.10307,0.001067912,-0.1257102,0.09433498,0,0.3,0,0,0,0,
6.38223E+17,8.033947,0.6779679,-5.9769,-19.40376,21.94895,-8.416983,-4.570632,-0.4441859,0.1400836,-35.22471,-8.447793,45.05199,0,0,0,16.69504,-107.6972,-50.06714,-10.65206,-111.0334,-35.10307,0.001067912,-0.1257102,0.09433498,0,0.3,0,0,0,0,
6.38223E+17,9.423985,1.122154,-4.926273,-18.8178,21.65597,-7.904267,-4.570632,-0.4441859,0.1400836,-35.22471,-8.447793,45.05199,0,0,0,19.95538,-106.8959,-48.12168,-10.65206,-111.0334,-35.10307,0.001067912,-0.1257102,0.09433498,0,0.3,0,0,0,0,
6.38223E+17,11.42658,1.8235,-3.828952,-16.32746,20.92352,-4.901215,-4.570632,-0.4441859,0.1400836,-35.22471,-8.447793,45.05199,0,0,0,24.64071,-105.4591,-46.43763,-10.65206,-111.0334,-35.10307,0.001067912,-0.1257102,0.09433498,0,0.3,0,0,0,0,
6.38223E+17,12.46322,2.174173,-3.291965,-14.56958,20.55729,-3.070086,-4.570632,-0.4441859,0.1400836,-35.22471,-8.447793,45.05199,0,0,0,27.10534,-104.721,-45.7132,-10.65206,-111.0334,-35.10307,0.001067912,-0.1257102,0.09433498,0,0.3,0,0,0,0,
6.38223E+17,14.63074,2.828763,-2.101254,-10.17487,19.89809,0.006211365,-4.570632,-0.4441859,0.1400836,-35.22471,-8.447793,45.05199,0,0,0,32.40663,-103.3294,-44.21206,-10.65206,-111.0334,-35.10307,0.001067912,-0.1257102,0.09433498,0,0.3,0,0,0,0,
6.38223E+17,16.56265,3.436596,-1.050627,-6.146383,19.38537,1.910586,-4.570632,-0.4441859,0.1400836,-35.22471,-8.447793,45.05199,0,0,0,37.24787,-101.9841,-43.10637,-10.65206,-111.0334,-35.10307,0.001067912,-0.1257102,0.09433498,0,0.3,0,0,0,0,
6.38223E+17,18.54169,4.254833,0.04669453,-2.191144,18.9459,3.155754,-4.570632,-0.4441859,0.1400836,-35.22471,-8.447793,45.05199,0,0,0,42.32227,-100.1064,-42.16727,-10.65206,-111.0334,-35.10307,0.001067912,-0.1257102,0.09433498,0,0.3,0,0,0,0,
6.38223E+17,20.47361,5.236718,1.144016,1.397869,18.50643,3.96145,-4.570632,-0.4441859,0.1400836,-35.15147,-8.447793,45.05199,0,0,0,47.37917,-97.80246,-41.45047,-10.65206,-111.0334,-35.10307,0.001067912,-0.1257102,0.09433498,0,0.3,0,0,0,0,
6.38223E+17,22.92384,6.592653,2.498158,5.572844,17.62749,4.474167,-4.570632,-0.4441859,0.1400836,-35.22471,-8.447793,45.05199,0,0,0,53.86129,-94.56339,-40.99035,-10.65206,-111.0334,-35.10307,0.001067912,-0.1257102,0.09433498,0,0.3,0,0,0,0,
6.38223E+17,24.45524,7.41089,3.315312,8.136425,17.11477,4.620657,-4.570632,-0.4441859,0.1400836,-35.22471,-8.447793,45.05199,0,0,0,57.93591,-92.5768,-40.9576,-10.65206,-111.0334,-35.10307,0.001067912,-0.1257102,0.09433498,0,0.3,0,0,0,0,
6.38223E+17,26.43428,8.533044,4.599411,11.94517,16.45556,4.620657,-4.570632,-0.4441859,0.1400836,-35.22471,-8.447793,45.05199,0,0,0,63.4667,-89.78413,-40.68897,-10.65206,-111.0334,-35.10307,0.001067912,-0.1257102,0.09433498,0,0.3,0,0,0,0,
6.38223E+17,27.23532,9.070744,5.229787,13.48332,16.16258,4.693902,-4.570632,-0.4441859,0.1400836,-35.22471,-8.447793,45.05199,0,0,0,65.82656,-88.42175,-40.45932,-10.65206,-111.0334,-35.10307,0.001067912,-0.1257102,0.09433498,0,0.3,0,0,0,0,
6.38223E+17,29.26147,10.75397,7.027527,17.51181,15.35689,4.181186,-4.570632,-0.4441859,0.1400836,-35.22471,-8.447793,45.05199,0,0,0,72.01083,-84.11614,-39.82578,-10.65206,-111.0334,-35.10307,0.001067912,-0.1257102,0.09433498,0,0.3,0,0,0,0,
6.38223E+17,29.85047,11.40856,7.634556,18.68373,15.13715,4.034696,-4.570632,-0.4441859,0.1400836,-35.22471,-8.447793,45.05199,0,0,0,73.87994,-82.44079,-39.61145,-10.65206,-111.0334,-35.10307,0.001067912,-0.1257102,0.09433498,0,0.3,0,0,0,0,
6.38223E+17,30.83999,12.88139,8.685184,20.80784,14.47795,3.81496,-4.570632,-0.4441859,0.1400836,-35.22471,-8.521038,45.05199,0,0,0,76.96329,-78.74269,-39.44751,-10.65206,-111.0334,-35.10307,0.001067912,-0.1257102,0.09433498,0,0.3,0,0,0,0,
6.38223E+17,31.71171,14.93867,9.712462,22.93195,13.599,3.595225,-4.570632,-0.4441859,0.1400836,-35.22471,-8.447793,45.05199,0,0,0,79.55105,-73.71304,-39.60473,-10.65206,-111.0334,-35.10307,0.001067912,-0.1257102,0.09433498,0,0.3,0,0,0,0,
6.38223E+17,32.41851,17.79081,10.87983,24.83632,12.1341,3.521979,-4.570632,-0.4441859,0.1400836,-35.22471,-8.447793,45.05199,0,0,0,81.56365,-66.85896,-39.91796,-10.65206,-111.0334,-35.10307,0.001067912,-0.1257102,0.09433498,0,0.3,0,0,0,0,
6.38223E+17,32.70123,19.54418,11.65029,25.86176,10.88893,3.448734,-4.570632,-0.4441859,0.1400836,-35.22471,-8.447793,45.12524,0,0,0,82.44086,-62.64272,-39.94121,-10.65206,-111.0334,-35.10307,0.001067912,-0.1257102,0.09433498,0,0.3,0,0,0,0,
6.38223E+17,32.81903,21.74173,12.58418,27.03368,9.057802,3.521979,-4.570632,-0.4441859,0.1400836,-35.22471,-8.447793,45.05199,0,0,0,82.87926,-57.40057,-39.8403,-10.65206,-111.0334,-35.10307,0.001067912,-0.1257102,0.09433498,0,0.3,0,0,0,0,
6.38223E+17,32.81903,23.79901,13.37798,27.83937,7.080183,3.66847,-4.570632,-0.4441859,0.1400836,-35.22471,-8.447793,45.05199,0,0,0,82.85064,-52.57087,-39.88468,-10.65206,-111.0334,-35.10307,0.001067912,-0.1257102,0.09433498,0,0.3,0,0,0,0,
6.38223E+17,32.81903,25.99656,14.28853,28.49858,5.175808,3.888205,-4.570632,-0.4441859,0.1400836,-35.22471,-8.447793,45.05199,0,0,0,82.79893,-47.42524,-39.96486,-10.65206,-111.0334,-35.10307,0.001067912,-0.1257102,0.09433498,0,0.3,0,0,0,0,
6.38223E+17,32.79546,26.93169,14.66208,28.86481,4.370111,3.96145,-4.570632,-0.4441859,0.1400836,-35.22471,-8.447793,45.05199,0,0,0,82.67677,-45.25959,-40.03847,-10.65206,-111.0334,-35.10307,0.001067912,-0.1257102,0.09433498,0,0.3,0,0,0,0,
6.38223E+17,32.74835,28.59154,15.45589,29.59726,2.758718,4.107941,-4.570632,-0.4441859,0.1400836,-35.22471,-8.447793,45.05199,0,0,0,82.56293,-41.36124,-39.98341,-10.65206,-111.0334,-35.10307,0.001067912,-0.1257102,0.09433498,0,0.3,0,0,0,0,
6.38223E+17,32.72478,30.1345,16.41313,30.25646,1.147324,4.107941,-4.570632,-0.4441859,0.1400836,-35.22471,-8.447793,45.05199,0,0,0,82.71635,-37.61997,-39.62857,-10.65206,-111.0334,-35.10307,0.001067912,-0.1257102,0.09433498,0,0.3,0,0,0,0,
6.38223E+17,32.44207,32.40219,17.65053,31.57488,-1.050031,4.840393,-4.570632,-0.4441859,0.1400836,-35.22471,-8.447793,45.05199,0,0,0,82.08786,-32.26556,-39.2099,-10.65206,-111.0334,-35.10307,0.001067912,-0.1257102,0.09433498,0,0.3,0,0,0,0,
6.38223E+17,32.04155,33.73475,18.21087,32.23409,-2.368444,5.646089,-4.570632,-0.4441859,0.1400836,-35.22471,-8.447793,45.05199,0,0,0,80.94363,-29.2651,-39.0219,-10.65206,-111.0334,-35.10307,0.001067912,-0.1257102,0.09433498,0,0.3,0,0,0,0,
6.38223E+17,31.31119,35.62838,18.95798,32.82005,-4.199574,6.744767,-4.570632,-0.4441859,0.1400836,-35.22471,-8.447793,45.05199,0,0,0,78.84184,-25.08691,-38.73497,-10.65206,-111.0334,-35.10307,0.001067912,-0.1257102,0.09433498,0,0.3,0,0,0,0,
6.38223E+17,30.22743,37.56877,19.75179,33.18628,-6.396928,8.06318,-4.570632,-0.4441859,0.1400836,-35.22471,-8.447793,45.05199,0,0,0,75.89829,-20.84915,-38.08716,-10.65206,-111.0334,-35.10307,0.001067912,-0.1257102,0.09433498,0,0.3,0,0,0,0,
6.38223E+17,28.86095,39.43903,20.4989,33.18628,-8.667529,9.381593,-4.570632,-0.4441859,0.1400836,-35.22471,-8.447793,45.05199,0,0,0,72.25037,-16.84465,-37.25761,-10.65206,-111.0334,-35.10307,0.001067912,-0.1257102,0.09433498,0,0.3,0,0,0,0,
6.38223E+17,28.24839,40.14038,20.77907,33.03978,-9.546471,9.894309,-4.570632,-0.4441859,0.1400836,-35.22471,-8.447793,45.05199,0,0,0,70.63912,-15.36055,-36.87536,-10.65206,-111.0334,-35.10307,0.001067912,-0.1257102,0.09433498,0,0.3,0,0,0,0,
6.38223E+17,26.66988,41.58982,21.3861,32.52707,-11.81707,11.13948,-4.570632,-0.4441859,0.1400836,-35.22471,-8.447793,45.05199,0,0,0,66.59162,-12.30125,-35.77369,-10.65206,-111.0334,-35.10307,0.001067912,-0.1257102,0.09433498,0,0.3,0,0,0,0,
6.38223E+17,24.62016,42.99252,21.7363,31.57488,-13.94118,12.60438,-4.570632,-0.4441859,0.1400836,-35.22471,-8.447793,45.12524,0,0,0,61.20786,-9.586822,-34.78463,-10.65206,-111.0334,-35.10307,0.001067912,-0.1257102,0.09433498,0,0.3,0,0,0,0,
6.38223E+17,21.55737,44.46534,21.94643,29.30428,-16.94423,14.65524,-4.570632,-0.4441859,0.1400836,-35.22471,-8.521038,45.12524,0,0,0,53.28016,-6.927917,-33.48656,-10.65206,-111.0334,-35.10307,0.001067912,-0.1257102,0.09433498,0,0.3,0,0,0,0,
6.38223E+17,19.74325,45.0498,22.03982,27.69288,-18.40914,15.82717,-4.570632,-0.4441859,0.1400836,-35.22471,-8.447793,45.05199,0,0,0,48.72862,-5.880615,-32.57924,-10.65206,-111.0334,-35.10307,0.001067912,-0.1257102,0.09433498,0,0.3,0,0,0,0,
6.38223E+17,16.72757,45.56412,22.13321,24.61659,-20.38675,17.6583,-4.570632,-0.4441859,0.1400836,-35.22471,-8.447793,45.05199,0,0,0,41.3314,-4.957012,-30.82574,-10.65206,-111.0334,-35.10307,0.001067912,-0.1257102,0.09433498,0,0.3,0,0,0,0,
6.38223E+17,13.68834,45.65763,22.1799,20.88108,-21.9249,19.70916,-4.570632,-0.4441859,0.1400836,-35.22471,-8.447793,45.05199,0,0,0,33.96878,-4.763779,-28.88111,-10.65206,-111.0334,-35.10307,0.001067912,-0.1257102,0.09433498,0,0.3,0,0,0,0,
6.38223E+17,10.20146,45.5875,22.27329,15.75392,-23.46305,21.97976,-4.570632,-0.4441859,0.1400836,-35.15147,-8.447793,45.05199,0,0,0,25.47971,-4.795722,-26.76047,-10.65206,-111.0334,-35.10307,0.001067912,-0.1257102,0.09433498,0,0.3,0,0,0,0,
6.38223E+17,7.492068,45.28358,22.29664,11.06623,-24.63498,23.73765,-4.570632,-0.4441859,0.1400836,-35.15147,-8.447793,45.05199,0,0,0,18.83052,-5.27146,-25.16482,-10.65206,-111.0334,-35.10307,0.001067912,-0.1257102,0.09433498,0,0.3,0,0,0,0,
6.38223E+17,6.21983,45.0498,22.29664,8.429405,-25.14769,24.4701,-4.570632,-0.4441859,0.1400836,-35.22471,-8.447793,45.05199,0,0,0,15.68855,-5.655078,-24.39844,-10.65206,-111.0334,-35.10307,0.001067912,-0.1257102,0.09433498,0,0.3,0,0,0,0,
6.38223E+17,4.146553,44.39521,22.29664,2.862773,-25.73365,25.78851,-4.570632,-0.4441859,0.1400836,-35.15147,-8.447793,45.05199,0,0,0,10.54798,-6.737547,-22.85588,-10.65206,-111.0334,-35.10307,0.001067912,-0.1257102,0.09433498,0,0.3,0,0,0,0,
6.38223E+17,2.944995,43.764,22.29664,-2.044653,-26.02663,26.37447,-4.570632,-0.4441859,0.1400836,-35.22471,-8.447793,45.05199,0,0,0,7.54721,-7.79289,-21.64606,-10.65206,-111.0334,-35.10307,0.001067912,-0.1257102,0.09433498,0,0.3,0,0,0,0,
6.38223E+17,2.214636,43.13279,22.24994,-5.853402,-26.02663,26.7407,-4.570632,-0.4441859,0.1400836,-35.22471,-8.447793,45.05199,0,0,0,5.711742,-8.900619,-20.65274,-10.65206,-111.0334,-35.10307,0.001067912,-0.1257102,0.09433498,0,0.3,0,0,0,0,
6.38223E+17,1.743437,42.43144,21.94643,-8.416983,-25.95339,26.88719,-4.570632,-0.4441859,0.1400836,-35.22471,-8.447793,45.05199,0,0,0,4.510721,-10.36438,-20.1568,-10.65206,-111.0334,-35.10307,0.001067912,-0.1257102,0.09433498,0,0.3,0,0,0,0,
6.38223E+17,1.578517,41.56644,21.36275,-10.17487,-25.36743,26.96043,-4.570632,-0.4441859,0.1400836,-35.22471,-8.447793,45.05199,0,0,0,4.086472,-12.36176,-20.06,-10.65206,-111.0334,-35.10307,0.001067912,-0.1257102,0.09433498,0,0.3,0,0,0,0,
6.38223E+17,1.554958,40.35078,20.38216,-11.34679,-24.342,27.03368,-4.570632,-0.4441859,0.1400836,-35.22471,-8.447793,45.05199,0,0,0,4.017957,-15.3115,-20.33601,-10.65206,-111.0334,-35.10307,0.001067912,-0.1257102,0.09433498,0,0.3,0,0,0,0,
6.38223E+17,1.554958,39.32214,19.44827,-11.78626,-23.38981,27.03368,-4.570632,-0.4441859,0.1400836,-35.22471,-8.447793,45.12524,0,0,0,4.00412,-17.89017,-20.84575,-10.65206,-111.0334,-35.10307,0.001067912,-0.1257102,0.09433498,0,0.3,0,0,0,0,
6.38223E+17,1.554958,38.64417,18.79455,-12.006,-22.80385,26.88719,-4.570632,-0.4441859,0.1400836,-35.22471,-8.447793,45.05199,0,0,0,3.992048,-19.61511,-21.29046,-10.65206,-111.0334,-35.10307,0.001067912,-0.1257102,0.09433498,0,0.3,0,0,0,0,
6.38223E+17,1.554958,36.96094,17.18359,-12.22573,-20.97272,25.78851,-4.570632,-0.4441859,0.1400836,-35.22471,-8.447793,45.05199,0,0,0,3.96044,-23.86825,-22.45484,-10.65206,-111.0334,-35.10307,0.001067912,-0.1257102,0.09433498,0,0.3,0,0,0,0,
6.38223E+17,1.554958,35.16082,15.50258,-12.51871,-18.55563,24.54334,-4.570632,-0.4441859,0.1400836,-35.22471,-8.447793,45.05199,0,0,0,3.925487,-28.3558,-23.74242,-10.65206,-111.0334,-35.10307,0.001067912,-0.1257102,0.09433498,0,0.3,0,0,0,0,
6.38223E+17,1.625637,33.47759,13.79823,-12.81169,-16.28502,23.00519,-4.570632,-0.4441859,0.1400836,-35.22471,-8.447793,45.05199,0,0,0,4.05766,-32.59444,-25.37567,-10.65206,-111.0334,-35.10307,0.001067912,-0.1257102,0.09433498,0,0.3,0,0,0,0,
6.38223E+17,1.861237,31.56057,12.02384,-12.81169,-13.94118,21.68678,-4.570632,-0.4441859,0.1400836,-35.22471,-8.447793,45.05199,0,0,0,4.592698,-37.27908,-27.01946,-10.65206,-111.0334,-35.10307,0.001067912,-0.1257102,0.09433498,0,0.3,0,0,0,0,
6.38223E+17,2.285316,29.43316,10.10937,-12.22573,-11.74383,20.88108,-4.570632,-0.4441859,0.1400836,-35.22471,-8.447793,45.05199,0,0,0,5.56446,-42.40044,-28.91592,-10.65206,-111.0334,-35.10307,0.001067912,-0.1257102,0.09433498,0,0.3,0,0,0,0,
6.38223E+17,3.204155,26.88494,7.891376,-10.83407,-8.447793,20.44161,-4.570632,-0.4441859,0.1400836,-35.22471,-8.447793,45.05199,0,0,0,7.671182,-48.4363,-31.31914,-10.65206,-111.0334,-35.10307,0.001067912,-0.1257102,0.09433498,0,0.3,0,0,0,0,
6.38223E+17,3.910954,25.48224,6.817402,-9.588906,-6.470173,20.22188,-4.570632,-0.4441859,0.1400836,-35.22471,-8.447793,45.05199,0,0,0,9.290133,-51.6858,-32.46027,-10.65206,-111.0334,-35.10307,0.001067912,-0.1257102,0.09433498,0,0.3,0,0,0,0,
6.38223E+17,4.994712,24.10293,5.766775,-7.684532,-4.126328,20.00214,-4.570632,-0.4441859,0.1400836,-35.22471,-8.447793,45.05199,0,0,0,11.76428,-54.86805,-33.74052,-10.65206,-111.0334,-35.10307,0.001067912,-0.1257102,0.09433498,0,0.3,0,0,0,0,
6.38223E+17,5.677951,23.44834,5.253135,-6.585854,-2.88116,19.85565,-4.570632,-0.4441859,0.1400836,-35.22471,-8.447793,45.05199,0,0,0,13.31164,-56.37702,-34.46326,-10.65206,-111.0334,-35.10307,0.001067912,-0.1257102,0.09433498,0,0.3,0,0,0,0,
6.38223E+17,7.397828,21.92875,4.039077,-3.656047,-0.3175794,19.26969,-4.570632,-0.4441859,0.1400836,-35.22471,-8.447793,45.05199,0,0,0,17.13701,-59.86878,-36.36314,-10.65206,-111.0334,-35.10307,0.001067912,-0.1257102,0.09433498,0,0.3,0,0,0,0,
6.38223E+17,7.963267,21.41443,3.712215,-2.777105,0.4881175,18.83022,-4.570632,-0.4441859,0.1400836,-35.22471,-8.447793,45.05199,0,0,0,18.39479,-61.03262,-36.85258,-10.65206,-111.0334,-35.10307,0.001067912,-0.1257102,0.09433498,0,0.3,0,0,0,0,
6.38223E+17,9.329745,20.38579,3.175228,-0.9459759,1.879776,17.14558,-4.570632,-0.4441859,0.1400836,-35.22471,-8.447793,45.05199,0,0,0,21.46163,-63.34419,-37.71691,-10.65206,-111.0334,-35.10307,0.001067912,-0.1257102,0.09433498,0,0.3,0,0,0,0,
6.38223E+17,10.97894,19.28702,2.708283,1.031644,3.564415,15.02147,-4.570632,-0.4441859,0.1400836,-35.22471,-8.447793,45.05199,0,0,0,25.17092,-65.80548,-38.60228,-10.65206,-111.0334,-35.10307,0.001067912,-0.1257102,0.09433498,0,0.3,0,0,0,0,
6.38223E+17,13.28782,18.00122,2.288032,3.448734,5.688524,12.67763,-4.570632,-0.4441859,0.1400836,-35.22471,-8.447793,45.05199,0,0,0,30.37287,-68.68358,-39.7416,-10.65206,-111.0334,-35.10307,0.001067912,-0.1257102,0.09433498,0,0.3,0,0,0,0,
6.38223E+17,14.70142,17.41676,2.194643,4.913638,6.787202,11.65219,-4.570632,-0.4441859,0.1400836,-35.22471,-8.447793,45.05199,0,0,0,33.58621,-69.98788,-40.33987,-10.65206,-111.0334,-35.10307,0.001067912,-0.1257102,0.09433498,0,0.3,0,0,0,0,
6.38223E+17,16.91605,16.59852,2.194643,7.330729,8.325351,10.33378,-4.570632,-0.4441859,0.1400836,-35.22471,-8.447793,45.05199,0,0,0,38.6699,-71.80894,-41.20044,-10.65206,-111.0334,-35.10307,0.001067912,-0.1257102,0.09433498,0,0.3,0,0,0,0,
6.38223E+17,19.15425,15.89718,2.288032,10.18729,9.424027,9.308348,-4.570632,-0.4441859,0.1400836,-35.22471,-8.447793,45.05199,0,0,0,43.82721,-73.36754,-42.17107,-10.65206,-111.0334,-35.10307,0.001067912,-0.1257102,0.09433498,0,0.3,0,0,0,0,
6.38223E+17,22.005,15.07894,2.801672,13.70306,10.6692,7.843444,-4.570632,-0.4441859,0.1400836,-35.22471,-8.447793,45.05199,0,0,0,50.68644,-75.14966,-42.9282,-10.65206,-111.0334,-35.10307,0.001067912,-0.1257102,0.09433498,0,0.3,0,0,0,0,
6.38223E+17,23.11232,14.72827,3.081839,15.09472,11.10867,7.257483,-4.570632,-0.4441859,0.1400836,-35.22471,-8.447793,45.05199,0,0,0,53.43878,-75.90489,-43.13915,-10.65206,-111.0334,-35.10307,0.001067912,-0.1257102,0.09433498,0,0.3,0,0,0,0,
6.38223E+17,25.63324,13.79314,3.805604,18.24426,12.06085,5.93907,-4.570632,-0.4441859,0.1400836,-35.22471,-8.447793,45.05199,0,0,0,59.85368,-77.91303,-43.61148,-10.65206,-111.0334,-35.10307,0.001067912,-0.1257102,0.09433498,0,0.3,0,0,0,0,
6.38223E+17,28.03635,12.92815,4.669453,21.24731,12.86655,4.767147,-4.570632,-0.4441859,0.1400836,-35.22471,-8.447793,45.05199,0,0,0,66.19241,-79.72314,-44.05052,-10.65206,-111.0334,-35.10307,0.001067912,-0.1257102,0.09433498,0,0.3,0,0,0,0,
6.38223E+17,31.80595,12.25018,6.700665,26.08149,13.96523,3.228999,-4.570632,-0.4441859,0.1400836,-35.22471,-8.447793,45.05199,0,0,0,76.88163,-80.79483,-44.38136,-10.65206,-111.0334,-35.10307,0.001067912,-0.1257102,0.09433498,0,0.3,0,0,0,0,
6.38223E+17,32.91327,12.25018,7.447778,27.47315,14.11172,3.082508,-4.570632,-0.4441859,0.1400836,-35.22471,-8.447793,45.05199,0,0,0,80.20061,-80.58068,-44.44165,-10.65206,-111.0334,-35.10307,0.001067912,-0.1257102,0.09433498,0,0.3,0,0,0,0,
6.38223E+17,35.2457,12.25018,9.22217,30.54945,14.03847,2.936018,-4.570632,-0.4441859,0.1400836,-35.22471,-8.447793,45.05199,0,0,0,87.53484,-79.98206,-44.47135,-10.65206,-111.0334,-35.10307,0.001067912,-0.1257102,0.09433498,0,0.3,0,0,0,0,
6.38223E+17,37.20118,12.32031,11.01991,33.25952,13.89198,2.862773,-4.570632,-0.4441859,0.1400836,-35.22471,-8.447793,45.05199,0,0,0,94.18024,-79.08734,-44.27742,-10.65206,-111.0334,-35.10307,0.001067912,-0.1257102,0.09433498,0,0.3,0,0,0,0,
6.38223E+17,39.62786,12.5541,13.79823,36.40906,13.67225,2.789528,-4.570632,-0.4441859,0.1400836,-35.22471,-8.447793,45.12524,0,0,0,103.3018,-77.16661,-43.6031,-10.65206,-111.0334,-35.10307,0.001067912,-0.1257102,0.09433498,0,0.3,0,0,0,0,
6.38223E+17,41.11213,12.83463,15.64267,38.67966,13.52576,2.789528,-4.570632,-0.4441859,0.1400836,-35.15147,-8.447793,45.05199,0,0,0,109.1339,-75.4389,-43.30089,-10.65206,-111.0334,-35.10307,0.001067912,-0.1257102,0.09433498,0,0.3,0,0,0,0,
6.38223E+17,42.90269,13.25544,17.95405,41.53622,13.30602,2.350057,-4.570632,-0.4441859,0.1400836,-35.22471,-8.447793,45.05199,0,0,0,116.343,-72.9302,-43.16175,-10.65206,-111.0334,-35.10307,0.001067912,-0.1257102,0.09433498,0,0.3,0,0,0,0,
6.38223E+17,43.70373,13.46585,19.00467,42.78139,13.23278,2.057076,-4.570632,-0.4441859,0.1400836,-35.22471,-8.447793,45.05199,0,0,0,119.606,-71.67872,-43.20576,-10.65206,-111.0334,-35.10307,0.001067912,-0.1257102,0.09433498,0,0.3,0,0,0,0,
6.38223E+17,45.98904,14.07368,22.53011,46.00418,13.15953,-0.57975,-4.570632,-0.4441859,0.1400836,-35.22471,-8.447793,45.05199,0,0,0,129.7758,-67.39586,-42.979,-10.65206,-111.0334,-35.10307,0.001067912,-0.1257102,0.09433498,0,0.3,0,0,0,0,
6.38223E+17,46.69584,14.28408,23.74417,46.95637,13.15953,-1.605182,-4.570632,-0.4441859,0.1400836,-35.22471,-8.447793,45.05199,0,0,0,133.116,-65.81083,-42.8896,-10.65206,-111.0334,-35.10307,0.001067912,-0.1257102,0.09433498,0,0.3,0,0,0,0,
6.38223E+17,47.94452,14.7984,26.05555,48.56776,13.15953,-3.802537,-4.570632,-0.4441859,0.1400836,-35.15147,-8.447793,45.05199,0,0,0,139.218,-62.38736,-42.75327,-10.65206,-111.0334,-35.10307,0.001067912,-0.1257102,0.09433498,0,0.3,0,0,0,0,
6.38223E+17,49.16964,15.5465,28.41362,50.03266,13.01304,-6.292873,-4.570632,-0.4441859,0.1400836,-35.15147,-8.447793,45.05199,0,0,0,145.2187,-58.19553,-42.86624,-10.65206,-111.0334,-35.10307,0.001067912,-0.1257102,0.09433498,0,0.3,0,0,0,0,
6.38223E+17,50.2534,16.57515,30.86509,51.27783,12.79331,-9.295925,-4.570632,-0.4441859,0.1400836,-35.22471,-8.447793,45.05199,0,0,0,150.8694,-53.07356,-42.88834,-10.65206,-111.0334,-35.10307,0.001067912,-0.1257102,0.09433498,0,0.3,0,0,0,0,
6.38223E+17,50.77172,17.41676,32.49939,52.01028,12.64682,-11.2003,-4.570632,-0.4441859,0.1400836,-35.22471,-8.447793,45.05199,0,0,0,154.062,-49.20269,-42.57342,-10.65206,-111.0334,-35.10307,0.001067912,-0.1257102,0.09433498,0,0.3,0,0,0,0,
6.38223E+17,51.36071,18.88959,34.67069,52.81598,12.28059,-13.69064,-4.570632,-0.4441859,0.1400836,-35.22471,-8.447793,45.05199,0,0,0,157.8007,-43.15027,-42.20209,-10.65206,-111.0334,-35.10307,0.001067912,-0.1257102,0.09433498,0,0.3,0,0,0,0,
6.38223E+17,51.61988,19.84809,35.8147,53.40194,11.98761,-14.86256,-4.570632,-0.4441859,0.1400836,-35.22471,-8.447793,45.05199,0,0,0,159.4944,-39.50933,-42.02637,-10.65206,-111.0334,-35.10307,0.001067912,-0.1257102,0.09433498,0,0.3,0,0,0,0,
6.38223E+17,52.11464,23.33145,39.22341,55.08658,10.52271,-18.30508,-4.570632,-0.4441859,0.1400836,-35.22471,-8.447793,45.05199,0,0,0,163.1907,-27.1412,-41.37643,-10.65206,-111.0334,-35.10307,0.001067912,-0.1257102,0.09433498,0,0.3,0,0,0,0,
6.38223E+17,52.16175,24.54711,40.36742,55.59929,9.8635,-19.33051,-4.570632,-0.4441859,0.1400836,-35.22471,-8.447793,45.05199,0,0,0,164.004,-22.85115,-40.96001,-10.65206,-111.0334,-35.10307,0.001067912,-0.1257102,0.09433498,0,0.3,0,0,0,0,
6.38223E+17,52.18531,27.04858,42.60876,56.77122,8.325351,-21.01515,-4.570632,-0.4441859,0.1400836,-35.22471,-8.447793,45.05199,0,0,0,165.1418,-14.15439,-40.18511,-10.65206,-111.0334,-35.10307,0.001067912,-0.1257102,0.09433498,0,0.3,0,0,0,0,
6.38223E+17,52.16175,29.52667,44.99018,58.08963,6.494221,-22.69979,-4.570632,-0.4441859,0.1400836,-35.22471,-8.447793,45.12524,0,0,0,166.0898,-5.240147,-39.33992,-10.65206,-111.0334,-35.10307,0.001067912,-0.1257102,0.09433498,0,0.3,0,0,0,0,
6.38223E+17,51.97327,32.93989,47.65177,60.21374,4.150376,-24.97039,-4.570632,-0.4441859,0.1400836,-35.15147,-8.447793,45.05199,0,0,0,165.7899,6.03103,-38.69618,-10.65206,-111.0334,-35.10307,0.001067912,-0.1257102,0.09433498,0,0.3,0,0,0,0,
6.38223E+17,51.76123,34.95041,48.84248,61.38566,2.612227,-26.28881,-4.570632,-0.4441859,0.1400836,-35.22471,-8.447793,45.05199,0,0,0,164.7062,11.98003,-38.55848,-10.65206,-111.0334,-35.10307,0.001067912,-0.1257102,0.09433498,0,0.3,0,0,0,0,
6.38223E+17,51.33715,37.70904,50.40675,62.77732,0.268382,-28.19318,-4.570632,-0.4441859,0.1400836,-35.22471,-8.447793,45.05199,0,0,0,162.6127,19.92539,-38.24568,-10.65206,-111.0334,-35.10307,0.001067912,-0.1257102,0.09433498,0,0.3,0,0,0,0,
6.38223E+17,50.63036,40.39754,51.6208,63.94925,-2.368444,-30.24404,-4.570632,-0.4441859,0.1400836,-35.22471,-8.521038,45.05199,0,0,0,159.3223,26.98031,-37.6225,-10.65206,-111.0334,-35.10307,0.001067912,-0.1257102,0.09433498,0,0.3,0,0,0,0,
6.38223E+17,49.61728,43.13279,52.5547,65.12117,-5.298251,-32.07517,-4.570632,-0.4441859,0.1400836,-35.22471,-8.447793,45.05199,0,0,0,154.7737,33.44295,-36.70771,-10.65206,-111.0334,-35.10307,0.001067912,-0.1257102,0.09433498,0,0.3,0,0,0,0,
6.38223E+17,48.39216,45.51736,53.18507,66.07335,-7.861832,-33.61332,-4.570632,-0.4441859,0.1400836,-35.22471,-8.447793,45.05199,0,0,0,149.6866,38.58265,-35.41538,-10.65206,-111.0334,-35.10307,0.001067912,-0.1257102,0.09433498,0,0.3,0,0,0,0,
6.38223E+17,47.61468,46.73303,53.37185,66.43958,-9.326735,-34.41902,-4.570632,-0.4441859,0.1400836,-35.15147,-8.447793,45.12524,0,0,0,146.5546,40.89202,-34.59614,-10.65206,-111.0334,-35.10307,0.001067912,-0.1257102,0.09433498,0,0.3,0,0,0,0,
6.38223E+17,45.80056,49.00071,53.44189,66.95229,-12.25654,-35.59094,-4.570632,-0.4441859,0.1400836,-35.22471,-8.447793,45.05199,0,0,0,139.5107,44.56332,-32.68442,-10.65206,-111.0334,-35.10307,0.001067912,-0.1257102,0.09433498,0,0.3,0,0,0,0,
6.38223E+17,43.46813,51.12813,53.37185,67.17203,-15.47933,-36.1769,-4.570632,-0.4441859,0.1400836,-35.22471,-8.447793,45.05199,0,0,0,131.1954,47.61065,-29.94481,-10.65206,-111.0334,-35.10307,0.001067912,-0.1257102,0.09433498,0,0.3,0,0,0,0,
6.38223E+17,40.49957,53.0919,53.11503,67.24528,-18.92185,-36.46988,-4.570632,-0.4441859,0.1400836,-35.15147,-8.447793,45.05199,0,0,0,121.2769,49.93856,-26.35084,-10.65206,-111.0334,-35.10307,0.001067912,-0.1257102,0.09433498,0,0.3,0,0,0,0,
6.38223E+17,37.27186,54.5881,52.76482,66.95229,-22.14464,-36.32339,-4.570632,-0.4441859,0.1400836,-35.22471,-8.447793,45.05199,0,0,0,111.0893,51.34276,-22.37579,-10.65206,-111.0334,-35.10307,0.001067912,-0.1257102,0.09433498,0,0.3,0,0,0,0,
6.38223E+17,33.50227,55.73364,52.15779,66.43958,-25.58716,-34.85849,-4.570632,-0.4441859,0.1400836,-35.15147,-8.447793,45.12524,0,0,0,99.569,51.74555,-17.93057,-10.65206,-111.0334,-35.10307,0.001067912,-0.1257102,0.09433498,0,0.3,0,0,0,0,
6.38223E+17,28.86095,56.50512,50.64022,64.97468,-29.90863,-31.56245,-4.570632,-0.4441859,0.1400836,-35.22471,-8.447793,45.05199,0,0,0,85.28779,49.98629,-13.60227,-10.65206,-111.0334,-35.10307,0.001067912,-0.1257102,0.09433498,0,0.3,0,0,0,0,
6.38223E+17,25.56256,56.59863,49.21603,62.70407,-33.05817,-28.26642,-4.570632,-0.4441859,0.1400836,-35.22471,-8.447793,45.05199,0,0,0,75.24387,47.56982,-11.04019,-10.65206,-111.0334,-35.10307,0.001067912,-0.1257102,0.09433498,0,0.3,0,0,0,0,
6.38223E+17,21.91076,56.41161,47.13813,58.60235,-36.64718,-22.69979,-4.570632,-0.4441859,0.1400836,-35.22471,-8.447793,45.05199,0,0,0,64.00373,43.72589,-9.222099,-10.65206,-111.0334,-35.10307,0.001067912,-0.1257102,0.09433498,0,0.3,0,0,0,0,
6.38223E+17,20.07309,56.08431,45.97077,55.81903,-38.25858,-19.18402,-4.570632,-0.4441859,0.1400836,-35.22471,-8.447793,45.05199,0,0,0,58.44404,41.33014,-8.411397,-10.65206,-111.0334,-35.10307,0.001067912,-0.1257102,0.09433498,0,0.3,0,0,0,0,
6.38223E+17,16.65689,55.1258,43.84616,48.64101,-40.8954,-11.2003,-4.570632,-0.4441859,0.1400836,-35.15147,-8.447793,45.05199,0,0,0,48.33355,36.57927,-6.804409,-10.65206,-111.0334,-35.10307,0.001067912,-0.1257102,0.09433498,0,0.3,0,0,0,0,
6.38223E+17,13.4763,53.65298,41.93169,39.33887,-42.65329,-1.605182,-4.570632,-0.4441859,0.1400836,-35.22471,-8.447793,45.05199,0,0,0,39.18468,31.55103,-4.836107,-10.65206,-111.0334,-35.10307,0.001067912,-0.1257102,0.09433498,0,0.3,0,0,0,0,
6.38223E+17,11.07318,52.03988,40.34408,30.32971,-43.23925,7.330729,-4.570632,-0.4441859,0.1400836,-35.22471,-8.447793,45.05199,0,0,0,32.3343,26.85291,-3.131359,-10.65206,-111.0334,-35.10307,0.001067912,-0.1257102,0.09433498,0,0.3,0,0,0,0,
6.38223E+17,9.282625,50.33327,38.70977,22.1995,-42.87302,14.87498,-4.570632,-0.4441859,0.1400836,-35.15147,-8.447793,45.05199,0,0,0,27.18206,21.9427,-2.042803,-10.65206,-111.0334,-35.10307,0.001067912,-0.1257102,0.09433498,0,0.3,0,0,0,0,
6.38223E+17,7.774787,48.06559,36.3517,13.92279,-41.04189,22.12625,-4.570632,-0.4441859,0.1400836,-35.22471,-8.447793,45.05199,0,0,0,22.7482,15.15117,-1.738831,-10.65206,-111.0334,-35.10307,0.001067912,-0.1257102,0.09433498,0,0.3,0,0,0,0,
6.38223E+17,7.138669,46.49924,34.55396,9.674574,-39.13752,25.34904,-4.570632,-0.4441859,0.1400836,-35.22471,-8.447793,45.05199,0,0,0,20.80636,10.25141,-2.220766,-10.65206,-111.0334,-35.10307,0.001067912,-0.1257102,0.09433498,0,0.3,0,0,0,0,
6.38223E+17,6.526109,44.48872,32.17253,5.499599,-36.28096,27.76613,-4.570632,-0.4441859,0.1400836,-35.22471,-8.447793,45.12524,0,0,0,18.88227,3.923613,-3.291236,-10.65206,-111.0334,-35.10307,0.001067912,-0.1257102,0.09433498,0,0.3,0,0,0,0,
6.38223E+17,6.24339,43.4367,31.05186,3.66847,-34.74281,28.42534,-4.570632,-0.4441859,0.1400836,-35.22471,-8.447793,45.05199,0,0,0,18.01086,0.7941195,-3.718486,-10.65206,-111.0334,-35.10307,0.001067912,-0.1257102,0.09433498,0,0.3,0,0,0,0,
6.38223E+17,5.536591,40.00011,28.13346,-1.238957,-29.5424,29.67051,-4.570632,-0.4441859,0.1400836,-35.22471,-8.447793,45.12524,0,0,0,15.92233,-8.529007,-4.089923,-10.65206,-111.0334,-35.10307,0.001067912,-0.1257102,0.09433498,0,0.3,0,0,0,0,
6.38223E+17,5.418791,38.85457,27.22291,-2.630615,-27.78452,29.817,-4.570632,-0.4441859,0.1400836,-35.15147,-8.447793,45.12524,0,0,0,15.56725,-11.57272,-4.240177,-10.65206,-111.0334,-35.10307,0.001067912,-0.1257102,0.09433498,0,0.3,0,0,0,0,
6.38223E+17,5.371671,36.54013,25.70534,-5.194195,-24.70822,29.52402,-4.570632,-0.4441859,0.1400836,-35.22471,-8.447793,45.05199,0,0,0,15.44462,-17.40855,-4.096159,-10.65206,-111.0334,-35.10307,0.001067912,-0.1257102,0.09433498,0,0.3,0,0,0,0,
6.38223E+17,5.371671,34.13218,24.28116,-7.09857,-21.70517,28.86481,-4.570632,-0.4441859,0.1400836,-35.22471,-8.447793,45.05199,0,0,0,15.46681,-23.38046,-3.860255,-10.65206,-111.0334,-35.10307,0.001067912,-0.1257102,0.09433498,0,0.3,0,0,0,0,
6.38223E+17,5.395231,30.85923,22.48342,-8.563474,-18.04291,27.39991,-4.570632,-0.4441859,0.1400836,-35.22471,-8.447793,45.05199,0,0,0,15.55809,-31.46482,-3.616219,-10.65206,-111.0334,-35.10307,0.001067912,-0.1257102,0.09433498,0,0.3,0,0,0,0,
6.38223E+17,5.418791,29.15262,21.66626,-9.002944,-16.21178,26.66745,-4.570632,-0.4441859,0.1400836,-35.22471,-8.447793,45.12524,0,0,0,15.64697,-35.61904,-3.399781,-10.65206,-111.0334,-35.10307,0.001067912,-0.1257102,0.09433498,0,0.3,0,0,0,0,
6.38223E+17,5.583711,26.13683,20.33547,-9.515661,-13.13548,25.49553,-4.570632,-0.4441859,0.1400836,-35.22471,-8.447793,45.05199,0,0,0,16.15719,-42.94597,-3.082394,-10.65206,-111.0334,-35.10307,0.001067912,-0.1257102,0.09433498,0,0.3,0,0,0,0,
6.38223E+17,5.88999,23.30807,19.14476,-9.808641,-9.985942,24.61659,-4.570632,-0.4441859,0.1400836,-35.15147,-8.447793,45.12524,0,0,0,17.05527,-49.86157,-3.027087,-10.65206,-111.0334,-35.10307,0.001067912,-0.1257102,0.09433498,0,0.3,0,0,0,0,
6.38223E+17,6.502549,20.08188,18.00074,-9.515661,-6.323683,23.81089,-4.570632,-0.4441859,0.1400836,-35.22471,-8.447793,45.05199,0,0,0,18.85023,-57.68545,-2.969048,-10.65206,-111.0334,-35.10307,0.001067912,-0.1257102,0.09433498,0,0.3,0,0,0,0,
6.38223E+17,7.350708,17.01933,17.27698,-8.636719,-3.174141,23.37142,-4.570632,-0.4441859,0.1400836,-35.22471,-8.447793,45.05199,0,0,0,21.38095,-64.95248,-2.609555,-10.65206,-111.0334,-35.10307,0.001067912,-0.1257102,0.09433498,0,0.3,0,0,0,0,
6.38223E+17,7.869027,15.64002,17.0902,-7.904267,-1.635992,23.37142,-4.570632,-0.4441859,0.1400836,-35.22471,-8.447793,45.05199,0,0,0,22.94612,-68.16154,-2.327073,-10.65206,-111.0334,-35.10307,0.001067912,-0.1257102,0.09433498,0,0.3,0,0,0,0,
6.38223E+17,9.353305,12.88139,16.97346,-5.999893,1.66004,23.29818,-4.570632,-0.4441859,0.1400836,-35.22471,-8.447793,45.05199,0,0,0,27.45364,-74.4631,-1.673072,-10.65206,-111.0334,-35.10307,0.001067912,-0.1257102,0.09433498,0,0.3,0,0,0,0,
6.38223E+17,11.37946,10.35654,16.97346,-2.410879,5.688524,23.29818,-4.570632,-0.4441859,0.1400836,-35.22471,-8.447793,45.05199,0,0,0,33.56296,-80.21854,-1.58778,-10.65206,-111.0334,-35.10307,0.001067912,-0.1257102,0.09433498,0,0.3,0,0,0,0,
6.38223E+17,12.20406,9.444795,16.97346,-0.7262403,7.373164,23.37142,-4.570632,-0.4441859,0.1400836,-35.22471,-8.447793,45.05199,0,0,0,36.03656,-82.30892,-1.731461,-10.65206,-111.0334,-35.10307,0.001067912,-0.1257102,0.09433498,0,0.3,0,0,0,0,
6.38223E+17,13.2407,8.042102,16.97346,1.397869,9.790254,23.37142,-4.570632,-0.4441859,0.1400836,-35.22471,-8.447793,45.05199,0,0,0,39.15875,-85.53552,-1.927645,-10.65206,-111.0334,-35.10307,0.001067912,-0.1257102,0.09433498,0,0.3,0,0,0,0,
6.38223E+17,14.15954,6.569275,16.97346,2.789528,11.84112,22.34599,-4.570632,-0.4441859,0.1400836,-35.22471,-8.447793,45.05199,0,0,0,41.9291,-88.93546,-2.154355,-10.65206,-111.0334,-35.10307,0.001067912,-0.1257102,0.09433498,0,0.3,0,0,0,0,
6.38223E+17,15.59669,5.166583,16.97346,4.181186,14.18496,19.70916,-4.570632,-0.4441859,0.1400836,-35.22471,-8.447793,45.05199,0,0,0,46.17392,-92.18288,-2.936774,-10.65206,-111.0334,-35.10307,0.001067912,-0.1257102,0.09433498,0,0.3,0,0,0,0,
6.38223E+17,16.89249,3.974295,16.97346,5.426354,16.01609,17.29207,-4.570632,-0.4441859,0.1400836,-35.22471,-8.447793,45.05199,0,0,0,49.96701,-94.94894,-3.811678,-10.65206,-111.0334,-35.10307,0.001067912,-0.1257102,0.09433498,0,0.3,0,0,0,0,
6.38223E+17,17.48149,3.226192,17.0435,6.232051,16.89503,16.26664,-4.570632,-0.4441859,0.1400836,-35.22471,-8.447793,45.05199,0,0,0,51.73547,-96.63894,-4.081054,-10.65206,-111.0334,-35.10307,0.001067912,-0.1257102,0.09433498,0,0.3,0,0,0,0,
6.38223E+17,18.32965,1.285801,17.25363,7.623709,18.57967,14.43551,-4.570632,-0.4441859,0.1400836,-35.22471,-8.447793,45.05199,0,0,0,54.36427,-101.0071,-4.252534,-10.65206,-111.0334,-35.10307,0.001067912,-0.1257102,0.09433498,0,0.3,0,0,0,0,
6.38223E+17,18.40033,-1.005263,17.58049,8.50265,20.33756,13.26359,-4.570632,-0.4441859,0.1400836,-35.22471,-8.447793,45.05199,0,0,0,54.7999,-106.1112,-3.61859,-10.65206,-111.0334,-35.10307,0.001067912,-0.1257102,0.09433498,0,0.3,0,0,0,0,
6.38223E+17,18.09405,-0.9818845,17.0435,8.575896,22.09544,12.16491,-4.570632,-0.4441859,0.1400836,-35.22471,-8.447793,45.05199,0,0,0,53.54826,-106.4287,-4.461267,-10.65206,-111.0334,-35.10307,0.001067912,-0.1257102,0.09433498,0,0.3,0,0,0,0,
6.38223E+17,17.34013,-1.052019,17.32367,8.35616,23.34061,11.72544,-4.570632,-0.4441859,0.1400836,-35.22471,-8.447793,45.05199,0,0,0,51.57198,-106.3993,-3.178991,-10.65206,-111.0334,-35.10307,0.001067912,-0.1257102,0.09433498,0,0.3,0,0,0,0,
6.38223E+17,16.09145,-1.052019,17.58049,7.91669,24.21955,11.87193,-4.570632,-0.4441859,0.1400836,-35.22471,-8.447793,45.05199,0,0,0,48.1184,-106.22,-1.546501,-10.65206,-111.0334,-35.10307,0.001067912,-0.1257102,0.09433498,0,0.3,0,0,0,0,
6.38223E+17,13.80614,-1.028641,17.72057,6.598277,25.02525,13.19034,-4.570632,-0.4441859,0.1400836,-35.22471,-8.447793,45.05199,0,0,0,41.5031,-106.0668,0.5422525,-10.65206,-111.0334,-35.10307,0.001067912,-0.1257102,0.09433498,0,0.3,0,0,0,0,
6.38223E+17,11.7093,-1.028641,17.79062,4.840393,25.83095,14.43551,-4.570632,-0.4441859,0.1400836,-35.22471,-8.447793,45.05199,0,0,0,35.3273,-106.0171,2.099722,-10.65206,-111.0334,-35.10307,0.001067912,-0.1257102,0.09433498,0,0.3,0,0,0,0,
6.38223E+17,10.03654,-1.028641,17.884,2.936018,26.34366,15.02147,-4.570632,-0.4441859,0.1400836,-35.22471,-8.447793,45.05199,0,0,0,30.37271,-105.9505,3.262062,-10.65206,-111.0334,-35.10307,0.001067912,-0.1257102,0.09433498,0,0.3,0,0,0,0,
6.38223E+17,6.973749,-1.028641,18.21087,-1.238957,27.14936,15.60743,-4.570632,-0.4441859,0.1400836,-35.22471,-8.447793,45.05199,0,0,0,21.24784,-105.7148,5.35771,-10.65206,-111.0334,-35.10307,0.001067912,-0.1257102,0.09433498,0,0.3,0,0,0,0,
6.38223E+17,2.403116,-1.005263,18.91129,-9.295925,27.88181,15.82717,-4.570632,-0.4441859,0.1400836,-35.15147,-8.447793,45.05199,0,0,0,7.402686,-105.1415,8.043447,-10.65206,-111.0334,-35.10307,0.001067912,-0.1257102,0.09433498,0,0.3,0,0,0,0,
6.38223E+17,0.9423984,-0.9818845,19.26149,-12.51871,28.0283,15.60743,-4.570632,-0.4441859,0.1400836,-35.22471,-8.447793,45.05199,0,0,0,2.916419,-104.8206,8.945936,-10.65206,-111.0334,-35.10307,0.001067912,-0.1257102,0.09433498,0,0.3,0,0,0,0,
6.38223E+17,-1.625637,-0.9818845,20.07865,-18.52482,27.95506,14.65524,-4.570632,-0.4441859,0.1400836,-35.22471,-8.447793,45.05199,0,0,0,-5.081179,-104.1804,10.68868,-10.65206,-111.0334,-35.10307,0.001067912,-0.1257102,0.09433498,0,0.3,0,0,0,0,
6.38223E+17,-3.816714,-0.7013461,20.84911,-24.0182,27.44234,13.70306,-4.570632,-0.4441859,0.1400836,-35.22471,-8.447793,45.05199,0,0,0,-12.03497,-102.9006,12.04935,-10.65206,-111.0334,-35.10307,0.001067912,-0.1257102,0.09433498,0,0.3,0,0,0,0,
6.38223E+17,-6.21983,0.1402692,21.3861,-29.65808,26.34366,12.67763,-4.570632,-0.4441859,0.1400836,-35.22471,-8.447793,45.05199,0,0,0,-19.71588,-100.4916,12.55459,-10.65206,-111.0334,-35.10307,0.001067912,-0.1257102,0.09433498,0,0.3,0,0,0,0,
6.38223E+17,-7.704108,0.7948589,21.64292,-33.02736,25.31823,11.79868,-4.570632,-0.4441859,0.1400836,-35.15147,-8.447793,45.05199,0,0,0,-24.46805,-98.749,12.52194,-10.65206,-111.0334,-35.10307,0.001067912,-0.1257102,0.09433498,0,0.3,0,0,0,0,
6.38223E+17,-9.329745,1.776743,21.75965,-37.05584,24.07306,9.967555,-4.570632,-0.4441859,0.1400836,-35.22471,-8.447793,45.05199,0,0,0,-29.62195,-96.36391,11.9535,-10.65206,-111.0334,-35.10307,0.001067912,-0.1257102,0.09433498,0,0.3,0,0,0,0,
6.38223E+17,-10.08366,2.361199,21.75965,-38.88697,23.41385,8.722386,-4.570632,-0.4441859,0.1400836,-35.22471,-8.447793,45.05199,0,0,0,-31.98322,-95.00454,11.49978,-10.65206,-111.0334,-35.10307,0.001067912,-0.1257102,0.09433498,0,0.3,0,0,0,0,
6.38223E+17,-12.10982,3.950917,21.75965,-43.94089,21.28975,4.913638,-4.570632,-0.4441859,0.1400836,-35.22471,-8.447793,45.05199,0,0,0,-38.27921,-91.31036,10.05738,-10.65206,-111.0334,-35.10307,0.001067912,-0.1257102,0.09433498,0,0.3,0,0,0,0,
6.38223E+17,-12.7695,4.535372,21.75965,-45.47904,20.55729,3.741715,-4.570632,-0.4441859,0.1400836,-35.15147,-8.447793,45.12524,0,0,0,-40.30849,-89.95384,9.506681,-10.65206,-111.0334,-35.10307,0.001067912,-0.1257102,0.09433498,0,0.3,0,0,0,0,
6.38223E+17,-14.0653,6.101711,21.7363,-48.18911,19.16564,1.251379,-4.570632,-0.4441859,0.1400836,-35.22471,-8.447793,45.05199,0,0,0,-44.22585,-86.34429,8.172935,-10.65206,-111.0334,-35.10307,0.001067912,-0.1257102,0.09433498,0,0.3,0,0,0,0,
6.38223E+17,-15.50245,7.995345,21.87639,-50.67944,17.481,-1.165711,-4.570632,-0.4441859,0.1400836,-35.22471,-8.447793,45.05199,0,0,0,-48.57559,-81.84945,6.778775,-10.65206,-111.0334,-35.10307,0.001067912,-0.1257102,0.09433498,0,0.3,0,0,0,0,
6.38223E+17,-17.15165,10.30979,22.43672,-53.02329,15.64987,-3.582802,-4.570632,-0.4441859,0.1400836,-35.22471,-8.447793,45.05199,0,0,0,-53.69919,-76.03993,5.643672,-10.65206,-111.0334,-35.10307,0.001067912,-0.1257102,0.09433498,0,0.3,0,0,0,0,
6.38223E+17,-18.07049,11.71248,22.99706,-54.3417,14.69768,-4.608234,-4.570632,-0.4441859,0.1400836,-35.22471,-8.447793,45.05199,0,0,0,-56.66219,-72.33187,5.311017,-10.65206,-111.0334,-35.10307,0.001067912,-0.1257102,0.09433498,0,0.3,0,0,0,0,
6.38223E+17,-19.20137,14.09706,24.04768,-56.24608,13.37927,-5.487176,-4.570632,-0.4441859,0.1400836,-35.22471,-8.447793,45.05199,0,0,0,-60.40833,-65.94669,5.105753,-10.65206,-111.0334,-35.10307,0.001067912,-0.1257102,0.09433498,0,0.3,0,0,0,0,
6.38223E+17,-19.97885,17.1596,24.95823,-58.07721,11.76787,-6.073137,-4.570632,-0.4441859,0.1400836,-35.22471,-8.447793,45.05199,0,0,0,-62.75927,-58.20436,4.277951,-10.65206,-111.0334,-35.10307,0.001067912,-0.1257102,0.09433498,0,0.3,0,0,0,0,
6.38223E+17,-20.59141,20.38579,26.45245,-59.6886,9.570518,-6.366118,-4.570632,-0.4441859,0.1400836,-35.22471,-8.447793,45.05199,0,0,0,-64.85353,-49.58775,4.268637,-10.65206,-111.0334,-35.10307,0.001067912,-0.1257102,0.09433498,0,0.3,0,0,0,0,
6.38223E+17,-20.77989,21.76511,27.19957,-60.34781,8.618331,-6.439363,-4.570632,-0.4441859,0.1400836,-35.15147,-8.447793,45.05199,0,0,0,-65.56199,-45.80765,4.425847,-10.65206,-111.0334,-35.10307,0.001067912,-0.1257102,0.09433498,0,0.3,0,0,0,0,
6.38223E+17,-21.08616,24.96792,28.90392,-61.66622,6.420976,-6.366118,-4.570632,-0.4441859,0.1400836,-35.22471,-8.447793,45.05199,0,0,0,-66.68054,-37.10032,4.580983,-10.65206,-111.0334,-35.10307,0.001067912,-0.1257102,0.09433498,0,0.3,0,0,0,0,
6.38223E+17,-21.20397,28.24087,30.51488,-62.83814,4.296866,-6.292873,-4.570632,-0.4441859,0.1400836,-35.22471,-8.447793,45.05199,0,0,0,-66.98008,-28.43221,4.299527,-10.65206,-111.0334,-35.10307,0.001067912,-0.1257102,0.09433498,0,0.3,0,0,0,0,
6.38223E+17,-21.20397,31.39693,32.28927,-64.15656,2.026266,-6.292873,-4.570632,-0.4441859,0.1400836,-35.22471,-8.447793,45.05199,0,0,0,-66.934,-19.90848,4.180743,-10.65206,-111.0334,-35.10307,0.001067912,-0.1257102,0.09433498,0,0.3,0,0,0,0,
6.38223E+17,-21.25109,34.52961,34.46056,-65.84119,-0.5373149,-6.292873,-4.570632,-0.4441859,0.1400836,-35.22471,-8.447793,45.05199,0,0,0,-67.16768,-11.01214,4.361714,-10.65206,-111.0334,-35.10307,0.001067912,-0.1257102,0.09433498,0,0.3,0,0,0,0,
6.38223E+17,-21.48668,37.17134,36.49178,-67.45258,-2.661425,-6.219628,-4.570632,-0.4441859,0.1400836,-35.22471,-8.447793,45.05199,0,0,0,-67.96851,-3.28554,4.315766,-10.65206,-111.0334,-35.10307,0.001067912,-0.1257102,0.09433498,0,0.3,0,0,0,0,
6.38223E+17,-21.74584,39.46241,38.17278,-68.99074,-4.346064,-5.926647,-4.570632,-0.4441859,0.1400836,-35.22471,-8.447793,45.05199,0,0,0,-68.67653,3.270317,3.825374,-10.65206,-111.0334,-35.10307,0.001067912,-0.1257102,0.09433498,0,0.3,0,0,0,0,
6.38223E+17,-22.40552,41.80023,40.50751,-70.67538,-5.810967,-4.901215,-4.570632,-0.4441859,0.1400836,-35.22471,-8.447793,45.12524,0,0,0,-70.90559,10.84371,3.632815,-10.65206,-111.0334,-35.10307,0.001067912,-0.1257102,0.09433498,0,0.3,0,0,0,0,
6.38223E+17,-23.0652,43.60035,42.42198,-72.43327,-6.836399,-3.875783,-4.570632,-0.4441859,0.1400836,-35.22471,-8.447793,45.05199,0,0,0,-73.07597,16.87284,3.262973,-10.65206,-111.0334,-35.10307,0.001067912,-0.1257102,0.09433498,0,0.3,0,0,0,0,
6.38223E+17,-23.46572,44.5121,43.35587,-73.53194,-7.27587,-3.289821,-4.570632,-0.4441859,0.1400836,-35.15147,-8.447793,45.05199,0,0,0,-74.32038,19.87706,2.855211,-10.65206,-111.0334,-35.10307,0.001067912,-0.1257102,0.09433498,0,0.3,0,0,0,0,
6.38223E+17,-24.40812,46.07844,45.17696,-75.65604,-7.788587,-1.971408,-4.570632,-0.4441859,0.1400836,-35.22471,-8.447793,45.05199,0,0,0,-77.30968,25.39967,2.014071,-10.65206,-111.0334,-35.10307,0.001067912,-0.1257102,0.09433498,0,0.3,0,0,0,0,
6.38223E+17,-25.58612,47.411,46.9747,-78.14638,-7.861832,-1.019221,-4.570632,-0.4441859,0.1400836,-35.22471,-8.447793,45.05199,0,0,0,-81.07375,30.53833,0.969241,-10.65206,-111.0334,-35.10307,0.001067912,-0.1257102,0.09433498,0,0.3,0,0,0,0,
6.38223E+17,-27.21176,48.27599,48.37553,-80.70996,-7.642097,-0.140279,-4.570632,-0.4441859,0.1400836,-35.15147,-8.447793,45.12524,0,0,0,-86.16592,34.29988,-0.7738397,-10.65206,-111.0334,-35.10307,0.001067912,-0.1257102,0.09433498,0,0.3,0,0,0,0,
6.38223E+17,-29.26147,48.53315,49.56625,-82.83408,-6.98289,0.3724372,-4.570632,-0.4441859,0.1400836,-35.22471,-8.447793,45.12524,0,0,0,-92.77483,36.78775,-2.766401,-10.65206,-111.0334,-35.10307,0.001067912,-0.1257102,0.09433498,0,0.3,0,0,0,0,
6.38223E+17,-31.42899,48.53315,50.80365,-84.95818,-5.884212,0.5921727,-4.570632,-0.4441859,0.1400836,-35.22471,-8.447793,45.12524,0,0,0,-99.93258,38.99983,-4.820258,-10.65206,-111.0334,-35.10307,0.001067912,-0.1257102,0.09433498,0,0.3,0,0,0,0,
6.38223E+17,-33.78498,48.41626,52.0644,-87.52177,-4.419309,0.6654179,-4.570632,-0.4441859,0.1400836,-35.22471,-8.447793,45.05199,0,0,0,-107.701,41.1137,-7.376938,-10.65206,-111.0334,-35.10307,0.001067912,-0.1257102,0.09433498,0,0.3,0,0,0,0,
6.38223E+17,-35.33994,48.27599,52.88156,-89.27965,-3.247386,0.6654179,-4.570632,-0.4441859,0.1400836,-35.22471,-8.447793,45.05199,0,0,0,-112.8406,42.405,-9.214787,-10.65206,-111.0334,-35.10307,0.001067912,-0.1257102,0.09433498,0,0.3,0,0,0,0,
6.38223E+17,-37.22474,48.04221,53.69871,-91.33051,-1.855728,0.6654179,-4.570632,-0.4441859,0.1400836,-35.22471,-8.447793,45.05199,0,0,0,-118.9465,43.56669,-11.7842,-10.65206,-111.0334,-35.10307,0.001067912,-0.1257102,0.09433498,0,0.3,0,0,0,0,
6.38223E+17,-38.1907,47.80843,53.93219,-92.06297,-1.123276,0.4456824,-4.570632,-0.4441859,0.1400836,-35.22471,-8.447793,45.05199,0,0,0,-122.0171,43.64066,-13.24213,-10.65206,-111.0334,-35.10307,0.001067912,-0.1257102,0.09433498,0,0.3,0,0,0,0,
6.38223E+17,-40.33466,46.99019,53.95553,-93.60111,0.4148723,-0.8727306,-4.570632,-0.4441859,0.1400836,-35.22471,-8.447793,45.05199,0,0,0,-128.6623,42.39557,-16.8225,-10.65206,-111.0334,-35.10307,0.001067912,-0.1257102,0.09433498,0,0.3,0,0,0,0,
6.38223E+17,-42.31369,45.93817,53.88549,-94.91953,1.879776,-2.70386,-4.570632,-0.4441859,0.1400836,-35.22471,-8.447793,45.05199,0,0,0,-134.9487,40.57732,-20.11453,-10.65206,-111.0334,-35.10307,0.001067912,-0.1257102,0.09433498,0,0.3,0,0,0,0,
6.38223E+17,-44.36341,44.34845,53.3485,-96.09145,3.564415,-4.681479,-4.570632,-0.4441859,0.1400836,-35.22471,-8.447793,45.12524,0,0,0,-141.4796,36.96157,-23.69104,-10.65206,-111.0334,-35.10307,0.001067912,-0.1257102,0.09433498,0,0.3,0,0,0,0,
6.38223E+17,-45.87124,42.4782,52.71812,-96.75066,5.175808,-6.366118,-4.570632,-0.4441859,0.1400836,-35.22471,-8.447793,45.05199,0,0,0,-146.751,32.62754,-25.99546,-10.65206,-111.0334,-35.10307,0.001067912,-0.1257102,0.09433498,0,0.3,0,0,0,0,
6.38223E+17,-47.70892,39.27538,51.99436,-97.40987,7.519653,-8.343738,-4.570632,-0.4441859,0.1400836,-35.22471,-8.447793,45.05199,0,0,0,-154.0877,25.65819,-28.18479,-10.65206,-111.0334,-35.10307,0.001067912,-0.1257102,0.09433498,0,0.3,0,0,0,0,
6.38223E+17,-48.65132,37.05445,51.43402,-97.6296,8.911312,-9.588906,-4.570632,-0.4441859,0.1400836,-35.22471,-8.447793,45.05199,0,0,0,-158.1633,20.57077,-29.16188,-10.65206,-111.0334,-35.10307,0.001067912,-0.1257102,0.09433498,0,0.3,0,0,0,0,
6.38223E+17,-49.73508,33.66461,50.73361,-97.84933,10.96218,-11.27355,-4.570632,-0.4441859,0.1400836,-35.22471,-8.447793,45.05199,0,0,0,-163.4696,12.86917,-29.88965,-10.65206,-111.0334,-35.10307,0.001067912,-0.1257102,0.09433498,0,0.3,0,0,0,0,
6.38223E+17,-50.15916,32.14503,50.40675,-97.84933,11.69463,-11.93275,-4.570632,-0.4441859,0.1400836,-35.22471,-8.447793,45.05199,0,0,0,-165.5941,9.312367,-30.18207,-10.65206,-111.0334,-35.10307,0.001067912,-0.1257102,0.09433498,0,0.3,0,0,0,0,
6.38223E+17,-50.9602,27.46939,49.26273,-97.92258,13.599,-14.49633,-4.570632,-0.4441859,0.1400836,-35.22471,-8.521038,45.05199,0,0,0,-170.376,-2.162091,-30.18615,-10.65206,-111.0334,-35.10307,0.001067912,-0.1257102,0.09433498,0,0.3,0,0,0,0,
6.38223E+17,-51.10155,25.92643,48.91252,-97.92258,14.18496,-15.30203,-4.570632,-0.4441859,0.1400836,-35.22471,-8.447793,45.05199,0,0,0,-171.5565,-5.986185,-29.929,-10.65206,-111.0334,-35.10307,0.001067912,-0.1257102,0.09433498,0,0.3,0,0,0,0,
6.38223E+17,-51.26648,23.02753,48.2121,-97.92258,15.2104,-16.76693,-4.570632,-0.4441859,0.1400836,-35.22471,-8.447793,45.05199,0,0,0,-173.2931,-13.34813,-29.3495,-10.65206,-111.0334,-35.10307,0.001067912,-0.1257102,0.09433498,0,0.3,0,0,0,0,
6.38223E+17,-51.38427,20.01174,47.51169,-97.92258,15.94285,-18.30508,-4.570632,-0.4441859,0.1400836,-35.22471,-8.447793,45.12524,0,0,0,-174.7354,-21.08584,-28.78199,-10.65206,-111.0334,-35.10307,0.001067912,-0.1257102,0.09433498,0,0.3,0,0,0,0,
6.38223E+17,-51.4314,16.0842,46.48441,-97.48311,16.96828,-20.2827,-4.570632,-0.4441859,0.1400836,-35.22471,-8.447793,45.05199,0,0,0,-175.789,-31.52382,-28.1771,-10.65206,-111.0334,-35.10307,0.001067912,-0.1257102,0.09433498,0,0.3,0,0,0,0,
6.38223E+17,-51.45495,14.0503,45.99411,-97.11688,17.40775,-21.38138,-4.570632,-0.4441859,0.1400836,-35.15147,-8.447793,45.05199,0,0,0,-176.1918,-36.91869,-27.97445,-10.65206,-111.0334,-35.10307,0.001067912,-0.1257102,0.09433498,0,0.3,0,0,0,0,
6.38223E+17,-51.45495,11.52545,45.41043,-96.75066,17.99371,-22.77304,-4.570632,-0.4441859,0.1400836,-35.22471,-8.447793,45.05199,0,0,0,-176.4669,-43.62106,-27.7552,-10.65206,-111.0334,-35.10307,0.001067912,-0.1257102,0.09433498,0,0.3,0,0,0,0,
6.38223E+17,-51.45495,10.30979,45.06022,-96.53092,18.21345,-23.359,-4.570632,-0.4441859,0.1400836,-35.22471,-8.447793,45.05199,0,0,0,-176.4371,-46.97784,-27.77895,-10.65206,-111.0334,-35.10307,0.001067912,-0.1257102,0.09433498,0,0.3,0,0,0,0,
6.38223E+17,-51.38427,6.919948,43.70608,-95.72523,18.72616,-25.40986,-4.570632,-0.4441859,0.1400836,-35.22471,-8.521038,45.05199,0,0,0,-175.427,-56.98155,-28.22964,-10.65206,-111.0334,-35.10307,0.001067912,-0.1257102,0.09433498,0,0.3,0,0,0,0,
6.38223E+17,-51.33715,6.148468,43.23914,-95.50549,18.79941,-25.92258,-4.570632,-0.4441859,0.1400836,-35.22471,-8.447793,45.05199,0,0,0,-174.8554,-59.51312,-28.45048,-10.65206,-111.0334,-35.10307,0.001067912,-0.1257102,0.09433498,0,0.3,0,0,0,0,
6.38223E+17,-51.17223,4.699019,41.97839,-94.91953,19.01915,-27.24099,-4.570632,-0.4441859,0.1400836,-35.22471,-8.447793,45.12524,0,0,0,-173.018,-64.8578,-29.10185,-10.65206,-111.0334,-35.10307,0.001067912,-0.1257102,0.09433498,0,0.3,0,0,0,0,
6.38223E+17,-50.98376,3.483352,40.81102,-94.48006,19.09239,-28.33967,-4.570632,-0.4441859,0.1400836,-35.15147,-8.447793,45.05199,0,0,0,-171.1323,-69.47638,-29.68945,-10.65206,-111.0334,-35.10307,0.001067912,-0.1257102,0.09433498,0,0.3,0,0,0,0,
6.38223E+17,-50.58324,1.8235,39.55027,-93.82085,19.01915,-29.80457,-4.570632,-0.4441859,0.1400836,-35.22471,-8.447793,45.05199,0,0,0,-168.5651,-75.22839,-29.80645,-10.65206,-111.0334,-35.10307,0.001067912,-0.1257102,0.09433498,0,0.3,0,0,0,0,
6.38223E+17,-50.34764,1.192288,39.08332,-93.52787,18.87265,-30.24404,-4.570632,-0.4441859,0.1400836,-35.22471,-8.447793,45.05199,0,0,0,-167.3764,-77.38554,-29.62634,-10.65206,-111.0334,-35.10307,0.001067912,-0.1257102,0.09433498,0,0.3,0,0,0,0,
6.38223E+17,-49.85288,0.3974294,38.31286,-93.23489,18.50643,-30.90325,-4.570632,-0.4441859,0.1400836,-35.22471,-8.447793,45.05199,0,0,0,-165.1222,-80.35641,-29.07197,-10.65206,-111.0334,-35.10307,0.001067912,-0.1257102,0.09433498,0,0.3,0,0,0,0,
6.38223E+17,-49.24032,-0.2571602,37.65914,-92.57568,18.06696,-31.41597,-4.570632,-0.4441859,0.1400836,-35.22471,-8.447793,45.05199,0,0,0,-162.7168,-82.8163,-28.09631,-10.65206,-111.0334,-35.10307,0.001067912,-0.1257102,0.09433498,0,0.3,0,0,0,0,
6.38223E+17,-48.32148,-0.9818845,36.91203,-91.69674,17.40775,-31.85544,-4.570632,-0.4441859,0.1400836,-35.22471,-8.447793,45.12524,0,0,0,-159.3999,-85.55627,-26.43706,-10.65206,-111.0334,-35.10307,0.001067912,-0.1257102,0.09433498,0,0.3,0,0,0,0,
6.38223E+17,-47.61468,-1.005263,36.14157,-90.96429,16.74854,-32.14842,-4.570632,-0.4441859,0.1400836,-35.22471,-8.447793,45.12524,0,0,0,-156.5721,-86.67795,-25.45355,-10.65206,-111.0334,-35.10307,0.001067912,-0.1257102,0.09433498,0,0.3,0,0,0,0,
6.38223E+17,-47.09636,-1.005263,35.97814,-90.67131,16.38232,-32.36815,-4.570632,-0.4441859,0.1400836,-35.22471,-8.447793,45.05199,0,0,0,-155.0478,-86.90184,-24.25233,-10.65206,-111.0334,-35.10307,0.001067912,-0.1257102,0.09433498,0,0.3,0,0,0,0,
6.38223E+17,-45.89481,-1.005263,35.79136,-90.23183,15.35689,-33.9063,-4.570632,-0.4441859,0.1400836,-35.22471,-8.447793,45.05199,0,0,0,-151.7392,-87.15665,-21.27785,-10.65206,-111.0334,-35.10307,0.001067912,-0.1257102,0.09433498,0,0.3,0,0,0,0,
6.38223E+17,-44.52832,-1.005263,35.67462,-89.64587,14.33146,-35.3712,-4.570632,-0.4441859,0.1400836,-35.22471,-8.447793,45.05199,0,0,0,-148.0341,-87.31532,-17.85834,-10.65206,-111.0334,-35.10307,0.001067912,-0.1257102,0.09433498,0,0.3,0,0,0,0,
6.38223E+17,-43.23253,-1.005263,35.39445,-88.76694,13.45251,-36.1769,-4.570632,-0.4441859,0.1400836,-35.22471,-8.447793,45.05199,0,0,0,-144.2295,-87.69429,-14.93578,-10.65206,-111.0334,-35.10307,0.001067912,-0.1257102,0.09433498,0,0.3,0,0,0,0,
6.38223E+17,-41.72469,-1.005263,34.81077,-87.30203,12.79331,-36.46988,-4.570632,-0.4441859,0.1400836,-35.22471,-8.447793,45.05199,0,0,0,-139.403,-88.47546,-12.02317,-10.65206,-111.0334,-35.10307,0.001067912,-0.1257102,0.09433498,0,0.3,0,0,0,0,
6.38223E+17,-39.86345,-0.9818845,33.92358,-85.17792,11.98761,-36.10366,-4.570632,-0.4441859,0.1400836,-35.22471,-8.447793,45.05199,0,0,0,-133.1603,-89.58665,-8.885498,-10.65206,-111.0334,-35.10307,0.001067912,-0.1257102,0.09433498,0,0.3,0,0,0,0,
6.38223E+17,-37.62526,-0.9818845,32.66283,-81.88189,11.3284,-33.75981,-4.570632,-0.4441859,0.1400836,-35.22471,-8.447793,45.05199,0,0,0,-125.3337,-91.1973,-5.749247,-10.65206,-111.0334,-35.10307,0.001067912,-0.1257102,0.09433498,0,0.3,0,0,0,0,
6.38223E+17,-35.85826,-0.9585064,31.72893,-78.73235,10.96218,-30.9765,-4.570632,-0.4441859,0.1400836,-35.22471,-8.447793,45.05199,0,0,0,-119.1834,-92.30098,-3.451841,-10.65206,-111.0334,-35.10307,0.001067912,-0.1257102,0.09433498,0,0.3,0,0,0,0,
6.38223E+17,-33.45514,-0.6312115,30.65496,-74.04465,10.52271,-25.33662,-4.570632,-0.4441859,0.1400836,-35.22471,-8.447793,45.05199,0,0,0,-110.9915,-92.83383,-0.374614,-10.65206,-111.0334,-35.10307,0.001067912,-0.1257102,0.09433498,0,0.3,0,0,0,0,
6.38223E+17,-32.3007,-0.116891,30.23471,-71.33459,10.22972,-21.45462,-4.570632,-0.4441859,0.1400836,-35.22471,-8.447793,45.12524,0,0,0,-107.1383,-92.13244,1.121342,-10.65206,-111.0334,-35.10307,0.001067912,-0.1257102,0.09433498,0,0.3,0,0,0,0,
6.38223E+17,-29.16723,3.343083,30.07128,-63.13113,8.03237,-8.343738,-4.570632,-0.4441859,0.1400836,-35.22471,-8.447793,45.12524,0,0,0,-97.44365,-84.27518,6.239271,-10.65206,-111.0334,-35.10307,0.001067912,-0.1257102,0.09433498,0,0.3,0,0,0,0,
6.38223E+17,-28.27195,4.932801,30.16467,-60.4943,6.713957,-3.509557,-4.570632,-0.4441859,0.1400836,-35.22471,-8.447793,45.05199,0,0,0,-94.66641,-80.47598,7.670967,-10.65206,-111.0334,-35.10307,0.001067912,-0.1257102,0.09433498,0,0.3,0,0,0,0,
6.38223E+17,-26.64632,8.135615,30.65496,-56.02634,3.491169,5.79258,-4.570632,-0.4441859,0.1400836,-35.15147,-8.447793,45.05199,0,0,0,-89.69576,-72.49355,10.40723,-10.65206,-111.0334,-35.10307,0.001067912,-0.1257102,0.09433498,0,0.3,0,0,0,0,
6.38223E+17,-25.11492,11.33843,31.09856,-52.43733,-0.09784385,13.92279,-4.570632,-0.4441859,0.1400836,-35.15147,-8.447793,45.05199,0,0,0,-84.72756,-64.61784,12.40144,-10.65206,-111.0334,-35.10307,0.001067912,-0.1257102,0.09433498,0,0.3,0,0,0,0,
6.38223E+17,-23.23012,16.6219,31.21529,-48.18911,-5.444741,23.29818,-4.570632,-0.4441859,0.1400836,-35.22471,-8.447793,45.05199,0,0,0,-77.6572,-52.54899,12.57508,-10.65206,-111.0334,-35.10307,0.001067912,-0.1257102,0.09433498,0,0.3,0,0,0,0,
6.38223E+17,-22.61756,18.88959,31.51881,-46.79745,-7.349115,26.08149,-4.570632,-0.4441859,0.1400836,-35.22471,-8.447793,45.05199,0,0,0,-75.33151,-47.15523,12.4661,-10.65206,-111.0334,-35.10307,0.001067912,-0.1257102,0.09433498,0,0.3,0,0,0,0,
6.38223E+17,-21.62804,23.02753,32.61613,-44.81983,-11.08462,30.18322,-4.570632,-0.4441859,0.1400836,-35.22471,-8.447793,45.05199,0,0,0,-71.72595,-36.80783,12.55033,-10.65206,-111.0334,-35.10307,0.001067912,-0.1257102,0.09433498,0,0.3,0,0,0,0,
6.38223E+17,-20.80345,26.90831,34.06366,-43.35493,-14.82012,33.77223,-4.570632,-0.4441859,0.1400836,-35.22471,-8.447793,45.05199,0,0,0,-68.76087,-26.76982,12.63149,-10.65206,-111.0334,-35.10307,0.001067912,-0.1257102,0.09433498,0,0.3,0,0,0,0,
6.38223E+17,-20.09665,31.16315,36.44508,-42.40274,-19.50781,38.24019,-4.570632,-0.4441859,0.1400836,-35.22471,-8.447793,45.05199,0,0,0,-66.42706,-14.91477,13.20341,-10.65206,-111.0334,-35.10307,0.001067912,-0.1257102,0.09433498,0,0.3,0,0,0,0,
6.38223E+17,-19.60189,34.38934,38.12609,-42.54923,-23.17007,41.97569,-4.570632,-0.4441859,0.1400836,-35.22471,-8.447793,45.12524,0,0,0,-64.5376,-6.232443,12.87373,-10.65206,-111.0334,-35.10307,0.001067912,-0.1257102,0.09433498,0,0.3,0,0,0,0,
6.38223E+17,-19.22493,36.04919,38.94324,-42.84221,-24.92796,43.73357,-4.570632,-0.4441859,0.1400836,-35.22471,-8.447793,45.05199,0,0,0,-63.10019,-1.891747,12.59554,-10.65206,-111.0334,-35.10307,0.001067912,-0.1257102,0.09433498,0,0.3,0,0,0,0,
6.38223E+17,-18.23541,39.48579,40.53086,-43.42817,-28.59021,46.80988,-4.570632,-0.4441859,0.1400836,-35.22471,-8.447793,45.12524,0,0,0,-59.32239,6.792014,11.70496,-10.65206,-111.0334,-35.10307,0.001067912,-0.1257102,0.09433498,0,0.3,0,0,0,0,
6.38223E+17,-17.19877,42.75873,42.09512,-43.72115,-31.88625,49.15372,-4.570632,-0.4441859,0.1400836,-35.22471,-8.447793,45.05199,0,0,0,-55.3826,14.93291,10.57585,-10.65206,-111.0334,-35.10307,0.001067912,-0.1257102,0.09433498,0,0.3,0,0,0,0,
6.38223E+17,-16.09145,46.1252,43.5193,-43.94089,-34.8893,51.13134,-4.570632,-0.4441859,0.1400836,-35.22471,-8.447793,45.05199,0,0,0,-51.06813,22.7784,8.678814,-10.65206,-111.0334,-35.10307,0.001067912,-0.1257102,0.09433498,0,0.3,0,0,0,0,
6.38223E+17,-14.58362,49.81895,44.96684,-44.23387,-38.11209,52.74273,-4.570632,-0.4441859,0.1400836,-35.22471,-8.447793,45.05199,0,0,0,-45.39221,30.88341,6.117901,-10.65206,-111.0334,-35.10307,0.001067912,-0.1257102,0.09433498,0,0.3,0,0,0,0,
6.38223E+17,-12.98154,53.32568,46.27428,-44.16063,-40.8954,53.69492,-4.570632,-0.4441859,0.1400836,-35.22471,-8.447793,45.05199,0,0,0,-39.53875,38.13005,3.163267,-10.65206,-111.0334,-35.10307,0.001067912,-0.1257102,0.09433498,0,0.3,0,0,0,0,
6.38223E+17,-10.67266,57.20647,47.34826,-42.9887,-43.75196,53.9879,-4.570632,-0.4441859,0.1400836,-35.22471,-8.447793,45.05199,0,0,0,-31.53939,45.09768,-0.9948583,-10.65206,-111.0334,-35.10307,0.001067912,-0.1257102,0.09433498,0,0.3,0,0,0,0,
6.38223E+17,-8.528707,59.87158,48.04868,-40.35188,-45.65634,52.59624,-4.570632,-0.4441859,0.1400836,-35.22471,-8.447793,45.05199,0,0,0,-24.6346,49.5404,-4.079069,-10.65206,-111.0334,-35.10307,0.001067912,-0.1257102,0.09433498,0,0.3,0,0,0,0,
6.38223E+17,-5.86643,62.63021,48.53897,-35.44445,-47.63396,48.86074,-4.570632,-0.4441859,0.1400836,-35.22471,-8.447793,45.05199,0,0,0,-16.48014,53.48008,-7.955895,-10.65206,-111.0334,-35.10307,0.001067912,-0.1257102,0.09433498,0,0.3,0,0,0,0,
6.38223E+17,-4.452833,63.86925,48.6557,-32.29491,-48.43966,46.07742,-4.570632,-0.4441859,0.1400836,-35.22471,-8.447793,45.05199,0,0,0,-12.33232,54.98182,-9.986311,-10.65206,-111.0334,-35.10307,0.001067912,-0.1257102,0.09433498,0,0.3,0,0,0,0,
6.38223E+17,-1.013078,66.09018,48.77244,-23.65198,-49.39184,38.24019,-4.570632,-0.4441859,0.1400836,-35.22471,-8.447793,45.05199,0,0,0,-2.728807,57.37201,-14.03534,-10.65206,-111.0334,-35.10307,0.001067912,-0.1257102,0.09433498,0,0.3,0,0,0,0,
6.38223E+17,2.897875,67.6799,48.81913,-13.10467,-49.53833,27.47315,-4.570632,-0.4441859,0.1400836,-35.22471,-8.447793,45.05199,0,0,0,7.634326,58.90622,-17.53549,-10.65206,-111.0334,-35.10307,0.001067912,-0.1257102,0.09433498,0,0.3,0,0,0,0,
6.38223E+17,6.855949,68.52151,48.79579,-2.70386,-48.5129,16.19339,-4.570632,-0.4441859,0.1400836,-35.22471,-8.447793,45.05199,0,0,0,17.80509,59.59591,-20.26213,-10.65206,-111.0334,-35.10307,0.001067912,-0.1257102,0.09433498,0,0.3,0,0,0,0,
6.38223E+17,10.79046,68.70854,48.58566,6.232051,-46.53528,5.93907,-4.570632,-0.4441859,0.1400836,-35.22471,-8.447793,45.05199,0,0,0,27.78804,59.38727,-22.54814,-10.65206,-111.0334,-35.10307,0.001067912,-0.1257102,0.09433498,0,0.3,0,0,0,0,
6.38223E+17,16.13857,68.28773,48.11871,15.24121,-42.72653,-6.073137,-4.570632,-0.4441859,0.1400836,-35.22471,-8.521038,45.05199,0,0,0,41.30931,58.21622,-25.59131,-10.65206,-111.0334,-35.10307,0.001067912,-0.1257102,0.09433498,0,0.3,0,0,0,0,
6.38223E+17,18.91865,67.70328,47.74516,18.75698,-40.52918,-11.63977,-4.570632,-0.4441859,0.1400836,-35.15147,-8.447793,45.12524,0,0,0,48.40488,57.06115,-27.12094,-10.65206,-111.0334,-35.10307,0.001067912,-0.1257102,0.09433498,0,0.3,0,0,0,0,
6.38223E+17,23.04164,66.16032,46.76458,23.00519,-37.08665,-18.74455,-4.570632,-0.4441859,0.1400836,-35.22471,-8.447793,45.05199,0,0,0,59.12049,53.97813,-29.35181,-10.65206,-111.0334,-35.10307,0.001067912,-0.1257102,0.09433498,0,0.3,0,0,0,0,
6.38223E+17,27.16464,63.77574,45.38708,26.30123,-33.20466,-24.75066,-4.570632,-0.4441859,0.1400836,-35.22471,-8.447793,45.05199,0,0,0,70.24142,49.32095,-31.46721,-10.65206,-111.0334,-35.10307,0.001067912,-0.1257102,0.09433498,0,0.3,0,0,0,0,
6.38223E+17,31.26407,60.75995,43.79947,29.23104,-28.59021,-30.24404,-4.570632,-0.4441859,0.1400836,-35.22471,-8.447793,45.05199,0,0,0,81.70551,43.46107,-33.778,-10.65206,-111.0334,-35.10307,0.001067912,-0.1257102,0.09433498,0,0.3,0,0,0,0,
6.38223E+17,32.88971,59.40401,42.98232,30.25646,-26.68584,-32.36815,-4.570632,-0.4441859,0.1400836,-35.22471,-8.447793,45.05199,0,0,0,86.22509,40.58062,-35.01378,-10.65206,-111.0334,-35.10307,0.001067912,-0.1257102,0.09433498,0,0.3,0,0,0,0,
6.38223E+17,36.61218,55.40634,40.83437,32.60031,-21.77841,-37.20233,-4.570632,-0.4441859,0.1400836,-35.22471,-8.447793,45.05199,0,0,0,97.1552,32.23061,-37.58848,-10.65206,-111.0334,-35.10307,0.001067912,-0.1257102,0.09433498,0,0.3,0,0,0,0,
6.38223E+17,39.53362,50.42678,38.96659,34.72442,-16.65125,-41.08433,-4.570632,-0.4441859,0.1400836,-35.22471,-8.521038,45.05199,0,0,0,107.454,22.45633,-38.15363,-10.65206,-111.0334,-35.10307,0.001067912,-0.1257102,0.09433498,0,0.3,0,0,0,0,
6.38223E+17,41.37129,44.67575,36.98207,36.33582,-10.79164,-43.86765,-4.570632,-0.4441859,0.1400836,-35.22471,-8.447793,45.05199,0,0,0,115.6925,10.5844,-36.98994,-10.65206,-111.0334,-35.10307,0.001067912,-0.1257102,0.09433498,0,0.3,0,0,0,0,
6.38223E+17,42.26657,38.36363,35.04425,37.21476,-4.639044,-45.2593,-4.570632,-0.4441859,0.1400836,-35.22471,-8.447793,45.05199,0,0,0,121.8238,-3.061123,-34.31038,-10.65206,-111.0334,-35.10307,0.001067912,-0.1257102,0.09433498,0,0.3,0,0,0,0,
6.38223E+17,42.19589,32.21516,34.15705,37.06827,1.074079,-44.96632,-4.570632,-0.4441859,0.1400836,-35.22471,-8.447793,45.05199,0,0,0,126.0667,-15.90844,-29.29774,-10.65206,-111.0334,-35.10307,0.001067912,-0.1257102,0.09433498,0,0.3,0,0,0,0,
6.38223E+17,41.44197,26.2771,34.13371,36.33582,6.640712,-42.54923,-4.570632,-0.4441859,0.1400836,-35.22471,-8.447793,45.12524,0,0,0,128.6633,-27.99209,-22.62546,-10.65206,-111.0334,-35.10307,0.001067912,-0.1257102,0.09433498,0,0.3,0,0,0,0,
6.38223E+17,39.91058,20.71309,33.97027,34.65118,12.9398,-38.88697,-4.570632,-0.4441859,0.1400836,-35.22471,-8.447793,45.05199,0,0,0,127.8317,-40.07647,-15.5223,-10.65206,-111.0334,-35.10307,0.001067912,-0.1257102,0.09433498,0,0.3,0,0,0,0,
6.38223E+17,38.59122,18.0246,33.22316,32.82005,16.82179,-36.10366,-4.570632,-0.4441859,0.1400836,-35.15147,-8.447793,45.05199,0,0,0,124.6698,-46.94115,-12.12969,-10.65206,-111.0334,-35.10307,0.001067912,-0.1257102,0.09433498,0,0.3,0,0,0,0,
6.38223E+17,37.7195,16.90244,32.42935,31.64813,18.9459,-34.56551,-4.570632,-0.4441859,0.1400836,-35.15147,-8.447793,45.05199,0,0,0,121.8084,-50.43394,-10.85914,-10.65206,-111.0334,-35.10307,0.001067912,-0.1257102,0.09433498,0,0.3,0,0,0,0,
6.38223E+17,35.4813,15.61664,30.07128,28.64507,22.82789,-31.34272,-4.570632,-0.4441859,0.1400836,-35.22471,-8.447793,45.05199,0,0,0,113.328,-56.15369,-9.36027,-10.65206,-111.0334,-35.10307,0.001067912,-0.1257102,0.09433498,0,0.3,0,0,0,0,
6.38223E+17,32.65411,15.17245,27.15287,25.49553,25.83095,-28.11993,-4.570632,-0.4441859,0.1400836,-35.22471,-8.447793,45.05199,0,0,0,102.2792,-60.40272,-8.752778,-10.65206,-111.0334,-35.10307,0.001067912,-0.1257102,0.09433498,0,0.3,0,0,0,0,
6.38223E+17,29.40283,15.03218,24.3512,21.76003,28.39453,-25.11688,-4.570632,-0.4441859,0.1400836,-35.22471,-8.447793,45.05199,0,0,0,90.22169,-63.55067,-8.250781,-10.65206,-111.0334,-35.10307,0.001067912,-0.1257102,0.09433498,0,0.3,0,0,0,0,
6.38223E+17,25.539,15.07894,21.96978,16.92585,30.37215,-22.26032,-4.570632,-0.4441859,0.1400836,-35.22471,-8.447793,45.05199,0,0,0,77.01929,-65.62534,-7.158143,-10.65206,-111.0334,-35.10307,0.001067912,-0.1257102,0.09433498,0,0.3,0,0,0,0,
6.38223E+17,21.32176,15.75691,19.84518,11.35921,32.20328,-19.91648,-4.570632,-0.4441859,0.1400836,-35.22471,-8.447793,45.05199,0,0,0,63.125,-65.86874,-6.624308,-10.65206,-111.0334,-35.10307,0.001067912,-0.1257102,0.09433498,0,0.3,0,0,0,0,
6.38223E+17,16.20925,17.93108,17.32367,3.155754,33.81467,-17.49938,-4.570632,-0.4441859,0.1400836,-35.22471,-8.447793,45.05199,0,0,0,46.50028,-62.89612,-8.391404,-10.65206,-111.0334,-35.10307,0.001067912,-0.1257102,0.09433498,0,0.3,0,0,0,0,
6.38223E+17,13.54698,19.80134,16.36643,-2.117898,34.1809,-16.47395,-4.570632,-0.4441859,0.1400836,-35.22471,-8.447793,45.05199,0,0,0,38.19106,-59.42292,-9.845409,-10.65206,-111.0334,-35.10307,0.001067912,-0.1257102,0.09433498,0,0.3,0,0,0,0,
6.38223E+17,11.04962,23.09766,15.68936,-7.684532,33.66818,-14.78931,-4.570632,-0.4441859,0.1400836,-35.22471,-8.447793,45.05199,0,0,0,30.42033,-52.71849,-12.57138,-10.65206,-111.0334,-35.10307,0.001067912,-0.1257102,0.09433498,0,0.3,0,0,0,0,
6.38223E+17,10.1779,25.03806,15.57263,-9.66215,33.08222,-13.83713,-4.570632,-0.4441859,0.1400836,-35.15147,-8.447793,45.05199,0,0,0,27.67517,-48.66844,-14.19679,-10.65206,-111.0334,-35.10307,0.001067912,-0.1257102,0.09433498,0,0.3,0,0,0,0,
6.38223E+17,8.552266,32.14503,16.13296,-13.61739,28.834,-10.68758,-4.570632,-0.4441859,0.1400836,-35.22471,-8.447793,45.05199,0,0,0,22.30102,-33.79785,-20.05589,-10.65206,-111.0334,-35.10307,0.001067912,-0.1257102,0.09433498,0,0.3,0,0,0,0,
6.38223E+17,8.269547,35.1842,16.83338,-14.34984,26.49015,-10.02838,-4.570632,-0.4441859,0.1400836,-35.22471,-8.447793,45.12524,0,0,0,21.22995,-27.44889,-22.28051,-10.65206,-111.0334,-35.10307,0.001067912,-0.1257102,0.09433498,0,0.3,0,0,0,0,
6.38223E+17,8.104627,40.3274,18.44434,-15.15554,21.72922,-9.36917,-4.570632,-0.4441859,0.1400836,-35.22471,-8.447793,45.12524,0,0,0,20.28018,-16.85196,-25.93647,-10.65206,-111.0334,-35.10307,0.001067912,-0.1257102,0.09433498,0,0.3,0,0,0,0,
6.38223E+17,8.293106,45.4706,20.63898,-15.59501,16.45556,-9.076189,-4.570632,-0.4441859,0.1400836,-35.22471,-8.447793,45.05199,0,0,0,20.26792,-6.377605,-29.30134,-10.65206,-111.0334,-35.10307,0.001067912,-0.1257102,0.09433498,0,0.3,0,0,0,0,
6.38223E+17,9.070585,51.75934,24.18777,-16.03448,8.984557,-10.02838,-4.570632,-0.4441859,0.1400836,-35.15147,-8.447793,45.05199,0,0,0,21.62601,6.442586,-32.88904,-10.65206,-111.0334,-35.10307,0.001067912,-0.1257102,0.09433498,0,0.3,0,0,0,0,
6.38223E+17,9.824504,55.19594,26.63923,-15.7415,4.150376,-11.2003,-4.570632,-0.4441859,0.1400836,-35.22471,-8.447793,45.05199,0,0,0,23.18921,13.65029,-34.44029,-10.65206,-111.0334,-35.10307,0.001067912,-0.1257102,0.09433498,0,0.3,0,0,0,0,
6.38223E+17,11.07318,58.93645,29.62768,-14.78931,-2.73467,-13.17792,-4.570632,-0.4441859,0.1400836,-35.22471,-8.447793,45.05199,0,0,0,25.87664,21.6617,-36.1281,-10.65206,-111.0334,-35.10307,0.001067912,-0.1257102,0.09433498,0,0.3,0,0,0,0,
6.38223E+17,11.75642,60.05861,30.53822,-14.20335,-5.517986,-14.05686,-4.570632,-0.4441859,0.1400836,-35.22471,-8.447793,45.05199,0,0,0,27.36662,24.04955,-36.85382,-10.65206,-111.0334,-35.10307,0.001067912,-0.1257102,0.09433498,0,0.3,0,0,0,0,
6.38223E+17,15.64381,61.15738,31.30868,-10.10162,-12.98899,-17.13316,-4.570632,-0.4441859,0.1400836,-35.22471,-8.521038,45.05199,0,0,0,36.03252,26.22609,-39.67598,-10.65206,-111.0334,-35.10307,0.001067912,-0.1257102,0.09433498,0,0.3,0,0,0,0,
6.38223E+17,17.19877,60.68982,31.1219,-7.611286,-14.23416,-18.30508,-4.570632,-0.4441859,0.1400836,-35.22471,-8.447793,45.05199,0,0,0,39.68221,25.47196,-40.14775,-10.65206,-111.0334,-35.10307,0.001067912,-0.1257102,0.09433498,0,0.3,0,0,0,0,
6.38223E+17,19.86105,58.72605,30.37479,-2.191144,-15.03986,-20.2827,-4.570632,-0.4441859,0.1400836,-35.22471,-8.447793,45.05199,0,0,0,46.42722,22.27769,-39.82327,-10.65206,-111.0334,-35.10307,0.001067912,-0.1257102,0.09433498,0,0.3,0,0,0,0,
6.38223E+17,22.40552,54.72837,28.6471,3.302244,-14.16092,-21.30813,-4.570632,-0.4441859,0.1400836,-35.22471,-8.447793,45.12524,0,0,0,53.71802,15.19357,-38.05596,-10.65206,-111.0334,-35.10307,0.001067912,-0.1257102,0.09433498,0,0.3,0,0,0,0,
6.38223E+17,24.8322,47.27073,25.96216,9.821064,-9.25349,-20.86866,-4.570632,-0.4441859,0.1400836,-35.22471,-8.447793,45.05199,0,0,0,62.51568,1.411878,-33.25311,-10.65206,-111.0334,-35.10307,0.001067912,-0.1257102,0.09433498,0,0.3,0,0,0,0,
6.38223E+17,25.44476,43.46008,24.58467,12.3114,-5.664476,-19.477,-4.570632,-0.4441859,0.1400836,-35.22471,-8.447793,45.05199,0,0,0,65.42191,-6.186817,-30.84911,-10.65206,-111.0334,-35.10307,0.001067912,-0.1257102,0.09433498,0,0.3,0,0,0,0,
6.38223E+17,25.72748,37.56877,22.36668,14.94823,0.6346079,-16.62044,-4.570632,-0.4441859,0.1400836,-35.22471,-8.447793,45.05199,0,0,0,67.9093,-18.66248,-27.4179,-10.65206,-111.0334,-35.10307,0.001067912,-0.1257102,0.09433498,0,0.3,0,0,0,0,
6.38223E+17,25.23272,31.7476,20.61563,16.41313,7.299919,-13.32441,-4.570632,-0.4441859,0.1400836,-35.15147,-8.447793,45.05199,0,0,0,68.35636,-31.29486,-23.3004,-10.65206,-111.0334,-35.10307,0.001067912,-0.1257102,0.09433498,0,0.3,0,0,0,0,
6.38223E+17,23.60708,25.22508,19.33154,16.70611,14.91741,-9.515661,-4.570632,-0.4441859,0.1400836,-35.22471,-8.447793,45.05199,0,0,0,65.98705,-45.6511,-17.36249,-10.65206,-111.0334,-35.10307,0.001067912,-0.1257102,0.09433498,0,0.3,0,0,0,0,
6.38223E+17,21.60448,20.66633,18.91129,15.82717,20.63054,-5.780157,-4.570632,-0.4441859,0.1400836,-35.22471,-8.447793,45.12524,0,0,0,61.85287,-55.73941,-12.1632,-10.65206,-111.0334,-35.10307,0.001067912,-0.1257102,0.09433498,0,0.3,0,0,0,0,
6.38223E+17,20.16733,18.32851,18.79455,14.80174,23.56034,-3.656047,-4.570632,-0.4441859,0.1400836,-35.22471,-8.447793,45.05199,0,0,0,58.45358,-60.95588,-9.197817,-10.65206,-111.0334,-35.10307,0.001067912,-0.1257102,0.09433498,0,0.3,0,0,0,0,
6.38223E+17,16.39773,13.91003,18.74786,11.28597,29.34671,0.8851534,-4.570632,-0.4441859,0.1400836,-35.22471,-8.447793,45.05199,0,0,0,48.64051,-70.86767,-3.059566,-10.65206,-111.0334,-35.10307,0.001067912,-0.1257102,0.09433498,0,0.3,0,0,0,0,
6.38223E+17,12.93442,11.52545,18.65447,6.671522,33.44844,4.327676,-4.570632,-0.4441859,0.1400836,-35.22471,-8.447793,45.05199,0,0,0,38.79396,-76.35066,0.5669572,-10.65206,-111.0334,-35.10307,0.001067912,-0.1257102,0.09433498,0,0.3,0,0,0,0,
6.38223E+17,9.918744,10.91762,18.39765,1.54436,36.23176,6.891257,-4.570632,-0.4441859,0.1400836,-35.22471,-8.447793,45.05199,0,0,0,29.80345,-77.9282,2.086862,-10.65206,-111.0334,-35.10307,0.001067912,-0.1257102,0.09433498,0,0.3,0,0,0,0,
6.38223E+17,6.879509,11.43194,18.3743,-3.216576,37.69667,9.088613,-4.570632,-0.4441859,0.1400836,-35.22471,-8.447793,45.05199,0,0,0,20.69104,-76.77101,3.145799,-10.65206,-111.0334,-35.10307,0.001067912,-0.1257102,0.09433498,0,0.3,0,0,0,0,
6.38223E+17,3.463314,12.5541,18.42099,-7.684532,37.62342,11.21272,-4.570632,-0.4441859,0.1400836,-35.22471,-8.447793,45.05199,0,0,0,10.40854,-74.18206,3.635247,-10.65206,-111.0334,-35.10307,0.001067912,-0.1257102,0.09433498,0,0.3,0,0,0,0,
6.38223E+17,0.04711992,14.30746,18.42099,-13.10467,36.45149,12.53114,-4.570632,-0.4441859,0.1400836,-35.22471,-8.447793,45.05199,0,0,0,0.1409196,-70.21304,3.002057,-10.65206,-111.0334,-35.10307,0.001067912,-0.1257102,0.09433498,0,0.3,0,0,0,0,
6.38223E+17,-1.484278,16.24785,18.44434,-17.2064,35.13308,12.53114,-4.570632,-0.4441859,0.1400836,-35.22471,-8.447793,45.05199,0,0,0,-4.408984,-65.83961,1.806643,-10.65206,-111.0334,-35.10307,0.001067912,-0.1257102,0.09433498,0,0.3,0,0,0,0,
6.38223E+17,-1.554958,19.89485,18.42099,-20.86866,33.08222,11.43246,-4.570632,-0.4441859,0.1400836,-35.22471,-8.447793,45.05199,0,0,0,-4.546051,-57.78884,-0.8820348,-10.65206,-111.0334,-35.10307,0.001067912,-0.1257102,0.09433498,0,0.3,0,0,0,0,
6.38223E+17,-1.107318,22.25605,18.42099,-21.60111,31.76381,10.70001,-4.570632,-0.4441859,0.1400836,-35.22471,-8.447793,45.05199,0,0,0,-3.199348,-52.66136,-2.827266,-10.65206,-111.0334,-35.10307,0.001067912,-0.1257102,0.09433498,0,0.3,0,0,0,0,
6.38223E+17,0.7774788,31.11639,19.6117,-19.98972,26.63664,9.235103,-4.570632,-0.4441859,0.1400836,-35.22471,-8.447793,45.05199,0,0,0,2.156431,-33.35184,-9.442996,-10.65206,-111.0334,-35.10307,0.001067912,-0.1257102,0.09433498,0,0.3,0,0,0,0,
6.38223E+17,1.272238,34.48285,20.66233,-18.74455,24.43929,8.942122,-4.570632,-0.4441859,0.1400836,-35.22471,-8.447793,45.12524,0,0,0,3.485273,-25.92505,-11.41502,-10.65206,-111.0334,-35.10307,0.001067912,-0.1257102,0.09433498,0,0.3,0,0,0,0,
6.38223E+17,1.955477,41.42618,23.62743,-16.40071,19.45862,8.136425,-4.570632,-0.4441859,0.1400836,-35.22471,-8.447793,45.05199,0,0,0,5.235544,-10.58977,-15.0073,-10.65206,-111.0334,-35.10307,0.001067912,-0.1257102,0.09433498,0,0.3,0,0,0,0,
6.38223E+17,2.403116,48.6968,27.78325,-14.64282,13.67225,7.110993,-4.570632,-0.4441859,0.1400836,-35.22471,-8.447793,45.05199,0,0,0,6.296836,5.549098,-18.30709,-10.65206,-111.0334,-35.10307,0.001067912,-0.1257102,0.09433498,0,0.3,0,0,0,0,
6.38223E+17,2.662276,58.67929,34.71738,-13.32441,5.102563,5.353109,-4.570632,-0.4441859,0.1400836,-35.22471,-8.447793,45.05199,0,0,0,6.747413,27.65717,-23.24105,-10.65206,-111.0334,-35.10307,0.001067912,-0.1257102,0.09433498,0,0.3,0,0,0,0,
6.38223E+17,2.568036,63.65885,38.8732,-12.95818,0.1951368,4.693902,-4.570632,-0.4441859,0.1400836,-35.22471,-8.447793,45.05199,0,0,0,6.400926,39.03611,-25.63376,-10.65206,-111.0334,-35.10307,0.001067912,-0.1257102,0.09433498,0,0.3,0,0,0,0,
6.38223E+17,2.143956,71.35027,46.50775,-13.17792,-8.814018,3.888205,-4.570632,-0.4441859,0.1400836,-35.15147,-8.447793,45.05199,0,0,0,5.214406,57.91896,-29.06359,-10.65206,-111.0334,-35.10307,0.001067912,-0.1257102,0.09433498,0,0.3,0,0,0,0,
6.38223E+17,1.578517,77.24158,53.25511,-14.86256,-17.5302,3.595225,-4.570632,-0.4441859,0.1400836,-35.22471,-8.447793,45.05199,0,0,0,3.754729,73.63052,-32.0983,-10.65206,-111.0334,-35.10307,0.001067912,-0.1257102,0.09433498,0,0.3,0,0,0,0,
6.38223E+17,1.083758,82.01073,59.46548,-18.8178,-26.31961,3.595225,-4.570632,-0.4441859,0.1400836,-35.22471,-8.447793,45.05199,0,0,0,2.522969,87.65628,-34.98242,-10.65206,-111.0334,-35.10307,0.001067912,-0.1257102,0.09433498,0,0.3,0,0,0,0,
6.38223E+17,0.6361189,85.21355,63.71469,-23.50549,-32.91168,5.060128,-4.570632,-0.4441859,0.1400836,-35.22471,-8.447793,45.12524,0,0,0,1.450924,97.18206,-37.66943,-10.65206,-111.0334,-35.10307,0.001067912,-0.1257102,0.09433498,0,0.3,0,0,0,0,
6.38223E+17,0.3298394,86.663,65.48908,-26.58179,-35.695,6.525032,-4.570632,-0.4441859,0.1400836,-35.22471,-8.447793,45.05199,0,0,0,0.7431676,101.1514,-39.25721,-10.65206,-111.0334,-35.10307,0.001067912,-0.1257102,0.09433498,0,0.3,0,0,0,0,
6.38223E+17,-0.4711992,89.14109,68.31409,-34.41902,-40.30944,10.55352,-4.570632,-0.4441859,0.1400836,-35.22471,-8.447793,45.05199,0,0,0,-1.035477,107.4098,-42.44335,-10.65206,-111.0334,-35.10307,0.001067912,-0.1257102,0.09433498,0,0.3,0,0,0,0,
6.38223E+17,-1.177998,91.33864,69.66824,-45.2593,-43.31249,16.55962,-4.570632,-0.4441859,0.1400836,-35.22471,-8.447793,45.05199,0,0,0,-2.506627,110.3304,-46.4492,-10.65206,-111.0334,-35.10307,0.001067912,-0.1257102,0.09433498,0,0.3,0,0,0,0,
6.38223E+17,-1.484278,92.1335,69.36472,-49.43428,-43.89846,18.68373,-4.570632,-0.4441859,0.1400836,-35.22471,-8.447793,45.05199,0,0,0,-3.10392,109.6126,-48.55993,-10.65206,-111.0334,-35.10307,0.001067912,-0.1257102,0.09433498,0,0.3,0,0,0,0,
6.38223E+17,-2.403116,92.78809,67.70707,-53.24303,-43.75196,20.44161,-4.570632,-0.4441859,0.1400836,-35.22471,-8.447793,45.05199,0,0,0,-4.901471,105.9569,-51.55627,-10.65206,-111.0334,-35.10307,0.001067912,-0.1257102,0.09433498,0,0.3,0,0,0,0,
6.38223E+17,-3.486874,92.74133,64.22832,-54.70793,-42.14057,19.70916,-4.570632,-0.4441859,0.1400836,-35.22471,-8.521038,45.05199,0,0,0,-6.915734,98.5687,-54.85205,-10.65206,-111.0334,-35.10307,0.001067912,-0.1257102,0.09433498,0,0.3,0,0,0,0,
6.38223E+17,-3.958073,91.80621,58.85846,-53.02329,-38.99103,14.94823,-4.570632,-0.4441859,0.1400836,-35.22471,-8.521038,45.05199,0,0,0,-7.588094,87.67126,-58.68201,-10.65206,-111.0334,-35.10307,0.001067912,-0.1257102,0.09433498,0,0.3,0,0,0,0,
6.38223E+17,-4.052313,90.56716,54.79603,-50.45971,-36.50069,10.11404,-4.570632,-0.4441859,0.1400836,-35.22471,-8.447793,45.12524,0,0,0,-7.606692,79.81867,-60.97814,-10.65206,-111.0334,-35.10307,0.001067912,-0.1257102,0.09433498,0,0.3,0,0,0,0,
6.38223E+17,-4.122993,89.46838,52.13445,-48.62858,-35.03579,7.110993,-4.570632,-0.4441859,0.1400836,-35.22471,-8.447793,45.05199,0,0,0,-7.657887,74.8426,-62.1148,-10.65206,-111.0334,-35.10307,0.001067912,-0.1257102,0.09433498,0,0.3,0,0,0,0,
6.38223E+17,-4.594193,86.1253,45.94742,-44.89308,-31.1538,0.6654179,-4.570632,-0.4441859,0.1400836,-35.22471,-8.447793,45.05199,0,0,0,-8.398264,63.6745,-63.83688,-10.65206,-111.0334,-35.10307,0.001067912,-0.1257102,0.09433498,0,0.3,0,0,0,0,
6.38223E+17,-4.876912,82.33804,40.34408,-42.03651,-26.83233,-4.754725,-4.570632,-0.4441859,0.1400836,-35.22471,-8.447793,45.05199,0,0,0,-8.850698,53.874,-64.61994,-10.65206,-111.0334,-35.10307,0.001067912,-0.1257102,0.09433498,0,0.3,0,0,0,0,
6.38223E+17,-4.994712,78.2936,35.27772,-39.76591,-22.65736,-9.588906,-4.570632,-0.4441859,0.1400836,-35.22471,-8.447793,45.05199,0,0,0,-9.060838,45.06443,-64.67393,-10.65206,-111.0334,-35.10307,0.001067912,-0.1257102,0.09433498,0,0.3,0,0,0,0,
6.38223E+17,-5.230311,73.45432,30.00124,-37.86154,-18.04291,-13.76388,-4.570632,-0.4441859,0.1400836,-35.22471,-8.447793,45.05199,0,0,0,-9.540095,35.69532,-64.13287,-10.65206,-111.0334,-35.10307,0.001067912,-0.1257102,0.09433498,0,0.3,0,0,0,0,
6.38223E+17,-5.348111,67.91368,24.77145,-36.61637,-13.06224,-17.27965,-4.570632,-0.4441859,0.1400836,-35.22471,-8.447793,45.05199,0,0,0,-9.881175,25.83458,-62.79789,-10.65206,-111.0334,-35.10307,0.001067912,-0.1257102,0.09433498,0,0.3,0,0,0,0,
6.38223E+17,-5.348111,59.91833,18.23421,-35.59094,-6.250438,-20.57568,-4.570632,-0.4441859,0.1400836,-35.22471,-8.447793,45.05199,0,0,0,-10.11899,12.08546,-60.25757,-10.65206,-111.0334,-35.10307,0.001067912,-0.1257102,0.09433498,0,0.3,0,0,0,0,
6.38223E+17,-5.253871,54.5881,14.5687,-35.29796,-2.221954,-22.40681,-4.570632,-0.4441859,0.1400836,-35.22471,-8.447793,45.12524,0,0,0,-10.14699,2.968886,-58.00291,-10.65206,-111.0334,-35.10307,0.001067912,-0.1257102,0.09433498,0,0.3,0,0,0,0,
6.38223E+17,-4.806232,46.56938,10.38953,-35.3712,3.78415,-25.19013,-4.570632,-0.4441859,0.1400836,-35.22471,-8.447793,45.12524,0,0,0,-9.696007,-10.9739,-53.03376,-10.65206,-111.0334,-35.10307,0.001067912,-0.1257102,0.09433498,0,0.3,0,0,0,0,
6.38223E+17,-3.722474,38.24674,7.517819,-35.81068,9.790254,-27.75371,-4.570632,-0.4441859,0.1400836,-35.15147,-8.447793,45.05199,0,0,0,-7.931959,-26.30353,-46.43427,-10.65206,-111.0334,-35.10307,0.001067912,-0.1257102,0.09433498,0,0.3,0,0,0,0,
6.38223E+17,-2.026157,29.50329,6.280415,-36.39664,16.89503,-29.87782,-4.570632,-0.4441859,0.1400836,-35.22471,-8.447793,45.05199,0,0,0,-4.619082,-43.52834,-37.78576,-10.65206,-111.0334,-35.10307,0.001067912,-0.1257102,0.09433498,0,0.3,0,0,0,0,
6.38223E+17,-1.177998,25.94981,6.257067,-36.61637,20.04458,-30.39053,-4.570632,-0.4441859,0.1400836,-35.15147,-8.447793,45.05199,0,0,0,-2.763866,-50.85385,-33.93931,-10.65206,-111.0334,-35.10307,0.001067912,-0.1257102,0.09433498,0,0.3,0,0,0,0,
6.38223E+17,0.8010387,19.40391,6.630623,-36.39664,26.05068,-30.9765,-4.570632,-0.4441859,0.1400836,-35.22471,-8.447793,45.05199,0,0,0,1.973647,-64.80578,-27.19041,-10.65206,-111.0334,-35.10307,0.001067912,-0.1257102,0.09433498,0,0.3,0,0,0,0,
6.38223E+17,2.426676,14.96205,7.190958,-35.29796,30.95811,-31.19623,-4.570632,-0.4441859,0.1400836,-35.22471,-8.447793,45.12524,0,0,0,6.161494,-74.52293,-22.95915,-10.65206,-111.0334,-35.10307,0.001067912,-0.1257102,0.09433498,0,0.3,0,0,0,0,
