zeyangz2/DNN_classification_different_people_hand/data/zeyang_right_16.csv
Timestamp,Therapist joint angle 0,Therapist joint angle 1,Therapist joint angle 2,Therapist joint angle 3,Therapist joint angle 4,Therapist joint angle 5,Patient joint angle 0,Patient joint angle 1,Patient joint angle 2,Patient joint angle 3,Patient joint angle 4,Patient joint angle 5,Virtual joint angle 0,Virtual joint angle 1,Virtual joint angle 2,Therapist position x,Therapist position y,Therapist position z,Patient position x,Patient position y,Patient position z,Virtual position x,Virtual position y,Virtual position z,Assistive Force, Obstacle Force Magnitude, Therapist Constant Force, Patient Constant Force, Recovery Factor, Assistance Level,label
6.38224E+17,0,0,0,0,0,0,0,0,0,0,0,0,0,0,0,0,0,0,0,0,0,0,0,0,0,0.3,0,0,0,0,0
6.38224E+17,1.719877,-1.005263,3.128534,42.78139,-63.08869,48.12829,49.26388,0.5610769,-12.37405,-96.38443,-11.30435,14.36226,0,0,0,4.220046,-112.1408,-27.80615,79.38486,-105.5964,-99.98113,0.001067912,-0.1257102,0.09433498,0,0.3,0,0,7.31E-08,0,
6.38224E+17,1.719877,-1.005263,3.128534,42.78139,-63.01544,48.12829,49.26388,0.5610769,-12.37405,-96.38443,-11.30435,14.36226,0,0,0,4.220046,-112.1408,-27.80615,79.38486,-105.5964,-99.98113,0.001067912,-0.1257102,0.09433498,0,0.3,0,0,7.31E-08,0,
6.38224E+17,1.719877,-1.005263,3.128534,42.78139,-63.08869,48.12829,49.26388,0.5610769,-12.37405,-96.45767,-11.30435,14.36226,0,0,0,4.220046,-112.1408,-27.80615,79.38486,-105.5964,-99.98113,0.001067912,-0.1257102,0.09433498,0,0.3,0,0,7.31E-08,0,
6.38224E+17,1.719877,-1.005263,3.128534,42.78139,-63.08869,48.12829,49.26388,0.5610769,-12.37405,-96.38443,-11.30435,14.36226,0,0,0,4.220046,-112.1408,-27.80615,79.38486,-105.5964,-99.98113,0.001067912,-0.1257102,0.09433498,0,0.3,0,0,0,0,
6.38224E+17,1.719877,-1.005263,3.128534,42.78139,-63.08869,48.12829,49.26388,0.5610769,-12.37405,-96.38443,-11.30435,14.36226,0,0,0,4.220046,-112.1408,-27.80615,79.38486,-105.5964,-99.98113,0.001067912,-0.1257102,0.09433498,0,0.3,0,0,0,0,
6.38224E+17,1.719877,-1.005263,3.128534,42.78139,-63.08869,48.12829,49.26388,0.5610769,-12.37405,-96.38443,-11.30435,14.36226,0,0,0,4.220046,-112.1408,-27.80615,79.38486,-105.5964,-99.98113,0.001067912,-0.1257102,0.09433498,0,0.3,0,0,0,0,
6.38224E+17,1.719877,-1.005263,3.128534,42.78139,-63.08869,48.12829,49.26388,0.5610769,-12.37405,-96.38443,-11.30435,14.28902,0,0,0,4.220046,-112.1408,-27.80615,79.38486,-105.5964,-99.98113,0.001067912,-0.1257102,0.09433498,0,0.3,0,0,0,0,
6.38224E+17,1.719877,-1.005263,3.128534,42.78139,-63.08869,48.12829,49.26388,0.5610769,-12.37405,-96.38443,-11.30435,14.36226,0,0,0,4.220046,-112.1408,-27.80615,79.38486,-105.5964,-99.98113,0.001067912,-0.1257102,0.09433498,0,0.3,0,0,0,0,
6.38224E+17,1.719877,-1.005263,3.128534,42.78139,-63.08869,48.12829,49.26388,0.5610769,-12.37405,-96.38443,-11.30435,14.36226,0,0,0,4.220046,-112.1408,-27.80615,79.38486,-105.5964,-99.98113,0.001067912,-0.1257102,0.09433498,0,0.3,0,0,0,0,
6.38224E+17,1.719877,-1.005263,3.128534,42.70815,-63.08869,48.12829,49.26388,0.5610769,-12.37405,-96.38443,-11.30435,14.36226,0,0,0,4.220046,-112.1408,-27.80615,79.38486,-105.5964,-99.98113,0.001067912,-0.1257102,0.09433498,0,0.3,0,0,0,0,
6.38224E+17,1.719877,-1.005263,3.128534,42.78139,-63.08869,48.12829,49.26388,0.5610769,-12.37405,-96.38443,-11.30435,14.36226,0,0,0,4.220046,-112.1408,-27.80615,79.38486,-105.5964,-99.98113,0.001067912,-0.1257102,0.09433498,0,0.3,0,0,0,0,
6.38224E+17,1.719877,-1.005263,3.128534,42.78139,-63.08869,48.12829,49.26388,0.5610769,-12.37405,-96.38443,-11.30435,14.36226,0,0,0,4.220046,-112.1408,-27.80615,79.38486,-105.5964,-99.98113,0.001067912,-0.1257102,0.09433498,0,0.3,0,0,0,0,
6.38224E+17,1.719877,-1.005263,3.128534,42.78139,-63.08869,48.12829,49.26388,0.5610769,-12.37405,-96.38443,-11.30435,14.36226,0,0,0,4.220046,-112.1408,-27.80615,79.38486,-105.5964,-99.98113,0.001067912,-0.1257102,0.09433498,0,0.3,0,0,7.31E-08,0,
6.38224E+17,1.719877,-1.005263,3.128534,42.78139,-63.08869,48.12829,49.26388,0.5610769,-12.37405,-96.38443,-11.23111,14.36226,0,0,0,4.220046,-112.1408,-27.80615,79.38486,-105.5964,-99.98113,0.001067912,-0.1257102,0.09433498,0,0.3,0,0,1.46E-07,0,
6.38224E+17,1.719877,-1.005263,3.128534,42.78139,-63.16194,48.12829,49.26388,0.5610769,-12.37405,-96.38443,-11.30435,14.36226,0,0,0,4.220046,-112.1408,-27.80615,79.38486,-105.5964,-99.98113,0.001067912,-0.1257102,0.09433498,0,0.3,0,0,2.19E-07,0,
6.38224E+17,1.719877,-1.005263,3.128534,42.78139,-63.08869,48.12829,49.26388,0.5610769,-12.37405,-96.38443,-11.30435,14.36226,0,0,0,4.220046,-112.1408,-27.80615,79.38486,-105.5964,-99.98113,0.001067912,-0.1257102,0.09433498,0,0.3,0,0,2.19E-07,0,
6.38224E+17,1.719877,-1.005263,3.128534,42.78139,-63.08869,48.12829,49.26388,0.5610769,-12.37405,-96.38443,-11.30435,14.36226,0,0,0,4.220046,-112.1408,-27.80615,79.38486,-105.5964,-99.98113,0.001067912,-0.1257102,0.09433498,0,0.3,0,0,2.92E-07,0,
6.38224E+17,1.719877,-1.005263,3.128534,42.78139,-63.08869,48.20153,49.26388,0.5610769,-12.37405,-96.38443,-11.30435,14.36226,0,0,0,4.220046,-112.1408,-27.80615,79.38486,-105.5964,-99.98113,0.001067912,-0.1257102,0.09433498,0,0.3,0,0,3.65E-07,0,
6.38224E+17,1.719877,-1.005263,3.128534,42.78139,-63.08869,48.12829,49.26388,0.5610769,-12.37405,-96.38443,-11.30435,14.36226,0,0,0,4.220046,-112.1408,-27.80615,79.38486,-105.5964,-99.98113,0.001067912,-0.1257102,0.09433498,0,0.3,0,0,3.65E-07,0,
6.38224E+17,1.719877,-1.005263,3.128534,42.78139,-63.08869,48.12829,49.26388,0.5610769,-12.37405,-96.38443,-11.23111,14.36226,0,0,0,4.220046,-112.1408,-27.80615,79.38486,-105.5964,-99.98113,0.001067912,-0.1257102,0.09433498,0,0.3,0,0,4.38E-07,0,
6.38224E+17,1.719877,-1.005263,3.128534,42.78139,-63.08869,48.12829,49.26388,0.5610769,-12.37405,-96.45767,-11.30435,14.36226,0,0,0,4.220046,-112.1408,-27.80615,79.38486,-105.5964,-99.98113,0.001067912,-0.1257102,0.09433498,0,0.3,0,0,4.38E-07,0,
6.38224E+17,1.719877,-1.005263,3.128534,42.78139,-63.08869,48.12829,49.26388,0.5610769,-12.37405,-96.38443,-11.30435,14.36226,0,0,0,4.220046,-112.1408,-27.80615,79.38486,-105.5964,-99.98113,0.001067912,-0.1257102,0.09433498,0,0.3,0,0,4.38E-07,0,
6.38224E+17,1.719877,-1.005263,3.128534,42.78139,-63.08869,48.12829,49.26388,0.5610769,-12.37405,-96.38443,-11.30435,14.36226,0,0,0,4.220046,-112.1408,-27.80615,79.38486,-105.5964,-99.98113,0.001067912,-0.1257102,0.09433498,0,0.3,0,0,5.11E-07,0,
6.38224E+17,1.719877,-1.005263,3.128534,42.78139,-63.08869,48.12829,49.26388,0.5610769,-12.37405,-96.38443,-11.30435,14.36226,0,0,0,4.220046,-112.1408,-27.80615,79.38486,-105.5964,-99.98113,0.001067912,-0.1257102,0.09433498,0,0.3,0,0,4.38E-07,0,
6.38224E+17,1.719877,-1.005263,3.128534,42.78139,-63.16194,48.12829,49.26388,0.5610769,-12.37405,-96.38443,-11.30435,14.36226,0,0,0,4.220046,-112.1408,-27.80615,79.38486,-105.5964,-99.98113,0.001067912,-0.1257102,0.09433498,0,0.3,0,0,4.38E-07,0,
6.38224E+17,1.719877,-1.005263,3.128534,42.78139,-63.08869,48.12829,49.26388,0.5610769,-12.37405,-96.38443,-11.30435,14.36226,0,0,0,4.220046,-112.1408,-27.80615,79.38486,-105.5964,-99.98113,0.001067912,-0.1257102,0.09433498,0,0.3,0,0,5.11E-07,0,
6.38224E+17,1.719877,-1.005263,3.128534,42.78139,-63.08869,48.12829,49.26388,0.5610769,-12.37405,-96.38443,-11.30435,14.36226,0,0,0,4.220046,-112.1408,-27.80615,79.38486,-105.5964,-99.98113,0.001067912,-0.1257102,0.09433498,0,0.3,0,0,5.11E-07,0,
6.38224E+17,1.719877,-1.005263,3.128534,42.78139,-63.08869,48.12829,49.26388,0.5610769,-12.37405,-96.38443,-11.30435,14.36226,0,0,0,4.220046,-112.1408,-27.80615,79.38486,-105.5964,-99.98113,0.001067912,-0.1257102,0.09433498,0,0.3,0,0,5.11E-07,0,
6.38224E+17,1.719877,-1.005263,3.128534,42.78139,-63.01544,48.12829,49.26388,0.5610769,-12.37405,-96.45767,-11.30435,14.36226,0,0,0,4.220046,-112.1408,-27.80615,79.38486,-105.5964,-99.98113,0.001067912,-0.1257102,0.09433498,0,0.3,0,0,5.11E-07,0,
6.38224E+17,1.719877,-1.005263,3.128534,42.78139,-63.01544,48.12829,49.26388,0.5610769,-12.37405,-96.38443,-11.30435,14.36226,0,0,0,4.220046,-112.1408,-27.80615,79.38486,-105.5964,-99.98113,0.001067912,-0.1257102,0.09433498,0,0.3,0,0,5.85E-07,0,
6.38224E+17,1.719877,-1.005263,3.128534,42.78139,-63.08869,48.12829,49.26388,0.5610769,-12.37405,-96.38443,-11.30435,14.28902,0,0,0,4.220046,-112.1408,-27.80615,79.38486,-105.5964,-99.98113,0.001067912,-0.1257102,0.09433498,0,0.3,0,0,5.85E-07,0,
6.38224E+17,1.719877,-1.005263,3.128534,42.78139,-63.01544,48.12829,49.26388,0.5610769,-12.37405,-96.38443,-11.30435,14.36226,0,0,0,4.220046,-112.1408,-27.80615,79.38486,-105.5964,-99.98113,0.001067912,-0.1257102,0.09433498,0,0.3,0,0,5.85E-07,0,
6.38224E+17,1.719877,-1.005263,3.128534,42.78139,-63.08869,48.12829,49.26388,0.5610769,-12.37405,-96.38443,-11.30435,14.36226,0,0,0,4.220046,-112.1408,-27.80615,79.38486,-105.5964,-99.98113,0.001067912,-0.1257102,0.09433498,0,0.3,0,0,5.85E-07,0,
6.38224E+17,1.719877,-1.005263,3.128534,42.78139,-63.08869,48.12829,49.26388,0.5610769,-12.37405,-96.38443,-11.30435,14.36226,0,0,0,4.220046,-112.1408,-27.80615,79.38486,-105.5964,-99.98113,0.001067912,-0.1257102,0.09433498,0,0.3,0,0,5.85E-07,0,
6.38224E+17,1.719877,-1.005263,3.128534,42.78139,-63.08869,48.12829,49.26388,0.5610769,-12.37405,-96.38443,-11.30435,14.36226,0,0,0,4.220046,-112.1408,-27.80615,79.38486,-105.5964,-99.98113,0.001067912,-0.1257102,0.09433498,0,0.3,0,0,6.58E-07,0,
6.38224E+17,1.719877,-1.005263,3.128534,42.78139,-63.08869,48.12829,49.26388,0.5610769,-12.37405,-96.38443,-11.30435,14.36226,0,0,0,4.220046,-112.1408,-27.80615,79.38486,-105.5964,-99.98113,0.001067912,-0.1257102,0.09433498,0,0.3,0,0,6.58E-07,0,
6.38224E+17,1.719877,-1.005263,3.128534,42.78139,-63.08869,48.12829,49.26388,0.5610769,-12.37405,-96.38443,-11.30435,14.36226,0,0,0,4.220046,-112.1408,-27.80615,79.38486,-105.5964,-99.98113,0.001067912,-0.1257102,0.09433498,0,0.3,0,0,6.58E-07,0,
6.38224E+17,1.719877,-1.005263,3.128534,42.78139,-63.08869,48.20153,49.26388,0.5610769,-12.37405,-96.38443,-11.30435,14.36226,0,0,0,4.220046,-112.1408,-27.80615,79.38486,-105.5964,-99.98113,0.001067912,-0.1257102,0.09433498,0,0.3,0,0,6.58E-07,0,
6.38224E+17,1.719877,-1.005263,3.128534,42.78139,-63.08869,48.12829,49.26388,0.5610769,-12.37405,-96.38443,-11.30435,14.36226,0,0,0,4.220046,-112.1408,-27.80615,79.38486,-105.5964,-99.98113,0.001067912,-0.1257102,0.09433498,0,0.3,0,0,6.58E-07,0,
6.38224E+17,1.719877,-1.005263,3.128534,42.78139,-63.08869,48.12829,49.26388,0.5610769,-12.37405,-96.38443,-11.30435,14.36226,0,0,0,4.220046,-112.1408,-27.80615,79.38486,-105.5964,-99.98113,0.001067912,-0.1257102,0.09433498,0,0.3,0,0,6.58E-07,0,
6.38224E+17,1.719877,-1.005263,3.128534,42.78139,-63.08869,48.12829,49.26388,0.5610769,-12.37405,-96.38443,-11.30435,14.36226,0,0,0,4.220046,-112.1408,-27.80615,79.38486,-105.5964,-99.98113,0.001067912,-0.1257102,0.09433498,0,0.3,0,0,6.58E-07,0,
6.38224E+17,1.719877,-1.005263,3.128534,42.78139,-63.08869,48.12829,49.26388,0.5610769,-12.37405,-96.38443,-11.30435,14.36226,0,0,0,4.220046,-112.1408,-27.80615,79.38486,-105.5964,-99.98113,0.001067912,-0.1257102,0.09433498,0,0.3,0,0,6.58E-07,0,
6.38224E+17,1.719877,-1.005263,3.128534,42.78139,-63.08869,48.12829,49.26388,0.5610769,-12.37405,-96.38443,-11.30435,14.36226,0,0,0,4.220046,-112.1408,-27.80615,79.38486,-105.5964,-99.98113,0.001067912,-0.1257102,0.09433498,0,0.3,0,0,7.31E-07,0,
6.38224E+17,1.719877,-1.005263,3.128534,42.78139,-63.08869,48.12829,49.26388,0.5610769,-12.37405,-96.38443,-11.30435,14.36226,0,0,0,4.220046,-112.1408,-27.80615,79.38486,-105.5964,-99.98113,0.001067912,-0.1257102,0.09433498,0,0.3,0,0,7.31E-07,0,
6.38224E+17,1.719877,-1.005263,3.128534,42.78139,-63.08869,48.12829,49.26388,0.5610769,-12.37405,-96.38443,-11.30435,14.36226,0,0,0,4.220046,-112.1408,-27.80615,79.38486,-105.5964,-99.98113,0.001067912,-0.1257102,0.09433498,0,0.3,0,0,7.31E-07,0,
6.38224E+17,1.719877,-1.005263,3.128534,42.78139,-63.08869,48.12829,49.26388,0.5610769,-12.37405,-96.38443,-11.30435,14.36226,0,0,0,4.220046,-112.1408,-27.80615,79.38486,-105.5964,-99.98113,0.001067912,-0.1257102,0.09433498,0,0.3,0,0,7.31E-07,0,
6.38224E+17,1.719877,-1.005263,3.128534,42.70815,-63.08869,48.12829,49.26388,0.5610769,-12.37405,-96.38443,-11.30435,14.36226,0,0,0,4.220046,-112.1408,-27.80615,79.38486,-105.5964,-99.98113,0.001067912,-0.1257102,0.09433498,0,0.3,0,0,6.58E-07,0,
6.38224E+17,1.719877,-1.005263,3.128534,42.78139,-63.08869,48.12829,49.26388,0.5610769,-12.37405,-96.38443,-11.23111,14.36226,0,0,0,4.220046,-112.1408,-27.80615,79.38486,-105.5964,-99.98113,0.001067912,-0.1257102,0.09433498,0,0.3,0,0,5.85E-07,0,
6.38224E+17,1.719877,-1.005263,3.128534,42.78139,-63.08869,48.12829,49.26388,0.5610769,-12.37405,-96.45767,-11.30435,14.36226,0,0,0,4.220046,-112.1408,-27.80615,79.38486,-105.5964,-99.98113,0.001067912,-0.1257102,0.09433498,0,0.3,0,0,5.11E-07,0,
6.38224E+17,1.719877,-1.005263,3.128534,42.78139,-63.08869,48.12829,49.26388,0.5610769,-12.37405,-96.38443,-11.30435,14.28902,0,0,0,4.220046,-112.1408,-27.80615,79.38486,-105.5964,-99.98113,0.001067912,-0.1257102,0.09433498,0,0.3,0,0,4.38E-07,0,
6.38224E+17,1.649197,-1.005263,3.035145,42.78139,-63.08869,47.9818,49.26388,0.5610769,-12.37405,-96.38443,-11.30435,14.28902,0,0,0,4.040421,-112.1525,-28.018,79.38486,-105.5964,-99.98113,0.001067912,-0.1257102,0.09433498,0,0.3,0,0,2.12E-06,0,
6.38224E+17,1.602077,-1.005263,2.871714,42.78139,-63.08869,46.66338,49.26388,0.5610769,-12.37405,-96.38443,-11.30435,14.36226,0,0,0,3.914391,-112.1721,-28.39444,79.38486,-105.5964,-99.98113,0.001067912,-0.1257102,0.09433498,0,0.3,0,0,2.20E-05,0,
6.38224E+17,1.554958,-0.9818845,2.848366,42.78139,-63.01544,41.68271,49.26388,0.5610769,-12.37405,-96.38443,-11.30435,14.36226,0,0,0,3.797844,-112.1204,-28.44457,79.38486,-105.5964,-99.98113,0.001067912,-0.1257102,0.09433498,0,0.3,0,0,5.78E-05,0,
6.38224E+17,1.766997,-0.9818845,3.385354,41.75596,-63.01544,36.99502,49.26388,0.5610769,-12.37405,-96.38443,-11.30435,14.36226,0,0,0,4.354057,-112.0524,-27.21225,79.38486,-105.5964,-99.98113,0.001067912,-0.1257102,0.09433498,0,0.3,0,0,1.42E-05,0,
6.38224E+17,2.332436,-0.8182371,3.875646,37.58098,-63.01544,36.04284,49.26388,0.5610769,-12.37405,-96.38443,-11.30435,14.36226,0,0,0,5.793269,-111.5993,-26.11824,79.38486,-105.5964,-99.98113,0.001067912,-0.1257102,0.09433498,0,0.3,0,0,0,0,
6.38224E+17,2.756516,-0.7247244,4.01573,33.91872,-62.9422,37.58098,49.26388,0.5610769,-12.37405,-96.38443,-11.30435,14.36226,0,0,0,6.861624,-111.3593,-25.83721,79.38486,-105.5964,-99.98113,0.001067912,-0.1257102,0.09433498,0,0.3,0,0,3.66E-05,0,
6.38224E+17,3.416194,-0.6779679,3.992383,24.68983,-61.18431,43.66033,49.26388,0.5610769,-12.37405,-96.45767,-11.30435,14.36226,0,0,0,8.498813,-111.2543,-25.97844,79.38486,-105.5964,-99.98113,0.001067912,-0.1257102,0.09433498,0,0.3,0,0,0.000337073,0,
6.38224E+17,3.816714,-0.7013461,3.992383,14.582,-57.81504,50.61862,49.26388,0.5610769,-12.37405,-96.38443,-11.30435,14.36226,0,0,0,9.493785,-111.3087,-26.04198,79.38486,-105.5964,-99.98113,0.001067912,-0.1257102,0.09433498,0,0.3,0,0,0.000790621,0,
6.38224E+17,3.863834,-0.7013461,3.992383,9.967555,-55.69093,53.25545,49.26388,0.5610769,-12.37405,-96.38443,-11.30435,14.36226,0,0,0,9.610815,-111.3087,-26.04983,79.38486,-105.5964,-99.98113,0.001067912,-0.1257102,0.09433498,0,0.3,0,0,0.001031095,0,
6.38224E+17,3.840273,-0.7013461,3.992383,1.69085,-50.41727,56.55148,49.26388,0.5610769,-12.37405,-96.38443,-11.30435,14.36226,0,0,0,9.5523,-111.3087,-26.04589,79.38486,-105.5964,-99.98113,0.001067912,-0.1257102,0.09433498,0,0.3,0,0,0.001493849,0,
6.38224E+17,3.840273,-0.8883717,4.085772,-4.242009,-43.89846,58.38261,49.26388,0.5610769,-12.37405,-96.38443,-11.30435,14.36226,0,0,0,9.566418,-111.7286,-25.83559,79.38486,-105.5964,-99.98113,0.001067912,-0.1257102,0.09433498,0,0.3,0,0,0.001915391,0,
6.38224E+17,3.840273,-0.9585064,4.179161,-5.999893,-40.60242,58.89533,49.26388,0.5610769,-12.37405,-96.38443,-11.30435,14.36226,0,0,0,9.580761,-111.8762,-25.62192,79.38486,-105.5964,-99.98113,0.001067912,-0.1257102,0.09433498,0,0.3,0,0,0.002100478,0,
6.38224E+17,3.840273,-0.9818845,4.365939,-8.050756,-34.15685,59.55453,49.26388,0.5610769,-12.37405,-96.38443,-11.30435,14.36226,0,0,0,9.609733,-111.8982,-25.19031,79.38486,-105.5964,-99.98113,0.001067912,-0.1257102,0.09433498,0,0.3,0,0,0.002417019,0,
6.38224E+17,3.840273,-0.9117499,4.576064,-9.36917,-28.22399,59.92076,49.26388,0.5610769,-12.37405,-96.38443,-11.30435,14.36226,0,0,0,9.642568,-111.6968,-24.70116,79.38486,-105.5964,-99.98113,0.001067912,-0.1257102,0.09433498,0,0.3,0,0,0.002671303,0,
6.38224E+17,3.863834,-0.7714807,4.576064,-10.83407,-24.342,59.11506,49.26388,0.5610769,-12.37405,-96.38443,-11.30435,14.36226,0,0,0,9.701959,-111.3704,-24.70035,79.38486,-105.5964,-99.98113,0.001067912,-0.1257102,0.09433498,0,0.3,0,0,0.002906955,0,
6.38224E+17,3.863834,-0.7247244,4.459328,-11.49328,-22.43762,57.79665,49.26388,0.5610769,-12.37405,-96.38443,-11.30435,14.36226,0,0,0,9.683803,-111.283,-24.96916,79.38486,-105.5964,-99.98113,0.001067912,-0.1257102,0.09433498,0,0.3,0,0,0.003039797,0,
6.38224E+17,3.863834,-0.7247244,3.992383,-12.51871,-19.28808,54.64711,49.26388,0.5610769,-12.37405,-96.38443,-11.30435,14.36226,0,0,0,9.61077,-111.3631,-26.05051,79.38486,-105.5964,-99.98113,0.001067912,-0.1257102,0.09433498,0,0.3,0,0,0.003391338,0,
6.38224E+17,3.863834,-0.7247244,3.945688,-13.76388,-16.28502,51.86379,49.26388,0.5610769,-12.37405,-96.38443,-11.30435,14.36226,0,0,0,9.603464,-111.3706,-26.15868,79.38486,-105.5964,-99.98113,0.001067912,-0.1257102,0.09433498,0,0.3,0,0,0.003772838,0,
6.38224E+17,3.863834,-0.7247244,3.945688,-14.42309,-15.03986,50.98485,49.26388,0.5610769,-12.37405,-96.38443,-11.23111,14.36226,0,0,0,9.603464,-111.3706,-26.15868,79.38486,-105.5964,-99.98113,0.001067912,-0.1257102,0.09433498,0,0.3,0,0,0.003958729,0,
6.38224E+17,3.863834,-0.7481025,3.945688,-15.44852,-13.50171,49.95942,49.26388,0.5610769,-12.37405,-96.38443,-11.23111,14.36226,0,0,0,9.603417,-111.425,-26.15938,79.38486,-105.5964,-99.98113,0.001067912,-0.1257102,0.09433498,0,0.3,0,0,0.004320865,0,
6.38224E+17,3.863834,-0.8649935,4.01573,-16.18097,-13.35522,49.51994,49.26388,0.5610769,-12.37405,-96.38443,-11.30435,14.36226,0,0,0,9.614118,-111.6857,-26.00095,79.38486,-105.5964,-99.98113,0.001067912,-0.1257102,0.09433498,0,0.3,0,0,0.004660715,0,
6.38224E+17,3.863834,-0.9818845,4.109118,-16.47395,-13.42846,49.37346,49.26388,0.5610769,-12.37405,-96.38443,-11.30435,14.36226,0,0,0,9.628431,-111.9423,-25.78901,79.38486,-105.5964,-99.98113,0.001067912,-0.1257102,0.09433498,0,0.3,0,0,0.004809194,0,
6.38224E+17,3.840273,-0.9818845,4.249202,-16.98667,-13.57495,49.59319,49.26388,0.5610769,-12.37405,-96.38443,-11.30435,14.36226,0,0,0,9.591588,-111.9186,-25.46062,79.38486,-105.5964,-99.98113,0.001067912,-0.1257102,0.09433498,0,0.3,0,0,0.005061798,0,
6.38224E+17,3.769594,-0.9818845,4.109118,-17.49938,-13.79469,50.98485,49.26388,0.5610769,-12.37405,-96.38443,-11.23111,14.36226,0,0,0,9.393935,-111.9423,-25.77336,79.38486,-105.5964,-99.98113,0.001067912,-0.1257102,0.09433498,0,0.3,0,0,0.005312356,0,
6.38224E+17,3.604674,-0.9818845,3.898993,-17.71912,-14.01443,52.37651,49.26388,0.5610769,-12.37405,-96.38443,-11.30435,14.36226,0,0,0,8.952833,-111.9765,-26.2338,79.38486,-105.5964,-99.98113,0.001067912,-0.1257102,0.09433498,0,0.3,0,0,0.005562549,0,
6.38224E+17,3.486874,-0.9818845,3.875646,-17.49938,-14.01443,52.81598,49.26388,0.5610769,-12.37405,-96.38443,-11.30435,14.36226,0,0,0,8.657327,-111.9802,-26.26981,79.38486,-105.5964,-99.98113,0.001067912,-0.1257102,0.09433498,0,0.3,0,0,0.005672154,0,
6.38224E+17,3.416194,-0.9818845,3.898993,-16.84018,-13.57495,53.1822,49.26388,0.5610769,-12.37405,-96.38443,-11.30435,14.36226,0,0,0,8.485281,-111.9765,-26.20512,79.38486,-105.5964,-99.98113,0.001067912,-0.1257102,0.09433498,0,0.3,0,0,0.005867982,0,
6.38224E+17,3.416194,-0.9818845,4.202508,-15.7415,-12.25654,54.06115,49.26388,0.5610769,-12.37405,-96.38443,-11.23111,14.36226,0,0,0,8.527269,-111.9266,-25.50174,79.38486,-105.5964,-99.98113,0.001067912,-0.1257102,0.09433498,0,0.3,0,0,0.006010031,0,
6.38224E+17,3.439754,-0.9818845,4.552717,-15.15554,-11.01137,54.86684,49.26388,0.5610769,-12.37405,-96.38443,-11.30435,14.36226,0,0,0,8.634768,-111.8644,-24.69402,79.38486,-105.5964,-99.98113,0.001067912,-0.1257102,0.09433498,0,0.3,0,0,0.006030052,0,
6.38224E+17,3.439754,-0.9818845,5.393219,-14.05686,-7.715342,56.55148,49.26388,0.5610769,-12.37405,-96.38443,-11.30435,14.36226,0,0,0,8.751695,-111.6948,-22.74873,79.38486,-105.5964,-99.98113,0.001067912,-0.1257102,0.09433498,0,0.3,0,0,0.005931115,0,
6.38224E+17,3.463314,-0.9351282,6.257067,-12.6652,-4.053083,57.28393,49.26388,0.5610769,-12.37405,-96.38443,-11.30435,14.36226,0,0,0,8.932501,-111.3819,-20.75406,79.38486,-105.5964,-99.98113,0.001067912,-0.1257102,0.09433498,0,0.3,0,0,0.005644168,0,
6.38224E+17,3.463314,-0.9117499,6.560582,-11.85951,-2.368444,56.91771,49.26388,0.5610769,-12.37405,-96.38443,-11.30435,14.36226,0,0,0,8.97496,-111.2487,-20.05249,79.38486,-105.5964,-99.98113,0.001067912,-0.1257102,0.09433498,0,0.3,0,0,0.005448047,0,
6.38224E+17,3.463314,-0.8649935,6.794055,-10.02838,1.000834,53.25545,49.26388,0.5610769,-12.37405,-96.38443,-11.23111,14.36226,0,0,0,9.007665,-111.0767,-19.51209,79.38486,-105.5964,-99.98113,0.001067912,-0.1257102,0.09433498,0,0.3,0,0,0.005013352,0,
6.38224E+17,3.463314,-0.8649935,6.583929,-7.904267,4.443357,48.12829,49.26388,0.5610769,-12.37405,-96.38443,-11.30435,14.36226,0,0,0,8.978323,-111.1337,-19.99692,79.38486,-105.5964,-99.98113,0.001067912,-0.1257102,0.09433498,0,0.3,0,0,0.004616215,0,
6.38224E+17,3.463314,-0.8883717,5.579997,-6.073137,7.446409,43.80682,49.26388,0.5610769,-12.37405,-96.38443,-11.30435,14.36226,0,0,0,8.837919,-111.4356,-22.31688,79.38486,-105.5964,-99.98113,0.001067912,-0.1257102,0.09433498,0,0.3,0,0,0.004399342,0,
6.38224E+17,3.463314,-0.8883717,4.762842,-5.340686,8.838067,42.26867,49.26388,0.5610769,-12.37405,-96.38443,-11.23111,14.36226,0,0,0,8.723498,-111.607,-24.2075,79.38486,-105.5964,-99.98113,0.001067912,-0.1257102,0.09433498,0,0.3,0,0,0.004410523,0,
6.38224E+17,3.463314,-0.9351282,2.73163,-3.949028,11.03542,40.51079,49.26388,0.5610769,-12.37405,-96.38443,-11.23111,14.28902,0,0,0,8.438437,-112.0248,-28.9177,79.38486,-105.5964,-99.98113,0.001067912,-0.1257102,0.09433498,0,0.3,0,0,0.004734077,0,
6.38224E+17,3.463314,-0.9585064,0.8871961,-3.070086,12.50033,39.77834,49.26388,0.5610769,-12.37405,-96.38443,-11.30435,14.36226,0,0,0,8.179203,-112.2147,-33.20116,79.38486,-105.5964,-99.98113,0.001067912,-0.1257102,0.09433498,0,0.3,0,0,0.005427222,0,
6.38224E+17,3.463314,-0.9585064,0.09338906,-2.777105,13.08629,39.5586,49.26388,0.5610769,-12.37405,-96.38443,-11.30435,14.36226,0,0,0,8.067601,-112.2305,-35.04521,79.38486,-105.5964,-99.98113,0.001067912,-0.1257102,0.09433498,0,0.3,0,0,0.005881719,0,
6.38224E+17,3.463314,-0.9585064,-1.377489,-2.630615,14.11172,39.33887,49.26388,0.5610769,-12.37405,-96.38443,-11.30435,14.28902,0,0,0,7.860819,-112.1922,-38.46196,79.38486,-105.5964,-99.98113,0.001067912,-0.1257102,0.09433498,0,0.3,0,0,0.006976604,0,
6.38224E+17,3.463314,-0.9585064,-2.451463,-2.557369,15.2104,39.19238,49.26388,0.5610769,-12.37405,-96.38443,-11.30435,14.36226,0,0,0,7.709908,-112.1087,-40.95553,79.38486,-105.5964,-99.98113,0.001067912,-0.1257102,0.09433498,0,0.3,0,0,0.008251316,0,
6.38224E+17,3.463314,-0.9585064,-2.591547,-2.557369,15.72311,39.19238,49.26388,0.5610769,-12.37405,-96.38443,-11.30435,14.36226,0,0,0,7.690232,-112.0943,-41.28065,79.38486,-105.5964,-99.98113,0.001067912,-0.1257102,0.09433498,0,0.3,0,0,0.008905879,0,
6.38224E+17,3.463314,-0.9585064,-2.638241,-2.85035,16.45556,39.11913,49.26388,0.5610769,-12.37405,-96.38443,-11.30435,14.36226,0,0,0,7.683674,-112.0894,-41.38902,79.38486,-105.5964,-99.98113,0.001067912,-0.1257102,0.09433498,0,0.3,0,0,0.01019608,0,
6.38224E+17,3.463314,-0.9585064,-2.638241,-3.729292,17.11477,39.04589,49.26388,0.5610769,-12.37405,-96.38443,-11.30435,14.36226,0,0,0,7.683674,-112.0894,-41.38902,79.38486,-105.5964,-99.98113,0.001067912,-0.1257102,0.09433498,0,0.3,0,0,0.01145589,0,
6.38224E+17,3.463314,-0.9818845,-2.965103,-5.340686,17.70073,39.04589,49.26388,0.5610769,-12.37405,-96.38443,-11.23111,14.36226,0,0,0,7.637718,-112.1066,-42.14838,79.38486,-105.5964,-99.98113,0.001067912,-0.1257102,0.09433498,0,0.3,0,0,0.01271445,0,
6.38224E+17,3.463314,-0.9818845,-3.572132,-6.219628,17.84722,39.11913,49.26388,0.5610769,-12.37405,-96.38443,-11.30435,14.36226,0,0,0,7.552511,-112.026,-43.55629,79.38486,-105.5964,-99.98113,0.001067912,-0.1257102,0.09433498,0,0.3,0,0,0.01339101,0,
6.38224E+17,3.463314,-0.9818845,-4.78619,-7.538041,17.99371,39.26562,49.26388,0.5610769,-12.37405,-96.45767,-11.30435,14.36226,0,0,0,7.382275,-111.8201,-46.36917,79.38486,-105.5964,-99.98113,0.001067912,-0.1257102,0.09433498,0,0.3,0,0,0.01485965,0,
6.38224E+17,3.463314,-0.9818845,-5.556649,-8.343738,17.99371,39.77834,49.26388,0.5610769,-12.37405,-96.38443,-11.30435,14.36226,0,0,0,7.274393,-111.6585,-48.15176,79.38486,-105.5964,-99.98113,0.001067912,-0.1257102,0.09433498,0,0.3,0,0,0.01642459,0,
6.38224E+17,3.463314,-0.9818845,-5.72008,-8.636719,17.84722,40.58403,49.26388,0.5610769,-12.37405,-96.38443,-11.30435,14.36226,0,0,0,7.251526,-111.6211,-48.5296,79.38486,-105.5964,-99.98113,0.001067912,-0.1257102,0.09433498,0,0.3,0,0,0.01721646,0,
6.38224E+17,3.463314,-0.9818845,-5.72008,-8.929699,17.481,43.95331,49.26388,0.5610769,-12.37405,-96.38443,-11.23111,14.36226,0,0,0,7.251526,-111.6211,-48.5296,79.38486,-105.5964,-99.98113,0.001067912,-0.1257102,0.09433498,0,0.3,0,0,0.01877373,0,
6.38224E+17,3.463314,-0.9818845,-5.673386,-9.076189,17.26126,47.61557,49.26388,0.5610769,-12.37405,-96.38443,-11.30435,14.36226,0,0,0,7.258059,-111.6319,-48.42166,79.38486,-105.5964,-99.98113,0.001067912,-0.1257102,0.09433498,0,0.3,0,0,0.0202884,0,
6.38224E+17,3.463314,-0.9818845,-5.603344,-9.149435,17.26126,49.15372,49.26388,0.5610769,-12.37405,-96.38443,-11.30435,14.36226,0,0,0,7.267859,-111.6479,-48.25973,79.38486,-105.5964,-99.98113,0.001067912,-0.1257102,0.09433498,0,0.3,0,0,0.021027,0,
6.38224E+17,3.463314,-0.9818845,-5.439913,-9.442415,17.33451,51.42432,49.26388,0.5610769,-12.37405,-96.45767,-11.30435,14.36226,0,0,0,7.29073,-111.6845,-47.88182,79.38486,-105.5964,-99.98113,0.001067912,-0.1257102,0.09433498,0,0.3,0,0,0.02246129,0,
6.38224E+17,3.463314,-0.9818845,-5.416566,-10.02838,17.40775,52.74273,49.26388,0.5610769,-12.37405,-96.38443,-11.30435,14.36226,0,0,0,7.293998,-111.6897,-47.82782,79.38486,-105.5964,-99.98113,0.001067912,-0.1257102,0.09433498,0,0.3,0,0,0.02385526,0,
6.38224E+17,3.463314,-0.9818845,-5.416566,-10.46785,17.481,52.96247,49.26388,0.5610769,-12.37405,-96.38443,-11.23111,14.36226,0,0,0,7.293998,-111.6897,-47.82782,79.38486,-105.5964,-99.98113,0.001067912,-0.1257102,0.09433498,0,0.3,0,0,0.02454051,0,
6.38224E+17,3.463314,-0.9818845,-5.46326,-11.63977,17.77398,53.40194,49.26388,0.5610769,-12.37405,-96.38443,-11.23111,14.28902,0,0,0,7.287462,-111.6794,-47.93581,79.38486,-105.5964,-99.98113,0.001067912,-0.1257102,0.09433498,0,0.3,0,0,0.02589129,0,
6.38224E+17,3.463314,-0.9117499,-5.509954,-12.81169,18.1402,52.30326,49.26388,0.5610769,-12.37405,-96.38443,-11.30435,14.36226,0,0,0,7.28109,-111.5058,-48.0411,79.38486,-105.5964,-99.98113,0.001067912,-0.1257102,0.09433498,0,0.3,0,0,0.02722212,0,
6.38224E+17,3.463314,-0.8182371,-5.439913,-13.39765,18.35994,51.13134,49.26388,0.5610769,-12.37405,-96.38443,-11.23111,14.36226,0,0,0,7.291091,-111.3037,-47.87585,79.38486,-105.5964,-99.98113,0.001067912,-0.1257102,0.09433498,0,0.3,0,0,0.02787288,0,
6.38224E+17,3.463314,-0.4441859,-4.94962,-14.56958,18.87265,46.88312,49.26388,0.5610769,-12.37405,-96.38443,-11.30435,14.36226,0,0,0,7.360321,-110.5365,-46.73193,79.38486,-105.5964,-99.98113,0.001067912,-0.1257102,0.09433498,0,0.3,0,0,0.02911281,0,
6.38224E+17,3.463314,-0.2104038,-4.225855,-15.22878,19.16564,43.14762,49.26388,0.5610769,-12.37405,-96.38443,-11.30435,14.36226,0,0,0,7.461941,-110.1272,-45.05282,79.38486,-105.5964,-99.98113,0.001067912,-0.1257102,0.09433498,0,0.3,0,0,0.03023612,0,
6.38224E+17,3.463314,-0.1402692,-3.642174,-15.08229,19.31213,41.24324,49.26388,0.5610769,-12.37405,-96.38443,-11.23111,14.36226,0,0,0,7.543841,-110.0571,-43.69954,79.38486,-105.5964,-99.98113,0.001067912,-0.1257102,0.09433498,0,0.3,0,0,0.03125647,0,
6.38224E+17,3.463314,-0.116891,-3.338659,-14.78931,19.31213,40.65728,49.26388,0.5610769,-12.37405,-96.38443,-11.30435,14.36226,0,0,0,7.586442,-110.0457,-42.99562,79.38486,-105.5964,-99.98113,0.001067912,-0.1257102,0.09433498,0,0.3,0,0,0.03172909,0,
6.38224E+17,3.463314,-0.0233782,-2.428116,-14.34984,19.45862,39.99807,49.26388,0.5610769,-12.37405,-96.38443,-11.30435,14.36226,0,0,0,7.714314,-109.9347,-40.88273,79.38486,-105.5964,-99.98113,0.001067912,-0.1257102,0.09433498,0,0.3,0,0,0.03257057,0,
6.38224E+17,3.463314,0.0233782,-1.120669,-14.13011,19.53186,39.63185,49.26388,0.5610769,-12.37405,-96.38443,-11.30435,14.36226,0,0,0,7.898045,-109.9201,-37.84686,79.38486,-105.5964,-99.98113,0.001067912,-0.1257102,0.09433498,0,0.3,0,0,0.0332293,0,
6.38224E+17,3.463314,0.07013461,-0.3735563,-13.98362,19.60511,39.48536,49.26388,0.5610769,-12.37405,-96.38443,-11.23111,14.36226,0,0,0,8.003072,-109.8339,-36.11146,79.38486,-105.5964,-99.98113,0.001067912,-0.1257102,0.09433498,0,0.3,0,0,0.03347795,0,
6.38224E+17,3.510434,0.1870256,1.167363,-13.98362,19.60511,39.41211,49.26388,0.5610769,-12.37405,-96.38443,-11.30435,14.36226,0,0,0,8.331365,-109.537,-32.53929,79.38486,-105.5964,-99.98113,0.001067912,-0.1257102,0.09433498,0,0.3,0,0,0.03380699,0,
6.38224E+17,3.557554,0.4208077,2.031212,-14.13011,19.7516,39.99807,49.26388,0.5610769,-12.37405,-96.38443,-11.30435,14.36226,0,0,0,8.567578,-108.9368,-30.54322,79.38486,-105.5964,-99.98113,0.001067912,-0.1257102,0.09433498,0,0.3,0,0,0.03398981,0,
6.38224E+17,3.628234,0.7013461,2.428116,-14.2766,19.67835,40.43755,49.26388,0.5610769,-12.37405,-96.38443,-11.30435,14.36226,0,0,0,8.795578,-108.248,-29.63907,79.38486,-105.5964,-99.98113,0.001067912,-0.1257102,0.09433498,0,0.3,0,0,0.034046,0,
6.38224E+17,3.910954,1.776743,3.362006,-14.05686,18.79941,41.38973,49.26388,0.5610769,-12.37405,-96.38443,-11.30435,14.36226,0,0,0,9.624288,-105.636,-27.57248,79.38486,-105.5964,-99.98113,0.001067912,-0.1257102,0.09433498,0,0.3,0,0,0.03409554,0,
6.38224E+17,4.240793,3.202814,4.412633,-13.69064,17.33451,42.26867,49.26388,0.5610769,-12.37405,-96.38443,-11.30435,14.36226,0,0,0,10.60429,-102.1544,-25.34111,79.38486,-105.5964,-99.98113,0.001067912,-0.1257102,0.09433498,0,0.3,0,0,0.03405623,0,
6.38224E+17,4.358593,4.81591,5.696733,-13.54414,16.16258,42.56165,49.26388,0.5610769,-12.37405,-96.38443,-11.30435,14.36226,0,0,0,11.10458,-98.14608,-22.65664,79.38486,-105.5964,-99.98113,0.001067912,-0.1257102,0.09433498,0,0.3,0,0,0.03386669,0,
6.38224E+17,4.382153,5.867929,6.303762,-13.61739,15.50338,42.34192,49.26388,0.5610769,-12.37405,-96.38443,-11.30435,14.36226,0,0,0,11.25443,-95.56059,-21.48755,79.38486,-105.5964,-99.98113,0.001067912,-0.1257102,0.09433498,0,0.3,0,0,0.03370272,0,
6.38224E+17,4.382153,8.509666,7.634556,-14.13011,14.11172,41.31649,49.26388,0.5610769,-12.37405,-96.38443,-11.30435,14.36226,0,0,0,11.43055,-89.0853,-19.18929,79.38486,-105.5964,-99.98113,0.001067912,-0.1257102,0.09433498,0,0.3,0,0,0.03321819,0,
6.38224E+17,4.358593,11.38519,9.012045,-14.9358,12.42708,40.14456,49.26388,0.5610769,-12.37405,-96.38443,-11.30435,14.36226,0,0,0,11.52244,-82.03004,-17.17428,79.38486,-105.5964,-99.98113,0.001067912,-0.1257102,0.09433498,0,0.3,0,0,0.03249209,0,
6.38224E+17,4.358593,12.9749,9.782504,-15.52176,11.25516,39.41211,49.26388,0.5610769,-12.37405,-96.38443,-11.30435,14.36226,0,0,0,11.59757,-78.12077,-16.18865,79.38486,-105.5964,-99.98113,0.001067912,-0.1257102,0.09433498,0,0.3,0,0,0.03203094,0,
6.38224E+17,4.358593,15.80367,11.23003,-16.69369,8.911312,37.80072,49.26388,0.5610769,-12.37405,-96.38443,-11.23111,14.36226,0,0,0,11.72498,-71.13,-14.51702,79.38486,-105.5964,-99.98113,0.001067912,-0.1257102,0.09433498,0,0.3,0,0,0.03091618,0,
6.38224E+17,4.358593,18.51554,12.67757,-18.0121,6.567466,36.11608,49.26388,0.5610769,-12.37405,-96.38443,-11.30435,14.36226,0,0,0,11.83395,-64.40214,-13.0873,79.38486,-105.5964,-99.98113,0.001067912,-0.1257102,0.09433498,0,0.3,0,0,0.02954137,0,
6.38224E+17,4.358593,19.82472,13.42468,-18.67131,5.615279,35.45687,49.26388,0.5610769,-12.37405,-96.38443,-11.30435,14.36226,0,0,0,11.88664,-61.13152,-12.39593,79.38486,-105.5964,-99.98113,0.001067912,-0.1257102,0.09433498,0,0.3,0,0,0.0287533,0,
6.38224E+17,4.358593,22.37294,14.89556,-19.69674,3.564415,34.3582,49.26388,0.5610769,-12.37405,-96.38443,-11.30435,14.36226,0,0,0,11.97666,-54.76141,-11.2149,79.38486,-105.5964,-99.98113,0.001067912,-0.1257102,0.09433498,0,0.3,0,0,0.02698223,0,
6.38224E+17,4.429273,25.06143,16.41313,-20.64893,1.220569,33.77223,49.26388,0.5610769,-12.37405,-96.38443,-11.30435,14.36226,0,0,0,12.23879,-48.08019,-10.34811,79.38486,-105.5964,-99.98113,0.001067912,-0.1257102,0.09433498,0,0.3,0,0,0.024947,0,
6.38224E+17,4.641313,27.67979,17.97739,-21.45462,-1.050031,33.62574,49.26388,0.5610769,-12.37405,-96.38443,-11.30435,14.36226,0,0,0,12.88585,-41.54459,-9.625731,79.38486,-105.5964,-99.98113,0.001067912,-0.1257102,0.09433498,0,0.3,0,0,0.02266494,0,
6.38224E+17,4.806232,28.75519,18.67781,-21.7476,-2.148709,33.62574,49.26388,0.5610769,-12.37405,-96.38443,-11.30435,14.36226,0,0,0,13.37316,-38.8266,-9.300702,79.38486,-105.5964,-99.98113,0.001067912,-0.1257102,0.09433498,0,0.3,0,0,0.02144686,0,
6.38224E+17,5.277431,31.23328,20.33547,-22.04058,-4.126328,33.5525,49.26388,0.5610769,-12.37405,-96.38443,-11.23111,14.36226,0,0,0,14.75002,-32.54369,-8.665818,79.38486,-105.5964,-99.98113,0.001067912,-0.1257102,0.09433498,0,0.3,0,0,0.01884906,0,
6.38224E+17,5.98423,34.24907,22.13321,-22.26032,-6.396928,32.60031,49.26388,0.5610769,-12.37405,-96.38443,-11.23111,14.36226,0,0,0,16.72956,-25.12525,-8.756379,79.38486,-105.5964,-99.98113,0.001067912,-0.1257102,0.09433498,0,0.3,0,0,0.01603125,0,
6.38224E+17,6.47899,35.74527,23.16049,-22.18707,-7.642097,31.86786,49.26388,0.5610769,-12.37405,-96.45767,-11.30435,14.36226,0,0,0,18.13066,-21.35213,-8.698764,79.38486,-105.5964,-99.98113,0.001067912,-0.1257102,0.09433498,0,0.3,0,0,0.01453565,0,
6.38224E+17,7.515628,38.38701,25.26174,-21.67436,-9.985942,30.54945,49.26388,0.5610769,-12.37405,-96.38443,-11.30435,14.36226,0,0,0,21.11475,-14.44107,-8.30487,79.38486,-105.5964,-99.98113,0.001067912,-0.1257102,0.09433498,0,0.3,0,0,0.01137507,0,
6.38224E+17,8.717185,40.93523,27.45638,-20.86866,-12.62277,29.67051,49.26388,0.5610769,-12.37405,-96.38443,-11.30435,14.36226,0,0,0,24.58615,-7.60808,-8.00046,79.38486,-105.5964,-99.98113,0.001067912,-0.1257102,0.09433498,0,0.3,0,0,0.007997835,0,
6.38224E+17,9.329745,42.03401,28.50701,-20.2827,-13.86794,29.45077,49.26388,0.5610769,-12.37405,-96.38443,-11.30435,14.36226,0,0,0,26.37448,-4.545102,-7.813256,79.38486,-105.5964,-99.98113,0.001067912,-0.1257102,0.09433498,0,0.3,0,0,0.006233407,0,
6.38224E+17,10.6491,43.99778,30.42149,-18.74455,-16.43152,29.08454,49.26388,0.5610769,-12.37405,-96.38443,-11.30435,14.36226,0,0,0,30.20458,0.9880906,-7.714763,79.38486,-105.5964,-99.98113,0.001067912,-0.1257102,0.09433498,0,0.3,0,0,0.002591145,0,
6.38224E+17,12.13338,45.84466,32.26592,-17.05991,-18.92185,28.71832,49.26388,0.5610769,-12.37405,-96.38443,-11.30435,14.36226,0,0,0,34.48794,6.264431,-7.934161,79.38486,-105.5964,-99.98113,0.001067912,-0.1257102,0.09433498,0,0.3,0,0,0,0,
6.38224E+17,13.09934,46.68627,33.12977,-15.96124,-20.09377,28.27885,49.26388,0.5610769,-12.37405,-96.38443,-11.30435,14.36226,0,0,0,37.25008,8.704643,-8.268967,79.38486,-105.5964,-99.98113,0.001067912,-0.1257102,0.09433498,0,0.3,0,0,0,0,
6.38224E+17,15.31397,47.97207,34.64734,-13.4709,-21.9249,27.03368,49.26388,0.5610769,-12.37405,-96.45767,-11.30435,14.36226,0,0,0,43.60151,12.70223,-9.122335,79.38486,-105.5964,-99.98113,0.001067912,-0.1257102,0.09433498,0,0.3,0,0,0,0,
6.38224E+17,17.95269,48.93058,36.02483,-9.66215,-23.5363,25.42229,49.26388,0.5610769,-12.37405,-96.38443,-11.30435,14.36226,0,0,0,51.17731,16.03601,-10.39878,79.38486,-105.5964,-99.98113,0.001067912,-0.1257102,0.09433498,0,0.3,0,0,0,0,
6.38224E+17,20.59141,49.28125,36.95872,-5.194195,-24.78147,23.44467,49.26388,0.5610769,-12.37405,-96.38443,-11.23111,14.28902,0,0,0,58.79238,17.86292,-11.86415,79.38486,-105.5964,-99.98113,0.001067912,-0.1257102,0.09433498,0,0.3,0,0,0,0,
6.38224E+17,22.1228,49.25787,37.33228,-2.557369,-25.14769,22.34599,49.26388,0.5610769,-12.37405,-96.38443,-11.30435,14.36226,0,0,0,63.22993,18.3524,-12.81106,79.38486,-105.5964,-99.98113,0.001067912,-0.1257102,0.09433498,0,0.3,0,0,0,0,
6.38224E+17,25.20916,48.95396,37.986,3.082508,-25.44067,19.48943,49.26388,0.5610769,-12.37405,-96.38443,-11.30435,14.36226,0,0,0,72.25335,18.8189,-14.8675,79.38486,-105.5964,-99.98113,0.001067912,-0.1257102,0.09433498,0,0.3,0,0,0,0,
6.38224E+17,28.05991,48.29937,38.21947,8.795631,-25.0012,16.19339,49.26388,0.5610769,-12.37405,-96.38443,-11.30435,14.36226,0,0,0,80.53623,18.14724,-17.26473,79.38486,-105.5964,-99.98113,0.001067912,-0.1257102,0.09433498,0,0.3,0,0,0,0,
6.38224E+17,29.47351,47.78505,38.24282,11.35921,-24.48849,14.582,49.26388,0.5610769,-12.37405,-96.38443,-11.30435,14.36226,0,0,0,84.69788,17.38056,-18.48538,79.38486,-105.5964,-99.98113,0.001067912,-0.1257102,0.09433498,0,0.3,0,0,0,0,
6.38224E+17,32.06511,46.49924,38.26617,16.0469,-23.38981,11.28597,49.26388,0.5610769,-12.37405,-96.38443,-11.30435,14.36226,0,0,0,92.57481,15.37875,-20.57325,79.38486,-105.5964,-99.98113,0.001067912,-0.1257102,0.09433498,0,0.3,0,0,0,0,
6.38224E+17,34.44466,44.86277,38.26617,20.14863,-21.99815,8.35616,49.26388,0.5610769,-12.37405,-96.38443,-11.30435,14.36226,0,0,0,100.1718,12.71787,-22.29715,79.38486,-105.5964,-99.98113,0.001067912,-0.1257102,0.09433498,0,0.3,0,0,0,0,
6.38224E+17,35.43418,44.06791,38.24282,21.90652,-21.19245,7.110993,49.26388,0.5610769,-12.37405,-96.38443,-11.30435,14.36226,0,0,0,103.4057,11.36397,-23.02779,79.38486,-105.5964,-99.98113,0.001067912,-0.1257102,0.09433498,0,0.3,0,0,0,0,
6.38224E+17,37.29542,42.31455,38.14943,25.27579,-18.84861,5.133373,49.26388,0.5610769,-12.37405,-96.38443,-11.23111,14.36226,0,0,0,109.6598,8.254501,-24.37703,79.38486,-105.5964,-99.98113,0.001067912,-0.1257102,0.09433498,0,0.3,0,0,0,0,
6.38224E+17,38.8975,40.28064,38.0327,28.42534,-16.65125,3.96145,49.26388,0.5610769,-12.37405,-96.38443,-11.30435,14.36226,0,0,0,115.4695,4.530687,-25.23432,79.38486,-105.5964,-99.98113,0.001067912,-0.1257102,0.09433498,0,0.3,0,0,0,0,
6.38224E+17,39.4865,39.43903,37.93931,29.59726,-15.62582,3.66847,49.26388,0.5610769,-12.37405,-96.38443,-11.23111,14.36226,0,0,0,117.6239,2.893344,-25.59222,79.38486,-105.5964,-99.98113,0.001067912,-0.1257102,0.09433498,0,0.3,0,0,0,0,
6.38224E+17,40.73517,37.52202,37.72918,31.64813,-13.50171,3.302244,49.26388,0.5610769,-12.37405,-96.38443,-11.23111,14.36226,0,0,0,122.2665,-0.8991297,-26.37846,79.38486,-105.5964,-99.98113,0.001067912,-0.1257102,0.09433498,0,0.3,0,0,0,0,
6.38224E+17,41.81893,35.20757,37.44902,33.33276,-11.74383,3.155754,49.26388,0.5610769,-12.37405,-96.38443,-11.23111,14.36226,0,0,0,126.7148,-5.634212,-26.7214,79.38486,-105.5964,-99.98113,0.001067912,-0.1257102,0.09433498,0,0.3,0,0,0,0,
6.38224E+17,42.69065,32.77624,37.07546,34.57793,-9.25349,3.155754,49.26388,0.5610769,-12.37405,-96.38443,-11.30435,14.36226,0,0,0,130.5306,-10.85196,-26.84902,79.38486,-105.5964,-99.98113,0.001067912,-0.1257102,0.09433498,0,0.3,0,0,0,0,
6.38224E+17,43.11473,31.46706,36.79529,35.09065,-8.008322,3.228999,49.26388,0.5610769,-12.37405,-96.38443,-11.30435,14.36226,0,0,0,132.3254,-13.82429,-27.01684,79.38486,-105.5964,-99.98113,0.001067912,-0.1257102,0.09433498,0,0.3,0,0,0,0,
6.38224E+17,43.79797,28.82533,36.28165,35.89634,-5.517986,3.302244,49.26388,0.5610769,-12.37405,-96.38443,-11.30435,14.36226,0,0,0,135.4734,-19.85232,-27.06956,79.38486,-105.5964,-99.98113,0.001067912,-0.1257102,0.09433498,0,0.3,0,0,0,0,
6.38224E+17,44.31629,25.83291,36.00148,36.33582,-3.247386,3.302244,49.26388,0.5610769,-12.37405,-96.38443,-11.30435,14.36226,0,0,0,138.6116,-26.42336,-26.39016,79.38486,-105.5964,-99.98113,0.001067912,-0.1257102,0.09433498,0,0.3,0,0,0,0,
6.38224E+17,44.52832,24.28995,35.76801,36.55555,-1.782483,3.302244,49.26388,0.5610769,-12.37405,-96.38443,-11.30435,14.36226,0,0,0,139.894,-29.99477,-26.13356,79.38486,-105.5964,-99.98113,0.001067912,-0.1257102,0.09433498,0,0.3,0,0,0,0,
6.38224E+17,44.81104,21.25079,35.11428,36.77529,0.5613627,3.375489,49.26388,0.5610769,-12.37405,-96.38443,-11.30435,14.36226,0,0,0,141.6496,-37.39832,-25.763,79.38486,-105.5964,-99.98113,0.001067912,-0.1257102,0.09433498,0,0.3,0,0,0,0,
6.38224E+17,44.92884,18.09473,34.5773,36.84853,3.344679,3.81496,49.26388,0.5610769,-12.37405,-96.38443,-11.23111,14.36226,0,0,0,142.9643,-45.02818,-25.03021,79.38486,-105.5964,-99.98113,0.001067912,-0.1257102,0.09433498,0,0.3,0,0,0,0,
6.38224E+17,44.92884,14.82178,34.06366,36.55555,5.90826,4.547412,49.26388,0.5610769,-12.37405,-96.45767,-11.30435,14.36226,0,0,0,143.7909,-53.00654,-24.20148,79.38486,-105.5964,-99.98113,0.001067912,-0.1257102,0.09433498,0,0.3,0,0,0,0,
6.38224E+17,44.90529,13.20868,33.83019,36.33582,7.153428,4.986883,49.26388,0.5610769,-12.37405,-96.38443,-11.30435,14.36226,0,0,0,144.0553,-56.95241,-23.81767,79.38486,-105.5964,-99.98113,0.001067912,-0.1257102,0.09433498,0,0.3,0,0,0,0,
6.38224E+17,44.76393,10.14614,33.57337,35.60336,9.717009,5.719335,49.26388,0.5610769,-12.37405,-96.38443,-11.30435,14.36226,0,0,0,144.3639,-64.26347,-22.79158,79.38486,-105.5964,-99.98113,0.001067912,-0.1257102,0.09433498,0,0.3,0,0,0,0,
6.38224E+17,44.48121,7.340756,33.10642,34.79766,11.76787,6.378541,49.26388,0.5610769,-12.37405,-96.38443,-11.30435,14.36226,0,0,0,143.7031,-71.31348,-22.02071,79.38486,-105.5964,-99.98113,0.001067912,-0.1257102,0.09433498,0,0.3,0,0,0,0,
6.38224E+17,44.24561,6.054955,32.73286,34.3582,12.57357,6.671522,49.26388,0.5610769,-12.37405,-96.38443,-11.30435,14.36226,0,0,0,142.8345,-74.75806,-21.70382,79.38486,-105.5964,-99.98113,0.001067912,-0.1257102,0.09433498,0,0.3,0,0,0,0,
6.38224E+17,43.60949,4.091186,31.70559,33.11303,14.18496,7.184238,49.26388,0.5610769,-12.37405,-96.38443,-11.23111,14.36226,0,0,0,140.0812,-80.58511,-21.29903,79.38486,-105.5964,-99.98113,0.001067912,-0.1257102,0.09433498,0,0.3,0,0,0,0,
6.38224E+17,42.80845,2.73525,30.51488,31.57488,16.01609,8.136425,49.26388,0.5610769,-12.37405,-96.38443,-11.30435,14.36226,0,0,0,136.527,-85.16708,-20.95782,79.38486,-105.5964,-99.98113,0.001067912,-0.1257102,0.09433498,0,0.3,0,0,0,0,
6.38224E+17,42.40793,2.314442,29.93119,30.76918,16.82179,8.795631,49.26388,0.5610769,-12.37405,-96.38443,-11.30435,14.36226,0,0,0,134.7309,-86.82932,-20.84189,79.38486,-105.5964,-99.98113,0.001067912,-0.1257102,0.09433498,0,0.3,0,0,0,0,
6.38224E+17,41.37129,1.8235,28.27354,29.23104,18.21345,10.40703,49.26388,0.5610769,-12.37405,-96.38443,-11.30435,14.36226,0,0,0,129.8395,-89.84755,-20.92718,79.38486,-105.5964,-99.98113,0.001067912,-0.1257102,0.09433498,0,0.3,0,0,0,0,
6.38224E+17,40.24041,1.893635,25.91546,27.47315,19.67835,12.16491,49.26388,0.5610769,-12.37405,-96.38443,-11.30435,14.36226,0,0,0,123.7452,-92.18387,-22.12672,79.38486,-105.5964,-99.98113,0.001067912,-0.1257102,0.09433498,0,0.3,0,0,0,0,
6.38224E+17,38.87394,2.057282,23.44065,25.42229,20.92352,13.7763,49.26388,0.5610769,-12.37405,-96.38443,-11.23111,14.28902,0,0,0,116.9302,-94.20789,-23.30189,79.38486,-105.5964,-99.98113,0.001067912,-0.1257102,0.09433498,0,0.3,0,0,0,0,
6.38224E+17,38.23782,2.220929,22.34333,24.39685,21.36299,14.28902,49.26388,0.5610769,-12.37405,-96.38443,-11.30435,14.36226,0,0,0,113.8477,-94.82072,-23.87176,79.38486,-105.5964,-99.98113,0.001067912,-0.1257102,0.09433498,0,0.3,0,0,0,0,
6.38224E+17,37.15406,3.062545,20.28877,22.27274,22.24193,15.02147,49.26388,0.5610769,-12.37405,-96.38443,-11.23111,14.36226,0,0,0,108.3498,-94.60219,-25.36647,79.38486,-105.5964,-99.98113,0.001067912,-0.1257102,0.09433498,0,0.3,0,0,0,0,
6.38224E+17,36.21166,4.675641,18.28091,20.51486,22.97438,15.3877,49.26388,0.5610769,-12.37405,-96.38443,-11.23111,14.36226,0,0,0,103.2281,-92.39983,-27.36685,79.38486,-105.5964,-99.98113,0.001067912,-0.1257102,0.09433498,0,0.3,0,0,0,0,
6.38224E+17,35.78758,5.72766,17.41706,19.63592,23.12087,15.53419,49.26388,0.5610769,-12.37405,-96.38443,-11.30435,14.36226,0,0,0,100.9329,-90.57773,-28.33913,79.38486,-105.5964,-99.98113,0.001067912,-0.1257102,0.09433498,0,0.3,0,0,0,0,
6.38224E+17,35.2457,7.971967,16.27304,17.95128,22.75465,15.60743,49.26388,0.5610769,-12.37405,-96.38443,-11.30435,14.36226,0,0,0,97.77417,-86.16351,-29.98072,79.38486,-105.5964,-99.98113,0.001067912,-0.1257102,0.09433498,0,0.3,0,0,0,0,
6.38224E+17,35.05722,10.21628,15.66602,16.63286,21.87571,15.68068,49.26388,0.5610769,-12.37405,-96.38443,-11.23111,14.36226,0,0,0,96.0641,-81.3948,-31.44745,79.38486,-105.5964,-99.98113,0.001067912,-0.1257102,0.09433498,0,0.3,0,0,0,0,
6.38224E+17,35.03366,11.4787,15.4092,16.12015,21.2165,15.68068,49.26388,0.5610769,-12.37405,-96.45767,-11.30435,14.36226,0,0,0,95.35979,-78.66931,-32.33225,79.38486,-105.5964,-99.98113,0.001067912,-0.1257102,0.09433498,0,0.3,0,0,0,0,
6.38224E+17,35.05722,13.76976,15.05899,15.24121,19.82484,15.24121,49.26388,0.5610769,-12.37405,-96.45767,-11.23111,14.36226,0,0,0,94.29465,-73.68052,-33.96913,79.38486,-105.5964,-99.98113,0.001067912,-0.1257102,0.09433498,0,0.3,0,0,0,0,
6.38224E+17,35.22214,15.94393,15.01229,14.50875,17.99371,14.28902,49.26388,0.5610769,-12.37405,-96.38443,-11.30435,14.36226,0,0,0,93.87227,-68.81801,-35.3867,79.38486,-105.5964,-99.98113,0.001067912,-0.1257102,0.09433498,0,0.3,0,0,0,0,
6.38224E+17,35.69334,17.90771,15.03564,14.06928,16.16258,13.1171,49.26388,0.5610769,-12.37405,-96.38443,-11.30435,14.36226,0,0,0,94.21688,-64.43165,-37.20118,79.38486,-105.5964,-99.98113,0.001067912,-0.1257102,0.09433498,0,0.3,0,0,0,0,
6.38224E+17,35.99962,18.72594,15.05899,14.14253,15.35689,12.53114,49.26388,0.5610769,-12.37405,-96.38443,-11.30435,14.36226,0,0,0,94.59566,-62.60968,-38.14842,79.38486,-105.5964,-99.98113,0.001067912,-0.1257102,0.09433498,0,0.3,0,0,0,0,
6.38224E+17,36.70642,19.84809,15.3625,14.50875,14.03847,11.35921,49.26388,0.5610769,-12.37405,-96.38443,-11.30435,14.36226,0,0,0,96.08642,-59.95927,-39.47032,79.38486,-105.5964,-99.98113,0.001067912,-0.1257102,0.09433498,0,0.3,0,0,0,0,
6.38224E+17,37.69594,20.66633,16.03957,15.31445,13.15953,10.11404,49.26388,0.5610769,-12.37405,-96.38443,-11.30435,14.36226,0,0,0,98.8222,-57.74627,-40.47027,79.38486,-105.5964,-99.98113,0.001067912,-0.1257102,0.09433498,0,0.3,0,0,0,0,
6.38224E+17,38.28493,21.017,16.45982,15.75392,12.72006,9.454838,49.26388,0.5610769,-12.37405,-96.38443,-11.30435,14.36226,0,0,0,100.5334,-56.70983,-40.98376,79.38486,-105.5964,-99.98113,0.001067912,-0.1257102,0.09433498,0,0.3,0,0,0,0,
6.38224E+17,39.41582,21.67159,17.34702,16.92585,11.62138,7.989935,49.26388,0.5610769,-12.37405,-96.38443,-11.30435,14.36226,0,0,0,103.9299,-54.69047,-41.89482,79.38486,-105.5964,-99.98113,0.001067912,-0.1257102,0.09433498,0,0.3,0,0,0,0,
6.38224E+17,40.40533,22.18591,18.21087,18.02452,10.59595,6.232051,49.26388,0.5610769,-12.37405,-96.45767,-11.23111,14.36226,0,0,0,107.0494,-52.96616,-42.59106,79.38486,-105.5964,-99.98113,0.001067912,-0.1257102,0.09433498,0,0.3,0,0,0,0,
6.38224E+17,40.92365,22.39632,18.72451,18.68373,10.08323,5.353109,49.26388,0.5610769,-12.37405,-96.38443,-11.23111,14.36226,0,0,0,108.8038,-52.13438,-42.84821,79.38486,-105.5964,-99.98113,0.001067912,-0.1257102,0.09433498,0,0.3,0,0,0,0,
6.38224E+17,42.07809,22.6301,20.0553,19.85565,8.984557,3.66847,49.26388,0.5610769,-12.37405,-96.45767,-11.30435,14.36226,0,0,0,113.1285,-50.60348,-43.05197,79.38486,-105.5964,-99.98113,0.001067912,-0.1257102,0.09433498,0,0.3,0,0,0,0,
6.38224E+17,43.27965,22.6301,21.59622,21.24731,7.959125,2.130321,49.26388,0.5610769,-12.37405,-96.38443,-11.23111,14.36226,0,0,0,118.029,-49.32848,-43.01153,79.38486,-105.5964,-99.98113,0.001067912,-0.1257102,0.09433498,0,0.3,0,0,0,0,
6.38224E+17,44.38697,22.6301,23.09044,22.93195,6.860447,0.2259469,49.26388,0.5610769,-12.37405,-96.38443,-11.30435,14.36226,0,0,0,122.679,-48.00647,-43.01727,79.38486,-105.5964,-99.98113,0.001067912,-0.1257102,0.09433498,0,0.3,0,0,0,0,
6.38224E+17,44.9524,22.6301,23.88425,23.81089,6.347731,-0.6529952,49.26388,0.5610769,-12.37405,-96.38443,-11.30435,14.36226,0,0,0,125.1071,-47.27016,-43.03491,79.38486,-105.5964,-99.98113,0.001067912,-0.1257102,0.09433498,0,0.3,0,0,0,0,
6.38224E+17,45.94193,22.55997,25.42517,25.49553,5.322299,-2.557369,49.26388,0.5610769,-12.37405,-96.38443,-11.30435,14.36226,0,0,0,129.6398,-45.92487,-42.90405,79.38486,-105.5964,-99.98113,0.001067912,-0.1257102,0.09433498,0,0.3,0,0,0,0,
6.38224E+17,46.62516,22.44308,26.84936,27.18017,4.370111,-4.315253,49.26388,0.5610769,-12.37405,-96.38443,-11.30435,14.36226,0,0,0,133.3651,-44.71608,-42.3438,79.38486,-105.5964,-99.98113,0.001067912,-0.1257102,0.09433498,0,0.3,0,0,0,0,
6.38224E+17,46.88432,22.4197,27.40969,27.91262,4.077131,-5.194195,49.26388,0.5610769,-12.37405,-96.38443,-11.30435,14.36226,0,0,0,134.7961,-44.17169,-42.14087,79.38486,-105.5964,-99.98113,0.001067912,-0.1257102,0.09433498,0,0.3,0,0,0,0,
6.38224E+17,47.16704,22.4197,28.25019,29.23104,3.564415,-6.585854,49.26388,0.5610769,-12.37405,-96.38443,-11.30435,14.36226,0,0,0,136.6858,-43.25845,-41.63144,79.38486,-105.5964,-99.98113,0.001067912,-0.1257102,0.09433498,0,0.3,0,0,0,0,
6.38224E+17,47.3084,22.39632,28.92726,30.18322,3.271434,-7.538041,49.26388,0.5610769,-12.37405,-96.38443,-11.23111,14.36226,0,0,0,138.0303,-42.5547,-41.01678,79.38486,-105.5964,-99.98113,0.001067912,-0.1257102,0.09433498,0,0.3,0,0,0,0,
6.38224E+17,47.33196,22.39632,29.16073,30.62269,3.051698,-7.831022,49.26388,0.5610769,-12.37405,-96.38443,-11.23111,14.36226,0,0,0,138.4319,-42.2909,-40.75159,79.38486,-105.5964,-99.98113,0.001067912,-0.1257102,0.09433498,0,0.3,0,0,0,0,
6.38224E+17,47.3084,22.39632,29.46425,31.35514,2.685472,-8.197248,49.26388,0.5610769,-12.37405,-96.38443,-11.30435,14.36226,0,0,0,138.8322,-41.94507,-40.27703,79.38486,-105.5964,-99.98113,0.001067912,-0.1257102,0.09433498,0,0.3,0,0,0,0,
6.38224E+17,47.0728,22.39632,29.58099,31.9411,2.612227,-8.270493,49.26388,0.5610769,-12.37405,-96.38443,-11.30435,14.36226,0,0,0,138.4775,-41.81119,-39.54622,79.38486,-105.5964,-99.98113,0.001067912,-0.1257102,0.09433498,0,0.3,0,0,0,0,
6.38224E+17,46.81364,22.39632,29.58099,32.16084,2.612227,-8.270493,49.26388,0.5610769,-12.37405,-96.38443,-11.30435,14.36226,0,0,0,137.8935,-41.81119,-38.92118,79.38486,-105.5964,-99.98113,0.001067912,-0.1257102,0.09433498,0,0.3,0,0,0,0,
6.38224E+17,46.13041,22.4197,29.55764,32.38057,2.685472,-7.611286,49.26388,0.5610769,-12.37405,-96.38443,-11.30435,14.36226,0,0,0,136.2913,-41.7877,-37.3332,79.38486,-105.5964,-99.98113,0.001067912,-0.1257102,0.09433498,0,0.3,0,0,0,0,
6.38224E+17,45.18801,22.48983,29.39421,32.23409,2.905208,-5.926647,49.26388,0.5610769,-12.37405,-96.38443,-11.30435,14.36226,0,0,0,133.8388,-41.82401,-35.38663,79.38486,-105.5964,-99.98113,0.001067912,-0.1257102,0.09433498,0,0.3,0,0,0,0,
6.38224E+17,44.59901,22.60672,29.16073,31.9411,2.905208,-4.901215,49.26388,0.5610769,-12.37405,-96.38443,-11.30435,14.36226,0,0,0,132.0589,-41.83849,-34.42959,79.38486,-105.5964,-99.98113,0.001067912,-0.1257102,0.09433498,0,0.3,0,0,0,0,
6.38224E+17,43.04405,23.33145,28.11011,30.91567,3.124943,-2.117898,49.26388,0.5610769,-12.37405,-96.38443,-11.30435,14.36226,0,0,0,126.4621,-41.45733,-32.94486,79.38486,-105.5964,-99.98113,0.001067912,-0.1257102,0.09433498,0,0.3,0,0,0,0,
6.38224E+17,40.82941,24.82765,26.52249,28.93805,2.978453,0.3724372,49.26388,0.5610769,-12.37405,-96.38443,-11.23111,14.36226,0,0,0,118.0599,-39.97378,-31.71814,79.38486,-105.5964,-99.98113,0.001067912,-0.1257102,0.09433498,0,0.3,0,0,0,0,
6.38224E+17,38.49697,26.79142,25.44852,26.08149,2.099511,3.375489,49.26388,0.5610769,-12.37405,-96.38443,-11.30435,14.36226,0,0,0,109.7643,-36.95458,-30.34237,79.38486,-105.5964,-99.98113,0.001067912,-0.1257102,0.09433498,0,0.3,0,0,0,0,
6.38224E+17,37.29542,27.7733,25.05162,24.68983,1.586795,4.986883,49.26388,0.5610769,-12.37405,-96.38443,-11.23111,14.36226,0,0,0,105.7053,-35.31763,-29.56894,79.38486,-105.5964,-99.98113,0.001067912,-0.1257102,0.09433498,0,0.3,0,0,0,0,
6.38224E+17,34.72738,29.7137,24.3045,21.68678,0.1951368,7.623709,49.26388,0.5610769,-12.37405,-96.38443,-11.23111,14.36226,0,0,0,97.24376,-32.08421,-28.05548,79.38486,-105.5964,-99.98113,0.001067912,-0.1257102,0.09433498,0,0.3,0,0,0,0,
6.38224E+17,31.97087,31.77098,23.83756,18.39075,-1.050031,9.454838,49.26388,0.5610769,-12.37405,-96.38443,-11.30435,14.36226,0,0,0,88.56296,-28.41243,-26.45915,79.38486,-105.5964,-99.98113,0.001067912,-0.1257102,0.09433498,0,0.3,0,0,0,0,
6.38224E+17,30.62795,32.77624,23.69748,16.41313,-1.928973,10.33378,49.26388,0.5610769,-12.37405,-96.38443,-11.30435,14.36226,0,0,0,84.42478,-26.56567,-25.75429,79.38486,-105.5964,-99.98113,0.001067912,-0.1257102,0.09433498,0,0.3,0,0,0,0,
6.38224E+17,27.84787,34.76339,23.60409,12.60438,-3.393876,11.72544,49.26388,0.5610769,-12.37405,-96.38443,-11.30435,14.28902,0,0,0,76.11536,-22.80849,-24.27629,79.38486,-105.5964,-99.98113,0.001067912,-0.1257102,0.09433498,0,0.3,0,0,0,0,
6.38224E+17,25.1856,36.82067,23.65078,8.795631,-4.785534,12.60438,49.26388,0.5610769,-12.37405,-96.45767,-11.30435,14.36226,0,0,0,68.19193,-18.88129,-23.34018,79.38486,-105.5964,-99.98113,0.001067912,-0.1257102,0.09433498,0,0.3,0,0,0,0,
6.38224E+17,23.74844,37.98958,23.79086,6.671522,-5.517986,12.89736,49.26388,0.5610769,-12.37405,-96.38443,-11.30435,14.36226,0,0,0,63.98825,-16.58911,-22.9149,79.38486,-105.5964,-99.98113,0.001067912,-0.1257102,0.09433498,0,0.3,0,0,0,0,
6.38224E+17,21.2982,40.28064,24.32785,2.496547,-7.349115,13.26359,49.26388,0.5610769,-12.37405,-96.38443,-11.23111,14.36226,0,0,0,56.90435,-11.94388,-22.38438,79.38486,-105.5964,-99.98113,0.001067912,-0.1257102,0.09433498,0,0.3,0,0,0,0,
6.38224E+17,18.96577,42.66522,25.21505,-1.678428,-9.180244,13.41008,49.26388,0.5610769,-12.37405,-96.38443,-11.23111,14.36226,0,0,0,50.33165,-6.920685,-21.89208,79.38486,-105.5964,-99.98113,0.001067912,-0.1257102,0.09433498,0,0.3,0,0,0,0,
6.38224E+17,16.96317,45.19007,26.33572,-5.633667,-10.93813,13.48332,49.26388,0.5610769,-12.37405,-96.38443,-11.30435,14.36226,0,0,0,44.67891,-1.554646,-21.8752,79.38486,-105.5964,-99.98113,0.001067912,-0.1257102,0.09433498,0,0.3,0,0,0,0,
6.38224E+17,16.06789,46.45249,26.94275,-7.464796,-11.96356,13.48332,49.26388,0.5610769,-12.37405,-96.38443,-11.23111,14.36226,0,0,0,42.15112,1.126366,-22.00629,79.38486,-105.5964,-99.98113,0.001067912,-0.1257102,0.09433498,0,0.3,0,0,0,0,
6.38224E+17,14.51294,49.07085,28.11011,-10.68758,-13.72145,13.55657,49.26388,0.5610769,-12.37405,-96.38443,-11.30435,14.36226,0,0,0,37.63769,6.478089,-22.95129,79.38486,-105.5964,-99.98113,0.001067912,-0.1257102,0.09433498,0,0.3,0,0,0,0,
6.38224E+17,13.75902,51.89961,29.16073,-13.25116,-15.33284,13.70306,49.26388,0.5610769,-12.37405,-96.38443,-11.30435,14.36226,0,0,0,35.02384,11.83851,-25.3169,79.38486,-105.5964,-99.98113,0.001067912,-0.1257102,0.09433498,0,0.3,0,0,0,0,
6.38224E+17,13.73546,53.32568,29.74442,-13.98362,-16.21178,13.7763,49.26388,0.5610769,-12.37405,-96.38443,-11.30435,14.36226,0,0,0,34.61974,14.52173,-26.7151,79.38486,-105.5964,-99.98113,0.001067912,-0.1257102,0.09433498,0,0.3,0,0,0,0,
6.38224E+17,13.80614,56.64539,31.44877,-14.34984,-18.26265,13.84955,49.26388,0.5610769,-12.37405,-96.38443,-11.30435,14.36226,0,0,0,34.09936,20.97325,-29.58644,79.38486,-105.5964,-99.98113,0.001067912,-0.1257102,0.09433498,0,0.3,0,0,0,0,
6.38224E+17,14.15954,59.89495,33.31655,-14.20335,-20.46,13.84955,49.26388,0.5610769,-12.37405,-96.38443,-11.30435,14.36226,0,0,0,34.27922,27.27829,-32.47642,79.38486,-105.5964,-99.98113,0.001067912,-0.1257102,0.09433498,0,0.3,0,0,0,0,
6.38224E+17,14.58362,61.36778,34.27379,-13.98362,-21.41219,13.84955,49.26388,0.5610769,-12.37405,-96.38443,-11.30435,14.36226,0,0,0,34.99796,30.19854,-33.83308,79.38486,-105.5964,-99.98113,0.001067912,-0.1257102,0.09433498,0,0.3,0,0,0,0,
6.38224E+17,15.90297,64.07965,36.21161,-13.25116,-23.46305,13.84955,49.26388,0.5610769,-12.37405,-96.38443,-11.30435,14.36226,0,0,0,37.5582,35.69314,-36.52686,79.38486,-105.5964,-99.98113,0.001067912,-0.1257102,0.09433498,0,0.3,0,0,0,0,
6.38224E+17,17.59929,66.18369,37.68249,-11.63977,-25.88014,13.48332,49.26388,0.5610769,-12.37405,-96.38443,-11.30435,14.36226,0,0,0,40.92791,39.80997,-39.32335,79.38486,-105.5964,-99.98113,0.001067912,-0.1257102,0.09433498,0,0.3,0,0,0,0,
6.38224E+17,19.81393,67.42274,38.47629,-9.076189,-27.49154,12.3114,49.26388,0.5610769,-12.37405,-96.38443,-11.30435,14.36226,0,0,0,45.47781,42.08527,-42.12679,79.38486,-105.5964,-99.98113,0.001067912,-0.1257102,0.09433498,0,0.3,0,0,0,0,
6.38224E+17,21.13329,67.6799,38.63972,-7.391551,-28.15074,11.35921,49.26388,0.5610769,-12.37405,-96.38443,-11.30435,14.36226,0,0,0,48.27987,42.55091,-43.4459,79.38486,-105.5964,-99.98113,0.001067912,-0.1257102,0.09433498,0,0.3,0,0,0,0,
6.38224E+17,24.03116,67.56301,38.63972,-3.143331,-28.66346,8.868877,49.26388,0.5610769,-12.37405,-96.38443,-11.23111,14.36226,0,0,0,54.63521,42.44733,-45.8167,79.38486,-105.5964,-99.98113,0.001067912,-0.1257102,0.09433498,0,0.3,0,0,0,0,
6.38224E+17,27.07039,66.83829,38.49964,1.910586,-28.73671,5.865825,49.26388,0.5610769,-12.37405,-96.38443,-11.30435,14.36226,0,0,0,61.64667,41.59045,-47.7282,79.38486,-105.5964,-99.98113,0.001067912,-0.1257102,0.09433498,0,0.3,0,0,0,0,
6.38224E+17,28.55467,66.16032,38.21947,4.400921,-28.66346,4.547412,49.26388,0.5610769,-12.37405,-96.38443,-11.30435,14.36226,0,0,0,65.19768,40.55659,-48.54358,79.38486,-105.5964,-99.98113,0.001067912,-0.1257102,0.09433498,0,0.3,0,0,0,0,
6.38224E+17,31.24051,64.07965,37.30893,9.454838,-27.71127,1.178134,49.26388,0.5610769,-12.37405,-96.38443,-11.30435,14.36226,0,0,0,72.14954,37.22155,-49.40681,79.38486,-105.5964,-99.98113,0.001067912,-0.1257102,0.09433498,0,0.3,0,0,0,0,
6.38224E+17,33.43158,61.34441,36.21161,13.99604,-25.73365,-2.044653,49.26388,0.5610769,-12.37405,-96.38443,-11.30435,14.36226,0,0,0,78.6337,32.77484,-49.23867,79.38486,-105.5964,-99.98113,0.001067912,-0.1257102,0.09433498,0,0.3,0,0,0,0,
6.38224E+17,34.1855,59.96509,35.60458,15.82717,-24.70822,-3.143331,49.26388,0.5610769,-12.37405,-96.38443,-11.30435,14.36226,0,0,0,81.12344,30.37306,-48.91548,79.38486,-105.5964,-99.98113,0.001067912,-0.1257102,0.09433498,0,0.3,0,0,0,0,
6.38224E+17,34.91586,56.92593,33.87688,18.83022,-22.43762,-4.388499,49.26388,0.5610769,-12.37405,-96.38443,-11.23111,14.36226,0,0,0,84.19765,24.38059,-47.72668,79.38486,-105.5964,-99.98113,0.001067912,-0.1257102,0.09433498,0,0.3,0,0,0,0,
6.38224E+17,34.98654,53.72311,32.0091,20.51486,-19.36132,-4.901215,49.26388,0.5610769,-12.37405,-96.38443,-11.23111,14.36226,0,0,0,85.76924,17.77638,-45.79757,79.38486,-105.5964,-99.98113,0.001067912,-0.1257102,0.09433498,0,0.3,0,0,0,0,
6.38224E+17,34.98654,52.15677,31.21529,21.02757,-17.89642,-4.82797,49.26388,0.5610769,-12.37405,-96.38443,-11.23111,14.36226,0,0,0,86.5351,14.6111,-44.70326,79.38486,-105.5964,-99.98113,0.001067912,-0.1257102,0.09433498,0,0.3,0,0,0,0,
6.38224E+17,34.86874,48.93058,30.02458,21.61354,-14.96661,-4.022273,49.26388,0.5610769,-12.37405,-96.38443,-11.23111,14.36226,0,0,0,88.23129,8.42858,-41.72626,79.38486,-105.5964,-99.98113,0.001067912,-0.1257102,0.09433498,0,0.3,0,0,0,0,
6.38224E+17,34.49178,45.82128,28.95061,21.97976,-12.25654,-2.044653,49.26388,0.5610769,-12.37405,-96.38443,-11.30435,14.36226,0,0,0,89.17918,2.298324,-38.5536,79.38486,-105.5964,-99.98113,0.001067912,-0.1257102,0.09433498,0,0.3,0,0,0,0,
6.38224E+17,33.87922,42.94576,27.61982,21.83327,-9.399981,-0.0670338,49.26388,0.5610769,-12.37405,-96.38443,-11.30435,14.36226,0,0,0,88.87524,-3.95176,-35.98603,79.38486,-105.5964,-99.98113,0.001067912,-0.1257102,0.09433498,0,0.3,0,0,0,0,
6.38224E+17,33.40803,41.6132,26.9194,21.54029,-8.154812,0.6654179,49.26388,0.5610769,-12.37405,-96.38443,-11.30435,14.36226,0,0,0,88.13466,-6.993234,-34.72749,79.38486,-105.5964,-99.98113,0.001067912,-0.1257102,0.09433498,0,0.3,0,0,0,0,
6.38224E+17,32.20647,39.18187,25.54191,20.44161,-5.591231,1.983831,49.26388,0.5610769,-12.37405,-96.38443,-11.30435,14.43551,0,0,0,85.73501,-12.71932,-32.23919,79.38486,-105.5964,-99.98113,0.001067912,-0.1257102,0.09433498,0,0.3,0,0,0,0,
6.38224E+17,30.74575,37.38175,24.3045,18.75698,-3.613612,2.789528,49.26388,0.5610769,-12.37405,-96.38443,-11.30435,14.36226,0,0,0,82.22918,-17.2215,-30.11183,79.38486,-105.5964,-99.98113,0.001067912,-0.1257102,0.09433498,0,0.3,0,0,0,0,
6.38224E+17,29.89759,36.63364,23.79086,17.58505,-2.73467,3.082508,49.26388,0.5610769,-12.37405,-96.38443,-11.30435,14.36226,0,0,0,80.15212,-19.09901,-28.94763,79.38486,-105.5964,-99.98113,0.001067912,-0.1257102,0.09433498,0,0.3,0,0,0,0,
6.38224E+17,28.05991,35.44136,23.04375,14.87498,-1.416257,3.521979,49.26388,0.5610769,-12.37405,-96.38443,-11.23111,14.36226,0,0,0,75.6579,-22.03392,-26.41644,79.38486,-105.5964,-99.98113,0.001067912,-0.1257102,0.09433498,0,0.3,0,0,0,0,
6.38224E+17,26.15156,34.69325,22.71689,11.94517,-0.4640697,3.888205,49.26388,0.5610769,-12.37405,-96.38443,-11.23111,14.36226,0,0,0,71.0214,-23.75476,-23.70687,79.38486,-105.5964,-99.98113,0.001067912,-0.1257102,0.09433498,0,0.3,0,0,0,0,
6.38224E+17,25.35052,34.43609,22.69354,10.62676,-0.2443342,3.96145,49.26388,0.5610769,-12.37405,-96.38443,-11.30435,14.28902,0,0,0,68.99622,-24.26861,-22.40976,79.38486,-105.5964,-99.98113,0.001067912,-0.1257102,0.09433498,0,0.3,0,0,0,0,
6.38224E+17,23.58352,33.73475,22.69354,7.843444,-0.2443342,4.034696,49.26388,0.5610769,-12.37405,-96.38443,-11.30435,14.28902,0,0,0,64.95103,-25.62048,-19.56633,79.38486,-105.5964,-99.98113,0.001067912,-0.1257102,0.09433498,0,0.3,0,0,0,0,
6.38224E+17,22.02856,32.79962,22.60015,4.986883,-0.171089,4.034696,49.26388,0.5610769,-12.37405,-96.38443,-11.30435,14.36226,0,0,0,61.26229,-27.5239,-16.93788,79.38486,-105.5964,-99.98113,0.001067912,-0.1257102,0.09433498,0,0.3,0,0,0,0,
6.38224E+17,20.61497,31.65409,22.34333,2.203566,0.04864649,4.107941,49.26388,0.5610769,-12.37405,-96.38443,-11.30435,14.36226,0,0,0,57.8145,-30.0077,-14.65892,79.38486,-105.5964,-99.98113,0.001067912,-0.1257102,0.09433498,0,0.3,0,0,0,0,
6.38224E+17,19.97885,30.9995,22.1799,0.8119082,0.1951368,4.181186,49.26388,0.5610769,-12.37405,-96.38443,-11.30435,14.36226,0,0,0,56.25499,-31.45318,-13.61295,79.38486,-105.5964,-99.98113,0.001067912,-0.1257102,0.09433498,0,0.3,0,0,0,0,
6.38224E+17,18.80085,29.62018,21.783,-1.531937,0.8543434,4.620657,49.26388,0.5610769,-12.37405,-96.38443,-11.30435,14.36226,0,0,0,53.308,-34.57029,-11.76639,79.38486,-105.5964,-99.98113,0.001067912,-0.1257102,0.09433498,0,0.3,0,0,0,0,
6.38224E+17,17.64641,27.98371,21.3394,-3.582802,1.806531,5.279863,49.26388,0.5610769,-12.37405,-96.38443,-11.30435,14.36226,0,0,0,50.4076,-38.28713,-9.89058,79.38486,-105.5964,-99.98113,0.001067912,-0.1257102,0.09433498,0,0.3,0,0,0,0,
6.38224E+17,17.10453,27.00183,21.10593,-4.534989,2.099511,5.646089,49.26388,0.5610769,-12.37405,-96.45767,-11.30435,14.36226,0,0,0,49.06802,-40.51097,-8.896792,79.38486,-105.5964,-99.98113,0.001067912,-0.1257102,0.09433498,0,0.3,0,0,0,0,
6.38224E+17,15.78517,24.31333,20.54559,-6.732344,3.564415,6.671522,49.26388,0.5610769,-12.37405,-96.38443,-11.30435,14.28902,0,0,0,45.78895,-46.61432,-6.375314,79.38486,-105.5964,-99.98113,0.001067912,-0.1257102,0.09433498,0,0.3,0,0,0,0,
6.38224E+17,14.58362,21.3443,20.102,-9.002944,5.615279,7.91669,49.26388,0.5610769,-12.37405,-96.38443,-11.23111,14.36226,0,0,0,42.81354,-53.34103,-3.793401,79.38486,-105.5964,-99.98113,0.001067912,-0.1257102,0.09433498,0,0.3,0,0,0,0,
6.38224E+17,14.11242,19.91823,19.98526,-10.02838,6.640712,8.50265,49.26388,0.5610769,-12.37405,-96.38443,-11.30435,14.28902,0,0,0,41.6817,-56.54024,-2.560261,79.38486,-105.5964,-99.98113,0.001067912,-0.1257102,0.09433498,0,0.3,0,0,0,0,
6.38224E+17,13.3585,16.71542,19.86852,-11.93275,9.204292,9.601329,49.26388,0.5610769,-12.37405,-96.38443,-11.30435,14.36226,0,0,0,39.9788,-63.70845,0.004285242,79.38486,-105.5964,-99.98113,0.001067912,-0.1257102,0.09433498,0,0.3,0,0,0,0,
6.38224E+17,12.81662,13.39571,19.86852,-13.4709,11.54814,10.55352,49.26388,0.5610769,-12.37405,-96.38443,-11.30435,14.36226,0,0,0,38.82996,-71.16846,2.331518,79.38486,-105.5964,-99.98113,0.001067912,-0.1257102,0.09433498,0,0.3,0,0,0,0,
6.38224E+17,12.39254,9.865602,19.86852,-14.78931,13.67225,11.5057,49.26388,0.5610769,-12.37405,-96.38443,-11.30435,14.36226,0,0,0,37.921,-79.21446,4.23175,79.38486,-105.5964,-99.98113,0.001067912,-0.1257102,0.09433498,0,0.3,0,0,0,0,
6.38224E+17,12.25118,8.112236,19.91522,-15.37527,14.99066,11.87193,49.26388,0.5610769,-12.37405,-96.38443,-11.23111,14.36226,0,0,0,37.65207,-83.20798,5.047698,79.38486,-105.5964,-99.98113,0.001067912,-0.1257102,0.09433498,0,0.3,0,0,0,0,
6.38224E+17,12.10982,4.909423,20.102,-16.40071,17.33451,12.23815,49.26388,0.5610769,-12.37405,-96.45767,-11.30435,14.36226,0,0,0,37.48714,-90.46442,6.365769,79.38486,-105.5964,-99.98113,0.001067912,-0.1257102,0.09433498,0,0.3,0,0,0,0,
6.38224E+17,12.15694,2.291064,20.24208,-17.27965,19.38537,12.38465,49.26388,0.5610769,-12.37405,-96.38443,-11.30435,14.36226,0,0,0,37.77584,-96.4334,7.008104,79.38486,-105.5964,-99.98113,0.001067912,-0.1257102,0.09433498,0,0.3,0,0,0,0,
6.38224E+17,12.2983,1.239045,20.28877,-17.49938,20.19107,12.45789,49.26388,0.5610769,-12.37405,-96.38443,-11.30435,14.36226,0,0,0,38.24614,-98.84303,7.087664,79.38486,-105.5964,-99.98113,0.001067912,-0.1257102,0.09433498,0,0.3,0,0,0,0,
6.38224E+17,12.86374,-0.233782,20.35881,-17.86561,21.28975,12.53114,49.26388,0.5610769,-12.37405,-96.45767,-11.30435,14.28902,0,0,0,40.01633,-102.214,6.880029,79.38486,-105.5964,-99.98113,0.001067912,-0.1257102,0.09433498,0,0.3,0,0,0,0,
6.38224E+17,13.87682,-0.8416153,20.38216,-17.05991,22.0222,12.53114,49.26388,0.5610769,-12.37405,-96.38443,-11.30435,14.36226,0,0,0,43.11729,-103.6097,6.181689,79.38486,-105.5964,-99.98113,0.001067912,-0.1257102,0.09433498,0,0.3,0,0,0,0,
6.38224E+17,14.44226,-0.9351282,20.35881,-16.47395,22.31518,12.53114,49.26388,0.5610769,-12.37405,-96.38443,-11.30435,14.36226,0,0,0,44.82403,-103.8463,5.695084,79.38486,-105.5964,-99.98113,0.001067912,-0.1257102,0.09433498,0,0.3,0,0,0,0,
6.38224E+17,15.64381,-0.9585064,20.35881,-15.08229,22.75465,12.53114,49.26388,0.5610769,-12.37405,-96.38443,-11.30435,14.36226,0,0,0,48.46359,-103.9007,4.716006,79.38486,-105.5964,-99.98113,0.001067912,-0.1257102,0.09433498,0,0.3,0,0,0,0,
6.38224E+17,17.10453,-0.9585064,20.33547,-13.39765,23.12087,12.45789,49.26388,0.5610769,-12.37405,-96.45767,-11.30435,14.36226,0,0,0,52.84458,-103.9195,3.375659,79.38486,-105.5964,-99.98113,0.001067912,-0.1257102,0.09433498,0,0.3,0,0,0,0,
6.38224E+17,18.02337,-0.9585064,20.33547,-12.29898,23.26737,12.3114,49.26388,0.5610769,-12.37405,-96.38443,-11.30435,14.36226,0,0,0,55.59159,-103.9195,2.506158,79.38486,-105.5964,-99.98113,0.001067912,-0.1257102,0.09433498,0,0.3,0,0,0,0,
6.38224E+17,20.04953,-0.9585064,20.33547,-9.66215,23.4871,11.79868,49.26388,0.5610769,-12.37405,-96.38443,-11.30435,14.36226,0,0,0,61.59758,-103.9195,0.4338554,79.38486,-105.5964,-99.98113,0.001067912,-0.1257102,0.09433498,0,0.3,0,0,0,0,
6.38224E+17,22.38196,-0.7247244,20.56894,-6.512609,23.70683,11.5057,49.26388,0.5610769,-12.37405,-96.38443,-11.30435,14.36226,0,0,0,68.61253,-103.1856,-1.734678,79.38486,-105.5964,-99.98113,0.001067912,-0.1257102,0.09433498,0,0.3,0,0,0,0,
6.38224E+17,23.79556,-0.4675641,20.82576,-4.534989,23.70683,11.35921,49.26388,0.5610769,-12.37405,-96.38443,-11.30435,14.36226,0,0,0,72.93006,-102.3759,-2.960707,79.38486,-105.5964,-99.98113,0.001067912,-0.1257102,0.09433498,0,0.3,0,0,0,0,
6.38224E+17,26.85836,0.3272949,21.59622,0.4456824,23.4871,11.35921,49.26388,0.5610769,-12.37405,-96.38443,-11.23111,14.36226,0,0,0,82.41897,-99.87719,-5.600271,79.38486,-105.5964,-99.98113,0.001067912,-0.1257102,0.09433498,0,0.3,0,0,0,0,
6.38224E+17,29.73267,1.496205,22.46007,6.012315,22.90114,11.35921,49.26388,0.5610769,-12.37405,-96.38443,-11.30435,14.28902,0,0,0,91.37926,-96.403,-8.357159,79.38486,-105.5964,-99.98113,0.001067912,-0.1257102,0.09433498,0,0.3,0,0,0,0,
6.38224E+17,32.06511,3.062545,23.25388,11.57895,21.87571,11.43246,49.26388,0.5610769,-12.37405,-96.38443,-11.30435,14.36226,0,0,0,98.64166,-92.04288,-10.88877,79.38486,-105.5964,-99.98113,0.001067912,-0.1257102,0.09433498,0,0.3,0,0,0,0,
6.38224E+17,33.12531,4.091186,23.55739,14.28902,21.2165,11.43246,49.26388,0.5610769,-12.37405,-96.38443,-11.30435,14.36226,0,0,0,101.8109,-89.37292,-12.32305,79.38486,-105.5964,-99.98113,0.001067912,-0.1257102,0.09433498,0,0.3,0,0,0,0,
6.38224E+17,34.75095,6.429006,23.95429,18.90347,19.60511,11.43246,49.26388,0.5610769,-12.37405,-96.38443,-11.30435,14.36226,0,0,0,106.3939,-83.58305,-14.98926,79.38486,-105.5964,-99.98113,0.001067912,-0.1257102,0.09433498,0,0.3,0,0,0,0,
6.38224E+17,35.81114,9.257769,24.18777,22.8587,17.62749,11.43246,49.26388,0.5610769,-12.37405,-96.38443,-11.30435,14.36226,0,0,0,108.9779,-76.84002,-17.31029,79.38486,-105.5964,-99.98113,0.001067912,-0.1257102,0.09433498,0,0.3,0,0,0,0,
6.38224E+17,36.16454,10.91762,24.23446,24.68983,16.52881,11.43246,49.26388,0.5610769,-12.37405,-96.38443,-11.30435,14.36226,0,0,0,109.5667,-72.99217,-18.45157,79.38486,-105.5964,-99.98113,0.001067912,-0.1257102,0.09433498,0,0.3,0,0,0,0,
6.38224E+17,36.40014,14.37759,24.3512,27.83937,14.25821,11.57895,49.26388,0.5610769,-12.37405,-96.38443,-11.23111,14.36226,0,0,0,109.2829,-65.02425,-20.123,79.38486,-105.5964,-99.98113,0.001067912,-0.1257102,0.09433498,0,0.3,0,0,0,0,
6.38224E+17,36.1881,17.72068,24.49128,30.25646,11.76787,12.16491,49.26388,0.5610769,-12.37405,-96.38443,-11.30435,14.36226,0,0,0,107.639,-57.41309,-21.21583,79.38486,-105.5964,-99.98113,0.001067912,-0.1257102,0.09433498,0,0.3,0,0,0,0,
6.38224E+17,35.85826,19.42729,24.51463,31.20865,10.30297,12.60438,49.26388,0.5610769,-12.37405,-96.38443,-11.23111,14.36226,0,0,0,106.0781,-53.62563,-21.5839,79.38486,-105.5964,-99.98113,0.001067912,-0.1257102,0.09433498,0,0.3,0,0,0,0,
6.38224E+17,34.86874,22.25605,24.51463,32.38057,7.373164,13.48332,49.26388,0.5610769,-12.37405,-96.38443,-11.23111,14.36226,0,0,0,102.1887,-47.47339,-21.69551,79.38486,-105.5964,-99.98113,0.001067912,-0.1257102,0.09433498,0,0.3,0,0,0,0,
6.38224E+17,33.64362,24.28995,24.39789,32.89329,5.249053,14.87498,49.26388,0.5610769,-12.37405,-96.38443,-11.30435,14.36226,0,0,0,97.85657,-43.23756,-21.30704,79.38486,-105.5964,-99.98113,0.001067912,-0.1257102,0.09433498,0,0.3,0,0,0,0,
6.38224E+17,32.18291,26.04332,24.00099,32.60031,3.271434,16.70611,49.26388,0.5610769,-12.37405,-96.38443,-11.23111,14.36226,0,0,0,92.70338,-39.92296,-21.04209,79.38486,-105.5964,-99.98113,0.001067912,-0.1257102,0.09433498,0,0.3,0,0,0,0,
6.38224E+17,31.35831,26.8148,23.74417,32.16084,2.246002,17.58505,49.26388,0.5610769,-12.37405,-96.38443,-11.23111,14.36226,0,0,0,89.87349,-38.55699,-20.87239,79.38486,-105.5964,-99.98113,0.001067912,-0.1257102,0.09433498,0,0.3,0,0,0,0,
6.38224E+17,29.70911,28.07722,23.27722,30.76918,0.4881175,19.19645,49.26388,0.5610769,-12.37405,-96.38443,-11.30435,14.36226,0,0,0,84.42683,-36.38312,-20.38867,79.38486,-105.5964,-99.98113,0.001067912,-0.1257102,0.09433498,0,0.3,0,0,0,0,
6.38224E+17,27.94211,29.10587,22.76358,29.0113,-0.9035407,20.95433,49.26388,0.5610769,-12.37405,-96.45767,-11.30435,14.36226,0,0,0,78.7719,-34.74852,-19.83983,79.38486,-105.5964,-99.98113,0.001067912,-0.1257102,0.09433498,0,0.3,0,0,0,0,
6.38224E+17,26.99972,29.55005,22.48342,28.05911,-1.562747,21.68678,49.26388,0.5610769,-12.37405,-96.38443,-11.30435,14.36226,0,0,0,75.81554,-34.09806,-19.5518,79.38486,-105.5964,-99.98113,0.001067912,-0.1257102,0.09433498,0,0.3,0,0,0,0,
6.38224E+17,24.87932,30.48518,21.96978,25.49553,-3.027651,23.15168,49.26388,0.5610769,-12.37405,-96.38443,-11.30435,14.36226,0,0,0,69.33456,-32.66579,-18.84019,79.38486,-105.5964,-99.98113,0.001067912,-0.1257102,0.09433498,0,0.3,0,0,0,0,
6.38224E+17,22.61756,31.2099,21.45614,23.00519,-4.199574,24.90957,49.26388,0.5610769,-12.37405,-96.38443,-11.23111,14.36226,0,0,0,62.62043,-31.65995,-18.04395,79.38486,-105.5964,-99.98113,0.001067912,-0.1257102,0.09433498,0,0.3,0,0,0,0,
6.38224E+17,21.41601,31.51382,21.22267,21.54029,-4.712289,25.86176,49.26388,0.5610769,-12.37405,-96.45767,-11.30435,14.36226,0,0,0,59.13558,-31.25369,-17.57777,79.38486,-105.5964,-99.98113,0.001067912,-0.1257102,0.09433498,0,0.3,0,0,0,0,
6.38224E+17,18.65949,32.19178,20.84911,18.24426,-5.517986,27.69288,49.26388,0.5610769,-12.37405,-96.38443,-11.30435,14.36226,0,0,0,51.29021,-30.2255,-16.46605,79.38486,-105.5964,-99.98113,0.001067912,-0.1257102,0.09433498,0,0.3,0,0,0,0,
6.38224E+17,15.52601,33.08016,20.68568,14.14253,-6.396928,29.23104,49.26388,0.5610769,-12.37405,-96.38443,-11.30435,14.36226,0,0,0,42.51755,-28.61924,-15.30653,79.38486,-105.5964,-99.98113,0.001067912,-0.1257102,0.09433498,0,0.3,0,0,0,0,
6.38224E+17,11.87422,34.27245,21.10593,9.454838,-7.788587,30.76918,49.26388,0.5610769,-12.37405,-96.38443,-11.30435,14.36226,0,0,0,32.55489,-25.96117,-13.52075,79.38486,-105.5964,-99.98113,0.001067912,-0.1257102,0.09433498,0,0.3,0,0,0,0,
6.38224E+17,9.871624,34.92704,21.57287,6.744767,-8.667529,31.57488,49.26388,0.5610769,-12.37405,-96.38443,-11.30435,14.36226,0,0,0,27.14976,-24.31167,-12.33271,79.38486,-105.5964,-99.98113,0.001067912,-0.1257102,0.09433498,0,0.3,0,0,0,0,
6.38224E+17,5.86643,36.23622,22.83363,0.5921727,-10.20568,33.11303,49.26388,0.5610769,-12.37405,-96.38443,-11.30435,14.36226,0,0,0,16.28259,-20.72484,-9.878608,79.38486,-105.5964,-99.98113,0.001067912,-0.1257102,0.09433498,0,0.3,0,0,0,0,
6.38224E+17,2.591596,37.52202,24.46794,-5.853402,-11.96356,34.3582,49.26388,0.5610769,-12.37405,-96.38443,-11.30435,14.36226,0,0,0,7.279573,-16.80528,-7.52077,79.38486,-105.5964,-99.98113,0.001067912,-0.1257102,0.09433498,0,0.3,0,0,0,0,
6.38224E+17,1.319358,38.19999,25.30844,-9.076189,-12.91575,35.09065,49.26388,0.5610769,-12.37405,-96.38443,-11.30435,14.36226,0,0,0,3.725461,-14.73629,-6.592934,79.38486,-105.5964,-99.98113,0.001067912,-0.1257102,0.09433498,0,0.3,0,0,0,0,
6.38224E+17,-0.612559,39.64943,26.89605,-15.00905,-14.38065,36.55555,49.26388,0.5610769,-12.37405,-96.38443,-11.30435,14.36226,0,0,0,-1.742612,-10.48626,-5.360778,79.38486,-105.5964,-99.98113,0.001067912,-0.1257102,0.09433498,0,0.3,0,0,0,0,
6.38224E+17,-1.625637,41.26253,28.08676,-19.76999,-15.77231,37.50774,49.26388,0.5610769,-12.37405,-96.38443,-11.30435,14.36226,0,0,0,-4.624725,-6.350443,-5.394751,79.38486,-105.5964,-99.98113,0.001067912,-0.1257102,0.09433498,0,0.3,0,0,0,0,
6.38224E+17,-1.814117,42.12752,28.53036,-21.60111,-16.50476,37.80072,49.26388,0.5610769,-12.37405,-96.38443,-11.23111,14.28902,0,0,0,-5.147139,-4.357625,-5.840763,79.38486,-105.5964,-99.98113,0.001067912,-0.1257102,0.09433498,0,0.3,0,0,0,0,
6.38224E+17,-1.837677,43.99778,29.16073,-24.23794,-17.67669,38.16694,49.26388,0.5610769,-12.37405,-96.38443,-11.30435,14.36226,0,0,0,-5.159867,-0.469741,-7.528903,79.38486,-105.5964,-99.98113,0.001067912,-0.1257102,0.09433498,0,0.3,0,0,0,0,
6.38224E+17,-1.766997,46.0083,29.8845,-25.77609,-18.77536,38.38668,49.26388,0.5610769,-12.37405,-96.38443,-11.30435,14.28902,0,0,0,-4.904646,3.668726,-9.36478,79.38486,-105.5964,-99.98113,0.001067912,-0.1257102,0.09433498,0,0.3,0,0,0,0,
6.38224E+17,-1.649197,46.99019,30.25806,-26.36205,-19.28808,38.45993,49.26388,0.5610769,-12.37405,-96.38443,-11.30435,14.36226,0,0,0,-4.551711,5.677423,-10.25988,79.38486,-105.5964,-99.98113,0.001067912,-0.1257102,0.09433498,0,0.3,0,0,0,0,
6.38224E+17,-1.130878,49.11761,31.02851,-27.02126,-20.46,38.45993,49.26388,0.5610769,-12.37405,-96.38443,-11.30435,14.36226,0,0,0,-3.079172,9.900819,-12.36447,79.38486,-105.5964,-99.98113,0.001067912,-0.1257102,0.09433498,0,0.3,0,0,0,0,
6.38224E+17,-0.4005193,51.24502,31.84567,-27.02126,-21.63192,38.45993,49.26388,0.5610769,-12.37405,-96.38443,-11.30435,14.36226,0,0,0,-1.075362,14.0632,-14.51796,79.38486,-105.5964,-99.98113,0.001067912,-0.1257102,0.09433498,0,0.3,0,0,0,0,
6.38224E+17,0.4947592,53.25555,32.61613,-26.50854,-22.43762,38.45993,49.26388,0.5610769,-12.37405,-96.38443,-11.30435,14.36226,0,0,0,1.309534,17.88412,-16.70271,79.38486,-105.5964,-99.98113,0.001067912,-0.1257102,0.09433498,0,0.3,0,0,0,0,
6.38224E+17,1.130878,54.3777,33.05973,-26.14231,-22.95034,38.45993,49.26388,0.5610769,-12.37405,-96.38443,-11.30435,14.36226,0,0,0,2.96858,19.98582,-17.96684,79.38486,-105.5964,-99.98113,0.001067912,-0.1257102,0.09433498,0,0.3,0,0,0,0,
6.38224E+17,2.662276,56.38823,33.97027,-24.8239,-24.19551,38.31343,49.26388,0.5610769,-12.37405,-96.38443,-11.23111,14.36226,0,0,0,6.889678,23.81404,-20.18151,79.38486,-105.5964,-99.98113,0.001067912,-0.1257102,0.09433498,0,0.3,0,0,0,0,
6.38224E+17,4.335033,58.2351,34.92751,-22.77304,-25.66041,37.50774,49.26388,0.5610769,-12.37405,-96.38443,-11.30435,14.36226,0,0,0,11.07735,27.39561,-22.221,79.38486,-105.5964,-99.98113,0.001067912,-0.1257102,0.09433498,0,0.3,0,0,0,0,
6.38224E+17,5.206751,59.14686,35.44115,-21.60111,-26.39286,36.92178,49.26388,0.5610769,-12.37405,-96.38443,-11.23111,14.36226,0,0,0,13.22338,29.18713,-23.23893,79.38486,-105.5964,-99.98113,0.001067912,-0.1257102,0.09433498,0,0.3,0,0,0,0,
6.38224E+17,7.209348,60.78333,36.39838,-18.67131,-27.85776,35.53012,49.26388,0.5610769,-12.37405,-96.38443,-11.30435,14.36226,0,0,0,18.09882,32.40041,-25.27082,79.38486,-105.5964,-99.98113,0.001067912,-0.1257102,0.09433498,0,0.3,0,0,0,0,
6.38224E+17,9.353305,62.16264,37.16885,-15.22878,-29.61565,33.5525,49.26388,0.5610769,-12.37405,-96.38443,-11.30435,14.36226,0,0,0,23.21382,35.00721,-27.41392,79.38486,-105.5964,-99.98113,0.001067912,-0.1257102,0.09433498,0,0.3,0,0,0,0,
6.38224E+17,10.36638,62.7471,37.44902,-13.4709,-30.3481,32.38057,49.26388,0.5610769,-12.37405,-96.38443,-11.30435,14.28902,0,0,0,25.57834,36.03148,-28.52259,79.38486,-105.5964,-99.98113,0.001067912,-0.1257102,0.09433498,0,0.3,0,0,0,0,
6.38224E+17,12.46322,63.68222,37.86926,-9.36917,-31.37353,30.03673,49.26388,0.5610769,-12.37405,-96.38443,-11.23111,14.36226,0,0,0,30.4251,37.60984,-30.69311,79.38486,-105.5964,-99.98113,0.001067912,-0.1257102,0.09433498,0,0.3,0,0,0,0,
6.38224E+17,14.56006,64.19655,38.07939,-4.608234,-32.10598,27.69288,49.26388,0.5610769,-12.37405,-96.38443,-11.30435,14.36226,0,0,0,35.26797,38.43663,-32.56615,79.38486,-105.5964,-99.98113,0.001067912,-0.1257102,0.09433498,0,0.3,0,0,0,0,
6.38224E+17,15.64381,64.31344,38.10274,-2.117898,-32.39896,26.59421,49.26388,0.5610769,-12.37405,-96.38443,-11.30435,14.36226,0,0,0,37.77534,38.58833,-33.45229,79.38486,-105.5964,-99.98113,0.001067912,-0.1257102,0.09433498,0,0.3,0,0,0,0,
6.38224E+17,17.81133,64.40695,38.12609,2.862773,-32.6187,23.95738,49.26388,0.5610769,-12.37405,-96.38443,-11.30435,14.36226,0,0,0,42.80338,38.71604,-35.12362,79.38486,-105.5964,-99.98113,0.001067912,-0.1257102,0.09433498,0,0.3,0,0,0,0,
6.38224E+17,20.00241,64.40695,38.12609,7.403974,-32.76519,21.02757,49.26388,0.5610769,-12.37405,-96.45767,-11.30435,14.28902,0,0,0,47.86562,38.71604,-36.85749,79.38486,-105.5964,-99.98113,0.001067912,-0.1257102,0.09433498,0,0.3,0,0,0,0,
6.38224E+17,21.93432,64.38357,38.14943,12.01842,-32.54545,17.73154,49.26388,0.5610769,-12.37405,-96.38443,-11.30435,14.36226,0,0,0,52.30557,38.72609,-38.46071,79.38486,-105.5964,-99.98113,0.001067912,-0.1257102,0.09433498,0,0.3,0,0,0,0,
6.38224E+17,22.78248,64.3602,38.14943,13.99604,-32.47221,16.19339,49.26388,0.5610769,-12.37405,-96.38443,-11.30435,14.36226,0,0,0,54.24154,38.70255,-39.20397,79.38486,-105.5964,-99.98113,0.001067912,-0.1257102,0.09433498,0,0.3,0,0,0,0,
6.38224E+17,24.50236,64.26668,38.19613,17.51181,-32.17923,13.55657,49.26388,0.5610769,-12.37405,-96.38443,-11.30435,14.36226,0,0,0,58.20993,38.67538,-40.63389,79.38486,-105.5964,-99.98113,0.001067912,-0.1257102,0.09433498,0,0.3,0,0,0,0,
6.38224E+17,26.0102,64.19655,38.21947,20.66135,-31.73976,10.77325,49.26388,0.5610769,-12.37405,-96.38443,-11.30435,14.36226,0,0,0,61.63365,38.63803,-42.03935,79.38486,-105.5964,-99.98113,0.001067912,-0.1257102,0.09433498,0,0.3,0,0,0,0,
6.38224E+17,26.69344,64.19655,38.26617,21.97976,-31.37353,9.308348,49.26388,0.5610769,-12.37405,-96.38443,-11.30435,14.36226,0,0,0,63.1738,38.7053,-42.70702,79.38486,-105.5964,-99.98113,0.001067912,-0.1257102,0.09433498,0,0.3,0,0,0,0,
6.38224E+17,28.03635,64.17316,38.40625,24.4701,-30.78757,6.305296,49.26388,0.5610769,-12.37405,-96.45767,-11.23111,14.36226,0,0,0,66.24426,38.88383,-43.95313,79.38486,-105.5964,-99.98113,0.001067912,-0.1257102,0.09433498,0,0.3,0,0,0,0,
6.38224E+17,29.21435,64.10303,38.49964,26.7407,-30.05512,3.521979,49.26388,0.5610769,-12.37405,-96.38443,-11.23111,14.36226,0,0,0,68.94244,38.9478,-45.06454,79.38486,-105.5964,-99.98113,0.001067912,-0.1257102,0.09433498,0,0.3,0,0,0,0,
6.38224E+17,29.70911,64.07965,38.49964,27.83937,-29.83538,2.057076,49.26388,0.5610769,-12.37405,-96.45767,-11.30435,14.36226,0,0,0,70.02871,38.92402,-45.62195,79.38486,-105.5964,-99.98113,0.001067912,-0.1257102,0.09433498,0,0.3,0,0,0,0,
6.38224E+17,30.58083,64.00952,38.52299,30.25646,-29.32266,-1.385447,49.26388,0.5610769,-12.37405,-96.38443,-11.30435,14.36226,0,0,0,71.98406,38.88641,-46.5386,79.38486,-105.5964,-99.98113,0.001067912,-0.1257102,0.09433498,0,0.3,0,0,0,0,
6.38224E+17,31.02847,63.75236,38.49964,32.45382,-28.88319,-4.82797,49.26388,0.5610769,-12.37405,-96.38443,-11.30435,14.36226,0,0,0,73.18863,38.58909,-46.68064,79.38486,-105.5964,-99.98113,0.001067912,-0.1257102,0.09433498,0,0.3,0,0,0,0,
6.38224E+17,31.12271,63.56533,38.49964,33.40601,-28.73671,-6.512609,49.26388,0.5610769,-12.37405,-96.38443,-11.30435,14.36226,0,0,0,73.59028,38.39595,-46.46725,79.38486,-105.5964,-99.98113,0.001067912,-0.1257102,0.09433498,0,0.3,0,0,0,0,
6.38224E+17,31.12271,63.05101,38.49964,35.23714,-28.59021,-9.295925,49.26388,0.5610769,-12.37405,-96.38443,-11.23111,14.36226,0,0,0,74.14305,37.85826,-45.55172,79.38486,-105.5964,-99.98113,0.001067912,-0.1257102,0.09433498,0,0.3,0,0,0,0,
6.38224E+17,31.07559,62.13927,38.49964,36.84853,-28.37048,-11.85951,49.26388,0.5610769,-12.37405,-96.38443,-11.30435,14.36226,0,0,0,75.01442,36.88156,-43.8773,79.38486,-105.5964,-99.98113,0.001067912,-0.1257102,0.09433498,0,0.3,0,0,0,0,
6.38224E+17,30.91067,60.78333,38.33621,38.60641,-27.85776,-14.42309,49.26388,0.5610769,-12.37405,-96.38443,-11.30435,14.36226,0,0,0,75.92686,35.13755,-41.53905,79.38486,-105.5964,-99.98113,0.001067912,-0.1257102,0.09433498,0,0.3,0,0,0,0,
6.38224E+17,30.79287,60.05861,38.14943,39.63185,-27.34505,-15.66825,49.26388,0.5610769,-12.37405,-96.38443,-11.30435,14.36226,0,0,0,76.24215,34.03587,-40.4164,79.38486,-105.5964,-99.98113,0.001067912,-0.1257102,0.09433498,0,0.3,0,0,0,0,
6.38224E+17,30.36879,58.5624,37.79922,41.53622,-25.73365,-17.86561,49.26388,0.5610769,-12.37405,-96.38443,-11.30435,14.36226,0,0,0,76.48223,31.7571,-37.82635,79.38486,-105.5964,-99.98113,0.001067912,-0.1257102,0.09433498,0,0.3,0,0,0,0,
6.38224E+17,29.56775,57.22984,37.61245,43.07437,-23.97577,-19.25727,49.26388,0.5610769,-12.37405,-96.45767,-11.30435,14.36226,0,0,0,75.77663,29.84302,-34.78403,79.38486,-105.5964,-99.98113,0.001067912,-0.1257102,0.09433498,0,0.3,0,0,0,0,
6.38224E+17,29.02587,56.71552,37.49571,43.66033,-23.17007,-19.55025,49.26388,0.5610769,-12.37405,-96.38443,-11.30435,14.36226,0,0,0,74.89249,29.02499,-33.38414,79.38486,-105.5964,-99.98113,0.001067912,-0.1257102,0.09433498,0,0.3,0,0,0,0,
6.38224E+17,27.73007,56.01418,37.1455,44.46603,-21.9249,-19.62349,49.26388,0.5610769,-12.37405,-96.45767,-11.30435,14.36226,0,0,0,72.15197,27.6267,-31.09585,79.38486,-105.5964,-99.98113,0.001067912,-0.1257102,0.09433498,0,0.3,0,0,0,0,
6.38224E+17,26.15156,55.54661,36.3517,44.46603,-21.41219,-17.93885,49.26388,0.5610769,-12.37405,-96.38443,-11.30435,14.36226,0,0,0,68.08781,25.90937,-29.68146,79.38486,-105.5964,-99.98113,0.001067912,-0.1257102,0.09433498,0,0.3,0,0,0,0,
6.38224E+17,24.361,54.77513,34.76408,42.92788,-21.2657,-13.91037,49.26388,0.5610769,-12.37405,-96.38443,-11.30435,14.36226,0,0,0,63.08971,22.73496,-29.01748,79.38486,-105.5964,-99.98113,0.001067912,-0.1257102,0.09433498,0,0.3,0,0,0,0,
6.38224E+17,23.5364,54.3777,33.80684,41.60947,-21.11921,-11.78626,49.26388,0.5610769,-12.37405,-96.38443,-11.30435,14.36226,0,0,0,60.64391,20.94384,-29.12051,79.38486,-105.5964,-99.98113,0.001067912,-0.1257102,0.09433498,0,0.3,0,0,0,0,
6.38224E+17,21.91076,53.51271,31.93906,38.31343,-20.67974,-7.684532,49.26388,0.5610769,-12.37405,-96.38443,-11.30435,14.36226,0,0,0,55.9147,17.39959,-29.33328,79.38486,-105.5964,-99.98113,0.001067912,-0.1257102,0.09433498,0,0.3,0,0,0,0,
6.38224E+17,19.97885,52.27366,29.90785,34.28495,-19.94728,-3.289821,49.26388,0.5610769,-12.37405,-96.38443,-11.30435,14.36226,0,0,0,50.5966,13.23059,-29.17712,79.38486,-105.5964,-99.98113,0.001067912,-0.1257102,0.09433498,0,0.3,0,0,0,0,
6.38224E+17,18.91865,51.45543,28.6004,32.01435,-19.21483,-1.312202,49.26388,0.5610769,-12.37405,-96.38443,-11.30435,14.36226,0,0,0,47.63774,10.5676,-29.35919,79.38486,-105.5964,-99.98113,0.001067912,-0.1257102,0.09433498,0,0.3,0,0,0,0,
6.38224E+17,16.82181,49.63192,25.89212,27.39991,-17.45695,2.276812,49.26388,0.5610769,-12.37405,-96.45767,-11.30435,14.36226,0,0,0,41.84704,4.985232,-29.93637,79.38486,-105.5964,-99.98113,0.001067912,-0.1257102,0.09433498,0,0.3,0,0,0,0,
6.38224E+17,14.86634,47.78505,23.37061,22.78546,-15.03986,5.499599,49.26388,0.5610769,-12.37405,-96.38443,-11.30435,14.36226,0,0,0,36.55964,-0.2968134,-30.62318,79.38486,-105.5964,-99.98113,0.001067912,-0.1257102,0.09433498,0,0.3,0,0,0,0,
6.38224E+17,14.01818,46.82654,22.10986,20.44161,-13.86794,6.744767,49.26388,0.5610769,-12.37405,-96.38443,-11.30435,14.36226,0,0,0,34.25857,-2.943716,-31.13185,79.38486,-105.5964,-99.98113,0.001067912,-0.1257102,0.09433498,0,0.3,0,0,0,0,
6.38224E+17,12.86374,45.00304,19.91522,16.12015,-10.71839,8.575896,49.26388,0.5610769,-12.37405,-96.38443,-11.30435,14.36226,0,0,0,31.10421,-7.727668,-32.14582,79.38486,-105.5964,-99.98113,0.001067912,-0.1257102,0.09433498,0,0.3,0,0,0,0,
6.38224E+17,12.0627,43.62373,17.9307,13.1171,-7.568851,9.674574,49.26388,0.5610769,-12.37405,-96.38443,-11.30435,14.36226,0,0,0,28.75262,-11.52239,-33.80371,79.38486,-105.5964,-99.98113,0.001067912,-0.1257102,0.09433498,0,0.3,0,0,0,0,
6.38224E+17,11.63862,42.96914,16.88007,12.09166,-6.030703,10.0408,49.26388,0.5610769,-12.37405,-96.38443,-11.30435,14.36226,0,0,0,27.49605,-13.36263,-34.85656,79.38486,-105.5964,-99.98113,0.001067912,-0.1257102,0.09433498,0,0.3,0,0,0,0,
6.38224E+17,10.57842,41.54307,14.80217,10.18729,-3.027651,10.55352,49.26388,0.5610769,-12.37405,-96.38443,-11.30435,14.36226,0,0,0,24.577,-17.13918,-36.7499,79.38486,-105.5964,-99.98113,0.001067912,-0.1257102,0.09433498,0,0.3,0,0,0,0,
6.38224E+17,9.117705,40.49105,13.21455,8.282915,-0.09784385,10.91974,49.26388,0.5610769,-12.37405,-96.38443,-11.30435,14.36226,0,0,0,20.90085,-19.88095,-38.11931,79.38486,-105.5964,-99.98113,0.001067912,-0.1257102,0.09433498,0,0.3,0,0,0,0,
6.38224E+17,7.232908,39.97673,12.02384,6.451786,2.831963,11.5057,49.26388,0.5610769,-12.37405,-96.38443,-11.30435,14.36226,0,0,0,16.36313,-21.40021,-39.41806,79.38486,-105.5964,-99.98113,0.001067912,-0.1257102,0.09433498,0,0.3,0,0,0,0,
6.38224E+17,5.98423,39.90659,11.58024,5.279863,4.223621,11.87193,49.26388,0.5610769,-12.37405,-96.38443,-11.30435,14.36226,0,0,0,13.45515,-21.73652,-39.99297,79.38486,-105.5964,-99.98113,0.001067912,-0.1257102,0.09433498,0,0.3,0,0,0,0,
6.38224E+17,3.274835,39.88321,11.15999,2.496547,6.494221,12.60438,49.26388,0.5610769,-12.37405,-96.38443,-11.23111,14.36226,0,0,0,7.319856,-21.97109,-40.42291,79.38486,-105.5964,-99.98113,0.001067912,-0.1257102,0.09433498,0,0.3,0,0,0,0,
6.38224E+17,0.09423985,39.90659,10.99656,-0.8727306,8.105616,13.48332,49.26388,0.5610769,-12.37405,-96.45767,-11.23111,14.36226,0,0,0,0.2100866,-22.00243,-40.62202,79.38486,-105.5964,-99.98113,0.001067912,-0.1257102,0.09433498,0,0.3,0,0,0,0,
6.38224E+17,-1.814117,39.95335,10.90317,-2.923595,8.838067,13.84955,49.26388,0.5610769,-12.37405,-96.38443,-11.30435,14.36226,0,0,0,-4.034527,-21.96027,-40.96896,79.38486,-105.5964,-99.98113,0.001067912,-0.1257102,0.09433498,0,0.3,0,0,0,0,
6.38224E+17,-5.560151,40.117,10.73974,-6.952079,9.936745,14.43551,49.26388,0.5610769,-12.37405,-96.38443,-11.30435,14.36226,0,0,0,-12.28829,-21.74007,-42.1204,79.38486,-105.5964,-99.98113,0.001067912,-0.1257102,0.09433498,0,0.3,0,0,0,0,
6.38224E+17,-9.164824,40.18713,10.62301,-11.05381,10.30297,14.72849,49.26388,0.5610769,-12.37405,-96.38443,-11.23111,14.36226,0,0,0,-20.14099,-21.66566,-43.51021,79.38486,-105.5964,-99.98113,0.001067912,-0.1257102,0.09433498,0,0.3,0,0,0,0,
6.38224E+17,-11.02606,40.18713,10.62301,-13.4709,10.22972,14.80174,49.26388,0.5610769,-12.37405,-96.38443,-11.30435,14.36226,0,0,0,-24.18503,-21.66566,-44.23024,79.38486,-105.5964,-99.98113,0.001067912,-0.1257102,0.09433498,0,0.3,0,0,0,0,
6.38224E+17,-14.11242,40.21051,10.78644,-18.08535,10.15648,14.87498,49.26388,0.5610769,-12.37405,-96.38443,-11.23111,14.36226,0,0,0,-30.91525,-21.55345,-45.384,79.38486,-105.5964,-99.98113,0.001067912,-0.1257102,0.09433498,0,0.3,0,0,0,0,
6.38224E+17,-16.44485,40.3274,11.1133,-22.11383,10.15648,14.87498,49.26388,0.5610769,-12.37405,-96.38443,-11.23111,14.36226,0,0,0,-36.0557,-21.20137,-46.19637,79.38486,-105.5964,-99.98113,0.001067912,-0.1257102,0.09433498,0,0.3,0,0,0,0,
6.38224E+17,-17.38725,40.49105,11.27673,-23.94496,10.08323,14.80174,49.26388,0.5610769,-12.37405,-96.38443,-11.23111,14.36226,0,0,0,-38.09763,-20.83751,-46.68545,79.38486,-105.5964,-99.98113,0.001067912,-0.1257102,0.09433498,0,0.3,0,0,0,0,
6.38224E+17,-19.17781,41.00537,11.79037,-26.94801,9.790254,14.582,49.26388,0.5610769,-12.37405,-96.38443,-11.30435,14.36226,0,0,0,-42.00867,-19.69165,-47.56693,79.38486,-105.5964,-99.98113,0.001067912,-0.1257102,0.09433498,0,0.3,0,0,0,0,
6.38224E+17,-20.82701,41.68334,12.44409,-29.73133,9.497273,14.28902,49.26388,0.5610769,-12.37405,-96.38443,-11.23111,14.36226,0,0,0,-45.6257,-18.18767,-48.40982,79.38486,-105.5964,-99.98113,0.001067912,-0.1257102,0.09433498,0,0.3,0,0,0,0,
6.38224E+17,-22.38196,42.71198,13.51807,-32.29491,8.911312,14.21577,49.26388,0.5610769,-12.37405,-96.38443,-11.23111,14.36226,0,0,0,-49.17871,-15.85263,-48.92682,79.38486,-105.5964,-99.98113,0.001067912,-0.1257102,0.09433498,0,0.3,0,0,0,0,
6.38224E+17,-23.15944,43.48346,14.31187,-33.54007,8.398596,14.36226,49.26388,0.5610769,-12.37405,-96.38443,-11.30435,14.36226,0,0,0,-51.01744,-14.09727,-49.08429,79.38486,-105.5964,-99.98113,0.001067912,-0.1257102,0.09433498,0,0.3,0,0,0,0,
6.38224E+17,-24.361,45.63425,16.52986,-35.81068,7.226673,14.582,49.26388,0.5610769,-12.37405,-96.38443,-11.23111,14.36226,0,0,0,-54.11104,-9.158162,-48.84673,79.38486,-105.5964,-99.98113,0.001067912,-0.1257102,0.09433498,0,0.3,0,0,0,0,
6.38224E+17,-24.92644,48.25261,19.00467,-37.7883,5.395544,14.80174,49.26388,0.5610769,-12.37405,-96.38443,-11.30435,14.36226,0,0,0,-55.72283,-3.240562,-48.45034,79.38486,-105.5964,-99.98113,0.001067912,-0.1257102,0.09433498,0,0.3,0,0,0,0,
6.38224E+17,-24.97356,49.49166,20.14869,-38.59399,4.516602,15.16796,49.26388,0.5610769,-12.37405,-96.38443,-11.30435,14.36226,0,0,0,-55.96349,-0.451707,-48.19117,79.38486,-105.5964,-99.98113,0.001067912,-0.1257102,0.09433498,0,0.3,0,0,0,0,
6.38224E+17,-24.97356,52.27366,22.74024,-39.76591,2.246002,16.19339,49.26388,0.5610769,-12.37405,-96.38443,-11.30435,14.36226,0,0,0,-56.21279,5.837876,-47.6559,79.38486,-105.5964,-99.98113,0.001067912,-0.1257102,0.09433498,0,0.3,0,0,0,0,
6.38224E+17,-24.87932,55.1258,25.30844,-40.86459,-0.3908245,17.43856,49.26388,0.5610769,-12.37405,-96.38443,-11.30435,14.36226,0,0,0,-56.06036,12.20059,-47.46404,79.38486,-105.5964,-99.98113,0.001067912,-0.1257102,0.09433498,0,0.3,0,0,0,0,
6.38224E+17,-24.7144,56.34147,26.35906,-41.45055,-1.709238,17.95128,49.26388,0.5610769,-12.37405,-96.38443,-11.23111,14.36226,0,0,0,-55.65474,14.85911,-47.42798,79.38486,-105.5964,-99.98113,0.001067912,-0.1257102,0.09433498,0,0.3,0,0,0,0,
6.38224E+17,-24.0076,58.63254,28.2035,-42.3295,-4.272818,18.83022,49.26388,0.5610769,-12.37405,-96.38443,-11.23111,14.36226,0,0,0,-53.88173,19.69246,-47.37284,79.38486,-105.5964,-99.98113,0.001067912,-0.1257102,0.09433498,0,0.3,0,0,0,0,
6.38224E+17,-22.99452,60.80671,29.69772,-42.10976,-6.98289,19.70916,49.26388,0.5610769,-12.37405,-96.45767,-11.23111,14.36226,0,0,0,-51.21615,23.92713,-47.66022,79.38486,-105.5964,-99.98113,0.001067912,-0.1257102,0.09433498,0,0.3,0,0,0,0,
6.38224E+17,-22.28772,61.8821,30.39814,-41.67029,-8.228058,20.00214,49.26388,0.5610769,-12.37405,-96.38443,-11.23111,14.28902,0,0,0,-49.42566,25.94361,-47.76419,79.38486,-105.5964,-99.98113,0.001067912,-0.1257102,0.09433498,0,0.3,0,0,0,0,
6.38224E+17,-20.61497,63.89263,31.58885,-40.49837,-10.5719,20.51486,49.26388,0.5610769,-12.37405,-96.38443,-11.30435,14.36226,0,0,0,-45.25459,29.50305,-48.04755,79.38486,-105.5964,-99.98113,0.001067912,-0.1257102,0.09433498,0,0.3,0,0,0,0,
6.38224E+17,-18.61237,65.57586,32.12584,-38.52075,-12.91575,20.80784,49.26388,0.5610769,-12.37405,-96.38443,-11.30435,14.36226,0,0,0,-40.23111,31.8347,-48.89098,79.38486,-105.5964,-99.98113,0.001067912,-0.1257102,0.09433498,0,0.3,0,0,0,0,
6.38224E+17,-16.35061,67.18896,32.12584,-35.88392,-14.52714,20.88108,49.26388,0.5610769,-12.37405,-96.38443,-11.30435,14.36226,0,0,0,-34.517,33.33875,-50.69696,79.38486,-105.5964,-99.98113,0.001067912,-0.1257102,0.09433498,0,0.3,0,0,0,0,
6.38224E+17,-14.93702,67.98382,32.12584,-34.19928,-15.55258,20.66135,49.26388,0.5610769,-12.37405,-96.38443,-11.30435,14.36226,0,0,0,-31.16325,34.04411,-51.53365,79.38486,-105.5964,-99.98113,0.001067912,-0.1257102,0.09433498,0,0.3,0,0,0,0,
6.38224E+17,-11.68574,69.1761,31.86902,-30.68352,-17.38371,19.63592,49.26388,0.5610769,-12.37405,-96.38443,-11.30435,14.36226,0,0,0,-23.86197,34.74078,-52.98032,79.38486,-105.5964,-99.98113,0.001067912,-0.1257102,0.09433498,0,0.3,0,0,0,0,
6.38224E+17,-7.963267,69.69042,31.23864,-25.99582,-18.55563,17.43856,49.26388,0.5610769,-12.37405,-96.45767,-11.30435,14.36226,0,0,0,-15.99293,34.39354,-54.0226,79.38486,-105.5964,-99.98113,0.001067912,-0.1257102,0.09433498,0,0.3,0,0,0,0,
6.38224E+17,-3.816714,69.64367,30.49153,-19.91648,-19.14159,14.87498,49.26388,0.5610769,-12.37405,-96.38443,-11.30435,14.36226,0,0,0,-7.591739,33.46369,-54.55289,79.38486,-105.5964,-99.98113,0.001067912,-0.1257102,0.09433498,0,0.3,0,0,0,0,
6.38224E+17,-1.884797,69.52678,30.16467,-16.76693,-19.21483,13.7763,49.26388,0.5610769,-12.37405,-96.45767,-11.30435,14.28902,0,0,0,-3.737894,32.98466,-54.76308,79.38486,-105.5964,-99.98113,0.001067912,-0.1257102,0.09433498,0,0.3,0,0,0,0,
6.38224E+17,1.790557,68.73192,29.09069,-9.881886,-18.77536,11.13948,49.26388,0.5610769,-12.37405,-96.38443,-11.23111,14.36226,0,0,0,3.537183,31.08993,-55.20105,79.38486,-105.5964,-99.98113,0.001067912,-0.1257102,0.09433498,0,0.3,0,0,0,0,
6.38224E+17,4.711992,67.30585,27.43304,-3.729292,-17.38371,8.942122,49.26388,0.5610769,-12.37405,-96.38443,-11.30435,14.28902,0,0,0,9.273087,28.02093,-55.84761,79.38486,-105.5964,-99.98113,0.001067912,-0.1257102,0.09433498,0,0.3,0,0,0,0,
6.38224E+17,6.05491,66.16032,26.28902,-0.7262403,-16.43152,8.06318,49.26388,0.5610769,-12.37405,-96.38443,-11.23111,14.28902,0,0,0,11.91497,25.76479,-56.02227,79.38486,-105.5964,-99.98113,0.001067912,-0.1257102,0.09433498,0,0.3,0,0,0,0,
6.38224E+17,7.845467,63.61209,23.74417,3.81496,-14.16092,7.184238,49.26388,0.5610769,-12.37405,-96.38443,-11.30435,14.36226,0,0,0,15.41934,20.74342,-56.44659,79.38486,-105.5964,-99.98113,0.001067912,-0.1257102,0.09433498,0,0.3,0,0,0,0,
6.38224E+17,8.929225,60.73657,21.05923,7.330729,-10.35217,7.037747,49.26388,0.5610769,-12.37405,-96.38443,-11.30435,14.36226,0,0,0,17.55504,15.23859,-56.61875,79.38486,-105.5964,-99.98113,0.001067912,-0.1257102,0.09433498,0,0.3,0,0,0,0,
6.38224E+17,9.117705,59.35726,19.93857,8.649141,-8.374548,7.037747,49.26388,0.5610769,-12.37405,-96.38443,-11.30435,14.36226,0,0,0,17.97611,12.72244,-56.34305,79.38486,-105.5964,-99.98113,0.001067912,-0.1257102,0.09433498,0,0.3,0,0,0,0,
6.38224E+17,9.094145,56.76228,17.95405,10.55352,-4.346064,7.843444,49.26388,0.5610769,-12.37405,-96.38443,-11.30435,14.36226,0,0,0,18.0496,8.028028,-55.58876,79.38486,-105.5964,-99.98113,0.001067912,-0.1257102,0.09433498,0,0.3,0,0,0,0,
6.38224E+17,8.905665,54.12054,16.15631,11.72544,-0.7570504,9.161857,49.26388,0.5610769,-12.37405,-96.45767,-11.30435,14.36226,0,0,0,17.84315,3.313581,-54.47968,79.38486,-105.5964,-99.98113,0.001067912,-0.1257102,0.09433498,0,0.3,0,0,0,0,
6.38224E+17,8.316667,51.82948,14.66208,12.3114,3.198189,10.26054,49.26388,0.5610769,-12.37405,-96.45767,-11.30435,14.28902,0,0,0,16.80244,-0.8210927,-53.40752,79.38486,-105.5964,-99.98113,0.001067912,-0.1257102,0.09433498,0,0.3,0,0,0,0,
6.38224E+17,7.704108,50.91772,14.05505,12.09166,4.809582,10.62676,49.26388,0.5610769,-12.37405,-96.38443,-11.23111,14.36226,0,0,0,15.61139,-2.496074,-52.94796,79.38486,-105.5964,-99.98113,0.001067912,-0.1257102,0.09433498,0,0.3,0,0,0,0,
6.38224E+17,5.88999,49.86571,13.21455,10.91974,8.03237,11.13948,49.26388,0.5610769,-12.37405,-96.45767,-11.23111,14.28902,0,0,0,11.94877,-4.518167,-52.52622,79.38486,-105.5964,-99.98113,0.001067912,-0.1257102,0.09433498,0,0.3,0,0,0,0,
6.38224E+17,3.486874,49.67868,13.00443,8.429405,10.44946,11.35921,49.26388,0.5610769,-12.37405,-96.38443,-11.30435,14.36226,0,0,0,7.073018,-4.910207,-52.27077,79.38486,-105.5964,-99.98113,0.001067912,-0.1257102,0.09433498,0,0.3,0,0,0,0,
6.38224E+17,2.191077,49.72544,13.00443,6.818012,11.25516,11.43246,49.26388,0.5610769,-12.37405,-96.38443,-11.23111,14.36226,0,0,0,4.443019,-4.839826,-52.22345,79.38486,-105.5964,-99.98113,0.001067912,-0.1257102,0.09433498,0,0.3,0,0,0,0,
6.38224E+17,-1.036638,49.86571,13.19121,2.203566,11.91436,11.5057,49.26388,0.5610769,-12.37405,-96.38443,-11.30435,14.36226,0,0,0,-2.10562,-4.530578,-51.98347,79.38486,-105.5964,-99.98113,0.001067912,-0.1257102,0.09433498,0,0.3,0,0,0,0,
6.38224E+17,-4.217233,50.4034,13.93832,-2.923595,11.84112,11.43246,49.26388,0.5610769,-12.37405,-96.38443,-11.30435,14.36226,0,0,0,-8.612448,-3.320597,-51.55175,79.38486,-105.5964,-99.98113,0.001067912,-0.1257102,0.09433498,0,0.3,0,0,0,0,
6.38224E+17,-5.79575,50.89435,14.5687,-5.853402,11.47489,11.06623,49.26388,0.5610769,-12.37405,-96.38443,-11.23111,14.36226,0,0,0,-11.88097,-2.234873,-51.29766,79.38486,-105.5964,-99.98113,0.001067912,-0.1257102,0.09433498,0,0.3,0,0,0,0,
6.38224E+17,-8.363786,52.20353,16.13296,-11.49328,10.08323,9.894309,49.26388,0.5610769,-12.37405,-96.38443,-11.30435,14.36226,0,0,0,-17.27722,0.6235971,-50.835,79.38486,-105.5964,-99.98113,0.001067912,-0.1257102,0.09433498,0,0.3,0,0,0,0,
6.38224E+17,-10.1779,53.79325,17.90735,-16.84018,8.325351,8.35616,49.26388,0.5610769,-12.37405,-96.38443,-11.23111,14.36226,0,0,0,-21.16437,4.059019,-50.46252,79.38486,-105.5964,-99.98113,0.001067912,-0.1257102,0.09433498,0,0.3,0,0,0,0,
6.38224E+17,-10.69622,54.65824,18.7712,-19.40376,7.226673,7.330729,49.26388,0.5610769,-12.37405,-96.45767,-11.30435,14.36226,0,0,0,-22.281,5.868491,-50.38852,79.38486,-105.5964,-99.98113,0.001067912,-0.1257102,0.09433498,0,0.3,0,0,0,0,
6.38224E+17,-10.90826,56.06093,19.93857,-23.359,5.029318,5.572844,49.26388,0.5610769,-12.37405,-96.38443,-11.23111,14.36226,0,0,0,-22.69421,8.624555,-50.59211,79.38486,-105.5964,-99.98113,0.001067912,-0.1257102,0.09433498,0,0.3,0,0,0,0,
6.38224E+17,-10.50774,56.7389,20.17204,-25.99582,3.051698,4.034696,49.26388,0.5610769,-12.37405,-96.38443,-11.30435,14.36226,0,0,0,-21.72389,9.68409,-51.22668,79.38486,-105.5964,-99.98113,0.001067912,-0.1257102,0.09433498,0,0.3,0,0,0,0,
6.38224E+17,-9.400424,56.7389,19.68175,-27.02126,1.733285,2.936018,49.26388,0.5610769,-12.37405,-96.38443,-11.30435,14.36226,0,0,0,-19.28119,9.295178,-51.88712,79.38486,-105.5964,-99.98113,0.001067912,-0.1257102,0.09433498,0,0.3,0,0,0,0,
6.38224E+17,-8.740746,56.5285,19.28484,-26.87477,1.367059,2.789528,49.26388,0.5610769,-12.37405,-96.38443,-11.30435,14.36226,0,0,0,-17.86885,8.717752,-52.12936,79.38486,-105.5964,-99.98113,0.001067912,-0.1257102,0.09433498,0,0.3,0,0,0,0,
