zeyangz2/DNN_classification_different_people_hand/data/zeyang_right_15.csv
Timestamp,Therapist joint angle 0,Therapist joint angle 1,Therapist joint angle 2,Therapist joint angle 3,Therapist joint angle 4,Therapist joint angle 5,Patient joint angle 0,Patient joint angle 1,Patient joint angle 2,Patient joint angle 3,Patient joint angle 4,Patient joint angle 5,Virtual joint angle 0,Virtual joint angle 1,Virtual joint angle 2,Therapist position x,Therapist position y,Therapist position z,Patient position x,Patient position y,Patient position z,Virtual position x,Virtual position y,Virtual position z,Assistive Force, Obstacle Force Magnitude, Therapist Constant Force, Patient Constant Force, Recovery Factor, Assistance Level,label
6.38224E+17,0,0,0,0,0,0,0,0,0,0,0,0,0,0,0,0,0,0,0,0,0,0,0,0,0,0.3,0,0,0,0,0
6.38224E+17,-13.26426,-0.9818845,-1.657656,-50.45971,-62.57597,-108.9094,49.26388,0.6078333,-12.37405,-96.38443,-11.3776,14.36226,0,0,0,-29.70661,-112.2293,-42.33112,79.38402,-105.4876,-99.98185,0.001067912,-0.1257102,0.09433498,0,0.3,0,0,0,0,
6.38224E+17,-13.26426,-0.9818845,-1.657656,-50.45971,-62.57597,-108.8361,49.26388,0.6078333,-12.37405,-96.38443,-11.3776,14.36226,0,0,0,-29.70661,-112.2293,-42.33112,79.38402,-105.4876,-99.98185,0.001067912,-0.1257102,0.09433498,0,0.3,0,0,0,0,
6.38224E+17,-13.26426,-0.9818845,-1.657656,-50.45971,-62.57597,-108.9094,49.26388,0.6078333,-12.37405,-96.38443,-11.30435,14.36226,0,0,0,-29.70661,-112.2293,-42.33112,79.38402,-105.4876,-99.98185,0.001067912,-0.1257102,0.09433498,0,0.3,0,0,0,0,
6.38224E+17,-13.26426,-0.9818845,-1.657656,-50.45971,-62.57597,-108.8361,49.26388,0.6078333,-12.37405,-96.38443,-11.30435,14.36226,0,0,0,-29.70661,-112.2293,-42.33112,79.38402,-105.4876,-99.98185,0.001067912,-0.1257102,0.09433498,0,0.3,0,0,0,0,
6.38224E+17,-13.26426,-0.9818845,-1.657656,-50.45971,-62.50273,-108.8361,49.26388,0.6078333,-12.37405,-96.45767,-11.30435,14.36226,0,0,0,-29.70661,-112.2293,-42.33112,79.38402,-105.4876,-99.98185,0.001067912,-0.1257102,0.09433498,0,0.3,0,0,0,0,
6.38224E+17,-13.26426,-0.9818845,-1.657656,-50.53296,-62.57597,-108.9094,49.26388,0.6078333,-12.37405,-96.38443,-11.3776,14.36226,0,0,0,-29.70661,-112.2293,-42.33112,79.38402,-105.4876,-99.98185,0.001067912,-0.1257102,0.09433498,0,0.3,0,0,0,0,
6.38224E+17,-13.26426,-0.9818845,-1.657656,-50.53296,-62.57597,-108.8361,49.26388,0.6078333,-12.37405,-96.38443,-11.30435,14.28902,0,0,0,-29.70661,-112.2293,-42.33112,79.38402,-105.4876,-99.98185,0.001067912,-0.1257102,0.09433498,0,0.3,0,0,0,0,
6.38224E+17,-13.26426,-0.9818845,-1.657656,-50.45971,-62.50273,-108.9094,49.26388,0.6078333,-12.37405,-96.38443,-11.30435,14.36226,0,0,0,-29.70661,-112.2293,-42.33112,79.38402,-105.4876,-99.98185,0.001067912,-0.1257102,0.09433498,0,0.3,0,0,0,0,
6.38224E+17,-13.26426,-0.9818845,-1.657656,-50.45971,-62.50273,-108.9094,49.26388,0.5844551,-12.37405,-96.38443,-11.30435,14.36226,0,0,0,-29.70661,-112.2293,-42.33112,79.38445,-105.542,-99.98148,0.001067912,-0.1257102,0.09433498,0,0.3,0,0,1.23E-06,0,
6.38224E+17,-13.26426,-0.9818845,-1.657656,-50.45971,-62.57597,-108.9094,49.26388,0.5844551,-12.37405,-96.38443,-11.3776,14.36226,0,0,0,-29.70661,-112.2293,-42.33112,79.38445,-105.542,-99.98148,0.001067912,-0.1257102,0.09433498,0,0.3,0,0,2.41E-06,0,
6.38224E+17,-13.26426,-0.9818845,-1.657656,-50.45971,-62.57597,-108.9094,49.26388,0.5844551,-12.37405,-96.38443,-11.3776,14.36226,0,0,0,-29.70661,-112.2293,-42.33112,79.38445,-105.542,-99.98148,0.001067912,-0.1257102,0.09433498,0,0.3,0,0,4.51E-06,0,
6.38224E+17,-13.26426,-0.9818845,-1.657656,-50.45971,-62.57597,-108.8361,49.26388,0.5844551,-12.37405,-96.38443,-11.3776,14.36226,0,0,0,-29.70661,-112.2293,-42.33112,79.38445,-105.542,-99.98148,0.001067912,-0.1257102,0.09433498,0,0.3,0,0,6.17E-06,0,
6.38224E+17,-13.26426,-0.9818845,-1.657656,-50.45971,-62.57597,-108.8361,49.26388,0.5844551,-12.37405,-96.38443,-11.30435,14.36226,0,0,0,-29.70661,-112.2293,-42.33112,79.38445,-105.542,-99.98148,0.001067912,-0.1257102,0.09433498,0,0.3,0,0,6.91E-06,0,
6.38224E+17,-13.26426,-0.9818845,-1.657656,-50.45971,-62.57597,-108.8361,49.26388,0.5844551,-12.37405,-96.45767,-11.3776,14.36226,0,0,0,-29.70661,-112.2293,-42.33112,79.38445,-105.542,-99.98148,0.001067912,-0.1257102,0.09433498,0,0.3,0,0,8.21E-06,0,
6.38224E+17,-13.26426,-0.9818845,-1.657656,-50.53296,-62.57597,-108.9094,49.26388,0.5844551,-12.37405,-96.38443,-11.30435,14.36226,0,0,0,-29.70661,-112.2293,-42.33112,79.38445,-105.542,-99.98148,0.001067912,-0.1257102,0.09433498,0,0.3,0,0,9.32E-06,0,
6.38224E+17,-13.26426,-0.9818845,-1.657656,-50.45971,-62.57597,-108.8361,49.26388,0.5844551,-12.37405,-96.38443,-11.30435,14.36226,0,0,0,-29.70661,-112.2293,-42.33112,79.38445,-105.542,-99.98148,0.001067912,-0.1257102,0.09433498,0,0.3,0,0,1.02E-05,0,
6.38224E+17,-13.26426,-0.9818845,-1.657656,-50.53296,-62.57597,-108.9094,49.26388,0.5844551,-12.37405,-96.38443,-11.30435,14.36226,0,0,0,-29.70661,-112.2293,-42.33112,79.38445,-105.542,-99.98148,0.001067912,-0.1257102,0.09433498,0,0.3,0,0,1.06E-05,0,
6.38224E+17,-13.26426,-0.9818845,-1.657656,-50.53296,-62.50273,-108.9094,49.26388,0.5844551,-12.37405,-96.38443,-11.3776,14.36226,0,0,0,-29.70661,-112.2293,-42.33112,79.38445,-105.542,-99.98148,0.001067912,-0.1257102,0.09433498,0,0.3,0,0,1.14E-05,0,
6.38224E+17,-13.26426,-0.9818845,-1.657656,-50.45971,-62.57597,-108.9094,49.26388,0.5844551,-12.37405,-96.38443,-11.3776,14.36226,0,0,0,-29.70661,-112.2293,-42.33112,79.38445,-105.542,-99.98148,0.001067912,-0.1257102,0.09433498,0,0.3,0,0,1.20E-05,0,
6.38224E+17,-13.26426,-0.9818845,-1.657656,-50.45971,-62.57597,-108.9094,49.26388,0.5844551,-12.37405,-96.38443,-11.3776,14.36226,0,0,0,-29.70661,-112.2293,-42.33112,79.38445,-105.542,-99.98148,0.001067912,-0.1257102,0.09433498,0,0.3,0,0,1.23E-05,0,
6.38224E+17,-13.26426,-0.9818845,-1.657656,-50.45971,-62.57597,-108.9094,49.26388,0.5844551,-12.37405,-96.38443,-11.3776,14.36226,0,0,0,-29.70661,-112.2293,-42.33112,79.38445,-105.542,-99.98148,0.001067912,-0.1257102,0.09433498,0,0.3,0,0,1.28E-05,0,
6.38224E+17,-13.26426,-0.9818845,-1.657656,-50.45971,-62.57597,-108.9094,49.26388,0.5844551,-12.37405,-96.38443,-11.3776,14.36226,0,0,0,-29.70661,-112.2293,-42.33112,79.38445,-105.542,-99.98148,0.001067912,-0.1257102,0.09433498,0,0.3,0,0,1.33E-05,0,
6.38224E+17,-13.26426,-0.9818845,-1.657656,-50.45971,-62.57597,-108.9094,49.26388,0.5844551,-12.37405,-96.38443,-11.3776,14.36226,0,0,0,-29.70661,-112.2293,-42.33112,79.38445,-105.542,-99.98148,0.001067912,-0.1257102,0.09433498,0,0.3,0,0,1.38E-05,0,
6.38224E+17,-13.26426,-0.9818845,-1.657656,-50.45971,-62.57597,-108.9094,49.26388,0.5844551,-12.37405,-96.38443,-11.30435,14.36226,0,0,0,-29.70661,-112.2293,-42.33112,79.38445,-105.542,-99.98148,0.001067912,-0.1257102,0.09433498,0,0.3,0,0,1.40E-05,0,
6.38224E+17,-13.26426,-0.9818845,-1.657656,-50.45971,-62.50273,-108.8361,49.26388,0.5844551,-12.37405,-96.38443,-11.30435,14.36226,0,0,0,-29.70661,-112.2293,-42.33112,79.38445,-105.542,-99.98148,0.001067912,-0.1257102,0.09433498,0,0.3,0,0,1.44E-05,0,
6.38224E+17,-13.26426,-0.9818845,-1.657656,-50.45971,-62.57597,-108.9094,49.26388,0.5844551,-12.37405,-96.38443,-11.3776,14.28902,0,0,0,-29.70661,-112.2293,-42.33112,79.38445,-105.542,-99.98148,0.001067912,-0.1257102,0.09433498,0,0.3,0,0,1.48E-05,0,
6.38224E+17,-13.26426,-0.9818845,-1.657656,-50.45971,-62.50273,-108.8361,49.26388,0.5844551,-12.37405,-96.38443,-11.3776,14.36226,0,0,0,-29.70661,-112.2293,-42.33112,79.38445,-105.542,-99.98148,0.001067912,-0.1257102,0.09433498,0,0.3,0,0,1.49E-05,0,
6.38224E+17,-13.26426,-0.9818845,-1.681003,-49.1413,-62.57597,-108.9094,49.26388,0.5844551,-12.37405,-96.38443,-11.30435,14.36226,0,0,0,-29.69415,-112.2277,-42.38398,79.38445,-105.542,-99.98148,0.001067912,-0.1257102,0.09433498,0,0.3,0,0,2.72E-05,0,
6.38224E+17,-13.26426,-0.9818845,-1.681003,-47.38342,-62.57597,-108.9094,49.26388,0.5844551,-12.37405,-96.38443,-11.3776,14.36226,0,0,0,-29.69415,-112.2277,-42.38398,79.38445,-105.542,-99.98148,0.001067912,-0.1257102,0.09433498,0,0.3,0,0,3.86E-05,0,
6.38224E+17,-13.26426,-0.9818845,-1.681003,-46.50447,-62.64922,-108.9094,49.26388,0.5844551,-12.37405,-96.38443,-11.3776,14.36226,0,0,0,-29.69415,-112.2277,-42.38398,79.38445,-105.542,-99.98148,0.001067912,-0.1257102,0.09433498,0,0.3,0,0,4.90E-05,0,
6.38224E+17,-13.26426,-0.9818845,-1.681003,-46.35798,-62.64922,-108.9094,49.26388,0.5844551,-12.37405,-96.38443,-11.3776,14.36226,0,0,0,-29.69415,-112.2277,-42.38398,79.38445,-105.542,-99.98148,0.001067912,-0.1257102,0.09433498,0,0.3,0,0,5.40E-05,0,
6.38224E+17,-13.26426,-0.9818845,-1.681003,-46.065,-62.64922,-108.9094,49.26388,0.5844551,-12.37405,-96.38443,-11.3776,14.36226,0,0,0,-29.69415,-112.2277,-42.38398,79.38445,-105.542,-99.98148,0.001067912,-0.1257102,0.09433498,0,0.3,0,0,6.33E-05,0,
6.38224E+17,-13.26426,-0.9818845,-1.681003,-45.91851,-62.64922,-108.9094,49.26388,0.5844551,-12.37405,-96.38443,-11.30435,14.36226,0,0,0,-29.69415,-112.2277,-42.38398,79.38445,-105.542,-99.98148,0.001067912,-0.1257102,0.09433498,0,0.3,0,0,7.20E-05,0,
6.38224E+17,-13.2407,-1.005263,-1.79774,-45.91851,-62.57597,-108.4699,49.26388,0.5844551,-12.37405,-96.38443,-11.3776,14.36226,0,0,0,-29.57993,-112.2739,-42.63705,79.38445,-105.542,-99.98148,0.001067912,-0.1257102,0.09433498,0,0.3,0,0,0.000106318,0,
6.38224E+17,-13.19358,-1.005263,-2.288032,-48.26236,-62.50273,-103.4892,49.26388,0.5844551,-12.37405,-96.38443,-11.30435,14.36226,0,0,0,-29.21625,-112.2332,-43.72304,79.38445,-105.542,-99.98148,0.001067912,-0.1257102,0.09433498,0,0.3,0,0,0.000360876,0,
6.38224E+17,-13.19358,-1.005263,-2.147949,-55.07415,-61.03782,-96.67741,49.26388,0.5844551,-12.37405,-96.38443,-11.3776,14.36226,0,0,0,-29.29061,-112.2458,-43.40586,79.38445,-105.542,-99.98148,0.001067912,-0.1257102,0.09433498,0,0.3,0,0,0.000603579,0,
6.38224E+17,-13.19358,-0.9818845,-2.007865,-60.64079,-59.42643,-100.9989,49.26388,0.5844551,-12.37405,-96.38443,-11.30435,14.36226,0,0,0,-29.36519,-112.2032,-43.08772,79.38445,-105.542,-99.98148,0.001067912,-0.1257102,0.09433498,0,0.3,0,0,0.000750708,0,
6.38224E+17,-13.19358,-0.9818845,-2.007865,-61.00701,-58.62074,-107.3712,49.26388,0.5844551,-12.37405,-96.38443,-11.30435,14.36226,0,0,0,-29.36519,-112.2032,-43.08772,79.38445,-105.542,-99.98148,0.001067912,-0.1257102,0.09433498,0,0.3,0,0,0.000821031,0,
6.38224E+17,-13.19358,-0.9351282,-2.007865,-57.418,-57.00934,-112.5716,49.26388,0.5844551,-12.37405,-96.38443,-11.3776,14.36226,0,0,0,-29.36561,-112.0944,-43.08595,79.38445,-105.542,-99.98148,0.001067912,-0.1257102,0.09433498,0,0.3,0,0,0.000955873,0,
6.38224E+17,-13.2407,-0.5376987,-2.007865,-52.58382,-55.3247,-115.2084,49.26388,0.5844551,-12.37405,-96.38443,-11.30435,14.36226,0,0,0,-29.47134,-111.1695,-43.09857,79.38445,-105.542,-99.98148,0.001067912,-0.1257102,0.09433498,0,0.3,0,0,0.001080096,0,
6.38224E+17,-13.28782,-0.233782,-2.007865,-50.16673,-54.37251,-115.9409,49.26388,0.5844551,-12.37405,-96.38443,-11.30435,14.36226,0,0,0,-29.57543,-110.4622,-43.11822,79.38445,-105.542,-99.98148,0.001067912,-0.1257102,0.09433498,0,0.3,0,0,0.001130291,0,
6.38224E+17,-13.31138,0.0233782,-2.007865,-44.96632,-52.02867,-116.5269,49.26388,0.5844551,-12.37405,-96.38443,-11.3776,14.36226,0,0,0,-29.62717,-109.8637,-43.12932,79.38445,-105.542,-99.98148,0.001067912,-0.1257102,0.09433498,0,0.3,0,0,0.001221976,0,
6.38224E+17,-13.31138,0.0233782,-2.031212,-40.35188,-49.61158,-116.6733,49.26388,0.5844551,-12.37405,-96.38443,-11.30435,14.36226,0,0,0,-29.61467,-109.8618,-43.18216,79.38445,-105.542,-99.98148,0.001067912,-0.1257102,0.09433498,0,0.3,0,0,0.001313044,0,
6.38224E+17,-13.31138,0.0233782,-2.054559,-35.81068,-46.75502,-116.7466,49.26388,0.5844551,-12.37405,-96.38443,-11.30435,14.36226,0,0,0,-29.60217,-109.8599,-43.23501,79.38445,-105.542,-99.98148,0.001067912,-0.1257102,0.09433498,0,0.3,0,0,0.001410471,0,
6.38224E+17,-13.31138,0.0233782,-2.054559,-33.68657,-45.21687,-116.8198,49.26388,0.5844551,-12.37405,-96.38443,-11.30435,14.36226,0,0,0,-29.60217,-109.8599,-43.23501,79.38445,-105.542,-99.98148,0.001067912,-0.1257102,0.09433498,0,0.3,0,0,0.001457333,0,
6.38224E+17,-13.31138,0.0233782,-2.171296,-29.21861,-41.77435,-121.2878,49.26388,0.5844551,-12.37405,-96.38443,-11.3776,14.36226,0,0,0,-29.53965,-109.8498,-43.49922,79.38445,-105.542,-99.98148,0.001067912,-0.1257102,0.09433498,0,0.3,0,0,0.001565626,0,
6.38224E+17,-13.31138,0.0233782,-2.848366,-25.33662,-38.03884,-134.6184,49.26388,0.5844551,-12.37405,-96.38443,-11.3776,14.36226,0,0,0,-29.17718,-109.7808,-45.03122,79.38445,-105.542,-99.98148,0.001067912,-0.1257102,0.09433498,0,0.3,0,0,0.00183457,0,
6.38224E+17,-13.31138,0.0233782,-3.081839,-23.57873,-35.695,-140.3315,49.26388,0.5844551,-12.37405,-96.38443,-11.3776,14.36226,0,0,0,-29.05224,-109.7527,-45.55929,79.38445,-105.542,-99.98148,0.001067912,-0.1257102,0.09433498,0,0.3,0,0,0.002026399,0,
6.38224E+17,-13.31138,0.07013461,-3.618826,-20.57568,-31.30029,-141.6499,49.26388,0.5844551,-12.37405,-96.45767,-11.3776,14.36226,0,0,0,-28.76496,-109.5709,-46.7735,79.38445,-105.542,-99.98148,0.001067912,-0.1257102,0.09433498,0,0.3,0,0,0.002500754,0,
6.38224E+17,-13.28782,0.09351282,-4.809536,-18.37833,-26.4661,-141.6499,49.26388,0.5844551,-12.37405,-96.38443,-11.3776,14.36226,0,0,0,-28.07973,-109.3128,-49.45148,79.38445,-105.542,-99.98148,0.001067912,-0.1257102,0.09433498,0,0.3,0,0,0.00325208,0,
6.38224E+17,-13.28782,-0.07013461,-5.019662,-17.27965,-21.19245,-141.7232,49.26388,0.5844551,-12.37405,-96.38443,-11.30435,14.36226,0,0,0,-27.96776,-109.6518,-49.92561,79.38445,-105.542,-99.98148,0.001067912,-0.1257102,0.09433498,0,0.3,0,0,0.00411423,0,
6.38224E+17,-13.28782,-0.2104038,-4.879579,-17.27965,-18.40914,-141.7964,49.26388,0.5844551,-12.37405,-96.38443,-11.3776,14.36226,0,0,0,-28.04223,-110.0064,-49.61027,79.38445,-105.542,-99.98148,0.001067912,-0.1257102,0.09433498,0,0.3,0,0,0.00450789,0,
6.38224E+17,-13.28782,-0.3039166,-4.78619,-17.57263,-12.62277,-141.7964,49.26388,0.5844551,-12.37405,-96.38443,-11.3776,14.36226,0,0,0,-28.09178,-110.2423,-49.40044,79.38445,-105.542,-99.98148,0.001067912,-0.1257102,0.09433498,0,0.3,0,0,0.005243903,0,
6.38224E+17,-13.28782,-0.2805384,-4.809536,-18.67131,-6.98289,-141.8697,49.26388,0.5844551,-12.37405,-96.38443,-11.3776,14.36226,0,0,0,-28.0794,-110.1834,-49.45286,79.38445,-105.542,-99.98148,0.001067912,-0.1257102,0.09433498,0,0.3,0,0,0.005951208,0,
6.38224E+17,-13.28782,-0.2104038,-4.996315,-19.33051,-4.272818,-141.8697,49.26388,0.5844551,-12.37405,-96.45767,-11.3776,14.36226,0,0,0,-27.98001,-109.983,-49.8737,79.38445,-105.542,-99.98148,0.001067912,-0.1257102,0.09433498,0,0.3,0,0,0.006318937,0,
6.38224E+17,-13.26426,0.09351282,-5.183093,-20.64893,1.367059,-141.7232,49.26388,0.5844551,-12.37405,-96.38443,-11.30435,14.36226,0,0,0,-27.83211,-109.2371,-50.28295,79.38445,-105.542,-99.98148,0.001067912,-0.1257102,0.09433498,0,0.3,0,0,0.007077609,0,
6.38224E+17,-13.2407,0.350673,-5.20644,-22.18707,6.860447,-141.7964,49.26388,0.5844551,-12.37405,-96.38443,-11.30435,14.36226,0,0,0,-27.77064,-108.6337,-50.32645,79.38445,-105.542,-99.98148,0.001067912,-0.1257102,0.09433498,0,0.3,0,0,0.007823378,0,
6.38224E+17,-13.19358,0.4208077,-5.253135,-22.91953,9.8635,-141.8697,49.26388,0.5844551,-12.37405,-96.38443,-11.3776,14.36226,0,0,0,-27.64861,-108.4605,-50.41009,79.38445,-105.542,-99.98148,0.001067912,-0.1257102,0.09433498,0,0.3,0,0,0.008200429,0,
6.38224E+17,-12.95798,0.4441859,-4.879579,-24.45767,15.57662,-139.6723,49.26388,0.5844551,-12.37405,-96.38443,-11.30435,14.36226,0,0,0,-27.35751,-108.4829,-49.45383,79.38445,-105.542,-99.98148,0.001067912,-0.1257102,0.09433498,0,0.3,0,0,0.008936196,0,
6.38224E+17,-12.81662,0.4208077,-4.646106,-26.58179,21.43624,-136.4495,49.26388,0.5844551,-12.37405,-96.38443,-11.3776,14.36226,0,0,0,-27.1843,-108.5824,-48.85828,79.38445,-105.542,-99.98148,0.001067912,-0.1257102,0.09433498,0,0.3,0,0,0.009584352,0,
6.38224E+17,-12.81662,0.09351282,-5.579997,-29.07212,26.27042,-136.3763,49.26388,0.5844551,-12.37405,-96.38443,-11.30435,14.36226,0,0,0,-26.70483,-109.1505,-50.96587,79.38445,-105.542,-99.98148,0.001067912,-0.1257102,0.09433498,0,0.3,0,0,0.01036636,0,
6.38224E+17,-12.81662,-0.2571602,-6.373804,-30.39053,28.32128,-136.3763,49.26388,0.5844551,-12.37405,-96.45767,-11.30435,14.36226,0,0,0,-26.29696,-109.7742,-52.75867,79.38445,-105.542,-99.98148,0.001067912,-0.1257102,0.09433498,0,0.3,0,0,0.01085961,0,
6.38224E+17,-12.86374,-1.052019,-8.428363,-32.88087,31.98354,-136.7425,49.26388,0.5844551,-12.37405,-96.38443,-11.30435,14.36226,0,0,0,-25.33166,-111.0081,-57.42362,79.38445,-105.542,-99.98148,0.001067912,-0.1257102,0.09433498,0,0.3,0,0,0.01211906,0,
6.38224E+17,-12.95798,-0.9117499,-11.01991,-34.56551,34.62037,-130.2969,49.26388,0.5844551,-12.37405,-96.38443,-11.30435,14.28902,0,0,0,-24.18238,-109.663,-63.253,79.38445,-105.542,-99.98148,0.001067912,-0.1257102,0.09433498,0,0.3,0,0,0.01379508,0,
6.38224E+17,-12.98154,-1.005263,-12.11723,-35.15147,35.57256,-125.9755,49.26388,0.5844551,-12.37405,-96.38443,-11.3776,14.36226,0,0,0,-23.66274,-109.3685,-65.70454,79.38445,-105.542,-99.98148,0.001067912,-0.1257102,0.09433498,0,0.3,0,0,0.01475744,0,
6.38224E+17,-12.98154,-0.9818845,-12.81765,-35.22471,36.15851,-117.1861,49.26388,0.5844551,-12.37405,-96.38443,-11.3776,14.36226,0,0,0,-23.3054,-108.9622,-67.25464,79.38445,-105.542,-99.98148,0.001067912,-0.1257102,0.09433498,0,0.3,0,0,0.01675044,0,
6.38224E+17,-12.95798,-0.9818845,-12.53748,-35.44445,35.20633,-107.8839,49.26388,0.5844551,-12.37405,-96.38443,-11.3776,14.36226,0,0,0,-23.40647,-109.1053,-66.6251,79.38445,-105.542,-99.98148,0.001067912,-0.1257102,0.09433498,0,0.3,0,0,0.01864829,0,
6.38224E+17,-12.95798,-0.9818845,-12.3507,-35.66418,34.40063,-103.6357,49.26388,0.5844551,-12.37405,-96.38443,-11.3776,14.36226,0,0,0,-23.50166,-109.199,-66.21142,79.38445,-105.542,-99.98148,0.001067912,-0.1257102,0.09433498,0,0.3,0,0,0.01954952,0,
6.38224E+17,-12.95798,-1.005263,-12.28066,-36.10366,32.71599,-99.97345,49.26388,0.5844551,-12.37405,-96.38443,-11.30435,14.36226,0,0,0,-23.53716,-109.2881,-66.05713,79.38445,-105.542,-99.98148,0.001067912,-0.1257102,0.09433498,0,0.3,0,0,0.02129642,0,
6.38224E+17,-12.98154,-1.005263,-12.23397,-36.46988,31.17784,-99.60722,49.26388,0.5844551,-12.37405,-96.38443,-11.3776,14.36226,0,0,0,-23.60308,-109.3112,-65.96333,79.38445,-105.542,-99.98148,0.001067912,-0.1257102,0.09433498,0,0.3,0,0,0.02297312,0,
6.38224E+17,-13.0051,-1.005263,-12.21062,-36.90935,30.15241,-102.3173,49.26388,0.5844551,-12.37405,-96.38443,-11.3776,14.36226,0,0,0,-23.65713,-109.3227,-65.9213,79.38445,-105.542,-99.98148,0.001067912,-0.1257102,0.09433498,0,0.3,0,0,0.02458388,0,
6.38224E+17,-13.0051,-1.005263,-12.21062,-37.12909,29.71294,-105.5401,49.26388,0.5844551,-12.37405,-96.38443,-11.30435,14.36226,0,0,0,-23.65713,-109.3227,-65.9213,79.38445,-105.542,-99.98148,0.001067912,-0.1257102,0.09433498,0,0.3,0,0,0.02536959,0,
6.38224E+17,-12.98154,-0.8883717,-12.07054,-37.7883,29.12698,-113.3041,49.26388,0.5844551,-12.37405,-96.45767,-11.3776,14.36226,0,0,0,-23.68762,-109.1193,-65.59661,79.38445,-105.542,-99.98148,0.001067912,-0.1257102,0.09433498,0,0.3,0,0,0.0268899,0,
6.38224E+17,-12.8873,-0.2571602,-11.5102,-38.59399,28.54102,-119.5299,49.26388,0.5844551,-12.37405,-96.38443,-11.30435,14.36226,0,0,0,-23.80658,-107.9167,-64.29903,79.38445,-105.542,-99.98148,0.001067912,-0.1257102,0.09433498,0,0.3,0,0,0.028315,0,
6.38224E+17,-12.79306,0.3039166,-10.97322,-38.88697,28.10155,-122.0935,49.26388,0.5844551,-12.37405,-96.38443,-11.30435,14.36226,0,0,0,-23.90672,-106.8545,-63.06516,79.38445,-105.542,-99.98148,0.001067912,-0.1257102,0.09433498,0,0.3,0,0,0.02897088,0,
6.38224E+17,-12.5339,1.589718,-9.595726,-39.32644,27.00287,-125.7557,49.26388,0.5844551,-12.37405,-96.38443,-11.3776,14.36226,0,0,0,-24.10407,-104.4348,-59.92717,79.38445,-105.542,-99.98148,0.001067912,-0.1257102,0.09433498,0,0.3,0,0,0.03013828,0,
6.38224E+17,-12.20406,2.969032,-7.821334,-39.47293,25.61121,-127.5136,49.26388,0.5844551,-12.37405,-96.38443,-11.3776,14.28902,0,0,0,-24.31542,-101.8525,-55.9253,79.38445,-105.542,-99.98148,0.001067912,-0.1257102,0.09433498,0,0.3,0,0,0.0310705,0,
6.38224E+17,-11.7093,4.535372,-5.860164,-39.39969,24.14631,-129.0518,49.26388,0.5844551,-12.37405,-96.38443,-11.3776,14.36226,0,0,0,-24.21499,-98.75853,-51.51572,79.38445,-105.542,-99.98148,0.001067912,-0.1257102,0.09433498,0,0.3,0,0,0.03174873,0,
6.38224E+17,-11.3559,5.517256,-4.832884,-39.2532,23.41385,-129.4913,49.26388,0.5844551,-12.37405,-96.38443,-11.3776,14.36226,0,0,0,-23.9232,-96.70489,-49.23103,79.38445,-105.542,-99.98148,0.001067912,-0.1257102,0.09433498,0,0.3,0,0,0.032001,0,
6.38224E+17,-10.13078,8.042102,-2.498158,-38.52075,21.87571,-129.7842,49.26388,0.5844551,-12.37405,-96.38443,-11.30435,14.36226,0,0,0,-22.20264,-91.21751,-44.0918,79.38445,-105.542,-99.98148,0.001067912,-0.1257102,0.09433498,0,0.3,0,0,0.03236404,0,
6.38224E+17,-8.151747,11.17478,-0.09338906,-36.9826,19.89809,-127.2939,49.26388,0.5844551,-12.37405,-96.38443,-11.30435,14.36226,0,0,0,-18.51909,-84.15625,-39.06522,79.38445,-105.542,-99.98148,0.001067912,-0.1257102,0.09433498,0,0.3,0,0,0.03263848,0,
6.38224E+17,-5.748631,14.40097,2.311379,-34.12604,17.62749,-123.1922,49.26388,0.5844551,-12.37405,-96.38443,-11.3776,14.36226,0,0,0,-13.47591,-76.72652,-34.48856,79.38445,-105.542,-99.98148,0.001067912,-0.1257102,0.09433498,0,0.3,0,0,0.03290032,0,
6.38224E+17,-4.570632,15.89718,3.338659,-32.73438,16.52881,-122.0935,49.26388,0.5844551,-12.37405,-96.38443,-11.30435,14.36226,0,0,0,-10.83884,-73.24753,-32.76656,79.38445,-105.542,-99.98148,0.001067912,-0.1257102,0.09433498,0,0.3,0,0,0.03304022,0,
6.38224E+17,-1.790557,19.1935,5.766775,-29.43835,14.33146,-120.5553,49.26388,0.5844551,-12.37405,-96.38443,-11.3776,14.36226,0,0,0,-4.353712,-65.48505,-29.08155,79.38445,-105.542,-99.98148,0.001067912,-0.1257102,0.09433498,0,0.3,0,0,0.03334096,0,
6.38224E+17,1.130878,22.55997,8.568447,-25.84933,11.84112,-119.7496,49.26388,0.5844551,-12.37405,-96.38443,-11.3776,14.36226,0,0,0,2.822558,-57.35188,-25.36407,79.38445,-105.542,-99.98148,0.001067912,-0.1257102,0.09433498,0,0.3,0,0,0.03359916,0,
6.38224E+17,2.591596,24.28995,10.08602,-23.65198,10.44946,-119.7496,49.26388,0.5844551,-12.37405,-96.38443,-11.3776,14.36226,0,0,0,6.551791,-53.08508,-23.59984,79.38445,-105.542,-99.98148,0.001067912,-0.1257102,0.09433498,0,0.3,0,0,0.03368517,0,
6.38224E+17,5.136071,27.42263,13.07447,-19.40376,7.739389,-119.2369,49.26388,0.5844551,-12.37405,-96.38443,-11.30435,14.36226,0,0,0,13.29679,-45.12875,-20.41436,79.38445,-105.542,-99.98148,0.001067912,-0.1257102,0.09433498,0,0.3,0,0,0.03370789,0,
6.38224E+17,7.656987,30.50856,16.29639,-15.37527,5.029318,-119.3102,49.26388,0.5844551,-12.37405,-96.45767,-11.30435,14.36226,0,0,0,20.29372,-36.945,-17.40106,79.38445,-105.542,-99.98148,0.001067912,-0.1257102,0.09433498,0,0.3,0,0,0.03345419,0,
6.38224E+17,9.989424,33.64123,19.47162,-11.78626,1.953021,-119.3102,49.26388,0.5844551,-12.37405,-96.45767,-11.3776,14.36226,0,0,0,26.96844,-28.4986,-15.23914,79.38445,-105.542,-99.98148,0.001067912,-0.1257102,0.09433498,0,0.3,0,0,0.03285525,0,
6.38224E+17,11.14386,35.27771,21.17597,-9.881886,0.1218917,-119.3834,49.26388,0.5844551,-12.37405,-96.38443,-11.30435,14.36226,0,0,0,30.35014,-23.98063,-14.27844,79.38445,-105.542,-99.98148,0.001067912,-0.1257102,0.09433498,0,0.3,0,0,0.03240553,0,
6.38224E+17,13.28782,38.08309,24.3512,-6.585854,-3.540367,-119.3834,49.26388,0.5844551,-12.37405,-96.38443,-11.30435,14.36226,0,0,0,36.76246,-15.88578,-12.68604,79.38445,-105.542,-99.98148,0.001067912,-0.1257102,0.09433498,0,0.3,0,0,0.03120621,0,
6.38224E+17,15.50245,40.37416,27.29295,-3.582802,-6.98289,-119.5299,49.26388,0.5844551,-12.37405,-96.38443,-11.30435,14.36226,0,0,0,43.49614,-8.773653,-11.53406,79.38445,-105.542,-99.98148,0.001067912,-0.1257102,0.09433498,0,0.3,0,0,0.02964274,0,
6.38224E+17,16.68045,41.44955,28.71714,-1.824918,-8.521038,-119.5299,49.26388,0.5844551,-12.37405,-96.38443,-11.30435,14.36226,0,0,0,47.08036,-5.325866,-11.22825,79.38445,-105.542,-99.98148,0.001067912,-0.1257102,0.09433498,0,0.3,0,0,0.02873676,0,
6.38224E+17,18.94221,43.4367,31.54216,1.54436,-11.52409,-120.4088,49.26388,0.5844551,-12.37405,-96.38443,-11.3776,14.36226,0,0,0,54.07712,1.386893,-10.78253,79.38445,-105.542,-99.98148,0.001067912,-0.1257102,0.09433498,0,0.3,0,0,0.02667862,0,
6.38224E+17,20.80345,45.4706,34.32048,4.840393,-14.38065,-123.4119,49.26388,0.5844551,-12.37405,-96.38443,-11.3776,14.36226,0,0,0,59.91624,8.280643,-10.64795,79.38445,-105.542,-99.98148,0.001067912,-0.1257102,0.09433498,0,0.3,0,0,0.02424189,0,
6.38224E+17,22.31128,47.55127,37.19219,7.403974,-17.60344,-128.0263,49.26388,0.5844551,-12.37405,-96.45767,-11.3776,14.36226,0,0,0,64.77039,15.51825,-10.51201,79.38445,-105.542,-99.98148,0.001067912,-0.1257102,0.09433498,0,0.3,0,0,0.02136452,0,
6.38224E+17,23.04164,48.50977,38.61638,8.429405,-18.9951,-130.4434,49.26388,0.5844551,-12.37405,-96.38443,-11.3776,14.36226,0,0,0,67.15152,19.04634,-10.47007,79.38445,-105.542,-99.98148,0.001067912,-0.1257102,0.09433498,0,0.3,0,0,0.01975747,0,
6.38224E+17,24.57304,50.33327,41.62818,10.99299,-22.21789,-137.5482,49.26388,0.5844551,-12.37405,-96.38443,-11.30435,14.36226,0,0,0,72.23518,26.32355,-10.37833,79.38445,-105.542,-99.98148,0.001067912,-0.1257102,0.09433498,0,0.3,0,0,0.01615013,0,
6.38224E+17,26.05732,51.85285,44.4065,13.84955,-25.29418,-141.2105,49.26388,0.5844551,-12.37405,-96.38443,-11.30435,14.36226,0,0,0,77.17051,32.9557,-10.52791,79.38445,-105.542,-99.98148,0.001067912,-0.1257102,0.09433498,0,0.3,0,0,0.01214833,0,
6.38224E+17,26.81124,52.5542,45.76064,15.31445,-26.75908,-141.6499,49.26388,0.5844551,-12.37405,-96.38443,-11.3776,14.36226,0,0,0,79.66236,36.1878,-10.72214,79.38445,-105.542,-99.98148,0.001067912,-0.1257102,0.09433498,0,0.3,0,0,0.009998511,0,
6.38224E+17,28.13059,53.6296,47.79185,18.17101,-29.39591,-142.0162,49.26388,0.5844551,-12.37405,-96.38443,-11.30435,14.28902,0,0,0,83.85346,41.13546,-11.50804,79.38445,-105.542,-99.98148,0.001067912,-0.1257102,0.09433498,0,0.3,0,0,0.005490867,0,
6.38224E+17,29.35571,54.26081,49.12265,20.73459,-31.30029,-142.0162,49.26388,0.5844551,-12.37405,-96.38443,-11.30435,14.36226,0,0,0,87.61239,44.31824,-12.58165,79.38445,-105.542,-99.98148,0.001067912,-0.1257102,0.09433498,0,0.3,0,0,0.000839244,0,
6.38224E+17,29.92115,54.33094,49.47286,21.76003,-31.88625,-142.0894,49.26388,0.5844551,-12.37405,-96.38443,-11.3776,14.28902,0,0,0,89.34435,45.03142,-13.10805,79.38445,-105.542,-99.98148,0.001067912,-0.1257102,0.09433498,0,0.3,0,0,0,0,
6.38224E+17,30.93423,54.26081,49.4962,23.44467,-32.6187,-142.0894,49.26388,0.5844551,-12.37405,-96.38443,-11.3776,14.36226,0,0,0,92.16145,44.97747,-14.568,79.38445,-105.542,-99.98148,0.001067912,-0.1257102,0.09433498,0,0.3,0,0,0,0,
6.38224E+17,31.75883,53.53609,48.72574,24.54334,-32.69194,-142.0894,49.26388,0.5844551,-12.37405,-96.38443,-11.3776,14.36226,0,0,0,94.46455,42.62804,-15.74954,79.38445,-105.542,-99.98148,0.001067912,-0.1257102,0.09433498,0,0.3,0,0,0,0,
6.38224E+17,32.55987,52.0165,47.3716,25.1293,-31.813,-142.0894,49.26388,0.5844551,-12.37405,-96.38443,-11.3776,14.36226,0,0,0,96.97044,38.14482,-16.48729,79.38445,-105.542,-99.98148,0.001067912,-0.1257102,0.09433498,0,0.3,0,0,0,0,
6.38224E+17,32.96038,51.03462,46.46106,25.20255,-30.93406,-142.1627,49.26388,0.5844551,-12.37405,-96.38443,-11.3776,14.36226,0,0,0,98.21545,35.17529,-16.8823,79.38445,-105.542,-99.98148,0.001067912,-0.1257102,0.09433498,0,0.3,0,0,0,0,
6.38224E+17,33.8321,48.86045,44.42985,25.1293,-28.66346,-142.1627,49.26388,0.5844551,-12.37405,-96.38443,-11.30435,14.36226,0,0,0,100.8183,28.55082,-17.93174,79.38445,-105.542,-99.98148,0.001067912,-0.1257102,0.09433498,0,0.3,0,0,0,0,
6.38224E+17,34.6567,46.31222,42.2819,24.90957,-25.88014,-142.1627,49.26388,0.5844551,-12.37405,-96.38443,-11.30435,14.36226,0,0,0,103.3955,21.11916,-18.78659,79.38445,-105.542,-99.98148,0.001067912,-0.1257102,0.09433498,0,0.3,0,0,0,0,
6.38224E+17,35.03366,44.93291,41.25462,24.76308,-24.48849,-142.1627,49.26388,0.5844551,-12.37405,-96.38443,-11.3776,14.36226,0,0,0,104.6707,17.28146,-19.05147,79.38445,-105.542,-99.98148,0.001067912,-0.1257102,0.09433498,0,0.3,0,0,0,0,
6.38224E+17,35.76402,42.05739,39.41019,24.39685,-21.41219,-142.1627,49.26388,0.5844551,-12.37405,-96.38443,-11.30435,14.36226,0,0,0,107.3448,9.648803,-19.31563,79.38445,-105.542,-99.98148,0.001067912,-0.1257102,0.09433498,0,0.3,0,0,0,0,
6.38224E+17,36.47082,39.08836,37.79922,24.17712,-18.26265,-142.1627,49.26388,0.5844551,-12.37405,-96.38443,-11.30435,14.36226,0,0,0,110.1047,2.061306,-19.3934,79.38445,-105.542,-99.98148,0.001067912,-0.1257102,0.09433498,0,0.3,0,0,0,0,
6.38224E+17,37.17762,36.02581,36.49178,24.03063,-15.18635,-142.1627,49.26388,0.5844551,-12.37405,-96.38443,-11.3776,14.36226,0,0,0,113.0933,-5.425941,-19.23418,79.38445,-105.542,-99.98148,0.001067912,-0.1257102,0.09433498,0,0.3,0,0,0,0,
6.38224E+17,37.62526,34.55299,36.00148,24.03063,-13.79469,-142.1627,49.26388,0.5844551,-12.37405,-96.38443,-11.3776,14.36226,0,0,0,114.9019,-8.89852,-19.28278,79.38445,-105.542,-99.98148,0.001067912,-0.1257102,0.09433498,0,0.3,0,0,0,0,
6.38224E+17,38.73257,31.35017,35.30106,24.76308,-10.42541,-142.1627,49.26388,0.5844551,-12.37405,-96.38443,-11.3776,14.36226,0,0,0,119.469,-16.1029,-19.40196,79.38445,-105.542,-99.98148,0.001067912,-0.1257102,0.09433498,0,0.3,0,0,0,0,
6.38224E+17,39.76921,28.12398,34.81077,25.78851,-7.202625,-142.1627,49.26388,0.5844551,-12.37405,-96.38443,-11.3776,14.36226,0,0,0,123.9288,-23.27728,-19.44339,79.38445,-105.542,-99.98148,0.001067912,-0.1257102,0.09433498,0,0.3,0,0,0,0,
6.38224E+17,40.19329,26.55764,34.67069,26.37447,-5.517986,-142.2359,49.26388,0.5844551,-12.37405,-96.38443,-11.3776,14.36226,0,0,0,125.9352,-26.70123,-19.29046,79.38445,-105.542,-99.98148,0.001067912,-0.1257102,0.09433498,0,0.3,0,0,0,0,
6.38224E+17,41.15925,23.63536,34.624,27.18017,-2.807915,-142.2359,49.26388,0.5844551,-12.37405,-96.38443,-11.30435,14.36226,0,0,0,130.2697,-32.92156,-19.33039,79.38445,-105.542,-99.98148,0.001067912,-0.1257102,0.09433498,0,0.3,0,0,0,0,
6.38224E+17,42.12521,20.8066,34.624,27.98586,-0.2443342,-142.2359,49.26388,0.5844551,-12.37405,-96.38443,-11.3776,14.36226,0,0,0,134.4333,-39.01564,-19.70124,79.38445,-105.542,-99.98148,0.001067912,-0.1257102,0.09433498,0,0.3,0,0,0,0,
6.38224E+17,42.52573,19.54418,34.67069,28.27885,0.7810982,-142.2359,49.26388,0.5844551,-12.37405,-96.38443,-11.3776,14.36226,0,0,0,136.2145,-41.71167,-19.83192,79.38445,-105.542,-99.98148,0.001067912,-0.1257102,0.09433498,0,0.3,0,0,0,0,
6.38224E+17,43.27965,17.27649,34.85747,28.71832,2.831963,-142.2359,49.26388,0.5844551,-12.37405,-96.38443,-11.3776,14.28902,0,0,0,139.5444,-46.47116,-20.16369,79.38445,-105.542,-99.98148,0.001067912,-0.1257102,0.09433498,0,0.3,0,0,0,0,
6.38224E+17,44.03357,15.21921,35.0209,29.15779,4.589847,-142.2359,49.26388,0.5844551,-12.37405,-96.38443,-11.3776,14.36226,0,0,0,142.63,-50.84995,-20.82539,79.38445,-105.542,-99.98148,0.001067912,-0.1257102,0.09433498,0,0.3,0,0,0,0,
6.38224E+17,44.36341,14.33084,35.09094,29.45077,5.468789,-142.1627,49.26388,0.5844551,-12.37405,-96.45767,-11.3776,14.36226,0,0,0,143.9389,-52.75552,-21.17655,79.38445,-105.542,-99.98148,0.001067912,-0.1257102,0.09433498,0,0.3,0,0,0,0,
6.38224E+17,44.97597,12.88139,35.13763,29.817,6.713957,-142.1627,49.26388,0.5844551,-12.37405,-96.38443,-11.3776,14.36226,0,0,0,146.1278,-55.97169,-22.09955,79.38445,-105.542,-99.98148,0.001067912,-0.1257102,0.09433498,0,0.3,0,0,0,0,
6.38224E+17,45.56496,11.61897,35.13763,30.18322,7.88588,-142.1627,49.26388,0.5844551,-12.37405,-96.38443,-11.3776,14.36226,0,0,0,148.0686,-58.8429,-23.17299,79.38445,-105.542,-99.98148,0.001067912,-0.1257102,0.09433498,0,0.3,0,0,0,0,
6.38224E+17,45.94193,10.91762,35.13763,30.40295,8.691576,-142.1627,49.26388,0.5844551,-12.37405,-96.38443,-11.3776,14.36226,0,0,0,149.2498,-60.44373,-23.9285,79.38445,-105.542,-99.98148,0.001067912,-0.1257102,0.09433498,0,0.3,0,0,0,0,
6.38224E+17,46.03617,10.87086,35.13763,30.54945,8.984557,-142.1627,49.26388,0.5844551,-12.37405,-96.38443,-11.3776,14.36226,0,0,0,149.5019,-60.55059,-24.1599,79.38445,-105.542,-99.98148,0.001067912,-0.1257102,0.09433498,0,0.3,0,0,0,0,
6.38224E+17,46.10685,11.17478,35.13763,30.69594,9.570518,-142.1627,49.26388,0.5844551,-12.37405,-96.45767,-11.3776,14.28902,0,0,0,149.5822,-59.8563,-24.4382,79.38445,-105.542,-99.98148,0.001067912,-0.1257102,0.09433498,0,0.3,0,0,0,0,
6.38224E+17,46.10685,12.20342,35.13763,30.98892,9.8635,-142.2359,49.26388,0.5844551,-12.37405,-96.38443,-11.3776,14.28902,0,0,0,149.2327,-57.51193,-24.77448,79.38445,-105.542,-99.98148,0.001067912,-0.1257102,0.09433498,0,0.3,0,0,0,0,
6.38224E+17,46.10685,13.04504,35.13763,31.20865,9.790254,-142.1627,49.26388,0.5844551,-12.37405,-96.38443,-11.30435,14.36226,0,0,0,148.9242,-55.60053,-25.07129,79.38445,-105.542,-99.98148,0.001067912,-0.1257102,0.09433498,0,0.3,0,0,0,0,
6.38224E+17,46.05972,15.68677,35.13763,31.79461,9.057802,-142.1627,49.26388,0.5844551,-12.37405,-96.38443,-11.30435,14.36226,0,0,0,147.708,-49.64494,-26.00732,79.38445,-105.542,-99.98148,0.001067912,-0.1257102,0.09433498,0,0.3,0,0,0,0,
6.38224E+17,45.75344,19.17013,35.18433,32.60031,7.446409,-142.2359,49.26388,0.5844551,-12.37405,-96.38443,-11.3776,14.36226,0,0,0,145.2694,-41.84859,-26.8518,79.38445,-105.542,-99.98148,0.001067912,-0.1257102,0.09433498,0,0.3,0,0,0,0,
6.38224E+17,45.47073,21.06376,35.23103,32.89329,6.347731,-142.1627,49.26388,0.5844551,-12.37405,-96.38443,-11.3776,14.36226,0,0,0,143.5522,-37.64776,-27.13739,79.38445,-105.542,-99.98148,0.001067912,-0.1257102,0.09433498,0,0.3,0,0,0,0,
6.38224E+17,44.66969,24.7809,35.37111,33.33276,3.93064,-142.1627,49.26388,0.5844551,-12.37405,-96.38443,-11.3776,14.36226,0,0,0,139.3826,-29.49266,-27.35093,79.38445,-105.542,-99.98148,0.001067912,-0.1257102,0.09433498,0,0.3,0,0,0,0,
6.38224E+17,43.56237,28.26425,35.53454,33.18628,1.000834,-142.2359,49.26388,0.5844551,-12.37405,-96.38443,-11.3776,14.36226,0,0,0,134.3508,-22.01922,-27.08207,79.38445,-105.542,-99.98148,0.001067912,-0.1257102,0.09433498,0,0.3,0,0,0,0,
6.38224E+17,42.36081,31.25666,35.74466,32.30733,-2.075463,-142.2359,49.26388,0.5844551,-12.37405,-96.38443,-11.3776,14.36226,0,0,0,129.2977,-15.68899,-26.55633,79.38445,-105.542,-99.98148,0.001067912,-0.1257102,0.09433498,0,0.3,0,0,0,0,
6.38224E+17,41.67757,32.79962,35.8147,31.64813,-3.467122,-142.2359,49.26388,0.5844551,-12.37405,-96.38443,-11.30435,14.36226,0,0,0,126.4193,-12.54929,-26.34823,79.38445,-105.542,-99.98148,0.001067912,-0.1257102,0.09433498,0,0.3,0,0,0,0,
6.38224E+17,40.14618,35.97906,35.88475,29.74375,-6.763155,-142.2359,49.26388,0.5844551,-12.37405,-96.38443,-11.3776,14.36226,0,0,0,119.97,-6.348145,-26.11384,79.38445,-105.542,-99.98148,0.001067912,-0.1257102,0.09433498,0,0.3,0,0,0,0,
6.38224E+17,38.75614,38.97147,36.305,27.54639,-9.619716,-142.2359,49.26388,0.5844551,-12.37405,-96.38443,-11.3776,14.36226,0,0,0,114.3267,-0.2453985,-25.93309,79.38445,-105.542,-99.98148,0.001067912,-0.1257102,0.09433498,0,0.3,0,0,0,0,
6.38224E+17,38.12002,40.3274,36.60851,26.44772,-11.15786,-142.2359,49.26388,0.5844551,-12.37405,-96.38443,-11.30435,14.36226,0,0,0,111.8463,2.604147,-25.80977,79.38445,-105.542,-99.98148,0.001067912,-0.1257102,0.09433498,0,0.3,0,0,0,0,
6.38224E+17,36.58862,42.87563,37.26224,24.61659,-13.57495,-142.2359,49.26388,0.5844551,-12.37405,-96.38443,-11.3776,14.36226,0,0,0,106.3749,7.952934,-25.0566,79.38445,-105.542,-99.98148,0.001067912,-0.1257102,0.09433498,0,0.3,0,0,0,0,
6.38224E+17,34.96298,45.49398,38.07939,22.78546,-16.13853,-142.2359,49.26388,0.5844551,-12.37405,-96.38443,-11.3776,14.36226,0,0,0,100.696,13.48476,-24.34333,79.38445,-105.542,-99.98148,0.001067912,-0.1257102,0.09433498,0,0.3,0,0,0,0,
6.38224E+17,33.52582,48.01883,38.96659,20.95433,-18.77536,-142.2359,49.26388,0.5844551,-12.37405,-96.38443,-11.3776,14.36226,0,0,0,95.58072,18.79634,-24.08461,79.38445,-105.542,-99.98148,0.001067912,-0.1257102,0.09433498,0,0.3,0,0,0,0,
6.38224E+17,32.93682,49.07085,39.3168,20.07539,-19.87404,-142.2359,49.26388,0.5844551,-12.37405,-96.38443,-11.3776,14.36226,0,0,0,93.43863,20.9318,-24.11922,79.38445,-105.542,-99.98148,0.001067912,-0.1257102,0.09433498,0,0.3,0,0,0,0,
6.38224E+17,31.85307,51.10475,39.62031,18.46399,-21.85166,-142.2359,49.26388,0.5844551,-12.37405,-96.38443,-11.3776,14.36226,0,0,0,89.06565,24.41786,-24.99845,79.38445,-105.542,-99.98148,0.001067912,-0.1257102,0.09433498,0,0.3,0,0,0,0,
6.38224E+17,30.98135,52.76461,39.34014,16.70611,-23.46305,-142.2359,49.26388,0.5844551,-12.37405,-96.38443,-11.30435,14.36226,0,0,0,85.04977,26.38505,-26.69897,79.38445,-105.542,-99.98148,0.001067912,-0.1257102,0.09433498,0,0.3,0,0,0,0,
6.38224E+17,30.65151,53.25555,38.89655,15.82717,-24.12226,-142.2359,49.26388,0.5844551,-12.37405,-96.38443,-11.3776,14.36226,0,0,0,83.35927,26.42115,-27.68594,79.38445,-105.542,-99.98148,0.001067912,-0.1257102,0.09433498,0,0.3,0,0,0,0,
6.38224E+17,30.41591,52.95163,37.5424,13.92279,-24.85471,-142.2359,49.26388,0.5844551,-12.37405,-96.38443,-11.30435,14.36226,0,0,0,81.81301,24.0467,-28.99178,79.38445,-105.542,-99.98148,0.001067912,-0.1257102,0.09433498,0,0.3,0,0,0,0,
6.38224E+17,30.65151,50.87097,35.88475,12.75087,-24.19551,-142.2359,49.26388,0.5844551,-12.37405,-96.38443,-11.3776,14.36226,0,0,0,82.75166,18.7533,-28.71124,79.38445,-105.542,-99.98148,0.001067912,-0.1257102,0.09433498,0,0.3,0,0,0,0,
6.38224E+17,30.93423,49.53841,35.04425,12.38465,-23.38981,-142.2359,49.26388,0.5844551,-12.37405,-96.38443,-11.30435,14.36226,0,0,0,83.84559,15.63335,-28.44398,79.38445,-105.542,-99.98148,0.001067912,-0.1257102,0.09433498,0,0.3,0,0,0,0,
6.38224E+17,31.64103,46.84992,33.24651,12.38465,-20.89947,-142.2359,49.26388,0.5844551,-12.37405,-96.38443,-11.3776,14.36226,0,0,0,86.19512,9.114244,-28.46637,79.38445,-105.542,-99.98148,0.001067912,-0.1257102,0.09433498,0,0.3,0,0,0,0,
6.38224E+17,32.48919,43.83413,31.44877,13.26359,-17.74993,-142.2359,49.26388,0.5844551,-12.37405,-96.38443,-11.30435,14.36226,0,0,0,89.0392,1.942786,-28.52823,79.38445,-105.542,-99.98148,0.001067912,-0.1257102,0.09433498,0,0.3,0,0,0,0,
6.38224E+17,33.38446,40.5378,29.95454,14.50875,-14.60039,-142.0162,49.26388,0.5844551,-12.37405,-96.38443,-11.3776,14.36226,0,0,0,92.40219,-5.516568,-28.13201,79.38445,-105.542,-99.98148,0.001067912,-0.1257102,0.09433498,0,0.3,0,0,0,0,
6.38224E+17,33.80854,38.80782,29.37086,15.16796,-12.69601,-141.8697,49.26388,0.5844551,-12.37405,-96.38443,-11.3776,14.36226,0,0,0,94.21086,-9.287844,-27.66488,79.38445,-105.542,-99.98148,0.001067912,-0.1257102,0.09433498,0,0.3,0,0,0,0,
6.38224E+17,34.6567,35.1842,28.46032,16.48637,-8.887264,-141.2837,49.26388,0.5844551,-12.37405,-96.38443,-11.30435,14.36226,0,0,0,98.11366,-17.04711,-26.42686,79.38445,-105.542,-99.98148,0.001067912,-0.1257102,0.09433498,0,0.3,0,0,0,0,
6.38224E+17,35.33994,31.58395,27.82994,17.87803,-5.00527,-141.064,49.26388,0.5844551,-12.37405,-96.38443,-11.30435,14.36226,0,0,0,101.7172,-24.73465,-24.90174,79.38445,-105.542,-99.98148,0.001067912,-0.1257102,0.09433498,0,0.3,0,0,0,0,
6.38224E+17,35.62266,29.85397,27.61982,18.46399,-3.174141,-139.7456,49.26388,0.5844551,-12.37405,-96.38443,-11.3776,14.36226,0,0,0,103.3696,-28.42344,-24.08545,79.38445,-105.542,-99.98148,0.001067912,-0.1257102,0.09433498,0,0.3,0,0,0,0,
6.38224E+17,36.04674,26.58102,27.3163,19.56267,0.4148723,-137.8412,49.26388,0.5844551,-12.37405,-96.38443,-11.3776,14.36226,0,0,0,106.1848,-35.46054,-22.44956,79.38445,-105.542,-99.98148,0.001067912,-0.1257102,0.09433498,0,0.3,0,0,0,0,
6.38224E+17,36.37658,23.40158,27.24626,20.36837,4.003886,-134.6184,49.26388,0.5844551,-12.37405,-96.38443,-11.30435,14.36226,0,0,0,108.791,-42.24137,-20.66315,79.38445,-105.542,-99.98148,0.001067912,-0.1257102,0.09433498,0,0.3,0,0,0,0,
6.38224E+17,36.51794,21.81186,27.24626,20.73459,5.835015,-133.3,49.26388,0.5844551,-12.37405,-96.38443,-11.3776,14.36226,0,0,0,110.0013,-45.65689,-19.78902,79.38445,-105.542,-99.98148,0.001067912,-0.1257102,0.09433498,0,0.3,0,0,0,0,
6.38224E+17,36.5415,19.5208,27.22291,21.32055,9.204292,-131.9083,49.26388,0.5844551,-12.37405,-96.38443,-11.3776,14.36226,0,0,0,111.1541,-50.67052,-18.36124,79.38445,-105.542,-99.98148,0.001067912,-0.1257102,0.09433498,0,0.3,0,0,0,0,
6.38224E+17,36.5415,18.58567,27.15287,21.54029,11.76787,-131.1026,49.26388,0.5844551,-12.37405,-96.38443,-11.3776,14.36226,0,0,0,111.4907,-52.80215,-17.90693,79.38445,-105.542,-99.98148,0.001067912,-0.1257102,0.09433498,0,0.3,0,0,0,0,
6.38224E+17,36.4237,18.74932,26.9194,21.76003,13.52576,-130.9561,49.26388,0.5844551,-12.37405,-96.38443,-11.3776,14.36226,0,0,0,110.8214,-52.68832,-18.16557,79.38445,-105.542,-99.98148,0.001067912,-0.1257102,0.09433498,0,0.3,0,0,0,0,
6.38224E+17,36.3059,19.00648,26.77931,21.90652,14.03847,-131.0294,49.26388,0.5844551,-12.37405,-96.45767,-11.3776,14.36226,0,0,0,110.2255,-52.26925,-18.3285,79.38445,-105.542,-99.98148,0.001067912,-0.1257102,0.09433498,0,0.3,0,0,0,0,
6.38224E+17,35.99962,20.33904,26.28902,21.97976,14.77092,-131.2491,49.26388,0.5844551,-12.37405,-96.38443,-11.30435,14.36226,0,0,0,108.2083,-49.85872,-19.41203,79.38445,-105.542,-99.98148,0.001067912,-0.1257102,0.09433498,0,0.3,0,0,0,0,
6.38224E+17,35.66978,22.58335,25.79873,21.90652,14.11172,-131.3956,49.26388,0.5844551,-12.37405,-96.38443,-11.30435,14.36226,0,0,0,105.6369,-45.49881,-21.17691,79.38445,-105.542,-99.98148,0.001067912,-0.1257102,0.09433498,0,0.3,0,0,0,0,
6.38224E+17,35.45774,24.12631,25.70534,21.76003,13.45251,-131.3956,49.26388,0.5844551,-12.37405,-96.38443,-11.3776,14.36226,0,0,0,104.1522,-42.29648,-22.10598,79.38445,-105.542,-99.98148,0.001067912,-0.1257102,0.09433498,0,0.3,0,0,0,0,
6.38224E+17,34.91586,27.42263,25.72869,21.46704,11.54814,-133.0803,49.26388,0.5844551,-12.37405,-96.38443,-11.30435,14.28902,0,0,0,100.8833,-35.36525,-23.82244,79.38445,-105.542,-99.98148,0.001067912,-0.1257102,0.09433498,0,0.3,0,0,0,0,
6.38224E+17,33.90279,31.02288,25.91546,20.73459,8.764822,-136.889,49.26388,0.5844551,-12.37405,-96.38443,-11.3776,14.36226,0,0,0,96.24907,-27.86435,-25.13131,79.38445,-105.542,-99.98148,0.001067912,-0.1257102,0.09433498,0,0.3,0,0,0,0,
6.38224E+17,32.58343,34.41272,26.42911,19.63592,5.468789,-139.5258,49.26388,0.5844551,-12.37405,-96.38443,-11.30435,14.36226,0,0,0,91.2076,-20.70026,-25.64172,79.38445,-105.542,-99.98148,0.001067912,-0.1257102,0.09433498,0,0.3,0,0,0,0,
6.38224E+17,31.78239,36.1427,26.77931,18.83022,3.564415,-140.8443,49.26388,0.5844551,-12.37405,-96.38443,-11.3776,14.36226,0,0,0,88.3627,-17.0484,-25.73769,79.38445,-105.542,-99.98148,0.001067912,-0.1257102,0.09433498,0,0.3,0,0,0,0,
6.38224E+17,30.01539,39.32214,27.47973,16.99909,-0.3175794,-141.5767,49.26388,0.5844551,-12.37405,-96.45767,-11.3776,14.36226,0,0,0,82.38395,-10.45347,-25.74529,79.38445,-105.542,-99.98148,0.001067912,-0.1257102,0.09433498,0,0.3,0,0,0,0,
6.38224E+17,28.03635,42.31455,28.22684,14.50875,-4.346064,-141.7232,49.26388,0.5844551,-12.37405,-96.38443,-11.3776,14.36226,0,0,0,75.99318,-4.371021,-25.64612,79.38445,-105.542,-99.98148,0.001067912,-0.1257102,0.09433498,0,0.3,0,0,0,0,
6.38224E+17,27.09396,43.60035,28.55371,13.19034,-6.177193,-141.8697,49.26388,0.5844551,-12.37405,-96.38443,-11.3776,14.36226,0,0,0,73.01184,-1.819214,-25.63522,79.38445,-105.542,-99.98148,0.001067912,-0.1257102,0.09433498,0,0.3,0,0,0,0,
6.38224E+17,24.92644,45.98492,29.25412,10.26054,-9.912696,-142.0162,49.26388,0.5844551,-12.37405,-96.38443,-11.3776,14.28902,0,0,0,66.51558,2.906935,-25.22741,79.38445,-105.542,-99.98148,0.001067912,-0.1257102,0.09433498,0,0.3,0,0,0,0,
6.38224E+17,22.78248,47.71491,29.79111,7.184238,-12.91575,-142.0894,49.26388,0.5844551,-12.37405,-96.38443,-11.3776,14.36226,0,0,0,60.39842,6.276358,-24.54478,79.38445,-105.542,-99.98148,0.001067912,-0.1257102,0.09433498,0,0.3,0,0,0,0,
6.38224E+17,21.69872,48.46302,29.95454,5.426354,-14.38065,-142.0894,49.26388,0.5844551,-12.37405,-96.38443,-11.30435,14.28902,0,0,0,57.31057,7.628836,-24.32557,79.38445,-105.542,-99.98148,0.001067912,-0.1257102,0.09433498,0,0.3,0,0,0,0,
6.38224E+17,19.83749,49.4449,30.16467,1.837341,-16.7245,-142.0894,49.26388,0.5844551,-12.37405,-96.38443,-11.3776,14.36226,0,0,0,52.16134,9.374415,-23.7632,79.38445,-105.542,-99.98148,0.001067912,-0.1257102,0.09433498,0,0.3,0,0,0,0,
6.38224E+17,18.25897,50.14624,30.2814,-1.531937,-18.48238,-142.0894,49.26388,0.5844551,-12.37405,-96.38443,-11.3776,14.36226,0,0,0,47.84159,10.56485,-23.34214,79.38445,-105.542,-99.98148,0.001067912,-0.1257102,0.09433498,0,0.3,0,0,0,0,
6.38224E+17,17.08097,50.63719,30.18801,-4.315253,-19.72755,-142.0894,49.26388,0.5844551,-12.37405,-96.38443,-11.3776,14.36226,0,0,0,44.53662,11.18386,-23.4102,79.38445,-105.542,-99.98148,0.001067912,-0.1257102,0.09433498,0,0.3,0,0,0,0,
6.38224E+17,16.60977,50.75408,29.97789,-5.560421,-20.16702,-142.0894,49.26388,0.5844551,-12.37405,-96.38443,-11.3776,14.36226,0,0,0,43.162,11.11106,-23.65608,79.38445,-105.542,-99.98148,0.001067912,-0.1257102,0.09433498,0,0.3,0,0,0,0,
6.38224E+17,16.20925,50.63719,29.30082,-7.684532,-20.75298,-142.0894,49.26388,0.5844551,-12.37405,-96.38443,-11.3776,14.36226,0,0,0,41.82593,10.15943,-24.47093,79.38445,-105.542,-99.98148,0.001067912,-0.1257102,0.09433498,0,0.3,0,0,0,0,
6.38224E+17,16.30349,50.23976,28.48367,-8.929699,-20.82623,-142.1627,49.26388,0.5844551,-12.37405,-96.38443,-11.3776,14.36226,0,0,0,41.79528,8.651416,-25.45364,79.38445,-105.542,-99.98148,0.001067912,-0.1257102,0.09433498,0,0.3,0,0,0,0,
6.38224E+17,16.35061,50.09949,28.22684,-9.22268,-20.75298,-142.1627,49.26388,0.5844551,-12.37405,-96.38443,-11.30435,14.36226,0,0,0,41.83528,8.158432,-25.75223,79.38445,-105.542,-99.98148,0.001067912,-0.1257102,0.09433498,0,0.3,0,0,0,0,
6.38224E+17,16.37417,49.95922,27.52643,-10.10162,-20.60649,-142.1627,49.26388,0.5844551,-12.37405,-96.38443,-11.30435,14.36226,0,0,0,41.55822,7.186511,-26.91193,79.38445,-105.542,-99.98148,0.001067912,-0.1257102,0.09433498,0,0.3,0,0,0,0,
6.38224E+17,16.39773,49.58517,27.01279,-11.34679,-20.31351,-142.1627,49.26388,0.5844551,-12.37405,-96.38443,-11.3776,14.36226,0,0,0,41.50404,6.076551,-27.31077,79.38445,-105.542,-99.98148,0.001067912,-0.1257102,0.09433498,0,0.3,0,0,0,0,
6.38224E+17,16.39773,49.35139,26.77931,-12.15249,-20.38675,-142.1627,49.26388,0.5844551,-12.37405,-96.38443,-11.30435,14.36226,0,0,0,41.48398,5.477144,-27.37894,79.38445,-105.542,-99.98148,0.001067912,-0.1257102,0.09433498,0,0.3,0,0,0,0,
6.38224E+17,16.46841,48.74355,26.0322,-13.69064,-20.46,-142.1627,49.26388,0.5844551,-12.37405,-96.38443,-11.3776,14.36226,0,0,0,41.51923,3.776632,-27.89913,79.38445,-105.542,-99.98148,0.001067912,-0.1257102,0.09433498,0,0.3,0,0,0,0,
6.38224E+17,16.46841,48.06559,25.00492,-14.64282,-20.16702,-142.1627,49.26388,0.5844551,-12.37405,-96.38443,-11.3776,14.36226,0,0,0,41.2421,1.699134,-28.83661,79.38445,-105.542,-99.98148,0.001067912,-0.1257102,0.09433498,0,0.3,0,0,0,0,
6.38224E+17,16.46841,47.78505,24.56132,-14.78931,-19.80079,-142.1627,49.26388,0.5844551,-12.37405,-96.38443,-11.3776,14.36226,0,0,0,41.11377,0.8288336,-29.27074,79.38445,-105.542,-99.98148,0.001067912,-0.1257102,0.09433498,0,0.3,0,0,0,0,
6.38224E+17,16.44485,47.15384,23.60409,-14.64282,-18.92185,-142.1627,49.26388,0.5844551,-12.37405,-96.38443,-11.30435,14.36226,0,0,0,40.78725,-1.073318,-30.16627,79.38445,-105.542,-99.98148,0.001067912,-0.1257102,0.09433498,0,0.3,0,0,0,0,
6.38224E+17,16.42129,46.26546,22.48342,-14.2766,-17.74993,-142.0162,49.26388,0.5844551,-12.37405,-96.38443,-11.3776,14.36226,0,0,0,40.47738,-3.511981,-31.00812,79.38445,-105.542,-99.98148,0.001067912,-0.1257102,0.09433498,0,0.3,0,0,0,0,
6.38224E+17,16.42129,44.90953,21.10593,-13.61739,-16.50476,-140.6978,49.26388,0.5844551,-12.37405,-96.38443,-11.30435,14.28902,0,0,0,40.27312,-6.910706,-31.70118,79.38445,-105.542,-99.98148,0.001067912,-0.1257102,0.09433498,0,0.3,0,0,0,0,
6.38224E+17,16.44485,44.13805,20.35881,-13.10467,-15.77231,-137.475,49.26388,0.5844551,-12.37405,-96.38443,-11.30435,14.36226,0,0,0,40.22536,-8.80639,-32.06991,79.38445,-105.542,-99.98148,0.001067912,-0.1257102,0.09433498,0,0.3,0,0,0,0,
6.38224E+17,16.44485,42.61847,18.84124,-11.93275,-13.94118,-132.9338,49.26388,0.5844551,-12.37405,-96.38443,-11.3776,14.36226,0,0,0,39.97107,-12.56167,-32.93145,79.38445,-105.542,-99.98148,0.001067912,-0.1257102,0.09433498,0,0.3,0,0,0,0,
6.38224E+17,16.44485,40.74821,17.18359,-10.98056,-12.54952,-131.8351,49.26388,0.5844551,-12.37405,-96.38443,-11.30435,14.36226,0,0,0,39.75188,-17.00531,-33.67403,79.38445,-105.542,-99.98148,0.001067912,-0.1257102,0.09433498,0,0.3,0,0,0,0,
6.38224E+17,16.44485,39.74295,16.43647,-10.54109,-11.3776,-130.4434,49.26388,0.5844551,-12.37405,-96.38443,-11.3776,14.36226,0,0,0,39.70858,-19.29396,-33.82074,79.38445,-105.542,-99.98148,0.001067912,-0.1257102,0.09433498,0,0.3,0,0,0,0,
6.38224E+17,16.44485,37.63891,15.05899,-9.66215,-9.106999,-125.9755,49.26388,0.5844551,-12.37405,-96.38443,-11.30435,14.36226,0,0,0,39.70162,-23.98603,-33.8443,79.38445,-105.542,-99.98148,0.001067912,-0.1257102,0.09433498,0,0.3,0,0,0,0,
6.38224E+17,16.44485,35.37122,13.65815,-8.270493,-6.543418,-120.7018,49.26388,0.5844551,-12.37405,-96.38443,-11.3776,14.36226,0,0,0,39.69629,-29.03657,-33.86238,79.38445,-105.542,-99.98148,0.001067912,-0.1257102,0.09433498,0,0.3,0,0,0,0,
6.38224E+17,16.39773,34.3192,12.98108,-7.391551,-5.298251,-118.4312,49.26388,0.5844551,-12.37405,-96.38443,-11.30435,14.36226,0,0,0,39.54771,-31.40903,-33.95878,79.38445,-105.542,-99.98148,0.001067912,-0.1257102,0.09433498,0,0.3,0,0,0,0,
6.38224E+17,16.02077,32.37881,11.41681,-5.706912,-2.88116,-116.6001,49.26388,0.5844551,-12.37405,-96.38443,-11.3776,14.36226,0,0,0,38.36576,-35.95056,-34.73554,79.38445,-105.542,-99.98148,0.001067912,-0.1257102,0.09433498,0,0.3,0,0,0,0,
6.38224E+17,15.31397,30.69558,9.805852,-4.608234,-0.61056,-118.5777,49.26388,0.5844551,-12.37405,-96.38443,-11.3776,14.36226,0,0,0,36.28251,-39.97977,-35.85045,79.38445,-105.542,-99.98148,0.001067912,-0.1257102,0.09433498,0,0.3,0,0,0,0,
6.38224E+17,15.14906,30.2514,9.128781,-4.315253,0.3416272,-126.1952,49.26388,0.5844551,-12.37405,-96.45767,-11.30435,14.36226,0,0,0,35.63179,-41.12996,-36.74083,79.38445,-105.542,-99.98148,0.001067912,-0.1257102,0.09433498,0,0.3,0,0,0,0,
6.38224E+17,15.17262,30.08775,8.778571,-3.363066,2.392492,-140.4048,49.26388,0.5844551,-12.37405,-96.38443,-11.30435,14.36226,0,0,0,35.52528,-41.58609,-37.34783,79.38445,-105.542,-99.98148,0.001067912,-0.1257102,0.09433498,0,0.3,0,0,0,0,
6.38224E+17,15.14906,30.11112,8.731878,-1.751673,3.344679,-141.8697,49.26388,0.5844551,-12.37405,-96.38443,-11.30435,14.36226,0,0,0,35.4362,-41.55556,-37.46325,79.38445,-105.542,-99.98148,0.001067912,-0.1257102,0.09433498,0,0.3,0,0,0,0,
6.38224E+17,15.14906,30.08775,8.70853,0.6654179,4.223621,-142.0162,49.26388,0.5844551,-12.37405,-96.38443,-11.30435,14.36226,0,0,0,35.4293,-41.61087,-37.48875,79.38445,-105.542,-99.98148,0.001067912,-0.1257102,0.09433498,0,0.3,0,0,0,0,
6.38224E+17,15.12549,30.08775,8.70853,1.617605,4.589847,-142.0894,49.26388,0.5844551,-12.37405,-96.38443,-11.3776,14.36226,0,0,0,35.37548,-41.61087,-37.47419,79.38445,-105.542,-99.98148,0.001067912,-0.1257102,0.09433498,0,0.3,0,0,0,0,
6.38224E+17,15.0077,30.01761,8.755224,3.375489,4.663092,-142.0894,49.26388,0.5844551,-12.37405,-96.38443,-11.3776,14.36226,0,0,0,35.15532,-41.73566,-37.21903,79.38445,-105.542,-99.98148,0.001067912,-0.1257102,0.09433498,0,0.3,0,0,0,0,
6.38224E+17,14.6543,29.94748,8.755224,4.400921,4.809582,-141.9429,49.26388,0.5844551,-12.37405,-96.38443,-11.30435,14.36226,0,0,0,34.36647,-41.87705,-36.92577,79.38445,-105.542,-99.98148,0.001067912,-0.1257102,0.09433498,0,0.3,0,0,0,0,
6.38224E+17,14.46582,29.9241,8.755224,4.693902,4.956073,-141.357,49.26388,0.5844551,-12.37405,-96.38443,-11.3776,14.36226,0,0,0,33.94074,-41.9242,-36.78714,79.38445,-105.542,-99.98148,0.001067912,-0.1257102,0.09433498,0,0.3,0,0,0,0,
6.38224E+17,14.4187,29.90072,8.825266,4.913638,5.322299,-136.6693,49.26388,0.5844551,-12.37405,-96.38443,-11.3776,14.36226,0,0,0,33.8794,-41.94645,-36.57697,79.38445,-105.542,-99.98148,0.001067912,-0.1257102,0.09433498,0,0.3,0,0,0,0,
6.38224E+17,14.4187,29.78383,9.245518,5.133373,5.76177,-126.3417,49.26388,0.5844551,-12.37405,-96.38443,-11.30435,14.36226,0,0,0,34.15364,-42.02882,-35.51033,79.38445,-105.542,-99.98148,0.001067912,-0.1257102,0.09433498,0,0.3,0,0,0,0,
6.38224E+17,14.4187,29.69032,9.362254,5.353109,5.90826,-120.3356,49.26388,0.5844551,-12.37405,-96.38443,-11.30435,14.36226,0,0,0,34.24728,-42.17388,-35.1461,79.38445,-105.542,-99.98148,0.001067912,-0.1257102,0.09433498,0,0.3,0,0,0,0,
6.38224E+17,14.4187,29.24613,9.385601,5.865825,6.05475,-105.6866,49.26388,0.5844551,-12.37405,-96.45767,-11.3776,14.36226,0,0,0,34.38727,-43.06508,-34.60163,79.38445,-105.542,-99.98148,0.001067912,-0.1257102,0.09433498,0,0.3,0,0,0,0,
6.38224E+17,14.4187,28.61492,9.385601,6.158805,6.274486,-90.89104,49.26388,0.5844551,-12.37405,-96.38443,-11.3776,14.28902,0,0,0,34.56423,-44.35082,-33.91335,79.38445,-105.542,-99.98148,0.001067912,-0.1257102,0.09433498,0,0.3,0,0,0,0,
6.38224E+17,14.4187,28.05384,9.525684,6.08556,6.713957,-74.19114,49.26388,0.5844551,-12.37405,-96.38443,-11.3776,14.28902,0,0,0,34.79864,-45.44665,-33.00163,79.38445,-105.542,-99.98148,0.001067912,-0.1257102,0.09433498,0,0.3,0,0,0,0,
6.38224E+17,14.44226,27.84344,9.689116,5.93907,6.860447,-66.93987,49.26388,0.5844551,-12.37405,-96.38443,-11.30435,14.36226,0,0,0,35.00507,-45.81575,-32.43051,79.38445,-105.542,-99.98148,0.001067912,-0.1257102,0.09433498,0,0.3,0,0,0,0,
6.38224E+17,14.67786,27.37588,10.29614,5.93907,6.640712,-52.29084,49.26388,0.5844551,-12.37405,-96.38443,-11.3776,14.36226,0,0,0,36.044,-46.53489,-30.74178,79.38445,-105.542,-99.98148,0.001067912,-0.1257102,0.09433498,0,0.3,0,0,0,0,
6.38224E+17,15.07837,27.07196,11.90711,6.891257,5.468789,-37.56856,49.26388,0.5844551,-12.37405,-96.38443,-11.3776,14.36226,0,0,0,38.0463,-46.44195,-27.13226,79.38445,-105.542,-99.98148,0.001067912,-0.1257102,0.09433498,0,0.3,0,0,1.85E-06,0,
6.38224E+17,15.17262,26.95507,12.60752,7.770199,4.809582,-31.6357,49.26388,0.5844551,-12.37405,-96.38443,-11.3776,14.36226,0,0,0,38.72779,-46.33824,-25.53832,79.38445,-105.542,-99.98148,0.001067912,-0.1257102,0.09433498,0,0.3,0,0,0.0004362,0,
6.38224E+17,15.05481,26.46413,13.07447,9.601329,3.93064,-22.91953,49.26388,0.5844551,-12.37405,-96.38443,-11.3776,14.36226,0,0,0,38.8427,-47.1174,-23.93984,79.38445,-105.542,-99.98148,0.001067912,-0.1257102,0.09433498,0,0.3,0,0,0.001270628,0,
6.38224E+17,14.79566,25.76278,13.02777,10.62676,3.564415,-18.23184,49.26388,0.5844551,-12.37405,-96.38443,-11.30435,14.36226,0,0,0,38.34555,-48.60763,-23.17335,79.38445,-105.542,-99.98148,0.001067912,-0.1257102,0.09433498,0,0.3,0,0,0.002098574,0,
6.38224E+17,14.79566,25.59913,12.98108,10.99299,3.564415,-15.66825,49.26388,0.5844551,-12.37405,-96.38443,-11.30435,14.36226,0,0,0,38.36066,-48.97533,-23.11615,79.38445,-105.542,-99.98148,0.001067912,-0.1257102,0.09433498,0,0.3,0,0,0.002512423,0,
6.38224E+17,15.19618,25.59913,12.81765,11.21272,3.491169,-9.36917,49.26388,0.5844551,-12.37405,-96.38443,-11.30435,14.36226,0,0,0,39.27776,-49.06025,-23.74565,79.38445,-105.542,-99.98148,0.001067912,-0.1257102,0.09433498,0,0.3,0,0,0.003359756,0,
6.38224E+17,15.78517,25.529,12.51413,11.43246,3.271434,-2.777105,49.26388,0.5844551,-12.37405,-96.38443,-11.3776,14.36226,0,0,0,40.59387,-49.36238,-24.7525,79.38445,-105.542,-99.98148,0.001067912,-0.1257102,0.09433498,0,0.3,0,0,0.004255987,0,
6.38224E+17,15.95009,25.48224,12.37405,11.57895,3.198189,-0.3600145,49.26388,0.5844551,-12.37405,-96.38443,-11.3776,14.36226,0,0,0,40.93242,-49.53086,-25.13099,79.38445,-105.542,-99.98148,0.001067912,-0.1257102,0.09433498,0,0.3,0,0,0.004717562,0,
6.38224E+17,15.99721,25.48224,11.90711,11.72544,2.978453,2.936018,49.26388,0.5844551,-12.37405,-96.38443,-11.3776,14.36226,0,0,0,40.75738,-49.75941,-26.18602,79.38445,-105.542,-99.98148,0.001067912,-0.1257102,0.09433498,0,0.3,0,0,0.005659049,0,
6.38224E+17,15.99721,25.48224,11.01991,11.21272,2.978453,4.547412,49.26388,0.5844551,-12.37405,-96.38443,-11.3776,14.36226,0,0,0,40.19968,-50.16979,-28.1313,79.38445,-105.542,-99.98148,0.001067912,-0.1257102,0.09433498,0,0.3,0,0,0.006642088,0,
6.38224E+17,15.97365,25.48224,10.52962,10.0408,3.051698,5.499599,49.26388,0.5844551,-12.37405,-96.38443,-11.30435,14.36226,0,0,0,39.83353,-50.38312,-29.19248,79.38445,-105.542,-99.98148,0.001067912,-0.1257102,0.09433498,0,0.3,0,0,0.007658344,0,
6.38224E+17,15.97365,25.48224,10.41288,9.381593,3.124943,6.158805,49.26388,0.5844551,-12.37405,-96.38443,-11.30435,14.36226,0,0,0,39.76001,-50.4325,-29.44934,79.38445,-105.542,-99.98148,0.001067912,-0.1257102,0.09433498,0,0.3,0,0,0.008169065,0,
6.38224E+17,15.97365,25.48224,10.36619,7.550464,3.198189,7.843444,49.26388,0.5844551,-12.37405,-96.38443,-11.3776,14.36226,0,0,0,39.73059,-50.45209,-29.5521,79.38445,-105.542,-99.98148,0.001067912,-0.1257102,0.09433498,0,0.3,0,0,0.009185753,0,
6.38224E+17,15.95009,25.48224,10.52962,4.620657,2.612227,9.747819,49.26388,0.5844551,-12.37405,-96.38443,-11.30435,14.36226,0,0,0,39.77631,-50.38312,-29.17612,79.38445,-105.542,-99.98148,0.001067912,-0.1257102,0.09433498,0,0.3,0,0,0.01018534,0,
6.38224E+17,15.85585,25.48224,10.55296,2.716283,2.172756,11.43246,49.26388,0.5844551,-12.37405,-96.38443,-11.3776,14.36226,0,0,0,39.56194,-50.37318,-29.05949,79.38445,-105.542,-99.98148,0.001067912,-0.1257102,0.09433498,0,0.3,0,0,0.01067519,0,
6.38224E+17,15.90297,25.48224,10.64635,-0.2867693,1.586795,16.0469,49.26388,0.5844551,-12.37405,-96.38443,-11.30435,14.36226,0,0,0,39.73502,-50.33319,-28.88661,79.38445,-105.542,-99.98148,0.001067912,-0.1257102,0.09433498,0,0.3,0,0,0.01164594,0,
6.38224E+17,15.97365,25.48224,10.83313,-2.410879,1.66004,21.24731,49.26388,0.5844551,-12.37405,-96.38443,-11.30435,14.36226,0,0,0,40.02456,-50.25219,-28.52513,79.38445,-105.542,-99.98148,0.001067912,-0.1257102,0.09433498,0,0.3,0,0,0.01259928,0,
6.38224E+17,15.92653,25.48224,10.87983,-3.363066,2.099511,26.08149,49.26388,0.5844551,-12.37405,-96.38443,-11.3776,14.36226,0,0,0,39.93885,-50.23172,-28.38963,79.38445,-105.542,-99.98148,0.001067912,-0.1257102,0.09433498,0,0.3,0,0,0.01353725,0,
6.38224E+17,15.87941,25.48224,10.90317,-3.436311,2.246002,28.49858,49.26388,0.5844551,-12.37405,-96.38443,-11.3776,14.36226,0,0,0,39.83833,-50.22145,-28.3055,79.38445,-105.542,-99.98148,0.001067912,-0.1257102,0.09433498,0,0.3,0,0,0.01399988,0,
6.38224E+17,15.59669,25.48224,10.90317,-3.143331,3.051698,33.91872,49.26388,0.5844551,-12.37405,-96.38443,-11.3776,14.36226,0,0,0,39.14681,-50.22145,-28.11063,79.38445,-105.542,-99.98148,0.001067912,-0.1257102,0.09433498,0,0.3,0,0,0.01490716,0,
6.38224E+17,14.79566,25.50562,10.90317,-2.85035,4.370111,39.19238,49.26388,0.5844551,-12.37405,-96.38443,-11.30435,14.36226,0,0,0,37.17642,-50.17234,-27.5997,79.38445,-105.542,-99.98148,0.001067912,-0.1257102,0.09433498,0,0.3,0,0,0.01576635,0,
6.38224E+17,14.1831,25.50562,10.90317,-2.777105,4.956073,41.53622,49.26388,0.5844551,-12.37405,-96.45767,-11.3776,14.36226,0,0,0,35.66954,-50.17234,-27.21029,79.38445,-105.542,-99.98148,0.001067912,-0.1257102,0.09433498,0,0.3,0,0,0.01616748,0,
6.38224E+17,12.67526,25.59913,10.83313,-3.216576,6.201241,45.12524,49.26388,0.5844551,-12.37405,-96.38443,-11.30435,14.36226,0,0,0,31.88755,-50.00672,-26.56834,79.38445,-105.542,-99.98148,0.001067912,-0.1257102,0.09433498,0,0.3,0,0,0.01689855,0,
6.38224E+17,10.8847,25.90305,10.83313,-4.315253,7.006938,47.61557,49.26388,0.5844551,-12.37405,-96.38443,-11.3776,14.36226,0,0,0,27.38384,-49.36963,-25.94299,79.38445,-105.542,-99.98148,0.001067912,-0.1257102,0.09433498,0,0.3,0,0,0.0175146,0,
6.38224E+17,10.03654,26.0667,10.94987,-5.047705,7.006938,48.27478,49.26388,0.5844551,-12.37405,-96.38443,-11.30435,14.36226,0,0,0,25.29025,-48.97593,-25.45485,79.38445,-105.542,-99.98148,0.001067912,-0.1257102,0.09433498,0,0.3,0,0,0.01777521,0,
6.38224E+17,8.151747,26.30048,11.30008,-6.952079,6.420976,49.15372,49.26388,0.5844551,-12.37405,-96.38443,-11.3776,14.36226,0,0,0,20.65611,-48.33039,-24.14634,79.38445,-105.542,-99.98148,0.001067912,-0.1257102,0.09433498,0,0.3,0,0,0.0181885,0,
6.38224E+17,6.24339,26.65115,11.88376,-8.783209,5.688524,49.66644,49.26388,0.5844551,-12.37405,-96.38443,-11.3776,14.36226,0,0,0,15.94769,-47.32686,-22.5773,79.38445,-105.542,-99.98148,0.001067912,-0.1257102,0.09433498,0,0.3,0,0,0.01844535,0,
6.38224E+17,4.193673,27.23561,12.77096,-10.83407,4.516602,50.10591,49.26388,0.5844551,-12.37405,-96.38443,-11.3776,14.36226,0,0,0,10.82612,-45.67342,-20.70304,79.38445,-105.542,-99.98148,0.001067912,-0.1257102,0.09433498,0,0.3,0,0,0.01851765,0,
6.38224E+17,3.274835,27.63304,13.28459,-11.78626,4.003886,50.47213,49.26388,0.5844551,-12.37405,-96.38443,-11.3776,14.36226,0,0,0,8.499242,-44.58299,-19.81112,79.38445,-105.542,-99.98148,0.001067912,-0.1257102,0.09433498,0,0.3,0,0,0.01848153,0,
6.38224E+17,1.413598,28.66168,14.59204,-14.13011,2.612227,51.49756,49.26388,0.5844551,-12.37405,-96.38443,-11.3776,14.36226,0,0,0,3.715358,-41.73913,-17.79006,79.38445,-105.542,-99.98148,0.001067912,-0.1257102,0.09433498,0,0.3,0,0,0.01825055,0,
6.38224E+17,-0.1413598,29.83059,15.78275,-16.5472,0.9275885,52.37651,49.26388,0.5844551,-12.37405,-96.38443,-11.3776,14.36226,0,0,0,-0.3748923,-38.63945,-16.39939,79.38445,-105.542,-99.98148,0.001067912,-0.1257102,0.09433498,0,0.3,0,0,0.01783158,0,
6.38224E+17,-0.7774788,30.48518,16.36643,-17.71912,0.1218917,52.96247,49.26388,0.5844551,-12.37405,-96.38443,-11.3776,14.36226,0,0,0,-2.069173,-36.94604,-15.873,79.38445,-105.542,-99.98148,0.001067912,-0.1257102,0.09433498,0,0.3,0,0,0.0175593,0,
6.38224E+17,-2.002597,31.88787,17.69723,-19.33051,-1.416257,54.50062,49.26388,0.5844551,-12.37405,-96.45767,-11.3776,14.36226,0,0,0,-5.373179,-33.24609,-14.68196,79.38445,-105.542,-99.98148,0.001067912,-0.1257102,0.09433498,0,0.3,0,0,0.01689071,0,
6.38224E+17,-3.439754,33.54772,19.30819,-20.64893,-3.100896,56.55148,49.26388,0.5844551,-12.37405,-96.38443,-11.30435,14.36226,0,0,0,-9.313607,-28.80617,-13.40024,79.38445,-105.542,-99.98148,0.001067912,-0.1257102,0.09433498,0,0.3,0,0,0.01602838,0,
6.38224E+17,-4.735552,35.53487,21.17597,-22.26032,-4.785534,58.30937,49.26388,0.5844551,-12.37405,-96.38443,-11.30435,14.36226,0,0,0,-12.93548,-23.4928,-12.19922,79.38445,-105.542,-99.98148,0.001067912,-0.1257102,0.09433498,0,0.3,0,0,0.0149589,0,
6.38224E+17,-5.230311,36.49338,22.03982,-22.99277,-5.517986,59.04182,49.26388,0.5844551,-12.37405,-96.38443,-11.30435,14.36226,0,0,0,-14.3342,-20.948,-11.76153,79.38445,-105.542,-99.98148,0.001067912,-0.1257102,0.09433498,0,0.3,0,0,0.01435526,0,
6.38224E+17,-6.00779,38.59741,23.83756,-24.45767,-7.422361,60.57997,49.26388,0.5844551,-12.37405,-96.38443,-11.3776,14.36226,0,0,0,-16.54861,-15.43493,-11.10616,79.38445,-105.542,-99.98148,0.001067912,-0.1257102,0.09433498,0,0.3,0,0,0.01302122,0,
6.38224E+17,-6.384749,40.95861,25.56526,-25.77609,-9.25349,61.97163,49.26388,0.5844551,-12.37405,-96.38443,-11.30435,14.36226,0,0,0,-17.59803,-9.531535,-11.08214,79.38445,-105.542,-99.98148,0.001067912,-0.1257102,0.09433498,0,0.3,0,0,0.01154092,0,
6.38224E+17,-6.384749,42.10415,26.24233,-26.28881,-10.05919,62.55759,49.26388,0.5844551,-12.37405,-96.38443,-11.3776,14.36226,0,0,0,-17.55909,-6.847332,-11.43017,79.38445,-105.542,-99.98148,0.001067912,-0.1257102,0.09433498,0,0.3,0,0,0.01076286,0,
6.38224E+17,-6.172709,44.18481,27.29295,-26.94801,-11.67058,63.36329,49.26388,0.5844551,-12.37405,-96.38443,-11.30435,14.36226,0,0,0,-16.85693,-2.213021,-12.48789,79.38445,-105.542,-99.98148,0.001067912,-0.1257102,0.09433498,0,0.3,0,0,0.009162723,0,
6.38224E+17,-5.088952,46.21871,27.94668,-27.31424,-13.28197,63.80275,49.26388,0.5844551,-12.37405,-96.38443,-11.30435,14.36226,0,0,0,-13.72758,1.827583,-14.19975,79.38445,-105.542,-99.98148,0.001067912,-0.1257102,0.09433498,0,0.3,0,0,0.007561102,0,
6.38224E+17,-4.193673,47.06033,28.06341,-27.0945,-13.94118,63.94925,49.26388,0.5844551,-12.37405,-96.38443,-11.30435,14.36226,0,0,0,-11.23072,3.30001,-15.18513,79.38445,-105.542,-99.98148,0.001067912,-0.1257102,0.09433498,0,0.3,0,0,0.006785945,0,
6.38224E+17,-1.955477,48.1591,28.06341,-25.77609,-15.03986,63.43653,49.26388,0.5844551,-12.37405,-96.38443,-11.30435,14.36226,0,0,0,-5.17601,5.024048,-16.75098,79.38445,-105.542,-99.98148,0.001067912,-0.1257102,0.09433498,0,0.3,0,0,0.005321573,0,
6.38224E+17,0.612559,48.50977,27.64316,-23.43224,-15.9188,62.11811,49.26388,0.5844551,-12.37405,-96.38443,-11.3776,14.28902,0,0,0,1.605921,5.109641,-18.1457,79.38445,-105.542,-99.98148,0.001067912,-0.1257102,0.09433498,0,0.3,0,0,0.00400785,0,
6.38224E+17,1.908357,48.41626,27.3163,-21.7476,-16.21178,61.38566,49.26388,0.5844551,-12.37405,-96.38443,-11.3776,14.36226,0,0,0,4.985182,4.614292,-18.73214,79.38445,-105.542,-99.98148,0.001067912,-0.1257102,0.09433498,0,0.3,0,0,0.003416866,0,
6.38224E+17,4.429273,47.71491,26.54584,-18.15859,-16.35827,59.70102,49.26388,0.5844551,-12.37405,-96.38443,-11.3776,14.36226,0,0,0,11.53148,2.711308,-19.47946,79.38445,-105.542,-99.98148,0.001067912,-0.1257102,0.09433498,0,0.3,0,0,0.002370605,0,
6.38224E+17,7.209348,46.1252,25.30844,-14.20335,-15.9188,57.86989,49.26388,0.5844551,-12.37405,-96.38443,-11.3776,14.36226,0,0,0,18.75258,-1.074875,-20.10255,79.38445,-105.542,-99.98148,0.001067912,-0.1257102,0.09433498,0,0.3,0,0,0.001540189,0,
6.38224E+17,9.824504,43.55359,23.48735,-9.66215,-15.03986,56.62473,49.26388,0.5844551,-12.37405,-96.38443,-11.3776,14.36226,0,0,0,25.55863,-7.06918,-20.7577,79.38445,-105.542,-99.98148,0.001067912,-0.1257102,0.09433498,0,0.3,0,0,0.000973037,0,
6.38224E+17,10.69622,42.03401,22.55346,-7.611286,-14.30741,56.03876,49.26388,0.5844551,-12.37405,-96.38443,-11.3776,14.36226,0,0,0,27.87575,-10.5143,-20.76842,79.38445,-105.542,-99.98148,0.001067912,-0.1257102,0.09433498,0,0.3,0,0,0.000785283,0,
6.38224E+17,11.56794,38.90133,20.70902,-4.095518,-12.54952,55.01333,49.26388,0.5844551,-12.37405,-96.38443,-11.3776,14.36226,0,0,0,30.26642,-17.64275,-20.4835,79.38445,-105.542,-99.98148,0.001067912,-0.1257102,0.09433498,0,0.3,0,0,0.000573635,0,
6.38224E+17,11.52082,36.11932,19.33154,-2.117898,-9.839451,54.13439,49.26388,0.5844551,-12.37405,-96.38443,-11.30435,14.36226,0,0,0,30.33055,-23.87591,-19.54739,79.38445,-105.542,-99.98148,0.001067912,-0.1257102,0.09433498,0,0.3,0,0,0.000502942,0,
6.38224E+17,11.21454,34.8569,18.8179,-1.531937,-8.594284,53.91465,49.26388,0.5844551,-12.37405,-96.38443,-11.30435,14.36226,0,0,0,29.64668,-26.65889,-18.82251,79.38445,-105.542,-99.98148,0.001067912,-0.1257102,0.09433498,0,0.3,0,0,0.000500904,0,
6.38224E+17,9.848064,32.89313,18.09413,-1.092466,-6.396928,53.69492,49.26388,0.5844551,-12.37405,-96.45767,-11.30435,14.28902,0,0,0,26.23483,-30.98663,-17.22249,79.38445,-105.542,-99.98148,0.001067912,-0.1257102,0.09433498,0,0.3,0,0,0.000508375,0,
6.38224E+17,7.586308,31.77098,17.884,-2.264389,-4.565799,53.54843,49.26388,0.5844551,-12.37405,-96.38443,-11.30435,14.36226,0,0,0,20.37316,-33.34441,-15.38139,79.38445,-105.542,-99.98148,0.001067912,-0.1257102,0.09433498,0,0.3,0,0,0.000450894,0,
6.38224E+17,6.26695,31.5372,17.90735,-3.363066,-3.979838,53.54843,49.26388,0.5844551,-12.37405,-96.38443,-11.30435,14.36226,0,0,0,16.88246,-33.79087,-14.61762,79.38445,-105.542,-99.98148,0.001067912,-0.1257102,0.09433498,0,0.3,0,0,0.000375694,0,
6.38224E+17,3.628234,31.49044,18.3276,-6.659099,-4.053083,53.32869,49.26388,0.5844551,-12.37405,-96.38443,-11.30435,14.36226,0,0,0,9.849454,-33.57949,-13.01889,79.38445,-105.542,-99.98148,0.001067912,-0.1257102,0.09433498,0,0.3,0,0,0.000104898,0,
6.38224E+17,1.060198,31.58395,19.07472,-10.54109,-4.419309,53.10896,49.26388,0.5844551,-12.37405,-96.38443,-11.3776,14.36226,0,0,0,2.908216,-32.83648,-11.20066,79.38445,-105.542,-99.98148,0.001067912,-0.1257102,0.09433498,0,0.3,0,0,0,0,
6.38224E+17,-0.7774788,31.7476,19.79848,-14.71607,-4.932025,53.03571,49.26388,0.5844551,-12.37405,-96.38443,-11.30435,14.36226,0,0,0,-2.151589,-31.95177,-9.799814,79.38445,-105.542,-99.98148,0.001067912,-0.1257102,0.09433498,0,0.3,0,0,0,0,
6.38224E+17,-1.342918,31.77098,20.07865,-16.69369,-5.225006,53.03571,49.26388,0.5844551,-12.37405,-96.38443,-11.30435,14.36226,0,0,0,-3.729849,-31.68315,-9.244593,79.38445,-105.542,-99.98148,0.001067912,-0.1257102,0.09433498,0,0.3,0,0,0,0,
6.38224E+17,-1.649197,31.70084,20.26543,-19.76999,-5.810967,52.96247,49.26388,0.5844551,-12.37405,-96.38443,-11.30435,14.36226,0,0,0,-4.594518,-31.67207,-8.773107,79.38445,-105.542,-99.98148,0.001067912,-0.1257102,0.09433498,0,0.3,0,0,0,0,
6.38224E+17,-1.342918,31.30341,20.19538,-21.38138,-6.103948,52.96247,49.26388,0.5844551,-12.37405,-96.38443,-11.30435,14.36226,0,0,0,-3.749167,-32.51709,-8.420548,79.38445,-105.542,-99.98148,0.001067912,-0.1257102,0.09433498,0,0.3,0,0,0,0,
6.38224E+17,-1.107318,30.95274,20.00861,-21.7476,-6.177193,52.96247,49.26388,0.5844551,-12.37405,-96.38443,-11.30435,14.36226,0,0,0,-3.091774,-33.36514,-8.392798,79.38445,-105.542,-99.98148,0.001067912,-0.1257102,0.09433498,0,0.3,0,0,0,0,
6.38224E+17,-0.4240793,29.85397,19.33154,-21.7476,-5.957458,52.96247,49.26388,0.5844551,-12.37405,-96.38443,-11.3776,14.28902,0,0,0,-1.182742,-36.10114,-8.556965,79.38445,-105.542,-99.98148,0.001067912,-0.1257102,0.09433498,0,0.3,0,0,0,0,
6.38224E+17,0.4711992,28.28763,18.3743,-20.94191,-5.371496,53.03571,49.26388,0.5844551,-12.37405,-96.38443,-11.3776,14.36226,0,0,0,1.311383,-40.00718,-8.895052,79.38445,-105.542,-99.98148,0.001067912,-0.1257102,0.09433498,0,0.3,0,0,0,0,
6.38224E+17,0.9188384,27.23561,17.79062,-20.13621,-4.785534,53.10896,49.26388,0.5844551,-12.37405,-96.38443,-11.30435,14.36226,0,0,0,2.554697,-42.59542,-9.06104,79.38445,-105.542,-99.98148,0.001067912,-0.1257102,0.09433498,0,0.3,0,0,0,0,
6.38224E+17,1.696317,24.94454,16.6466,-18.37833,-3.247386,53.47519,49.26388,0.5844551,-12.37405,-96.38443,-11.30435,14.36226,0,0,0,4.710006,-48.17215,-9.308625,79.38445,-105.542,-99.98148,0.001067912,-0.1257102,0.09433498,0,0.3,0,0,0,0,
6.38224E+17,2.191077,22.6301,15.64267,-16.84018,-1.635992,54.06115,49.26388,0.5844551,-12.37405,-96.38443,-11.30435,14.36226,0,0,0,6.080416,-53.75054,-9.427038,79.38445,-105.542,-99.98148,0.001067912,-0.1257102,0.09433498,0,0.3,0,0,0,0,
6.38224E+17,2.308876,21.29754,15.17572,-16.18097,-0.5373149,54.35413,49.26388,0.5844551,-12.37405,-96.38443,-11.3776,14.36226,0,0,0,6.411671,-56.91553,-9.327704,79.38445,-105.542,-99.98148,0.001067912,-0.1257102,0.09433498,0,0.3,0,0,0,0,
6.38224E+17,2.403116,18.51554,14.42861,-15.22878,1.220569,54.7936,49.26388,0.5844551,-12.37405,-96.38443,-11.30435,14.36226,0,0,0,6.695161,-63.44712,-8.815658,79.38445,-105.542,-99.98148,0.001067912,-0.1257102,0.09433498,0,0.3,0,0,0,0,
6.38224E+17,2.403116,15.82704,13.86828,-14.71607,3.344679,55.15982,49.26388,0.5844551,-12.37405,-96.38443,-11.3776,14.36226,0,0,0,6.719589,-69.74363,-8.233589,79.38445,-105.542,-99.98148,0.001067912,-0.1257102,0.09433498,0,0.3,0,0,0,0,
6.38224E+17,2.379556,13.46585,13.33129,-14.49633,5.249053,55.4528,49.26388,0.5844551,-12.37405,-96.38443,-11.30435,14.36226,0,0,0,6.661003,-75.354,-8.05628,79.38445,-105.542,-99.98148,0.001067912,-0.1257102,0.09433498,0,0.3,0,0,0,0,
6.38224E+17,2.355996,12.32031,13.09782,-14.34984,5.981505,55.52605,49.26388,0.5844551,-12.37405,-96.45767,-11.3776,14.36226,0,0,0,6.597798,-78.07706,-7.98772,79.38445,-105.542,-99.98148,0.001067912,-0.1257102,0.09433498,0,0.3,0,0,0,0,
6.38224E+17,2.214636,10.4033,12.70091,-14.2766,7.446409,55.67254,49.26388,0.5844551,-12.37405,-96.38443,-11.3776,14.36226,0,0,0,6.201302,-82.65728,-7.993432,79.38445,-105.542,-99.98148,0.001067912,-0.1257102,0.09433498,0,0.3,0,0,0,0,
6.38224E+17,2.002597,9.257769,12.3974,-14.34984,8.618331,55.74578,49.26388,0.5844551,-12.37405,-96.38443,-11.3776,14.36226,0,0,0,5.599627,-85.43768,-8.20577,79.38445,-105.542,-99.98148,0.001067912,-0.1257102,0.09433498,0,0.3,0,0,0,0,
6.38224E+17,1.837677,9.023986,12.30401,-14.49633,9.131048,55.74578,49.26388,0.5844551,-12.37405,-96.38443,-11.3776,14.36226,0,0,0,5.134609,-86.02137,-8.316135,79.38445,-105.542,-99.98148,0.001067912,-0.1257102,0.09433498,0,0.3,0,0,0,0,
6.38224E+17,1.413598,9.164255,12.30401,-14.78931,9.790254,55.74578,49.26388,0.5844551,-12.37405,-96.38443,-11.3776,14.36226,0,0,0,3.948703,-85.69901,-8.334099,79.38445,-105.542,-99.98148,0.001067912,-0.1257102,0.09433498,0,0.3,0,0,0,0,
6.38224E+17,0.8481586,10.26303,12.86434,-15.37527,10.15648,55.74578,49.26388,0.5844551,-12.37405,-96.38443,-11.30435,14.36226,0,0,0,2.381829,-82.89429,-7.461698,79.38445,-105.542,-99.98148,0.001067912,-0.1257102,0.09433498,0,0.3,0,0,0,0,
6.38224E+17,0.5418791,11.29167,13.35464,-15.7415,10.00999,56.03876,49.26388,0.5844551,-12.37405,-96.38443,-11.30435,14.36226,0,0,0,1.528034,-80.28368,-6.787597,79.38445,-105.542,-99.98148,0.001067912,-0.1257102,0.09433498,0,0.3,0,0,0,0,
6.38224E+17,0,13.86327,14.38192,-16.5472,9.131048,57.28393,49.26388,0.5844551,-12.37405,-96.38443,-11.3776,14.36226,0,0,0,0,-73.86959,-5.762423,79.38445,-105.542,-99.98148,0.001067912,-0.1257102,0.09433498,0,0.3,0,0,0,0,
6.38224E+17,-0.6832389,16.69204,15.57263,-17.2064,7.812634,58.82208,49.26388,0.5844551,-12.37405,-96.38443,-11.30435,14.28902,0,0,0,-1.950012,-66.80307,-4.831582,79.38445,-105.542,-99.98148,0.001067912,-0.1257102,0.09433498,0,0.3,0,0,0,0,
6.38224E+17,-1.130878,19.3104,16.59991,-17.79236,6.347731,60.36023,49.26388,0.5844551,-12.37405,-96.38443,-11.3776,14.36226,0,0,0,-3.235646,-60.34545,-4.437741,79.38445,-105.542,-99.98148,0.001067912,-0.1257102,0.09433498,0,0.3,0,0,0,0,
6.38224E+17,-1.154438,20.85336,17.18359,-17.71912,5.542034,61.16593,49.26388,0.5844551,-12.37405,-96.38443,-11.3776,14.36226,0,0,0,-3.304393,-56.57808,-4.372262,79.38445,-105.542,-99.98148,0.001067912,-0.1257102,0.09433498,0,0.3,0,0,0,0,
6.38224E+17,-1.248678,23.77563,18.58442,-16.91342,4.003886,63.21679,49.26388,0.5844551,-12.37405,-96.38443,-11.3776,14.36226,0,0,0,-3.585443,-49.28561,-3.857461,79.38445,-105.542,-99.98148,0.001067912,-0.1257102,0.09433498,0,0.3,0,0,0,0,
6.38224E+17,-1.625637,26.79142,20.42886,-16.10773,1.953021,65.26765,49.26388,0.5844551,-12.37405,-96.38443,-11.3776,14.36226,0,0,0,-4.697335,-41.50643,-2.836295,79.38445,-105.542,-99.98148,0.001067912,-0.1257102,0.09433498,0,0.3,0,0,0,0,
6.38224E+17,-1.837677,28.12398,21.31605,-15.88799,1.074079,66.1466,49.26388,0.5844551,-12.37405,-96.38443,-11.3776,14.36226,0,0,0,-5.325846,-38.01879,-2.355735,79.38445,-105.542,-99.98148,0.001067912,-0.1257102,0.09433498,0,0.3,0,0,0,0,
6.38224E+17,-2.355996,30.83585,23.32392,-15.7415,-1.050031,67.31852,49.26388,0.5844551,-12.37405,-96.38443,-11.3776,14.36226,0,0,0,-6.877282,-30.75022,-1.194744,79.38445,-105.542,-99.98148,0.001067912,-0.1257102,0.09433498,0,0.3,0,0,0,0,
6.38224E+17,-3.251275,33.64123,25.61195,-16.18097,-3.247386,67.83124,49.26388,0.5844551,-12.37405,-96.38443,-11.30435,14.36226,0,0,0,-9.565587,-23.02267,0.03915218,79.38445,-105.542,-99.98148,0.001067912,-0.1257102,0.09433498,0,0.3,0,0,0,0,
6.38224E+17,-3.793154,34.8569,26.73262,-16.84018,-4.346064,67.97772,49.26388,0.5844551,-12.37405,-96.38443,-11.30435,14.36226,0,0,0,-11.2072,-19.53358,0.6880034,79.38445,-105.542,-99.98148,0.001067912,-0.1257102,0.09433498,0,0.3,0,0,0,0,
6.38224E+17,-4.994712,37.05445,28.95061,-18.89104,-6.98289,68.19746,49.26388,0.5844551,-12.37405,-96.38443,-11.30435,14.36226,0,0,0,-14.88534,-12.98302,1.971308,79.38445,-105.542,-99.98148,0.001067912,-0.1257102,0.09433498,0,0.3,0,0,0,0,
6.38224E+17,-6.172709,38.71431,30.98182,-21.23489,-9.25349,68.19746,49.26388,0.5844551,-12.37405,-96.45767,-11.3776,14.36226,0,0,0,-18.56903,-7.572957,3.342407,79.38445,-105.542,-99.98148,0.001067912,-0.1257102,0.09433498,0,0.3,0,0,0,0,
6.38224E+17,-6.832388,39.48579,31.98576,-22.5533,-10.27892,68.27071,49.26388,0.5844551,-12.37405,-96.38443,-11.3776,14.36226,0,0,0,-20.64687,-4.95928,3.971286,79.38445,-105.542,-99.98148,0.001067912,-0.1257102,0.09433498,0,0.3,0,0,0,0,
6.38224E+17,-8.363786,40.77158,33.78349,-25.40986,-12.54952,68.27071,49.26388,0.5844551,-12.37405,-96.38443,-11.3776,14.36226,0,0,0,-25.47526,-0.3995792,4.92589,79.38445,-105.542,-99.98148,0.001067912,-0.1257102,0.09433498,0,0.3,0,0,0,0,
6.38224E+17,-10.03654,41.54307,35.32441,-28.63265,-14.08767,68.34396,49.26388,0.5844551,-12.37405,-96.38443,-11.3776,14.36226,0,0,0,-30.8313,2.986324,5.853183,79.38445,-105.542,-99.98148,0.001067912,-0.1257102,0.09433498,0,0.3,0,0,0,0,
6.38224E+17,-11.5915,41.75347,36.65521,-32.22166,-15.33284,68.49045,49.26388,0.5844551,-12.37405,-96.38443,-11.3776,14.36226,0,0,0,-35.98524,5.172294,7.088524,79.38445,-105.542,-99.98148,0.001067912,-0.1257102,0.09433498,0,0.3,0,0,0,0,
6.38224E+17,-12.22762,41.73009,37.0988,-33.97955,-15.9188,68.63693,49.26388,0.5844551,-12.37405,-96.38443,-11.3776,14.36226,0,0,0,-38.11335,5.751254,7.52073,79.38445,-105.542,-99.98148,0.001067912,-0.1257102,0.09433498,0,0.3,0,0,0,0,
6.38224E+17,-13.02866,41.30928,37.23889,-36.9826,-16.7245,69.07641,49.26388,0.5844551,-12.37405,-96.45767,-11.3776,14.36226,0,0,0,-40.77328,5.214938,7.856318,79.38445,-105.542,-99.98148,0.001067912,-0.1257102,0.09433498,0,0.3,0,0,0,0,
6.38224E+17,-13.26426,40.30402,36.44508,-38.88697,-16.79774,69.22289,49.26388,0.5844551,-12.37405,-96.38443,-11.30435,14.36226,0,0,0,-41.50906,2.336265,7.736251,79.38445,-105.542,-99.98148,0.001067912,-0.1257102,0.09433498,0,0.3,0,0,0,0,
6.38224E+17,-13.26426,39.67281,35.79136,-39.32644,-16.50476,69.29614,49.26388,0.5844551,-12.37405,-96.38443,-11.3776,14.36226,0,0,0,-41.44368,0.3138669,7.458883,79.38445,-105.542,-99.98148,0.001067912,-0.1257102,0.09433498,0,0.3,0,0,0,0,
6.38224E+17,-13.26426,37.94283,33.97027,-39.32644,-15.77231,69.29614,49.26388,0.5844551,-12.37405,-96.38443,-11.30435,14.36226,0,0,0,-41.2249,-5.247281,6.5308,79.38445,-105.542,-99.98148,0.001067912,-0.1257102,0.09433498,0,0.3,0,0,0,0,
6.38224E+17,-13.09934,35.55825,31.51881,-38.59399,-14.4539,69.29614,49.26388,0.5844551,-12.37405,-96.38443,-11.3776,14.36226,0,0,0,-40.38636,-12.77962,5.209117,79.38445,-105.542,-99.98148,0.001067912,-0.1257102,0.09433498,0,0.3,0,0,0,0,
6.38224E+17,-12.93442,34.13218,30.16467,-37.86154,-13.57495,69.29614,49.26388,0.5844551,-12.37405,-96.38443,-11.3776,14.28902,0,0,0,-39.70541,-17.11918,4.535625,79.38445,-105.542,-99.98148,0.001067912,-0.1257102,0.09433498,0,0.3,0,0,0,0,
6.38224E+17,-12.60458,31.25666,27.61982,-36.25014,-11.23111,69.22289,49.26388,0.5844551,-12.37405,-96.38443,-11.3776,14.28902,0,0,0,-38.36675,-25.61221,3.228571,79.38445,-105.542,-99.98148,0.001067912,-0.1257102,0.09433498,0,0.3,0,0,0,0,
6.38224E+17,-12.20406,28.28763,25.12166,-34.12604,-8.154812,69.07641,49.26388,0.5844551,-12.37405,-96.38443,-11.3776,14.36226,0,0,0,-36.79058,-34.19191,1.754844,79.38445,-105.542,-99.98148,0.001067912,-0.1257102,0.09433498,0,0.3,0,0,0,0,
6.38224E+17,-11.77998,25.03806,22.95036,-32.00193,-5.00527,69.07641,49.26388,0.5844551,-12.37405,-96.38443,-11.3776,14.36226,0,0,0,-35.28115,-43.00801,0.8265963,79.38445,-105.542,-99.98148,0.001067912,-0.1257102,0.09433498,0,0.3,0,0,0,0,
6.38224E+17,-11.56794,23.44834,22.01647,-31.12299,-3.467122,69.07641,49.26388,0.5844551,-12.37405,-96.38443,-11.30435,14.36226,0,0,0,-34.55673,-47.2127,0.4768101,79.38445,-105.542,-99.98148,0.001067912,-0.1257102,0.09433498,0,0.3,0,0,0,0,
6.38224E+17,-10.93182,20.33904,20.40551,-29.3651,-0.3175794,69.14965,49.26388,0.5844551,-12.37405,-96.38443,-11.3776,14.36226,0,0,0,-32.52909,-55.28301,0.06737889,79.38445,-105.542,-99.98148,0.001067912,-0.1257102,0.09433498,0,0.3,0,0,0,0,
6.38224E+17,-9.965863,17.53365,19.12141,-27.24099,3.051698,69.51588,49.26388,0.5844551,-12.37405,-96.38443,-11.30435,14.36226,0,0,0,-29.56515,-62.46881,-0.09156787,79.38445,-105.542,-99.98148,0.001067912,-0.1257102,0.09433498,0,0.3,0,0,0,0,
6.38224E+17,-9.471104,16.38812,18.56108,-26.06907,4.589847,69.80886,49.26388,0.5844551,-12.37405,-96.38443,-11.30435,14.28902,0,0,0,-28.03601,-65.44007,-0.2928174,79.38445,-105.542,-99.98148,0.001067912,-0.1257102,0.09433498,0,0.3,0,0,0,0,
6.38224E+17,-8.858545,14.98543,17.81396,-23.72522,7.080183,70.32157,49.26388,0.5844551,-12.37405,-96.38443,-11.3776,14.36226,0,0,0,-26.11924,-69.12576,-0.7627968,79.38445,-105.542,-99.98148,0.001067912,-0.1257102,0.09433498,0,0.3,0,0,0,0,
6.38224E+17,-8.740746,14.65813,17.62719,-22.26032,8.838067,70.61456,49.26388,0.5844551,-12.37405,-96.38443,-11.30435,14.36226,0,0,0,-25.74132,-69.99447,-0.9261206,79.38445,-105.542,-99.98148,0.001067912,-0.1257102,0.09433498,0,0.3,0,0,0,0,
6.38224E+17,-8.764306,14.70489,17.67388,-21.82085,9.424027,70.6878,49.26388,0.5844551,-12.37405,-96.38443,-11.3776,14.36226,0,0,0,-25.82174,-69.85625,-0.8616263,79.38445,-105.542,-99.98148,0.001067912,-0.1257102,0.09433498,0,0.3,0,0,0,0,
6.38224E+17,-9.070585,15.38286,18.14083,-21.38138,9.936745,70.76105,49.26388,0.5844551,-12.37405,-96.38443,-11.30435,14.36226,0,0,0,-26.81515,-67.99828,-0.3853008,79.38445,-105.542,-99.98148,0.001067912,-0.1257102,0.09433498,0,0.3,0,0,0,0,
6.38224E+17,-9.848064,17.01933,19.07472,-21.82085,9.497273,70.6878,49.26388,0.5844551,-12.37405,-96.38443,-11.3776,14.36226,0,0,0,-29.26238,-63.64739,0.2179379,79.38445,-105.542,-99.98148,0.001067912,-0.1257102,0.09433498,0,0.3,0,0,0,0,
6.38224E+17,-10.74334,19.17013,20.38216,-23.28575,8.325351,70.61456,49.26388,0.5844551,-12.37405,-96.38443,-11.30435,14.36226,0,0,0,-32.1368,-57.86232,1.026815,79.38445,-105.542,-99.98148,0.001067912,-0.1257102,0.09433498,0,0.3,0,0,0,0,
6.38224E+17,-11.19098,20.29228,21.12928,-24.31118,7.519653,70.46806,49.26388,0.5844551,-12.37405,-96.45767,-11.3776,14.36226,0,0,0,-33.60356,-54.78779,1.500669,79.38445,-105.542,-99.98148,0.001067912,-0.1257102,0.09433498,0,0.3,0,0,0,0,
6.38224E+17,-12.27474,22.34956,22.64685,-26.58179,5.542034,70.17509,49.26388,0.5844551,-12.37405,-96.38443,-11.30435,14.36226,0,0,0,-37.13676,-49.01096,2.33605,79.38445,-105.542,-99.98148,0.001067912,-0.1257102,0.09433498,0,0.3,0,0,0,0,
6.38224E+17,-13.33494,24.00941,23.9076,-29.07212,3.491169,69.8821,49.26388,0.5844551,-12.37405,-96.38443,-11.30435,14.36226,0,0,0,-40.55956,-44.30025,2.762867,79.38445,-105.542,-99.98148,0.001067912,-0.1257102,0.09433498,0,0.3,0,0,0,0,
6.38224E+17,-13.7119,24.71076,24.37455,-30.46378,2.465737,69.51588,49.26388,0.5844551,-12.37405,-96.38443,-11.30435,14.36226,0,0,0,-41.75994,-42.3688,2.801683,79.38445,-105.542,-99.98148,0.001067912,-0.1257102,0.09433498,0,0.3,0,0,0,0,
6.38224E+17,-13.99462,25.66927,24.70141,-32.95412,0.707853,68.49045,49.26388,0.5844551,-12.37405,-96.38443,-11.3776,14.28902,0,0,0,-42.54169,-40.03422,2.343737,79.38445,-105.542,-99.98148,0.001067912,-0.1257102,0.09433498,0,0.3,0,0,0,0,
6.38224E+17,-13.78258,25.80954,24.44459,-34.41902,-0.2443342,67.53825,49.26388,0.5844551,-12.37405,-96.38443,-11.3776,14.36226,0,0,0,-41.74642,-39.98871,1.834377,79.38445,-105.542,-99.98148,0.001067912,-0.1257102,0.09433498,0,0.3,0,0,0,0,
6.38224E+17,-12.98154,25.55238,23.83756,-34.63876,-0.5373149,66.87905,49.26388,0.5844551,-12.37405,-96.38443,-11.30435,14.36226,0,0,0,-39.13177,-41.10592,1.397835,79.38445,-105.542,-99.98148,0.001067912,-0.1257102,0.09433498,0,0.3,0,0,0,0,
6.38224E+17,-12.39254,25.08481,23.48735,-34.19928,-0.5373149,66.73256,49.26388,0.5844551,-12.37405,-96.38443,-11.3776,14.36226,0,0,0,-37.32439,-42.41672,1.516508,79.38445,-105.542,-99.98148,0.001067912,-0.1257102,0.09433498,0,0.3,0,0,0,0,
6.38224E+17,-11.3559,23.40158,22.76358,-32.22166,-0.02459868,66.58607,49.26388,0.5844551,-12.37405,-96.38443,-11.3776,14.36226,0,0,0,-34.25679,-46.65022,2.22221,79.38445,-105.542,-99.98148,0.001067912,-0.1257102,0.09433498,0,0.3,0,0,0,0,
6.38224E+17,-11.14386,21.5547,22.20325,-30.09755,1.51355,67.39177,49.26388,0.5844551,-12.37405,-96.45767,-11.3776,14.36226,0,0,0,-33.71003,-51.12061,2.777911,79.38445,-105.542,-99.98148,0.001067912,-0.1257102,0.09433498,0,0.3,0,0,0,0,
6.38224E+17,-11.19098,20.75984,21.96978,-29.3651,2.392492,68.05097,49.26388,0.5844551,-12.37405,-96.38443,-11.30435,14.36226,0,0,0,-33.88262,-53.05017,2.911197,79.38445,-105.542,-99.98148,0.001067912,-0.1257102,0.09433498,0,0.3,0,0,0,0,
6.38224E+17,-11.42658,19.28702,21.54953,-28.04669,4.443357,69.8821,49.26388,0.5844551,-12.37405,-96.45767,-11.30435,14.36226,0,0,0,-34.63911,-56.63332,3.030449,79.38445,-105.542,-99.98148,0.001067912,-0.1257102,0.09433498,0,0.3,0,0,0,0,
6.38224E+17,-11.89778,18.35189,21.43279,-26.94801,6.05475,72.1527,49.26388,0.5844551,-12.37405,-96.38443,-11.30435,14.36226,0,0,0,-36.13998,-58.79289,3.179407,79.38445,-105.542,-99.98148,0.001067912,-0.1257102,0.09433498,0,0.3,0,0,0,0,
6.38224E+17,-12.51034,18.30513,21.47948,-26.4353,6.860447,73.7641,49.26388,0.5844551,-12.37405,-96.38443,-11.30435,14.36226,0,0,0,-38.00105,-58.85644,2.915384,79.38445,-105.542,-99.98148,0.001067912,-0.1257102,0.09433498,0,0.3,0,0,0,0,
6.38224E+17,-12.72238,18.46878,21.59622,-26.4353,6.860447,74.20357,49.26388,0.5844551,-12.37405,-96.38443,-11.30435,14.36226,0,0,0,-38.6638,-58.39527,2.902904,79.38445,-105.542,-99.98148,0.001067912,-0.1257102,0.09433498,0,0.3,0,0,0,0,
6.38224E+17,-12.93442,19.56756,21.82969,-26.65503,6.420976,74.78953,49.26388,0.5844551,-12.37405,-96.38443,-11.30435,14.36226,0,0,0,-39.22378,-55.77658,2.438484,79.38445,-105.542,-99.98148,0.001067912,-0.1257102,0.09433498,0,0.3,0,0,0,0,
6.38224E+17,-13.05222,21.62484,22.08651,-27.16775,5.175808,74.64304,49.26388,0.5844551,-12.37405,-96.38443,-11.3776,14.36226,0,0,0,-39.31966,-51.07125,1.256764,79.38445,-105.542,-99.98148,0.001067912,-0.1257102,0.09433498,0,0.3,0,0,0,0,
6.38224E+17,-13.28782,22.70024,22.31999,-27.46073,4.370111,73.61761,49.26388,0.5844551,-12.37405,-96.38443,-11.3776,14.36226,0,0,0,-39.91537,-48.54798,0.6643879,79.38445,-105.542,-99.98148,0.001067912,-0.1257102,0.09433498,0,0.3,0,0,0,0,
6.38224E+17,-14.04174,24.92117,22.85697,-28.77914,2.026266,69.51588,49.26388,0.5844551,-12.37405,-96.38443,-11.3776,14.36226,0,0,0,-41.90948,-43.33921,-0.7803453,79.38445,-105.542,-99.98148,0.001067912,-0.1257102,0.09433498,0,0.3,0,0,0,0,
6.38224E+17,-14.74854,26.76804,23.13714,-31.34272,-0.3175794,63.65627,49.26388,0.5844551,-12.37405,-96.38443,-11.3776,14.36226,0,0,0,-43.64917,-39.21613,-2.541616,79.38445,-105.542,-99.98148,0.001067912,-0.1257102,0.09433498,0,0.3,0,0,0,0,
6.38224E+17,-14.8899,27.63304,23.13714,-32.73438,-1.343012,60.06725,49.26388,0.5844551,-12.37405,-96.38443,-11.30435,14.36226,0,0,0,-43.82166,-37.4256,-3.539142,79.38445,-105.542,-99.98148,0.001067912,-0.1257102,0.09433498,0,0.3,0,0,0,0,
6.38224E+17,-15.12549,29.43316,23.18383,-35.22471,-2.954405,52.30326,49.26388,0.5844551,-12.37405,-96.38443,-11.30435,14.36226,0,0,0,-44.00289,-33.70228,-5.556093,79.38445,-105.542,-99.98148,0.001067912,-0.1257102,0.09433498,0,0.3,0,0,0,0,
6.38224E+17,-15.31397,31.44369,23.41731,-37.49532,-4.346064,43.73357,49.26388,0.5844551,-12.37405,-96.45767,-11.3776,14.36226,0,0,0,-44.04392,-29.45318,-7.506674,79.38445,-105.542,-99.98148,0.001067912,-0.1257102,0.09433498,0,0.3,0,0,0,0,
6.38224E+17,-15.50245,32.40219,23.67413,-38.59399,-5.00527,39.5586,49.26388,0.5844551,-12.37405,-96.38443,-11.30435,14.36226,0,0,0,-44.40397,-27.32099,-8.261092,79.38445,-105.542,-99.98148,0.001067912,-0.1257102,0.09433498,0,0.3,0,0,0,0,
6.38224E+17,-15.99721,34.1088,24.25781,-41.01108,-6.177193,32.38057,49.26388,0.5844551,-12.37405,-96.38443,-11.30435,14.36226,0,0,0,-45.52655,-23.44784,-9.550917,79.38445,-105.542,-99.98148,0.001067912,-0.1257102,0.09433498,0,0.3,0,0,0,0,
6.38224E+17,-16.77469,35.605,25.1917,-43.42817,-7.056135,27.10692,49.26388,0.5844551,-12.37405,-96.38443,-11.3776,14.36226,0,0,0,-47.67253,-19.68134,-10.19851,79.38445,-105.542,-99.98148,0.001067912,-0.1257102,0.09433498,0,0.3,0,0,0,0,
6.38224E+17,-17.95269,36.75054,26.52249,-45.91851,-7.715342,24.17712,49.26388,0.5844551,-12.37405,-96.38443,-11.30435,14.28902,0,0,0,-51.28782,-16.17854,-10.05771,79.38445,-105.542,-99.98148,0.001067912,-0.1257102,0.09433498,0,0.3,0,0,0,0,
6.38224E+17,-18.70661,37.31161,27.40969,-47.23692,-8.008322,23.44467,49.26388,0.5844551,-12.37405,-96.38443,-11.3776,14.36226,0,0,0,-53.70419,-14.19975,-9.748038,79.38445,-105.542,-99.98148,0.001067912,-0.1257102,0.09433498,0,0.3,0,0,0,0,
6.38224E+17,-20.26157,38.31688,29.4409,-49.8005,-8.594284,22.56572,49.26388,0.5844551,-12.37405,-96.38443,-11.3776,14.36226,0,0,0,-58.93115,-10.10125,-8.709389,79.38445,-105.542,-99.98148,0.001067912,-0.1257102,0.09433498,0,0.3,0,0,0,0,
6.38224E+17,-21.91076,39.01822,31.75228,-52.51057,-9.180244,22.8587,49.26388,0.5844551,-12.37405,-96.38443,-11.30435,14.36226,0,0,0,-64.84843,-6.088849,-7.121995,79.38445,-105.542,-99.98148,0.001067912,-0.1257102,0.09433498,0,0.3,0,0,0,0,
6.38224E+17,-22.75892,39.20525,32.94299,-53.90223,-9.399981,23.15168,49.26388,0.5844551,-12.37405,-96.45767,-11.30435,14.36226,0,0,0,-68.02738,-4.268358,-6.193917,79.38445,-105.542,-99.98148,0.001067912,-0.1257102,0.09433498,0,0.3,0,0,0,0,
6.38224E+17,-24.54948,39.22863,35.55789,-57.27151,-9.473226,23.88414,49.26388,0.5844551,-12.37405,-96.38443,-11.30435,14.36226,0,0,0,-75.1365,-0.8012903,-3.854601,79.38445,-105.542,-99.98148,0.001067912,-0.1257102,0.09433498,0,0.3,0,0,0,0,
6.38224E+17,-26.29292,39.01822,38.17278,-60.93377,-9.692961,24.76308,49.26388,0.5844551,-12.37405,-96.38443,-11.30435,14.36226,0,0,0,-82.39979,2.469644,-1.574792,79.38445,-105.542,-99.98148,0.001067912,-0.1257102,0.09433498,0,0.3,0,0,0,0,
6.38224E+17,-27.16464,38.64417,39.59696,-63.05788,-9.546471,25.34904,49.26388,0.5844551,-12.37405,-96.38443,-11.30435,14.36226,0,0,0,-86.35468,3.872213,-0.06655644,79.38445,-105.542,-99.98148,0.001067912,-0.1257102,0.09433498,0,0.3,0,0,0,0,
6.38224E+17,-28.79027,37.59215,41.97839,-66.93987,-8.521038,26.59421,49.26388,0.5844551,-12.37405,-96.38443,-11.30435,14.36226,0,0,0,-93.8427,5.566363,2.417921,79.38445,-105.542,-99.98148,0.001067912,-0.1257102,0.09433498,0,0.3,0,0,0,0,
6.38224E+17,-30.43947,35.9323,43.5193,-70.52889,-7.27587,27.47315,49.26388,0.5844551,-12.37405,-96.38443,-11.3776,14.28902,0,0,0,-101.224,4.905891,3.910217,79.38445,-105.542,-99.98148,0.001067912,-0.1257102,0.09433498,0,0.3,0,0,0,0,
6.38224E+17,-31.78239,33.54772,45.06022,-73.3122,-5.298251,28.35209,49.26388,0.5844551,-12.37405,-96.38443,-11.30435,14.36226,0,0,0,-108.251,2.849861,6.360949,79.38445,-105.542,-99.98148,0.001067912,-0.1257102,0.09433498,0,0.3,0,0,0,0,
6.38224E+17,-32.25359,32.30868,45.57386,-74.48412,-4.126328,29.0113,49.26388,0.5844551,-12.37405,-96.38443,-11.3776,14.36226,0,0,0,-110.9693,1.279395,7.501357,79.38445,-105.542,-99.98148,0.001067912,-0.1257102,0.09433498,0,0.3,0,0,0,0,
6.38224E+17,-33.17242,29.76045,45.80734,-76.31525,-1.709238,30.25646,49.26388,0.5844551,-12.37405,-96.38443,-11.30435,14.36226,0,0,0,-115.6556,-3.413136,8.576044,79.38445,-105.542,-99.98148,0.001067912,-0.1257102,0.09433498,0,0.3,0,0,0,0,
6.38224E+17,-33.8321,26.58102,45.03687,-77.26745,1.074079,30.98892,49.26388,0.5844551,-12.37405,-96.38443,-11.30435,14.36226,0,0,0,-118.929,-11.21282,9.088819,79.38445,-105.542,-99.98148,0.001067912,-0.1257102,0.09433498,0,0.3,0,0,0,0,
6.38224E+17,-33.9499,24.82765,44.19638,-77.1942,2.612227,31.20865,49.26388,0.5844551,-12.37405,-96.38443,-11.30435,14.36226,0,0,0,-119.5043,-16.26356,9.157018,79.38445,-105.542,-99.98148,0.001067912,-0.1257102,0.09433498,0,0.3,0,0,0,0,
6.38224E+17,-33.97346,21.017,42.02508,-75.94903,5.76177,31.42839,49.26388,0.5844551,-12.37405,-96.38443,-11.3776,14.36226,0,0,0,-119.4458,-27.88399,8.912697,79.38445,-105.542,-99.98148,0.001067912,-0.1257102,0.09433498,0,0.3,0,0,0,0,
6.38224E+17,-33.78498,17.37,39.667,-73.89817,9.277537,31.35514,49.26388,0.5844551,-12.37405,-96.38443,-11.30435,14.36226,0,0,0,-118.105,-39.488,8.173248,79.38445,-105.542,-99.98148,0.001067912,-0.1257102,0.09433498,0,0.3,0,0,0,0,
6.38224E+17,-33.40803,15.8738,38.21947,-72.72624,10.88893,31.20865,49.26388,0.5844551,-12.37405,-96.38443,-11.3776,14.28902,0,0,0,-116.0469,-44.94217,7.590683,79.38445,-105.542,-99.98148,0.001067912,-0.1257102,0.09433498,0,0.3,0,0,0,0,
6.38224E+17,-32.13579,13.58274,35.13763,-69.72319,13.74549,31.35514,49.26388,0.5844551,-12.37405,-96.38443,-11.3776,14.36226,0,0,0,-109.7734,-54.38273,6.401206,79.38445,-105.542,-99.98148,0.001067912,-0.1257102,0.09433498,0,0.3,0,0,0,0,
6.38224E+17,-30.62795,11.82937,32.35931,-65.76794,16.38232,32.01435,49.26388,0.5844551,-12.37405,-96.38443,-11.30435,14.36226,0,0,0,-102.8554,-61.95539,5.375482,79.38445,-105.542,-99.98148,0.001067912,-0.1257102,0.09433498,0,0.3,0,0,0,0,
6.38224E+17,-28.95519,10.63708,29.72107,-61.44649,18.1402,33.5525,49.26388,0.5844551,-12.37405,-96.38443,-11.3776,14.36226,0,0,0,-95.45528,-67.84297,4.173934,79.38445,-105.542,-99.98148,0.001067912,-0.1257102,0.09433498,0,0.3,0,0,0,0,
6.38224E+17,-28.01279,10.16952,28.48367,-59.17588,18.87265,34.57793,49.26388,0.5844551,-12.37405,-96.38443,-11.30435,14.36226,0,0,0,-91.51529,-70.31397,3.672556,79.38445,-105.542,-99.98148,0.001067912,-0.1257102,0.09433498,0,0.3,0,0,0,0,
6.38224E+17,-26.03376,9.678576,26.24233,-53.97548,20.26431,37.36125,49.26388,0.5844551,-12.37405,-96.45767,-11.3776,14.28902,0,0,0,-83.57332,-73.83697,2.744775,79.38445,-105.542,-99.98148,0.001067912,-0.1257102,0.09433498,0,0.3,0,0,0,0,
6.38224E+17,-23.84268,9.655198,24.16442,-48.3356,21.14326,41.38973,49.26388,0.5844551,-12.37405,-96.45767,-11.30435,14.36226,0,0,0,-75.20589,-75.94987,1.821156,79.38445,-105.542,-99.98148,0.001067912,-0.1257102,0.09433498,0,0.3,0,0,0,0,
6.38224E+17,-22.54688,9.655198,22.99706,-44.89308,21.43624,43.95331,49.26388,0.5844551,-12.37405,-96.38443,-11.30435,14.36226,0,0,0,-70.38364,-77.03673,1.178661,79.38445,-105.542,-99.98148,0.001067912,-0.1257102,0.09433498,0,0.3,0,0,0,0,
6.38224E+17,-20.00241,9.772089,20.82576,-37.71505,21.80246,49.08047,49.26388,0.5844551,-12.37405,-96.38443,-11.3776,14.36226,0,0,0,-61.16872,-78.65428,-0.3122794,79.38445,-105.542,-99.98148,0.001067912,-0.1257102,0.09433498,0,0.3,0,0,0,0,
6.38224E+17,-17.34013,10.02925,19.12141,-30.1708,21.50948,54.13439,49.26388,0.5844551,-12.37405,-96.38443,-11.30435,14.36226,0,0,0,-52.15579,-79.4196,-1.309206,79.38445,-105.542,-99.98148,0.001067912,-0.1257102,0.09433498,0,0.3,0,0,0,0,
6.38224E+17,-16.09145,10.26303,18.56108,-26.28881,21.14326,56.40499,49.26388,0.5844551,-12.37405,-96.38443,-11.30435,14.36226,0,0,0,-48.13462,-79.30517,-1.490277,79.38445,-105.542,-99.98148,0.001067912,-0.1257102,0.09433498,0,0.3,0,0,0,0,
6.38224E+17,-13.4763,11.01113,17.79062,-18.30508,19.89809,61.6054,49.26388,0.5844551,-12.37405,-96.38443,-11.30435,14.36226,0,0,0,-39.99921,-78.15331,-1.437117,79.38445,-105.542,-99.98148,0.001067912,-0.1257102,0.09433498,0,0.3,0,0,0,0,
6.38224E+17,-11.40302,12.0164,17.44041,-11.05381,17.92047,66.43958,49.26388,0.5844551,-12.37405,-96.38443,-11.30435,14.36226,0,0,0,-33.6886,-76.10744,-1.318603,79.38445,-105.542,-99.98148,0.001067912,-0.1257102,0.09433498,0,0.3,0,0,0,0,
6.38224E+17,-9.471104,13.16193,17.39371,-4.095518,15.35689,71.4935,49.26388,0.5844551,-12.37405,-96.38443,-11.3776,14.36226,0,0,0,-27.92582,-73.53801,-0.9532886,79.38445,-105.542,-99.98148,0.001067912,-0.1257102,0.09433498,0,0.3,0,0,0,0,
6.38224E+17,-8.693625,13.79314,17.39371,-1.019221,13.96523,73.83734,49.26388,0.5844551,-12.37405,-96.38443,-11.30435,14.36226,0,0,0,-25.60007,-72.10939,-0.9282244,79.38445,-105.542,-99.98148,0.001067912,-0.1257102,0.09433498,0,0.3,0,0,0,0,
6.38224E+17,-7.609867,15.28934,17.51045,4.107941,10.88893,77.79259,49.26388,0.5844551,-12.37405,-96.38443,-11.30435,14.36226,0,0,0,-22.34741,-68.65729,-1.083662,79.38445,-105.542,-99.98148,0.001067912,-0.1257102,0.09433498,0,0.3,0,0,0,0,
6.38224E+17,-7.115108,16.92582,17.76727,8.209671,7.373164,81.08862,49.26388,0.5844551,-12.37405,-96.38443,-11.30435,14.36226,0,0,0,-20.8419,-64.81709,-1.380219,79.38445,-105.542,-99.98148,0.001067912,-0.1257102,0.09433498,0,0.3,0,0,0,0,
6.38224E+17,-7.091548,17.74406,17.95405,9.821064,5.395544,82.48027,49.26388,0.5844551,-12.37405,-96.38443,-11.30435,14.36226,0,0,0,-20.75427,-62.86592,-1.524145,79.38445,-105.542,-99.98148,0.001067912,-0.1257102,0.09433498,0,0.3,0,0,0,0,
6.38224E+17,-7.232908,19.21688,18.60777,11.94517,1.51355,84.82411,49.26388,0.5844551,-12.37405,-96.38443,-11.3776,14.36226,0,0,0,-21.21089,-59.13768,-1.220566,79.38445,-105.542,-99.98148,0.001067912,-0.1257102,0.09433498,0,0.3,0,0,0,0,
6.38224E+17,-8.057507,20.52606,19.33154,13.1171,-2.807915,87.24121,49.26388,0.5844551,-12.37405,-96.45767,-11.3776,14.36226,0,0,0,-23.69205,-55.72461,-0.9913172,79.38445,-105.542,-99.98148,0.001067912,-0.1257102,0.09433498,0,0.3,0,0,0,0,
6.38224E+17,-9.471104,21.43781,20.0553,12.75087,-7.349115,90.3175,49.26388,0.5844551,-12.37405,-96.38443,-11.3776,14.36226,0,0,0,-27.94942,-53.17569,-0.8118553,79.38445,-105.542,-99.98148,0.001067912,-0.1257102,0.09433498,0,0.3,0,0,0,0,
6.38224E+17,-10.27214,21.60146,20.28877,12.09166,-9.473226,92.14863,49.26388,0.5844551,-12.37405,-96.38443,-11.30435,14.36226,0,0,0,-30.35496,-52.63398,-0.8545648,79.38445,-105.542,-99.98148,0.001067912,-0.1257102,0.09433498,0,0.3,0,0,0,0,
6.38224E+17,-12.01558,21.57808,20.4989,9.894309,-13.35522,95.81089,49.26388,0.5844551,-12.37405,-96.38443,-11.3776,14.36226,0,0,0,-35.53639,-52.51416,-1.387691,79.38445,-105.542,-99.98148,0.001067912,-0.1257102,0.09433498,0,0.3,0,0,0,0,
6.38224E+17,-13.78258,21.50795,20.68568,6.891257,-16.50476,98.88718,49.26388,0.5844551,-12.37405,-96.38443,-11.3776,14.36226,0,0,0,-40.77901,-52.51309,-2.109422,79.38445,-105.542,-99.98148,0.001067912,-0.1257102,0.09433498,0,0.3,0,0,0,0,
6.38224E+17,-14.6543,21.36768,20.75572,4.840393,-17.82317,100.1324,49.26388,0.5844551,-12.37405,-96.38443,-11.3776,14.36226,0,0,0,-43.37219,-52.75929,-2.486116,79.38445,-105.542,-99.98148,0.001067912,-0.1257102,0.09433498,0,0.3,0,0,0,0,
6.38224E+17,-16.60977,20.82998,20.8958,0.2259469,-19.43457,102.1832,49.26388,0.5844551,-12.37405,-96.38443,-11.3776,14.36226,0,0,0,-49.22257,-53.81092,-3.338987,79.38445,-105.542,-99.98148,0.001067912,-0.1257102,0.09433498,0,0.3,0,0,0,0,
6.38224E+17,-18.87153,20.33904,21.52618,-5.120951,-20.02053,103.1354,49.26388,0.5844551,-12.37405,-96.38443,-11.30435,14.36226,0,0,0,-56.26868,-54.34977,-3.735747,79.38445,-105.542,-99.98148,0.001067912,-0.1257102,0.09433498,0,0.3,0,0,0,0,
6.38224E+17,-20.21445,20.17539,22.13321,-8.197248,-20.16702,103.2819,49.26388,0.5844551,-12.37405,-96.38443,-11.3776,14.36226,0,0,0,-60.60989,-54.18174,-3.745231,79.38445,-105.542,-99.98148,0.001067912,-0.1257102,0.09433498,0,0.3,0,0,0,0,
6.38224E+17,-22.85316,19.84809,23.76752,-15.52176,-20.09377,103.3551,49.26388,0.5844551,-12.37405,-96.38443,-11.3776,14.28902,0,0,0,-69.5852,-53.41436,-3.242362,79.38445,-105.542,-99.98148,0.001067912,-0.1257102,0.09433498,0,0.3,0,0,0,0,
6.38224E+17,-24.85576,19.42729,26.0789,-22.99277,-19.72755,102.9889,49.26388,0.5844551,-12.37405,-96.38443,-11.3776,14.36226,0,0,0,-77.50117,-52.07,-1.049869,79.38445,-105.542,-99.98148,0.001067912,-0.1257102,0.09433498,0,0.3,0,0,0,0,
6.38224E+17,-26.29292,18.9831,28.50701,-30.1708,-19.50781,102.6227,49.26388,0.5844551,-12.37405,-96.38443,-11.3776,14.36226,0,0,0,-84.04781,-50.45515,1.76077,79.38445,-105.542,-99.98148,0.001067912,-0.1257102,0.09433498,0,0.3,0,0,0,0,
6.38224E+17,-26.9526,18.86621,29.72107,-33.68657,-19.28808,102.3297,49.26388,0.5844551,-12.37405,-96.38443,-11.3776,14.36226,0,0,0,-87.15965,-49.33773,3.060889,79.38445,-105.542,-99.98148,0.001067912,-0.1257102,0.09433498,0,0.3,0,0,0,0,
6.38224E+17,-27.87143,18.81945,32.07914,-39.61942,-18.62887,101.6705,49.26388,0.5844551,-12.37405,-96.38443,-11.3776,14.36226,0,0,0,-92.11497,-46.62251,5.834856,79.38445,-105.542,-99.98148,0.001067912,-0.1257102,0.09433498,0,0.3,0,0,0,0,
6.38224E+17,-28.64891,18.88959,34.64734,-45.03957,-17.67669,100.1324,49.26388,0.5844551,-12.37405,-96.38443,-11.3776,14.36226,0,0,0,-96.838,-43.18117,8.903243,79.38445,-105.542,-99.98148,0.001067912,-0.1257102,0.09433498,0,0.3,0,0,0,0,
6.38224E+17,-29.00231,19.09999,35.95479,-47.45666,-17.16397,98.52097,49.26388,0.5844551,-12.37405,-96.38443,-11.30435,14.36226,0,0,0,-99.05622,-40.95974,10.33514,79.38445,-105.542,-99.98148,0.001067912,-0.1257102,0.09433498,0,0.3,0,0,0,0,
6.38224E+17,-29.21435,19.84809,38.73312,-51.99786,-16.13853,94.27274,49.26388,0.5844551,-12.37405,-96.38443,-11.3776,14.28902,0,0,0,-101.9423,-35.39619,13.94711,79.38445,-105.542,-99.98148,0.001067912,-0.1257102,0.09433498,0,0.3,0,0,0,0,
