zeyangz2/DNN_classification_different_people_hand/data/zeyang_right_30.csv
Timestamp,Therapist joint angle 0,Therapist joint angle 1,Therapist joint angle 2,Therapist joint angle 3,Therapist joint angle 4,Therapist joint angle 5,Patient joint angle 0,Patient joint angle 1,Patient joint angle 2,Patient joint angle 3,Patient joint angle 4,Patient joint angle 5,Virtual joint angle 0,Virtual joint angle 1,Virtual joint angle 2,Therapist position x,Therapist position y,Therapist position z,Patient position x,Patient position y,Patient position z,Virtual position x,Virtual position y,Virtual position z,Assistive Force, Obstacle Force Magnitude, Therapist Constant Force, Patient Constant Force, Recovery Factor, Assistance Level,label
6.38224E+17,0,0,0,0,0,0,0,0,0,0,0,0,0,0,0,0,0,0,0,0,0,0,0,0,0,0.3,0,0,0,0,0
6.38224E+17,-14.37158,-1.005263,0.1400836,-3.802537,-63.45492,16.41313,-56.87374,-0.4675641,6.23372,-71.11485,-8.521038,-36.83611,0,0,0,-33.17455,-112.3391,-38.87706,-123.799,-110.2997,-87.56558,0.001067912,-0.1257102,0.09433498,0,0.3,0,0,0,0,
6.38224E+17,-14.37158,-1.005263,0.1400836,-3.729292,-63.38167,16.48637,-56.87374,-0.4675641,6.23372,-71.1881,-8.521038,-36.90935,0,0,0,-33.17455,-112.3391,-38.87706,-123.799,-110.2997,-87.56558,0.001067912,-0.1257102,0.09433498,0,0.3,0,0,0,0,
6.38224E+17,-14.37158,-1.005263,0.1400836,-3.802537,-63.45492,16.48637,-56.87374,-0.4675641,6.23372,-71.1881,-8.521038,-36.83611,0,0,0,-33.17455,-112.3391,-38.87706,-123.799,-110.2997,-87.56558,0.001067912,-0.1257102,0.09433498,0,0.3,0,0,0,0,
6.38224E+17,-14.37158,-1.005263,0.1400836,-3.802537,-63.45492,16.48637,-56.87374,-0.4675641,6.23372,-71.1881,-8.521038,-36.83611,0,0,0,-33.17455,-112.3391,-38.87706,-123.799,-110.2997,-87.56558,0.001067912,-0.1257102,0.09433498,0,0.3,0,0,0,0,
6.38224E+17,-14.37158,-1.005263,0.1400836,-3.802537,-63.45492,16.48637,-56.87374,-0.4675641,6.23372,-71.11485,-8.521038,-36.83611,0,0,0,-33.17455,-112.3391,-38.87706,-123.799,-110.2997,-87.56558,0.001067912,-0.1257102,0.09433498,0,0.3,0,0,0,0,
6.38224E+17,-14.37158,-1.005263,0.1400836,-3.802537,-63.45492,16.48637,-56.87374,-0.4675641,6.23372,-71.11485,-8.521038,-36.83611,0,0,0,-33.17455,-112.3391,-38.87706,-123.799,-110.2997,-87.56558,0.001067912,-0.1257102,0.09433498,0,0.3,0,0,0,0,
6.38224E+17,-14.37158,-1.005263,0.1400836,-3.802537,-63.45492,16.48637,-56.87374,-0.4675641,6.23372,-71.1881,-8.521038,-36.83611,0,0,0,-33.17455,-112.3391,-38.87706,-123.799,-110.2997,-87.56558,0.001067912,-0.1257102,0.09433498,0,0.3,0,0,0,0,
6.38224E+17,-14.37158,-1.005263,0.1400836,-3.802537,-63.45492,16.41313,-56.87374,-0.4675641,6.23372,-71.1881,-8.521038,-36.90935,0,0,0,-33.17455,-112.3391,-38.87706,-123.799,-110.2997,-87.56558,0.001067912,-0.1257102,0.09433498,0,0.3,0,0,0,0,
6.38224E+17,-14.37158,-1.005263,0.1400836,-3.729292,-63.38167,16.48637,-56.87374,-0.4675641,6.23372,-71.1881,-8.521038,-36.90935,0,0,0,-33.17455,-112.3391,-38.87706,-123.799,-110.2997,-87.56558,0.001067912,-0.1257102,0.09433498,0,0.3,0,0,0,0,
6.38224E+17,-14.37158,-1.005263,0.1400836,-3.802537,-63.38167,16.41313,-56.87374,-0.4675641,6.23372,-71.1881,-8.521038,-36.83611,0,0,0,-33.17455,-112.3391,-38.87706,-123.799,-110.2997,-87.56558,0.001067912,-0.1257102,0.09433498,0,0.3,0,0,0,0,
6.38224E+17,-14.37158,-1.005263,0.1400836,-3.802537,-63.45492,16.48637,-56.87374,-0.4675641,6.23372,-71.1881,-8.521038,-36.90935,0,0,0,-33.17455,-112.3391,-38.87706,-123.799,-110.2997,-87.56558,0.001067912,-0.1257102,0.09433498,0,0.3,0,0,0,0,
6.38224E+17,-14.37158,-1.005263,0.1400836,-3.802537,-63.45492,16.48637,-56.87374,-0.4675641,6.23372,-71.1881,-8.447793,-36.83611,0,0,0,-33.17455,-112.3391,-38.87706,-123.799,-110.2997,-87.56558,0.001067912,-0.1257102,0.09433498,0,0.3,0,0,0,0,
6.38224E+17,-14.37158,-1.005263,0.1400836,-3.802537,-63.45492,16.48637,-56.87374,-0.4675641,6.23372,-71.1881,-8.447793,-36.83611,0,0,0,-33.17455,-112.3391,-38.87706,-123.799,-110.2997,-87.56558,0.001067912,-0.1257102,0.09433498,0,0.3,0,0,0,0,
6.38224E+17,-14.37158,-1.005263,0.1400836,-3.729292,-63.45492,16.48637,-56.87374,-0.4675641,6.23372,-71.1881,-8.521038,-36.90935,0,0,0,-33.17455,-112.3391,-38.87706,-123.799,-110.2997,-87.56558,0.001067912,-0.1257102,0.09433498,0,0.3,0,0,0,0,
6.38224E+17,-14.37158,-1.005263,0.1400836,-3.802537,-63.38167,16.48637,-56.87374,-0.4675641,6.23372,-71.1881,-8.521038,-36.83611,0,0,0,-33.17455,-112.3391,-38.87706,-123.799,-110.2997,-87.56558,0.001067912,-0.1257102,0.09433498,0,0.3,0,0,0,0,
6.38224E+17,-14.37158,-1.005263,0.1400836,-3.802537,-63.45492,16.48637,-56.87374,-0.4675641,6.23372,-71.1881,-8.521038,-36.90935,0,0,0,-33.17455,-112.3391,-38.87706,-123.799,-110.2997,-87.56558,0.001067912,-0.1257102,0.09433498,0,0.3,0,0,0,0,
6.38224E+17,-14.37158,-1.005263,0.1400836,-3.802537,-63.38167,16.48637,-56.87374,-0.4675641,6.23372,-71.1881,-8.521038,-36.83611,0,0,0,-33.17455,-112.3391,-38.87706,-123.799,-110.2997,-87.56558,0.001067912,-0.1257102,0.09433498,0,0.3,0,0,0,0,
6.38224E+17,-14.37158,-1.005263,0.1400836,-3.729292,-63.38167,16.48637,-56.87374,-0.4675641,6.23372,-71.1881,-8.521038,-36.90935,0,0,0,-33.17455,-112.3391,-38.87706,-123.799,-110.2997,-87.56558,0.001067912,-0.1257102,0.09433498,0,0.3,0,0,0,0,
6.38224E+17,-14.37158,-1.005263,0.1400836,-3.802537,-63.38167,16.48637,-56.87374,-0.4675641,6.23372,-71.11485,-8.447793,-36.83611,0,0,0,-33.17455,-112.3391,-38.87706,-123.799,-110.2997,-87.56558,0.001067912,-0.1257102,0.09433498,0,0.3,0,0,0,0,
6.38224E+17,-14.37158,-1.005263,0.1400836,-3.729292,-63.38167,16.48637,-56.87374,-0.4675641,6.23372,-71.1881,-8.521038,-36.90935,0,0,0,-33.17455,-112.3391,-38.87706,-123.799,-110.2997,-87.56558,0.001067912,-0.1257102,0.09433498,0,0.3,0,0,0,0,
6.38224E+17,-14.37158,-1.005263,0.1400836,-3.802537,-63.45492,16.41313,-56.87374,-0.4675641,6.23372,-71.1881,-8.521038,-36.83611,0,0,0,-33.17455,-112.3391,-38.87706,-123.799,-110.2997,-87.56558,0.001067912,-0.1257102,0.09433498,0,0.3,0,0,0,0,
6.38224E+17,-14.37158,-1.005263,0.1400836,-3.729292,-63.45492,16.41313,-56.87374,-0.4675641,6.23372,-71.1881,-8.521038,-36.90935,0,0,0,-33.17455,-112.3391,-38.87706,-123.799,-110.2997,-87.56558,0.001067912,-0.1257102,0.09433498,0,0.3,0,0,0,0,
6.38224E+17,-14.37158,-1.005263,0.1400836,-3.729292,-63.45492,16.41313,-56.87374,-0.4675641,6.23372,-71.1881,-8.521038,-36.83611,0,0,0,-33.17455,-112.3391,-38.87706,-123.799,-110.2997,-87.56558,0.001067912,-0.1257102,0.09433498,0,0.3,0,0,0,0,
6.38224E+17,-14.37158,-1.005263,0.1400836,-3.802537,-63.45492,16.48637,-56.87374,-0.4675641,6.23372,-71.11485,-8.521038,-36.83611,0,0,0,-33.17455,-112.3391,-38.87706,-123.799,-110.2997,-87.56558,0.001067912,-0.1257102,0.09433498,0,0.3,0,0,0,0,
6.38224E+17,-14.37158,-1.005263,0.1400836,-3.802537,-63.45492,16.48637,-56.87374,-0.4675641,6.23372,-71.1881,-8.521038,-36.90935,0,0,0,-33.17455,-112.3391,-38.87706,-123.799,-110.2997,-87.56558,0.001067912,-0.1257102,0.09433498,0,0.3,0,0,0,0,
6.38224E+17,-14.37158,-1.005263,0.1400836,-3.802537,-63.45492,16.48637,-56.87374,-0.4675641,6.23372,-71.11485,-8.521038,-36.90935,0,0,0,-33.17455,-112.3391,-38.87706,-123.799,-110.2997,-87.56558,0.001067912,-0.1257102,0.09433498,0,0.3,0,0,0,0,
6.38224E+17,-14.37158,-1.005263,0.1400836,-3.729292,-63.38167,16.48637,-56.87374,-0.4675641,6.23372,-71.1881,-8.521038,-36.90935,0,0,0,-33.17455,-112.3391,-38.87706,-123.799,-110.2997,-87.56558,0.001067912,-0.1257102,0.09433498,0,0.3,0,0,0,0,
6.38224E+17,-14.37158,-1.005263,0.1400836,-3.802537,-63.38167,16.48637,-56.87374,-0.4675641,6.23372,-71.11485,-8.521038,-36.83611,0,0,0,-33.17455,-112.3391,-38.87706,-123.799,-110.2997,-87.56558,0.001067912,-0.1257102,0.09433498,0,0.3,0,0,0,0,
6.38224E+17,-14.37158,-1.005263,0.1400836,-3.802537,-63.45492,16.41313,-56.87374,-0.4675641,6.23372,-71.1881,-8.521038,-36.90935,0,0,0,-33.17455,-112.3391,-38.87706,-123.799,-110.2997,-87.56558,0.001067912,-0.1257102,0.09433498,0,0.3,0,0,0,0,
6.38224E+17,-14.3009,-0.9818845,0.1634309,-5.047705,-62.9422,16.41313,-56.87374,-0.4675641,6.23372,-71.1881,-8.521038,-36.83611,0,0,0,-33.02846,-112.2846,-38.78266,-123.799,-110.2997,-87.56558,0.001067912,-0.1257102,0.09433498,0,0.3,0,0,0,0,
6.38224E+17,-14.39514,-0.9351282,0.1634309,-5.853402,-61.62378,16.26664,-56.87374,-0.4675641,6.23372,-71.11485,-8.521038,-36.90935,0,0,0,-33.24198,-112.1758,-38.8354,-123.799,-110.2997,-87.56558,0.001067912,-0.1257102,0.09433498,0,0.3,0,0,0,0,
6.38224E+17,-14.39514,-0.7714807,0.1400836,-5.340686,-60.96458,15.97366,-56.87374,-0.4675641,6.23372,-71.1881,-8.521038,-36.83611,0,0,0,-33.22988,-111.7951,-38.88253,-123.799,-110.2997,-87.56558,0.001067912,-0.1257102,0.09433498,0,0.3,0,0,0,0,
6.38224E+17,-14.39514,0.5143204,-0.1867781,-2.630615,-59.13345,15.24121,-56.87374,-0.4675641,6.23372,-71.1881,-8.521038,-36.90935,0,0,0,-33.04242,-108.8023,-39.61288,-123.799,-110.2997,-87.56558,0.001067912,-0.1257102,0.09433498,0,0.3,0,0,5.06E-05,0,
6.38224E+17,-14.39514,2.150795,-1.02728,0.8119082,-56.86285,13.48332,-56.87374,-0.4675641,6.23372,-71.1881,-8.521038,-36.90935,0,0,0,-32.53411,-104.974,-41.59332,-123.799,-110.2997,-87.56558,0.001067912,-0.1257102,0.09433498,0,0.3,0,0,0.00020687,0,
6.38224E+17,-14.39514,3.015788,-1.867781,2.789528,-55.25146,11.65219,-56.87374,-0.4675641,6.23372,-71.1881,-8.521038,-36.90935,0,0,0,-32.02539,-102.9135,-43.57534,-123.799,-110.2997,-87.56558,0.001067912,-0.1257102,0.09433498,0,0.3,0,0,0.000344412,0,
6.38224E+17,-14.39514,4.465237,-4.529369,6.378541,-50.56377,7.843444,-56.87374,-0.4675641,6.23372,-71.1881,-8.447793,-36.83611,0,0,0,-30.4332,-99.20168,-49.77871,-123.799,-110.2997,-87.56558,0.001067912,-0.1257102,0.09433498,0,0.3,0,0,0.000778913,0,
6.38224E+17,-14.39514,4.745775,-7.564514,8.942122,-44.11819,5.060128,-56.87374,-0.4675641,6.23372,-71.1881,-8.521038,-36.90935,0,0,0,-28.67399,-97.80682,-56.63283,-123.799,-110.2997,-87.56558,0.001067912,-0.1257102,0.09433498,0,0.3,0,0,0.001363783,0,
6.38224E+17,-14.39514,4.628884,-10.24945,10.33378,-36.86692,3.888205,-56.87374,-0.4675641,6.23372,-71.11485,-8.521038,-36.90935,0,0,0,-27.14486,-97.11052,-62.59048,-123.799,-110.2997,-87.56558,0.001067912,-0.1257102,0.09433498,0,0.3,0,0,0.001981056,0,
6.38224E+17,-14.39514,4.55875,-11.27673,10.62676,-33.2779,3.66847,-56.87374,-0.4675641,6.23372,-71.1881,-8.521038,-36.90935,0,0,0,-26.56418,-96.82674,-64.85287,-123.799,-110.2997,-87.56558,0.001067912,-0.1257102,0.09433498,0,0.3,0,0,0.002265929,0,
6.38224E+17,-14.39514,4.371724,-12.11723,11.28597,-25.36743,3.521979,-56.87374,-0.4675641,6.23372,-71.1881,-8.521038,-36.90935,0,0,0,-26.09639,-96.86412,-66.67545,-123.799,-110.2997,-87.56558,0.001067912,-0.1257102,0.09433498,0,0.3,0,0,0.002793632,0,
6.38224E+17,-14.39514,4.137942,-12.11723,12.38465,-18.26265,2.862773,-56.87374,-0.4675641,6.23372,-71.11485,-8.521038,-36.83611,0,0,0,-26.10642,-97.40672,-66.63634,-123.799,-110.2997,-87.56558,0.001067912,-0.1257102,0.09433498,0,0.3,0,0,0.003307989,0,
6.38224E+17,-14.39514,3.950917,-12.02384,13.19034,-14.52714,2.057076,-56.87374,-0.4675641,6.23372,-71.1881,-8.521038,-36.83611,0,0,0,-26.1669,-97.88637,-66.40073,-123.799,-110.2997,-87.56558,0.001067912,-0.1257102,0.09433498,0,0.3,0,0,0.003566316,0,
6.38224E+17,-14.39514,3.366461,-11.79037,14.94823,-7.861832,2.496547,-56.87374,-0.4675641,6.23372,-71.1881,-8.521038,-36.83611,0,0,0,-26.32066,-99.35596,-65.80166,-123.799,-110.2997,-87.56558,0.001067912,-0.1257102,0.09433498,0,0.3,0,0,0.004100026,0,
6.38224E+17,-14.39514,2.688493,-11.79037,16.48637,-2.075463,8.209671,-56.87374,-0.4675641,6.23372,-71.1881,-8.521038,-36.90935,0,0,0,-26.34138,-100.9317,-65.72094,-123.799,-110.2997,-87.56558,0.001067912,-0.1257102,0.09433498,0,0.3,0,0,0.004650047,0,
6.38224E+17,-14.39514,2.150795,-11.81372,17.36532,3.271434,13.1171,-56.87374,-0.4675641,6.23372,-71.11485,-8.521038,-36.90935,0,0,0,-26.34129,-102.1709,-65.72128,-123.799,-110.2997,-87.56558,0.001067912,-0.1257102,0.09433498,0,0.3,0,0,0.005201774,0,
6.38224E+17,-14.39514,1.987147,-11.81372,17.51181,5.322299,14.06928,-56.87374,-0.4675641,6.23372,-71.1881,-8.521038,-36.90935,0,0,0,-26.34471,-102.5515,-65.70796,-123.799,-110.2997,-87.56558,0.001067912,-0.1257102,0.09433498,0,0.3,0,0,0.005474041,0,
6.38224E+17,-14.39514,1.893635,-11.81372,17.07234,8.178861,14.80174,-56.87374,-0.4675641,6.23372,-71.1881,-8.521038,-36.83611,0,0,0,-26.34654,-102.769,-65.70083,-123.799,-110.2997,-87.56558,0.001067912,-0.1257102,0.09433498,0,0.3,0,0,0.00600167,0,
6.38224E+17,-14.39514,1.893635,-11.81372,16.55962,9.424027,15.3877,-56.87374,-0.4675641,6.23372,-71.1881,-8.521038,-36.90935,0,0,0,-26.34654,-102.769,-65.70083,-123.799,-110.2997,-87.56558,0.001067912,-0.1257102,0.09433498,0,0.3,0,0,0.006503941,0,
6.38224E+17,-14.39514,1.893635,-11.81372,16.12015,9.497273,15.53419,-56.87374,-0.4675641,6.23372,-71.1881,-8.521038,-36.83611,0,0,0,-26.34654,-102.769,-65.70083,-123.799,-110.2997,-87.56558,0.001067912,-0.1257102,0.09433498,0,0.3,0,0,0.006746179,0,
6.38224E+17,-14.37158,1.776743,-12.04719,14.87498,9.643764,15.68068,-56.87374,-0.4675641,6.23372,-71.1881,-8.521038,-36.83611,0,0,0,-26.17453,-102.9286,-66.19657,-123.799,-110.2997,-87.56558,0.001067912,-0.1257102,0.09433498,0,0.3,0,0,0.007201664,0,
6.38224E+17,-14.34802,1.683231,-12.07054,13.19034,10.6692,15.16796,-56.87374,-0.4675641,6.23372,-71.1881,-8.521038,-36.83611,0,0,0,-26.12098,-103.1348,-66.23093,-123.799,-110.2997,-87.56558,0.001067912,-0.1257102,0.09433498,0,0.3,0,0,0.007629936,0,
6.38224E+17,-14.34802,1.659852,-12.07054,11.5057,11.76787,13.99604,-56.87374,-0.4675641,6.23372,-71.1881,-8.447793,-36.83611,0,0,0,-26.12138,-103.1892,-66.22939,-123.799,-110.2997,-87.56558,0.001067912,-0.1257102,0.09433498,0,0.3,0,0,0.008039894,0,
6.38224E+17,-14.34802,1.659852,-12.07054,10.70001,12.28059,13.19034,-56.87374,-0.4675641,6.23372,-71.1881,-8.521038,-36.83611,0,0,0,-26.12138,-103.1892,-66.22939,-123.799,-110.2997,-87.56558,0.001067912,-0.1257102,0.09433498,0,0.3,0,0,0.008238088,0,
6.38224E+17,-14.34802,1.449449,-12.51413,9.308348,13.08629,12.45789,-56.87374,-0.4675641,6.23372,-71.1881,-8.521038,-36.83611,0,0,0,-25.87469,-103.4589,-67.19382,-123.799,-110.2997,-87.56558,0.001067912,-0.1257102,0.09433498,0,0.3,0,0,0.008618091,0,
6.38224E+17,-14.32446,1.052019,-12.7943,7.91669,14.03847,11.87193,-56.87374,-0.4675641,6.23372,-71.1881,-8.521038,-36.83611,0,0,0,-25.68068,-104.2408,-67.78006,-123.799,-110.2997,-87.56558,0.001067912,-0.1257102,0.09433498,0,0.3,0,0,0.00897852,0,
6.38224E+17,-14.25378,1.005263,-12.77096,7.110993,14.47795,10.8465,-56.87374,-0.4675641,6.23372,-71.1881,-8.521038,-36.90935,0,0,0,-25.57012,-104.3616,-67.69521,-123.799,-110.2997,-87.56558,0.001067912,-0.1257102,0.09433498,0,0.3,0,0,0.009139863,0,
6.38224E+17,-13.85326,1.005263,-12.49079,5.572844,15.28364,7.403974,-56.87374,-0.4675641,6.23372,-71.1881,-8.521038,-36.90935,0,0,0,-25.01824,-104.5042,-66.90115,-123.799,-110.2997,-87.56558,0.001067912,-0.1257102,0.09433498,0,0.3,0,0,0.009355186,0,
6.38224E+17,-12.81662,1.052019,-11.58024,3.888205,15.8696,2.862773,-56.87374,-0.4675641,6.23372,-71.1881,-8.521038,-36.83611,0,0,0,-23.63809,-104.8373,-64.44608,-123.799,-110.2997,-87.56558,0.001067912,-0.1257102,0.09433498,0,0.3,0,0,0.009275032,0,
6.38224E+17,-11.89778,1.122154,-10.80978,3.448734,15.79636,0.6654179,-56.87374,-0.4675641,6.23372,-71.11485,-8.521038,-36.83611,0,0,0,-22.33085,-105.0222,-62.36217,-123.799,-110.2997,-87.56558,0.001067912,-0.1257102,0.09433498,0,0.3,0,0,0.0090084,0,
6.38224E+17,-9.282625,1.309179,-8.801919,3.81496,15.06391,-1.898163,-56.87374,-0.4675641,6.23372,-71.1881,-8.521038,-36.83611,0,0,0,-18.21291,-105.3829,-56.91848,-123.799,-110.2997,-87.56558,0.001067912,-0.1257102,0.09433498,0,0.3,0,0,0.007745902,0,
6.38224E+17,-5.72507,1.449449,-6.420498,6.232051,13.89198,-2.630615,-56.87374,-0.4675641,6.23372,-71.1881,-8.521038,-36.90935,0,0,0,-11.81056,-105.7905,-50.54501,-123.799,-110.2997,-87.56558,0.001067912,-0.1257102,0.09433498,0,0.3,0,0,0.005156545,0,
6.38224E+17,-3.675354,1.472827,-5.159746,8.06318,13.15953,-1.824918,-56.87374,-0.4675641,6.23372,-71.1881,-8.521038,-36.90935,0,0,0,-7.776558,-106.0322,-47.28611,-123.799,-110.2997,-87.56558,0.001067912,-0.1257102,0.09433498,0,0.3,0,0,0.003256827,0,
6.38224E+17,0.4947592,1.472827,-3.058492,12.38465,11.84112,0.2259469,-56.87374,-0.4675641,6.23372,-71.11485,-8.521038,-36.90935,0,0,0,1.089668,-106.3826,-42.1637,-123.799,-110.2997,-87.56558,0.001067912,-0.1257102,0.09433498,0,0.3,0,0,0,0,
6.38224E+17,4.994712,1.472827,-0.9572379,17.21883,10.52271,2.203566,-56.87374,-0.4675641,6.23372,-71.1881,-8.521038,-36.83611,0,0,0,11.41216,-106.5539,-37.76956,-123.799,-110.2997,-87.56558,0.001067912,-0.1257102,0.09433498,0,0.3,0,0,0,0,
6.38224E+17,7.586308,1.472827,0.2568199,20.22188,9.8635,3.009263,-56.87374,-0.4675641,6.23372,-71.1881,-8.521038,-36.90935,0,0,0,17.6779,-106.5712,-35.61838,-123.799,-110.2997,-87.56558,0.001067912,-0.1257102,0.09433498,0,0.3,0,0,0,0,
6.38224E+17,12.32186,1.56634,2.638241,26.59421,8.764822,4.547412,-56.87374,-0.4675641,6.23372,-71.1881,-8.521038,-36.90935,0,0,0,29.75656,-106.2136,-32.12383,-123.799,-110.2997,-87.56558,0.001067912,-0.1257102,0.09433498,0,0.3,0,0,0,0,
6.38224E+17,16.68045,1.987147,4.692801,32.52707,7.959125,5.646089,-56.87374,-0.4675641,6.23372,-71.11485,-8.521038,-36.90935,0,0,0,41.38441,-104.929,-30.2374,-123.799,-110.2997,-87.56558,0.001067912,-0.1257102,0.09433498,0,0.3,0,0,0,0,
6.38224E+17,20.59141,2.828763,6.74736,37.87396,7.446409,6.232051,-56.87374,-0.4675641,6.23372,-71.1881,-8.521038,-36.83611,0,0,0,52.3525,-102.4954,-29.00498,-123.799,-110.2997,-87.56558,0.001067912,-0.1257102,0.09433498,0,0.3,0,0,0,0,
6.38224E+17,22.3584,3.343083,7.821334,40.07132,7.153428,6.378541,-56.87374,-0.4675641,6.23372,-71.1881,-8.521038,-36.83611,0,0,0,57.54294,-100.9832,-28.45217,-123.799,-110.2997,-87.56558,0.001067912,-0.1257102,0.09433498,0,0.3,0,0,0,0,
6.38224E+17,25.70392,4.979557,10.06267,44.75901,6.567466,6.598277,-56.87374,-0.4675641,6.23372,-71.1881,-8.521038,-36.83611,0,0,0,67.72389,-96.37389,-27.65477,-123.799,-110.2997,-87.56558,0.001067912,-0.1257102,0.09433498,0,0.3,0,0,0,0,
6.38224E+17,28.31907,6.990083,12.00049,48.71425,5.835015,6.671522,-56.87374,-0.4675641,6.23372,-71.11485,-8.521038,-36.83611,0,0,0,75.94132,-90.85738,-27.42406,-123.799,-110.2997,-87.56558,0.001067912,-0.1257102,0.09433498,0,0.3,0,0,0,0,
6.38224E+17,29.42639,8.112236,13.02777,50.54538,5.395544,6.525032,-56.87374,-0.4675641,6.23372,-71.1881,-8.521038,-36.90935,0,0,0,79.62867,-87.75032,-27.18395,-123.799,-110.2997,-87.56558,0.001067912,-0.1257102,0.09433498,0,0.3,0,0,0,0,
6.38224E+17,31.14627,10.6137,15.10568,53.91465,4.370111,6.08556,-56.87374,-0.4675641,6.23372,-71.1881,-8.521038,-36.83611,0,0,0,85.76598,-80.83107,-26.43335,-123.799,-110.2997,-87.56558,0.001067912,-0.1257102,0.09433498,0,0.3,0,0,0,0,
6.38224E+17,32.41851,13.37233,17.13689,57.13744,3.198189,5.93907,-56.87374,-0.4675641,6.23372,-71.1881,-8.521038,-36.83611,0,0,0,90.61524,-73.23878,-25.66512,-123.799,-110.2997,-87.56558,0.001067912,-0.1257102,0.09433498,0,0.3,0,0,0,0,
6.38224E+17,33.21954,16.38812,18.91129,60.21374,1.440305,6.08556,-56.87374,-0.4675641,6.23372,-71.1881,-8.521038,-36.90935,0,0,0,93.76514,-65.17826,-25.16846,-123.799,-110.2997,-87.56558,0.001067912,-0.1257102,0.09433498,0,0.3,0,0,0,0,
6.38224E+17,33.50227,18.0246,19.86852,61.67865,0.268382,6.305296,-56.87374,-0.4675641,6.23372,-71.1881,-8.521038,-36.90935,0,0,0,95.00861,-60.80049,-24.81998,-123.799,-110.2997,-87.56558,0.001067912,-0.1257102,0.09433498,0,0.3,0,0,0,0,
6.38224E+17,33.80854,20.97025,21.68961,64.24223,-2.075463,6.525032,-56.87374,-0.4675641,6.23372,-71.1881,-8.521038,-36.90935,0,0,0,96.70628,-52.83505,-23.93848,-123.799,-110.2997,-87.56558,0.001067912,-0.1257102,0.09433498,0,0.3,0,0,0,0,
6.38224E+17,33.9499,23.72888,23.30057,66.58607,-4.346064,6.598277,-56.87374,-0.4675641,6.23372,-71.1881,-8.447793,-36.83611,0,0,0,97.63346,-45.46303,-23.32909,-123.799,-110.2997,-87.56558,0.001067912,-0.1257102,0.09433498,0,0.3,0,0,0,0,
6.38224E+17,33.9499,25.13157,24.00099,67.68475,-5.444741,6.671522,-56.87374,-0.4675641,6.23372,-71.1881,-8.521038,-36.83611,0,0,0,97.71336,-41.83683,-23.21042,-123.799,-110.2997,-87.56558,0.001067912,-0.1257102,0.09433498,0,0.3,0,0,0,0,
6.38224E+17,33.92635,28.1006,25.30844,69.66236,-7.715342,6.744767,-56.87374,-0.4675641,6.23372,-71.1881,-8.521038,-36.83611,0,0,0,97.46951,-34.39035,-23.44404,-123.799,-110.2997,-87.56558,0.001067912,-0.1257102,0.09433498,0,0.3,0,0,0,0,
6.38224E+17,33.87922,30.6722,26.52249,71.27377,-9.399981,6.598277,-56.87374,-0.4675641,6.23372,-71.1881,-8.521038,-36.90935,0,0,0,97.12997,-27.94087,-23.69207,-123.799,-110.2997,-87.56558,0.001067912,-0.1257102,0.09433498,0,0.3,0,0,0,0,
6.38224E+17,33.80854,32.00476,27.03613,71.93297,-10.05919,6.305296,-56.87374,-0.4675641,6.23372,-71.1881,-8.447793,-36.90935,0,0,0,96.64779,-24.75339,-24.02582,-123.799,-110.2997,-87.56558,0.001067912,-0.1257102,0.09433498,0,0.3,0,0,0,0,
6.38224E+17,33.5965,34.66988,27.59647,72.88515,-11.30435,5.426354,-56.87374,-0.4675641,6.23372,-71.1881,-8.521038,-36.83611,0,0,0,94.86808,-18.97328,-25.54316,-123.799,-110.2997,-87.56558,0.001067912,-0.1257102,0.09433498,0,0.3,0,0,0,0,
6.38224E+17,33.07819,37.28823,27.61982,72.8119,-12.11005,4.327676,-56.87374,-0.4675641,6.23372,-71.1881,-8.521038,-36.83611,0,0,0,91.64481,-14.01711,-27.65008,-123.799,-110.2997,-87.56558,0.001067912,-0.1257102,0.09433498,0,0.3,0,0,0,0,
6.38224E+17,32.55987,38.69093,27.54977,72.44569,-12.32979,3.66847,-56.87374,-0.4675641,6.23372,-71.1881,-8.521038,-36.90935,0,0,0,89.20908,-11.51973,-28.64214,-123.799,-110.2997,-87.56558,0.001067912,-0.1257102,0.09433498,0,0.3,0,0,0,0,
6.38224E+17,31.26407,41.26253,26.80266,71.12727,-12.32979,2.716283,-56.87374,-0.4675641,6.23372,-71.1881,-8.521038,-36.90935,0,0,0,83.22863,-7.727841,-31.26936,-123.799,-110.2997,-87.56558,0.001067912,-0.1257102,0.09433498,0,0.3,0,0,0,0,
6.38224E+17,29.44995,43.83413,25.37848,69.14965,-12.1833,1.910586,-56.87374,-0.4675641,6.23372,-71.1881,-8.521038,-36.90935,0,0,0,75.39407,-4.776629,-34.81942,-123.799,-110.2997,-87.56558,0.001067912,-0.1257102,0.09433498,0,0.3,0,0,0,0,
6.38224E+17,26.76412,46.73303,23.76752,66.21985,-12.25654,1.471115,-56.87374,-0.4675641,6.23372,-71.1881,-8.521038,-36.83611,0,0,0,65.35989,-1.589162,-38.75779,-123.799,-110.2997,-87.56558,0.001067912,-0.1257102,0.09433498,0,0.3,0,0,0,0,
6.38224E+17,25.16204,48.06559,23.0671,64.53521,-12.47628,1.471115,-56.87374,-0.4675641,6.23372,-71.1881,-8.521038,-36.83611,0,0,0,60.10458,-0.1377835,-40.40128,-123.799,-110.2997,-87.56558,0.001067912,-0.1257102,0.09433498,0,0.3,0,0,0,0,
6.38224E+17,21.43956,50.84759,22.15656,60.87295,-13.13548,1.471115,-56.87374,-0.4675641,6.23372,-71.1881,-8.521038,-36.83611,0,0,0,49.15752,3.255807,-43.16931,-123.799,-110.2997,-87.56558,0.001067912,-0.1257102,0.09433498,0,0.3,0,0,0,0,
6.38224E+17,17.29301,53.55946,22.08651,57.13744,-14.23416,1.471115,-56.87374,-0.4675641,6.23372,-71.1881,-8.521038,-36.90935,0,0,0,38.45,7.062176,-44.84819,-123.799,-110.2997,-87.56558,0.001067912,-0.1257102,0.09433498,0,0.3,0,0,0,0,
6.38224E+17,15.17262,54.65824,22.08651,55.15982,-14.74688,1.471115,-56.87374,-0.4675641,6.23372,-71.11485,-8.521038,-36.83611,0,0,0,33.31195,8.561356,-45.50962,-123.799,-110.2997,-87.56558,0.001067912,-0.1257102,0.09433498,0,0.3,0,0,0,0,
6.38224E+17,11.09674,55.96742,22.08651,51.05809,-15.99205,1.471115,-56.87374,-0.4675641,6.23372,-71.1881,-8.521038,-36.90935,0,0,0,24.01432,10.29534,-45.91113,-123.799,-110.2997,-87.56558,0.001067912,-0.1257102,0.09433498,0,0.3,0,0,0,0,
6.38224E+17,7.421387,56.22458,22.06317,47.02961,-17.45695,1.69085,-56.87374,-0.4675641,6.23372,-71.1881,-8.521038,-36.90935,0,0,0,16.04556,10.60877,-45.16608,-123.799,-110.2997,-87.56558,0.001067912,-0.1257102,0.09433498,0,0.3,0,0,0,0,
6.38224E+17,5.748631,56.08431,21.94643,44.97874,-18.1894,1.910586,-56.87374,-0.4675641,6.23372,-71.1881,-8.521038,-36.83611,0,0,0,12.44479,10.32515,-44.73105,-123.799,-110.2997,-87.56558,0.001067912,-0.1257102,0.09433498,0,0.3,0,0,0,0,
6.38224E+17,2.497356,55.24269,21.24601,41.24324,-19.58106,2.496547,-56.87374,-0.4675641,6.23372,-71.1881,-8.521038,-36.83611,0,0,0,5.418141,8.620313,-44.1226,-123.799,-110.2997,-87.56558,0.001067912,-0.1257102,0.09433498,0,0.3,0,0,0,0,
6.38224E+17,-0.7774788,53.67635,20.00861,37.14151,-20.67974,3.81496,-56.87374,-0.4675641,6.23372,-71.1881,-8.521038,-36.83611,0,0,0,-1.69094,5.486789,-43.74496,-123.799,-110.2997,-87.56558,0.001067912,-0.1257102,0.09433498,0,0.3,0,0,0,0,
6.38224E+17,-3.863834,51.52556,18.44434,32.52707,-21.19245,6.305296,-56.87374,-0.4675641,6.23372,-71.1881,-8.521038,-36.90935,0,0,0,-8.433666,1.247815,-43.47901,-123.799,-110.2997,-87.56558,0.001067912,-0.1257102,0.09433498,0,0.3,0,0,0,0,
6.38224E+17,-5.324551,50.21638,17.55714,30.03673,-21.19245,7.696954,-56.87374,-0.4675641,6.23372,-71.11485,-8.521038,-36.83611,0,0,0,-11.65118,-1.313092,-43.33649,-123.799,-110.2997,-87.56558,0.001067912,-0.1257102,0.09433498,0,0.3,0,0,0,0,
6.38224E+17,-8.104627,47.50451,16.01623,25.34904,-20.97272,10.77325,-56.87374,-0.4675641,6.23372,-71.1881,-8.521038,-36.83611,0,0,0,-17.88695,-6.500812,-42.74244,-123.799,-110.2997,-87.56558,0.001067912,-0.1257102,0.09433498,0,0.3,0,0,0,0,
6.38224E+17,-10.81402,45.07318,14.84886,21.02757,-20.31351,13.70306,-56.87374,-0.4675641,6.23372,-71.1881,-8.521038,-36.90935,0,0,0,-24.08046,-11.13376,-42.28344,-123.799,-110.2997,-87.56558,0.001067912,-0.1257102,0.09433498,0,0.3,0,0,0,0,
6.38224E+17,-12.08626,44.02116,14.38192,18.90347,-19.87404,15.09472,-56.87374,-0.4675641,6.23372,-71.11485,-8.521038,-36.83611,0,0,0,-27.01301,-13.15292,-42.19796,-123.799,-110.2997,-87.56558,0.001067912,-0.1257102,0.09433498,0,0.3,0,0,0,0,
6.38224E+17,-14.84277,42.08076,13.65815,14.72849,-18.77536,17.87803,-56.87374,-0.4675641,6.23372,-71.1881,-8.521038,-36.83611,0,0,0,-33.41967,-16.86094,-42.24293,-123.799,-110.2997,-87.56558,0.001067912,-0.1257102,0.09433498,0,0.3,0,0,0,0,
6.38224E+17,-17.34013,40.56118,13.16786,10.55352,-17.60344,20.29512,-56.87374,-0.4675641,6.23372,-71.1881,-8.521038,-36.83611,0,0,0,-39.24797,-19.78168,-42.64945,-123.799,-110.2997,-87.56558,0.001067912,-0.1257102,0.09433498,0,0.3,0,0,0,0,
6.38224E+17,-18.51813,39.90659,12.98108,8.575896,-17.01748,21.24731,-56.87374,-0.4675641,6.23372,-71.1881,-8.521038,-36.83611,0,0,0,-42.00193,-21.04307,-42.95132,-123.799,-110.2997,-87.56558,0.001067912,-0.1257102,0.09433498,0,0.3,0,0,0,0,
6.38224E+17,-21.03905,38.92471,12.77096,4.474167,-16.21178,22.71221,-56.87374,-0.4675641,6.23372,-71.1881,-8.521038,-36.90935,0,0,0,-47.82658,-22.91751,-44.01082,-123.799,-110.2997,-87.56558,0.001067912,-0.1257102,0.09433498,0,0.3,0,0,0,0,
6.38224E+17,-23.46572,38.36363,12.46744,0.738663,-15.47933,23.88414,-56.87374,-0.4675641,6.23372,-71.1881,-8.521038,-36.83611,0,0,0,-53.09855,-24.09175,-46.03163,-123.799,-110.2997,-87.56558,0.001067912,-0.1257102,0.09433498,0,0.3,0,0,0,0,
6.38224E+17,-26.17512,38.17661,12.25731,-2.99684,-14.4539,24.54334,-56.87374,-0.4675641,6.23372,-71.1881,-8.521038,-36.83611,0,0,0,-58.72941,-24.53819,-48.86511,-123.799,-110.2997,-87.56558,0.001067912,-0.1257102,0.09433498,0,0.3,0,0,0,0,
6.38224E+17,-27.6594,38.15323,12.23397,-4.82797,-13.86794,24.83632,-56.87374,-0.4675641,6.23372,-71.1881,-8.521038,-36.83611,0,0,0,-61.79564,-24.59249,-50.4437,-123.799,-110.2997,-87.56558,0.001067912,-0.1257102,0.09433498,0,0.3,0,0,0,0,
6.38224E+17,-31.02847,38.12985,12.23397,-8.416983,-12.76926,25.05606,-56.87374,-0.4675641,6.23372,-71.11485,-8.447793,-36.83611,0,0,0,-68.63522,-24.63529,-54.25026,-123.799,-110.2997,-87.56558,0.001067912,-0.1257102,0.09433498,0,0.3,0,0,0,0,
6.38224E+17,-34.7745,38.12985,12.16393,-12.95818,-11.67058,25.42229,-56.87374,-0.4675641,6.23372,-71.1881,-8.521038,-36.83611,0,0,0,-75.8523,-24.66973,-59.10914,-123.799,-110.2997,-87.56558,0.001067912,-0.1257102,0.09433498,0,0.3,0,0,0,0,
6.38224E+17,-36.58862,38.15323,12.16393,-15.37527,-10.86488,25.49553,-56.87374,-0.4675641,6.23372,-71.1881,-8.521038,-36.90935,0,0,0,-79.25249,-24.62694,-61.59213,-123.799,-110.2997,-87.56558,0.001067912,-0.1257102,0.09433498,0,0.3,0,0,0,0,
6.38224E+17,-40.05193,38.31688,12.16393,-20.35595,-8.740773,25.56878,-56.87374,-0.4675641,6.23372,-71.1881,-8.521038,-36.90935,0,0,0,-85.40526,-24.32777,-66.75513,-123.799,-110.2997,-87.56558,0.001067912,-0.1257102,0.09433498,0,0.3,0,0,0,0,
6.38224E+17,-43.16185,38.73769,12.21062,-24.97039,-6.836399,25.56878,-56.87374,-0.4675641,6.23372,-71.1881,-8.521038,-36.83611,0,0,0,-90.44652,-23.53865,-71.90562,-123.799,-110.2997,-87.56558,0.001067912,-0.1257102,0.09433498,0,0.3,0,0,0,0,
6.38224E+17,-44.62257,39.11173,12.3507,-27.46073,-5.737722,25.56878,-56.87374,-0.4675641,6.23372,-71.1881,-8.521038,-36.90935,0,0,0,-92.71521,-22.79203,-74.40516,-123.799,-110.2997,-87.56558,0.001067912,-0.1257102,0.09433498,0,0.3,0,0,0,0,
6.38224E+17,-46.97857,40.14038,12.88769,-31.70894,-3.979838,25.49553,-56.87374,-0.4675641,6.23372,-71.1881,-8.521038,-36.83611,0,0,0,-96.27411,-20.67505,-78.50557,-123.799,-110.2997,-87.56558,0.001067912,-0.1257102,0.09433498,0,0.3,0,0,0,0,
6.38224E+17,-49.00472,41.4028,13.09782,-35.29796,-2.73467,25.49553,-56.87374,-0.4675641,6.23372,-71.1881,-8.521038,-36.83611,0,0,0,-98.30193,-18.34002,-82.91165,-123.799,-110.2997,-87.56558,0.001067912,-0.1257102,0.09433498,0,0.3,0,0,0,0,
6.38224E+17,-50.93663,42.80549,13.21455,-38.4475,-1.635992,25.20255,-56.87374,-0.4675641,6.23372,-71.1881,-8.521038,-36.90935,0,0,0,-99.63226,-15.85614,-87.48679,-123.799,-110.2997,-87.56558,0.001067912,-0.1257102,0.09433498,0,0.3,0,0,0,0,
6.38224E+17,-51.9026,43.50684,13.37798,-39.76591,-1.123276,24.98281,-56.87374,-0.4675641,6.23372,-71.1881,-8.521038,-36.83611,0,0,0,-100.394,-14.57791,-89.63838,-123.799,-110.2997,-87.56558,0.001067912,-0.1257102,0.09433498,0,0.3,0,0,0,0,
6.38224E+17,-53.85807,44.83939,14.05505,-42.25625,-0.3175794,24.61659,-56.87374,-0.4675641,6.23372,-71.1881,-8.521038,-36.90935,0,0,0,-102.5125,-11.97987,-93.48165,-123.799,-110.2997,-87.56558,0.001067912,-0.1257102,0.09433498,0,0.3,0,0,0,0,
6.38224E+17,-55.83711,46.17195,15.61932,-44.89308,0.1951368,24.76308,-56.87374,-0.4675641,6.23372,-71.11485,-8.521038,-36.83611,0,0,0,-106.1182,-8.874097,-96.33255,-123.799,-110.2997,-87.56558,0.001067912,-0.1257102,0.09433498,0,0.3,0,0,0,0,
6.38224E+17,-56.85019,46.94343,16.85673,-46.28474,0.3416272,24.83632,-56.87374,-0.4675641,6.23372,-71.1881,-8.521038,-36.90935,0,0,0,-108.5984,-6.834155,-97.42095,-123.799,-110.2997,-87.56558,0.001067912,-0.1257102,0.09433498,0,0.3,0,0,0,0,
6.38224E+17,-57.41562,48.55653,19.49497,-49.1413,-0.02459868,25.27579,-56.87374,-0.4675641,6.23372,-71.11485,-8.521038,-36.90935,0,0,0,-111.8668,-2.39478,-96.85119,-123.799,-110.2997,-87.56558,0.001067912,-0.1257102,0.09433498,0,0.3,0,0,0,0,
6.38224E+17,-57.41562,50.56705,22.20325,-50.6062,-0.9035407,27.03368,-56.87374,-0.4675641,6.23372,-71.1881,-8.447793,-36.90935,0,0,0,-113.8289,2.883349,-95.59708,-123.799,-110.2997,-87.56558,0.001067912,-0.1257102,0.09433498,0,0.3,0,0,0,0,
6.38224E+17,-57.41562,51.66583,23.67413,-50.97242,-1.635992,28.13236,-56.87374,-0.4675641,6.23372,-71.1881,-8.521038,-36.83611,0,0,0,-114.808,5.822822,-94.97135,-123.799,-110.2997,-87.56558,0.001067912,-0.1257102,0.09433498,0,0.3,0,0,0,0,
6.38224E+17,-57.41562,53.48933,26.8727,-51.63163,-3.320631,30.18322,-56.87374,-0.4675641,6.23372,-71.1881,-8.521038,-36.83611,0,0,0,-117.6396,11.57961,-93.16154,-123.799,-110.2997,-87.56558,0.001067912,-0.1257102,0.09433498,0,0.3,0,0,0,0,
6.38224E+17,-57.41562,54.705,29.86115,-52.51057,-5.00527,31.9411,-56.87374,-0.4675641,6.23372,-71.1881,-8.521038,-36.83611,0,0,0,-120.8648,16.54294,-91.10018,-123.799,-110.2997,-87.56558,0.001067912,-0.1257102,0.09433498,0,0.3,0,0,0,0,
6.38224E+17,-57.41562,55.05567,31.40207,-53.02329,-5.884212,32.7468,-56.87374,-0.4675641,6.23372,-71.1881,-8.521038,-36.83611,0,0,0,-122.9024,18.8397,-89.79787,-123.799,-110.2997,-87.56558,0.001067912,-0.1257102,0.09433498,0,0.3,0,0,0,0,
6.38224E+17,-57.41562,55.28945,34.48391,-54.12197,-7.568851,34.28495,-56.87374,-0.4675641,6.23372,-71.1881,-8.521038,-36.90935,0,0,0,-127.5974,23.0505,-86.7971,-123.799,-110.2997,-87.56558,0.001067912,-0.1257102,0.09433498,0,0.3,0,0,0,0,
6.38224E+17,-57.41562,55.19594,37.82257,-55.66012,-8.960509,36.04284,-56.87374,-0.4675641,6.23372,-71.1881,-8.521038,-36.90935,0,0,0,-133.0338,27.50988,-83.32241,-123.799,-110.2997,-87.56558,0.001067912,-0.1257102,0.09433498,0,0.3,0,0,0,0,
6.38224E+17,-57.41562,54.77513,41.06784,-57.5645,-9.985942,37.72747,-56.87374,-0.4675641,6.23372,-71.1881,-8.521038,-36.90935,0,0,0,-138.6237,31.74603,-79.74971,-123.799,-110.2997,-87.56558,0.001067912,-0.1257102,0.09433498,0,0.3,0,0,0,0,
6.38224E+17,-57.41562,54.35432,42.84223,-58.73641,-10.49866,38.60641,-56.87374,-0.4675641,6.23372,-71.1881,-8.521038,-36.90935,0,0,0,-141.8837,33.939,-77.6661,-123.799,-110.2997,-87.56558,0.001067912,-0.1257102,0.09433498,0,0.3,0,0,0,0,
6.38224E+17,-57.39207,53.18541,46.01746,-60.93377,-11.23111,40.14456,-56.87374,-0.4675641,6.23372,-71.1881,-8.521038,-36.90935,0,0,0,-148.1398,37.50373,-73.5817,-123.799,-110.2997,-87.56558,0.001067912,-0.1257102,0.09433498,0,0.3,0,0,0,0,
6.38224E+17,-57.39207,51.36191,49.00591,-63.27761,-11.81707,41.68271,-56.87374,-0.4675641,6.23372,-71.1881,-8.521038,-36.83611,0,0,0,-154.9243,40.03534,-69.24151,-123.799,-110.2997,-87.56558,0.001067912,-0.1257102,0.09433498,0,0.3,0,0,0,0,
6.38224E+17,-57.39207,50.14624,50.50013,-64.52278,-11.89032,42.56165,-56.87374,-0.4675641,6.23372,-71.1881,-8.521038,-36.83611,0,0,0,-158.6627,40.89969,-66.84998,-123.799,-110.2997,-87.56558,0.001067912,-0.1257102,0.09433498,0,0.3,0,0,0,0,
6.38224E+17,-57.39207,47.34086,53.13838,-66.64689,-11.96356,44.24629,-56.87374,-0.4675641,6.23372,-71.11485,-8.447793,-36.83611,0,0,0,-165.9941,41.42074,-62.15995,-123.799,-110.2997,-87.56558,0.001067912,-0.1257102,0.09433498,0,0.3,0,0,0,0,
6.38224E+17,-57.39207,44.27832,55.54315,-68.33153,-11.81707,45.78444,-56.87374,-0.4675641,6.23372,-71.1881,-8.447793,-36.83611,0,0,0,-173.0471,41.00006,-57.648,-123.799,-110.2997,-87.56558,0.001067912,-0.1257102,0.09433498,0,0.3,0,0,0,0,
6.38224E+17,-57.39207,42.61847,56.61712,-68.99074,-11.67058,46.44365,-56.87374,-0.4675641,6.23372,-71.11485,-8.447793,-36.83611,0,0,0,-176.4599,40.2697,-55.46475,-123.799,-110.2997,-87.56558,0.001067912,-0.1257102,0.09433498,0,0.3,0,0,0,0,
6.38224E+17,-57.36851,39.06498,58.85846,-70.08942,-11.3776,47.76206,-56.87374,-0.4675641,6.23372,-71.1881,-8.521038,-36.83611,0,0,0,-183.3125,38.42485,-50.97475,-123.799,-110.2997,-87.56558,0.001067912,-0.1257102,0.09433498,0,0.3,0,0,0,0,
6.38224E+17,-57.32139,35.34784,61.02975,-70.96836,-11.08462,48.93398,-56.87374,-0.4675641,6.23372,-71.1881,-8.521038,-36.90935,0,0,0,-189.7486,35.90937,-46.63354,-123.799,-110.2997,-87.56558,0.001067912,-0.1257102,0.09433498,0,0.3,0,0,0,0,
6.38224E+17,-57.22715,33.33732,62.03368,-71.33459,-10.93813,49.4467,-56.87374,-0.4675641,6.23372,-71.1881,-8.521038,-36.90935,0,0,0,-192.7041,34.09997,-44.28986,-123.799,-110.2997,-87.56558,0.001067912,-0.1257102,0.09433498,0,0.3,0,0,0,0,
6.38224E+17,-57.01511,29.69032,63.29443,-71.8473,-10.5719,50.54538,-56.87374,-0.4675641,6.23372,-71.1881,-8.521038,-36.83611,0,0,0,-197.0948,29.47158,-40.42898,-123.799,-110.2997,-87.56558,0.001067912,-0.1257102,0.09433498,0,0.3,0,0,0,0,
6.38224E+17,-56.85019,26.20697,63.94816,-71.99379,-10.35217,51.42432,-56.87374,-0.4675641,6.23372,-71.1881,-8.521038,-36.83611,0,0,0,-200.4725,23.67414,-37.4151,-123.799,-110.2997,-87.56558,0.001067912,-0.1257102,0.09433498,0,0.3,0,0,0,0,
6.38224E+17,-56.66171,22.79375,64.0649,-71.55432,-10.13243,51.93703,-56.87374,-0.4675641,6.23372,-71.1881,-8.521038,-36.83611,0,0,0,-202.892,16.69079,-34.88066,-123.799,-110.2997,-87.56558,0.001067912,-0.1257102,0.09433498,0,0.3,0,0,0,0,
6.38224E+17,-56.59103,21.017,64.0182,-71.26134,-10.13243,52.01028,-56.87374,-0.4675641,6.23372,-71.1881,-8.521038,-36.83611,0,0,0,-203.9753,12.7566,-33.80725,-123.799,-110.2997,-87.56558,0.001067912,-0.1257102,0.09433498,0,0.3,0,0,0,0,
6.38224E+17,-56.40255,17.65055,63.59795,-70.60213,-10.13243,52.15677,-56.87374,-0.4675641,6.23372,-71.1881,-8.521038,-36.83611,0,0,0,-205.3323,4.486766,-31.94069,-123.799,-110.2997,-87.56558,0.001067912,-0.1257102,0.09433498,0,0.3,0,0,0,0,
6.38224E+17,-56.14339,14.65813,62.57067,-69.72319,-9.399981,52.08353,-56.87374,-0.4675641,6.23372,-71.1881,-8.521038,-36.83611,0,0,0,-205.4234,-4.333872,-30.53689,-123.799,-110.2997,-87.56558,0.001067912,-0.1257102,0.09433498,0,0.3,0,0,0,0,
6.38224E+17,-55.97847,13.44247,61.77686,-69.21047,-8.887264,52.01028,-56.87374,-0.4675641,6.23372,-71.1881,-8.521038,-36.90935,0,0,0,-204.8804,-8.712372,-30.04437,-123.799,-110.2997,-87.56558,0.001067912,-0.1257102,0.09433498,0,0.3,0,0,0,0,
6.38224E+17,-55.53083,11.01113,59.74565,-68.03855,-7.935077,51.35107,-56.87374,-0.4675641,6.23372,-71.11485,-8.521038,-36.83611,0,0,0,-202.8779,-18.36718,-29.07653,-123.799,-110.2997,-87.56558,0.001067912,-0.1257102,0.09433498,0,0.3,0,0,0,0,
6.38224E+17,-55.03607,8.813582,57.55101,-66.57365,-7.27587,50.10591,-56.87374,-0.4675641,6.23372,-71.11485,-8.447793,-36.90935,0,0,0,-200.2114,-27.76685,-28.34818,-123.799,-110.2997,-87.56558,0.001067912,-0.1257102,0.09433498,0,0.3,0,0,0,0,
6.38224E+17,-54.77691,7.714807,56.45369,-65.76794,-6.98289,49.22696,-56.87374,-0.4675641,6.23372,-71.11485,-8.521038,-36.90935,0,0,0,-198.7402,-32.43945,-28.03421,-123.799,-110.2997,-87.56558,0.001067912,-0.1257102,0.09433498,0,0.3,0,0,0,0,
6.38224E+17,-54.18791,5.493878,54.25905,-64.37629,-6.250438,47.32259,-56.87374,-0.4675641,6.23372,-71.11485,-8.521038,-36.90935,0,0,0,-195.4148,-41.77576,-27.34968,-123.799,-110.2997,-87.56558,0.001067912,-0.1257102,0.09433498,0,0.3,0,0,0,0,
6.38224E+17,-53.59891,3.38984,52.08775,-63.20437,-5.591231,45.27173,-56.87374,-0.4675641,6.23372,-71.1881,-8.521038,-36.83611,0,0,0,-191.8224,-50.70253,-26.92067,-123.799,-110.2997,-87.56558,0.001067912,-0.1257102,0.09433498,0,0.3,0,0,0,0,
6.38224E+17,-53.26907,2.361199,51.06047,-62.54516,-5.225006,44.39278,-56.87374,-0.4675641,6.23372,-71.1881,-8.521038,-36.90935,0,0,0,-189.9104,-54.96656,-26.63558,-123.799,-110.2997,-87.56558,0.001067912,-0.1257102,0.09433498,0,0.3,0,0,0,0,
6.38224E+17,-52.63295,0.5844551,49.19269,-61.22675,-4.639044,42.70815,-56.87374,-0.4675641,6.23372,-71.11485,-8.447793,-36.83611,0,0,0,-186.1951,-62.43628,-26.16273,-123.799,-110.2997,-87.56558,0.001067912,-0.1257102,0.09433498,0,0.3,0,0,0,0,
6.38224E+17,-51.97327,-0.9351282,47.30156,-59.98158,-3.833347,41.09675,-56.87374,-0.4675641,6.23372,-71.11485,-8.447793,-36.83611,0,0,0,-182.2285,-69.25624,-25.84059,-123.799,-110.2997,-87.56558,0.001067912,-0.1257102,0.09433498,0,0.3,0,0,0,0,
6.38224E+17,-51.14867,-1.005263,44.45319,-58.66317,-3.027651,39.26562,-56.87374,-0.4675641,6.23372,-71.1881,-8.521038,-36.83611,0,0,0,-176.5626,-74.1778,-26.12942,-123.799,-110.2997,-87.56558,0.001067912,-0.1257102,0.09433498,0,0.3,0,0,0,0,
6.38224E+17,-50.74816,-1.005263,43.30918,-57.93071,-2.807915,38.31343,-56.87374,-0.4675641,6.23372,-71.11485,-8.521038,-36.90935,0,0,0,-174.078,-76.02337,-26.11294,-123.799,-110.2997,-87.56558,0.001067912,-0.1257102,0.09433498,0,0.3,0,0,0,0,
6.38224E+17,-49.99424,-1.005263,40.85772,-56.68555,-2.295199,36.04284,-56.87374,-0.4675641,6.23372,-71.1881,-8.521038,-36.90935,0,0,0,-168.9481,-79.84699,-26.55672,-123.799,-110.2997,-87.56558,0.001067912,-0.1257102,0.09433498,0,0.3,0,0,0,0,
6.38224E+17,-49.1932,-1.005263,38.33621,-55.66012,-1.562747,33.18628,-56.87374,-0.4675641,6.23372,-71.11485,-8.521038,-36.90935,0,0,0,-163.5268,-83.5872,-27.16355,-123.799,-110.2997,-87.56558,0.001067912,-0.1257102,0.09433498,0,0.3,0,0,0,0,
6.38224E+17,-48.81624,-1.005263,37.0988,-55.1474,-1.050031,31.64813,-56.87374,-0.4675641,6.23372,-71.1881,-8.521038,-36.83611,0,0,0,-160.8799,-85.34902,-27.59081,-123.799,-110.2997,-87.56558,0.001067912,-0.1257102,0.09433498,0,0.3,0,0,0,0,
6.38224E+17,-48.0152,-1.005263,34.81077,-54.26846,-0.02459868,28.35209,-56.87374,-0.4675641,6.23372,-71.11485,-8.521038,-36.83611,0,0,0,-155.6924,-88.47546,-28.23874,-123.799,-110.2997,-87.56558,0.001067912,-0.1257102,0.09433498,0,0.3,0,0,0,0,
6.38224E+17,-47.16704,-1.005263,32.70952,-53.16978,1.147324,25.78851,-56.87374,-0.4675641,6.23372,-71.11485,-8.521038,-36.90935,0,0,0,-150.6199,-91.19302,-28.71345,-123.799,-110.2997,-87.56558,0.001067912,-0.1257102,0.09433498,0,0.3,0,0,0,0,
6.38224E+17,-46.13041,-1.005263,30.60827,-52.14435,2.026266,22.93195,-56.87374,-0.4675641,6.23372,-71.11485,-8.521038,-36.83611,0,0,0,-145.0681,-93.75968,-28.89599,-123.799,-110.2997,-87.56558,0.001067912,-0.1257102,0.09433498,0,0.3,0,0,0,0,
6.38224E+17,-45.56496,-1.005263,29.60433,-51.4119,2.392492,21.61354,-56.87374,-0.4675641,6.23372,-71.1881,-8.521038,-36.90935,0,0,0,-142.2416,-94.93169,-28.88629,-123.799,-110.2997,-87.56558,0.001067912,-0.1257102,0.09433498,0,0.3,0,0,0,0,
6.38224E+17,-44.41053,-1.005263,27.59647,-50.09349,3.198189,19.1232,-56.87374,-0.4675641,6.23372,-71.11485,-8.447793,-36.83611,0,0,0,-136.5318,-97.16858,-28.97952,-123.799,-110.2997,-87.56558,0.001067912,-0.1257102,0.09433498,0,0.3,0,0,0,0,
6.38224E+17,-42.92625,-1.005263,25.1917,-48.62858,4.077131,16.8526,-56.87374,-0.4675641,6.23372,-71.11485,-8.521038,-36.90935,0,0,0,-129.4618,-99.65643,-29.16046,-123.799,-110.2997,-87.56558,0.001067912,-0.1257102,0.09433498,0,0.3,0,0,0,0,
6.38224E+17,-42.07809,-1.005263,23.95429,-47.6764,4.663092,15.82717,-56.87374,-0.4675641,6.23372,-71.11485,-8.447793,-36.83611,0,0,0,-125.6321,-100.854,-29.20328,-123.799,-110.2997,-87.56558,0.001067912,-0.1257102,0.09433498,0,0.3,0,0,0,0,
6.38224E+17,-40.21685,-1.005263,21.66626,-45.62553,5.835015,13.70306,-56.87374,-0.4675641,6.23372,-71.1881,-8.521038,-36.90935,0,0,0,-117.8772,-102.9184,-28.94435,-123.799,-110.2997,-87.56558,0.001067912,-0.1257102,0.09433498,0,0.3,0,0,0,0,
6.38224E+17,-38.1907,-1.005263,19.44827,-43.20844,6.860447,11.72544,-56.87374,-0.4675641,6.23372,-71.11485,-8.521038,-36.90935,0,0,0,-109.8865,-104.7309,-28.6625,-123.799,-110.2997,-87.56558,0.001067912,-0.1257102,0.09433498,0,0.3,0,0,0,0,
6.38224E+17,-37.20118,-1.005263,18.42099,-42.10976,7.299919,10.99299,-56.87374,-0.4675641,6.23372,-71.11485,-8.521038,-36.90935,0,0,0,-106.0904,-105.5067,-28.58696,-123.799,-110.2997,-87.56558,0.001067912,-0.1257102,0.09433498,0,0.3,0,0,0,0,
6.38224E+17,-35.05722,-1.005263,16.48317,-39.47293,8.398596,9.601329,-56.87374,-0.4675641,6.23372,-71.1881,-8.521038,-36.83611,0,0,0,-98.3164,-106.8593,-28.23766,-123.799,-110.2997,-87.56558,0.001067912,-0.1257102,0.09433498,0,0.3,0,0,0,0,
6.38224E+17,-32.77191,-0.9818845,14.77882,-36.83611,9.497273,8.722386,-56.87374,-0.4675641,6.23372,-71.1881,-8.521038,-36.83611,0,0,0,-90.58396,-107.8736,-27.63973,-123.799,-110.2997,-87.56558,0.001067912,-0.1257102,0.09433498,0,0.3,0,0,0,0,
6.38224E+17,-31.59391,-0.9818845,13.98501,-35.29796,10.15648,8.575896,-56.87374,-0.4675641,6.23372,-71.11485,-8.521038,-36.83611,0,0,0,-86.73447,-108.3325,-27.33154,-123.799,-110.2997,-87.56558,0.001067912,-0.1257102,0.09433498,0,0.3,0,0,0,0,
6.38224E+17,-29.02587,-0.9585064,12.56083,-32.14842,11.54814,8.649141,-56.87374,-0.4675641,6.23372,-71.11485,-8.447793,-36.83611,0,0,0,-78.76411,-109.0391,-26.40699,-123.799,-110.2997,-87.56558,0.001067912,-0.1257102,0.09433498,0,0.3,0,0,0,0,
6.38224E+17,-26.29292,-0.8182371,11.32342,-28.7059,12.86655,8.795631,-56.87374,-0.4675641,6.23372,-71.11485,-8.521038,-36.90935,0,0,0,-70.66071,-109.3086,-25.33439,-123.799,-110.2997,-87.56558,0.001067912,-0.1257102,0.09433498,0,0.3,0,0,0,0,
6.38224E+17,-23.34792,-0.6312115,10.24945,-24.60417,13.89198,9.015368,-56.87374,-0.4675641,6.23372,-71.11485,-8.447793,-36.90935,0,0,0,-62.24874,-109.3411,-24.14217,-123.799,-110.2997,-87.56558,0.001067912,-0.1257102,0.09433498,0,0.3,0,0,0,0,
6.38224E+17,-21.69872,-0.4675641,9.782504,-22.26032,14.4047,9.528083,-56.87374,-0.4675641,6.23372,-71.11485,-8.521038,-36.90935,0,0,0,-57.67833,-109.1493,-23.40137,-123.799,-110.2997,-87.56558,0.001067912,-0.1257102,0.09433498,0,0.3,0,0,0,0,
6.38224E+17,-18.32965,0.04675641,9.082087,-17.2064,15.35689,11.06623,-56.87374,-0.4675641,6.23372,-71.11485,-8.521038,-36.90935,0,0,0,-48.55603,-108.2194,-21.78461,-123.799,-110.2997,-87.56558,0.001067912,-0.1257102,0.09433498,0,0.3,0,0,0,0,
6.38224E+17,-14.86634,0.9117499,8.685184,-11.34679,16.01609,13.1171,-56.87374,-0.4675641,6.23372,-71.11485,-8.521038,-36.90935,0,0,0,-39.37494,-106.349,-20.01743,-123.799,-110.2997,-87.56558,0.001067912,-0.1257102,0.09433498,0,0.3,0,0,0,0,
6.38224E+17,-13.17002,1.42607,8.568447,-8.343738,16.23583,14.21577,-56.87374,-0.4675641,6.23372,-71.11485,-8.521038,-36.83611,0,0,0,-34.89997,-105.1929,-19.20219,-123.799,-110.2997,-87.56558,0.001067912,-0.1257102,0.09433498,0,0.3,0,0,0,0,
6.38224E+17,-9.965863,2.875519,8.521752,-2.191144,16.60205,16.77936,-56.87374,-0.4675641,6.23372,-71.11485,-8.521038,-36.83611,0,0,0,-26.46845,-101.8381,-17.71519,-123.799,-110.2997,-87.56558,0.001067912,-0.1257102,0.09433498,0,0.3,0,0,0,0,
6.38224E+17,-6.926629,4.886045,8.545099,3.888205,16.23583,19.56267,-56.87374,-0.4675641,6.23372,-71.11485,-8.521038,-36.83611,0,0,0,-18.41289,-97.16173,-16.78474,-123.799,-110.2997,-87.56558,0.001067912,-0.1257102,0.09433498,0,0.3,0,0,0,0,
6.38224E+17,-5.465911,6.218602,8.568447,7.110993,15.79636,20.73459,-56.87374,-0.4675641,6.23372,-71.1881,-8.521038,-36.83611,0,0,0,-14.5198,-94.06687,-16.60983,-123.799,-110.2997,-87.56558,0.001067912,-0.1257102,0.09433498,0,0.3,0,0,0,0,
6.38224E+17,-2.850755,8.953853,8.871961,12.38465,14.77092,22.41923,-56.87374,-0.4675641,6.23372,-71.11485,-8.521038,-36.90935,0,0,0,-7.574131,-87.65009,-16.24731,-123.799,-110.2997,-87.56558,0.001067912,-0.1257102,0.09433498,0,0.3,0,0,0,0,
6.38224E+17,-0.4240793,11.89951,9.432296,17.14558,13.37927,23.88414,-56.87374,-0.4675641,6.23372,-71.11485,-8.447793,-36.90935,0,0,0,-1.127532,-80.7009,-16.01609,-123.799,-110.2997,-87.56558,0.001067912,-0.1257102,0.09433498,0,0.3,0,0,0,0,
6.38224E+17,0.6596789,13.48922,9.829199,19.41618,12.57357,24.4701,-56.87374,-0.4675641,6.23372,-71.11485,-8.521038,-36.83611,0,0,0,1.755041,-76.93701,-15.92432,-123.799,-110.2997,-87.56558,0.001067912,-0.1257102,0.09433498,0,0.3,0,0,0,0,
6.38224E+17,2.403116,16.97258,10.7164,23.51791,10.59595,25.27579,-56.87374,-0.4675641,6.23372,-71.11485,-8.521038,-36.90935,0,0,0,6.387532,-68.7476,-16.14595,-123.799,-110.2997,-87.56558,0.001067912,-0.1257102,0.09433498,0,0.3,0,0,0,0,
6.38224E+17,3.533994,20.47931,11.74367,26.88719,8.398596,25.64202,-56.87374,-0.4675641,6.23372,-71.11485,-8.521038,-36.90935,0,0,0,9.373294,-60.55367,-16.57585,-123.799,-110.2997,-87.56558,0.001067912,-0.1257102,0.09433498,0,0.3,0,0,0,0,
6.38224E+17,3.934513,22.16254,12.23397,28.13236,7.226673,25.71527,-56.87374,-0.4675641,6.23372,-71.11485,-8.521038,-36.90935,0,0,0,10.41287,-56.66735,-16.95248,-123.799,-110.2997,-87.56558,0.001067912,-0.1257102,0.09433498,0,0.3,0,0,0,0,
6.38224E+17,4.429273,25.71602,13.35464,30.40295,4.663092,25.78851,-56.87374,-0.4675641,6.23372,-71.11485,-8.521038,-36.83611,0,0,0,11.65711,-48.53205,-17.85749,-123.799,-110.2997,-87.56558,0.001067912,-0.1257102,0.09433498,0,0.3,0,0,0,0,
6.38224E+17,4.617752,29.08249,14.61539,31.86786,1.733285,25.86176,-56.87374,-0.4675641,6.23372,-71.11485,-8.521038,-36.83611,0,0,0,12.09109,-40.86779,-18.65205,-123.799,-110.2997,-87.56558,0.001067912,-0.1257102,0.09433498,0,0.3,0,0,0,0,
6.38224E+17,4.735552,32.47232,16.15631,32.82005,-1.562747,25.78851,-56.87374,-0.4675641,6.23372,-71.11485,-8.521038,-36.83611,0,0,0,12.35106,-33.13893,-19.25406,-123.799,-110.2997,-87.56558,0.001067912,-0.1257102,0.09433498,0,0.3,0,0,0,0,
6.38224E+17,4.829792,34.1088,17.0435,33.25952,-3.027651,25.78851,-56.87374,-0.4675641,6.23372,-71.11485,-8.521038,-36.83611,0,0,0,12.58687,-29.36543,-19.38588,-123.799,-110.2997,-87.56558,0.001067912,-0.1257102,0.09433498,0,0.3,0,0,0,0,
6.38224E+17,5.018272,37.28823,18.93463,34.13846,-6.177193,25.64202,-56.87374,-0.4675641,6.23372,-71.11485,-8.521038,-36.83611,0,0,0,13.06535,-21.99758,-19.55891,-123.799,-110.2997,-87.56558,0.001067912,-0.1257102,0.09433498,0,0.3,0,0,0,0,
6.38224E+17,5.230311,40.3274,20.96585,35.16389,-8.887264,24.98281,-56.87374,-0.4675641,6.23372,-71.1881,-8.521038,-36.83611,0,0,0,13.61691,-14.87337,-19.59724,-123.799,-110.2997,-87.56558,0.001067912,-0.1257102,0.09433498,0,0.3,0,0,0,0,
6.38224E+17,5.324551,41.8236,22.03982,35.67661,-10.20568,24.54334,-56.87374,-0.4675641,6.23372,-71.11485,-8.521038,-36.90935,0,0,0,13.86505,-11.33217,-19.58241,-123.799,-110.2997,-87.56558,0.001067912,-0.1257102,0.09433498,0,0.3,0,0,0,0,
6.38224E+17,5.560151,44.86277,24.21111,36.70204,-12.76926,23.07844,-56.87374,-0.4675641,6.23372,-71.11485,-8.521038,-36.90935,0,0,0,14.45658,-4.204031,-19.84692,-123.799,-110.2997,-87.56558,0.001067912,-0.1257102,0.09433498,0,0.3,0,0,0,0,
6.38224E+17,5.88999,47.73829,26.40576,37.72747,-15.25959,21.10082,-56.87374,-0.4675641,6.23372,-71.11485,-8.447793,-36.83611,0,0,0,15.28859,2.602557,-20.15214,-123.799,-110.2997,-87.56558,0.001067912,-0.1257102,0.09433498,0,0.3,0,0,0,0,
6.38224E+17,6.172709,49.16436,27.45638,38.38668,-16.50476,19.85565,-56.87374,-0.4675641,6.23372,-71.11485,-8.521038,-36.83611,0,0,0,15.987,5.91134,-20.53148,-123.799,-110.2997,-87.56558,0.001067912,-0.1257102,0.09433498,0,0.3,0,0,0,0,
6.38224E+17,6.855949,51.66583,29.37086,39.85158,-18.62887,17.43856,-56.87374,-0.4675641,6.23372,-71.11485,-8.521038,-36.83611,0,0,0,17.68075,11.74098,-21.29624,-123.799,-110.2997,-87.56558,0.001067912,-0.1257102,0.09433498,0,0.3,0,0,0,0,
6.38224E+17,7.892587,54.05041,31.40207,41.68271,-20.38675,14.80174,-56.87374,-0.4675641,6.23372,-71.11485,-8.521038,-36.90935,0,0,0,20.29083,17.48284,-21.98279,-123.799,-110.2997,-87.56558,0.001067912,-0.1257102,0.09433498,0,0.3,0,0,0,0,
6.38224E+17,9.188385,56.2012,33.26986,43.66033,-21.63192,11.94517,-56.87374,-0.4675641,6.23372,-71.11485,-8.447793,-36.83611,0,0,0,23.52633,22.66992,-22.90724,-123.799,-110.2997,-87.56558,0.001067912,-0.1257102,0.09433498,0,0.3,0,0,0,0,
6.38224E+17,9.942304,57.13633,34.20374,44.83226,-22.07139,10.40703,-56.87374,-0.4675641,6.23372,-71.1881,-8.521038,-36.90935,0,0,0,25.43614,25.07292,-23.24014,-123.799,-110.2997,-87.56558,0.001067912,-0.1257102,0.09433498,0,0.3,0,0,0,0,
6.38224E+17,11.5915,59.00658,36.16492,47.32259,-22.7306,6.891257,-56.87374,-0.4675641,6.23372,-71.11485,-8.521038,-36.83611,0,0,0,29.60914,30.00479,-23.99682,-123.799,-110.2997,-87.56558,0.001067912,-0.1257102,0.09433498,0,0.3,0,0,0,0,
6.38224E+17,13.38206,60.47941,37.61245,49.88617,-23.09683,3.888205,-56.87374,-0.4675641,6.23372,-71.11485,-8.521038,-36.90935,0,0,0,34.0435,33.75418,-25.2516,-123.799,-110.2997,-87.56558,0.001067912,-0.1257102,0.09433498,0,0.3,0,0,0,0,
6.38224E+17,14.34802,61.06387,38.26617,51.05809,-23.17007,2.350057,-56.87374,-0.4675641,6.23372,-71.11485,-8.447793,-36.83611,0,0,0,36.45425,35.35382,-25.8334,-123.799,-110.2997,-87.56558,0.001067912,-0.1257102,0.09433498,0,0.3,0,0,0,0,
6.38224E+17,16.37417,62.06913,39.34014,53.40194,-22.87709,-0.6529952,-56.87374,-0.4675641,6.23372,-71.11485,-8.521038,-36.90935,0,0,0,41.43937,38.03412,-27.31643,-123.799,-110.2997,-87.56558,0.001067912,-0.1257102,0.09433498,0,0.3,0,0,0,0,
6.38224E+17,18.51813,62.79386,40.1573,55.67254,-22.36438,-3.216576,-56.87374,-0.4675641,6.23372,-71.11485,-8.521038,-36.90935,0,0,0,46.67601,40.03081,-28.99667,-123.799,-110.2997,-87.56558,0.001067912,-0.1257102,0.09433498,0,0.3,0,0,0,0,
6.38224E+17,19.67257,63.05101,40.50751,56.77122,-21.99815,-4.461744,-56.87374,-0.4675641,6.23372,-71.11485,-8.521038,-36.83611,0,0,0,49.5039,40.83078,-29.8821,-123.799,-110.2997,-87.56558,0.001067912,-0.1257102,0.09433498,0,0.3,0,0,0,0,
6.38224E+17,21.74584,63.2848,40.9978,58.67559,-21.19245,-6.292873,-56.87374,-0.4675641,6.23372,-71.11485,-8.521038,-36.83611,0,0,0,54.62132,41.82129,-31.41174,-123.799,-110.2997,-87.56558,0.001067912,-0.1257102,0.09433498,0,0.3,0,0,0,0,
6.38224E+17,23.96048,63.2848,41.37135,60.57997,-19.87404,-8.050756,-56.87374,-0.4675641,6.23372,-71.11485,-8.521038,-36.90935,0,0,0,60.13795,42.39378,-33.02682,-123.799,-110.2997,-87.56558,0.001067912,-0.1257102,0.09433498,0,0.3,0,0,0,0,
6.38224E+17,25.75104,63.23804,41.55813,62.11811,-18.26265,-9.442415,-56.87374,-0.4675641,6.23372,-71.11485,-8.521038,-36.90935,0,0,0,64.52065,42.63267,-34.59104,-123.799,-110.2997,-87.56558,0.001067912,-0.1257102,0.09433498,0,0.3,0,0,0,0,
6.38224E+17,26.55208,63.19128,41.55813,62.77732,-17.5302,-9.955132,-56.87374,-0.4675641,6.23372,-71.11485,-8.521038,-36.90935,0,0,0,66.42776,42.58363,-35.41923,-123.799,-110.2997,-87.56558,0.001067912,-0.1257102,0.09433498,0,0.3,0,0,0,0,
6.38224E+17,28.08347,62.91074,41.55813,64.09573,-16.43152,-10.76083,-56.87374,-0.4675641,6.23372,-71.11485,-8.521038,-36.90935,0,0,0,70.23057,42.28772,-36.72847,-123.799,-110.2997,-87.56558,0.001067912,-0.1257102,0.09433498,0,0.3,0,0,0,0,
6.38224E+17,29.44995,62.39642,41.55813,65.26765,-15.62582,-11.2003,-56.87374,-0.4675641,6.23372,-71.11485,-8.521038,-36.90935,0,0,0,73.87217,41.73785,-37.51485,-123.799,-110.2997,-87.56558,0.001067912,-0.1257102,0.09433498,0,0.3,0,0,0,0,
6.38224E+17,30.10963,62.06913,41.55813,65.78037,-15.18635,-11.34679,-56.87374,-0.4675641,6.23372,-71.11485,-8.521038,-36.90935,0,0,0,75.71175,41.38297,-37.79096,-123.799,-110.2997,-87.56558,0.001067912,-0.1257102,0.09433498,0,0.3,0,0,0,0,
6.38224E+17,31.45255,61.27427,41.53479,67.02554,-14.23416,-11.56653,-56.87374,-0.4675641,6.23372,-71.11485,-8.521038,-36.83611,0,0,0,79.57922,40.46909,-38.24677,-123.799,-110.2997,-87.56558,0.001067912,-0.1257102,0.09433498,0,0.3,0,0,0,0,
6.38224E+17,32.79546,60.24563,41.4414,68.12422,-13.06224,-11.71302,-56.87374,-0.4675641,6.23372,-71.11485,-8.521038,-36.90935,0,0,0,83.64978,39.15569,-38.52839,-123.799,-110.2997,-87.56558,0.001067912,-0.1257102,0.09433498,0,0.3,0,0,0,0,
6.38224E+17,33.43158,59.70793,41.37135,68.56369,-12.62277,-11.78626,-56.87374,-0.4675641,6.23372,-71.11485,-8.521038,-36.83611,0,0,0,85.61552,38.42172,-38.66287,-123.799,-110.2997,-87.56558,0.001067912,-0.1257102,0.09433498,0,0.3,0,0,0,0,
6.38224E+17,34.68026,58.51564,41.30132,69.66236,-11.67058,-11.71302,-56.87374,-0.4675641,6.23372,-71.11485,-8.521038,-36.83611,0,0,0,89.70662,36.88953,-38.70179,-123.799,-110.2997,-87.56558,0.001067912,-0.1257102,0.09433498,0,0.3,0,0,0,0,
6.38224E+17,35.78758,57.25322,41.20792,70.76105,-11.08462,-11.63977,-56.87374,-0.4675641,6.23372,-71.11485,-8.521038,-36.83611,0,0,0,93.55502,35.18423,-38.57349,-123.799,-110.2997,-87.56558,0.001067912,-0.1257102,0.09433498,0,0.3,0,0,0,0,
6.38224E+17,36.35302,56.55187,41.11454,71.347,-10.64515,-11.49328,-56.87374,-0.4675641,6.23372,-71.11485,-8.521038,-36.83611,0,0,0,95.54474,34.14983,-38.53354,-123.799,-110.2997,-87.56558,0.001067912,-0.1257102,0.09433498,0,0.3,0,0,0,0,
6.38224E+17,37.4839,54.9154,40.90441,72.37244,-9.180244,-11.34679,-56.87374,-0.4675641,6.23372,-71.11485,-8.521038,-36.90935,0,0,0,99.77905,31.68453,-38.23972,-123.799,-110.2997,-87.56558,0.001067912,-0.1257102,0.09433498,0,0.3,0,0,0,0,
6.38224E+17,38.68546,53.0919,40.67094,73.17814,-8.008322,-11.2003,-56.87374,-0.4675641,6.23372,-71.11485,-8.447793,-36.90935,0,0,0,104.3744,28.83532,-38.00166,-123.799,-110.2997,-87.56558,0.001067912,-0.1257102,0.09433498,0,0.3,0,0,0,0,
6.38224E+17,39.83989,50.96449,40.43747,73.98383,-6.909645,-11.12705,-56.87374,-0.4675641,6.23372,-71.11485,-8.521038,-36.90935,0,0,0,109.2153,25.43577,-37.45113,-123.799,-110.2997,-87.56558,0.001067912,-0.1257102,0.09433498,0,0.3,0,0,0,0,
6.38224E+17,40.42889,49.72544,40.32073,74.35006,-6.323683,-11.12705,-56.87374,-0.4675641,6.23372,-71.11485,-8.521038,-36.90935,0,0,0,111.8607,23.41949,-37.0483,-123.799,-110.2997,-87.56558,0.001067912,-0.1257102,0.09433498,0,0.3,0,0,0,0,
6.38224E+17,41.51265,47.45775,39.99387,75.229,-4.932025,-11.12705,-56.87374,-0.4675641,6.23372,-71.11485,-8.521038,-36.83611,0,0,0,116.5622,19.43827,-36.65898,-123.799,-110.2997,-87.56558,0.001067912,-0.1257102,0.09433498,0,0.3,0,0,0,0,
6.38224E+17,42.54929,45.07318,39.34014,76.10795,-3.467122,-10.90732,-56.87374,-0.4675641,6.23372,-71.11485,-8.521038,-36.83611,0,0,0,120.8452,14.63065,-36.69817,-123.799,-110.2997,-87.56558,0.001067912,-0.1257102,0.09433498,0,0.3,0,0,0,0,
6.38224E+17,43.04405,43.90427,38.8732,76.54742,-2.88116,-10.68758,-56.87374,-0.4675641,6.23372,-71.1881,-8.521038,-36.90935,0,0,0,122.7032,12.0044,-36.96963,-123.799,-110.2997,-87.56558,0.001067912,-0.1257102,0.09433498,0,0.3,0,0,0,0,
6.38224E+17,43.84509,41.58982,37.61245,77.27986,-1.635992,-9.808641,-56.87374,-0.4675641,6.23372,-71.11485,-8.521038,-36.90935,0,0,0,125.4641,6.232698,-37.72319,-123.799,-110.2997,-87.56558,0.001067912,-0.1257102,0.09433498,0,0.3,0,0,0,0,
6.38224E+17,44.52832,39.29876,36.04818,77.64609,-0.61056,-8.416983,-56.87374,-0.4675641,6.23372,-71.11485,-8.521038,-36.83611,0,0,0,127.3949,-0.007364863,-38.84013,-123.799,-110.2997,-87.56558,0.001067912,-0.1257102,0.09433498,0,0.3,0,0,0,0,
6.38224E+17,45.04665,37.0077,34.64734,77.93907,-0.02459868,-6.585854,-56.87374,-0.4675641,6.23372,-71.11485,-8.521038,-36.83611,0,0,0,129.0104,-6.086293,-39.54949,-123.799,-110.2997,-87.56558,0.001067912,-0.1257102,0.09433498,0,0.3,0,0,0,0,
6.38224E+17,45.25869,35.83878,33.97027,78.15881,0.1951368,-5.633667,-56.87374,-0.4675641,6.23372,-71.11485,-8.521038,-36.90935,0,0,0,129.709,-9.163534,-39.80704,-123.799,-110.2997,-87.56558,0.001067912,-0.1257102,0.09433498,0,0.3,0,0,0,0,
6.38224E+17,45.80056,33.45421,32.61613,78.45178,0.5613627,-3.070086,-56.87374,-0.4675641,6.23372,-71.11485,-8.521038,-36.90935,0,0,0,131.2921,-15.45889,-40.67654,-123.799,-110.2997,-87.56558,0.001067912,-0.1257102,0.09433498,0,0.3,0,0,0,0,
6.38224E+17,46.41312,30.92937,31.58885,78.67152,0.7810982,-0.7994855,-56.87374,-0.4675641,6.23372,-71.11485,-8.521038,-36.83611,0,0,0,133.45,-21.70203,-41.32557,-123.799,-110.2997,-87.56558,0.001067912,-0.1257102,0.09433498,0,0.3,0,0,0,0,
6.38224E+17,46.76653,29.57343,31.35538,78.81802,1.074079,0.1527017,-56.87374,-0.4675641,6.23372,-71.11485,-8.521038,-36.90935,0,0,0,135.0516,-24.71171,-41.37955,-123.799,-110.2997,-87.56558,0.001067912,-0.1257102,0.09433498,0,0.3,0,0,0,0,
6.38224E+17,47.52044,27.04858,31.26199,79.33073,1.806531,1.617605,-56.87374,-0.4675641,6.23372,-71.11485,-8.521038,-36.83611,0,0,0,138.6288,-29.99767,-41.41105,-123.799,-110.2997,-87.56558,0.001067912,-0.1257102,0.09433498,0,0.3,0,0,0,0,
6.38224E+17,48.4864,24.52374,31.26199,79.91669,2.465737,2.496547,-56.87374,-0.4675641,6.23372,-71.11485,-8.521038,-36.83611,0,0,0,142.6631,-35.28841,-42.07198,-123.799,-110.2997,-87.56558,0.001067912,-0.1257102,0.09433498,0,0.3,0,0,0,0,
6.38224E+17,49.00472,23.35482,31.26199,80.13642,2.758718,2.789528,-56.87374,-0.4675641,6.23372,-71.11485,-8.521038,-36.83611,0,0,0,144.6328,-37.77486,-42.64357,-123.799,-110.2997,-87.56558,0.001067912,-0.1257102,0.09433498,0,0.3,0,0,0,0,
6.38224E+17,50.0178,21.18065,31.35538,80.50266,3.63766,3.302244,-56.87374,-0.4675641,6.23372,-71.11485,-8.521038,-36.83611,0,0,0,148.4442,-42.34442,-43.8691,-123.799,-110.2997,-87.56558,0.001067912,-0.1257102,0.09433498,0,0.3,0,0,0,0,
6.38224E+17,50.98376,19.28702,31.6122,80.72239,4.809582,3.595225,-56.87374,-0.4675641,6.23372,-71.11485,-8.521038,-36.83611,0,0,0,152.1019,-46.16733,-45.10888,-123.799,-110.2997,-87.56558,0.001067912,-0.1257102,0.09433498,0,0.3,0,0,0,0,
6.38224E+17,51.83192,17.55703,31.98576,80.94212,5.90826,3.741715,-56.87374,-0.4675641,6.23372,-71.11485,-8.521038,-36.90935,0,0,0,155.4908,-49.52909,-46.131,-123.799,-110.2997,-87.56558,0.001067912,-0.1257102,0.09433498,0,0.3,0,0,0,0,
6.38224E+17,52.20887,16.76217,32.19588,81.08862,6.347731,3.81496,-56.87374,-0.4675641,6.23372,-71.11485,-8.521038,-36.90935,0,0,0,157.0502,-51.03687,-46.56829,-123.799,-110.2997,-87.56558,0.001067912,-0.1257102,0.09433498,0,0.3,0,0,0,0,
6.38224E+17,53.00991,14.98543,32.61613,81.2351,7.080183,3.81496,-56.87374,-0.4675641,6.23372,-71.11485,-8.521038,-36.90935,0,0,0,160.3004,-54.49004,-47.59846,-123.799,-110.2997,-87.56558,0.001067912,-0.1257102,0.09433498,0,0.3,0,0,0,0,
6.38224E+17,53.71671,12.99828,33.01303,81.2351,7.812634,3.741715,-56.87374,-0.4675641,6.23372,-71.11485,-8.521038,-36.83611,0,0,0,163.3049,-58.47687,-48.46392,-123.799,-110.2997,-87.56558,0.001067912,-0.1257102,0.09433498,0,0.3,0,0,0,0,
6.38224E+17,54.02299,11.78261,33.31655,81.2351,8.252106,3.741715,-56.87374,-0.4675641,6.23372,-71.11485,-8.521038,-36.90935,0,0,0,164.9133,-60.85382,-48.63457,-123.799,-110.2997,-87.56558,0.001067912,-0.1257102,0.09433498,0,0.3,0,0,0,0,
6.38224E+17,54.42351,8.603179,34.20374,81.16187,9.350782,3.448734,-56.87374,-0.4675641,6.23372,-71.11485,-8.521038,-36.90935,0,0,0,168.2072,-66.98844,-48.02982,-123.799,-110.2997,-87.56558,0.001067912,-0.1257102,0.09433498,0,0.3,0,0,0,0,
6.38224E+17,54.47063,5.72766,34.60065,80.5759,10.96218,2.569792,-56.87374,-0.4675641,6.23372,-71.11485,-8.521038,-36.83611,0,0,0,169.6057,-73.10603,-47.24022,-123.799,-110.2997,-87.56558,0.001067912,-0.1257102,0.09433498,0,0.3,0,0,0,0,
6.38224E+17,54.47063,4.582128,34.5773,80.20967,11.76787,2.130321,-56.87374,-0.4675641,6.23372,-71.11485,-8.521038,-36.83611,0,0,0,169.7642,-75.79216,-47.12701,-123.799,-110.2997,-87.56558,0.001067912,-0.1257102,0.09433498,0,0.3,0,0,0,0,
6.38224E+17,54.30571,2.688493,34.50726,79.47723,12.9398,1.471115,-56.87374,-0.4675641,6.23372,-71.11485,-8.521038,-36.90935,0,0,0,169.5325,-80.28276,-46.55417,-123.799,-110.2997,-87.56558,0.001067912,-0.1257102,0.09433498,0,0.3,0,0,0,0,
6.38224E+17,53.90519,1.122154,34.34383,78.89126,13.67225,1.104889,-56.87374,-0.4675641,6.23372,-71.11485,-8.521038,-36.90935,0,0,0,168.5214,-84.14117,-45.4855,-123.799,-110.2997,-87.56558,0.001067912,-0.1257102,0.09433498,0,0.3,0,0,0,0,
6.38224E+17,53.29263,0.0233782,33.94693,78.3053,13.96523,0.9583986,-56.87374,-0.4675641,6.23372,-71.11485,-8.521038,-36.83611,0,0,0,166.6058,-87.21678,-44.13255,-123.799,-110.2997,-87.56558,0.001067912,-0.1257102,0.09433498,0,0.3,0,0,0,0,
6.38224E+17,52.9628,-0.350673,33.66676,78.01232,13.96523,1.031644,-56.87374,-0.4675641,6.23372,-71.11485,-8.521038,-36.90935,0,0,0,165.4534,-88.45014,-43.50335,-123.799,-110.2997,-87.56558,0.001067912,-0.1257102,0.09433498,0,0.3,0,0,0,0,
6.38224E+17,52.256,-0.9351282,33.08308,77.42635,13.37927,1.178134,-56.87374,-0.4675641,6.23372,-71.11485,-8.521038,-36.83611,0,0,0,162.9917,-90.55762,-42.17564,-123.799,-110.2997,-87.56558,0.001067912,-0.1257102,0.09433498,0,0.3,0,0,0,0,
6.38224E+17,51.4314,-1.005263,32.38266,77.13338,12.79331,1.397869,-56.87374,-0.4675641,6.23372,-71.11485,-8.521038,-36.90935,0,0,0,160.0846,-91.60228,-40.69966,-123.799,-110.2997,-87.56558,0.001067912,-0.1257102,0.09433498,0,0.3,0,0,0,0,
6.38224E+17,50.93663,-1.005263,32.14919,76.98688,12.28059,1.837341,-56.87374,-0.4675641,6.23372,-71.11485,-8.521038,-36.83611,0,0,0,158.6196,-91.89236,-39.61163,-123.799,-110.2997,-87.56558,0.001067912,-0.1257102,0.09433498,0,0.3,0,0,0,0,
6.38224E+17,49.94712,-1.005263,31.63554,76.91364,11.25516,3.81496,-56.87374,-0.4675641,6.23372,-71.11485,-8.521038,-36.83611,0,0,0,155.5958,-92.52394,-37.54468,-123.799,-110.2997,-87.56558,0.001067912,-0.1257102,0.09433498,0,0.3,0,0,0,0,
6.38224E+17,48.93404,-1.005263,31.1686,76.91364,10.22972,6.525032,-56.87374,-0.4675641,6.23372,-71.11485,-8.521038,-36.83611,0,0,0,152.5594,-93.09019,-35.42345,-123.799,-110.2997,-87.56558,0.001067912,-0.1257102,0.09433498,0,0.3,0,0,0,0,
6.38224E+17,47.82672,-1.005263,30.725,76.6939,9.350782,8.722386,-56.87374,-0.4675641,6.23372,-71.11485,-8.521038,-36.83611,0,0,0,149.3059,-93.62111,-33.09452,-123.799,-110.2997,-87.56558,0.001067912,-0.1257102,0.09433498,0,0.3,0,0,0,0,
6.38224E+17,47.26128,-1.005263,30.46818,76.47417,8.984557,9.601329,-56.87374,-0.4675641,6.23372,-71.11485,-8.521038,-36.83611,0,0,0,147.586,-93.92534,-31.97683,-123.799,-110.2997,-87.56558,0.001067912,-0.1257102,0.09433498,0,0.3,0,0,0,0,
6.38224E+17,46.10685,-1.005263,29.72107,75.81496,8.471841,10.91974,-56.87374,-0.4675641,6.23372,-71.11485,-8.521038,-36.83611,0,0,0,143.7243,-94.79723,-30.07408,-123.799,-110.2997,-87.56558,0.001067912,-0.1257102,0.09433498,0,0.3,0,0,0,0,
6.38224E+17,44.88173,-0.9818845,28.78718,75.00926,8.105616,11.72544,-56.87374,-0.4675641,6.23372,-71.11485,-8.521038,-36.90935,0,0,0,139.3976,-95.80499,-28.37575,-123.799,-110.2997,-87.56558,0.001067912,-0.1257102,0.09433498,0,0.3,0,0,0,0,
6.38224E+17,44.26917,-0.9818845,28.32023,74.56979,8.03237,11.87193,-56.87374,-0.4675641,6.23372,-71.11485,-8.447793,-36.83611,0,0,0,137.2268,-96.32445,-27.57699,-123.799,-110.2997,-87.56558,0.001067912,-0.1257102,0.09433498,0,0.3,0,0,0,0,
6.38224E+17,42.87913,-0.9117499,27.12952,73.54436,8.105616,12.23815,-56.87374,-0.4675641,6.23372,-71.11485,-8.521038,-36.83611,0,0,0,132.1041,-97.45048,-26.08512,-123.799,-110.2997,-87.56558,0.001067912,-0.1257102,0.09433498,0,0.3,0,0,0,0,
6.38224E+17,41.46553,-0.4675641,26.00885,72.29919,8.105616,12.53114,-56.87374,-0.4675641,6.23372,-71.11485,-8.521038,-36.83611,0,0,0,127.0179,-97.58334,-24.60822,-123.799,-110.2997,-87.56558,0.001067912,-0.1257102,0.09433498,0,0.3,0,0,0,0,
6.38224E+17,40.71161,-0.0233782,25.49521,71.71323,8.105616,12.75087,-56.87374,-0.4675641,6.23372,-71.11485,-8.521038,-36.90935,0,0,0,124.4162,-97.06895,-23.76216,-123.799,-110.2997,-87.56558,0.001067912,-0.1257102,0.09433498,0,0.3,0,0,0,0,
6.38224E+17,39.22733,1.332558,24.3045,70.46806,7.739389,13.26359,-56.87374,-0.4675641,6.23372,-71.11485,-8.521038,-36.83611,0,0,0,119.0168,-95.0802,-22.56304,-123.799,-110.2997,-87.56558,0.001067912,-0.1257102,0.09433498,0,0.3,0,0,0,0,
6.38224E+17,37.76662,3.600243,22.71689,69.22289,7.299919,13.99604,-56.87374,-0.4675641,6.23372,-71.11485,-8.521038,-36.90935,0,0,0,113.0476,-91.2816,-22.4344,-123.799,-110.2997,-87.56558,0.001067912,-0.1257102,0.09433498,0,0.3,0,0,0,0,
6.38224E+17,36.4237,6.475762,21.29271,67.97772,6.713957,14.80174,-56.87374,-0.4675641,6.23372,-71.11485,-8.521038,-36.83611,0,0,0,107.4233,-85.85759,-22.77069,-123.799,-110.2997,-87.56558,0.001067912,-0.1257102,0.09433498,0,0.3,0,0,0,0,
6.38224E+17,35.76402,8.112236,20.70902,67.24528,6.274486,15.16796,-56.87374,-0.4675641,6.23372,-71.11485,-8.521038,-36.90935,0,0,0,104.7163,-82.56666,-22.96497,-123.799,-110.2997,-87.56558,0.001067912,-0.1257102,0.09433498,0,0.3,0,0,0,0,
6.38224E+17,34.63314,11.66572,19.63505,66.1466,5.468789,15.82717,-56.87374,-0.4675641,6.23372,-71.11485,-8.521038,-36.90935,0,0,0,99.68604,-75.28241,-24.02555,-123.799,-110.2997,-87.56558,0.001067912,-0.1257102,0.09433498,0,0.3,0,0,0,0,
6.38224E+17,33.87922,15.38286,18.8179,64.97468,4.516602,16.26664,-56.87374,-0.4675641,6.23372,-71.11485,-8.521038,-36.83611,0,0,0,95.64975,-67.49881,-25.8966,-123.799,-110.2997,-87.56558,0.001067912,-0.1257102,0.09433498,0,0.3,0,0,0,0,
6.38224E+17,33.66718,17.22974,18.60777,64.38871,4.150376,16.33988,-56.87374,-0.4675641,6.23372,-71.11485,-8.521038,-36.83611,0,0,0,94.19611,-63.53037,-26.9335,-123.799,-110.2997,-87.56558,0.001067912,-0.1257102,0.09433498,0,0.3,0,0,0,0,
6.38224E+17,33.54939,20.71309,18.58442,63.50977,3.491169,16.48637,-56.87374,-0.4675641,6.23372,-71.11485,-8.447793,-36.83611,0,0,0,92.42033,-55.88211,-28.97925,-123.799,-110.2997,-87.56558,0.001067912,-0.1257102,0.09433498,0,0.3,0,0,0,0,
6.38224E+17,33.71431,24.05617,18.58442,62.92381,3.051698,16.48637,-56.87374,-0.4675641,6.23372,-71.11485,-8.521038,-36.83611,0,0,0,91.1767,-48.68874,-31.71022,-123.799,-110.2997,-87.56558,0.001067912,-0.1257102,0.09433498,0,0.3,0,0,0,0,
6.38224E+17,33.9499,25.78616,18.58442,62.70407,2.905208,16.48637,-56.87374,-0.4675641,6.23372,-71.11485,-8.521038,-36.90935,0,0,0,90.79033,-45.03741,-33.49361,-123.799,-110.2997,-87.56558,0.001067912,-0.1257102,0.09433498,0,0.3,0,0,0,0,
6.38224E+17,34.6567,28.94222,18.58442,62.33785,2.758718,16.0469,-56.87374,-0.4675641,6.23372,-71.11485,-8.521038,-36.83611,0,0,0,90.52726,-38.51477,-37.40071,-123.799,-110.2997,-87.56558,0.001067912,-0.1257102,0.09433498,0,0.3,0,0,0,0,
6.38224E+17,35.7169,31.91125,18.58442,62.04487,2.758718,15.09472,-56.87374,-0.4675641,6.23372,-71.11485,-8.521038,-36.83611,0,0,0,90.89198,-32.557,-41.93913,-123.799,-110.2997,-87.56558,0.001067912,-0.1257102,0.09433498,0,0.3,0,0,0,0,
6.38224E+17,37.0127,34.43609,18.65447,61.82513,2.905208,13.92279,-56.87374,-0.4675641,6.23372,-71.11485,-8.447793,-36.90935,0,0,0,91.8849,-27.58678,-46.47083,-123.799,-110.2997,-87.56558,0.001067912,-0.1257102,0.09433498,0,0.3,0,0,0,0,
6.38224E+17,37.79018,35.67514,18.7712,61.82513,2.905208,13.19034,-56.87374,-0.4675641,6.23372,-71.11485,-8.521038,-36.83611,0,0,0,92.67298,-25.13904,-48.83441,-123.799,-110.2997,-87.56558,0.001067912,-0.1257102,0.09433498,0,0.3,0,0,0,0,
6.38224E+17,39.43937,37.73242,19.23815,62.19136,3.051698,11.57895,-56.87374,-0.4675641,6.23372,-71.11485,-8.521038,-36.90935,0,0,0,94.90913,-20.94654,-52.96748,-123.799,-110.2997,-87.56558,0.001067912,-0.1257102,0.09433498,0,0.3,0,0,0,0,
6.38224E+17,41.22993,39.27538,19.84518,62.92381,3.271434,9.674574,-56.87374,-0.4675641,6.23372,-71.11485,-8.521038,-36.83611,0,0,0,97.87209,-17.6638,-56.66939,-123.799,-110.2997,-87.56558,0.001067912,-0.1257102,0.09433498,0,0.3,0,0,0,0,
6.38224E+17,42.14877,39.90659,20.24208,63.43653,3.417924,8.649141,-56.87374,-0.4675641,6.23372,-71.11485,-8.521038,-36.90935,0,0,0,99.60449,-16.21511,-58.30398,-123.799,-110.2997,-87.56558,0.001067912,-0.1257102,0.09433498,0,0.3,0,0,0,0,
6.38224E+17,44.10425,40.98199,21.15262,64.68169,3.93064,6.378541,-56.87374,-0.4675641,6.23372,-71.11485,-8.521038,-36.83611,0,0,0,103.5513,-13.56138,-61.50922,-123.799,-110.2997,-87.56558,0.001067912,-0.1257102,0.09433498,0,0.3,0,0,0,0,
6.38224E+17,46.05972,41.87036,21.96978,65.85361,4.589847,4.327676,-56.87374,-0.4675641,6.23372,-71.11485,-8.521038,-36.83611,0,0,0,107.4252,-11.31218,-64.82684,-123.799,-110.2997,-87.56558,0.001067912,-0.1257102,0.09433498,0,0.3,0,0,0,0,
6.38224E+17,47.04924,42.36131,22.29664,66.43958,5.029318,3.375489,-56.87374,-0.4675641,6.23372,-71.11485,-8.521038,-36.83611,0,0,0,109.1519,-10.17799,-66.73943,-123.799,-110.2997,-87.56558,0.001067912,-0.1257102,0.09433498,0,0.3,0,0,0,0,
6.38224E+17,48.88692,43.53021,22.95036,67.39177,5.835015,1.251379,-56.87374,-0.4675641,6.23372,-71.11485,-8.521038,-36.83611,0,0,0,112.0159,-7.601337,-70.58726,-123.799,-110.2997,-87.56558,0.001067912,-0.1257102,0.09433498,0,0.3,0,0,0,0,
6.38224E+17,50.55968,44.93291,23.62743,68.19746,6.420976,-0.9459759,-56.87374,-0.4675641,6.23372,-71.11485,-8.521038,-36.90935,0,0,0,114.1811,-4.639187,-74.42593,-123.799,-110.2997,-87.56558,0.001067912,-0.1257102,0.09433498,0,0.3,0,0,0,0,
6.38224E+17,52.06751,46.70965,23.88425,68.71018,6.713957,-3.070086,-56.87374,-0.4675641,6.23372,-71.11485,-8.521038,-36.90935,0,0,0,114.7056,-1.51671,-78.94967,-123.799,-110.2997,-87.56558,0.001067912,-0.1257102,0.09433498,0,0.3,0,0,0,0,
6.38224E+17,52.70363,47.69153,23.93095,68.85667,6.640712,-3.949028,-56.87374,-0.4675641,6.23372,-71.11485,-8.521038,-36.83611,0,0,0,114.4362,0.07997897,-81.18445,-123.799,-110.2997,-87.56558,0.001067912,-0.1257102,0.09433498,0,0.3,0,0,0,0,
6.38224E+17,53.76383,50.193,24.14107,69.00316,6.201241,-5.780157,-56.87374,-0.4675641,6.23372,-71.11485,-8.521038,-36.83611,0,0,0,112.849,4.102809,-85.64754,-123.799,-110.2997,-87.56558,0.001067912,-0.1257102,0.09433498,0,0.3,0,0,0,0,
6.38224E+17,54.37639,53.20879,24.25781,68.92992,5.468789,-7.171815,-56.87374,-0.4675641,6.23372,-71.11485,-8.521038,-36.90935,0,0,0,109.4512,8.56378,-89.92242,-123.799,-110.2997,-87.56558,0.001067912,-0.1257102,0.09433498,0,0.3,0,0,0,0,
6.38224E+17,54.54131,54.89202,24.3512,68.85667,4.956073,-7.684532,-56.87374,-0.4675641,6.23372,-71.11485,-8.521038,-36.83611,0,0,0,107.2547,10.95304,-91.96257,-123.799,-110.2997,-87.56558,0.001067912,-0.1257102,0.09433498,0,0.3,0,0,0,0,
6.38224E+17,54.65911,58.44551,24.60802,68.4172,4.003886,-8.856454,-56.87374,-0.4675641,6.23372,-71.11485,-8.521038,-36.90935,0,0,0,102.2196,15.74438,-95.86494,-123.799,-110.2997,-87.56558,0.001067912,-0.1257102,0.09433498,0,0.3,0,0,0,0,
6.38224E+17,54.63555,62.34967,25.30844,67.53825,2.831963,-10.3946,-56.87374,-0.4675641,6.23372,-71.11485,-8.521038,-36.83611,0,0,0,96.95345,20.91991,-99.53927,-123.799,-110.2997,-87.56558,0.001067912,-0.1257102,0.09433498,0,0.3,0,0,0,0,
6.38224E+17,54.54131,64.19655,25.84542,67.09879,2.172756,-11.42003,-56.87374,-0.4675641,6.23372,-71.11485,-8.521038,-36.83611,0,0,0,94.63136,23.39255,-100.953,-123.799,-110.2997,-87.56558,0.001067912,-0.1257102,0.09433498,0,0.3,0,0,0,0,
6.38224E+17,54.09367,67.96043,27.19957,66.21985,0.707853,-14.34984,-56.87374,-0.4675641,6.23372,-71.11485,-8.521038,-36.83611,0,0,0,89.90116,28.35131,-103.2573,-123.799,-110.2997,-87.56558,0.001067912,-0.1257102,0.09433498,0,0.3,0,0,0,0,
6.38224E+17,53.48111,71.39703,28.97396,65.3409,-0.61056,-17.42614,-56.87374,-0.4675641,6.23372,-71.11485,-8.521038,-36.83611,0,0,0,86.10108,33.0728,-104.5946,-123.799,-110.2997,-87.56558,0.001067912,-0.1257102,0.09433498,0,0.3,0,0,0,0,
6.38224E+17,52.65651,75.1843,31.51881,64.75494,-1.782483,-20.86866,-56.87374,-0.4675641,6.23372,-71.11485,-8.521038,-36.90935,0,0,0,82.53154,38.58987,-105.3788,-123.799,-110.2997,-87.56558,0.001067912,-0.1257102,0.09433498,0,0.3,0,0,0,0,
6.38224E+17,52.27955,76.70389,32.61613,64.60844,-2.368444,-22.33356,-56.87374,-0.4675641,6.23372,-71.11485,-8.521038,-36.90935,0,0,0,81.11367,40.80468,-105.612,-123.799,-110.2997,-87.56558,0.001067912,-0.1257102,0.09433498,0,0.3,0,0,0,0,
6.38224E+17,51.26648,80.21062,35.74466,64.31547,-3.686857,-25.70284,-56.87374,-0.4675641,6.23372,-71.11485,-8.521038,-36.90935,0,0,0,78.45319,46.5277,-105.4217,-123.799,-110.2997,-87.56558,0.001067912,-0.1257102,0.09433498,0,0.3,0,0,0,0,
6.38224E+17,49.97068,83.43681,38.9199,64.09573,-5.00527,-29.14537,-56.87374,-0.4675641,6.23372,-71.11485,-8.521038,-36.90935,0,0,0,75.81859,52.07643,-104.6645,-123.799,-110.2997,-87.56558,0.001067912,-0.1257102,0.09433498,0,0.3,0,0,0,0,
6.38224E+17,49.21676,84.93301,40.50751,64.02249,-5.737722,-30.90325,-56.87374,-0.4675641,6.23372,-71.11485,-8.521038,-36.83611,0,0,0,74.50311,54.7901,-104.0787,-123.799,-110.2997,-87.56558,0.001067912,-0.1257102,0.09433498,0,0.3,0,0,0,0,
6.38224E+17,47.47332,87.69164,43.58934,63.65627,-7.715342,-34.49226,-56.87374,-0.4675641,6.23372,-71.11485,-8.521038,-36.83611,0,0,0,71.71665,60.00637,-102.5723,-123.799,-110.2997,-87.56558,0.001067912,-0.1257102,0.09433498,0,0.3,0,0,0,0,
6.38224E+17,45.07021,90.14635,46.71788,63.36329,-9.619716,-38.15452,-56.87374,-0.4675641,6.23372,-71.11485,-8.521038,-36.90935,0,0,0,68.48674,65.27598,-100.0309,-123.799,-110.2997,-87.56558,0.001067912,-0.1257102,0.09433498,0,0.3,0,0,0,0,
6.38224E+17,43.68017,91.22175,48.09537,63.14355,-10.71839,-39.98565,-56.87374,-0.4675641,6.23372,-71.11485,-8.447793,-36.83611,0,0,0,66.57933,67.60619,-98.63041,-123.799,-110.2997,-87.56558,0.001067912,-0.1257102,0.09433498,0,0.3,0,0,0,0,
6.38224E+17,40.61737,93.30241,50.75696,62.63083,-12.91575,-43.50142,-56.87374,-0.4675641,6.23372,-71.11485,-8.521038,-36.83611,0,0,0,62.23195,72.11984,-95.78728,-123.799,-110.2997,-87.56558,0.001067912,-0.1257102,0.09433498,0,0.3,0,0,0,0,
6.38224E+17,37.17762,95.05578,53.06834,61.97163,-15.62582,-46.35798,-56.87374,-0.4675641,6.23372,-71.11485,-8.521038,-36.90935,0,0,0,57.31197,76.05623,-92.78299,-123.799,-110.2997,-87.56558,0.001067912,-0.1257102,0.09433498,0,0.3,0,0,0,0,
6.38224E+17,33.03107,96.76238,55.58984,61.23917,-18.70212,-49.43428,-56.87374,-0.4675641,6.23372,-71.11485,-8.521038,-36.90935,0,0,0,51.40958,80.41443,-89.28008,-123.799,-110.2997,-87.56558,0.001067912,-0.1257102,0.09433498,0,0.3,0,0,0,0,
6.38224E+17,30.72219,97.58062,56.78055,60.87295,-20.24026,-50.89918,-56.87374,-0.4675641,6.23372,-71.11485,-8.447793,-36.83611,0,0,0,48.00499,82.47912,-87.57166,-123.799,-110.2997,-87.56558,0.001067912,-0.1257102,0.09433498,0,0.3,0,0,0,0,
6.38224E+17,25.75104,99.1002,59.09193,59.99401,-23.68279,-53.31627,-56.87374,-0.4675641,6.23372,-71.11485,-8.521038,-36.83611,0,0,0,40.54502,86.52471,-84.29536,-123.799,-110.2997,-87.56558,0.001067912,-0.1257102,0.09433498,0,0.3,0,0,0,0,
6.38224E+17,20.35581,100.2224,61.23988,59.11506,-27.78452,-55.07415,-56.87374,-0.4675641,6.23372,-71.11485,-8.521038,-36.90935,0,0,0,32.4316,90.42275,-80.93774,-123.799,-110.2997,-87.56558,0.001067912,-0.1257102,0.09433498,0,0.3,0,0,0,0,
6.38224E+17,17.66997,100.5964,62.17377,58.5291,-30.05512,-55.87985,-56.87374,-0.4675641,6.23372,-71.11485,-8.521038,-36.83611,0,0,0,28.35269,92.17931,-79.34827,-123.799,-110.2997,-87.56558,0.001067912,-0.1257102,0.09433498,0,0.3,0,0,0,0,
6.38224E+17,12.60458,101.0406,64.0182,57.35718,-34.59632,-56.97853,-56.87374,-0.4675641,6.23372,-71.11485,-8.521038,-36.83611,0,0,0,20.58604,95.81321,-76.28792,-123.799,-110.2997,-87.56558,0.001067912,-0.1257102,0.09433498,0,0.3,0,0,0,0,
6.38224E+17,8.245987,101.1107,65.51243,56.11201,-39.28401,-57.93071,-56.87374,-0.4675641,6.23372,-71.11485,-8.521038,-36.83611,0,0,0,13.71959,98.92754,-73.68095,-123.799,-110.2997,-87.56558,0.001067912,-0.1257102,0.09433498,0,0.3,0,0,0,0,
6.38224E+17,6.36119,101.1107,66.16615,55.4528,-41.40812,-58.22369,-56.87374,-0.4675641,6.23372,-71.11485,-8.521038,-36.83611,0,0,0,10.6675,100.3157,-72.66203,-123.799,-110.2997,-87.56558,0.001067912,-0.1257102,0.09433498,0,0.3,0,0,0,0,
6.38224E+17,3.298395,101.1107,67.61369,54.13439,-45.29012,-58.66317,-56.87374,-0.4675641,6.23372,-71.11485,-8.521038,-36.83611,0,0,0,5.615694,103.4143,-70.90865,-123.799,-110.2997,-87.56558,0.001067912,-0.1257102,0.09433498,0,0.3,0,0,0,0,
6.38224E+17,0.8481586,101.1107,69.22465,53.32869,-48.58614,-59.54211,-56.87374,-0.4675641,6.23372,-71.11485,-8.521038,-36.83611,0,0,0,1.465194,106.9007,-69.37879,-123.799,-110.2997,-87.56558,0.001067912,-0.1257102,0.09433498,0,0.3,0,0,0,0,
6.38224E+17,-1.413598,101.1809,70.92899,53.40194,-51.51595,-61.1535,-56.87374,-0.4675641,6.23372,-71.11485,-8.521038,-36.90935,0,0,0,-2.471224,110.5983,-68.20695,-123.799,-110.2997,-87.56558,0.001067912,-0.1257102,0.09433498,0,0.3,0,0,0,0,
6.38224E+17,-2.450236,101.1809,71.81618,53.84141,-52.83437,-62.54516,-56.87374,-0.4675641,6.23372,-71.11485,-8.521038,-36.83611,0,0,0,-4.310781,112.5549,-67.60911,-123.799,-110.2997,-87.56558,0.001067912,-0.1257102,0.09433498,0,0.3,0,0,0,0,
6.38224E+17,-4.405713,101.1809,73.45049,55.4528,-55.17821,-66.64689,-56.87374,-0.4675641,6.23372,-71.11485,-8.521038,-36.83611,0,0,0,-7.833052,116.1851,-66.68292,-123.799,-110.2997,-87.56558,0.001067912,-0.1257102,0.09433498,0,0.3,0,0,0,0,
6.38224E+17,-6.314069,101.1575,74.78129,57.65016,-57.44881,-71.40782,-56.87374,-0.4675641,6.23372,-71.11485,-8.521038,-36.90935,0,0,0,-11.31342,119.1746,-66.10456,-123.799,-110.2997,-87.56558,0.001067912,-0.1257102,0.09433498,0,0.3,0,0,0,0,
6.38224E+17,-7.091548,101.1575,75.27159,58.5291,-58.401,-73.38544,-56.87374,-0.4675641,6.23372,-71.11485,-8.521038,-36.90935,0,0,0,-12.73616,120.277,-65.97491,-123.799,-110.2997,-87.56558,0.001067912,-0.1257102,0.09433498,0,0.3,0,0,0,0,
6.38224E+17,-8.811425,101.064,76.13544,59.77427,-60.30537,-76.3885,-56.87374,-0.4675641,6.23372,-71.11485,-8.447793,-36.83611,0,0,0,-15.91177,122.2671,-65.70163,-123.799,-110.2997,-87.56558,0.001067912,-0.1257102,0.09433498,0,0.3,0,0,0,0,
6.38224E+17,-10.03654,100.8068,76.62572,60.06725,-61.91676,-77.92664,-56.87374,-0.4675641,6.23372,-71.11485,-8.521038,-36.83611,0,0,0,-18.25207,123.4897,-65.22206,-123.799,-110.2997,-87.56558,0.001067912,-0.1257102,0.09433498,0,0.3,0,0,0,0,
6.38224E+17,-10.4135,100.6198,76.76581,60.06725,-62.42948,-78.36612,-56.87374,-0.4675641,6.23372,-71.11485,-8.521038,-36.90935,0,0,0,-19.02103,123.8879,-64.84993,-123.799,-110.2997,-87.56558,0.001067912,-0.1257102,0.09433498,0,0.3,0,0,0,0,
6.38224E+17,-11.37946,100.2925,76.92924,59.92076,-62.9422,-78.95209,-56.87374,-0.4675641,6.23372,-71.11485,-8.521038,-36.90935,0,0,0,-20.92805,124.3965,-64.36609,-123.799,-110.2997,-87.56558,0.001067912,-0.1257102,0.09433498,0,0.3,0,0,0,0,
6.38224E+17,-12.48678,99.89507,76.88255,58.23612,-63.16194,-78.14638,-56.87374,-0.4675641,6.23372,-71.11485,-8.521038,-36.83611,0,0,0,-23.12522,124.4528,-63.92487,-123.799,-110.2997,-87.56558,0.001067912,-0.1257102,0.09433498,0,0.3,0,0,0,0,
6.38224E+17,-13.57054,99.38074,76.57903,53.62167,-63.23518,-72.21353,-56.87374,-0.4675641,6.23372,-71.11485,-8.521038,-36.90935,0,0,0,-25.33504,123.9657,-63.39137,-123.799,-110.2997,-87.56558,0.001067912,-0.1257102,0.09433498,0,0.3,0,0,0,0,
6.38224E+17,-14.25378,99.1002,76.3689,49.51994,-63.30842,-66.79338,-56.87374,-0.4675641,6.23372,-71.11485,-8.521038,-36.90935,0,0,0,-26.71533,123.595,-63.18718,-123.799,-110.2997,-87.56558,0.001067912,-0.1257102,0.09433498,0,0.3,0,0,0,0,
6.38224E+17,-15.83229,98.53912,75.90196,35.45687,-63.30842,-49.72726,-56.87374,-0.4675641,6.23372,-71.11485,-8.594284,-36.90935,0,0,0,-29.8831,122.7401,-62.9721,-123.799,-110.2997,-87.56558,0.001067912,-0.1257102,0.09433498,0,0.3,0,0,0,0,
6.38224E+17,-17.66997,97.97805,75.41167,12.23815,-63.30842,-24.8239,-56.87374,-0.4675641,6.23372,-71.11485,-8.521038,-36.83611,0,0,0,-33.55344,121.8222,-63.02261,-123.799,-110.2997,-87.56558,0.001067912,-0.1257102,0.09433498,0,0.3,0,0,0,0,
6.38224E+17,-19.29561,97.32346,74.75794,-13.54414,-62.42948,0.6654179,-56.87374,-0.4675641,6.23372,-71.11485,-8.521038,-36.83611,0,0,0,-36.8975,120.5548,-62.96138,-123.799,-110.2997,-87.56558,0.001067912,-0.1257102,0.09433498,0,0.3,0,0,0,0,
6.38224E+17,-19.69613,96.87927,74.291,-23.13926,-61.77028,9.894309,-56.87374,-0.4675641,6.23372,-71.11485,-8.521038,-36.83611,0,0,0,-37.88131,119.6352,-62.52905,-123.799,-110.2997,-87.56558,0.001067912,-0.1257102,0.09433498,0,0.3,0,0,0,0,
6.38224E+17,-20.45005,96.01428,73.31042,-33.24709,-60.52511,21.02757,-56.87374,-0.4675641,6.23372,-71.11485,-8.447793,-36.83611,0,0,0,-39.74691,117.6697,-61.75885,-123.799,-110.2997,-87.56558,0.001067912,-0.1257102,0.09433498,0,0.3,0,0,0,0,
6.38224E+17,-21.79296,95.12591,72.25979,-37.42207,-58.98696,26.30123,-56.87374,-0.4675641,6.23372,-71.11485,-8.521038,-36.83611,0,0,0,-42.72939,115.5347,-61.48085,-123.799,-110.2997,-87.56558,0.001067912,-0.1257102,0.09433498,0,0.3,0,0,0,0,
6.38224E+17,-22.594,94.65834,71.81618,-38.96022,-58.18126,27.98586,-56.87374,-0.4675641,6.23372,-71.11485,-8.521038,-36.90935,0,0,0,-44.51352,114.6454,-61.38159,-123.799,-110.2997,-87.56558,0.001067912,-0.1257102,0.09433498,0,0.3,0,0,0,0,
6.38224E+17,-24.52592,93.67646,70.92899,-41.89003,-56.49662,30.40295,-56.87374,-0.4675641,6.23372,-71.11485,-8.521038,-36.83611,0,0,0,-48.76664,112.8548,-61.46954,-123.799,-110.2997,-87.56558,0.001067912,-0.1257102,0.09433498,0,0.3,0,0,0,0,
6.38224E+17,-26.69344,92.62444,69.90171,-45.03957,-54.519,32.60031,-56.87374,-0.4675641,6.23372,-71.11485,-8.521038,-36.83611,0,0,0,-53.51231,110.7369,-61.92225,-123.799,-110.2997,-87.56558,0.001067912,-0.1257102,0.09433498,0,0.3,0,0,0,0,
6.38224E+17,-29.07299,91.54904,68.85109,-47.74964,-52.32165,34.65118,-56.87374,-0.4675641,6.23372,-71.11485,-8.521038,-36.90935,0,0,0,-58.68183,108.5395,-62.80251,-123.799,-110.2997,-87.56558,0.001067912,-0.1257102,0.09433498,0,0.3,0,0,0,0,
6.38224E+17,-30.53371,90.87108,68.19736,-49.28778,-51.07648,35.67661,-56.87374,-0.4675641,6.23372,-71.11485,-8.521038,-36.83611,0,0,0,-61.8718,107.157,-63.4537,-123.799,-110.2997,-87.56558,0.001067912,-0.1257102,0.09433498,0,0.3,0,0,0,0,
6.38224E+17,-33.62006,89.30474,66.86657,-51.77813,-48.14668,37.58098,-56.87374,-0.4675641,6.23372,-71.11485,-8.521038,-36.90935,0,0,0,-68.79279,104.3005,-64.88715,-123.799,-110.2997,-87.56558,0.001067912,-0.1257102,0.09433498,0,0.3,0,0,0,0,
6.38224E+17,-36.6593,87.64488,65.7459,-54.19521,-44.92389,39.41211,-56.87374,-0.4675641,6.23372,-71.1881,-8.521038,-36.90935,0,0,0,-75.86144,101.8093,-66.42303,-123.799,-110.2997,-87.56558,0.001067912,-0.1257102,0.09433498,0,0.3,0,0,0,0,
6.38224E+17,-38.23782,86.75651,65.20892,-55.58687,-43.09276,40.21781,-56.87374,-0.4675641,6.23372,-71.11485,-8.521038,-36.83611,0,0,0,-79.59752,100.5713,-67.33685,-123.799,-110.2997,-87.56558,0.001067912,-0.1257102,0.09433498,0,0.3,0,0,0,0,
6.38224E+17,-41.27705,85.00314,64.41511,-58.15046,-39.57699,41.60947,-56.87374,-0.4675641,6.23372,-71.11485,-8.521038,-36.83611,0,0,0,-87.00758,98.60628,-69.23131,-123.799,-110.2997,-87.56558,0.001067912,-0.1257102,0.09433498,0,0.3,0,0,0,0,
6.38224E+17,-44.12781,83.15627,63.87812,-60.64079,-36.20771,43.07437,-56.87374,-0.4675641,6.23372,-71.11485,-8.521038,-36.90935,0,0,0,-94.4268,97.03825,-71.00368,-123.799,-110.2997,-87.56558,0.001067912,-0.1257102,0.09433498,0,0.3,0,0,0,0,
6.38224E+17,-45.30581,82.33804,63.66799,-61.81271,-34.74281,43.66033,-56.87374,-0.4675641,6.23372,-71.11485,-8.521038,-36.83611,0,0,0,-97.59742,96.35912,-71.78887,-123.799,-110.2997,-87.56558,0.001067912,-0.1257102,0.09433498,0,0.3,0,0,0,0,
6.38224E+17,-47.73248,80.63142,63.15435,-64.15656,-31.66651,44.68576,-56.87374,-0.4675641,6.23372,-71.11485,-8.521038,-36.83611,0,0,0,-104.1092,94.702,-73.72574,-123.799,-110.2997,-87.56558,0.001067912,-0.1257102,0.09433498,0,0.3,0,0,0,0,
6.38224E+17,-50.11204,78.85468,62.24381,-65.91444,-28.66346,45.34497,-56.87374,-0.4675641,6.23372,-71.11485,-8.521038,-36.83611,0,0,0,-110.3244,92.08258,-76.14382,-123.799,-110.2997,-87.56558,0.001067912,-0.1257102,0.09433498,0,0.3,0,0,0,0,
6.38224E+17,-52.42091,77.03118,61.0531,-67.01311,-25.95339,45.5647,-56.87374,-0.4675641,6.23372,-71.11485,-8.521038,-36.83611,0,0,0,-116.1957,88.75731,-78.93481,-123.799,-110.2997,-87.56558,0.001067912,-0.1257102,0.09433498,0,0.3,0,0,0,0,
6.38224E+17,-53.55179,75.90903,60.42272,-67.45258,-24.63498,45.5647,-56.87374,-0.4675641,6.23372,-71.11485,-8.521038,-36.83611,0,0,0,-119.4034,86.86639,-80.16302,-123.799,-110.2997,-87.56558,0.001067912,-0.1257102,0.09433498,0,0.3,0,0,0,0,
6.38224E+17,-55.74287,73.3608,58.85846,-68.11179,-21.77841,45.5647,-56.87374,-0.4675641,6.23372,-71.11485,-8.521038,-36.83611,0,0,0,-125.8932,82.15373,-82.60945,-123.799,-110.2997,-87.56558,0.001067912,-0.1257102,0.09433498,0,0.3,0,0,0,0,
6.38224E+17,-57.39207,70.34502,56.59377,-68.55127,-18.62887,44.9055,-56.87374,-0.4675641,6.23372,-71.11485,-8.521038,-36.90935,0,0,0,-131.5558,75.51167,-84.19087,-123.799,-110.2997,-87.56558,0.001067912,-0.1257102,0.09433498,0,0.3,0,0,0,0,
6.38224E+17,-57.41562,69.01246,55.16959,-68.55127,-17.16397,44.31954,-56.87374,-0.4675641,6.23372,-71.11485,-8.447793,-36.83611,0,0,0,-132.4744,71.69057,-83.67997,-123.799,-110.2997,-87.56558,0.001067912,-0.1257102,0.09433498,0,0.3,0,0,0,0,
6.38224E+17,-57.43919,66.55774,52.08775,-66.72014,-14.74688,43.22086,-56.87374,-0.4675641,6.23372,-71.11485,-8.521038,-36.90935,0,0,0,-133.3821,63.75606,-83.17708,-123.799,-110.2997,-87.56558,0.001067912,-0.1257102,0.09433498,0,0.3,0,0,0,0,
6.38224E+17,-57.43919,64.10303,48.63235,-64.30305,-12.8425,42.12218,-56.87374,-0.4675641,6.23372,-71.11485,-8.521038,-36.90935,0,0,0,-133.4339,55.17967,-83.14398,-123.799,-110.2997,-87.56558,0.001067912,-0.1257102,0.09433498,0,0.3,0,0,0,0,
6.38224E+17,-57.43919,62.79386,46.74123,-62.98463,-11.89032,41.46298,-56.87374,-0.4675641,6.23372,-71.11485,-8.521038,-36.83611,0,0,0,-133.2339,50.56311,-83.27167,-123.799,-110.2997,-87.56558,0.001067912,-0.1257102,0.09433498,0,0.3,0,0,0,0,
6.38224E+17,-57.43919,60.52617,43.28583,-60.78728,-9.839451,39.77834,-56.87374,-0.4675641,6.23372,-71.11485,-8.521038,-36.83611,0,0,0,-132.3579,42.3708,-83.83111,-123.799,-110.2997,-87.56558,0.001067912,-0.1257102,0.09433498,0,0.3,0,0,0,0,
6.38224E+17,-57.39207,58.42213,39.57362,-59.32237,-7.568851,37.43449,-56.87374,-0.4675641,6.23372,-71.11485,-8.521038,-36.83611,0,0,0,-130.3856,34.16769,-84.93948,-123.799,-110.2997,-87.56558,0.001067912,-0.1257102,0.09433498,0,0.3,0,0,0,0,
6.38224E+17,-57.39207,57.41687,37.68249,-58.73641,-6.470173,36.04284,-56.87374,-0.4675641,6.23372,-71.11485,-8.521038,-36.83611,0,0,0,-129.1592,30.17759,-85.72407,-123.799,-110.2997,-87.56558,0.001067912,-0.1257102,0.09433498,0,0.3,0,0,0,0,
6.38224E+17,-57.36851,55.54661,34.43722,-58.15046,-4.272818,32.82005,-56.87374,-0.4675641,6.23372,-71.11485,-8.521038,-36.90935,0,0,0,-127.0398,23.32871,-87.00623,-123.799,-110.2997,-87.56558,0.001067912,-0.1257102,0.09433498,0,0.3,0,0,0,0,
6.38224E+17,-57.25071,53.74649,31.19195,-58.07721,-2.221954,29.15779,-56.87374,-0.4675641,6.23372,-71.11485,-8.521038,-36.90935,0,0,0,-124.408,16.81202,-88.33026,-123.799,-110.2997,-87.56558,0.001067912,-0.1257102,0.09433498,0,0.3,0,0,0,0,
6.38224E+17,-56.52034,52.39055,27.66651,-58.07721,-0.3908245,25.64202,-56.87374,-0.4675641,6.23372,-71.11485,-8.447793,-36.90935,0,0,0,-119.5222,10.88496,-89.301,-123.799,-110.2997,-87.56558,0.001067912,-0.1257102,0.09433498,0,0.3,0,0,0,0,
6.38224E+17,-55.95491,51.82948,25.82208,-57.71098,0.4881175,23.73765,-56.87374,-0.4675641,6.23372,-71.11485,-8.521038,-36.90935,0,0,0,-116.4139,8.15129,-89.69446,-123.799,-110.2997,-87.56558,0.001067912,-0.1257102,0.09433498,0,0.3,0,0,0,0,
6.38224E+17,-54.82403,50.68394,21.80634,-56.53906,2.026266,19.78241,-56.87374,-0.4675641,6.23372,-71.11485,-8.521038,-36.90935,0,0,0,-109.5509,2.709821,-91.1391,-123.799,-110.2997,-87.56558,0.001067912,-0.1257102,0.09433498,0,0.3,0,0,0,0,
6.38224E+17,-53.69315,49.53841,18.21087,-55.51363,3.78415,15.68068,-56.87374,-0.4675641,6.23372,-71.11485,-8.521038,-36.90935,0,0,0,-103.1879,-2.001107,-92.46661,-123.799,-110.2997,-87.56558,0.001067912,-0.1257102,0.09433498,0,0.3,0,0,0,0,
6.38224E+17,-53.03347,48.86045,16.50652,-55.00091,4.736337,13.04385,-56.87374,-0.4675641,6.23372,-71.11485,-8.521038,-36.90935,0,0,0,-100.3674,-4.077168,-92.80962,-123.799,-110.2997,-87.56558,0.001067912,-0.1257102,0.09433498,0,0.3,0,0,0,0,
6.38224E+17,-51.92616,47.48113,13.6348,-54.19521,6.787202,8.429405,-56.87374,-0.4675641,6.23372,-71.11485,-8.521038,-36.90935,0,0,0,-95.69189,-7.955671,-93.38849,-123.799,-110.2997,-87.56558,0.001067912,-0.1257102,0.09433498,0,0.3,0,0,0,0,
6.38224E+17,-50.79528,45.84466,10.94987,-53.53601,8.545086,4.693902,-56.87374,-0.4675641,6.23372,-71.11485,-8.521038,-36.83611,0,0,0,-91.60953,-11.89974,-93.62251,-123.799,-110.2997,-87.56558,0.001067912,-0.1257102,0.09433498,0,0.3,0,0,0,0,
6.38224E+17,-50.15916,44.86277,9.642421,-53.09653,9.424027,2.936018,-56.87374,-0.4675641,6.23372,-71.11485,-8.521038,-36.83611,0,0,0,-89.72382,-14.04949,-93.48651,-123.799,-110.2997,-87.56558,0.001067912,-0.1257102,0.09433498,0,0.3,0,0,0,0,
6.38224E+17,-48.76912,42.52495,7.074222,-52.0711,11.10867,0.1527017,-56.87374,-0.4675641,6.23372,-71.11485,-8.521038,-36.83611,0,0,0,-86.26081,-18.85211,-92.7522,-123.799,-110.2997,-87.56558,0.001067912,-0.1257102,0.09433498,0,0.3,0,0,0,0,
6.38224E+17,-47.61468,39.81308,5.019662,-50.6062,12.64682,-1.971408,-56.87374,-0.4675641,6.23372,-71.11485,-8.521038,-36.83611,0,0,0,-84.27667,-24.10655,-91.43442,-123.799,-110.2997,-87.56558,0.001067912,-0.1257102,0.09433498,0,0.3,0,0,0,0,
6.38224E+17,-47.16704,38.41039,4.249202,-49.94699,13.37927,-2.923595,-56.87374,-0.4675641,6.23372,-71.11485,-8.521038,-36.90935,0,0,0,-83.87272,-26.78445,-90.59335,-123.799,-110.2997,-87.56558,0.001067912,-0.1257102,0.09433498,0,0.3,0,0,0,0,
6.38224E+17,-46.55449,35.48811,3.385354,-48.84832,14.84417,-4.608234,-56.87374,-0.4675641,6.23372,-71.11485,-8.521038,-36.90935,0,0,0,-84.5481,-32.35308,-88.26952,-123.799,-110.2997,-87.56558,0.001067912,-0.1257102,0.09433498,0,0.3,0,0,0,0,
6.38224E+17,-46.24821,32.89313,3.385354,-48.11587,16.16258,-5.780157,-56.87374,-0.4675641,6.23372,-71.11485,-8.521038,-36.83611,0,0,0,-86.57017,-37.34841,-85.47189,-123.799,-110.2997,-87.56558,0.001067912,-0.1257102,0.09433498,0,0.3,0,0,0,0,
6.38224E+17,-46.10685,31.63071,3.595479,-47.89613,16.74854,-6.146383,-56.87374,-0.4675641,6.23372,-71.11485,-8.521038,-36.90935,0,0,0,-87.84739,-39.80314,-83.83277,-123.799,-110.2997,-87.56558,0.001067912,-0.1257102,0.09433498,0,0.3,0,0,0,0,
6.38224E+17,-45.89481,29.24613,4.506022,-47.38342,17.55424,-6.585854,-56.87374,-0.4675641,6.23372,-71.11485,-8.521038,-36.83611,0,0,0,-91.07069,-44.43804,-80.08035,-123.799,-110.2997,-87.56558,0.001067912,-0.1257102,0.09433498,0,0.3,0,0,0,0,
6.38224E+17,-45.89481,27.16547,6.070289,-47.16368,17.84722,-6.585854,-56.87374,-0.4675641,6.23372,-71.11485,-8.521038,-36.83611,0,0,0,-95.3171,-48.36977,-75.96454,-123.799,-110.2997,-87.56558,0.001067912,-0.1257102,0.09433498,0,0.3,0,0,0,0,
6.38224E+17,-45.89481,25.22508,7.984766,-47.01719,17.55424,-6.512609,-56.87374,-0.4675641,6.23372,-71.11485,-8.447793,-36.83611,0,0,0,-99.92384,-51.8767,-71.4995,-123.799,-110.2997,-87.56558,0.001067912,-0.1257102,0.09433498,0,0.3,0,0,0,0,
6.38224E+17,-45.89481,24.38347,8.988697,-47.09043,17.18801,-6.439363,-56.87374,-0.4675641,6.23372,-71.11485,-8.521038,-36.83611,0,0,0,-102.1733,-53.30993,-69.31922,-123.799,-110.2997,-87.56558,0.001067912,-0.1257102,0.09433498,0,0.3,0,0,0,0,
6.38224E+17,-45.98904,22.86388,11.1133,-47.01719,16.45556,-6.073137,-56.87374,-0.4675641,6.23372,-71.11485,-8.521038,-36.83611,0,0,0,-106.8568,-55.68718,-65.12005,-123.799,-110.2997,-87.56558,0.001067912,-0.1257102,0.09433498,0,0.3,0,0,0,0,
6.38224E+17,-46.34245,21.62484,13.6815,-47.31017,15.57662,-5.267441,-56.87374,-0.4675641,6.23372,-71.11485,-8.521038,-36.83611,0,0,0,-112.5045,-57.07312,-60.99769,-123.799,-110.2997,-87.56558,0.001067912,-0.1257102,0.09433498,0,0.3,0,0,0,0,
6.38224E+17,-46.6016,21.15727,15.03564,-47.60315,15.13715,-4.82797,-56.87374,-0.4675641,6.23372,-71.11485,-8.447793,-36.83611,0,0,0,-115.4957,-57.30481,-59.13728,-123.799,-110.2997,-87.56558,0.001067912,-0.1257102,0.09433498,0,0.3,0,0,0,0,
6.38224E+17,-47.21416,20.40917,18.04744,-48.26236,14.03847,-3.875783,-56.87374,-0.4675641,6.23372,-71.11485,-8.521038,-36.83611,0,0,0,-122.041,-56.93714,-55.39484,-123.799,-110.2997,-87.56558,0.001067912,-0.1257102,0.09433498,0,0.3,0,0,0,0,
6.38224E+17,-47.8974,19.80134,21.43279,-49.50752,12.79331,-2.484124,-56.87374,-0.4675641,6.23372,-71.11485,-8.521038,-36.90935,0,0,0,-129.2415,-55.60479,-51.56067,-123.799,-110.2997,-87.56558,0.001067912,-0.1257102,0.09433498,0,0.3,0,0,0,0,
6.38224E+17,-48.22724,19.5208,23.20718,-50.16673,12.06085,-1.531937,-56.87374,-0.4675641,6.23372,-71.11485,-8.521038,-36.83611,0,0,0,-132.9246,-54.65134,-49.61537,-123.799,-110.2997,-87.56558,0.001067912,-0.1257102,0.09433498,0,0.3,0,0,0,0,
6.38224E+17,-48.86336,18.88959,26.96609,-51.55839,10.59595,0.2259469,-56.87374,-0.4675641,6.23372,-71.11485,-8.521038,-36.83611,0,0,0,-140.5648,-52.33007,-45.56912,-123.799,-110.2997,-87.56558,0.001067912,-0.1257102,0.09433498,0,0.3,0,0,0,0,
6.38224E+17,-49.38168,17.97784,30.86509,-52.80355,9.057802,2.057076,-56.87374,-0.4675641,6.23372,-71.11485,-8.521038,-36.83611,0,0,0,-148.2073,-49.95631,-41.23874,-123.799,-110.2997,-87.56558,0.001067912,-0.1257102,0.09433498,0,0.3,0,0,0,0,
6.38224E+17,-49.59372,17.4869,32.82626,-53.46276,8.325351,3.155754,-56.87374,-0.4675641,6.23372,-71.11485,-8.521038,-36.90935,0,0,0,-151.894,-48.63641,-39.04932,-123.799,-110.2997,-87.56558,0.001067912,-0.1257102,0.09433498,0,0.3,0,0,0,0,
6.38224E+17,-49.82932,16.43488,36.53847,-54.56144,6.860447,6.012315,-56.87374,-0.4675641,6.23372,-71.11485,-8.521038,-36.90935,0,0,0,-158.3981,-46.06293,-34.63207,-123.799,-110.2997,-87.56558,0.001067912,-0.1257102,0.09433498,0,0.3,0,0,0,0,
6.38224E+17,-49.85288,15.28934,39.50357,-55.58687,5.468789,8.50265,-56.87374,-0.4675641,6.23372,-71.11485,-8.521038,-36.90935,0,0,0,-163.1652,-44.3773,-30.7226,-123.799,-110.2997,-87.56558,0.001067912,-0.1257102,0.09433498,0,0.3,0,0,0,0,
6.38224E+17,-49.73508,13.98017,41.8383,-56.31932,4.370111,10.55352,-56.87374,-0.4675641,6.23372,-71.11485,-8.521038,-36.90935,0,0,0,-166.614,-43.7843,-27.22631,-123.799,-110.2997,-87.56558,0.001067912,-0.1257102,0.09433498,0,0.3,0,0,0,0,
6.38224E+17,-49.5466,13.25544,42.6788,-56.68555,3.93064,11.28597,-56.87374,-0.4675641,6.23372,-71.11485,-8.447793,-36.83611,0,0,0,-167.5527,-44.10812,-25.48195,-123.799,-110.2997,-87.56558,0.001067912,-0.1257102,0.09433498,0,0.3,0,0,0,0,
6.38224E+17,-49.05184,11.71248,43.82282,-56.97853,3.124943,12.38465,-56.87374,-0.4675641,6.23372,-71.11485,-8.521038,-36.83611,0,0,0,-168.3639,-45.78984,-22.26075,-123.799,-110.2997,-87.56558,0.001067912,-0.1257102,0.09433498,0,0.3,0,0,0,0,
6.38224E+17,-48.32148,10.16952,44.24307,-56.6123,2.319247,12.89736,-56.87374,-0.4675641,6.23372,-71.11485,-8.521038,-36.83611,0,0,0,-167.5223,-48.6357,-19.20573,-123.799,-110.2997,-87.56558,0.001067912,-0.1257102,0.09433498,0,0.3,0,0,0,0,
6.38224E+17,-47.94452,9.444795,44.31311,-56.31932,2.026266,13.04385,-56.87374,-0.4675641,6.23372,-71.11485,-8.521038,-36.90935,0,0,0,-166.8374,-50.18395,-17.83618,-123.799,-110.2997,-87.56558,0.001067912,-0.1257102,0.09433498,0,0.3,0,0,0,0,
6.38224E+17,-47.09636,7.901833,44.33646,-55.58687,1.440305,13.19034,-56.87374,-0.4675641,6.23372,-71.11485,-8.521038,-36.83611,0,0,0,-165.0162,-53.69589,-14.98792,-123.799,-110.2997,-87.56558,0.001067912,-0.1257102,0.09433498,0,0.3,0,0,0,0,
6.38224E+17,-46.24821,6.288737,44.31311,-54.85442,1.074079,13.33683,-56.87374,-0.4675641,6.23372,-71.11485,-8.447793,-36.90935,0,0,0,-163.0349,-57.4593,-12.26826,-123.799,-110.2997,-87.56558,0.001067912,-0.1257102,0.09433498,0,0.3,0,0,0,0,
6.38224E+17,-45.777,5.4705,44.31311,-54.41495,0.9275885,13.33683,-56.87374,-0.4675641,6.23372,-71.11485,-8.447793,-36.83611,0,0,0,-161.8856,-59.35363,-10.7967,-123.799,-110.2997,-87.56558,0.001067912,-0.1257102,0.09433498,0,0.3,0,0,0,0,
6.38224E+17,-44.92884,4.067808,44.26641,-53.82899,0.4881175,13.41008,-56.87374,-0.4675641,6.23372,-71.11485,-8.521038,-36.83611,0,0,0,-159.6724,-62.68275,-8.280548,-123.799,-110.2997,-87.56558,0.001067912,-0.1257102,0.09433498,0,0.3,0,0,0,0,
6.38224E+17,-43.96289,2.73525,44.14968,-52.95005,-0.02459868,13.41008,-56.87374,-0.4675641,6.23372,-71.11485,-8.521038,-36.90935,0,0,0,-156.9437,-65.96805,-5.619214,-123.799,-110.2997,-87.56558,0.001067912,-0.1257102,0.09433498,0,0.3,0,0,0,0,
6.38224E+17,-43.46813,2.127417,44.0096,-52.51057,-0.3175794,13.41008,-56.87374,-0.4675641,6.23372,-71.11485,-8.521038,-36.90935,0,0,0,-155.4128,-67.60825,-4.396487,-123.799,-110.2997,-87.56558,0.001067912,-0.1257102,0.09433498,0,0.3,0,0,0,0,
6.38224E+17,-42.31369,1.215667,43.49596,-51.63163,-0.7570504,13.41008,-56.87374,-0.4675641,6.23372,-71.11485,-8.521038,-36.83611,0,0,0,-151.5384,-70.55602,-1.891367,-123.799,-110.2997,-87.56558,0.001067912,-0.1257102,0.09433498,0,0.3,0,0,0,0,
6.38224E+17,-40.90009,0.5376987,42.74884,-50.38646,-1.196521,13.41008,-56.87374,-0.4675641,6.23372,-71.11485,-8.447793,-36.83611,0,0,0,-146.5707,-73.32231,0.855296,-123.799,-110.2997,-87.56558,0.001067912,-0.1257102,0.09433498,0,0.3,0,0,0,0,
6.38224E+17,-39.29802,0.1636474,41.90834,-48.62858,-1.562747,13.33683,-56.87374,-0.4675641,6.23372,-71.11485,-8.521038,-36.83611,0,0,0,-140.8702,-75.51011,3.771938,-123.799,-110.2997,-87.56558,0.001067912,-0.1257102,0.09433498,0,0.3,0,0,0,0,
6.38224E+17,-38.44986,0.1636474,41.3947,-47.6764,-1.855728,13.33683,-56.87374,-0.4675641,6.23372,-71.11485,-8.521038,-36.90935,0,0,0,-137.7515,-76.3046,5.13879,-123.799,-110.2997,-87.56558,0.001067912,-0.1257102,0.09433498,0,0.3,0,0,0,0,
6.38224E+17,-36.61218,0.2104038,40.39077,-45.2593,-2.441689,13.41008,-56.87374,-0.4675641,6.23372,-71.11485,-8.521038,-36.83611,0,0,0,-131.0636,-77.72536,8.048934,-123.799,-110.2997,-87.56558,0.001067912,-0.1257102,0.09433498,0,0.3,0,0,0,0,
6.38224E+17,-34.70382,0.8649935,39.43353,-42.54923,-3.027651,13.70306,-56.87374,-0.4675641,6.23372,-71.11485,-8.521038,-36.83611,0,0,0,-124.1356,-77.63136,10.89905,-123.799,-110.2997,-87.56558,0.001067912,-0.1257102,0.09433498,0,0.3,0,0,0,0,
6.38224E+17,-33.87922,1.449449,38.9199,-41.23082,-3.247386,13.99604,-56.87374,-0.4675641,6.23372,-71.11485,-8.521038,-36.83611,0,0,0,-121.0112,-77.02657,11.87481,-123.799,-110.2997,-87.56558,0.001067912,-0.1257102,0.09433498,0,0.3,0,0,0,0,
6.38224E+17,-32.27715,3.296327,37.75253,-38.59399,-3.906592,14.50875,-56.87374,-0.4675641,6.23372,-71.11485,-8.521038,-36.90935,0,0,0,-114.6921,-74.41722,13.23535,-123.799,-110.2997,-87.56558,0.001067912,-0.1257102,0.09433498,0,0.3,0,0,0,0,
6.38224E+17,-30.74575,5.797795,36.53847,-36.54313,-4.712289,14.94823,-56.87374,-0.4675641,6.23372,-71.11485,-8.521038,-36.90935,0,0,0,-108.411,-70.32028,13.90328,-123.799,-110.2997,-87.56558,0.001067912,-0.1257102,0.09433498,0,0.3,0,0,0,0,
6.38224E+17,-29.28503,8.369397,35.55789,-34.27253,-5.517986,15.16796,-56.87374,-0.4675641,6.23372,-71.11485,-8.521038,-36.90935,0,0,0,-102.4663,-65.7243,14.35456,-123.799,-110.2997,-87.56558,0.001067912,-0.1257102,0.09433498,0,0.3,0,0,0,0,
