zeyangz2/DNN_classification_different_people_hand/data/zeyang_right_9.csv
Timestamp,Therapist joint angle 0,Therapist joint angle 1,Therapist joint angle 2,Therapist joint angle 3,Therapist joint angle 4,Therapist joint angle 5,Patient joint angle 0,Patient joint angle 1,Patient joint angle 2,Patient joint angle 3,Patient joint angle 4,Patient joint angle 5,Virtual joint angle 0,Virtual joint angle 1,Virtual joint angle 2,Therapist position x,Therapist position y,Therapist position z,Patient position x,Patient position y,Patient position z,Virtual position x,Virtual position y,Virtual position z,Assistive Force, Obstacle Force Magnitude, Therapist Constant Force, Patient Constant Force, Recovery Factor, Assistance Level,label
6.38223E+17,0,0,0,0,0,0,0,0,0,0,0,0,0,0,0,0,0,0,0,0,0,0,0,0,0,0.3,0,0,0,0,0
6.38223E+17,-21.22752,-0.9818845,-3.898993,18.24426,-62.9422,-16.32746,-4.570632,-0.4441859,0.1400836,-35.22471,-8.447793,45.12524,0,0,0,-44.99218,-111.9765,-52.51833,-10.65206,-111.0334,-35.10307,0.001067912,-0.1257102,0.09433498,0,0.3,0,0,0,0,
6.38223E+17,-21.22752,-0.9818845,-3.898993,18.17101,-62.9422,-16.32746,-4.570632,-0.4441859,0.1400836,-35.22471,-8.447793,45.05199,0,0,0,-44.99218,-111.9765,-52.51833,-10.65206,-111.0334,-35.10307,0.001067912,-0.1257102,0.09433498,0,0.3,0,0,0,0,
6.38223E+17,-21.22752,-0.9818845,-3.898993,18.17101,-62.9422,-16.32746,-4.570632,-0.4441859,0.1400836,-35.15147,-8.447793,45.12524,0,0,0,-44.99218,-111.9765,-52.51833,-10.65206,-111.0334,-35.10307,0.001067912,-0.1257102,0.09433498,0,0.3,0,0,0,0,
6.38223E+17,-21.22752,-0.9818845,-3.898993,18.24426,-63.01544,-16.40071,-4.570632,-0.4441859,0.1400836,-35.22471,-8.447793,45.12524,0,0,0,-44.99218,-111.9765,-52.51833,-10.65206,-111.0334,-35.10307,0.001067912,-0.1257102,0.09433498,0,0.3,0,0,0,0,
6.38223E+17,-21.22752,-0.9818845,-3.898993,18.17101,-63.01544,-16.32746,-4.570632,-0.4441859,0.1400836,-35.22471,-8.447793,45.12524,0,0,0,-44.99218,-111.9765,-52.51833,-10.65206,-111.0334,-35.10307,0.001067912,-0.1257102,0.09433498,0,0.3,0,0,0,0,
6.38223E+17,-21.22752,-0.9818845,-3.898993,18.17101,-62.9422,-16.32746,-4.570632,-0.4441859,0.1400836,-35.22471,-8.447793,45.05199,0,0,0,-44.99218,-111.9765,-52.51833,-10.65206,-111.0334,-35.10307,0.001067912,-0.1257102,0.09433498,0,0.3,0,0,0,0,
6.38223E+17,-21.22752,-0.9818845,-3.898993,18.17101,-63.01544,-16.32746,-4.570632,-0.4441859,0.1400836,-35.15147,-8.447793,45.05199,0,0,0,-44.99218,-111.9765,-52.51833,-10.65206,-111.0334,-35.10307,0.001067912,-0.1257102,0.09433498,0,0.3,0,0,0,0,
6.38223E+17,-21.22752,-0.9818845,-3.898993,18.17101,-63.01544,-16.32746,-4.570632,-0.4441859,0.1400836,-35.22471,-8.447793,45.05199,0,0,0,-44.99218,-111.9765,-52.51833,-10.65206,-111.0334,-35.10307,0.001067912,-0.1257102,0.09433498,0,0.3,0,0,0,0,
6.38223E+17,-21.22752,-0.9818845,-3.898993,18.17101,-63.01544,-16.32746,-4.570632,-0.4441859,0.1400836,-35.22471,-8.521038,45.05199,0,0,0,-44.99218,-111.9765,-52.51833,-10.65206,-111.0334,-35.10307,0.001067912,-0.1257102,0.09433498,0,0.3,0,0,0,0,
6.38223E+17,-21.22752,-0.9818845,-3.898993,18.24426,-62.9422,-16.32746,-4.570632,-0.4441859,0.1400836,-35.22471,-8.447793,45.12524,0,0,0,-44.99218,-111.9765,-52.51833,-10.65206,-111.0334,-35.10307,0.001067912,-0.1257102,0.09433498,0,0.3,0,0,0,0,
6.38223E+17,-21.22752,-0.9818845,-3.898993,18.17101,-62.9422,-16.40071,-4.570632,-0.4441859,0.1400836,-35.22471,-8.447793,45.05199,0,0,0,-44.99218,-111.9765,-52.51833,-10.65206,-111.0334,-35.10307,0.001067912,-0.1257102,0.09433498,0,0.3,0,0,0,0,
6.38223E+17,-21.22752,-0.9818845,-3.898993,18.24426,-63.01544,-16.40071,-4.570632,-0.4441859,0.1400836,-35.22471,-8.447793,45.12524,0,0,0,-44.99218,-111.9765,-52.51833,-10.65206,-111.0334,-35.10307,0.001067912,-0.1257102,0.09433498,0,0.3,0,0,0,0,
6.38223E+17,-21.22752,-0.9818845,-3.898993,18.17101,-63.01544,-16.32746,-4.570632,-0.4441859,0.1400836,-35.22471,-8.447793,45.05199,0,0,0,-44.99218,-111.9765,-52.51833,-10.65206,-111.0334,-35.10307,0.001067912,-0.1257102,0.09433498,0,0.3,0,0,0,0,
6.38223E+17,-21.22752,-0.9818845,-3.898993,18.17101,-62.9422,-16.32746,-4.570632,-0.4441859,0.1400836,-35.22471,-8.447793,45.05199,0,0,0,-44.99218,-111.9765,-52.51833,-10.65206,-111.0334,-35.10307,0.001067912,-0.1257102,0.09433498,0,0.3,0,0,0,0,
6.38223E+17,-21.22752,-0.9818845,-3.898993,18.17101,-63.01544,-16.32746,-4.570632,-0.4441859,0.1400836,-35.22471,-8.447793,45.05199,0,0,0,-44.99218,-111.9765,-52.51833,-10.65206,-111.0334,-35.10307,0.001067912,-0.1257102,0.09433498,0,0.3,0,0,0,0,
6.38223E+17,-21.22752,-0.9818845,-3.898993,18.17101,-63.01544,-16.32746,-4.570632,-0.4441859,0.1400836,-35.22471,-8.447793,45.05199,0,0,0,-44.99218,-111.9765,-52.51833,-10.65206,-111.0334,-35.10307,0.001067912,-0.1257102,0.09433498,0,0.3,0,0,0,0,
6.38223E+17,-21.22752,-0.9818845,-3.898993,18.17101,-63.01544,-16.32746,-4.570632,-0.4441859,0.1400836,-35.15147,-8.447793,45.05199,0,0,0,-44.99218,-111.9765,-52.51833,-10.65206,-111.0334,-35.10307,0.001067912,-0.1257102,0.09433498,0,0.3,0,0,0,0,
6.38223E+17,-21.22752,-0.9818845,-3.898993,18.24426,-63.01544,-16.32746,-4.570632,-0.4441859,0.1400836,-35.15147,-8.447793,45.12524,0,0,0,-44.99218,-111.9765,-52.51833,-10.65206,-111.0334,-35.10307,0.001067912,-0.1257102,0.09433498,0,0.3,0,0,0,0,
6.38223E+17,-21.22752,-0.9818845,-3.898993,18.17101,-62.9422,-16.32746,-4.570632,-0.4441859,0.1400836,-35.22471,-8.447793,45.12524,0,0,0,-44.99218,-111.9765,-52.51833,-10.65206,-111.0334,-35.10307,0.001067912,-0.1257102,0.09433498,0,0.3,0,0,0,0,
6.38223E+17,-21.22752,-0.9818845,-3.898993,18.24426,-62.9422,-16.40071,-4.570632,-0.4441859,0.1400836,-35.22471,-8.447793,45.12524,0,0,0,-44.99218,-111.9765,-52.51833,-10.65206,-111.0334,-35.10307,0.001067912,-0.1257102,0.09433498,0,0.3,0,0,0,0,
6.38223E+17,-21.22752,-0.9818845,-3.898993,18.24426,-63.01544,-16.32746,-4.570632,-0.4441859,0.1400836,-35.22471,-8.447793,45.05199,0,0,0,-44.99218,-111.9765,-52.51833,-10.65206,-111.0334,-35.10307,0.001067912,-0.1257102,0.09433498,0,0.3,0,0,0,0,
6.38223E+17,-21.22752,-0.9818845,-3.898993,18.17101,-63.01544,-16.40071,-4.570632,-0.4441859,0.1400836,-35.22471,-8.447793,45.05199,0,0,0,-44.99218,-111.9765,-52.51833,-10.65206,-111.0334,-35.10307,0.001067912,-0.1257102,0.09433498,0,0.3,0,0,0,0,
6.38223E+17,-21.22752,-0.9818845,-3.898993,18.17101,-63.01544,-16.40071,-4.570632,-0.4441859,0.1400836,-35.15147,-8.447793,45.05199,0,0,0,-44.99218,-111.9765,-52.51833,-10.65206,-111.0334,-35.10307,0.001067912,-0.1257102,0.09433498,0,0.3,0,0,0,0,
6.38223E+17,-21.22752,-0.9818845,-3.898993,18.17101,-63.01544,-16.32746,-4.570632,-0.4441859,0.1400836,-35.22471,-8.447793,45.05199,0,0,0,-44.99218,-111.9765,-52.51833,-10.65206,-111.0334,-35.10307,0.001067912,-0.1257102,0.09433498,0,0.3,0,0,0,0,
6.38223E+17,-21.22752,-0.9818845,-3.898993,18.17101,-62.9422,-16.32746,-4.570632,-0.4441859,0.1400836,-35.22471,-8.447793,45.05199,0,0,0,-44.99218,-111.9765,-52.51833,-10.65206,-111.0334,-35.10307,0.001067912,-0.1257102,0.09433498,0,0.3,0,0,0,0,
6.38223E+17,-21.22752,-0.9818845,-3.898993,18.17101,-63.01544,-16.32746,-4.570632,-0.4441859,0.1400836,-35.22471,-8.447793,45.05199,0,0,0,-44.99218,-111.9765,-52.51833,-10.65206,-111.0334,-35.10307,0.001067912,-0.1257102,0.09433498,0,0.3,0,0,0,0,
6.38223E+17,-21.22752,-0.9818845,-3.898993,18.17101,-62.9422,-16.40071,-4.570632,-0.4441859,0.1400836,-35.22471,-8.447793,45.05199,0,0,0,-44.99218,-111.9765,-52.51833,-10.65206,-111.0334,-35.10307,0.001067912,-0.1257102,0.09433498,0,0.3,0,0,0,0,
6.38223E+17,-21.22752,-0.9818845,-3.898993,18.24426,-62.9422,-16.40071,-4.570632,-0.4441859,0.1400836,-35.22471,-8.447793,45.12524,0,0,0,-44.99218,-111.9765,-52.51833,-10.65206,-111.0334,-35.10307,0.001067912,-0.1257102,0.09433498,0,0.3,0,0,0,0,
6.38223E+17,-21.22752,-0.9818845,-3.898993,18.17101,-63.01544,-16.40071,-4.570632,-0.4441859,0.1400836,-35.22471,-8.447793,45.05199,0,0,0,-44.99218,-111.9765,-52.51833,-10.65206,-111.0334,-35.10307,0.001067912,-0.1257102,0.09433498,0,0.3,0,0,0,0,
6.38223E+17,-21.22752,-0.9818845,-3.898993,18.24426,-62.9422,-16.32746,-4.570632,-0.4441859,0.1400836,-35.22471,-8.447793,45.05199,0,0,0,-44.99218,-111.9765,-52.51833,-10.65206,-111.0334,-35.10307,0.001067912,-0.1257102,0.09433498,0,0.3,0,0,0,0,
6.38223E+17,-21.22752,-0.9818845,-3.898993,18.24426,-63.01544,-16.40071,-4.570632,-0.4441859,0.1400836,-35.22471,-8.447793,45.05199,0,0,0,-44.99218,-111.9765,-52.51833,-10.65206,-111.0334,-35.10307,0.001067912,-0.1257102,0.09433498,0,0.3,0,0,0,0,
6.38223E+17,-21.22752,-0.9818845,-3.898993,18.17101,-63.01544,-16.32746,-4.570632,-0.4441859,0.1400836,-35.22471,-8.447793,45.05199,0,0,0,-44.99218,-111.9765,-52.51833,-10.65206,-111.0334,-35.10307,0.001067912,-0.1257102,0.09433498,0,0.3,0,0,9.90E-08,0,
6.38223E+17,-21.15685,-0.9818845,-3.898993,18.02452,-62.9422,-16.47395,-4.570632,-0.4441859,0.1400836,-35.22471,-8.447793,45.05199,0,0,0,-44.84925,-111.9765,-52.46291,-10.65206,-111.0334,-35.10307,0.001067912,-0.1257102,0.09433498,0,0.3,0,0,6.50E-05,0,
6.38223E+17,-21.0626,-0.9818845,-3.922341,9.674574,-63.01544,-17.2064,-4.570632,-0.4441859,0.1400836,-35.22471,-8.447793,45.05199,0,0,0,-44.6391,-111.9728,-52.43989,-10.65206,-111.0334,-35.10307,0.001067912,-0.1257102,0.09433498,0,0.3,0,0,0.000343979,0,
6.38223E+17,-21.15685,-0.9585064,-3.898993,3.375489,-63.01544,-15.22878,-4.570632,-0.4441859,0.1400836,-35.22471,-8.447793,45.05199,0,0,0,-44.84958,-111.9221,-52.46205,-10.65206,-111.0334,-35.10307,0.001067912,-0.1257102,0.09433498,0,0.3,0,0,0.000400137,0,
6.38223E+17,-21.25109,-0.6779679,-3.992383,-8.270493,-62.42948,-10.61434,-4.570632,-0.4441859,0.1400836,-35.22471,-8.447793,45.05199,0,0,0,-44.96492,-111.2543,-52.72938,-10.65206,-111.0334,-35.10307,0.001067912,-0.1257102,0.09433498,0,0.3,0,0,0.000330014,0,
6.38223E+17,-21.27464,-0.3974294,-4.039077,-18.96429,-60.6716,-4.608234,-4.570632,-0.4441859,0.1400836,-35.22471,-8.447793,45.05199,0,0,0,-44.97535,-110.5938,-52.84319,-10.65206,-111.0334,-35.10307,0.001067912,-0.1257102,0.09433498,0,0.3,0,0,0.000230178,0,
6.38223E+17,-21.32176,0.1636474,-4.062424,-29.65808,-57.00934,0.1527017,-4.570632,-0.4441859,0.1400836,-35.22471,-8.447793,45.05199,0,0,0,-45.05159,-109.2841,-52.92823,-10.65206,-111.0334,-35.10307,0.001067912,-0.1257102,0.09433498,0,0.3,0,0,5.68E-05,0,
6.38223E+17,-21.43956,0.5376987,-4.085772,-33.24709,-54.37251,1.031644,-4.570632,-0.4441859,0.1400836,-35.22471,-8.447793,45.05199,0,0,0,-45.26704,-108.4097,-53.07651,-10.65206,-111.0334,-35.10307,0.001067912,-0.1257102,0.09433498,0,0.3,0,0,0,0,
6.38223E+17,-21.93432,1.16891,-4.202508,-35.07822,-50.56377,1.104889,-4.570632,-0.4441859,0.1400836,-35.22471,-8.447793,45.12524,0,0,0,-46.15135,-106.9211,-53.74335,-10.65206,-111.0334,-35.10307,0.001067912,-0.1257102,0.09433498,0,0.3,0,0,0,0,
6.38223E+17,-22.90028,1.917013,-4.926273,-34.19928,-46.02256,0.299192,-4.570632,-0.4441859,0.1400836,-35.22471,-8.447793,45.05199,0,0,0,-47.40523,-105.0466,-56.12765,-10.65206,-111.0334,-35.10307,0.001067912,-0.1257102,0.09433498,0,0.3,0,0,0,0,
6.38223E+17,-23.81912,1.940391,-5.9769,-29.80457,-39.35725,-1.605182,-4.570632,-0.4441859,0.1400836,-35.15147,-8.447793,45.12524,0,0,0,-48.21497,-104.7599,-59.13076,-10.65206,-111.0334,-35.10307,0.001067912,-0.1257102,0.09433498,0,0.3,0,0,0,0,
6.38223E+17,-23.91336,1.659852,-6.023595,-27.0945,-35.62175,-1.678428,-4.570632,-0.4441859,0.1400836,-35.22471,-8.447793,45.05199,0,0,0,-48.35905,-105.4011,-59.29026,-10.65206,-111.0334,-35.10307,0.001067912,-0.1257102,0.09433498,0,0.3,0,0,0,0,
6.38223E+17,-23.86624,0.8883717,-5.299829,-21.45462,-27.93101,3.81496,-4.570632,-0.4441859,0.1400836,-35.22471,-8.447793,45.12524,0,0,0,-48.96372,-107.3624,-57.68109,-10.65206,-111.0334,-35.10307,0.001067912,-0.1257102,0.09433498,0,0.3,0,0,0,0,
6.38223E+17,-23.86624,0.6312115,-4.319244,-17.42614,-20.97272,15.53419,-4.570632,-0.4441859,0.1400836,-35.22471,-8.447793,45.05199,0,0,0,-49.88705,-108.1522,-55.59414,-10.65206,-111.0334,-35.10307,0.001067912,-0.1257102,0.09433498,0,0.3,0,0,0,0,
6.38223E+17,-23.84268,0.6078333,-4.155813,-14.56958,-13.13548,29.89024,-4.570632,-0.4441859,0.1400836,-35.22471,-8.447793,45.05199,0,0,0,-49.99426,-108.2347,-55.22614,-10.65206,-111.0334,-35.10307,0.001067912,-0.1257102,0.09433498,0,0.3,0,0,0,0,
6.38223E+17,-23.84268,0.6078333,-4.155813,-13.54414,-9.546471,33.91872,-4.570632,-0.4441859,0.1400836,-35.22471,-8.447793,45.05199,0,0,0,-49.99426,-108.2347,-55.22614,-10.65206,-111.0334,-35.10307,0.001067912,-0.1257102,0.09433498,0,0.3,0,0,0,0,
6.38223E+17,-23.84268,0.6078333,-4.669453,-12.15249,-4.272818,37.65423,-4.570632,-0.4441859,0.1400836,-35.22471,-8.447793,45.05199,0,0,0,-49.51246,-108.1428,-56.31632,-10.65206,-111.0334,-35.10307,0.001067912,-0.1257102,0.09433498,0,0.3,0,0,0,0,
6.38223E+17,-23.84268,0.5844551,-5.019662,-11.63977,-1.928973,38.75291,-4.570632,-0.4441859,0.1400836,-35.22471,-8.447793,45.05199,0,0,0,-49.18439,-108.1283,-57.05865,-10.65206,-111.0334,-35.10307,0.001067912,-0.1257102,0.09433498,0,0.3,0,0,0,0,
6.38223E+17,-23.84268,0.4441859,-5.346524,-10.3946,4.077131,42.41516,-4.570632,-0.4441859,0.1400836,-35.22471,-8.447793,45.05199,0,0,0,-48.87933,-108.3861,-57.74894,-10.65206,-111.0334,-35.10307,0.001067912,-0.1257102,0.09433498,0,0.3,0,0,0,0,
6.38223E+17,-23.84268,0.4441859,-5.416566,-11.2003,6.420976,45.12524,-4.570632,-0.4441859,0.1400836,-35.22471,-8.447793,45.05199,0,0,0,-48.81372,-108.3708,-57.89739,-10.65206,-111.0334,-35.10307,0.001067912,-0.1257102,0.09433498,0,0.3,0,0,0,0,
6.38223E+17,-23.84268,0.4208077,-5.72008,-12.22573,7.592898,48.64101,-4.570632,-0.4441859,0.1400836,-35.22471,-8.447793,45.12524,0,0,0,-48.52969,-108.3566,-58.54008,-10.65206,-111.0334,-35.10307,0.001067912,-0.1257102,0.09433498,0,0.3,0,0,0,0,
6.38223E+17,-23.84268,0.3740513,-6.303762,-13.61739,9.497273,55.96552,-4.570632,-0.4441859,0.1400836,-35.22471,-8.447793,45.05199,0,0,0,-47.98389,-108.3232,-59.77507,-10.65206,-111.0334,-35.10307,0.001067912,-0.1257102,0.09433498,0,0.3,0,0,0,0,
6.38223E+17,-23.84268,0.2805384,-6.49054,-14.56958,10.88893,60.50672,-4.570632,-0.4441859,0.1400836,-35.22471,-8.447793,45.12524,0,0,0,-47.80977,-108.4924,-60.16907,-10.65206,-111.0334,-35.10307,0.001067912,-0.1257102,0.09433498,0,0.3,0,0,0,0,
6.38223E+17,-23.84268,-0.350673,-7.517819,-14.71607,12.1341,62.85057,-4.570632,-0.4441859,0.1400836,-35.22471,-8.447793,45.05199,0,0,0,-46.85017,-109.6699,-62.34039,-10.65206,-111.0334,-35.10307,0.001067912,-0.1257102,0.09433498,0,0.3,0,0,0,0,
6.38223E+17,-23.84268,-1.005263,-8.008113,-14.34984,13.52576,63.876,-4.570632,-0.4441859,0.1400836,-35.22471,-8.447793,45.05199,0,0,0,-46.38585,-111.0391,-63.39103,-10.65206,-111.0334,-35.10307,0.001067912,-0.1257102,0.09433498,0,0.3,0,0,0,0,
6.38223E+17,-23.84268,-0.9818845,-7.984766,-14.13011,14.62444,63.72951,-4.570632,-0.4441859,0.1400836,-35.22471,-8.447793,45.05199,0,0,0,-46.40798,-110.9923,-63.34095,-10.65206,-111.0334,-35.10307,0.001067912,-0.1257102,0.09433498,0,0.3,0,0,0,0,
6.38223E+17,-23.81912,-0.9585064,-7.77464,-14.20335,15.43013,62.19136,-4.570632,-0.4441859,0.1400836,-35.22471,-8.447793,45.05199,0,0,0,-46.56081,-111.0049,-62.87786,-10.65206,-111.0334,-35.10307,0.001067912,-0.1257102,0.09433498,0,0.3,0,0,0,0,
6.38223E+17,-23.81912,-0.9117499,-7.797987,-14.78931,15.8696,60.65321,-4.570632,-0.4441859,0.1400836,-35.22471,-8.447793,45.05199,0,0,0,-46.53978,-110.8888,-62.92549,-10.65206,-111.0334,-35.10307,0.001067912,-0.1257102,0.09433498,0,0.3,0,0,0,0,
6.38223E+17,-23.79556,-0.7013461,-7.797987,-16.10773,16.38232,58.45585,-4.570632,-0.4441859,0.1400836,-35.15147,-8.447793,45.05199,0,0,0,-46.49921,-110.3991,-62.90006,-10.65206,-111.0334,-35.10307,0.001067912,-0.1257102,0.09433498,0,0.3,0,0,0,0,
6.38223E+17,-23.74844,-0.6312115,-7.77464,-16.98667,16.60205,56.62473,-4.570632,-0.4441859,0.1400836,-35.22471,-8.447793,45.05199,0,0,0,-46.43491,-110.2433,-62.81084,-10.65206,-111.0334,-35.10307,0.001067912,-0.1257102,0.09433498,0,0.3,0,0,0,0,
6.38223E+17,-22.97096,-0.0233782,-6.373804,-19.477,16.38232,50.69187,-4.570632,-0.4441859,0.1400836,-35.22471,-8.447793,45.05199,0,0,0,-46.26438,-109.2301,-59.20419,-10.65206,-111.0334,-35.10307,0.001067912,-0.1257102,0.09433498,0,0.3,0,0,0,0,
6.38223E+17,-22.57044,0.5376987,-5.673386,-20.06297,16.08934,49.15372,-4.570632,-0.4441859,0.1400836,-35.22471,-8.447793,45.12524,0,0,0,-46.12026,-108.0954,-57.39189,-10.65206,-111.0334,-35.10307,0.001067912,-0.1257102,0.09433498,0,0.3,0,0,0,0,
6.38223E+17,-21.60448,2.08066,-4.155813,-21.23489,15.13715,46.59014,-4.570632,-0.4441859,0.1400836,-35.22471,-8.447793,45.05199,0,0,0,-45.50858,-104.8079,-53.43473,-10.65206,-111.0334,-35.10307,0.001067912,-0.1257102,0.09433498,0,0.3,0,0,0,0,
6.38223E+17,-20.30869,3.600243,-2.544852,-22.26032,14.18496,44.9055,-4.570632,-0.4441859,0.1400836,-35.15147,-8.447793,45.05199,0,0,0,-44.13646,-101.4948,-49.0892,-10.65206,-111.0334,-35.10307,0.001067912,-0.1257102,0.09433498,0,0.3,0,0,0,0,
6.38223E+17,-17.64641,5.98482,-0.5603344,-22.69979,13.01304,43.07437,-4.570632,-0.4441859,0.1400836,-35.22471,-8.447793,45.05199,0,0,0,-39.80832,-96.08989,-43.21008,-10.65206,-111.0334,-35.10307,0.001067912,-0.1257102,0.09433498,0,0.3,0,0,0,0,
6.38223E+17,-16.02077,7.784942,0.5836816,-22.18707,12.35384,41.75596,-4.570632,-0.4441859,0.1400836,-35.15147,-8.447793,45.05199,0,0,0,-36.83843,-91.93013,-40.0547,-10.65206,-111.0334,-35.10307,0.001067912,-0.1257102,0.09433498,0,0.3,0,0,0,0,
6.38223E+17,-13.92394,10.37992,2.264685,-20.57568,11.62138,39.41211,-4.570632,-0.4441859,0.1400836,-35.22471,-8.447793,45.05199,0,0,0,-32.83135,-85.86958,-35.92193,-10.65206,-111.0334,-35.10307,0.001067912,-0.1257102,0.09433498,0,0.3,0,0,0,0,
6.38223E+17,-12.03914,12.90477,3.898993,-18.23184,11.25516,37.288,-4.570632,-0.4441859,0.1400836,-35.22471,-8.447793,45.05199,0,0,0,-29.00291,-79.91014,-32.35892,-10.65206,-111.0334,-35.10307,0.001067912,-0.1257102,0.09433498,0,0.3,0,0,0,0,
6.38223E+17,-9.848064,15.78029,5.813469,-15.30203,11.25516,35.8231,-4.570632,-0.4441859,0.1400836,-35.22471,-8.521038,45.05199,0,0,0,-24.25827,-73.04975,-28.60862,-10.65206,-111.0334,-35.10307,0.001067912,-0.1257102,0.09433498,0,0.3,0,0,0,0,
6.38223E+17,-8.128186,17.6973,7.541167,-12.95818,11.54814,35.45687,-4.570632,-0.4441859,0.1400836,-35.22471,-8.447793,45.05199,0,0,0,-20.43625,-68.30981,-25.26204,-10.65206,-111.0334,-35.10307,0.001067912,-0.1257102,0.09433498,0,0.3,0,0,0,0,
6.38223E+17,-7.303588,18.49216,8.28828,-11.85951,11.76787,35.60336,-4.570632,-0.4441859,0.1400836,-35.22471,-8.447793,45.05199,0,0,0,-18.52079,-66.31193,-23.84438,-10.65206,-111.0334,-35.10307,0.001067912,-0.1257102,0.09433498,0,0.3,0,0,0,0,
6.38223E+17,-5.72507,20.15201,9.198823,-9.808641,12.79331,35.8231,-4.570632,-0.4441859,0.1400836,-35.15147,-8.447793,45.05199,0,0,0,-14.61453,-62.34438,-22.57674,-10.65206,-111.0334,-35.10307,0.001067912,-0.1257102,0.09433498,0,0.3,0,0,0,0,
6.38223E+17,-4.193673,22.44308,9.689116,-8.270493,13.89198,35.53012,-4.570632,-0.4441859,0.1400836,-35.22471,-8.447793,45.05199,0,0,0,-10.65425,-57.18941,-23.04702,-10.65206,-111.0334,-35.10307,0.001067912,-0.1257102,0.09433498,0,0.3,0,0,0,0,
6.38223E+17,-2.049716,25.87967,10.7164,-6.292873,13.52576,34.50468,-4.570632,-0.4441859,0.1400836,-35.22471,-8.447793,45.05199,0,0,0,-5.178042,-49.46937,-23.66981,-10.65206,-111.0334,-35.10307,0.001067912,-0.1257102,0.09433498,0,0.3,0,0,0,0,
6.38223E+17,0.6596789,29.85397,12.93439,-3.436311,11.25516,32.45382,-4.570632,-0.4441859,0.1400836,-35.22471,-8.447793,45.05199,0,0,0,1.675216,-40.23608,-22.85719,-10.65206,-111.0334,-35.10307,0.001067912,-0.1257102,0.09433498,0,0.3,0,0,0,0,
6.38223E+17,3.557554,33.71137,15.89949,0.5189275,7.666144,29.15779,-4.570632,-0.4441859,0.1400836,-35.22471,-8.447793,45.05199,0,0,0,9.14992,-30.88801,-21.17644,-10.65206,-111.0334,-35.10307,0.001067912,-0.1257102,0.09433498,0,0.3,0,0,0,0,
6.38223E+17,7.209348,38.43377,20.42886,5.719335,2.612227,24.61659,-4.570632,-0.4441859,0.1400836,-35.15147,-8.447793,45.05199,0,0,0,18.94998,-18.7215,-18.54207,-10.65206,-111.0334,-35.10307,0.001067912,-0.1257102,0.09433498,0,0.3,0,0,0,0,
6.38223E+17,9.753823,41.77685,23.88425,9.454838,-1.196521,21.3938,-4.570632,-0.4441859,0.1400836,-35.22471,-8.447793,45.05199,0,0,0,25.99461,-9.738679,-17.13072,-10.65206,-111.0334,-35.10307,0.001067912,-0.1257102,0.09433498,0,0.3,0,0,0,0,
6.38223E+17,12.6517,45.84466,28.06341,14.14253,-6.396928,16.99909,-4.570632,-0.4441859,0.1400836,-35.22471,-8.447793,45.05199,0,0,0,34.08595,1.350758,-16.50196,-10.65206,-111.0334,-35.10307,0.001067912,-0.1257102,0.09433498,0,0.3,0,0,0,0,
6.38223E+17,13.85326,47.55127,29.72107,16.19339,-8.740773,14.50875,-4.570632,-0.4441859,0.1400836,-35.22471,-8.447793,45.05199,0,0,0,37.37931,5.938792,-16.77707,-10.65206,-111.0334,-35.10307,0.001067912,-0.1257102,0.09433498,0,0.3,0,0,0,0,
6.38223E+17,16.20925,50.68394,32.68617,20.00214,-13.57495,9.747819,-4.570632,-0.4441859,0.1400836,-35.22471,-8.447793,45.05199,0,0,0,43.68755,14.28507,-18.06705,-10.65206,-111.0334,-35.10307,0.001067912,-0.1257102,0.09433498,0,0.3,0,0,0,0,
6.38223E+17,18.47101,53.65298,35.76801,23.44467,-17.74993,7.843444,-4.570632,-0.4441859,0.1400836,-35.22471,-8.447793,45.05199,0,0,0,49.73415,22.55681,-19.45996,-10.65206,-111.0334,-35.10307,0.001067912,-0.1257102,0.09433498,0,0.3,0,0,0,0,
6.38223E+17,20.26157,55.9908,38.12609,25.71527,-21.41219,8.649141,-4.570632,-0.4441859,0.1400836,-35.22471,-8.447793,45.05199,0,0,0,54.34089,28.98987,-21.14408,-10.65206,-111.0334,-35.10307,0.001067912,-0.1257102,0.09433498,0,0.3,0,0,0,0,
6.38223E+17,22.31128,57.34673,39.62031,27.10692,-24.56173,9.235103,-4.570632,-0.4441859,0.1400836,-35.22471,-8.447793,45.12524,0,0,0,59.59806,32.90638,-23.11639,-10.65206,-111.0334,-35.10307,0.001067912,-0.1257102,0.09433498,0,0.3,0,0,0,0,
6.38223E+17,24.78508,58.65591,41.53479,28.35209,-26.97882,9.601329,-4.570632,-0.4441859,0.1400836,-35.22471,-8.447793,45.05199,0,0,0,66.14658,37.41916,-25.09771,-10.65206,-111.0334,-35.10307,0.001067912,-0.1257102,0.09433498,0,0.3,0,0,0,0,
6.38223E+17,26.128,59.45077,42.86558,29.08454,-28.51697,9.528083,-4.570632,-0.4441859,0.1400836,-35.22471,-8.447793,45.12524,0,0,0,69.79742,40.45094,-26.05178,-10.65206,-111.0334,-35.10307,0.001067912,-0.1257102,0.09433498,0,0.3,0,0,0,0,
6.38223E+17,27.54159,59.91833,44.59328,30.10997,-30.27485,8.35616,-4.570632,-0.4441859,0.1400836,-35.22471,-8.447793,45.05199,0,0,0,74.19572,43.77968,-26.07362,-10.65206,-111.0334,-35.10307,0.001067912,-0.1257102,0.09433498,0,0.3,0,0,0,0,
6.38223E+17,28.17771,59.91833,45.45713,30.69594,-31.1538,6.891257,-4.570632,-0.4441859,0.1400836,-35.22471,-8.447793,45.05199,0,0,0,76.44173,45.20194,-25.65351,-10.65206,-111.0334,-35.10307,0.001067912,-0.1257102,0.09433498,0,0.3,0,0,0,0,
6.38223E+17,29.37927,59.89495,47.20817,32.89329,-33.49764,-1.019221,-4.570632,-0.4441859,0.1400836,-35.22471,-8.447793,45.05199,0,0,0,80.82074,48.12251,-24.79489,-10.65206,-111.0334,-35.10307,0.001067912,-0.1257102,0.09433498,0,0.3,0,0,0,0,
6.38223E+17,29.68555,59.87158,47.48834,33.25952,-33.93711,-2.99684,-4.570632,-0.4441859,0.1400836,-35.22471,-8.447793,45.05199,0,0,0,81.82907,48.57479,-24.80427,-10.65206,-111.0334,-35.10307,0.001067912,-0.1257102,0.09433498,0,0.3,0,0,0,0,
6.38223E+17,30.18031,59.75469,47.88524,33.62574,-34.44983,-5.340686,-4.570632,-0.4441859,0.1400836,-35.15147,-8.447793,45.05199,0,0,0,83.49638,49.12109,-24.77538,-10.65206,-111.0334,-35.10307,0.001067912,-0.1257102,0.09433498,0,0.3,0,0,0,0,
6.38223E+17,30.72219,59.73131,48.16541,33.77223,-34.59632,-6.073137,-4.570632,-0.4441859,0.1400836,-35.22471,-8.447793,45.05199,0,0,0,85.0973,49.57844,-25.15617,-10.65206,-111.0334,-35.10307,0.001067912,-0.1257102,0.09433498,0,0.3,0,0,0,0,
6.38223E+17,31.47611,59.56767,48.51562,34.3582,-34.74281,-5.194195,-4.570632,-0.4441859,0.1400836,-35.22471,-8.447793,45.05199,0,0,0,87.42858,49.99494,-25.5459,-10.65206,-111.0334,-35.10307,0.001067912,-0.1257102,0.09433498,0,0.3,0,0,0,0,
6.38223E+17,32.34783,58.9832,48.95922,35.96959,-34.74281,-4.095518,-4.570632,-0.4441859,0.1400836,-35.15147,-8.447793,45.12524,0,0,0,90.58102,50.07604,-25.32945,-10.65206,-111.0334,-35.10307,0.001067912,-0.1257102,0.09433498,0,0.3,0,0,0,0,
6.38223E+17,32.91327,58.65591,49.12265,37.72747,-34.23009,-2.630615,-4.570632,-0.4441859,0.1400836,-35.22471,-8.447793,45.05199,0,0,0,92.47762,49.9689,-25.47391,-10.65206,-111.0334,-35.10307,0.001067912,-0.1257102,0.09433498,0,0.3,0,0,0,0,
6.38223E+17,33.12531,58.65591,49.12265,38.38668,-33.93711,-1.898163,-4.570632,-0.4441859,0.1400836,-35.22471,-8.447793,45.05199,0,0,0,93.00574,49.9689,-25.81712,-10.65206,-111.0334,-35.10307,0.001067912,-0.1257102,0.09433498,0,0.3,0,0,0,0,
6.38223E+17,33.87922,58.86631,48.53897,39.41211,-33.2779,-0.3600145,-4.570632,-0.4441859,0.1400836,-35.22471,-8.447793,45.05199,0,0,0,94.14124,49.20026,-28.14326,-10.65206,-111.0334,-35.10307,0.001067912,-0.1257102,0.09433498,0,0.3,0,0,0,0,
6.38223E+17,34.04414,58.91307,48.02533,39.41211,-32.91168,0.1527017,-4.570632,-0.4441859,0.1400836,-35.22471,-8.447793,45.05199,0,0,0,94.04691,48.36417,-29.15119,-10.65206,-111.0334,-35.10307,0.001067912,-0.1257102,0.09433498,0,0.3,0,0,0,0,
6.38223E+17,34.04414,58.91307,46.88131,39.04589,-32.54545,0.5921727,-4.570632,-0.4441859,0.1400836,-35.22471,-8.447793,45.05199,0,0,0,93.03899,46.40261,-30.64299,-10.65206,-111.0334,-35.10307,0.001067912,-0.1257102,0.09433498,0,0.3,0,0,0,0,
6.38223E+17,34.04414,58.91307,45.94742,38.38668,-32.47221,0.738663,-4.570632,-0.4441859,0.1400836,-35.22471,-8.447793,45.05199,0,0,0,92.20009,44.82824,-31.88466,-10.65206,-111.0334,-35.10307,0.001067912,-0.1257102,0.09433498,0,0.3,0,0,0,0,
6.38223E+17,33.92635,58.7728,43.93955,36.40906,-32.17923,1.031644,-4.570632,-0.4441859,0.1400836,-35.15147,-8.447793,45.05199,0,0,0,90.22926,41.35839,-34.20797,-10.65206,-111.0334,-35.10307,0.001067912,-0.1257102,0.09433498,0,0.3,0,0,0,0,
6.38223E+17,33.80854,58.28186,41.86165,34.06521,-32.03274,1.178134,-4.570632,-0.4441859,0.1400836,-35.22471,-8.447793,45.05199,0,0,0,88.52444,37.46994,-36.15642,-10.65206,-111.0334,-35.10307,0.001067912,-0.1257102,0.09433498,0,0.3,0,0,0,0,
6.38223E+17,33.80854,56.92593,39.52692,31.57488,-31.52002,1.178134,-4.570632,-0.4441859,0.1400836,-35.22471,-8.447793,45.05199,0,0,0,87.71481,32.23646,-37.36543,-10.65206,-111.0334,-35.10307,0.001067912,-0.1257102,0.09433498,0,0.3,0,0,0,0,
6.38223E+17,33.8321,54.72837,37.82257,28.79156,-30.71432,0.6654179,-4.570632,-0.4441859,0.1400836,-35.22471,-8.447793,45.05199,0,0,0,88.40034,26.88513,-36.45907,-10.65206,-111.0334,-35.10307,0.001067912,-0.1257102,0.09433498,0,0.3,0,0,0,0,
6.38223E+17,34.13838,51.03462,35.62793,25.56878,-29.61565,0.006211365,-4.570632,-0.4441859,0.1400836,-35.22471,-8.447793,45.05199,0,0,0,90.65308,18.64396,-34.64899,-10.65206,-111.0334,-35.10307,0.001067912,-0.1257102,0.09433498,0,0.3,0,0,0,0,
6.38223E+17,34.58602,47.94869,34.15705,24.10387,-28.29723,0.006211365,-4.570632,-0.4441859,0.1400836,-35.22471,-8.447793,45.05199,0,0,0,93.20038,12.02107,-33.17783,-10.65206,-111.0334,-35.10307,0.001067912,-0.1257102,0.09433498,0,0.3,0,0,0,0,
6.38223E+17,35.41062,43.34319,31.79898,23.15168,-25.44067,0.1527017,-4.570632,-0.4441859,0.1400836,-35.22471,-8.447793,45.05199,0,0,0,96.90835,1.542558,-32.04023,-10.65206,-111.0334,-35.10307,0.001067912,-0.1257102,0.09433498,0,0.3,0,0,0,0,
6.38223E+17,35.85826,40.79496,30.58492,22.93195,-23.68279,0.3724372,-4.570632,-0.4441859,0.1400836,-35.22471,-8.447793,45.05199,0,0,0,98.88201,-4.323048,-31.54014,-10.65206,-111.0334,-35.10307,0.001067912,-0.1257102,0.09433498,0,0.3,0,0,0,0,
6.38223E+17,37.7195,30.50856,28.39028,23.95738,-15.03986,2.496547,-4.570632,-0.4441859,0.1400836,-35.22471,-8.447793,45.05199,0,0,0,109.0788,-26.26451,-27.31772,-10.65206,-111.0334,-35.10307,0.001067912,-0.1257102,0.09433498,0,0.3,0,0,0,0,
6.38223E+17,38.56766,24.43022,28.13346,25.27579,-8.887264,3.448734,-4.570632,-0.4441859,0.1400836,-35.22471,-8.447793,45.05199,0,0,0,114.8926,-39.0934,-24.25973,-10.65206,-111.0334,-35.10307,0.001067912,-0.1257102,0.09433498,0,0.3,0,0,0,0,
6.38223E+17,38.8975,20.90011,28.08676,25.935,-5.078516,3.81496,-4.570632,-0.4441859,0.1400836,-35.22471,-8.447793,45.12524,0,0,0,117.6477,-46.72487,-22.53452,-10.65206,-111.0334,-35.10307,0.001067912,-0.1257102,0.09433498,0,0.3,0,0,0,0,
6.38223E+17,39.01529,16.34136,28.08676,26.37447,1.220569,3.888205,-4.570632,-0.4441859,0.1400836,-35.22471,-8.447793,45.05199,0,0,0,120.0794,-56.77683,-20.14516,-10.65206,-111.0334,-35.10307,0.001067912,-0.1257102,0.09433498,0,0.3,0,0,0,0,
6.38223E+17,39.01529,14.42435,28.08676,25.935,7.446409,3.448734,-4.570632,-0.4441859,0.1400836,-35.22471,-8.447793,45.12524,0,0,0,120.8245,-61.07844,-19.22563,-10.65206,-111.0334,-35.10307,0.001067912,-0.1257102,0.09433498,0,0.3,0,0,0,0,
6.38223E+17,38.96818,15.00881,28.27354,25.935,9.8635,3.448734,-4.570632,-0.4441859,0.1400836,-35.22471,-8.447793,45.12524,0,0,0,120.7254,-59.55752,-19.09706,-10.65206,-111.0334,-35.10307,0.001067912,-0.1257102,0.09433498,0,0.3,0,0,0,0,
6.38223E+17,38.5441,17.01933,28.6471,26.7407,11.10867,3.66847,-4.570632,-0.4441859,0.1400836,-35.15147,-8.447793,45.05199,0,0,0,119.2894,-54.64573,-18.61938,-10.65206,-111.0334,-35.10307,0.001067912,-0.1257102,0.09433498,0,0.3,0,0,0,0,
6.38223E+17,38.1907,18.60905,28.76383,27.10692,11.18191,4.181186,-4.570632,-0.4441859,0.1400836,-35.22471,-8.447793,45.05199,0,0,0,117.8111,-50.99284,-18.58877,-10.65206,-111.0334,-35.10307,0.001067912,-0.1257102,0.09433498,0,0.3,0,0,0,0,
6.38223E+17,36.68286,26.11345,29.11404,27.83937,8.691576,7.257483,-4.570632,-0.4441859,0.1400836,-35.22471,-8.447793,45.12524,0,0,0,110.289,-34.45763,-20.29352,-10.65206,-111.0334,-35.10307,0.001067912,-0.1257102,0.09433498,0,0.3,0,0,0,0,
6.38223E+17,36.14098,28.77857,29.51094,27.91262,7.153428,8.429405,-4.570632,-0.4441859,0.1400836,-35.22471,-8.447793,45.05199,0,0,0,107.6729,-28.50125,-20.9152,-10.65206,-111.0334,-35.10307,0.001067912,-0.1257102,0.09433498,0,0.3,0,0,0,0,
6.38223E+17,34.7745,33.80488,30.725,27.91262,3.124943,10.55352,-4.570632,-0.4441859,0.1400836,-35.22471,-8.447793,45.12524,0,0,0,102.056,-17.09012,-21.3711,-10.65206,-111.0334,-35.10307,0.001067912,-0.1257102,0.09433498,0,0.3,0,0,0,0,
6.38223E+17,33.0075,38.5039,32.07914,27.18017,-1.709238,12.23815,-4.570632,-0.4441859,0.1400836,-35.22471,-8.447793,45.05199,0,0,0,95.42694,-6.620065,-21.44753,-10.65206,-111.0334,-35.10307,0.001067912,-0.1257102,0.09433498,0,0.3,0,0,0,0,
6.38223E+17,30.53371,43.81075,33.97027,25.05606,-8.374548,14.06928,-4.570632,-0.4441859,0.1400836,-35.22471,-8.447793,45.05199,0,0,0,86.74384,5.074517,-21.2861,-10.65206,-111.0334,-35.10307,0.001067912,-0.1257102,0.09433498,0,0.3,0,0,0,0,
6.38223E+17,29.26147,45.86803,34.85747,23.81089,-11.81707,15.16796,-4.570632,-0.4441859,0.1400836,-35.22471,-8.447793,45.05199,0,0,0,82.63966,9.636495,-20.85554,-10.65206,-111.0334,-35.10307,0.001067912,-0.1257102,0.09433498,0,0.3,0,0,0,0,
6.38223E+17,27.54159,47.99545,35.65128,21.3938,-16.79774,17.14558,-4.570632,-0.4441859,0.1400836,-35.22471,-8.447793,45.05199,0,0,0,77.20082,14.0838,-20.31109,-10.65206,-111.0334,-35.10307,0.001067912,-0.1257102,0.09433498,0,0.3,0,0,0,0,
6.38223E+17,26.55208,48.65004,35.48784,19.19645,-19.94728,19.26969,-4.570632,-0.4441859,0.1400836,-35.15147,-8.447793,45.05199,0,0,0,73.9858,14.87556,-20.29459,-10.65206,-111.0334,-35.10307,0.001067912,-0.1257102,0.09433498,0,0.3,0,0,0,0,
6.38223E+17,26.31648,48.22923,34.1804,17.07234,-21.85166,21.32055,-4.570632,-0.4441859,0.1400836,-35.22471,-8.447793,45.05199,0,0,0,72.59399,12.48773,-21.5735,-10.65206,-111.0334,-35.10307,0.001067912,-0.1257102,0.09433498,0,0.3,0,0,0,0,
6.38223E+17,26.50496,46.77979,32.19588,15.68068,-22.07139,22.34599,-4.570632,-0.4441859,0.1400836,-35.22471,-8.447793,45.05199,0,0,0,72.46152,7.680784,-23.04615,-10.65206,-111.0334,-35.10307,0.001067912,-0.1257102,0.09433498,0,0.3,0,0,0,0,
6.38223E+17,26.88192,45.49398,30.98182,15.02147,-21.70517,22.78546,-4.570632,-0.4441859,0.1400836,-35.22471,-8.447793,45.05199,0,0,0,73.30322,4.127088,-23.74838,-10.65206,-111.0334,-35.10307,0.001067912,-0.1257102,0.09433498,0,0.3,0,0,0,0,
6.38223E+17,28.69603,42.66522,29.09069,14.72849,-19.58106,23.51791,-4.570632,-0.4441859,0.1400836,-35.22471,-8.447793,45.05199,0,0,0,78.21353,-2.804971,-25.46657,-10.65206,-111.0334,-35.10307,0.001067912,-0.1257102,0.09433498,0,0.3,0,0,0,0,
6.38223E+17,32.44207,39.60268,28.57705,17.51181,-16.06529,23.81089,-4.570632,-0.4441859,0.1400836,-35.22471,-8.447793,45.12524,0,0,0,89.33479,-8.749298,-27.80909,-10.65206,-111.0334,-35.10307,0.001067912,-0.1257102,0.09433498,0,0.3,0,0,0,0,
6.38223E+17,34.16194,38.24674,28.62375,19.70916,-14.60039,23.22493,-4.570632,-0.4441859,0.1400836,-35.22471,-8.447793,45.05199,0,0,0,94.67955,-11.15234,-28.83403,-10.65206,-111.0334,-35.10307,0.001067912,-0.1257102,0.09433498,0,0.3,0,0,0,0,
6.38223E+17,36.02318,36.47,28.55371,23.15168,-12.54952,20.80784,-4.570632,-0.4441859,0.1400836,-35.22471,-8.447793,45.05199,0,0,0,100.5524,-14.51709,-30.06917,-10.65206,-111.0334,-35.10307,0.001067912,-0.1257102,0.09433498,0,0.3,0,0,0,0,
6.38223E+17,36.7771,35.32447,28.08676,25.64202,-10.71839,18.09777,-4.570632,-0.4441859,0.1400836,-35.22471,-8.447793,45.05199,0,0,0,102.7263,-17.19235,-30.91841,-10.65206,-111.0334,-35.10307,0.001067912,-0.1257102,0.09433498,0,0.3,0,0,0,0,
6.38223E+17,36.35302,35.04393,26.96609,27.25341,-8.521038,16.26664,-4.570632,-0.4441859,0.1400836,-35.22471,-8.447793,45.05199,0,0,0,100.5583,-18.93139,-31.72165,-10.65206,-111.0334,-35.10307,0.001067912,-0.1257102,0.09433498,0,0.3,0,0,0,0,
6.38223E+17,35.10434,35.02055,25.70534,27.39991,-7.27587,15.75392,-4.570632,-0.4441859,0.1400836,-35.22471,-8.447793,45.05199,0,0,0,96.06275,-20.27764,-31.68854,-10.65206,-111.0334,-35.10307,0.001067912,-0.1257102,0.09433498,0,0.3,0,0,0,0,
6.38223E+17,34.0677,34.8569,24.77145,26.96043,-6.616664,15.68068,-4.570632,-0.4441859,0.1400836,-35.22471,-8.521038,45.05199,0,0,0,92.59546,-21.51662,-31.42089,-10.65206,-111.0334,-35.10307,0.001067912,-0.1257102,0.09433498,0,0.3,0,0,0,0,
6.38223E+17,31.38187,33.96853,22.57681,25.05606,-5.298251,16.92585,-4.570632,-0.4441859,0.1400836,-35.15147,-8.447793,45.05199,0,0,0,84.24995,-25.27318,-30.22816,-10.65206,-111.0334,-35.10307,0.001067912,-0.1257102,0.09433498,0,0.3,0,0,0,0,
6.38223E+17,28.50755,32.00476,20.38216,22.34599,-3.393876,19.85565,-4.570632,-0.4441859,0.1400836,-35.22471,-8.447793,45.05199,0,0,0,76.137,-30.97689,-28.16716,-10.65206,-111.0334,-35.10307,0.001067912,-0.1257102,0.09433498,0,0.3,0,0,0,0,
6.38223E+17,25.63324,29.12924,17.86066,18.90347,-0.61056,23.73765,-4.570632,-0.4441859,0.1400836,-35.22471,-8.447793,45.05199,0,0,0,68.0854,-38.66095,-26.45612,-10.65206,-111.0334,-35.10307,0.001067912,-0.1257102,0.09433498,0,0.3,0,0,0,0,
6.38223E+17,23.3008,26.32386,15.73606,15.31445,2.758718,26.81394,-4.570632,-0.4441859,0.1400836,-35.15147,-8.447793,45.05199,0,0,0,61.58337,-45.8689,-25.36051,-10.65206,-111.0334,-35.10307,0.001067912,-0.1257102,0.09433498,0,0.3,0,0,0,0,
6.38223E+17,22.2406,24.28995,14.94225,12.16491,6.494221,28.79156,-4.570632,-0.4441859,0.1400836,-35.22471,-8.447793,45.05199,0,0,0,59.0186,-50.6368,-24.02179,-10.65206,-111.0334,-35.10307,0.001067912,-0.1257102,0.09433498,0,0.3,0,0,0,0,
6.38223E+17,22.2406,24.38347,15.52593,10.33378,9.350782,29.96349,-4.570632,-0.4441859,0.1400836,-35.22471,-8.447793,45.05199,0,0,0,59.48075,-50.08155,-22.8916,-10.65206,-111.0334,-35.10307,0.001067912,-0.1257102,0.09433498,0,0.3,0,0,0,0,
6.38223E+17,22.42908,25.27184,16.45982,9.967555,9.570518,30.32971,-4.570632,-0.4441859,0.1400836,-35.22471,-8.447793,45.05199,0,0,0,60.42488,-47.60623,-21.9592,-10.65206,-111.0334,-35.10307,0.001067912,-0.1257102,0.09433498,0,0.3,0,0,0,0,
6.38223E+17,22.66468,27.28236,18.14083,10.18729,8.838067,30.54945,-4.570632,-0.4441859,0.1400836,-35.22471,-8.447793,45.12524,0,0,0,61.66743,-42.24728,-20.67364,-10.65206,-111.0334,-35.10307,0.001067912,-0.1257102,0.09433498,0,0.3,0,0,0,0,
6.38223E+17,22.68824,28.56816,19.07472,10.48027,8.03237,30.62269,-4.570632,-0.4441859,0.1400836,-35.22471,-8.447793,45.12524,0,0,0,61.98212,-38.90968,-20.09152,-10.65206,-111.0334,-35.10307,0.001067912,-0.1257102,0.09433498,0,0.3,0,0,0,0,
6.38223E+17,22.05212,34.69325,22.85697,11.21272,3.344679,30.76918,-4.570632,-0.4441859,0.1400836,-35.22471,-8.447793,45.05199,0,0,0,60.61236,-23.62849,-18.7212,-10.65206,-111.0334,-35.10307,0.001067912,-0.1257102,0.09433498,0,0.3,0,0,0,0,
6.38223E+17,21.72228,36.3531,23.83756,11.28597,1.879776,30.84243,-4.570632,-0.4441859,0.1400836,-35.22471,-8.447793,45.05199,0,0,0,59.69476,-19.58004,-18.51336,-10.65206,-111.0334,-35.10307,0.001067912,-0.1257102,0.09433498,0,0.3,0,0,0,0,
6.38223E+17,20.49717,40.44429,26.38241,10.91974,-2.807915,30.98892,-4.570632,-0.4441859,0.1400836,-35.22471,-8.447793,45.05199,0,0,0,56.28479,-9.606095,-17.78679,-10.65206,-111.0334,-35.10307,0.001067912,-0.1257102,0.09433498,0,0.3,0,0,0,0,
6.38223E+17,18.98933,44.18481,28.6004,9.601329,-7.568851,31.13541,-4.570632,-0.4441859,0.1400836,-35.22471,-8.447793,45.05199,0,0,0,51.88671,-0.7869757,-17.56883,-10.65206,-111.0334,-35.10307,0.001067912,-0.1257102,0.09433498,0,0.3,0,0,0,0,
6.38223E+17,16.75113,48.06559,30.98182,6.378541,-13.57495,31.42839,-4.570632,-0.4441859,0.1400836,-35.22471,-8.447793,45.05199,0,0,0,45.46858,8.225391,-17.28527,-10.65206,-111.0334,-35.10307,0.001067912,-0.1257102,0.09433498,0,0.3,0,0,0,0,
6.38223E+17,15.40822,49.72544,32.03245,3.595225,-16.94423,31.79461,-4.570632,-0.4441859,0.1400836,-35.22471,-8.447793,45.05199,0,0,0,41.69622,12.04293,-17.05757,-10.65206,-111.0334,-35.10307,0.001067912,-0.1257102,0.09433498,0,0.3,0,0,0,0,
6.38223E+17,13.80614,51.17488,33.03638,-0.140279,-20.24026,32.45382,-4.570632,-0.4441859,0.1400836,-35.22471,-8.447793,45.05199,0,0,0,37.29946,15.4475,-16.56398,-10.65206,-111.0334,-35.10307,0.001067912,-0.1257102,0.09433498,0,0.3,0,0,0,0,
6.38223E+17,12.15694,52.29704,33.62006,-3.729292,-22.58411,32.82005,-4.570632,-0.4441859,0.1400836,-35.22471,-8.447793,45.05199,0,0,0,32.72281,17.81124,-16.44839,-10.65206,-111.0334,-35.10307,0.001067912,-0.1257102,0.09433498,0,0.3,0,0,0,0,
6.38223E+17,9.895184,53.55946,34.55396,-8.050756,-24.48849,32.96654,-4.570632,-0.4441859,0.1400836,-35.22471,-8.447793,45.05199,0,0,0,26.60903,20.80052,-15.81141,-10.65206,-111.0334,-35.10307,0.001067912,-0.1257102,0.09433498,0,0.3,0,0,0,0,
6.38223E+17,7.963267,54.75175,35.95479,-11.71302,-25.88014,33.03978,-4.570632,-0.4441859,0.1400836,-35.22471,-8.447793,45.05199,0,0,0,21.50875,24.30727,-14.59212,-10.65206,-111.0334,-35.10307,0.001067912,-0.1257102,0.09433498,0,0.3,0,0,0,0,
6.38223E+17,6.832388,55.42972,36.86533,-13.98362,-26.61259,33.11303,-4.570632,-0.4441859,0.1400836,-35.22471,-8.447793,45.05199,0,0,0,18.51891,26.46812,-13.78896,-10.65206,-111.0334,-35.10307,0.001067912,-0.1257102,0.09433498,0,0.3,0,0,0,0,
6.38223E+17,4.547072,56.71552,38.66307,-18.8178,-28.0775,33.84548,-4.570632,-0.4441859,0.1400836,-35.22471,-8.447793,45.05199,0,0,0,12.40631,30.70063,-12.35154,-10.65206,-111.0334,-35.10307,0.001067912,-0.1257102,0.09433498,0,0.3,0,0,0,0,
6.38223E+17,2.308876,58.0247,40.1573,-24.09145,-29.68889,35.45687,-4.570632,-0.4441859,0.1400836,-35.22471,-8.447793,45.05199,0,0,0,6.309356,34.55135,-11.86532,-10.65206,-111.0334,-35.10307,0.001067912,-0.1257102,0.09433498,0,0.3,0,0,0,0,
6.38223E+17,0.5418791,58.63254,40.53086,-29.07212,-30.71432,36.92178,-4.570632,-0.4441859,0.1400836,-35.22471,-8.447793,45.05199,0,0,0,1.476026,35.85695,-12.2865,-10.65206,-111.0334,-35.10307,0.001067912,-0.1257102,0.09433498,0,0.3,0,0,0,0,
6.38223E+17,-0.1413598,58.5624,40.06391,-32.95412,-30.86081,38.02045,-4.570632,-0.4441859,0.1400836,-35.22471,-8.447793,45.05199,0,0,0,-0.3833544,35.06902,-12.96954,-10.65206,-111.0334,-35.10307,0.001067912,-0.1257102,0.09433498,0,0.3,0,0,0,0,
6.38223E+17,-0.02355996,57.90781,38.8732,-34.12604,-30.49459,38.53317,-4.570632,-0.4441859,0.1400836,-35.22471,-8.521038,45.05199,0,0,0,-0.06354541,32.50548,-13.81309,-10.65206,-111.0334,-35.10307,0.001067912,-0.1257102,0.09433498,0,0.3,0,0,0,0,
6.38223E+17,0.7774788,56.08431,36.09487,-33.02736,-29.17617,38.67966,-4.570632,-0.4441859,0.1400836,-35.22471,-8.447793,45.05199,0,0,0,2.075609,26.25928,-15.39877,-10.65206,-111.0334,-35.10307,0.001067912,-0.1257102,0.09433498,0,0.3,0,0,0,0,
6.38223E+17,1.814117,53.93351,33.24651,-30.61027,-27.2718,38.31343,-4.570632,-0.4441859,0.1400836,-35.22471,-8.447793,45.12524,0,0,0,4.799661,19.61817,-16.81159,-10.65206,-111.0334,-35.10307,0.001067912,-0.1257102,0.09433498,0,0.3,0,0,0,0,
6.38223E+17,3.227715,50.7307,29.81446,-26.65503,-24.26875,37.58098,-4.570632,-0.4441859,0.1400836,-35.22471,-8.447793,45.05199,0,0,0,8.485459,10.88704,-17.88236,-10.65206,-111.0334,-35.10307,0.001067912,-0.1257102,0.09433498,0,0.3,0,0,0,0,
6.38223E+17,4.122993,48.6968,27.85329,-24.0182,-22.14464,37.288,-4.570632,-0.4441859,0.1400836,-35.22471,-8.447793,45.05199,0,0,0,10.8076,5.625172,-18.41986,-10.65206,-111.0334,-35.10307,0.001067912,-0.1257102,0.09433498,0,0.3,0,0,0,0,
6.38223E+17,5.98423,44.76926,24.3512,-19.03753,-17.60344,36.70204,-4.570632,-0.4441859,0.1400836,-35.22471,-8.447793,45.05199,0,0,0,15.60231,-4.224352,-19.50985,-10.65206,-111.0334,-35.10307,0.001067912,-0.1257102,0.09433498,0,0.3,0,0,0,0,
6.38223E+17,7.727668,40.88848,21.45614,-14.71607,-12.98899,36.18932,-4.570632,-0.4441859,0.1400836,-35.22471,-8.447793,45.05199,0,0,0,20.11438,-13.46915,-20.11995,-10.65206,-111.0334,-35.10307,0.001067912,-0.1257102,0.09433498,0,0.3,0,0,0,0,
6.38223E+17,9.447544,36.44662,18.86459,-10.68758,-8.228058,35.60336,-4.570632,-0.4441859,0.1400836,-35.22471,-8.447793,45.05199,0,0,0,24.68481,-23.61744,-20.0052,-10.65206,-111.0334,-35.10307,0.001067912,-0.1257102,0.09433498,0,0.3,0,0,0,0,
6.38223E+17,10.93182,31.72422,16.73999,-7.391551,-3.613612,35.16389,-4.570632,-0.4441859,0.1400836,-35.22471,-8.447793,45.05199,0,0,0,28.79405,-34.22925,-19.27057,-10.65206,-111.0334,-35.10307,0.001067912,-0.1257102,0.09433498,0,0.3,0,0,0,0,
6.38223E+17,12.36898,26.01994,14.68543,-3.729292,2.612227,34.50468,-4.570632,-0.4441859,0.1400836,-35.22471,-8.447793,45.05199,0,0,0,32.91061,-47.14526,-18.27657,-10.65206,-111.0334,-35.10307,0.001067912,-0.1257102,0.09433498,0,0.3,0,0,0,0,
6.38223E+17,12.84018,23.14442,13.93832,-2.044653,6.420976,34.13846,-4.570632,-0.4441859,0.1400836,-35.22471,-8.447793,45.05199,0,0,0,34.3879,-53.66035,-17.48086,-10.65206,-111.0334,-35.10307,0.001067912,-0.1257102,0.09433498,0,0.3,0,0,0,0,
6.38223E+17,13.38206,20.54944,13.21455,-0.57975,10.59595,33.62574,-4.570632,-0.4441859,0.1400836,-35.22471,-8.447793,45.12524,0,0,0,35.95435,-59.66109,-17.21951,-10.65206,-111.0334,-35.10307,0.001067912,-0.1257102,0.09433498,0,0.3,0,0,0,0,
6.38223E+17,13.57054,19.70782,13.02777,0.1527017,12.64682,33.33276,-4.570632,-0.4441859,0.1400836,-35.22471,-8.447793,45.05199,0,0,0,36.51014,-61.59889,-17.09489,-10.65206,-111.0334,-35.10307,0.001067912,-0.1257102,0.09433498,0,0.3,0,0,0,0,
6.38223E+17,13.61766,19.82472,13.07447,1.324624,16.23583,32.82005,-4.570632,-0.4441859,0.1400836,-35.22471,-8.447793,45.05199,0,0,0,36.63779,-61.31833,-17.11149,-10.65206,-111.0334,-35.10307,0.001067912,-0.1257102,0.09433498,0,0.3,0,0,0,0,
6.38223E+17,13.5941,20.57282,13.37798,1.54436,16.60205,32.67356,-4.570632,-0.4441859,0.1400836,-35.22471,-8.447793,45.05199,0,0,0,36.59592,-59.52267,-17.01237,-10.65206,-111.0334,-35.10307,0.001067912,-0.1257102,0.09433498,0,0.3,0,0,0,0,
6.38223E+17,13.28782,23.58861,14.63874,1.837341,15.94285,32.16084,-4.570632,-0.4441859,0.1400836,-35.22471,-8.447793,45.05199,0,0,0,35.8344,-52.30902,-16.61575,-10.65206,-111.0334,-35.10307,0.001067912,-0.1257102,0.09433498,0,0.3,0,0,0,0,
6.38223E+17,12.34542,28.49803,16.83338,1.764095,13.52576,32.16084,-4.570632,-0.4441859,0.1400836,-35.22471,-8.447793,45.05199,0,0,0,33.31276,-40.66099,-16.14367,-10.65206,-111.0334,-35.10307,0.001067912,-0.1257102,0.09433498,0,0.3,0,0,0,0,
6.38223E+17,9.683144,35.62838,21.17597,0.2259469,6.860447,32.38057,-4.570632,-0.4441859,0.1400836,-35.22471,-8.447793,45.05199,0,0,0,26.33313,-23.31579,-14.02149,-10.65206,-111.0334,-35.10307,0.001067912,-0.1257102,0.09433498,0,0.3,0,0,0,0,
6.38223E+17,7.869027,38.80782,23.76752,-1.531937,2.172756,32.89329,-4.570632,-0.4441859,0.1400836,-35.22471,-8.447793,45.05199,0,0,0,21.58466,-15.11856,-12.17766,-10.65206,-111.0334,-35.10307,0.001067912,-0.1257102,0.09433498,0,0.3,0,0,0,0,
6.38223E+17,5.230311,42.29117,27.17622,-4.901215,-4.272818,34.43144,-4.570632,-0.4441859,0.1400836,-35.22471,-8.447793,45.05199,0,0,0,14.54434,-5.547948,-9.4659,-10.65206,-111.0334,-35.10307,0.001067912,-0.1257102,0.09433498,0,0.3,0,0,0,0,
6.38223E+17,2.756516,44.62899,29.55764,-8.929699,-9.839451,36.40906,-4.570632,-0.4441859,0.1400836,-35.22471,-8.447793,45.05199,0,0,0,7.727506,1.034322,-7.853231,-10.65206,-111.0334,-35.10307,0.001067912,-0.1257102,0.09433498,0,0.3,0,0,0,0,
6.38223E+17,0.02355996,45.86803,31.14525,-14.13011,-14.60039,38.82615,-4.570632,-0.4441859,0.1400836,-35.22471,-8.447793,45.05199,0,0,0,0.06654155,4.931575,-6.526751,-10.65206,-111.0334,-35.10307,0.001067912,-0.1257102,0.09433498,0,0.3,0,0,0,0,
6.38223E+17,-1.460718,46.03168,31.5655,-17.35289,-16.35827,40.3643,-4.570632,-0.4441859,0.1400836,-35.22471,-8.447793,45.05199,0,0,0,-4.139442,5.705334,-6.018006,-10.65206,-111.0334,-35.10307,0.001067912,-0.1257102,0.09433498,0,0.3,0,0,0,0,
6.38223E+17,-3.133475,45.96155,31.6122,-21.60111,-17.67669,42.56165,-4.570632,-0.4441859,0.1400836,-35.22471,-8.447793,45.05199,0,0,0,-8.887786,5.648864,-5.998346,-10.65206,-111.0334,-35.10307,0.001067912,-0.1257102,0.09433498,0,0.3,0,0,0,0,
6.38223E+17,-4.499953,45.72776,31.49546,-25.26337,-18.11616,44.61252,-4.570632,-0.4441859,0.1400836,-35.15147,-8.447793,45.05199,0,0,0,-12.76937,5.127662,-6.098109,-10.65206,-111.0334,-35.10307,0.001067912,-0.1257102,0.09433498,0,0.3,0,0,0,0,
6.38223E+17,-4.947592,44.93291,30.44483,-29.14537,-17.5302,46.59014,-4.570632,-0.4441859,0.1400836,-35.22471,-8.447793,45.05199,0,0,0,-13.96925,2.568848,-6.980885,-10.65206,-111.0334,-35.10307,0.001067912,-0.1257102,0.09433498,0,0.3,0,0,0,0,
6.38223E+17,-4.664873,44.53548,29.69772,-29.95106,-16.87099,47.10286,-4.570632,-0.4441859,0.1400836,-35.22471,-8.521038,45.12524,0,0,0,-13.10339,1.040486,-7.764853,-10.65206,-111.0334,-35.10307,0.001067912,-0.1257102,0.09433498,0,0.3,0,0,0,0,
6.38223E+17,-3.628234,43.9744,28.34358,-30.02431,-15.84556,47.54232,-4.570632,-0.4441859,0.1400836,-35.22471,-8.447793,45.05199,0,0,0,-10.07925,-1.42371,-9.394947,-10.65206,-111.0334,-35.10307,0.001067912,-0.1257102,0.09433498,0,0.3,0,0,0,0,
6.38223E+17,-1.602077,43.34319,26.61588,-28.7059,-14.89337,47.46908,-4.570632,-0.4441859,0.1400836,-35.22471,-8.447793,45.05199,0,0,0,-4.381594,-4.341907,-11.69,-10.65206,-111.0334,-35.10307,0.001067912,-0.1257102,0.09433498,0,0.3,0,0,0,0,
6.38223E+17,1.437158,43.13279,25.12166,-25.26337,-13.57495,46.22392,-4.570632,-0.4441859,0.1400836,-35.22471,-8.447793,45.05199,0,0,0,3.860582,-6.215952,-14.4708,-10.65206,-111.0334,-35.10307,0.001067912,-0.1257102,0.09433498,0,0.3,0,0,0,0,
6.38223E+17,2.803635,43.27305,24.67806,-23.21251,-13.13548,45.34497,-4.570632,-0.4441859,0.1400836,-35.22471,-8.447793,45.05199,0,0,0,7.472347,-6.412669,-15.76518,-10.65206,-111.0334,-35.10307,0.001067912,-0.1257102,0.09433498,0,0.3,0,0,0,0,
6.38223E+17,6.03135,43.50684,23.62743,-17.49938,-12.32979,43.36735,-4.570632,-0.4441859,0.1400836,-35.22471,-8.447793,45.05199,0,0,0,15.77799,-7.017772,-19.01845,-10.65206,-111.0334,-35.10307,0.001067912,-0.1257102,0.09433498,0,0.3,0,0,0,0,
6.38223E+17,8.834986,43.64711,23.0204,-11.42003,-11.59733,41.53622,-4.570632,-0.4441859,0.1400836,-35.22471,-8.447793,45.05199,0,0,0,22.82956,-7.340631,-21.47326,-10.65206,-111.0334,-35.10307,0.001067912,-0.1257102,0.09433498,0,0.3,0,0,0,0,
6.38223E+17,11.14386,43.64711,22.55346,-5.633667,-10.86488,39.41211,-4.570632,-0.4441859,0.1400836,-35.22471,-8.447793,45.05199,0,0,0,28.53454,-7.761541,-23.49528,-10.65206,-111.0334,-35.10307,0.001067912,-0.1257102,0.09433498,0,0.3,0,0,0,0,
6.38223E+17,12.74594,43.57697,22.15656,-0.9459759,-10.27892,37.14151,-4.570632,-0.4441859,0.1400836,-35.22471,-8.447793,45.05199,0,0,0,32.40957,-8.231068,-25.07313,-10.65206,-111.0334,-35.10307,0.001067912,-0.1257102,0.09433498,0,0.3,0,0,0,0,
6.38223E+17,13.1229,43.24968,21.66626,2.643037,-9.766206,35.09065,-4.570632,-0.4441859,0.1400836,-35.22471,-8.447793,45.12524,0,0,0,33.23001,-9.210238,-25.81063,-10.65206,-111.0334,-35.10307,0.001067912,-0.1257102,0.09433498,0,0.3,0,0,0,0,
6.38223E+17,12.51034,42.61847,21.03589,4.327676,-9.033754,34.06521,-4.570632,-0.4441859,0.1400836,-35.22471,-8.447793,45.05199,0,0,0,31.62499,-10.81995,-25.8206,-10.65206,-111.0334,-35.10307,0.001067912,-0.1257102,0.09433498,0,0.3,0,0,0,0,
6.38223E+17,10.6491,41.35604,20.03195,4.693902,-7.861832,33.77223,-4.570632,-0.4441859,0.1400836,-35.22471,-8.447793,45.05199,0,0,0,26.93796,-13.82339,-25.0874,-10.65206,-111.0334,-35.10307,0.001067912,-0.1257102,0.09433498,0,0.3,0,0,0,0,
6.38223E+17,8.599386,39.97673,19.07472,3.81496,-6.98289,33.91872,-4.570632,-0.4441859,0.1400836,-35.22471,-8.447793,45.05199,0,0,0,21.79558,-17.00395,-24.22297,-10.65206,-111.0334,-35.10307,0.001067912,-0.1257102,0.09433498,0,0.3,0,0,0,0,
6.38223E+17,5.79575,37.91945,17.90735,1.54436,-5.591231,35.16389,-4.570632,-0.4441859,0.1400836,-35.22471,-8.447793,45.05199,0,0,0,14.76353,-21.58921,-22.89849,-10.65206,-111.0334,-35.10307,0.001067912,-0.1257102,0.09433498,0,0.3,0,0,0,0,
6.38223E+17,4.099433,36.42324,17.30033,-0.140279,-4.639044,36.40906,-4.570632,-0.4441859,0.1400836,-35.22471,-8.447793,45.05199,0,0,0,10.50554,-24.79119,-21.76985,-10.65206,-111.0334,-35.10307,0.001067912,-0.1257102,0.09433498,0,0.3,0,0,0,0,
6.38223E+17,1.130878,33.64123,16.43647,-3.363066,-2.73467,38.97264,-4.570632,-0.4441859,0.1400836,-35.22471,-8.447793,45.05199,0,0,0,2.935741,-30.67585,-19.6304,-10.65206,-111.0334,-35.10307,0.001067912,-0.1257102,0.09433498,0,0.3,0,0,0,0,
6.38223E+17,-1.884797,30.43842,15.82945,-7.09857,-0.4640697,41.90245,-4.570632,-0.4441859,0.1400836,-35.22471,-8.447793,45.05199,0,0,0,-4.977748,-37.38638,-17.08645,-10.65206,-111.0334,-35.10307,0.001067912,-0.1257102,0.09433498,0,0.3,0,0,0,0,
6.38223E+17,-4.476392,27.3525,15.50258,-10.24811,1.293814,44.39278,-4.570632,-0.4441859,0.1400836,-35.22471,-8.447793,45.12524,0,0,0,-12.02593,-43.87905,-14.73697,-10.65206,-111.0334,-35.10307,0.001067912,-0.1257102,0.09433498,0,0.3,0,0,0,0,
6.38223E+17,-7.397828,23.26131,15.33915,-13.98362,3.564415,47.02961,-4.570632,-0.4441859,0.1400836,-35.22471,-8.447793,45.12524,0,0,0,-20.31618,-52.58637,-11.87763,-10.65206,-111.0334,-35.10307,0.001067912,-0.1257102,0.09433498,0,0.3,0,0,0,0,
6.38223E+17,-10.90826,17.88433,15.57263,-19.18402,6.933692,50.03266,-4.570632,-0.4441859,0.1400836,-35.22471,-8.447793,45.05199,0,0,0,-30.78989,-64.15356,-8.58444,-10.65206,-111.0334,-35.10307,0.001067912,-0.1257102,0.09433498,0,0.3,0,0,0,0,
6.38223E+17,-12.7695,14.47111,16.03957,-22.69979,9.204292,51.79055,-4.570632,-0.4441859,0.1400836,-35.22471,-8.447793,45.12524,0,0,0,-36.68293,-71.48576,-6.490692,-10.65206,-111.0334,-35.10307,0.001067912,-0.1257102,0.09433498,0,0.3,0,0,0,0,
6.38223E+17,-14.5365,10.77735,16.6466,-26.14231,11.40165,53.69492,-4.570632,-0.4441859,0.1400836,-35.22471,-8.447793,45.05199,0,0,0,-42.46822,-79.47577,-4.568044,-10.65206,-111.0334,-35.10307,0.001067912,-0.1257102,0.09433498,0,0.3,0,0,0,0,
6.38223E+17,-15.21973,9.257769,16.95012,-27.60722,12.20734,54.42737,-4.570632,-0.4441859,0.1400836,-35.22471,-8.447793,45.05199,0,0,0,-44.75724,-82.75427,-3.839956,-10.65206,-111.0334,-35.10307,0.001067912,-0.1257102,0.09433498,0,0.3,0,0,0,0,
6.38223E+17,-17.01029,5.844551,18.00074,-31.12299,13.96523,56.84446,-4.570632,-0.4441859,0.1400836,-35.22471,-8.447793,45.12524,0,0,0,-50.86333,-89.89384,-2.090364,-10.65206,-111.0334,-35.10307,0.001067912,-0.1257102,0.09433498,0,0.3,0,0,0,0,
6.38223E+17,-17.74065,4.956179,18.53773,-32.29491,14.33146,57.57691,-4.570632,-0.4441859,0.1400836,-35.22471,-8.447793,45.05199,0,0,0,-53.39939,-91.56046,-1.436537,-10.65206,-111.0334,-35.10307,0.001067912,-0.1257102,0.09433498,0,0.3,0,0,0,0,
6.38223E+17,-18.77729,3.857404,19.30819,-34.27253,14.4047,58.60235,-4.570632,-0.4441859,0.1400836,-35.22471,-8.447793,45.12524,0,0,0,-57.01967,-93.52863,-0.6379486,-10.65206,-111.0334,-35.10307,0.001067912,-0.1257102,0.09433498,0,0.3,0,0,0,0,
6.38223E+17,-19.43697,3.38984,19.68175,-36.10366,14.18496,59.3348,-4.570632,-0.4441859,0.1400836,-35.22471,-8.447793,45.05199,0,0,0,-59.24242,-94.32452,-0.4678325,-10.65206,-111.0334,-35.10307,0.001067912,-0.1257102,0.09433498,0,0.3,0,0,0,0,
6.38223E+17,-19.64901,3.553487,19.70509,-37.7883,13.96523,59.84751,-4.570632,-0.4441859,0.1400836,-35.22471,-8.447793,45.12524,0,0,0,-59.87276,-93.92603,-0.6617651,-10.65206,-111.0334,-35.10307,0.001067912,-0.1257102,0.09433498,0,0.3,0,0,0,0,
6.38223E+17,-19.50765,4.301589,19.68175,-38.52075,13.74549,59.92076,-4.570632,-0.4441859,0.1400836,-35.22471,-8.447793,45.05199,0,0,0,-59.40195,-92.20731,-0.6751931,-10.65206,-111.0334,-35.10307,0.001067912,-0.1257102,0.09433498,0,0.3,0,0,0,0,
6.38223E+17,-18.63593,6.522519,19.6584,-39.2532,13.08629,59.77427,-4.570632,-0.4441859,0.1400836,-35.22471,-8.447793,45.05199,0,0,0,-56.67198,-87.07999,-0.3012922,-10.65206,-111.0334,-35.10307,0.001067912,-0.1257102,0.09433498,0,0.3,0,0,0,0,
6.38223E+17,-17.74065,8.20575,19.6584,-39.2532,12.35384,59.55453,-4.570632,-0.4441859,0.1400836,-35.22471,-8.447793,45.05199,0,0,0,-53.88631,-83.19489,0.08545342,-10.65206,-111.0334,-35.10307,0.001067912,-0.1257102,0.09433498,0,0.3,0,0,0,0,
6.38223E+17,-13.28782,14.23733,19.91522,-36.54313,8.471841,59.04182,-4.570632,-0.4441859,0.1400836,-35.22471,-8.447793,45.05199,0,0,0,-40.14828,-69.22941,1.650617,-10.65206,-111.0334,-35.10307,0.001067912,-0.1257102,0.09433498,0,0.3,0,0,0,0,
6.38223E+17,-11.63862,16.0842,20.07865,-34.93173,6.933692,58.67559,-4.570632,-0.4441859,0.1400836,-35.15147,-8.447793,45.05199,0,0,0,-35.08437,-64.9507,1.984753,-10.65206,-111.0334,-35.10307,0.001067912,-0.1257102,0.09433498,0,0.3,0,0,0,0,
6.38223E+17,-7.939706,19.87147,20.4522,-30.83001,3.564415,57.57691,-4.570632,-0.4441859,0.1400836,-35.15147,-8.447793,45.05199,0,0,0,-23.75935,-56.26697,2.007096,-10.65206,-111.0334,-35.10307,0.001067912,-0.1257102,0.09433498,0,0.3,0,0,0,0,
6.38223E+17,-4.476392,23.42496,20.77907,-25.92258,0.1951368,55.59929,-4.570632,-0.4441859,0.1400836,-35.22471,-8.521038,45.05199,0,0,0,-13.24226,-48.31332,0.7999043,-10.65206,-111.0334,-35.10307,0.001067912,-0.1257102,0.09433498,0,0.3,0,0,0,0,
6.38223E+17,0.07067989,27.67979,21.80634,-18.96429,-3.979838,51.79055,-4.570632,-0.4441859,0.1400836,-35.22471,-8.447793,45.05199,0,0,0,0.2067812,-38.51306,-0.7254188,-10.65206,-111.0334,-35.10307,0.001067912,-0.1257102,0.09433498,0,0.3,0,0,0,0,
6.38223E+17,2.473796,29.50329,22.50677,-15.37527,-6.103948,49.95942,-4.570632,-0.4441859,0.1400836,-35.22471,-8.447793,45.05199,0,0,0,7.212602,-34.17196,-1.402191,-10.65206,-111.0334,-35.10307,0.001067912,-0.1257102,0.09433498,0,0.3,0,0,0,0,
6.38223E+17,6.24339,31.91125,23.74417,-9.588906,-8.814018,46.59014,-4.570632,-0.4441859,0.1400836,-35.22471,-8.447793,45.05199,0,0,0,18.14969,-28.22278,-2.449456,-10.65206,-111.0334,-35.10307,0.001067912,-0.1257102,0.09433498,0,0.3,0,0,0,0,
6.38223E+17,9.848064,33.73475,24.81814,-3.802537,-10.79164,43.4406,-4.570632,-0.4441859,0.1400836,-35.22471,-8.447793,45.05199,0,0,0,28.54053,-23.62864,-3.940389,-10.65206,-111.0334,-35.10307,0.001067912,-0.1257102,0.09433498,0,0.3,0,0,0,0,
6.38223E+17,13.52342,35.20757,26.0322,1.837341,-12.25654,39.99807,-4.570632,-0.4441859,0.1400836,-35.22471,-8.447793,45.12524,0,0,0,39.16405,-19.58966,-5.513233,-10.65206,-111.0334,-35.10307,0.001067912,-0.1257102,0.09433498,0,0.3,0,0,0,0,
6.38223E+17,16.63333,36.09594,27.12952,6.451786,-13.13548,36.92178,-4.570632,-0.4441859,0.1400836,-35.22471,-8.447793,45.05199,0,0,0,48.24934,-16.76685,-6.844068,-10.65206,-111.0334,-35.10307,0.001067912,-0.1257102,0.09433498,0,0.3,0,0,0,0,
6.38223E+17,18.32965,36.39986,27.68986,9.015368,-13.35522,35.0174,-4.570632,-0.4441859,0.1400836,-35.15147,-8.447793,45.05199,0,0,0,53.24164,-15.59606,-7.641161,-10.65206,-111.0334,-35.10307,0.001067912,-0.1257102,0.09433498,0,0.3,0,0,0,0,
6.38223E+17,21.5338,36.70378,28.71714,13.70306,-13.6482,30.98892,-4.570632,-0.4441859,0.1400836,-35.22471,-8.447793,45.05199,0,0,0,62.75981,-13.89792,-9.300194,-10.65206,-111.0334,-35.10307,0.001067912,-0.1257102,0.09433498,0,0.3,0,0,0,0,
6.38223E+17,25.58612,36.63364,30.16467,19.04996,-13.42846,25.56878,-4.570632,-0.4441859,0.1400836,-35.22471,-8.447793,45.05199,0,0,0,75.15165,-12.37295,-11.39883,-10.65206,-111.0334,-35.10307,0.001067912,-0.1257102,0.09433498,0,0.3,0,0,0,0,
6.38223E+17,27.37668,36.44662,30.98182,21.54029,-13.28197,22.8587,-4.570632,-0.4441859,0.1400836,-35.22471,-8.447793,45.05199,0,0,0,80.89118,-11.75533,-12.13948,-10.65206,-111.0334,-35.10307,0.001067912,-0.1257102,0.09433498,0,0.3,0,0,0,0,
6.38223E+17,29.73267,36.04919,31.89237,25.1293,-12.8425,18.97671,-4.570632,-0.4441859,0.1400836,-35.22471,-8.447793,45.05199,0,0,0,88.41234,-11.39601,-13.55184,-10.65206,-111.0334,-35.10307,0.001067912,-0.1257102,0.09433498,0,0.3,0,0,0,0,
6.38223E+17,31.49967,35.69852,32.12584,27.98586,-12.25654,15.90041,-4.570632,-0.4441859,0.1400836,-35.22471,-8.447793,45.05199,0,0,0,93.63414,-11.76933,-15.55098,-10.65206,-111.0334,-35.10307,0.001067912,-0.1257102,0.09433498,0,0.3,0,0,0,0,
6.38223E+17,33.5965,35.67514,32.21923,30.40295,-11.52409,12.67763,-4.570632,-0.4441859,0.1400836,-35.22471,-8.447793,45.05199,0,0,0,99.2815,-11.69778,-18.89954,-10.65206,-111.0334,-35.10307,0.001067912,-0.1257102,0.09433498,0,0.3,0,0,0,0,
6.38223E+17,35.2457,35.48811,32.28927,32.08759,-10.86488,10.0408,-4.570632,-0.4441859,0.1400836,-35.22471,-8.447793,45.05199,0,0,0,103.7673,-11.9648,-21.49933,-10.65206,-111.0334,-35.10307,0.001067912,-0.1257102,0.09433498,0,0.3,0,0,0,0,
6.38223E+17,36.0703,35.20757,32.28927,32.96654,-10.64515,8.575896,-4.570632,-0.4441859,0.1400836,-35.22471,-8.447793,45.05199,0,0,0,106.0923,-12.49736,-22.70258,-10.65206,-111.0334,-35.10307,0.001067912,-0.1257102,0.09433498,0,0.3,0,0,0,0,
6.38223E+17,37.69594,34.01529,32.28927,34.72442,-10.05919,6.012315,-4.570632,-0.4441859,0.1400836,-35.15147,-8.447793,45.05199,0,0,0,111.1453,-14.78115,-24.52376,-10.65206,-111.0334,-35.10307,0.001067912,-0.1257102,0.09433498,0,0.3,0,0,0,0,
6.38223E+17,38.8975,32.21516,32.21923,36.33582,-8.740773,4.327676,-4.570632,-0.4441859,0.1400836,-35.22471,-8.447793,45.05199,0,0,0,115.4874,-18.37709,-25.21206,-10.65206,-111.0334,-35.10307,0.001067912,-0.1257102,0.09433498,0,0.3,0,0,0,0,
6.38223E+17,39.93414,29.69032,32.12584,37.65423,-6.98289,3.228999,-4.570632,-0.4441859,0.1400836,-35.22471,-8.521038,45.05199,0,0,0,119.88,-23.5319,-25.14861,-10.65206,-111.0334,-35.10307,0.001067912,-0.1257102,0.09433498,0,0.3,0,0,0,0,
6.38223E+17,40.73517,26.72129,32.0091,38.75291,-5.00527,2.789528,-4.570632,-0.4441859,0.1400836,-35.22471,-8.447793,45.05199,0,0,0,123.851,-29.76505,-24.53855,-10.65206,-111.0334,-35.10307,0.001067912,-0.1257102,0.09433498,0,0.3,0,0,0,0,
6.38223E+17,41.22993,22.93402,32.0091,39.5586,-2.58818,2.643037,-4.570632,-0.4441859,0.1400836,-35.22471,-8.447793,45.05199,0,0,0,127.5271,-37.76339,-22.83038,-10.65206,-111.0334,-35.10307,0.001067912,-0.1257102,0.09433498,0,0.3,0,0,0,0,
6.38223E+17,41.41841,17.83757,31.91571,40.07132,1.293814,2.643037,-4.570632,-0.4441859,0.1400836,-35.15147,-8.447793,45.05199,0,0,0,130.6157,-48.99334,-20.29154,-10.65206,-111.0334,-35.10307,0.001067912,-0.1257102,0.09433498,0,0.3,0,0,0,0,
6.38223E+17,41.44197,14.54124,31.68224,39.85158,4.443357,2.716283,-4.570632,-0.4441859,0.1400836,-35.22471,-8.447793,45.12524,0,0,0,131.7864,-56.64628,-19.08821,-10.65206,-111.0334,-35.10307,0.001067912,-0.1257102,0.09433498,0,0.3,0,0,0,0,
6.38223E+17,41.37129,13.06842,31.51881,39.70509,6.05475,2.716283,-4.570632,-0.4441859,0.1400836,-35.15147,-8.447793,45.05199,0,0,0,131.9286,-60.17434,-18.55508,-10.65206,-111.0334,-35.10307,0.001067912,-0.1257102,0.09433498,0,0.3,0,0,0,0,
6.38223E+17,40.90009,10.49681,31.02851,39.04589,9.350782,2.716283,-4.570632,-0.4441859,0.1400836,-35.15147,-8.447793,45.05199,0,0,0,130.8539,-66.62525,-17.28866,-10.65206,-111.0334,-35.10307,0.001067912,-0.1257102,0.09433498,0,0.3,0,0,0,0,
6.38223E+17,39.69854,8.72007,29.25412,37.21476,13.01304,3.302244,-4.570632,-0.4441859,0.1400836,-35.22471,-8.447793,45.05199,0,0,0,125.8172,-72.77585,-16.79461,-10.65206,-111.0334,-35.10307,0.001067912,-0.1257102,0.09433498,0,0.3,0,0,0,0,
6.38223E+17,39.10954,8.673313,28.13346,36.40906,14.11172,4.034696,-4.570632,-0.4441859,0.1400836,-35.22471,-8.447793,45.12524,0,0,0,122.8197,-74.13569,-17.27176,-10.65206,-111.0334,-35.10307,0.001067912,-0.1257102,0.09433498,0,0.3,0,0,0,0,
6.38223E+17,37.55458,9.304525,24.86484,34.13846,16.23583,6.378541,-4.570632,-0.4441859,0.1400836,-35.22471,-8.447793,45.05199,0,0,0,114.3858,-76.07849,-19.57313,-10.65206,-111.0334,-35.10307,0.001067912,-0.1257102,0.09433498,0,0.3,0,0,0,0,
6.38223E+17,35.99962,11.05789,21.31605,31.42839,17.84722,8.575896,-4.570632,-0.4441859,0.1400836,-35.22471,-8.447793,45.05199,0,0,0,105.4175,-75.30083,-23.25326,-10.65206,-111.0334,-35.10307,0.001067912,-0.1257102,0.09433498,0,0.3,0,0,0,0,
6.38223E+17,34.11483,15.6634,17.39371,27.69288,18.06696,11.13948,-4.570632,-0.4441859,0.1400836,-35.22471,-8.447793,45.05199,0,0,0,94.36977,-67.89977,-29.04407,-10.65206,-111.0334,-35.10307,0.001067912,-0.1257102,0.09433498,0,0.3,0,0,0,0,
6.38223E+17,32.96038,19.28702,15.87614,25.64202,16.96828,12.75087,-4.570632,-0.4441859,0.1400836,-35.22471,-8.447793,45.05199,0,0,0,88.32521,-60.86783,-32.13501,-10.65206,-111.0334,-35.10307,0.001067912,-0.1257102,0.09433498,0,0.3,0,0,0,0,
6.38223E+17,31.24051,24.57049,14.9189,23.37142,14.33146,14.87498,-4.570632,-0.4441859,0.1400836,-35.22471,-8.447793,45.05199,0,0,0,80.70239,-50.05634,-35.30689,-10.65206,-111.0334,-35.10307,0.001067912,-0.1257102,0.09433498,0,0.3,0,0,0,0,
6.38223E+17,29.26147,29.99424,14.82551,20.95433,10.74244,16.55962,-4.570632,-0.4441859,0.1400836,-35.22471,-8.447793,45.05199,0,0,0,73.12988,-38.89734,-37.82851,-10.65206,-111.0334,-35.10307,0.001067912,-0.1257102,0.09433498,0,0.3,0,0,0,0,
6.38223E+17,27.11752,35.65176,15.47924,17.80479,6.127995,17.36532,-4.570632,-0.4441859,0.1400836,-35.22471,-8.447793,45.05199,0,0,0,65.61326,-27.43901,-40.22705,-10.65206,-111.0334,-35.10307,0.001067912,-0.1257102,0.09433498,0,0.3,0,0,0,0,
6.38223E+17,26.22224,38.12985,16.17966,16.12015,3.710905,17.21883,-4.570632,-0.4441859,0.1400836,-35.22471,-8.521038,45.05199,0,0,0,62.76665,-22.38197,-40.9162,-10.65206,-111.0334,-35.10307,0.001067912,-0.1257102,0.09433498,0,0.3,0,0,0,0,
6.38223E+17,24.64372,42.52495,17.90735,12.97061,-1.269767,15.68068,-4.570632,-0.4441859,0.1400836,-35.22471,-8.447793,45.12524,0,0,0,58.07578,-13.40709,-41.7568,-10.65206,-111.0334,-35.10307,0.001067912,-0.1257102,0.09433498,0,0.3,0,0,0,0,
6.38223E+17,23.27724,46.28884,19.91522,10.33378,-5.884212,13.92279,-4.570632,-0.4441859,0.1400836,-35.22471,-8.447793,45.12524,0,0,0,54.36534,-5.635636,-41.97694,-10.65206,-111.0334,-35.10307,0.001067912,-0.1257102,0.09433498,0,0.3,0,0,0,0,
6.38223E+17,21.8872,50.98786,22.95036,7.184238,-11.45084,12.3114,-4.570632,-0.4441859,0.1400836,-35.22471,-8.447793,45.05199,0,0,0,50.67559,4.170216,-42.20912,-10.65206,-111.0334,-35.10307,0.001067912,-0.1257102,0.09433498,0,0.3,0,0,0,0,
6.38223E+17,21.43956,53.48933,24.53798,5.646089,-14.60039,12.01842,-4.570632,-0.4441859,0.1400836,-35.22471,-8.447793,45.05199,0,0,0,49.24256,9.222881,-42.95275,-10.65206,-111.0334,-35.10307,0.001067912,-0.1257102,0.09433498,0,0.3,0,0,0,0,
6.38223E+17,21.34533,56.43498,26.14894,4.254431,-18.11616,11.06623,-4.570632,-0.4441859,0.1400836,-35.22471,-8.447793,45.05199,0,0,0,48.22664,14.76326,-44.9436,-10.65206,-111.0334,-35.10307,0.001067912,-0.1257102,0.09433498,0,0.3,0,0,0,0,
6.38223E+17,21.51024,58.35199,27.01279,3.521979,-20.75298,9.894309,-4.570632,-0.4441859,0.1400836,-35.22471,-8.447793,45.05199,0,0,0,47.86288,18.067,-46.90668,-10.65206,-111.0334,-35.10307,0.001067912,-0.1257102,0.09433498,0,0.3,0,0,0,0,
6.38223E+17,22.3584,59.1001,26.89605,3.448734,-22.58411,9.235103,-4.570632,-0.4441859,0.1400836,-35.22471,-8.447793,45.05199,0,0,0,48.99711,18.84771,-49.22871,-10.65206,-111.0334,-35.10307,0.001067912,-0.1257102,0.09433498,0,0.3,0,0,0,0,
6.38223E+17,23.74844,58.93645,26.0789,4.327676,-23.24332,9.015368,-4.570632,-0.4441859,0.1400836,-35.22471,-8.447793,45.05199,0,0,0,51.31837,17.80343,-51.71152,-10.65206,-111.0334,-35.10307,0.001067912,-0.1257102,0.09433498,0,0.3,0,0,0,0,
6.38223E+17,24.78508,58.49226,25.26174,5.353109,-23.17007,8.429405,-4.570632,-0.4441859,0.1400836,-35.22471,-8.447793,45.05199,0,0,0,53.07195,16.44272,-53.41319,-10.65206,-111.0334,-35.10307,0.001067912,-0.1257102,0.09433498,0,0.3,0,0,0,0,
6.38223E+17,26.2458,57.34673,23.88425,7.037747,-22.51087,7.184238,-4.570632,-0.4441859,0.1400836,-35.22471,-8.447793,45.05199,0,0,0,55.69427,13.69358,-55.39231,-10.65206,-111.0334,-35.10307,0.001067912,-0.1257102,0.09433498,0,0.3,0,0,0,0,
6.38223E+17,27.94211,55.38297,21.96978,9.015368,-21.19245,5.499599,-4.570632,-0.4441859,0.1400836,-35.22471,-8.447793,45.05199,0,0,0,58.87378,9.426414,-57.35414,-10.65206,-111.0334,-35.10307,0.001067912,-0.1257102,0.09433498,0,0.3,0,0,0,0,
6.38223E+17,29.89759,52.53082,19.40158,11.5057,-18.70212,4.254431,-4.570632,-0.4441859,0.1400836,-35.15147,-8.447793,45.12524,0,0,0,62.51505,3.409801,-59.62243,-10.65206,-111.0334,-35.10307,0.001067912,-0.1257102,0.09433498,0,0.3,0,0,0,0,
6.38223E+17,31.57035,48.97734,16.59991,13.92279,-15.77231,3.375489,-4.570632,-0.4441859,0.1400836,-35.22471,-8.447793,45.05199,0,0,0,65.76857,-3.83647,-61.32064,-10.65206,-111.0334,-35.10307,0.001067912,-0.1257102,0.09433498,0,0.3,0,0,0,0,
6.38223E+17,33.29023,44.93291,13.75154,16.26664,-12.25654,2.936018,-4.570632,-0.4441859,0.1400836,-35.22471,-8.521038,45.05199,0,0,0,69.21486,-11.99541,-62.94127,-10.65206,-111.0334,-35.10307,0.001067912,-0.1257102,0.09433498,0,0.3,0,0,0,0,
6.38223E+17,34.91586,39.88321,10.94987,18.90347,-7.202625,2.862773,-4.570632,-0.4441859,0.1400836,-35.15147,-8.447793,45.05199,0,0,0,73.06705,-22.06486,-63.67262,-10.65206,-111.0334,-35.10307,0.001067912,-0.1257102,0.09433498,0,0.3,0,0,0,0,
6.38223E+17,36.23522,35.9323,9.385601,20.51486,-3.613612,2.936018,-4.570632,-0.4441859,0.1400836,-35.15147,-8.447793,45.05199,0,0,0,76.67854,-29.96124,-63.71708,-10.65206,-111.0334,-35.10307,0.001067912,-0.1257102,0.09433498,0,0.3,0,0,0,0,
6.38223E+17,37.74306,30.85923,8.405016,23.07844,0.707853,3.009263,-4.570632,-0.4441859,0.1400836,-35.22471,-8.447793,45.05199,0,0,0,82.00186,-40.16848,-62.41662,-10.65206,-111.0334,-35.10307,0.001067912,-0.1257102,0.09433498,0,0.3,0,0,0,0,
6.38223E+17,38.26138,28.311,8.124848,24.4701,3.051698,3.082508,-4.570632,-0.4441859,0.1400836,-35.22471,-8.447793,45.12524,0,0,0,84.37029,-45.41928,-61.3705,-10.65206,-111.0334,-35.10307,0.001067912,-0.1257102,0.09433498,0,0.3,0,0,0,0,
6.38223E+17,38.87394,22.86388,7.891376,27.10692,7.959125,4.107941,-4.570632,-0.4441859,0.1400836,-35.22471,-8.447793,45.05199,0,0,0,88.60653,-56.92496,-58.43645,-10.65206,-111.0334,-35.10307,0.001067912,-0.1257102,0.09433498,0,0.3,0,0,0,0,
6.38223E+17,38.7797,17.90771,7.868029,28.86481,12.50033,6.012315,-4.570632,-0.4441859,0.1400836,-35.22471,-8.447793,45.05199,0,0,0,90.90777,-67.74158,-55.20145,-10.65206,-111.0334,-35.10307,0.001067912,-0.1257102,0.09433498,0,0.3,0,0,0,0,
6.38223E+17,37.86086,14.07368,7.727945,29.89024,16.96828,8.209671,-4.570632,-0.4441859,0.1400836,-35.22471,-8.447793,45.05199,0,0,0,90.3918,-76.36224,-52.07282,-10.65206,-111.0334,-35.10307,0.001067912,-0.1257102,0.09433498,0,0.3,0,0,0,0,
6.38223E+17,36.47082,12.88139,7.074222,29.59726,20.70378,9.674574,-4.570632,-0.4441859,0.1400836,-35.22471,-8.447793,45.05199,0,0,0,87.03209,-79.25668,-50.60752,-10.65206,-111.0334,-35.10307,0.001067912,-0.1257102,0.09433498,0,0.3,0,0,0,0,
6.38223E+17,33.87922,15.6634,7.074222,28.13236,23.19412,11.35921,-4.570632,-0.4441859,0.1400836,-35.15147,-8.447793,45.05199,0,0,0,80.72944,-72.98232,-48.11777,-10.65206,-111.0334,-35.10307,0.001067912,-0.1257102,0.09433498,0,0.3,0,0,0,0,
6.38223E+17,31.21695,20.40917,7.471125,26.52096,22.38842,12.67763,-4.570632,-0.4441859,0.1400836,-35.22471,-8.447793,45.05199,0,0,0,73.76065,-62.36584,-46.63795,-10.65206,-111.0334,-35.10307,0.001067912,-0.1257102,0.09433498,0,0.3,0,0,0,0,
6.38223E+17,26.717,27.74993,8.848614,23.6644,18.57967,14.80174,-4.570632,-0.4441859,0.1400836,-35.22471,-8.447793,45.12524,0,0,0,62.27891,-46.32335,-44.61362,-10.65206,-111.0334,-35.10307,0.001067912,-0.1257102,0.09433498,0,0.3,0,0,0,0,
6.38223E+17,24.17252,30.9995,9.969283,21.76003,15.94285,15.90041,-4.570632,-0.4441859,0.1400836,-35.22471,-8.447793,45.05199,0,0,0,56.25898,-39.30719,-43.00733,-10.65206,-111.0334,-35.10307,0.001067912,-0.1257102,0.09433498,0,0.3,0,0,0,0,
6.38223E+17,18.73017,37.12459,12.60752,16.70611,9.8635,17.80479,-4.570632,-0.4441859,0.1400836,-35.22471,-8.447793,45.05199,0,0,0,43.48809,-26.30126,-40.0924,-10.65206,-111.0334,-35.10307,0.001067912,-0.1257102,0.09433498,0,0.3,0,0,0,0,
6.38223E+17,13.80614,42.64184,15.22242,10.48027,3.710905,18.97671,-4.570632,-0.4441859,0.1400836,-35.22471,-8.447793,45.05199,0,0,0,31.76405,-14.98819,-39.08972,-10.65206,-111.0334,-35.10307,0.001067912,-0.1257102,0.09433498,0,0.3,0,0,0,0,
6.38223E+17,10.15434,47.38762,17.67388,3.66847,-2.148709,19.48943,-4.570632,-0.4441859,0.1400836,-35.22471,-8.447793,45.05199,0,0,0,23.05437,-5.56684,-39.63078,-10.65206,-111.0334,-35.10307,0.001067912,-0.1257102,0.09433498,0,0.3,0,0,0,0,
6.38223E+17,8.269547,50.23976,19.12141,-2.70386,-7.495606,19.41618,-4.570632,-0.4441859,0.1400836,-35.22471,-8.447793,45.12524,0,0,0,18.54966,-0.1328081,-40.72187,-10.65206,-111.0334,-35.10307,0.001067912,-0.1257102,0.09433498,0,0.3,0,0,0,0,
6.38223E+17,8.552266,50.70732,18.53773,-6.952079,-10.86488,18.53724,-4.570632,-0.4441859,0.1400836,-35.22471,-8.447793,45.05199,0,0,0,18.86316,0.1213161,-42.91644,-10.65206,-111.0334,-35.10307,0.001067912,-0.1257102,0.09433498,0,0.3,0,0,0,0,
6.38223E+17,9.164824,50.5203,17.884,-7.611286,-11.30435,17.6583,-4.570632,-0.4441859,0.1400836,-35.15147,-8.447793,45.05199,0,0,0,20.02648,-0.6303709,-44.21995,-10.65206,-111.0334,-35.10307,0.001067912,-0.1257102,0.09433498,0,0.3,0,0,0,0,
6.38223E+17,10.27214,49.53841,16.45982,-7.171815,-11.15786,16.26664,-4.570632,-0.4441859,0.1400836,-35.22471,-8.447793,45.05199,0,0,0,22.16916,-3.076964,-46.02294,-10.65206,-111.0334,-35.10307,0.001067912,-0.1257102,0.09433498,0,0.3,0,0,0,0,
6.38223E+17,11.68574,47.52789,14.63874,-5.706912,-9.839451,15.09472,-4.570632,-0.4441859,0.1400836,-35.22471,-8.447793,45.05199,0,0,0,25.0633,-7.311494,-47.17201,-10.65206,-111.0334,-35.10307,0.001067912,-0.1257102,0.09433498,0,0.3,0,0,0,0,
6.38223E+17,13.26426,44.7225,12.67757,-3.509557,-7.27587,14.21577,-4.570632,-0.4441859,0.1400836,-35.22471,-8.447793,45.05199,0,0,0,28.45405,-12.9141,-47.6446,-10.65206,-111.0334,-35.10307,0.001067912,-0.1257102,0.09433498,0,0.3,0,0,0,0,
6.38223E+17,15.07837,41.51969,11.44016,-0.8727306,-4.419309,14.14253,-4.570632,-0.4441859,0.1400836,-35.22471,-8.447793,45.12524,0,0,0,32.85364,-18.95596,-46.40602,-10.65206,-111.0334,-35.10307,0.001067912,-0.1257102,0.09433498,0,0.3,0,0,0,0,
6.38223E+17,15.87941,39.50917,11.13665,0.8851534,-2.661425,14.21577,-4.570632,-0.4441859,0.1400836,-35.22471,-8.447793,45.12524,0,0,0,35.1974,-22.65144,-44.61984,-10.65206,-111.0334,-35.10307,0.001067912,-0.1257102,0.09433498,0,0.3,0,0,0,0,
6.38223E+17,16.58621,35.27771,10.78644,4.327676,1.733285,14.65524,-4.570632,-0.4441859,0.1400836,-35.22471,-8.447793,45.05199,0,0,0,38.19944,-30.62895,-40.09979,-10.65206,-111.0334,-35.10307,0.001067912,-0.1257102,0.09433498,0,0.3,0,0,0,0,
6.38223E+17,15.50245,31.93463,10.48292,6.891257,7.373164,17.21883,-4.570632,-0.4441859,0.1400836,-35.22471,-8.447793,45.05199,0,0,0,36.73219,-37.23862,-35.92004,-10.65206,-111.0334,-35.10307,0.001067912,-0.1257102,0.09433498,0,0.3,0,0,0,0,
6.38223E+17,13.90038,31.39693,10.36619,7.110993,9.717009,18.83022,-4.570632,-0.4441859,0.1400836,-35.15147,-8.447793,45.05199,0,0,0,33.109,-38.35291,-34.56652,-10.65206,-111.0334,-35.10307,0.001067912,-0.1257102,0.09433498,0,0.3,0,0,0,0,
6.38223E+17,10.60198,31.98138,10.38953,5.353109,11.98761,20.88108,-4.570632,-0.4441859,0.1400836,-35.22471,-8.447793,45.05199,0,0,0,25.23514,-37.18567,-33.533,-10.65206,-111.0334,-35.10307,0.001067912,-0.1257102,0.09433498,0,0.3,0,0,0,0,
6.38223E+17,6.926629,34.01529,11.1133,1.324624,12.28059,22.1995,-4.570632,-0.4441859,0.1400836,-35.22471,-8.447793,45.05199,0,0,0,16.42975,-32.90155,-33.10889,-10.65206,-111.0334,-35.10307,0.001067912,-0.1257102,0.09433498,0,0.3,0,0,0,0,
6.38223E+17,3.392634,38.05972,12.72426,-4.388499,10.81569,23.51791,-4.570632,-0.4441859,0.1400836,-35.22471,-8.447793,45.12524,0,0,0,7.951587,-24.51718,-34.2183,-10.65206,-111.0334,-35.10307,0.001067912,-0.1257102,0.09433498,0,0.3,0,0,0,0,
6.38223E+17,1.719877,41.44955,13.79823,-8.490229,8.325351,24.25036,-4.570632,-0.4441859,0.1400836,-35.22471,-8.447793,45.12524,0,0,0,3.954378,-17.87932,-36.65391,-10.65206,-111.0334,-35.10307,0.001067912,-0.1257102,0.09433498,0,0.3,0,0,0,0,
6.38223E+17,1.272238,43.10941,14.24183,-10.46785,6.860447,24.4701,-4.570632,-0.4441859,0.1400836,-35.22471,-8.447793,45.05199,0,0,0,2.889894,-14.77108,-38.22379,-10.65206,-111.0334,-35.10307,0.001067912,-0.1257102,0.09433498,0,0.3,0,0,0,0,
6.38223E+17,1.390038,45.14331,14.47531,-13.83713,3.857395,24.25036,-4.570632,-0.4441859,0.1400836,-35.22471,-8.447793,45.05199,0,0,0,3.090249,-11.23862,-40.99842,-10.65206,-111.0334,-35.10307,0.001067912,-0.1257102,0.09433498,0,0.3,0,0,0,0,
6.38223E+17,2.568036,45.44723,13.79823,-15.88799,2.026266,23.00519,-4.570632,-0.4441859,0.1400836,-35.22471,-8.447793,45.05199,0,0,0,5.616761,-11.12592,-43.11763,-10.65206,-111.0334,-35.10307,0.001067912,-0.1257102,0.09433498,0,0.3,0,0,0,0,
6.38223E+17,3.934513,44.60561,12.60752,-15.81474,1.66004,22.12625,-4.570632,-0.4441859,0.1400836,-35.15147,-8.447793,45.05199,0,0,0,8.511572,-13.14327,-44.59637,-10.65206,-111.0334,-35.10307,0.001067912,-0.1257102,0.09433498,0,0.3,0,0,0,0,
6.38223E+17,4.664873,42.6886,11.15999,-14.86256,2.538982,21.97976,-4.570632,-0.4441859,0.1400836,-35.22471,-8.447793,45.05199,0,0,0,10.07067,-17.06533,-44.93153,-10.65206,-111.0334,-35.10307,0.001067912,-0.1257102,0.09433498,0,0.3,0,0,0,0,
6.38223E+17,4.759112,39.20525,9.595726,-13.83713,5.102563,22.49248,-4.570632,-0.4441859,0.1400836,-35.15147,-8.447793,45.05199,0,0,0,10.41729,-23.84366,-43.22296,-10.65206,-111.0334,-35.10307,0.001067912,-0.1257102,0.09433498,0,0.3,0,0,0,0,
6.38223E+17,4.382153,34.43609,8.054807,-12.81169,9.497273,25.64202,-4.570632,-0.4441859,0.1400836,-35.22471,-8.521038,45.05199,0,0,0,9.831203,-33.27679,-40.0597,-10.65206,-111.0334,-35.10307,0.001067912,-0.1257102,0.09433498,0,0.3,0,0,0,0,
6.38223E+17,3.439754,31.93463,7.097569,-12.006,13.45251,28.86481,-4.570632,-0.4441859,0.1400836,-35.22471,-8.447793,45.05199,0,0,0,7.778533,-38.44251,-38.93915,-10.65206,-111.0334,-35.10307,0.001067912,-0.1257102,0.09433498,0,0.3,0,0,0,0,
6.38223E+17,1.649197,30.71896,6.630623,-12.07924,17.40775,31.64813,-4.570632,-0.4441859,0.1400836,-35.22471,-8.447793,45.12524,0,0,0,3.742442,-40.98921,-38.36743,-10.65206,-111.0334,-35.10307,0.001067912,-0.1257102,0.09433498,0,0.3,0,0,0,0,
6.38223E+17,0.7067988,30.71896,6.724013,-12.6652,18.72616,32.45382,-4.570632,-0.4441859,0.1400836,-35.22471,-8.447793,45.12524,0,0,0,1.606747,-40.96394,-38.1076,-10.65206,-111.0334,-35.10307,0.001067912,-0.1257102,0.09433498,0,0.3,0,0,0,0,
6.38223E+17,-0.7539188,32.30868,8.311626,-14.78931,19.60511,33.84548,-4.570632,-0.4441859,0.1400836,-35.22471,-8.447793,45.05199,0,0,0,-1.736611,-37.3264,-36.37988,-10.65206,-111.0334,-35.10307,0.001067912,-0.1257102,0.09433498,0,0.3,0,0,0,0,
6.38223E+17,-0.9659585,33.61786,9.292212,-15.22878,18.9459,34.06521,-4.570632,-0.4441859,0.1400836,-35.22471,-8.447793,45.05199,0,0,0,-2.235064,-34.42076,-35.78981,-10.65206,-111.0334,-35.10307,0.001067912,-0.1257102,0.09433498,0,0.3,0,0,0,0,
6.38223E+17,-1.837677,37.45188,12.11723,-15.88799,16.30907,34.3582,-4.570632,-0.4441859,0.1400836,-35.22471,-8.447793,45.05199,0,0,0,-4.292421,-25.93952,-34.56519,-10.65206,-111.0334,-35.10307,0.001067912,-0.1257102,0.09433498,0,0.3,0,0,0,0,
6.38223E+17,-2.780076,41.4028,15.4092,-17.05991,11.84112,34.50468,-4.570632,-0.4441859,0.1400836,-35.15147,-8.447793,45.05199,0,0,0,-6.569923,-17.01562,-33.05388,-10.65206,-111.0334,-35.10307,0.001067912,-0.1257102,0.09433498,0,0.3,0,0,0,0,
6.38223E+17,-4.193673,45.40047,19.44827,-19.18402,5.468789,34.65118,-4.570632,-0.4441859,0.1400836,-35.22471,-8.447793,45.05199,0,0,0,-10.09394,-7.441937,-30.6886,-10.65206,-111.0334,-35.10307,0.001067912,-0.1257102,0.09433498,0,0.3,0,0,0,0,
6.38223E+17,-5.277431,47.59802,21.66626,-20.86866,1.66004,34.87091,-4.570632,-0.4441859,0.1400836,-35.22471,-8.447793,45.12524,0,0,0,-12.79919,-2.108925,-29.78549,-10.65206,-111.0334,-35.10307,0.001067912,-0.1257102,0.09433498,0,0.3,0,0,0,0,
6.38223E+17,-6.691029,50.68394,24.63136,-23.65198,-3.540367,35.31038,-4.570632,-0.4441859,0.1400836,-35.22471,-8.447793,45.05199,0,0,0,-16.32001,5.301691,-29.23635,-10.65206,-111.0334,-35.10307,0.001067912,-0.1257102,0.09433498,0,0.3,0,0,0,0,
6.38223E+17,-7.374268,52.13339,25.93881,-24.97039,-5.884212,35.53012,-4.570632,-0.4441859,0.1400836,-35.22471,-8.447793,45.05199,0,0,0,-17.99244,8.705541,-29.32711,-10.65206,-111.0334,-35.10307,0.001067912,-0.1257102,0.09433498,0,0.3,0,0,0,0,
6.38223E+17,-9.188385,56.59863,29.34751,-29.87782,-11.96356,35.89634,-4.570632,-0.4441859,0.1400836,-35.22471,-8.447793,45.05199,0,0,0,-22.15812,18.43893,-31.36571,-10.65206,-111.0334,-35.10307,0.001067912,-0.1257102,0.09433498,0,0.3,0,0,0,0,
6.38223E+17,-10.03654,59.26375,30.91178,-32.4414,-14.96661,35.96959,-4.570632,-0.4441859,0.1400836,-35.22471,-8.447793,45.05199,0,0,0,-23.81619,23.55932,-33.78361,-10.65206,-111.0334,-35.10307,0.001067912,-0.1257102,0.09433498,0,0.3,0,0,0,0,
6.38223E+17,-10.67266,60.94698,31.84567,-33.97955,-16.57801,35.96959,-4.570632,-0.4441859,0.1400836,-35.22471,-8.447793,45.05199,0,0,0,-25.02339,26.64351,-35.57021,-10.65206,-111.0334,-35.10307,0.001067912,-0.1257102,0.09433498,0,0.3,0,0,0,0,
6.38223E+17,-11.96846,63.89263,33.17647,-36.61637,-18.92185,35.96959,-4.570632,-0.4441859,0.1400836,-35.22471,-8.447793,45.05199,0,0,0,-27.30131,31.48192,-39.55888,-10.65206,-111.0334,-35.10307,0.001067912,-0.1257102,0.09433498,0,0.3,0,0,0,0,
6.38223E+17,-14.08886,67.53963,34.48391,-40.0589,-20.97272,35.96959,-4.570632,-0.4441859,0.1400836,-35.22471,-8.447793,45.05199,0,0,0,-30.78005,36.66617,-45.70852,-10.65206,-111.0334,-35.10307,0.001067912,-0.1257102,0.09433498,0,0.3,0,0,0,0,
6.38223E+17,-15.59669,69.40989,35.25437,-41.67029,-21.48543,35.89634,-4.570632,-0.4441859,0.1400836,-35.22471,-8.447793,45.05199,0,0,0,-33.30345,39.28835,-49.04386,-10.65206,-111.0334,-35.10307,0.001067912,-0.1257102,0.09433498,0,0.3,0,0,0,0,
6.38223E+17,-18.30609,72.075,36.39838,-44.89308,-21.99815,35.96959,-4.570632,-0.4441859,0.1400836,-35.22471,-8.447793,45.05199,0,0,0,-37.74484,42.8924,-54.26083,-10.65206,-111.0334,-35.10307,0.001067912,-0.1257102,0.09433498,0,0.3,0,0,0,0,
6.38223E+17,-21.91076,74.50633,37.93931,-48.84832,-21.99815,36.04284,-4.570632,-0.4441859,0.1400836,-35.22471,-8.447793,45.05199,0,0,0,-43.88727,46.68592,-59.23623,-10.65206,-111.0334,-35.10307,0.001067912,-0.1257102,0.09433498,0,0.3,0,0,0,0,
6.38223E+17,-26.34004,76.75064,39.59696,-54.48819,-21.63192,37.06827,-4.570632,-0.4441859,0.1400836,-35.22471,-8.447793,45.05199,0,0,0,-51.27256,50.39802,-64.79011,-10.65206,-111.0334,-35.10307,0.001067912,-0.1257102,0.09433498,0,0.3,0,0,0,0,
6.38223E+17,-29.35571,77.91955,40.27403,-58.58992,-21.04596,37.72747,-4.570632,-0.4441859,0.1400836,-35.22471,-8.447793,45.05199,0,0,0,-55.94088,52.00602,-68.89125,-10.65206,-111.0334,-35.10307,0.001067912,-0.1257102,0.09433498,0,0.3,0,0,0,0,
6.38223E+17,-32.58343,78.94819,40.36742,-63.20437,-20.09377,38.16694,-4.570632,-0.4441859,0.1400836,-35.15147,-8.447793,45.05199,0,0,0,-60.27829,52.62667,-74.03538,-10.65206,-111.0334,-35.10307,0.001067912,-0.1257102,0.09433498,0,0.3,0,0,0,0,
6.38223E+17,-34.13838,79.369,40.06391,-65.18199,-19.28808,38.24019,-4.570632,-0.4441859,0.1400836,-35.22471,-8.447793,45.05199,0,0,0,-61.97286,52.35478,-76.94843,-10.65206,-111.0334,-35.10307,0.001067912,-0.1257102,0.09433498,0,0.3,0,0,0,0,
6.38223E+17,-36.84778,79.60278,38.40625,-68.11179,-17.60344,38.0937,-4.570632,-0.4441859,0.1400836,-35.22471,-8.447793,45.05199,0,0,0,-64.11137,50.01394,-82.79939,-10.65206,-111.0334,-35.10307,0.001067912,-0.1257102,0.09433498,0,0.3,0,0,0,0,
6.38223E+17,-39.2509,79.22874,36.11822,-69.64995,-16.06529,36.84853,-4.570632,-0.4441859,0.1400836,-35.22471,-8.447793,45.05199,0,0,0,-65.5022,46.63006,-88.18186,-10.65206,-111.0334,-35.10307,0.001067912,-0.1257102,0.09433498,0,0.3,0,0,0,0,
6.38223E+17,-41.48909,78.2936,32.94299,-70.45564,-14.23416,34.94416,-4.570632,-0.4441859,0.1400836,-35.22471,-8.447793,45.05199,0,0,0,-65.96458,42.01741,-93.76199,-10.65206,-111.0334,-35.10307,0.001067912,-0.1257102,0.09433498,0,0.3,0,0,0,0,
6.38223E+17,-43.09117,77.0078,29.4876,-70.67538,-12.32979,32.01435,-4.570632,-0.4441859,0.1400836,-35.22471,-8.447793,45.05199,0,0,0,-65.32325,37.21019,-98.52248,-10.65206,-111.0334,-35.10307,0.001067912,-0.1257102,0.09433498,0,0.3,0,0,0,0,
6.38223E+17,-44.38697,74.83363,26.14894,-70.16266,-9.912696,27.91262,-4.570632,-0.4441859,0.1400836,-35.22471,-8.447793,45.12524,0,0,0,-65.51212,32.35362,-101.4208,-10.65206,-111.0334,-35.10307,0.001067912,-0.1257102,0.09433498,0,0.3,0,0,0,0,
6.38223E+17,-45.23512,72.65945,23.97764,-70.08942,-8.301303,26.22798,-4.570632,-0.4441859,0.1400836,-35.15147,-8.447793,45.05199,0,0,0,-66.69467,28.79682,-102.2005,-10.65206,-111.0334,-35.10307,0.001067912,-0.1257102,0.09433498,0,0.3,0,0,0,0,
6.38223E+17,-45.61209,69.59691,20.9425,-69.79643,-6.396928,24.98281,-4.570632,-0.4441859,0.1400836,-35.22471,-8.447793,45.05199,0,0,0,-67.28308,23.7932,-102.4893,-10.65206,-111.0334,-35.10307,0.001067912,-0.1257102,0.09433498,0,0.3,0,0,0,0,
6.38223E+17,-45.61209,67.91368,19.23815,-69.35696,-5.298251,24.54334,-4.570632,-0.4441859,0.1400836,-35.15147,-8.447793,45.05199,0,0,0,-67.23019,21.0112,-102.5411,-10.65206,-111.0334,-35.10307,0.001067912,-0.1257102,0.09433498,0,0.3,0,0,0,0,
6.38223E+17,-45.35292,62.32629,13.65815,-67.67233,-2.148709,21.68678,-4.570632,-0.4441859,0.1400836,-35.15147,-8.447793,45.05199,0,0,0,-66.46372,11.86656,-102.7001,-10.65206,-111.0334,-35.10307,0.001067912,-0.1257102,0.09433498,0,0.3,0,0,0,0,
6.38223E+17,-44.9524,60.24563,11.58024,-66.93987,-0.9035407,20.36837,-4.570632,-0.4441859,0.1400836,-35.22471,-8.447793,45.05199,0,0,0,-65.66954,8.483666,-102.5713,-10.65206,-111.0334,-35.10307,0.001067912,-0.1257102,0.09433498,0,0.3,0,0,0,0,
6.38223E+17,-43.84509,55.89729,7.284348,-64.96225,1.367059,17.51181,-4.570632,-0.4441859,0.1400836,-35.22471,-8.447793,45.05199,0,0,0,-63.50384,1.494553,-102.233,-10.65206,-111.0334,-35.10307,0.001067912,-0.1257102,0.09433498,0,0.3,0,0,0,0,
6.38223E+17,-42.07809,50.63719,2.21799,-62.54516,4.589847,14.36226,-4.570632,-0.4441859,0.1400836,-35.22471,-8.521038,45.12524,0,0,0,-60.13545,-6.801159,-101.7456,-10.65206,-111.0334,-35.10307,0.001067912,-0.1257102,0.09433498,0,0.3,0,0,0,0,
6.38223E+17,-39.55717,44.44196,-2.941756,-59.24913,9.057802,10.77325,-4.570632,-0.4441859,0.1400836,-35.22471,-8.447793,45.05199,0,0,0,-56.27376,-16.45441,-100.2231,-10.65206,-111.0334,-35.10307,0.001067912,-0.1257102,0.09433498,0,0.3,0,0,0,0,
6.38223E+17,-38.02578,40.93523,-5.229787,-57.49125,12.06085,8.575896,-4.570632,-0.4441859,0.1400836,-35.22471,-8.447793,45.05199,0,0,0,-54.56944,-22.07323,-98.56904,-10.65206,-111.0334,-35.10307,0.001067912,-0.1257102,0.09433498,0,0.3,0,0,0,0,
6.38223E+17,-36.0703,36.96094,-7.120916,-55.51363,16.01609,6.451786,-4.570632,-0.4441859,0.1400836,-35.22471,-8.447793,45.05199,0,0,0,-53.00302,-28.79203,-95.58551,-10.65206,-111.0334,-35.10307,0.001067912,-0.1257102,0.09433498,0,0.3,0,0,0,0,
6.38223E+17,-34.46822,34.15556,-7.541167,-53.60925,19.60511,5.646089,-4.570632,-0.4441859,0.1400836,-35.22471,-8.447793,45.05199,0,0,0,-52.54761,-33.97839,-91.80184,-10.65206,-111.0334,-35.10307,0.001067912,-0.1257102,0.09433498,0,0.3,0,0,0,0,
6.38223E+17,-33.31378,31.65409,-7.331042,-51.70488,22.6814,5.426354,-4.570632,-0.4441859,0.1400836,-35.22471,-8.447793,45.12524,0,0,0,-52.99794,-38.92922,-87.71064,-10.65206,-111.0334,-35.10307,0.001067912,-0.1257102,0.09433498,0,0.3,0,0,0,0,
6.38223E+17,-32.39495,29.31627,-6.770707,-50.38646,24.95201,6.158805,-4.570632,-0.4441859,0.1400836,-35.22471,-8.447793,45.05199,0,0,0,-53.87013,-43.77784,-83.44771,-10.65206,-111.0334,-35.10307,0.001067912,-0.1257102,0.09433498,0,0.3,0,0,0,0,
6.38223E+17,-31.87663,28.03047,-6.373804,-49.8005,25.97744,7.037747,-4.570632,-0.4441859,0.1400836,-35.22471,-8.447793,45.05199,0,0,0,-54.34276,-46.50911,-80.96527,-10.65206,-111.0334,-35.10307,0.001067912,-0.1257102,0.09433498,0,0.3,0,0,0,0,
6.38223E+17,-31.12271,25.34197,-5.626691,-48.70182,28.0283,9.161857,-4.570632,-0.4441859,0.1400836,-35.22471,-8.447793,45.05199,0,0,0,-55.53442,-52.28102,-76.37199,-10.65206,-111.0334,-35.10307,0.001067912,-0.1257102,0.09433498,0,0.3,0,0,0,0,
6.38223E+17,-31.24051,21.90538,-3.782257,-47.60315,30.44539,12.89736,-4.570632,-0.4441859,0.1400836,-35.22471,-8.447793,45.05199,0,0,0,-59.60419,-59.96003,-70.08863,-10.65206,-111.0334,-35.10307,0.001067912,-0.1257102,0.09433498,0,0.3,0,0,0,0,
6.38223E+17,-31.73527,20.78322,-2.568199,-47.5299,31.1046,15.31445,-4.570632,-0.4441859,0.1400836,-35.22471,-8.447793,45.05199,0,0,0,-62.4344,-62.54905,-67.39913,-10.65206,-111.0334,-35.10307,0.001067912,-0.1257102,0.09433498,0,0.3,0,0,0,0,
6.38223E+17,-33.29023,20.19877,-0.2801672,-47.89613,31.69056,19.19645,-4.570632,-0.4441859,0.1400836,-35.15147,-8.447793,45.05199,0,0,0,-68.33393,-63.95558,-64.28285,-10.65206,-111.0334,-35.10307,0.001067912,-0.1257102,0.09433498,0,0.3,0,0,0,0,
6.38223E+17,-35.26926,20.45593,2.521505,-49.43428,30.44539,22.63897,-4.570632,-0.4441859,0.1400836,-35.22471,-8.447793,45.05199,0,0,0,-75.53098,-63.26683,-61.55233,-10.65206,-111.0334,-35.10307,0.001067912,-0.1257102,0.09433498,0,0.3,0,0,0,0,
6.38223E+17,-37.3661,21.71835,5.766775,-51.99786,27.95506,26.15474,-4.570632,-0.4441859,0.1400836,-35.15147,-8.447793,45.05199,0,0,0,-83.3178,-59.97972,-59.2411,-10.65206,-111.0334,-35.10307,0.001067912,-0.1257102,0.09433498,0,0.3,0,0,0,0,
6.38223E+17,-38.59122,23.49509,8.171543,-53.97548,25.53797,28.2056,-4.570632,-0.4441859,0.1400836,-35.22471,-8.447793,45.05199,0,0,0,-88.10515,-55.48337,-57.94788,-10.65206,-111.0334,-35.10307,0.001067912,-0.1257102,0.09433498,0,0.3,0,0,0,0,
6.38223E+17,-39.03886,24.89779,9.502337,-55.07415,23.85333,29.15779,-4.570632,-0.4441859,0.1400836,-35.22471,-8.447793,45.05199,0,0,0,-90.04987,-52.02983,-57.30175,-10.65206,-111.0334,-35.10307,0.001067912,-0.1257102,0.09433498,0,0.3,0,0,0,0,
6.38223E+17,-39.22733,28.52141,12.30401,-56.68555,19.97133,30.91567,-4.570632,-0.4441859,0.1400836,-35.22471,-8.447793,45.05199,0,0,0,-92.06666,-43.26414,-55.57501,-10.65206,-111.0334,-35.10307,0.001067912,-0.1257102,0.09433498,0,0.3,0,0,0,0,
6.38223E+17,-39.22733,34.50623,17.02016,-58.07721,13.599,33.69899,-4.570632,-0.4441859,0.1400836,-35.22471,-8.447793,45.05199,0,0,0,-94.17789,-28.6173,-52.98891,-10.65206,-111.0334,-35.10307,0.001067912,-0.1257102,0.09433498,0,0.3,0,0,0,0,
6.38223E+17,-39.22733,36.42324,18.42099,-58.66317,11.25516,34.50468,-4.570632,-0.4441859,0.1400836,-35.22471,-8.447793,45.05199,0,0,0,-94.50484,-23.99125,-52.58842,-10.65206,-111.0334,-35.10307,0.001067912,-0.1257102,0.09433498,0,0.3,0,0,0,0,
6.38223E+17,-39.20378,39.60268,20.91915,-59.76185,7.080183,35.74985,-4.570632,-0.4441859,0.1400836,-35.22471,-8.447793,45.05199,0,0,0,-95.03747,-16.20497,-51.83823,-10.65206,-111.0334,-35.10307,0.001067912,-0.1257102,0.09433498,0,0.3,0,0,0,0,
6.38223E+17,-39.06242,42.17428,22.46007,-61.00701,3.271434,36.4823,-4.570632,-0.4441859,0.1400836,-35.22471,-8.447793,45.05199,0,0,0,-94.38097,-10.35529,-52.05846,-10.65206,-111.0334,-35.10307,0.001067912,-0.1257102,0.09433498,0,0.3,0,0,0,0,
6.38223E+17,-38.80325,44.18481,22.39003,-61.66622,-0.02459868,36.77529,-4.570632,-0.4441859,0.1400836,-35.15147,-8.447793,45.05199,0,0,0,-91.75316,-7.005448,-54.24536,-10.65206,-111.0334,-35.10307,0.001067912,-0.1257102,0.09433498,0,0.3,0,0,0,0,
6.38223E+17,-38.6619,44.86277,21.85304,-61.59297,-1.050031,36.70204,-4.570632,-0.4441859,0.1400836,-35.22471,-8.447793,45.05199,0,0,0,-90.05686,-6.351108,-55.78733,-10.65206,-111.0334,-35.10307,0.001067912,-0.1257102,0.09433498,0,0.3,0,0,0,0,
6.38223E+17,-38.00222,45.14331,19.79848,-60.64079,-1.709238,35.8231,-4.570632,-0.4441859,0.1400836,-35.22471,-8.447793,45.05199,0,0,0,-85.71905,-7.589406,-58.64337,-10.65206,-111.0334,-35.10307,0.001067912,-0.1257102,0.09433498,0,0.3,0,0,0,0,
6.38223E+17,-36.56506,44.67575,16.76334,-58.37019,-1.489502,33.99197,-4.570632,-0.4441859,0.1400836,-35.22471,-8.447793,45.05199,0,0,0,-79.40286,-10.57564,-61.29763,-10.65206,-111.0334,-35.10307,0.001067912,-0.1257102,0.09433498,0,0.3,0,0,0,0,
6.38223E+17,-34.35042,42.99252,13.05112,-54.85442,-0.3908245,31.2819,-4.570632,-0.4441859,0.1400836,-35.22471,-8.447793,45.05199,0,0,0,-72.02746,-15.62369,-62.96104,-10.65206,-111.0334,-35.10307,0.001067912,-0.1257102,0.09433498,0,0.3,0,0,0,0,
6.38223E+17,-33.31378,41.84698,11.58024,-53.16978,0.3416272,30.18322,-4.570632,-0.4441859,0.1400836,-35.22471,-8.447793,45.05199,0,0,0,-69.25988,-18.322,-62.96717,-10.65206,-111.0334,-35.10307,0.001067912,-0.1257102,0.09433498,0,0.3,0,0,0,0,
6.38223E+17,-31.09915,38.08309,8.615141,-48.70182,3.271434,28.2056,-4.570632,-0.4441859,0.1400836,-35.22471,-8.447793,45.05199,0,0,0,-64.53276,-26.24463,-61.36922,-10.65206,-111.0334,-35.10307,0.001067912,-0.1257102,0.09433498,0,0.3,0,0,0,0,
6.38223E+17,-30.06251,34.08542,7.097569,-45.33255,7.373164,27.83937,-4.570632,-0.4441859,0.1400836,-35.22471,-8.447793,45.05199,0,0,0,-63.57863,-34.24506,-58.50551,-10.65206,-111.0334,-35.10307,0.001067912,-0.1257102,0.09433498,0,0.3,0,0,0,0,
6.38223E+17,-30.29811,30.27477,6.934138,-43.50142,13.23278,29.96349,-4.570632,-0.4441859,0.1400836,-35.22471,-8.447793,45.05199,0,0,0,-66.22183,-41.79656,-55.01633,-10.65206,-111.0334,-35.10307,0.001067912,-0.1257102,0.09433498,0,0.3,0,0,0,0,
6.38223E+17,-30.72219,29.69032,7.190958,-43.64791,14.84417,30.76918,-4.570632,-0.4441859,0.1400836,-35.22471,-8.447793,45.05199,0,0,0,-67.70918,-42.90129,-54.41528,-10.65206,-111.0334,-35.10307,0.001067912,-0.1257102,0.09433498,0,0.3,0,0,0,0,
6.38223E+17,-32.01799,29.3864,8.405016,-45.2593,16.38232,31.72137,-4.570632,-0.4441859,0.1400836,-35.22471,-8.447793,45.12524,0,0,0,-71.93748,-43.13332,-53.30635,-10.65206,-111.0334,-35.10307,0.001067912,-0.1257102,0.09433498,0,0.3,0,0,0,0,
6.38223E+17,-33.64362,29.76045,10.34284,-48.3356,16.08934,32.23409,-4.570632,-0.4441859,0.1400836,-35.22471,-8.521038,45.05199,0,0,0,-77.39937,-41.64162,-52.0468,-10.65206,-111.0334,-35.10307,0.001067912,-0.1257102,0.09433498,0,0.3,0,0,0,0,
6.38223E+17,-35.2457,31.30341,13.16786,-52.21759,14.4047,32.45382,-4.570632,-0.4441859,0.1400836,-35.22471,-8.521038,45.05199,0,0,0,-83.28227,-37.20914,-50.48955,-10.65206,-111.0334,-35.10307,0.001067912,-0.1257102,0.09433498,0,0.3,0,0,0,0,
6.38223E+17,-36.0703,32.98664,15.24576,-54.92767,12.50033,32.38057,-4.570632,-0.4441859,0.1400836,-35.22471,-8.447793,45.05199,0,0,0,-86.5028,-32.70544,-49.5958,-10.65206,-111.0334,-35.10307,0.001067912,-0.1257102,0.09433498,0,0.3,0,0,0,0,
6.38223E+17,-36.44726,35.25433,17.55714,-58.22369,9.277537,31.57488,-4.570632,-0.4441859,0.1400836,-35.22471,-8.447793,45.05199,0,0,0,-88.58916,-26.81756,-48.39785,-10.65206,-111.0334,-35.10307,0.001067912,-0.1257102,0.09433498,0,0.3,0,0,0,0,
6.38223E+17,-36.44726,36.30635,18.53773,-59.61535,7.592898,30.91567,-4.570632,-0.4441859,0.1400836,-35.22471,-8.447793,45.05199,0,0,0,-89.02781,-24.1242,-47.80392,-10.65206,-111.0334,-35.10307,0.001067912,-0.1257102,0.09433498,0,0.3,0,0,0,0,
6.38223E+17,-36.40014,38.41039,20.28877,-63.13113,3.051698,28.35209,-4.570632,-0.4441859,0.1400836,-35.22471,-8.447793,45.12524,0,0,0,-89.44624,-18.87755,-47.02868,-10.65206,-111.0334,-35.10307,0.001067912,-0.1257102,0.09433498,0,0.3,0,0,0,0,
6.38223E+17,-36.35302,39.13511,20.66233,-64.37629,1.51355,26.96043,-4.570632,-0.4441859,0.1400836,-35.22471,-8.447793,45.05199,0,0,0,-89.20312,-17.2584,-47.14989,-10.65206,-111.0334,-35.10307,0.001067912,-0.1257102,0.09433498,0,0.3,0,0,0,0,
6.38223E+17,-36.14098,40.18713,20.9425,-65.91444,-0.5373149,24.98281,-4.570632,-0.4441859,0.1400836,-35.22471,-8.447793,45.05199,0,0,0,-88.19183,-15.14194,-47.59034,-10.65206,-111.0334,-35.10307,0.001067912,-0.1257102,0.09433498,0,0.3,0,0,0,0,
6.38223E+17,-35.8347,40.93523,20.96585,-66.86663,-2.368444,22.49248,-4.570632,-0.4441859,0.1400836,-35.15147,-8.447793,45.05199,0,0,0,-86.91192,-13.79976,-47.99736,-10.65206,-111.0334,-35.10307,0.001067912,-0.1257102,0.09433498,0,0.3,0,0,0,0,
6.38223E+17,-35.57554,41.47293,20.96585,-67.52583,-3.906592,19.9289,-4.570632,-0.4441859,0.1400836,-35.22471,-8.447793,45.12524,0,0,0,-85.88705,-12.85822,-48.27597,-10.65206,-111.0334,-35.10307,0.001067912,-0.1257102,0.09433498,0,0.3,0,0,0,0,
6.38223E+17,-35.41062,41.56644,20.9425,-67.67233,-4.565799,18.61049,-4.570632,-0.4441859,0.1400836,-35.22471,-8.447793,45.12524,0,0,0,-85.42808,-12.7147,-48.18819,-10.65206,-111.0334,-35.10307,0.001067912,-0.1257102,0.09433498,0,0.3,0,0,0,0,
6.38223E+17,-35.1279,41.56644,20.9425,-67.74557,-5.225006,17.51181,-4.570632,-0.4441859,0.1400836,-35.22471,-8.447793,45.05199,0,0,0,-84.83411,-12.7147,-47.76812,-10.65206,-111.0334,-35.10307,0.001067912,-0.1257102,0.09433498,0,0.3,0,0,0,0,
6.38223E+17,-34.86874,41.56644,20.98919,-67.45258,-5.664476,16.92585,-4.570632,-0.4441859,0.1400836,-35.22471,-8.447793,45.05199,0,0,0,-84.34586,-12.67582,-47.30238,-10.65206,-111.0334,-35.10307,0.001067912,-0.1257102,0.09433498,0,0.3,0,0,0,0,
6.38223E+17,-34.72738,41.54307,21.19932,-67.08636,-5.810967,16.63286,-4.570632,-0.4441859,0.1400836,-35.22471,-8.447793,45.05199,0,0,0,-84.32744,-12.54052,-46.68999,-10.65206,-111.0334,-35.10307,0.001067912,-0.1257102,0.09433498,0,0.3,0,0,0,0,
6.38223E+17,-34.60958,41.54307,21.59622,-66.86663,-5.737722,16.70611,-4.570632,-0.4441859,0.1400836,-35.15147,-8.447793,45.05199,0,0,0,-84.56564,-12.2035,-45.80899,-10.65206,-111.0334,-35.10307,0.001067912,-0.1257102,0.09433498,0,0.3,0,0,0,0,
6.38223E+17,-34.60958,41.58982,22.03982,-66.79338,-5.664476,16.77936,-4.570632,-0.4441859,0.1400836,-35.22471,-8.447793,45.05199,0,0,0,-85.06902,-11.73837,-45.07955,-10.65206,-111.0334,-35.10307,0.001067912,-0.1257102,0.09433498,0,0.3,0,0,0,0,
6.38223E+17,-34.60958,41.96388,23.13714,-66.72014,-5.371496,17.07234,-4.570632,-0.4441859,0.1400836,-35.22471,-8.447793,45.05199,0,0,0,-86.07887,-10.10819,-43.61622,-10.65206,-111.0334,-35.10307,0.001067912,-0.1257102,0.09433498,0,0.3,0,0,0,0,
6.38223E+17,-34.63314,43.29643,25.49521,-67.01311,-5.591231,19.04996,-4.570632,-0.4441859,0.1400836,-35.22471,-8.447793,45.05199,0,0,0,-87.77858,-5.566709,-41.26504,-10.65206,-111.0334,-35.10307,0.001067912,-0.1257102,0.09433498,0,0.3,0,0,0,0,
6.38223E+17,-34.63314,44.13805,26.82601,-67.59908,-5.957458,20.51486,-4.570632,-0.4441859,0.1400836,-35.22471,-8.447793,45.05199,0,0,0,-88.58914,-2.785472,-40.09151,-10.65206,-111.0334,-35.10307,0.001067912,-0.1257102,0.09433498,0,0.3,0,0,0,0,
6.38223E+17,-34.63314,45.28358,28.50701,-68.69775,-6.689909,22.12625,-4.570632,-0.4441859,0.1400836,-35.22471,-8.447793,45.05199,0,0,0,-89.49236,0.9257495,-38.78386,-10.65206,-111.0334,-35.10307,0.001067912,-0.1257102,0.09433498,0,0.3,0,0,0,0,
6.38223E+17,-34.63314,46.10182,29.86115,-70.08942,-7.642097,23.59116,-4.570632,-0.4441859,0.1400836,-35.22471,-8.447793,45.05199,0,0,0,-90.28159,3.792698,-37.6412,-10.65206,-111.0334,-35.10307,0.001067912,-0.1257102,0.09433498,0,0.3,0,0,0,0,
6.38223E+17,-34.60958,46.61614,31.09856,-71.40782,-8.301303,24.98281,-4.570632,-0.4441859,0.1400836,-35.22471,-8.447793,45.05199,0,0,0,-91.14549,6.079584,-36.27435,-10.65206,-111.0334,-35.10307,0.001067912,-0.1257102,0.09433498,0,0.3,0,0,0,0,
6.38223E+17,-34.60958,46.7564,32.21923,-72.43327,-8.740773,26.22798,-4.570632,-0.4441859,0.1400836,-35.22471,-8.447793,45.05199,0,0,0,-92.27154,7.672477,-34.64264,-10.65206,-111.0334,-35.10307,0.001067912,-0.1257102,0.09433498,0,0.3,0,0,0,0,
6.38223E+17,-34.60958,46.7564,32.8963,-73.16571,-9.033754,26.96043,-4.570632,-0.4441859,0.1400836,-35.22471,-8.447793,45.05199,0,0,0,-93.02591,8.520494,-33.54951,-10.65206,-111.0334,-35.10307,0.001067912,-0.1257102,0.09433498,0,0.3,0,0,0,0,
6.38223E+17,-34.63314,46.63952,34.46056,-74.70387,-9.326735,28.49858,-4.570632,-0.4441859,0.1400836,-35.22471,-8.447793,45.05199,0,0,0,-94.9156,10.35271,-30.93214,-10.65206,-111.0334,-35.10307,0.001067912,-0.1257102,0.09433498,0,0.3,0,0,0,0,
6.38223E+17,-34.79806,45.89141,35.60458,-76.53499,-9.473226,30.18322,-4.570632,-0.4441859,0.1400836,-35.22471,-8.447793,45.05199,0,0,0,-97.27287,10.67745,-28.38258,-10.65206,-111.0334,-35.10307,0.001067912,-0.1257102,0.09433498,0,0.3,0,0,0,0,
6.38223E+17,-35.19858,44.34845,35.76801,-78.21963,-9.180244,31.79461,-4.570632,-0.4441859,0.1400836,-35.22471,-8.447793,45.05199,0,0,0,-99.89368,8.365457,-26.73424,-10.65206,-111.0334,-35.10307,0.001067912,-0.1257102,0.09433498,0,0.3,0,0,0,0,
6.38223E+17,-35.43418,42.80549,35.37111,-79.17181,-7.861832,32.7468,-4.570632,-0.4441859,0.1400836,-35.22471,-8.447793,45.05199,0,0,0,-101.4747,5.226641,-25.74153,-10.65206,-111.0334,-35.10307,0.001067912,-0.1257102,0.09433498,0,0.3,0,0,0,0,
6.38223E+17,-35.43418,41.14564,34.25044,-79.61128,-6.836399,33.25952,-4.570632,-0.4441859,0.1400836,-35.22471,-8.447793,45.05199,0,0,0,-101.731,0.8658337,-25.38125,-10.65206,-111.0334,-35.10307,0.001067912,-0.1257102,0.09433498,0,0.3,0,0,0,0,
6.38223E+17,-35.43418,38.59741,32.12584,-78.6591,-5.371496,33.5525,-4.570632,-0.4441859,0.1400836,-35.22471,-8.447793,45.05199,0,0,0,-101.5361,-6.392102,-25.65522,-10.65206,-111.0334,-35.10307,0.001067912,-0.1257102,0.09433498,0,0.3,0,0,0,0,
6.38223E+17,-35.41062,36.63364,30.63161,-77.34068,-4.126328,33.62574,-4.570632,-0.4441859,0.1400836,-35.22471,-8.447793,45.05199,0,0,0,-101.3734,-11.82304,-25.75974,-10.65206,-111.0334,-35.10307,0.001067912,-0.1257102,0.09433498,0,0.3,0,0,0,0,
6.38223E+17,-35.38706,35.51149,29.79111,-76.60824,-3.540367,33.69899,-4.570632,-0.4441859,0.1400836,-35.22471,-8.447793,45.05199,0,0,0,-101.2263,-14.91829,-25.84256,-10.65206,-111.0334,-35.10307,0.001067912,-0.1257102,0.09433498,0,0.3,0,0,0,0,
6.38223E+17,-35.29282,32.42557,27.33965,-74.63062,-1.855728,33.5525,-4.570632,-0.4441859,0.1400836,-35.22471,-8.447793,45.05199,0,0,0,-100.4151,-23.60202,-26.49096,-10.65206,-111.0334,-35.10307,0.001067912,-0.1257102,0.09433498,0,0.3,0,0,0,0,
6.38223E+17,-34.79806,27.42263,24.18777,-70.89511,1.66004,32.01435,-4.570632,-0.4441859,0.1400836,-35.22471,-8.447793,45.05199,0,0,0,-98.73047,-36.87848,-26.28522,-10.65206,-111.0334,-35.10307,0.001067912,-0.1257102,0.09433498,0,0.3,0,0,0,0,
6.38223E+17,-34.58602,25.71602,23.37061,-69.72319,2.978453,31.57488,-4.570632,-0.4441859,0.1400836,-35.22471,-8.447793,45.05199,0,0,0,-98.22456,-41.19769,-25.89106,-10.65206,-111.0334,-35.10307,0.001067912,-0.1257102,0.09433498,0,0.3,0,0,0,0,
6.38223E+17,-34.0677,22.6301,22.29664,-67.3061,5.688524,31.2819,-4.570632,-0.4441859,0.1400836,-35.22471,-8.447793,45.05199,0,0,0,-97.28867,-48.71923,-24.48061,-10.65206,-111.0334,-35.10307,0.001067912,-0.1257102,0.09433498,0,0.3,0,0,0,0,
6.38223E+17,-33.5965,19.98837,21.7363,-65.25523,8.252106,31.35514,-4.570632,-0.4441859,0.1400836,-35.22471,-8.447793,45.05199,0,0,0,-96.66946,-54.93563,-22.83151,-10.65206,-111.0334,-35.10307,0.001067912,-0.1257102,0.09433498,0,0.3,0,0,0,0,
6.38223E+17,-32.98395,16.71542,21.40944,-63.05788,11.18191,31.79461,-4.570632,-0.4441859,0.1400836,-35.15147,-8.447793,45.05199,0,0,0,-96.02856,-62.44439,-20.38823,-10.65206,-111.0334,-35.10307,0.001067912,-0.1257102,0.09433498,0,0.3,0,0,0,0,
