zeyangz2/DNN_classification_different_people_hand/data/zeyang_right_29.csv
Timestamp,Therapist joint angle 0,Therapist joint angle 1,Therapist joint angle 2,Therapist joint angle 3,Therapist joint angle 4,Therapist joint angle 5,Patient joint angle 0,Patient joint angle 1,Patient joint angle 2,Patient joint angle 3,Patient joint angle 4,Patient joint angle 5,Virtual joint angle 0,Virtual joint angle 1,Virtual joint angle 2,Therapist position x,Therapist position y,Therapist position z,Patient position x,Patient position y,Patient position z,Virtual position x,Virtual position y,Virtual position z,Assistive Force, Obstacle Force Magnitude, Therapist Constant Force, Patient Constant Force, Recovery Factor, Assistance Level,label
6.38224E+17,0,0,0,0,0,0,0,0,0,0,0,0,0,0,0,0,0,0,0,0,0,0,0,0,0,0.3,0,0,0,0,0
6.38224E+17,-3.086355,-0.9818845,-4.529369,-72.28677,-63.16194,143.054,-56.89731,-0.4675641,6.420498,-71.33459,-8.521038,-36.90935,0,0,0,-6.611663,-111.8687,-45.72836,-124.1942,-110.2518,-87.38053,0.001067912,-0.1257102,0.09433498,0,0.3,0,0,0,0,
6.38224E+17,-3.086355,-0.9818845,-4.529369,-72.28677,-63.16194,143.054,-56.89731,-0.4675641,6.420498,-71.33459,-8.521038,-36.90935,0,0,0,-6.611663,-111.8687,-45.72836,-124.1942,-110.2518,-87.38053,0.001067912,-0.1257102,0.09433498,0,0.3,0,0,0,0,
6.38224E+17,-3.086355,-0.9818845,-4.529369,-72.28677,-63.08869,143.054,-56.89731,-0.4675641,6.420498,-71.33459,-8.521038,-36.90935,0,0,0,-6.611663,-111.8687,-45.72836,-124.1942,-110.2518,-87.38053,0.001067912,-0.1257102,0.09433498,0,0.3,0,0,0,0,
6.38224E+17,-3.086355,-0.9818845,-4.529369,-72.28677,-63.16194,143.054,-56.89731,-0.4675641,6.420498,-71.33459,-8.594284,-36.90935,0,0,0,-6.611663,-111.8687,-45.72836,-124.1942,-110.2518,-87.38053,0.001067912,-0.1257102,0.09433498,0,0.3,0,0,0,0,
6.38224E+17,-3.086355,-0.9818845,-4.529369,-72.28677,-63.08869,143.1273,-56.89731,-0.4675641,6.420498,-71.33459,-8.521038,-36.83611,0,0,0,-6.611663,-111.8687,-45.72836,-124.1942,-110.2518,-87.38053,0.001067912,-0.1257102,0.09433498,0,0.3,0,0,0,0,
6.38224E+17,-3.086355,-0.9818845,-4.529369,-72.28677,-63.16194,143.054,-56.89731,-0.4675641,6.420498,-71.33459,-8.594284,-36.90935,0,0,0,-6.611663,-111.8687,-45.72836,-124.1942,-110.2518,-87.38053,0.001067912,-0.1257102,0.09433498,0,0.3,0,0,0,0,
6.38224E+17,-3.086355,-0.9818845,-4.529369,-72.28677,-63.08869,143.054,-56.89731,-0.4675641,6.420498,-71.33459,-8.521038,-36.83611,0,0,0,-6.611663,-111.8687,-45.72836,-124.1942,-110.2518,-87.38053,0.001067912,-0.1257102,0.09433498,0,0.3,0,0,0,0,
6.38224E+17,-3.086355,-0.9818845,-4.529369,-72.28677,-63.08869,143.054,-56.89731,-0.4675641,6.420498,-71.33459,-8.521038,-36.90935,0,0,0,-6.611663,-111.8687,-45.72836,-124.1942,-110.2518,-87.38053,0.001067912,-0.1257102,0.09433498,0,0.3,0,0,0,0,
6.38224E+17,-3.086355,-0.9818845,-4.529369,-72.28677,-63.08869,143.054,-56.89731,-0.4675641,6.420498,-71.33459,-8.521038,-36.83611,0,0,0,-6.611663,-111.8687,-45.72836,-124.1942,-110.2518,-87.38053,0.001067912,-0.1257102,0.09433498,0,0.3,0,0,0,0,
6.38224E+17,-3.086355,-0.9818845,-4.529369,-72.28677,-63.08869,143.054,-56.89731,-0.4675641,6.420498,-71.33459,-8.521038,-36.83611,0,0,0,-6.611663,-111.8687,-45.72836,-124.1942,-110.2518,-87.38053,0.001067912,-0.1257102,0.09433498,0,0.3,0,0,0,0,
6.38224E+17,-3.086355,-0.9818845,-4.529369,-72.28677,-63.08869,143.054,-56.89731,-0.4675641,6.420498,-71.33459,-8.521038,-36.83611,0,0,0,-6.611663,-111.8687,-45.72836,-124.1942,-110.2518,-87.38053,0.001067912,-0.1257102,0.09433498,0,0.3,0,0,0,0,
6.38224E+17,-3.086355,-0.9818845,-4.529369,-72.28677,-63.08869,143.1273,-56.89731,-0.4675641,6.420498,-71.33459,-8.521038,-36.83611,0,0,0,-6.611663,-111.8687,-45.72836,-124.1942,-110.2518,-87.38053,0.001067912,-0.1257102,0.09433498,0,0.3,0,0,0,0,
6.38224E+17,-3.086355,-0.9818845,-4.529369,-72.28677,-63.08869,143.054,-56.89731,-0.4675641,6.420498,-71.33459,-8.521038,-36.90935,0,0,0,-6.611663,-111.8687,-45.72836,-124.1942,-110.2518,-87.38053,0.001067912,-0.1257102,0.09433498,0,0.3,0,0,0,0,
6.38224E+17,-3.086355,-0.9818845,-4.529369,-72.28677,-63.08869,143.054,-56.89731,-0.4675641,6.420498,-71.33459,-8.521038,-36.90935,0,0,0,-6.611663,-111.8687,-45.72836,-124.1942,-110.2518,-87.38053,0.001067912,-0.1257102,0.09433498,0,0.3,0,0,0,0,
6.38224E+17,-3.086355,-0.9818845,-4.529369,-72.28677,-63.16194,143.054,-56.89731,-0.4675641,6.420498,-71.33459,-8.521038,-36.83611,0,0,0,-6.611663,-111.8687,-45.72836,-124.1942,-110.2518,-87.38053,0.001067912,-0.1257102,0.09433498,0,0.3,0,0,0,0,
6.38224E+17,-3.086355,-0.9818845,-4.529369,-72.28677,-63.16194,143.054,-56.89731,-0.4675641,6.420498,-71.33459,-8.521038,-36.90935,0,0,0,-6.611663,-111.8687,-45.72836,-124.1942,-110.2518,-87.38053,0.001067912,-0.1257102,0.09433498,0,0.3,0,0,0,0,
6.38224E+17,-3.086355,-0.9818845,-4.529369,-72.28677,-63.16194,143.054,-56.89731,-0.4675641,6.420498,-71.33459,-8.521038,-36.83611,0,0,0,-6.611663,-111.8687,-45.72836,-124.1942,-110.2518,-87.38053,0.001067912,-0.1257102,0.09433498,0,0.3,0,0,0,0,
6.38224E+17,-3.086355,-0.9818845,-4.529369,-72.28677,-63.08869,143.1273,-56.89731,-0.4675641,6.420498,-71.33459,-8.447793,-36.83611,0,0,0,-6.611663,-111.8687,-45.72836,-124.1942,-110.2518,-87.38053,0.001067912,-0.1257102,0.09433498,0,0.3,0,0,0,0,
6.38224E+17,-3.086355,-0.9818845,-4.529369,-72.28677,-63.08869,143.054,-56.89731,-0.4675641,6.420498,-71.33459,-8.521038,-36.90935,0,0,0,-6.611663,-111.8687,-45.72836,-124.1942,-110.2518,-87.38053,0.001067912,-0.1257102,0.09433498,0,0.3,0,0,0,0,
6.38224E+17,-3.086355,-0.9818845,-4.529369,-72.28677,-63.08869,143.1273,-56.89731,-0.4675641,6.420498,-71.33459,-8.521038,-36.83611,0,0,0,-6.611663,-111.8687,-45.72836,-124.1942,-110.2518,-87.38053,0.001067912,-0.1257102,0.09433498,0,0.3,0,0,0,0,
6.38224E+17,-3.086355,-0.9818845,-4.529369,-72.28677,-63.16194,143.054,-56.89731,-0.4675641,6.420498,-71.33459,-8.521038,-36.90935,0,0,0,-6.611663,-111.8687,-45.72836,-124.1942,-110.2518,-87.38053,0.001067912,-0.1257102,0.09433498,0,0.3,0,0,0,0,
6.38224E+17,-3.086355,-0.9818845,-4.529369,-72.28677,-63.08869,143.054,-56.89731,-0.4675641,6.420498,-71.33459,-8.521038,-36.90935,0,0,0,-6.611663,-111.8687,-45.72836,-124.1942,-110.2518,-87.38053,0.001067912,-0.1257102,0.09433498,0,0.3,0,0,0,0,
6.38224E+17,-3.086355,-0.9818845,-4.529369,-72.28677,-63.08869,143.054,-56.89731,-0.4675641,6.420498,-71.33459,-8.521038,-36.83611,0,0,0,-6.611663,-111.8687,-45.72836,-124.1942,-110.2518,-87.38053,0.001067912,-0.1257102,0.09433498,0,0.3,0,0,0,0,
6.38224E+17,-3.086355,-0.9818845,-4.529369,-72.28677,-63.16194,143.054,-56.89731,-0.4675641,6.420498,-71.33459,-8.521038,-36.83611,0,0,0,-6.611663,-111.8687,-45.72836,-124.1942,-110.2518,-87.38053,0.001067912,-0.1257102,0.09433498,0,0.3,0,0,0,0,
6.38224E+17,-3.086355,-0.9818845,-4.529369,-72.28677,-63.16194,143.054,-56.89731,-0.4675641,6.420498,-71.33459,-8.521038,-36.83611,0,0,0,-6.611663,-111.8687,-45.72836,-124.1942,-110.2518,-87.38053,0.001067912,-0.1257102,0.09433498,0,0.3,0,0,0,0,
6.38224E+17,-3.086355,-0.9818845,-4.529369,-72.28677,-63.16194,143.054,-56.89731,-0.4675641,6.420498,-71.33459,-8.521038,-36.83611,0,0,0,-6.611663,-111.8687,-45.72836,-124.1942,-110.2518,-87.38053,0.001067912,-0.1257102,0.09433498,0,0.3,0,0,0,0,
6.38224E+17,-3.086355,-0.9818845,-4.529369,-72.28677,-63.08869,143.054,-56.89731,-0.4675641,6.420498,-71.33459,-8.521038,-36.83611,0,0,0,-6.611663,-111.8687,-45.72836,-124.1942,-110.2518,-87.38053,0.001067912,-0.1257102,0.09433498,0,0.3,0,0,0,0,
6.38224E+17,-3.086355,-0.9818845,-4.529369,-72.28677,-63.08869,143.054,-56.89731,-0.4675641,6.420498,-71.33459,-8.521038,-36.83611,0,0,0,-6.611663,-111.8687,-45.72836,-124.1942,-110.2518,-87.38053,0.001067912,-0.1257102,0.09433498,0,0.3,0,0,0,0,
6.38224E+17,-3.086355,-0.9818845,-4.529369,-72.28677,-63.08869,143.054,-56.89731,-0.4675641,6.420498,-71.33459,-8.521038,-36.90935,0,0,0,-6.611663,-111.8687,-45.72836,-124.1942,-110.2518,-87.38053,0.001067912,-0.1257102,0.09433498,0,0.3,0,0,0,0,
6.38224E+17,-3.086355,-0.9818845,-4.529369,-72.28677,-63.08869,143.054,-56.89731,-0.4675641,6.420498,-71.33459,-8.521038,-36.90935,0,0,0,-6.611663,-111.8687,-45.72836,-124.1942,-110.2518,-87.38053,0.001067912,-0.1257102,0.09433498,0,0.3,0,0,0,0,
6.38224E+17,-3.086355,-0.9818845,-4.529369,-72.28677,-63.08869,143.054,-56.89731,-0.4675641,6.420498,-71.33459,-8.521038,-36.83611,0,0,0,-6.611663,-111.8687,-45.72836,-124.1942,-110.2518,-87.38053,0.001067912,-0.1257102,0.09433498,0,0.3,0,0,0,0,
6.38224E+17,-3.086355,-0.9818845,-4.529369,-72.28677,-63.16194,143.054,-56.89731,-0.4675641,6.420498,-71.33459,-8.521038,-36.90935,0,0,0,-6.611663,-111.8687,-45.72836,-124.1942,-110.2518,-87.38053,0.001067912,-0.1257102,0.09433498,0,0.3,0,0,0,0,
6.38224E+17,-3.086355,-0.9818845,-4.529369,-72.28677,-63.08869,143.054,-56.89731,-0.4675641,6.420498,-71.33459,-8.521038,-36.83611,0,0,0,-6.611663,-111.8687,-45.72836,-124.1942,-110.2518,-87.38053,0.001067912,-0.1257102,0.09433498,0,0.3,0,0,0,0,
6.38224E+17,-3.086355,-0.9818845,-4.529369,-72.28677,-63.16194,143.054,-56.89731,-0.4675641,6.420498,-71.33459,-8.594284,-36.90935,0,0,0,-6.611663,-111.8687,-45.72836,-124.1942,-110.2518,-87.38053,0.001067912,-0.1257102,0.09433498,0,0.3,0,0,0,0,
6.38224E+17,-3.086355,-0.9818845,-4.529369,-72.28677,-63.16194,143.054,-56.89731,-0.4675641,6.420498,-71.33459,-8.521038,-36.83611,0,0,0,-6.611663,-111.8687,-45.72836,-124.1942,-110.2518,-87.38053,0.001067912,-0.1257102,0.09433498,0,0.3,0,0,0,0,
6.38224E+17,-3.086355,-0.9818845,-4.529369,-72.28677,-63.08869,143.054,-56.89731,-0.4675641,6.420498,-71.33459,-8.521038,-36.90935,0,0,0,-6.611663,-111.8687,-45.72836,-124.1942,-110.2518,-87.38053,0.001067912,-0.1257102,0.09433498,0,0.3,0,0,0,0,
6.38224E+17,-3.086355,-0.9818845,-4.529369,-72.28677,-63.08869,143.054,-56.89731,-0.4675641,6.420498,-71.33459,-8.521038,-36.83611,0,0,0,-6.611663,-111.8687,-45.72836,-124.1942,-110.2518,-87.38053,0.001067912,-0.1257102,0.09433498,0,0.3,0,0,0,0,
6.38224E+17,-3.086355,-0.9818845,-4.529369,-72.28677,-63.08869,143.054,-56.89731,-0.4675641,6.420498,-71.33459,-8.521038,-36.90935,0,0,0,-6.611663,-111.8687,-45.72836,-124.1942,-110.2518,-87.38053,0.001067912,-0.1257102,0.09433498,0,0.3,0,0,0,0,
6.38224E+17,-3.086355,-0.9818845,-4.529369,-72.28677,-63.16194,143.054,-56.89731,-0.4675641,6.420498,-71.33459,-8.521038,-36.90935,0,0,0,-6.611663,-111.8687,-45.72836,-124.1942,-110.2518,-87.38053,0.001067912,-0.1257102,0.09433498,0,0.3,0,0,0,0,
6.38224E+17,-3.086355,-0.9818845,-4.529369,-72.28677,-63.16194,143.054,-56.89731,-0.4675641,6.420498,-71.33459,-8.521038,-36.90935,0,0,0,-6.611663,-111.8687,-45.72836,-124.1942,-110.2518,-87.38053,0.001067912,-0.1257102,0.09433498,0,0.3,0,0,0,0,
6.38224E+17,-3.086355,-0.9818845,-4.529369,-72.28677,-63.08869,143.054,-56.89731,-0.4675641,6.420498,-71.33459,-8.521038,-36.90935,0,0,0,-6.611663,-111.8687,-45.72836,-124.1942,-110.2518,-87.38053,0.001067912,-0.1257102,0.09433498,0,0.3,0,0,0,0,
6.38224E+17,-3.086355,-0.9818845,-4.529369,-72.28677,-63.08869,143.054,-56.89731,-0.4675641,6.420498,-71.33459,-8.521038,-36.83611,0,0,0,-6.611663,-111.8687,-45.72836,-124.1942,-110.2518,-87.38053,0.001067912,-0.1257102,0.09433498,0,0.3,0,0,0,0,
6.38224E+17,-3.086355,-0.9818845,-4.529369,-72.28677,-63.16194,143.1273,-56.89731,-0.4675641,6.420498,-71.33459,-8.521038,-36.83611,0,0,0,-6.611663,-111.8687,-45.72836,-124.1942,-110.2518,-87.38053,0.001067912,-0.1257102,0.09433498,0,0.3,0,0,6.12E-08,0,
6.38224E+17,-3.086355,-0.9818845,-4.739495,-72.28677,-63.16194,140.7102,-56.89731,-0.4675641,6.420498,-71.33459,-8.521038,-36.83611,0,0,0,-6.585418,-111.8292,-46.2151,-124.1942,-110.2518,-87.38053,0.001067912,-0.1257102,0.09433498,0,0.3,0,0,1.49E-05,0,
6.38224E+17,-3.463314,-0.9818845,-5.089704,-73.53194,-63.23518,130.2361,-56.89731,-0.4675641,6.420498,-71.33459,-8.521038,-36.83611,0,0,0,-7.33976,-111.7593,-47.07166,-124.1942,-110.2518,-87.38053,0.001067912,-0.1257102,0.09433498,0,0.3,0,0,0.000198269,0,
6.38224E+17,-3.934513,-0.9818845,-5.089704,-76.242,-63.23518,124.523,-56.89731,-0.4675641,6.420498,-71.33459,-8.521038,-36.90935,0,0,0,-8.336891,-111.7593,-47.13613,-124.1942,-110.2518,-87.38053,0.001067912,-0.1257102,0.09433498,0,0.3,0,0,0.000584165,0,
6.38224E+17,-4.028753,-0.9818845,-4.902926,-76.75472,-63.16194,121.3002,-56.89731,-0.4675641,6.420498,-71.33459,-8.521038,-36.90935,0,0,0,-8.566677,-111.7972,-46.71802,-124.1942,-110.2518,-87.38053,0.001067912,-0.1257102,0.09433498,0,0.3,0,0,0.000797295,0,
6.38224E+17,-4.052313,-0.9585064,-4.669453,-74.63062,-62.35624,112.3643,-56.89731,-0.4675641,6.420498,-71.33459,-8.521038,-36.83611,0,0,0,-8.655022,-111.7881,-46.1805,-124.1942,-110.2518,-87.38053,0.001067912,-0.1257102,0.09433498,0,0.3,0,0,0.001194505,0,
6.38224E+17,-4.052313,-0.9351282,-4.762842,-66.64689,-60.81809,99.61964,-56.89731,-0.4675641,6.420498,-71.33459,-8.521038,-36.90935,0,0,0,-8.639778,-111.7159,-46.39568,-124.1942,-110.2518,-87.38053,0.001067912,-0.1257102,0.09433498,0,0.3,0,0,0.001572695,0,
6.38224E+17,-4.052313,-0.9351282,-4.879579,-60.78728,-59.79266,92.07539,-56.89731,-0.4675641,6.420498,-71.33459,-8.521038,-36.83611,0,0,0,-8.620646,-111.693,-46.66573,-124.1942,-110.2518,-87.38053,0.001067912,-0.1257102,0.09433498,0,0.3,0,0,0.001764665,0,
6.38224E+17,-4.052313,-0.8649935,-5.04301,-49.65401,-57.30232,78.45178,-56.89731,-0.4675641,6.420498,-71.33459,-8.594284,-36.83611,0,0,0,-8.594049,-111.4969,-47.04117,-124.1942,-110.2518,-87.38053,0.001067912,-0.1257102,0.09433498,0,0.3,0,0,0.002150255,0,
6.38224E+17,-4.052313,-0.8883717,-5.183093,-40.42512,-54.07953,65.48739,-56.89731,-0.4675641,6.420498,-71.33459,-8.521038,-36.83611,0,0,0,-8.571041,-111.5223,-47.36592,-124.1942,-110.2518,-87.38053,0.001067912,-0.1257102,0.09433498,0,0.3,0,0,0.002536396,0,
6.38224E+17,-4.075873,-0.8883717,-5.253135,-32.66114,-49.83131,52.23001,-56.89731,-0.4675641,6.420498,-71.33459,-8.521038,-36.90935,0,0,0,-8.609251,-111.5074,-47.53138,-124.1942,-110.2518,-87.38053,0.001067912,-0.1257102,0.09433498,0,0.3,0,0,0.002914526,0,
6.38224E+17,-4.099433,-0.8883717,-5.416566,-29.80457,-47.63396,46.73663,-56.89731,-0.4675641,6.420498,-71.33459,-8.521038,-36.83611,0,0,0,-8.631857,-111.4721,-47.91269,-124.1942,-110.2518,-87.38053,0.001067912,-0.1257102,0.09433498,0,0.3,0,0,0.003114201,0,
6.38224E+17,-4.099433,-0.8883717,-5.579997,-24.23794,-41.99408,35.74985,-56.89731,-0.4675641,6.420498,-71.33459,-8.521038,-36.83611,0,0,0,-8.60479,-111.4356,-48.29034,-124.1942,-110.2518,-87.38053,0.001067912,-0.1257102,0.09433498,0,0.3,0,0,0.003514836,0,
6.38224E+17,-4.099433,-0.8883717,-5.579997,-19.76999,-36.79367,28.93805,-56.89731,-0.4675641,6.420498,-71.33459,-8.521038,-36.90935,0,0,0,-8.60479,-111.4356,-48.29034,-124.1942,-110.2518,-87.38053,0.001067912,-0.1257102,0.09433498,0,0.3,0,0,0.003903178,0,
6.38224E+17,-4.099433,-0.8883717,-5.346524,-17.64587,-34.23009,26.81394,-56.89731,-0.4675641,6.420498,-71.33459,-8.521038,-36.90935,0,0,0,-8.643458,-111.4874,-47.7508,-124.1942,-110.2518,-87.38053,0.001067912,-0.1257102,0.09433498,0,0.3,0,0,0.004078636,0,
6.38224E+17,-4.099433,-0.8883717,-4.599411,-13.61739,-29.76214,23.29818,-56.89731,-0.4675641,6.420498,-71.33459,-8.521038,-36.83611,0,0,0,-8.767294,-111.6381,-46.02297,-124.1942,-110.2518,-87.38053,0.001067912,-0.1257102,0.09433498,0,0.3,0,0,0.004365459,0,
6.38224E+17,-4.099433,-0.8883717,-3.969035,-8.709964,-25.51392,19.1232,-56.89731,-0.4675641,6.420498,-71.33459,-8.521038,-36.83611,0,0,0,-8.871882,-111.7477,-44.56368,-124.1942,-110.2518,-87.38053,0.001067912,-0.1257102,0.09433498,0,0.3,0,0,0.004571067,0,
6.38224E+17,-4.099433,-0.8883717,-3.24527,-3.363066,-21.48543,16.41313,-56.89731,-0.4675641,6.420498,-71.33459,-8.521038,-36.83611,0,0,0,-8.992064,-111.8537,-42.88684,-124.1942,-110.2518,-87.38053,0.001067912,-0.1257102,0.09433498,0,0.3,0,0,0.004695887,0,
6.38224E+17,-4.122993,-0.8883717,-2.941756,-0.6529952,-19.72755,14.94823,-56.89731,-0.4675641,6.420498,-71.33459,-8.521038,-36.83611,0,0,0,-9.094367,-111.8918,-42.18701,-124.1942,-110.2518,-87.38053,0.001067912,-0.1257102,0.09433498,0,0.3,0,0,0.004734966,0,
6.38224E+17,-4.146553,-0.9117499,-2.124601,3.302244,-17.09072,14.582,-56.89731,-0.4675641,6.420498,-71.33459,-8.521038,-36.90935,0,0,0,-9.283566,-112.0302,-40.29662,-124.1942,-110.2518,-87.38053,0.001067912,-0.1257102,0.09433498,0,0.3,0,0,0.004754046,0,
6.38224E+17,-4.170113,-0.9117499,-1.167363,5.646089,-15.55258,17.14558,-56.89731,-0.4675641,6.420498,-71.33459,-8.521038,-36.83611,0,0,0,-9.498158,-112.0942,-38.07941,-124.1942,-110.2518,-87.38053,0.001067912,-0.1257102,0.09433498,0,0.3,0,0,0.004670812,0,
6.38224E+17,-4.170113,-0.9117499,-1.050627,6.305296,-14.89337,17.58505,-56.89731,-0.4675641,6.420498,-71.33459,-8.521038,-36.83611,0,0,0,-9.517911,-112.0995,-37.80849,-124.1942,-110.2518,-87.38053,0.001067912,-0.1257102,0.09433498,0,0.3,0,0,0.004613264,0,
6.38224E+17,-4.146553,-0.9117499,-1.44753,7.184238,-13.20873,16.99909,-56.89731,-0.4675641,6.420498,-71.33459,-8.521038,-36.90935,0,0,0,-9.397453,-112.0794,-38.7257,-124.1942,-110.2518,-87.38053,0.001067912,-0.1257102,0.09433498,0,0.3,0,0,0.004527217,0,
6.38224E+17,-4.146553,-0.9117499,-1.844434,7.550464,-9.839451,16.63286,-56.89731,-0.4675641,6.420498,-71.33459,-8.521038,-36.83611,0,0,0,-9.330687,-112.0528,-39.64666,-124.1942,-110.2518,-87.38053,0.001067912,-0.1257102,0.09433498,0,0.3,0,0,0.004489362,0,
6.38224E+17,-4.146553,-0.9117499,-1.867781,7.843444,-7.715342,16.63286,-56.89731,-0.4675641,6.420498,-71.33459,-8.521038,-36.83611,0,0,0,-9.326759,-112.0511,-39.70082,-124.1942,-110.2518,-87.38053,0.001067912,-0.1257102,0.09433498,0,0.3,0,0,0.004475846,0,
6.38224E+17,-4.146553,-0.8649935,-1.821087,8.795631,-3.100896,16.63286,-56.89731,-0.4675641,6.420498,-71.33459,-8.521038,-36.90935,0,0,0,-9.334735,-111.9458,-39.59081,-124.1942,-110.2518,-87.38053,0.001067912,-0.1257102,0.09433498,0,0.3,0,0,0.004447225,0,
6.38224E+17,-4.146553,-0.6312115,-1.214058,10.48027,1.806531,16.0469,-56.89731,-0.4675641,6.420498,-71.33459,-8.521038,-36.90935,0,0,0,-9.437369,-111.4391,-38.17512,-124.1942,-110.2518,-87.38053,0.001067912,-0.1257102,0.09433498,0,0.3,0,0,0.004373409,0,
6.38224E+17,-4.146553,-0.4441859,-0.9805852,11.35921,4.003886,15.90041,-56.89731,-0.4675641,6.420498,-71.33459,-8.521038,-36.90935,0,0,0,-9.476948,-111.0143,-37.62918,-124.1942,-110.2518,-87.38053,0.001067912,-0.1257102,0.09433498,0,0.3,0,0,0.004316595,0,
6.38224E+17,-4.146553,-0.1636474,-0.7471125,13.1171,8.471841,16.19339,-56.89731,-0.4675641,6.420498,-71.33459,-8.594284,-36.90935,0,0,0,-9.516484,-110.3695,-37.08383,-124.1942,-110.2518,-87.38053,0.001067912,-0.1257102,0.09433498,0,0.3,0,0,0.004184253,0,
6.38224E+17,-4.146553,-0.116891,-0.8171543,14.72849,12.64682,18.61049,-56.89731,-0.4675641,6.420498,-71.33459,-8.521038,-36.83611,0,0,0,-9.504718,-110.2585,-37.24614,-124.1942,-110.2518,-87.38053,0.001067912,-0.1257102,0.09433498,0,0.3,0,0,0.004057415,0,
6.38224E+17,-4.122993,-0.1870256,-1.564267,16.0469,15.94285,23.00519,-56.89731,-0.4675641,6.420498,-71.33459,-8.521038,-36.83611,0,0,0,-9.325787,-110.3856,-38.97661,-124.1942,-110.2518,-87.38053,0.001067912,-0.1257102,0.09433498,0,0.3,0,0,0.003983355,0,
6.38224E+17,-4.122993,-0.2571602,-2.311379,16.77936,17.18801,25.34904,-56.89731,-0.4675641,6.420498,-71.33459,-8.521038,-36.83611,0,0,0,-9.200795,-110.49,-40.71057,-124.1942,-110.2518,-87.38053,0.001067912,-0.1257102,0.09433498,0,0.3,0,0,0.003993078,0,
6.38224E+17,-4.122993,-0.350673,-3.105186,18.09777,18.87265,29.37753,-56.89731,-0.4675641,6.420498,-71.33459,-8.521038,-36.90935,0,0,0,-9.06803,-110.6204,-42.55237,-124.1942,-110.2518,-87.38053,0.001067912,-0.1257102,0.09433498,0,0.3,0,0,0.004075272,0,
6.38224E+17,-4.075873,-0.4208077,-3.362006,18.97671,19.53186,31.13541,-56.89731,-0.4675641,6.420498,-71.33459,-8.521038,-36.83611,0,0,0,-8.922077,-110.7499,-43.14131,-124.1942,-110.2518,-87.38053,0.001067912,-0.1257102,0.09433498,0,0.3,0,0,0.00416768,0,
6.38224E+17,-4.028753,-0.5143204,-3.712215,19.19645,19.60511,31.13541,-56.89731,-0.4675641,6.420498,-71.33459,-8.521038,-36.90935,0,0,0,-8.761822,-110.9172,-43.9473,-124.1942,-110.2518,-87.38053,0.001067912,-0.1257102,0.09433498,0,0.3,0,0,0.004223026,0,
6.38224E+17,-3.816714,-0.9818845,-5.136398,19.34294,19.89809,31.35514,-56.89731,-0.4675641,6.420498,-71.33459,-8.521038,-36.83611,0,0,0,-8.080454,-111.7496,-47.22725,-124.1942,-110.2518,-87.38053,0.001067912,-0.1257102,0.09433498,0,0.3,0,0,0.004371514,0,
6.38224E+17,-3.463314,-0.9818845,-7.447778,18.97671,20.4108,31.9411,-56.89731,-0.4675641,6.420498,-71.33459,-8.521038,-36.83611,0,0,0,-7.010229,-111.1601,-52.51667,-124.1942,-110.2518,-87.38053,0.001067912,-0.1257102,0.09433498,0,0.3,0,0,0.004584949,0,
6.38224E+17,-3.251275,-0.9818845,-9.432296,18.61049,20.92352,29.67051,-56.89731,-0.4675641,6.420498,-71.33459,-8.521038,-36.90935,0,0,0,-6.322404,-110.4822,-57.05268,-124.1942,-110.2518,-87.38053,0.001067912,-0.1257102,0.09433498,0,0.3,0,0,0.004863088,0,
6.38224E+17,-3.251275,-0.9818845,-9.875894,18.24426,21.2165,27.61964,-56.89731,-0.4675641,6.420498,-71.33459,-8.521038,-36.90935,0,0,0,-6.264679,-110.3091,-58.06885,-124.1942,-110.2518,-87.38053,0.001067912,-0.1257102,0.09433498,0,0.3,0,0,0.005016835,0,
6.38224E+17,-3.251275,-0.9818845,-10.08602,16.8526,21.80246,22.93195,-56.89731,-0.4675641,6.420498,-71.33459,-8.521038,-36.90935,0,0,0,-6.237362,-110.2243,-58.54972,-124.1942,-110.2518,-87.38053,0.001067912,-0.1257102,0.09433498,0,0.3,0,0,0.005327325,0,
6.38224E+17,-3.251275,-0.9818845,-10.10937,14.87498,22.31518,19.19645,-56.89731,-0.4675641,6.420498,-71.33459,-8.521038,-36.83611,0,0,0,-6.234328,-110.2148,-58.60313,-124.1942,-110.2518,-87.38053,0.001067912,-0.1257102,0.09433498,0,0.3,0,0,0.00563011,0,
6.38224E+17,-3.227715,-0.9818845,-10.20275,13.62981,22.53491,16.26664,-56.89731,-0.4675641,6.420498,-71.33459,-8.521038,-36.90935,0,0,0,-6.177154,-110.1765,-58.81418,-124.1942,-110.2518,-87.38053,0.001067912,-0.1257102,0.09433498,0,0.3,0,0,0.005778231,0,
6.38224E+17,-3.133475,-0.9818845,-11.01991,11.21272,22.97438,8.868877,-56.89731,-0.4675641,6.420498,-71.33459,-8.521038,-36.90935,0,0,0,-5.894802,-109.8263,-60.67068,-124.1942,-110.2518,-87.38053,0.001067912,-0.1257102,0.09433498,0,0.3,0,0,0.006080526,0,
6.38224E+17,-3.086355,-0.9818845,-11.74367,9.015368,23.70683,2.716283,-56.89731,-0.4675641,6.420498,-71.33459,-8.521038,-36.90935,0,0,0,-5.717334,-109.4938,-62.31482,-124.1942,-110.2518,-87.38053,0.001067912,-0.1257102,0.09433498,0,0.3,0,0,0.006396398,0,
6.38224E+17,-3.086355,-0.9585064,-11.60359,7.989935,24.21955,0.738663,-56.89731,-0.4675641,6.420498,-71.33459,-8.521038,-36.83611,0,0,0,-5.734574,-109.5054,-61.99508,-124.1942,-110.2518,-87.38053,0.001067912,-0.1257102,0.09433498,0,0.3,0,0,0.006549289,0,
6.38224E+17,-3.086355,-0.5844551,-11.13665,5.279863,25.24498,-1.312202,-56.89731,-0.4675641,6.420498,-71.33459,-8.521038,-36.90935,0,0,0,-5.792569,-108.8492,-60.91948,-124.1942,-110.2518,-87.38053,0.001067912,-0.1257102,0.09433498,0,0.3,0,0,0.006834155,0,
6.38224E+17,-2.732955,0.9585064,-10.55296,3.228999,26.70989,-1.092466,-56.89731,-0.4675641,6.420498,-71.33459,-8.521038,-36.83611,0,0,0,-5.19289,-105.5138,-59.56483,-124.1942,-110.2518,-87.38053,0.001067912,-0.1257102,0.09433498,0,0.3,0,0,0.007039763,0,
6.38224E+17,-1.578517,4.184699,-9.245518,3.741715,27.36909,1.764095,-56.89731,-0.4675641,6.420498,-71.33459,-8.521038,-36.83611,0,0,0,-3.073395,-98.53685,-56.82257,-124.1942,-110.2518,-87.38053,0.001067912,-0.1257102,0.09433498,0,0.3,0,0,0.006971757,0,
6.38224E+17,-0.8952785,6.078333,-8.218237,4.693902,27.07611,4.474167,-56.89731,-0.4675641,6.420498,-71.33459,-8.521038,-36.83611,0,0,0,-1.774034,-94.51043,-54.82513,-124.1942,-110.2518,-87.38053,0.001067912,-0.1257102,0.09433498,0,0.3,0,0,0.006775751,0,
6.38224E+17,0.3769594,10.21628,-6.257067,7.037747,25.61121,10.77325,-56.89731,-0.4675641,6.420498,-71.33459,-8.521038,-36.90935,0,0,0,0.7677984,-85.55409,-51.6505,-124.1942,-110.2518,-87.38053,0.001067912,-0.1257102,0.09433498,0,0.3,0,0,0.006034965,0,
6.38224E+17,0.9423984,14.65813,-4.43598,8.942122,23.70683,15.16796,-56.89731,-0.4675641,6.420498,-71.33459,-8.521038,-36.83611,0,0,0,1.952216,-75.85617,-49.67018,-124.1942,-110.2518,-87.38053,0.001067912,-0.1257102,0.09433498,0,0.3,0,0,0.004905775,0,
6.38224E+17,1.013078,17.13622,-3.338659,9.601329,22.60816,16.55962,-56.89731,-0.4675641,6.420498,-71.33459,-8.521038,-36.83611,0,0,0,2.115738,-70.48283,-48.70451,-124.1942,-110.2518,-87.38053,0.001067912,-0.1257102,0.09433498,0,0.3,0,0,0.004209327,0,
6.38224E+17,0.9188384,22.34956,-0.9105434,10.40703,19.82484,18.24426,-56.89731,-0.4675641,6.420498,-71.33459,-8.521038,-36.83611,0,0,0,1.943793,-59.27598,-47.15179,-124.1942,-110.2518,-87.38053,0.001067912,-0.1257102,0.09433498,0,0.3,0,0,0.002546671,0,
6.38224E+17,0.5183191,27.51615,1.984518,10.77325,16.6753,19.1232,-56.89731,-0.4675641,6.420498,-71.33459,-8.521038,-36.83611,0,0,0,1.111634,-48.31252,-45.47165,-124.1942,-110.2518,-87.38053,0.001067912,-0.1257102,0.09433498,0,0.3,0,0,0.000532977,0,
6.38224E+17,-0.09423985,32.42557,5.253135,10.55352,13.30602,19.34294,-56.89731,-0.4675641,6.420498,-71.33459,-8.521038,-36.90935,0,0,0,-0.2052182,-37.93718,-43.58193,-124.1942,-110.2518,-87.38053,0.001067912,-0.1257102,0.09433498,0,0.3,0,0,0,0,
6.38224E+17,-0.3298394,34.8569,7.074222,10.33378,11.40165,19.1232,-56.89731,-0.4675641,6.420498,-71.33459,-8.521038,-36.83611,0,0,0,-0.724472,-32.7715,-42.50475,-124.1942,-110.2518,-87.38053,0.001067912,-0.1257102,0.09433498,0,0.3,0,0,0,0,
6.38224E+17,-0.7303588,39.43903,10.69305,9.821064,7.666144,18.3175,-56.89731,-0.4675641,6.420498,-71.33459,-8.521038,-36.90935,0,0,0,-1.62814,-22.97293,-40.63129,-124.1942,-110.2518,-87.38053,0.001067912,-0.1257102,0.09433498,0,0.3,0,0,0,0,
6.38224E+17,-1.060198,43.64711,14.33522,9.308348,3.78415,16.99909,-56.89731,-0.4675641,6.420498,-71.33459,-8.521038,-36.83611,0,0,0,-2.396299,-13.80785,-38.86274,-124.1942,-110.2518,-87.38053,0.001067912,-0.1257102,0.09433498,0,0.3,0,0,0,0,
6.38224E+17,-1.107318,45.65763,16.15631,9.088613,1.806531,16.33988,-56.89731,-0.4675641,6.420498,-71.33459,-8.521038,-36.83611,0,0,0,-2.51826,-9.364767,-38.0643,-124.1942,-110.2518,-87.38053,0.001067912,-0.1257102,0.09433498,0,0.3,0,0,0,0,
6.38224E+17,-1.083758,49.25787,19.70509,8.575896,-2.221954,15.09472,-56.89731,-0.4675641,6.420498,-71.33459,-8.521038,-36.83611,0,0,0,-2.496546,-1.157849,-36.37917,-124.1942,-110.2518,-87.38053,0.001067912,-0.1257102,0.09433498,0,0.3,0,0,0,0,
6.38224E+17,-0.8717186,52.85812,23.34727,8.209671,-6.323683,13.99604,-56.89731,-0.4675641,6.420498,-71.33459,-8.521038,-36.83611,0,0,0,-2.028947,7.217718,-35.00291,-124.1942,-110.2518,-87.38053,0.001067912,-0.1257102,0.09433498,0,0.3,0,0,0,0,
6.38224E+17,-0.5654391,54.65824,25.35513,8.06318,-8.521038,13.48332,-56.89731,-0.4675641,6.420498,-71.33459,-8.521038,-36.83611,0,0,0,-1.32477,11.62124,-34.11577,-124.1942,-110.2518,-87.38053,0.001067912,-0.1257102,0.09433498,0,0.3,0,0,0,0,
6.38224E+17,0.4240793,57.69741,29.044,8.35616,-12.40303,12.45789,-56.89731,-0.4675641,6.420498,-71.33459,-8.521038,-36.90935,0,0,0,1.006605,19.48158,-32.35383,-124.1942,-110.2518,-87.38053,0.001067912,-0.1257102,0.09433498,0,0.3,0,0,0,0,
6.38224E+17,1.908357,60.33914,32.54609,9.308348,-16.35827,11.21272,-56.89731,-0.4675641,6.420498,-71.33459,-8.521038,-36.90935,0,0,0,4.586527,26.81854,-30.69678,-124.1942,-110.2518,-87.38053,0.001067912,-0.1257102,0.09433498,0,0.3,0,0,0,0,
6.38224E+17,2.850755,61.50805,34.34383,10.26054,-18.1894,10.11404,-56.89731,-0.4675641,6.420498,-71.33459,-8.521038,-36.90935,0,0,0,6.905297,30.44651,-29.67873,-124.1942,-110.2518,-87.38053,0.001067912,-0.1257102,0.09433498,0,0.3,0,0,0,0,
6.38224E+17,5.018272,63.1679,37.44902,12.82412,-21.11921,7.330729,-56.89731,-0.4675641,6.420498,-71.33459,-8.594284,-36.90935,0,0,0,12.35784,36.47676,-27.61618,-124.1942,-110.2518,-87.38053,0.001067912,-0.1257102,0.09433498,0,0.3,0,0,0,0,
6.38224E+17,7.633427,64.17316,40.18064,16.41313,-23.68279,4.034696,-56.89731,-0.4675641,6.420498,-71.33459,-8.521038,-36.83611,0,0,0,19.14568,41.49904,-25.49561,-124.1942,-110.2518,-87.38053,0.001067912,-0.1257102,0.09433498,0,0.3,0,0,0,0,
6.38224E+17,10.36638,64.43033,42.18851,20.29512,-25.58716,0.4456824,-56.89731,-0.4675641,6.420498,-71.33459,-8.594284,-36.90935,0,0,0,26.47111,44.83559,-23.64213,-124.1942,-110.2518,-87.38053,0.001067912,-0.1257102,0.09433498,0,0.3,0,0,0,0,
6.38224E+17,11.68574,64.38357,42.91228,22.12625,-26.09988,-1.019221,-56.89731,-0.4675641,6.420498,-71.33459,-8.521038,-36.83611,0,0,0,30.06722,45.92769,-22.97868,-124.1942,-110.2518,-87.38053,0.001067912,-0.1257102,0.09433498,0,0.3,0,0,0,0,
6.38224E+17,14.44226,63.91601,43.91621,26.08149,-26.75908,-4.168763,-56.89731,-0.4675641,6.420498,-71.33459,-8.521038,-36.83611,0,0,0,37.69114,47.05903,-22.00088,-124.1942,-110.2518,-87.38053,0.001067912,-0.1257102,0.09433498,0,0.3,0,0,0,0,
6.38224E+17,17.15165,62.77048,44.0096,30.10997,-26.68584,-7.977511,-56.89731,-0.4675641,6.420498,-71.33459,-8.521038,-36.83611,0,0,0,45.31576,46.0138,-21.51993,-124.1942,-110.2518,-87.38053,0.001067912,-0.1257102,0.09433498,0,0.3,0,0,0,0,
6.38224E+17,18.37677,61.95224,43.72943,31.72137,-26.24637,-9.735395,-56.89731,-0.4675641,6.420498,-71.33459,-8.521038,-36.90935,0,0,0,48.8284,44.6785,-21.36748,-124.1942,-110.2518,-87.38053,0.001067912,-0.1257102,0.09433498,0,0.3,0,0,0,0,
6.38224E+17,20.70921,59.68455,42.39864,34.43144,-24.70822,-13.03143,-56.89731,-0.4675641,6.420498,-71.33459,-8.521038,-36.83611,0,0,0,55.59895,39.99049,-21.28311,-124.1942,-110.2518,-87.38053,0.001067912,-0.1257102,0.09433498,0,0.3,0,0,0,0,
6.38224E+17,22.78248,56.71552,40.06391,36.26257,-22.58411,-15.00905,-56.89731,-0.4675641,6.420498,-71.33459,-8.521038,-36.90935,0,0,0,61.57466,32.76838,-21.74422,-124.1942,-110.2518,-87.38053,0.001067912,-0.1257102,0.09433498,0,0.3,0,0,0,0,
6.38224E+17,24.54948,53.37244,37.19219,37.14151,-19.6543,-15.88799,-56.89731,-0.4675641,6.420498,-71.33459,-8.521038,-36.83611,0,0,0,66.54597,24.1392,-22.66174,-124.1942,-110.2518,-87.38053,0.001067912,-0.1257102,0.09433498,0,0.3,0,0,0,0,
6.38224E+17,25.37408,51.36191,35.4178,37.43449,-17.82317,-16.10773,-56.89731,-0.4675641,6.420498,-71.33459,-8.594284,-36.90935,0,0,0,68.79756,18.83714,-23.29333,-124.1942,-110.2518,-87.38053,0.001067912,-0.1257102,0.09433498,0,0.3,0,0,0,0,
6.38224E+17,26.66988,47.27073,31.84567,37.72747,-14.08767,-15.81474,-56.89731,-0.4675641,6.420498,-71.33459,-8.521038,-36.83611,0,0,0,72.19404,8.027502,-24.61992,-124.1942,-110.2518,-87.38053,0.001067912,-0.1257102,0.09433498,0,0.3,0,0,0,0,
6.38224E+17,27.87143,42.94576,28.18015,37.94721,-9.985942,-13.91037,-56.89731,-0.4675641,6.420498,-71.33459,-8.521038,-36.83611,0,0,0,75.0722,-3.341526,-26.39217,-124.1942,-110.2518,-87.38053,0.001067912,-0.1257102,0.09433498,0,0.3,0,0,0,0,
6.38224E+17,28.55467,40.3274,26.21898,38.0937,-7.715342,-12.59196,-56.89731,-0.4675641,6.420498,-71.33459,-8.521038,-36.83611,0,0,0,76.75439,-9.981851,-27.30712,-124.1942,-110.2518,-87.38053,0.001067912,-0.1257102,0.09433498,0,0.3,0,0,0,0,
6.38224E+17,29.77979,35.04393,23.60409,38.31343,-3.320631,-10.32136,-56.89731,-0.4675641,6.420498,-71.33459,-8.521038,-36.83611,0,0,0,80.74355,-22.27302,-27.24844,-124.1942,-110.2518,-87.38053,0.001067912,-0.1257102,0.09433498,0,0.3,0,0,0,0,
6.38224E+17,31.05203,29.90072,22.15656,38.75291,0.8543434,-8.856454,-56.89731,-0.4675641,6.420498,-71.33459,-8.521038,-36.90935,0,0,0,85.56941,-33.67822,-26.23106,-124.1942,-110.2518,-87.38053,0.001067912,-0.1257102,0.09433498,0,0.3,0,0,0,0,
6.38224E+17,31.73527,27.58628,21.80634,39.19238,2.831963,-8.197248,-56.89731,-0.4675641,6.420498,-71.33459,-8.521038,-36.83611,0,0,0,88.2229,-38.70587,-25.70143,-124.1942,-110.2518,-87.38053,0.001067912,-0.1257102,0.09433498,0,0.3,0,0,0,0,
6.38224E+17,33.29023,23.07429,21.54953,40.43755,6.274486,-7.24506,-56.89731,-0.4675641,6.420498,-71.33459,-8.521038,-36.90935,0,0,0,94.22178,-48.41579,-24.8577,-124.1942,-110.2518,-87.38053,0.001067912,-0.1257102,0.09433498,0,0.3,0,0,0,0,
6.38224E+17,34.93942,18.81945,21.52618,41.90245,9.424027,-6.732344,-56.89731,-0.4675641,6.420498,-71.33459,-8.521038,-36.83611,0,0,0,100.3106,-57.68185,-24.76881,-124.1942,-110.2518,-87.38053,0.001067912,-0.1257102,0.09433498,0,0.3,0,0,0,0,
6.38224E+17,35.74046,17.08947,21.52618,42.48841,10.6692,-6.659099,-56.89731,-0.4675641,6.420498,-71.33459,-8.521038,-36.90935,0,0,0,103.033,-61.51199,-25.17783,-124.1942,-110.2518,-87.38053,0.001067912,-0.1257102,0.09433498,0,0.3,0,0,0,0,
6.38224E+17,37.55458,14.42435,21.54953,43.58709,12.72006,-6.585854,-56.89731,-0.4675641,6.420498,-71.33459,-8.594284,-36.83611,0,0,0,108.5712,-67.4612,-27.136,-124.1942,-110.2518,-87.38053,0.001067912,-0.1257102,0.09433498,0,0.3,0,0,0,0,
6.38224E+17,39.55717,13.27882,21.54953,44.61252,14.11172,-7.09857,-56.89731,-0.4675641,6.420498,-71.33459,-8.521038,-36.83611,0,0,0,113.8461,-70.04974,-30.52414,-124.1942,-110.2518,-87.38053,0.001067912,-0.1257102,0.09433498,0,0.3,0,0,0,0,
6.38224E+17,41.74825,13.13855,21.54953,46.00418,14.69768,-7.538041,-56.89731,-0.4675641,6.420498,-71.33459,-8.521038,-36.83611,0,0,0,119.0819,-70.36756,-34.92184,-124.1942,-110.2518,-87.38053,0.001067912,-0.1257102,0.09433498,0,0.3,0,0,0,0,
6.38224E+17,42.97337,13.16193,21.54953,46.88312,14.62444,-7.757777,-56.89731,-0.4675641,6.420498,-71.33459,-8.521038,-36.83611,0,0,0,121.899,-70.31458,-37.50745,-124.1942,-110.2518,-87.38053,0.001067912,-0.1257102,0.09433498,0,0.3,0,0,0,0,
6.38224E+17,45.30581,13.16193,21.54953,48.42127,14.62444,-8.709964,-56.89731,-0.4675641,6.420498,-71.33459,-8.521038,-36.90935,0,0,0,127.123,-70.31458,-42.57683,-124.1942,-110.2518,-87.38053,0.001067912,-0.1257102,0.09433498,0,0.3,0,0,0,0,
6.38224E+17,47.6618,13.16193,21.61957,49.81293,14.62444,-10.83407,-56.89731,-0.4675641,6.420498,-71.33459,-8.521038,-36.90935,0,0,0,132.2979,-70.25461,-47.80687,-124.1942,-110.2518,-87.38053,0.001067912,-0.1257102,0.09433498,0,0.3,0,0,0,0,
6.38224E+17,48.67488,13.20868,21.66626,50.39889,14.69768,-12.006,-56.89731,-0.4675641,6.420498,-71.33459,-8.521038,-36.90935,0,0,0,134.4657,-70.10857,-50.11451,-124.1942,-110.2518,-87.38053,0.001067912,-0.1257102,0.09433498,0,0.3,0,0,0,0,
6.38224E+17,50.6068,13.37233,21.68961,51.7173,14.91741,-14.05686,-56.89731,-0.4675641,6.420498,-71.33459,-8.521038,-36.83611,0,0,0,138.3466,-69.71783,-54.73833,-124.1942,-110.2518,-87.38053,0.001067912,-0.1257102,0.09433498,0,0.3,0,0,0,0,
6.38224E+17,52.49159,13.58274,21.66626,53.03571,15.2104,-15.44852,-56.89731,-0.4675641,6.420498,-71.33459,-8.521038,-36.90935,0,0,0,141.8778,-69.2617,-59.45025,-124.1942,-110.2518,-87.38053,0.001067912,-0.1257102,0.09433498,0,0.3,0,0,0,0,
6.38224E+17,53.33975,13.62949,21.57287,53.69492,15.35689,-15.88799,-56.89731,-0.4675641,6.420498,-71.33459,-8.521038,-36.83611,0,0,0,143.2916,-69.23601,-61.69827,-124.1942,-110.2518,-87.38053,0.001067912,-0.1257102,0.09433498,0,0.3,0,0,0,0,
6.38224E+17,55.03607,13.72301,21.05923,55.08658,15.79636,-16.69369,-56.89731,-0.4675641,6.420498,-71.33459,-8.521038,-36.83611,0,0,0,145.4311,-69.4591,-66.65441,-124.1942,-110.2518,-87.38053,0.001067912,-0.1257102,0.09433498,0,0.3,0,0,0,0,
6.38224E+17,55.36591,14.0503,19.86852,56.11201,16.45556,-17.27965,-56.89731,-0.4675641,6.420498,-71.33459,-8.521038,-36.83611,0,0,0,143.7275,-69.68848,-69.07278,-124.1942,-110.2518,-87.38053,0.001067912,-0.1257102,0.09433498,0,0.3,0,0,0,0,
6.38224E+17,55.38947,14.70489,17.9307,56.47824,17.77398,-16.84018,-56.89731,-0.4675641,6.420498,-71.33459,-8.521038,-36.90935,0,0,0,139.9453,-69.67351,-71.77025,-124.1942,-110.2518,-87.38053,0.001067912,-0.1257102,0.09433498,0,0.3,0,0,0,0,
6.38224E+17,55.38947,15.24259,16.50652,56.47824,18.35994,-15.66825,-56.89731,-0.4675641,6.420498,-71.33459,-8.521038,-36.83611,0,0,0,137.0734,-69.44573,-73.75218,-124.1942,-110.2518,-87.38053,0.001067912,-0.1257102,0.09433498,0,0.3,0,0,0,0,
6.38224E+17,55.34235,16.59852,13.12116,56.47824,19.31213,-12.29898,-56.89731,-0.4675641,6.420498,-71.33459,-8.521038,-36.90935,0,0,0,130.0188,-68.42527,-78.46278,-124.1942,-110.2518,-87.38053,0.001067912,-0.1257102,0.09433498,0,0.3,0,0,0,0,
6.38224E+17,55.24811,18.21162,10.57631,56.2585,19.53186,-8.929699,-56.89731,-0.4675641,6.420498,-71.33459,-8.521038,-36.90935,0,0,0,124.1858,-66.05901,-82.19315,-124.1942,-110.2518,-87.38053,0.001067912,-0.1257102,0.09433498,0,0.3,0,0,0,0,
6.38224E+17,55.22455,18.91297,9.945935,56.2585,19.31213,-7.684532,-56.89731,-0.4675641,6.420498,-71.33459,-8.521038,-36.90935,0,0,0,122.5378,-64.77296,-83.26187,-124.1942,-110.2518,-87.38053,0.001067912,-0.1257102,0.09433498,0,0.3,0,0,0,0,
6.38224E+17,54.87115,20.15201,9.549031,56.33175,18.57967,-6.073137,-56.89731,-0.4675641,6.420498,-71.33459,-8.521038,-36.83611,0,0,0,120.4775,-62.21162,-83.58633,-124.1942,-110.2518,-87.38053,0.001067912,-0.1257102,0.09433498,0,0.3,0,0,0,0,
6.38224E+17,54.23503,21.36768,9.549031,56.03876,17.77398,-5.340686,-56.89731,-0.4675641,6.420498,-71.33459,-8.521038,-36.83611,0,0,0,118.7153,-59.56603,-82.84012,-124.1942,-110.2518,-87.38053,0.001067912,-0.1257102,0.09433498,0,0.3,0,0,0,0,
6.38224E+17,53.88163,22.13916,9.572379,55.81903,17.26126,-5.267441,-56.89731,-0.4675641,6.420498,-71.33459,-8.594284,-36.90935,0,0,0,117.6913,-57.88934,-82.47018,-124.1942,-110.2518,-87.38053,0.001067912,-0.1257102,0.09433498,0,0.3,0,0,0,0,
6.38224E+17,53.05703,24.10293,9.665768,54.94009,16.30907,-5.706912,-56.89731,-0.4675641,6.420498,-71.33459,-8.521038,-36.83611,0,0,0,115.1802,-53.64987,-81.73513,-124.1942,-110.2518,-87.38053,0.001067912,-0.1257102,0.09433498,0,0.3,0,0,0,0,
6.38224E+17,52.16175,26.69791,9.875894,53.84141,15.06391,-6.585854,-56.89731,-0.4675641,6.420498,-71.33459,-8.521038,-36.90935,0,0,0,112.1476,-48.11163,-81.23942,-124.1942,-110.2518,-87.38053,0.001067912,-0.1257102,0.09433498,0,0.3,0,0,0,0,
6.38224E+17,51.61988,28.21749,9.99263,53.25545,14.33146,-7.025325,-56.89731,-0.4675641,6.420498,-71.33459,-8.521038,-36.83611,0,0,0,110.2503,-44.92657,-81.02898,-124.1942,-110.2518,-87.38053,0.001067912,-0.1257102,0.09433498,0,0.3,0,0,0,0,
6.38224E+17,50.55968,31.16315,10.36619,52.15677,12.9398,-7.684532,-56.89731,-0.4675641,6.420498,-71.33459,-8.521038,-36.90935,0,0,0,106.6544,-38.81792,-80.61733,-124.1942,-110.2518,-87.38053,0.001067912,-0.1257102,0.09433498,0,0.3,0,0,0,0,
6.38224E+17,49.4288,34.55299,11.20669,50.9116,11.18191,-8.343738,-56.89731,-0.4675641,6.420498,-71.33459,-8.521038,-36.90935,0,0,0,103.1107,-31.82548,-80.06328,-124.1942,-110.2518,-87.38053,0.001067912,-0.1257102,0.09433498,0,0.3,0,0,0,0,
6.38224E+17,48.22724,38.08309,12.58418,49.73968,9.057802,-9.442415,-56.89731,-0.4675641,6.420498,-71.33459,-8.521038,-36.83611,0,0,0,99.94781,-24.54576,-79.07182,-124.1942,-110.2518,-87.38053,0.001067912,-0.1257102,0.09433498,0,0.3,0,0,0,0,
6.38224E+17,47.6618,39.69619,13.35464,49.15372,8.03237,-10.17487,-56.89731,-0.4675641,6.420498,-71.33459,-8.521038,-36.83611,0,0,0,98.61132,-21.22123,-78.50035,-124.1942,-110.2518,-87.38053,0.001067912,-0.1257102,0.09433498,0,0.3,0,0,0,0,
6.38224E+17,46.22464,43.13279,15.50258,47.8353,5.90826,-11.85951,-56.89731,-0.4675641,6.420498,-71.33459,-8.521038,-36.83611,0,0,0,96.00266,-13.97826,-76.36599,-124.1942,-110.2518,-87.38053,0.001067912,-0.1257102,0.09433498,0,0.3,0,0,0,0,
6.38224E+17,44.69325,46.7564,18.16417,46.29716,3.344679,-14.13011,-56.89731,-0.4675641,6.420498,-71.33459,-8.594284,-36.83611,0,0,0,93.49036,-6.216308,-73.85316,-124.1942,-110.2518,-87.38053,0.001067912,-0.1257102,0.09433498,0,0.3,0,0,0,0,
6.38224E+17,43.98645,48.46302,19.63505,45.5647,1.953021,-15.37527,-56.89731,-0.4675641,6.420498,-71.33459,-8.521038,-36.90935,0,0,0,92.52954,-2.429786,-72.48749,-124.1942,-110.2518,-87.38053,0.001067912,-0.1257102,0.09433498,0,0.3,0,0,0,0,
6.38224E+17,42.78489,51.52556,22.71689,44.24629,-1.196521,-18.23184,-56.89731,-0.4675641,6.420498,-71.33459,-8.521038,-36.90935,0,0,0,91.33342,4.74254,-69.66669,-124.1942,-110.2518,-87.38053,0.001067912,-0.1257102,0.09433498,0,0.3,0,0,0,0,
6.38224E+17,41.65401,53.81662,25.23839,43.29411,-4.126328,-21.23489,-56.89731,-0.4675641,6.420498,-71.33459,-8.521038,-36.83611,0,0,0,90.11368,10.36039,-67.04504,-124.1942,-110.2518,-87.38053,0.001067912,-0.1257102,0.09433498,0,0.3,0,0,0,0,
6.38224E+17,40.16973,55.40634,27.33965,42.41516,-6.98289,-24.38443,-56.89731,-0.4675641,6.420498,-71.33459,-8.521038,-36.90935,0,0,0,88.34191,14.66886,-63.69938,-124.1942,-110.2518,-87.38053,0.001067912,-0.1257102,0.09433498,0,0.3,0,0,0,0,
6.38224E+17,39.2509,55.89729,27.94668,41.97569,-8.081567,-25.77609,-56.89731,-0.4675641,6.420498,-71.33459,-8.521038,-36.90935,0,0,0,86.84734,15.96903,-62.05754,-124.1942,-110.2518,-87.38053,0.001067912,-0.1257102,0.09433498,0,0.3,0,0,0,0,
6.38224E+17,37.1305,56.64539,28.67044,40.73053,-9.839451,-28.04669,-56.89731,-0.4675641,6.420498,-71.33459,-8.521038,-36.90935,0,0,0,82.87623,17.73462,-58.88913,-124.1942,-110.2518,-87.38053,0.001067912,-0.1257102,0.09433498,0,0.3,0,0,0,0,
6.38224E+17,34.44466,57.2766,29.23078,39.19238,-11.30435,-29.65808,-56.89731,-0.4675641,6.420498,-71.33459,-8.521038,-36.90935,0,0,0,77.60479,19.16683,-55.20037,-124.1942,-110.2518,-87.38053,0.001067912,-0.1257102,0.09433498,0,0.3,0,0,0,0,
6.38224E+17,32.86615,57.58052,29.4876,38.24019,-12.03681,-30.24404,-56.89731,-0.4675641,6.420498,-71.33459,-8.594284,-36.90935,0,0,0,74.41766,19.84068,-53.16865,-124.1942,-110.2518,-87.38053,0.001067912,-0.1257102,0.09433498,0,0.3,0,0,0,0,
6.38224E+17,29.33215,58.07146,29.86115,35.96959,-13.50171,-31.04974,-56.89731,-0.4675641,6.420498,-71.33459,-8.521038,-36.83611,0,0,0,67.07255,20.87953,-48.98513,-124.1942,-110.2518,-87.38053,0.001067912,-0.1257102,0.09433498,0,0.3,0,0,0,0,
6.38224E+17,25.25628,58.32861,30.04793,32.7468,-14.74688,-31.26948,-56.89731,-0.4675641,6.420498,-71.33459,-8.521038,-36.90935,0,0,0,58.36242,21.41198,-44.63909,-124.1942,-110.2518,-87.38053,0.001067912,-0.1257102,0.09433498,0,0.3,0,0,0,0,
6.38224E+17,23.08876,58.32861,30.07128,30.91567,-15.33284,-31.26948,-56.89731,-0.4675641,6.420498,-71.33459,-8.521038,-36.83611,0,0,0,53.66021,21.43919,-42.477,-124.1942,-110.2518,-87.38053,0.001067912,-0.1257102,0.09433498,0,0.3,0,0,0,0,
6.38224E+17,18.63593,58.32861,30.07128,26.96043,-16.65125,-30.75676,-56.89731,-0.4675641,6.420498,-71.33459,-8.521038,-36.83611,0,0,0,43.72566,21.43919,-38.69085,-124.1942,-110.2518,-87.38053,0.001067912,-0.1257102,0.09433498,0,0.3,0,0,0,0,
6.38224E+17,13.90038,58.0247,30.04793,22.34599,-18.11616,-28.63265,-56.89731,-0.4675641,6.420498,-71.33459,-8.521038,-36.90935,0,0,0,33.00522,21.039,-34.98585,-124.1942,-110.2518,-87.38053,0.001067912,-0.1257102,0.09433498,0,0.3,0,0,0,0,
6.38224E+17,11.85066,57.67403,29.97789,20.00214,-18.70212,-27.16775,-56.89731,-0.4675641,6.420498,-71.33459,-8.521038,-36.90935,0,0,0,28.32703,20.52314,-33.35257,-124.1942,-110.2518,-87.38053,0.001067912,-0.1257102,0.09433498,0,0.3,0,0,0,0,
6.38224E+17,8.151747,56.15445,29.16073,14.87498,-19.58106,-23.13926,-56.89731,-0.4675641,6.420498,-71.33459,-8.521038,-36.90935,0,0,0,19.74449,17.65405,-30.51054,-124.1942,-110.2518,-87.38053,0.001067912,-0.1257102,0.09433498,0,0.3,0,0,0,0,
6.38224E+17,5.79575,53.6296,27.38634,10.0408,-19.58106,-18.59806,-56.89731,-0.4675641,6.420498,-71.33459,-8.521038,-36.90935,0,0,0,14.1796,12.31865,-28.65141,-124.1942,-110.2518,-87.38053,0.001067912,-0.1257102,0.09433498,0,0.3,0,0,0,0,
6.38224E+17,5.183192,50.54368,25.21505,6.232051,-18.11616,-15.15554,-56.89731,-0.4675641,6.420498,-71.33459,-8.521038,-36.83611,0,0,0,12.78786,5.666993,-27.37689,-124.1942,-110.2518,-87.38053,0.001067912,-0.1257102,0.09433498,0,0.3,0,0,0,0,
6.38224E+17,5.230311,49.14098,24.23446,5.133373,-17.38371,-14.05686,-56.89731,-0.4675641,6.420498,-71.33459,-8.521038,-36.83611,0,0,0,12.94226,2.607169,-26.96718,-124.1942,-110.2518,-87.38053,0.001067912,-0.1257102,0.09433498,0,0.3,0,0,0,0,
6.38224E+17,5.677951,45.91479,22.10986,3.741715,-15.25959,-12.22573,-56.89731,-0.4675641,6.420498,-71.33459,-8.521038,-36.83611,0,0,0,14.1446,-4.407862,-26.08542,-124.1942,-110.2518,-87.38053,0.001067912,-0.1257102,0.09433498,0,0.3,0,0,0,0,
6.38224E+17,6.502549,42.96914,20.35881,3.448734,-13.28197,-11.34679,-56.89731,-0.4675641,6.420498,-71.33459,-8.521038,-36.83611,0,0,0,16.30392,-10.778,-25.30895,-124.1942,-110.2518,-87.38053,0.001067912,-0.1257102,0.09433498,0,0.3,0,0,0,0,
6.38224E+17,7.020868,41.4028,19.49497,3.595225,-12.03681,-11.05381,-56.89731,-0.4675641,6.420498,-71.33459,-8.521038,-36.90935,0,0,0,17.66543,-14.16433,-24.90859,-124.1942,-110.2518,-87.38053,0.001067912,-0.1257102,0.09433498,0,0.3,0,0,0,0,
6.38224E+17,7.821907,38.27012,17.86066,4.254431,-9.399981,-10.83407,-56.89731,-0.4675641,6.420498,-71.33459,-8.521038,-36.83611,0,0,0,19.81424,-20.98028,-24.11272,-124.1942,-110.2518,-87.38053,0.001067912,-0.1257102,0.09433498,0,0.3,0,0,0,0,
6.38224E+17,8.434465,34.59974,16.22635,5.353109,-6.323683,-10.3946,-56.89731,-0.4675641,6.420498,-71.33459,-8.521038,-36.90935,0,0,0,21.56578,-28.96657,-22.91228,-124.1942,-110.2518,-87.38053,0.001067912,-0.1257102,0.09433498,0,0.3,0,0,0,0,
6.38224E+17,8.599386,32.63597,15.50258,5.93907,-4.712289,-9.955132,-56.89731,-0.4675641,6.420498,-71.33459,-8.521038,-36.83611,0,0,0,22.12038,-33.23291,-22.07519,-124.1942,-110.2518,-87.38053,0.001067912,-0.1257102,0.09433498,0,0.3,0,0,0,0,
6.38224E+17,8.646505,28.70843,14.00836,7.330729,-1.269767,-8.709964,-56.89731,-0.4675641,6.420498,-71.33459,-8.521038,-36.90935,0,0,0,22.436,-41.97921,-20.80895,-124.1942,-110.2518,-87.38053,0.001067912,-0.1257102,0.09433498,0,0.3,0,0,0,0,
6.38224E+17,8.387346,25.03806,12.77096,8.50265,2.685472,-6.585854,-56.89731,-0.4675641,6.420498,-71.33459,-8.521038,-36.83611,0,0,0,21.92289,-50.26472,-19.66123,-124.1942,-110.2518,-87.38053,0.001067912,-0.1257102,0.09433498,0,0.3,0,0,0,0,
6.38224E+17,7.492068,22.37294,11.86041,9.454838,6.420976,-3.729292,-56.89731,-0.4675641,6.420498,-71.33459,-8.521038,-36.90935,0,0,0,19.65214,-56.39564,-18.91734,-124.1942,-110.2518,-87.38053,0.001067912,-0.1257102,0.09433498,0,0.3,0,0,0,0,
6.38224E+17,6.620349,21.50795,11.37012,9.674574,8.105616,-2.337634,-56.89731,-0.4675641,6.420498,-71.33459,-8.521038,-36.90935,0,0,0,17.33429,-58.49274,-18.99874,-124.1942,-110.2518,-87.38053,0.001067912,-0.1257102,0.09433498,0,0.3,0,0,0,0,
6.38224E+17,4.005194,20.47931,10.2261,9.161857,10.6692,-0.2135241,-56.89731,-0.4675641,6.420498,-71.33459,-8.521038,-36.83611,0,0,0,10.37898,-61.22667,-20.11678,-124.1942,-110.2518,-87.38053,0.001067912,-0.1257102,0.09433498,0,0.3,0,0,0,0,
6.38224E+17,0.9423984,20.10526,9.408949,7.184238,12.35384,1.104889,-56.89731,-0.4675641,6.420498,-71.33459,-8.521038,-36.90935,0,0,0,2.418136,-62.36749,-21.34581,-124.1942,-110.2518,-87.38053,0.001067912,-0.1257102,0.09433498,0,0.3,0,0,0,0,
6.38224E+17,-0.8481586,20.08188,9.058739,5.646089,13.08629,1.910586,-56.89731,-0.4675641,6.420498,-71.33459,-8.521038,-36.83611,0,0,0,-2.164709,-62.54938,-22.12776,-124.1942,-110.2518,-87.38053,0.001067912,-0.1257102,0.09433498,0,0.3,0,0,0,0,
6.38224E+17,-4.264353,20.12863,8.381668,2.057076,13.96523,3.66847,-56.89731,-0.4675641,6.420498,-71.33459,-8.521038,-36.83611,0,0,0,-10.75543,-62.6861,-24.10717,-124.1942,-110.2518,-87.38053,0.001067912,-0.1257102,0.09433498,0,0.3,0,0,0,0,
6.38224E+17,-7.468508,20.36242,7.681251,-2.044653,14.69768,5.206618,-56.89731,-0.4675641,6.420498,-71.33459,-8.521038,-36.83611,0,0,0,-18.56663,-62.40337,-26.72097,-124.1942,-110.2518,-87.38053,0.001067912,-0.1257102,0.09433498,0,0.3,0,0,0,0,
6.38224E+17,-10.08366,20.94687,7.027527,-6.146383,15.35689,6.232051,-56.89731,-0.4675641,6.420498,-71.33459,-8.521038,-36.90935,0,0,0,-24.66123,-61.3253,-29.67365,-124.1942,-110.2518,-87.38053,0.001067912,-0.1257102,0.09433498,0,0.3,0,0,0,0,
6.38224E+17,-11.02606,21.27416,6.630623,-7.831022,15.50338,6.598277,-56.89731,-0.4675641,6.420498,-71.33459,-8.521038,-36.83611,0,0,0,-26.71084,-60.72452,-31.26757,-124.1942,-110.2518,-87.38053,0.001067912,-0.1257102,0.09433498,0,0.3,0,0,0,0,
6.38224E+17,-12.58102,22.02227,5.486608,-10.68758,15.94285,7.184238,-56.89731,-0.4675641,6.420498,-71.33459,-8.521038,-36.90935,0,0,0,-29.70422,-59.38723,-35.25385,-124.1942,-110.2518,-87.38053,0.001067912,-0.1257102,0.09433498,0,0.3,0,0,0,0,
6.38224E+17,-13.54698,23.21456,4.412633,-12.81169,16.30907,7.330729,-56.89731,-0.4675641,6.420498,-71.33459,-8.521038,-36.83611,0,0,0,-31.11049,-57.04144,-39.23196,-124.1942,-110.2518,-87.38053,0.001067912,-0.1257102,0.09433498,0,0.3,0,0,0,0,
6.38224E+17,-13.85326,23.98604,3.875646,-13.54414,16.60205,7.403974,-56.89731,-0.4675641,6.420498,-71.33459,-8.521038,-36.90935,0,0,0,-31.32968,-55.4864,-41.30829,-124.1942,-110.2518,-87.38053,0.001067912,-0.1257102,0.09433498,0,0.3,0,0,0,0,
6.38224E+17,-14.46582,25.59913,2.871714,-14.64282,16.96828,7.403974,-56.89731,-0.4675641,6.420498,-71.33459,-8.521038,-36.83611,0,0,0,-31.71017,-52.21573,-45.43337,-124.1942,-110.2518,-87.38053,0.001067912,-0.1257102,0.09433498,0,0.3,0,0,0,0,
6.38224E+17,-15.26685,27.42263,2.124601,-15.37527,17.40775,7.477218,-56.89731,-0.4675641,6.420498,-71.33459,-8.521038,-36.83611,0,0,0,-32.46926,-48.49393,-49.39202,-124.1942,-110.2518,-87.38053,0.001067912,-0.1257102,0.09433498,0,0.3,0,0,0,0,
6.38224E+17,-15.64381,28.38114,1.79774,-15.7415,17.55424,7.477218,-56.89731,-0.4675641,6.420498,-71.33459,-8.521038,-36.83611,0,0,0,-32.76469,-46.5485,-51.34559,-124.1942,-110.2518,-87.38053,0.001067912,-0.1257102,0.09433498,0,0.3,0,0,0,0,
6.38224E+17,-16.44485,30.27477,1.2841,-16.76693,17.84722,7.477218,-56.89731,-0.4675641,6.420498,-71.33459,-8.521038,-36.83611,0,0,0,-33.44786,-42.73845,-55.03151,-124.1942,-110.2518,-87.38053,0.001067912,-0.1257102,0.09433498,0,0.3,0,0,0,0,
6.38224E+17,-17.34013,32.30868,0.9805852,-18.08535,17.40775,7.257483,-56.89731,-0.4675641,6.420498,-71.33459,-8.521038,-36.83611,0,0,0,-34.27113,-38.70752,-58.58892,-124.1942,-110.2518,-87.38053,0.001067912,-0.1257102,0.09433498,0,0.3,0,0,0,0,
6.38224E+17,-18.23541,34.24907,0.8871961,-19.25727,16.82179,6.891257,-56.89731,-0.4675641,6.420498,-71.33459,-8.521038,-36.83611,0,0,0,-35.13855,-34.93577,-61.69768,-124.1942,-110.2518,-87.38053,0.001067912,-0.1257102,0.09433498,0,0.3,0,0,0,0,
6.38224E+17,-18.89509,35.37122,0.8638488,-19.91648,16.45556,6.451786,-56.89731,-0.4675641,6.420498,-71.33459,-8.594284,-36.90935,0,0,0,-35.86375,-32.7923,-63.57126,-124.1942,-110.2518,-87.38053,0.001067912,-0.1257102,0.09433498,0,0.3,0,0,0,0,
6.38224E+17,-20.49717,37.12459,0.5603344,-21.30813,15.35689,5.279863,-56.89731,-0.4675641,6.420498,-71.33459,-8.521038,-36.90935,0,0,0,-37.68692,-29.51021,-67.53655,-124.1942,-110.2518,-87.38053,0.001067912,-0.1257102,0.09433498,0,0.3,0,0,0,0,
6.38224E+17,-22.19348,38.36363,0.1867781,-23.28575,14.55119,3.741715,-56.89731,-0.4675641,6.420498,-71.33459,-8.521038,-36.83611,0,0,0,-39.6595,-27.23559,-71.13576,-124.1942,-110.2518,-87.38053,0.001067912,-0.1257102,0.09433498,0,0.3,0,0,0,0,
6.38224E+17,-23.01808,39.01822,0.1867781,-24.23794,14.18496,3.155754,-56.89731,-0.4675641,6.420498,-71.33459,-8.521038,-36.83611,0,0,0,-40.68206,-26.04646,-72.59312,-124.1942,-110.2518,-87.38053,0.001067912,-0.1257102,0.09433498,0,0.3,0,0,0,0,
6.38224E+17,-25.04424,40.51442,0.6070289,-25.99582,13.599,2.276812,-56.89731,-0.4675641,6.420498,-71.33459,-8.521038,-36.90935,0,0,0,-43.51331,-23.36309,-75.2232,-124.1942,-110.2518,-87.38053,0.001067912,-0.1257102,0.09433498,0,0.3,0,0,0,0,
6.38224E+17,-27.82431,42.03401,1.681003,-27.97344,13.01304,1.983831,-56.89731,-0.4675641,6.420498,-71.33459,-8.521038,-36.83611,0,0,0,-48.0565,-20.65524,-77.29642,-124.1942,-110.2518,-87.38053,0.001067912,-0.1257102,0.09433498,0,0.3,0,0,0,0,
6.38224E+17,-29.26147,42.80549,2.451463,-29.14537,12.72006,1.910586,-56.89731,-0.4675641,6.420498,-71.33459,-8.521038,-36.83611,0,0,0,-50.60894,-19.26509,-78.02366,-124.1942,-110.2518,-87.38053,0.001067912,-0.1257102,0.09433498,0,0.3,0,0,0,0,
6.38224E+17,-32.39495,44.55886,4.459328,-32.14842,11.76787,1.837341,-56.89731,-0.4675641,6.420498,-71.33459,-8.521038,-36.83611,0,0,0,-56.45974,-16.03242,-79.36633,-124.1942,-110.2518,-87.38053,0.001067912,-0.1257102,0.09433498,0,0.3,0,0,0,0,
6.38224E+17,-35.55198,46.19533,6.677318,-35.44445,10.44946,2.203566,-56.89731,-0.4675641,6.420498,-71.33459,-8.521038,-36.90935,0,0,0,-62.68562,-12.85625,-80.63643,-124.1942,-110.2518,-87.38053,0.001067912,-0.1257102,0.09433498,0,0.3,0,0,0,0,
6.38224E+17,-38.40274,47.71491,8.615141,-39.47293,9.057802,2.716283,-56.89731,-0.4675641,6.420498,-71.33459,-8.521038,-36.83611,0,0,0,-68.14149,-9.842228,-82.38528,-124.1942,-110.2518,-87.38053,0.001067912,-0.1257102,0.09433498,0,0.3,0,0,0,0,
6.38224E+17,-39.62786,48.3695,9.292212,-41.5238,8.398596,3.009263,-56.89731,-0.4675641,6.420498,-71.33459,-8.521038,-36.90935,0,0,0,-70.23412,-8.578403,-83.53551,-124.1942,-110.2518,-87.38053,0.001067912,-0.1257102,0.09433498,0,0.3,0,0,0,0,
6.38224E+17,-42.00741,49.42152,10.10937,-45.11281,7.446409,3.228999,-56.89731,-0.4675641,6.420498,-71.33459,-8.594284,-36.90935,0,0,0,-73.71487,-6.648256,-86.50264,-124.1942,-110.2518,-87.38053,0.001067912,-0.1257102,0.09433498,0,0.3,0,0,0,0,
6.38224E+17,-44.43409,50.26314,11.01991,-48.26236,7.226673,3.302244,-56.89731,-0.4675641,6.420498,-71.33459,-8.521038,-36.83611,0,0,0,-77.52466,-4.99653,-89.27859,-124.1942,-110.2518,-87.38053,0.001067912,-0.1257102,0.09433498,0,0.3,0,0,0,0,
6.38224E+17,-45.84768,50.7307,11.86041,-49.72726,7.153428,3.375489,-56.89731,-0.4675641,6.420498,-71.33459,-8.521038,-36.83611,0,0,0,-80.22491,-3.916307,-90.46448,-124.1942,-110.2518,-87.38053,0.001067912,-0.1257102,0.09433498,0,0.3,0,0,0,0,
6.38224E+17,-48.69844,51.52556,14.19514,-52.43733,6.933692,4.107941,-56.89731,-0.4675641,6.420498,-71.33459,-8.521038,-36.90935,0,0,0,-86.89404,-1.530494,-92.00753,-124.1942,-110.2518,-87.38053,0.001067912,-0.1257102,0.09433498,0,0.3,0,0,0,0,
6.38224E+17,-51.52563,51.96975,17.44041,-55.9531,6.420976,5.93907,-56.89731,-0.4675641,6.420498,-71.33459,-8.521038,-36.83611,0,0,0,-95.6067,1.168075,-92.37081,-124.1942,-110.2518,-87.38053,0.001067912,-0.1257102,0.09433498,0,0.3,0,0,0,0,
6.38224E+17,-52.65651,52.0165,19.00467,-57.63773,6.05475,7.110993,-56.89731,-0.4675641,6.420498,-71.33459,-8.521038,-36.83611,0,0,0,-99.76859,2.373515,-92.22696,-124.1942,-110.2518,-87.38053,0.001067912,-0.1257102,0.09433498,0,0.3,0,0,0,0,
6.38224E+17,-54.68267,51.96975,22.6235,-60.86052,5.542034,9.747819,-56.89731,-0.4675641,6.420498,-71.33459,-8.521038,-36.83611,0,0,0,-108.8904,5.298815,-91.20184,-124.1942,-110.2518,-87.38053,0.001067912,-0.1257102,0.09433498,0,0.3,0,0,0,0,
6.38224E+17,-56.28475,51.68921,26.33572,-64.30305,5.029318,12.53114,-56.89731,-0.4675641,6.420498,-71.33459,-8.521038,-36.90935,0,0,0,-117.9712,8.474747,-89.62762,-124.1942,-110.2518,-87.38053,0.001067912,-0.1257102,0.09433498,0,0.3,0,0,0,0,
6.38224E+17,-57.41562,51.12813,29.69772,-67.23285,4.589847,15.3877,-56.89731,-0.4675641,6.420498,-71.33459,-8.521038,-36.83611,0,0,0,-126.1815,11.33519,-87.70202,-124.1942,-110.2518,-87.38053,0.001067912,-0.1257102,0.09433498,0,0.3,0,0,0,0,
6.38224E+17,-57.41562,50.75408,31.30868,-68.62451,4.516602,16.92585,-56.89731,-0.4675641,6.420498,-71.33459,-8.521038,-36.83611,0,0,0,-129.473,12.68968,-85.5983,-124.1942,-110.2518,-87.38053,0.001067912,-0.1257102,0.09433498,0,0.3,0,0,0,0,
6.38224E+17,-57.41562,50.12287,33.83019,-70.67538,4.589847,20.29512,-56.89731,-0.4675641,6.420498,-71.33459,-8.521038,-36.83611,0,0,0,-134.5942,14.91292,-82.32514,-124.1942,-110.2518,-87.38053,0.001067912,-0.1257102,0.09433498,0,0.3,0,0,0,0,
6.38224E+17,-57.43919,49.63192,36.16492,-71.70081,4.223621,23.73765,-56.89731,-0.4675641,6.420498,-71.33459,-8.594284,-36.90935,0,0,0,-139.1173,17.29291,-79.51479,-124.1942,-110.2518,-87.38053,0.001067912,-0.1257102,0.09433498,0,0.3,0,0,0,0,
6.38224E+17,-57.43919,49.35139,37.02876,-72.06703,4.003886,25.20255,-56.89731,-0.4675641,6.420498,-71.33459,-8.521038,-36.83611,0,0,0,-140.8961,18.06742,-78.37889,-124.1942,-110.2518,-87.38053,0.001067912,-0.1257102,0.09433498,0,0.3,0,0,0,0,
6.38224E+17,-57.43919,48.55653,38.59303,-72.43327,3.710905,27.39991,-56.89731,-0.4675641,6.420498,-71.33459,-8.521038,-36.83611,0,0,0,-144.4961,19.0845,-76.08006,-124.1942,-110.2518,-87.38053,0.001067912,-0.1257102,0.09433498,0,0.3,0,0,0,0,
6.38224E+17,-57.43919,47.22397,40.13395,-72.87273,3.491169,29.0113,-56.89731,-0.4675641,6.420498,-71.33459,-8.521038,-36.83611,0,0,0,-148.7721,19.27942,-73.34959,-124.1942,-110.2518,-87.38053,0.001067912,-0.1257102,0.09433498,0,0.3,0,0,0,0,
6.38224E+17,-57.41562,45.49398,41.27797,-73.3122,3.491169,29.96349,-56.89731,-0.4675641,6.420498,-71.33459,-8.521038,-36.90935,0,0,0,-152.8887,18.23722,-70.63231,-124.1942,-110.2518,-87.38053,0.001067912,-0.1257102,0.09433498,0,0.3,0,0,0,0,
6.38224E+17,-57.41562,44.5121,41.79161,-73.60519,3.491169,30.40295,-56.89731,-0.4675641,6.420498,-71.33459,-8.521038,-36.83611,0,0,0,-155.0043,17.41409,-69.28013,-124.1942,-110.2518,-87.38053,0.001067912,-0.1257102,0.09433498,0,0.3,0,0,0,0,
6.38224E+17,-57.39207,42.26779,42.77219,-74.04465,3.63766,30.91567,-56.89731,-0.4675641,6.420498,-71.33459,-8.521038,-36.83611,0,0,0,-159.4084,15.15392,-66.37296,-124.1942,-110.2518,-87.38053,0.001067912,-0.1257102,0.09433498,0,0.3,0,0,0,0,
6.38224E+17,-57.36851,39.74295,43.61269,-74.55737,3.710905,31.2819,-56.89731,-0.4675641,6.420498,-71.33459,-8.521038,-36.83611,0,0,0,-163.8143,12.05862,-63.45948,-124.1942,-110.2518,-87.38053,0.001067912,-0.1257102,0.09433498,0,0.3,0,0,0,0,
6.38224E+17,-57.34494,38.43377,44.0096,-74.7771,3.710905,31.2819,-56.89731,-0.4675641,6.420498,-71.33459,-8.521038,-36.90935,0,0,0,-165.9498,10.33318,-61.99583,-124.1942,-110.2518,-87.38053,0.001067912,-0.1257102,0.09433498,0,0.3,0,0,0,0,
6.38224E+17,-57.06223,35.76865,44.61663,-75.28983,4.003886,31.35514,-56.89731,-0.4675641,6.420498,-71.33459,-8.521038,-36.83611,0,0,0,-169.4114,6.373416,-58.59435,-124.1942,-110.2518,-87.38053,0.001067912,-0.1257102,0.09433498,0,0.3,0,0,0,0,
6.38224E+17,-56.59103,33.01003,45.10692,-75.50956,4.223621,31.42839,-56.89731,-0.4675641,6.420498,-71.33459,-8.521038,-36.83611,0,0,0,-172.2051,1.880608,-54.76298,-124.1942,-110.2518,-87.38053,0.001067912,-0.1257102,0.09433498,0,0.3,0,0,0,0,
6.38224E+17,-56.33187,31.67747,45.27035,-75.43631,4.370111,31.42839,-56.89731,-0.4675641,6.420498,-71.33459,-8.521038,-36.83611,0,0,0,-173.2935,-0.4697082,-52.91679,-124.1942,-110.2518,-87.38053,0.001067912,-0.1257102,0.09433498,0,0.3,0,0,0,0,
6.38224E+17,-55.81355,29.15262,45.48048,-75.07008,4.516602,31.50163,-56.89731,-0.4675641,6.420498,-71.33459,-8.521038,-36.83611,0,0,0,-174.9871,-5.188857,-49.48938,-124.1942,-110.2518,-87.38053,0.001067912,-0.1257102,0.09433498,0,0.3,0,0,0,0,
6.38224E+17,-55.31879,26.72129,45.50382,-74.63062,4.589847,31.50163,-56.89731,-0.4675641,6.420498,-71.33459,-8.521038,-36.90935,0,0,0,-176.1654,-10.14896,-46.45272,-124.1942,-110.2518,-87.38053,0.001067912,-0.1257102,0.09433498,0,0.3,0,0,0,0,
6.38224E+17,-54.87115,24.19644,45.50382,-74.1179,4.736337,31.42839,-56.89731,-0.4675641,6.420498,-71.33459,-8.521038,-36.83611,0,0,0,-177.2735,-15.45423,-43.62672,-124.1942,-110.2518,-87.38053,0.001067912,-0.1257102,0.09433498,0,0.3,0,0,0,0,
6.38224E+17,-54.65911,22.98077,45.50382,-73.89817,4.809582,31.42839,-56.89731,-0.4675641,6.420498,-71.33459,-8.521038,-36.83611,0,0,0,-177.7342,-18.0471,-42.31663,-124.1942,-110.2518,-87.38053,0.001067912,-0.1257102,0.09433498,0,0.3,0,0,0,0,
6.38224E+17,-54.21147,20.61958,45.50382,-73.23896,5.175808,31.35514,-56.89731,-0.4675641,6.420498,-71.33459,-8.521038,-36.83611,0,0,0,-178.3995,-23.14918,-39.73849,-124.1942,-110.2518,-87.38053,0.001067912,-0.1257102,0.09433498,0,0.3,0,0,0,0,
6.38224E+17,-53.66959,18.72594,45.36374,-72.43327,5.542034,31.42839,-56.89731,-0.4675641,6.420498,-71.33459,-8.521038,-36.83611,0,0,0,-178.1861,-27.53126,-37.31363,-124.1942,-110.2518,-87.38053,0.001067912,-0.1257102,0.09433498,0,0.3,0,0,0,0,
6.38224E+17,-53.31619,17.97784,45.15361,-71.92055,5.688524,31.50163,-56.89731,-0.4675641,6.420498,-71.33459,-8.521038,-36.83611,0,0,0,-177.5381,-29.53119,-36.09524,-124.1942,-110.2518,-87.38053,0.001067912,-0.1257102,0.09433498,0,0.3,0,0,0,0,
6.38224E+17,-52.44447,17.04271,44.33646,-70.60213,5.90826,31.9411,-56.89731,-0.4675641,6.420498,-71.33459,-8.521038,-36.83611,0,0,0,-174.9537,-32.94553,-33.83372,-124.1942,-110.2518,-87.38053,0.001067912,-0.1257102,0.09433498,0,0.3,0,0,0,0,
6.38224E+17,-51.17223,16.90244,42.98232,-69.06399,6.05475,32.23409,-56.89731,-0.4675641,6.420498,-71.33459,-8.521038,-36.83611,0,0,0,-170.222,-35.43351,-31.35217,-124.1942,-110.2518,-87.38053,0.001067912,-0.1257102,0.09433498,0,0.3,0,0,0,0,
6.38224E+17,-50.489,17.01933,42.14182,-68.11179,6.05475,32.38057,-56.89731,-0.4675641,6.420498,-71.33459,-8.521038,-36.83611,0,0,0,-167.4034,-36.49641,-30.29927,-124.1942,-110.2518,-87.38053,0.001067912,-0.1257102,0.09433498,0,0.3,0,0,0,0,
6.38224E+17,-48.9576,17.60379,39.85378,-65.47498,6.127995,32.96654,-56.89731,-0.4675641,6.420498,-71.33459,-8.521038,-36.83611,0,0,0,-160.3179,-38.69101,-28.77937,-124.1942,-110.2518,-87.38053,0.001067912,-0.1257102,0.09433498,0,0.3,0,0,0,0,
6.38224E+17,-47.56756,18.56229,37.68249,-62.47192,5.688524,33.40601,-56.89731,-0.4675641,6.420498,-71.33459,-8.521038,-36.90935,0,0,0,-153.466,-39.73454,-28.05691,-124.1942,-110.2518,-87.38053,0.001067912,-0.1257102,0.09433498,0,0.3,0,0,0,0,
6.38224E+17,-46.24821,19.75458,35.4178,-59.39562,4.956073,33.69899,-56.89731,-0.4675641,6.420498,-71.33459,-8.521038,-36.90935,0,0,0,-146.4788,-40.25206,-28.11822,-124.1942,-110.2518,-87.38053,0.001067912,-0.1257102,0.09433498,0,0.3,0,0,0,0,
6.38224E+17,-45.58852,20.31566,34.22709,-57.78423,4.663092,33.91872,-56.89731,-0.4675641,6.420498,-71.33459,-8.521038,-36.90935,0,0,0,-142.9099,-40.60769,-28.34617,-124.1942,-110.2518,-87.38053,0.001067912,-0.1257102,0.09433498,0,0.3,0,0,0,0,
6.38224E+17,-44.17493,21.27416,31.65889,-54.85442,4.150376,34.06521,-56.89731,-0.4675641,6.420498,-71.33459,-8.521038,-36.90935,0,0,0,-135.3655,-41.77238,-29.02866,-124.1942,-110.2518,-87.38053,0.001067912,-0.1257102,0.09433498,0,0.3,0,0,0,0,
6.38224E+17,-42.69065,21.95213,29.16073,-51.63163,4.223621,34.06521,-56.89731,-0.4675641,6.420498,-71.33459,-8.521038,-36.83611,0,0,0,-127.9176,-43.24824,-29.68164,-124.1942,-110.2518,-87.38053,0.001067912,-0.1257102,0.09433498,0,0.3,0,0,0,0,
6.38224E+17,-41.96029,22.16254,27.92333,-50.09349,4.296866,33.91872,-56.89731,-0.4675641,6.420498,-71.33459,-8.594284,-36.90935,0,0,0,-124.3251,-44.1704,-30.08035,-124.1942,-110.2518,-87.38053,0.001067912,-0.1257102,0.09433498,0,0.3,0,0,0,0,
6.38224E+17,-40.12262,22.34956,25.30844,-46.43123,4.809582,33.25952,-56.89731,-0.4675641,6.420498,-71.33459,-8.521038,-36.83611,0,0,0,-116.2149,-46.49383,-30.45083,-124.1942,-110.2518,-87.38053,0.001067912,-0.1257102,0.09433498,0,0.3,0,0,0,0,
6.38224E+17,-38.44986,22.34956,23.27722,-42.76897,5.688524,32.45382,-56.89731,-0.4675641,6.420498,-71.33459,-8.521038,-36.83611,0,0,0,-109.4608,-48.4386,-30.49148,-124.1942,-110.2518,-87.38053,0.001067912,-0.1257102,0.09433498,0,0.3,0,0,0,0,
6.38224E+17,-37.08338,22.20929,21.80634,-39.47293,6.640712,31.64813,-56.89731,-0.4675641,6.420498,-71.33459,-8.521038,-36.83611,0,0,0,-104.3103,-50.05301,-30.34387,-124.1942,-110.2518,-87.38053,0.001067912,-0.1257102,0.09433498,0,0.3,0,0,0,0,
6.38224E+17,-36.5415,21.97551,21.29271,-38.08128,7.006938,31.2819,-56.89731,-0.4675641,6.420498,-71.33459,-8.521038,-36.90935,0,0,0,-102.4603,-50.99625,-30.09243,-124.1942,-110.2518,-87.38053,0.001067912,-0.1257102,0.09433498,0,0.3,0,0,0,0,
6.38224E+17,-35.81114,21.18065,20.61563,-35.73743,7.739389,30.84243,-56.89731,-0.4675641,6.420498,-71.33459,-8.521038,-36.90935,0,0,0,-100.2266,-53.28008,-29.43928,-124.1942,-110.2518,-87.38053,0.001067912,-0.1257102,0.09433498,0,0.3,0,0,0,0,
6.38224E+17,-35.50486,20.03512,20.33547,-33.9063,8.838067,30.69594,-56.89731,-0.4675641,6.420498,-71.33459,-8.521038,-36.83611,0,0,0,-99.67286,-56.00364,-28.63888,-124.1942,-110.2518,-87.38053,0.001067912,-0.1257102,0.09433498,0,0.3,0,0,0,0,
6.38224E+17,-35.50486,19.38053,20.33547,-33.32034,9.277537,30.62269,-56.89731,-0.4675641,6.420498,-71.33459,-8.521038,-36.90935,0,0,0,-99.97123,-57.43788,-28.22065,-124.1942,-110.2518,-87.38053,0.001067912,-0.1257102,0.09433498,0,0.3,0,0,0,0,
6.38224E+17,-35.50486,18.09473,20.38216,-32.66114,10.00999,30.76918,-56.89731,-0.4675641,6.420498,-71.33459,-8.521038,-36.90935,0,0,0,-100.5887,-60.23397,-27.35515,-124.1942,-110.2518,-87.38053,0.001067912,-0.1257102,0.09433498,0,0.3,0,0,0,0,
6.38224E+17,-35.50486,16.69204,20.68568,-32.14842,10.74244,30.98892,-56.89731,-0.4675641,6.420498,-71.33459,-8.521038,-36.83611,0,0,0,-101.5396,-63.10147,-26.02221,-124.1942,-110.2518,-87.38053,0.001067912,-0.1257102,0.09433498,0,0.3,0,0,0,0,
6.38224E+17,-35.52842,15.96731,20.8958,-31.92868,11.18191,31.13541,-56.89731,-0.4675641,6.420498,-71.33459,-8.521038,-36.90935,0,0,0,-102.1394,-64.54655,-25.30594,-124.1942,-110.2518,-87.38053,0.001067912,-0.1257102,0.09433498,0,0.3,0,0,0,0,
6.38224E+17,-35.57554,14.56462,21.36275,-31.78219,11.69463,31.20865,-56.89731,-0.4675641,6.420498,-71.33459,-8.521038,-36.83611,0,0,0,-103.3468,-67.30415,-23.86638,-124.1942,-110.2518,-87.38053,0.001067912,-0.1257102,0.09433498,0,0.3,0,0,0,0,
6.38224E+17,-35.7169,13.27882,22.01647,-31.6357,12.20734,31.86786,-56.89731,-0.4675641,6.420498,-71.33459,-8.521038,-36.83611,0,0,0,-104.9486,-69.64645,-22.38939,-124.1942,-110.2518,-87.38053,0.001067912,-0.1257102,0.09433498,0,0.3,0,0,0,0,
6.38224E+17,-35.85826,12.67099,22.43672,-31.70894,12.28059,32.45382,-56.89731,-0.4675641,6.420498,-71.33459,-8.521038,-36.83611,0,0,0,-106.0249,-70.65501,-21.65753,-124.1942,-110.2518,-87.38053,0.001067912,-0.1257102,0.09433498,0,0.3,0,0,0,0,
6.38224E+17,-36.32946,11.52545,23.37061,-32.29491,12.1341,33.62574,-56.89731,-0.4675641,6.420498,-71.33459,-8.521038,-36.83611,0,0,0,-108.7448,-72.41596,-20.47129,-124.1942,-110.2518,-87.38053,0.001067912,-0.1257102,0.09433498,0,0.3,0,0,0,0,
6.38224E+17,-37.05982,10.52019,24.39789,-33.17385,11.62138,34.72442,-56.89731,-0.4675641,6.420498,-71.33459,-8.521038,-36.90935,0,0,0,-112.208,-73.74438,-19.76794,-124.1942,-110.2518,-87.38053,0.001067912,-0.1257102,0.09433498,0,0.3,0,0,0,0,
6.38224E+17,-37.86086,9.49155,25.68199,-34.49226,10.96218,35.60336,-56.89731,-0.4675641,6.420498,-71.33459,-8.521038,-36.83611,0,0,0,-116.1914,-74.83709,-18.88505,-124.1942,-110.2518,-87.38053,0.001067912,-0.1257102,0.09433498,0,0.3,0,0,0,0,
6.38224E+17,-38.28493,8.953853,26.40576,-35.29796,10.74244,36.04284,-56.89731,-0.4675641,6.420498,-71.33459,-8.521038,-36.83611,0,0,0,-118.3564,-75.33276,-18.40375,-124.1942,-110.2518,-87.38053,0.001067912,-0.1257102,0.09433498,0,0.3,0,0,0,0,
6.38224E+17,-39.03886,8.20575,27.66651,-37.20233,10.22972,36.70204,-56.89731,-0.4675641,6.420498,-71.33459,-8.521038,-36.83611,0,0,0,-122.1289,-75.72064,-17.74231,-124.1942,-110.2518,-87.38053,0.001067912,-0.1257102,0.09433498,0,0.3,0,0,0,0,
6.38224E+17,-39.60429,7.855076,28.78718,-39.2532,9.643764,37.14151,-56.89731,-0.4675641,6.420498,-71.33459,-8.521038,-36.83611,0,0,0,-125.1469,-75.2952,-17.09648,-124.1942,-110.2518,-87.38053,0.001067912,-0.1257102,0.09433498,0,0.3,0,0,0,0,
6.38224E+17,-39.76921,7.738185,29.20743,-40.49837,9.204292,37.21476,-56.89731,-0.4675641,6.420498,-71.33459,-8.521038,-36.83611,0,0,0,-126.1526,-75.0906,-16.77142,-124.1942,-110.2518,-87.38053,0.001067912,-0.1257102,0.09433498,0,0.3,0,0,0,0,
6.38224E+17,-39.62786,7.644672,29.30082,-42.25625,8.691576,37.288,-56.89731,-0.4675641,6.420498,-71.33459,-8.521038,-36.83611,0,0,0,-125.9178,-75.20007,-16.29215,-124.1942,-110.2518,-87.38053,0.001067912,-0.1257102,0.09433498,0,0.3,0,0,0,0,
6.38224E+17,-39.03886,7.597916,28.97396,-43.35493,8.618331,37.288,-56.89731,-0.4675641,6.420498,-71.33459,-8.447793,-36.90935,0,0,0,-123.9386,-75.67833,-15.51067,-124.1942,-110.2518,-87.38053,0.001067912,-0.1257102,0.09433498,0,0.3,0,0,0,0,
6.38224E+17,-38.59122,7.574538,28.57705,-43.42817,8.618331,37.288,-56.89731,-0.4675641,6.420498,-71.33459,-8.521038,-36.83611,0,0,0,-122.2401,-76.17694,-15.17428,-124.1942,-110.2518,-87.38053,0.001067912,-0.1257102,0.09433498,0,0.3,0,0,0,0,
6.38224E+17,-37.50746,7.504403,27.59647,-42.9887,8.838067,36.70204,-56.89731,-0.4675641,6.420498,-71.33459,-8.521038,-36.83611,0,0,0,-118.1082,-77.41323,-14.46984,-124.1942,-110.2518,-87.38053,0.001067912,-0.1257102,0.09433498,0,0.3,0,0,0,0,
6.38224E+17,-36.23522,7.293999,26.40576,-41.59705,9.204292,35.89634,-56.89731,-0.4675641,6.420498,-71.33459,-8.521038,-36.83611,0,0,0,-113.2403,-79.15699,-13.82616,-124.1942,-110.2518,-87.38053,0.001067912,-0.1257102,0.09433498,0,0.3,0,0,0,0,
6.38224E+17,-34.7745,6.966705,25.05162,-39.83916,9.643764,35.0174,-56.89731,-0.4675641,6.420498,-71.33459,-8.521038,-36.90935,0,0,0,-107.6991,-81.28097,-13.24408,-124.1942,-110.2518,-87.38053,0.001067912,-0.1257102,0.09433498,0,0.3,0,0,0,0,
6.38224E+17,-34.02058,6.803057,24.39789,-38.88697,9.790254,34.65118,-56.89731,-0.4675641,6.420498,-71.33459,-8.521038,-36.83611,0,0,0,-104.9012,-82.29546,-12.94801,-124.1942,-110.2518,-87.38053,0.001067912,-0.1257102,0.09433498,0,0.3,0,0,0,0,
6.38224E+17,-32.46563,6.475762,22.97371,-36.90935,10.30297,33.62574,-56.89731,-0.4675641,6.420498,-71.33459,-8.521038,-36.90935,0,0,0,-99.06355,-84.38362,-12.64531,-124.1942,-110.2518,-87.38053,0.001067912,-0.1257102,0.09433498,0,0.3,0,0,0,0,
6.38224E+17,-30.86355,6.008198,21.57287,-34.78524,11.03542,32.45382,-56.89731,-0.4675641,6.420498,-71.33459,-8.521038,-36.83611,0,0,0,-93.18466,-86.70107,-12.42474,-124.1942,-110.2518,-87.38053,0.001067912,-0.1257102,0.09433498,0,0.3,0,0,0,0,
6.38224E+17,-30.06251,5.821173,20.9425,-33.75981,11.47489,31.79461,-56.89731,-0.4675641,6.420498,-71.33459,-8.521038,-36.90935,0,0,0,-90.3332,-87.66597,-12.28178,-124.1942,-110.2518,-87.38053,0.001067912,-0.1257102,0.09433498,0,0.3,0,0,0,0,
6.38224E+17,-28.31907,5.564013,19.49497,-31.56245,12.28059,30.54945,-56.89731,-0.4675641,6.420498,-71.33459,-8.521038,-36.83611,0,0,0,-84.07166,-89.42583,-12.33642,-124.1942,-110.2518,-87.38053,0.001067912,-0.1257102,0.09433498,0,0.3,0,0,0,0,
6.38224E+17,-26.43428,5.447122,18.02409,-29.29186,13.08629,29.15779,-56.89731,-0.4675641,6.420498,-71.33459,-8.521038,-36.90935,0,0,0,-77.46355,-90.79753,-12.5348,-124.1942,-110.2518,-87.38053,0.001067912,-0.1257102,0.09433498,0,0.3,0,0,0,0,
6.38224E+17,-24.361,5.400365,16.59991,-26.87477,13.89198,27.83937,-56.89731,-0.4675641,6.420498,-71.33459,-8.521038,-36.90935,0,0,0,-70.4748,-91.89219,-12.70764,-124.1942,-110.2518,-87.38053,0.001067912,-0.1257102,0.09433498,0,0.3,0,0,0,0,
6.38224E+17,-23.23012,5.353609,15.87614,-25.48311,14.25821,27.25341,-56.89731,-0.4675641,6.420498,-71.33459,-8.521038,-36.90935,0,0,0,-66.7554,-92.47156,-12.82384,-124.1942,-110.2518,-87.38053,0.001067912,-0.1257102,0.09433498,0,0.3,0,0,0,0,
6.38224E+17,-20.70921,5.189961,14.45196,-22.40681,14.91741,25.935,-56.89731,-0.4675641,6.420498,-71.33459,-8.521038,-36.90935,0,0,0,-58.7312,-93.71785,-12.99789,-124.1942,-110.2518,-87.38053,0.001067912,-0.1257102,0.09433498,0,0.3,0,0,0,0,
6.38224E+17,-17.81133,4.979557,13.30794,-18.74455,15.64987,24.98281,-56.89731,-0.4675641,6.420498,-71.33459,-8.521038,-36.83611,0,0,0,-50.02476,-94.84433,-12.64692,-124.1942,-110.2518,-87.38053,0.001067912,-0.1257102,0.09433498,0,0.3,0,0,0,0,
6.38224E+17,-16.20925,4.745775,12.91104,-16.5472,16.01609,24.61659,-56.89731,-0.4675641,6.420498,-71.33459,-8.521038,-36.83611,0,0,0,-45.41381,-95.59599,-12.12882,-124.1942,-110.2518,-87.38053,0.001067912,-0.1257102,0.09433498,0,0.3,0,0,0,0,
6.38224E+17,-13.49986,3.90416,12.58418,-11.71302,16.96828,24.39685,-56.89731,-0.4675641,6.420498,-71.33459,-8.521038,-36.83611,0,0,0,-37.8397,-97.71703,-10.73458,-124.1942,-110.2518,-87.38053,0.001067912,-0.1257102,0.09433498,0,0.3,0,0,0,0,
6.38224E+17,-11.73286,2.361199,12.58418,-6.659099,18.06696,24.39685,-56.89731,-0.4675641,6.420498,-71.33459,-8.521038,-36.90935,0,0,0,-33.00154,-101.3026,-9.450597,-124.1942,-110.2518,-87.38053,0.001067912,-0.1257102,0.09433498,0,0.3,0,0,0,0,
6.38224E+17,-11.16742,0.6078333,12.60752,-2.557369,19.31213,24.98281,-56.89731,-0.4675641,6.420498,-71.33459,-8.521038,-36.83611,0,0,0,-31.46256,-105.37,-8.976914,-124.1942,-110.2518,-87.38053,0.001067912,-0.1257102,0.09433498,0,0.3,0,0,0,0,
6.38224E+17,-11.16742,-0.2104038,12.67757,-1.092466,19.97133,25.27579,-56.89731,-0.4675641,6.420498,-71.33459,-8.521038,-36.83611,0,0,0,-31.49464,-107.2387,-8.814384,-124.1942,-110.2518,-87.38053,0.001067912,-0.1257102,0.09433498,0,0.3,0,0,0,0,
6.38224E+17,-11.37946,-1.052019,12.77096,1.031644,21.14326,26.52096,-56.89731,-0.4675641,6.420498,-71.33459,-8.521038,-36.90935,0,0,0,-32.12241,-109.1495,-8.745338,-124.1942,-110.2518,-87.38053,0.001067912,-0.1257102,0.09433498,0,0.3,0,0,0,0,
6.38224E+17,-11.77998,-1.005263,12.86434,2.569792,22.16869,29.08454,-56.89731,-0.4675641,6.420498,-71.33459,-8.521038,-36.90935,0,0,0,-33.28098,-108.9924,-8.764398,-124.1942,-110.2518,-87.38053,0.001067912,-0.1257102,0.09433498,0,0.3,0,0,0,0,
6.38224E+17,-12.03914,-1.005263,12.91104,3.009263,22.31518,30.10997,-56.89731,-0.4675641,6.420498,-71.33459,-8.521038,-36.83611,0,0,0,-34.02457,-108.9682,-8.812957,-124.1942,-110.2518,-87.38053,0.001067912,-0.1257102,0.09433498,0,0.3,0,0,0,0,
6.38224E+17,-13.0051,-1.005263,13.02777,3.741715,22.75465,32.7468,-56.89731,-0.4675641,6.420498,-71.33459,-8.594284,-36.90935,0,0,0,-36.76885,-108.9072,-9.151258,-124.1942,-110.2518,-87.38053,0.001067912,-0.1257102,0.09433498,0,0.3,0,0,0,0,
6.38224E+17,-14.34802,-1.005263,13.14451,3.595225,23.26737,34.57793,-56.89731,-0.4675641,6.420498,-71.33459,-8.521038,-36.90935,0,0,0,-40.55534,-108.8457,-9.800324,-124.1942,-110.2518,-87.38053,0.001067912,-0.1257102,0.09433498,0,0.3,0,0,0,0,
6.38224E+17,-15.92653,-1.005263,13.47137,2.643037,23.92657,36.11608,-56.89731,-0.4675641,6.420498,-71.33459,-8.521038,-36.83611,0,0,0,-45.11064,-108.6706,-10.26577,-124.1942,-110.2518,-87.38053,0.001067912,-0.1257102,0.09433498,0,0.3,0,0,0,0,
6.38224E+17,-16.77469,-1.005263,13.70484,1.837341,24.21955,36.70204,-56.89731,-0.4675641,6.420498,-71.33459,-8.521038,-36.90935,0,0,0,-47.59819,-108.5429,-10.44515,-124.1942,-110.2518,-87.38053,0.001067912,-0.1257102,0.09433498,0,0.3,0,0,0,0,
6.38224E+17,-18.82441,-1.005263,14.33522,-0.2135241,24.73227,38.02045,-56.89731,-0.4675641,6.420498,-71.33459,-8.521038,-36.83611,0,0,0,-53.67476,-108.1875,-10.90132,-124.1942,-110.2518,-87.38053,0.001067912,-0.1257102,0.09433498,0,0.3,0,0,0,0,
6.38224E+17,-21.01549,-1.005263,15.10568,-2.484124,25.17174,39.04589,-56.89731,-0.4675641,6.420498,-71.33459,-8.521038,-36.83611,0,0,0,-60.27708,-107.7319,-11.4496,-124.1942,-110.2518,-87.38053,0.001067912,-0.1257102,0.09433498,0,0.3,0,0,0,0,
6.38224E+17,-22.28772,-1.005263,15.52593,-3.949028,25.31823,39.41211,-56.89731,-0.4675641,6.420498,-71.33459,-8.521038,-36.90935,0,0,0,-64.10364,-107.4735,-11.95374,-124.1942,-110.2518,-87.38053,0.001067912,-0.1257102,0.09433498,0,0.3,0,0,0,0,
6.38224E+17,-24.92644,-1.005263,16.50652,-7.318305,25.24498,39.92483,-56.89731,-0.4675641,6.420498,-71.33459,-8.521038,-36.90935,0,0,0,-72.16034,-106.8438,-13.0815,-124.1942,-110.2518,-87.38053,0.001067912,-0.1257102,0.09433498,0,0.3,0,0,0,0,
6.38224E+17,-27.44736,-1.005263,17.62719,-10.98056,24.73227,40.07132,-56.89731,-0.4675641,6.420498,-71.33459,-8.521038,-36.90935,0,0,0,-80.06911,-106.0784,-14.193,-124.1942,-110.2518,-87.38053,0.001067912,-0.1257102,0.09433498,0,0.3,0,0,0,0,
6.38224E+17,-28.76671,-0.9818845,18.28091,-13.03143,24.43929,40.14456,-56.89731,-0.4675641,6.420498,-71.33459,-8.521038,-36.90935,0,0,0,-84.29436,-105.555,-14.80789,-124.1942,-110.2518,-87.38053,0.001067912,-0.1257102,0.09433498,0,0.3,0,0,0,0,
6.38224E+17,-31.64103,-0.9818845,20.14869,-17.42614,23.56034,40.21781,-56.89731,-0.4675641,6.420498,-71.33459,-8.521038,-36.90935,0,0,0,-94.04103,-104.1244,-15.73346,-124.1942,-110.2518,-87.38053,0.001067912,-0.1257102,0.09433498,0,0.3,0,0,0,0,
6.38224E+17,-34.04414,-0.9818845,22.1799,-21.67436,22.53491,40.29105,-56.89731,-0.4675641,6.420498,-71.33459,-8.521038,-36.90935,0,0,0,-102.8255,-102.4176,-16.15804,-124.1942,-110.2518,-87.38053,0.001067912,-0.1257102,0.09433498,0,0.3,0,0,0,0,
6.38224E+17,-36.14098,-0.9818845,24.37455,-25.6296,21.2165,40.43755,-56.89731,-0.4675641,6.420498,-71.33459,-8.521038,-36.90935,0,0,0,-111.0922,-100.3993,-16.23326,-124.1942,-110.2518,-87.38053,0.001067912,-0.1257102,0.09433498,0,0.3,0,0,0,0,
6.38224E+17,-37.29542,-0.9818845,25.70534,-27.46073,20.55729,40.80377,-56.89731,-0.4675641,6.420498,-71.33459,-8.521038,-36.90935,0,0,0,-115.8347,-99.08836,-16.27003,-124.1942,-110.2518,-87.38053,0.001067912,-0.1257102,0.09433498,0,0.3,0,0,0,0,
6.38224E+17,-39.58073,-0.9818845,28.43697,-31.04974,19.01915,41.53622,-56.89731,-0.4675641,6.420498,-71.33459,-8.521038,-36.90935,0,0,0,-125.4135,-96.19531,-16.64725,-124.1942,-110.2518,-87.38053,0.001067912,-0.1257102,0.09433498,0,0.3,0,0,0,0,
6.38224E+17,-41.60689,-0.9585064,31.09856,-34.34578,17.481,42.26867,-56.89731,-0.4675641,6.420498,-71.33459,-8.521038,-36.90935,0,0,0,-134.2695,-93.06567,-17.15525,-124.1942,-110.2518,-87.38053,0.001067912,-0.1257102,0.09433498,0,0.3,0,0,0,0,
6.38224E+17,-42.57285,-0.9585064,32.54609,-36.03041,16.6753,42.70815,-56.89731,-0.4675641,6.420498,-71.40782,-8.521038,-36.90935,0,0,0,-138.7359,-91.2893,-17.33231,-124.1942,-110.2518,-87.38053,0.001067912,-0.1257102,0.09433498,0,0.3,0,0,0,0,
6.38224E+17,-44.29272,-0.9585064,35.67462,-39.54618,15.2104,43.66033,-56.89731,-0.4675641,6.420498,-71.33459,-8.521038,-36.90935,0,0,0,-147.4153,-87.20651,-17.24956,-124.1942,-110.2518,-87.38053,0.001067912,-0.1257102,0.09433498,0,0.3,0,0,0,0,
6.38224E+17,-45.777,-0.9351282,38.52299,-42.62248,13.96523,44.83226,-56.89731,-0.4675641,6.420498,-71.33459,-8.521038,-36.90935,0,0,0,-155.0692,-83.1538,-17.43068,-124.1942,-110.2518,-87.38053,0.001067912,-0.1257102,0.09433498,0,0.3,0,0,0,0,
6.38224E+17,-47.19061,-0.9351282,41.3947,-45.47904,12.72006,45.7112,-56.89731,-0.4675641,6.420498,-71.33459,-8.521038,-36.83611,0,0,0,-162.503,-78.86179,-17.82103,-124.1942,-110.2518,-87.38053,0.001067912,-0.1257102,0.09433498,0,0.3,0,0,0,0,
6.38224E+17,-47.82672,-0.9117499,42.79554,-46.87069,12.1341,46.00418,-56.89731,-0.4675641,6.420498,-71.33459,-8.521038,-36.90935,0,0,0,-165.9578,-76.62185,-18.00966,-124.1942,-110.2518,-87.38053,0.001067912,-0.1257102,0.09433498,0,0.3,0,0,0,0,
6.38224E+17,-49.00472,-0.8649935,45.71395,-49.58077,11.18191,46.3704,-56.89731,-0.4675641,6.420498,-71.33459,-8.521038,-36.83611,0,0,0,-172.6862,-71.77355,-18.26113,-124.1942,-110.2518,-87.38053,0.001067912,-0.1257102,0.09433498,0,0.3,0,0,0,0,
6.38224E+17,-50.11204,-0.6078333,48.49227,-52.14435,10.37621,46.5169,-56.89731,-0.4675641,6.420498,-71.33459,-8.521038,-36.83611,0,0,0,-178.9373,-66.4385,-18.79908,-124.1942,-110.2518,-87.38053,0.001067912,-0.1257102,0.09433498,0,0.3,0,0,0,0,
6.38224E+17,-50.55968,-0.4208077,49.70633,-53.31627,10.00999,46.5169,-56.89731,-0.4675641,6.420498,-71.33459,-8.521038,-36.83611,0,0,0,-181.532,-63.86756,-19.02388,-124.1942,-110.2518,-87.38053,0.001067912,-0.1257102,0.09433498,0,0.3,0,0,0,0,
6.38224E+17,-51.40784,-0.07013461,52.43796,-55.9531,9.277537,46.44365,-56.89731,-0.4675641,6.420498,-71.33459,-8.521038,-36.90935,0,0,0,-186.8472,-58.10608,-19.23363,-124.1942,-110.2518,-87.38053,0.001067912,-0.1257102,0.09433498,0,0.3,0,0,0,0,
6.38224E+17,-52.02039,0.1402692,55.0762,-58.44344,8.911312,46.07742,-56.89731,-0.4675641,6.420498,-71.33459,-8.521038,-36.90935,0,0,0,-191.2917,-52.66462,-19.00618,-124.1942,-110.2518,-87.38053,0.001067912,-0.1257102,0.09433498,0,0.3,0,0,0,0,
6.38224E+17,-52.256,0.2104038,56.22021,-59.54211,8.911312,45.63795,-56.89731,-0.4675641,6.420498,-71.33459,-8.521038,-36.90935,0,0,0,-193.0918,-50.30323,-18.87467,-124.1942,-110.2518,-87.38053,0.001067912,-0.1257102,0.09433498,0,0.3,0,0,0,0,
6.38224E+17,-52.58583,0.4208077,58.29812,-61.66622,8.911312,44.24629,-56.89731,-0.4675641,6.420498,-71.33459,-8.521038,-36.90935,0,0,0,-196.0243,-45.74599,-18.40131,-124.1942,-110.2518,-87.38053,0.001067912,-0.1257102,0.09433498,0,0.3,0,0,0,0,
6.38224E+17,-52.82143,0.5376987,60.30599,-64.08331,9.057802,42.41516,-56.89731,-0.4675641,6.420498,-71.33459,-8.521038,-36.83611,0,0,0,-198.5381,-41.45589,-17.76841,-124.1942,-110.2518,-87.38053,0.001067912,-0.1257102,0.09433498,0,0.3,0,0,0,0,
6.38224E+17,-52.91567,0.7247244,61.14649,-65.32848,9.277537,41.24324,-56.89731,-0.4675641,6.420498,-71.33459,-8.521038,-36.90935,0,0,0,-199.5447,-39.31429,-17.52128,-124.1942,-110.2518,-87.38053,0.001067912,-0.1257102,0.09433498,0,0.3,0,0,0,0,
6.38224E+17,-53.12771,1.706609,62.26716,-67.81882,9.717009,38.24019,-56.89731,-0.4675641,6.420498,-71.33459,-8.521038,-36.83611,0,0,0,-201.0517,-34.73299,-17.54809,-124.1942,-110.2518,-87.38053,0.001067912,-0.1257102,0.09433498,0,0.3,0,0,0,0,
6.38224E+17,-53.33975,2.898897,63.45787,-70.23591,10.15648,34.43144,-56.89731,-0.4675641,6.420498,-71.33459,-8.521038,-36.83611,0,0,0,-202.533,-29.49421,-17.60503,-124.1942,-110.2518,-87.38053,0.001067912,-0.1257102,0.09433498,0,0.3,0,0,0,0,
6.38224E+17,-53.43399,4.278211,64.67193,-72.79948,10.44946,30.4762,-56.89731,-0.4675641,6.420498,-71.33459,-8.521038,-36.83611,0,0,0,-203.6118,-23.74939,-17.32186,-124.1942,-110.2518,-87.38053,0.001067912,-0.1257102,0.09433498,0,0.3,0,0,0,0,
6.38224E+17,-53.43399,5.096448,65.30231,-74.04465,10.37621,28.71832,-56.89731,-0.4675641,6.420498,-71.33459,-8.594284,-36.90935,0,0,0,-203.9851,-20.52189,-17.04501,-124.1942,-110.2518,-87.38053,0.001067912,-0.1257102,0.09433498,0,0.3,0,0,0,0,
6.38224E+17,-53.38687,7.083596,66.72649,-76.242,9.8635,26.37447,-56.89731,-0.4675641,6.420498,-71.33459,-8.521038,-36.83611,0,0,0,-204.5483,-12.895,-16.36632,-124.1942,-110.2518,-87.38053,0.001067912,-0.1257102,0.09433498,0,0.3,0,0,0,0,
6.38224E+17,-53.05703,9.187634,68.22071,-78.58585,9.131048,25.1293,-56.89731,-0.4675641,6.420498,-71.33459,-8.521038,-36.90935,0,0,0,-204.1809,-4.835399,-14.80706,-124.1942,-110.2518,-87.38053,0.001067912,-0.1257102,0.09433498,0,0.3,0,0,0,0,
6.38224E+17,-52.82143,10.21628,68.711,-79.75778,8.691576,24.76308,-56.89731,-0.4675641,6.420498,-71.33459,-8.521038,-36.90935,0,0,0,-203.5601,-1.414164,-13.95947,-124.1942,-110.2518,-87.38053,0.001067912,-0.1257102,0.09433498,0,0.3,0,0,0,0,
6.38224E+17,-52.1382,13.09179,69.50481,-82.17487,7.88588,24.17712,-56.89731,-0.4675641,6.420498,-71.33459,-8.521038,-36.83611,0,0,0,-201.1575,6.865681,-11.96838,-124.1942,-110.2518,-87.38053,0.001067912,-0.1257102,0.09433498,0,0.3,0,0,0,0,
6.38224E+17,-51.31359,16.4115,69.71494,-84.37222,6.787202,23.73765,-56.89731,-0.4675641,6.420498,-71.33459,-8.594284,-36.83611,0,0,0,-197.4837,14.79464,-10.21265,-124.1942,-110.2518,-87.38053,0.001067912,-0.1257102,0.09433498,0,0.3,0,0,0,0,
6.38224E+17,-50.2534,19.96499,69.69159,-86.93581,5.615279,22.56572,-56.89731,-0.4675641,6.420498,-71.33459,-8.521038,-36.83611,0,0,0,-192.5248,22.59957,-8.24809,-124.1942,-110.2518,-87.38053,0.001067912,-0.1257102,0.09433498,0,0.3,0,0,0,0,
6.38224E+17,-49.61728,21.92875,69.5982,-88.25421,4.956073,21.90652,-56.89731,-0.4675641,6.420498,-71.33459,-8.521038,-36.83611,0,0,0,-189.4333,26.664,-7.228072,-124.1942,-110.2518,-87.38053,0.001067912,-0.1257102,0.09433498,0,0.3,0,0,0,0,
6.38224E+17,-48.41572,25.50562,68.7577,-90.67131,3.344679,20.95433,-56.89731,-0.4675641,6.420498,-71.33459,-8.521038,-36.83611,0,0,0,-182.9888,32.45604,-5.974729,-124.1942,-110.2518,-87.38053,0.001067912,-0.1257102,0.09433498,0,0.3,0,0,0,0,
6.38224E+17,-47.23772,28.96559,67.35686,-91.84323,1.367059,20.14863,-56.89731,-0.4675641,6.420498,-71.33459,-8.521038,-36.83611,0,0,0,-176.0122,36.59085,-5.576042,-124.1942,-110.2518,-87.38053,0.001067912,-0.1257102,0.09433498,0,0.3,0,0,0,0,
6.38224E+17,-46.57804,30.6722,66.44632,-91.55025,0.04864649,20.07539,-56.89731,-0.4675641,6.420498,-71.33459,-8.521038,-36.83611,0,0,0,-172.0881,38.08752,-5.489369,-124.1942,-110.2518,-87.38053,0.001067912,-0.1257102,0.09433498,0,0.3,0,0,0,0,
6.38224E+17,-45.35292,33.99191,64.55519,-90.08535,-2.58818,20.14863,-56.89731,-0.4675641,6.420498,-71.33459,-8.521038,-36.90935,0,0,0,-164.3288,40.61007,-6.033246,-124.1942,-110.2518,-87.38053,0.001067912,-0.1257102,0.09433498,0,0.3,0,0,0,0,
6.38224E+17,-44.15137,36.91418,62.92088,-88.18098,-5.298251,20.14863,-56.89731,-0.4675641,6.420498,-71.33459,-8.521038,-36.83611,0,0,0,-156.9691,42.73878,-6.660803,-124.1942,-110.2518,-87.38053,0.001067912,-0.1257102,0.09433498,0,0.3,0,0,0,0,
6.38224E+17,-43.56237,38.27012,62.05703,-87.15554,-6.689909,20.22188,-56.89731,-0.4675641,6.420498,-71.33459,-8.521038,-36.90935,0,0,0,-153.332,43.45614,-7.123669,-124.1942,-110.2518,-87.38053,0.001067912,-0.1257102,0.09433498,0,0.3,0,0,0,0,
6.38224E+17,-42.38437,40.91186,60.07252,-84.6652,-9.25349,20.22188,-56.89731,-0.4675641,6.420498,-71.33459,-8.521038,-36.83611,0,0,0,-145.8375,44.15175,-8.549995,-124.1942,-110.2518,-87.38053,0.001067912,-0.1257102,0.09433498,0,0.3,0,0,0,0,
6.38224E+17,-41.27705,42.96914,58.81176,-81.66216,-11.67058,20.22188,-56.89731,-0.4675641,6.420498,-71.33459,-8.521038,-36.83611,0,0,0,-139.627,45.18645,-9.287513,-124.1942,-110.2518,-87.38053,0.001067912,-0.1257102,0.09433498,0,0.3,0,0,0,0,
6.38224E+17,-40.21685,44.86277,57.5977,-78.87884,-13.72145,20.44161,-56.89731,-0.4675641,6.420498,-71.33459,-8.521038,-36.83611,0,0,0,-133.725,45.95956,-10.20219,-124.1942,-110.2518,-87.38053,0.001067912,-0.1257102,0.09433498,0,0.3,0,0,0,0,
6.38224E+17,-39.69854,45.75114,57.08406,-77.41393,-14.60039,20.5881,-56.89731,-0.4675641,6.420498,-71.33459,-8.521038,-36.90935,0,0,0,-130.938,46.40727,-10.6262,-124.1942,-110.2518,-87.38053,0.001067912,-0.1257102,0.09433498,0,0.3,0,0,0,0,
6.38224E+17,-38.7797,47.36424,56.54708,-74.99684,-16.65125,20.88108,-56.89731,-0.4675641,6.420498,-71.33459,-8.521038,-36.83611,0,0,0,-126.2562,47.94279,-11.20492,-124.1942,-110.2518,-87.38053,0.001067912,-0.1257102,0.09433498,0,0.3,0,0,0,0,
6.38224E+17,-37.97866,48.88382,56.15017,-73.16571,-18.40914,21.61354,-56.89731,-0.4675641,6.420498,-71.33459,-8.521038,-36.83611,0,0,0,-122.1115,49.53456,-11.93434,-124.1942,-110.2518,-87.38053,0.001067912,-0.1257102,0.09433498,0,0.3,0,0,0,0,
6.38224E+17,-37.62526,49.58517,56.03344,-72.43327,-19.21483,22.05301,-56.89731,-0.4675641,6.420498,-71.33459,-8.521038,-36.83611,0,0,0,-120.2971,50.37492,-12.28335,-124.1942,-110.2518,-87.38053,0.001067912,-0.1257102,0.09433498,0,0.3,0,0,0,0,
6.38224E+17,-36.91846,50.84759,56.05679,-71.11485,-20.67974,22.8587,-56.89731,-0.4675641,6.420498,-71.33459,-8.521038,-36.90935,0,0,0,-117.0248,52.30005,-12.59213,-124.1942,-110.2518,-87.38053,0.001067912,-0.1257102,0.09433498,0,0.3,0,0,0,0,
6.38224E+17,-36.21166,52.15677,56.33695,-70.16266,-21.70517,23.6644,-56.89731,-0.4675641,6.420498,-71.33459,-8.521038,-36.90935,0,0,0,-113.9001,54.73854,-12.79171,-124.1942,-110.2518,-87.38053,0.001067912,-0.1257102,0.09433498,0,0.3,0,0,0,0,
6.38224E+17,-35.85826,52.81136,56.66381,-69.79643,-22.14464,24.17712,-56.89731,-0.4675641,6.420498,-71.33459,-8.521038,-36.90935,0,0,0,-112.4765,56.30068,-12.73121,-124.1942,-110.2518,-87.38053,0.001067912,-0.1257102,0.09433498,0,0.3,0,0,0,0,
6.38224E+17,-35.05722,54.14392,57.83118,-69.5767,-23.09683,25.64202,-56.89731,-0.4675641,6.420498,-71.33459,-8.521038,-36.90935,0,0,0,-109.7027,60.43132,-12.01091,-124.1942,-110.2518,-87.38053,0.001067912,-0.1257102,0.09433498,0,0.3,0,0,0,0,
6.38224E+17,-34.25618,55.47648,59.46548,-70.08942,-24.19551,27.47315,-56.89731,-0.4675641,6.420498,-71.33459,-8.521038,-36.83611,0,0,0,-107.1935,65.46677,-10.95173,-124.1942,-110.2518,-87.38053,0.001067912,-0.1257102,0.09433498,0,0.3,0,0,0,0,
6.38224E+17,-33.85566,56.06093,60.39938,-70.52889,-24.78147,28.42534,-56.89731,-0.4675641,6.420498,-71.33459,-8.521038,-36.83611,0,0,0,-106.0708,68.11298,-10.23586,-124.1942,-110.2518,-87.38053,0.001067912,-0.1257102,0.09433498,0,0.3,0,0,0,0,
6.38224E+17,-33.05463,57.32335,62.40724,-72.06703,-25.95339,30.76918,-56.89731,-0.4675641,6.420498,-71.33459,-8.521038,-36.83611,0,0,0,-103.7306,73.82922,-8.951834,-124.1942,-110.2518,-87.38053,0.001067912,-0.1257102,0.09433498,0,0.3,0,0,0,0,
6.38224E+17,-32.20647,58.51564,64.57854,-74.26439,-26.97882,32.89329,-56.89731,-0.4675641,6.420498,-71.33459,-8.521038,-36.90935,0,0,0,-101.3086,79.82497,-7.514949,-124.1942,-110.2518,-87.38053,0.001067912,-0.1257102,0.09433498,0,0.3,0,0,0,0,
6.38224E+17,-31.21695,59.61442,66.60975,-76.97446,-27.93101,35.23714,-56.89731,-0.4675641,6.420498,-71.33459,-8.521038,-36.83611,0,0,0,-98.39144,85.44433,-5.994825,-124.1942,-110.2518,-87.38053,0.001067912,-0.1257102,0.09433498,0,0.3,0,0,0,0,
6.38224E+17,-30.67507,60.10536,67.45025,-78.29288,-28.37048,36.33582,-56.89731,-0.4675641,6.420498,-71.33459,-8.521038,-36.83611,0,0,0,-96.73692,87.81911,-5.26485,-124.1942,-110.2518,-87.38053,0.001067912,-0.1257102,0.09433498,0,0.3,0,0,0,0,
6.38224E+17,-29.33215,61.20414,68.94447,-81.00294,-29.61565,38.60641,-56.89731,-0.4675641,6.420498,-71.33459,-8.521038,-36.90935,0,0,0,-92.429,92.30115,-3.859812,-124.1942,-110.2518,-87.38053,0.001067912,-0.1257102,0.09433498,0,0.3,0,0,0,0,
6.38224E+17,-27.77719,62.44318,69.83167,-82.90732,-30.86081,40.43755,-56.89731,-0.4675641,6.420498,-71.33459,-8.521038,-36.83611,0,0,0,-87.0855,95.59544,-3.018166,-124.1942,-110.2518,-87.38053,0.001067912,-0.1257102,0.09433498,0,0.3,0,0,0,0,
6.38224E+17,-26.85836,63.12115,70.11184,-83.71302,-31.44678,41.09675,-56.89731,-0.4675641,6.420498,-71.33459,-8.521038,-36.90935,0,0,0,-83.88999,96.92976,-2.695498,-124.1942,-110.2518,-87.38053,0.001067912,-0.1257102,0.09433498,0,0.3,0,0,0,0,
6.38224E+17,-24.7144,64.54722,70.32196,-84.6652,-32.98492,42.12218,-56.89731,-0.4675641,6.420498,-71.33459,-8.521038,-36.83611,0,0,0,-76.45784,98.85349,-2.228717,-124.1942,-110.2518,-87.38053,0.001067912,-0.1257102,0.09433498,0,0.3,0,0,0,0,
6.38224E+17,-22.2406,65.87978,70.36866,-85.17792,-35.03579,42.6349,-56.89731,-0.4675641,6.420498,-71.33459,-8.521038,-36.90935,0,0,0,-68.16451,100.256,-1.655728,-124.1942,-110.2518,-87.38053,0.001067912,-0.1257102,0.09433498,0,0.3,0,0,0,0,
6.38224E+17,-20.96836,66.46423,70.36866,-85.25117,-36.13447,42.78139,-56.89731,-0.4675641,6.420498,-71.33459,-8.521038,-36.83611,0,0,0,-64.00134,100.8056,-1.345277,-124.1942,-110.2518,-87.38053,0.001067912,-0.1257102,0.09433498,0,0.3,0,0,0,0,
6.38224E+17,-18.09405,67.63314,70.25192,-85.17792,-38.91778,42.85464,-56.89731,-0.4675641,6.420498,-71.33459,-8.521038,-36.90935,0,0,0,-54.73986,101.6106,-0.8142574,-124.1942,-110.2518,-87.38053,0.001067912,-0.1257102,0.09433498,0,0.3,0,0,0,0,
6.38224E+17,-15.21973,68.47475,69.87837,-84.8117,-41.92084,42.85464,-56.89731,-0.4675641,6.420498,-71.33459,-8.521038,-36.83611,0,0,0,-45.71511,101.5253,-0.3192088,-124.1942,-110.2518,-87.38053,0.001067912,-0.1257102,0.09433498,0,0.3,0,0,0,0,
6.38224E+17,-13.66478,68.84881,69.45811,-84.15249,-43.60548,42.56165,-56.89731,-0.4675641,6.420498,-71.33459,-8.521038,-36.90935,0,0,0,-40.86678,100.925,-0.2587251,-124.1942,-110.2518,-87.38053,0.001067912,-0.1257102,0.09433498,0,0.3,0,0,0,0,
6.38224E+17,-10.46062,69.36313,67.98724,-80.27049,-47.26773,40.3643,-56.89731,-0.4675641,6.420498,-71.33459,-8.521038,-36.83611,0,0,0,-30.97903,98.16199,-0.5586003,-124.1942,-110.2518,-87.38053,0.001067912,-0.1257102,0.09433498,0,0.3,0,0,0,0,
6.38224E+17,-7.633427,69.45664,65.81594,-71.1881,-50.71025,33.47925,-56.89731,-0.4675641,6.420498,-71.33459,-8.521038,-36.83611,0,0,0,-22.37481,93.59047,-1.401604,-124.1942,-110.2518,-87.38053,0.001067912,-0.1257102,0.09433498,0,0.3,0,0,0,0,
6.38224E+17,-5.159632,69.22286,63.38783,-56.97853,-52.76112,20.29512,-56.89731,-0.4675641,6.420498,-71.33459,-8.594284,-36.83611,0,0,0,-14.97588,88.29388,-2.498212,-124.1942,-110.2518,-87.38053,0.001067912,-0.1257102,0.09433498,0,0.3,0,0,0,0,
6.38224E+17,-4.005194,68.94232,62.08038,-48.77507,-53.20059,12.45789,-56.89731,-0.4675641,6.420498,-71.33459,-8.521038,-36.90935,0,0,0,-11.57659,85.35599,-3.01235,-124.1942,-110.2518,-87.38053,0.001067912,-0.1257102,0.09433498,0,0.3,0,0,0,0,
6.38224E+17,-1.979037,67.98382,59.25536,-32.14842,-52.61463,-2.85035,-56.89731,-0.4675641,6.420498,-71.33459,-8.521038,-36.83611,0,0,0,-5.684164,78.80564,-3.85124,-124.1942,-110.2518,-87.38053,0.001067912,-0.1257102,0.09433498,0,0.3,0,0,0,0,
6.38224E+17,-0.5654391,66.74477,56.78055,-18.96429,-50.19754,-13.39765,-56.89731,-0.4675641,6.420498,-71.33459,-8.521038,-36.83611,0,0,0,-1.620505,72.81057,-4.149992,-124.1942,-110.2518,-87.38053,0.001067912,-0.1257102,0.09433498,0,0.3,0,0,0,0,
6.38224E+17,0.07067989,66.02005,55.5198,-13.54414,-48.5129,-17.13316,-56.89731,-0.4675641,6.420498,-71.33459,-8.521038,-36.83611,0,0,0,0.2024566,69.69796,-4.231099,-124.1942,-110.2518,-87.38053,0.001067912,-0.1257102,0.09433498,0,0.3,0,0,0,0,
6.38224E+17,1.272238,64.45371,52.97495,-5.560421,-44.92389,-21.16164,-56.89731,-0.4675641,6.420498,-71.33459,-8.521038,-36.83611,0,0,0,3.640586,63.36473,-4.421594,-124.1942,-110.2518,-87.38053,0.001067912,-0.1257102,0.09433498,0,0.3,0,0,0,0,
6.38224E+17,2.473796,62.65359,50.61687,0.1527017,-40.82215,-22.69979,-56.89731,-0.4675641,6.420498,-71.33459,-8.521038,-36.90935,0,0,0,7.092709,57.18655,-4.177306,-124.1942,-110.2518,-87.38053,0.001067912,-0.1257102,0.09433498,0,0.3,0,0,0,0,
6.38224E+17,3.015675,61.78859,49.61294,2.569792,-38.69805,-22.62654,-56.89731,-0.4675641,6.420498,-71.33459,-8.521038,-36.90935,0,0,0,8.659925,54.45541,-3.96926,-124.1942,-110.2518,-87.38053,0.001067912,-0.1257102,0.09433498,0,0.3,0,0,0,0,
6.38224E+17,3.840273,60.12874,47.69846,6.818012,-34.44983,-21.0884,-56.89731,-0.4675641,6.420498,-71.33459,-8.521038,-36.90935,0,0,0,11.05378,49.23515,-3.677832,-124.1942,-110.2518,-87.38053,0.001067912,-0.1257102,0.09433498,0,0.3,0,0,0,0,
6.38224E+17,4.335033,58.18835,45.66725,10.33378,-30.27485,-17.42614,-56.89731,-0.4675641,6.420498,-71.33459,-8.521038,-36.83611,0,0,0,12.52326,43.48069,-3.147004,-124.1942,-110.2518,-87.38053,0.001067912,-0.1257102,0.09433498,0,0.3,0,0,0,0,
6.38224E+17,4.429273,56.10769,43.65939,12.89736,-26.24637,-12.51871,-56.89731,-0.4675641,6.420498,-71.33459,-8.521038,-36.83611,0,0,0,12.85245,37.56917,-2.425761,-124.1942,-110.2518,-87.38053,0.001067912,-0.1257102,0.09433498,0,0.3,0,0,0,0,
6.38224E+17,4.405713,55.03229,42.60876,13.92279,-24.12226,-9.735395,-56.89731,-0.4675641,6.420498,-71.33459,-8.521038,-36.83611,0,0,0,12.80573,34.48227,-2.141325,-124.1942,-110.2518,-87.38053,0.001067912,-0.1257102,0.09433498,0,0.3,0,0,0,0,
6.38224E+17,4.264353,52.74123,40.32073,15.75392,-19.6543,-3.582802,-56.89731,-0.4675641,6.420498,-71.33459,-8.521038,-36.83611,0,0,0,12.41921,27.81389,-1.793965,-124.1942,-110.2518,-87.38053,0.001067912,-0.1257102,0.09433498,0,0.3,0,0,0,0,
6.38224E+17,4.075873,50.33327,38.07939,17.36532,-15.33284,2.643037,-56.89731,-0.4675641,6.420498,-71.33459,-8.521038,-36.83611,0,0,0,11.89581,21.0315,-1.40922,-124.1942,-110.2518,-87.38053,0.001067912,-0.1257102,0.09433498,0,0.3,0,0,0,0,
6.38224E+17,3.981634,49.09423,36.93538,18.17101,-12.91575,5.93907,-56.89731,-0.4675641,6.420498,-71.33459,-8.521038,-36.90935,0,0,0,11.62729,17.54576,-1.302465,-124.1942,-110.2518,-87.38053,0.001067912,-0.1257102,0.09433498,0,0.3,0,0,0,0,
6.38224E+17,3.934513,47.22397,34.95086,19.63592,-8.447793,11.87193,-56.89731,-0.4675641,6.420498,-71.33459,-8.521038,-36.90935,0,0,0,11.45584,11.93129,-1.788238,-124.1942,-110.2518,-87.38053,0.001067912,-0.1257102,0.09433498,0,0.3,0,0,0,0,
6.38224E+17,3.958073,45.86803,33.40994,21.3938,-4.565799,16.99909,-56.89731,-0.4675641,6.420498,-71.33459,-8.447793,-36.83611,0,0,0,11.47767,7.746124,-2.467308,-124.1942,-110.2518,-87.38053,0.001067912,-0.1257102,0.09433498,0,0.3,0,0,0,0,
6.38224E+17,3.958073,45.42385,32.77956,22.1995,-3.174141,18.97671,-56.89731,-0.4675641,6.420498,-71.33459,-8.521038,-36.83611,0,0,0,11.44386,6.22232,-2.956056,-124.1942,-110.2518,-87.38053,0.001067912,-0.1257102,0.09433498,0,0.3,0,0,0,0,
6.38224E+17,4.028753,44.93291,31.47211,23.73765,-0.6838052,22.41923,-56.89731,-0.4675641,6.420498,-71.33459,-8.594284,-36.90935,0,0,0,11.52377,3.798744,-4.732435,-124.1942,-110.2518,-87.38053,0.001067912,-0.1257102,0.09433498,0,0.3,0,0,0,0,
6.38224E+17,4.075873,44.86277,30.09463,24.61659,1.000834,24.61659,-56.89731,-0.4675641,6.420498,-71.33459,-8.521038,-36.83611,0,0,0,11.47075,2.042365,-7.37428,-124.1942,-110.2518,-87.38053,0.001067912,-0.1257102,0.09433498,0,0.3,0,0,0,0,
6.38224E+17,4.335033,44.86277,28.62375,25.1293,2.099511,25.935,-56.89731,-0.4675641,6.420498,-71.33459,-8.521038,-36.83611,0,0,0,11.97323,0.3640178,-10.40283,-124.1942,-110.2518,-87.38053,0.001067912,-0.1257102,0.09433498,0,0.3,0,0,0,0,
6.38224E+17,4.594193,44.86277,27.82994,25.34904,2.538982,26.30123,-56.89731,-0.4675641,6.420498,-71.33459,-8.521038,-36.90935,0,0,0,12.55715,-0.5097772,-12.08116,-124.1942,-110.2518,-87.38053,0.001067912,-0.1257102,0.09433498,0,0.3,0,0,0,0,
6.38224E+17,5.206751,44.93291,26.24233,25.78851,3.417924,26.81394,-56.89731,-0.4675641,6.420498,-71.33459,-8.521038,-36.83611,0,0,0,13.91797,-2.07367,-15.61661,-124.1942,-110.2518,-87.38053,0.001067912,-0.1257102,0.09433498,0,0.3,0,0,0,0,
6.38224E+17,5.86643,45.33034,25.02827,26.15474,4.443357,27.03368,-56.89731,-0.4675641,6.420498,-71.33459,-8.521038,-36.83611,0,0,0,15.34814,-2.643565,-18.97317,-124.1942,-110.2518,-87.38053,0.001067912,-0.1257102,0.09433498,0,0.3,0,0,0,0,
6.38224E+17,6.21983,45.70439,24.58467,26.22798,4.882828,27.10692,-56.89731,-0.4675641,6.420498,-71.33459,-8.521038,-36.83611,0,0,0,16.10037,-2.466726,-20.61979,-124.1942,-110.2518,-87.38053,0.001067912,-0.1257102,0.09433498,0,0.3,0,0,0,0,
6.38224E+17,6.596789,46.92005,23.88425,26.37447,5.395544,26.59421,-56.89731,-0.4675641,6.420498,-71.33459,-8.521038,-36.90935,0,0,0,16.66615,-1.181585,-24.2379,-124.1942,-110.2518,-87.38053,0.001067912,-0.1257102,0.09433498,0,0.3,0,0,0,0,
6.38224E+17,6.667469,48.62666,23.41731,26.15474,5.102563,25.56878,-56.89731,-0.4675641,6.420498,-71.33459,-8.521038,-36.83611,0,0,0,16.38685,1.051761,-28.16852,-124.1942,-110.2518,-87.38053,0.001067912,-0.1257102,0.09433498,0,0.3,0,0,0,0,
6.38224E+17,6.667469,49.60855,23.32392,25.86176,4.809582,25.05606,-56.89731,-0.4675641,6.420498,-71.33459,-8.521038,-36.90935,0,0,0,16.16309,2.46123,-30.08275,-124.1942,-110.2518,-87.38053,0.001067912,-0.1257102,0.09433498,0,0.3,0,0,0,0,
6.38224E+17,6.502549,51.73597,23.30057,25.27579,4.003886,23.95738,-56.89731,-0.4675641,6.420498,-71.33459,-8.521038,-36.90935,0,0,0,15.32567,5.577486,-33.89155,-124.1942,-110.2518,-87.38053,0.001067912,-0.1257102,0.09433498,0,0.3,0,0,0,0,
6.38224E+17,6.00779,53.88676,23.37061,24.25036,2.978453,22.27274,-56.89731,-0.4675641,6.420498,-71.33459,-8.521038,-36.90935,0,0,0,13.76235,8.667563,-37.58107,-124.1942,-110.2518,-87.38053,0.001067912,-0.1257102,0.09433498,0,0.3,0,0,0,0,
6.38224E+17,5.065392,56.08431,23.53404,22.78546,1.51355,20.51486,-56.89731,-0.4675641,6.420498,-71.33459,-8.521038,-36.83611,0,0,0,11.27068,11.75342,-41.19707,-124.1942,-110.2518,-87.38053,0.001067912,-0.1257102,0.09433498,0,0.3,0,0,0,0,
6.38224E+17,4.523513,57.11295,23.55739,21.83327,0.7810982,19.63592,-56.89731,-0.4675641,6.420498,-71.33459,-8.521038,-36.83611,0,0,0,9.913941,13.09304,-43.0389,-124.1942,-110.2518,-87.38053,0.001067912,-0.1257102,0.09433498,0,0.3,0,0,0,0,
6.38224E+17,3.651794,58.72605,23.60409,19.85565,-0.8302955,18.17101,-56.89731,-0.4675641,6.420498,-71.33459,-8.521038,-36.83611,0,0,0,7.810081,15.1304,-45.97765,-124.1942,-110.2518,-87.38053,0.001067912,-0.1257102,0.09433498,0,0.3,0,0,0,0,
6.38224E+17,2.355996,59.94172,23.60409,18.02452,-2.221954,17.07234,-56.89731,-0.4675641,6.420498,-71.33459,-8.521038,-36.83611,0,0,0,4.940712,16.57344,-48.26389,-124.1942,-110.2518,-87.38053,0.001067912,-0.1257102,0.09433498,0,0.3,0,0,0,0,
6.38224E+17,1.413598,60.50279,23.58074,16.92585,-2.88116,16.70611,-56.89731,-0.4675641,6.420498,-71.33459,-8.521038,-36.83611,0,0,0,2.935773,17.20022,-49.38173,-124.1942,-110.2518,-87.38053,0.001067912,-0.1257102,0.09433498,0,0.3,0,0,0,0,
6.38224E+17,-0.8010387,61.60157,23.53404,14.14253,-4.126328,16.55962,-56.89731,-0.4675641,6.420498,-71.33459,-8.521038,-36.90935,0,0,0,-1.631042,18.39453,-51.69428,-124.1942,-110.2518,-87.38053,0.001067912,-0.1257102,0.09433498,0,0.3,0,0,0,0,
6.38224E+17,-3.251275,62.53669,23.25388,11.06623,-5.15176,16.48637,-56.89731,-0.4675641,6.420498,-71.33459,-8.521038,-36.90935,0,0,0,-6.473779,19.15506,-54.38793,-124.1942,-110.2518,-87.38053,0.001067912,-0.1257102,0.09433498,0,0.3,0,0,0,0,
