zeyangz2/DNN_classification_different_people_hand/data/zeyang_right_11.csv
Timestamp,Therapist joint angle 0,Therapist joint angle 1,Therapist joint angle 2,Therapist joint angle 3,Therapist joint angle 4,Therapist joint angle 5,Patient joint angle 0,Patient joint angle 1,Patient joint angle 2,Patient joint angle 3,Patient joint angle 4,Patient joint angle 5,Virtual joint angle 0,Virtual joint angle 1,Virtual joint angle 2,Therapist position x,Therapist position y,Therapist position z,Patient position x,Patient position y,Patient position z,Virtual position x,Virtual position y,Virtual position z,Assistive Force, Obstacle Force Magnitude, Therapist Constant Force, Patient Constant Force, Recovery Factor, Assistance Level,label
6.38224E+17,0,0,0,0,0,0,0,0,0,0,0,0,0,0,0,0,0,0,0,0,0,0,0,0,0,0.3,0,0,0,0,0
6.38224E+17,22.66468,-0.9818845,-3.105186,18.39075,-62.9422,-74.85035,-16.98673,-0.4441859,-4.295897,-61.37324,-6.98289,34.65118,0,0,0,48.59372,-112.0893,-51.98155,-36.03881,-110.6591,-50.37467,0.001067912,-0.1257102,0.09433498,0,0.3,0,0,0,0,
6.38224E+17,22.66468,-0.9818845,-3.105186,18.3175,-63.01544,-74.85035,-16.98673,-0.4441859,-4.295897,-61.37324,-7.056135,34.65118,0,0,0,48.59372,-112.0893,-51.98155,-36.03881,-110.6591,-50.37467,0.001067912,-0.1257102,0.09433498,0,0.3,0,0,0,0,
6.38224E+17,22.66468,-0.9818845,-3.105186,18.3175,-62.9422,-74.85035,-16.98673,-0.4441859,-4.295897,-61.37324,-6.98289,34.65118,0,0,0,48.59372,-112.0893,-51.98155,-36.03881,-110.6591,-50.37467,0.001067912,-0.1257102,0.09433498,0,0.3,0,0,0,0,
6.38224E+17,22.66468,-0.9818845,-3.105186,18.3175,-62.9422,-74.85035,-16.98673,-0.4441859,-4.295897,-61.29999,-6.98289,34.57793,0,0,0,48.59372,-112.0893,-51.98155,-36.03881,-110.6591,-50.37467,0.001067912,-0.1257102,0.09433498,0,0.3,0,0,0,0,
6.38224E+17,22.66468,-0.9818845,-3.105186,18.3175,-62.9422,-74.85035,-16.98673,-0.4441859,-4.295897,-61.37324,-7.056135,34.65118,0,0,0,48.59372,-112.0893,-51.98155,-36.03881,-110.6591,-50.37467,0.001067912,-0.1257102,0.09433498,0,0.3,0,0,0,0,
6.38224E+17,22.66468,-0.9818845,-3.105186,18.3175,-62.9422,-74.85035,-16.98673,-0.4441859,-4.295897,-61.37324,-6.98289,34.65118,0,0,0,48.59372,-112.0893,-51.98155,-36.03881,-110.6591,-50.37467,0.001067912,-0.1257102,0.09433498,0,0.3,0,0,0,0,
6.38224E+17,22.66468,-0.9818845,-3.105186,18.39075,-62.86895,-74.85035,-16.98673,-0.4441859,-4.295897,-61.37324,-6.98289,34.65118,0,0,0,48.59372,-112.0893,-51.98155,-36.03881,-110.6591,-50.37467,0.001067912,-0.1257102,0.09433498,0,0.3,0,0,0,0,
6.38224E+17,22.66468,-0.9818845,-3.105186,18.3175,-62.9422,-74.85035,-16.98673,-0.4441859,-4.295897,-61.37324,-6.98289,34.57793,0,0,0,48.59372,-112.0893,-51.98155,-36.03881,-110.6591,-50.37467,0.001067912,-0.1257102,0.09433498,0,0.3,0,0,0,0,
6.38224E+17,22.66468,-0.9818845,-3.105186,18.3175,-62.9422,-74.85035,-16.98673,-0.4441859,-4.295897,-61.37324,-6.98289,34.65118,0,0,0,48.59372,-112.0893,-51.98155,-36.03881,-110.6591,-50.37467,0.001067912,-0.1257102,0.09433498,0,0.3,0,0,0,0,
6.38224E+17,22.66468,-0.9818845,-3.105186,18.3175,-62.9422,-74.85035,-16.98673,-0.4441859,-4.295897,-61.37324,-6.98289,34.57793,0,0,0,48.59372,-112.0893,-51.98155,-36.03881,-110.6591,-50.37467,0.001067912,-0.1257102,0.09433498,0,0.3,0,0,0,0,
6.38224E+17,22.66468,-0.9818845,-3.105186,18.3175,-62.9422,-74.85035,-16.98673,-0.4441859,-4.295897,-61.37324,-6.98289,34.57793,0,0,0,48.59372,-112.0893,-51.98155,-36.03881,-110.6591,-50.37467,0.001067912,-0.1257102,0.09433498,0,0.3,0,0,0,0,
6.38224E+17,22.66468,-0.9818845,-3.105186,18.3175,-62.9422,-74.85035,-16.98673,-0.4441859,-4.295897,-61.37324,-6.98289,34.65118,0,0,0,48.59372,-112.0893,-51.98155,-36.03881,-110.6591,-50.37467,0.001067912,-0.1257102,0.09433498,0,0.3,0,0,0,0,
6.38224E+17,22.66468,-0.9818845,-3.105186,18.3175,-63.01544,-74.85035,-16.98673,-0.4441859,-4.295897,-61.37324,-7.056135,34.65118,0,0,0,48.59372,-112.0893,-51.98155,-36.03881,-110.6591,-50.37467,0.001067912,-0.1257102,0.09433498,0,0.3,0,0,0,0,
6.38224E+17,22.66468,-0.9818845,-3.105186,18.3175,-62.9422,-74.85035,-16.98673,-0.4441859,-4.295897,-61.37324,-6.98289,34.65118,0,0,0,48.59372,-112.0893,-51.98155,-36.03881,-110.6591,-50.37467,0.001067912,-0.1257102,0.09433498,0,0.3,0,0,0,0,
6.38224E+17,22.66468,-0.9818845,-3.105186,18.3175,-62.9422,-74.85035,-16.98673,-0.4441859,-4.295897,-61.37324,-6.98289,34.65118,0,0,0,48.59372,-112.0893,-51.98155,-36.03881,-110.6591,-50.37467,0.001067912,-0.1257102,0.09433498,0,0.3,0,0,0,0,
6.38224E+17,22.66468,-0.9818845,-3.105186,18.3175,-62.9422,-74.85035,-16.98673,-0.4441859,-4.295897,-61.37324,-6.98289,34.57793,0,0,0,48.59372,-112.0893,-51.98155,-36.03881,-110.6591,-50.37467,0.001067912,-0.1257102,0.09433498,0,0.3,0,0,0,0,
6.38224E+17,22.66468,-0.9818845,-3.105186,18.3175,-62.9422,-74.85035,-16.98673,-0.4441859,-4.295897,-61.37324,-6.98289,34.57793,0,0,0,48.59372,-112.0893,-51.98155,-36.03881,-110.6591,-50.37467,0.001067912,-0.1257102,0.09433498,0,0.3,0,0,0,0,
6.38224E+17,22.66468,-0.9818845,-3.105186,18.39075,-62.9422,-74.85035,-16.98673,-0.4441859,-4.295897,-61.37324,-7.056135,34.57793,0,0,0,48.59372,-112.0893,-51.98155,-36.03881,-110.6591,-50.37467,0.001067912,-0.1257102,0.09433498,0,0.3,0,0,0,0,
6.38224E+17,22.66468,-0.9818845,-3.105186,18.39075,-62.9422,-74.85035,-16.98673,-0.4441859,-4.295897,-61.37324,-6.98289,34.57793,0,0,0,48.59372,-112.0893,-51.98155,-36.03881,-110.6591,-50.37467,0.001067912,-0.1257102,0.09433498,0,0.3,0,0,0,0,
6.38224E+17,22.66468,-0.9818845,-3.105186,18.39075,-62.9422,-74.85035,-16.98673,-0.4441859,-4.295897,-61.37324,-7.056135,34.57793,0,0,0,48.59372,-112.0893,-51.98155,-36.03881,-110.6591,-50.37467,0.001067912,-0.1257102,0.09433498,0,0.3,0,0,0,0,
6.38224E+17,22.66468,-0.9818845,-3.105186,18.39075,-62.9422,-74.85035,-16.98673,-0.4441859,-4.295897,-61.37324,-6.98289,34.65118,0,0,0,48.59372,-112.0893,-51.98155,-36.03881,-110.6591,-50.37467,0.001067912,-0.1257102,0.09433498,0,0.3,0,0,0,0,
6.38224E+17,22.66468,-0.9818845,-3.105186,18.3175,-62.86895,-74.85035,-16.98673,-0.4441859,-4.295897,-61.37324,-6.98289,34.65118,0,0,0,48.59372,-112.0893,-51.98155,-36.03881,-110.6591,-50.37467,0.001067912,-0.1257102,0.09433498,0,0.3,0,0,0,0,
6.38224E+17,22.66468,-0.9818845,-3.105186,18.3175,-62.9422,-74.85035,-16.98673,-0.4441859,-4.295897,-61.37324,-6.98289,34.65118,0,0,0,48.59372,-112.0893,-51.98155,-36.03881,-110.6591,-50.37467,0.001067912,-0.1257102,0.09433498,0,0.3,0,0,0,0,
6.38224E+17,22.66468,-0.9818845,-3.105186,18.3175,-62.9422,-74.85035,-16.98673,-0.4441859,-4.295897,-61.37324,-6.98289,34.65118,0,0,0,48.59372,-112.0893,-51.98155,-36.03881,-110.6591,-50.37467,0.001067912,-0.1257102,0.09433498,0,0.3,0,0,0,0,
6.38224E+17,22.66468,-0.9818845,-3.105186,18.3175,-62.9422,-74.85035,-16.98673,-0.4441859,-4.295897,-61.37324,-6.98289,34.65118,0,0,0,48.59372,-112.0893,-51.98155,-36.03881,-110.6591,-50.37467,0.001067912,-0.1257102,0.09433498,0,0.3,0,0,0,0,
6.38224E+17,22.66468,-0.9818845,-3.105186,18.3175,-62.9422,-74.85035,-16.98673,-0.4441859,-4.295897,-61.37324,-6.98289,34.65118,0,0,0,48.59372,-112.0893,-51.98155,-36.03881,-110.6591,-50.37467,0.001067912,-0.1257102,0.09433498,0,0.3,0,0,0,0,
6.38224E+17,22.66468,-0.9818845,-3.105186,18.39075,-62.9422,-74.85035,-16.98673,-0.4441859,-4.295897,-61.37324,-6.98289,34.65118,0,0,0,48.59372,-112.0893,-51.98155,-36.03881,-110.6591,-50.37467,0.001067912,-0.1257102,0.09433498,0,0.3,0,0,0,0,
6.38224E+17,22.66468,-0.9818845,-3.105186,18.3175,-62.9422,-74.85035,-16.98673,-0.4441859,-4.295897,-61.37324,-6.98289,34.65118,0,0,0,48.59372,-112.0893,-51.98155,-36.03881,-110.6591,-50.37467,0.001067912,-0.1257102,0.09433498,0,0.3,0,0,0,0,
6.38224E+17,22.66468,-0.9818845,-3.105186,18.39075,-62.9422,-74.85035,-16.98673,-0.4441859,-4.295897,-61.37324,-6.98289,34.57793,0,0,0,48.59372,-112.0893,-51.98155,-36.03881,-110.6591,-50.37467,0.001067912,-0.1257102,0.09433498,0,0.3,0,0,0,0,
6.38224E+17,22.66468,-0.9818845,-3.105186,18.3175,-62.9422,-74.85035,-16.98673,-0.4441859,-4.295897,-61.37324,-6.98289,34.57793,0,0,0,48.59372,-112.0893,-51.98155,-36.03881,-110.6591,-50.37467,0.001067912,-0.1257102,0.09433498,0,0.3,0,0,0,0,
6.38224E+17,22.66468,-0.9818845,-3.105186,18.3175,-62.9422,-74.85035,-16.98673,-0.4441859,-4.295897,-61.37324,-6.98289,34.65118,0,0,0,48.59372,-112.0893,-51.98155,-36.03881,-110.6591,-50.37467,0.001067912,-0.1257102,0.09433498,0,0.3,0,0,0,0,
6.38224E+17,22.66468,-0.9818845,-3.105186,18.3175,-62.9422,-74.85035,-16.98673,-0.4441859,-4.295897,-61.37324,-7.056135,34.57793,0,0,0,48.59372,-112.0893,-51.98155,-36.03881,-110.6591,-50.37467,0.001067912,-0.1257102,0.09433498,0,0.3,0,0,0,0,
6.38224E+17,22.66468,-0.9818845,-3.105186,18.3175,-62.9422,-74.85035,-16.98673,-0.4441859,-4.295897,-61.37324,-6.98289,34.65118,0,0,0,48.59372,-112.0893,-51.98155,-36.03881,-110.6591,-50.37467,0.001067912,-0.1257102,0.09433498,0,0.3,0,0,0,0,
6.38224E+17,22.66468,-0.9818845,-3.105186,18.3175,-62.9422,-74.85035,-16.98673,-0.4441859,-4.295897,-61.37324,-6.98289,34.65118,0,0,0,48.59372,-112.0893,-51.98155,-36.03881,-110.6591,-50.37467,0.001067912,-0.1257102,0.09433498,0,0.3,0,0,0,0,
6.38224E+17,22.66468,-0.9818845,-3.105186,18.3175,-62.86895,-74.85035,-16.98673,-0.4441859,-4.295897,-61.37324,-6.98289,34.65118,0,0,0,48.59372,-112.0893,-51.98155,-36.03881,-110.6591,-50.37467,0.001067912,-0.1257102,0.09433498,0,0.3,0,0,0,0,
6.38224E+17,22.66468,-0.9818845,-3.105186,18.3175,-62.86895,-74.85035,-16.98673,-0.4441859,-4.295897,-61.37324,-6.98289,34.57793,0,0,0,48.59372,-112.0893,-51.98155,-36.03881,-110.6591,-50.37467,0.001067912,-0.1257102,0.09433498,0,0.3,0,0,9.01E-08,0,
6.38224E+17,22.66468,-0.9818845,-3.105186,18.3175,-62.9422,-74.85035,-16.98673,-0.4441859,-4.295897,-61.37324,-6.98289,34.65118,0,0,0,48.59372,-112.0893,-51.98155,-36.03881,-110.6591,-50.37467,0.001067912,-0.1257102,0.09433498,0,0.3,0,0,1.80E-07,0,
6.38224E+17,22.66468,-0.9818845,-3.105186,18.39075,-62.9422,-74.85035,-16.98673,-0.4441859,-4.295897,-61.37324,-6.98289,34.57793,0,0,0,48.59372,-112.0893,-51.98155,-36.03881,-110.6591,-50.37467,0.001067912,-0.1257102,0.09433498,0,0.3,0,0,1.80E-07,0,
6.38224E+17,22.66468,-0.9818845,-3.105186,18.39075,-62.9422,-74.85035,-16.98673,-0.4441859,-4.295897,-61.37324,-6.98289,34.65118,0,0,0,48.59372,-112.0893,-51.98155,-36.03881,-110.6591,-50.37467,0.001067912,-0.1257102,0.09433498,0,0.3,0,0,2.70E-07,0,
6.38224E+17,22.64112,-0.8649935,-3.24527,19.19645,-62.64922,-74.70387,-16.98673,-0.4441859,-4.295897,-61.37324,-6.98289,34.65118,0,0,0,48.42223,-111.7993,-52.25798,-36.03881,-110.6591,-50.37467,0.001067912,-0.1257102,0.09433498,0,0.3,0,0,5.20E-05,0,
6.38224E+17,22.64112,-0.4675641,-3.268617,18.97671,-61.77028,-74.41088,-16.98673,-0.4441859,-4.295897,-61.37324,-7.056135,34.65118,0,0,0,48.40549,-110.8713,-52.29812,-36.03881,-110.6591,-50.37467,0.001067912,-0.1257102,0.09433498,0,0.3,0,0,8.44E-05,0,
6.38224E+17,22.594,0.2805384,-3.805604,14.72849,-58.62074,-67.45258,-16.98673,-0.4441859,-4.295897,-61.37324,-6.98289,34.57793,0,0,0,47.83187,-109.053,-53.40739,-36.03881,-110.6591,-50.37467,0.001067912,-0.1257102,0.09433498,0,0.3,0,0,0.000284864,0,
6.38224E+17,22.594,0.5376987,-4.599411,10.18729,-53.8598,-56.24608,-16.98673,-0.4441859,-4.295897,-61.37324,-6.98289,34.57793,0,0,0,47.12234,-108.3192,-55.11244,-36.03881,-110.6591,-50.37467,0.001067912,-0.1257102,0.09433498,0,0.3,0,0,0.000652726,0,
6.38224E+17,22.594,0.4208077,-5.346524,7.403974,-46.53528,-44.23387,-16.98673,-0.4441859,-4.295897,-61.37324,-6.98289,34.65118,0,0,0,46.45768,-108.4405,-56.70966,-36.03881,-110.6591,-50.37467,0.001067912,-0.1257102,0.09433498,0,0.3,0,0,0.001203348,0,
6.38224E+17,22.594,0.3039166,-5.393219,6.598277,-42.21382,-37.56856,-16.98673,-0.4441859,-4.295897,-61.37324,-6.98289,34.57793,0,0,0,46.41677,-108.7023,-56.80796,-36.03881,-110.6591,-50.37467,0.001067912,-0.1257102,0.09433498,0,0.3,0,0,0.001487581,0,
6.38224E+17,22.594,0.2805384,-5.743428,5.133373,-34.0836,-25.92258,-16.98673,-0.4441859,-4.295897,-61.37324,-6.98289,34.57793,0,0,0,46.1052,-108.6777,-57.55667,-36.03881,-110.6591,-50.37467,0.001067912,-0.1257102,0.09433498,0,0.3,0,0,0.002079478,0,
6.38224E+17,22.594,0.2571602,-6.864096,4.107941,-24.63498,-16.25422,-16.98673,-0.4441859,-4.295897,-61.37324,-6.98289,34.57793,0,0,0,45.10929,-108.4457,-59.9499,-36.03881,-110.6591,-50.37467,0.001067912,-0.1257102,0.09433498,0,0.3,0,0,0.002833947,0,
6.38224E+17,22.594,0.233782,-7.120916,3.888205,-19.80079,-12.88494,-16.98673,-0.4441859,-4.295897,-61.37324,-6.98289,34.65118,0,0,0,44.88145,-108.4273,-60.49743,-36.03881,-110.6591,-50.37467,0.001067912,-0.1257102,0.09433498,0,0.3,0,0,0.00324786,0,
6.38224E+17,22.594,0.2104038,-7.237653,4.181186,-10.05919,-8.856454,-16.98673,-0.4441859,-4.295897,-61.37324,-6.98289,34.57793,0,0,0,44.77796,-108.4478,-60.74611,-36.03881,-110.6591,-50.37467,0.001067912,-0.1257102,0.09433498,0,0.3,0,0,0.004062078,0,
6.38224E+17,22.61756,0.1636474,-7.237653,4.913638,-0.7570504,-8.343738,-16.98673,-0.4441859,-4.295897,-61.37324,-6.98289,34.65118,0,0,0,44.82234,-108.5566,-60.7642,-36.03881,-110.6591,-50.37467,0.001067912,-0.1257102,0.09433498,0,0.3,0,0,0.004829885,0,
6.38224E+17,22.61756,0.09351282,-7.214305,6.744767,7.592898,-8.709964,-16.98673,-0.4441859,-4.295897,-61.37324,-6.98289,34.65118,0,0,0,44.84322,-108.7267,-60.7141,-36.03881,-110.6591,-50.37467,0.001067912,-0.1257102,0.09433498,0,0.3,0,0,0.005559572,0,
6.38224E+17,22.61756,0.0233782,-7.237653,7.843444,11.69463,-8.929699,-16.98673,-0.4441859,-4.295897,-61.37324,-7.056135,34.65118,0,0,0,44.82255,-108.8831,-60.76371,-36.03881,-110.6591,-50.37467,0.001067912,-0.1257102,0.09433498,0,0.3,0,0,0.005914368,0,
6.38224E+17,22.61756,-0.3272949,-7.564514,10.33378,18.65292,-8.856454,-16.98673,-0.4441859,-4.295897,-61.37324,-6.98289,34.65118,0,0,0,44.53159,-109.6012,-61.46209,-36.03881,-110.6591,-50.37467,0.001067912,-0.1257102,0.09433498,0,0.3,0,0,0.006637927,0,
6.38224E+17,22.61756,-0.9585064,-8.171543,12.97061,24.51253,-8.416983,-16.98673,-0.4441859,-4.295897,-61.37324,-6.98289,34.65118,0,0,0,43.98704,-110.8768,-62.76916,-36.03881,-110.6591,-50.37467,0.001067912,-0.1257102,0.09433498,0,0.3,0,0,0.007414476,0,
6.38224E+17,22.61756,-1.005263,-8.475058,14.21577,26.85638,-7.391551,-16.98673,-0.4441859,-4.295897,-61.37324,-6.98289,34.65118,0,0,0,43.71752,-110.8834,-63.41608,-36.03881,-110.6591,-50.37467,0.001067912,-0.1257102,0.09433498,0,0.3,0,0,0.007822981,0,
6.38224E+17,22.64112,-0.9818845,-8.545099,15.82717,30.15241,-5.120951,-16.98673,-0.4441859,-4.295897,-61.37324,-6.98289,34.57793,0,0,0,43.69896,-110.8048,-63.58199,-36.03881,-110.6591,-50.37467,0.001067912,-0.1257102,0.09433498,0,0.3,0,0,0.008613679,0,
6.38224E+17,22.66468,-0.9818845,-8.545099,16.70611,32.20328,-3.802537,-16.98673,-0.4441859,-4.295897,-61.37324,-6.98289,34.57793,0,0,0,43.74204,-110.8048,-63.59997,-36.03881,-110.6591,-50.37467,0.001067912,-0.1257102,0.09433498,0,0.3,0,0,0.009360668,0,
6.38224E+17,22.66468,-0.9818845,-8.545099,16.8526,32.64275,-3.436311,-16.98673,-0.4441859,-4.295897,-61.37324,-6.98289,34.57793,0,0,0,43.74204,-110.8048,-63.59997,-36.03881,-110.6591,-50.37467,0.001067912,-0.1257102,0.09433498,0,0.3,0,0,0.009721862,0,
6.38224E+17,22.66468,-0.9818845,-8.568447,16.12015,32.5695,-2.99684,-16.98673,-0.4441859,-4.295897,-61.37324,-7.056135,34.57793,0,0,0,43.72133,-110.7967,-63.64956,-36.03881,-110.6591,-50.37467,0.001067912,-0.1257102,0.09433498,0,0.3,0,0,0.01042424,0,
6.38224E+17,22.66468,-0.9818845,-8.568447,13.92279,31.54407,-2.777105,-16.98673,-0.4441859,-4.295897,-61.37324,-6.98289,34.57793,0,0,0,43.72133,-110.7967,-63.64956,-36.03881,-110.6591,-50.37467,0.001067912,-0.1257102,0.09433498,0,0.3,0,0,0.01110049,0,
6.38224E+17,22.66468,-1.005263,-8.661836,11.5057,30.22566,-2.923595,-16.98673,-0.4441859,-4.295897,-61.37324,-7.056135,34.65118,0,0,0,43.63816,-110.8186,-63.84873,-36.03881,-110.6591,-50.37467,0.001067912,-0.1257102,0.09433498,0,0.3,0,0,0.01175781,0,
6.38224E+17,22.66468,-1.005263,-8.661836,10.26054,29.78619,-3.729292,-16.98673,-0.4441859,-4.295897,-61.37324,-7.056135,34.65118,0,0,0,43.63816,-110.8186,-63.84873,-36.03881,-110.6591,-50.37467,0.001067912,-0.1257102,0.09433498,0,0.3,0,0,0.01207908,0,
6.38224E+17,22.66468,-1.005263,-8.638489,8.209671,29.20022,-6.219628,-16.98673,-0.4441859,-4.295897,-61.37324,-6.98289,34.65118,0,0,0,43.65886,-110.8268,-63.79916,-36.03881,-110.6591,-50.37467,0.001067912,-0.1257102,0.09433498,0,0.3,0,0,0.01270225,0,
6.38224E+17,22.66468,-0.9818845,-8.591794,6.891257,28.90724,-8.416983,-16.98673,-0.4441859,-4.295897,-61.37324,-6.98289,34.65118,0,0,0,43.70063,-110.7886,-63.69913,-36.03881,-110.6591,-50.37467,0.001067912,-0.1257102,0.09433498,0,0.3,0,0,0.01329604,0,
6.38224E+17,22.66468,-0.9818845,-8.381668,6.012315,28.76075,-9.002944,-16.98673,-0.4441859,-4.295897,-61.37324,-6.98289,34.57793,0,0,0,43.88701,-110.8608,-63.2528,-36.03881,-110.6591,-50.37467,0.001067912,-0.1257102,0.09433498,0,0.3,0,0,0.01385261,0,
6.38224E+17,22.66468,-0.9585064,-8.241585,5.572844,28.61426,-8.490229,-16.98673,-0.4441859,-4.295897,-61.37324,-6.98289,34.65118,0,0,0,44.01168,-110.8535,-62.95426,-36.03881,-110.6591,-50.37467,0.001067912,-0.1257102,0.09433498,0,0.3,0,0,0.01411134,0,
6.38224E+17,22.7118,-0.9117499,-7.494472,4.474167,28.54102,-5.487176,-16.98673,-0.4441859,-4.295897,-61.37324,-6.98289,34.57793,0,0,0,44.76406,-110.9828,-61.39996,-36.03881,-110.6591,-50.37467,0.001067912,-0.1257102,0.09433498,0,0.3,0,0,0.01454409,0,
6.38224E+17,22.99452,-0.5376987,-6.303762,3.228999,28.54102,-0.57975,-16.98673,-0.4441859,-4.295897,-61.37324,-7.056135,34.57793,0,0,0,46.37026,-110.4452,-59.07947,-36.03881,-110.6591,-50.37467,0.001067912,-0.1257102,0.09433498,0,0.3,0,0,0.01473676,0,
6.38224E+17,23.32436,-0.1402692,-5.579997,2.496547,28.39453,2.936018,-16.98673,-0.4441859,-4.295897,-61.37324,-6.98289,34.57793,0,0,0,47.66406,-109.6946,-57.80469,-36.03881,-110.6591,-50.37467,0.001067912,-0.1257102,0.09433498,0,0.3,0,0,0.01467368,0,
6.38224E+17,24.29032,0.7714807,-3.898993,1.764095,27.73532,8.429405,-16.98673,-0.4441859,-4.295897,-61.37324,-6.98289,34.65118,0,0,0,51.11992,-107.8959,-55.0809,-36.03881,-110.6591,-50.37467,0.001067912,-0.1257102,0.09433498,0,0.3,0,0,0.01406781,0,
6.38224E+17,24.95,1.56634,-2.241338,1.764095,26.5634,11.35921,-16.98673,-0.4441859,-4.295897,-61.37324,-6.98289,34.65118,0,0,0,54.02974,-106.2529,-52.21835,-36.03881,-110.6591,-50.37467,0.001067912,-0.1257102,0.09433498,0,0.3,0,0,0.01287564,0,
6.38224E+17,25.0678,1.940391,-1.774392,1.69085,25.97744,12.3114,-16.98673,-0.4441859,-4.295897,-61.37324,-6.98289,34.65118,0,0,0,54.71728,-105.4209,-51.37001,-36.03881,-110.6591,-50.37467,0.001067912,-0.1257102,0.09433498,0,0.3,0,0,0.0121647,0,
6.38224E+17,25.09136,2.665115,-1.2841,1.031644,24.58578,13.19034,-16.98673,-0.4441859,-4.295897,-61.37324,-6.98289,34.65118,0,0,0,55.22036,-103.766,-50.42085,-36.03881,-110.6591,-50.37467,0.001067912,-0.1257102,0.09433498,0,0.3,0,0,0.01069424,0,
6.38224E+17,25.25628,3.38984,-0.3268617,-0.140279,23.41385,13.48332,-16.98673,-0.4441859,-4.295897,-61.37324,-6.98289,34.57793,0,0,0,56.47203,-102.1129,-48.64617,-36.03881,-110.6591,-50.37467,0.001067912,-0.1257102,0.09433498,0,0.3,0,0,0.009063368,0,
6.38224E+17,26.08088,4.511993,1.424183,-0.9459759,22.0222,13.99604,-16.98673,-0.4441859,-4.295897,-61.37324,-6.98289,34.65118,0,0,0,59.90133,-99.46846,-45.97282,-36.03881,-110.6591,-50.37467,0.001067912,-0.1257102,0.09433498,0,0.3,0,0,0.006904677,0,
6.38224E+17,26.78768,5.400365,2.404768,-0.8727306,21.36299,14.21577,-16.98673,-0.4441859,-4.295897,-61.37324,-6.98289,34.57793,0,0,0,62.35384,-97.33237,-44.84438,-36.03881,-110.6591,-50.37467,0.001067912,-0.1257102,0.09433498,0,0.3,0,0,0.005497301,0,
6.38224E+17,28.62535,8.20575,4.529369,0.3724372,19.60511,14.72849,-16.98673,-0.4441859,-4.295897,-61.29999,-6.98289,34.65118,0,0,0,68.27633,-90.55074,-43.25409,-36.03881,-110.6591,-50.37467,0.001067912,-0.1257102,0.09433498,0,0.3,0,0,0.001790649,0,
6.38224E+17,30.03895,10.87086,7.00418,2.276812,17.18801,14.94823,-16.98673,-0.4441859,-4.295897,-61.37324,-6.98289,34.65118,0,0,0,73.69562,-83.85555,-40.9056,-36.03881,-110.6591,-50.37467,0.001067912,-0.1257102,0.09433498,0,0.3,0,0,0,0,
6.38224E+17,30.55727,11.92288,8.101501,3.228999,16.08934,15.02147,-16.98673,-0.4441859,-4.295897,-61.37324,-6.98289,34.65118,0,0,0,75.88664,-81.11972,-39.81401,-36.03881,-110.6591,-50.37467,0.001067912,-0.1257102,0.09433498,0,0.3,0,0,0,0,
6.38224E+17,31.57035,14.61138,10.45957,4.913638,13.89198,14.582,-16.98673,-0.4441859,-4.295897,-61.37324,-7.056135,34.65118,0,0,0,80.23115,-74.14508,-37.78477,-36.03881,-110.6591,-50.37467,0.001067912,-0.1257102,0.09433498,0,0.3,0,0,0,0,
6.38224E+17,31.97087,17.44014,12.00049,6.671522,11.47489,13.55657,-16.98673,-0.4441859,-4.295897,-61.37324,-7.056135,34.65118,0,0,0,82.04211,-67.11951,-36.9065,-36.03881,-110.6591,-50.37467,0.001067912,-0.1257102,0.09433498,0,0.3,0,0,0,0,
6.38224E+17,31.92375,18.72594,12.37405,7.403974,10.37621,13.04385,-16.98673,-0.4441859,-4.295897,-61.37324,-6.98289,34.65118,0,0,0,81.89219,-64.09128,-36.90616,-36.03881,-110.6591,-50.37467,0.001067912,-0.1257102,0.09433498,0,0.3,0,0,0,0,
6.38224E+17,31.71171,21.18065,13.09782,8.429405,8.764822,12.82412,-16.98673,-0.4441859,-4.295897,-61.37324,-6.98289,34.65118,0,0,0,81.24411,-58.3502,-36.86467,-36.03881,-110.6591,-50.37467,0.001067912,-0.1257102,0.09433498,0,0.3,0,0,0,0,
6.38224E+17,31.57035,23.79901,13.6815,9.088613,7.373164,12.60438,-16.98673,-0.4441859,-4.295897,-61.37324,-6.98289,34.57793,0,0,0,80.39104,-52.40561,-37.52457,-36.03881,-110.6591,-50.37467,0.001067912,-0.1257102,0.09433498,0,0.3,0,0,0,0,
6.38224E+17,31.57035,26.4875,14.63874,9.747819,6.127995,10.8465,-16.98673,-0.4441859,-4.295897,-61.37324,-6.98289,34.65118,0,0,0,80.13022,-46.19682,-37.94902,-36.03881,-110.6591,-50.37467,0.001067912,-0.1257102,0.09433498,0,0.3,0,0,0,0,
6.38224E+17,31.57035,27.70317,15.38585,10.18729,5.468789,9.674574,-16.98673,-0.4441859,-4.295897,-61.37324,-6.98289,34.57793,0,0,0,80.33482,-43.22765,-37.61605,-36.03881,-110.6591,-50.37467,0.001067912,-0.1257102,0.09433498,0,0.3,0,0,0,0,
6.38224E+17,31.45255,29.87734,16.90342,10.91974,4.296866,7.037747,-16.98673,-0.4441859,-4.295897,-61.37324,-6.98289,34.65118,0,0,0,80.56457,-37.81115,-36.63584,-36.03881,-110.6591,-50.37467,0.001067912,-0.1257102,0.09433498,0,0.3,0,0,0,0,
6.38224E+17,30.95779,32.12165,18.02409,11.43246,2.831963,4.767147,-16.98673,-0.4441859,-4.295897,-61.37324,-6.98289,34.65118,0,0,0,79.32027,-32.55137,-36.11834,-36.03881,-110.6591,-50.37467,0.001067912,-0.1257102,0.09433498,0,0.3,0,0,0,0,
6.38224E+17,30.51015,33.26719,18.46769,11.5057,2.026266,3.888205,-16.98673,-0.4441859,-4.295897,-61.37324,-6.98289,34.57793,0,0,0,78.05144,-29.98446,-35.89861,-36.03881,-110.6591,-50.37467,0.001067912,-0.1257102,0.09433498,0,0.3,0,0,0,0,
6.38224E+17,29.40283,35.74527,19.42492,11.35921,0.3416272,1.837341,-16.98673,-0.4441859,-4.295897,-61.37324,-6.98289,34.65118,0,0,0,74.90779,-24.5087,-35.42545,-36.03881,-110.6591,-50.37467,0.001067912,-0.1257102,0.09433498,0,0.3,0,0,0,0,
6.38224E+17,28.15415,38.41039,20.61563,10.70001,-1.562747,-0.6529952,-16.98673,-0.4441859,-4.295897,-61.37324,-6.98289,34.65118,0,0,0,71.45752,-18.61173,-34.82585,-36.03881,-110.6591,-50.37467,0.001067912,-0.1257102,0.09433498,0,0.3,0,0,0,0,
6.38224E+17,27.51804,39.69619,21.31605,10.26054,-2.58818,-1.898163,-16.98673,-0.4441859,-4.295897,-61.37324,-6.98289,34.65118,0,0,0,69.80291,-15.70458,-34.36285,-36.03881,-110.6591,-50.37467,0.001067912,-0.1257102,0.09433498,0,0.3,0,0,0,0,
6.38224E+17,25.84528,42.1509,22.76358,9.235103,-4.85878,-4.315253,-16.98673,-0.4441859,-4.295897,-61.37324,-6.98289,34.57793,0,0,0,65.59193,-10.12402,-32.93976,-36.03881,-110.6591,-50.37467,0.001067912,-0.1257102,0.09433498,0,0.3,0,0,0,0,
6.38224E+17,23.51284,44.16143,23.9076,7.477218,-7.349115,-6.292873,-16.98673,-0.4441859,-4.295897,-61.37324,-6.98289,34.57793,0,0,0,59.72526,-5.656015,-31.07545,-36.03881,-110.6591,-50.37467,0.001067912,-0.1257102,0.09433498,0,0.3,0,0,0,0,
6.38224E+17,22.2406,45.00304,24.37455,6.305296,-8.301303,-6.878834,-16.98673,-0.4441859,-4.295897,-61.37324,-7.056135,34.57793,0,0,0,56.5176,-3.816434,-30.13791,-36.03881,-110.6591,-50.37467,0.001067912,-0.1257102,0.09433498,0,0.3,0,0,0,0,
6.38224E+17,19.22493,46.28884,24.91153,3.302244,-9.912696,-7.611286,-16.98673,-0.4441859,-4.295897,-61.37324,-6.98289,34.57793,0,0,0,48.83759,-1.20329,-28.30378,-36.03881,-110.6591,-50.37467,0.001067912,-0.1257102,0.09433498,0,0.3,0,0,0,0,
6.38224E+17,16.42129,46.80317,25.05162,0.2259469,-10.79164,-7.904267,-16.98673,-0.4441859,-4.295897,-61.37324,-6.98289,34.57793,0,0,0,41.76692,-0.2423197,-26.63264,-36.03881,-110.6591,-50.37467,0.001067912,-0.1257102,0.09433498,0,0.3,0,0,0,0,
6.38224E+17,12.8873,46.84992,25.07496,-3.729292,-11.30435,-7.977511,-16.98673,-0.4441859,-4.295897,-61.37324,-6.98289,34.65118,0,0,0,32.94521,-0.1448448,-24.35697,-36.03881,-110.6591,-50.37467,0.001067912,-0.1257102,0.09433498,0,0.3,0,0,0,0,
6.38224E+17,11.0025,46.80317,24.98158,-5.853402,-11.30435,-7.904267,-16.98673,-0.4441859,-4.295897,-61.37324,-6.98289,34.57793,0,0,0,28.16902,-0.3112557,-23.46672,-36.03881,-110.6591,-50.37467,0.001067912,-0.1257102,0.09433498,0,0.3,0,0,0,0,
6.38224E+17,6.973749,46.68627,24.63136,-9.955132,-11.3776,-7.09857,-16.98673,-0.4441859,-4.295897,-61.37324,-7.056135,34.65118,0,0,0,17.85456,-0.8396471,-22.38339,-36.03881,-110.6591,-50.37467,0.001067912,-0.1257102,0.09433498,0,0.3,0,0,0,0,
6.38224E+17,2.497356,46.45249,24.56132,-15.08229,-11.15786,-5.560421,-16.98673,-0.4441859,-4.295897,-61.37324,-6.98289,34.65118,0,0,0,6.418407,-1.281555,-21.18846,-36.03881,-110.6591,-50.37467,0.001067912,-0.1257102,0.09433498,0,0.3,0,0,0,0,
6.38224E+17,0.3298394,46.24208,24.63136,-17.71912,-10.93813,-4.82797,-16.98673,-0.4441859,-4.295897,-61.37324,-6.98289,34.65118,0,0,0,0.850871,-1.551733,-20.54847,-36.03881,-110.6591,-50.37467,0.001067912,-0.1257102,0.09433498,0,0.3,0,0,0,0,
6.38224E+17,-3.345515,45.40047,24.81814,-22.62654,-10.71839,-2.85035,-16.98673,-0.4441859,-4.295897,-61.37324,-6.98289,34.65118,0,0,0,-8.730427,-2.734967,-19.00136,-36.03881,-110.6591,-50.37467,0.001067912,-0.1257102,0.09433498,0,0.3,0,0,0,0,
6.38224E+17,-6.19627,44.25494,25.02827,-27.0945,-10.5719,-0.5065048,-16.98673,-0.4441859,-4.295897,-61.37324,-6.98289,34.65118,0,0,0,-16.39814,-4.419733,-17.31095,-36.03881,-110.6591,-50.37467,0.001067912,-0.1257102,0.09433498,0,0.3,0,0,0,0,
6.38224E+17,-7.421387,43.74062,25.30844,-29.07212,-9.912696,1.031644,-16.98673,-0.4441859,-4.295897,-61.37324,-6.98289,34.65118,0,0,0,-19.80734,-5.003524,-16.28634,-36.03881,-110.6591,-50.37467,0.001067912,-0.1257102,0.09433498,0,0.3,0,0,0,0,
6.38224E+17,-9.588904,42.92238,25.84542,-32.29491,-8.814018,4.693902,-16.98673,-0.4441859,-4.295897,-61.37324,-6.98289,34.65118,0,0,0,-25.94988,-5.84918,-14.74418,-36.03881,-110.6591,-50.37467,0.001067912,-0.1257102,0.09433498,0,0.3,0,0,0,0,
6.38224E+17,-11.52082,42.22104,26.45245,-35.22471,-7.861832,8.50265,-16.98673,-0.4441859,-4.295897,-61.37324,-6.98289,34.65118,0,0,0,-31.58732,-6.428632,-13.38165,-36.03881,-110.6591,-50.37467,0.001067912,-0.1257102,0.09433498,0,0.3,0,0,0,0,
6.38224E+17,-13.02866,41.70671,26.82601,-37.6418,-7.202625,11.57895,-16.98673,-0.4441859,-4.295897,-61.37324,-6.98289,34.57793,0,0,0,-36.0098,-6.928879,-12.72957,-36.03881,-110.6591,-50.37467,0.001067912,-0.1257102,0.09433498,0,0.3,0,0,0,0,
6.38224E+17,-13.73546,41.47293,26.8727,-38.66724,-6.98289,12.67763,-16.98673,-0.4441859,-4.295897,-61.37324,-6.98289,34.65118,0,0,0,-38.03552,-7.286739,-12.74059,-36.03881,-110.6591,-50.37467,0.001067912,-0.1257102,0.09433498,0,0.3,0,0,0,0,
6.38224E+17,-14.74854,41.09888,26.8727,-40.20539,-6.689909,13.48332,-16.98673,-0.4441859,-4.295897,-61.37324,-6.98289,34.57793,0,0,0,-40.92708,-7.940904,-12.88192,-36.03881,-110.6591,-50.37467,0.001067912,-0.1257102,0.09433498,0,0.3,0,0,0,0,
6.38224E+17,-15.12549,40.98199,26.66258,-41.37731,-6.323683,12.23815,-16.98673,-0.4441859,-4.295897,-61.37324,-6.98289,34.57793,0,0,0,-41.88172,-8.366351,-13.40362,-36.03881,-110.6591,-50.37467,0.001067912,-0.1257102,0.09433498,0,0.3,0,0,0,0,
6.38224E+17,-15.12549,41.00537,26.4758,-41.74353,-6.177193,10.91974,-16.98673,-0.4441859,-4.295897,-61.37324,-6.98289,34.57793,0,0,0,-41.77095,-8.519718,-13.8134,-36.03881,-110.6591,-50.37467,0.001067912,-0.1257102,0.09433498,0,0.3,0,0,0,0,
6.38224E+17,-15.14906,41.28591,26.38241,-42.03651,-5.444741,7.330729,-16.98673,-0.4441859,-4.295897,-61.37324,-6.98289,34.57793,0,0,0,-41.67136,-8.124783,-14.43314,-36.03881,-110.6591,-50.37467,0.001067912,-0.1257102,0.09433498,0,0.3,0,0,0,0,
6.38224E+17,-15.31397,41.77685,26.42911,-41.89003,-4.85878,4.327676,-16.98673,-0.4441859,-4.295897,-61.37324,-6.98289,34.57793,0,0,0,-41.93984,-7.221099,-15.19053,-36.03881,-110.6591,-50.37467,0.001067912,-0.1257102,0.09433498,0,0.3,0,0,0,0,
6.38224E+17,-15.71449,42.12752,26.77931,-41.59705,-4.419309,1.324624,-16.98673,-0.4441859,-4.295897,-61.37324,-6.98289,34.57793,0,0,0,-43.05906,-6.249113,-15.31113,-36.03881,-110.6591,-50.37467,0.001067912,-0.1257102,0.09433498,0,0.3,0,0,0,0,
6.38224E+17,-15.97365,42.36131,27.03613,-41.59705,-4.126328,0.006211365,-16.98673,-0.4441859,-4.295897,-61.37324,-7.056135,34.57793,0,0,0,-43.79686,-5.57582,-15.3467,-36.03881,-110.6591,-50.37467,0.001067912,-0.1257102,0.09433498,0,0.3,0,0,0,0,
6.38224E+17,-16.44485,43.01589,27.66651,-41.81678,-3.760103,-1.605182,-16.98673,-0.4441859,-4.295897,-61.37324,-7.056135,34.57793,0,0,0,-45.13014,-3.781921,-15.45294,-36.03881,-110.6591,-50.37467,0.001067912,-0.1257102,0.09433498,0,0.3,0,0,0,0,
6.38224E+17,-17.22233,43.71724,28.32023,-42.10976,-3.467122,-2.264389,-16.98673,-0.4441859,-4.295897,-61.37324,-6.98289,34.65118,0,0,0,-47.26658,-1.881149,-15.86676,-36.03881,-110.6591,-50.37467,0.001067912,-0.1257102,0.09433498,0,0.3,0,0,0,0,
6.38224E+17,-17.76421,44.11467,28.71714,-42.47599,-3.393876,-2.410879,-16.98673,-0.4441859,-4.295897,-61.37324,-7.056135,34.57793,0,0,0,-48.75846,-0.7737964,-16.15861,-36.03881,-110.6591,-50.37467,0.001067912,-0.1257102,0.09433498,0,0.3,0,0,0,0,
6.38224E+17,-18.96577,45.19007,29.79111,-43.28168,-3.686857,-2.484124,-16.98673,-0.4441859,-4.295897,-61.37324,-6.98289,34.65118,0,0,0,-52.0762,2.228163,-16.81568,-36.03881,-110.6591,-50.37467,0.001067912,-0.1257102,0.09433498,0,0.3,0,0,0,0,
6.38224E+17,-20.02597,46.45249,30.7717,-44.52685,-4.272818,-0.9459759,-16.98673,-0.4441859,-4.295897,-61.37324,-6.98289,34.57793,0,0,0,-54.82443,5.426505,-17.93325,-36.03881,-110.6591,-50.37467,0.001067912,-0.1257102,0.09433498,0,0.3,0,0,0,0,
6.38224E+17,-20.45005,47.15384,31.14525,-45.18605,-4.419309,0.006211365,-16.98673,-0.4441859,-4.295897,-61.37324,-6.98289,34.65118,0,0,0,-55.78097,6.991066,-18.75955,-36.03881,-110.6591,-50.37467,0.001067912,-0.1257102,0.09433498,0,0.3,0,0,0,0,
6.38224E+17,-21.2982,48.86045,31.89237,-46.21149,-4.932025,2.203566,-16.98673,-0.4441859,-4.295897,-61.37324,-6.98289,34.65118,0,0,0,-57.45537,10.55737,-20.97095,-36.03881,-110.6591,-50.37467,0.001067912,-0.1257102,0.09433498,0,0.3,0,0,0,0,
6.38224E+17,-21.98145,50.84759,32.52274,-46.94394,-5.517986,4.986883,-16.98673,-0.4441859,-4.295897,-61.37324,-6.98289,34.65118,0,0,0,-58.35015,14.32102,-23.79354,-36.03881,-110.6591,-50.37467,0.001067912,-0.1257102,0.09433498,0,0.3,0,0,0,0,
6.38224E+17,-22.52332,53.06852,33.08308,-47.45666,-6.103948,7.623709,-16.98673,-0.4441859,-4.295897,-61.37324,-6.98289,34.65118,0,0,0,-58.57528,18.21265,-27.09943,-36.03881,-110.6591,-50.37467,0.001067912,-0.1257102,0.09433498,0,0.3,0,0,0,0,
6.38224E+17,-22.64112,54.3777,33.45663,-47.60315,-6.396928,8.50265,-16.98673,-0.4441859,-4.295897,-61.37324,-6.98289,34.65118,0,0,0,-58.19981,20.49241,-28.81629,-36.03881,-110.6591,-50.37467,0.001067912,-0.1257102,0.09433498,0,0.3,0,0,0,0,
6.38224E+17,-22.85316,57.20647,34.25044,-47.74964,-7.422361,9.894309,-16.98673,-0.4441859,-4.295897,-61.37324,-6.98289,34.65118,0,0,0,-57.19732,25.22254,-32.63559,-36.03881,-110.6591,-50.37467,0.001067912,-0.1257102,0.09433498,0,0.3,0,0,0,0,
6.38224E+17,-22.90028,60.12874,34.99755,-47.89613,-8.960509,10.77325,-16.98673,-0.4441859,-4.295897,-61.37324,-6.98289,34.65118,0,0,0,-55.60533,29.74681,-36.71555,-36.03881,-110.6591,-50.37467,0.001067912,-0.1257102,0.09433498,0,0.3,0,0,0,0,
6.38224E+17,-22.90028,61.50805,35.4645,-47.82288,-9.473226,10.99299,-16.98673,-0.4441859,-4.295897,-61.37324,-6.98289,34.65118,0,0,0,-54.86015,31.93894,-38.47961,-36.03881,-110.6591,-50.37467,0.001067912,-0.1257102,0.09433498,0,0.3,0,0,0,0,
6.38224E+17,-22.87672,64.45371,36.60851,-47.89613,-10.5719,11.21272,-16.98673,-0.4441859,-4.295897,-61.37324,-6.98289,34.65118,0,0,0,-53.26973,36.61943,-42.09981,-36.03881,-110.6591,-50.37467,0.001067912,-0.1257102,0.09433498,0,0.3,0,0,0,0,
6.38224E+17,-22.52332,67.07206,37.49571,-47.96938,-11.81707,11.5057,-16.98673,-0.4441859,-4.295897,-61.37324,-6.98289,34.65118,0,0,0,-50.99287,40.36501,-45.38393,-36.03881,-110.6591,-50.37467,0.001067912,-0.1257102,0.09433498,0,0.3,0,0,0,0,
6.38224E+17,-21.72228,69.5034,38.47629,-47.96938,-13.06224,12.09166,-16.98673,-0.4441859,-4.295897,-61.29999,-6.98289,34.57793,0,0,0,-47.98891,43.86287,-47.89557,-36.03881,-110.6591,-50.37467,0.001067912,-0.1257102,0.09433498,0,0.3,0,0,0,0,
6.38224E+17,-21.0626,70.60218,38.98993,-47.89613,-13.72145,12.67763,-16.98673,-0.4441859,-4.295897,-61.37324,-6.98289,34.65118,0,0,0,-46.07013,45.48326,-48.72405,-36.03881,-110.6591,-50.37467,0.001067912,-0.1257102,0.09433498,0,0.3,0,0,0,0,
6.38224E+17,-19.15425,72.72959,40.1573,-47.16368,-14.82012,13.99604,-16.98673,-0.4441859,-4.295897,-61.37324,-6.98289,34.65118,0,0,0,-41.20601,48.77149,-49.71753,-36.03881,-110.6591,-50.37467,0.001067912,-0.1257102,0.09433498,0,0.3,0,0,0,0,
6.38224E+17,-16.77469,75.09079,41.16123,-45.03957,-16.50476,15.60743,-16.98673,-0.4441859,-4.295897,-61.37324,-6.98289,34.65118,0,0,0,-35.23271,51.8168,-51.46706,-36.03881,-110.6591,-50.37467,0.001067912,-0.1257102,0.09433498,0,0.3,0,0,0,0,
6.38224E+17,-15.33753,76.23632,41.58148,-43.64791,-17.5302,16.0469,-16.98673,-0.4441859,-4.295897,-61.37324,-7.056135,34.57793,0,0,0,-31.80107,53.12341,-52.40336,-36.03881,-110.6591,-50.37467,0.001067912,-0.1257102,0.09433498,0,0.3,0,0,0,0,
6.38224E+17,-11.49726,78.69103,42.51537,-40.13214,-19.6543,16.63286,-16.98673,-0.4441859,-4.295897,-61.37324,-7.056135,34.65118,0,0,0,-23.17431,55.81911,-54.41676,-36.03881,-110.6591,-50.37467,0.001067912,-0.1257102,0.09433498,0,0.3,0,0,0,0,
6.38224E+17,-6.643909,81.21588,43.72943,-35.44445,-21.77841,16.92585,-16.98673,-0.4441859,-4.295897,-61.37324,-6.98289,34.65118,0,0,0,-13.02102,58.77557,-56.56298,-36.03881,-110.6591,-50.37467,0.001067912,-0.1257102,0.09433498,0,0.3,0,0,0,0,
6.38224E+17,-3.769594,82.43155,44.26641,-32.51464,-23.09683,16.92585,-16.98673,-0.4441859,-4.295897,-61.37324,-6.98289,34.65118,0,0,0,-7.274045,60.04608,-57.94804,-36.03881,-110.6591,-50.37467,0.001067912,-0.1257102,0.09433498,0,0.3,0,0,0,0,
6.38224E+17,2.073277,84.16153,44.89679,-25.70284,-25.51392,14.80174,-16.98673,-0.4441859,-4.295897,-61.37324,-6.98289,34.65118,0,0,0,3.89588,61.54588,-60.73288,-36.03881,-110.6591,-50.37467,0.001067912,-0.1257102,0.09433498,0,0.3,0,0,0,0,
6.38224E+17,8.269547,85.02653,45.36374,-16.98667,-27.19856,9.747819,-16.98673,-0.4441859,-4.295897,-61.37324,-6.98289,34.57793,0,0,0,15.31074,62.50574,-63.00672,-36.03881,-110.6591,-50.37467,0.001067912,-0.1257102,0.09433498,0,0.3,0,0,0,0,
6.38224E+17,13.64122,85.19017,45.50382,-7.684532,-28.15074,3.521979,-16.98673,-0.4441859,-4.295897,-61.37324,-6.98289,34.57793,0,0,0,25.06979,62.7705,-65.04913,-36.03881,-110.6591,-50.37467,0.001067912,-0.1257102,0.09433498,0,0.3,0,0,0,0,
6.38224E+17,16.11501,85.14342,45.50382,-3.363066,-28.37048,0.5189275,-16.98673,-0.4441859,-4.295897,-61.37324,-7.056135,34.65118,0,0,0,29.53524,62.76133,-66.12329,-36.03881,-110.6591,-50.37467,0.001067912,-0.1257102,0.09433498,0,0.3,0,0,0,0,
6.38224E+17,20.30869,84.86288,45.50382,4.327676,-28.37048,-5.047705,-16.98673,-0.4441859,-4.295897,-61.37324,-6.98289,34.65118,0,0,0,37.15756,62.70446,-67.94685,-36.03881,-110.6591,-50.37467,0.001067912,-0.1257102,0.09433498,0,0.3,0,0,0,0,
6.38224E+17,24.0076,84.27842,45.27035,11.72544,-27.93101,-10.46785,-16.98673,-0.4441859,-4.295897,-61.37324,-7.056135,34.57793,0,0,0,43.95318,62.18894,-69.66477,-36.03881,-110.6591,-50.37467,0.001067912,-0.1257102,0.09433498,0,0.3,0,0,0,0,
6.38224E+17,25.58612,83.95113,45.06022,14.72849,-27.56478,-12.59196,-16.98673,-0.4441859,-4.295897,-61.37324,-7.056135,34.65118,0,0,0,46.83329,61.76403,-70.54057,-36.03881,-110.6591,-50.37467,0.001067912,-0.1257102,0.09433498,0,0.3,0,0,0,0,
6.38224E+17,28.62535,83.36668,44.61663,20.07539,-26.39286,-15.66825,-16.98673,-0.4441859,-4.295897,-61.37324,-6.98289,34.65118,0,0,0,52.25021,60.88582,-72.61715,-36.03881,-110.6591,-50.37467,0.001067912,-0.1257102,0.09433498,0,0.3,0,0,0,0,
6.38224E+17,31.38187,82.57182,43.82282,24.76308,-24.85471,-17.86561,-16.98673,-0.4441859,-4.295897,-61.37324,-6.98289,34.65118,0,0,0,57.06032,59.37092,-74.80363,-36.03881,-110.6591,-50.37467,0.001067912,-0.1257102,0.09433498,0,0.3,0,0,0,0,
6.38224E+17,32.67767,82.05749,43.30918,26.7407,-24.19551,-18.59806,-16.98673,-0.4441859,-4.295897,-61.37324,-6.98289,34.65118,0,0,0,59.334,58.38696,-75.8485,-36.03881,-110.6591,-50.37467,0.001067912,-0.1257102,0.09433498,0,0.3,0,0,0,0,
6.38224E+17,35.33994,80.77169,42.04842,30.18322,-22.51087,-19.33051,-16.98673,-0.4441859,-4.295897,-61.37324,-6.98289,34.57793,0,0,0,64.03035,55.95116,-78.05024,-36.03881,-110.6591,-50.37467,0.001067912,-0.1257102,0.09433498,0,0.3,0,0,0,0,
6.38224E+17,37.81374,79.34563,40.64759,32.96654,-20.09377,-19.62349,-16.98673,-0.4441859,-4.295897,-61.37324,-6.98289,34.57793,0,0,0,68.37197,53.22437,-80.24901,-36.03881,-110.6591,-50.37467,0.001067912,-0.1257102,0.09433498,0,0.3,0,0,0,0,
6.38224E+17,39.81633,77.84942,38.9199,35.16389,-17.74993,-19.98972,-16.98673,-0.4441859,-4.295897,-61.37324,-6.98289,34.57793,0,0,0,71.61605,49.96302,-82.44356,-36.03881,-110.6591,-50.37467,0.001067912,-0.1257102,0.09433498,0,0.3,0,0,0,0,
6.38224E+17,40.66449,77.03118,37.89261,35.96959,-16.57801,-20.20946,-16.98673,-0.4441859,-4.295897,-61.37324,-6.98289,34.65118,0,0,0,72.87022,48.06363,-83.52427,-36.03881,-110.6591,-50.37467,0.001067912,-0.1257102,0.09433498,0,0.3,0,0,0,0,
6.38224E+17,42.21945,74.95052,35.69797,37.288,-14.23416,-20.2827,-16.98673,-0.4441859,-4.295897,-61.37324,-7.056135,34.57793,0,0,0,75.55393,43.83226,-85.08244,-36.03881,-110.6591,-50.37467,0.001067912,-0.1257102,0.09433498,0,0.3,0,0,0,0,
6.38224E+17,43.72729,72.47243,33.17647,38.38668,-12.11005,-20.13621,-16.98673,-0.4441859,-4.295897,-61.37324,-6.98289,34.65118,0,0,0,78.19987,38.89634,-86.5965,-36.03881,-110.6591,-50.37467,0.001067912,-0.1257102,0.09433498,0,0.3,0,0,0,0,
6.38224E+17,44.43409,71.04636,31.70559,38.82615,-10.79164,-19.98972,-16.98673,-0.4441859,-4.295897,-61.37324,-6.98289,34.65118,0,0,0,79.38664,36.02116,-87.37945,-36.03881,-110.6591,-50.37467,0.001067912,-0.1257102,0.09433498,0,0.3,0,0,0,0,
6.38224E+17,45.72989,67.93706,28.6471,39.5586,-8.228058,-19.11078,-16.98673,-0.4441859,-4.295897,-61.37324,-6.98289,34.65118,0,0,0,81.64435,29.90849,-88.75971,-36.03881,-110.6591,-50.37467,0.001067912,-0.1257102,0.09433498,0,0.3,0,0,0,0,
6.38224E+17,47.09636,64.10303,24.98158,40.14456,-5.225006,-17.86561,-16.98673,-0.4441859,-4.295897,-61.37324,-6.98289,34.65118,0,0,0,83.91402,22.43485,-90.36235,-36.03881,-110.6591,-50.37467,0.001067912,-0.1257102,0.09433498,0,0.3,0,0,0,0,
6.38224E+17,48.39216,59.98847,21.36275,40.80377,-2.148709,-16.32746,-16.98673,-0.4441859,-4.295897,-61.37324,-7.056135,34.57793,0,0,0,86.19107,14.63317,-91.80489,-36.03881,-110.6591,-50.37467,0.001067912,-0.1257102,0.09433498,0,0.3,0,0,0,0,
6.38224E+17,48.93404,57.86105,19.58836,41.17,-0.6838052,-15.52176,-16.98673,-0.4441859,-4.295897,-61.37324,-6.98289,34.65118,0,0,0,87.19152,10.63306,-92.37916,-36.03881,-110.6591,-50.37467,0.001067912,-0.1257102,0.09433498,0,0.3,0,0,0,0,
6.38224E+17,49.97068,53.41919,16.13296,42.04893,2.831963,-13.76388,-16.98673,-0.4441859,-4.295897,-61.37324,-6.98289,34.65118,0,0,0,89.22446,2.333734,-93.40393,-36.03881,-110.6591,-50.37467,0.001067912,-0.1257102,0.09433498,0,0.3,0,0,0,0,
6.38224E+17,50.88952,49.14098,13.16786,42.92788,6.274486,-11.71302,-16.98673,-0.4441859,-4.295897,-61.37324,-6.98289,34.57793,0,0,0,91.26138,-5.638323,-94.15616,-36.03881,-110.6591,-50.37467,0.001067912,-0.1257102,0.09433498,0,0.3,0,0,0,0,
6.38224E+17,51.29004,47.31749,11.9538,43.36735,7.959125,-10.83407,-16.98673,-0.4441859,-4.295897,-61.37324,-7.056135,34.65118,0,0,0,92.09553,-9.079844,-94.54127,-36.03881,-110.6591,-50.37467,0.001067912,-0.1257102,0.09433498,0,0.3,0,0,0,0,
6.38224E+17,51.99683,43.92765,9.922588,44.17305,10.88893,-9.442415,-16.98673,-0.4441859,-4.295897,-61.37324,-6.98289,34.57793,0,0,0,93.78452,-15.4938,-95.06916,-36.03881,-110.6591,-50.37467,0.001067912,-0.1257102,0.09433498,0,0.3,0,0,0,0,
6.38224E+17,52.53872,41.35604,8.615141,44.9055,13.01304,-8.197248,-16.98673,-0.4441859,-4.295897,-61.37324,-7.056135,34.57793,0,0,0,95.30756,-20.38622,-95.3202,-36.03881,-110.6591,-50.37467,0.001067912,-0.1257102,0.09433498,0,0.3,0,0,0,0,
6.38224E+17,52.77431,40.14038,8.078154,45.27173,13.96523,-7.538041,-16.98673,-0.4441859,-4.295897,-61.37324,-6.98289,34.65118,0,0,0,96.09296,-22.71107,-95.34355,-36.03881,-110.6591,-50.37467,0.001067912,-0.1257102,0.09433498,0,0.3,0,0,0,0,
6.38224E+17,53.19839,38.10647,7.447778,45.93093,15.57662,-6.219628,-16.98673,-0.4441859,-4.295897,-61.37324,-6.98289,34.65118,0,0,0,97.85825,-26.5814,-95.13839,-36.03881,-110.6591,-50.37467,0.001067912,-0.1257102,0.09433498,0,0.3,0,0,0,0,
6.38224E+17,53.71671,36.07257,7.237653,46.59014,16.89503,-5.047705,-16.98673,-0.4441859,-4.295897,-61.37324,-6.98289,34.57793,0,0,0,100.4266,-30.41975,-94.6244,-36.03881,-110.6591,-50.37467,0.001067912,-0.1257102,0.09433498,0,0.3,0,0,0,0,
6.38224E+17,53.95231,35.1842,7.214305,46.88312,17.40775,-4.681479,-16.98673,-0.4441859,-4.295897,-61.37324,-6.98289,34.57793,0,0,0,101.6591,-32.10713,-94.36095,-36.03881,-110.6591,-50.37467,0.001067912,-0.1257102,0.09433498,0,0.3,0,0,0,0,
6.38224E+17,54.32927,33.0334,7.214305,47.54232,18.35994,-4.022273,-16.98673,-0.4441859,-4.295897,-61.37324,-6.98289,34.57793,0,0,0,104.424,-36.25152,-93.39461,-36.03881,-110.6591,-50.37467,0.001067912,-0.1257102,0.09433498,0,0.3,0,0,0,0,
6.38224E+17,54.56487,30.76572,7.214305,48.05504,19.01915,-3.509557,-16.98673,-0.4441859,-4.295897,-61.37324,-6.98289,34.65118,0,0,0,107.0035,-40.73196,-92.20776,-36.03881,-110.6591,-50.37467,0.001067912,-0.1257102,0.09433498,0,0.3,0,0,0,0,
6.38224E+17,54.65911,28.40452,7.237653,48.34802,19.82484,-2.99684,-16.98673,-0.4441859,-4.295897,-61.37324,-7.056135,34.57793,0,0,0,109.3857,-45.50375,-90.78337,-36.03881,-110.6591,-50.37467,0.001067912,-0.1257102,0.09433498,0,0.3,0,0,0,0,
6.38224E+17,54.68267,27.04858,7.284348,48.49451,20.26431,-2.777105,-16.98673,-0.4441859,-4.295897,-61.37324,-7.056135,34.65118,0,0,0,110.7035,-48.28339,-89.91725,-36.03881,-110.6591,-50.37467,0.001067912,-0.1257102,0.09433498,0,0.3,0,0,0,0,
6.38224E+17,54.68267,24.43022,7.541167,48.78749,21.07001,-2.264389,-16.98673,-0.4441859,-4.295897,-61.37324,-7.056135,34.65118,0,0,0,113.3464,-53.69511,-88.04479,-36.03881,-110.6591,-50.37467,0.001067912,-0.1257102,0.09433498,0,0.3,0,0,0,0,
6.38224E+17,54.68267,21.81186,7.984766,49.00723,21.72922,-1.751673,-16.98673,-0.4441859,-4.295897,-61.37324,-7.056135,34.65118,0,0,0,116.1335,-59.15964,-86.07016,-36.03881,-110.6591,-50.37467,0.001067912,-0.1257102,0.09433498,0,0.3,0,0,0,0,
6.38224E+17,54.68267,20.47931,8.19489,49.08047,21.94895,-1.605182,-16.98673,-0.4441859,-4.295897,-61.37324,-6.98289,34.65118,0,0,0,117.4414,-61.98332,-85.14349,-36.03881,-110.6591,-50.37467,0.001067912,-0.1257102,0.09433498,0,0.3,0,0,0,0,
6.38224E+17,54.65911,18.35189,8.405016,49.15372,22.38842,-1.605182,-16.98673,-0.4441859,-4.295897,-61.37324,-6.98289,34.65118,0,0,0,119.1445,-66.58222,-83.86327,-36.03881,-110.6591,-50.37467,0.001067912,-0.1257102,0.09433498,0,0.3,0,0,0,0,
6.38224E+17,54.42351,16.59852,8.685184,49.15372,22.82789,-1.605182,-16.98673,-0.4441859,-4.295897,-61.37324,-6.98289,34.57793,0,0,0,120.3172,-70.37762,-82.286,-36.03881,-110.6591,-50.37467,0.001067912,-0.1257102,0.09433498,0,0.3,0,0,0,0,
6.38224E+17,54.25859,15.82704,8.895308,49.15372,22.90114,-1.678428,-16.98673,-0.4441859,-4.295897,-61.37324,-6.98289,34.65118,0,0,0,120.8681,-72.02701,-81.3649,-36.03881,-110.6591,-50.37467,0.001067912,-0.1257102,0.09433498,0,0.3,0,0,0,0,
6.38224E+17,53.83451,14.19057,9.268865,49.00723,23.04763,-1.678428,-16.98673,-0.4441859,-4.295897,-61.37324,-6.98289,34.57793,0,0,0,121.7104,-75.56844,-79.38401,-36.03881,-110.6591,-50.37467,0.001067912,-0.1257102,0.09433498,0,0.3,0,0,0,0,
6.38224E+17,53.24551,12.69436,9.385601,48.64101,23.04763,-1.678428,-16.98673,-0.4441859,-4.295897,-61.37324,-6.98289,34.65118,0,0,0,121.6528,-78.91117,-77.49274,-36.03881,-110.6591,-50.37467,0.001067912,-0.1257102,0.09433498,0,0.3,0,0,0,0,
6.38224E+17,52.91567,12.0164,9.408949,48.42127,23.04763,-1.678428,-16.98673,-0.4441859,-4.295897,-61.37324,-6.98289,34.57793,0,0,0,121.4398,-80.44364,-76.55801,-36.03881,-110.6591,-50.37467,0.001067912,-0.1257102,0.09433498,0,0.3,0,0,0,0,
6.38224E+17,52.30311,10.59033,9.47899,47.90855,23.12087,-1.605182,-16.98673,-0.4441859,-4.295897,-61.37324,-6.98289,34.65118,0,0,0,121.0935,-83.67146,-74.76883,-36.03881,-110.6591,-50.37467,0.001067912,-0.1257102,0.09433498,0,0.3,0,0,0,0,
6.38224E+17,51.69056,9.094121,9.525684,47.39584,23.12087,-1.678428,-16.98673,-0.4441859,-4.295897,-61.37324,-6.98289,34.65118,0,0,0,120.6373,-87.08443,-73.04414,-36.03881,-110.6591,-50.37467,0.001067912,-0.1257102,0.09433498,0,0.3,0,0,0,0,
6.38224E+17,51.03088,7.55116,9.525684,46.88312,23.19412,-1.678428,-16.98673,-0.4441859,-4.295897,-61.37324,-6.98289,34.65118,0,0,0,119.9361,-90.6376,-71.33463,-36.03881,-110.6591,-50.37467,0.001067912,-0.1257102,0.09433498,0,0.3,0,0,0,0,
6.38224E+17,50.65392,6.803057,9.525684,46.59014,23.12087,-1.678428,-16.98673,-0.4441859,-4.295897,-61.37324,-6.98289,34.57793,0,0,0,119.4634,-92.36507,-70.40974,-36.03881,-110.6591,-50.37467,0.001067912,-0.1257102,0.09433498,0,0.3,0,0,0,0,
6.38224E+17,49.80576,5.423743,9.525684,46.00418,23.26737,-1.678428,-16.98673,-0.4441859,-4.295897,-61.37324,-7.056135,34.57793,0,0,0,118.2617,-95.55695,-68.43146,-36.03881,-110.6591,-50.37467,0.001067912,-0.1257102,0.09433498,0,0.3,0,0,0,0,
6.38224E+17,48.69844,4.184699,9.525684,45.19848,23.34061,-1.678428,-16.98673,-0.4441859,-4.295897,-61.37324,-6.98289,34.57793,0,0,0,116.4901,-98.43051,-66.00529,-36.03881,-110.6591,-50.37467,0.001067912,-0.1257102,0.09433498,0,0.3,0,0,0,0,
6.38224E+17,47.4262,2.875519,9.525684,44.31954,23.41385,-1.678428,-16.98673,-0.4441859,-4.295897,-61.37324,-6.98289,34.57793,0,0,0,114.3272,-101.4716,-63.31717,-36.03881,-110.6591,-50.37467,0.001067912,-0.1257102,0.09433498,0,0.3,0,0,0,0,
6.38224E+17,46.69584,2.127417,9.525684,43.80682,23.41385,-1.678428,-16.98673,-0.4441859,-4.295897,-61.37324,-7.056135,34.57793,0,0,0,113.0344,-103.2111,-61.81628,-36.03881,-110.6591,-50.37467,0.001067912,-0.1257102,0.09433498,0,0.3,0,0,0,0,
6.38224E+17,45.18801,0.6779679,9.525684,42.48841,23.4871,-1.385447,-16.98673,-0.4441859,-4.295897,-61.37324,-7.056135,34.57793,0,0,0,110.2505,-106.5834,-58.82062,-36.03881,-110.6591,-50.37467,0.001067912,-0.1257102,0.09433498,0,0.3,0,0,0,0,
6.38224E+17,43.53881,-0.8883717,9.502337,41.09675,23.56034,-0.6529952,-16.98673,-0.4441859,-4.295897,-61.37324,-6.98289,34.65118,0,0,0,107.0111,-110.2378,-55.73668,-36.03881,-110.6591,-50.37467,0.001067912,-0.1257102,0.09433498,0,0.3,0,0,0,0,
6.38224E+17,42.64353,-1.075397,9.315559,40.43755,23.56034,-0.2135241,-16.98673,-0.4441859,-4.295897,-61.37324,-7.056135,34.57793,0,0,0,104.9429,-110.7441,-54.39934,-36.03881,-110.6591,-50.37467,0.001067912,-0.1257102,0.09433498,0,0.3,0,0,0,0,
6.38224E+17,40.99433,-1.028641,8.918655,39.19238,23.19412,0.6654179,-16.98673,-0.4441859,-4.295897,-61.37324,-6.98289,34.65118,0,0,0,101.0229,-110.7817,-52.11319,-36.03881,-110.6591,-50.37467,0.001067912,-0.1257102,0.09433498,0,0.3,0,0,0,0,
6.38224E+17,39.20378,-1.028641,8.661836,37.94721,22.75465,1.69085,-16.98673,-0.4441859,-4.295897,-61.37324,-7.056135,34.57793,0,0,0,96.96829,-110.873,-49.47112,-36.03881,-110.6591,-50.37467,0.001067912,-0.1257102,0.09433498,0,0.3,0,0,0,0,
6.38224E+17,38.40274,-1.028641,8.591794,37.36125,22.60816,2.130321,-16.98673,-0.4441859,-4.295897,-61.37324,-6.98289,34.57793,0,0,0,95.19673,-110.8974,-48.2534,-36.03881,-110.6591,-50.37467,0.001067912,-0.1257102,0.09433498,0,0.3,0,0,0,0,
6.38224E+17,36.80066,-1.028641,8.334974,35.89634,22.46167,2.862773,-16.98673,-0.4441859,-4.295897,-61.37324,-6.98289,34.65118,0,0,0,91.44772,-110.9854,-46.11224,-36.03881,-110.6591,-50.37467,0.001067912,-0.1257102,0.09433498,0,0.3,0,0,0,0,
6.38224E+17,35.26926,-1.028641,8.148195,34.50468,22.46167,3.66847,-16.98673,-0.4441859,-4.295897,-61.37324,-6.98289,34.57793,0,0,0,87.89987,-111.0477,-44.06323,-36.03881,-110.6591,-50.37467,0.001067912,-0.1257102,0.09433498,0,0.3,0,0,0,0,
6.38224E+17,33.64362,-1.028641,7.914723,32.89329,22.38842,4.547412,-16.98673,-0.4441859,-4.295897,-61.37324,-6.98289,34.57793,0,0,0,84.04051,-111.1236,-42.06756,-36.03881,-110.6591,-50.37467,0.001067912,-0.1257102,0.09433498,0,0.3,0,0,0,0,
6.38224E+17,32.79546,-1.028641,7.797987,32.08759,22.38842,4.986883,-16.98673,-0.4441859,-4.295897,-61.37324,-6.98289,34.57793,0,0,0,82.01622,-111.1608,-41.06362,-36.03881,-110.6591,-50.37467,0.001067912,-0.1257102,0.09433498,0,0.3,0,0,0,0,
6.38224E+17,31.05203,-1.028641,7.564514,30.25646,22.38842,5.79258,-16.98673,-0.4441859,-4.295897,-61.37324,-6.98289,34.65118,0,0,0,77.82792,-111.2334,-39.08862,-36.03881,-110.6591,-50.37467,0.001067912,-0.1257102,0.09433498,0,0.3,0,0,0,0,
6.38224E+17,28.97875,-1.028641,7.190958,28.2056,22.46167,6.378541,-16.98673,-0.4441859,-4.295897,-61.37324,-7.056135,34.57793,0,0,0,72.68287,-111.3451,-37.11187,-36.03881,-110.6591,-50.37467,0.001067912,-0.1257102,0.09433498,0,0.3,0,0,0,0,
6.38224E+17,27.89499,-1.028641,7.00418,27.18017,22.53491,6.598277,-16.98673,-0.4441859,-4.295897,-61.37324,-6.98289,34.57793,0,0,0,69.98581,-111.3988,-36.14188,-36.03881,-110.6591,-50.37467,0.001067912,-0.1257102,0.09433498,0,0.3,0,0,0,0,
6.38224E+17,25.20916,-1.028641,6.513887,24.76308,22.53491,7.184238,-16.98673,-0.4441859,-4.295897,-61.37324,-7.056135,34.57793,0,0,0,63.23108,-111.5331,-34.03286,-36.03881,-110.6591,-50.37467,0.001067912,-0.1257102,0.09433498,0,0.3,0,0,0,0,
6.38224E+17,22.09924,-1.005263,5.953553,22.05301,22.60816,7.770199,-16.98673,-0.4441859,-4.295897,-61.37324,-6.98289,34.65118,0,0,0,55.36367,-111.6203,-32.00055,-36.03881,-110.6591,-50.37467,0.001067912,-0.1257102,0.09433498,0,0.3,0,0,0,0,
6.38224E+17,18.84797,-0.9585064,5.579997,18.46399,22.60816,8.35616,-16.98673,-0.4441859,-4.295897,-61.37324,-6.98289,34.65118,0,0,0,47.26266,-111.5988,-29.89692,-36.03881,-110.6591,-50.37467,0.001067912,-0.1257102,0.09433498,0,0.3,0,0,0,0,
6.38224E+17,17.24589,-0.7714807,5.486608,16.33988,22.6814,8.795631,-16.98673,-0.4441859,-4.295897,-61.37324,-6.98289,34.57793,0,0,0,43.31113,-111.1846,-28.83002,-36.03881,-110.6591,-50.37467,0.001067912,-0.1257102,0.09433498,0,0.3,0,0,0,0,
6.38224E+17,14.60718,-0.0233782,5.346524,12.67763,22.6814,9.821064,-16.98673,-0.4441859,-4.295897,-61.37324,-6.98289,34.57793,0,0,0,36.76318,-109.4743,-27.28639,-36.03881,-110.6591,-50.37467,0.001067912,-0.1257102,0.09433498,0,0.3,0,0,0,0,
6.38224E+17,12.48678,1.239045,5.299829,9.235103,22.24193,11.13948,-16.98673,-0.4441859,-4.295897,-61.37324,-7.056135,34.65118,0,0,0,31.4886,-106.5464,-26.15884,-36.03881,-110.6591,-50.37467,0.001067912,-0.1257102,0.09433498,0,0.3,0,0,0,0,
6.38224E+17,11.63862,2.197551,5.299829,7.770199,21.72922,11.72544,-16.98673,-0.4441859,-4.295897,-61.37324,-7.056135,34.65118,0,0,0,29.36685,-104.3166,-25.77382,-36.03881,-110.6591,-50.37467,0.001067912,-0.1257102,0.09433498,0,0.3,0,0,0,0,
6.38224E+17,10.71978,4.371724,5.299829,5.572844,20.63054,13.04385,-16.98673,-0.4441859,-4.295897,-61.37324,-7.056135,34.57793,0,0,0,27.02279,-99.26506,-25.60608,-36.03881,-110.6591,-50.37467,0.001067912,-0.1257102,0.09433498,0,0.3,0,0,0,0,
6.38224E+17,10.50774,7.013461,5.299829,4.034696,19.23888,14.50875,-16.98673,-0.4441859,-4.295897,-61.37324,-6.98289,34.65118,0,0,0,26.38313,-93.14755,-26.10664,-36.03881,-110.6591,-50.37467,0.001067912,-0.1257102,0.09433498,0,0.3,0,0,0,0,
6.38224E+17,10.60198,8.439531,5.299829,3.595225,18.50643,15.3877,-16.98673,-0.4441859,-4.295897,-61.37324,-6.98289,34.65118,0,0,0,26.53496,-89.85874,-26.58882,-36.03881,-110.6591,-50.37467,0.001067912,-0.1257102,0.09433498,0,0.3,0,0,0,0,
6.38224E+17,11.2381,11.36181,5.299829,3.082508,17.11477,16.8526,-16.98673,-0.4441859,-4.295897,-61.37324,-6.98289,34.65118,0,0,0,27.8793,-83.15946,-28.03902,-36.03881,-110.6591,-50.37467,0.001067912,-0.1257102,0.09433498,0,0.3,0,0,0,0,
6.38224E+17,12.58102,14.61138,5.393219,3.521979,15.79636,18.09777,-16.98673,-0.4441859,-4.295897,-61.37324,-6.98289,34.65118,0,0,0,30.83698,-75.7706,-30.17829,-36.03881,-110.6591,-50.37467,0.001067912,-0.1257102,0.09433498,0,0.3,0,0,0,0,
6.38224E+17,13.75902,16.66866,5.673386,4.181186,15.06391,18.61049,-16.98673,-0.4441859,-4.295897,-61.37324,-6.98289,34.57793,0,0,0,33.51843,-71.09715,-31.46479,-36.03881,-110.6591,-50.37467,0.001067912,-0.1257102,0.09433498,0,0.3,0,0,0,0,
6.38224E+17,16.04433,19.63769,6.303762,5.865825,13.89198,19.34294,-16.98673,-0.4441859,-4.295897,-61.37324,-6.98289,34.57793,0,0,0,38.75849,-64.37864,-33.57676,-36.03881,-110.6591,-50.37467,0.001067912,-0.1257102,0.09433498,0,0.3,0,0,0,0,
6.38224E+17,18.96577,22.32619,7.074222,8.35616,12.79331,19.85565,-16.98673,-0.4441859,-4.295897,-61.37324,-6.98289,34.57793,0,0,0,45.42774,-58.32801,-36.16175,-36.03881,-110.6591,-50.37467,0.001067912,-0.1257102,0.09433498,0,0.3,0,0,0,0,
6.38224E+17,22.16992,24.21982,7.751292,11.35921,11.69463,20.07539,-16.98673,-0.4441859,-4.295897,-61.37324,-6.98289,34.65118,0,0,0,52.67783,-54.07626,-39.07297,-36.03881,-110.6591,-50.37467,0.001067912,-0.1257102,0.09433498,0,0.3,0,0,0,0,
6.38224E+17,23.8898,24.89779,7.961418,13.1171,11.40165,20.14863,-16.98673,-0.4441859,-4.295897,-61.37324,-7.056135,34.57793,0,0,0,56.4647,-52.57426,-40.8689,-36.03881,-110.6591,-50.37467,0.001067912,-0.1257102,0.09433498,0,0.3,0,0,0,0,
6.38224E+17,27.09396,25.50562,8.124848,16.41313,11.10867,20.14863,-16.98673,-0.4441859,-4.295897,-61.37324,-6.98289,34.65118,0,0,0,63.39903,-51.24104,-44.4252,-36.03881,-110.6591,-50.37467,0.001067912,-0.1257102,0.09433498,0,0.3,0,0,0,0,
6.38224E+17,30.29811,25.529,8.124848,19.56267,11.40165,20.22188,-16.98673,-0.4441859,-4.295897,-61.37324,-6.98289,34.65118,0,0,0,70.21473,-51.19193,-48.18279,-36.03881,-110.6591,-50.37467,0.001067912,-0.1257102,0.09433498,0,0.3,0,0,0,0,
6.38224E+17,31.90019,25.529,8.101501,21.17406,11.69463,20.22188,-16.98673,-0.4441859,-4.295897,-61.37324,-6.98289,34.57793,0,0,0,73.51848,-51.1996,-50.23848,-36.03881,-110.6591,-50.37467,0.001067912,-0.1257102,0.09433498,0,0.3,0,0,0,0,
6.38224E+17,35.15146,25.41211,8.008113,24.68983,12.28059,20.14863,-16.98673,-0.4441859,-4.295897,-61.37324,-6.98289,34.65118,0,0,0,80.04229,-51.47567,-54.6785,-36.03881,-110.6591,-50.37467,0.001067912,-0.1257102,0.09433498,0,0.3,0,0,0,0,
6.38224E+17,38.0729,25.24846,7.77464,28.13236,12.79331,20.07539,-16.98673,-0.4441859,-4.295897,-61.37324,-6.98289,34.65118,0,0,0,85.50029,-51.89452,-59.20115,-36.03881,-110.6591,-50.37467,0.001067912,-0.1257102,0.09433498,0,0.3,0,0,0,0,
6.38224E+17,40.57025,25.22508,7.541167,31.20865,13.23278,19.85565,-16.98673,-0.4441859,-4.295897,-61.37324,-6.98289,34.57793,0,0,0,89.83989,-52.01615,-63.4218,-36.03881,-110.6591,-50.37467,0.001067912,-0.1257102,0.09433498,0,0.3,0,0,0,0,
6.38224E+17,41.74825,25.22508,7.284348,32.45382,13.45251,19.78241,-16.98673,-0.4441859,-4.295897,-61.29999,-6.98289,34.57793,0,0,0,91.5834,-52.09327,-65.73317,-36.03881,-110.6591,-50.37467,0.001067912,-0.1257102,0.09433498,0,0.3,0,0,0,0,
6.38224E+17,43.93933,25.22508,6.560582,34.87091,13.81874,19.85565,-16.98673,-0.4441859,-4.295897,-61.37324,-6.98289,34.57793,0,0,0,94.27937,-52.29629,-70.51373,-36.03881,-110.6591,-50.37467,0.001067912,-0.1257102,0.09433498,0,0.3,0,0,0,0,
6.38224E+17,46.03617,25.24846,5.953553,36.84853,14.25821,19.9289,-16.98673,-0.4441859,-4.295897,-61.37324,-6.98289,34.65118,0,0,0,96.76839,-52.40105,-75.01981,-36.03881,-110.6591,-50.37467,0.001067912,-0.1257102,0.09433498,0,0.3,0,0,0,0,
6.38224E+17,47.21416,25.24846,5.626691,37.72747,14.47795,19.9289,-16.98673,-0.4441859,-4.295897,-61.37324,-7.056135,34.57793,0,0,0,98.11121,-52.4778,-77.54305,-36.03881,-110.6591,-50.37467,0.001067912,-0.1257102,0.09433498,0,0.3,0,0,0,0,
6.38224E+17,49.33456,25.27184,4.832884,39.70509,14.84417,20.00214,-16.98673,-0.4441859,-4.295897,-61.37324,-6.98289,34.65118,0,0,0,99.9907,-52.59699,-82.44931,-36.03881,-110.6591,-50.37467,0.001067912,-0.1257102,0.09433498,0,0.3,0,0,0,0,
6.38224E+17,51.33715,25.29522,3.945688,41.46298,15.28364,19.9289,-16.98673,-0.4441859,-4.295897,-61.37324,-6.98289,34.65118,0,0,0,101.3057,-52.70582,-87.29664,-36.03881,-110.6591,-50.37467,0.001067912,-0.1257102,0.09433498,0,0.3,0,0,0,0,
6.38224E+17,52.32668,25.31859,3.525437,42.26867,15.43013,19.78241,-16.98673,-0.4441859,-4.295897,-61.37324,-6.98289,34.57793,0,0,0,101.8994,-52.72036,-89.66894,-36.03881,-110.6591,-50.37467,0.001067912,-0.1257102,0.09433498,0,0.3,0,0,0,0,
6.38224E+17,54.11723,25.41211,2.638241,43.80682,15.79636,19.70916,-16.98673,-0.4441859,-4.295897,-61.37324,-6.98289,34.65118,0,0,0,102.562,-52.6347,-94.15446,-36.03881,-110.6591,-50.37467,0.001067912,-0.1257102,0.09433498,0,0.3,0,0,0,0,
6.38224E+17,55.31879,25.55238,1.681003,45.05199,16.16258,19.85565,-16.98673,-0.4441859,-4.295897,-61.37324,-6.98289,34.57793,0,0,0,102.1491,-52.42396,-97.66815,-36.03881,-110.6591,-50.37467,0.001067912,-0.1257102,0.09433498,0,0.3,0,0,0,0,
6.38224E+17,55.31879,25.85629,-0.04669453,45.63795,16.82179,20.00214,-16.98673,-0.4441859,-4.295897,-61.37324,-6.98289,34.57793,0,0,0,98.59067,-51.84396,-100.1304,-36.03881,-110.6591,-50.37467,0.001067912,-0.1257102,0.09433498,0,0.3,0,0,0,0,
6.38224E+17,55.31879,26.11345,-1.003932,45.63795,17.18801,20.36837,-16.98673,-0.4441859,-4.295897,-61.37324,-6.98289,34.57793,0,0,0,96.54308,-51.28553,-101.5472,-36.03881,-110.6591,-50.37467,0.001067912,-0.1257102,0.09433498,0,0.3,0,0,0,0,
6.38224E+17,55.27167,26.62777,-2.591547,45.5647,17.70073,21.61354,-16.98673,-0.4441859,-4.295897,-61.29999,-6.98289,34.57793,0,0,0,93.01594,-50.09715,-103.8746,-36.03881,-110.6591,-50.37467,0.001067912,-0.1257102,0.09433498,0,0.3,0,0,0,0,
6.38224E+17,55.27167,27.04858,-3.782257,45.5647,18.06696,22.63897,-16.98673,-0.4441859,-4.295897,-61.37324,-6.98289,34.65118,0,0,0,90.37851,-49.0692,-105.7028,-36.03881,-110.6591,-50.37467,0.001067912,-0.1257102,0.09433498,0,0.3,0,0,0,0,
6.38224E+17,55.27167,27.39925,-4.202508,45.5647,18.21345,23.00519,-16.98673,-0.4441859,-4.295897,-61.37324,-6.98289,34.57793,0,0,0,89.26975,-48.27536,-106.4714,-36.03881,-110.6591,-50.37467,0.001067912,-0.1257102,0.09433498,0,0.3,0,0,0,0,
6.38224E+17,55.27167,28.45127,-4.856231,45.49146,18.65292,23.51791,-16.98673,-0.4441859,-4.295897,-61.37324,-6.98289,34.57793,0,0,0,87.08083,-45.99187,-107.9886,-36.03881,-110.6591,-50.37467,0.001067912,-0.1257102,0.09433498,0,0.3,0,0,0,0,
6.38224E+17,55.22455,30.06437,-5.136398,45.34497,18.50643,23.73765,-16.98673,-0.4441859,-4.295897,-61.37324,-7.056135,34.65118,0,0,0,84.99049,-42.65982,-109.3341,-36.03881,-110.6591,-50.37467,0.001067912,-0.1257102,0.09433498,0,0.3,0,0,0,0,
6.38224E+17,55.22455,31.23328,-5.113051,45.19848,18.1402,23.81089,-16.98673,-0.4441859,-4.295897,-61.37324,-6.98289,34.65118,0,0,0,83.89581,-40.32423,-110.0942,-36.03881,-110.6591,-50.37467,0.001067912,-0.1257102,0.09433498,0,0.3,0,0,0,0,
6.38224E+17,55.17743,33.66461,-4.856231,44.9055,17.11477,23.81089,-16.98673,-0.4441859,-4.295897,-61.37324,-6.98289,34.65118,0,0,0,81.84444,-35.60134,-111.4188,-36.03881,-110.6591,-50.37467,0.001067912,-0.1257102,0.09433498,0,0.3,0,0,0,0,
6.38224E+17,54.96539,36.07257,-4.132466,44.53928,16.08934,23.51791,-16.98673,-0.4441859,-4.295897,-61.37324,-7.056135,34.57793,0,0,0,80.38499,-31.13557,-111.9914,-36.03881,-110.6591,-50.37467,0.001067912,-0.1257102,0.09433498,0,0.3,0,0,0,0,
6.38224E+17,54.49419,38.64417,-2.848366,44.0998,14.91741,22.56572,-16.98673,-0.4441859,-4.295897,-61.37324,-6.98289,34.65118,0,0,0,79.39091,-26.56059,-111.7089,-36.03881,-110.6591,-50.37467,0.001067912,-0.1257102,0.09433498,0,0.3,0,0,0,0,
6.38224E+17,54.28215,39.85984,-2.101254,43.80682,14.33146,21.97976,-16.98673,-0.4441859,-4.295897,-61.37324,-6.98289,34.57793,0,0,0,79.13773,-24.44476,-111.4464,-36.03881,-110.6591,-50.37467,0.001067912,-0.1257102,0.09433498,0,0.3,0,0,0,0,
6.38224E+17,53.62247,42.26779,-0.4435981,43.29411,13.23278,20.73459,-16.98673,-0.4441859,-4.295897,-61.37324,-7.056135,34.57793,0,0,0,78.61885,-20.30524,-110.4348,-36.03881,-110.6591,-50.37467,0.001067912,-0.1257102,0.09433498,0,0.3,0,0,0,0,
6.38224E+17,52.58583,44.62899,1.470878,42.48841,11.98761,19.26969,-16.98673,-0.4441859,-4.295897,-61.37324,-6.98289,34.65118,0,0,0,78.09544,-16.27592,-108.6109,-36.03881,-110.6591,-50.37467,0.001067912,-0.1257102,0.09433498,0,0.3,0,0,0,0,
6.38224E+17,51.97327,45.86803,2.568199,42.04893,11.25516,18.46399,-16.98673,-0.4441859,-4.295897,-61.37324,-6.98289,34.65118,0,0,0,77.84961,-14.15571,-107.4687,-36.03881,-110.6591,-50.37467,0.001067912,-0.1257102,0.09433498,0,0.3,0,0,0,0,
6.38224E+17,50.46544,47.99545,4.482675,41.02351,9.717009,16.70611,-16.98673,-0.4441859,-4.295897,-61.37324,-6.98289,34.65118,0,0,0,76.86089,-10.50081,-104.9129,-36.03881,-110.6591,-50.37467,0.001067912,-0.1257102,0.09433498,0,0.3,0,0,0,0,
6.38224E+17,48.32148,50.21638,6.677318,39.85158,8.03237,14.94823,-16.98673,-0.4441859,-4.295897,-61.37324,-6.98289,34.65118,0,0,0,75.31236,-6.620448,-101.2998,-36.03881,-110.6591,-50.37467,0.001067912,-0.1257102,0.09433498,0,0.3,0,0,0,0,
6.38224E+17,47.11992,51.33854,7.797987,39.04589,7.226673,14.14253,-16.98673,-0.4441859,-4.295897,-61.37324,-6.98289,34.65118,0,0,0,74.30321,-4.640415,-99.35133,-36.03881,-110.6591,-50.37467,0.001067912,-0.1257102,0.09433498,0,0.3,0,0,0,0,
6.38224E+17,44.43409,53.46595,10.03932,37.43449,5.395544,12.82412,-16.98673,-0.4441859,-4.295897,-61.37324,-6.98289,34.57793,0,0,0,71.84966,-0.8110344,-95.06682,-36.03881,-110.6591,-50.37467,0.001067912,-0.1257102,0.09433498,0,0.3,0,0,0,0,
6.38224E+17,41.63045,55.56999,12.91104,35.45687,3.344679,11.57895,-16.98673,-0.4441859,-4.295897,-61.37324,-6.98289,34.57793,0,0,0,69.88113,3.36074,-89.72519,-36.03881,-110.6591,-50.37467,0.001067912,-0.1257102,0.09433498,0,0.3,0,0,0,0,
6.38224E+17,39.01529,57.08957,15.68936,33.40601,1.000834,10.33378,-16.98673,-0.4441859,-4.295897,-61.37324,-7.056135,34.57793,0,0,0,68.31222,6.918483,-84.03746,-36.03881,-110.6591,-50.37467,0.001067912,-0.1257102,0.09433498,0,0.3,0,0,0,0,
6.38224E+17,37.79018,57.65065,16.92677,32.45382,-0.2443342,9.821064,-16.98673,-0.4441859,-4.295897,-61.37324,-6.98289,34.65118,0,0,0,67.51376,8.431281,-81.28098,-36.03881,-110.6591,-50.37467,0.001067912,-0.1257102,0.09433498,0,0.3,0,0,0,0,
6.38224E+17,35.26926,58.32861,19.30819,30.25646,-2.73467,8.649141,-16.98673,-0.4441859,-4.295897,-61.37324,-6.98289,34.65118,0,0,0,65.88766,10.99109,-75.18758,-36.03881,-110.6591,-50.37467,0.001067912,-0.1257102,0.09433498,0,0.3,0,0,0,0,
6.38224E+17,32.84259,58.46889,21.50283,28.13236,-4.85878,7.770199,-16.98673,-0.4441859,-4.295897,-61.37324,-7.056135,34.57793,0,0,0,64.32935,12.94295,-68.69315,-36.03881,-110.6591,-50.37467,0.001067912,-0.1257102,0.09433498,0,0.3,0,0,0,0,
6.38224E+17,31.57035,58.44551,22.6235,27.03368,-6.103948,7.550464,-16.98673,-0.4441859,-4.295897,-61.37324,-6.98289,34.65118,0,0,0,63.3906,13.8942,-65.19046,-36.03881,-110.6591,-50.37467,0.001067912,-0.1257102,0.09433498,0,0.3,0,0,0,0,
6.38224E+17,29.16723,58.21173,24.49128,25.05606,-8.154812,7.110993,-16.98673,-0.4441859,-4.295897,-61.37324,-6.98289,34.65118,0,0,0,61.177,15.34582,-58.73949,-36.03881,-110.6591,-50.37467,0.001067912,-0.1257102,0.09433498,0,0.3,0,0,0,0,
6.38224E+17,26.34004,57.65065,25.86877,23.07844,-9.619716,6.818012,-16.98673,-0.4441859,-4.295897,-61.37324,-6.98289,34.65118,0,0,0,57.47439,16.01649,-52.2637,-36.03881,-110.6591,-50.37467,0.001067912,-0.1257102,0.09433498,0,0.3,0,0,0,0,
6.38224E+17,24.95,57.13633,26.17229,22.12625,-10.05919,6.818012,-16.98673,-0.4441859,-4.295897,-61.37324,-6.98289,34.57793,0,0,0,55.33454,15.68134,-49.41381,-36.03881,-110.6591,-50.37467,0.001067912,-0.1257102,0.09433498,0,0.3,0,0,0,0,
6.38224E+17,21.67517,55.89729,26.9194,19.34294,-10.5719,7.110993,-16.98673,-0.4441859,-4.295897,-61.37324,-6.98289,34.65118,0,0,0,49.91273,14.86753,-42.76643,-36.03881,-110.6591,-50.37467,0.001067912,-0.1257102,0.09433498,0,0.3,0,0,0,0,
6.38224E+17,18.77729,54.79851,27.89998,16.26664,-11.15786,7.477218,-16.98673,-0.4441859,-4.295897,-61.37324,-6.98289,34.57793,0,0,0,44.82919,14.4641,-36.4938,-36.03881,-110.6591,-50.37467,0.001067912,-0.1257102,0.09433498,0,0.3,0,0,0,0,
6.38224E+17,16.13857,53.46595,28.95061,13.33683,-11.89032,8.649141,-16.98673,-0.4441859,-4.295897,-61.37324,-6.98289,34.65118,0,0,0,40.00757,13.81093,-30.08994,-36.03881,-110.6591,-50.37467,0.001067912,-0.1257102,0.09433498,0,0.3,0,0,0,0,
6.38224E+17,15.07837,52.71785,29.4876,12.01842,-12.25654,9.308348,-16.98673,-0.4441859,-4.295897,-61.37324,-6.98289,34.65118,0,0,0,38.08843,13.37541,-26.97588,-36.03881,-110.6591,-50.37467,0.001067912,-0.1257102,0.09433498,0,0.3,0,0,0,0,
6.38224E+17,13.52342,51.22165,30.725,9.747819,-12.8425,10.62676,-16.98673,-0.4441859,-4.295897,-61.37324,-6.98289,34.65118,0,0,0,35.46209,12.67469,-20.90528,-36.03881,-110.6591,-50.37467,0.001067912,-0.1257102,0.09433498,0,0.3,0,0,0,0,
6.38224E+17,12.62814,49.84233,31.96241,8.136425,-13.42846,11.94517,-16.98673,-0.4441859,-4.295897,-61.37324,-6.98289,34.57793,0,0,0,34.23345,12.13221,-15.55089,-36.03881,-110.6591,-50.37467,0.001067912,-0.1257102,0.09433498,0,0.3,0,0,0,0,
6.38224E+17,12.39254,49.11761,32.54609,7.623709,-13.79469,12.53114,-16.98673,-0.4441859,-4.295897,-61.37324,-6.98289,34.65118,0,0,0,34.12657,11.7613,-13.03702,-36.03881,-110.6591,-50.37467,0.001067912,-0.1257102,0.09433498,0,0.3,0,0,0,0,
6.38224E+17,12.27474,47.64478,33.57337,7.110993,-14.52714,13.55657,-16.98673,-0.4441859,-4.295897,-61.37324,-6.98289,34.57793,0,0,0,34.77797,10.78893,-8.505272,-36.03881,-110.6591,-50.37467,0.001067912,-0.1257102,0.09433498,0,0.3,0,0,0,0,
6.38224E+17,12.27474,46.21871,34.34383,7.257483,-15.03986,14.06928,-16.98673,-0.4441859,-4.295897,-61.37324,-6.98289,34.65118,0,0,0,35.60965,9.524164,-4.682762,-36.03881,-110.6591,-50.37467,0.001067912,-0.1257102,0.09433498,0,0.3,0,0,0,0,
6.38224E+17,12.32186,44.7225,34.9742,7.550464,-15.33284,14.28902,-16.98673,-0.4441859,-4.295897,-61.37324,-6.98289,34.57793,0,0,0,36.53152,7.916553,-1.107896,-36.03881,-110.6591,-50.37467,0.001067912,-0.1257102,0.09433498,0,0.3,0,0,0,0,
6.38224E+17,12.34542,43.92765,35.27772,7.770199,-15.33284,14.43551,-16.98673,-0.4441859,-4.295897,-61.37324,-6.98289,34.57793,0,0,0,37.00018,6.999576,0.7041772,-36.03881,-110.6591,-50.37467,0.001067912,-0.1257102,0.09433498,0,0.3,0,0,0,0,
6.38224E+17,12.43966,42.17428,35.8614,8.209671,-15.33284,14.582,-16.98673,-0.4441859,-4.295897,-61.37324,-6.98289,34.57793,0,0,0,38.11627,4.807878,4.442359,-36.03881,-110.6591,-50.37467,0.001067912,-0.1257102,0.09433498,0,0.3,0,0,0,0,
6.38224E+17,12.46322,40.3274,36.44508,8.722386,-15.18635,14.87498,-16.98673,-0.4441859,-4.295897,-61.37324,-6.98289,34.57793,0,0,0,39.03567,2.377752,8.264977,-36.03881,-110.6591,-50.37467,0.001067912,-0.1257102,0.09433498,0,0.3,0,0,0,0,
6.38224E+17,12.46322,39.46241,36.63186,8.942122,-15.1131,15.09472,-16.98673,-0.4441859,-4.295897,-61.37324,-6.98289,34.65118,0,0,0,39.3897,1.092016,9.866794,-36.03881,-110.6591,-50.37467,0.001067912,-0.1257102,0.09433498,0,0.3,0,0,0,0,
6.38224E+17,12.48678,37.45188,36.86533,9.308348,-15.03986,15.68068,-16.98673,-0.4441859,-4.295897,-61.37324,-6.98289,34.65118,0,0,0,40.18631,-2.246915,13.11688,-36.03881,-110.6591,-50.37467,0.001067912,-0.1257102,0.09433498,0,0.3,0,0,0,0,
6.38224E+17,12.60458,35.27771,37.05211,9.674574,-14.67363,16.19339,-16.98673,-0.4441859,-4.295897,-61.37324,-6.98289,34.65118,0,0,0,41.28981,-6.060046,16.30067,-36.03881,-110.6591,-50.37467,0.001067912,-0.1257102,0.09433498,0,0.3,0,0,0,0,
6.38224E+17,12.67526,34.13218,37.1455,9.894309,-14.4539,16.63286,-16.98673,-0.4441859,-4.295897,-61.37324,-6.98289,34.65118,0,0,0,41.88867,-8.120697,17.89966,-36.03881,-110.6591,-50.37467,0.001067912,-0.1257102,0.09433498,0,0.3,0,0,0,0,
6.38224E+17,12.7695,31.72422,37.44902,10.62676,-13.72145,17.73154,-16.98673,-0.4441859,-4.295897,-61.37324,-6.98289,34.65118,0,0,0,42.99246,-12.39626,21.3494,-36.03881,-110.6591,-50.37467,0.001067912,-0.1257102,0.09433498,0,0.3,0,0,0,0,
6.38224E+17,12.7695,29.47991,37.82257,11.21272,-12.91575,19.04996,-16.98673,-0.4441859,-4.295897,-61.37324,-6.98289,34.57793,0,0,0,43.73234,-16.36098,24.61402,-36.03881,-110.6591,-50.37467,0.001067912,-0.1257102,0.09433498,0,0.3,0,0,0,0,
6.38224E+17,12.7695,27.3525,38.33621,11.87193,-12.1833,20.44161,-16.98673,-0.4441859,-4.295897,-61.37324,-6.98289,34.65118,0,0,0,44.46109,-19.97821,27.82955,-36.03881,-110.6591,-50.37467,0.001067912,-0.1257102,0.09433498,0,0.3,0,0,0,0,
6.38224E+17,12.74594,26.23034,38.63972,12.16491,-11.89032,21.17406,-16.98673,-0.4441859,-4.295897,-61.37324,-7.056135,34.57793,0,0,0,44.76213,-21.86989,29.53529,-36.03881,-110.6591,-50.37467,0.001067912,-0.1257102,0.09433498,0,0.3,0,0,0,0,
6.38224E+17,12.74594,24.21982,39.01328,12.67763,-11.30435,22.34599,-16.98673,-0.4441859,-4.295897,-61.37324,-7.056135,34.65118,0,0,0,45.35151,-25.55765,32.14087,-36.03881,-110.6591,-50.37467,0.001067912,-0.1257102,0.09433498,0,0.3,0,0,0,0,
6.38224E+17,12.7695,22.27943,39.29345,12.89736,-10.93813,23.00519,-16.98673,-0.4441859,-4.295897,-61.29999,-6.98289,34.57793,0,0,0,45.93972,-29.29507,34.35383,-36.03881,-110.6591,-50.37467,0.001067912,-0.1257102,0.09433498,0,0.3,0,0,0,0,
6.38224E+17,12.79306,21.27416,39.41019,12.97061,-10.79164,23.29818,-16.98673,-0.4441859,-4.295897,-61.37324,-6.98289,34.65118,0,0,0,46.26178,-31.29545,35.38623,-36.03881,-110.6591,-50.37467,0.001067912,-0.1257102,0.09433498,0,0.3,0,0,0,0,
6.38224E+17,12.86374,19.1935,39.7137,13.04385,-11.08462,23.73765,-16.98673,-0.4441859,-4.295897,-61.37324,-6.98289,34.65118,0,0,0,47.00716,-35.38897,37.4926,-36.03881,-110.6591,-50.37467,0.001067912,-0.1257102,0.09433498,0,0.3,0,0,0,0,
6.38224E+17,12.86374,17.04271,40.25069,13.26359,-10.5719,24.32361,-16.98673,-0.4441859,-4.295897,-61.37324,-6.98289,34.57793,0,0,0,47.56691,-39.3432,39.94371,-36.03881,-110.6591,-50.37467,0.001067912,-0.1257102,0.09433498,0,0.3,0,0,0,0,
6.38224E+17,12.84018,16.0842,40.53086,13.26359,-9.985942,24.61659,-16.98673,-0.4441859,-4.295897,-61.37324,-6.98289,34.65118,0,0,0,47.73295,-41.0589,41.06752,-36.03881,-110.6591,-50.37467,0.001067912,-0.1257102,0.09433498,0,0.3,0,0,0,0,
6.38224E+17,12.62814,14.75165,40.85772,13.41008,-9.033754,25.20255,-16.98673,-0.4441859,-4.295897,-61.37324,-6.98289,34.57793,0,0,0,47.26397,-43.55259,42.61014,-36.03881,-110.6591,-50.37467,0.001067912,-0.1257102,0.09433498,0,0.3,0,0,0,0,
6.38224E+17,12.20406,13.79314,41.04449,13.33683,-8.228058,25.64202,-16.98673,-0.4441859,-4.295897,-61.37324,-6.98289,34.65118,0,0,0,45.88692,-45.42962,43.81262,-36.03881,-110.6591,-50.37467,0.001067912,-0.1257102,0.09433498,0,0.3,0,0,0,0,
6.38224E+17,11.92134,13.39571,41.06784,13.04385,-8.008322,25.78851,-16.98673,-0.4441859,-4.295897,-61.37324,-6.98289,34.57793,0,0,0,44.89285,-46.293,44.28928,-36.03881,-110.6591,-50.37467,0.001067912,-0.1257102,0.09433498,0,0.3,0,0,0,0,
6.38224E+17,11.21454,12.85801,41.06784,12.3114,-7.788587,26.00825,-16.98673,-0.4441859,-4.295897,-61.37324,-6.98289,34.65118,0,0,0,42.32166,-47.51173,45.10566,-36.03881,-110.6591,-50.37467,0.001067912,-0.1257102,0.09433498,0,0.3,0,0,0,0,
6.38224E+17,10.27214,12.67099,41.06784,11.28597,-7.642097,26.30123,-16.98673,-0.4441859,-4.295897,-61.37324,-6.98289,34.57793,0,0,0,38.82233,-47.93625,45.86749,-36.03881,-110.6591,-50.37467,0.001067912,-0.1257102,0.09433498,0,0.3,0,0,0,0,
6.38224E+17,9.164824,12.64761,41.06784,10.0408,-7.495606,26.81394,-16.98673,-0.4441859,-4.295897,-61.37324,-7.056135,34.65118,0,0,0,34.6772,-47.98934,46.58951,-36.03881,-110.6591,-50.37467,0.001067912,-0.1257102,0.09433498,0,0.3,0,0,0,0,
6.38224E+17,8.552266,12.64761,41.06784,9.308348,-7.495606,27.10692,-16.98673,-0.4441859,-4.295897,-61.37324,-7.056135,34.65118,0,0,0,32.37731,-47.98934,46.94796,-36.03881,-110.6591,-50.37467,0.001067912,-0.1257102,0.09433498,0,0.3,0,0,0,0,
6.38224E+17,7.091548,12.64761,40.88106,7.477218,-7.422361,28.13236,-16.98673,-0.4441859,-4.295897,-61.37324,-6.98289,34.65118,0,0,0,26.83798,-48.27439,47.37765,-36.03881,-110.6591,-50.37467,0.001067912,-0.1257102,0.09433498,0,0.3,0,0,0,0,
6.38224E+17,5.277431,12.57747,40.41412,5.499599,-7.422361,29.23104,-16.98673,-0.4441859,-4.295897,-61.37324,-6.98289,34.65118,0,0,0,19.92267,-49.1416,47.33356,-36.03881,-110.6591,-50.37467,0.001067912,-0.1257102,0.09433498,0,0.3,0,0,0,0,
6.38224E+17,4.311473,12.53072,40.1573,4.327676,-7.27587,29.89024,-16.98673,-0.4441859,-4.295897,-61.37324,-6.98289,34.65118,0,0,0,16.25127,-49.63431,47.20769,-36.03881,-110.6591,-50.37467,0.001067912,-0.1257102,0.09433498,0,0.3,0,0,0,0,
6.38224E+17,2.473796,12.48396,39.62031,1.69085,-6.98289,31.20865,-16.98673,-0.4441859,-4.295897,-61.37324,-6.98289,34.65118,0,0,0,9.290033,-50.54203,46.68347,-36.03881,-110.6591,-50.37467,0.001067912,-0.1257102,0.09433498,0,0.3,0,0,0,0,
6.38224E+17,0.5183191,12.50734,39.29345,-0.7994855,-6.689909,33.11303,-16.98673,-0.4441859,-4.295897,-61.37324,-6.98289,34.57793,0,0,0,1.941642,-50.97235,46.27613,-36.03881,-110.6591,-50.37467,0.001067912,-0.1257102,0.09433498,0,0.3,0,0,0,0,
6.38224E+17,-0.4947592,12.5541,39.24675,-1.751673,-6.543418,34.3582,-16.98673,-0.4441859,-4.295897,-61.37324,-6.98289,34.65118,0,0,0,-1.852457,-50.93491,46.16917,-36.03881,-110.6591,-50.37467,0.001067912,-0.1257102,0.09433498,0,0.3,0,0,0,0,
6.38224E+17,-2.403116,12.85801,39.20006,-3.509557,-6.323683,37.14151,-16.98673,-0.4441859,-4.295897,-61.37324,-7.056135,34.57793,0,0,0,-8.985068,-50.31362,45.74895,-36.03881,-110.6591,-50.37467,0.001067912,-0.1257102,0.09433498,0,0.3,0,0,0,0,
6.38224E+17,-4.028753,13.79314,38.96659,-5.780157,-6.177193,39.63185,-16.98673,-0.4441859,-4.295897,-61.37324,-6.98289,34.65118,0,0,0,-14.99033,-48.53841,44.48675,-36.03881,-110.6591,-50.37467,0.001067912,-0.1257102,0.09433498,0,0.3,0,0,0,0,
6.38224E+17,-5.136071,15.17245,38.59303,-7.831022,-6.030703,41.17,-16.98673,-0.4441859,-4.295897,-61.37324,-7.056135,34.65118,0,0,0,-18.96809,-45.97482,42.68268,-36.03881,-110.6591,-50.37467,0.001067912,-0.1257102,0.09433498,0,0.3,0,0,0,0,
6.38224E+17,-5.583711,15.96731,38.40625,-8.636719,-6.030703,41.8292,-16.98673,-0.4441859,-4.295897,-61.37324,-6.98289,34.57793,0,0,0,-20.53483,-44.46338,41.69526,-36.03881,-110.6591,-50.37467,0.001067912,-0.1257102,0.09433498,0,0.3,0,0,0,0,
6.38224E+17,-6.33763,17.97784,37.82257,-10.3946,-6.103948,42.56165,-16.98673,-0.4441859,-4.295897,-61.37324,-6.98289,34.65118,0,0,0,-23.02807,-40.82661,38.98708,-36.03881,-110.6591,-50.37467,0.001067912,-0.1257102,0.09433498,0,0.3,0,0,0,0,
6.38224E+17,-7.044428,20.43255,37.33228,-11.78626,-6.030703,42.92788,-16.98673,-0.4441859,-4.295897,-61.37324,-6.98289,34.65118,0,0,0,-25.24258,-36.12777,35.9247,-36.03881,-110.6591,-50.37467,0.001067912,-0.1257102,0.09433498,0,0.3,0,0,0,0,
6.38224E+17,-7.397828,21.67159,37.16885,-12.51871,-6.030703,43.00113,-16.98673,-0.4441859,-4.295897,-61.37324,-6.98289,34.57793,0,0,0,-26.32969,-33.66679,34.43762,-36.03881,-110.6591,-50.37467,0.001067912,-0.1257102,0.09433498,0,0.3,0,0,0,0,
6.38224E+17,-8.269547,24.14968,36.98207,-14.2766,-6.470173,42.92788,-16.98673,-0.4441859,-4.295897,-61.37324,-6.98289,34.57793,0,0,0,-29.03902,-28.61675,31.44862,-36.03881,-110.6591,-50.37467,0.001067912,-0.1257102,0.09433498,0,0.3,0,0,0,0,
6.38224E+17,-9.447544,26.51088,36.98207,-16.47395,-6.763155,42.70815,-16.98673,-0.4441859,-4.295897,-61.37324,-6.98289,34.65118,0,0,0,-32.75454,-23.65001,28.4903,-36.03881,-110.6591,-50.37467,0.001067912,-0.1257102,0.09433498,0,0.3,0,0,0,0,
6.38224E+17,-11.07318,28.75519,37.19219,-18.96429,-6.909645,42.6349,-16.98673,-0.4441859,-4.295897,-61.37324,-6.98289,34.65118,0,0,0,-37.93516,-18.72781,25.48733,-36.03881,-110.6591,-50.37467,0.001067912,-0.1257102,0.09433498,0,0.3,0,0,0,0,
6.38224E+17,-11.89778,29.73707,37.35563,-20.35595,-6.909645,42.48841,-16.98673,-0.4441859,-4.295897,-61.37324,-6.98289,34.65118,0,0,0,-40.55306,-16.50354,24.12501,-36.03881,-110.6591,-50.37467,0.001067912,-0.1257102,0.09433498,0,0.3,0,0,0,0,
6.38224E+17,-13.68834,31.88787,37.72918,-23.50549,-6.763155,42.26867,-16.98673,-0.4441859,-4.295897,-61.37324,-6.98289,34.65118,0,0,0,-46.10373,-11.67483,20.94256,-36.03881,-110.6591,-50.37467,0.001067912,-0.1257102,0.09433498,0,0.3,0,0,0,0,
6.38224E+17,-15.33753,33.99191,38.17278,-26.58179,-6.616664,41.97569,-16.98673,-0.4441859,-4.295897,-61.37324,-6.98289,34.65118,0,0,0,-51.04353,-6.930425,17.75463,-36.03881,-110.6591,-50.37467,0.001067912,-0.1257102,0.09433498,0,0.3,0,0,0,0,
6.38224E+17,-16.13857,35.06731,38.3829,-28.11993,-6.543418,41.8292,-16.98673,-0.4441859,-4.295897,-61.37324,-6.98289,34.65118,0,0,0,-53.35271,-4.565551,16.02884,-36.03881,-110.6591,-50.37467,0.001067912,-0.1257102,0.09433498,0,0.3,0,0,0,0,
6.38224E+17,-17.81133,37.17134,38.8265,-31.04974,-6.470173,41.38973,-16.98673,-0.4441859,-4.295897,-61.37324,-6.98289,34.57793,0,0,0,-58.07605,0.03410021,12.41291,-36.03881,-110.6591,-50.37467,0.001067912,-0.1257102,0.09433498,0,0.3,0,0,0,0,
6.38224E+17,-19.57833,39.11173,39.29345,-33.75981,-6.323683,41.02351,-16.98673,-0.4441859,-4.295897,-61.37324,-6.98289,34.57793,0,0,0,-62.97046,4.270561,8.70348,-36.03881,-110.6591,-50.37467,0.001067912,-0.1257102,0.09433498,0,0.3,0,0,0,0,
6.38224E+17,-20.52073,40.09362,39.59696,-35.07822,-6.323683,40.87702,-16.98673,-0.4441859,-4.295897,-61.37324,-6.98289,34.57793,0,0,0,-65.55455,6.480077,6.790439,-36.03881,-110.6591,-50.37467,0.001067912,-0.1257102,0.09433498,0,0.3,0,0,0,0,
6.38224E+17,-22.57044,42.10415,40.64759,-37.56856,-6.689909,40.95026,-16.98673,-0.4441859,-4.295897,-61.37324,-7.056135,34.57793,0,0,0,-71.31389,11.58183,3.220028,-36.03881,-110.6591,-50.37467,0.001067912,-0.1257102,0.09433498,0,0.3,0,0,0,0,
6.38224E+17,-24.52592,43.99778,41.74491,-40.13214,-7.349115,41.24324,-16.98673,-0.4441859,-4.295897,-61.37324,-6.98289,34.65118,0,0,0,-76.67569,16.48434,-0.3020488,-36.03881,-110.6591,-50.37467,0.001067912,-0.1257102,0.09433498,0,0.3,0,0,0,0,
6.38224E+17,-26.10444,45.7979,42.39864,-42.40274,-8.008322,41.90245,-16.98673,-0.4441859,-4.295897,-61.37324,-7.056135,34.65118,0,0,0,-80.47159,20.47146,-4.119248,-36.03881,-110.6591,-50.37467,0.001067912,-0.1257102,0.09433498,0,0.3,0,0,0,0,
6.38224E+17,-26.88192,46.7564,42.63211,-43.35493,-8.228058,42.12218,-16.98673,-0.4441859,-4.295897,-61.37324,-6.98289,34.65118,0,0,0,-82.1448,22.38053,-6.307022,-36.03881,-110.6591,-50.37467,0.001067912,-0.1257102,0.09433498,0,0.3,0,0,0,0,
6.38224E+17,-28.53111,48.53315,43.16909,-45.2593,-8.228058,42.48841,-16.98673,-0.4441859,-4.295897,-61.37324,-6.98289,34.65118,0,0,0,-85.75212,26.01716,-10.61856,-36.03881,-110.6591,-50.37467,0.001067912,-0.1257102,0.09433498,0,0.3,0,0,0,0,
6.38224E+17,-30.15675,50.26314,44.0096,-47.23692,-8.154812,42.92788,-16.98673,-0.4441859,-4.295897,-61.37324,-6.98289,34.65118,0,0,0,-89.36837,29.98616,-14.53281,-36.03881,-110.6591,-50.37467,0.001067912,-0.1257102,0.09433498,0,0.3,0,0,0,0,
6.38224E+17,-30.86355,51.22165,44.42985,-48.3356,-8.228058,43.29411,-16.98673,-0.4441859,-4.295897,-61.37324,-6.98289,34.57793,0,0,0,-90.73248,32.07996,-16.52795,-36.03881,-110.6591,-50.37467,0.001067912,-0.1257102,0.09433498,0,0.3,0,0,0,0,
6.38224E+17,-32.04155,53.46595,45.20031,-50.45971,-8.740773,44.0998,-16.98673,-0.4441859,-4.295897,-61.37324,-6.98289,34.57793,0,0,0,-92.31561,36.53469,-20.85224,-36.03881,-110.6591,-50.37467,0.001067912,-0.1257102,0.09433498,0,0.3,0,0,0,0,
6.38224E+17,-32.91327,56.13107,45.92407,-52.21759,-9.326735,44.46603,-16.98673,-0.4441859,-4.295897,-61.37324,-6.98289,34.65118,0,0,0,-92.43595,41.31272,-25.53828,-36.03881,-110.6591,-50.37467,0.001067912,-0.1257102,0.09433498,0,0.3,0,0,0,0,
6.38224E+17,-33.2431,57.62727,46.22758,-53.02329,-9.766206,44.53928,-16.98673,-0.4441859,-4.295897,-61.37324,-6.98289,34.65118,0,0,0,-91.92645,43.72418,-28.10206,-36.03881,-110.6591,-50.37467,0.001067912,-0.1257102,0.09433498,0,0.3,0,0,0,0,
6.38224E+17,-33.69075,60.75995,46.74123,-54.41495,-10.49866,44.61252,-16.98673,-0.4441859,-4.295897,-61.37324,-6.98289,34.57793,0,0,0,-90.00265,48.32463,-33.34948,-36.03881,-110.6591,-50.37467,0.001067912,-0.1257102,0.09433498,0,0.3,0,0,0,0,
6.38224E+17,-33.78498,64.17316,47.18483,-55.36714,-10.86488,44.31954,-16.98673,-0.4441859,-4.295897,-61.37324,-7.056135,34.57793,0,0,0,-86.69985,52.7509,-38.76586,-36.03881,-110.6591,-50.37467,0.001067912,-0.1257102,0.09433498,0,0.3,0,0,0,0,
6.38224E+17,-33.78498,67.84354,47.39495,-56.02634,-11.52409,43.29411,-16.98673,-0.4441859,-4.295897,-61.37324,-6.98289,34.65118,0,0,0,-82.5452,56.58304,-44.97552,-36.03881,-110.6591,-50.37467,0.001067912,-0.1257102,0.09433498,0,0.3,0,0,0,0,
6.38224E+17,-33.78498,69.62029,47.39495,-56.24608,-11.89032,42.41516,-16.98673,-0.4441859,-4.295897,-61.37324,-6.98289,34.57793,0,0,0,-80.4024,58.08294,-48.1782,-36.03881,-110.6591,-50.37467,0.001067912,-0.1257102,0.09433498,0,0.3,0,0,0,0,
6.38224E+17,-33.76143,72.77635,47.39495,-56.53906,-12.47628,39.70509,-16.98673,-0.4441859,-4.295897,-61.37324,-6.98289,34.57793,0,0,0,-76.4892,60.45002,-53.92523,-36.03881,-110.6591,-50.37467,0.001067912,-0.1257102,0.09433498,0,0.3,0,0,0,0,
6.38224E+17,-33.62006,75.76876,47.09144,-56.97853,-13.06224,35.8231,-16.98673,-0.4441859,-4.295897,-61.37324,-6.98289,34.65118,0,0,0,-72.22977,61.81895,-59.718,-36.03881,-110.6591,-50.37467,0.001067912,-0.1257102,0.09433498,0,0.3,0,0,0,0,
6.38224E+17,-33.40803,77.05456,46.67118,-57.12502,-13.13548,33.62574,-16.98673,-0.4441859,-4.295897,-61.37324,-6.98289,34.65118,0,0,0,-69.85761,61.80808,-62.43764,-36.03881,-110.6591,-50.37467,0.001067912,-0.1257102,0.09433498,0,0.3,0,0,0,0,
6.38224E+17,-32.84259,79.08846,45.6906,-56.97853,-13.50171,29.37753,-16.98673,-0.4441859,-4.295897,-61.37324,-6.98289,34.57793,0,0,0,-65.44037,61.13978,-66.97198,-36.03881,-110.6591,-50.37467,0.001067912,-0.1257102,0.09433498,0,0.3,0,0,0,0,
6.38224E+17,-31.90019,80.74831,44.35981,-55.9531,-13.72145,25.27579,-16.98673,-0.4441859,-4.295897,-61.37324,-7.056135,34.57793,0,0,0,-60.59747,59.62497,-70.9968,-36.03881,-110.6591,-50.37467,0.001067912,-0.1257102,0.09433498,0,0.3,0,0,0,0,
6.38224E+17,-31.24051,81.49641,43.58934,-55.22065,-13.86794,23.15168,-16.98673,-0.4441859,-4.295897,-61.37324,-6.98289,34.57793,0,0,0,-57.91116,58.64861,-72.87971,-36.03881,-110.6591,-50.37467,0.001067912,-0.1257102,0.09433498,0,0.3,0,0,0,0,
6.38224E+17,-29.73267,82.29128,41.76826,-53.31627,-14.08767,19.1232,-16.98673,-0.4441859,-4.295897,-61.37324,-6.98289,34.65118,0,0,0,-52.92532,56.03644,-75.68484,-36.03881,-110.6591,-50.37467,0.001067912,-0.1257102,0.09433498,0,0.3,0,0,0,0,
6.38224E+17,-27.96567,82.36141,39.87713,-50.67944,-14.08767,15.46094,-16.98673,-0.4441859,-4.295897,-61.37324,-6.98289,34.57793,0,0,0,-48.40512,53.18108,-77.18147,-36.03881,-110.6591,-50.37467,0.001067912,-0.1257102,0.09433498,0,0.3,0,0,0,0,
6.38224E+17,-26.99972,82.26789,38.98993,-49.1413,-14.01443,13.7763,-16.98673,-0.4441859,-4.295897,-61.37324,-6.98289,34.57793,0,0,0,-46.2352,51.84042,-77.6072,-36.03881,-110.6591,-50.37467,0.001067912,-0.1257102,0.09433498,0,0.3,0,0,0,0,
6.38224E+17,-24.64372,81.54317,37.1455,-45.77202,-13.79469,10.18729,-16.98673,-0.4441859,-4.295897,-61.37324,-7.056135,34.65118,0,0,0,-41.753,48.95617,-77.33709,-36.03881,-110.6591,-50.37467,0.001067912,-0.1257102,0.09433498,0,0.3,0,0,0,0,
6.38224E+17,-22.31128,79.95346,35.04425,-42.18301,-13.28197,7.037747,-16.98673,-0.4441859,-4.295897,-61.37324,-6.98289,34.57793,0,0,0,-37.90059,45.48043,-75.99062,-36.03881,-110.6591,-50.37467,0.001067912,-0.1257102,0.09433498,0,0.3,0,0,0,0,
6.38224E+17,-20.33225,77.84942,32.406,-38.88697,-12.54952,4.547412,-16.98673,-0.4441859,-4.295897,-61.37324,-6.98289,34.65118,0,0,0,-34.58374,41.12902,-75.01945,-36.03881,-110.6591,-50.37467,0.001067912,-0.1257102,0.09433498,0,0.3,0,0,0,0,
6.38224E+17,-19.29561,76.56361,30.98182,-37.27558,-12.11005,3.155754,-16.98673,-0.4441859,-4.295897,-61.37324,-6.98289,34.57793,0,0,0,-32.92194,38.72497,-74.31657,-36.03881,-110.6591,-50.37467,0.001067912,-0.1257102,0.09433498,0,0.3,0,0,0,0,
6.38224E+17,-18.16473,73.73485,28.53036,-34.34578,-9.839451,0.5921727,-16.98673,-0.4441859,-4.295897,-61.37324,-6.98289,34.65118,0,0,0,-31.49931,34.20625,-72.34518,-36.03881,-110.6591,-50.37467,0.001067912,-0.1257102,0.09433498,0,0.3,0,0,0,0,
6.38224E+17,-18.09405,70.41515,26.26567,-32.22166,-6.689909,-1.238957,-16.98673,-0.4441859,-4.295897,-61.37324,-6.98289,34.57793,0,0,0,-32.21038,29.40334,-69.76756,-36.03881,-110.6591,-50.37467,0.001067912,-0.1257102,0.09433498,0,0.3,0,0,0,0,
6.38224E+17,-18.14117,68.87218,25.40182,-31.56245,-4.85878,-1.678428,-16.98673,-0.4441859,-4.295897,-61.37324,-6.98289,34.65118,0,0,0,-32.77627,27.2781,-68.31435,-36.03881,-110.6591,-50.37467,0.001067912,-0.1257102,0.09433498,0,0.3,0,0,0,0,
6.38224E+17,-18.56525,66.34734,24.32785,-30.68352,-1.343012,-2.117898,-16.98673,-0.4441859,-4.295897,-61.37324,-6.98289,34.65118,0,0,0,-34.52349,23.98891,-65.55935,-36.03881,-110.6591,-50.37467,0.001067912,-0.1257102,0.09433498,0,0.3,0,0,0,0,
6.38224E+17,-20.04953,65.06154,24.25781,-30.68352,1.733285,-1.678428,-16.98673,-0.4441859,-4.295897,-61.37324,-6.98289,34.65118,0,0,0,-38.05858,22.6906,-64.06548,-36.03881,-110.6591,-50.37467,0.001067912,-0.1257102,0.09433498,0,0.3,0,0,0,0,
6.38224E+17,-21.15685,64.87452,24.63136,-31.26948,2.978453,-1.165711,-16.98673,-0.4441859,-4.295897,-61.37324,-6.98289,34.65118,0,0,0,-40.49479,22.8662,-63.7145,-36.03881,-110.6591,-50.37467,0.001067912,-0.1257102,0.09433498,0,0.3,0,0,0,0,
6.38224E+17,-23.772,65.15505,26.12559,-33.32034,4.663092,-0.140279,-16.98673,-0.4441859,-4.295897,-61.37324,-6.98289,34.65118,0,0,0,-46.2548,24.63245,-63.33736,-36.03881,-110.6591,-50.37467,0.001067912,-0.1257102,0.09433498,0,0.3,0,0,0,0,
6.38224E+17,-26.15156,65.87978,27.94668,-36.46988,4.809582,0.6654179,-16.98673,-0.4441859,-4.295897,-61.37324,-6.98289,34.65118,0,0,0,-51.56223,27.25794,-63.33767,-36.03881,-110.6591,-50.37467,0.001067912,-0.1257102,0.09433498,0,0.3,0,0,0,0,
6.38224E+17,-27.14108,66.37072,28.85722,-38.22777,4.736337,1.031644,-16.98673,-0.4441859,-4.295897,-61.37324,-6.98289,34.65118,0,0,0,-53.74178,28.72839,-63.51475,-36.03881,-110.6591,-50.37467,0.001067912,-0.1257102,0.09433498,0,0.3,0,0,0,0,
6.38224E+17,-29.00231,67.84354,31.00517,-41.67029,4.077131,1.764095,-16.98673,-0.4441859,-4.295897,-61.37324,-6.98289,34.57793,0,0,0,-57.68775,32.55604,-64.28845,-36.03881,-110.6591,-50.37467,0.001067912,-0.1257102,0.09433498,0,0.3,0,0,0,0,
6.38224E+17,-30.86355,69.97096,33.57337,-45.2593,2.978453,2.203566,-16.98673,-0.4441859,-4.295897,-61.37324,-6.98289,34.57793,0,0,0,-61.25933,37.53054,-65.84517,-36.03881,-110.6591,-50.37467,0.001067912,-0.1257102,0.09433498,0,0.3,0,0,0,0,
6.38224E+17,-32.77191,72.05163,36.09487,-48.62858,1.367059,2.423302,-16.98673,-0.4441859,-4.295897,-61.37324,-6.98289,34.65118,0,0,0,-64.76759,42.45798,-67.74206,-36.03881,-110.6591,-50.37467,0.001067912,-0.1257102,0.09433498,0,0.3,0,0,0,0,
6.38224E+17,-33.78498,73.10365,37.26224,-50.38646,0.4881175,2.423302,-16.98673,-0.4441859,-4.295897,-61.37324,-6.98289,34.65118,0,0,0,-66.44888,44.81393,-69.03355,-36.03881,-110.6591,-50.37467,0.001067912,-0.1257102,0.09433498,0,0.3,0,0,0,0,
6.38224E+17,-35.52842,74.95052,39.17671,-53.82899,-0.9035407,2.496547,-16.98673,-0.4441859,-4.295897,-61.37324,-7.056135,34.65118,0,0,0,-69.07258,48.75326,-71.61536,-36.03881,-110.6591,-50.37467,0.001067912,-0.1257102,0.09433498,0,0.3,0,0,0,0,
6.38224E+17,-37.08338,76.49348,40.46081,-56.75879,-1.635992,2.936018,-16.98673,-0.4441859,-4.295897,-61.37324,-6.98289,34.57793,0,0,0,-70.95781,51.55264,-74.47036,-36.03881,-110.6591,-50.37467,0.001067912,-0.1257102,0.09433498,0,0.3,0,0,0,0,
6.38224E+17,-37.76662,77.26497,40.97445,-58.00396,-1.855728,3.521979,-16.98673,-0.4441859,-4.295897,-61.37324,-6.98289,34.65118,0,0,0,-71.55619,52.74006,-75.98925,-36.03881,-110.6591,-50.37467,0.001067912,-0.1257102,0.09433498,0,0.3,0,0,0,0,
6.38224E+17,-39.20378,78.76117,41.81495,-60.05483,-2.002218,4.986883,-16.98673,-0.4441859,-4.295897,-61.37324,-6.98289,34.57793,0,0,0,-72.62467,54.75676,-79.31533,-36.03881,-110.6591,-50.37467,0.001067912,-0.1257102,0.09433498,0,0.3,0,0,0,0,
6.38224E+17,-40.38177,79.93008,42.02508,-61.51973,-2.002218,6.232051,-16.98673,-0.4441859,-4.295897,-61.37324,-6.98289,34.65118,0,0,0,-72.94335,55.58646,-82.58659,-36.03881,-110.6591,-50.37467,0.001067912,-0.1257102,0.09433498,0,0.3,0,0,0,0,
6.38224E+17,-40.90009,80.49116,42.00173,-62.03245,-2.002218,6.744767,-16.98673,-0.4441859,-4.295897,-61.37324,-6.98289,34.57793,0,0,0,-72.84723,55.77212,-84.25313,-36.03881,-110.6591,-50.37467,0.001067912,-0.1257102,0.09433498,0,0.3,0,0,0,0,
6.38224E+17,-41.88961,81.7302,42.00173,-62.7649,-1.782483,7.550464,-16.98673,-0.4441859,-4.295897,-61.37324,-6.98289,34.65118,0,0,0,-72.38637,56.21772,-87.64464,-36.03881,-110.6591,-50.37467,0.001067912,-0.1257102,0.09433498,0,0.3,0,0,0,0,
6.38224E+17,-42.78489,82.71208,41.76826,-63.49735,-1.635992,7.843444,-16.98673,-0.4441859,-4.295897,-61.37324,-6.98289,34.57793,0,0,0,-71.82583,56.16425,-90.74412,-36.03881,-110.6591,-50.37467,0.001067912,-0.1257102,0.09433498,0,0.3,0,0,0,0,
6.38224E+17,-43.60949,82.92249,40.85772,-64.15656,-1.709238,7.989935,-16.98673,-0.4441859,-4.295897,-61.37324,-7.056135,34.57793,0,0,0,-71.50225,54.82645,-93.29013,-36.03881,-110.6591,-50.37467,0.001067912,-0.1257102,0.09433498,0,0.3,0,0,0,0,
6.38224E+17,-44.03357,82.87573,40.29738,-64.52278,-1.635992,7.989935,-16.98673,-0.4441859,-4.295897,-61.37324,-6.98289,34.57793,0,0,0,-71.44243,53.96471,-94.45589,-36.03881,-110.6591,-50.37467,0.001067912,-0.1257102,0.09433498,0,0.3,0,0,0,0,
6.38224E+17,-45.16444,82.36141,38.89655,-65.25523,-1.416257,7.989935,-16.98673,-0.4441859,-4.295897,-61.37324,-7.056135,34.57793,0,0,0,-71.94727,51.73291,-96.81454,-36.03881,-110.6591,-50.37467,0.001067912,-0.1257102,0.09433498,0,0.3,0,0,0,0,
6.38224E+17,-46.38956,80.63142,36.49178,-66.06093,-0.6838052,7.184238,-16.98673,-0.4441859,-4.295897,-61.37324,-7.056135,34.65118,0,0,0,-73.13706,47.71563,-98.67711,-36.03881,-110.6591,-50.37467,0.001067912,-0.1257102,0.09433498,0,0.3,0,0,0,0,
6.38224E+17,-46.97857,79.39238,35.13763,-66.5004,0.04864649,6.305296,-16.98673,-0.4441859,-4.295897,-61.37324,-6.98289,34.65118,0,0,0,-74.05731,45.37129,-99.23862,-36.03881,-110.6591,-50.37467,0.001067912,-0.1257102,0.09433498,0,0.3,0,0,0,0,
6.38224E+17,-48.29792,76.77402,32.52274,-67.15961,1.440305,4.620657,-16.98673,-0.4441859,-4.295897,-61.37324,-6.98289,34.65118,0,0,0,-76.30619,40.72512,-100.3587,-36.03881,-110.6591,-50.37467,0.001067912,-0.1257102,0.09433498,0,0.3,0,0,0,0,
6.38224E+17,-49.5466,73.75823,30.00124,-67.96531,3.271434,3.155754,-16.98673,-0.4441859,-4.295897,-61.37324,-6.98289,34.57793,0,0,0,-79.11757,35.89496,-100.8884,-36.03881,-110.6591,-50.37467,0.001067912,-0.1257102,0.09433498,0,0.3,0,0,0,0,
6.38224E+17,-50.34764,72.05163,28.78718,-68.40478,4.443357,2.496547,-16.98673,-0.4441859,-4.295897,-61.37324,-6.98289,34.65118,0,0,0,-81.08047,33.34059,-101.1495,-36.03881,-110.6591,-50.37467,0.001067912,-0.1257102,0.09433498,0,0.3,0,0,0,0,
6.38224E+17,-51.80835,68.73192,26.66258,-69.64995,6.494221,0.738663,-16.98673,-0.4441859,-4.295897,-61.37324,-6.98289,34.57793,0,0,0,-85.0467,28.44781,-101.4449,-36.03881,-110.6591,-50.37467,0.001067912,-0.1257102,0.09433498,0,0.3,0,0,0,0,
6.38224E+17,-53.22195,65.55248,25.02827,-71.11485,8.398596,-1.019221,-16.98673,-0.4441859,-4.295897,-61.37324,-7.056135,34.57793,0,0,0,-89.39038,23.91561,-101.5309,-36.03881,-110.6591,-50.37467,0.001067912,-0.1257102,0.09433498,0,0.3,0,0,0,0,
6.38224E+17,-54.49419,62.06913,23.55739,-72.87273,10.52271,-2.337634,-16.98673,-0.4441859,-4.295897,-61.29999,-6.98289,34.57793,0,0,0,-94.23323,18.92987,-101.1197,-36.03881,-110.6591,-50.37467,0.001067912,-0.1257102,0.09433498,0,0.3,0,0,0,0,
6.38224E+17,-55.27167,60.12874,22.99706,-73.67843,11.40165,-2.70386,-16.98673,-0.4441859,-4.295897,-61.37324,-6.98289,34.57793,0,0,0,-97.40141,16.23201,-100.8348,-36.03881,-110.6591,-50.37467,0.001067912,-0.1257102,0.09433498,0,0.3,0,0,0,0,
6.38224E+17,-56.75595,56.08431,22.29664,-75.87578,13.15953,-3.289821,-16.98673,-0.4441859,-4.295897,-61.37324,-6.98289,34.65118,0,0,0,-104.5419,10.63208,-99.82482,-36.03881,-110.6591,-50.37467,0.001067912,-0.1257102,0.09433498,0,0.3,0,0,0,0,
6.38224E+17,-57.39207,52.39055,22.06317,-78.21963,15.28364,-3.729292,-16.98673,-0.4441859,-4.295897,-61.37324,-6.98289,34.65118,0,0,0,-110.7477,5.403587,-97.50228,-36.03881,-110.6591,-50.37467,0.001067912,-0.1257102,0.09433498,0,0.3,0,0,0,0,
6.38224E+17,-57.39207,50.66056,21.96978,-79.17181,16.30907,-3.729292,-16.98673,-0.4441859,-4.295897,-61.37324,-6.98289,34.65118,0,0,0,-113.2332,2.817137,-95.91226,-36.03881,-110.6591,-50.37467,0.001067912,-0.1257102,0.09433498,0,0.3,0,0,0,0,
6.38224E+17,-57.41562,47.52789,21.94643,-80.27049,18.50643,-3.070086,-16.98673,-0.4441859,-4.295897,-61.37324,-7.056135,34.57793,0,0,0,-117.863,-1.976849,-93.01875,-36.03881,-110.6591,-50.37467,0.001067912,-0.1257102,0.09433498,0,0.3,0,0,0,0,
6.38224E+17,-57.41562,45.16669,21.92308,-80.56348,20.26431,-1.165711,-16.98673,-0.4441859,-4.295897,-61.37324,-6.98289,34.57793,0,0,0,-121.1706,-5.790305,-90.90472,-36.03881,-110.6591,-50.37467,0.001067912,-0.1257102,0.09433498,0,0.3,0,0,0,0,
6.38224E+17,-57.41562,44.65237,21.92308,-80.56348,20.85028,-0.4332596,-16.98673,-0.4441859,-4.295897,-61.37324,-6.98289,34.57793,0,0,0,-121.8827,-6.638064,-90.4496,-36.03881,-110.6591,-50.37467,0.001067912,-0.1257102,0.09433498,0,0.3,0,0,0,0,
6.38224E+17,-57.39207,44.44196,21.92308,-80.124,21.72922,0.8119082,-16.98673,-0.4441859,-4.295897,-61.37324,-6.98289,34.65118,0,0,0,-122.14,-6.987055,-90.21437,-36.03881,-110.6591,-50.37467,0.001067912,-0.1257102,0.09433498,0,0.3,0,0,0,0,
6.38224E+17,-57.34494,45.0498,21.92308,-79.61128,21.72922,1.397869,-16.98673,-0.4441859,-4.295897,-61.37324,-6.98289,34.65118,0,0,0,-121.2372,-5.982311,-90.65131,-36.03881,-110.6591,-50.37467,0.001067912,-0.1257102,0.09433498,0,0.3,0,0,0,0,
6.38224E+17,-56.73238,46.61614,21.82969,-79.17181,21.07001,1.617605,-16.98673,-0.4441859,-4.295897,-61.37324,-6.98289,34.57793,0,0,0,-118.0447,-3.52337,-90.90463,-36.03881,-110.6591,-50.37467,0.001067912,-0.1257102,0.09433498,0,0.3,0,0,0,0,
6.38224E+17,-56.21407,47.83181,21.71296,-78.80559,20.55729,1.54436,-16.98673,-0.4441859,-4.295897,-61.37324,-7.056135,34.57793,0,0,0,-115.4035,-1.702677,-91.1351,-36.03881,-110.6591,-50.37467,0.001067912,-0.1257102,0.09433498,0,0.3,0,0,0,0,
6.38224E+17,-54.82403,51.01124,21.66626,-77.04771,19.09239,1.54436,-16.98673,-0.4441859,-4.295897,-61.37324,-6.98289,34.57793,0,0,0,-108.8206,3.070034,-91.65386,-36.03881,-110.6591,-50.37467,0.001067912,-0.1257102,0.09433498,0,0.3,0,0,0,0,
6.38224E+17,-52.91567,54.86864,21.68961,-74.33764,17.04152,1.617605,-16.98673,-0.4441859,-4.295897,-61.37324,-6.98289,34.65118,0,0,0,-100.5322,8.499516,-92.36128,-36.03881,-110.6591,-50.37467,0.001067912,-0.1257102,0.09433498,0,0.3,0,0,0,0,
6.38224E+17,-51.78479,56.92593,21.68961,-72.79948,15.94285,1.617605,-16.98673,-0.4441859,-4.295897,-61.37324,-7.056135,34.65118,0,0,0,-95.89805,11.18396,-92.84446,-36.03881,-110.6591,-50.37467,0.001067912,-0.1257102,0.09433498,0,0.3,0,0,0,0,
6.38224E+17,-49.35812,60.73657,21.57287,-69.43021,13.67225,1.837341,-16.98673,-0.4441859,-4.295897,-61.37324,-6.98289,34.65118,0,0,0,-86.66628,15.67315,-93.95805,-36.03881,-110.6591,-50.37467,0.001067912,-0.1257102,0.09433498,0,0.3,0,0,0,0,
6.38224E+17,-46.7194,63.09777,20.68568,-65.76794,11.40165,2.350057,-16.98673,-0.4441859,-4.295897,-61.37324,-6.98289,34.57793,0,0,0,-78.21793,17.51561,-94.69114,-36.03881,-110.6591,-50.37467,0.001067912,-0.1257102,0.09433498,0,0.3,0,0,0,0,
6.38224E+17,-45.61209,63.4952,19.98526,-63.86357,10.59595,2.496547,-16.98673,-0.4441859,-4.295897,-61.37324,-6.98289,34.57793,0,0,0,-75.09702,17.36477,-94.84058,-36.03881,-110.6591,-50.37467,0.001067912,-0.1257102,0.09433498,0,0.3,0,0,0,0,
6.38224E+17,-43.79797,63.14453,17.81396,-60.64079,9.936745,2.643037,-16.98673,-0.4441859,-4.295897,-61.37324,-6.98289,34.57793,0,0,0,-69.9282,15.36154,-95.42437,-36.03881,-110.6591,-50.37467,0.001067912,-0.1257102,0.09433498,0,0.3,0,0,0,0,
6.38224E+17,-42.31369,61.76521,15.45589,-58.07721,9.936745,2.423302,-16.98673,-0.4441859,-4.295897,-61.37324,-6.98289,34.65118,0,0,0,-66.39214,12.30602,-95.42101,-36.03881,-110.6591,-50.37467,0.001067912,-0.1257102,0.09433498,0,0.3,0,0,0,0,
6.38224E+17,-41.63045,60.68982,14.21848,-57.12502,10.08323,2.130321,-16.98673,-0.4441859,-4.295897,-61.37324,-6.98289,34.57793,0,0,0,-65.12581,10.36386,-95.07552,-36.03881,-110.6591,-50.37467,0.001067912,-0.1257102,0.09433498,0,0.3,0,0,0,0,
6.38224E+17,-39.98125,57.08957,10.80978,-55.44038,11.3284,0.5189275,-16.98673,-0.4441859,-4.295897,-61.37324,-6.98289,34.65118,0,0,0,-62.62316,4.316388,-93.66901,-36.03881,-110.6591,-50.37467,0.001067912,-0.1257102,0.09433498,0,0.3,0,0,0,0,
6.38224E+17,-37.93154,51.66583,6.420498,-53.90223,13.15953,-1.605182,-16.98673,-0.4441859,-4.295897,-61.37324,-6.98289,34.57793,0,0,0,-60.00997,-4.563006,-91.35127,-36.03881,-110.6591,-50.37467,0.001067912,-0.1257102,0.09433498,0,0.3,0,0,0,0,
6.38224E+17,-35.90538,45.28358,1.844434,-52.65706,16.23583,-3.949028,-16.98673,-0.4441859,-4.295897,-61.37324,-6.98289,34.65118,0,0,0,-57.54046,-15.17269,-88.87669,-36.03881,-110.6591,-50.37467,0.001067912,-0.1257102,0.09433498,0,0.3,0,0,0,0,
6.38224E+17,-34.7745,41.9405,-0.2568199,-52.29084,17.99371,-5.267441,-16.98673,-0.4441859,-4.295897,-61.37324,-6.98289,34.65118,0,0,0,-56.23248,-20.87306,-87.3652,-36.03881,-110.6591,-50.37467,0.001067912,-0.1257102,0.09433498,0,0.3,0,0,0,0,
6.38224E+17,-32.34783,35.23095,-3.712215,-51.55839,22.16869,-8.490229,-16.98673,-0.4441859,-4.295897,-61.37324,-6.98289,34.65118,0,0,0,-53.66146,-32.79411,-83.62263,-36.03881,-110.6591,-50.37467,0.001067912,-0.1257102,0.09433498,0,0.3,0,0,0,0,
6.38224E+17,-30.22743,29.08249,-5.579997,-50.75269,26.41691,-11.85951,-16.98673,-0.4441859,-4.295897,-61.29999,-6.98289,34.57793,0,0,0,-52.14113,-44.55091,-78.86115,-36.03881,-110.6591,-50.37467,0.001067912,-0.1257102,0.09433498,0,0.3,0,0,0,0,
6.38224E+17,-28.41331,23.7055,-6.210372,-50.09349,29.71294,-14.42309,-16.98673,-0.4441859,-4.295897,-61.37324,-6.98289,34.65118,0,0,0,-51.23377,-55.60597,-73.64772,-36.03881,-110.6591,-50.37467,0.001067912,-0.1257102,0.09433498,0,0.3,0,0,0,0,
6.38224E+17,-27.54159,21.22741,-6.23372,-49.65401,31.25109,-15.30203,-16.98673,-0.4441859,-4.295897,-61.37324,-6.98289,34.57793,0,0,0,-50.78112,-60.92943,-70.97304,-36.03881,-110.6591,-50.37467,0.001067912,-0.1257102,0.09433498,0,0.3,0,0,0,0,
6.38224E+17,-25.70392,16.92582,-5.860164,-48.62858,33.88792,-16.47395,-16.98673,-0.4441859,-4.295897,-61.37324,-7.056135,34.57793,0,0,0,-49.42614,-70.48049,-65.66804,-36.03881,-110.6591,-50.37467,0.001067912,-0.1257102,0.09433498,0,0.3,0,0,0,0,
6.38224E+17,-23.96048,14.21395,-5.346524,-47.09043,35.71904,-16.76693,-16.98673,-0.4441859,-4.295897,-61.37324,-6.98289,34.65118,0,0,0,-47.45034,-76.67664,-61.57664,-36.03881,-110.6591,-50.37467,0.001067912,-0.1257102,0.09433498,0,0.3,0,0,0,0,
6.38224E+17,-23.183,13.58274,-5.136398,-46.21149,36.45149,-16.91342,-16.98673,-0.4441859,-4.295897,-61.37324,-6.98289,34.57793,0,0,0,-46.32779,-78.14737,-60.17056,-36.03881,-110.6591,-50.37467,0.001067912,-0.1257102,0.09433498,0,0.3,0,0,0,0,
6.38224E+17,-21.93432,13.58274,-4.78619,-44.08738,37.62342,-16.91342,-16.98673,-0.4441859,-4.295897,-61.37324,-7.056135,34.65118,0,0,0,-44.26268,-78.21786,-58.43344,-36.03881,-110.6591,-50.37467,0.001067912,-0.1257102,0.09433498,0,0.3,0,0,0,0,
