zeyangz2/DNN_classification_different_people_hand/data/zeyang_right_27.csv
Timestamp,Therapist joint angle 0,Therapist joint angle 1,Therapist joint angle 2,Therapist joint angle 3,Therapist joint angle 4,Therapist joint angle 5,Patient joint angle 0,Patient joint angle 1,Patient joint angle 2,Patient joint angle 3,Patient joint angle 4,Patient joint angle 5,Virtual joint angle 0,Virtual joint angle 1,Virtual joint angle 2,Therapist position x,Therapist position y,Therapist position z,Patient position x,Patient position y,Patient position z,Virtual position x,Virtual position y,Virtual position z,Assistive Force, Obstacle Force Magnitude, Therapist Constant Force, Patient Constant Force, Recovery Factor, Assistance Level,label
6.38224E+17,0,0,0,0,0,0,0,0,0,0,0,0,0,0,0,0,0,0,0,0,0,0,0,0,0,0.3,0,0,0,0,0
6.38224E+17,-28.62535,-1.005263,-0.7704598,-46.43123,-63.08869,96.68983,-56.96799,-0.4675641,6.840749,-71.99379,-8.594284,-36.90935,0,0,0,-63.01648,-112.3275,-52.89119,-125.1085,-110.1389,-87.0042,0.001067912,-0.1257102,0.09433498,0,0.3,0,0,0,0,
6.38224E+17,-28.62535,-1.005263,-0.7704598,-46.43123,-63.08869,96.68983,-56.96799,-0.4675641,6.840749,-71.99379,-8.521038,-36.83611,0,0,0,-63.01648,-112.3275,-52.89119,-125.1085,-110.1389,-87.0042,0.001067912,-0.1257102,0.09433498,0,0.3,0,0,0,0,
6.38224E+17,-28.62535,-1.005263,-0.7704598,-46.43123,-63.08869,96.61659,-56.96799,-0.4675641,6.840749,-71.99379,-8.594284,-36.83611,0,0,0,-63.01648,-112.3275,-52.89119,-125.1085,-110.1389,-87.0042,0.001067912,-0.1257102,0.09433498,0,0.3,0,0,0,0,
6.38224E+17,-28.62535,-1.005263,-0.7704598,-46.43123,-63.01544,96.68983,-56.96799,-0.4675641,6.840749,-71.99379,-8.594284,-36.83611,0,0,0,-63.01648,-112.3275,-52.89119,-125.1085,-110.1389,-87.0042,0.001067912,-0.1257102,0.09433498,0,0.3,0,0,0,0,
6.38224E+17,-28.62535,-1.005263,-0.7704598,-46.43123,-63.01544,96.61659,-56.96799,-0.4675641,6.840749,-71.99379,-8.594284,-36.90935,0,0,0,-63.01648,-112.3275,-52.89119,-125.1085,-110.1389,-87.0042,0.001067912,-0.1257102,0.09433498,0,0.3,0,0,0,0,
6.38224E+17,-28.62535,-1.005263,-0.7704598,-46.43123,-63.01544,96.61659,-56.96799,-0.4675641,6.840749,-71.99379,-8.594284,-36.83611,0,0,0,-63.01648,-112.3275,-52.89119,-125.1085,-110.1389,-87.0042,0.001067912,-0.1257102,0.09433498,0,0.3,0,0,1.08E-07,0,
6.38224E+17,-28.62535,-1.005263,-0.7704598,-46.43123,-63.08869,96.61659,-56.96799,-0.4675641,6.840749,-71.99379,-8.594284,-36.90935,0,0,0,-63.01648,-112.3275,-52.89119,-125.1085,-110.1389,-87.0042,0.001067912,-0.1257102,0.09433498,0,0.3,0,0,1.08E-07,0,
6.38224E+17,-28.62535,-1.005263,-0.7704598,-46.43123,-63.08869,96.61659,-56.96799,-0.4675641,6.840749,-71.99379,-8.594284,-36.90935,0,0,0,-63.01648,-112.3275,-52.89119,-125.1085,-110.1389,-87.0042,0.001067912,-0.1257102,0.09433498,0,0.3,0,0,1.08E-07,0,
6.38224E+17,-28.62535,-1.005263,-0.7704598,-46.43123,-63.08869,96.61659,-56.96799,-0.4675641,6.840749,-71.99379,-8.521038,-36.83611,0,0,0,-63.01648,-112.3275,-52.89119,-125.1085,-110.1389,-87.0042,0.001067912,-0.1257102,0.09433498,0,0.3,0,0,1.08E-07,0,
6.38224E+17,-28.62535,-1.005263,-0.7704598,-46.43123,-63.08869,96.68983,-56.96799,-0.4675641,6.840749,-71.99379,-8.594284,-36.83611,0,0,0,-63.01648,-112.3275,-52.89119,-125.1085,-110.1389,-87.0042,0.001067912,-0.1257102,0.09433498,0,0.3,0,0,1.08E-07,0,
6.38224E+17,-28.62535,-1.005263,-0.7704598,-46.43123,-63.08869,96.68983,-56.96799,-0.4675641,6.840749,-71.99379,-8.521038,-36.83611,0,0,0,-63.01648,-112.3275,-52.89119,-125.1085,-110.1389,-87.0042,0.001067912,-0.1257102,0.09433498,0,0.3,0,0,0,0,
6.38224E+17,-28.62535,-1.005263,-0.7704598,-46.43123,-63.08869,96.68983,-56.96799,-0.4675641,6.840749,-71.99379,-8.521038,-36.83611,0,0,0,-63.01648,-112.3275,-52.89119,-125.1085,-110.1389,-87.0042,0.001067912,-0.1257102,0.09433498,0,0.3,0,0,0,0,
6.38224E+17,-28.62535,-1.005263,-0.7704598,-46.43123,-63.01544,96.68983,-56.96799,-0.4675641,6.840749,-71.99379,-8.594284,-36.83611,0,0,0,-63.01648,-112.3275,-52.89119,-125.1085,-110.1389,-87.0042,0.001067912,-0.1257102,0.09433498,0,0.3,0,0,0,0,
6.38224E+17,-28.62535,-1.005263,-0.7704598,-46.43123,-63.08869,96.68983,-56.96799,-0.4675641,6.840749,-71.99379,-8.594284,-36.83611,0,0,0,-63.01648,-112.3275,-52.89119,-125.1085,-110.1389,-87.0042,0.001067912,-0.1257102,0.09433498,0,0.3,0,0,0,0,
6.38224E+17,-28.62535,-1.005263,-0.7704598,-46.50447,-63.01544,96.61659,-56.96799,-0.4675641,6.840749,-71.99379,-8.594284,-36.83611,0,0,0,-63.01648,-112.3275,-52.89119,-125.1085,-110.1389,-87.0042,0.001067912,-0.1257102,0.09433498,0,0.3,0,0,0,0,
6.38224E+17,-28.62535,-1.005263,-0.7704598,-46.43123,-63.08869,96.61659,-56.96799,-0.4675641,6.840749,-71.99379,-8.594284,-36.83611,0,0,0,-63.01648,-112.3275,-52.89119,-125.1085,-110.1389,-87.0042,0.001067912,-0.1257102,0.09433498,0,0.3,0,0,0,0,
6.38224E+17,-28.62535,-1.005263,-0.7704598,-46.43123,-63.01544,96.61659,-56.96799,-0.4675641,6.840749,-71.99379,-8.594284,-36.83611,0,0,0,-63.01648,-112.3275,-52.89119,-125.1085,-110.1389,-87.0042,0.001067912,-0.1257102,0.09433498,0,0.3,0,0,0,0,
6.38224E+17,-28.62535,-1.005263,-0.7704598,-46.43123,-63.08869,96.61659,-56.96799,-0.4675641,6.840749,-71.99379,-8.594284,-36.90935,0,0,0,-63.01648,-112.3275,-52.89119,-125.1085,-110.1389,-87.0042,0.001067912,-0.1257102,0.09433498,0,0.3,0,0,0,0,
6.38224E+17,-28.62535,-1.005263,-0.7704598,-46.43123,-63.08869,96.68983,-56.96799,-0.4675641,6.840749,-71.99379,-8.521038,-36.83611,0,0,0,-63.01648,-112.3275,-52.89119,-125.1085,-110.1389,-87.0042,0.001067912,-0.1257102,0.09433498,0,0.3,0,0,0,0,
6.38224E+17,-28.62535,-1.005263,-0.7704598,-46.43123,-63.08869,96.61659,-56.96799,-0.4675641,6.840749,-71.99379,-8.594284,-36.83611,0,0,0,-63.01648,-112.3275,-52.89119,-125.1085,-110.1389,-87.0042,0.001067912,-0.1257102,0.09433498,0,0.3,0,0,1.08E-07,0,
6.38224E+17,-28.62535,-1.005263,-0.7704598,-46.43123,-63.08869,96.61659,-56.96799,-0.4675641,6.840749,-71.99379,-8.594284,-36.90935,0,0,0,-63.01648,-112.3275,-52.89119,-125.1085,-110.1389,-87.0042,0.001067912,-0.1257102,0.09433498,0,0.3,0,0,1.08E-07,0,
6.38224E+17,-28.62535,-1.005263,-0.7704598,-46.43123,-63.08869,96.68983,-56.96799,-0.4675641,6.840749,-71.99379,-8.594284,-36.90935,0,0,0,-63.01648,-112.3275,-52.89119,-125.1085,-110.1389,-87.0042,0.001067912,-0.1257102,0.09433498,0,0.3,0,0,1.08E-07,0,
6.38224E+17,-28.62535,-1.005263,-0.7704598,-46.50447,-63.08869,96.68983,-56.96799,-0.4675641,6.840749,-71.99379,-8.594284,-36.83611,0,0,0,-63.01648,-112.3275,-52.89119,-125.1085,-110.1389,-87.0042,0.001067912,-0.1257102,0.09433498,0,0.3,0,0,2.15E-07,0,
6.38224E+17,-28.62535,-1.005263,-0.7704598,-46.43123,-63.01544,96.68983,-56.96799,-0.4675641,6.840749,-71.99379,-8.594284,-36.83611,0,0,0,-63.01648,-112.3275,-52.89119,-125.1085,-110.1389,-87.0042,0.001067912,-0.1257102,0.09433498,0,0.3,0,0,2.15E-07,0,
6.38224E+17,-28.62535,-1.005263,-0.7704598,-46.43123,-63.01544,96.61659,-56.96799,-0.4675641,6.840749,-71.99379,-8.594284,-36.83611,0,0,0,-63.01648,-112.3275,-52.89119,-125.1085,-110.1389,-87.0042,0.001067912,-0.1257102,0.09433498,0,0.3,0,0,3.23E-07,0,
6.38224E+17,-28.62535,-1.005263,-0.7704598,-46.43123,-63.01544,96.61659,-56.96799,-0.4675641,6.840749,-71.99379,-8.594284,-36.83611,0,0,0,-63.01648,-112.3275,-52.89119,-125.1085,-110.1389,-87.0042,0.001067912,-0.1257102,0.09433498,0,0.3,0,0,3.23E-07,0,
6.38224E+17,-28.62535,-1.005263,-0.7704598,-46.43123,-63.08869,96.61659,-56.96799,-0.4675641,6.840749,-71.99379,-8.594284,-36.83611,0,0,0,-63.01648,-112.3275,-52.89119,-125.1085,-110.1389,-87.0042,0.001067912,-0.1257102,0.09433498,0,0.3,0,0,3.23E-07,0,
6.38224E+17,-28.62535,-1.005263,-0.7704598,-46.50447,-63.08869,96.68983,-56.96799,-0.4675641,6.840749,-71.99379,-8.521038,-36.83611,0,0,0,-63.01648,-112.3275,-52.89119,-125.1085,-110.1389,-87.0042,0.001067912,-0.1257102,0.09433498,0,0.3,0,0,4.31E-07,0,
6.38224E+17,-28.62535,-1.005263,-0.7704598,-46.43123,-63.08869,96.61659,-56.96799,-0.4675641,6.840749,-71.99379,-8.594284,-36.90935,0,0,0,-63.01648,-112.3275,-52.89119,-125.1085,-110.1389,-87.0042,0.001067912,-0.1257102,0.09433498,0,0.3,0,0,4.31E-07,0,
6.38224E+17,-28.62535,-1.005263,-0.7704598,-46.50447,-63.08869,96.68983,-56.96799,-0.4675641,6.840749,-71.99379,-8.521038,-36.83611,0,0,0,-63.01648,-112.3275,-52.89119,-125.1085,-110.1389,-87.0042,0.001067912,-0.1257102,0.09433498,0,0.3,0,0,4.31E-07,0,
6.38224E+17,-28.62535,-1.005263,-0.7704598,-46.43123,-63.08869,96.68983,-56.96799,-0.4675641,6.840749,-71.99379,-8.521038,-36.83611,0,0,0,-63.01648,-112.3275,-52.89119,-125.1085,-110.1389,-87.0042,0.001067912,-0.1257102,0.09433498,0,0.3,0,0,4.31E-07,0,
6.38224E+17,-28.62535,-1.005263,-0.7704598,-46.50447,-63.08869,96.68983,-56.96799,-0.4675641,6.840749,-71.99379,-8.594284,-36.83611,0,0,0,-63.01648,-112.3275,-52.89119,-125.1085,-110.1389,-87.0042,0.001067912,-0.1257102,0.09433498,0,0.3,0,0,4.31E-07,0,
6.38224E+17,-28.62535,-1.005263,-0.7704598,-46.43123,-63.08869,96.68983,-56.96799,-0.4675641,6.840749,-71.99379,-8.594284,-36.90935,0,0,0,-63.01648,-112.3275,-52.89119,-125.1085,-110.1389,-87.0042,0.001067912,-0.1257102,0.09433498,0,0.3,0,0,5.38E-07,0,
6.38224E+17,-28.62535,-1.005263,-0.7704598,-46.43123,-63.08869,96.61659,-56.96799,-0.4675641,6.840749,-71.99379,-8.594284,-36.83611,0,0,0,-63.01648,-112.3275,-52.89119,-125.1085,-110.1389,-87.0042,0.001067912,-0.1257102,0.09433498,0,0.3,0,0,4.31E-07,0,
6.38224E+17,-28.62535,-1.005263,-0.7704598,-46.50447,-63.08869,96.61659,-56.96799,-0.4675641,6.840749,-71.99379,-8.521038,-36.83611,0,0,0,-63.01648,-112.3275,-52.89119,-125.1085,-110.1389,-87.0042,0.001067912,-0.1257102,0.09433498,0,0.3,0,0,4.31E-07,0,
6.38224E+17,-28.62535,-1.005263,-0.7704598,-46.50447,-63.08869,96.61659,-56.96799,-0.4675641,6.840749,-71.99379,-8.594284,-36.83611,0,0,0,-63.01648,-112.3275,-52.89119,-125.1085,-110.1389,-87.0042,0.001067912,-0.1257102,0.09433498,0,0.3,0,0,5.38E-07,0,
6.38224E+17,-28.62535,-1.005263,-0.7704598,-46.43123,-63.08869,96.61659,-56.96799,-0.4675641,6.840749,-71.99379,-8.521038,-36.83611,0,0,0,-63.01648,-112.3275,-52.89119,-125.1085,-110.1389,-87.0042,0.001067912,-0.1257102,0.09433498,0,0.3,0,0,5.38E-07,0,
6.38224E+17,-28.62535,-1.005263,-0.7704598,-46.43123,-63.08869,96.68983,-56.96799,-0.4675641,6.840749,-71.99379,-8.521038,-36.83611,0,0,0,-63.01648,-112.3275,-52.89119,-125.1085,-110.1389,-87.0042,0.001067912,-0.1257102,0.09433498,0,0.3,0,0,5.38E-07,0,
6.38224E+17,-28.62535,-1.005263,-0.7704598,-46.50447,-63.08869,96.61659,-56.96799,-0.4675641,6.840749,-71.99379,-8.594284,-36.83611,0,0,0,-63.01648,-112.3275,-52.89119,-125.1085,-110.1389,-87.0042,0.001067912,-0.1257102,0.09433498,0,0.3,0,0,5.38E-07,0,
6.38224E+17,-28.62535,-1.005263,-0.7704598,-46.50447,-63.08869,96.61659,-56.96799,-0.4675641,6.840749,-71.99379,-8.594284,-36.90935,0,0,0,-63.01648,-112.3275,-52.89119,-125.1085,-110.1389,-87.0042,0.001067912,-0.1257102,0.09433498,0,0.3,0,0,5.38E-07,0,
6.38224E+17,-28.62535,-1.005263,-0.7704598,-46.50447,-63.08869,96.68983,-56.96799,-0.4675641,6.840749,-71.99379,-8.594284,-36.83611,0,0,0,-63.01648,-112.3275,-52.89119,-125.1085,-110.1389,-87.0042,0.001067912,-0.1257102,0.09433498,0,0.3,0,0,6.46E-07,0,
6.38224E+17,-28.62535,-1.005263,-0.7704598,-46.50447,-63.01544,96.68983,-56.96799,-0.4675641,6.840749,-71.99379,-8.594284,-36.83611,0,0,0,-63.01648,-112.3275,-52.89119,-125.1085,-110.1389,-87.0042,0.001067912,-0.1257102,0.09433498,0,0.3,0,0,6.46E-07,0,
6.38224E+17,-28.62535,-1.005263,-0.7704598,-46.35798,-63.08869,95.88414,-56.96799,-0.4675641,6.840749,-71.99379,-8.594284,-36.90935,0,0,0,-63.01648,-112.3275,-52.89119,-125.1085,-110.1389,-87.0042,0.001067912,-0.1257102,0.09433498,0,0.3,0,0,6.46E-07,0,
6.38224E+17,-28.62535,-0.8883717,-0.7704598,-46.87069,-62.20975,89.07233,-56.96799,-0.4675641,6.840749,-71.99379,-8.594284,-36.90935,0,0,0,-63.01863,-112.0555,-52.88724,-125.1085,-110.1389,-87.0042,0.001067912,-0.1257102,0.09433498,0,0.3,0,0,2.37E-06,0,
6.38224E+17,-28.64891,-0.5844551,-0.7704598,-47.82288,-61.18431,85.48332,-56.96799,-0.4675641,6.840749,-71.99379,-8.594284,-36.83611,0,0,0,-63.07047,-111.3482,-52.90518,-125.1085,-110.1389,-87.0042,0.001067912,-0.1257102,0.09433498,0,0.3,0,0,1.68E-05,0,
6.38224E+17,-28.76671,0.350673,-0.7237652,-50.97242,-58.32775,81.3816,-56.96799,-0.4675641,6.840749,-71.99379,-8.594284,-36.83611,0,0,0,-63.36212,-109.1732,-52.93595,-125.1085,-110.1389,-87.0042,0.001067912,-0.1257102,0.09433498,0,0.3,0,0,0.000125184,0,
6.38224E+17,-28.76671,0.8883717,-0.7237652,-53.16978,-54.519,81.89431,-56.96799,-0.4675641,6.840749,-71.99379,-8.594284,-36.83611,0,0,0,-63.35561,-107.9219,-52.94781,-125.1085,-110.1389,-87.0042,0.001067912,-0.1257102,0.09433498,0,0.3,0,0,0.000238205,0,
6.38224E+17,-28.76671,0.9117499,-0.7237652,-53.46276,-52.10191,83.94518,-56.96799,-0.4675641,6.840749,-71.99379,-8.594284,-36.83611,0,0,0,-63.3552,-107.8674,-52.94856,-125.1085,-110.1389,-87.0042,0.001067912,-0.1257102,0.09433498,0,0.3,0,0,0.000291379,0,
6.38224E+17,-28.76671,0.7714807,-0.7237652,-52.8768,-47.048,88.63287,-56.96799,-0.4675641,6.840749,-71.99379,-8.594284,-36.90935,0,0,0,-63.35751,-108.1939,-52.94436,-125.1085,-110.1389,-87.0042,0.001067912,-0.1257102,0.09433498,0,0.3,0,0,0.000395896,0,
6.38224E+17,-28.76671,0.4909423,-0.7471125,-50.82594,-41.26163,96.61659,-56.96799,-0.4675641,6.840749,-71.99379,-8.594284,-36.83611,0,0,0,-63.33482,-108.8461,-52.98568,-125.1085,-110.1389,-87.0042,0.001067912,-0.1257102,0.09433498,0,0.3,0,0,0.000499983,0,
6.38224E+17,-28.76671,0.233782,-0.7471125,-49.1413,-37.89235,103.9411,-56.96799,-0.4675641,6.840749,-71.99379,-8.521038,-36.90935,0,0,0,-63.33664,-109.4446,-52.98236,-125.1085,-110.1389,-87.0042,0.001067912,-0.1257102,0.09433498,0,0.3,0,0,0.000552403,0,
6.38224E+17,-28.74315,-0.2571602,-0.7471125,-46.065,-32.25247,112.9503,-56.96799,-0.4675641,6.840749,-71.99379,-8.594284,-36.83611,0,0,0,-63.28908,-110.5872,-52.95653,-125.1085,-110.1389,-87.0042,0.001067912,-0.1257102,0.09433498,0,0.3,0,0,0.000645834,0,
6.38224E+17,-28.74315,-0.6312115,-0.7237652,-42.54923,-26.53935,116.5393,-56.96799,-0.4675641,6.840749,-71.99379,-8.594284,-36.83611,0,0,0,-63.31197,-111.4584,-52.91481,-125.1085,-110.1389,-87.0042,0.001067912,-0.1257102,0.09433498,0,0.3,0,0,0.000723765,0,
6.38224E+17,-28.74315,-0.7013461,-0.7471125,-39.39969,-20.75298,121.8862,-56.96799,-0.4675641,6.840749,-71.99379,-8.594284,-36.83611,0,0,0,-63.28492,-111.6209,-52.96412,-125.1085,-110.1389,-87.0042,0.001067912,-0.1257102,0.09433498,0,0.3,0,0,0.000796528,0,
6.38224E+17,-28.74315,-0.7013461,-0.793807,-38.08128,-18.1894,123.7173,-56.96799,-0.4675641,6.840749,-71.99379,-8.594284,-36.83611,0,0,0,-63.23267,-111.6195,-53.05939,-125.1085,-110.1389,-87.0042,0.001067912,-0.1257102,0.09433498,0,0.3,0,0,0.000831726,0,
6.38224E+17,-28.74315,-0.7013461,-1.073974,-35.59094,-13.57495,123.7173,-56.96799,-0.4675641,6.840749,-71.99379,-8.521038,-36.83611,0,0,0,-62.91914,-111.6088,-53.63103,-125.1085,-110.1389,-87.0042,0.001067912,-0.1257102,0.09433498,0,0.3,0,0,0.000899539,0,
6.38224E+17,-28.74315,-0.7013461,-1.587614,-33.32034,-9.399981,121.4467,-56.96799,-0.4675641,6.840749,-71.99379,-8.594284,-36.83611,0,0,0,-62.34443,-111.5811,-54.67889,-125.1085,-110.1389,-87.0042,0.001067912,-0.1257102,0.09433498,0,0.3,0,0,0.000960893,0,
6.38224E+17,-28.74315,-0.7013461,-2.311379,-32.29491,-7.568851,121.0805,-56.96799,-0.4675641,6.840749,-71.99379,-8.594284,-36.90935,0,0,0,-61.53486,-111.5238,-56.15496,-125.1085,-110.1389,-87.0042,0.001067912,-0.1257102,0.09433498,0,0.3,0,0,0.000980268,0,
6.38224E+17,-28.74315,-0.7247244,-3.011797,-29.65808,-3.979838,120.8607,-56.96799,-0.4675641,6.840749,-71.99379,-8.594284,-36.90935,0,0,0,-60.75148,-111.5025,-57.58329,-125.1085,-110.1389,-87.0042,0.001067912,-0.1257102,0.09433498,0,0.3,0,0,0.000994477,0,
6.38224E+17,-28.74315,-0.7247244,-3.128534,-27.02126,-0.6838052,120.8607,-56.96799,-0.4675641,6.840749,-71.99379,-8.594284,-36.83611,0,0,0,-60.62101,-111.4879,-57.82117,-125.1085,-110.1389,-87.0042,0.001067912,-0.1257102,0.09433498,0,0.3,0,0,0.001000181,0,
6.38224E+17,-28.74315,-0.7247244,-3.198575,-25.19013,2.831963,123.1313,-56.96799,-0.4675641,6.840749,-71.99379,-8.521038,-36.83611,0,0,0,-60.54274,-111.4789,-57.96388,-125.1085,-110.1389,-87.0042,0.001067912,-0.1257102,0.09433498,0,0.3,0,0,0.001000181,0,
6.38224E+17,-28.74315,-0.7247244,-3.198575,-24.8239,4.516602,123.8638,-56.96799,-0.4675641,6.840749,-71.99379,-8.594284,-36.83611,0,0,0,-60.54274,-111.4789,-57.96388,-125.1085,-110.1389,-87.0042,0.001067912,-0.1257102,0.09433498,0,0.3,0,0,0.001000181,0,
6.38224E+17,-28.74315,-0.7247244,-3.408701,-25.26337,7.519653,125.3287,-56.96799,-0.4675641,6.840749,-71.99379,-8.521038,-36.83611,0,0,0,-60.30796,-111.4508,-58.39195,-125.1085,-110.1389,-87.0042,0.001067912,-0.1257102,0.09433498,0,0.3,0,0,0.000993292,0,
6.38224E+17,-28.76671,-0.7714807,-4.132466,-26.72828,9.497273,128.7712,-56.96799,-0.4675641,6.840749,-71.99379,-8.594284,-36.83611,0,0,0,-59.54359,-111.4488,-59.8914,-125.1085,-110.1389,-87.0042,0.001067912,-0.1257102,0.09433498,0,0.3,0,0,0.000962185,0,
6.38224E+17,-28.79027,-1.005263,-5.579997,-27.53397,10.52271,128.6247,-56.96799,-0.4675641,6.840749,-71.99379,-8.594284,-36.90935,0,0,0,-57.96747,-111.7076,-62.86514,-125.1085,-110.1389,-87.0042,0.001067912,-0.1257102,0.09433498,0,0.3,0,0,0.000891143,0,
6.38224E+17,-28.79027,-0.9818845,-7.821334,-28.04669,12.57357,122.9849,-56.96799,-0.4675641,6.840749,-71.99379,-8.594284,-36.83611,0,0,0,-55.47297,-111.0446,-67.40446,-125.1085,-110.1389,-87.0042,0.001067912,-0.1257102,0.09433498,0,0.3,0,0,0.000570164,0,
6.38224E+17,-28.79027,-0.9818845,-8.148195,-28.19318,14.55119,114.5617,-56.96799,-0.4675641,6.840749,-71.99379,-8.594284,-36.83611,0,0,0,-55.11014,-110.9389,-68.0647,-125.1085,-110.1389,-87.0042,0.001067912,-0.1257102,0.09433498,0,0.3,0,0,0.000154031,0,
6.38224E+17,-28.79027,-0.7481025,-8.148195,-28.26642,15.43013,110.2402,-56.96799,-0.4675641,6.840749,-71.99379,-8.594284,-36.83611,0,0,0,-55.1141,-110.3949,-68.0575,-125.1085,-110.1389,-87.0042,0.001067912,-0.1257102,0.09433498,0,0.3,0,0,0,0,
6.38224E+17,-28.79027,-0.3039166,-8.171543,-28.33967,16.52881,100.4986,-56.96799,-0.4675641,6.840749,-71.99379,-8.594284,-36.90935,0,0,0,-55.09276,-109.3534,-68.09632,-125.1085,-110.1389,-87.0042,0.001067912,-0.1257102,0.09433498,0,0.3,0,0,0,0,
6.38224E+17,-28.79027,-0.2104038,-8.054807,-28.77914,16.23583,91.78241,-56.96799,-0.4675641,6.840749,-71.99379,-8.594284,-36.90935,0,0,0,-55.22277,-109.1741,-67.85974,-125.1085,-110.1389,-87.0042,0.001067912,-0.1257102,0.09433498,0,0.3,0,0,0,0,
6.38224E+17,-28.79027,-0.350673,-7.611208,-29.43835,15.50338,83.5057,-56.96799,-0.4675641,6.840749,-71.99379,-8.594284,-36.83611,0,0,0,-55.71458,-109.6413,-66.96478,-125.1085,-110.1389,-87.0042,0.001067912,-0.1257102,0.09433498,0,0.3,0,0,0,0,
6.38224E+17,-28.79027,-0.4441859,-7.190958,-29.87782,15.13715,79.69696,-56.96799,-0.4675641,6.840749,-71.99379,-8.594284,-36.90935,0,0,0,-56.18098,-109.9849,-66.11606,-125.1085,-110.1389,-87.0042,0.001067912,-0.1257102,0.09433498,0,0.3,0,0,0,0,
6.38224E+17,-28.76671,-0.6545897,-6.560582,-31.34272,14.55119,73.03164,-56.96799,-0.4675641,6.840749,-71.99379,-8.594284,-36.90935,0,0,0,-56.83765,-110.6502,-64.82027,-125.1085,-110.1389,-87.0042,0.001067912,-0.1257102,0.09433498,0,0.3,0,0,0,0,
6.38224E+17,-28.76671,-0.6312115,-6.513887,-32.66114,14.4047,68.56369,-56.96799,-0.4675641,6.840749,-71.99379,-8.594284,-36.83611,0,0,0,-56.8899,-110.6082,-64.72508,-125.1085,-110.1389,-87.0042,0.001067912,-0.1257102,0.09433498,0,0.3,0,0,0,0,
6.38224E+17,-28.76671,-0.4675641,-6.420498,-33.17385,14.47795,66.29308,-56.96799,-0.4675641,6.840749,-71.99379,-8.594284,-36.83611,0,0,0,-56.9956,-110.2518,-64.53257,-125.1085,-110.1389,-87.0042,0.001067912,-0.1257102,0.09433498,0,0.3,0,0,0,0,
6.38224E+17,-28.76671,0.1636474,-5.906858,-34.19928,14.11172,59.77427,-56.96799,-0.4675641,6.840749,-71.99379,-8.594284,-36.83611,0,0,0,-57.56945,-108.9111,-63.4873,-125.1085,-110.1389,-87.0042,0.001067912,-0.1257102,0.09433498,0,0.3,0,0,0,0,
6.38224E+17,-28.76671,0.8416153,-5.04301,-35.22471,13.30602,52.15677,-56.96799,-0.4675641,6.840749,-71.99379,-8.521038,-36.83611,0,0,0,-58.52591,-107.5251,-61.7451,-125.1085,-110.1389,-87.0042,0.001067912,-0.1257102,0.09433498,0,0.3,0,0,0,0,
6.38224E+17,-28.76671,1.005263,-4.552717,-35.59094,12.86655,48.78749,-56.96799,-0.4675641,6.840749,-71.99379,-8.521038,-36.83611,0,0,0,-59.07018,-107.2397,-60.75371,-125.1085,-110.1389,-87.0042,0.001067912,-0.1257102,0.09433498,0,0.3,0,0,0,0,
6.38224E+17,-28.69603,1.028641,-3.291965,-36.61637,12.57357,43.95331,-56.96799,-0.4675641,6.840749,-71.99379,-8.594284,-36.83611,0,0,0,-60.34254,-107.386,-58.11397,-125.1085,-110.1389,-87.0042,0.001067912,-0.1257102,0.09433498,0,0.3,0,0,0,0,
6.38224E+17,-28.38975,1.122154,-1.517572,-37.6418,12.64682,40.07132,-56.96799,-0.4675641,6.840749,-71.99379,-8.594284,-36.83611,0,0,0,-61.7122,-107.3417,-54.16687,-125.1085,-110.1389,-87.0042,0.001067912,-0.1257102,0.09433498,0,0.3,0,0,0,0,
6.38224E+17,-28.10703,1.332558,-0.0700418,-38.15452,12.79331,37.58098,-56.96799,-0.4675641,6.840749,-71.99379,-8.521038,-36.90935,0,0,0,-62.73008,-106.8988,-50.9017,-125.1085,-110.1389,-87.0042,0.001067912,-0.1257102,0.09433498,0,0.3,0,0,0,0,
6.38224E+17,-28.01279,1.613096,0.5836816,-38.15452,12.9398,36.84853,-56.96799,-0.4675641,6.840749,-71.99379,-8.594284,-36.83611,0,0,0,-63.24352,-106.2393,-49.47029,-125.1085,-110.1389,-87.0042,0.001067912,-0.1257102,0.09433498,0,0.3,0,0,0,0,
6.38224E+17,-27.84787,2.47809,1.774392,-38.15452,13.08629,35.89634,-56.96799,-0.4675641,6.840749,-71.99379,-8.594284,-36.83611,0,0,0,-64.16174,-104.1704,-46.90252,-125.1085,-110.1389,-87.0042,0.001067912,-0.1257102,0.09433498,0,0.3,0,0,0,0,
6.38224E+17,-27.63584,3.670378,2.825019,-38.59399,13.30602,35.45687,-56.96799,-0.4675641,6.840749,-72.06703,-8.594284,-36.90935,0,0,0,-64.7761,-101.3014,-44.63326,-125.1085,-110.1389,-87.0042,0.001067912,-0.1257102,0.09433498,0,0.3,0,0,0,0,
6.38224E+17,-27.32955,4.605506,3.385354,-38.81373,13.37927,35.45687,-56.96799,-0.4675641,6.840749,-71.99379,-8.594284,-36.83611,0,0,0,-64.6396,-99.06,-43.27143,-125.1085,-110.1389,-87.0042,0.001067912,-0.1257102,0.09433498,0,0.3,0,0,0,0,
6.38224E+17,-26.43428,7.177108,4.225855,-39.03346,12.72006,35.74985,-56.96799,-0.4675641,6.840749,-71.99379,-8.594284,-36.90935,0,0,0,-63.27281,-92.97713,-41.07898,-125.1085,-110.1389,-87.0042,0.001067912,-0.1257102,0.09433498,0,0.3,0,0,0,0,
6.38224E+17,-24.97356,10.12276,4.996315,-38.59399,11.69463,35.89634,-56.96799,-0.4675641,6.840749,-71.99379,-8.594284,-36.90935,0,0,0,-60.32726,-86.05601,-38.82175,-125.1085,-110.1389,-87.0042,0.001067912,-0.1257102,0.09433498,0,0.3,0,0,0,0,
6.38224E+17,-24.0076,11.64235,5.486608,-38.08128,11.10867,35.89634,-56.96799,-0.4675641,6.840749,-71.99379,-8.521038,-36.83611,0,0,0,-58.32572,-82.47879,-37.39505,-125.1085,-110.1389,-87.0042,0.001067912,-0.1257102,0.09433498,0,0.3,0,0,0,0,
6.38224E+17,-21.98145,14.93867,6.560582,-36.68962,9.643764,35.96959,-56.96799,-0.4675641,6.840749,-71.99379,-8.594284,-36.90935,0,0,0,-53.9296,-74.75114,-34.74498,-125.1085,-110.1389,-87.0042,0.001067912,-0.1257102,0.09433498,0,0.3,0,0,0,0,
6.38224E+17,-19.93173,18.25838,7.844682,-34.712,7.739389,35.96959,-56.96799,-0.4675641,6.840749,-71.99379,-8.594284,-36.90935,0,0,0,-49.37495,-66.97316,-32.18884,-125.1085,-110.1389,-87.0042,0.001067912,-0.1257102,0.09433498,0,0.3,0,0,0,0,
6.38224E+17,-17.95269,21.36768,9.338906,-32.58789,5.835015,35.96959,-56.96799,-0.4675641,6.840749,-71.99379,-8.594284,-36.83611,0,0,0,-44.94724,-59.64627,-29.62698,-125.1085,-110.1389,-87.0042,0.001067912,-0.1257102,0.09433498,0,0.3,0,0,0,0,
6.38224E+17,-17.01029,22.77037,10.13271,-31.78219,5.029318,35.96959,-56.96799,-0.4675641,6.840749,-71.99379,-8.594284,-36.83611,0,0,0,-42.83342,-56.3085,-28.33817,-125.1085,-110.1389,-87.0042,0.001067912,-0.1257102,0.09433498,0,0.3,0,0,0,0,
6.38224E+17,-14.6543,25.78616,11.81372,-29.73133,3.051698,35.96959,-56.96799,-0.4675641,6.840749,-71.99379,-8.594284,-36.83611,0,0,0,-37.28318,-49.16637,-25.77172,-125.1085,-110.1389,-87.0042,0.001067912,-0.1257102,0.09433498,0,0.3,0,0,0,0,
6.38224E+17,-12.13338,28.42789,13.16786,-27.31424,1.000834,35.89634,-56.96799,-0.4675641,6.840749,-71.99379,-8.594284,-36.83611,0,0,0,-31.03386,-43.01222,-24.00032,-125.1085,-110.1389,-87.0042,0.001067912,-0.1257102,0.09433498,0,0.3,0,0,0,0,
6.38224E+17,-10.74334,29.7137,13.70484,-25.77609,-0.02459868,35.96959,-56.96799,-0.4675641,6.840749,-71.92055,-8.521038,-36.83611,0,0,0,-27.47859,-40.1063,-23.52425,-125.1085,-110.1389,-87.0042,0.001067912,-0.1257102,0.09433498,0,0.3,0,0,0,0,
6.38224E+17,-8.104627,31.86449,14.47531,-22.62654,-1.855728,35.96959,-56.96799,-0.4675641,6.840749,-71.99379,-8.594284,-36.90935,0,0,0,-20.66594,-35.36979,-23.22752,-125.1085,-110.1389,-87.0042,0.001067912,-0.1257102,0.09433498,0,0.3,0,0,0,0,
6.38224E+17,-5.112512,33.68799,14.9189,-18.96429,-3.393876,35.96959,-56.96799,-0.4675641,6.840749,-71.99379,-8.521038,-36.83611,0,0,0,-12.94685,-31.53968,-23.64025,-125.1085,-110.1389,-87.0042,0.001067912,-0.1257102,0.09433498,0,0.3,0,0,0,0,
6.38224E+17,-2.285316,34.76339,15.05899,-15.37527,-4.419309,35.96959,-56.96799,-0.4675641,6.840749,-71.99379,-8.521038,-36.90935,0,0,0,-5.749877,-29.38594,-24.26972,-125.1085,-110.1389,-87.0042,0.001067912,-0.1257102,0.09433498,0,0.3,0,0,0,0,
6.38224E+17,-0.8952785,35.13744,15.05899,-13.54414,-4.785534,35.96959,-56.96799,-0.4675641,6.840749,-71.99379,-8.594284,-36.83611,0,0,0,-2.245243,-28.67238,-24.6713,-125.1085,-110.1389,-87.0042,0.001067912,-0.1257102,0.09433498,0,0.3,0,0,0,0,
6.38224E+17,1.649197,35.53487,15.05899,-9.808641,-5.298251,35.89634,-56.96799,-0.4675641,6.840749,-71.99379,-8.594284,-36.83611,0,0,0,4.120174,-27.91782,-25.24804,-125.1085,-110.1389,-87.0042,0.001067912,-0.1257102,0.09433498,0,0.3,0,0,0,0,
6.38224E+17,3.958073,35.55825,14.89556,-6.512609,-5.591231,35.89634,-56.96799,-0.4675641,6.840749,-71.99379,-8.594284,-36.90935,0,0,0,9.854371,-27.97185,-25.92833,-125.1085,-110.1389,-87.0042,0.001067912,-0.1257102,0.09433498,0,0.3,0,0,0,0,
6.38224E+17,4.971152,35.53487,14.84886,-4.901215,-5.737722,35.89634,-56.96799,-0.4675641,6.840749,-71.99379,-8.594284,-36.83611,0,0,0,12.36458,-28.04401,-26.19795,-125.1085,-110.1389,-87.0042,0.001067912,-0.1257102,0.09433498,0,0.3,0,0,0,0,
6.38224E+17,6.879509,35.27771,14.68543,-1.531937,-6.250438,35.8231,-56.96799,-0.4675641,6.840749,-71.99379,-8.594284,-36.83611,0,0,0,17.08899,-28.62879,-26.70943,-125.1085,-110.1389,-87.0042,0.001067912,-0.1257102,0.09433498,0,0.3,0,0,0,0,
6.38224E+17,8.387346,34.71663,14.33522,1.178134,-6.177193,35.74985,-56.96799,-0.4675641,6.840749,-71.99379,-8.594284,-36.83611,0,0,0,20.80431,-29.90273,-27.24785,-125.1085,-110.1389,-87.0042,0.001067912,-0.1257102,0.09433498,0,0.3,0,0,0,0,
6.38224E+17,9.070585,34.43609,14.14844,2.350057,-6.177193,35.60336,-56.96799,-0.4675641,6.840749,-71.99379,-8.594284,-36.83611,0,0,0,22.47739,-30.54727,-27.55614,-125.1085,-110.1389,-87.0042,0.001067912,-0.1257102,0.09433498,0,0.3,0,0,0,0,
6.38224E+17,10.27214,33.78151,13.72819,4.327676,-6.030703,35.31038,-56.96799,-0.4675641,6.840749,-71.99379,-8.521038,-36.83611,0,0,0,25.40791,-32.04428,-28.15189,-125.1085,-110.1389,-87.0042,0.001067912,-0.1257102,0.09433498,0,0.3,0,0,0,0,
6.38224E+17,11.09674,32.7061,12.95773,5.93907,-5.810967,35.09065,-56.96799,-0.4675641,6.840749,-71.99379,-8.594284,-36.83611,0,0,0,27.3512,-34.55134,-28.89778,-125.1085,-110.1389,-87.0042,0.001067912,-0.1257102,0.09433498,0,0.3,0,0,0,0,
6.38224E+17,11.63862,31.16315,12.04719,7.037747,-5.078516,34.94416,-56.96799,-0.4675641,6.840749,-71.99379,-8.594284,-36.90935,0,0,0,28.63465,-38.05759,-29.32867,-125.1085,-110.1389,-87.0042,0.001067912,-0.1257102,0.09433498,0,0.3,0,0,0,0,
6.38224E+17,11.8271,30.36828,11.62694,7.477218,-4.492554,35.09065,-56.96799,-0.4675641,6.840749,-71.99379,-8.594284,-36.83611,0,0,0,29.08957,-39.84781,-29.43438,-125.1085,-110.1389,-87.0042,0.001067912,-0.1257102,0.09433498,0,0.3,0,0,0,0,
6.38224E+17,12.27474,28.42789,10.78644,8.136425,-3.247386,35.31038,-56.96799,-0.4675641,6.840749,-71.99379,-8.594284,-36.83611,0,0,0,30.2373,-44.16233,-29.37485,-125.1085,-110.1389,-87.0042,0.001067912,-0.1257102,0.09433498,0,0.3,0,0,0,0,
6.38224E+17,12.62814,26.04332,9.852547,8.795631,-2.002218,35.89634,-56.96799,-0.4675641,6.840749,-71.99379,-8.594284,-36.83611,0,0,0,31.18167,-49.48588,-29.17234,-125.1085,-110.1389,-87.0042,0.001067912,-0.1257102,0.09433498,0,0.3,0,0,0,0,
6.38224E+17,12.81662,24.68738,9.315559,9.161857,-1.196521,36.33582,-56.96799,-0.4675641,6.840749,-71.99379,-8.594284,-36.83611,0,0,0,31.66585,-52.54546,-29.15911,-125.1085,-110.1389,-87.0042,0.001067912,-0.1257102,0.09433498,0,0.3,0,0,0,0,
6.38224E+17,13.4763,22.39632,8.475058,9.674574,0.6346079,37.288,-56.96799,-0.4675641,6.840749,-71.99379,-8.521038,-36.83611,0,0,0,33.31222,-57.73602,-29.34133,-125.1085,-110.1389,-87.0042,0.001067912,-0.1257102,0.09433498,0,0.3,0,0,0,0,
6.38224E+17,14.84277,20.73647,8.19489,10.48027,1.953021,38.24019,-56.96799,-0.4675641,6.840749,-71.99379,-8.594284,-36.90935,0,0,0,36.8162,-61.4231,-29.42633,-125.1085,-110.1389,-87.0042,0.001067912,-0.1257102,0.09433498,0,0.3,0,0,0,0,
6.38224E+17,16.60977,19.94161,8.148195,12.09166,3.051698,38.97264,-56.96799,-0.4675641,6.840749,-71.99379,-8.521038,-36.83611,0,0,0,41.23545,-63.17315,-30.11454,-125.1085,-110.1389,-87.0042,0.001067912,-0.1257102,0.09433498,0,0.3,0,0,0,0,
6.38224E+17,17.59929,19.87147,8.148195,13.1171,3.417924,39.19238,-56.96799,-0.4675641,6.840749,-71.99379,-8.594284,-36.90935,0,0,0,43.63337,-63.32663,-30.7943,-125.1085,-110.1389,-87.0042,0.001067912,-0.1257102,0.09433498,0,0.3,0,0,0,0,
6.38224E+17,19.79037,19.96499,8.358321,15.24121,4.003886,39.48536,-56.96799,-0.4675641,6.840749,-71.99379,-8.594284,-36.90935,0,0,0,48.99928,-63.0518,-32.17744,-125.1085,-110.1389,-87.0042,0.001067912,-0.1257102,0.09433498,0,0.3,0,0,0,0,
6.38224E+17,22.26416,20.50268,8.778571,17.43856,4.223621,39.63185,-56.96799,-0.4675641,6.840749,-71.99379,-8.594284,-36.83611,0,0,0,55.03362,-61.73187,-33.92475,-125.1085,-110.1389,-87.0042,0.001067912,-0.1257102,0.09433498,0,0.3,0,0,0,0,
6.38224E+17,23.5364,20.99363,9.175476,18.61049,4.150376,39.63185,-56.96799,-0.4675641,6.840749,-71.99379,-8.594284,-36.83611,0,0,0,58.20741,-60.51922,-34.71437,-125.1085,-110.1389,-87.0042,0.001067912,-0.1257102,0.09433498,0,0.3,0,0,0,0,
6.38224E+17,25.8924,22.27943,10.08602,21.17406,3.63766,39.63185,-56.96799,-0.4675641,6.840749,-71.99379,-8.594284,-36.90935,0,0,0,64.08227,-57.38303,-36.3332,-125.1085,-110.1389,-87.0042,0.001067912,-0.1257102,0.09433498,0,0.3,0,0,0,0,
6.38224E+17,27.94211,23.89252,10.94987,23.95738,3.271434,39.41211,-56.96799,-0.4675641,6.840749,-71.99379,-8.521038,-36.83611,0,0,0,68.99954,-53.56248,-38.26385,-125.1085,-110.1389,-87.0042,0.001067912,-0.1257102,0.09433498,0,0.3,0,0,0,0,
6.38224E+17,28.83739,24.85103,11.46351,25.1293,3.051698,39.11913,-56.96799,-0.4675641,6.840749,-71.99379,-8.594284,-36.83611,0,0,0,71.14529,-51.29814,-39.13701,-125.1085,-110.1389,-87.0042,0.001067912,-0.1257102,0.09433498,0,0.3,0,0,0,0,
6.38224E+17,30.36879,27.04858,12.74761,27.47315,2.172756,38.31343,-56.96799,-0.4675641,6.840749,-71.99379,-8.594284,-36.83611,0,0,0,74.91896,-46.07277,-40.49421,-125.1085,-110.1389,-87.0042,0.001067912,-0.1257102,0.09433498,0,0.3,0,0,0,0,
6.38224E+17,31.52323,29.22275,14.1251,29.45077,1.147324,37.288,-56.96799,-0.4675641,6.840749,-71.99379,-8.594284,-36.90935,0,0,0,77.86249,-40.86588,-41.40551,-125.1085,-110.1389,-87.0042,0.001067912,-0.1257102,0.09433498,0,0.3,0,0,0,0,
6.38224E+17,32.44207,31.58395,15.8061,31.13541,-0.09784385,36.18932,-56.96799,-0.4675641,6.840749,-71.99379,-8.594284,-36.90935,0,0,0,80.42384,-35.1162,-41.82772,-125.1085,-110.1389,-87.0042,0.001067912,-0.1257102,0.09433498,0,0.3,0,0,0,0,
6.38224E+17,32.81903,32.86975,16.76334,31.86786,-0.8302955,35.53012,-56.96799,-0.4675641,6.840749,-71.99379,-8.521038,-36.90935,0,0,0,81.54861,-31.96,-41.90355,-125.1085,-110.1389,-87.0042,0.001067912,-0.1257102,0.09433498,0,0.3,0,0,0,0,
6.38224E+17,33.3609,35.32447,18.49104,33.03978,-2.368444,34.13846,-56.96799,-0.4675641,6.840749,-71.99379,-8.594284,-36.90935,0,0,0,83.08705,-26.0118,-42.15459,-125.1085,-110.1389,-87.0042,0.001067912,-0.1257102,0.09433498,0,0.3,0,0,0,0,
6.38224E+17,33.62006,37.63891,20.28877,33.99197,-4.053083,32.30733,-56.96799,-0.4675641,6.840749,-71.99379,-8.594284,-36.83611,0,0,0,84.06899,-20.29197,-41.91208,-125.1085,-110.1389,-87.0042,0.001067912,-0.1257102,0.09433498,0,0.3,0,0,0,0,
6.38224E+17,33.69075,38.71431,21.19932,34.28495,-4.785534,31.50163,-56.96799,-0.4675641,6.840749,-71.99379,-8.594284,-36.83611,0,0,0,84.4661,-17.57387,-41.65409,-125.1085,-110.1389,-87.0042,0.001067912,-0.1257102,0.09433498,0,0.3,0,0,0,0,
6.38224E+17,33.69075,41.02874,23.0671,35.0174,-6.543418,29.59726,-56.96799,-0.4675641,6.840749,-71.99379,-8.594284,-36.83611,0,0,0,84.78428,-11.80227,-41.17683,-125.1085,-110.1389,-87.0042,0.001067912,-0.1257102,0.09433498,0,0.3,0,0,0,0,
6.38224E+17,33.69075,43.10941,24.86484,35.53012,-8.301303,27.61964,-56.96799,-0.4675641,6.840749,-71.99379,-8.594284,-36.83611,0,0,0,85.10531,-6.508211,-40.6953,-125.1085,-110.1389,-87.0042,0.001067912,-0.1257102,0.09433498,0,0.3,0,0,0,0,
6.38224E+17,33.69075,44.25494,25.89212,35.67661,-9.180244,26.59421,-56.96799,-0.4675641,6.840749,-71.99379,-8.521038,-36.83611,0,0,0,85.28215,-3.555451,-40.43005,-125.1085,-110.1389,-87.0042,0.001067912,-0.1257102,0.09433498,0,0.3,0,0,0,0,
6.38224E+17,33.69075,46.35898,27.87663,36.18932,-10.64515,24.90957,-56.96799,-0.4675641,6.840749,-71.99379,-8.521038,-36.83611,0,0,0,85.63628,1.976867,-39.89887,-125.1085,-110.1389,-87.0042,0.001067912,-0.1257102,0.09433498,0,0.3,0,0,0,0,
6.38224E+17,33.73786,48.27599,29.72107,36.55555,-12.11005,22.93195,-56.96799,-0.4675641,6.840749,-71.99379,-8.594284,-36.83611,0,0,0,86.00954,7.069309,-39.56858,-125.1085,-110.1389,-87.0042,0.001067912,-0.1257102,0.09433498,0,0.3,0,0,0,0,
6.38224E+17,33.80854,50.33327,31.84567,36.92178,-13.94118,20.88108,-56.96799,-0.4675641,6.840749,-71.99379,-8.594284,-36.90935,0,0,0,86.51209,12.72173,-39.16146,-125.1085,-110.1389,-87.0042,0.001067912,-0.1257102,0.09433498,0,0.3,0,0,0,0,
6.38224E+17,33.87922,51.38529,33.01303,37.21476,-14.60039,19.70916,-56.96799,-0.4675641,6.840749,-71.99379,-8.521038,-36.83611,0,0,0,86.89113,15.7242,-38.94102,-125.1085,-110.1389,-87.0042,0.001067912,-0.1257102,0.09433498,0,0.3,0,0,0,0,
6.38224E+17,34.23262,53.13866,35.18433,37.80072,-16.28502,17.21883,-56.96799,-0.4675641,6.840749,-71.99379,-8.594284,-36.83611,0,0,0,88.22623,21.05465,-38.68791,-125.1085,-110.1389,-87.0042,0.001067912,-0.1257102,0.09433498,0,0.3,0,0,0,0,
6.38224E+17,34.91586,54.5881,37.30893,38.75291,-18.04291,14.65524,-56.96799,-0.4675641,6.840749,-71.99379,-8.594284,-36.90935,0,0,0,90.48918,25.96746,-38.7133,-125.1085,-110.1389,-87.0042,0.001067912,-0.1257102,0.09433498,0,0.3,0,0,0,0,
6.38224E+17,35.38706,55.1258,38.26617,39.48536,-18.77536,13.41008,-56.96799,-0.4675641,6.840749,-71.99379,-8.594284,-36.83611,0,0,0,91.97922,28.05289,-38.86075,-125.1085,-110.1389,-87.0042,0.001067912,-0.1257102,0.09433498,0,0.3,0,0,0,0,
6.38224E+17,36.5415,55.92066,40.18064,41.09675,-19.80079,10.48027,-56.96799,-0.4675641,6.840749,-71.99379,-8.594284,-36.83611,0,0,0,95.71655,31.91753,-39.19226,-125.1085,-110.1389,-87.0042,0.001067912,-0.1257102,0.09433498,0,0.3,0,0,0,0,
6.38224E+17,37.90798,56.38823,42.02508,43.00113,-20.24026,7.330729,-56.96799,-0.4675641,6.840749,-71.99379,-8.521038,-36.83611,0,0,0,100.2014,35.34558,-39.67261,-125.1085,-110.1389,-87.0042,0.001067912,-0.1257102,0.09433498,0,0.3,0,0,0,0,
6.38224E+17,39.36869,56.5285,43.70608,44.75901,-20.31351,4.327676,-56.96799,-0.4675641,6.840749,-71.99379,-8.594284,-36.83611,0,0,0,105.0953,38.18737,-40.26228,-125.1085,-110.1389,-87.0042,0.001067912,-0.1257102,0.09433498,0,0.3,0,0,0,0,
6.38224E+17,40.14618,56.50512,44.52324,45.78444,-20.31351,2.716283,-56.96799,-0.4675641,6.840749,-71.99379,-8.521038,-36.83611,0,0,0,107.7332,39.48121,-40.62172,-125.1085,-110.1389,-87.0042,0.001067912,-0.1257102,0.09433498,0,0.3,0,0,0,0,
6.38224E+17,41.63045,56.29471,45.90073,47.61557,-20.16702,-0.4332596,-56.96799,-0.4675641,6.840749,-71.99379,-8.594284,-36.90935,0,0,0,112.7769,41.48549,-41.46218,-125.1085,-110.1389,-87.0042,0.001067912,-0.1257102,0.09433498,0,0.3,0,0,0,0,
6.38224E+17,43.20897,55.6635,46.9747,49.30021,-19.80079,-3.509557,-56.96799,-0.4675641,6.840749,-71.99379,-8.594284,-36.83611,0,0,0,118.2425,42.47478,-42.47402,-125.1085,-110.1389,-87.0042,0.001067912,-0.1257102,0.09433498,0,0.3,0,0,0,0,
6.38224E+17,43.96289,55.19594,47.3716,50.10591,-19.36132,-4.82797,-56.96799,-0.4675641,6.840749,-71.99379,-8.594284,-36.90935,0,0,0,120.9465,42.5348,-42.94378,-125.1085,-110.1389,-87.0042,0.001067912,-0.1257102,0.09433498,0,0.3,0,0,0,0,
6.38224E+17,45.47073,54.07378,48.07202,51.42432,-18.11616,-7.09857,-56.96799,-0.4675641,6.840749,-71.99379,-8.594284,-36.83611,0,0,0,126.5046,42.22933,-43.90717,-125.1085,-110.1389,-87.0042,0.001067912,-0.1257102,0.09433498,0,0.3,0,0,0,0,
6.38224E+17,46.86076,52.78798,48.63235,52.523,-16.87099,-9.36917,-56.96799,-0.4675641,6.840749,-71.99379,-8.594284,-36.83611,0,0,0,131.8723,41.42091,-44.77661,-125.1085,-110.1389,-87.0042,0.001067912,-0.1257102,0.09433498,0,0.3,0,0,0,0,
6.38224E+17,48.0152,51.38529,49.00591,53.40194,-15.84556,-11.34679,-56.96799,-0.4675641,6.840749,-71.99379,-8.594284,-36.90935,0,0,0,136.6752,40.06931,-45.35278,-125.1085,-110.1389,-87.0042,0.001067912,-0.1257102,0.09433498,0,0.3,0,0,0,0,
6.38224E+17,48.4864,50.7307,49.23938,53.69492,-15.1131,-12.15249,-56.96799,-0.4675641,6.840749,-71.99379,-8.521038,-36.83611,0,0,0,138.8356,39.5226,-45.45987,-125.1085,-110.1389,-87.0042,0.001067912,-0.1257102,0.09433498,0,0.3,0,0,0,0,
6.38224E+17,49.33456,49.49166,49.61294,54.42737,-13.79469,-13.69064,-56.96799,-0.4675641,6.840749,-71.99379,-8.594284,-36.83611,0,0,0,142.8599,38.26295,-45.72296,-125.1085,-110.1389,-87.0042,0.001067912,-0.1257102,0.09433498,0,0.3,0,0,0,0,
6.38224E+17,50.0178,48.39288,49.75303,54.94009,-12.62277,-14.86256,-56.96799,-0.4675641,6.840749,-71.99379,-8.594284,-36.83611,0,0,0,145.8381,36.90261,-46.05446,-125.1085,-110.1389,-87.0042,0.001067912,-0.1257102,0.09433498,0,0.3,0,0,0,0,
6.38224E+17,50.27696,47.87856,49.77637,55.08658,-12.1833,-15.37527,-56.96799,-0.4675641,6.840749,-71.99379,-8.594284,-36.90935,0,0,0,147.1024,36.14524,-46.12322,-125.1085,-110.1389,-87.0042,0.001067912,-0.1257102,0.09433498,0,0.3,0,0,0,0,
6.38224E+17,50.72459,46.82654,49.89311,55.23307,-11.30435,-16.10773,-56.96799,-0.4675641,6.840749,-71.99379,-8.521038,-36.83611,0,0,0,149.5826,34.69408,-46.02522,-125.1085,-110.1389,-87.0042,0.001067912,-0.1257102,0.09433498,0,0.3,0,0,0,0,
6.38224E+17,51.078,45.84466,49.89311,55.37956,-10.93813,-16.5472,-56.96799,-0.4675641,6.840749,-71.99379,-8.594284,-36.83611,0,0,0,151.6204,33.1163,-45.91158,-125.1085,-110.1389,-87.0042,0.001067912,-0.1257102,0.09433498,0,0.3,0,0,0,0,
6.38224E+17,51.26648,45.33034,49.89311,55.4528,-10.71839,-16.69369,-56.96799,-0.4675641,6.840749,-71.99379,-8.594284,-36.83611,0,0,0,152.6894,32.2786,-45.876,-125.1085,-110.1389,-87.0042,0.001067912,-0.1257102,0.09433498,0,0.3,0,0,0,0,
6.38224E+17,51.54919,44.25494,49.89311,55.52605,-9.692961,-16.91342,-56.96799,-0.4675641,6.840749,-71.99379,-8.594284,-36.90935,0,0,0,154.6728,30.50243,-45.53439,-125.1085,-110.1389,-87.0042,0.001067912,-0.1257102,0.09433498,0,0.3,0,0,0,0,
6.38224E+17,51.76123,43.24968,49.89311,55.59929,-8.521038,-17.05991,-56.96799,-0.4675641,6.840749,-71.99379,-8.594284,-36.83611,0,0,0,156.397,28.81244,-45.10623,-125.1085,-110.1389,-87.0042,0.001067912,-0.1257102,0.09433498,0,0.3,0,0,0,0,
6.38224E+17,51.97327,42.05739,49.89311,55.59929,-7.568851,-17.05991,-56.96799,-0.4675641,6.840749,-71.99379,-8.521038,-36.83611,0,0,0,158.3331,26.77162,-44.52763,-125.1085,-110.1389,-87.0042,0.001067912,-0.1257102,0.09433498,0,0.3,0,0,0,0,
6.38224E+17,52.06751,41.37942,49.89311,55.59929,-7.27587,-17.13316,-56.96799,-0.4675641,6.840749,-71.99379,-8.594284,-36.83611,0,0,0,159.3648,25.59385,-44.14273,-125.1085,-110.1389,-87.0042,0.001067912,-0.1257102,0.09433498,0,0.3,0,0,0,0,
6.38224E+17,52.30311,40.00011,49.86976,55.59929,-6.689909,-16.98667,-56.96799,-0.4675641,6.840749,-71.99379,-8.594284,-36.83611,0,0,0,161.5025,23.11821,-43.54073,-125.1085,-110.1389,-87.0042,0.001067912,-0.1257102,0.09433498,0,0.3,0,0,0,0,
6.38224E+17,52.58583,38.59741,49.82306,55.52605,-5.884212,-16.91342,-56.96799,-0.4675641,6.840749,-71.99379,-8.594284,-36.90935,0,0,0,163.7029,20.50887,-43.1255,-125.1085,-110.1389,-87.0042,0.001067912,-0.1257102,0.09433498,0,0.3,0,0,0,0,
6.38224E+17,52.72719,37.94283,49.79972,55.59929,-5.444741,-16.91342,-56.96799,-0.4675641,6.840749,-71.99379,-8.521038,-36.90935,0,0,0,164.7344,19.27127,-42.97955,-125.1085,-110.1389,-87.0042,0.001067912,-0.1257102,0.09433498,0,0.3,0,0,0,0,
6.38224E+17,53.05703,36.3531,49.65963,55.52605,-4.712289,-16.91342,-56.96799,-0.4675641,6.840749,-71.99379,-8.594284,-36.90935,0,0,0,167.0706,16.07349,-42.71382,-125.1085,-110.1389,-87.0042,0.001067912,-0.1257102,0.09433498,0,0.3,0,0,0,0,
6.38224E+17,53.33975,34.74001,49.65963,55.4528,-3.613612,-16.91342,-56.96799,-0.4675641,6.840749,-71.99379,-8.521038,-36.83611,0,0,0,169.4393,13.01892,-42.2366,-125.1085,-110.1389,-87.0042,0.001067912,-0.1257102,0.09433498,0,0.3,0,0,0,0,
6.38224E+17,53.50467,33.99191,49.65963,55.37956,-3.174141,-16.98667,-56.96799,-0.4675641,6.840749,-71.99379,-8.594284,-36.83611,0,0,0,170.5917,11.58171,-42.1403,-125.1085,-110.1389,-87.0042,0.001067912,-0.1257102,0.09433498,0,0.3,0,0,0,0,
6.38224E+17,53.83451,32.54246,49.65963,55.15982,-2.368444,-17.05991,-56.96799,-0.4675641,6.840749,-71.99379,-8.521038,-36.83611,0,0,0,172.8093,8.761179,-42.03247,-125.1085,-110.1389,-87.0042,0.001067912,-0.1257102,0.09433498,0,0.3,0,0,0,0,
6.38224E+17,54.07011,31.09301,49.79972,54.7936,-1.709238,-17.35289,-56.96799,-0.4675641,6.840749,-71.99379,-8.594284,-36.90935,0,0,0,174.938,6.143504,-41.57685,-125.1085,-110.1389,-87.0042,0.001067912,-0.1257102,0.09433498,0,0.3,0,0,0,0,
6.38224E+17,54.35283,29.83059,50.00984,54.35413,-1.123276,-17.64587,-56.96799,-0.4675641,6.840749,-71.99379,-8.594284,-36.83611,0,0,0,177.0278,3.985066,-41.38996,-125.1085,-110.1389,-87.0042,0.001067912,-0.1257102,0.09433498,0,0.3,0,0,0,0,
6.38224E+17,54.49419,29.22275,50.17327,54.13439,-0.8302955,-17.93885,-56.96799,-0.4675641,6.840749,-71.99379,-8.521038,-36.83611,0,0,0,178.1067,3.0459,-41.28046,-125.1085,-110.1389,-87.0042,0.001067912,-0.1257102,0.09433498,0,0.3,0,0,0,0,
6.38224E+17,54.80047,27.98371,50.66357,53.76817,-0.3175794,-18.59806,-56.96799,-0.4675641,6.840749,-71.99379,-8.594284,-36.90935,0,0,0,180.5057,1.393613,-41.01947,-125.1085,-110.1389,-87.0042,0.001067912,-0.1257102,0.09433498,0,0.3,0,0,0,0,
6.38224E+17,55.13031,26.58102,51.2706,53.32869,0.1218917,-19.40376,-56.96799,-0.4675641,6.840749,-71.99379,-8.521038,-36.90935,0,0,0,183.1934,-0.4103407,-40.69654,-125.1085,-110.1389,-87.0042,0.001067912,-0.1257102,0.09433498,0,0.3,0,0,0,0,
6.38224E+17,55.24811,25.92643,51.64415,53.03571,0.3416272,-19.98972,-56.96799,-0.4675641,6.840749,-71.99379,-8.521038,-36.90935,0,0,0,184.4543,-1.09666,-40.38051,-125.1085,-110.1389,-87.0042,0.001067912,-0.1257102,0.09433498,0,0.3,0,0,0,0,
6.38224E+17,55.27167,24.82765,52.53135,52.59624,0.8543434,-21.16164,-56.96799,-0.4675641,6.840749,-71.99379,-8.594284,-36.90935,0,0,0,186.4503,-1.778093,-39.10922,-125.1085,-110.1389,-87.0042,0.001067912,-0.1257102,0.09433498,0,0.3,0,0,0,0,
6.38224E+17,55.27167,24.36009,53.72206,52.01028,1.220569,-21.96734,-56.96799,-0.4675641,6.840749,-71.99379,-8.594284,-36.83611,0,0,0,188.1892,-0.5507094,-37.90391,-125.1085,-110.1389,-87.0042,0.001067912,-0.1257102,0.09433498,0,0.3,0,0,0,0,
6.38224E+17,55.27167,24.2432,54.37578,51.93703,1.074079,-22.40681,-56.96799,-0.4675641,6.840749,-71.99379,-8.594284,-36.83611,0,0,0,189.0153,0.4329995,-37.33126,-125.1085,-110.1389,-87.0042,0.001067912,-0.1257102,0.09433498,0,0.3,0,0,0,0,
6.38224E+17,55.27167,23.98604,55.68323,51.86379,0.7810982,-23.43224,-56.96799,-0.4675641,6.840749,-71.99379,-8.594284,-36.83611,0,0,0,190.6497,2.380199,-36.1984,-125.1085,-110.1389,-87.0042,0.001067912,-0.1257102,0.09433498,0,0.3,0,0,0,0,
6.38224E+17,55.27167,23.42496,56.94398,51.93703,0.4148723,-24.67741,-56.96799,-0.4675641,6.840749,-71.99379,-8.594284,-36.83611,0,0,0,192.4187,3.626054,-34.97218,-125.1085,-110.1389,-87.0042,0.001067912,-0.1257102,0.09433498,0,0.3,0,0,0,0,
6.38224E+17,55.27167,23.05091,57.52766,51.93703,0.1951368,-25.33662,-56.96799,-0.4675641,6.840749,-71.99379,-8.594284,-36.83611,0,0,0,193.3052,3.968445,-34.35769,-125.1085,-110.1389,-87.0042,0.001067912,-0.1257102,0.09433498,0,0.3,0,0,0,0,
6.38224E+17,55.27167,21.97551,58.69503,51.93703,0.1218917,-26.80152,-56.96799,-0.4675641,6.840749,-71.99379,-8.594284,-36.83611,0,0,0,195.2724,3.963174,-32.9941,-125.1085,-110.1389,-87.0042,0.001067912,-0.1257102,0.09433498,0,0.3,0,0,0,0,
6.38224E+17,55.27167,20.61958,59.74565,51.93703,0.1951368,-28.19318,-56.96799,-0.4675641,6.840749,-71.99379,-8.594284,-36.83611,0,0,0,197.2428,3.123727,-31.62829,-125.1085,-110.1389,-87.0042,0.001067912,-0.1257102,0.09433498,0,0.3,0,0,0,0,
6.38224E+17,55.27167,19.26364,60.35268,51.57081,0.4148723,-29.43835,-56.96799,-0.4675641,6.840749,-71.99379,-8.594284,-36.83611,0,0,0,198.707,1.381334,-30.61331,-125.1085,-110.1389,-87.0042,0.001067912,-0.1257102,0.09433498,0,0.3,0,0,0,0,
6.38224E+17,55.27167,18.58567,60.58615,51.27783,0.4148723,-29.95106,-56.96799,-0.4675641,6.840749,-71.99379,-8.521038,-36.90935,0,0,0,199.3477,0.3615282,-30.1692,-125.1085,-110.1389,-87.0042,0.001067912,-0.1257102,0.09433498,0,0.3,0,0,0,0,
6.38224E+17,55.27167,17.08947,60.79628,50.76511,0.3416272,-30.75676,-56.96799,-0.4675641,6.840749,-71.99379,-8.594284,-36.83611,0,0,0,200.4211,-2.526799,-29.42516,-125.1085,-110.1389,-87.0042,0.001067912,-0.1257102,0.09433498,0,0.3,0,0,0,0,
6.38224E+17,55.27167,15.56988,60.79628,50.2524,0.4148723,-31.26948,-56.96799,-0.4675641,6.840749,-71.99379,-8.594284,-36.83611,0,0,0,201.2384,-5.920702,-28.85869,-125.1085,-110.1389,-87.0042,0.001067912,-0.1257102,0.09433498,0,0.3,0,0,0,0,
6.38224E+17,55.27167,14.75165,60.77293,49.95942,0.4881175,-31.41597,-56.96799,-0.4675641,6.840749,-71.99379,-8.594284,-36.83611,0,0,0,201.6259,-7.806195,-28.59007,-125.1085,-110.1389,-87.0042,0.001067912,-0.1257102,0.09433498,0,0.3,0,0,0,0,
6.38224E+17,55.24811,13.23206,60.6562,49.51994,1.147324,-31.6357,-56.96799,-0.4675641,6.840749,-71.99379,-8.594284,-36.90935,0,0,0,202.1618,-11.4748,-28.09551,-125.1085,-110.1389,-87.0042,0.001067912,-0.1257102,0.09433498,0,0.3,0,0,0,0,
6.38224E+17,55.24811,11.71248,60.25929,49.00723,1.879776,-31.6357,-56.96799,-0.4675641,6.840749,-71.99379,-8.594284,-36.90935,0,0,0,202.4151,-15.73157,-27.91976,-125.1085,-110.1389,-87.0042,0.001067912,-0.1257102,0.09433498,0,0.3,0,0,0,0,
6.38224E+17,55.24811,10.96438,59.90908,48.71425,2.246002,-31.56245,-56.96799,-0.4675641,6.840749,-71.99379,-8.521038,-36.83611,0,0,0,202.3623,-18.14518,-27.95635,-125.1085,-110.1389,-87.0042,0.001067912,-0.1257102,0.09433498,0,0.3,0,0,0,0,
6.38224E+17,55.24811,9.585063,59.25536,47.76206,2.685472,-31.56245,-56.96799,-0.4675641,6.840749,-71.99379,-8.521038,-36.83611,0,0,0,202.1999,-22.61588,-28.06907,-125.1085,-110.1389,-87.0042,0.001067912,-0.1257102,0.09433498,0,0.3,0,0,0,0,
6.38224E+17,55.24811,8.135615,58.83511,46.80988,3.124943,-31.48921,-56.96799,-0.4675641,6.840749,-71.99379,-8.521038,-36.83611,0,0,0,202.2134,-26.78776,-28.05966,-125.1085,-110.1389,-87.0042,0.001067912,-0.1257102,0.09433498,0,0.3,0,0,0,0,
6.38224E+17,55.24811,6.803057,58.34481,46.15067,3.63766,-31.48921,-56.96799,-0.4675641,6.840749,-71.99379,-8.594284,-36.83611,0,0,0,202.0561,-30.83664,-28.16884,-125.1085,-110.1389,-87.0042,0.001067912,-0.1257102,0.09433498,0,0.3,0,0,0,0,
6.38224E+17,55.24811,6.265358,57.97126,45.78444,3.93064,-31.48921,-56.96799,-0.4675641,6.840749,-71.99379,-8.594284,-36.83611,0,0,0,201.7962,-32.81852,-28.34913,-125.1085,-110.1389,-87.0042,0.001067912,-0.1257102,0.09433498,0,0.3,0,0,0,0,
6.38224E+17,55.24811,5.353609,57.13076,45.19848,4.589847,-31.41597,-56.96799,-0.4675641,6.840749,-71.99379,-8.594284,-36.83611,0,0,0,201.1103,-36.58035,-28.82498,-125.1085,-110.1389,-87.0042,0.001067912,-0.1257102,0.09433498,0,0.3,0,0,0,0,
6.38224E+17,55.22455,4.488615,56.29026,44.53928,5.322299,-31.41597,-56.96799,-0.4675641,6.840749,-71.99379,-8.521038,-36.83611,0,0,0,200.3129,-40.22126,-29.25618,-125.1085,-110.1389,-87.0042,0.001067912,-0.1257102,0.09433498,0,0.3,0,0,0,0,
6.38224E+17,55.22455,3.670378,55.54315,43.95331,5.835015,-31.41597,-56.96799,-0.4675641,6.840749,-71.99379,-8.521038,-36.83611,0,0,0,199.6237,-43.56091,-29.73468,-125.1085,-110.1389,-87.0042,0.001067912,-0.1257102,0.09433498,0,0.3,0,0,0,0,
6.38224E+17,55.22455,3.202814,55.16959,43.58709,6.05475,-31.41597,-56.96799,-0.4675641,6.840749,-71.99379,-8.521038,-36.83611,0,0,0,199.2714,-45.36243,-29.97937,-125.1085,-110.1389,-87.0042,0.001067912,-0.1257102,0.09433498,0,0.3,0,0,0,0,
6.38224E+17,55.22455,2.244308,54.30574,42.85464,6.494221,-31.41597,-56.96799,-0.4675641,6.840749,-71.99379,-8.521038,-36.83611,0,0,0,198.405,-49.23232,-30.58093,-125.1085,-110.1389,-87.0042,0.001067912,-0.1257102,0.09433498,0,0.3,0,0,0,0,
6.38224E+17,55.22455,1.309179,53.3485,41.97569,7.006938,-31.34272,-56.96799,-0.4675641,6.840749,-71.99379,-8.594284,-36.90935,0,0,0,197.3804,-53.20606,-31.29243,-125.1085,-110.1389,-87.0042,0.001067912,-0.1257102,0.09433498,0,0.3,0,0,0,0,
6.38224E+17,55.22455,0.7714807,52.81152,41.46298,7.299919,-31.19623,-56.96799,-0.4675641,6.840749,-71.99379,-8.521038,-36.83611,0,0,0,196.7824,-55.45646,-31.70766,-125.1085,-110.1389,-87.0042,0.001067912,-0.1257102,0.09433498,0,0.3,0,0,0,0,
6.38224E+17,55.22455,-0.3039166,51.57411,40.51079,7.959125,-30.68352,-56.96799,-0.4675641,6.840749,-71.99379,-8.521038,-36.90935,0,0,0,195.3407,-60.2346,-32.70874,-125.1085,-110.1389,-87.0042,0.001067912,-0.1257102,0.09433498,0,0.3,0,0,0,0,
6.38224E+17,55.22455,-1.028641,49.58959,39.63185,8.911312,-29.3651,-56.96799,-0.4675641,6.840749,-71.99379,-8.521038,-36.83611,0,0,0,192.9158,-65.48916,-34.3926,-125.1085,-110.1389,-87.0042,0.001067912,-0.1257102,0.09433498,0,0.3,0,0,0,0,
6.38224E+17,55.22455,-1.005263,47.8619,39.19238,9.570518,-28.48616,-56.96799,-0.4675641,6.840749,-71.99379,-8.594284,-36.83611,0,0,0,190.7379,-68.4567,-35.9049,-125.1085,-110.1389,-87.0042,0.001067912,-0.1257102,0.09433498,0,0.3,0,0,0,0,
6.38224E+17,55.17743,-1.005263,45.27035,38.53317,10.88893,-26.28881,-56.96799,-0.4675641,6.840749,-71.99379,-8.521038,-36.83611,0,0,0,187.2249,-72.83625,-38.11586,-125.1085,-110.1389,-87.0042,0.001067912,-0.1257102,0.09433498,0,0.3,0,0,0,0,
6.38224E+17,54.96539,-1.028641,43.07571,38.0937,11.98761,-23.79847,-56.96799,-0.4675641,6.840749,-71.99379,-8.594284,-36.90935,0,0,0,183.7414,-76.44969,-39.52741,-125.1085,-110.1389,-87.0042,0.001067912,-0.1257102,0.09433498,0,0.3,0,0,0,0,
6.38224E+17,54.65911,-1.028641,40.78767,37.87396,12.9398,-21.16164,-56.96799,-0.4675641,6.840749,-71.99379,-8.594284,-36.83611,0,0,0,179.8188,-80.00797,-40.83846,-125.1085,-110.1389,-87.0042,0.001067912,-0.1257102,0.09433498,0,0.3,0,0,0,0,
6.38224E+17,54.47063,-1.028641,39.50357,37.80072,13.45251,-19.69674,-56.96799,-0.4675641,6.840749,-71.99379,-8.521038,-36.83611,0,0,0,177.5392,-81.93478,-41.57516,-125.1085,-110.1389,-87.0042,0.001067912,-0.1257102,0.09433498,0,0.3,0,0,0,0,
6.38224E+17,54.14079,-1.028641,36.98207,37.65423,14.18496,-16.91342,-56.96799,-0.4675641,6.840749,-71.99379,-8.521038,-36.83611,0,0,0,173.0712,-85.56709,-43.255,-125.1085,-110.1389,-87.0042,0.001067912,-0.1257102,0.09433498,0,0.3,0,0,0,0,
6.38224E+17,53.64603,-1.028641,33.85353,37.43449,14.99066,-13.91037,-56.96799,-0.4675641,6.840749,-71.92055,-8.594284,-36.83611,0,0,0,167.2062,-89.78635,-45.2822,-125.1085,-110.1389,-87.0042,0.001067912,-0.1257102,0.09433498,0,0.3,0,0,0,0,
6.38224E+17,53.33975,-1.028641,32.21923,37.288,15.35689,-12.44547,-56.96799,-0.4675641,6.840749,-71.99379,-8.521038,-36.83611,0,0,0,163.9881,-91.85993,-46.29397,-125.1085,-110.1389,-87.0042,0.001067912,-0.1257102,0.09433498,0,0.3,0,0,0,0,
6.38224E+17,52.60939,-1.028641,29.23078,36.6288,16.6753,-9.36917,-56.96799,-0.4675641,6.840749,-71.99379,-8.594284,-36.90935,0,0,0,157.6691,-95.41312,-47.84386,-125.1085,-110.1389,-87.0042,0.001067912,-0.1257102,0.09433498,0,0.3,0,0,0,0,
6.38224E+17,51.92616,-1.028641,26.63923,35.96959,17.84722,-6.219628,-56.96799,-0.4675641,6.840749,-71.99379,-8.594284,-36.83611,0,0,0,152.0263,-98.23849,-49.25815,-125.1085,-110.1389,-87.0042,0.001067912,-0.1257102,0.09433498,0,0.3,0,0,0,0,
6.38224E+17,51.05444,-1.028641,23.65078,35.53012,18.9459,-2.117898,-56.96799,-0.4675641,6.840749,-71.99379,-8.594284,-36.83611,0,0,0,145.3006,-101.1935,-50.91626,-125.1085,-110.1389,-87.0042,0.001067912,-0.1257102,0.09433498,0,0.3,0,0,0,0,
6.38224E+17,50.6068,-1.005263,22.13321,35.31038,19.53186,0.07945653,-56.96799,-0.4675641,6.840749,-71.99379,-8.594284,-36.90935,0,0,0,141.865,-102.513,-51.84898,-125.1085,-110.1389,-87.0042,0.001067912,-0.1257102,0.09433498,0,0.3,0,0,0,0,
6.38224E+17,49.61728,-1.005263,19.2148,34.57793,20.63054,4.327676,-56.96799,-0.4675641,6.840749,-71.99379,-8.594284,-36.83611,0,0,0,134.9917,-104.9108,-53.53325,-125.1085,-110.1389,-87.0042,0.001067912,-0.1257102,0.09433498,0,0.3,0,0,0,0,
6.38224E+17,48.55708,-1.005263,16.73999,33.5525,21.36299,8.06318,-56.96799,-0.4675641,6.840749,-71.99379,-8.594284,-36.83611,0,0,0,128.7376,-106.6884,-54.68106,-125.1085,-110.1389,-87.0042,0.001067912,-0.1257102,0.09433498,0,0.3,0,0,0,0,
6.38224E+17,48.18012,-1.005263,15.89949,32.89329,21.72922,9.528083,-56.96799,-0.4675641,6.840749,-71.99379,-8.521038,-36.83611,0,0,0,126.5879,-107.2381,-55.08834,-125.1085,-110.1389,-87.0042,0.001067912,-0.1257102,0.09433498,0,0.3,0,0,0,0,
6.38224E+17,47.47332,-0.9818845,14.19514,31.72137,22.31518,12.16491,-56.96799,-0.4675641,6.840749,-71.99379,-8.521038,-36.90935,0,0,0,122.3588,-108.2134,-56.12397,-125.1085,-110.1389,-87.0042,0.001067912,-0.1257102,0.09433498,0,0.3,0,0,0,0,
6.38224E+17,46.74296,-0.7948589,12.72426,30.62269,22.97438,13.99604,-56.96799,-0.4675641,6.840749,-71.99379,-8.594284,-36.83611,0,0,0,118.4986,-108.575,-56.85019,-125.1085,-110.1389,-87.0042,0.001067912,-0.1257102,0.09433498,0,0.3,0,0,0,0,
6.38224E+17,46.03617,0.04675641,11.5569,29.52402,23.56034,15.02147,-56.96799,-0.4675641,6.840749,-71.99379,-8.521038,-36.90935,0,0,0,115.2116,-107.1877,-57.23191,-125.1085,-110.1389,-87.0042,0.001067912,-0.1257102,0.09433498,0,0.3,0,0,0,0,
6.38224E+17,45.72989,0.7481025,10.99656,29.08454,23.78008,15.53419,-56.96799,-0.4675641,6.840749,-71.99379,-8.594284,-36.90935,0,0,0,113.692,-105.8104,-57.51829,-125.1085,-110.1389,-87.0042,0.001067912,-0.1257102,0.09433498,0,0.3,0,0,0,0,
6.38224E+17,45.14088,2.688493,9.852547,28.27885,23.92657,16.8526,-56.96799,-0.4675641,6.840749,-71.99379,-8.521038,-36.90935,0,0,0,110.5946,-101.7784,-58.29799,-125.1085,-110.1389,-87.0042,0.001067912,-0.1257102,0.09433498,0,0.3,0,0,0,0,
6.38224E+17,44.76393,5.236718,8.96535,27.47315,23.41385,18.61049,-56.96799,-0.4675641,6.840749,-71.99379,-8.594284,-36.83611,0,0,0,108.1451,-96.19987,-59.31007,-125.1085,-110.1389,-87.0042,0.001067912,-0.1257102,0.09433498,0,0.3,0,0,0,0,
6.38224E+17,44.7168,6.592653,8.731878,27.18017,23.12087,19.48943,-56.96799,-0.4675641,6.840749,-71.99379,-8.594284,-36.90935,0,0,0,107.4488,-93.14453,-59.83377,-125.1085,-110.1389,-87.0042,0.001067912,-0.1257102,0.09433498,0,0.3,0,0,0,0,
6.38224E+17,44.7168,9.281147,8.475058,26.7407,22.0222,20.88108,-56.96799,-0.4675641,6.840749,-71.99379,-8.594284,-36.83611,0,0,0,106.4251,-87.03727,-60.86763,-125.1085,-110.1389,-87.0042,0.001067912,-0.1257102,0.09433498,0,0.3,0,0,0,0,
6.38224E+17,44.74036,11.80599,8.358321,26.44772,20.77703,21.90652,-56.96799,-0.4675641,6.840749,-71.99379,-8.594284,-36.83611,0,0,0,105.5233,-81.3004,-61.86601,-125.1085,-110.1389,-87.0042,0.001067912,-0.1257102,0.09433498,0,0.3,0,0,0,0,
6.38224E+17,44.81104,12.99828,8.358321,26.37447,20.11782,22.1995,-56.96799,-0.4675641,6.840749,-71.99379,-8.521038,-36.90935,0,0,0,105.2345,-78.59028,-62.41906,-125.1085,-110.1389,-87.0042,0.001067912,-0.1257102,0.09433498,0,0.3,0,0,0,0,
6.38224E+17,44.83461,15.56988,8.381668,26.22798,18.57967,22.78546,-56.96799,-0.4675641,6.840749,-71.99379,-8.594284,-36.83611,0,0,0,104.2749,-72.78275,-63.47134,-125.1085,-110.1389,-87.0042,0.001067912,-0.1257102,0.09433498,0,0.3,0,0,0,0,
6.38224E+17,44.83461,17.79081,8.498405,26.30123,17.11477,23.07844,-56.96799,-0.4675641,6.840749,-71.99379,-8.594284,-36.90935,0,0,0,103.4184,-67.7917,-64.33282,-125.1085,-110.1389,-87.0042,0.001067912,-0.1257102,0.09433498,0,0.3,0,0,0,0,
6.38224E+17,44.83461,19.80134,8.801919,26.52096,15.72311,23.29818,-56.96799,-0.4675641,6.840749,-71.99379,-8.521038,-36.90935,0,0,0,102.8478,-63.25594,-64.90668,-125.1085,-110.1389,-87.0042,0.001067912,-0.1257102,0.09433498,0,0.3,0,0,0,0,
6.38224E+17,44.83461,20.75984,9.012045,26.59421,15.13715,23.37142,-56.96799,-0.4675641,6.840749,-71.99379,-8.594284,-36.90935,0,0,0,102.6433,-61.08772,-65.1124,-125.1085,-110.1389,-87.0042,0.001067912,-0.1257102,0.09433498,0,0.3,0,0,0,0,
6.38224E+17,44.83461,22.70024,9.642421,26.88719,14.03847,23.59116,-56.96799,-0.4675641,6.840749,-71.99379,-8.521038,-36.83611,0,0,0,102.4852,-56.65499,-65.27138,-125.1085,-110.1389,-87.0042,0.001067912,-0.1257102,0.09433498,0,0.3,0,0,0,0,
6.38224E+17,44.85817,24.71076,10.50627,27.32666,13.01304,23.73765,-56.96799,-0.4675641,6.840749,-71.99379,-8.594284,-36.83611,0,0,0,102.597,-52.01905,-65.2438,-125.1085,-110.1389,-87.0042,0.001067912,-0.1257102,0.09433498,0,0.3,0,0,0,0,
6.38224E+17,44.85817,25.71602,11.01991,27.54639,12.42708,23.81089,-56.96799,-0.4675641,6.840749,-71.99379,-8.594284,-36.83611,0,0,0,102.7224,-49.6791,-65.11781,-125.1085,-110.1389,-87.0042,0.001067912,-0.1257102,0.09433498,0,0.3,0,0,0,0,
6.38224E+17,44.85817,27.74993,12.11723,28.05911,11.03542,23.95738,-56.96799,-0.4675641,6.840749,-71.99379,-8.594284,-36.83611,0,0,0,102.9853,-44.93944,-64.8536,-125.1085,-110.1389,-87.0042,0.001067912,-0.1257102,0.09433498,0,0.3,0,0,0,0,
6.38224E+17,44.85817,29.66694,13.2379,28.57183,9.497273,24.10387,-56.96799,-0.4675641,6.840749,-71.99379,-8.594284,-36.83611,0,0,0,103.2685,-40.45401,-64.56896,-125.1085,-110.1389,-87.0042,0.001067912,-0.1257102,0.09433498,0,0.3,0,0,0,0,
6.38224E+17,44.88173,30.6722,13.86828,28.86481,8.691576,24.10387,-56.96799,-0.4675641,6.840749,-71.99379,-8.521038,-36.83611,0,0,0,103.4879,-38.0875,-64.43396,-125.1085,-110.1389,-87.0042,0.001067912,-0.1257102,0.09433498,0,0.3,0,0,0,0,
6.38224E+17,44.9524,32.7061,15.29246,29.59726,7.080183,24.25036,-56.96799,-0.4675641,6.840749,-71.99379,-8.594284,-36.90935,0,0,0,104.1256,-33.22536,-64.05125,-125.1085,-110.1389,-87.0042,0.001067912,-0.1257102,0.09433498,0,0.3,0,0,0,0,
6.38224E+17,45.18801,34.78677,16.97346,30.69594,5.249053,24.32361,-56.96799,-0.4675641,6.840749,-71.99379,-8.594284,-36.83611,0,0,0,105.3114,-28.11192,-63.72746,-125.1085,-110.1389,-87.0042,0.001067912,-0.1257102,0.09433498,0,0.3,0,0,0,0,
6.38224E+17,45.5414,36.6804,18.79455,31.79461,3.63766,24.32361,-56.96799,-0.4675641,6.840749,-71.99379,-8.594284,-36.90935,0,0,0,106.9965,-23.23303,-63.35668,-125.1085,-110.1389,-87.0042,0.001067912,-0.1257102,0.09433498,0,0.3,0,0,0,0,
6.38224E+17,45.84768,37.52202,19.82183,32.38057,2.758718,24.32361,-56.96799,-0.4675641,6.840749,-71.99379,-8.594284,-36.83611,0,0,0,108.3274,-20.88025,-63.18146,-125.1085,-110.1389,-87.0042,0.001067912,-0.1257102,0.09433498,0,0.3,0,0,0,0,
6.38224E+17,46.76653,38.8312,21.96978,33.77223,1.000834,24.25036,-56.96799,-0.4675641,6.840749,-71.99379,-8.594284,-36.83611,0,0,0,112.0304,-16.70211,-63.02324,-125.1085,-110.1389,-87.0042,0.001067912,-0.1257102,0.09433498,0,0.3,0,0,0,0,
6.38224E+17,47.99164,39.71957,24.25781,35.53012,-0.3175794,24.10387,-56.96799,-0.4675641,6.840749,-71.99379,-8.594284,-36.83611,0,0,0,116.9231,-13.01128,-63.04105,-125.1085,-110.1389,-87.0042,0.001067912,-0.1257102,0.09433498,0,0.3,0,0,0,0,
6.38224E+17,48.62776,39.97673,25.30844,36.4823,-0.8302955,23.81089,-56.96799,-0.4675641,6.840749,-71.99379,-8.521038,-36.90935,0,0,0,119.4632,-11.52679,-63.13181,-125.1085,-110.1389,-87.0042,0.001067912,-0.1257102,0.09433498,0,0.3,0,0,0,0,
6.38224E+17,50.04136,40.09362,27.52643,38.60641,-1.562747,22.12625,-56.96799,-0.4675641,6.840749,-71.99379,-8.521038,-36.83611,0,0,0,125.4318,-9.021958,-63.25439,-125.1085,-110.1389,-87.0042,0.001067912,-0.1257102,0.09433498,0,0.3,0,0,0,0,
6.38224E+17,51.33715,39.95335,29.46425,40.95026,-1.855728,19.85565,-56.96799,-0.4675641,6.840749,-71.99379,-8.594284,-36.83611,0,0,0,131.0352,-7.120356,-63.51046,-125.1085,-110.1389,-87.0042,0.001067912,-0.1257102,0.09433498,0,0.3,0,0,0,0,
6.38224E+17,52.37379,39.67281,30.88843,43.00113,-1.928973,17.21883,-56.96799,-0.4675641,6.840749,-71.99379,-8.594284,-36.83611,0,0,0,135.511,-5.955788,-63.89371,-125.1085,-110.1389,-87.0042,0.001067912,-0.1257102,0.09433498,0,0.3,0,0,0,0,
6.38224E+17,52.82143,39.48579,31.44877,43.80682,-1.928973,15.90041,-56.96799,-0.4675641,6.840749,-71.99379,-8.594284,-36.83611,0,0,0,137.433,-5.616323,-64.1137,-125.1085,-110.1389,-87.0042,0.001067912,-0.1257102,0.09433498,0,0.3,0,0,0,0,
6.38224E+17,53.52823,38.87795,32.406,45.27173,-1.855728,13.62981,-56.96799,-0.4675641,6.840749,-71.99379,-8.594284,-36.83611,0,0,0,140.9476,-5.534708,-64.16173,-125.1085,-110.1389,-87.0042,0.001067912,-0.1257102,0.09433498,0,0.3,0,0,0,0,
6.38224E+17,53.99943,38.12985,32.91964,46.59014,-1.709238,11.87193,-56.96799,-0.4675641,6.840749,-71.99379,-8.594284,-36.83611,0,0,0,143.4908,-6.252076,-64.09569,-125.1085,-110.1389,-87.0042,0.001067912,-0.1257102,0.09433498,0,0.3,0,0,0,0,
6.38224E+17,54.16435,37.66228,32.98969,47.10286,-1.562747,11.13948,-56.96799,-0.4675641,6.840749,-71.99379,-8.594284,-36.83611,0,0,0,144.443,-7.02213,-64.03773,-125.1085,-110.1389,-87.0042,0.001067912,-0.1257102,0.09433498,0,0.3,0,0,0,0,
6.38224E+17,54.42351,36.44662,32.96634,48.12829,-1.123276,10.33378,-56.96799,-0.4675641,6.840749,-71.99379,-8.521038,-36.83611,0,0,0,146.2629,-9.309656,-63.7268,-125.1085,-110.1389,-87.0042,0.001067912,-0.1257102,0.09433498,0,0.3,0,0,0,0,
6.38224E+17,54.47063,34.83352,32.8963,49.00723,-0.3175794,10.18729,-56.96799,-0.4675641,6.840749,-71.99379,-8.594284,-36.90935,0,0,0,148.0178,-12.44928,-62.65541,-125.1085,-110.1389,-87.0042,0.001067912,-0.1257102,0.09433498,0,0.3,0,0,0,0,
6.38224E+17,54.39995,33.15029,32.49939,49.73968,1.000834,10.18729,-56.96799,-0.4675641,6.840749,-71.99379,-8.521038,-36.83611,0,0,0,149.036,-16.19629,-61.65049,-125.1085,-110.1389,-87.0042,0.001067912,-0.1257102,0.09433498,0,0.3,0,0,0,0,
6.38224E+17,54.30571,32.14503,32.10249,49.95942,1.586795,10.26054,-56.96799,-0.4675641,6.840749,-71.99379,-8.594284,-36.83611,0,0,0,149.2513,-18.65987,-61.12465,-125.1085,-110.1389,-87.0042,0.001067912,-0.1257102,0.09433498,0,0.3,0,0,0,0,
6.38224E+17,53.92875,30.08775,31.30868,50.2524,2.758718,10.62676,-56.96799,-0.4675641,6.840749,-71.99379,-8.521038,-36.83611,0,0,0,149.272,-23.7298,-59.61365,-125.1085,-110.1389,-87.0042,0.001067912,-0.1257102,0.09433498,0,0.3,0,0,0,0,
6.38224E+17,53.26907,28.12398,30.25806,50.47213,4.296866,11.79868,-56.96799,-0.4675641,6.840749,-71.99379,-8.521038,-36.90935,0,0,0,148.1083,-28.97436,-57.82904,-125.1085,-110.1389,-87.0042,0.001067912,-0.1257102,0.09433498,0,0.3,0,0,0,0,
6.38224E+17,52.72719,27.16547,29.34751,50.47213,5.102563,12.38465,-56.96799,-0.4675641,6.840749,-71.99379,-8.594284,-36.83611,0,0,0,146.4168,-32.00376,-56.92007,-125.1085,-110.1389,-87.0042,0.001067912,-0.1257102,0.09433498,0,0.3,0,0,0,0,
6.38224E+17,51.31359,25.08481,26.8727,49.95942,6.713957,13.04385,-56.96799,-0.4675641,6.840749,-71.99379,-8.594284,-36.90935,0,0,0,141.3223,-39.06495,-55.18454,-125.1085,-110.1389,-87.0042,0.001067912,-0.1257102,0.09433498,0,0.3,0,0,0,0,
6.38224E+17,49.4288,22.77037,24.3512,48.49451,8.178861,13.70306,-56.96799,-0.4675641,6.840749,-71.99379,-8.594284,-36.90935,0,0,0,135.1638,-46.52492,-52.61839,-125.1085,-110.1389,-87.0042,0.001067912,-0.1257102,0.09433498,0,0.3,0,0,0,0,
6.38224E+17,47.00212,20.31566,21.7363,46.3704,10.08323,14.72849,-56.96799,-0.4675641,6.840749,-71.99379,-8.594284,-36.83611,0,0,0,127.5811,-54.22052,-49.38757,-125.1085,-110.1389,-87.0042,0.001067912,-0.1257102,0.09433498,0,0.3,0,0,0,0,
6.38224E+17,45.51785,19.12337,20.26543,45.19848,11.03542,15.24121,-56.96799,-0.4675641,6.840749,-71.99379,-8.594284,-36.83611,0,0,0,122.8447,-58.05948,-47.70603,-125.1085,-110.1389,-87.0042,0.001067912,-0.1257102,0.09433498,0,0.3,0,0,0,0,
6.38224E+17,41.96029,17.22974,16.52986,42.34192,12.9398,16.26664,-56.96799,-0.4675641,6.840749,-71.92055,-8.521038,-36.83611,0,0,0,110.5261,-64.99008,-45.42709,-125.1085,-110.1389,-87.0042,0.001067912,-0.1257102,0.09433498,0,0.3,0,0,0,0,
6.38224E+17,37.97866,16.31799,12.56083,38.97264,14.84417,16.63286,-56.96799,-0.4675641,6.840749,-71.99379,-8.594284,-36.90935,0,0,0,96.59966,-69.34128,-44.6131,-125.1085,-110.1389,-87.0042,0.001067912,-0.1257102,0.09433498,0,0.3,0,0,0,0,
6.38224E+17,35.64622,16.10758,10.7164,36.77529,15.8696,16.55962,-56.96799,-0.4675641,6.840749,-71.99379,-8.594284,-36.90935,0,0,0,89.11336,-70.67747,-44.08968,-125.1085,-110.1389,-87.0042,0.001067912,-0.1257102,0.09433498,0,0.3,0,0,0,0,
6.38224E+17,30.91067,16.01407,8.054807,32.23409,17.481,15.68068,-56.96799,-0.4675641,6.840749,-71.99379,-8.594284,-36.90935,0,0,0,75.44226,-71.89672,-42.34841,-125.1085,-110.1389,-87.0042,0.001067912,-0.1257102,0.09433498,0,0.3,0,0,0,0,
6.38224E+17,25.91596,16.24785,6.023595,27.69288,18.72616,14.21577,-56.96799,-0.4675641,6.840749,-71.99379,-8.594284,-36.90935,0,0,0,62.06909,-71.95335,-40.61431,-125.1085,-110.1389,-87.0042,0.001067912,-0.1257102,0.09433498,0,0.3,0,0,0,0,
6.38224E+17,23.32436,16.6219,5.159746,25.34904,19.45862,13.48332,-56.96799,-0.4675641,6.840749,-71.99379,-8.594284,-36.90935,0,0,0,55.34009,-71.31425,-40.002,-125.1085,-110.1389,-87.0042,0.001067912,-0.1257102,0.09433498,0,0.3,0,0,0,0,
6.38224E+17,18.54169,18.00122,3.992383,20.44161,20.63054,11.43246,-56.96799,-0.4675641,6.840749,-71.99379,-8.594284,-36.83611,0,0,0,43.28124,-68.46629,-39.30811,-125.1085,-110.1389,-87.0042,0.001067912,-0.1257102,0.09433498,0,0.3,0,0,0,0,
6.38224E+17,14.1831,19.75458,3.105186,15.68068,21.36299,8.942122,-56.96799,-0.4675641,6.840749,-71.99379,-8.594284,-36.83611,0,0,0,32.52063,-64.73298,-39.6701,-125.1085,-110.1389,-87.0042,0.001067912,-0.1257102,0.09433498,0,0.3,0,0,0,0,
6.38224E+17,10.01298,21.95213,1.867781,11.43246,21.87571,5.572844,-56.96799,-0.4675641,6.840749,-71.99379,-8.594284,-36.83611,0,0,0,22.26039,-60.07867,-42.27212,-125.1085,-110.1389,-87.0042,0.001067912,-0.1257102,0.09433498,0,0.3,0,0,0,0,
6.38224E+17,8.128186,22.8405,1.167363,9.674574,22.16869,3.302244,-56.96799,-0.4675641,6.840749,-71.99379,-8.521038,-36.83611,0,0,0,17.75987,-58.21023,-44.00124,-125.1085,-110.1389,-87.0042,0.001067912,-0.1257102,0.09433498,0,0.3,0,0,0,0,
6.38224E+17,4.264353,24.43022,-0.1634309,6.012315,23.4871,-2.630615,-56.96799,-0.4675641,6.840749,-71.99379,-8.521038,-36.83611,0,0,0,8.999602,-54.84793,-47.65484,-125.1085,-110.1389,-87.0042,0.001067912,-0.1257102,0.09433498,0,0.3,0,0,0,0,
6.38224E+17,0.8245987,25.66927,-0.8638488,2.716283,25.24498,-8.563474,-56.96799,-0.4675641,6.840749,-71.99379,-8.521038,-36.83611,0,0,0,1.700771,-52.22087,-50.18306,-125.1085,-110.1389,-87.0042,0.001067912,-0.1257102,0.09433498,0,0.3,0,0,0,0,
6.38224E+17,-0.9659585,26.13683,-1.167363,0.9583986,26.12393,-11.42003,-56.96799,-0.4675641,6.840749,-71.99379,-8.594284,-36.90935,0,0,0,-1.972386,-51.22947,-51.36911,-125.1085,-110.1389,-87.0042,0.001067912,-0.1257102,0.09433498,0,0.3,0,0,0,0,
6.38224E+17,-3.863834,26.53426,-1.96117,-3.143331,28.24804,-17.49938,-56.96799,-0.4675641,6.840749,-71.99379,-8.594284,-36.90935,0,0,0,-7.731839,-50.35006,-53.87044,-125.1085,-110.1389,-87.0042,0.001067912,-0.1257102,0.09433498,0,0.3,0,0,0,0,
6.38224E+17,-5.442351,26.39399,-2.73163,-6.512609,30.00592,-23.06602,-56.96799,-0.4675641,6.840749,-71.99379,-8.521038,-36.83611,0,0,0,-10.72633,-50.5689,-55.76561,-125.1085,-110.1389,-87.0042,0.001067912,-0.1257102,0.09433498,0,0.3,0,0,0,0,
6.38224E+17,-6.45543,25.76278,-3.151881,-9.22268,31.32433,-30.46378,-56.96799,-0.4675641,6.840749,-71.99379,-8.594284,-36.83611,0,0,0,-12.678,-51.83821,-56.30175,-125.1085,-110.1389,-87.0042,0.001067912,-0.1257102,0.09433498,0,0.3,0,0,0,0,
6.38224E+17,-7.020868,25.22508,-3.198575,-10.3946,31.98354,-34.78524,-56.96799,-0.4675641,6.840749,-71.99379,-8.594284,-36.90935,0,0,0,-13.83572,-52.96178,-56.00542,-125.1085,-110.1389,-87.0042,0.001067912,-0.1257102,0.09433498,0,0.3,0,0,0,0,
6.38224E+17,-8.340226,24.07955,-3.362006,-13.17792,33.44844,-43.42817,-56.96799,-0.4675641,6.840749,-71.99379,-8.594284,-36.83611,0,0,0,-16.52501,-55.36308,-55.62922,-125.1085,-110.1389,-87.0042,0.001067912,-0.1257102,0.09433498,0,0.3,0,0,0,0,
6.38224E+17,-9.683144,22.6301,-3.618826,-16.69369,34.98659,-52.95005,-56.96799,-0.4675641,6.840749,-71.99379,-8.594284,-36.83611,0,0,0,-19.2868,-58.42366,-55.31735,-125.1085,-110.1389,-87.0042,0.001067912,-0.1257102,0.09433498,0,0.3,0,0,0,0,
6.38224E+17,-10.2957,21.60146,-3.665521,-18.67131,35.49931,-58.07721,-56.96799,-0.4675641,6.840749,-71.99379,-8.594284,-36.83611,0,0,0,-20.63583,-60.63464,-54.74993,-125.1085,-110.1389,-87.0042,0.001067912,-0.1257102,0.09433498,0,0.3,0,0,0,0,
6.38224E+17,-11.45014,18.91297,-3.665521,-22.77304,36.37825,-68.33153,-56.96799,-0.4675641,6.840749,-71.99379,-8.594284,-36.90935,0,0,0,-23.35042,-66.50426,-53.0656,-125.1085,-110.1389,-87.0042,0.001067912,-0.1257102,0.09433498,0,0.3,0,0,0,0,
6.38224E+17,-12.32186,16.13096,-3.665521,-26.4353,37.1107,-78.21963,-56.96799,-0.4675641,6.840749,-71.99379,-8.594284,-36.90935,0,0,0,-25.51759,-72.67807,-51.5299,-125.1085,-110.1389,-87.0042,0.001067912,-0.1257102,0.09433498,0,0.3,0,0,0,0,
6.38224E+17,-12.46322,14.49449,-3.642174,-28.26642,37.40368,-84.006,-56.96799,-0.4675641,6.840749,-71.99379,-8.521038,-36.90935,0,0,0,-26.0345,-76.35492,-50.55816,-125.1085,-110.1389,-87.0042,0.001067912,-0.1257102,0.09433498,0,0.3,0,0,0,0,
6.38224E+17,-12.43966,10.941,-3.291965,-30.68352,37.62342,-91.91647,-56.96799,-0.4675641,6.840749,-71.99379,-8.594284,-36.83611,0,0,0,-26.55346,-84.47038,-47.9753,-125.1085,-110.1389,-87.0042,0.001067912,-0.1257102,0.09433498,0,0.3,0,0,0,0,
6.38224E+17,-12.4161,6.919948,-2.638241,-31.92868,38.20938,-97.33662,-56.96799,-0.4675641,6.840749,-71.99379,-8.594284,-36.83611,0,0,0,-27.14295,-93.79232,-45.06199,-125.1085,-110.1389,-87.0042,0.001067912,-0.1257102,0.09433498,0,0.3,0,0,0,0,
6.38224E+17,-12.39254,3.296327,-2.147949,-32.22166,38.79534,-105.0274,-56.96799,-0.4675641,6.840749,-71.99379,-8.594284,-36.83611,0,0,0,-27.46086,-102.458,-43.12763,-125.1085,-110.1389,-87.0042,0.001067912,-0.1257102,0.09433498,0,0.3,0,0,0,0,
6.38224E+17,-12.1805,1.729987,-1.937823,-32.07517,39.16157,-109.8615,-56.96799,-0.4675641,6.840749,-71.99379,-8.521038,-36.83611,0,0,0,-27.17157,-105.898,-42.46913,-125.1085,-110.1389,-87.0042,0.001067912,-0.1257102,0.09433498,0,0.3,0,0,0,0,
6.38224E+17,-11.16742,-0.350673,-1.891129,-31.12299,39.60104,-114.769,-56.96799,-0.4675641,6.840749,-71.99379,-8.594284,-36.90935,0,0,0,-24.97399,-110.7435,-41.84466,-125.1085,-110.1389,-87.0042,0.001067912,-0.1257102,0.09433498,0,0.3,0,0,0,0,
6.38224E+17,-9.447544,-1.028641,-2.194643,-28.85239,40.26024,-115.4282,-56.96799,-0.4675641,6.840749,-71.99379,-8.521038,-36.83611,0,0,0,-21.04694,-112.2961,-41.86721,-125.1085,-110.1389,-87.0042,0.001067912,-0.1257102,0.09433498,0,0.3,0,0,0,0,
6.38224E+17,-8.410906,-0.9585064,-2.614894,-27.0945,40.62647,-113.4506,-56.96799,-0.4675641,6.840749,-71.99379,-8.594284,-36.83611,0,0,0,-18.61267,-112.0919,-42.47105,-125.1085,-110.1389,-87.0042,0.001067912,-0.1257102,0.09433498,0,0.3,0,0,0,0,
6.38224E+17,-6.33763,-0.9818845,-2.941756,-22.91953,41.35892,-110.4475,-56.96799,-0.4675641,6.840749,-71.99379,-8.594284,-36.83611,0,0,0,-13.96251,-112.1094,-42.63621,-125.1085,-110.1389,-87.0042,0.001067912,-0.1257102,0.09433498,0,0.3,0,0,0,0,
6.38224E+17,-3.863834,-0.9818845,-3.432048,-17.42614,41.87164,-107.9572,-56.96799,-0.4675641,6.840749,-71.99379,-8.594284,-36.90935,0,0,0,-8.446603,-112.046,-43.28746,-125.1085,-110.1389,-87.0042,0.001067912,-0.1257102,0.09433498,0,0.3,0,0,0,0,
6.38224E+17,-0.9423984,-0.8883717,-3.338659,-10.76083,41.87164,-101.1454,-56.96799,-0.4675641,6.840749,-71.99379,-8.594284,-36.90935,0,0,0,-2.065243,-111.8412,-42.799,-125.1085,-110.1389,-87.0042,0.001067912,-0.1257102,0.09433498,0,0.3,0,0,0,0,
6.38224E+17,0.6832389,-0.6312115,-3.058492,-6.659099,41.72515,-96.82391,-56.96799,-0.4675641,6.840749,-71.99379,-8.521038,-36.83611,0,0,0,1.505192,-111.2791,-42.13201,-125.1085,-110.1389,-87.0042,0.001067912,-0.1257102,0.09433498,0,0.3,0,0,0,0,
6.38224E+17,4.193673,0.4441859,-1.914476,2.643037,40.55322,-85.39766,-56.96799,-0.4675641,6.840749,-71.99379,-8.594284,-36.90935,0,0,0,9.425555,-108.8918,-39.80402,-125.1085,-110.1389,-87.0042,0.001067912,-0.1257102,0.09433498,0,0.3,0,0,0,0,
6.38224E+17,7.821907,2.057282,0.1167363,13.04385,38.13613,-71.99379,-56.96799,-0.4675641,6.840749,-71.99379,-8.594284,-36.83611,0,0,0,18.17346,-105.2126,-36.05669,-125.1085,-110.1389,-87.0042,0.001067912,-0.1257102,0.09433498,0,0.3,0,0,0,0,
6.38224E+17,9.400424,3.132679,1.424183,18.53724,36.45149,-65.40173,-56.96799,-0.4675641,6.840749,-71.99379,-8.594284,-36.83611,0,0,0,22.28928,-102.6715,-33.71757,-125.1085,-110.1389,-87.0042,0.001067912,-0.1257102,0.09433498,0,0.3,0,0,0,0,
6.38224E+17,12.10982,5.844551,4.319244,28.71832,32.13003,-53.82899,-56.96799,-0.4675641,6.840749,-71.99379,-8.521038,-36.83611,0,0,0,29.93646,-96.04226,-28.82556,-125.1085,-110.1389,-87.0042,0.001067912,-0.1257102,0.09433498,0,0.3,0,0,0,0,
6.38224E+17,13.99462,9.187634,7.027527,37.50774,27.07611,-44.08738,-56.96799,-0.4675641,6.840749,-71.99379,-8.594284,-36.83611,0,0,0,35.77984,-87.70646,-24.78742,-125.1085,-110.1389,-87.0042,0.001067912,-0.1257102,0.09433498,0,0.3,0,0,0,0,
6.38224E+17,14.74854,11.05789,8.358321,41.46298,24.36604,-39.76591,-56.96799,-0.4675641,6.840749,-71.99379,-8.521038,-36.83611,0,0,0,38.25237,-83.00697,-23.04223,-125.1085,-110.1389,-87.0042,0.001067912,-0.1257102,0.09433498,0,0.3,0,0,0,0,
6.38224E+17,15.80873,14.54124,10.94987,47.46908,19.16564,-32.88087,-56.96799,-0.4675641,6.840749,-71.99379,-8.521038,-36.90935,0,0,0,42.06496,-74.0911,-19.78201,-125.1085,-110.1389,-87.0042,0.001067912,-0.1257102,0.09433498,0,0.3,0,0,0,0,
6.38224E+17,16.30349,18.28176,14.28853,52.59624,13.74549,-27.75371,-56.96799,-0.4675641,6.840749,-71.99379,-8.521038,-36.90935,0,0,0,44.78428,-64.04427,-15.23436,-125.1085,-110.1389,-87.0042,0.001067912,-0.1257102,0.09433498,0,0.3,0,0,0,0,
6.38224E+17,16.23281,22.11578,17.76727,57.0642,8.838067,-24.75066,-56.96799,-0.4675641,6.840749,-71.99379,-8.521038,-36.90935,0,0,0,45.90922,-53.43619,-10.66656,-125.1085,-110.1389,-87.0042,0.001067912,-0.1257102,0.09433498,0,0.3,0,0,0,0,
6.38224E+17,15.99721,24.07955,19.42492,59.18831,6.347731,-23.87171,-56.96799,-0.4675641,6.840749,-71.99379,-8.521038,-36.83611,0,0,0,45.77402,-48.00204,-8.687719,-125.1085,-110.1389,-87.0042,0.001067912,-0.1257102,0.09433498,0,0.3,0,0,0,0,
6.38224E+17,15.33753,27.84344,22.64685,62.99706,1.733285,-22.91953,-56.96799,-0.4675641,6.840749,-71.99379,-8.594284,-36.83611,0,0,0,44.7696,-37.43607,-5.120127,-125.1085,-110.1389,-87.0042,0.001067912,-0.1257102,0.09433498,0,0.3,0,0,0,0,
6.38224E+17,14.0653,31.49044,26.05555,66.36633,-2.954405,-22.77304,-56.96799,-0.4675641,6.840749,-71.99379,-8.594284,-36.83611,0,0,0,41.86979,-26.79124,-1.231029,-125.1085,-110.1389,-87.0042,0.001067912,-0.1257102,0.09433498,0,0.3,0,0,0,0,
6.38224E+17,13.21714,33.29056,27.61982,67.90449,-5.00527,-23.21251,-56.96799,-0.4675641,6.840749,-71.99379,-8.594284,-36.90935,0,0,0,39.62101,-21.61004,0.3480509,-125.1085,-110.1389,-87.0042,0.001067912,-0.1257102,0.09433498,0,0.3,0,0,0,0,
6.38224E+17,11.09674,36.8908,30.42149,70.83429,-8.887264,-24.97039,-56.96799,-0.4675641,6.840749,-71.99379,-8.594284,-36.83611,0,0,0,33.52251,-11.59196,2.567113,-125.1085,-110.1389,-87.0042,0.001067912,-0.1257102,0.09433498,0,0.3,0,0,0,0,
6.38224E+17,8.481586,40.25727,32.8963,73.03164,-12.54952,-27.31424,-56.96799,-0.4675641,6.840749,-71.99379,-8.594284,-36.83611,0,0,0,25.69173,-2.444451,3.936126,-125.1085,-110.1389,-87.0042,0.001067912,-0.1257102,0.09433498,0,0.3,0,0,0,0,
6.38224E+17,5.088952,43.53021,35.67462,74.71628,-16.65125,-30.24404,-56.96799,-0.4675641,6.840749,-71.99379,-8.594284,-36.83611,0,0,0,15.47388,6.867284,5.409862,-125.1085,-110.1389,-87.0042,0.001067912,-0.1257102,0.09433498,0,0.3,0,0,0,0,
6.38224E+17,3.321954,44.93291,37.02876,75.66847,-18.33589,-32.07517,-56.96799,-0.4675641,6.840749,-71.99379,-8.521038,-36.90935,0,0,0,10.12376,11.07446,6.064963,-125.1085,-110.1389,-87.0042,0.001067912,-0.1257102,0.09433498,0,0.3,0,0,0,0,
6.38224E+17,-0.4240793,47.20059,39.15337,77.13338,-21.85166,-36.1769,-56.96799,-0.4675641,6.840749,-71.99379,-8.521038,-36.90935,0,0,0,-1.29378,17.7864,6.444666,-125.1085,-110.1389,-87.0042,0.001067912,-0.1257102,0.09433498,0,0.3,0,0,0,0,
6.38224E+17,-4.335033,48.72018,40.60089,77.79259,-25.36743,-40.27863,-56.96799,-0.4675641,6.840749,-71.99379,-8.521038,-36.83611,0,0,0,-13.2097,22.31458,5.908298,-125.1085,-110.1389,-87.0042,0.001067912,-0.1257102,0.09433498,0,0.3,0,0,0,0,
6.38224E+17,-6.21983,49.2345,41.20792,77.79259,-27.05207,-42.25625,-56.96799,-0.4675641,6.840749,-71.99379,-8.594284,-36.90935,0,0,0,-18.95175,24.02535,5.543282,-125.1085,-110.1389,-87.0042,0.001067912,-0.1257102,0.09433498,0,0.3,0,0,0,0,
6.38224E+17,-10.36638,49.86571,41.93169,77.06013,-30.71432,-46.87069,-56.96799,-0.4675641,6.840749,-71.99379,-8.521038,-36.83611,0,0,0,-31.5016,26.09617,3.857722,-125.1085,-110.1389,-87.0042,0.001067912,-0.1257102,0.09433498,0,0.3,0,0,0,0,
6.38224E+17,-14.1831,49.88908,42.14182,75.15575,-34.44983,-49.94699,-56.96799,-0.4675641,6.840749,-71.99379,-8.594284,-36.90935,0,0,0,-42.97353,26.4587,1.69069,-125.1085,-110.1389,-87.0042,0.001067912,-0.1257102,0.09433498,0,0.3,0,0,0,0,
6.38224E+17,-15.95009,49.74882,42.14182,73.69085,-36.50069,-50.82594,-56.96799,-0.4675641,6.840749,-71.99379,-8.594284,-36.83611,0,0,0,-48.26485,26.24806,0.524561,-125.1085,-110.1389,-87.0042,0.001067912,-0.1257102,0.09433498,0,0.3,0,0,0,0,
6.38224E+17,-19.15425,49.14098,42.11847,69.95535,-40.16295,-51.70488,-56.96799,-0.4675641,6.840749,-71.99379,-8.594284,-36.83611,0,0,0,-57.9679,25.29183,-1.459887,-125.1085,-110.1389,-87.0042,0.001067912,-0.1257102,0.09433498,0,0.3,0,0,0,0,
6.38224E+17,-21.91076,48.46302,42.00173,65.63388,-42.87302,-51.04567,-56.96799,-0.4675641,6.840749,-71.99379,-8.521038,-36.90935,0,0,0,-66.29463,24.07052,-3.526408,-125.1085,-110.1389,-87.0042,0.001067912,-0.1257102,0.09433498,0,0.3,0,0,0,0,
6.38224E+17,-24.64372,48.13572,42.00173,61.01944,-44.99713,-49.06805,-56.96799,-0.4675641,6.840749,-71.99379,-8.521038,-36.83611,0,0,0,-74.31533,23.56378,-6.35793,-125.1085,-110.1389,-87.0042,0.001067912,-0.1257102,0.09433498,0,0.3,0,0,0,0,
6.38224E+17,-25.93952,48.11234,41.93169,58.16287,-45.94932,-47.31017,-56.96799,-0.4675641,6.840749,-71.99379,-8.594284,-36.90935,0,0,0,-77.92432,23.41845,-8.152488,-125.1085,-110.1389,-87.0042,0.001067912,-0.1257102,0.09433498,0,0.3,0,0,0,0,
6.38224E+17,-27.77719,48.08897,41.48809,51.13134,-47.12124,-42.18301,-56.96799,-0.4675641,6.840749,-71.99379,-8.594284,-36.83611,0,0,0,-82.68114,22.69518,-11.37984,-125.1085,-110.1389,-87.0042,0.001067912,-0.1257102,0.09433498,0,0.3,0,0,0,0,
6.38224E+17,-29.26147,47.90194,40.78767,41.75596,-46.75502,-35.81068,-56.96799,-0.4675641,6.840749,-71.99379,-8.594284,-36.90935,0,0,0,-86.27735,21.33147,-14.36304,-125.1085,-110.1389,-87.0042,0.001067912,-0.1257102,0.09433498,0,0.3,0,0,0,0,
6.38224E+17,-29.96827,47.59802,40.39077,36.70204,-45.94932,-32.80762,-56.96799,-0.4675641,6.840749,-71.99379,-8.594284,-36.90935,0,0,0,-88.08144,20.25486,-15.59316,-125.1085,-110.1389,-87.0042,0.001067912,-0.1257102,0.09433498,0,0.3,0,0,0,0,
6.38224E+17,-31.31119,46.52262,39.667,26.96043,-43.31249,-27.68046,-56.96799,-0.4675641,6.840749,-71.99379,-8.594284,-36.83611,0,0,0,-91.91917,17.46644,-17.23599,-125.1085,-110.1389,-87.0042,0.001067912,-0.1257102,0.09433498,0,0.3,0,0,0,0,
6.38224E+17,-32.72478,44.95628,38.8265,17.58505,-39.65023,-24.60417,-56.96799,-0.4675641,6.840749,-71.99379,-8.594284,-36.90935,0,0,0,-96.2115,13.68466,-18.62769,-125.1085,-110.1389,-87.0042,0.001067912,-0.1257102,0.09433498,0,0.3,0,0,0,0,
6.38224E+17,-34.39754,42.94576,37.6358,8.35616,-35.47526,-23.13926,-56.96799,-0.4675641,6.840749,-71.99379,-8.521038,-36.83611,0,0,0,-101.1459,8.601138,-20.61659,-125.1085,-110.1389,-87.0042,0.001067912,-0.1257102,0.09433498,0,0.3,0,0,0,0,
6.38224E+17,-35.19858,41.75347,37.00542,3.741715,-33.35115,-22.99277,-56.96799,-0.4675641,6.840749,-71.99379,-8.521038,-36.83611,0,0,0,-103.6063,5.660888,-21.47097,-125.1085,-110.1389,-87.0042,0.001067912,-0.1257102,0.09433498,0,0.3,0,0,0,0,
6.38224E+17,-36.40014,39.32214,35.44115,-4.461744,-28.73671,-23.94496,-56.96799,-0.4675641,6.840749,-71.99379,-8.594284,-36.83611,0,0,0,-107.1031,-0.7905818,-23.0797,-125.1085,-110.1389,-87.0042,0.001067912,-0.1257102,0.09433498,0,0.3,0,0,0,0,
6.38224E+17,-37.22474,36.49338,33.38659,-11.12705,-24.48849,-26.28881,-56.96799,-0.4675641,6.840749,-71.99379,-8.594284,-36.90935,0,0,0,-109.243,-8.686917,-24.55657,-125.1085,-110.1389,-87.0042,0.001067912,-0.1257102,0.09433498,0,0.3,0,0,0,0,
6.38224E+17,-37.57814,34.66988,32.17253,-13.76388,-22.29113,-27.9002,-56.96799,-0.4675641,6.840749,-71.99379,-8.594284,-36.90935,0,0,0,-110.185,-13.66814,-25.15883,-125.1085,-110.1389,-87.0042,0.001067912,-0.1257102,0.09433498,0,0.3,0,0,0,0,
6.38224E+17,-37.90798,30.64882,30.00124,-18.15859,-17.67669,-31.26948,-56.96799,-0.4675641,6.840749,-71.99379,-8.594284,-36.83611,0,0,0,-111.451,-24.15459,-25.22601,-125.1085,-110.1389,-87.0042,0.001067912,-0.1257102,0.09433498,0,0.3,0,0,0,0,
6.38224E+17,-37.81374,27.0252,27.85329,-21.16164,-12.98899,-34.56551,-56.96799,-0.4675641,6.840749,-71.99379,-8.594284,-36.83611,0,0,0,-111.0265,-33.95909,-25.28632,-125.1085,-110.1389,-87.0042,0.001067912,-0.1257102,0.09433498,0,0.3,0,0,0,0,
6.38224E+17,-37.46034,23.3782,25.75204,-23.06602,-9.033754,-37.71505,-56.96799,-0.4675641,6.840749,-71.99379,-8.594284,-36.83611,0,0,0,-109.6851,-43.84295,-25.20049,-125.1085,-110.1389,-87.0042,0.001067912,-0.1257102,0.09433498,0,0.3,0,0,0,0,
6.38224E+17,-37.17762,21.27416,24.77145,-23.72522,-7.12938,-39.47293,-56.96799,-0.4675641,6.840749,-71.99379,-8.594284,-36.90935,0,0,0,-108.8543,-49.34646,-24.82339,-125.1085,-110.1389,-87.0042,0.001067912,-0.1257102,0.09433498,0,0.3,0,0,0,0,
6.38224E+17,-36.32946,17.04271,23.16049,-24.31118,-3.686857,-42.76897,-56.96799,-0.4675641,6.840749,-71.99379,-8.594284,-36.83611,0,0,0,-106.6024,-60.17008,-23.38464,-125.1085,-110.1389,-87.0042,0.001067912,-0.1257102,0.09433498,0,0.3,0,0,0,0,
6.38224E+17,-35.55198,13.39571,22.01647,-24.16469,-0.8302955,-45.33255,-56.96799,-0.4675641,6.840749,-71.99379,-8.521038,-36.83611,0,0,0,-104.4916,-69.38173,-22.13897,-125.1085,-110.1389,-87.0042,0.001067912,-0.1257102,0.09433498,0,0.3,0,0,0,0,
6.38224E+17,-35.15146,11.52545,21.50283,-23.87171,0.3416272,-46.87069,-56.96799,-0.4675641,6.840749,-71.99379,-8.521038,-36.83611,0,0,0,-103.3685,-74.075,-21.55202,-125.1085,-110.1389,-87.0042,0.001067912,-0.1257102,0.09433498,0,0.3,0,0,0,0,
6.38224E+17,-34.20906,8.135615,21.01254,-22.91953,2.831963,-49.50752,-56.96799,-0.4675641,6.840749,-71.99379,-8.521038,-36.83611,0,0,0,-101.0994,-82.26125,-19.63742,-125.1085,-110.1389,-87.0042,0.001067912,-0.1257102,0.09433498,0,0.3,0,0,0,0,
6.38224E+17,-32.91327,5.938064,20.98919,-21.52787,4.956073,-51.48514,-56.96799,-0.4675641,6.840749,-71.99379,-8.594284,-36.83611,0,0,0,-98.02339,-87.35646,-16.9058,-125.1085,-110.1389,-87.0042,0.001067912,-0.1257102,0.09433498,0,0.3,0,0,0,0,
6.38224E+17,-32.18291,5.283474,20.9425,-20.50244,5.76177,-52.14435,-56.96799,-0.4675641,6.840749,-71.99379,-8.521038,-36.83611,0,0,0,-96.11028,-88.91153,-15.62844,-125.1085,-110.1389,-87.0042,0.001067912,-0.1257102,0.09433498,0,0.3,0,0,0,0,
6.38224E+17,-30.43947,3.950917,20.61563,-17.71912,6.860447,-53.24303,-56.96799,-0.4675641,6.840749,-71.99379,-8.594284,-36.90935,0,0,0,-91.18552,-92.27267,-13.17306,-125.1085,-110.1389,-87.0042,0.001067912,-0.1257102,0.09433498,0,0.3,0,0,0,0,
6.38224E+17,-28.55467,2.267686,20.4522,-14.86256,7.739389,-53.90223,-56.96799,-0.4675641,6.840749,-71.99379,-8.594284,-36.83611,0,0,0,-85.96373,-96.31773,-10.38416,-125.1085,-110.1389,-87.0042,0.001067912,-0.1257102,0.09433498,0,0.3,0,0,0,0,
6.38224E+17,-26.29292,0.6312115,20.24208,-11.56653,8.618331,-54.3417,-56.96799,-0.4675641,6.840749,-71.99379,-8.521038,-36.83611,0,0,0,-79.50222,-100.2951,-7.439393,-125.1085,-110.1389,-87.0042,0.001067912,-0.1257102,0.09433498,0,0.3,0,0,0,0,
6.38224E+17,-25.0678,-0.116891,20.14869,-9.881886,8.911312,-54.56144,-56.96799,-0.4675641,6.840749,-71.99379,-8.521038,-36.90935,0,0,0,-75.96055,-102.1113,-5.95406,-125.1085,-110.1389,-87.0042,0.001067912,-0.1257102,0.09433498,0,0.3,0,0,0,0,
6.38224E+17,-22.19348,-1.052019,20.14869,-5.926647,9.570518,-54.92767,-56.96799,-0.4675641,6.840749,-71.99379,-8.594284,-36.83611,0,0,0,-67.71322,-104.2876,-2.369861,-125.1085,-110.1389,-87.0042,0.001067912,-0.1257102,0.09433498,0,0.3,0,0,0,0,
6.38224E+17,-19.22493,-1.005263,20.40551,-1.531937,9.424027,-55.51363,-56.96799,-0.4675641,6.840749,-71.99379,-8.521038,-36.83611,0,0,0,-59.21186,-103.9716,1.445392,-125.1085,-110.1389,-87.0042,0.001067912,-0.1257102,0.09433498,0,0.3,0,0,0,0,
6.38224E+17,-17.71709,-1.005263,20.91915,0.6654179,9.204292,-55.80661,-56.96799,-0.4675641,6.840749,-71.99379,-8.594284,-36.83611,0,0,0,-55.0638,-103.5498,4.010173,-125.1085,-110.1389,-87.0042,0.001067912,-0.1257102,0.09433498,0,0.3,0,0,0,0,
6.38224E+17,-14.4187,-0.9818845,22.27329,5.279863,8.911312,-56.6123,-56.96799,-0.4675641,6.840749,-71.99379,-8.594284,-36.90935,0,0,0,-45.78556,-102.3354,9.73173,-125.1085,-110.1389,-87.0042,0.001067912,-0.1257102,0.09433498,0,0.3,0,0,0,0,
6.38224E+17,-11.16742,-0.9585064,23.48735,10.26054,8.545086,-57.27151,-56.96799,-0.4675641,6.840749,-71.99379,-8.594284,-36.83611,0,0,0,-36.11632,-101.1824,14.59666,-125.1085,-110.1389,-87.0042,0.001067912,-0.1257102,0.09433498,0,0.3,0,0,0,0,
6.38224E+17,-9.588904,-0.9585064,24.02434,12.82412,8.325351,-57.71098,-56.96799,-0.4675641,6.840749,-71.99379,-8.594284,-36.83611,0,0,0,-31.25356,-100.679,16.65002,-125.1085,-110.1389,-87.0042,0.001067912,-0.1257102,0.09433498,0,0.3,0,0,0,0,
6.38224E+17,-6.643909,-0.9818845,25.12166,17.87803,7.812634,-58.37019,-56.96799,-0.4675641,6.840749,-71.99379,-8.594284,-36.83611,0,0,0,-21.97611,-99.67133,20.31747,-125.1085,-110.1389,-87.0042,0.001067912,-0.1257102,0.09433498,0,0.3,0,0,0,0,
6.38224E+17,-4.075873,-0.9117499,26.68592,23.07844,7.299919,-58.73641,-56.96799,-0.4675641,6.840749,-71.99379,-8.594284,-36.83611,0,0,0,-13.73362,-97.9177,24.38184,-125.1085,-110.1389,-87.0042,0.001067912,-0.1257102,0.09433498,0,0.3,0,0,0,0,
6.38224E+17,-1.861237,-0.4208077,28.1568,28.35209,6.933692,-58.8829,-56.96799,-0.4675641,6.840749,-71.99379,-8.594284,-36.83611,0,0,0,-6.374732,-95.19867,27.81888,-125.1085,-110.1389,-87.0042,0.001067912,-0.1257102,0.09433498,0,0.3,0,0,0,0,
6.38224E+17,-0.8010387,-0.04675641,28.76383,30.98892,6.787202,-58.8829,-56.96799,-0.4675641,6.840749,-71.99379,-8.594284,-36.83611,0,0,0,-2.761363,-93.65485,29.14873,-125.1085,-110.1389,-87.0042,0.001067912,-0.1257102,0.09433498,0,0.3,0,0,0,0,
6.38224E+17,1.107318,0.9351282,30.02458,36.40906,6.567466,-57.93071,-56.96799,-0.4675641,6.840749,-71.99379,-8.594284,-36.83611,0,0,0,3.866126,-89.92955,31.66942,-125.1085,-110.1389,-87.0042,0.001067912,-0.1257102,0.09433498,0,0.3,0,0,0,0,
6.38224E+17,2.662276,2.244308,31.33203,41.90245,6.494221,-56.31932,-56.96799,-0.4675641,6.840749,-71.99379,-8.521038,-36.83611,0,0,0,9.41002,-85.33128,34.02061,-125.1085,-110.1389,-87.0042,0.001067912,-0.1257102,0.09433498,0,0.3,0,0,0,0,
6.38224E+17,3.345515,3.015788,32.07914,44.61252,6.347731,-55.51363,-56.96799,-0.4675641,6.840749,-71.99379,-8.521038,-36.90935,0,0,0,11.90404,-82.6238,35.28856,-125.1085,-110.1389,-87.0042,0.001067912,-0.1257102,0.09433498,0,0.3,0,0,0,0,
6.38224E+17,4.335033,4.395102,33.52667,49.66644,5.835015,-54.04872,-56.96799,-0.4675641,6.840749,-71.99379,-8.521038,-36.83611,0,0,0,15.61736,-77.59528,37.66932,-125.1085,-110.1389,-87.0042,0.001067912,-0.1257102,0.09433498,0,0.3,0,0,0,0,
6.38224E+17,4.971152,5.400365,35.13763,53.84141,5.249053,-52.95005,-56.96799,-0.4675641,6.840749,-71.99379,-8.521038,-36.83611,0,0,0,18.15462,-73.14969,40.36864,-125.1085,-110.1389,-87.0042,0.001067912,-0.1257102,0.09433498,0,0.3,0,0,0,0,
6.38224E+17,5.159632,5.891307,36.09487,55.81903,4.882828,-52.51057,-56.96799,-0.4675641,6.840749,-71.99379,-8.594284,-36.90935,0,0,0,18.99389,-70.71523,41.99959,-125.1085,-110.1389,-87.0042,0.001067912,-0.1257102,0.09433498,0,0.3,0,0,0,0,
6.38224E+17,5.371671,6.943326,37.65914,59.48129,4.003886,-51.92461,-56.96799,-0.4675641,6.840749,-71.99379,-8.594284,-36.83611,0,0,0,20.01922,-66.09743,44.55478,-125.1085,-110.1389,-87.0042,0.001067912,-0.1257102,0.09433498,0,0.3,0,0,0,0,
6.38224E+17,5.300992,7.80832,39.2701,62.85057,3.051698,-51.55839,-56.96799,-0.4675641,6.840749,-71.99379,-8.521038,-36.83611,0,0,0,20.00391,-61.7688,47.24503,-125.1085,-110.1389,-87.0042,0.001067912,-0.1257102,0.09433498,0,0.3,0,0,0,0,
6.38224E+17,5.183192,8.486288,40.92776,65.85361,1.806531,-51.4119,-56.96799,-0.4675641,6.840749,-71.99379,-8.521038,-36.83611,0,0,0,19.807,-57.72193,50.00196,-125.1085,-110.1389,-87.0042,0.001067912,-0.1257102,0.09433498,0,0.3,0,0,0,0,
6.38224E+17,5.112512,9.023986,41.65152,67.17203,1.293814,-51.4119,-56.96799,-0.4675641,6.840749,-71.99379,-8.521038,-36.83611,0,0,0,19.63344,-55.37355,51.09716,-125.1085,-110.1389,-87.0042,0.001067912,-0.1257102,0.09433498,0,0.3,0,0,0,0,
6.38224E+17,4.664873,10.77735,42.79554,69.80886,-0.02459868,-51.4119,-56.96799,-0.4675641,6.840749,-71.99379,-8.594284,-36.90935,0,0,0,18.02166,-49.56441,52.5097,-125.1085,-110.1389,-87.0042,0.001067912,-0.1257102,0.09433498,0,0.3,0,0,0,0,
6.38224E+17,3.934513,12.69436,43.35587,72.1527,-1.709238,-51.4119,-56.96799,-0.4675641,6.840749,-71.99379,-8.521038,-36.83611,0,0,0,15.20803,-44.30557,52.76651,-125.1085,-110.1389,-87.0042,0.001067912,-0.1257102,0.09433498,0,0.3,0,0,0,0,
6.38224E+17,3.533994,13.62949,43.40257,73.03164,-2.58818,-51.4119,-56.96799,-0.4675641,6.840749,-71.99379,-8.594284,-36.90935,0,0,0,13.6363,-42.11171,52.45163,-125.1085,-110.1389,-87.0042,0.001067912,-0.1257102,0.09433498,0,0.3,0,0,0,0,
6.38224E+17,2.520916,15.80367,43.30918,74.20357,-4.346064,-51.4119,-56.96799,-0.4675641,6.840749,-71.99379,-8.521038,-36.83611,0,0,0,9.666773,-37.36707,51.21617,-125.1085,-110.1389,-87.0042,0.001067912,-0.1257102,0.09433498,0,0.3,0,0,0,0,
6.38224E+17,1.107318,18.37527,42.60876,74.78953,-6.470173,-51.48514,-56.96799,-0.4675641,6.840749,-71.99379,-8.594284,-36.90935,0,0,0,4.190217,-32.75757,48.4367,-125.1085,-110.1389,-87.0042,0.001067912,-0.1257102,0.09433498,0,0.3,0,0,0,0,
6.38224E+17,-0.8481586,21.18065,40.90441,74.42331,-8.814018,-51.55839,-56.96799,-0.4675641,6.840749,-71.99379,-8.594284,-36.90935,0,0,0,-3.133109,-29.25569,43.28591,-125.1085,-110.1389,-87.0042,0.001067912,-0.1257102,0.09433498,0,0.3,0,0,0,0,
6.38224E+17,-2.214636,22.67686,39.99387,73.69085,-10.35217,-51.55839,-56.96799,-0.4675641,6.840749,-71.99379,-8.521038,-36.90935,0,0,0,-8.066587,-27.40033,40.2401,-125.1085,-110.1389,-87.0042,0.001067912,-0.1257102,0.09433498,0,0.3,0,0,0,0,
6.38224E+17,-5.041832,25.08481,38.35956,71.20052,-13.6482,-51.55839,-56.96799,-0.4675641,6.840749,-71.99379,-8.594284,-36.90935,0,0,0,-17.88674,-24.67898,34.39137,-125.1085,-110.1389,-87.0042,0.001067912,-0.1257102,0.09433498,0,0.3,0,0,0,0,
6.38224E+17,-7.892587,26.58102,36.39838,67.6115,-17.67669,-50.82594,-56.96799,-0.4675641,6.840749,-71.99379,-8.521038,-36.83611,0,0,0,-27.24146,-24.31565,28.15538,-125.1085,-110.1389,-87.0042,0.001067912,-0.1257102,0.09433498,0,0.3,0,0,0,0,
6.38224E+17,-9.282625,26.69791,35.62793,65.26765,-19.58106,-49.94699,-56.96799,-0.4675641,6.840749,-71.99379,-8.594284,-36.90935,0,0,0,-31.7467,-25.1268,25.88488,-125.1085,-110.1389,-87.0042,0.001067912,-0.1257102,0.09433498,0,0.3,0,0,0,0,
6.38224E+17,-12.15694,26.46413,34.34383,60.14049,-22.7306,-47.74964,-56.96799,-0.4675641,6.840749,-71.99379,-8.594284,-36.83611,0,0,0,-40.98236,-27.32695,21.893,-125.1085,-110.1389,-87.0042,0.001067912,-0.1257102,0.09433498,0,0.3,0,0,0,0,
6.38224E+17,-15.14906,25.99656,33.17647,54.50062,-25.14769,-44.74659,-56.96799,-0.4675641,6.840749,-71.99379,-8.521038,-36.83611,0,0,0,-50.39231,-29.8129,17.77844,-125.1085,-110.1389,-87.0042,0.001067912,-0.1257102,0.09433498,0,0.3,0,0,0,0,
6.38224E+17,-18.11761,25.48224,32.61613,48.42127,-26.68584,-41.67029,-56.96799,-0.4675641,6.840749,-71.99379,-8.594284,-36.90935,0,0,0,-59.78503,-31.59945,14.37232,-125.1085,-110.1389,-87.0042,0.001067912,-0.1257102,0.09433498,0,0.3,0,0,0,0,
6.38224E+17,-19.76681,25.31859,32.52274,45.19848,-27.2718,-40.13214,-56.96799,-0.4675641,6.840749,-71.99379,-8.594284,-36.90935,0,0,0,-65.01231,-32.06051,12.55738,-125.1085,-110.1389,-87.0042,0.001067912,-0.1257102,0.09433498,0,0.3,0,0,0,0,
6.38224E+17,-22.9474,25.03806,32.49939,39.04589,-28.15074,-37.20233,-56.96799,-0.4675641,6.840749,-71.99379,-8.594284,-36.83611,0,0,0,-75.03994,-32.6806,8.885216,-125.1085,-110.1389,-87.0042,0.001067912,-0.1257102,0.09433498,0,0.3,0,0,0,0,
6.38224E+17,-25.91596,24.47698,32.26592,32.96654,-28.73671,-34.19928,-56.96799,-0.4675641,6.840749,-71.99379,-8.594284,-36.83611,0,0,0,-84.15633,-34.15744,4.840356,-125.1085,-110.1389,-87.0042,0.001067912,-0.1257102,0.09433498,0,0.3,0,0,0,0,
6.38224E+17,-27.44736,24.12631,32.07914,29.67051,-28.95644,-32.73438,-56.96799,-0.4675641,6.840749,-71.99379,-8.594284,-36.83611,0,0,0,-88.73996,-35.13275,2.500975,-125.1085,-110.1389,-87.0042,0.001067912,-0.1257102,0.09433498,0,0.3,0,0,0,0,
6.38224E+17,-30.25099,23.40158,32.03245,23.51791,-29.02968,-30.02431,-56.96799,-0.4675641,6.840749,-71.99379,-8.594284,-36.83611,0,0,0,-97.28661,-36.73413,-1.536506,-125.1085,-110.1389,-87.0042,0.001067912,-0.1257102,0.09433498,0,0.3,0,0,0,0,
6.38224E+17,-33.21954,22.4197,32.12584,17.14558,-28.88319,-27.60722,-56.96799,-0.4675641,6.840749,-71.99379,-8.594284,-36.83611,0,0,0,-106.3833,-38.72363,-5.900314,-125.1085,-110.1389,-87.0042,0.001067912,-0.1257102,0.09433498,0,0.3,0,0,0,0,
6.38224E+17,-34.7745,21.92875,32.26592,13.92279,-28.66346,-26.36205,-56.96799,-0.4675641,6.840749,-71.99379,-8.594284,-36.83611,0,0,0,-111.1556,-39.60802,-8.266076,-125.1085,-110.1389,-87.0042,0.001067912,-0.1257102,0.09433498,0,0.3,0,0,0,0,
6.38224E+17,-37.90798,21.11052,32.8963,6.598277,-28.00425,-23.94496,-56.96799,-0.4675641,6.840749,-71.99379,-8.594284,-36.83611,0,0,0,-120.9287,-40.58958,-13.05487,-125.1085,-110.1389,-87.0042,0.001067912,-0.1257102,0.09433498,0,0.3,0,0,0,0,
6.38224E+17,-41.08857,20.68971,34.25044,-1.092466,-27.12531,-21.7476,-56.96799,-0.4675641,6.840749,-71.99379,-8.521038,-36.90935,0,0,0,-131.3141,-39.7617,-17.76123,-125.1085,-110.1389,-87.0042,0.001067912,-0.1257102,0.09433498,0,0.3,0,0,0,0,
6.38224E+17,-44.01001,20.61958,35.95479,-9.22268,-26.24637,-20.06297,-56.96799,-0.4675641,6.840749,-71.99379,-8.594284,-36.83611,0,0,0,-141.1131,-37.6335,-22.2742,-125.1085,-110.1389,-87.0042,0.001067912,-0.1257102,0.09433498,0,0.3,0,0,0,0,
6.38224E+17,-45.18801,20.61958,36.7019,-13.4709,-25.88014,-19.477,-56.96799,-0.4675641,6.840749,-71.99379,-8.521038,-36.83611,0,0,0,-145.0801,-36.60341,-24.21885,-125.1085,-110.1389,-87.0042,0.001067912,-0.1257102,0.09433498,0,0.3,0,0,0,0,
6.38224E+17,-47.33196,20.61958,37.61245,-20.79542,-25.07445,-18.8178,-56.96799,-0.4675641,6.840749,-71.99379,-8.521038,-36.90935,0,0,0,-151.6124,-35.32342,-28.60257,-125.1085,-110.1389,-87.0042,0.001067912,-0.1257102,0.09433498,0,0.3,0,0,0,0,
6.38224E+17,-49.52304,20.61958,38.35956,-27.02126,-23.90252,-18.67131,-56.96799,-0.4675641,6.840749,-71.99379,-8.594284,-36.90935,0,0,0,-157.8869,-34.25323,-33.61159,-125.1085,-110.1389,-87.0042,0.001067912,-0.1257102,0.09433498,0,0.3,0,0,0,0,
6.38224E+17,-50.63036,20.61958,38.75646,-29.87782,-23.31656,-18.96429,-56.96799,-0.4675641,6.840749,-71.99379,-8.594284,-36.83611,0,0,0,-161.0197,-33.67746,-36.22973,-125.1085,-110.1389,-87.0042,0.001067912,-0.1257102,0.09433498,0,0.3,0,0,0,0,
6.38224E+17,-52.68008,20.61958,39.57362,-35.15147,-22.21789,-20.2827,-56.96799,-0.4675641,6.840749,-71.99379,-8.521038,-36.83611,0,0,0,-166.8148,-32.47635,-41.17944,-125.1085,-110.1389,-87.0042,0.001067912,-0.1257102,0.09433498,0,0.3,0,0,0,0,
6.38224E+17,-54.87115,20.52606,40.5542,-40.20539,-21.11921,-22.04058,-56.96799,-0.4675641,6.840749,-71.99379,-8.521038,-36.83611,0,0,0,-173.0459,-31.2112,-46.60107,-125.1085,-110.1389,-87.0042,0.001067912,-0.1257102,0.09433498,0,0.3,0,0,0,0,
6.38224E+17,-57.03867,20.12863,41.13788,-44.81983,-19.80079,-23.57873,-56.96799,-0.4675641,6.840749,-71.99379,-8.594284,-36.90935,0,0,0,-178.6586,-31.1901,-52.49907,-125.1085,-110.1389,-87.0042,0.001067912,-0.1257102,0.09433498,0,0.3,0,0,0,0,
6.38224E+17,-57.43919,19.75458,41.11454,-47.09043,-18.84861,-24.23794,-56.96799,-0.4675641,6.840749,-71.99379,-8.521038,-36.90935,0,0,0,-179.6798,-32.04421,-53.61301,-125.1085,-110.1389,-87.0042,0.001067912,-0.1257102,0.09433498,0,0.3,0,0,0,0,
6.38224E+17,-57.43919,19.61431,39.10667,-48.40885,-17.23721,-25.11688,-56.96799,-0.4675641,6.840749,-71.99379,-8.594284,-36.83611,0,0,0,-176.7604,-35.36215,-55.47724,-125.1085,-110.1389,-87.0042,0.001067912,-0.1257102,0.09433498,0,0.3,0,0,0,0,
6.38224E+17,-57.46275,19.61431,36.63186,-46.79745,-15.99205,-25.84933,-56.96799,-0.4675641,6.840749,-71.99379,-8.594284,-36.83611,0,0,0,-172.9739,-38.89764,-57.99529,-125.1085,-110.1389,-87.0042,0.001067912,-0.1257102,0.09433498,0,0.3,0,0,0,0,
6.38224E+17,-57.46275,19.59093,35.04425,-45.62553,-15.18635,-26.36205,-56.96799,-0.4675641,6.840749,-71.99379,-8.594284,-36.90935,0,0,0,-170.4641,-41.11224,-59.59652,-125.1085,-110.1389,-87.0042,0.001067912,-0.1257102,0.09433498,0,0.3,0,0,0,0,
6.38224E+17,-57.43919,19.05324,31.1686,-43.28168,-13.20873,-27.97344,-56.96799,-0.4675641,6.840749,-71.99379,-8.521038,-36.83611,0,0,0,-164.4014,-47.21902,-63.3693,-125.1085,-110.1389,-87.0042,0.001067912,-0.1257102,0.09433498,0,0.3,0,0,0,0,
6.38224E+17,-57.39207,17.37,27.99337,-41.96327,-10.79164,-30.53703,-56.96799,-0.4675641,6.840749,-71.99379,-8.594284,-36.83611,0,0,0,-159.9332,-54.58783,-66.03725,-125.1085,-110.1389,-87.0042,0.001067912,-0.1257102,0.09433498,0,0.3,0,0,0,0,
6.38224E+17,-57.39207,16.06083,26.63923,-41.74353,-9.546471,-32.07517,-56.96799,-0.4675641,6.840749,-71.99379,-8.521038,-36.83611,0,0,0,-158.3127,-58.95226,-67.07394,-125.1085,-110.1389,-87.0042,0.001067912,-0.1257102,0.09433498,0,0.3,0,0,0,0,
6.38224E+17,-57.34494,12.74112,24.72475,-41.74353,-6.98289,-35.22471,-56.96799,-0.4675641,6.840749,-71.99379,-8.594284,-36.83611,0,0,0,-156.4662,-68.36563,-68.07371,-125.1085,-110.1389,-87.0042,0.001067912,-0.1257102,0.09433498,0,0.3,0,0,0,0,
6.38224E+17,-57.08578,9.094121,23.60409,-42.47599,-4.712289,-37.56856,-56.96799,-0.4675641,6.840749,-71.99379,-8.594284,-36.90935,0,0,0,-155.3627,-77.7663,-67.78667,-125.1085,-110.1389,-87.0042,0.001067912,-0.1257102,0.09433498,0,0.3,0,0,0,0,
6.38224E+17,-56.80307,7.013461,23.04375,-42.76897,-3.613612,-38.59399,-56.96799,-0.4675641,6.840749,-71.99379,-8.594284,-36.83611,0,0,0,-154.4302,-83.07713,-67.30551,-125.1085,-110.1389,-87.0042,0.001067912,-0.1257102,0.09433498,0,0.3,0,0,0,0,
6.38224E+17,-56.04915,2.875519,22.34333,-42.69572,-1.562747,-40.35188,-56.96799,-0.4675641,6.840749,-71.99379,-8.594284,-36.90935,0,0,0,-152.5282,-93.29874,-65.65871,-125.1085,-110.1389,-87.0042,0.001067912,-0.1257102,0.09433498,0,0.3,0,0,0,0,
6.38224E+17,-55.08319,-0.8416153,21.7363,-41.96327,0.4881175,-41.74353,-56.96799,-0.4675641,6.840749,-71.99379,-8.521038,-36.90935,0,0,0,-149.8273,-102.4773,-63.76363,-125.1085,-110.1389,-87.0042,0.001067912,-0.1257102,0.09433498,0,0.3,0,0,0,0,
