zeyangz2/DNN_classification_different_people_hand/data/zeyang_right_13.csv
Timestamp,Therapist joint angle 0,Therapist joint angle 1,Therapist joint angle 2,Therapist joint angle 3,Therapist joint angle 4,Therapist joint angle 5,Patient joint angle 0,Patient joint angle 1,Patient joint angle 2,Patient joint angle 3,Patient joint angle 4,Patient joint angle 5,Virtual joint angle 0,Virtual joint angle 1,Virtual joint angle 2,Therapist position x,Therapist position y,Therapist position z,Patient position x,Patient position y,Patient position z,Virtual position x,Virtual position y,Virtual position z,Assistive Force, Obstacle Force Magnitude, Therapist Constant Force, Patient Constant Force, Recovery Factor, Assistance Level,label
6.38224E+17,0,0,0,0,0,0,0,0,0,0,0,0,0,0,0,0,0,0,0,0,0,0,0,0,0,0.3,0,0,0,0,0
6.38224E+17,-22.54688,-1.005263,-2.941756,-35.95716,-63.08869,23.44467,49.26388,0.9117499,-12.37405,-96.38443,-11.67058,14.36226,0,0,0,-48.49964,-112.1638,-51.53196,79.37691,-104.7803,-99.98798,0.001067912,-0.1257102,0.09433498,0,0.3,0,0,1.85E-05,0,
6.38224E+17,-22.54688,-1.005263,-2.941756,-35.95716,-63.08869,23.44467,49.26388,0.9117499,-12.37405,-96.38443,-11.59733,14.36226,0,0,0,-48.49964,-112.1638,-51.53196,79.37691,-104.7803,-99.98798,0.001067912,-0.1257102,0.09433498,0,0.3,0,0,1.85E-05,0,
6.38224E+17,-22.54688,-1.005263,-2.941756,-35.95716,-63.08869,23.44467,49.26388,0.9117499,-12.37405,-96.38443,-11.59733,14.36226,0,0,0,-48.49964,-112.1638,-51.53196,79.37691,-104.7803,-99.98798,0.001067912,-0.1257102,0.09433498,0,0.3,0,0,1.85E-05,0,
6.38224E+17,-22.54688,-1.005263,-2.941756,-36.03041,-63.08869,23.51791,49.26388,0.9117499,-12.37405,-96.38443,-11.59733,14.36226,0,0,0,-48.49964,-112.1638,-51.53196,79.37691,-104.7803,-99.98798,0.001067912,-0.1257102,0.09433498,0,0.3,0,0,1.84E-05,0,
6.38224E+17,-22.54688,-1.005263,-2.941756,-36.03041,-63.08869,23.44467,49.26388,0.9117499,-12.37405,-96.38443,-11.59733,14.36226,0,0,0,-48.49964,-112.1638,-51.53196,79.37691,-104.7803,-99.98798,0.001067912,-0.1257102,0.09433498,0,0.3,0,0,1.84E-05,0,
6.38224E+17,-22.54688,-1.005263,-2.941756,-35.95716,-63.08869,23.44467,49.26388,0.9117499,-12.37405,-96.38443,-11.59733,14.36226,0,0,0,-48.49964,-112.1638,-51.53196,79.37691,-104.7803,-99.98798,0.001067912,-0.1257102,0.09433498,0,0.3,0,0,1.84E-05,0,
6.38224E+17,-22.54688,-1.005263,-2.941756,-36.03041,-63.08869,23.44467,49.26388,0.9117499,-12.37405,-96.38443,-11.67058,14.36226,0,0,0,-48.49964,-112.1638,-51.53196,79.37691,-104.7803,-99.98798,0.001067912,-0.1257102,0.09433498,0,0.3,0,0,1.84E-05,0,
6.38224E+17,-22.54688,-1.005263,-2.941756,-36.03041,-63.08869,23.44467,49.26388,0.9117499,-12.37405,-96.38443,-11.59733,14.36226,0,0,0,-48.49964,-112.1638,-51.53196,79.37691,-104.7803,-99.98798,0.001067912,-0.1257102,0.09433498,0,0.3,0,0,1.84E-05,0,
6.38224E+17,-22.54688,-1.005263,-2.941756,-35.95716,-63.08869,23.44467,49.26388,0.9117499,-12.37405,-96.38443,-11.59733,14.36226,0,0,0,-48.49964,-112.1638,-51.53196,79.37691,-104.7803,-99.98798,0.001067912,-0.1257102,0.09433498,0,0.3,0,0,1.84E-05,0,
6.38224E+17,-22.54688,-1.005263,-2.941756,-35.95716,-63.08869,23.44467,49.26388,0.9117499,-12.37405,-96.38443,-11.59733,14.36226,0,0,0,-48.49964,-112.1638,-51.53196,79.37691,-104.7803,-99.98798,0.001067912,-0.1257102,0.09433498,0,0.3,0,0,1.84E-05,0,
6.38224E+17,-22.54688,-1.005263,-2.941756,-35.95716,-63.08869,23.51791,49.26388,0.9117499,-12.37405,-96.38443,-11.59733,14.36226,0,0,0,-48.49964,-112.1638,-51.53196,79.37691,-104.7803,-99.98798,0.001067912,-0.1257102,0.09433498,0,0.3,0,0,1.85E-05,0,
6.38224E+17,-22.54688,-1.005263,-2.941756,-35.95716,-63.08869,23.44467,49.26388,0.9117499,-12.37405,-96.38443,-11.59733,14.36226,0,0,0,-48.49964,-112.1638,-51.53196,79.37691,-104.7803,-99.98798,0.001067912,-0.1257102,0.09433498,0,0.3,0,0,1.86E-05,0,
6.38224E+17,-22.54688,-1.005263,-2.941756,-35.95716,-63.08869,23.44467,49.26388,0.9117499,-12.37405,-96.38443,-11.59733,14.36226,0,0,0,-48.49964,-112.1638,-51.53196,79.37691,-104.7803,-99.98798,0.001067912,-0.1257102,0.09433498,0,0.3,0,0,1.86E-05,0,
6.38224E+17,-22.54688,-1.005263,-2.941756,-35.95716,-63.08869,23.44467,49.26388,0.9117499,-12.37405,-96.38443,-11.59733,14.36226,0,0,0,-48.49964,-112.1638,-51.53196,79.37691,-104.7803,-99.98798,0.001067912,-0.1257102,0.09433498,0,0.3,0,0,1.86E-05,0,
6.38224E+17,-22.54688,-1.005263,-2.941756,-35.95716,-63.08869,23.44467,49.26388,0.9117499,-12.37405,-96.38443,-11.59733,14.36226,0,0,0,-48.49964,-112.1638,-51.53196,79.37691,-104.7803,-99.98798,0.001067912,-0.1257102,0.09433498,0,0.3,0,0,1.87E-05,0,
6.38224E+17,-22.54688,-1.005263,-2.941756,-35.95716,-63.01544,23.44467,49.26388,0.9117499,-12.37405,-96.38443,-11.59733,14.36226,0,0,0,-48.49964,-112.1638,-51.53196,79.37691,-104.7803,-99.98798,0.001067912,-0.1257102,0.09433498,0,0.3,0,0,1.87E-05,0,
6.38224E+17,-22.54688,-1.005263,-2.941756,-35.95716,-63.01544,23.44467,49.26388,0.9117499,-12.37405,-96.38443,-11.59733,14.36226,0,0,0,-48.49964,-112.1638,-51.53196,79.37691,-104.7803,-99.98798,0.001067912,-0.1257102,0.09433498,0,0.3,0,0,1.87E-05,0,
6.38224E+17,-22.54688,-1.005263,-2.941756,-35.95716,-63.01544,23.44467,49.26388,0.9117499,-12.37405,-96.38443,-11.59733,14.36226,0,0,0,-48.49964,-112.1638,-51.53196,79.37691,-104.7803,-99.98798,0.001067912,-0.1257102,0.09433498,0,0.3,0,0,1.86E-05,0,
6.38224E+17,-22.54688,-1.005263,-2.941756,-35.95716,-63.08869,23.44467,49.26388,0.9117499,-12.37405,-96.38443,-11.59733,14.36226,0,0,0,-48.49964,-112.1638,-51.53196,79.37691,-104.7803,-99.98798,0.001067912,-0.1257102,0.09433498,0,0.3,0,0,1.86E-05,0,
6.38224E+17,-22.54688,-1.005263,-2.941756,-35.95716,-63.08869,23.44467,49.26388,0.9117499,-12.37405,-96.38443,-11.59733,14.36226,0,0,0,-48.49964,-112.1638,-51.53196,79.37691,-104.7803,-99.98798,0.001067912,-0.1257102,0.09433498,0,0.3,0,0,1.85E-05,0,
6.38224E+17,-22.54688,-1.005263,-2.941756,-35.95716,-63.16194,23.44467,49.26388,0.9117499,-12.37405,-96.38443,-11.67058,14.36226,0,0,0,-48.49964,-112.1638,-51.53196,79.37691,-104.7803,-99.98798,0.001067912,-0.1257102,0.09433498,0,0.3,0,0,1.85E-05,0,
6.38224E+17,-22.54688,-1.005263,-2.941756,-35.95716,-63.08869,23.51791,49.26388,0.9117499,-12.37405,-96.38443,-11.59733,14.36226,0,0,0,-48.49964,-112.1638,-51.53196,79.37691,-104.7803,-99.98798,0.001067912,-0.1257102,0.09433498,0,0.3,0,0,1.84E-05,0,
6.38224E+17,-22.54688,-1.005263,-2.941756,-35.95716,-63.08869,23.44467,49.26388,0.9117499,-12.37405,-96.38443,-11.59733,14.36226,0,0,0,-48.49964,-112.1638,-51.53196,79.37691,-104.7803,-99.98798,0.001067912,-0.1257102,0.09433498,0,0.3,0,0,1.84E-05,0,
6.38224E+17,-22.54688,-1.005263,-2.941756,-35.95716,-63.08869,23.51791,49.26388,0.9117499,-12.37405,-96.38443,-11.59733,14.36226,0,0,0,-48.49964,-112.1638,-51.53196,79.37691,-104.7803,-99.98798,0.001067912,-0.1257102,0.09433498,0,0.3,0,0,1.84E-05,0,
6.38224E+17,-22.54688,-1.005263,-2.941756,-35.95716,-63.08869,23.44467,49.26388,0.9117499,-12.37405,-96.38443,-11.59733,14.36226,0,0,0,-48.49964,-112.1638,-51.53196,79.37691,-104.7803,-99.98798,0.001067912,-0.1257102,0.09433498,0,0.3,0,0,1.83E-05,0,
6.38224E+17,-22.54688,-1.005263,-2.941756,-35.95716,-63.08869,23.44467,49.26388,0.9117499,-12.37405,-96.38443,-11.59733,14.43551,0,0,0,-48.49964,-112.1638,-51.53196,79.37691,-104.7803,-99.98798,0.001067912,-0.1257102,0.09433498,0,0.3,0,0,1.83E-05,0,
6.38224E+17,-22.54688,-1.005263,-2.941756,-35.95716,-63.08869,23.44467,49.26388,0.9117499,-12.37405,-96.38443,-11.59733,14.36226,0,0,0,-48.49964,-112.1638,-51.53196,79.37691,-104.7803,-99.98798,0.001067912,-0.1257102,0.09433498,0,0.3,0,0,1.83E-05,0,
6.38224E+17,-22.54688,-1.005263,-2.941756,-35.95716,-63.08869,23.44467,49.26388,0.9117499,-12.37405,-96.38443,-11.59733,14.36226,0,0,0,-48.49964,-112.1638,-51.53196,79.37691,-104.7803,-99.98798,0.001067912,-0.1257102,0.09433498,0,0.3,0,0,1.82E-05,0,
6.38224E+17,-22.54688,-1.005263,-2.941756,-35.95716,-63.08869,23.44467,49.26388,0.9117499,-12.37405,-96.38443,-11.59733,14.36226,0,0,0,-48.49964,-112.1638,-51.53196,79.37691,-104.7803,-99.98798,0.001067912,-0.1257102,0.09433498,0,0.3,0,0,1.82E-05,0,
6.38224E+17,-22.54688,-1.005263,-2.941756,-35.95716,-63.08869,23.44467,49.26388,0.9117499,-12.37405,-96.38443,-11.59733,14.36226,0,0,0,-48.49964,-112.1638,-51.53196,79.37691,-104.7803,-99.98798,0.001067912,-0.1257102,0.09433498,0,0.3,0,0,1.82E-05,0,
6.38224E+17,-22.54688,-1.005263,-2.941756,-35.95716,-63.08869,23.44467,49.26388,0.9117499,-12.37405,-96.38443,-11.59733,14.36226,0,0,0,-48.49964,-112.1638,-51.53196,79.37691,-104.7803,-99.98798,0.001067912,-0.1257102,0.09433498,0,0.3,0,0,1.82E-05,0,
6.38224E+17,-22.54688,-1.005263,-2.941756,-36.03041,-63.08869,23.44467,49.26388,0.9117499,-12.37405,-96.38443,-11.59733,14.36226,0,0,0,-48.49964,-112.1638,-51.53196,79.37691,-104.7803,-99.98798,0.001067912,-0.1257102,0.09433498,0,0.3,0,0,1.80E-05,0,
6.38224E+17,-22.54688,-1.005263,-2.941756,-36.03041,-63.08869,23.44467,49.26388,0.9117499,-12.37405,-96.38443,-11.59733,14.36226,0,0,0,-48.49964,-112.1638,-51.53196,79.37691,-104.7803,-99.98798,0.001067912,-0.1257102,0.09433498,0,0.3,0,0,1.80E-05,0,
6.38224E+17,-22.54688,-1.005263,-2.941756,-35.95716,-63.08869,23.44467,49.26388,0.9117499,-12.37405,-96.38443,-11.59733,14.36226,0,0,0,-48.49964,-112.1638,-51.53196,79.37691,-104.7803,-99.98798,0.001067912,-0.1257102,0.09433498,0,0.3,0,0,1.80E-05,0,
6.38224E+17,-22.54688,-1.005263,-2.941756,-35.95716,-63.01544,23.51791,49.26388,0.9117499,-12.37405,-96.38443,-11.59733,14.36226,0,0,0,-48.49964,-112.1638,-51.53196,79.37691,-104.7803,-99.98798,0.001067912,-0.1257102,0.09433498,0,0.3,0,0,1.80E-05,0,
6.38224E+17,-22.54688,-1.005263,-2.941756,-35.95716,-63.08869,23.44467,49.26388,0.9117499,-12.37405,-96.38443,-11.67058,14.36226,0,0,0,-48.49964,-112.1638,-51.53196,79.37691,-104.7803,-99.98798,0.001067912,-0.1257102,0.09433498,0,0.3,0,0,1.82E-05,0,
6.38224E+17,-22.54688,-1.005263,-2.941756,-35.95716,-63.08869,23.44467,49.26388,0.9117499,-12.37405,-96.38443,-11.59733,14.36226,0,0,0,-48.49964,-112.1638,-51.53196,79.37691,-104.7803,-99.98798,0.001067912,-0.1257102,0.09433498,0,0.3,0,0,1.83E-05,0,
6.38224E+17,-22.54688,-1.005263,-2.941756,-35.95716,-63.08869,23.44467,49.26388,0.9117499,-12.37405,-96.38443,-11.59733,14.36226,0,0,0,-48.49964,-112.1638,-51.53196,79.37691,-104.7803,-99.98798,0.001067912,-0.1257102,0.09433498,0,0.3,0,0,1.83E-05,0,
6.38224E+17,-22.54688,-1.005263,-2.941756,-35.95716,-63.08869,23.44467,49.26388,0.9117499,-12.37405,-96.38443,-11.59733,14.36226,0,0,0,-48.49964,-112.1638,-51.53196,79.37691,-104.7803,-99.98798,0.001067912,-0.1257102,0.09433498,0,0.3,0,0,1.84E-05,0,
6.38224E+17,-22.54688,-1.005263,-2.941756,-35.95716,-63.08869,23.44467,49.26388,0.9117499,-12.37405,-96.38443,-11.59733,14.36226,0,0,0,-48.49964,-112.1638,-51.53196,79.37691,-104.7803,-99.98798,0.001067912,-0.1257102,0.09433498,0,0.3,0,0,1.84E-05,0,
6.38224E+17,-22.54688,-1.005263,-2.941756,-35.95716,-63.08869,23.44467,49.26388,0.9117499,-12.37405,-96.38443,-11.59733,14.36226,0,0,0,-48.49964,-112.1638,-51.53196,79.37691,-104.7803,-99.98798,0.001067912,-0.1257102,0.09433498,0,0.3,0,0,1.85E-05,0,
6.38224E+17,-22.54688,-1.005263,-2.941756,-35.95716,-63.08869,23.44467,49.26388,0.9117499,-12.37405,-96.38443,-11.67058,14.36226,0,0,0,-48.49964,-112.1638,-51.53196,79.37691,-104.7803,-99.98798,0.001067912,-0.1257102,0.09433498,0,0.3,0,0,1.86E-05,0,
6.38224E+17,-22.54688,-1.005263,-2.965103,-36.03041,-63.08869,24.10387,49.26388,0.9117499,-12.37405,-96.38443,-11.67058,14.36226,0,0,0,-48.47884,-112.161,-51.58207,79.37691,-104.7803,-99.98798,0.001067912,-0.1257102,0.09433498,0,0.3,0,0,2.23E-05,0,
6.38224E+17,-22.52332,-1.005263,-3.105186,-36.10366,-63.08869,26.00825,49.26388,0.9117499,-12.37405,-96.38443,-11.59733,14.36226,0,0,0,-48.3061,-112.1437,-51.86289,79.37691,-104.7803,-99.98798,0.001067912,-0.1257102,0.09433498,0,0.3,0,0,5.13E-05,0,
6.38224E+17,-22.52332,-1.005263,-3.175228,-37.86154,-63.08869,30.62269,49.26388,0.9117499,-12.37405,-96.38443,-11.59733,14.36226,0,0,0,-48.24375,-112.1348,-52.01324,79.37691,-104.7803,-99.98798,0.001067912,-0.1257102,0.09433498,0,0.3,0,0,0.000124788,0,
6.38224E+17,-22.52332,-1.005263,-3.128534,-42.69572,-63.01544,33.40601,49.26388,0.9117499,-12.37405,-96.38443,-11.67058,14.36226,0,0,0,-48.28532,-112.1408,-51.91301,79.37691,-104.7803,-99.98798,0.001067912,-0.1257102,0.09433498,0,0.3,0,0,0.000187628,0,
6.38224E+17,-22.52332,-1.005263,-3.105186,-45.47904,-62.9422,33.62574,49.26388,0.9117499,-12.37405,-96.38443,-11.59733,14.36226,0,0,0,-48.3061,-112.1437,-51.86289,79.37691,-104.7803,-99.98798,0.001067912,-0.1257102,0.09433498,0,0.3,0,0,0.000212808,0,
6.38224E+17,-22.52332,-0.9818845,-2.941756,-48.92156,-61.62378,30.32971,49.26388,0.9117499,-12.37405,-96.38443,-11.59733,14.36226,0,0,0,-48.45197,-112.1094,-51.51115,79.37691,-104.7803,-99.98798,0.001067912,-0.1257102,0.09433498,0,0.3,0,0,0.000234869,0,
6.38224E+17,-22.52332,-0.9818845,-2.825019,-47.5299,-60.08564,21.61354,49.26388,0.9117499,-12.37405,-96.38443,-11.59733,14.36226,0,0,0,-48.55591,-112.1231,-51.2605,79.37691,-104.7803,-99.98798,0.001067912,-0.1257102,0.09433498,0,0.3,0,0,0.00020434,0,
6.38224E+17,-22.52332,-0.9818845,-2.825019,-45.40579,-59.0602,16.8526,49.26388,0.9117499,-12.37405,-96.38443,-11.59733,14.36226,0,0,0,-48.55591,-112.1231,-51.2605,79.37691,-104.7803,-99.98798,0.001067912,-0.1257102,0.09433498,0,0.3,0,0,0.000189522,0,
6.38224E+17,-22.52332,-0.9585064,-2.825019,-40.7181,-56.56987,10.77325,49.26388,0.9117499,-12.37405,-96.38443,-11.67058,14.36226,0,0,0,-48.55626,-112.0687,-51.25965,79.37691,-104.7803,-99.98798,0.001067912,-0.1257102,0.09433498,0,0.3,0,0,0.000161444,0,
6.38224E+17,-22.52332,-0.9585064,-2.825019,-36.39664,-52.90761,8.136425,49.26388,0.9117499,-12.37405,-96.38443,-11.67058,14.36226,0,0,0,-48.55626,-112.0687,-51.25965,79.37691,-104.7803,-99.98798,0.001067912,-0.1257102,0.09433498,0,0.3,0,0,0.000134593,0,
6.38224E+17,-22.52332,-0.9585064,-2.825019,-34.63876,-50.71025,7.91669,49.26388,0.9117499,-12.37405,-96.38443,-11.59733,14.36226,0,0,0,-48.55626,-112.0687,-51.25965,79.37691,-104.7803,-99.98798,0.001067912,-0.1257102,0.09433498,0,0.3,0,0,0.000121557,0,
6.38224E+17,-22.52332,-0.9818845,-2.801672,-31.92868,-45.65634,11.57895,49.26388,0.9117499,-12.37405,-96.38443,-11.59733,14.36226,0,0,0,-48.5767,-112.1257,-51.21037,79.37691,-104.7803,-99.98798,0.001067912,-0.1257102,0.09433498,0,0.3,0,0,9.31E-05,0,
6.38224E+17,-22.52332,-0.9818845,-2.73163,-30.31729,-40.16295,15.75392,49.26388,0.9117499,-12.37405,-96.38443,-11.59733,14.36226,0,0,0,-48.63907,-112.1336,-51.05996,79.37691,-104.7803,-99.98798,0.001067912,-0.1257102,0.09433498,0,0.3,0,0,5.13E-05,0,
6.38224E+17,-22.52332,-0.9818845,-2.708283,-29.58484,-34.37658,19.56267,49.26388,0.9117499,-12.37405,-96.38443,-11.59733,14.36226,0,0,0,-48.65986,-112.1362,-51.00983,79.37691,-104.7803,-99.98798,0.001067912,-0.1257102,0.09433498,0,0.3,0,0,0,0,
6.38224E+17,-22.52332,-0.9818845,-2.73163,-29.58484,-31.52002,21.76003,49.26388,0.9117499,-12.37405,-96.38443,-11.59733,14.36226,0,0,0,-48.63907,-112.1336,-51.05996,79.37691,-104.7803,-99.98798,0.001067912,-0.1257102,0.09433498,0,0.3,0,0,0,0,
6.38224E+17,-22.52332,-0.9818845,-3.011797,-30.39053,-24.78147,27.47315,49.26388,0.9117499,-12.37405,-96.38443,-11.59733,14.36226,0,0,0,-48.38961,-112.1009,-51.66153,79.37691,-104.7803,-99.98798,0.001067912,-0.1257102,0.09433498,0,0.3,0,0,0,0,
6.38224E+17,-22.52332,-0.9585064,-3.338659,-31.56245,-18.92185,33.25952,49.26388,0.9117499,-12.37405,-96.38443,-11.59733,14.36226,0,0,0,-48.099,-112.0044,-52.36231,79.37691,-104.7803,-99.98798,0.001067912,-0.1257102,0.09433498,0,0.3,0,0,5.02E-05,0,
6.38224E+17,-22.52332,-0.9117499,-3.618826,-32.4414,-15.84556,37.50774,49.26388,0.9117499,-12.37405,-96.38443,-11.59733,14.36226,0,0,0,-47.85036,-111.856,-52.96188,79.37691,-104.7803,-99.98798,0.001067912,-0.1257102,0.09433498,0,0.3,0,0,0.00013047,0,
6.38224E+17,-22.52332,-0.8649935,-4.062424,-34.19928,-10.20568,47.39584,49.26388,0.9117499,-12.37405,-96.38443,-11.59733,14.36226,0,0,0,-47.45641,-111.6781,-53.91186,79.37691,-104.7803,-99.98798,0.001067912,-0.1257102,0.09433498,0,0.3,0,0,0.00036701,0,
6.38224E+17,-22.52332,-0.8182371,-4.27255,-35.73743,-4.712289,53.47519,49.26388,0.9117499,-12.37405,-96.38443,-11.59733,14.36226,0,0,0,-47.27019,-111.5337,-54.36093,79.37691,-104.7803,-99.98798,0.001067912,-0.1257102,0.09433498,0,0.3,0,0,0.000640541,0,
6.38224E+17,-22.52332,-0.8182371,-4.412633,-36.32339,-2.148709,54.72035,49.26388,0.9117499,-12.37405,-96.38443,-11.59733,14.36226,0,0,0,-47.14566,-111.509,-54.66122,79.37691,-104.7803,-99.98798,0.001067912,-0.1257102,0.09433498,0,0.3,0,0,0.000797417,0,
6.38224E+17,-22.52332,-0.8182371,-4.389286,-37.12909,3.051698,53.47519,49.26388,0.9117499,-12.37405,-96.38443,-11.67058,14.36226,0,0,0,-47.16641,-111.5132,-54.61118,79.37691,-104.7803,-99.98798,0.001067912,-0.1257102,0.09433498,0,0.3,0,0,0.001097577,0,
6.38224E+17,-22.49976,-0.8182371,-4.342592,-37.49532,8.178861,48.42127,49.26388,0.9117499,-12.37405,-96.38443,-11.59733,14.36226,0,0,0,-47.16111,-111.5215,-54.49168,79.37691,-104.7803,-99.98798,0.001067912,-0.1257102,0.09433498,0,0.3,0,0,0.001384589,0,
6.38224E+17,-22.49976,-0.8182371,-4.342592,-37.7883,13.08629,41.46298,49.26388,0.9117499,-12.37405,-96.38443,-11.59733,14.36226,0,0,0,-47.16111,-111.5215,-54.49168,79.37691,-104.7803,-99.98798,0.001067912,-0.1257102,0.09433498,0,0.3,0,0,0.001659011,0,
6.38224E+17,-22.49976,-0.8416153,-4.365939,-37.93478,15.28364,38.24019,49.26388,0.9117499,-12.37405,-96.38443,-11.59733,14.36226,0,0,0,-47.14007,-111.5717,-54.54247,79.37691,-104.7803,-99.98798,0.001067912,-0.1257102,0.09433498,0,0.3,0,0,0.00179494,0,
6.38224E+17,-22.52332,-0.9818845,-4.646106,-37.93478,19.45862,33.11303,49.26388,0.9117499,-12.37405,-96.38443,-11.59733,14.36226,0,0,0,-46.93587,-111.8469,-55.16712,79.37691,-104.7803,-99.98798,0.001067912,-0.1257102,0.09433498,0,0.3,0,0,0.002097328,0,
6.38224E+17,-22.52332,-0.9818845,-4.692801,-37.49532,22.75465,29.67051,49.26388,0.9117499,-12.37405,-96.38443,-11.67058,14.36226,0,0,0,-46.89438,-111.8381,-55.26717,79.37691,-104.7803,-99.98798,0.001067912,-0.1257102,0.09433498,0,0.3,0,0,0.002409409,0,
6.38224E+17,-22.52332,-0.9818845,-4.692801,-37.34882,24.14631,27.69288,49.26388,0.9117499,-12.37405,-96.38443,-11.67058,14.36226,0,0,0,-46.89438,-111.8381,-55.26717,79.37691,-104.7803,-99.98798,0.001067912,-0.1257102,0.09433498,0,0.3,0,0,0.002561495,0,
6.38224E+17,-22.52332,-0.9818845,-4.716148,-37.34882,25.90419,23.29818,49.26388,0.9117499,-12.37405,-96.38443,-11.67058,14.36226,0,0,0,-46.87363,-111.8336,-55.3172,79.37691,-104.7803,-99.98798,0.001067912,-0.1257102,0.09433498,0,0.3,0,0,0.002860317,0,
6.38224E+17,-22.52332,-0.9818845,-4.762842,-38.22777,26.5634,19.04996,49.26388,0.9117499,-12.37405,-96.38443,-11.59733,14.36226,0,0,0,-46.83215,-111.8247,-55.41724,79.37691,-104.7803,-99.98798,0.001067912,-0.1257102,0.09433498,0,0.3,0,0,0.00315602,0,
6.38224E+17,-22.52332,-0.9818845,-5.136398,-38.96022,26.49015,17.95128,49.26388,0.9117499,-12.37405,-96.38443,-11.59733,14.36226,0,0,0,-46.50035,-111.7496,-56.21735,79.37691,-104.7803,-99.98798,0.001067912,-0.1257102,0.09433498,0,0.3,0,0,0.003336517,0,
6.38224E+17,-22.57044,-1.005263,-7.447778,-40.27863,25.90419,19.78241,49.26388,0.9117499,-12.37405,-96.38443,-11.59733,14.36226,0,0,0,-44.54002,-111.2145,-61.19371,79.37691,-104.7803,-99.98798,0.001067912,-0.1257102,0.09433498,0,0.3,0,0,0.003973938,0,
6.38224E+17,-22.64112,-1.005263,-9.385601,-40.64486,25.17174,21.76003,49.26388,0.9117499,-12.37405,-96.38443,-11.59733,14.36226,0,0,0,-42.95476,-110.5544,-65.36622,79.37691,-104.7803,-99.98798,0.001067912,-0.1257102,0.09433498,0,0.3,0,0,0.004962771,0,
6.38224E+17,-22.64112,-1.005263,-9.362254,-40.93784,24.36604,22.63897,49.26388,0.9117499,-12.37405,-96.38443,-11.59733,14.36226,0,0,0,-42.9754,-110.5632,-65.31673,79.37691,-104.7803,-99.98798,0.001067912,-0.1257102,0.09433498,0,0.3,0,0,0.005979904,0,
6.38224E+17,-22.64112,-1.005263,-9.128781,-41.08433,23.99982,22.8587,49.26388,0.9117499,-12.37405,-96.38443,-11.59733,14.36226,0,0,0,-43.18186,-110.6505,-64.82175,79.37691,-104.7803,-99.98798,0.001067912,-0.1257102,0.09433498,0,0.3,0,0,0.006453318,0,
6.38224E+17,-22.57044,-0.9818845,-8.241585,-41.5238,23.26737,22.71221,49.26388,0.9117499,-12.37405,-96.38443,-11.59733,14.36226,0,0,0,-43.83791,-110.9079,-62.88286,79.37691,-104.7803,-99.98798,0.001067912,-0.1257102,0.09433498,0,0.3,0,0,0.00728572,0,
6.38224E+17,-22.57044,-0.9585064,-7.564514,-42.25625,22.46167,21.90652,49.26388,0.9117499,-12.37405,-96.38443,-11.59733,14.36226,0,0,0,-44.43734,-111.0702,-61.44072,79.37691,-104.7803,-99.98798,0.001067912,-0.1257102,0.09433498,0,0.3,0,0,0.007965146,0,
6.38224E+17,-22.57044,-0.9117499,-7.517819,-42.62248,22.0222,21.32055,49.26388,0.9117499,-12.37405,-96.38443,-11.59733,14.36226,0,0,0,-44.47938,-110.9757,-61.3396,79.37691,-104.7803,-99.98798,0.001067912,-0.1257102,0.09433498,0,0.3,0,0,0.008285472,0,
6.38224E+17,-22.54688,-0.8649935,-7.190958,-43.20844,21.14326,19.26969,49.26388,0.9117499,-12.37405,-96.38443,-11.67058,14.36226,0,0,0,-44.72532,-110.9642,-60.62295,79.37691,-104.7803,-99.98798,0.001067912,-0.1257102,0.09433498,0,0.3,0,0,0.008877657,0,
6.38224E+17,-22.2406,-0.8182371,-6.373804,-43.86765,20.55729,15.82717,49.26388,0.9117499,-12.37405,-96.38443,-11.67058,14.43551,0,0,0,-44.86422,-111.08,-58.63591,79.37691,-104.7803,-99.98798,0.001067912,-0.1257102,0.09433498,0,0.3,0,0,0.009383049,0,
6.38224E+17,-21.81652,-0.5143204,-5.136398,-44.23387,20.33756,12.75087,49.26388,0.9117499,-12.37405,-96.38443,-11.59733,14.36226,0,0,0,-45.11886,-110.6615,-55.63907,79.37691,-104.7803,-99.98798,0.001067912,-0.1257102,0.09433498,0,0.3,0,0,0.009767328,0,
6.38224E+17,-21.69872,-0.1636474,-4.389286,-44.23387,20.33756,11.72544,49.26388,0.9117499,-12.37405,-96.38443,-11.59733,14.36226,0,0,0,-45.52949,-109.9898,-53.93204,79.37691,-104.7803,-99.98798,0.001067912,-0.1257102,0.09433498,0,0.3,0,0,0.009889108,0,
6.38224E+17,-21.62804,0.8883717,-2.708283,-44.30712,20.26431,10.62676,49.26388,0.9117499,-12.37405,-96.38443,-11.67058,14.36226,0,0,0,-46.8218,-107.7835,-50.26054,79.37691,-104.7803,-99.98798,0.001067912,-0.1257102,0.09433498,0,0.3,0,0,0.009944148,0,
6.38224E+17,-21.58092,1.987147,-1.144016,-44.45361,20.26431,10.0408,49.26388,0.9117499,-12.37405,-96.38443,-11.67058,14.36226,0,0,0,-48.03936,-105.3495,-46.8983,79.37691,-104.7803,-99.98798,0.001067912,-0.1257102,0.09433498,0,0.3,0,0,0.009759083,0,
6.38224E+17,-21.39244,2.59498,-0.3035145,-44.52685,20.26431,9.967555,49.26388,0.9117499,-12.37405,-96.38443,-11.59733,14.36226,0,0,0,-48.33241,-103.9606,-44.97234,79.37691,-104.7803,-99.98798,0.001067912,-0.1257102,0.09433498,0,0.3,0,0,0.009589171,0,
6.38224E+17,-20.73277,3.717134,1.307447,-44.30712,20.26431,10.0408,49.26388,0.9117499,-12.37405,-96.38443,-11.59733,14.36226,0,0,0,-48.18503,-101.3201,-41.05223,79.37691,-104.7803,-99.98798,0.001067912,-0.1257102,0.09433498,0,0.3,0,0,0.009141941,0,
6.38224E+17,-19.50765,4.699019,2.825019,-43.64791,20.77703,11.57895,49.26388,0.9117499,-12.37405,-96.38443,-11.59733,14.36226,0,0,0,-46.57495,-98.91372,-36.88218,79.37691,-104.7803,-99.98798,0.001067912,-0.1257102,0.09433498,0,0.3,0,0,0.008635101,0,
6.38224E+17,-18.82441,5.026314,3.24527,-42.91546,21.14326,13.62981,49.26388,0.9117499,-12.37405,-96.38443,-11.59733,14.36226,0,0,0,-45.29827,-98.10293,-35.47279,79.37691,-104.7803,-99.98798,0.001067912,-0.1257102,0.09433498,0,0.3,0,0,0.008407474,0,
6.38224E+17,-17.52861,5.821173,3.595479,-40.57161,21.87571,18.24426,49.26388,0.9117499,-12.37405,-96.38443,-11.59733,14.36226,0,0,0,-42.47418,-96.21265,-33.87329,79.37691,-104.7803,-99.98798,0.001067912,-0.1257102,0.09433498,0,0.3,0,0,0.008073221,0,
6.38224E+17,-15.92653,7.200486,4.01573,-37.7883,22.38842,22.05301,49.26388,0.9117499,-12.37405,-96.38443,-11.59733,14.36226,0,0,0,-38.86581,-92.9583,-32.14993,79.37691,-104.7803,-99.98798,0.001067912,-0.1257102,0.09433498,0,0.3,0,0,0.007931498,0,
6.38224E+17,-13.75902,9.164255,4.506022,-34.56551,22.60816,25.935,49.26388,0.9117499,-12.37405,-96.38443,-11.59733,14.36226,0,0,0,-33.80269,-88.34979,-30.30392,79.37691,-104.7803,-99.98798,0.001067912,-0.1257102,0.09433498,0,0.3,0,0,0.008036676,0,
6.38224E+17,-12.58102,10.47344,4.646106,-32.73438,22.60816,28.05911,49.26388,0.9117499,-12.37405,-96.38443,-11.67058,14.36226,0,0,0,-30.91513,-85.3215,-29.8281,79.37691,-104.7803,-99.98798,0.001067912,-0.1257102,0.09433498,0,0.3,0,0,0.008205251,0,
6.38224E+17,-10.8847,13.32558,4.926273,-29.21861,21.87571,31.20865,49.26388,0.9117499,-12.37405,-96.38443,-11.59733,14.36226,0,0,0,-26.66533,-78.77235,-29.67954,79.37691,-104.7803,-99.98798,0.001067912,-0.1257102,0.09433498,0,0.3,0,0,0.0086995,0,
6.38224E+17,-9.871624,16.20109,5.04301,-26.72828,20.4108,32.82005,49.26388,0.9117499,-12.37405,-96.38443,-11.59733,14.36226,0,0,0,-23.96343,-72.27789,-30.64309,79.37691,-104.7803,-99.98798,0.001067912,-0.1257102,0.09433498,0,0.3,0,0,0.009313746,0,
6.38224E+17,-9.659584,17.20636,5.066357,-26.14231,19.67835,32.7468,49.26388,0.9117499,-12.37405,-96.38443,-11.59733,14.36226,0,0,0,-23.34989,-70.03221,-31.16492,79.37691,-104.7803,-99.98798,0.001067912,-0.1257102,0.09433498,0,0.3,0,0,0.009633961,0,
6.38224E+17,-9.353305,19.09999,5.066357,-26.06907,17.99371,30.54945,49.26388,0.9117499,-12.37405,-96.38443,-11.59733,14.36226,0,0,0,-22.39308,-65.84453,-32.39685,79.37691,-104.7803,-99.98798,0.001067912,-0.1257102,0.09433498,0,0.3,0,0,0.01027952,0,
6.38224E+17,-9.306185,20.97025,5.276482,-27.0945,16.60205,26.30123,49.26388,0.9117499,-12.37405,-96.38443,-11.67058,14.36226,0,0,0,-22.11888,-61.71122,-33.36941,79.37691,-104.7803,-99.98798,0.001067912,-0.1257102,0.09433498,0,0.3,0,0,0.01088128,0,
6.38224E+17,-9.306185,21.99889,5.533302,-27.82695,15.94285,23.73765,49.26388,0.9117499,-12.37405,-96.38443,-11.67058,14.36226,0,0,0,-22.07332,-59.42724,-33.64745,79.37691,-104.7803,-99.98798,0.001067912,-0.1257102,0.09433498,0,0.3,0,0,0.01114066,0,
6.38224E+17,-9.329745,24.36009,7.214305,-29.3651,14.33146,18.68373,49.26388,0.9117499,-12.37405,-96.38443,-11.59733,14.36226,0,0,0,-22.40837,-53.94145,-31.95424,79.37691,-104.7803,-99.98798,0.001067912,-0.1257102,0.09433498,0,0.3,0,0,0.01146344,0,
6.38224E+17,-9.353305,26.46413,8.871961,-31.26948,12.20734,15.46094,49.26388,0.9117499,-12.37405,-96.38443,-11.59733,14.36226,0,0,0,-22.74378,-48.97878,-30.26767,79.37691,-104.7803,-99.98798,0.001067912,-0.1257102,0.09433498,0,0.3,0,0,0.01149698,0,
6.38224E+17,-9.353305,28.28763,10.08602,-33.24709,10.08323,12.82412,49.26388,0.9117499,-12.37405,-96.38443,-11.59733,14.36226,0,0,0,-22.87957,-44.7449,-29.44324,79.37691,-104.7803,-99.98798,0.001067912,-0.1257102,0.09433498,0,0.3,0,0,0.01132462,0,
6.38224E+17,-9.329745,29.26951,10.7164,-34.05279,9.277537,11.94517,49.26388,0.9117499,-12.37405,-96.38443,-11.59733,14.36226,0,0,0,-22.87803,-42.47707,-29.09551,79.37691,-104.7803,-99.98798,0.001067912,-0.1257102,0.09433498,0,0.3,0,0,0.01116986,0,
6.38224E+17,-9.259066,31.86449,12.3507,-35.29796,7.519653,10.77325,49.26388,0.9117499,-12.37405,-96.38443,-11.59733,14.36226,0,0,0,-22.81172,-36.51676,-28.42031,79.37691,-104.7803,-99.98798,0.001067912,-0.1257102,0.09433498,0,0.3,0,0,0.01068296,0,
6.38224E+17,-8.999906,35.23095,14.77882,-36.10366,5.615279,10.33378,49.26388,0.9117499,-12.37405,-96.38443,-11.59733,14.36226,0,0,0,-22.36063,-28.66238,-27.16904,79.37691,-104.7803,-99.98798,0.001067912,-0.1257102,0.09433498,0,0.3,0,0,0.009895236,0,
6.38224E+17,-8.905665,36.91418,16.17966,-36.32339,4.589847,10.33378,49.26388,0.9117499,-12.37405,-96.38443,-11.59733,14.36226,0,0,0,-22.2577,-24.62593,-26.30717,79.37691,-104.7803,-99.98798,0.001067912,-0.1257102,0.09433498,0,0.3,0,0,0.009359874,0,
6.38224E+17,-8.693625,40.88848,19.6117,-36.83611,1.879776,10.26054,49.26388,0.9117499,-12.37405,-96.38443,-11.67058,14.36226,0,0,0,-22.00284,-14.97481,-24.45374,79.37691,-104.7803,-99.98798,0.001067912,-0.1257102,0.09433498,0,0.3,0,0,0.007944868,0,
6.38224E+17,-8.481586,44.93291,23.34727,-37.49532,-1.269767,10.18729,49.26388,0.9117499,-12.37405,-96.38443,-11.59733,14.36226,0,0,0,-21.71814,-4.899064,-22.71038,79.37691,-104.7803,-99.98798,0.001067912,-0.1257102,0.09433498,0,0.3,0,0,0.006048314,0,
6.38224E+17,-8.363786,47.06033,25.40182,-38.15452,-3.174141,10.18729,49.26388,0.9117499,-12.37405,-96.38443,-11.67058,14.36226,0,0,0,-21.53416,0.5137721,-21.88044,79.37691,-104.7803,-99.98798,0.001067912,-0.1257102,0.09433498,0,0.3,0,0,0.004903497,0,
6.38224E+17,-7.821907,51.29178,29.32417,-39.83916,-7.202625,10.18729,49.26388,0.9117499,-12.37405,-96.38443,-11.59733,14.36226,0,0,0,-20.23713,11.14553,-21.03428,79.37691,-104.7803,-99.98798,0.001067912,-0.1257102,0.09433498,0,0.3,0,0,0.002257993,0,
6.38224E+17,-7.020868,55.00891,32.77956,-41.5238,-11.08462,10.26054,49.26388,0.9117499,-12.37405,-96.38443,-11.59733,14.36226,0,0,0,-18.1716,20.4805,-20.79852,79.37691,-104.7803,-99.98798,0.001067912,-0.1257102,0.09433498,0,0.3,0,0,0,0,
6.38224E+17,-6.26695,58.11822,36.07153,-42.91546,-14.96661,10.26054,49.26388,0.9117499,-12.37405,-96.38443,-11.59733,14.36226,0,0,0,-16.2592,28.79828,-20.29305,79.37691,-104.7803,-99.98798,0.001067912,-0.1257102,0.09433498,0,0.3,0,0,0,0,
6.38224E+17,-5.79575,59.49752,37.51905,-43.57467,-16.79774,10.26054,49.26388,0.9117499,-12.37405,-96.38443,-11.59733,14.36226,0,0,0,-15.03617,32.47866,-20.21242,79.37691,-104.7803,-99.98798,0.001067912,-0.1257102,0.09433498,0,0.3,0,0,0,0,
6.38224E+17,-4.405713,61.60157,39.59696,-44.38036,-19.80079,10.91974,49.26388,0.9117499,-12.37405,-96.38443,-11.59733,14.36226,0,0,0,-11.40111,37.90042,-20.37223,79.37691,-104.7803,-99.98798,0.001067912,-0.1257102,0.09433498,0,0.3,0,0,0,0,
6.38224E+17,-2.520916,63.2848,40.78767,-43.72115,-22.14464,11.87193,49.26388,0.9117499,-12.37405,-96.38443,-11.67058,14.36226,0,0,0,-6.468309,41.50114,-21.4321,79.37691,-104.7803,-99.98798,0.001067912,-0.1257102,0.09433498,0,0.3,0,0,0,0,
6.38224E+17,-1.319358,63.93939,41.11454,-42.84221,-23.24332,12.16491,49.26388,0.9117499,-12.37405,-96.38443,-11.59733,14.36226,0,0,0,-3.367882,42.67684,-22.11874,79.37691,-104.7803,-99.98798,0.001067912,-0.1257102,0.09433498,0,0.3,0,0,0,0,
6.38224E+17,1.625637,64.73425,41.18458,-39.91241,-25.0012,12.53114,49.26388,0.9117499,-12.37405,-96.38443,-11.67058,14.36226,0,0,0,4.105701,43.58528,-23.68292,79.37691,-104.7803,-99.98798,0.001067912,-0.1257102,0.09433498,0,0.3,0,0,0,0,
6.38224E+17,5.159632,64.82776,40.67094,-35.22471,-26.09988,12.75087,49.26388,0.9117499,-12.37405,-96.38443,-11.59733,14.36226,0,0,0,12.91635,42.89487,-25.30673,79.37691,-104.7803,-99.98798,0.001067912,-0.1257102,0.09433498,0,0.3,0,0,0,0,
6.38224E+17,7.115108,64.80437,40.43747,-32.29491,-26.39286,12.67763,49.26388,0.9117499,-12.37405,-96.38443,-11.67058,14.36226,0,0,0,17.74483,42.51843,-26.1916,79.37691,-104.7803,-99.98798,0.001067912,-0.1257102,0.09433498,0,0.3,0,0,0,0,
6.38224E+17,10.81402,64.75762,40.29738,-25.70284,-26.61259,11.79868,49.26388,0.9117499,-12.37405,-96.38443,-11.59733,14.36226,0,0,0,26.85085,42.26089,-27.77981,79.37691,-104.7803,-99.98798,0.001067912,-0.1257102,0.09433498,0,0.3,0,0,0,0,
6.38224E+17,14.81922,64.19655,39.83044,-18.52482,-26.68584,9.381593,49.26388,0.9117499,-12.37405,-96.38443,-11.59733,14.36226,0,0,0,36.69234,40.99876,-29.66342,79.37691,-104.7803,-99.98798,0.001067912,-0.1257102,0.09433498,0,0.3,0,0,0,0,
6.38224E+17,18.54169,62.91074,39.05998,-11.49328,-26.09988,6.08556,49.26388,0.9117499,-12.37405,-96.38443,-11.59733,14.36226,0,0,0,46.03066,38.52676,-31.1108,79.37691,-104.7803,-99.98798,0.001067912,-0.1257102,0.09433498,0,0.3,0,0,0,0,
6.38224E+17,20.21445,62.13927,38.77981,-7.977511,-25.44067,4.400921,49.26388,0.9117499,-12.37405,-96.38443,-11.59733,14.36226,0,0,0,50.39233,37.28872,-31.49414,79.37691,-104.7803,-99.98798,0.001067912,-0.1257102,0.09433498,0,0.3,0,0,0,0,
6.38224E+17,23.23012,60.26901,38.0327,-1.531937,-23.82928,0.9583986,49.26388,0.9117499,-12.37405,-96.38443,-11.59733,14.36226,0,0,0,58.48948,34.11189,-32.08172,79.37691,-104.7803,-99.98798,0.001067912,-0.1257102,0.09433498,0,0.3,0,0,0,0,
6.38224E+17,25.7746,57.72078,36.86533,4.034696,-21.63192,-1.238957,49.26388,0.9117499,-12.37405,-96.38443,-11.59733,14.36226,0,0,0,65.75375,29.40513,-32.17778,79.37691,-104.7803,-99.98798,0.001067912,-0.1257102,0.09433498,0,0.3,0,0,0,0,
6.38224E+17,26.81124,56.31809,36.32835,6.451786,-20.09377,-1.971408,49.26388,0.9117499,-12.37405,-96.38443,-11.67058,14.36226,0,0,0,68.9892,26.88297,-31.84111,79.37691,-104.7803,-99.98798,0.001067912,-0.1257102,0.09433498,0,0.3,0,0,0,0,
6.38224E+17,28.41331,53.44257,35.37111,10.77325,-16.57801,-2.630615,49.26388,0.9117499,-12.37405,-96.38443,-11.59733,14.36226,0,0,0,74.52396,21.72853,-30.59733,79.37691,-104.7803,-99.98798,0.001067912,-0.1257102,0.09433498,0,0.3,0,0,0,0,
6.38224E+17,29.47351,50.54368,34.43722,14.06928,-13.06224,-2.923595,49.26388,0.9117499,-12.37405,-96.38443,-11.67058,14.36226,0,0,0,78.79836,16.33084,-28.92402,79.37691,-104.7803,-99.98798,0.001067912,-0.1257102,0.09433498,0,0.3,0,0,0,0,
6.38224E+17,29.82691,47.45775,33.26986,16.33988,-9.180244,-2.777105,49.26388,0.9117499,-12.37405,-96.38443,-11.59733,14.36226,0,0,0,81.23034,10.10606,-26.66818,79.37691,-104.7803,-99.98798,0.001067912,-0.1257102,0.09433498,0,0.3,0,0,0,0,
6.38224E+17,29.82691,45.91479,32.61613,17.07234,-7.202625,-2.410879,49.26388,0.9117499,-12.37405,-96.38443,-11.67058,14.36226,0,0,0,81.89483,6.815299,-25.50917,79.37691,-104.7803,-99.98798,0.001067912,-0.1257102,0.09433498,0,0.3,0,0,0,0,
6.38224E+17,29.75623,43.03927,31.35538,18.02452,-3.247386,-0.7994855,49.26388,0.9117499,-12.37405,-96.38443,-11.59733,14.36226,0,0,0,82.81028,0.4862336,-23.49862,79.37691,-104.7803,-99.98798,0.001067912,-0.1257102,0.09433498,0,0.3,0,0,0,0,
6.38224E+17,29.14367,40.35078,30.02458,18.61049,0.3416272,1.031644,49.26388,0.9117499,-12.37405,-96.38443,-11.59733,14.36226,0,0,0,81.9866,-5.766352,-21.31299,79.37691,-104.7803,-99.98798,0.001067912,-0.1257102,0.09433498,0,0.3,0,0,0,0,
6.38224E+17,28.60179,39.01822,29.41755,18.75698,2.172756,2.276812,49.26388,0.9117499,-12.37405,-96.38443,-11.59733,14.36226,0,0,0,80.95303,-8.853473,-19.88269,79.37691,-104.7803,-99.98798,0.001067912,-0.1257102,0.09433498,0,0.3,0,0,0,0,
6.38224E+17,27.28243,36.93756,28.39028,18.68373,5.90826,5.206618,49.26388,0.9117499,-12.37405,-96.38443,-11.59733,14.36226,0,0,0,77.91953,-13.82597,-17.27005,79.37691,-104.7803,-99.98798,0.001067912,-0.1257102,0.09433498,0,0.3,0,0,0,0,
6.38224E+17,25.86884,36.23622,27.38634,18.02452,9.131048,7.843444,49.26388,0.9117499,-12.37405,-96.38443,-11.59733,14.36226,0,0,0,73.69221,-16.22954,-16.37659,79.37691,-104.7803,-99.98798,0.001067912,-0.1257102,0.09433498,0,0.3,0,0,0,0,
6.38224E+17,25.02068,36.23622,26.89605,17.58505,10.44946,9.088613,49.26388,0.9117499,-12.37405,-96.38443,-11.59733,14.36226,0,0,0,71.00504,-16.75009,-16.22256,79.37691,-104.7803,-99.98798,0.001067912,-0.1257102,0.09433498,0,0.3,0,0,0,0,
6.38224E+17,23.04164,36.42324,26.12559,16.12015,12.06085,11.35921,49.26388,0.9117499,-12.37405,-96.38443,-11.59733,14.36226,0,0,0,64.98017,-17.19983,-15.57511,79.37691,-104.7803,-99.98798,0.001067912,-0.1257102,0.09433498,0,0.3,0,0,0,0,
6.38224E+17,20.92125,36.98432,25.47187,14.06928,13.01304,13.70306,49.26388,0.9117499,-12.37405,-96.38443,-11.59733,14.36226,0,0,0,58.51526,-16.81504,-15.28401,79.37691,-104.7803,-99.98798,0.001067912,-0.1257102,0.09433498,0,0.3,0,0,0,0,
6.38224E+17,18.73017,38.15323,24.81814,11.57895,12.72006,15.97366,49.26388,0.9117499,-12.37405,-96.38443,-11.67058,14.36226,0,0,0,51.64554,-15.30522,-16.03397,79.37691,-104.7803,-99.98798,0.001067912,-0.1257102,0.09433498,0,0.3,0,0,0,0,
6.38224E+17,17.69353,39.11173,24.58467,10.0408,12.42708,16.99909,49.26388,0.9117499,-12.37405,-96.38443,-11.59733,14.36226,0,0,0,48.30809,-13.78967,-16.9217,79.37691,-104.7803,-99.98798,0.001067912,-0.1257102,0.09433498,0,0.3,0,0,0,0,
6.38224E+17,16.06789,41.47293,24.46794,6.891257,10.96218,18.68373,49.26388,0.9117499,-12.37405,-96.38443,-11.59733,14.36226,0,0,0,42.94083,-9.711073,-19.26448,79.37691,-104.7803,-99.98798,0.001067912,-0.1257102,0.09433498,0,0.3,0,0,0,0,
6.38224E+17,15.12549,43.83413,24.56132,3.96145,8.764822,19.63592,49.26388,0.9117499,-12.37405,-96.38443,-11.59733,14.36226,0,0,0,39.56306,-5.57947,-21.98175,79.37691,-104.7803,-99.98798,0.001067912,-0.1257102,0.09433498,0,0.3,0,0,0,0,
6.38224E+17,14.93702,44.97966,24.67806,2.569792,7.592898,19.9289,49.26388,0.9117499,-12.37405,-96.38443,-11.67058,14.36226,0,0,0,38.66416,-3.56168,-23.41628,79.37691,-104.7803,-99.98798,0.001067912,-0.1257102,0.09433498,0,0.3,0,0,0,0,
6.38224E+17,15.14906,46.8733,24.91153,0.3724372,5.249053,19.56267,49.26388,0.9117499,-12.37405,-96.38443,-11.59733,14.36226,0,0,0,38.50174,-0.268351,-26.14041,79.37691,-104.7803,-99.98798,0.001067912,-0.1257102,0.09433498,0,0.3,0,0,0,0,
6.38224E+17,16.30349,48.29937,25.28509,-0.7994855,3.051698,17.6583,49.26388,0.9117499,-12.37405,-96.38443,-11.59733,14.36226,0,0,0,40.89222,2.338987,-28.54115,79.37691,-104.7803,-99.98798,0.001067912,-0.1257102,0.09433498,0,0.3,0,0,0,0,
6.38224E+17,18.75373,49.18774,25.93881,0.07945653,0.8543434,14.94823,49.26388,0.9117499,-12.37405,-96.38443,-11.59733,14.36226,0,0,0,46.77327,4.360097,-30.58986,79.37691,-104.7803,-99.98798,0.001067912,-0.1257102,0.09433498,0,0.3,0,0,0,0,
6.38224E+17,19.97885,49.37476,26.26567,1.178134,0.04864649,13.62981,49.26388,0.9117499,-12.37405,-96.38443,-11.59733,14.36226,0,0,0,49.82867,4.978756,-31.28942,79.37691,-104.7803,-99.98798,0.001067912,-0.1257102,0.09433498,0,0.3,0,0,0,0,
6.38224E+17,21.93432,49.51503,26.68592,3.888205,-1.269767,10.33378,49.26388,0.9117499,-12.37405,-96.38443,-11.59733,14.36226,0,0,0,54.71095,5.627066,-32.48748,79.37691,-104.7803,-99.98798,0.001067912,-0.1257102,0.09433498,0,0.3,0,0,0,0,
6.38224E+17,23.55996,49.58517,26.89605,6.451786,-2.514934,7.037747,49.26388,0.9117499,-12.37405,-96.38443,-11.59733,14.36226,0,0,0,58.66804,5.953399,-33.80796,79.37691,-104.7803,-99.98798,0.001067912,-0.1257102,0.09433498,0,0.3,0,0,0,0,
6.38224E+17,24.21964,49.58517,26.94275,7.623709,-3.027651,5.499599,49.26388,0.9117499,-12.37405,-96.38443,-11.59733,14.36226,0,0,0,60.25293,6.0026,-34.40397,79.37691,-104.7803,-99.98798,0.001067912,-0.1257102,0.09433498,0,0.3,0,0,0,0,
6.38224E+17,25.25628,49.58517,27.19957,9.454838,-3.686857,2.862773,49.26388,0.9117499,-12.37405,-96.38443,-11.59733,14.36226,0,0,0,62.89348,6.274621,-35.03461,79.37691,-104.7803,-99.98798,0.001067912,-0.1257102,0.09433498,0,0.3,0,0,0,0,
6.38224E+17,26.05732,49.58517,27.64316,11.06623,-4.126328,0.5189275,49.26388,0.9117499,-12.37405,-96.38443,-11.59733,14.36226,0,0,0,65.15368,6.750085,-35.10363,79.37691,-104.7803,-99.98798,0.001067912,-0.1257102,0.09433498,0,0.3,0,0,0,0,
6.38224E+17,26.38716,49.58517,27.87663,11.72544,-4.272818,-0.2867693,49.26388,0.9117499,-12.37405,-96.38443,-11.59733,14.36226,0,0,0,66.13337,7.003175,-35.05017,79.37691,-104.7803,-99.98798,0.001067912,-0.1257102,0.09433498,0,0.3,0,0,0,0,
6.38224E+17,26.85836,49.60855,28.41362,12.82412,-4.565799,-1.385447,49.26388,0.9117499,-12.37405,-96.38443,-11.59733,14.36226,0,0,0,67.70652,7.62797,-34.6524,79.37691,-104.7803,-99.98798,0.001067912,-0.1257102,0.09433498,0,0.3,0,0,0,0,
6.38224E+17,27.11752,49.95922,29.16073,13.48332,-5.00527,-1.898163,49.26388,0.9117499,-12.37405,-96.38443,-11.59733,14.36226,0,0,0,68.72112,8.992278,-34.15833,79.37691,-104.7803,-99.98798,0.001067912,-0.1257102,0.09433498,0,0.3,0,0,0,0,
6.38224E+17,27.18819,51.08138,30.2814,13.99604,-5.737722,-2.117898,49.26388,0.9117499,-12.37405,-96.38443,-11.59733,14.36226,0,0,0,69.00051,11.94587,-34.02146,79.37691,-104.7803,-99.98798,0.001067912,-0.1257102,0.09433498,0,0.3,0,0,0,0,
6.38224E+17,27.25887,51.94637,31.07521,14.14253,-6.396928,-2.191144,49.26388,0.9117499,-12.37405,-96.38443,-11.59733,14.36226,0,0,0,69.17216,14.14133,-34.09504,79.37691,-104.7803,-99.98798,0.001067912,-0.1257102,0.09433498,0,0.3,0,0,0,0,
6.38224E+17,27.49447,54.26081,33.2932,14.36226,-8.374548,-2.484124,49.26388,0.9117499,-12.37405,-96.38443,-11.59733,14.36226,0,0,0,69.75186,20.12449,-34.32637,79.37691,-104.7803,-99.98798,0.001067912,-0.1257102,0.09433498,0,0.3,0,0,0,0,
6.38224E+17,27.89499,56.90255,35.93144,14.72849,-11.08462,-3.509557,49.26388,0.9117499,-12.37405,-96.38443,-11.59733,14.36226,0,0,0,70.67838,27.0869,-34.83357,79.37691,-104.7803,-99.98798,0.001067912,-0.1257102,0.09433498,0,0.3,0,0,0,0,
6.38224E+17,28.17771,58.2351,37.33228,15.02147,-12.8425,-4.315253,49.26388,0.9117499,-12.37405,-96.38443,-11.59733,14.36226,0,0,0,71.3357,30.69537,-35.18513,79.37691,-104.7803,-99.98798,0.001067912,-0.1257102,0.09433498,0,0.3,0,0,0,0,
6.38224E+17,28.88451,60.40928,39.99387,15.68068,-16.43152,-6.292873,49.26388,0.9117499,-12.37405,-96.38443,-11.59733,14.36226,0,0,0,73.20711,37.14661,-35.65079,79.37691,-104.7803,-99.98798,0.001067912,-0.1257102,0.09433498,0,0.3,0,0,0,0,
6.38224E+17,29.75623,62.4198,42.77219,16.70611,-20.02053,-9.22268,49.26388,0.9117499,-12.37405,-96.38443,-11.59733,14.36226,0,0,0,75.58601,43.65975,-36.13529,79.37691,-104.7803,-99.98798,0.001067912,-0.1257102,0.09433498,0,0.3,0,0,0,0,
6.38224E+17,30.53371,64.24331,45.50382,18.02452,-23.46305,-12.88494,49.26388,0.9117499,-12.37405,-96.38443,-11.59733,14.36226,0,0,0,77.76419,49.99143,-36.51004,79.37691,-104.7803,-99.98798,0.001067912,-0.1257102,0.09433498,0,0.3,0,0,0,0,
6.38224E+17,30.86355,65.06154,46.69453,18.75698,-25.14769,-14.86256,49.26388,0.9117499,-12.37405,-96.38443,-11.59733,14.36226,0,0,0,78.62477,52.80346,-36.78772,79.37691,-104.7803,-99.98798,0.001067912,-0.1257102,0.09433498,0,0.3,0,0,0,0,
6.38224E+17,31.49967,66.25382,48.42223,20.14863,-28.44372,-18.67131,49.26388,0.9117499,-12.37405,-96.38443,-11.67058,14.36226,0,0,0,80.17735,56.91451,-37.51077,79.37691,-104.7803,-99.98798,0.001067912,-0.1257102,0.09433498,0,0.3,0,0,0,0,
6.38224E+17,32.3007,66.6045,49.02925,21.24731,-30.71432,-21.89409,49.26388,0.9117499,-12.37405,-96.38443,-11.59733,14.36226,0,0,0,82.09695,58.30267,-38.48901,79.37691,-104.7803,-99.98798,0.001067912,-0.1257102,0.09433498,0,0.3,0,0,0,0,
6.38224E+17,32.84259,66.51099,48.98256,21.76003,-31.37353,-22.91953,49.26388,0.9117499,-12.37405,-96.38443,-11.59733,14.36226,0,0,0,83.39106,58.13406,-39.16338,79.37691,-104.7803,-99.98798,0.001067912,-0.1257102,0.09433498,0,0.3,0,0,0,0,
6.38224E+17,34.11483,65.90316,48.67905,22.71221,-31.95949,-24.75066,49.26388,0.9117499,-12.37405,-96.38443,-11.59733,14.36226,0,0,0,86.70401,57.03159,-40.36006,79.37691,-104.7803,-99.98798,0.001067912,-0.1257102,0.09433498,0,0.3,0,0,0,0,
6.38224E+17,35.5991,64.54722,47.90859,23.95738,-31.73976,-26.65503,49.26388,0.9117499,-12.37405,-96.38443,-11.59733,14.36226,0,0,0,90.96364,54.37046,-41.28912,79.37691,-104.7803,-99.98798,0.001067912,-0.1257102,0.09433498,0,0.3,0,0,0,0,
6.38224E+17,36.35302,63.58871,47.39495,24.54334,-31.1538,-27.31424,49.26388,0.9117499,-12.37405,-96.38443,-11.59733,14.36226,0,0,0,93.33947,52.51142,-41.52984,79.37691,-104.7803,-99.98798,0.001067912,-0.1257102,0.09433498,0,0.3,0,0,0,0,
6.38224E+17,38.12002,60.80671,46.06416,25.86176,-29.02968,-28.11993,49.26388,0.9117499,-12.37405,-96.38443,-11.59733,14.36226,0,0,0,99.4303,47.23655,-41.63304,79.37691,-104.7803,-99.98798,0.001067912,-0.1257102,0.09433498,0,0.3,0,0,0,0,
6.38224E+17,39.86345,57.44025,44.89679,27.18017,-25.95339,-28.41291,49.26388,0.9117499,-12.37405,-96.38443,-11.59733,14.36226,0,0,0,106.3281,41.27908,-41.01801,79.37691,-104.7803,-99.98798,0.001067912,-0.1257102,0.09433498,0,0.3,0,0,0,0,
6.38224E+17,40.71161,55.73364,44.4065,27.83937,-24.26875,-28.48616,49.26388,0.9117499,-12.37405,-96.38443,-11.59733,14.36226,0,0,0,109.8343,38.28996,-40.70818,79.37691,-104.7803,-99.98798,0.001067912,-0.1257102,0.09433498,0,0.3,0,0,0,0,
6.38224E+17,42.45505,52.36718,43.49596,29.08454,-20.53325,-28.5594,49.26388,0.9117499,-12.37405,-96.38443,-11.59733,14.36226,0,0,0,116.9178,32.22004,-40.55544,79.37691,-104.7803,-99.98798,0.001067912,-0.1257102,0.09433498,0,0.3,0,0,0,0,
6.38224E+17,44.19849,49.02409,43.02901,30.40295,-16.7245,-28.63265,49.26388,0.9117499,-12.37405,-96.38443,-11.59733,14.36226,0,0,0,124.3967,26.54734,-40.42334,79.37691,-104.7803,-99.98798,0.001067912,-0.1257102,0.09433498,0,0.3,0,0,0,0,
6.38224E+17,44.99953,47.45775,42.91228,31.06216,-14.96661,-28.7059,49.26388,0.9117499,-12.37405,-96.38443,-11.59733,14.36226,0,0,0,127.9552,23.93433,-40.39268,79.37691,-104.7803,-99.98798,0.001067912,-0.1257102,0.09433498,0,0.3,0,0,0,0,
6.38224E+17,46.57804,44.58223,42.88893,32.23409,-11.45084,-28.77914,49.26388,0.9117499,-12.37405,-96.38443,-11.59733,14.36226,0,0,0,134.8999,19.25053,-40.6835,79.37691,-104.7803,-99.98798,0.001067912,-0.1257102,0.09433498,0,0.3,0,0,0,0,
6.38224E+17,47.99164,42.01063,43.07571,33.40601,-8.374548,-29.21861,49.26388,0.9117499,-12.37405,-96.38443,-11.59733,14.36226,0,0,0,141.2942,15.19119,-41.09081,79.37691,-104.7803,-99.98798,0.001067912,-0.1257102,0.09433498,0,0.3,0,0,0,0,
6.38224E+17,49.26388,39.64943,43.86951,34.57793,-5.444741,-30.31729,49.26388,0.9117499,-12.37405,-96.38443,-11.59733,14.36226,0,0,0,147.8231,12.30443,-41.03984,79.37691,-104.7803,-99.98798,0.001067912,-0.1257102,0.09433498,0,0.3,0,0,0,0,
6.38224E+17,49.80576,38.76106,44.52324,35.23714,-4.199574,-30.9765,49.26388,0.9117499,-12.37405,-96.38443,-11.59733,14.36226,0,0,0,150.8521,11.76293,-40.89611,79.37691,-104.7803,-99.98798,0.001067912,-0.1257102,0.09433498,0,0.3,0,0,0,0,
6.38224E+17,50.74816,37.80256,46.36767,36.6288,-2.148709,-32.66114,49.26388,0.9117499,-12.37405,-96.38443,-11.59733,14.36226,0,0,0,156.3302,13.07061,-40.61446,79.37691,-104.7803,-99.98798,0.001067912,-0.1257102,0.09433498,0,0.3,0,0,0,0,
6.38224E+17,51.29004,37.94283,48.02533,38.38668,-1.343012,-34.93173,49.26388,0.9117499,-12.37405,-96.38443,-11.59733,14.36226,0,0,0,159.4204,16.1588,-40.58463,79.37691,-104.7803,-99.98798,0.001067912,-0.1257102,0.09433498,0,0.3,0,0,0,0,
6.38224E+17,51.36071,38.22336,48.72574,39.33887,-1.343012,-36.1769,49.26388,0.9117499,-12.37405,-96.38443,-11.59733,14.36226,0,0,0,160.1091,17.89128,-40.35673,79.37691,-104.7803,-99.98798,0.001067912,-0.1257102,0.09433498,0,0.3,0,0,0,0,
6.38224E+17,51.36071,39.43903,49.77637,41.02351,-1.782483,-38.30101,49.26388,0.9117499,-12.37405,-96.38443,-11.59733,14.36226,0,0,0,159.9701,21.9477,-40.46785,79.37691,-104.7803,-99.98798,0.001067912,-0.1257102,0.09433498,0,0.3,0,0,0,0,
6.38224E+17,51.12512,41.54307,50.29001,42.26867,-3.100896,-39.83916,49.26388,0.9117499,-12.37405,-96.38443,-11.59733,14.36226,0,0,0,157.5654,26.58785,-41.32475,79.37691,-104.7803,-99.98798,0.001067912,-0.1257102,0.09433498,0,0.3,0,0,0,0,
6.38224E+17,50.8424,42.89901,50.29001,42.78139,-4.053083,-40.49837,49.26388,0.9117499,-12.37405,-96.38443,-11.59733,14.36226,0,0,0,155.2923,28.92485,-41.88789,79.37691,-104.7803,-99.98798,0.001067912,-0.1257102,0.09433498,0,0.3,0,0,0,0,
6.38224E+17,50.04136,45.54074,49.9398,43.4406,-6.323683,-41.15757,49.26388,0.9117499,-12.37405,-96.38443,-11.59733,14.36226,0,0,0,149.8221,32.70537,-42.81852,79.37691,-104.7803,-99.98798,0.001067912,-0.1257102,0.09433498,0,0.3,0,0,0,0,
6.38224E+17,48.69844,48.3695,48.95922,43.58709,-9.033754,-41.37731,49.26388,0.9117499,-12.37405,-96.38443,-11.59733,14.36226,0,0,0,142.1101,35.46465,-43.49635,79.37691,-104.7803,-99.98798,0.001067912,-0.1257102,0.09433498,0,0.3,0,0,0,0,
6.38224E+17,47.00212,50.80084,47.4183,42.70815,-11.67058,-40.64486,49.26388,0.9117499,-12.37405,-96.38443,-11.59733,14.36226,0,0,0,133.4525,36.46001,-43.91277,79.37691,-104.7803,-99.98798,0.001067912,-0.1257102,0.09433498,0,0.3,0,0,0,0,
6.38224E+17,45.96548,51.68921,46.34432,41.90245,-12.8425,-39.69267,49.26388,0.9117499,-12.37405,-96.38443,-11.67058,14.36226,0,0,0,128.792,35.92979,-43.82701,79.37691,-104.7803,-99.98798,0.001067912,-0.1257102,0.09433498,0,0.3,0,0,0,0,
6.38224E+17,43.72729,52.50745,43.5193,39.48536,-14.38065,-36.68962,49.26388,0.9117499,-12.37405,-96.38443,-11.59733,14.36226,0,0,0,119.5748,32.45647,-43.34138,79.37691,-104.7803,-99.98798,0.001067912,-0.1257102,0.09433498,0,0.3,0,0,0,0,
6.38224E+17,41.37129,52.18015,39.83044,36.11608,-14.74688,-32.29491,49.26388,0.9117499,-12.37405,-96.38443,-11.67058,14.36226,0,0,0,110.4957,26.2836,-42.89053,79.37691,-104.7803,-99.98798,0.001067912,-0.1257102,0.09433498,0,0.3,0,0,0,0,
6.38224E+17,40.00481,51.75934,37.72918,34.06521,-14.38065,-29.58484,49.26388,0.9117499,-12.37405,-96.38443,-11.67058,14.28902,0,0,0,105.5177,22.61736,-42.62036,79.37691,-104.7803,-99.98798,0.001067912,-0.1257102,0.09433498,0,0.3,0,0,0,0,
6.38224E+17,37.15406,50.5203,33.92358,29.23104,-12.8425,-23.50549,49.26388,0.9117499,-12.37405,-96.38443,-11.59733,14.36226,0,0,0,96.15375,15.62466,-41.46098,79.37691,-104.7803,-99.98798,0.001067912,-0.1257102,0.09433498,0,0.3,0,0,0,0,
6.38224E+17,34.32687,48.62666,30.7717,24.4701,-10.13243,-17.42614,49.26388,0.9117499,-12.37405,-96.38443,-11.59733,14.36226,0,0,0,88.17558,8.842319,-39.21954,79.37691,-104.7803,-99.98798,0.001067912,-0.1257102,0.09433498,0,0.3,0,0,0,0,
6.38224E+17,32.77191,47.69153,29.46425,22.1995,-8.521038,-14.71607,49.26388,0.9117499,-12.37405,-96.38443,-11.59733,14.36226,0,0,0,84.09198,5.863663,-37.72417,79.37691,-104.7803,-99.98798,0.001067912,-0.1257102,0.09433498,0,0.3,0,0,0,0,
6.38224E+17,29.70911,46.63952,27.57312,17.43856,-4.932025,-9.588906,49.26388,0.9117499,-12.37405,-96.38443,-11.59733,14.36226,0,0,0,75.96574,2.097682,-35.21706,79.37691,-104.7803,-99.98798,0.001067912,-0.1257102,0.09433498,0,0.3,0,0,0,0,
6.38224E+17,26.83479,46.70965,26.56919,13.1171,-2.148709,-4.97446,49.26388,0.9117499,-12.37405,-96.38443,-11.59733,14.36226,0,0,0,68.2014,1.146339,-33.53767,79.37691,-104.7803,-99.98798,0.001067912,-0.1257102,0.09433498,0,0.3,0,0,0,0,
6.38224E+17,24.54948,47.27073,26.45245,9.235103,-0.2443342,-1.751673,49.26388,0.9117499,-12.37405,-96.38443,-11.59733,14.36226,0,0,0,62.27367,1.915811,-32.01503,79.37691,-104.7803,-99.98798,0.001067912,-0.1257102,0.09433498,0,0.3,0,0,0,0,
6.38224E+17,23.70132,47.83181,26.61588,7.623709,0.1218917,-0.57975,49.26388,0.9117499,-12.37405,-96.38443,-11.67058,14.36226,0,0,0,59.9982,2.967087,-31.67883,79.37691,-104.7803,-99.98798,0.001067912,-0.1257102,0.09433498,0,0.3,0,0,0,0,
6.38224E+17,22.97096,49.35139,27.47973,4.840393,-0.09784385,0.9583986,49.26388,0.9117499,-12.37405,-96.38443,-11.67058,14.36226,0,0,0,57.91485,6.220493,-31.71868,79.37691,-104.7803,-99.98798,0.001067912,-0.1257102,0.09433498,0,0.3,0,0,0,0,
6.38224E+17,23.46572,51.31516,29.27747,3.302244,-1.709238,1.69085,49.26388,0.9117499,-12.37405,-96.38443,-11.67058,14.36226,0,0,0,59.15744,11.12636,-32.07431,79.37691,-104.7803,-99.98798,0.001067912,-0.1257102,0.09433498,0,0.3,0,0,0,0,
6.38224E+17,24.07828,52.41393,30.39814,3.155754,-2.954405,1.837341,49.26388,0.9117499,-12.37405,-96.38443,-11.59733,14.36226,0,0,0,60.71339,14.00322,-32.48535,79.37691,-104.7803,-99.98798,0.001067912,-0.1257102,0.09433498,0,0.3,0,0,0,0,
6.38224E+17,25.58612,54.56472,32.63948,3.81496,-6.250438,1.397869,49.26388,0.9117499,-12.37405,-96.38443,-11.67058,14.36226,0,0,0,64.45036,19.70822,-33.74803,79.37691,-104.7803,-99.98798,0.001067912,-0.1257102,0.09433498,0,0.3,0,0,0,0,
6.38224E+17,27.4238,56.06093,34.74073,5.353109,-9.912696,-0.5065048,49.26388,0.9117499,-12.37405,-96.38443,-11.59733,14.36226,0,0,0,69.28889,24.40248,-34.81395,79.37691,-104.7803,-99.98798,0.001067912,-0.1257102,0.09433498,0,0.3,0,0,0,0,
6.38224E+17,28.43687,56.38823,35.53454,6.451786,-11.52409,-1.531937,49.26388,0.9117499,-12.37405,-96.38443,-11.59733,14.36226,0,0,0,72.05698,25.88927,-35.28814,79.37691,-104.7803,-99.98798,0.001067912,-0.1257102,0.09433498,0,0.3,0,0,0,0,
6.38224E+17,30.34523,56.45836,36.58516,9.088613,-13.72145,-3.070086,49.26388,0.9117499,-12.37405,-96.38443,-11.59733,14.36226,0,0,0,77.37804,27.41886,-36.17299,79.37691,-104.7803,-99.98798,0.001067912,-0.1257102,0.09433498,0,0.3,0,0,0,0,
6.38224E+17,32.01799,56.36485,37.33228,12.23815,-15.03986,-3.949028,49.26388,0.9117499,-12.37405,-96.38443,-11.59733,14.36226,0,0,0,82.03623,28.3439,-37.15625,79.37691,-104.7803,-99.98798,0.001067912,-0.1257102,0.09433498,0,0.3,0,0,0,0,
6.38224E+17,32.81903,56.27134,37.65914,13.62981,-15.55258,-4.315253,49.26388,0.9117499,-12.37405,-96.38443,-11.59733,14.36226,0,0,0,84.28762,28.68627,-37.65654,79.37691,-104.7803,-99.98798,0.001067912,-0.1257102,0.09433498,0,0.3,0,0,0,0,
6.38224E+17,34.46822,55.85053,38.21947,16.41313,-16.43152,-4.901215,49.26388,0.9117499,-12.37405,-96.38443,-11.59733,14.36226,0,0,0,89.05599,28.94127,-38.61864,79.37691,-104.7803,-99.98798,0.001067912,-0.1257102,0.09433498,0,0.3,0,0,0,0,
6.38224E+17,35.85826,55.10242,38.45295,18.75698,-16.79774,-5.560421,49.26388,0.9117499,-12.37405,-96.38443,-11.59733,14.36226,0,0,0,93.26683,28.29155,-39.30912,79.37691,-104.7803,-99.98798,0.001067912,-0.1257102,0.09433498,0,0.3,0,0,0,0,
6.38224E+17,37.08338,54.26081,38.47629,20.73459,-16.7245,-6.512609,49.26388,0.9117499,-12.37405,-96.38443,-11.59733,14.36226,0,0,0,96.99386,27.19295,-40.02377,79.37691,-104.7803,-99.98798,0.001067912,-0.1257102,0.09433498,0,0.3,0,0,0,0,
6.38224E+17,37.64882,53.81662,38.47629,21.68678,-16.50476,-6.952079,49.26388,0.9117499,-12.37405,-96.38443,-11.59733,14.36226,0,0,0,98.76665,26.58587,-40.32469,79.37691,-104.7803,-99.98798,0.001067912,-0.1257102,0.09433498,0,0.3,0,0,0,0,
6.38224E+17,38.52053,53.04515,38.40625,23.22493,-16.21178,-7.611286,49.26388,0.9117499,-12.37405,-96.38443,-11.59733,14.36226,0,0,0,101.5216,25.41476,-40.81377,79.37691,-104.7803,-99.98798,0.001067912,-0.1257102,0.09433498,0,0.3,0,0,0,0,
6.38224E+17,39.2509,52.11002,38.0327,24.39685,-15.77231,-8.490229,49.26388,0.9117499,-12.37405,-96.38443,-11.59733,14.36226,0,0,0,103.8004,23.55431,-41.30868,79.37691,-104.7803,-99.98798,0.001067912,-0.1257102,0.09433498,0,0.3,0,0,0,0,
6.38224E+17,39.53362,51.59569,37.75253,24.83632,-15.62582,-9.002944,49.26388,0.9117499,-12.37405,-96.38443,-11.59733,14.36226,0,0,0,104.6977,22.41445,-41.49325,79.37691,-104.7803,-99.98798,0.001067912,-0.1257102,0.09433498,0,0.3,0,0,0,0,
6.38224E+17,39.98125,50.63719,37.1455,25.42229,-15.03986,-9.808641,49.26388,0.9117499,-12.37405,-96.38443,-11.59733,14.36226,0,0,0,106.0807,20.15503,-41.84393,79.37691,-104.7803,-99.98798,0.001067912,-0.1257102,0.09433498,0,0.3,0,0,0,0,
6.38224E+17,40.38177,49.77219,36.39838,25.78851,-14.08767,-10.17487,49.26388,0.9117499,-12.37405,-96.38443,-11.59733,14.36226,0,0,0,107.0622,17.8256,-42.47128,79.37691,-104.7803,-99.98798,0.001067912,-0.1257102,0.09433498,0,0.3,0,0,0,0,
6.38224E+17,40.57025,49.30463,36.00148,25.935,-13.57495,-10.3946,49.26388,0.9117499,-12.37405,-96.38443,-11.59733,14.36226,0,0,0,107.5293,16.57385,-42.76147,79.37691,-104.7803,-99.98798,0.001067912,-0.1257102,0.09433498,0,0.3,0,0,0,0,
6.38224E+17,40.94721,48.08897,35.09094,26.22798,-12.47628,-10.54109,49.26388,0.9117499,-12.37405,-96.38443,-11.59733,14.36226,0,0,0,108.6162,13.4744,-43.16862,79.37691,-104.7803,-99.98798,0.001067912,-0.1257102,0.09433498,0,0.3,0,0,0,0,
6.38224E+17,41.32417,46.49924,33.85353,26.44772,-11.45084,-10.24811,49.26388,0.9117499,-12.37405,-96.38443,-11.59733,14.36226,0,0,0,109.665,9.335047,-43.62715,79.37691,-104.7803,-99.98798,0.001067912,-0.1257102,0.09433498,0,0.3,0,0,0,0,
6.38224E+17,41.67757,44.46534,32.54609,26.66745,-9.473226,-9.955132,49.26388,0.9117499,-12.37405,-96.38443,-11.59733,14.43551,0,0,0,110.9834,4.350122,-43.6868,79.37691,-104.7803,-99.98798,0.001067912,-0.1257102,0.09433498,0,0.3,0,0,0,0,
6.38224E+17,41.81893,43.29643,31.89237,26.81394,-8.447793,-9.808641,49.26388,0.9117499,-12.37405,-96.38443,-11.59733,14.36226,0,0,0,111.6897,1.57807,-43.51493,79.37691,-104.7803,-99.98798,0.001067912,-0.1257102,0.09433498,0,0.3,0,0,0,0,
6.38224E+17,41.98385,40.79496,30.65496,27.10692,-5.884212,-9.442415,49.26388,0.9117499,-12.37405,-96.38443,-11.59733,14.36226,0,0,0,113.01,-4.240018,-42.76851,79.37691,-104.7803,-99.98798,0.001067912,-0.1257102,0.09433498,0,0.3,0,0,0,0,
6.38224E+17,41.98385,38.41039,29.58099,27.25341,-3.174141,-8.636719,49.26388,0.9117499,-12.37405,-96.38443,-11.59733,14.36226,0,0,0,113.9301,-9.77,-41.74607,79.37691,-104.7803,-99.98798,0.001067912,-0.1257102,0.09433498,0,0.3,0,0,0,0,
6.38224E+17,41.98385,37.24148,29.02065,27.32666,-1.635992,-8.124002,49.26388,0.9117499,-12.37405,-96.38443,-11.52409,14.36226,0,0,0,114.2854,-12.55707,-41.35129,79.37691,-104.7803,-99.98798,0.001067912,-0.1257102,0.09433498,0,0.3,0,0,0,0,
6.38224E+17,41.98385,35.09068,27.87663,27.39991,0.9275885,-6.878834,49.26388,0.9117499,-12.37405,-96.38443,-11.59733,14.36226,0,0,0,114.6953,-17.86637,-40.89574,79.37691,-104.7803,-99.98798,0.001067912,-0.1257102,0.09433498,0,0.3,0,0,0,0,
6.38224E+17,41.98385,33.0334,26.70927,27.32666,3.710905,-5.706912,49.26388,0.9117499,-12.37405,-96.38443,-11.59733,14.36226,0,0,0,114.874,-23.07858,-40.69711,79.37691,-104.7803,-99.98798,0.001067912,-0.1257102,0.09433498,0,0.3,0,0,0,0,
6.38224E+17,41.98385,31.88787,26.17229,27.32666,4.956073,-5.194195,49.26388,0.9117499,-12.37405,-96.38443,-11.59733,14.36226,0,0,0,115.0827,-25.88459,-40.46528,79.37691,-104.7803,-99.98798,0.001067912,-0.1257102,0.09433498,0,0.3,0,0,0,0,
6.38224E+17,42.00741,29.19938,25.28509,27.47315,7.446409,-4.095518,49.26388,0.9117499,-12.37405,-96.38443,-11.67058,14.36226,0,0,0,116.0183,-32.16942,-39.53218,79.37691,-104.7803,-99.98798,0.001067912,-0.1257102,0.09433498,0,0.3,0,0,0,0,
6.38224E+17,41.98385,26.01994,24.49128,27.76613,10.44946,-2.410879,49.26388,0.9117499,-12.37405,-96.38443,-11.59733,14.36226,0,0,0,117.1379,-39.50325,-38.18139,79.37691,-104.7803,-99.98798,0.001067912,-0.1257102,0.09433498,0,0.3,0,0,0,0,
6.38224E+17,41.98385,23.14442,23.9076,27.98586,13.23278,-0.9459759,49.26388,0.9117499,-12.37405,-96.38443,-11.67058,14.36226,0,0,0,118.1712,-46.14536,-37.03317,79.37691,-104.7803,-99.98798,0.001067912,-0.1257102,0.09433498,0,0.3,0,0,0,0,
6.38224E+17,42.00741,21.81186,23.69748,27.98586,14.69768,-0.4332596,49.26388,0.9117499,-12.37405,-96.38443,-11.59733,14.36226,0,0,0,118.7193,-49.20843,-36.53318,79.37691,-104.7803,-99.98798,0.001067912,-0.1257102,0.09433498,0,0.3,0,0,0,0,
6.38224E+17,42.00741,19.28702,23.41731,28.05911,17.26126,0.1527017,49.26388,0.9117499,-12.37405,-96.38443,-11.59733,14.36226,0,0,0,119.6995,-54.971,-35.44476,79.37691,-104.7803,-99.98798,0.001067912,-0.1257102,0.09433498,0,0.3,0,0,0,0,
6.38224E+17,42.00741,16.90244,23.27722,28.05911,19.45862,0.5189275,49.26388,0.9117499,-12.37405,-96.38443,-11.59733,14.36226,0,0,0,120.6527,-60.37521,-34.38644,79.37691,-104.7803,-99.98798,0.001067912,-0.1257102,0.09433498,0,0.3,0,0,0,0,
6.38224E+17,42.00741,15.82704,23.25388,28.13236,20.48405,0.738663,49.26388,0.9117499,-12.37405,-96.38443,-11.59733,14.36226,0,0,0,121.0912,-62.79811,-33.89955,79.37691,-104.7803,-99.98798,0.001067912,-0.1257102,0.09433498,0,0.3,0,0,0,0,
6.38224E+17,42.00741,13.72301,23.25388,28.13236,22.46167,0.8851534,49.26388,0.9117499,-12.37405,-96.38443,-11.59733,14.36226,0,0,0,121.9269,-67.53286,-32.97164,79.37691,-104.7803,-99.98798,0.001067912,-0.1257102,0.09433498,0,0.3,0,0,0,0,
6.38224E+17,42.00741,11.64235,23.27722,28.13236,24.36604,1.031644,49.26388,0.9117499,-12.37405,-96.38443,-11.59733,14.36226,0,0,0,122.6718,-72.23551,-32.14459,79.37691,-104.7803,-99.98798,0.001067912,-0.1257102,0.09433498,0,0.3,0,0,0,0,
6.38224E+17,42.00741,10.70722,23.30057,28.05911,25.17174,1.031644,49.26388,0.9117499,-12.37405,-96.38443,-11.59733,14.36226,0,0,0,122.9875,-74.34915,-31.79409,79.37691,-104.7803,-99.98798,0.001067912,-0.1257102,0.09433498,0,0.3,0,0,0,0,
6.38224E+17,42.00741,9.070744,23.37061,27.91262,26.63664,1.031644,49.26388,0.9117499,-12.37405,-96.38443,-11.59733,14.36226,0,0,0,123.5254,-78.03659,-31.19684,79.37691,-104.7803,-99.98798,0.001067912,-0.1257102,0.09433498,0,0.3,0,0,0,0,
6.38224E+17,42.03097,7.364134,23.464,27.61964,27.95506,0.9583986,49.26388,0.9117499,-12.37405,-96.38443,-11.59733,14.36226,0,0,0,124.0954,-81.88123,-30.67782,79.37691,-104.7803,-99.98798,0.001067912,-0.1257102,0.09433498,0,0.3,0,0,0,0,
6.38224E+17,42.03097,5.774416,23.5107,27.47315,29.20022,0.9583986,49.26388,0.9117499,-12.37405,-96.38443,-11.59733,14.36226,0,0,0,124.4455,-85.51341,-30.28939,79.37691,-104.7803,-99.98798,0.001067912,-0.1257102,0.09433498,0,0.3,0,0,0,0,
6.38224E+17,42.03097,5.049692,23.5107,27.39991,29.85943,0.9583986,49.26388,0.9117499,-12.37405,-96.38443,-11.59733,14.36226,0,0,0,124.552,-87.1926,-30.17122,79.37691,-104.7803,-99.98798,0.001067912,-0.1257102,0.09433498,0,0.3,0,0,0,0,
6.38224E+17,42.03097,3.600243,23.5107,27.32666,30.73837,0.9583986,49.26388,0.9117499,-12.37405,-96.38443,-11.59733,14.36226,0,0,0,124.7224,-90.55635,-29.98226,79.37691,-104.7803,-99.98798,0.001067912,-0.1257102,0.09433498,0,0.3,0,0,0,0,
6.38224E+17,42.03097,2.057282,23.5107,27.25341,31.39758,0.9583986,49.26388,0.9117499,-12.37405,-96.38443,-11.59733,14.36226,0,0,0,124.841,-94.14295,-29.85063,79.37691,-104.7803,-99.98798,0.001067912,-0.1257102,0.09433498,0,0.3,0,0,0,0,
6.38224E+17,42.03097,1.355936,23.5107,27.18017,31.61732,0.9583986,49.26388,0.9117499,-12.37405,-96.38443,-11.52409,14.36226,0,0,0,124.8736,-95.77453,-29.81452,79.37691,-104.7803,-99.98798,0.001067912,-0.1257102,0.09433498,0,0.3,0,0,0,0,
6.38224E+17,42.05453,0.116891,23.5107,26.96043,31.98354,0.9583986,49.26388,0.9117499,-12.37405,-96.38443,-11.59733,14.36226,0,0,0,124.9553,-98.65798,-29.83836,79.37691,-104.7803,-99.98798,0.001067912,-0.1257102,0.09433498,0,0.3,0,0,0,0,
6.38224E+17,42.10165,-1.005263,23.5107,26.7407,32.20328,0.9583986,49.26388,0.9117499,-12.37405,-96.38443,-11.59733,14.36226,0,0,0,125.0556,-101.2696,-29.95619,79.37691,-104.7803,-99.98798,0.001067912,-0.1257102,0.09433498,0,0.3,0,0,0,0,
6.38224E+17,42.38437,-1.028641,23.13714,26.7407,32.42301,0.9583986,49.26388,0.9117499,-12.37405,-96.38443,-11.59733,14.36226,0,0,0,125.1982,-101.6682,-31.16536,79.37691,-104.7803,-99.98798,0.001067912,-0.1257102,0.09433498,0,0.3,0,0,0,0,
6.38224E+17,42.52573,-1.028641,23.11379,26.88719,32.5695,0.8851534,49.26388,0.9117499,-12.37405,-96.38443,-11.59733,14.36226,0,0,0,125.5025,-101.6895,-31.5115,79.37691,-104.7803,-99.98798,0.001067912,-0.1257102,0.09433498,0,0.3,0,0,0.000760538,0,
6.38224E+17,42.64353,-1.028641,22.97371,27.47315,32.71599,0.8851534,49.26388,0.9117499,-12.37405,-96.38443,-11.59733,14.36226,0,0,0,125.5803,-101.8171,-31.99051,79.37691,-104.7803,-99.98798,0.001067912,-0.1257102,0.09433498,0,0.3,0,0,0.002614084,0,
6.38224E+17,42.64353,-1.005263,22.83363,27.83937,32.71599,0.8851534,49.26388,0.9117499,-12.37405,-96.38443,-11.59733,14.36226,0,0,0,125.3775,-101.8896,-32.21071,79.37691,-104.7803,-99.98798,0.001067912,-0.1257102,0.09433498,0,0.3,0,0,0.004464288,0,
6.38224E+17,42.64353,-1.005263,22.85697,27.98586,32.78923,0.8119082,49.26388,0.9117499,-12.37405,-96.38443,-11.59733,14.36226,0,0,0,125.4114,-101.8685,-32.17387,79.37691,-104.7803,-99.98798,0.001067912,-0.1257102,0.09433498,0,0.3,0,0,0.005382481,0,
6.38224E+17,42.64353,-0.9585064,23.16049,28.13236,32.86248,0.8851534,49.26388,0.9117499,-12.37405,-96.38443,-11.59733,14.36226,0,0,0,125.8532,-101.4836,-31.69423,79.37691,-104.7803,-99.98798,0.001067912,-0.1257102,0.09433498,0,0.3,0,0,0.007190012,0,
6.38224E+17,42.85557,-0.6312115,23.5107,28.2056,32.86248,0.738663,49.26388,0.9117499,-12.37405,-96.38443,-11.59733,14.36226,0,0,0,126.8743,-100.3991,-31.60454,79.37691,-104.7803,-99.98798,0.001067912,-0.1257102,0.09433498,0,0.3,0,0,0.008958658,0,
6.38224E+17,43.11473,-0.2104038,23.88425,28.2056,32.86248,0.5189275,49.26388,0.9117499,-12.37405,-96.38443,-11.59733,14.36226,0,0,0,128.0405,-99.0703,-31.59342,79.37691,-104.7803,-99.98798,0.001067912,-0.1257102,0.09433498,0,0.3,0,0,0.009820698,0,
6.38224E+17,43.91577,1.075397,24.86484,28.79156,32.42301,0.2259469,49.26388,0.9117499,-12.37405,-96.38443,-11.59733,14.36226,0,0,0,131.3661,-95.13602,-31.91564,79.37691,-104.7803,-99.98798,0.001067912,-0.1257102,0.09433498,0,0.3,0,0,0.0114826,0,
6.38224E+17,44.85817,2.59498,25.89212,29.96349,31.47083,-0.2135241,49.26388,0.9117499,-12.37405,-96.38443,-11.59733,14.36226,0,0,0,135.036,-90.57656,-32.64376,79.37691,-104.7803,-99.98798,0.001067912,-0.1257102,0.09433498,0,0.3,0,0,0.01305493,0,
6.38224E+17,46.0126,4.605506,27.05948,31.2819,30.15241,-1.238957,49.26388,0.9117499,-12.37405,-96.38443,-11.59733,14.36226,0,0,0,139.2811,-84.69551,-33.90701,79.37691,-104.7803,-99.98798,0.001067912,-0.1257102,0.09433498,0,0.3,0,0,0.01451662,0,
6.38224E+17,46.7194,5.867929,27.7132,32.01435,29.41996,-1.824918,49.26388,0.9117499,-12.37405,-96.38443,-11.59733,14.36226,0,0,0,141.7172,-81.06982,-34.89304,79.37691,-104.7803,-99.98798,0.001067912,-0.1257102,0.09433498,0,0.3,0,0,0.0152034,0,
6.38224E+17,48.18012,8.626557,29.16073,33.5525,27.58883,-3.070086,49.26388,0.9117499,-12.37405,-96.38443,-11.59733,14.36226,0,0,0,146.6774,-73.09707,-37.11371,79.37691,-104.7803,-99.98798,0.001067912,-0.1257102,0.09433498,0,0.3,0,0,0.01646822,0,
6.38224E+17,49.52304,11.31505,31.21529,35.38363,25.53797,-4.608234,49.26388,0.9117499,-12.37405,-96.38443,-11.59733,14.36226,0,0,0,152.0326,-64.53062,-38.6076,79.37691,-104.7803,-99.98798,0.001067912,-0.1257102,0.09433498,0,0.3,0,0,0.01754485,0,
6.38224E+17,50.18272,12.67099,32.31261,36.18932,24.36604,-5.560421,49.26388,0.9117499,-12.37405,-96.38443,-11.59733,14.36226,0,0,0,154.6804,-60.09936,-39.39608,79.37691,-104.7803,-99.98798,0.001067912,-0.1257102,0.09433498,0,0.3,0,0,0.01800121,0,
6.38224E+17,51.57275,15.49975,34.69404,37.72747,21.94895,-7.611286,49.26388,0.9117499,-12.37405,-96.38443,-11.59733,14.36226,0,0,0,160.1283,-50.65514,-41.30981,79.37691,-104.7803,-99.98798,0.001067912,-0.1257102,0.09433498,0,0.3,0,0,0.01874103,0,
6.38224E+17,52.9628,18.11811,37.28558,39.77834,18.9459,-10.90732,49.26388,0.9117499,-12.37405,-96.38443,-11.67058,14.36226,0,0,0,165.6517,-41.27796,-43.35373,79.37691,-104.7803,-99.98798,0.001067912,-0.1257102,0.09433498,0,0.3,0,0,0.01923026,0,
6.38224E+17,53.50467,19.28702,38.52299,40.80377,17.481,-12.88494,49.26388,0.9117499,-12.37405,-96.38443,-11.67058,14.36226,0,0,0,167.9519,-36.93191,-44.0933,79.37691,-104.7803,-99.98798,0.001067912,-0.1257102,0.09433498,0,0.3,0,0,0.01938346,0,
6.38224E+17,54.32927,21.36768,40.78767,42.19543,14.47795,-16.84018,49.26388,0.9117499,-12.37405,-96.38443,-11.59733,14.36226,0,0,0,171.6527,-29.02776,-45.13796,79.37691,-104.7803,-99.98798,0.001067912,-0.1257102,0.09433498,0,0.3,0,0,0.01952764,0,
6.38224E+17,54.89471,23.05091,42.53872,43.22086,11.62138,-19.91648,49.26388,0.9117499,-12.37405,-96.38443,-11.59733,14.36226,0,0,0,174.1395,-22.69199,-45.93867,79.37691,-104.7803,-99.98798,0.001067912,-0.1257102,0.09433498,0,0.3,0,0,0.01949466,0,
6.38224E+17,55.24811,24.54711,43.93955,43.80682,9.057802,-22.04058,49.26388,0.9117499,-12.37405,-96.38443,-11.59733,14.36226,0,0,0,175.6881,-17.27253,-46.46221,79.37691,-104.7803,-99.98798,0.001067912,-0.1257102,0.09433498,0,0.3,0,0,0.01932151,0,
6.38224E+17,55.27167,25.2017,44.56993,43.95331,7.959125,-22.77304,49.26388,0.9117499,-12.37405,-96.38443,-11.59733,14.36226,0,0,0,176.0752,-14.86655,-46.30089,79.37691,-104.7803,-99.98798,0.001067912,-0.1257102,0.09433498,0,0.3,0,0,0.01919116,0,
6.38224E+17,55.29523,26.39399,45.62056,44.02656,5.835015,-23.57873,49.26388,0.9117499,-12.37405,-96.38443,-11.59733,14.36226,0,0,0,176.5517,-10.63634,-46.07809,79.37691,-104.7803,-99.98798,0.001067912,-0.1257102,0.09433498,0,0.3,0,0,0.01885456,0,
6.38224E+17,55.31879,27.49277,46.18089,43.80682,4.150376,-23.72522,49.26388,0.9117499,-12.37405,-96.38443,-11.59733,14.36226,0,0,0,176.3954,-7.420141,-46.29362,79.37691,-104.7803,-99.98798,0.001067912,-0.1257102,0.09433498,0,0.3,0,0,0.01845602,0,
6.38224E+17,55.31879,27.98371,46.60114,43.80682,3.198189,-23.65198,49.26388,0.9117499,-12.37405,-96.38443,-11.59733,14.36226,0,0,0,176.5128,-5.700635,-46.21236,79.37691,-104.7803,-99.98798,0.001067912,-0.1257102,0.09433498,0,0.3,0,0,0.01823062,0,
6.38224E+17,55.31879,28.73181,47.3716,44.0998,1.440305,-23.79847,49.26388,0.9117499,-12.37405,-96.38443,-11.59733,14.36226,0,0,0,176.8387,-2.857315,-45.98689,79.37691,-104.7803,-99.98798,0.001067912,-0.1257102,0.09433498,0,0.3,0,0,0.01772869,0,
6.38224E+17,55.29523,29.40978,47.83855,44.24629,-0.02459868,-24.23794,49.26388,0.9117499,-12.37405,-96.38443,-11.59733,14.36226,0,0,0,176.7604,-0.6756151,-45.93351,79.37691,-104.7803,-99.98798,0.001067912,-0.1257102,0.09433498,0,0.3,0,0,0.01718073,0,
6.38224E+17,55.27167,30.04099,48.14206,44.39278,-1.416257,-24.67741,49.26388,0.9117499,-12.37405,-96.38443,-11.67058,14.36226,0,0,0,176.4999,1.12502,-46.00648,79.37691,-104.7803,-99.98798,0.001067912,-0.1257102,0.09433498,0,0.3,0,0,0.01660326,0,
6.38224E+17,55.24811,30.27477,48.32884,44.39278,-1.928973,-24.89715,49.26388,0.9117499,-12.37405,-96.38443,-11.67058,14.36226,0,0,0,176.4629,1.919719,-45.92469,79.37691,-104.7803,-99.98798,0.001067912,-0.1257102,0.09433498,0,0.3,0,0,0.0163041,0,
6.38224E+17,55.22455,30.64882,48.63235,44.46603,-2.88116,-25.26337,49.26388,0.9117499,-12.37405,-96.38443,-11.67058,14.36226,0,0,0,176.4347,3.199018,-45.83679,79.37691,-104.7803,-99.98798,0.001067912,-0.1257102,0.09433498,0,0.3,0,0,0.0156884,0,
6.38224E+17,55.22455,31.25666,49.0526,44.53928,-3.686857,-25.84933,49.26388,0.9117499,-12.37405,-96.38443,-11.59733,14.36226,0,0,0,176.3658,5.148627,-45.88464,79.37691,-104.7803,-99.98798,0.001067912,-0.1257102,0.09433498,0,0.3,0,0,0.0150424,0,
6.38224E+17,55.22455,31.56057,49.33278,44.61252,-4.053083,-26.21556,49.26388,0.9117499,-12.37405,-96.38443,-11.67058,14.36226,0,0,0,176.413,6.245868,-45.85184,79.37691,-104.7803,-99.98798,0.001067912,-0.1257102,0.09433498,0,0.3,0,0,0.01470347,0,
6.38224E+17,55.22455,32.05152,50.21997,44.83226,-4.932025,-26.72828,49.26388,0.9117499,-12.37405,-96.38443,-11.59733,14.36226,0,0,0,177.0136,8.793468,-45.43478,79.37691,-104.7803,-99.98798,0.001067912,-0.1257102,0.09433498,0,0.3,0,0,0.01397825,0,
6.38224E+17,55.27167,32.12165,51.41068,45.19848,-5.737722,-27.24099,49.26388,0.9117499,-12.37405,-96.38443,-11.67058,14.36226,0,0,0,178.4824,11.07976,-44.63233,79.37691,-104.7803,-99.98798,0.001067912,-0.1257102,0.09433498,0,0.3,0,0,0.01317649,0,
6.38224E+17,55.27167,32.05152,52.15779,45.49146,-6.103948,-27.60722,49.26388,0.9117499,-12.37405,-96.38443,-11.59733,14.36226,0,0,0,179.4377,12.30763,-43.97014,79.37691,-104.7803,-99.98798,0.001067912,-0.1257102,0.09433498,0,0.3,0,0,0.01274196,0,
6.38224E+17,55.27167,31.77098,54.00222,46.29716,-6.909645,-28.48616,49.26388,0.9117499,-12.37405,-96.38443,-11.67058,14.36226,0,0,0,181.8405,15.18517,-42.30457,79.37691,-104.7803,-99.98798,0.001067912,-0.1257102,0.09433498,0,0.3,0,0,0.01178566,0,
6.38224E+17,55.27167,30.64882,55.98674,47.54232,-7.27587,-29.80457,49.26388,0.9117499,-12.37405,-96.38443,-11.59733,14.36226,0,0,0,185.1302,16.73451,-40.02426,79.37691,-104.7803,-99.98798,0.001067912,-0.1257102,0.09433498,0,0.3,0,0,0.01071516,0,
6.38224E+17,55.27167,29.83059,56.71051,48.12829,-7.12938,-30.53703,49.26388,0.9117499,-12.37405,-96.38443,-11.67058,14.36226,0,0,0,186.6856,16.49149,-38.94613,79.37691,-104.7803,-99.98798,0.001067912,-0.1257102,0.09433498,0,0.3,0,0,0.01015306,0,
6.38224E+17,55.24811,27.58628,57.83118,48.78749,-6.616664,-31.6357,49.26388,0.9117499,-12.37405,-96.38443,-11.67058,14.36226,0,0,0,189.8524,14.10459,-36.63541,79.37691,-104.7803,-99.98798,0.001067912,-0.1257102,0.09433498,0,0.3,0,0,0.009006568,0,
6.38224E+17,55.20099,24.57049,58.43821,48.93398,-5.371496,-32.58789,49.26388,0.9117499,-12.37405,-96.38443,-11.67058,14.36226,0,0,0,192.8899,9.000822,-34.29296,79.37691,-104.7803,-99.98798,0.001067912,-0.1257102,0.09433498,0,0.3,0,0,0.007872669,0,
6.38224E+17,55.03607,21.18065,58.41486,48.05504,-3.393876,-33.32034,49.26388,0.9117499,-12.37405,-96.38443,-11.67058,14.36226,0,0,0,194.9929,1.686587,-31.99735,79.37691,-104.7803,-99.98798,0.001067912,-0.1257102,0.09433498,0,0.3,0,0,0.006807181,0,
6.38224E+17,54.87115,19.5208,58.18139,47.32259,-2.148709,-33.39359,49.26388,0.9117499,-12.37405,-96.38443,-11.67058,14.36226,0,0,0,195.4648,-2.397597,-30.82793,79.37691,-104.7803,-99.98798,0.001067912,-0.1257102,0.09433498,0,0.3,0,0,0.00631282,0,
6.38224E+17,54.30571,16.76217,56.96733,45.41821,0.3416272,-33.46683,49.26388,0.9117499,-12.37405,-96.38443,-11.59733,14.36226,0,0,0,194.4911,-10.88328,-28.62336,79.37691,-104.7803,-99.98798,0.001067912,-0.1257102,0.09433498,0,0.3,0,0,0.00543184,0,
6.38224E+17,53.52823,15.17245,54.72599,42.78139,3.124943,-33.32034,49.26388,0.9117499,-12.37405,-96.38443,-11.59733,14.36226,0,0,0,191.0408,-18.75688,-27.13288,79.37691,-104.7803,-99.98798,0.001067912,-0.1257102,0.09433498,0,0.3,0,0,0.004728348,0,
6.38224E+17,53.10415,14.77502,53.44189,41.46298,4.370111,-33.02736,49.26388,0.9117499,-12.37405,-96.38443,-11.59733,14.36226,0,0,0,188.7795,-22.0708,-26.63176,79.37691,-104.7803,-99.98798,0.001067912,-0.1257102,0.09433498,0,0.3,0,0,0.004447575,0,
6.38224E+17,52.18531,14.65813,50.4301,38.82615,6.640712,-31.26948,49.26388,0.9117499,-12.37405,-96.38443,-11.59733,14.36226,0,0,0,183.1234,-27.85215,-26.22972,79.37691,-104.7803,-99.98798,0.001067912,-0.1257102,0.09433498,0,0.3,0,0,0.004223737,0,
6.38224E+17,51.12512,14.65813,47.11478,36.26257,8.911312,-28.7059,49.26388,0.9117499,-12.37405,-96.38443,-11.67058,14.36226,0,0,0,176.504,-33.65456,-26.05692,79.37691,-104.7803,-99.98798,0.001067912,-0.1257102,0.09433498,0,0.3,0,0,0.003934719,0,
6.38224E+17,50.51255,14.70489,45.27035,34.87091,10.00999,-27.31424,49.26388,0.9117499,-12.37405,-96.38443,-11.59733,14.36226,0,0,0,172.6581,-36.64709,-26.08517,79.37691,-104.7803,-99.98798,0.001067912,-0.1257102,0.09433498,0,0.3,0,0,0.003871434,0,
6.38224E+17,49.05184,14.7984,41.46474,31.72137,11.84112,-24.45767,49.26388,0.9117499,-12.37405,-96.38443,-11.59733,14.36226,0,0,0,164.0712,-42.5175,-25.98547,79.37691,-104.7803,-99.98798,0.001067912,-0.1257102,0.09433498,0,0.3,0,0,0.003929928,0,
6.38224E+17,47.63824,14.7984,38.28952,28.42534,13.23278,-22.11383,49.26388,0.9117499,-12.37405,-96.38443,-11.59733,14.36226,0,0,0,156.3193,-47.25495,-25.8021,79.37691,-104.7803,-99.98798,0.001067912,-0.1257102,0.09433498,0,0.3,0,0,0.004231425,0,
6.38224E+17,46.22464,14.75165,35.8614,25.34904,14.69768,-19.98972,49.26388,0.9117499,-12.37405,-96.38443,-11.59733,14.36226,0,0,0,149.5198,-50.76683,-25.08905,79.37691,-104.7803,-99.98798,0.001067912,-0.1257102,0.09433498,0,0.3,0,0,0.004729796,0,
6.38224E+17,45.5414,14.61138,35.0209,24.17712,15.35689,-19.03753,49.26388,0.9117499,-12.37405,-96.38443,-11.59733,14.36226,0,0,0,146.7224,-52.21695,-24.37456,79.37691,-104.7803,-99.98798,0.001067912,-0.1257102,0.09433498,0,0.3,0,0,0.005036307,0,
6.38224E+17,44.22205,14.0503,33.7368,22.05301,16.82179,-17.35289,49.26388,0.9117499,-12.37405,-96.38443,-11.59733,14.36226,0,0,0,141.8736,-55.16968,-22.57041,79.37691,-104.7803,-99.98798,0.001067912,-0.1257102,0.09433498,0,0.3,0,0,0.005726986,0,
6.38224E+17,42.92625,13.20868,32.52274,19.85565,18.1402,-16.03448,49.26388,0.9117499,-12.37405,-96.38443,-11.67058,14.36226,0,0,0,137.2435,-58.61753,-20.79399,79.37691,-104.7803,-99.98798,0.001067912,-0.1257102,0.09433498,0,0.3,0,0,0.006499556,0,
6.38224E+17,42.36081,12.71774,31.91571,18.61049,18.72616,-15.59501,49.26388,0.9117499,-12.37405,-96.38443,-11.59733,14.36226,0,0,0,135.148,-60.48427,-20.14056,79.37691,-104.7803,-99.98798,0.001067912,-0.1257102,0.09433498,0,0.3,0,0,0.006916482,0,
6.38224E+17,41.39485,11.57221,30.86509,16.0469,20.11782,-15.15554,49.26388,0.9117499,-12.37405,-96.38443,-11.59733,14.36226,0,0,0,131.6209,-64.36428,-19.02831,79.37691,-104.7803,-99.98798,0.001067912,-0.1257102,0.09433498,0,0.3,0,0,0.007810498,0,
6.38224E+17,40.68805,10.16952,30.07128,13.70306,21.28975,-15.00905,49.26388,0.9117499,-12.37405,-96.38443,-11.59733,14.36226,0,0,0,129.1322,-68.50703,-18.15664,79.37691,-104.7803,-99.98798,0.001067912,-0.1257102,0.09433498,0,0.3,0,0,0.008774262,0,
6.38224E+17,40.28753,8.579801,29.72107,11.79868,22.53491,-14.9358,49.26388,0.9117499,-12.37405,-96.38443,-11.67058,14.36226,0,0,0,128.0119,-72.56366,-17.33693,79.37691,-104.7803,-99.98798,0.001067912,-0.1257102,0.09433498,0,0.3,0,0,0.009794292,0,
6.38224E+17,40.21685,7.714807,29.72107,11.06623,23.19412,-14.9358,49.26388,0.9117499,-12.37405,-96.38443,-11.59733,14.36226,0,0,0,128.0098,-74.5565,-16.96127,79.37691,-104.7803,-99.98798,0.001067912,-0.1257102,0.09433498,0,0.3,0,0,0.01031695,0,
6.38224E+17,40.28753,6.148468,29.86115,9.967555,24.2928,-15.00905,49.26388,0.9117499,-12.37405,-96.38443,-11.59733,14.36226,0,0,0,128.6638,-78.01325,-16.56788,79.37691,-104.7803,-99.98798,0.001067912,-0.1257102,0.09433498,0,0.3,0,0,0.01137408,0,
6.38224E+17,40.66449,4.55875,30.23471,9.161857,25.02525,-15.15554,49.26388,0.9117499,-12.37405,-96.38443,-11.59733,14.36226,0,0,0,130.375,-81.26156,-16.58496,79.37691,-104.7803,-99.98798,0.001067912,-0.1257102,0.09433498,0,0.3,0,0,0.0124389,0,
6.38224E+17,40.97078,3.763891,30.60827,9.015368,25.31823,-15.44852,49.26388,0.9117499,-12.37405,-96.38443,-11.59733,14.36226,0,0,0,131.764,-82.66639,-16.61663,79.37691,-104.7803,-99.98798,0.001067912,-0.1257102,0.09433498,0,0.3,0,0,0.01297059,0,
6.38224E+17,41.65401,2.267686,31.49546,8.942122,25.53797,-16.32746,49.26388,0.9117499,-12.37405,-96.38443,-11.59733,14.36226,0,0,0,134.8614,-85.07866,-16.74005,79.37691,-104.7803,-99.98798,0.001067912,-0.1257102,0.09433498,0,0.3,0,0,0.01400867,0,
6.38224E+17,42.54929,1.309179,32.17253,9.308348,25.46472,-17.2064,49.26388,0.9117499,-12.37405,-96.38443,-11.59733,14.36226,0,0,0,138.1662,-86.4772,-17.8282,79.37691,-104.7803,-99.98798,0.001067912,-0.1257102,0.09433498,0,0.3,0,0,0.01502424,0,
6.38224E+17,43.16185,1.005263,32.4527,9.674574,25.17174,-17.71912,49.26388,0.9117499,-12.37405,-96.38443,-11.59733,14.36226,0,0,0,140.1543,-86.83584,-18.90154,79.37691,-104.7803,-99.98798,0.001067912,-0.1257102,0.09433498,0,0.3,0,0,0.01552484,0,
6.38224E+17,44.48121,0.6078333,33.15312,10.77325,24.43929,-18.74455,49.26388,0.9117499,-12.37405,-96.38443,-11.59733,14.36226,0,0,0,144.5274,-86.87759,-21.18133,79.37691,-104.7803,-99.98798,0.001067912,-0.1257102,0.09433498,0,0.3,0,0,0.01651501,0,
6.38224E+17,46.03617,0.3272949,34.22709,12.75087,23.63359,-19.98972,49.26388,0.9117499,-12.37405,-96.38443,-11.59733,14.36226,0,0,0,149.9685,-86.144,-23.70993,79.37691,-104.7803,-99.98798,0.001067912,-0.1257102,0.09433498,0,0.3,0,0,0.01747165,0,
6.38224E+17,46.86076,0.2805384,34.76408,14.06928,23.26737,-20.64893,49.26388,0.9117499,-12.37405,-96.38443,-11.67058,14.36226,0,0,0,152.7866,-85.54502,-25.17847,79.37691,-104.7803,-99.98798,0.001067912,-0.1257102,0.09433498,0,0.3,0,0,0.0179298,0,
6.38224E+17,48.67488,0.3740513,35.93144,16.8526,22.46167,-22.04058,49.26388,0.9117499,-12.37405,-96.38443,-11.59733,14.36226,0,0,0,158.9056,-83.75557,-28.62451,79.37691,-104.7803,-99.98798,0.001067912,-0.1257102,0.09433498,0,0.3,0,0,0.0188022,0,
6.38224E+17,50.55968,0.7948589,37.02876,20.44161,21.43624,-23.57873,49.26388,0.9117499,-12.37405,-96.38443,-11.59733,14.36226,0,0,0,164.9934,-81.25785,-32.62833,79.37691,-104.7803,-99.98798,0.001067912,-0.1257102,0.09433498,0,0.3,0,0,0.01960051,0,
6.38224E+17,51.97327,1.56634,37.5891,24.17712,20.48405,-24.8239,49.26388,0.9117499,-12.37405,-96.38443,-11.59733,14.36226,0,0,0,169.0793,-78.67226,-36.12374,79.37691,-104.7803,-99.98798,0.001067912,-0.1257102,0.09433498,0,0.3,0,0,0.02033441,0,
6.38224E+17,52.63295,2.010525,37.93931,26.15474,19.97133,-25.48311,49.26388,0.9117499,-12.37405,-96.38443,-11.59733,14.36226,0,0,0,171.0769,-77.13981,-37.70768,79.37691,-104.7803,-99.98798,0.001067912,-0.1257102,0.09433498,0,0.3,0,0,0.0206817,0,
6.38224E+17,53.69315,3.132679,38.70977,29.96349,18.9459,-26.58179,49.26388,0.9117499,-12.37405,-96.38443,-11.59733,14.36226,0,0,0,174.5041,-73.41882,-40.1319,79.37691,-104.7803,-99.98798,0.001067912,-0.1257102,0.09433498,0,0.3,0,0,0.02132626,0,
6.38224E+17,54.58843,4.699019,39.24675,33.18628,17.84722,-27.46073,49.26388,0.9117499,-12.37405,-96.38443,-11.59733,14.36226,0,0,0,177.0751,-68.99582,-42.45545,79.37691,-104.7803,-99.98798,0.001067912,-0.1257102,0.09433498,0,0.3,0,0,0.02190173,0,
6.38224E+17,54.98895,5.797795,39.3168,34.79766,17.18801,-27.82695,49.26388,0.9117499,-12.37405,-96.38443,-11.67058,14.28902,0,0,0,177.8626,-66.34608,-43.75815,79.37691,-104.7803,-99.98798,0.001067912,-0.1257102,0.09433498,0,0.3,0,0,0.02216545,0,
6.38224E+17,55.27167,8.20575,39.38684,37.36125,15.94285,-28.48616,49.26388,0.9117499,-12.37405,-96.38443,-11.59733,14.36226,0,0,0,178.0174,-60.68065,-44.95465,79.37691,-104.7803,-99.98798,0.001067912,-0.1257102,0.09433498,0,0.3,0,0,0.02265658,0,
6.38224E+17,55.27167,10.80073,39.38684,39.70509,14.62444,-28.63265,49.26388,0.9117499,-12.37405,-96.38443,-11.59733,14.36226,0,0,0,177.1979,-54.7245,-45.52267,79.37691,-104.7803,-99.98798,0.001067912,-0.1257102,0.09433498,0,0.3,0,0,0.02310493,0,
6.38224E+17,55.27167,12.20342,39.2701,40.65728,14.11172,-28.63265,49.26388,0.9117499,-12.37405,-96.38443,-11.59733,14.36226,0,0,0,176.4902,-51.69771,-46.01324,79.37691,-104.7803,-99.98798,0.001067912,-0.1257102,0.09433498,0,0.3,0,0,0.02331384,0,
6.38224E+17,55.20099,15.14908,38.56968,42.34192,12.86655,-28.5594,49.26388,0.9117499,-12.37405,-96.38443,-11.59733,14.36226,0,0,0,173.9668,-46.06122,-47.44439,79.37691,-104.7803,-99.98798,0.001067912,-0.1257102,0.09433498,0,0.3,0,0,0.02371527,0,
6.38224E+17,54.82403,17.6973,37.40232,43.36735,11.18191,-27.9002,49.26388,0.9117499,-12.37405,-96.38443,-11.59733,14.36226,0,0,0,170.0468,-42.04509,-48.50195,79.37691,-104.7803,-99.98798,0.001067912,-0.1257102,0.09433498,0,0.3,0,0,0.02412741,0,
6.38224E+17,54.23503,19.38053,36.46843,43.4406,9.790254,-27.24099,49.26388,0.9117499,-12.37405,-96.38443,-11.59733,14.36226,0,0,0,166.3855,-39.63706,-48.5036,79.37691,-104.7803,-99.98798,0.001067912,-0.1257102,0.09433498,0,0.3,0,0,0.02458255,0,
6.38224E+17,53.90519,20.03512,35.97814,43.22086,9.204292,-26.72828,49.26388,0.9117499,-12.37405,-96.38443,-11.59733,14.36226,0,0,0,164.5338,-38.87713,-48.39273,79.37691,-104.7803,-99.98798,0.001067912,-0.1257102,0.09433498,0,0.3,0,0,0.024826,0,
6.38224E+17,53.15127,20.90011,34.88082,42.19543,8.618331,-25.19013,49.26388,0.9117499,-12.37405,-96.38443,-11.59733,14.36226,0,0,0,160.7126,-38.47153,-47.90831,79.37691,-104.7803,-99.98798,0.001067912,-0.1257102,0.09433498,0,0.3,0,0,0.02535401,0,
6.38224E+17,52.39735,21.3443,33.78349,40.87702,8.471841,-23.28575,49.26388,0.9117499,-12.37405,-96.38443,-11.59733,14.36226,0,0,0,157.1479,-38.94755,-47.31823,79.37691,-104.7803,-99.98798,0.001067912,-0.1257102,0.09433498,0,0.3,0,0,0.02595043,0,
6.38224E+17,52.06751,21.48457,33.17647,40.21781,8.471841,-22.26032,49.26388,0.9117499,-12.37405,-96.38443,-11.59733,14.36226,0,0,0,155.4251,-39.42299,-47.21324,79.37691,-104.7803,-99.98798,0.001067912,-0.1257102,0.09433498,0,0.3,0,0,0.02627521,0,
6.38224E+17,51.29004,21.83524,31.58885,38.67966,8.618331,-20.50244,49.26388,0.9117499,-12.37405,-96.38443,-11.59733,14.36226,0,0,0,151.0972,-40.64333,-47.25516,79.37691,-104.7803,-99.98798,0.001067912,-0.1257102,0.09433498,0,0.3,0,0,0.02698973,0,
6.38224E+17,50.30051,22.72361,29.79111,37.06827,8.984557,-19.11078,49.26388,0.9117499,-12.37405,-96.38443,-11.59733,14.36226,0,0,0,145.6121,-40.86554,-47.46274,79.37691,-104.7803,-99.98798,0.001067912,-0.1257102,0.09433498,0,0.3,0,0,0.0278159,0,
6.38224E+17,49.82932,23.51847,28.92726,36.18932,9.277537,-18.37833,49.26388,0.9117499,-12.37405,-96.38443,-11.67058,14.36226,0,0,0,142.7189,-40.14991,-47.86826,79.37691,-104.7803,-99.98798,0.001067912,-0.1257102,0.09433498,0,0.3,0,0,0.02826836,0,
6.38224E+17,48.86336,25.66927,27.03613,34.50468,8.984557,-16.47395,49.26388,0.9117499,-12.37405,-96.38443,-11.59733,14.36226,0,0,0,136.1714,-37.66354,-49.4067,79.37691,-104.7803,-99.98798,0.001067912,-0.1257102,0.09433498,0,0.3,0,0,0.02924071,0,
6.38224E+17,47.92096,27.91357,25.42517,32.82005,8.105616,-14.78931,49.26388,0.9117499,-12.37405,-96.38443,-11.59733,14.36226,0,0,0,129.9531,-34.65826,-51.0147,79.37691,-104.7803,-99.98798,0.001067912,-0.1257102,0.09433498,0,0.3,0,0,0.03028625,0,
6.38224E+17,47.35552,29.9241,24.46794,31.20865,7.153428,-13.61739,49.26388,0.9117499,-12.37405,-96.38443,-11.59733,14.36226,0,0,0,125.6386,-31.50231,-52.63922,79.37691,-104.7803,-99.98798,0.001067912,-0.1257102,0.09433498,0,0.3,0,0,0.03137948,0,
6.38224E+17,47.19061,30.9995,24.16442,30.54945,6.494221,-13.17792,49.26388,0.9117499,-12.37405,-96.38443,-11.59733,14.36226,0,0,0,123.902,-29.63581,-53.57777,79.37691,-104.7803,-99.98798,0.001067912,-0.1257102,0.09433498,0,0.3,0,0,0.03193234,0,
6.38224E+17,47.04924,33.26719,23.93095,29.45077,5.029318,-12.81169,49.26388,0.9117499,-12.37405,-96.38443,-11.59733,14.36226,0,0,0,121.2006,-25.38822,-55.52317,79.37691,-104.7803,-99.98798,0.001067912,-0.1257102,0.09433498,0,0.3,0,0,0.03302791,0,
6.38224E+17,47.04924,35.74527,23.95429,28.79156,3.198189,-12.59196,49.26388,0.9117499,-12.37405,-96.38443,-11.59733,14.36226,0,0,0,118.8457,-20.61375,-57.71537,79.37691,-104.7803,-99.98798,0.001067912,-0.1257102,0.09433498,0,0.3,0,0,0.03409106,0,
6.38224E+17,47.04924,37.0077,24.02434,28.57183,2.026266,-12.6652,49.26388,0.9117499,-12.37405,-96.38443,-11.59733,14.36226,0,0,0,117.6793,-18.1819,-58.80122,79.37691,-104.7803,-99.98798,0.001067912,-0.1257102,0.09433498,0,0.3,0,0,0.0346018,0,
6.38224E+17,47.0728,39.50917,24.07103,28.27885,-0.2443342,-13.54414,49.26388,0.9117499,-12.37405,-96.38443,-11.59733,14.36226,0,0,0,115.1576,-13.56647,-61.23707,79.37691,-104.7803,-99.98798,0.001067912,-0.1257102,0.09433498,0,0.3,0,0,0.03556367,0,
6.38224E+17,47.0728,41.98725,24.14107,28.05911,-2.514934,-15.59501,49.26388,0.9117499,-12.37405,-96.38443,-11.59733,14.36226,0,0,0,112.5102,-9.130857,-63.69951,79.37691,-104.7803,-99.98798,0.001067912,-0.1257102,0.09433498,0,0.3,0,0,0.0364754,0,
6.38224E+17,47.0728,43.13279,24.18777,28.05911,-3.540367,-16.84018,49.26388,0.9117499,-12.37405,-96.38443,-11.59733,14.36226,0,0,0,111.2624,-7.122629,-64.8601,79.37691,-104.7803,-99.98798,0.001067912,-0.1257102,0.09433498,0,0.3,0,0,0.03690714,0,
6.38224E+17,47.0728,45.19007,24.37455,27.91262,-5.298251,-19.62349,49.26388,0.9117499,-12.37405,-96.38443,-11.59733,14.36226,0,0,0,109.1102,-3.509162,-66.86201,79.37691,-104.7803,-99.98798,0.001067912,-0.1257102,0.09433498,0,0.3,0,0,0.03772539,0,
6.38224E+17,47.11992,46.82654,24.63136,27.83937,-6.836399,-21.89409,49.26388,0.9117499,-12.37405,-96.38443,-11.59733,14.28902,0,0,0,107.5843,-0.6159875,-68.44619,79.37691,-104.7803,-99.98798,0.001067912,-0.1257102,0.09433498,0,0.3,0,0,0.0384856,0,
6.38224E+17,47.19061,47.52789,24.70141,27.91262,-7.349115,-22.77304,49.26388,0.9117499,-12.37405,-96.38443,-11.59733,14.36226,0,0,0,106.9378,0.5615727,-69.2919,79.37691,-104.7803,-99.98798,0.001067912,-0.1257102,0.09433498,0,0.3,0,0,0.03884804,0,
6.38224E+17,47.3084,48.88382,24.86484,28.27885,-7.861832,-23.94496,49.26388,0.9117499,-12.37405,-96.38443,-11.59733,14.36226,0,0,0,105.6658,2.824171,-70.87309,79.37691,-104.7803,-99.98798,0.001067912,-0.1257102,0.09433498,0,0.3,0,0,0.03954384,0,
6.38224E+17,47.33196,50.42678,25.09831,28.71832,-8.447793,-24.75066,49.26388,0.9117499,-12.37405,-96.38443,-11.59733,14.36226,0,0,0,104.0556,5.378398,-72.43767,79.37691,-104.7803,-99.98798,0.001067912,-0.1257102,0.09433498,0,0.3,0,0,0.04019341,0,
6.38224E+17,47.35552,51.17488,25.14501,29.0113,-8.814018,-25.04364,49.26388,0.9117499,-12.37405,-96.38443,-11.59733,14.36226,0,0,0,103.1749,6.524954,-73.32787,79.37691,-104.7803,-99.98798,0.001067912,-0.1257102,0.09433498,0,0.3,0,0,0.04049424,0,
6.38224E+17,47.4262,52.60096,25.16835,29.52402,-9.399981,-25.48311,49.26388,0.9117499,-12.37405,-96.38443,-11.59733,14.36226,0,0,0,101.4053,8.596512,-75.18864,79.37691,-104.7803,-99.98798,0.001067912,-0.1257102,0.09433498,0,0.3,0,0,0.041055,0,
6.38224E+17,47.44976,54.26081,25.16835,29.96349,-9.912696,-25.99582,49.26388,0.9117499,-12.37405,-96.38443,-11.59733,14.36226,0,0,0,99.15797,10.89806,-77.32838,79.37691,-104.7803,-99.98798,0.001067912,-0.1257102,0.09433498,0,0.3,0,0,0.04155493,0,
6.38224E+17,47.44976,55.73364,24.84149,30.18322,-10.42541,-26.36205,49.26388,0.9117499,-12.37405,-96.38443,-11.59733,14.36226,0,0,0,96.58164,12.54271,-79.69331,79.37691,-104.7803,-99.98798,0.001067912,-0.1257102,0.09433498,0,0.3,0,0,0.04200083,0,
6.38224E+17,47.44976,56.22458,24.37455,30.25646,-10.5719,-26.4353,49.26388,0.9117499,-12.37405,-96.38443,-11.59733,14.36226,0,0,0,95.15608,12.72946,-81.0019,79.37691,-104.7803,-99.98798,0.001067912,-0.1257102,0.09433498,0,0.3,0,0,0.04221241,0,
6.38224E+17,47.44976,56.71552,22.78693,30.18322,-10.49866,-26.4353,49.26388,0.9117499,-12.37405,-96.38443,-11.59733,14.36226,0,0,0,91.95973,11.88251,-83.93597,79.37691,-104.7803,-99.98798,0.001067912,-0.1257102,0.09433498,0,0.3,0,0,0.04264616,0,
6.38224E+17,47.44976,56.66877,20.75572,29.74375,-10.49866,-26.4353,49.26388,0.9117499,-12.37405,-96.38443,-11.59733,14.36226,0,0,0,88.79268,10.06942,-86.84315,79.37691,-104.7803,-99.98798,0.001067912,-0.1257102,0.09433498,0,0.3,0,0,0.04313595,0,
6.38224E+17,47.44976,56.45836,19.82183,29.52402,-9.912696,-26.36205,49.26388,0.9117499,-12.37405,-96.38443,-11.59733,14.36226,0,0,0,87.59187,9.045923,-87.94543,79.37691,-104.7803,-99.98798,0.001067912,-0.1257102,0.09433498,0,0.3,0,0,0.04340837,0,
6.38224E+17,47.44976,55.19594,17.76727,29.0113,-8.374548,-26.28881,49.26388,0.9117499,-12.37405,-96.38443,-11.59733,14.28902,0,0,0,86.04797,5.85513,-89.36265,79.37691,-104.7803,-99.98798,0.001067912,-0.1257102,0.09433498,0,0.3,0,0,0.04401058,0,
6.38224E+17,47.44976,53.04515,15.64267,28.71832,-6.763155,-25.92258,49.26388,0.9117499,-12.37405,-96.38443,-11.59733,14.36226,0,0,0,85.54691,1.500255,-89.82259,79.37691,-104.7803,-99.98798,0.001067912,-0.1257102,0.09433498,0,0.3,0,0,0.04471653,0,
6.38224E+17,47.44976,51.64245,14.47531,28.57183,-5.517986,-25.33662,49.26388,0.9117499,-12.37405,-96.38443,-11.59733,14.36226,0,0,0,85.51814,-1.200004,-89.84901,79.37691,-104.7803,-99.98798,0.001067912,-0.1257102,0.09433498,0,0.3,0,0,0.04511473,0,
6.38224E+17,47.44976,48.22923,12.14058,28.35209,-2.954405,-23.13926,49.26388,0.9117499,-12.37405,-96.38443,-11.59733,14.36226,0,0,0,86.10101,-7.563005,-89.31396,79.37691,-104.7803,-99.98798,0.001067912,-0.1257102,0.09433498,0,0.3,0,0,0.04603148,0,
6.38224E+17,47.4262,44.46534,9.875894,28.35209,0.1218917,-20.13621,49.26388,0.9117499,-12.37405,-96.38443,-11.59733,14.36226,0,0,0,86.92538,-14.61526,-88.49134,79.37691,-104.7803,-99.98798,0.001067912,-0.1257102,0.09433498,0,0.3,0,0,0.04713663,0,
6.38224E+17,47.4262,40.72483,7.681251,28.71832,3.417924,-17.05991,49.26388,0.9117499,-12.37405,-96.38443,-11.59733,14.36226,0,0,0,87.54646,-21.80232,-87.92075,79.37691,-104.7803,-99.98798,0.001067912,-0.1257102,0.09433498,0,0.3,0,0,0.04844078,0,
6.38224E+17,47.4262,38.71431,6.653971,28.93805,5.175808,-15.59501,49.26388,0.9117499,-12.37405,-96.38443,-11.59733,14.36226,0,0,0,88.00148,-25.69967,-87.50273,79.37691,-104.7803,-99.98798,0.001067912,-0.1257102,0.09433498,0,0.3,0,0,0.04916789,0,
6.38224E+17,47.4262,34.43609,4.972968,29.30428,8.838067,-12.6652,49.26388,0.9117499,-12.37405,-96.38443,-11.59733,14.36226,0,0,0,89.50355,-34.09039,-86.12278,79.37691,-104.7803,-99.98798,0.001067912,-0.1257102,0.09433498,0,0.3,0,0,0.05074868,0,
6.38224E+17,47.4262,29.90072,3.898993,29.89024,12.50033,-10.02838,49.26388,0.9117499,-12.37405,-96.38443,-11.59733,14.36226,0,0,0,91.80585,-43.21656,-84.00764,79.37691,-104.7803,-99.98798,0.001067912,-0.1257102,0.09433498,0,0.3,0,0,0.0524556,0,
6.38224E+17,47.4262,27.86682,3.618826,30.25646,14.4047,-8.856454,49.26388,0.9117499,-12.37405,-96.38443,-11.59733,14.36226,0,0,0,93.01044,-47.40393,-82.90099,79.37691,-104.7803,-99.98798,0.001067912,-0.1257102,0.09433498,0,0.3,0,0,0.05336778,0,
6.38224E+17,47.4262,23.9159,3.548784,30.91567,17.92047,-6.585854,49.26388,0.9117499,-12.37405,-96.38443,-11.59733,14.36226,0,0,0,95.84693,-55.68483,-80.29509,79.37691,-104.7803,-99.98798,0.001067912,-0.1257102,0.09433498,0,0.3,0,0,0.05533631,0,
6.38224E+17,47.4262,20.97025,3.572132,31.57488,21.28975,-4.754725,49.26388,0.9117499,-12.37405,-96.38443,-11.59733,14.36226,0,0,0,97.81403,-62.01721,-78.48791,79.37691,-104.7803,-99.98798,0.001067912,-0.1257102,0.09433498,0,0.3,0,0,0.05748834,0,
6.38224E+17,47.4262,20.17539,3.572132,31.79461,23.04763,-4.022273,49.26388,0.9117499,-12.37405,-96.38443,-11.59733,14.36226,0,0,0,98.29274,-63.74916,-78.04811,79.37691,-104.7803,-99.98798,0.001067912,-0.1257102,0.09433498,0,0.3,0,0,0.05862057,0,
6.38224E+17,47.4262,20.54944,3.572132,31.9411,25.31823,-3.289821,49.26388,0.9117499,-12.37405,-96.38443,-11.59733,14.36226,0,0,0,98.06967,-62.933,-78.25305,79.37691,-104.7803,-99.98798,0.001067912,-0.1257102,0.09433498,0,0.3,0,0,0.06094185,0,
6.38224E+17,47.4262,22.46645,3.572132,31.79461,25.7577,-2.923595,49.26388,0.9117499,-12.37405,-96.38443,-11.59733,14.36226,0,0,0,96.86514,-58.78223,-79.35966,79.37691,-104.7803,-99.98798,0.001067912,-0.1257102,0.09433498,0,0.3,0,0,0.06324185,0,
6.38224E+17,47.4262,25.66927,3.712215,31.57488,24.80551,-2.85035,49.26388,0.9117499,-12.37405,-96.38443,-11.59733,14.36226,0,0,0,94.86638,-51.95623,-81.19592,79.37691,-104.7803,-99.98798,0.001067912,-0.1257102,0.09433498,0,0.3,0,0,0.06546436,0,
6.38224E+17,47.4262,27.79668,3.945688,31.42839,23.78008,-3.070086,49.26388,0.9117499,-12.37405,-96.38443,-11.59733,14.36226,0,0,0,93.62555,-47.49809,-82.33588,79.37691,-104.7803,-99.98798,0.001067912,-0.1257102,0.09433498,0,0.3,0,0,0.06652934,0,
6.38224E+17,47.4262,32.12165,4.856231,31.20865,21.07001,-4.242009,49.26388,0.9117499,-12.37405,-96.38443,-11.59733,14.36226,0,0,0,91.48067,-38.61663,-84.30639,79.37691,-104.7803,-99.98798,0.001067912,-0.1257102,0.09433498,0,0.3,0,0,0.06853341,0,
6.38224E+17,47.4262,37.17134,6.537234,30.98892,17.55424,-6.512609,49.26388,0.9117499,-12.37405,-96.38443,-11.59733,14.36226,0,0,0,89.42871,-28.56281,-86.19153,79.37691,-104.7803,-99.98798,0.001067912,-0.1257102,0.09433498,0,0.3,0,0,0.07035994,0,
6.38224E+17,47.4262,39.76632,7.681251,30.84243,15.57662,-8.197248,49.26388,0.9117499,-12.37405,-96.38443,-11.59733,14.36226,0,0,0,88.6078,-23.50505,-86.9457,79.37691,-104.7803,-99.98798,0.001067912,-0.1257102,0.09433498,0,0.3,0,0,0.07120075,0,
6.38224E+17,47.37908,44.79264,10.03932,30.62269,11.18191,-12.59196,49.26388,0.9117499,-12.37405,-96.38443,-11.59733,14.36226,0,0,0,86.74158,-14.00738,-88.52856,79.37691,-104.7803,-99.98798,0.001067912,-0.1257102,0.09433498,0,0.3,0,0,0.0727289,0,
6.38224E+17,47.14348,49.35139,12.42074,30.54945,6.640712,-18.0121,49.26388,0.8883717,-12.37405,-96.38443,-11.59733,14.36226,0,0,0,84.70406,-5.70371,-89.75783,79.37756,-104.8347,-99.98742,0.001067912,-0.1257102,0.09433498,0,0.3,0,0,0.07405984,0,
6.38224E+17,46.93144,51.22165,13.37798,30.54945,4.663092,-20.64893,49.26388,0.8883717,-12.37405,-96.38443,-11.59733,14.36226,0,0,0,83.55305,-2.425256,-90.24839,79.37756,-104.8347,-99.98742,0.001067912,-0.1257102,0.09433498,0,0.3,0,0,0.07465509,0,
6.38224E+17,46.17752,54.49459,14.9189,30.40295,0.707853,-25.6296,49.26388,0.8883717,-12.37405,-96.38443,-11.59733,14.36226,0,0,0,80.64668,3.050063,-90.95187,79.37756,-104.8347,-99.98742,0.001067912,-0.1257102,0.09433498,0,0.3,0,0,0.07572365,0,
6.38224E+17,44.9524,56.97268,15.8061,29.67051,-2.514934,-29.29186,49.26388,0.8883717,-12.37405,-96.38443,-11.59733,14.36226,0,0,0,77.01282,6.844174,-91.20913,79.37756,-104.8347,-99.98742,0.001067912,-0.1257102,0.09433498,0,0.3,0,0,0.07662413,0,
6.38224E+17,43.56237,58.63254,16.36643,28.42534,-5.00527,-31.6357,49.26388,0.8883717,-12.37405,-96.38443,-11.59733,14.36226,0,0,0,73.72961,9.263876,-90.82438,79.37756,-104.8347,-99.98742,0.001067912,-0.1257102,0.09433498,0,0.3,0,0,0.07737435,0,
6.38224E+17,42.73777,59.28712,16.59991,27.69288,-6.103948,-32.51464,49.26388,0.8883717,-12.37405,-96.38443,-11.59733,14.36226,0,0,0,72.07403,10.20362,-90.34736,79.37756,-104.8347,-99.98742,0.001067912,-0.1257102,0.09433498,0,0.3,0,0,0.07769892,0,
6.38224E+17,40.57025,60.15212,16.83338,25.78851,-8.081567,-33.54007,49.26388,0.8883717,-12.37405,-96.38443,-11.59733,14.36226,0,0,0,68.28008,11.37502,-88.60251,79.37756,-104.8347,-99.98742,0.001067912,-0.1257102,0.09433498,0,0.3,0,0,0.0782423,0,
6.38224E+17,37.9551,60.64306,16.83338,23.6644,-9.399981,-33.75981,49.26388,0.8883717,-12.37405,-96.38443,-11.59733,14.28902,0,0,0,63.95928,11.93944,-86.35348,79.37756,-104.8347,-99.98742,0.001067912,-0.1257102,0.09433498,0,0.3,0,0,0.07864742,0,
6.38224E+17,36.47082,60.73657,16.83338,22.27274,-9.985942,-33.83306,49.26388,0.8883717,-12.37405,-96.38443,-11.59733,14.36226,0,0,0,61.70109,12.04599,-84.87688,79.37756,-104.8347,-99.98742,0.001067912,-0.1257102,0.09433498,0,0.3,0,0,0.07881226,0,
6.38224E+17,33.38446,60.73657,16.83338,19.34294,-11.01137,-33.83306,49.26388,0.8883717,-12.37405,-96.38443,-11.59733,14.36226,0,0,0,57.11732,12.04599,-81.67591,79.37756,-104.8347,-99.98742,0.001067912,-0.1257102,0.09433498,0,0.3,0,0,0.07908702,0,
6.38224E+17,29.94471,60.7132,16.83338,15.68068,-11.96356,-33.46683,49.26388,0.8883717,-12.37405,-96.38443,-11.59733,14.36226,0,0,0,51.83775,12.01938,-78.36396,79.37756,-104.8347,-99.98742,0.001067912,-0.1257102,0.09433498,0,0.3,0,0,0.07930896,0,
6.38224E+17,28.10703,60.68982,16.83338,13.70306,-12.40303,-33.17385,49.26388,0.8883717,-12.37405,-96.38443,-11.59733,14.36226,0,0,0,48.94777,11.99276,-76.70605,79.37756,-104.8347,-99.98742,0.001067912,-0.1257102,0.09433498,0,0.3,0,0,0.07939999,0,
6.38224E+17,24.21964,60.50279,16.73999,9.308348,-13.28197,-32.36815,49.26388,0.8883717,-12.37405,-96.38443,-11.59733,14.36226,0,0,0,42.69228,11.71628,-73.44239,79.37756,-104.8347,-99.98742,0.001067912,-0.1257102,0.09433498,0,0.3,0,0,0.07954923,0,
6.38224E+17,20.49717,59.91833,16.34309,4.181186,-14.01443,-31.6357,49.26388,0.8883717,-12.37405,-96.38443,-11.59733,14.36226,0,0,0,36.54375,10.77748,-70.59457,79.37756,-104.8347,-99.98742,0.001067912,-0.1257102,0.09433498,0,0.3,0,0,0.07968182,0,
6.38224E+17,18.84797,59.47415,15.96953,1.54436,-14.08767,-31.26948,49.26388,0.8883717,-12.37405,-96.38443,-11.59733,14.36226,0,0,0,33.73378,10.01392,-69.52896,79.37756,-104.8347,-99.98742,0.001067912,-0.1257102,0.09433498,0,0.3,0,0,0.07976688,0,
6.38224E+17,16.35061,58.14159,14.82551,-3.582802,-13.86794,-30.68352,49.26388,0.8883717,-12.37405,-96.38443,-11.59733,14.36226,0,0,0,29.41999,7.700779,-68.07039,79.37756,-104.8347,-99.98742,0.001067912,-0.1257102,0.09433498,0,0.3,0,0,0.07998883,0,
6.38224E+17,14.96058,56.36485,13.33129,-7.611286,-12.98899,-30.02431,49.26388,0.8883717,-12.37405,-96.38443,-11.59733,14.36226,0,0,0,27.00575,4.618121,-67.28503,79.37756,-104.8347,-99.98742,0.001067912,-0.1257102,0.09433498,0,0.3,0,0,0.08029757,0,
6.38224E+17,14.72498,54.21405,11.65029,-10.17487,-11.89032,-29.3651,49.26388,0.8883717,-12.37405,-96.38443,-11.67058,14.36226,0,0,0,26.66495,0.9217131,-66.88947,79.37756,-104.8347,-99.98742,0.001067912,-0.1257102,0.09433498,0,0.3,0,0,0.0807321,0,
6.38224E+17,14.7721,53.18541,10.85648,-10.90732,-10.86488,-28.99888,49.26388,0.8883717,-12.37405,-96.38443,-11.67058,14.36226,0,0,0,26.77832,-0.8561234,-66.79788,79.37756,-104.8347,-99.98742,0.001067912,-0.1257102,0.09433498,0,0.3,0,0,0.08101683,0,
6.38224E+17,14.98414,51.01124,9.292212,-11.85951,-8.740773,-28.63265,49.26388,0.8883717,-12.37405,-96.38443,-11.59733,14.36226,0,0,0,27.25949,-4.601264,-66.50342,79.37756,-104.8347,-99.98742,0.001067912,-0.1257102,0.09433498,0,0.3,0,0,0.08174572,0,
6.38224E+17,15.43177,48.48639,7.517819,-12.15249,-6.250438,-28.41291,49.26388,0.8883717,-12.37405,-96.38443,-11.67058,14.36226,0,0,0,28.16062,-9.001494,-66.33453,79.37756,-104.8347,-99.98742,0.001067912,-0.1257102,0.09433498,0,0.3,0,0,0.08272798,0,
6.38224E+17,15.73805,47.29411,6.724013,-12.15249,-4.932025,-28.19318,49.26388,0.8883717,-12.37405,-96.38443,-11.59733,14.36226,0,0,0,28.76666,-11.09122,-66.26964,79.37756,-104.8347,-99.98742,0.001067912,-0.1257102,0.09433498,0,0.3,0,0,0.08333147,0,
6.38224E+17,16.72757,45.11993,5.439913,-11.71302,-2.441689,-27.24099,49.26388,0.8883717,-12.37405,-96.38443,-11.59733,14.36226,0,0,0,30.72117,-14.90956,-66.12974,79.37756,-104.8347,-99.98742,0.001067912,-0.1257102,0.09433498,0,0.3,0,0,0.08477055,0,
6.38224E+17,18.32965,43.34319,4.506022,-10.76083,-0.09784385,-25.84933,49.26388,0.8883717,-12.37405,-96.38443,-11.59733,14.36226,0,0,0,33.79317,-18.06082,-66.34599,79.37756,-104.8347,-99.98742,0.001067912,-0.1257102,0.09433498,0,0.3,0,0,0.08653869,0,
6.38224E+17,19.48409,42.45482,4.132466,-9.881886,1.000834,-25.04364,49.26388,0.8883717,-12.37405,-96.38443,-11.59733,14.36226,0,0,0,36.0217,-19.64091,-66.53801,79.37756,-104.8347,-99.98742,0.001067912,-0.1257102,0.09433498,0,0.3,0,0,0.0875375,0,
