zeyangz2/DNN_classification_different_people_hand/data/zeyang_right_1.csv
Timestamp,Therapist joint angle 0,Therapist joint angle 1,Therapist joint angle 2,Therapist joint angle 3,Therapist joint angle 4,Therapist joint angle 5,Patient joint angle 0,Patient joint angle 1,Patient joint angle 2,Patient joint angle 3,Patient joint angle 4,Patient joint angle 5,Virtual joint angle 0,Virtual joint angle 1,Virtual joint angle 2,Therapist position x,Therapist position y,Therapist position z,Patient position x,Patient position y,Patient position z,Virtual position x,Virtual position y,Virtual position z,Assistive Force, Obstacle Force Magnitude, Therapist Constant Force, Patient Constant Force, Recovery Factor, Assistance Level,label
6.38223E+17,0,0,0,0,0,0,0,0,0,0,0,0,0,0,0,0,0,0,0,0,0,0,0,0,0,0.3,0,0,0,0,0
6.38223E+17,11.42658,-0.9818845,-6.607276,-15.44852,-61.84352,-142.1627,-17.57573,-0.4441859,5.299829,-30.09755,-12.47628,15.24121,0,0,0,23.3746,-111.3994,-52.70184,-43.98536,-110.4637,-29.48654,0.001067912,0.1562898,0.241335,0,0.3,0,0,0,0,
6.38223E+17,11.42658,-0.9818845,-6.607276,-15.37527,-61.84352,-142.1627,-17.57573,-0.4441859,5.299829,-30.09755,-12.47628,15.24121,0,0,0,23.3746,-111.3994,-52.70184,-43.98536,-110.4637,-29.48654,0.001067912,0.1562898,0.241335,0,0.3,0,0,0,0,
6.38223E+17,11.42658,-0.9818845,-6.607276,-15.37527,-61.84352,-142.1627,-17.57573,-0.4441859,5.299829,-30.09755,-12.47628,15.24121,0,0,0,23.3746,-111.3994,-52.70184,-43.98536,-110.4637,-29.48654,0.001067912,0.1562898,0.241335,0,0.3,0,0,0,0,
6.38223E+17,11.42658,-0.9818845,-6.607276,-15.37527,-61.77028,-142.1627,-17.57573,-0.4441859,5.299829,-30.09755,-12.47628,15.24121,0,0,0,23.3746,-111.3994,-52.70184,-43.98536,-110.4637,-29.48654,0.001067912,0.1562898,0.241335,0,0.3,0,0,0,0,
6.38223E+17,11.42658,-0.9818845,-6.607276,-15.37527,-61.77028,-142.1627,-17.57573,-0.4441859,5.299829,-30.09755,-12.47628,15.24121,0,0,0,23.3746,-111.3994,-52.70184,-43.98536,-110.4637,-29.48654,0.001067912,0.1562898,0.241335,0,0.3,0,0,0,0,
6.38223E+17,11.42658,-0.9818845,-6.607276,-15.37527,-61.77028,-142.1627,-17.57573,-0.4441859,5.299829,-30.09755,-12.47628,15.24121,0,0,0,23.3746,-111.3994,-52.70184,-43.98536,-110.4637,-29.48654,0.001067912,0.1562898,0.241335,0,0.3,0,0,0,0,
6.38223E+17,11.42658,-0.9818845,-6.607276,-15.37527,-61.84352,-142.1627,-17.57573,-0.4441859,5.299829,-30.09755,-12.47628,15.24121,0,0,0,23.3746,-111.3994,-52.70184,-43.98536,-110.4637,-29.48654,0.001067912,0.1562898,0.241335,0,0.3,0,0,0,0,
6.38223E+17,11.42658,-0.9818845,-6.607276,-15.37527,-61.84352,-142.1627,-17.57573,-0.4441859,5.299829,-30.09755,-12.47628,15.24121,0,0,0,23.3746,-111.3994,-52.70184,-43.98536,-110.4637,-29.48654,0.001067912,0.1562898,0.241335,0,0.3,0,0,0,0,
6.38223E+17,11.42658,-0.9818845,-6.607276,-15.37527,-61.84352,-142.1627,-17.57573,-0.4441859,5.299829,-30.09755,-12.47628,15.24121,0,0,0,23.3746,-111.3994,-52.70184,-43.98536,-110.4637,-29.48654,0.001067912,0.1562898,0.241335,0,0.3,0,0,0,0,
6.38223E+17,11.42658,-0.9818845,-6.607276,-15.37527,-61.84352,-142.1627,-17.57573,-0.4441859,5.299829,-30.09755,-12.47628,15.24121,0,0,0,23.3746,-111.3994,-52.70184,-43.98536,-110.4637,-29.48654,0.001067912,0.1562898,0.241335,0,0.3,0,0,0,0,
6.38223E+17,11.42658,-0.9818845,-6.607276,-15.44852,-61.84352,-142.1627,-17.57573,-0.4441859,5.299829,-30.09755,-12.47628,15.24121,0,0,0,23.3746,-111.3994,-52.70184,-43.98536,-110.4637,-29.48654,0.001067912,0.1562898,0.241335,0,0.3,0,0,0,0,
6.38223E+17,11.42658,-0.9818845,-6.607276,-15.44852,-61.84352,-142.1627,-17.57573,-0.4441859,5.299829,-30.09755,-12.47628,15.24121,0,0,0,23.3746,-111.3994,-52.70184,-43.98536,-110.4637,-29.48654,0.001067912,0.1562898,0.241335,0,0.3,0,0,0,0,
6.38223E+17,11.42658,-0.9818845,-6.607276,-15.44852,-61.77028,-142.1627,-17.57573,-0.4441859,5.299829,-30.09755,-12.47628,15.24121,0,0,0,23.3746,-111.3994,-52.70184,-43.98536,-110.4637,-29.48654,0.001067912,0.1562898,0.241335,0,0.3,0,0,0,0,
6.38223E+17,11.42658,-0.9818845,-6.607276,-15.44852,-61.84352,-142.1627,-17.57573,-0.4441859,5.299829,-30.09755,-12.47628,15.24121,0,0,0,23.3746,-111.3994,-52.70184,-43.98536,-110.4637,-29.48654,0.001067912,0.1562898,0.241335,0,0.3,0,0,0,0,
6.38223E+17,11.42658,-0.9818845,-6.607276,-15.44852,-61.77028,-142.1627,-17.57573,-0.4441859,5.299829,-30.09755,-12.47628,15.24121,0,0,0,23.3746,-111.3994,-52.70184,-43.98536,-110.4637,-29.48654,0.001067912,0.1562898,0.241335,0,0.3,0,0,0,0,
6.38223E+17,11.42658,-0.9818845,-6.607276,-15.37527,-61.77028,-142.1627,-17.57573,-0.4441859,5.299829,-30.09755,-12.47628,15.24121,0,0,0,23.3746,-111.3994,-52.70184,-43.98536,-110.4637,-29.48654,0.001067912,0.1562898,0.241335,0,0.3,0,0,0,0,
6.38223E+17,11.42658,-0.9818845,-6.607276,-15.37527,-61.84352,-142.1627,-17.57573,-0.4441859,5.299829,-30.09755,-12.47628,15.24121,0,0,0,23.3746,-111.3994,-52.70184,-43.98536,-110.4637,-29.48654,0.001067912,0.1562898,0.241335,0,0.3,0,0,0,0,
6.38223E+17,11.42658,-0.9818845,-6.607276,-15.37527,-61.84352,-142.1627,-17.57573,-0.4441859,5.299829,-30.09755,-12.47628,15.24121,0,0,0,23.3746,-111.3994,-52.70184,-43.98536,-110.4637,-29.48654,0.001067912,0.1562898,0.241335,0,0.3,0,0,0,0,
6.38223E+17,11.42658,-0.9818845,-6.607276,-15.37527,-61.84352,-142.1627,-17.57573,-0.4441859,5.299829,-30.09755,-12.47628,15.24121,0,0,0,23.3746,-111.3994,-52.70184,-43.98536,-110.4637,-29.48654,0.001067912,0.1562898,0.241335,0,0.3,0,0,0,0,
6.38223E+17,11.42658,-0.9818845,-6.607276,-15.44852,-61.84352,-142.1627,-17.57573,-0.4441859,5.299829,-30.09755,-12.54952,15.24121,0,0,0,23.3746,-111.3994,-52.70184,-43.98536,-110.4637,-29.48654,0.001067912,0.1562898,0.241335,0,0.3,0,0,0,0,
6.38223E+17,11.42658,-0.9818845,-6.607276,-15.44852,-61.84352,-142.1627,-17.57573,-0.4441859,5.299829,-30.09755,-12.47628,15.24121,0,0,0,23.3746,-111.3994,-52.70184,-43.98536,-110.4637,-29.48654,0.001067912,0.1562898,0.241335,0,0.3,0,0,0,0,
6.38223E+17,11.42658,-0.9818845,-6.607276,-15.44852,-61.84352,-142.1627,-17.57573,-0.4441859,5.299829,-30.09755,-12.47628,15.24121,0,0,0,23.3746,-111.3994,-52.70184,-43.98536,-110.4637,-29.48654,0.001067912,0.1562898,0.241335,0,0.3,0,0,0,0,
6.38223E+17,11.42658,-0.9818845,-6.607276,-15.44852,-61.84352,-142.1627,-17.57573,-0.4441859,5.299829,-30.09755,-12.47628,15.24121,0,0,0,23.3746,-111.3994,-52.70184,-43.98536,-110.4637,-29.48654,0.001067912,0.1562898,0.241335,0,0.3,0,0,0,0,
6.38223E+17,11.42658,-0.9818845,-6.607276,-15.44852,-61.77028,-142.1627,-17.57573,-0.4441859,5.299829,-30.09755,-12.47628,15.24121,0,0,0,23.3746,-111.3994,-52.70184,-43.98536,-110.4637,-29.48654,0.001067912,0.1562898,0.241335,0,0.3,0,0,0,0,
6.38223E+17,11.42658,-0.9818845,-6.607276,-15.37527,-61.84352,-142.1627,-17.57573,-0.4441859,5.299829,-30.09755,-12.47628,15.24121,0,0,0,23.3746,-111.3994,-52.70184,-43.98536,-110.4637,-29.48654,0.001067912,0.1562898,0.241335,0,0.3,0,0,0,0,
6.38223E+17,11.42658,-0.9818845,-6.607276,-15.37527,-61.84352,-142.1627,-17.57573,-0.4441859,5.299829,-30.09755,-12.47628,15.24121,0,0,0,23.3746,-111.3994,-52.70184,-43.98536,-110.4637,-29.48654,0.001067912,0.1562898,0.241335,0,0.3,0,0,0,0,
6.38223E+17,11.42658,-0.9818845,-6.607276,-15.37527,-61.84352,-142.1627,-17.57573,-0.4441859,5.299829,-30.09755,-12.47628,15.24121,0,0,0,23.3746,-111.3994,-52.70184,-43.98536,-110.4637,-29.48654,0.001067912,0.1562898,0.241335,0,0.3,0,0,0,0,
6.38223E+17,11.42658,-0.9818845,-6.607276,-15.37527,-61.84352,-142.1627,-17.57573,-0.4441859,5.299829,-30.09755,-12.47628,15.24121,0,0,0,23.3746,-111.3994,-52.70184,-43.98536,-110.4637,-29.48654,0.001067912,0.1562898,0.241335,0,0.3,0,0,0,0,
6.38223E+17,11.42658,-0.9818845,-6.607276,-15.44852,-61.84352,-142.1627,-17.57573,-0.4441859,5.299829,-30.09755,-12.47628,15.24121,0,0,0,23.3746,-111.3994,-52.70184,-43.98536,-110.4637,-29.48654,0.001067912,0.1562898,0.241335,0,0.3,0,0,0,0,
6.38223E+17,11.42658,-0.9818845,-6.607276,-15.44852,-61.84352,-142.1627,-17.57573,-0.4441859,5.299829,-30.09755,-12.47628,15.24121,0,0,0,23.3746,-111.3994,-52.70184,-43.98536,-110.4637,-29.48654,0.001067912,0.1562898,0.241335,0,0.3,0,0,0,0,
6.38223E+17,11.42658,-0.9818845,-6.607276,-15.44852,-61.77028,-142.1627,-17.57573,-0.4441859,5.299829,-30.09755,-12.54952,15.24121,0,0,0,23.3746,-111.3994,-52.70184,-43.98536,-110.4637,-29.48654,0.001067912,0.1562898,0.241335,0,0.3,0,0,0,0,
6.38223E+17,11.42658,-0.9818845,-6.607276,-15.44852,-61.84352,-142.1627,-17.57573,-0.4441859,5.299829,-30.09755,-12.47628,15.24121,0,0,0,23.3746,-111.3994,-52.70184,-43.98536,-110.4637,-29.48654,0.001067912,0.1562898,0.241335,0,0.3,0,0,0,0,
6.38223E+17,11.42658,-0.9818845,-6.607276,-15.37527,-61.77028,-142.1627,-17.57573,-0.4441859,5.299829,-30.09755,-12.47628,15.24121,0,0,0,23.3746,-111.3994,-52.70184,-43.98536,-110.4637,-29.48654,0.001067912,0.1562898,0.241335,0,0.3,0,0,0,0,
6.38223E+17,11.42658,-0.9818845,-6.607276,-15.44852,-61.77028,-142.1627,-17.57573,-0.4441859,5.299829,-30.09755,-12.47628,15.24121,0,0,0,23.3746,-111.3994,-52.70184,-43.98536,-110.4637,-29.48654,0.001067912,0.1562898,0.241335,0,0.3,0,0,0,0,
6.38223E+17,11.42658,-0.9818845,-6.607276,-15.37527,-61.77028,-142.1627,-17.57573,-0.4441859,5.299829,-30.02431,-12.47628,15.24121,0,0,0,23.3746,-111.3994,-52.70184,-43.98536,-110.4637,-29.48654,0.001067912,0.1562898,0.241335,0,0.3,0,0,0,0,
6.38223E+17,11.42658,-0.9818845,-6.607276,-15.37527,-61.84352,-142.2359,-17.57573,-0.4441859,5.299829,-30.09755,-12.47628,15.24121,0,0,0,23.3746,-111.3994,-52.70184,-43.98536,-110.4637,-29.48654,0.001067912,0.1562898,0.241335,0,0.3,0,0,0,0,
6.38223E+17,11.42658,-0.9818845,-6.607276,-15.37527,-61.77028,-142.2359,-17.57573,-0.4441859,5.299829,-30.09755,-12.47628,15.24121,0,0,0,23.3746,-111.3994,-52.70184,-43.98536,-110.4637,-29.48654,0.001067912,0.1562898,0.241335,0,0.3,0,0,0,0,
6.38223E+17,11.42658,-0.9818845,-6.607276,-15.44852,-61.84352,-142.1627,-17.57573,-0.4441859,5.299829,-30.09755,-12.54952,15.24121,0,0,0,23.3746,-111.3994,-52.70184,-43.98536,-110.4637,-29.48654,0.001067912,0.1562898,0.241335,0,0.3,0,0,0,0,
6.38223E+17,11.42658,-0.9818845,-6.607276,-15.44852,-61.84352,-142.1627,-17.57573,-0.4441859,5.299829,-30.09755,-12.47628,15.24121,0,0,0,23.3746,-111.3994,-52.70184,-43.98536,-110.4637,-29.48654,0.001067912,0.1562898,0.241335,0,0.3,0,0,0,0,
6.38223E+17,11.42658,-0.9818845,-6.607276,-15.44852,-61.84352,-142.1627,-17.57573,-0.4441859,5.299829,-30.09755,-12.47628,15.24121,0,0,0,23.3746,-111.3994,-52.70184,-43.98536,-110.4637,-29.48654,0.001067912,0.1562898,0.241335,0,0.3,0,0,0,0,
6.38223E+17,11.42658,-0.9818845,-6.607276,-15.44852,-61.84352,-142.1627,-17.57573,-0.4441859,5.299829,-30.09755,-12.47628,15.24121,0,0,0,23.3746,-111.3994,-52.70184,-43.98536,-110.4637,-29.48654,0.001067912,0.1562898,0.241335,0,0.3,0,0,0,0,
6.38223E+17,11.42658,-0.9818845,-6.607276,-15.44852,-61.77028,-142.1627,-17.57573,-0.4441859,5.299829,-30.09755,-12.47628,15.24121,0,0,0,23.3746,-111.3994,-52.70184,-43.98536,-110.4637,-29.48654,0.001067912,0.1562898,0.241335,0,0.3,0,0,0,0,
6.38223E+17,11.42658,-0.9818845,-6.607276,-15.44852,-61.77028,-142.1627,-17.57573,-0.4441859,5.299829,-30.09755,-12.47628,15.24121,0,0,0,23.3746,-111.3994,-52.70184,-43.98536,-110.4637,-29.48654,0.001067912,0.1562898,0.241335,0,0.3,0,0,0,0,
6.38223E+17,11.42658,-0.9818845,-6.607276,-15.44852,-61.84352,-142.1627,-17.57573,-0.4441859,5.299829,-30.09755,-12.47628,15.24121,0,0,0,23.3746,-111.3994,-52.70184,-43.98536,-110.4637,-29.48654,0.001067912,0.1562898,0.241335,0,0.3,0,0,0,0,
6.38223E+17,11.42658,-0.9818845,-6.607276,-15.37527,-61.84352,-142.2359,-17.57573,-0.4441859,5.299829,-30.09755,-12.47628,15.24121,0,0,0,23.3746,-111.3994,-52.70184,-43.98536,-110.4637,-29.48654,0.001067912,0.1562898,0.241335,0,0.3,0,0,0,0,
6.38223E+17,11.45014,-0.9818845,-6.630623,-15.37527,-61.77028,-140.2583,-17.57573,-0.4441859,5.299829,-30.09755,-12.47628,15.24121,0,0,0,23.41143,-111.3932,-52.76437,-43.98536,-110.4637,-29.48654,0.001067912,0.1562898,0.241335,0,0.3,0,0,0,0,
6.38223E+17,11.52082,-0.9818845,-6.630623,-16.18097,-61.3308,-130.5899,-17.57573,-0.4441859,5.299829,-30.09755,-12.47628,15.24121,0,0,0,23.554,-111.3932,-52.79333,-43.98536,-110.4637,-29.48654,0.001067912,0.1562898,0.241335,0,0.3,0,0,0,0,
6.38223E+17,11.52082,-0.9818845,-6.630623,-19.40376,-59.27994,-114.9155,-17.57573,-0.4441859,5.299829,-30.09755,-12.47628,15.24121,0,0,0,23.554,-111.3932,-52.79333,-43.98536,-110.4637,-29.48654,0.001067912,0.1562898,0.241335,0,0.3,0,0,0,0,
6.38223E+17,11.45014,-0.8883717,-6.653971,-21.82085,-56.1304,-113.3773,-17.57573,-0.4441859,5.299829,-30.09755,-12.47628,15.24121,0,0,0,23.40143,-111.1693,-52.81379,-43.98536,-110.4637,-29.48654,0.001067912,0.1562898,0.241335,0,0.3,0,0,0,0,
6.38223E+17,11.3559,-0.7013461,-6.724013,-21.89409,-54.81199,-114.769,-17.57573,-0.4441859,5.299829,-30.09755,-12.47628,15.24121,0,0,0,23.18067,-110.715,-52.92826,-43.98536,-110.4637,-29.48654,0.001067912,0.1562898,0.241335,0,0.3,0,0,0,0,
6.38223E+17,10.8847,0.233782,-7.471125,-20.64893,-50.85675,-114.9155,-17.57573,-0.4441859,5.299829,-30.09755,-12.47628,15.24121,0,0,0,21.90652,-108.3238,-54.42726,-43.98536,-110.4637,-29.48654,0.001067912,0.1562898,0.241335,0,0.3,0,0,6.69E-05,0,
6.38223E+17,10.20146,0.7948589,-8.218237,-18.96429,-46.09581,-111.3264,-17.57573,-0.4441859,5.299829,-30.09755,-12.47628,15.24121,0,0,0,20.23933,-106.7807,-55.88099,-43.98536,-110.4637,-29.48654,0.001067912,0.1562898,0.241335,0,0.3,0,0,0.000513413,0,
6.38223E+17,9.494664,0.8416153,-8.685184,-17.2064,-39.86997,-107.005,-17.57573,-0.4441859,5.299829,-30.09755,-12.47628,15.24121,0,0,0,18.67284,-106.5122,-56.70164,-43.98536,-110.4637,-29.48654,0.001067912,0.1562898,0.241335,0,0.3,0,0,0.00128455,0,
6.38223E+17,9.259066,0.8182371,-8.70853,-16.40071,-36.13447,-105.9795,-17.57573,-0.4441859,5.299829,-30.09755,-12.47628,15.24121,0,0,0,18.20507,-106.5584,-56.67804,-43.98536,-110.4637,-29.48654,0.001067912,0.1562898,0.241335,0,0.3,0,0,0.0017637,0,
6.38223E+17,9.094145,0.7247244,-8.661836,-15.08229,-28.00425,-104.8076,-17.57573,-0.4441859,5.299829,-30.09755,-12.47628,15.24121,0,0,0,17.901,-106.7924,-56.51713,-43.98536,-110.4637,-29.48654,0.001067912,0.1562898,0.241335,0,0.3,0,0,0.002784744,0,
6.38223E+17,9.164824,0.4208077,-8.334974,-13.03143,-19.72755,-103.0497,-17.57573,-0.4441859,5.299829,-30.09755,-12.47628,15.24121,0,0,0,18.15991,-107.6121,-55.78954,-43.98536,-110.4637,-29.48654,0.001067912,0.1562898,0.241335,0,0.3,0,0,0.003791869,0,
6.38223E+17,9.164824,0.2571602,-8.28828,-11.42003,-14.82012,-101.6581,-17.57573,-0.4441859,5.299829,-30.09755,-12.47628,15.24121,0,0,0,18.17739,-108.0087,-55.68115,-43.98536,-110.4637,-29.48654,0.001067912,0.1562898,0.241335,0,0.3,0,0,0.00429072,0,
6.38223E+17,9.164824,0.2104038,-8.28828,-8.490229,-6.909645,-100.6326,-17.57573,-0.4441859,5.299829,-30.09755,-12.47628,15.24121,0,0,0,18.17747,-108.1175,-55.68071,-43.98536,-110.4637,-29.48654,0.001067912,0.1562898,0.241335,0,0.3,0,0,0.005259513,0,
6.38223E+17,9.164824,0.1636474,-8.475058,-5.780157,1.440305,-100.3397,-17.57573,-0.4441859,5.299829,-30.09755,-12.47628,15.24121,0,0,0,18.10902,-108.163,-56.10493,-43.98536,-110.4637,-29.48654,0.001067912,0.1562898,0.241335,0,0.3,0,0,0.006173057,0,
6.38223E+17,9.164824,-0.0233782,-9.198823,-3.509557,8.325351,-97.92258,-17.57573,-0.4441859,5.299829,-30.09755,-12.47628,15.24121,0,0,0,17.844,-108.3395,-57.74764,-43.98536,-110.4637,-29.48654,0.001067912,0.1562898,0.241335,0,0.3,0,0,0.006969035,0,
6.38223E+17,9.164824,-0.2104038,-9.852547,-2.557369,11.54814,-95.21251,-17.57573,-0.4441859,5.299829,-30.09755,-12.47628,15.24121,0,0,0,17.60487,-108.523,-59.22985,-43.98536,-110.4637,-29.48654,0.001067912,0.1562898,0.241335,0,0.3,0,0,0.007280937,0,
6.38223E+17,9.164824,-0.7013461,-10.64635,-0.7994855,17.40775,-90.59806,-17.57573,-0.4441859,5.299829,-30.09755,-12.47628,15.24121,0,0,0,17.31385,-109.3368,-61.03363,-43.98536,-110.4637,-29.48654,0.001067912,0.1562898,0.241335,0,0.3,0,0,0.007774114,0,
6.38223E+17,9.164824,-0.8649935,-10.69305,0.6654179,22.0222,-88.47395,-17.57573,-0.4441859,5.299829,-30.09755,-12.47628,15.24121,0,0,0,17.29601,-109.6975,-61.1442,-43.98536,-110.4637,-29.48654,0.001067912,0.1562898,0.241335,0,0.3,0,0,0.008217287,0,
6.38223E+17,9.164824,-0.8649935,-10.69305,1.178134,23.78008,-87.66826,-17.57573,-0.4441859,5.299829,-30.09755,-12.47628,15.24121,0,0,0,17.29601,-109.6975,-61.1442,-43.98536,-110.4637,-29.48654,0.001067912,0.1562898,0.241335,0,0.3,0,0,0.008432824,0,
6.38223E+17,9.188385,-0.8883717,-10.97322,1.178134,25.46472,-86.05686,-17.57573,-0.4441859,5.299829,-30.09755,-12.47628,15.24121,0,0,0,17.2377,-109.6294,-61.78437,-43.98536,-110.4637,-29.48654,0.001067912,0.1562898,0.241335,0,0.3,0,0,0.008809934,0,
6.38223E+17,9.188385,-1.005263,-12.04719,0.3724372,26.70989,-83.78626,-17.57573,-0.4441859,5.299829,-30.09755,-12.47628,15.24121,0,0,0,16.84588,-109.4026,-64.20663,-43.98536,-110.4637,-29.48654,0.001067912,0.1562898,0.241335,0,0.3,0,0,0.009006091,0,
6.38223E+17,9.235504,-0.9818845,-12.72426,-0.7262403,28.834,-85.39766,-17.57573,-0.4441859,5.299829,-30.09755,-12.47628,15.24121,0,0,0,16.68465,-109.0102,-65.73877,-43.98536,-110.4637,-29.48654,0.001067912,0.1562898,0.241335,0,0.3,0,0,0.009008768,0,
6.38223E+17,9.282625,-0.9351282,-12.72426,-1.312202,29.71294,-86.71607,-17.57573,-0.4441859,5.299829,-30.09755,-12.54952,15.24121,0,0,0,16.76933,-108.9014,-65.75072,-43.98536,-110.4637,-29.48654,0.001067912,0.1562898,0.241335,0,0.3,0,0,0.008989708,0,
6.38223E+17,9.683144,-0.4208077,-12.70091,-2.777105,31.54407,-87.7415,-17.57573,-0.4441859,5.299829,-30.09755,-12.47628,15.24121,0,0,0,17.49742,-107.7164,-65.80424,-43.98536,-110.4637,-29.48654,0.001067912,0.1562898,0.241335,0,0.3,0,0,0.008837345,0,
6.38223E+17,10.62554,1.098776,-12.37405,-4.168763,32.78923,-87.15554,-17.57573,-0.4441859,5.299829,-30.09755,-12.47628,15.24121,0,0,0,19.31471,-104.3451,-65.3966,-43.98536,-110.4637,-29.48654,0.001067912,0.1562898,0.241335,0,0.3,0,0,0.008374898,0,
6.38223E+17,11.63862,3.015788,-11.69698,-4.97446,33.3752,-87.37527,-17.57573,-0.4441859,5.299829,-30.09755,-12.47628,15.24121,0,0,0,21.41058,-100.2151,-64.40158,-43.98536,-110.4637,-29.48654,0.001067912,0.1562898,0.241335,0,0.3,0,0,0.007543693,0,
6.38223E+17,12.0627,4.044429,-11.30008,-5.194195,33.3752,-87.88799,-17.57573,-0.4441859,5.299829,-30.09755,-12.47628,15.24121,0,0,0,22.33773,-98.00976,-63.82183,-43.98536,-110.4637,-29.48654,0.001067912,0.1562898,0.241335,0,0.3,0,0,0.006978029,0,
6.38223E+17,12.74594,7.013461,-10.15606,-5.413931,32.78923,-90.81779,-17.57573,-0.4441859,5.299829,-30.09755,-12.47628,15.24121,0,0,0,24.01288,-91.62818,-62.19339,-43.98536,-110.4637,-29.48654,0.001067912,0.1562898,0.241335,0,0.3,0,0,0.005531157,0,
6.38223E+17,13.07578,10.28641,-8.381668,-5.706912,31.39758,-94.5533,-17.57573,-0.4441859,5.299829,-30.09755,-12.47628,15.24121,0,0,0,25.28651,-84.76353,-59.47922,-43.98536,-110.4637,-29.48654,0.001067912,0.1562898,0.241335,0,0.3,0,0,0.00371028,0,
6.38223E+17,13.19358,13.67625,-6.350456,-6.439363,29.27347,-98.21556,-17.57573,-0.4441859,5.299829,-30.09755,-12.47628,15.24121,0,0,0,26.20657,-77.6531,-56.56135,-43.98536,-110.4637,-29.48654,0.001067912,0.1562898,0.241335,0,0.3,0,0,0.001441197,0,
6.38223E+17,13.26426,15.73353,-5.066357,-7.025325,27.73532,-100.2664,-17.57573,-0.4441859,5.299829,-30.09755,-12.47628,15.24121,0,0,0,26.7479,-73.31932,-54.88229,-43.98536,-110.4637,-29.48654,0.001067912,0.1562898,0.241335,0,0.3,0,0,8.27E-05,0,
6.38223E+17,13.40562,19.42729,-2.544852,-8.050756,24.87876,-102.9765,-17.57573,-0.4441859,5.299829,-30.09755,-12.54952,15.24121,0,0,0,27.78333,-65.5149,-51.77847,-43.98536,-110.4637,-29.48654,0.001067912,0.1562898,0.241335,0,0.3,0,0,0,0,
6.38223E+17,13.49986,23.96266,0.5836816,-8.929699,21.28975,-104.5146,-17.57573,-0.4441859,5.299829,-30.09755,-12.47628,15.24121,0,0,0,28.76368,-55.83416,-48.53933,-43.98536,-110.4637,-29.48654,0.001067912,0.1562898,0.241335,0,0.3,0,0,0,0,
6.38223E+17,13.49986,25.90305,1.984518,-9.22268,19.82484,-104.8809,-17.57573,-0.4441859,5.299829,-30.09755,-12.47628,15.24121,0,0,0,29.08017,-51.66612,-47.22106,-43.98536,-110.4637,-29.48654,0.001067912,0.1562898,0.241335,0,0.3,0,0,0,0,
6.38223E+17,13.66478,31.11639,6.093637,-9.881886,15.64987,-105.9063,-17.57573,-0.4441859,5.299829,-30.09755,-12.47628,15.24121,0,0,0,30.31421,-40.33416,-43.66304,-43.98536,-110.4637,-29.48654,0.001067912,0.1562898,0.241335,0,0.3,0,0,0,0,
6.38223E+17,13.80614,36.18946,10.55296,-10.3946,11.18191,-106.7852,-17.57573,-0.4441859,5.299829,-30.09755,-12.47628,15.24121,0,0,0,31.51087,-29.00706,-40.12,-43.98536,-110.4637,-29.48654,0.001067912,0.1562898,0.241335,0,0.3,0,0,0,0,
6.38223E+17,13.80614,41.0755,15.38585,-10.83407,6.274486,-107.005,-17.57573,-0.4441859,5.299829,-30.09755,-12.47628,15.24121,0,0,0,32.4321,-17.60285,-36.37118,-43.98536,-110.4637,-29.48654,0.001067912,0.1562898,0.241335,0,0.3,0,0,0,0,
6.38223E+17,13.80614,43.9744,18.53773,-11.05381,3.198189,-107.005,-17.57573,-0.4441859,5.299829,-30.09755,-12.47628,15.24121,0,0,0,33.01816,-10.49124,-33.98625,-43.98536,-110.4637,-29.48654,0.001067912,0.1562898,0.241335,0,0.3,0,0,0,0,
6.38223E+17,13.68834,48.93058,24.42124,-11.56653,-2.88116,-106.7852,-17.57573,-0.4441859,5.299829,-30.02431,-12.47628,15.24121,0,0,0,33.77801,2.465213,-29.66436,-43.98536,-110.4637,-29.48654,0.001067912,0.1562898,0.241335,0,0.3,0,0,0,0,
6.38223E+17,13.21714,53.27893,30.65496,-12.07924,-9.839451,-105.9795,-17.57573,-0.4441859,5.299829,-30.09755,-12.47628,15.24121,0,0,0,33.77578,15.52268,-24.53973,-43.98536,-110.4637,-29.48654,0.001067912,0.1562898,0.241335,0,0.3,0,0,0,0,
6.38223E+17,12.98154,54.68162,33.05973,-12.44547,-12.62277,-105.1006,-17.57573,-0.4441859,5.299829,-30.09755,-12.54952,15.24121,0,0,0,33.65881,20.39627,-22.34306,-43.98536,-110.4637,-29.48654,0.001067912,0.1562898,0.241335,0,0.3,0,0,0,0,
6.38223E+17,12.25118,57.32335,38.73312,-13.54414,-18.77536,-102.3905,-17.57573,-0.4441859,5.299829,-30.09755,-12.47628,15.24121,0,0,0,32.98223,31.57263,-16.45814,-43.98536,-110.4637,-29.48654,0.001067912,0.1562898,0.241335,0,0.3,0,0,0,0,
6.38223E+17,11.07318,58.93645,43.79947,-15.7415,-24.48849,-98.36205,-17.57573,-0.4441859,5.299829,-30.09755,-12.47628,15.24121,0,0,0,30.94196,41.32943,-10.24585,-43.98536,-110.4637,-29.48654,0.001067912,0.1562898,0.241335,0,0.3,0,0,0,0,
6.38223E+17,9.329745,59.54428,48.67905,-19.40376,-30.05512,-92.50243,-17.57573,-0.4441859,5.299829,-30.09755,-12.47628,15.24121,0,0,0,27.19341,50.25267,-2.828621,-43.98536,-110.4637,-29.48654,0.001067912,0.1562898,0.241335,0,0.3,0,0,0,0,
6.38223E+17,8.363786,59.5209,50.87369,-21.60111,-32.32572,-88.76694,-17.57573,-0.4441859,5.299829,-30.09755,-12.47628,15.24121,0,0,0,24.8857,54.12481,0.9158903,-43.98536,-110.4637,-29.48654,0.001067912,0.1562898,0.241335,0,0.3,0,0,0,0,
6.38223E+17,6.45543,59.07672,54.67929,-27.02126,-35.91473,-81.36917,-17.57573,-0.4441859,5.299829,-30.09755,-12.47628,15.24121,0,0,0,19.93741,60.64848,7.85696,-43.98536,-110.4637,-29.48654,0.001067912,0.1562898,0.241335,0,0.3,0,0,0,0,
6.38223E+17,4.476392,58.04808,57.76114,-34.56551,-38.47831,-73.45869,-17.57573,-0.4441859,5.299829,-30.09755,-12.47628,15.24121,0,0,0,14.31106,65.36089,14.45212,-43.98536,-110.4637,-29.48654,0.001067912,0.1562898,0.241335,0,0.3,0,0,0,0,
6.38223E+17,2.780076,56.64539,59.97913,-42.40274,-39.79673,-65.98769,-17.57573,-0.4441859,5.299829,-30.09755,-12.47628,15.24121,0,0,0,9.15622,68.01801,20.20641,-43.98536,-110.4637,-29.48654,0.001067912,0.1562898,0.241335,0,0.3,0,0,0,0,
6.38223E+17,1.837677,55.73364,60.84298,-46.13824,-40.2362,-62.39867,-17.57573,-0.4441859,5.299829,-30.09755,-12.47628,15.24121,0,0,0,6.142129,68.58555,23.08593,-43.98536,-110.4637,-29.48654,0.001067912,0.1562898,0.241335,0,0.3,0,0,0,0,
6.38223E+17,0,53.81662,62.19712,-52.65706,-40.08971,-56.90528,-17.57573,-0.4441859,5.299829,-30.09755,-12.47628,15.24121,0,0,0,0,68.78241,28.33178,-43.98536,-110.4637,-29.48654,0.001067912,0.1562898,0.241335,0,0.3,0,0,0,0,
6.38223E+17,-1.837677,51.50218,63.50457,-58.37019,-39.21077,-52.21759,-17.57573,-0.4441859,5.299829,-30.09755,-12.47628,15.24121,0,0,0,-6.489046,68.22298,33.89852,-43.98536,-110.4637,-29.48654,0.001067912,0.1562898,0.241335,0,0.3,0,0,0,0,
6.38223E+17,-2.568036,50.49692,63.97151,-60.42105,-38.69805,-50.67944,-17.57573,-0.4441859,5.299829,-30.09755,-12.47628,15.24121,0,0,0,-9.169556,67.72519,36.09614,-43.98536,-110.4637,-29.48654,0.001067912,0.1562898,0.241335,0,0.3,0,0,0,0,
6.38223E+17,-4.311473,48.01883,64.9521,-64.2298,-37.45288,-47.5299,-17.57573,-0.4441859,5.299829,-30.09755,-12.47628,15.24121,0,0,0,-15.78784,66.0205,41.06068,-43.98536,-110.4637,-29.48654,0.001067912,0.1562898,0.241335,0,0.3,0,0,0,0,
6.38223E+17,-6.19627,45.07318,65.69921,-67.3061,-35.695,-44.6001,-17.57573,-0.4441859,5.299829,-30.09755,-12.47628,15.24121,0,0,0,-23.28226,62.88591,46.09689,-43.98536,-110.4637,-29.48654,0.001067912,0.1562898,0.241335,0,0.3,0,0,0,0,
6.38223E+17,-7.916147,42.40806,65.7459,-69.28372,-34.01036,-42.69572,-17.57573,-0.4441859,5.299829,-30.09755,-12.47628,15.24121,0,0,0,-30.30471,58.50402,49.59309,-43.98536,-110.4637,-29.48654,0.001067912,0.1562898,0.241335,0,0.3,0,0,0,0,
6.38223E+17,-8.929225,40.8651,65.65251,-70.01617,-32.98492,-42.18301,-17.57573,-0.4441859,5.299829,-30.09755,-12.47628,15.24121,0,0,0,-34.50978,55.62212,51.29179,-43.98536,-110.4637,-29.48654,0.001067912,0.1562898,0.241335,0,0.3,0,0,0,0,
6.38223E+17,-10.81402,37.80256,65.27895,-70.96836,-30.71432,-41.59705,-17.57573,-0.4441859,5.299829,-30.09755,-12.47628,15.24121,0,0,0,-42.49493,49.31878,54.12042,-43.98536,-110.4637,-29.48654,0.001067912,0.1562898,0.241335,0,0.3,0,0,0,0,
6.38223E+17,-12.55746,34.6465,64.76532,-71.48107,-28.44372,-41.37731,-17.57573,-0.4441859,5.299829,-30.09755,-12.47628,15.24121,0,0,0,-50.0776,42.31031,56.46824,-43.98536,-110.4637,-29.48654,0.001067912,0.1562898,0.241335,0,0.3,0,0,0,0,
6.38223E+17,-14.25378,31.30341,64.04155,-71.70081,-25.95339,-41.23082,-17.57573,-0.4441859,5.299829,-30.09755,-12.47628,15.24121,0,0,0,-57.57407,34.2648,58.28584,-43.98536,-110.4637,-29.48654,0.001067912,0.1562898,0.241335,0,0.3,0,0,0,0,
6.38223E+17,-15.14906,29.33965,63.6213,-71.62756,-24.63498,-41.15757,-17.57573,-0.4441859,5.299829,-30.09755,-12.54952,15.24121,0,0,0,-61.59845,29.4419,59.16933,-43.98536,-110.4637,-29.48654,0.001067912,0.1562898,0.241335,0,0.3,0,0,0,0,
6.38223E+17,-16.65689,25.64589,62.8275,-71.1881,-22.29113,-41.15757,-17.57573,-0.4441859,5.299829,-30.09755,-12.47628,15.24121,0,0,0,-68.4628,20.16784,60.47373,-43.98536,-110.4637,-29.48654,0.001067912,0.1562898,0.241335,0,0.3,0,0,0,0,
6.38223E+17,-17.99981,21.74173,62.26716,-70.52889,-19.87404,-41.30406,-17.57573,-0.4441859,5.299829,-30.09755,-12.47628,15.24121,0,0,0,-74.74908,10.6916,61.70661,-43.98536,-110.4637,-29.48654,0.001067912,0.1562898,0.241335,0,0.3,0,0,0,0,
6.38223E+17,-19.10713,17.72068,62.01034,-70.01617,-17.60344,-41.67029,-17.57573,-0.4441859,5.299829,-30.09755,-12.47628,15.24121,0,0,0,-80.12358,1.355865,62.94002,-43.98536,-110.4637,-29.48654,0.001067912,0.1562898,0.241335,0,0.3,0,0,0,0,
6.38223E+17,-19.60189,15.61664,61.9403,-69.72319,-16.43152,-41.89003,-17.57573,-0.4441859,5.299829,-30.09755,-12.47628,15.24121,0,0,0,-82.5633,-3.478932,63.49051,-43.98536,-110.4637,-29.48654,0.001067912,0.1562898,0.241335,0,0.3,0,0,0,0,
6.38223E+17,-20.26157,12.10991,61.63678,-69.06399,-14.4539,-42.18301,-17.57573,-0.4441859,5.299829,-30.09755,-12.54952,15.24121,0,0,0,-85.78855,-12.02399,64.04556,-43.98536,-110.4637,-29.48654,0.001067912,0.1562898,0.241335,0,0.3,0,0,0,0,
6.38223E+17,-20.80345,8.790204,60.91301,-68.25829,-12.91575,-42.62248,-17.57573,-0.4441859,5.299829,-30.09755,-12.47628,15.24121,0,0,0,-88.1927,-21.09822,63.77687,-43.98536,-110.4637,-29.48654,0.001067912,0.1562898,0.241335,0,0.3,0,0,0,0,
6.38223E+17,-20.96836,7.668051,60.49277,-67.89206,-12.32979,-42.9887,-17.57573,-0.4441859,5.299829,-30.09755,-12.47628,15.24121,0,0,0,-88.82298,-24.53597,63.42419,-43.98536,-110.4637,-29.48654,0.001067912,0.1562898,0.241335,0,0.3,0,0,0,0,
6.38223E+17,-21.15685,5.400365,59.20866,-66.86663,-11.08462,-43.94089,-17.57573,-0.4441859,5.299829,-30.09755,-12.47628,15.24121,0,0,0,-89.25995,-32.3634,62.29098,-43.98536,-110.4637,-29.48654,0.001067912,0.1562898,0.241335,0,0.3,0,0,0,0,
6.38223E+17,-21.25109,3.974295,57.80783,-65.54821,-9.912696,-45.33255,-17.57573,-0.4441859,5.299829,-30.09755,-12.47628,15.24121,0,0,0,-89.1202,-38.45129,60.80938,-43.98536,-110.4637,-29.48654,0.001067912,0.1562898,0.241335,0,0.3,0,0,0,0,
6.38223E+17,-21.25109,2.59498,56.38364,-64.44954,-8.740773,-46.87069,-17.57573,-0.4441859,5.299829,-30.09755,-12.47628,15.24121,0,0,0,-88.53423,-44.43898,59.30265,-43.98536,-110.4637,-29.48654,0.001067912,0.1562898,0.241335,0,0.3,0,0,0,0,
6.38223E+17,-21.25109,1.917013,55.58984,-64.01007,-8.154812,-47.82288,-17.57573,-0.4441859,5.299829,-30.09755,-12.47628,15.24121,0,0,0,-88.18217,-47.54704,58.39735,-43.98536,-110.4637,-29.48654,0.001067912,0.1562898,0.241335,0,0.3,0,0,0,0,
6.38223E+17,-21.15685,0.6545897,54.16566,-63.13113,-7.12938,-49.8005,-17.57573,-0.4441859,5.299829,-30.09755,-12.47628,15.24121,0,0,0,-87.14463,-53.19547,56.82517,-43.98536,-110.4637,-29.48654,0.001067912,0.1562898,0.241335,0,0.3,0,0,0,0,
6.38223E+17,-20.92125,-0.8416153,52.41461,-61.9592,-6.103948,-51.92461,-17.57573,-0.4441859,5.299829,-30.09755,-12.47628,15.24121,0,0,0,-85.34609,-59.94461,54.90088,-43.98536,-110.4637,-29.48654,0.001067912,0.1562898,0.241335,0,0.3,0,0,0,0,
6.38223E+17,-20.77989,-1.028641,51.48072,-61.37324,-5.664476,-52.73031,-17.57573,-0.4441859,5.299829,-30.09755,-12.47628,15.24121,0,0,0,-84.31721,-62.09137,53.85157,-43.98536,-110.4637,-29.48654,0.001067912,0.1562898,0.241335,0,0.3,0,0,0,0,
6.38223E+17,-20.30869,-1.005263,48.58566,-59.61535,-4.932025,-55.29389,-17.57573,-0.4441859,5.299829,-30.09755,-12.47628,15.24121,0,0,0,-80.98531,-67.20049,50.47977,-43.98536,-110.4637,-29.48654,0.001067912,0.1562898,0.241335,0,0.3,0,0,0,0,
6.38223E+17,-19.81393,-1.005263,45.76064,-58.15046,-3.979838,-59.10264,-17.57573,-0.4441859,5.299829,-30.09755,-12.47628,15.24121,0,0,0,-77.5778,-72.02214,46.96641,-43.98536,-110.4637,-29.48654,0.001067912,0.1562898,0.241335,0,0.3,0,0,0,0,
6.38223E+17,-19.27205,-1.005263,42.81889,-57.49125,-2.221954,-66.5004,-17.57573,-0.4441859,5.299829,-30.09755,-12.47628,15.24121,0,0,0,-73.9206,-76.80254,43.06467,-43.98536,-110.4637,-29.48654,0.001067912,0.1562898,0.241335,0,0.3,0,0,0,0,
6.38223E+17,-19.03645,-1.005263,41.60483,-57.418,-1.489502,-69.79643,-17.57573,-0.4441859,5.299829,-30.09755,-12.47628,15.24121,0,0,0,-72.36804,-78.70094,41.38852,-43.98536,-110.4637,-29.48654,0.001067912,0.1562898,0.241335,0,0.3,0,0,0,0,
6.38223E+17,-18.49457,-1.005263,38.80315,-57.12502,0.1951368,-76.60824,-17.57573,-0.4441859,5.299829,-30.09755,-12.47628,15.24121,0,0,0,-68.80161,-82.90964,37.34111,-43.98536,-110.4637,-29.48654,0.001067912,0.1562898,0.241335,0,0.3,0,0,0,0,
6.38223E+17,-17.83489,-1.005263,36.11822,-56.17283,1.879776,-83.12706,-17.57573,-0.4441859,5.299829,-30.09755,-12.47628,15.24121,0,0,0,-64.90981,-86.70998,33.39822,-43.98536,-110.4637,-29.48654,0.001067912,0.1562898,0.241335,0,0.3,0,0,0,0,
6.38223E+17,-17.10453,-1.005263,34.01696,-55.1474,2.978453,-87.96124,-17.57573,-0.4441859,5.299829,-30.09755,-12.47628,15.31445,0,0,0,-61.15569,-89.5196,30.38376,-43.98536,-110.4637,-29.48654,0.001067912,0.1562898,0.241335,0,0.3,0,0,0,0,
6.38223E+17,-16.68045,-1.005263,33.05973,-54.85442,3.564415,-89.86562,-17.57573,-0.4441859,5.299829,-30.09755,-12.47628,15.24121,0,0,0,-59.15008,-90.75047,29.05216,-43.98536,-110.4637,-29.48654,0.001067912,0.1562898,0.241335,0,0.3,0,0,0,0,
6.38223E+17,-15.47889,-1.005263,30.725,-53.97548,4.956073,-93.30813,-17.57573,-0.4441859,5.299829,-30.09755,-12.47628,15.24121,0,0,0,-53.76643,-93.62111,25.8032,-43.98536,-110.4637,-29.48654,0.001067912,0.1562898,0.241335,0,0.3,0,0,0,0,
6.38223E+17,-14.23022,-1.005263,28.85722,-52.58382,6.201241,-95.28575,-17.57573,-0.4441859,5.299829,-30.02431,-12.47628,15.24121,0,0,0,-48.59539,-95.78081,23.27211,-43.98536,-110.4637,-29.48654,0.001067912,0.1562898,0.241335,0,0.3,0,0,0,0,
6.38223E+17,-12.8873,-0.9818845,27.05948,-50.67944,7.592898,-96.67741,-17.57573,-0.4441859,5.299829,-30.09755,-12.47628,15.24121,0,0,0,-43.26712,-97.68793,20.7568,-43.98536,-110.4637,-29.48654,0.001067912,0.1562898,0.241335,0,0.3,0,0,0,0,
6.38223E+17,-12.20406,-0.9818845,26.38241,-49.50752,8.325351,-97.48311,-17.57573,-0.4441859,5.299829,-30.09755,-12.47628,15.24121,0,0,0,-40.7115,-98.39648,19.88358,-43.98536,-110.4637,-29.48654,0.001067912,0.1562898,0.241335,0,0.3,0,0,0,0,
6.38223E+17,-11.09674,-0.9117499,25.70534,-47.38342,9.570518,-98.36205,-17.57573,-0.4441859,5.299829,-30.09755,-12.47628,15.24121,0,0,0,-36.79428,-98.92515,19.24851,-43.98536,-110.4637,-29.48654,0.001067912,0.1562898,0.241335,0,0.3,0,0,0,0,
6.38223E+17,-9.965863,-0.6078333,25.33178,-45.03957,10.88893,-98.50854,-17.57573,-0.4441859,5.299829,-30.09755,-12.47628,15.24121,0,0,0,-32.95047,-98.59242,19.17463,-43.98536,-110.4637,-29.48654,0.001067912,0.1562898,0.241335,0,0.3,0,0,0,0,
6.38223E+17,-9.565345,-0.4208077,25.1917,-44.16063,11.3284,-98.4353,-17.57573,-0.4441859,5.299829,-30.09755,-12.54952,15.24121,0,0,0,-31.59045,-98.29629,19.11349,-43.98536,-110.4637,-29.48654,0.001067912,0.1562898,0.241335,0,0.3,0,0,0,0,
6.38223E+17,-8.599386,0.1636474,24.95823,-42.03651,12.1341,-98.4353,-17.57573,-0.4441859,5.299829,-30.09755,-12.47628,15.24121,0,0,0,-28.3525,-97.16633,19.13579,-43.98536,-110.4637,-29.48654,0.001067912,0.1562898,0.241335,0,0.3,0,0,0,0,
6.38223E+17,-7.774787,0.6779679,24.81814,-40.35188,12.28059,-98.36205,-17.57573,-0.4441859,5.299829,-30.09755,-12.47628,15.24121,0,0,0,-25.61017,-96.10654,19.22266,-43.98536,-110.4637,-29.48654,0.001067912,0.1562898,0.241335,0,0.3,0,0,0,0,
6.38223E+17,-7.044428,1.145532,24.70141,-38.81373,12.28059,-97.99583,-17.57573,-0.4441859,5.299829,-30.02431,-12.47628,15.24121,0,0,0,-23.18476,-95.13227,19.27184,-43.98536,-110.4637,-29.48654,0.001067912,0.1562898,0.241335,0,0.3,0,0,0,0,
6.38223E+17,-6.620349,1.56634,24.58467,-37.86154,12.1341,-97.26337,-17.57573,-0.4441859,5.299829,-30.09755,-12.54952,15.24121,0,0,0,-21.7643,-94.26644,19.16998,-43.98536,-110.4637,-29.48654,0.001067912,0.1562898,0.241335,0,0.3,0,0,0,0,
6.38223E+17,-5.91355,2.852141,24.25781,-36.10366,11.84112,-95.65198,-17.57573,-0.4441859,5.299829,-30.09755,-12.47628,15.24121,0,0,0,-19.36621,-91.59068,18.62045,-43.98536,-110.4637,-29.48654,0.001067912,0.1562898,0.241335,0,0.3,0,0,0,0,
6.38223E+17,-5.300992,4.956179,23.81421,-34.19928,11.25516,-93.89409,-17.57573,-0.4441859,5.299829,-30.09755,-12.47628,15.24121,0,0,0,-17.24829,-87.12591,17.54597,-43.98536,-110.4637,-29.48654,0.001067912,0.1562898,0.241335,0,0.3,0,0,0,0,
6.38223E+17,-4.900472,7.901833,23.53404,-32.14842,10.30297,-92.06297,-17.57573,-0.4441859,5.299829,-30.09755,-12.47628,15.24121,0,0,0,-15.83181,-80.57589,16.30224,-43.98536,-110.4637,-29.48654,0.001067912,0.1562898,0.241335,0,0.3,0,0,0,0,
6.38223E+17,-4.829792,9.585063,23.5107,-31.26948,9.497273,-90.96429,-17.57573,-0.4441859,5.299829,-30.09755,-12.47628,15.24121,0,0,0,-15.54968,-76.7257,15.67861,-43.98536,-110.4637,-29.48654,0.001067912,0.1562898,0.241335,0,0.3,0,0,0,0,
6.38223E+17,-4.806232,12.81126,23.60409,-30.02431,7.739389,-88.98667,-17.57573,-0.4441859,5.299829,-30.09755,-12.47628,15.24121,0,0,0,-15.36854,-69.27412,14.43065,-43.98536,-110.4637,-29.48654,0.001067912,0.1562898,0.241335,0,0.3,0,0,0,0,
6.38223E+17,-4.829792,16.29461,23.93095,-28.92563,5.542034,-86.78931,-17.57573,-0.4441859,5.299829,-30.09755,-12.47628,15.24121,0,0,0,-15.33083,-61.12171,13.08849,-43.98536,-110.4637,-29.48654,0.001067912,0.1562898,0.241335,0,0.3,0,0,0,0,
6.38223E+17,-4.876912,17.58041,24.09438,-28.7059,4.736337,-85.91037,-17.57573,-0.4441859,5.299829,-30.09755,-12.47628,15.24121,0,0,0,-15.43546,-58.10422,12.55336,-43.98536,-110.4637,-29.48654,0.001067912,0.1562898,0.241335,0,0.3,0,0,0,0,
6.38223E+17,-5.112512,20.68971,24.58467,-28.33967,2.612227,-83.34679,-17.57573,-0.4441859,5.299829,-30.09755,-12.47628,15.24121,0,0,0,-16.06049,-50.79802,11.16151,-43.98536,-110.4637,-29.48654,0.001067912,0.1562898,0.241335,0,0.3,0,0,0,0,
6.38223E+17,-5.513031,23.51847,25.23839,-28.26642,0.4148723,-81.36917,-17.57573,-0.4441859,5.299829,-30.09755,-12.47628,15.24121,0,0,0,-17.20953,-44.058,9.952726,-43.98536,-110.4637,-29.48654,0.001067912,0.1562898,0.241335,0,0.3,0,0,0,0,
6.38223E+17,-6.14915,26.13683,26.10224,-28.19318,-1.782483,-79.17181,-17.57573,-0.4441859,5.299829,-30.09755,-12.47628,15.24121,0,0,0,-19.10805,-37.65683,9.008466,-43.98536,-110.4637,-29.48654,0.001067912,0.1562898,0.241335,0,0.3,0,0,0,0,
6.38223E+17,-6.549669,27.37588,26.61588,-28.33967,-3.027651,-77.70691,-17.57573,-0.4441859,5.299829,-30.09755,-12.47628,15.24121,0,0,0,-20.32147,-34.55112,8.644961,-43.98536,-110.4637,-29.48654,0.001067912,0.1562898,0.241335,0,0.3,0,0,0,0,
6.38223E+17,-7.397828,29.29289,27.7132,-28.85239,-5.298251,-74.63062,-17.57573,-0.4441859,5.299829,-30.09755,-12.47628,15.24121,0,0,0,-22.95915,-29.45824,8.478167,-43.98536,-110.4637,-29.48654,0.001067912,0.1562898,0.241335,0,0.3,0,0,0,0,
6.38223E+17,-8.175306,31.02288,28.90392,-29.87782,-7.495606,-71.70081,-17.57573,-0.4441859,5.299829,-30.09755,-12.47628,15.24121,0,0,0,-25.41576,-24.66283,8.563193,-43.98536,-110.4637,-29.48654,0.001067912,0.1562898,0.241335,0,0.3,0,0,0,0,
6.38223E+17,-8.575826,32.02814,29.55764,-30.68352,-8.594284,-70.01617,-17.57573,-0.4441859,5.299829,-30.09755,-12.47628,15.24121,0,0,0,-26.66738,-21.92555,8.484427,-43.98536,-110.4637,-29.48654,0.001067912,0.1562898,0.241335,0,0.3,0,0,0,0,
6.38223E+17,-9.282625,33.64123,30.81839,-32.07517,-10.42541,-67.15961,-17.57573,-0.4441859,5.299829,-30.09755,-12.47628,15.24121,0,0,0,-28.92748,-17.2957,8.636145,-43.98536,-110.4637,-29.48654,0.001067912,0.1562898,0.241335,0,0.3,0,0,0,0,
6.38223E+17,-9.942304,35.32447,32.19588,-34.19928,-12.54952,-64.30305,-17.57573,-0.4441859,5.299829,-30.09755,-12.47628,15.24121,0,0,0,-31.05225,-12.39119,8.799005,-43.98536,-110.4637,-29.48654,0.001067912,0.1562898,0.241335,0,0.3,0,0,0,0,
6.38223E+17,-10.43706,36.61026,33.22316,-36.25014,-14.08767,-62.69165,-17.57573,-0.4441859,5.299829,-30.09755,-12.47628,15.24121,0,0,0,-32.62682,-8.677231,8.7742,-43.98536,-110.4637,-29.48654,0.001067912,0.1562898,0.241335,0,0.3,0,0,0,0,
6.38223E+17,-10.6491,37.07783,33.66676,-37.05584,-14.60039,-62.10569,-17.57573,-0.4441859,5.299829,-30.09755,-12.47628,15.24121,0,0,0,-33.32071,-7.237366,8.857587,-43.98536,-110.4637,-29.48654,0.001067912,0.1562898,0.241335,0,0.3,0,0,0,0,
6.38223E+17,-11.16742,38.05972,34.71738,-39.10671,-15.84556,-60.86052,-17.57573,-0.4441859,5.299829,-30.09755,-12.47628,15.24121,0,0,0,-35.04428,-4.051939,9.166234,-43.98536,-110.4637,-29.48654,0.001067912,0.1562898,0.241335,0,0.3,0,0,0,0,
6.38223E+17,-11.73286,39.13511,35.95479,-41.67029,-17.16397,-60.20132,-17.57573,-0.4441859,5.299829,-30.09755,-12.47628,15.24121,0,0,0,-36.95464,-0.4302103,9.583233,-43.98536,-110.4637,-29.48654,0.001067912,0.1562898,0.241335,0,0.3,0,0,0,0,
6.38223E+17,-12.20406,40.00011,36.98207,-44.08738,-18.04291,-59.90833,-17.57573,-0.4441859,5.299829,-30.09755,-12.47628,15.24121,0,0,0,-38.55205,2.54276,9.899161,-43.98536,-110.4637,-29.48654,0.001067912,0.1562898,0.241335,0,0.3,0,0,0,0,
6.38223E+17,-12.4161,40.42091,37.47236,-45.40579,-18.48238,-59.90833,-17.57573,-0.4441859,5.299829,-30.09755,-12.47628,15.24121,0,0,0,-39.27086,3.981035,10.02511,-43.98536,-110.4637,-29.48654,0.001067912,0.1562898,0.241335,0,0.3,0,0,0,0,
6.38223E+17,-12.84018,41.16902,38.40625,-47.60315,-18.9951,-59.6886,-17.57573,-0.4441859,5.299829,-30.09755,-12.47628,15.24121,0,0,0,-40.71817,6.635484,10.29174,-43.98536,-110.4637,-29.48654,0.001067912,0.1562898,0.241335,0,0.3,0,0,0,0,
6.38223E+17,-13.21714,41.87036,39.3168,-49.58077,-19.50781,-59.54211,-17.57573,-0.4441859,5.299829,-30.09755,-12.47628,15.24121,0,0,0,-42.02249,9.187287,10.57305,-43.98536,-110.4637,-29.48654,0.001067912,0.1562898,0.241335,0,0.3,0,0,0,0,
6.38223E+17,-13.40562,42.26779,39.87713,-50.6062,-19.72755,-59.54211,-17.57573,-0.4441859,5.299829,-30.09755,-12.47628,15.24121,0,0,0,-42.70013,10.70515,10.80847,-43.98536,-110.4637,-29.48654,0.001067912,0.1562898,0.241335,0,0.3,0,0,0,0,
6.38223E+17,-13.78258,42.89901,40.85772,-52.0711,-19.94728,-59.54211,-17.57573,-0.4441859,5.299829,-30.09755,-12.47628,15.24121,0,0,0,-44.05534,13.26496,11.24697,-43.98536,-110.4637,-29.48654,0.001067912,0.1562898,0.241335,0,0.3,0,0,0,0,
6.38223E+17,-14.1831,43.41333,41.93169,-53.75574,-20.16702,-59.61535,-17.57573,-0.4441859,5.299829,-30.09755,-12.47628,15.24121,0,0,0,-45.56853,15.79097,11.95874,-43.98536,-110.4637,-29.48654,0.001067912,0.1562898,0.241335,0,0.3,0,0,0,0,
6.38223E+17,-14.51294,43.88089,42.91228,-55.80661,-20.31351,-59.6886,-17.57573,-0.4441859,5.299829,-30.09755,-12.47628,15.24121,0,0,0,-46.83973,18.11793,12.59724,-43.98536,-110.4637,-29.48654,0.001067912,0.1562898,0.241335,0,0.3,0,0,0,0,
6.38223E+17,-14.6543,44.04454,43.30918,-56.53906,-20.38675,-59.76185,-17.57573,-0.4441859,5.299829,-30.09755,-12.47628,15.24121,0,0,0,-47.38973,19.02338,12.87776,-43.98536,-110.4637,-29.48654,0.001067912,0.1562898,0.241335,0,0.3,0,0,0,0,
6.38223E+17,-15.03126,44.34845,44.21972,-58.29694,-20.46,-60.12807,-17.57573,-0.4441859,5.299829,-30.09755,-12.47628,15.24121,0,0,0,-48.85006,20.99633,13.56391,-43.98536,-110.4637,-29.48654,0.001067912,0.1562898,0.241335,0,0.3,0,0,0,0,
6.38223E+17,-15.38465,44.62899,45.2937,-60.27456,-20.38675,-61.00701,-17.57573,-0.4441859,5.299829,-30.09755,-12.54952,15.24121,0,0,0,-50.32066,23.22202,14.52932,-43.98536,-110.4637,-29.48654,0.001067912,0.1562898,0.241335,0,0.3,0,0,0,0,
6.38223E+17,-15.73805,44.76926,46.34432,-61.73947,-20.24026,-62.10569,-17.57573,-0.4441859,5.299829,-30.09755,-12.47628,15.24121,0,0,0,-51.84764,25.20763,15.63468,-43.98536,-110.4637,-29.48654,0.001067912,0.1562898,0.241335,0,0.3,0,0,0,0,
6.38223E+17,-15.92653,44.79264,46.81127,-62.54516,-20.09377,-62.98463,-17.57573,-0.4441859,5.299829,-30.09755,-12.47628,15.24121,0,0,0,-52.64705,26.03557,16.1446,-43.98536,-110.4637,-29.48654,0.001067912,0.1562898,0.241335,0,0.3,0,0,0,0,
6.38223E+17,-16.35061,44.79264,47.74516,-64.2298,-19.94728,-65.54821,-17.57573,-0.4441859,5.299829,-30.09755,-12.47628,15.24121,0,0,0,-54.42627,27.63236,17.16484,-43.98536,-110.4637,-29.48654,0.001067912,0.1562898,0.241335,0,0.3,0,0,0,0,
6.38223E+17,-16.84537,44.79264,48.7024,-65.91444,-19.72755,-67.89206,-17.57573,-0.4441859,5.299829,-30.09755,-12.47628,15.24121,0,0,0,-56.4563,29.29378,18.1085,-43.98536,-110.4637,-29.48654,0.001067912,0.1562898,0.241335,0,0.3,0,0,0,0,
6.38223E+17,-17.26945,44.79264,49.70633,-67.3061,-19.36132,-69.64995,-17.57573,-0.4441859,5.299829,-30.09755,-12.47628,15.24121,0,0,0,-58.28802,31.06263,19.14331,-43.98536,-110.4637,-29.48654,0.001067912,0.1562898,0.241335,0,0.3,0,0,0,0,
6.38223E+17,-17.48149,44.79264,50.3367,-68.18504,-19.06834,-70.38239,-17.57573,-0.4441859,5.299829,-30.02431,-12.47628,15.24121,0,0,0,-59.26465,32.18687,19.82541,-43.98536,-110.4637,-29.48654,0.001067912,0.1562898,0.241335,0,0.3,0,0,0,0,
6.38223E+17,-17.97625,44.79264,51.57411,-70.01617,-18.48238,-71.55432,-17.57573,-0.4441859,5.299829,-30.09755,-12.54952,15.24121,0,0,0,-61.44722,34.42354,21.03218,-43.98536,-110.4637,-29.48654,0.001067912,0.1562898,0.241335,0,0.3,0,0,0,0,
6.38223E+17,-18.51813,44.76926,52.85821,-71.55432,-17.67669,-72.653,-17.57573,-0.4441859,5.299829,-30.09755,-12.54952,15.24121,0,0,0,-63.82927,36.74685,22.21515,-43.98536,-110.4637,-29.48654,0.001067912,0.1562898,0.241335,0,0.3,0,0,0,0,
6.38223E+17,-18.80085,44.7225,53.3952,-72.36002,-17.38371,-73.23896,-17.57573,-0.4441859,5.299829,-30.09755,-12.47628,15.24121,0,0,0,-65.03518,37.66934,22.68031,-43.98536,-110.4637,-29.48654,0.001067912,0.1562898,0.241335,0,0.3,0,0,0,0,
6.38223E+17,-19.64901,44.44196,54.72599,-74.33764,-16.50476,-75.21658,-17.57573,-0.4441859,5.299829,-30.09755,-12.47628,15.24121,0,0,0,-68.62118,39.71193,23.8403,-43.98536,-110.4637,-29.48654,0.001067912,0.1562898,0.241335,0,0.3,0,0,0,0,
6.38223E+17,-20.54428,43.90427,55.98674,-76.16876,-15.84556,-77.04771,-17.57573,-0.4441859,5.299829,-30.09755,-12.47628,15.24121,0,0,0,-72.50714,41.22834,25.12314,-43.98536,-110.4637,-29.48654,0.001067912,0.1562898,0.241335,0,0.3,0,0,0,0,
6.38223E+17,-21.60448,42.96914,57.27084,-78.07314,-15.18635,-78.36612,-17.57573,-0.4441859,5.299829,-30.09755,-12.47628,15.24121,0,0,0,-77.23078,42.14379,26.66809,-43.98536,-110.4637,-29.48654,0.001067912,0.1562898,0.241335,0,0.3,0,0,0,0,
6.38223E+17,-22.31128,42.26779,57.92457,-79.24506,-14.52714,-79.02532,-17.57573,-0.4441859,5.299829,-30.09755,-12.47628,15.24121,0,0,0,-80.35969,42.2272,27.47732,-43.98536,-110.4637,-29.48654,0.001067912,0.1562898,0.241335,0,0.3,0,0,0,0,
6.38223E+17,-23.70132,40.63132,58.95185,-80.9297,-13.28197,-79.75778,-17.57573,-0.4441859,5.299829,-30.09755,-12.47628,15.24121,0,0,0,-86.60294,41.4097,28.92465,-43.98536,-110.4637,-29.48654,0.001067912,0.1562898,0.241335,0,0.3,0,0,0,0,
6.38223E+17,-25.09136,38.55066,60.11921,-82.17487,-11.96356,-80.19725,-17.57573,-0.4441859,5.299829,-30.09755,-12.47628,15.24121,0,0,0,-93.2558,40.01998,30.80799,-43.98536,-110.4637,-29.48654,0.001067912,0.1562898,0.241335,0,0.3,0,0,0,0,
6.38223E+17,-26.4814,36.09594,61.45,-82.98056,-10.42541,-80.34374,-17.57573,-0.4441859,5.299829,-30.09755,-12.47628,15.24121,0,0,0,-100.2782,38.18035,32.94051,-43.98536,-110.4637,-29.48654,0.001067912,0.1562898,0.241335,0,0.3,0,0,0,0,
6.38223E+17,-27.28243,34.66988,62.24381,-83.27354,-9.399981,-80.41698,-17.57573,-0.4441859,5.299829,-30.09755,-12.47628,15.24121,0,0,0,-104.3629,37.10332,34.00166,-43.98536,-110.4637,-29.48654,0.001067912,0.1562898,0.241335,0,0.3,0,0,0,0,
6.38223E+17,-28.57823,32.16841,63.76138,-83.63977,-7.568851,-80.49023,-17.57573,-0.4441859,5.299829,-30.09755,-12.47628,15.24121,0,0,0,-111.2129,35.39138,35.8134,-43.98536,-110.4637,-29.48654,0.001067912,0.1562898,0.241335,0,0.3,0,0,0,0,
6.38223E+17,-29.73267,29.7137,65.51243,-84.29898,-5.737722,-80.49023,-17.57573,-0.4441859,5.299829,-30.09755,-12.54952,15.24121,0,0,0,-117.6262,34.17408,37.59764,-43.98536,-110.4637,-29.48654,0.001067912,0.1562898,0.241335,0,0.3,0,0,0,0,
6.38223E+17,-30.93423,27.63304,66.81988,-85.32441,-3.833347,-80.49023,-17.57573,-0.4441859,5.299829,-30.09755,-12.47628,15.24121,0,0,0,-123.7453,32.70902,38.13337,-43.98536,-110.4637,-29.48654,0.001067912,0.1562898,0.241335,0,0.3,0,0,0,0,
6.38223E+17,-31.54679,26.60439,67.4269,-85.69064,-2.88116,-80.63672,-17.57573,-0.4441859,5.299829,-30.09755,-12.47628,15.24121,0,0,0,-126.8041,31.87985,38.19667,-43.98536,-110.4637,-29.48654,0.001067912,0.1562898,0.241335,0,0.3,0,0,0,0,
6.38223E+17,-32.55987,24.94454,68.50088,-86.42309,-1.269767,-81.51566,-17.57573,-0.4441859,5.299829,-30.09755,-12.47628,15.24121,0,0,0,-131.8448,30.7181,38.12856,-43.98536,-110.4637,-29.48654,0.001067912,0.1562898,0.241335,0,0.3,0,0,0,0,
6.38223E+17,-33.52582,23.63536,68.94447,-87.15554,0.1951368,-82.98056,-17.57573,-0.4441859,5.299829,-30.09755,-12.47628,15.24121,0,0,0,-136.2062,28.90297,37.23369,-43.98536,-110.4637,-29.48654,0.001067912,0.1562898,0.241335,0,0.3,0,0,0,0,
6.38223E+17,-33.92635,23.21456,68.94447,-87.44852,0.8543434,-83.78626,-17.57573,-0.4441859,5.299829,-30.09755,-12.47628,15.24121,0,0,0,-137.8573,28.0043,36.59961,-43.98536,-110.4637,-29.48654,0.001067912,0.1562898,0.241335,0,0.3,0,0,0,0,
6.38223E+17,-34.68026,22.27943,68.92113,-87.81474,1.879776,-85.69064,-17.57573,-0.4441859,5.299829,-30.09755,-12.47628,15.24121,0,0,0,-141.0098,25.94648,35.4439,-43.98536,-110.4637,-29.48654,0.001067912,0.1562898,0.241335,0,0.3,0,0,0,0,
6.38223E+17,-35.43418,20.99363,68.68765,-88.25421,2.758718,-87.66826,-17.57573,-0.4441859,5.299829,-30.09755,-12.47628,15.24121,0,0,0,-144.2049,22.6582,34.30981,-43.98536,-110.4637,-29.48654,0.001067912,0.1562898,0.241335,0,0.3,0,0,0,0,
6.38223E+17,-36.04674,19.63769,68.31409,-88.62045,3.564415,-88.91342,-17.57573,-0.4441859,5.299829,-30.09755,-12.47628,15.24121,0,0,0,-146.8205,18.88986,33.38478,-43.98536,-110.4637,-29.48654,0.001067912,0.1562898,0.241335,0,0.3,0,0,0,0,
6.38223E+17,-36.37658,18.72594,68.08063,-88.69369,4.077131,-89.49938,-17.57573,-0.4441859,5.299829,-30.09755,-12.47628,15.24121,0,0,0,-148.2732,16.38117,32.93509,-43.98536,-110.4637,-29.48654,0.001067912,0.1562898,0.241335,0,0.3,0,0,0,0,
6.38223E+17,-36.98914,16.90244,67.59034,-88.84018,4.882828,-90.52482,-17.57573,-0.4441859,5.299829,-30.09755,-12.47628,15.24121,0,0,0,-150.9388,11.28404,32.03157,-43.98536,-110.4637,-29.48654,0.001067912,0.1562898,0.241335,0,0.3,0,0,0,0,
6.38223E+17,-37.6017,14.91529,66.84322,-88.5472,5.835015,-91.69674,-17.57573,-0.4441859,5.299829,-30.09755,-12.54952,15.24121,0,0,0,-153.4351,5.233375,30.87729,-43.98536,-110.4637,-29.48654,0.001067912,0.1562898,0.241335,0,0.3,0,0,0,0,
6.38223E+17,-37.93154,13.74638,66.30624,-88.18098,6.347731,-92.35595,-17.57573,-0.4441859,5.299829,-30.09755,-12.47628,15.24121,0,0,0,-154.6879,1.450788,30.12993,-43.98536,-110.4637,-29.48654,0.001067912,0.1562898,0.241335,0,0.3,0,0,0,0,
6.38223E+17,-38.44986,11.38519,65.60582,-87.88799,7.006938,-93.89409,-17.57573,-0.4441859,5.299829,-30.09755,-12.47628,15.24121,0,0,0,-156.8075,-5.401342,29.13857,-43.98536,-110.4637,-29.48654,0.001067912,0.1562898,0.241335,0,0.3,0,0,0,0,
6.38223E+17,-38.92105,8.836961,64.92875,-87.52177,7.88588,-95.43224,-17.57573,-0.4441859,5.299829,-30.09755,-12.47628,15.24121,0,0,0,-158.6662,-12.67073,28.13937,-43.98536,-110.4637,-29.48654,0.001067912,0.1562898,0.241335,0,0.3,0,0,0,0,
6.38223E+17,-39.34513,5.98482,63.99486,-86.86256,8.764822,-96.45767,-17.57573,-0.4441859,5.299829,-30.09755,-12.47628,15.24121,0,0,0,-160.0649,-21.21382,26.89705,-43.98536,-110.4637,-29.48654,0.001067912,0.1562898,0.241335,0,0.3,0,0,0,0,
6.38223E+17,-39.4865,4.862666,63.50457,-86.56957,9.057802,-96.82391,-17.57573,-0.4441859,5.299829,-30.02431,-12.47628,15.24121,0,0,0,-160.3821,-24.8372,26.30254,-43.98536,-110.4637,-29.48654,0.001067912,0.1562898,0.241335,0,0.3,0,0,0,0,
6.38223E+17,-39.7221,2.59498,62.26716,-85.69064,9.570518,-97.40987,-17.57573,-0.4441859,5.299829,-30.09755,-12.47628,15.24121,0,0,0,-160.5617,-32.66687,24.89585,-43.98536,-110.4637,-29.48654,0.001067912,0.1562898,0.241335,0,0.3,0,0,0,0,
6.38223E+17,-39.81633,0.7247244,60.79628,-84.73845,10.00999,-98.50854,-17.57573,-0.4441859,5.299829,-30.09755,-12.47628,15.24121,0,0,0,-159.9152,-40.02697,23.47498,-43.98536,-110.4637,-29.48654,0.001067912,0.1562898,0.241335,0,0.3,0,0,0,0,
6.38223E+17,-39.83989,-0.6312115,59.41879,-84.44547,10.30297,-100.7059,-17.57573,-0.4441859,5.299829,-30.09755,-12.47628,15.24121,0,0,0,-158.9722,-45.96207,22.18439,-43.98536,-110.4637,-29.48654,0.001067912,0.1562898,0.241335,0,0.3,0,0,0,0,
6.38223E+17,-39.81633,-1.028641,58.76507,-84.37222,10.37621,-101.6581,-17.57573,-0.4441859,5.299829,-30.09755,-12.47628,15.31445,0,0,0,-158.3848,-48.19236,21.63917,-43.98536,-110.4637,-29.48654,0.001067912,0.1562898,0.241335,0,0.3,0,0,0,0,
6.38223E+17,-39.62786,-1.005263,55.70658,-84.22573,10.44946,-104.8809,-17.57573,-0.4441859,5.299829,-30.09755,-12.47628,15.24121,0,0,0,-155.3029,-54.12308,19.19319,-43.98536,-110.4637,-29.48654,0.001067912,0.1562898,0.241335,0,0.3,0,0,0,0,
6.38223E+17,-39.32158,-1.005263,53.16172,-84.15249,10.44946,-109.3488,-17.57573,-0.4441859,5.299829,-30.09755,-12.47628,15.24121,0,0,0,-152.1153,-58.94064,17.35588,-43.98536,-110.4637,-29.48654,0.001067912,0.1562898,0.241335,0,0.3,0,0,0,0,
6.38223E+17,-38.87394,-1.005263,50.73361,-83.8595,10.30297,-113.8168,-17.57573,-0.4441859,5.299829,-30.09755,-12.47628,15.24121,0,0,0,-148.4738,-63.39032,15.827,-43.98536,-110.4637,-29.48654,0.001067912,0.1562898,0.241335,0,0.3,0,0,0,0,
6.38223E+17,-38.56766,-1.005263,49.51955,-83.78626,10.15648,-115.6479,-17.57573,-0.4441859,5.299829,-30.09755,-12.47628,15.24121,0,0,0,-146.3578,-65.55882,15.20174,-43.98536,-110.4637,-29.48654,0.001067912,0.1562898,0.241335,0,0.3,0,0,0,0,
6.38223E+17,-37.93154,-1.005263,47.3716,-83.49328,9.936745,-117.9185,-17.57573,-0.4441859,5.299829,-30.09755,-12.47628,15.24121,0,0,0,-142.2727,-69.29958,14.19992,-43.98536,-110.4637,-29.48654,0.001067912,0.1562898,0.241335,0,0.3,0,0,0,0,
6.38223E+17,-36.98914,-1.005263,44.61663,-82.68758,9.570518,-120.5553,-17.57573,-0.4441859,5.299829,-30.09755,-12.47628,15.24121,0,0,0,-136.5711,-73.91103,12.95747,-43.98536,-110.4637,-29.48654,0.001067912,0.1562898,0.241335,0,0.3,0,0,0,0,
6.38223E+17,-36.51794,-1.005263,43.42591,-82.24812,9.424027,-121.654,-17.57573,-0.4441859,5.299829,-30.02431,-12.47628,15.24121,0,0,0,-133.8896,-75.83681,12.47299,-43.98536,-110.4637,-29.48654,0.001067912,0.1562898,0.241335,0,0.3,0,0,0,0,
6.38223E+17,-35.17502,-1.005263,40.46081,-80.41698,9.057802,-124.3641,-17.57573,-0.4441859,5.299829,-30.09755,-12.47628,15.24121,0,0,0,-126.6584,-80.44887,11.36598,-43.98536,-110.4637,-29.48654,0.001067912,0.1562898,0.241335,0,0.3,0,0,0,0,
6.38223E+17,-33.73786,-1.005263,37.986,-78.73235,8.545086,-127.6601,-17.57573,-0.4441859,5.299829,-30.09755,-12.47628,15.24121,0,0,0,-119.6331,-84.09081,10.77577,-43.98536,-110.4637,-29.48654,0.001067912,0.1562898,0.241335,0,0.3,0,0,0,0,
6.38223E+17,-32.15935,-1.005263,35.55789,-76.68148,8.105616,-130.8829,-17.57573,-0.4441859,5.299829,-30.09755,-12.47628,15.24121,0,0,0,-112.2441,-87.47354,10.17139,-43.98536,-110.4637,-29.48654,0.001067912,0.1562898,0.241335,0,0.3,0,0,0,0,
6.38223E+17,-31.24051,-1.005263,34.53061,-75.58281,7.88588,-132.7873,-17.57573,-0.4441859,5.299829,-30.09755,-12.47628,15.24121,0,0,0,-108.3517,-88.84639,10.27481,-43.98536,-110.4637,-29.48654,0.001067912,0.1562898,0.241335,0,0.3,0,0,0,0,
6.38223E+17,-29.56775,-1.005263,33.03638,-73.89817,7.373164,-136.0833,-17.57573,-0.4441859,5.299829,-30.09755,-12.47628,15.24121,0,0,0,-101.6651,-90.78011,10.84763,-43.98536,-110.4637,-29.48654,0.001067912,0.1562898,0.241335,0,0.3,0,0,0,0,
6.38223E+17,-27.87143,-1.005263,31.23864,-72.36002,6.933692,-137.8412,-17.57573,-0.4441859,5.299829,-30.09755,-12.47628,15.24121,0,0,0,-94.65967,-93.00574,10.64676,-43.98536,-110.4637,-29.48654,0.001067912,0.1562898,0.241335,0,0.3,0,0,0,0,
6.38223E+17,-26.05732,-0.9818845,29.39421,-70.52889,6.640712,-138.9399,-17.57573,-0.4441859,5.299829,-30.09755,-12.47628,15.24121,0,0,0,-87.31841,-95.1181,10.22564,-43.98536,-110.4637,-29.48654,0.001067912,0.1562898,0.241335,0,0.3,0,0,0,0,
6.38223E+17,-24.92644,-0.9585064,28.41362,-69.35696,6.567466,-139.5258,-17.57573,-0.4441859,5.299829,-30.02431,-12.47628,15.24121,0,0,0,-82.93535,-96.16678,10.10324,-43.98536,-110.4637,-29.48654,0.001067912,0.1562898,0.241335,0,0.3,0,0,0,0,
6.38223E+17,-23.183,-0.6312115,27.10618,-67.01311,6.567466,-139.5991,-17.57573,-0.4441859,5.299829,-30.09755,-12.47628,15.24121,0,0,0,-76.41183,-96.82238,10.07833,-43.98536,-110.4637,-29.48654,0.001067912,0.1562898,0.241335,0,0.3,0,0,0,0,
6.38223E+17,-21.72228,0.3039166,26.54584,-64.88901,6.05475,-139.3061,-17.57573,-0.4441859,5.299829,-30.09755,-12.54952,15.24121,0,0,0,-71.41016,-95.23452,10.89285,-43.98536,-110.4637,-29.48654,0.001067912,0.1562898,0.241335,0,0.3,0,0,0,0,
6.38223E+17,-20.94481,1.145532,26.38241,-63.93682,5.688524,-137.9144,-17.57573,-0.4441859,5.299829,-30.09755,-12.47628,15.24121,0,0,0,-68.84084,-93.44543,11.50418,-43.98536,-110.4637,-29.48654,0.001067912,0.1562898,0.241335,0,0.3,0,0,0,0,
6.38223E+17,-19.74325,3.015788,26.00885,-62.17894,4.736337,-133.7395,-17.57573,-0.4441859,5.299829,-30.09755,-12.47628,15.24121,0,0,0,-64.73731,-89.47945,12.0252,-43.98536,-110.4637,-29.48654,0.001067912,0.1562898,0.241335,0,0.3,0,0,0,0,
6.38223E+17,-18.32965,5.751038,25.47187,-60.20132,3.78415,-129.7842,-17.57573,-0.4441859,5.299829,-30.09755,-12.47628,15.24121,0,0,0,-59.76083,-83.67544,12.03686,-43.98536,-110.4637,-29.48654,0.001067912,0.1562898,0.241335,0,0.3,0,0,0,0,
6.38223E+17,-16.91605,8.930473,24.70141,-58.66317,2.758718,-127.8799,-17.57573,-0.4441859,5.299829,-30.09755,-12.47628,15.24121,0,0,0,-54.54499,-77.0975,10.99805,-43.98536,-110.4637,-29.48654,0.001067912,0.1562898,0.241335,0,0.3,0,0,0,0,
6.38223E+17,-16.25637,10.56695,24.39789,-57.85748,2.319247,-127.5869,-17.57573,-0.4441859,5.299829,-30.09755,-12.47628,15.24121,0,0,0,-52.11609,-73.6374,10.37819,-43.98536,-110.4637,-29.48654,0.001067912,0.1562898,0.241335,0,0.3,0,0,0,0,
6.38223E+17,-14.4187,15.07894,23.81421,-55.87985,0.6346079,-127.2206,-17.57573,-0.4441859,5.299829,-30.09755,-12.47628,15.24121,0,0,0,-45.46887,-63.95557,8.499969,-43.98536,-110.4637,-29.48654,0.001067912,0.1562898,0.241335,0,0.3,0,0,0,0,
6.38223E+17,-12.8873,19.09999,23.5107,-54.63469,-0.9767859,-127.3671,-17.57573,-0.4441859,5.299829,-30.09755,-12.47628,15.24121,0,0,0,-39.9688,-55.29554,6.340907,-43.98536,-110.4637,-29.48654,0.001067912,0.1562898,0.241335,0,0.3,0,0,0,0,
6.38223E+17,-11.37946,23.02753,23.464,-53.31627,-2.73467,-127.0009,-17.57573,-0.4441859,5.299829,-30.09755,-12.47628,15.24121,0,0,0,-34.69045,-46.81038,4.01433,-43.98536,-110.4637,-29.48654,0.001067912,0.1562898,0.241335,0,0.3,0,0,0,0,
6.38223E+17,-10.60198,25.10819,23.48735,-52.36408,-3.760103,-126.7079,-17.57573,-0.4441859,5.299829,-30.09755,-12.47628,15.24121,0,0,0,-31.99426,-42.36744,2.577121,-43.98536,-110.4637,-29.48654,0.001067912,0.1562898,0.241335,0,0.3,0,0,0,0,
6.38223E+17,-9.188385,28.89546,23.60409,-50.53296,-5.444741,-126.7079,-17.57573,-0.4441859,5.299829,-30.09755,-12.47628,15.24121,0,0,0,-27.1687,-34.40671,-0.3896118,-43.98536,-110.4637,-29.48654,0.001067912,0.1562898,0.241335,0,0.3,0,0,0,0,
6.38223E+17,-7.727668,32.56584,24.07103,-48.55533,-7.349115,-126.4882,-17.57573,-0.4441859,5.299829,-30.09755,-12.54952,15.24121,0,0,0,-22.4251,-26.62587,-3.09141,-43.98536,-110.4637,-29.48654,0.001067912,0.1562898,0.241335,0,0.3,0,0,0,0,
6.38223E+17,-6.33763,36.21284,24.95823,-46.65096,-9.106999,-125.6825,-17.57573,-0.4441859,5.299829,-30.09755,-12.47628,15.24121,0,0,0,-18.08786,-18.76583,-5.492867,-43.98536,-110.4637,-29.48654,0.001067912,0.1562898,0.241335,0,0.3,0,0,0,0,
6.38223E+17,-5.630831,38.24674,25.70534,-45.62553,-10.13243,-125.243,-17.57573,-0.4441859,5.299829,-30.09755,-12.47628,15.24121,0,0,0,-15.95075,-14.25301,-6.568078,-43.98536,-110.4637,-29.48654,0.001067912,0.1562898,0.241335,0,0.3,0,0,0,0,
6.38223E+17,-4.570632,41.84698,27.363,-44.08738,-12.11005,-124.2908,-17.57573,-0.4441859,5.299829,-30.09755,-12.47628,15.24121,0,0,0,-12.80008,-6.116199,-8.233347,-43.98536,-110.4637,-29.48654,0.001067912,0.1562898,0.241335,0,0.3,0,0,0,0,
6.38223E+17,-3.793154,45.7979,29.67438,-42.9887,-14.52714,-122.4597,-17.57573,-0.4441859,5.299829,-30.09755,-12.47628,15.24121,0,0,0,-10.5178,3.085072,-9.710211,-43.98536,-110.4637,-29.48654,0.001067912,0.1562898,0.241335,0,0.3,0,0,0,0,
6.38223E+17,-3.604674,47.24735,30.67831,-42.84221,-15.55258,-121.0681,-17.57573,-0.4441859,5.299829,-30.09755,-12.47628,15.24121,0,0,0,-9.96898,6.580649,-10.1036,-43.98536,-110.4637,-29.48654,0.001067912,0.1562898,0.241335,0,0.3,0,0,0,0,
6.38223E+17,-3.345515,50.49692,33.17647,-42.9887,-18.04291,-118.065,-17.57573,-0.4441859,5.299829,-30.02431,-12.47628,15.24121,0,0,0,-9.208645,14.62907,-10.82065,-43.98536,-110.4637,-29.48654,0.001067912,0.1562898,0.241335,0,0.3,0,0,0,0,
6.38223E+17,-3.321954,53.88676,36.3517,-43.7944,-20.53325,-114.1098,-17.57573,-0.4441859,5.299829,-30.09755,-12.47628,15.24121,0,0,0,-9.134472,23.67802,-10.97876,-43.98536,-110.4637,-29.48654,0.001067912,0.1562898,0.241335,0,0.3,0,0,0,0,
6.38223E+17,-3.321954,56.50512,38.8732,-45.2593,-22.65736,-109.9348,-17.57573,-0.4441859,5.299829,-30.09755,-12.47628,15.24121,0,0,0,-9.113904,30.73736,-11.3331,-43.98536,-110.4637,-29.48654,0.001067912,0.1562898,0.241335,0,0.3,0,0,0,0,
6.38223E+17,-3.321954,57.83767,40.20399,-46.28474,-23.82928,-107.5177,-17.57573,-0.4441859,5.299829,-30.09755,-12.47628,15.31445,0,0,0,-9.101303,34.39035,-11.5502,-43.98536,-110.4637,-29.48654,0.001067912,0.1562898,0.241335,0,0.3,0,0,0,0,
6.38223E+17,-3.274835,60.10536,42.51537,-48.26236,-25.88014,-103.6357,-17.57573,-0.4441859,5.299829,-30.09755,-12.47628,15.24121,0,0,0,-8.94465,40.66514,-12.02684,-43.98536,-110.4637,-29.48654,0.001067912,0.1562898,0.241335,0,0.3,0,0,0,0,
6.38223E+17,-3.157035,62.11589,44.68667,-50.31322,-27.63803,-99.9002,-17.57573,-0.4441859,5.299829,-30.09755,-12.47628,15.24121,0,0,0,-8.599139,46.41051,-12.44558,-43.98536,-110.4637,-29.48654,0.001067912,0.1562898,0.241335,0,0.3,0,0,0,0,
6.38223E+17,-3.015675,63.1679,45.80734,-51.33865,-28.66346,-97.92258,-17.57573,-0.4441859,5.299829,-30.09755,-12.47628,15.24121,0,0,0,-8.196671,49.38789,-12.76264,-43.98536,-110.4637,-29.48654,0.001067912,0.1562898,0.241335,0,0.3,0,0,0,0,
6.38223E+17,-2.568036,65.01479,47.62842,-52.95005,-30.3481,-94.77303,-17.57573,-0.4441859,5.299829,-30.09755,-12.47628,15.24121,0,0,0,-6.937826,54.35131,-13.66293,-43.98536,-110.4637,-29.48654,0.001067912,0.1562898,0.241335,0,0.3,0,0,0,0,
6.38223E+17,-1.861237,66.9318,49.72968,-55.00091,-31.88625,-91.55025,-17.57573,-0.4441859,5.299829,-30.09755,-12.47628,15.24121,0,0,0,-5.001654,59.84048,-14.43469,-43.98536,-110.4637,-29.48654,0.001067912,0.1562898,0.241335,0,0.3,0,0,0,0,
6.38223E+17,-0.9188384,68.59165,51.48072,-56.75879,-33.4244,-88.5472,-17.57573,-0.4441859,5.299829,-30.09755,-12.47628,15.24121,0,0,0,-2.453635,64.45176,-15.3624,-43.98536,-110.4637,-29.48654,0.001067912,0.1562898,0.241335,0,0.3,0,0,0,0,
6.38223E+17,-0.3298394,69.36313,52.25118,-57.49125,-34.0836,-87.22878,-17.57573,-0.4441859,5.299829,-30.09755,-12.47628,15.24121,0,0,0,-0.877551,66.50632,-15.91399,-43.98536,-110.4637,-29.48654,0.001067912,0.1562898,0.241335,0,0.3,0,0,0,0,
6.38223E+17,1.177998,71.06974,53.90884,-58.73641,-35.84149,-84.51871,-17.57573,-0.4441859,5.299829,-30.09755,-12.47628,15.24121,0,0,0,3.104715,70.93494,-17.36333,-43.98536,-110.4637,-29.48654,0.001067912,0.1562898,0.241335,0,0.3,0,0,0,0,
6.38223E+17,3.180595,72.84648,55.65988,-59.76185,-38.11209,-82.10162,-17.57573,-0.4441859,5.299829,-30.09755,-12.47628,15.24121,0,0,0,8.291258,75.54501,-19.14331,-43.98536,-110.4637,-29.48654,0.001067912,0.1562898,0.241335,0,0.3,0,0,0,0,
6.38223E+17,5.136071,74.29593,57.01402,-60.34781,-40.30944,-80.9297,-17.57573,-0.4441859,5.299829,-30.09755,-12.47628,15.24121,0,0,0,13.24452,79.12214,-20.99585,-43.98536,-110.4637,-29.48654,0.001067912,0.1562898,0.241335,0,0.3,0,0,0,0,
6.38223E+17,6.03135,74.88038,57.5977,-60.42105,-41.40812,-80.63672,-17.57573,-0.4441859,5.299829,-30.09755,-12.47628,15.24121,0,0,0,15.48462,80.62686,-21.79515,-43.98536,-110.4637,-29.48654,0.001067912,0.1562898,0.241335,0,0.3,0,0,0,0,
6.38223E+17,8.269547,76.14281,58.95185,-60.42105,-43.75196,-80.27049,-17.57573,-0.4441859,5.299829,-30.09755,-12.47628,15.24121,0,0,0,21.02556,84.04257,-23.68677,-43.98536,-110.4637,-29.48654,0.001067912,0.1562898,0.241335,0,0.3,0,0,0,0,
6.38223E+17,10.48418,77.19482,60.23594,-60.05483,-46.31554,-80.124,-17.57573,-0.4441859,5.299829,-30.09755,-12.47628,15.24121,0,0,0,26.4418,87.18463,-25.46267,-43.98536,-110.4637,-29.48654,0.001067912,0.1562898,0.241335,0,0.3,0,0,0,0,
6.38223E+17,12.2983,77.91955,61.14649,-59.24913,-48.58614,-80.124,-17.57573,-0.4441859,5.299829,-30.09755,-12.47628,15.24121,0,0,0,30.82207,89.39597,-26.96708,-43.98536,-110.4637,-29.48654,0.001067912,0.1562898,0.241335,0,0.3,0,0,0,0,
6.38223E+17,13.3585,78.2936,61.66013,-58.58992,-49.83131,-80.19725,-17.57573,-0.4441859,5.299829,-30.09755,-12.47628,15.24121,0,0,0,33.36816,90.62499,-27.83371,-43.98536,-110.4637,-29.48654,0.001067912,0.1562898,0.241335,0,0.3,0,0,0,0,
6.38223E+17,15.21973,78.8313,62.57067,-57.27151,-52.02867,-80.19725,-17.57573,-0.4441859,5.299829,-30.09755,-12.47628,15.24121,0,0,0,37.85257,92.74627,-29.21881,-43.98536,-110.4637,-29.48654,0.001067912,0.1562898,0.241335,0,0.3,0,0,0,0,
6.38223E+17,17.12809,79.32224,63.5746,-55.80661,-54.15278,-80.27049,-17.57573,-0.4441859,5.299829,-30.09755,-12.47628,15.24121,0,0,0,42.44599,95.04598,-30.61747,-43.98536,-110.4637,-29.48654,0.001067912,0.1562898,0.241335,0,0.3,0,0,0,0,
6.38223E+17,18.23541,79.48589,64.08825,-55.1474,-55.47119,-80.41698,-17.57573,-0.4441859,5.299829,-30.09755,-12.47628,15.24121,0,0,0,45.14759,96.18893,-31.31831,-43.98536,-110.4637,-29.48654,0.001067912,0.1562898,0.241335,0,0.3,0,0,0,0,
6.38223E+17,20.21445,79.5794,64.8587,-53.75574,-57.74179,-81.51566,-17.57573,-0.4441859,5.299829,-30.09755,-12.47628,15.24121,0,0,0,50.04594,97.84658,-32.43488,-43.98536,-110.4637,-29.48654,0.001067912,0.1562898,0.241335,0,0.3,0,0,0,0,
6.38223E+17,22.33484,79.60278,65.44238,-49.87375,-60.23213,-86.42309,-17.57573,-0.4441859,5.299829,-30.09755,-12.47628,15.24121,0,0,0,55.23706,99.08909,-33.90107,-43.98536,-110.4637,-29.48654,0.001067912,0.1562898,0.241335,0,0.3,0,0,0,0,
6.38223E+17,24.0076,79.5794,65.44238,-42.54923,-61.99001,-98.87477,-17.57573,-0.4441859,5.299829,-30.09755,-12.47628,15.24121,0,0,0,59.15999,99.07926,-35.5219,-43.98536,-110.4637,-29.48654,0.001067912,0.1562898,0.241335,0,0.3,0,0,0,0,
6.38223E+17,24.66728,79.48589,65.349,-38.15452,-62.35624,-109.0558,-17.57573,-0.4441859,5.299829,-30.09755,-12.47628,15.24121,0,0,0,60.73692,98.8421,-36.09958,-43.98536,-110.4637,-29.48654,0.001067912,0.1562898,0.241335,0,0.3,0,0,0,0,
6.38223E+17,26.22224,79.08846,64.99879,-23.94496,-62.9422,-139.5991,-17.57573,-0.4441859,5.299829,-30.09755,-12.47628,15.24121,0,0,0,64.55363,97.93041,-37.28811,-43.98536,-110.4637,-29.48654,0.001067912,0.1562898,0.241335,0,0.3,0,0,0,0,
6.38223E+17,27.09396,78.6209,64.62523,-9.588906,-63.16194,-141.7232,-17.57573,-0.4441859,5.299829,-30.09755,-12.47628,15.24121,0,0,0,66.85786,96.93332,-37.66428,-43.98536,-110.4637,-29.48654,0.001067912,0.1562898,0.241335,0,0.3,0,0,0,0,
6.38223E+17,27.91855,78.0832,64.08825,-2.337634,-63.30842,-141.7964,-17.57573,-0.4441859,5.299829,-30.09755,-12.47628,15.24121,0,0,0,69.05234,95.55398,-38.03489,-43.98536,-110.4637,-29.48654,0.001067912,0.1562898,0.241335,0,0.3,0,0,0,0,
6.38223E+17,28.34263,77.70914,63.71469,0.5189275,-63.30842,-141.7964,-17.57573,-0.4441859,5.299829,-30.09755,-12.47628,15.24121,0,0,0,70.2375,94.59067,-38.137,-43.98536,-110.4637,-29.48654,0.001067912,0.1562898,0.241335,0,0.3,0,0,0,0,
6.38223E+17,29.09655,76.84415,62.94423,4.913638,-63.08869,-141.7964,-17.57573,-0.4441859,5.299829,-30.09755,-12.47628,15.24121,0,0,0,72.5083,92.54491,-38.05985,-43.98536,-110.4637,-29.48654,0.001067912,0.1562898,0.241335,0,0.3,0,0,0,0,
6.38223E+17,29.77979,75.90903,62.03368,8.35616,-62.42948,-141.7964,-17.57573,-0.4441859,5.299829,-30.09755,-12.47628,15.24121,0,0,0,74.62113,90.15275,-37.94752,-43.98536,-110.4637,-29.48654,0.001067912,0.1562898,0.241335,0,0.3,0,0,0,0,
6.38223E+17,30.65151,74.71674,60.79628,11.87193,-61.25756,-141.7964,-17.57573,-0.4441859,5.299829,-30.09755,-12.47628,15.24121,0,0,0,77.26238,86.92036,-37.9741,-43.98536,-110.4637,-29.48654,0.001067912,0.1562898,0.241335,0,0.3,0,0,0,0,
6.38223E+17,31.21695,73.99201,60.04917,13.7763,-60.30537,-141.8697,-17.57573,-0.4441859,5.299829,-30.09755,-12.47628,15.24121,0,0,0,78.94221,84.95325,-38.08788,-43.98536,-110.4637,-29.48654,0.001067912,0.1562898,0.241335,0,0.3,0,0,0,0,
6.38223E+17,32.46563,72.56595,58.62498,17.29207,-58.10802,-141.7964,-17.57573,-0.4441859,5.299829,-30.09755,-12.47628,15.24121,0,0,0,82.561,81.14722,-38.58347,-43.98536,-110.4637,-29.48654,0.001067912,0.1562898,0.241335,0,0.3,0,0,0,0,
6.38223E+17,34.16194,70.85934,56.94398,21.10082,-55.3247,-141.7964,-17.57573,-0.4441859,5.299829,-30.02431,-12.47628,15.24121,0,0,0,87.31268,76.59101,-39.68956,-43.98536,-110.4637,-29.48654,0.001067912,0.1562898,0.241335,0,0.3,0,0,0,0,
6.38223E+17,34.8923,70.15799,56.29026,22.56572,-54.07953,-141.8697,-17.57573,-0.4441859,5.299829,-30.09755,-12.47628,15.24121,0,0,0,89.34693,74.77592,-40.2375,-43.98536,-110.4637,-29.48654,0.001067912,0.1562898,0.241335,0,0.3,0,0,0,0,
6.38223E+17,36.96558,68.28773,54.67929,26.15474,-50.63701,-141.8697,-17.57573,-0.4441859,5.299829,-30.09755,-12.47628,15.24121,0,0,0,95.09294,70.14263,-41.99954,-43.98536,-110.4637,-29.48654,0.001067912,0.1562898,0.241335,0,0.3,0,0,0,0,
6.38223E+17,38.82682,66.41748,53.3952,29.23104,-47.41422,-141.8697,-17.57573,-0.4441859,5.299829,-30.09755,-12.47628,15.24121,0,0,0,100.5647,66.04768,-43.39256,-43.98536,-110.4637,-29.48654,0.001067912,0.1562898,0.241335,0,0.3,0,0,0,0,
6.38223E+17,40.71161,64.5706,52.27453,32.16084,-43.9717,-141.8697,-17.57573,-0.4441859,5.299829,-30.09755,-12.47628,15.31445,0,0,0,106.1434,62.18636,-44.9975,-43.98536,-110.4637,-29.48654,0.001067912,0.1562898,0.241335,0,0.3,0,0,0,0,
6.38223E+17,41.72469,63.58871,51.55077,33.62574,-42.06733,-141.8697,-17.57573,-0.4441859,5.299829,-30.09755,-12.47628,15.24121,0,0,0,108.9841,59.86165,-46.135,-43.98536,-110.4637,-29.48654,0.001067912,0.1562898,0.241335,0,0.3,0,0,0,0,
6.38223E+17,43.39745,61.81197,50.3834,35.96959,-38.55156,-141.8697,-17.57573,-0.4441859,5.299829,-30.09755,-12.47628,15.24121,0,0,0,113.8542,55.85472,-47.94177,-43.98536,-110.4637,-29.48654,0.001067912,0.1562898,0.241335,0,0.3,0,0,0,0,
6.38223E+17,44.99953,59.87158,49.44951,37.80072,-35.32877,-141.8697,-17.57573,-0.4441859,5.299829,-30.09755,-12.47628,15.24121,0,0,0,118.975,51.99153,-49.37303,-43.98536,-110.4637,-29.48654,0.001067912,0.1562898,0.241335,0,0.3,0,0,0,0,
6.38223E+17,46.366,58.04808,48.6557,39.63185,-32.17923,-141.8697,-17.57573,-0.4441859,5.299829,-30.09755,-12.47628,15.24121,0,0,0,123.5338,48.40782,-50.57048,-43.98536,-110.4637,-29.48654,0.001067912,0.1562898,0.241335,0,0.3,0,0,0,0,
6.38223E+17,47.11992,57.06619,48.16541,40.51079,-30.49459,-141.8697,-17.57573,-0.4441859,5.299829,-30.09755,-12.47628,15.24121,0,0,0,125.931,46.32845,-51.40924,-43.98536,-110.4637,-29.48654,0.001067912,0.1562898,0.241335,0,0.3,0,0,0,0,
6.38223E+17,48.4864,54.86864,47.09144,41.90245,-27.41829,-141.8697,-17.57573,-0.4441859,5.299829,-30.09755,-12.47628,15.16796,0,0,0,130.5962,41.61955,-52.75298,-43.98536,-110.4637,-29.48654,0.001067912,0.1562898,0.241335,0,0.3,0,0,0,0,
6.38223E+17,49.68796,52.39055,45.87738,42.92788,-24.19551,-141.8697,-17.57573,-0.4441859,5.299829,-30.09755,-12.47628,15.24121,0,0,0,135.0489,36.15063,-53.77141,-43.98536,-110.4637,-29.48654,0.001067912,0.1562898,0.241335,0,0.3,0,0,0,0,
6.38223E+17,50.2534,51.058,45.20031,43.29411,-22.58411,-141.8697,-17.57573,-0.4441859,5.299829,-30.09755,-12.47628,15.24121,0,0,0,137.1964,33.10484,-54.25875,-43.98536,-110.4637,-29.48654,0.001067912,0.1562898,0.241335,0,0.3,0,0,0,0,
6.38223E+17,51.24292,48.18248,43.93955,43.58709,-19.36132,-141.9429,-17.57573,-0.4441859,5.299829,-30.09755,-12.47628,15.24121,0,0,0,141.4913,26.7104,-54.76248,-43.98536,-110.4637,-29.48654,0.001067912,0.1562898,0.241335,0,0.3,0,0,0,0,
6.38223E+17,52.02039,44.90953,42.77219,43.66033,-16.06529,-141.7232,-17.57573,-0.4441859,5.299829,-30.09755,-12.47628,15.24121,0,0,0,145.8205,19.60684,-54.50609,-43.98536,-110.4637,-29.48654,0.001067912,0.1562898,0.241335,0,0.3,0,0,0,0,
6.38223E+17,52.53872,41.75347,41.55813,43.51384,-12.8425,-141.9429,-17.57573,-0.4441859,5.299829,-30.09755,-12.47628,15.24121,0,0,0,149.1825,12.3678,-54.0383,-43.98536,-110.4637,-29.48654,0.001067912,0.1562898,0.241335,0,0.3,0,0,0,0,
6.38223E+17,52.77431,40.04686,40.92776,43.29411,-11.01137,-142.0894,-17.57573,-0.4441859,5.299829,-30.09755,-12.47628,15.24121,0,0,0,150.8436,8.398498,-53.74687,-43.98536,-110.4637,-29.48654,0.001067912,0.1562898,0.241335,0,0.3,0,0,0,0,
6.38223E+17,53.22195,36.93756,39.94717,42.6349,-7.715342,-142.0894,-17.57573,-0.4441859,5.299829,-30.09755,-12.47628,15.24121,0,0,0,153.9502,1.254912,-53.27248,-43.98536,-110.4637,-29.48654,0.001067912,0.1562898,0.241335,0,0.3,0,0,0,0,
6.38223E+17,53.66959,33.52435,39.01328,41.90245,-4.272818,-142.0162,-17.57573,-0.4441859,5.299829,-30.09755,-12.47628,15.24121,0,0,0,157.1844,-6.614923,-52.75811,-43.98536,-110.4637,-29.48654,0.001067912,0.1562898,0.241335,0,0.3,0,0,0,0,
6.38223E+17,54.18791,30.48518,38.3829,41.09675,-1.489502,-142.1627,-17.57573,-0.4441859,5.299829,-30.09755,-12.47628,15.24121,0,0,0,160.3348,-13.52972,-52.66148,-43.98536,-110.4637,-29.48654,0.001067912,0.1562898,0.241335,0,0.3,0,0,0,0,
6.38223E+17,54.51775,28.94222,38.12609,40.73053,-0.2443342,-142.3092,-17.57573,-0.4441859,5.299829,-30.09755,-12.47628,15.24121,0,0,0,162.0653,-17.01861,-52.82569,-43.98536,-110.4637,-29.48654,0.001067912,0.1562898,0.241335,0,0.3,0,0,0,0,
6.38223E+17,55.27167,26.16021,37.75253,40.14456,2.099511,-142.3092,-17.57573,-0.4441859,5.299829,-30.09755,-12.47628,15.24121,0,0,0,165.4689,-23.29315,-53.65279,-43.98536,-110.4637,-29.48654,0.001067912,0.1562898,0.241335,0,0.3,0,0,0,0,
6.38223E+17,55.31879,23.35482,37.02876,39.48536,4.443357,-142.3092,-17.57573,-0.4441859,5.299829,-30.09755,-12.47628,15.24121,0,0,0,166.7109,-30.24458,-52.99475,-43.98536,-110.4637,-29.48654,0.001067912,0.1562898,0.241335,0,0.3,0,0,0,0,
6.38223E+17,55.34235,20.50268,36.42173,38.0937,6.787202,-142.3092,-17.57573,-0.4441859,5.299829,-30.09755,-12.47628,15.24121,0,0,0,167.8658,-37.24656,-52.29766,-43.98536,-110.4637,-29.48654,0.001067912,0.1562898,0.241335,0,0.3,0,0,0,0,
6.38223E+17,55.34235,18.88959,36.18826,37.14151,8.471841,-142.3092,-17.57573,-0.4441859,5.299829,-30.09755,-12.47628,15.24121,0,0,0,168.5464,-41.10283,-51.82715,-43.98536,-110.4637,-29.48654,0.001067912,0.1562898,0.241335,0,0.3,0,0,0,0,
6.38223E+17,55.36591,17.22974,36.14157,35.96959,10.6692,-142.3092,-17.57573,-0.4441859,5.299829,-30.09755,-12.47628,15.24121,0,0,0,169.5075,-44.83965,-51.26572,-43.98536,-110.4637,-29.48654,0.001067912,0.1562898,0.241335,0,0.3,0,0,0,0,
6.38223E+17,55.36591,16.55177,36.14157,34.87091,12.28059,-142.3092,-17.57573,-0.4441859,5.299829,-30.09755,-12.47628,15.24121,0,0,0,169.8847,-46.34947,-51.00517,-43.98536,-110.4637,-29.48654,0.001067912,0.1562898,0.241335,0,0.3,0,0,0,0,
6.38223E+17,55.36591,16.52839,36.16492,34.50468,12.72006,-142.3092,-17.57573,-0.4441859,5.299829,-30.09755,-12.47628,15.24121,0,0,0,169.9335,-46.36957,-50.97142,-43.98536,-110.4637,-29.48654,0.001067912,0.1562898,0.241335,0,0.3,0,0,0,0,
6.38223E+17,55.36591,16.52839,36.49178,34.06521,12.86655,-142.3092,-17.57573,-0.4441859,5.299829,-30.09755,-12.47628,15.24121,0,0,0,170.4378,-45.9189,-50.62311,-43.98536,-110.4637,-29.48654,0.001067912,0.1562898,0.241335,0,0.3,0,0,0,0,
6.38223E+17,55.36591,16.48163,37.00542,34.2117,12.64682,-142.0162,-17.57573,-0.4441859,5.299829,-30.09755,-12.47628,15.24121,0,0,0,171.2514,-45.308,-50.06115,-43.98536,-110.4637,-29.48654,0.001067912,0.1562898,0.241335,0,0.3,0,0,0,0,
6.38223E+17,55.34235,16.10758,37.47236,34.65118,12.20734,-141.7964,-17.57573,-0.4441859,5.299829,-30.09755,-12.54952,15.24121,0,0,0,172.1153,-45.48595,-49.35983,-43.98536,-110.4637,-29.48654,0.001067912,0.1562898,0.241335,0,0.3,0,0,0,0,
6.38223E+17,55.31879,15.64002,37.65914,34.87091,12.06085,-141.7964,-17.57573,-0.4441859,5.299829,-30.09755,-12.47628,15.24121,0,0,0,172.5945,-46.26763,-48.92363,-43.98536,-110.4637,-29.48654,0.001067912,0.1562898,0.241335,0,0.3,0,0,0,0,
6.38223E+17,55.27167,14.00354,37.986,35.0174,12.20734,-141.7964,-17.57573,-0.4441859,5.299829,-30.09755,-12.47628,15.24121,0,0,0,173.7908,-49.483,-47.88436,-43.98536,-110.4637,-29.48654,0.001067912,0.1562898,0.241335,0,0.3,0,0,0,0,
6.38223E+17,55.24811,12.2268,38.19613,35.0174,12.72006,-141.8697,-17.57573,-0.4441859,5.299829,-30.09755,-12.47628,15.24121,0,0,0,174.8284,-53.20847,-47.05867,-43.98536,-110.4637,-29.48654,0.001067912,0.1562898,0.241335,0,0.3,0,0,0,0,
6.38223E+17,55.22455,10.6137,38.21947,34.65118,13.37927,-142.0162,-17.57573,-0.4441859,5.299829,-30.09755,-12.47628,15.24121,0,0,0,175.4242,-56.85472,-46.53846,-43.98536,-110.4637,-29.48654,0.001067912,0.1562898,0.241335,0,0.3,0,0,0,0,
6.38223E+17,55.22455,9.842223,38.19613,34.3582,13.74549,-142.0162,-17.57573,-0.4441859,5.299829,-30.09755,-12.47628,15.24121,0,0,0,175.651,-58.65532,-46.38097,-43.98536,-110.4637,-29.48654,0.001067912,0.1562898,0.241335,0,0.3,0,0,0,0,
6.38223E+17,55.22455,8.439531,38.19613,33.84548,14.33146,-142.0162,-17.57573,-0.4441859,5.299829,-30.09755,-12.47628,15.24121,0,0,0,176.077,-61.87841,-46.08517,-43.98536,-110.4637,-29.48654,0.001067912,0.1562898,0.241335,0,0.3,0,0,0,0,
6.38223E+17,55.22455,7.083596,38.19613,33.18628,14.77092,-141.9429,-17.57573,-0.4441859,5.299829,-30.09755,-12.47628,15.24121,0,0,0,176.427,-65.00522,-45.84209,-43.98536,-110.4637,-29.48654,0.001067912,0.1562898,0.241335,0,0.3,0,0,0,0,
6.38223E+17,55.20099,6.288737,38.17278,32.82005,15.06391,-141.8697,-17.57573,-0.4441859,5.299829,-30.09755,-12.47628,15.24121,0,0,0,176.5184,-66.87617,-45.67101,-43.98536,-110.4637,-29.48654,0.001067912,0.1562898,0.241335,0,0.3,0,0,0,0,
6.38223E+17,55.13031,5.026314,37.986,32.23409,15.43013,-142.0162,-17.57573,-0.4441859,5.299829,-30.09755,-12.47628,15.24121,0,0,0,176.3239,-70.06806,-45.48339,-43.98536,-110.4637,-29.48654,0.001067912,0.1562898,0.241335,0,0.3,0,0,0,0,
6.38223E+17,54.96539,3.530109,37.65914,31.72137,15.8696,-142.0894,-17.57573,-0.4441859,5.299829,-30.09755,-12.54952,15.24121,0,0,0,175.6901,-74.00702,-45.17221,-43.98536,-110.4637,-29.48654,0.001067912,0.1562898,0.241335,0,0.3,0,0,0,0,
6.38223E+17,54.58843,1.987147,37.26224,31.20865,16.30907,-142.0894,-17.57573,-0.4441859,5.299829,-30.09755,-12.47628,15.24121,0,0,0,174.4192,-78.15568,-44.34372,-43.98536,-110.4637,-29.48654,0.001067912,0.1562898,0.241335,0,0.3,0,0,0,0,
6.38223E+17,54.37639,1.309179,36.91203,30.91567,16.52881,-142.0894,-17.57573,-0.4441859,5.299829,-30.09755,-12.47628,15.24121,0,0,0,173.4674,-80.22443,-44.05136,-43.98536,-110.4637,-29.48654,0.001067912,0.1562898,0.241335,0,0.3,0,0,0,0,
6.38223E+17,53.74027,-0.09351282,35.93144,29.74375,17.33451,-142.1627,-17.57573,-0.4441859,5.299829,-30.09755,-12.47628,15.24121,0,0,0,170.6239,-84.84377,-43.19881,-43.98536,-110.4637,-29.48654,0.001067912,0.1562898,0.241335,0,0.3,0,0,0,0,
6.38223E+17,52.98635,-1.005263,34.95086,28.64507,17.99371,-142.2359,-17.57573,-0.4441859,5.299829,-30.09755,-12.47628,15.24121,0,0,0,167.4615,-88.28902,-42.09615,-43.98536,-110.4637,-29.48654,0.001067912,0.1562898,0.241335,0,0.3,0,0,0,0,
6.38223E+17,52.18531,-0.9818845,33.2932,27.61964,18.65292,-142.3092,-17.57573,-0.4441859,5.299829,-30.09755,-12.47628,15.24121,0,0,0,163.1578,-90.39872,-41.72486,-43.98536,-110.4637,-29.48654,0.001067912,0.1562898,0.241335,0,0.3,0,0,0,0,
6.38223E+17,51.59631,-1.005263,32.59278,27.03368,18.9459,-142.3092,-17.57573,-0.4441859,5.299829,-30.09755,-12.47628,15.24121,0,0,0,160.7747,-91.3396,-40.90472,-43.98536,-110.4637,-29.48654,0.001067912,0.1562898,0.241335,0,0.3,0,0,0,0,
6.38223E+17,50.3712,-0.9818845,31.19195,26.22798,19.53186,-141.6499,-17.57573,-0.4441859,5.299829,-30.09755,-12.47628,15.24121,0,0,0,155.8818,-93.00765,-39.26128,-43.98536,-110.4637,-29.48654,0.001067912,0.1562898,0.241335,0,0.3,0,0,0,0,
6.38223E+17,48.9576,-0.9818845,29.8378,25.1293,20.26431,-141.7964,-17.57573,-0.4441859,5.299829,-30.09755,-12.47628,15.24121,0,0,0,150.6021,-94.60789,-37.2378,-43.98536,-110.4637,-29.48654,0.001067912,0.1562898,0.241335,0,0.3,0,0,0,0,
6.38223E+17,47.61468,-0.8182371,28.55371,23.81089,21.2165,-141.5767,-17.57573,-0.4441859,5.299829,-30.09755,-12.47628,15.24121,0,0,0,145.5654,-95.68487,-35.49892,-43.98536,-110.4637,-29.48654,0.001067912,0.1562898,0.241335,0,0.3,0,0,0,0,
6.38223E+17,47.0728,-0.3974294,27.80659,23.15168,21.65597,-141.357,-17.57573,-0.4441859,5.299829,-30.09755,-12.47628,15.24121,0,0,0,143.1878,-95.52669,-35.16499,-43.98536,-110.4637,-29.48654,0.001067912,0.1562898,0.241335,0,0.3,0,0,0,0,
6.38223E+17,46.57804,1.449449,26.19563,22.1995,22.31518,-140.1118,-17.57573,-0.4441859,5.299829,-30.09755,-12.47628,15.24121,0,0,0,139.5774,-92.93081,-36.25682,-43.98536,-110.4637,-29.48654,0.001067912,0.1562898,0.241335,0,0.3,0,0,0,0,
6.38223E+17,46.57804,4.301589,24.67806,21.76003,22.46167,-138.7934,-17.57573,-0.4441859,5.299829,-30.09755,-12.47628,15.24121,0,0,0,137.019,-87.81879,-38.67805,-43.98536,-110.4637,-29.48654,0.001067912,0.1562898,0.241335,0,0.3,0,0,0,0,
6.38223E+17,46.79008,8.018724,23.25388,21.76003,21.80246,-137.4017,-17.57573,-0.4441859,5.299829,-30.09755,-12.47628,15.24121,0,0,0,134.6139,-80.56536,-41.89526,-43.98536,-110.4637,-29.48654,0.001067912,0.1562898,0.241335,0,0.3,0,0,0,0,
6.38223E+17,46.955,10.00587,22.71689,21.97976,21.07001,-136.7425,-17.57573,-0.4441859,5.299829,-30.09755,-12.47628,15.24121,0,0,0,133.6071,-76.48584,-43.56306,-43.98536,-110.4637,-29.48654,0.001067912,0.1562898,0.241335,0,0.3,0,0,0,0,
6.38223E+17,47.26128,13.62949,22.08651,22.49248,19.45862,-135.8636,-17.57573,-0.4441859,5.299829,-30.09755,-12.47628,15.24121,0,0,0,132.0077,-68.79149,-46.37156,-43.98536,-110.4637,-29.48654,0.001067912,0.1562898,0.241335,0,0.3,0,0,0,0,
6.38223E+17,47.68536,17.55703,21.80634,23.51791,17.33451,-135.9368,-17.57573,-0.4441859,5.299829,-30.09755,-12.47628,15.24121,0,0,0,130.6431,-60.23241,-49.41294,-43.98536,-110.4637,-29.48654,0.001067912,0.1562898,0.241335,0,0.3,0,0,0,0,
6.38223E+17,47.87384,19.17013,21.75965,23.95738,16.45556,-136.0101,-17.57573,-0.4441859,5.299829,-30.09755,-12.47628,15.24121,0,0,0,130.0815,-56.70973,-50.70438,-43.98536,-110.4637,-29.48654,0.001067912,0.1562898,0.241335,0,0.3,0,0,0,0,
6.38223E+17,48.34504,22.70024,21.75965,25.05606,14.18496,-136.0833,-17.57573,-0.4441859,5.299829,-30.09755,-12.47628,15.24121,0,0,0,128.8516,-49.03735,-53.72899,-43.98536,-110.4637,-29.48654,0.001067912,0.1562898,0.241335,0,0.3,0,0,0,0,
6.38223E+17,48.67488,25.7394,21.75965,26.00825,12.20734,-136.3763,-17.57573,-0.4441859,5.299829,-30.09755,-12.47628,15.24121,0,0,0,127.3304,-42.58737,-56.38855,-43.98536,-110.4637,-29.48654,0.001067912,0.1562898,0.241335,0,0.3,0,0,0,0,
6.38223E+17,48.9576,28.75519,21.85304,26.81394,10.15648,-138.4272,-17.57573,-0.4441859,5.299829,-30.09755,-12.47628,15.24121,0,0,0,125.6101,-36.26725,-58.9955,-43.98536,-110.4637,-29.48654,0.001067912,0.1562898,0.241335,0,0.3,0,0,0,0,
6.38223E+17,49.12252,30.39166,22.03982,27.18017,8.984557,-139.6723,-17.57573,-0.4441859,5.299829,-30.09755,-12.47628,15.24121,0,0,0,124.808,-32.79235,-60.32378,-43.98536,-110.4637,-29.48654,0.001067912,0.1562898,0.241335,0,0.3,0,0,0,0,
6.38223E+17,49.35812,33.45421,22.41338,28.05911,6.713957,-141.2837,-17.57573,-0.4441859,5.299829,-30.09755,-12.47628,15.24121,0,0,0,123.0022,-26.41445,-62.76828,-43.98536,-110.4637,-29.48654,0.001067912,0.1562898,0.241335,0,0.3,0,0,0,0,
6.38223E+17,49.52304,36.30635,22.71689,29.0113,4.882828,-141.6499,-17.57573,-0.4441859,5.299829,-30.09755,-12.47628,15.24121,0,0,0,120.9146,-20.69841,-65.16325,-43.98536,-110.4637,-29.48654,0.001067912,0.1562898,0.241335,0,0.3,0,0,0,0,
6.38223E+17,49.59372,39.08836,23.16049,29.67051,3.198189,-141.7964,-17.57573,-0.4441859,5.299829,-30.09755,-12.47628,15.24121,0,0,0,118.7512,-15.17331,-67.26236,-43.98536,-110.4637,-29.48654,0.001067912,0.1562898,0.241335,0,0.3,0,0,0,0,
6.38223E+17,49.59372,40.6547,23.5107,29.96349,2.172756,-141.9429,-17.57573,-0.4441859,5.299829,-30.09755,-12.54952,15.24121,0,0,0,117.5416,-12.05268,-68.29205,-43.98536,-110.4637,-29.48654,0.001067912,0.1562898,0.241335,0,0.3,0,0,0,0,
6.38223E+17,49.59372,43.69386,24.3512,30.54945,0.268382,-142.0162,-17.57573,-0.4441859,5.299829,-30.09755,-12.47628,15.24121,0,0,0,115.2873,-6.017703,-70.211,-43.98536,-110.4637,-29.48654,0.001067912,0.1562898,0.241335,0,0.3,0,0,0,0,
6.38223E+17,49.59372,46.94343,25.47187,31.2819,-1.855728,-141.9429,-17.57573,-0.4441859,5.299829,-30.09755,-12.47628,15.24121,0,0,0,112.9943,0.3982573,-72.16292,-43.98536,-110.4637,-29.48654,0.001067912,0.1562898,0.241335,0,0.3,0,0,0,0,
6.38223E+17,49.59372,48.6968,26.14894,31.79461,-3.100896,-141.7232,-17.57573,-0.4441859,5.299829,-30.09755,-12.47628,15.24121,0,0,0,111.7719,3.824326,-73.20348,-43.98536,-110.4637,-29.48654,0.001067912,0.1562898,0.241335,0,0.3,0,0,0,0,
6.38223E+17,49.57016,51.66583,27.08283,32.82005,-5.15176,-141.7964,-17.57573,-0.4441859,5.299829,-30.09755,-12.47628,15.24121,0,0,0,109.1724,9.222541,-75.33895,-43.98536,-110.4637,-29.48654,0.001067912,0.1562898,0.241335,0,0.3,0,0,0,0,
6.38223E+17,49.47592,54.28419,27.7132,33.62574,-7.12938,-141.8697,-17.57573,-0.4441859,5.299829,-30.09755,-12.47628,15.24121,0,0,0,106.3114,13.56691,-77.47415,-43.98536,-110.4637,-29.48654,0.001067912,0.1562898,0.241335,0,0.3,0,0,0,0,
6.38223E+17,49.45236,56.92593,28.53036,34.3582,-8.887264,-141.8697,-17.57573,-0.4441859,5.299829,-30.09755,-12.47628,15.24121,0,0,0,103.6938,17.9362,-79.63789,-43.98536,-110.4637,-29.48654,0.001067912,0.1562898,0.241335,0,0.3,0,0,0,0,
6.38223E+17,49.45236,57.97795,28.85722,34.57793,-9.473226,-141.8697,-17.57573,-0.4441859,5.299829,-30.09755,-12.47628,15.24121,0,0,0,102.6326,19.61872,-80.54577,-43.98536,-110.4637,-29.48654,0.001067912,0.1562898,0.241335,0,0.3,0,0,0,0,
6.38223E+17,49.47592,60.36252,29.74442,35.0174,-10.64515,-141.8697,-17.57573,-0.4441859,5.299829,-30.09755,-12.47628,15.24121,0,0,0,100.4152,23.47328,-82.51429,-43.98536,-110.4637,-29.48654,0.001067912,0.1562898,0.241335,0,0.3,0.3,0.3,0,0,
6.38223E+17,50.1356,62.70034,32.0091,36.18932,-12.25654,-141.5767,-16.58621,-0.4675641,4.669453,-29.87782,-12.54952,15.16796,0,0,0,101.1978,28.77148,-83.84227,-41.16335,-110.6456,-30.14882,0.001067912,0.1562898,0.241335,0,0.3,0.3,0.3,0,0,
6.38223E+17,50.72459,64.43033,33.71345,37.94721,-13.28197,-141.5767,-14.01818,-0.4675641,3.221923,-27.75371,-12.62277,15.16796,0,0,0,101.8495,32.71614,-85.0601,-34.1157,-110.8774,-31.70407,0.001067912,0.1562898,0.241335,0,0.3,0.3,0.3,0,0,
6.38223E+17,50.93663,65.34208,34.55396,38.89939,-13.79469,-141.5767,-11.87422,-0.4675641,2.311379,-25.48311,-12.47628,15.24121,0,0,0,101.9224,34.7144,-85.62804,-28.54431,-110.9797,-32.59486,0.001067912,0.1562898,0.241335,0,0.3,0.3,0.3,0,0,
6.38223E+17,51.1958,67.11882,36.11822,40.51079,-14.60039,-141.6499,-7.327148,-0.4675641,1.2841,-20.06297,-11.89032,15.16796,0,0,0,101.6609,38.48665,-86.60024,-17.38729,-111.0547,-33.12937,0.001067912,0.1562898,0.241335,0,0.3,0.3,0.3,0,0,
6.38223E+17,51.21936,69.45664,38.17278,42.34192,-15.47933,-141.6499,-0.4240793,-0.4675641,1.167363,-10.68758,-11.23111,15.24121,0,0,0,100.7253,43.38668,-87.42078,-1.007067,-111.0605,-32.29144,0.001067912,0.1562898,0.241335,0,0.3,0.3,0.3,0,0,
6.38223E+17,51.21936,71.25676,39.99387,43.88007,-16.57801,-141.5767,7.397828,-0.4675641,1.727698,0.8119082,-10.93813,15.24121,0,0,0,100.1986,47.5718,-87.84395,17.68697,-111.0276,-32.12744,0.001067912,0.1562898,0.241335,0,0.3,0.3,0.3,0,0,
6.38223E+17,51.21936,71.95811,40.78767,44.53928,-17.16397,-141.5767,11.02606,-0.4675641,2.031212,6.378541,-10.86488,15.31445,0,0,0,100.1036,49.17919,-87.92033,26.40703,-111.0044,-32.82676,0.001067912,0.1562898,0.241335,0,0.3,0.3,0.3,0,0,
6.38223E+17,51.12512,73.29067,42.46867,45.85769,-18.33589,-141.6499,20.02597,-0.4675641,3.175228,20.51486,-10.79164,15.31445,0,0,0,99.94347,52.70422,-87.77809,48.19304,-110.8835,-36.1272,0.001067912,0.1562898,0.241335,0,0.3,0.3,0.3,0,0,
6.38223E+17,50.9602,74.45957,44.07964,47.32259,-19.28808,-141.6499,29.30859,-0.4675641,5.323177,35.74985,-10.71839,15.3877,0,0,0,99.80148,56.02983,-87.4175,71.33035,-110.5131,-41.28547,0.001067912,0.1562898,0.241335,0,0.3,0,0,0,0,
6.38223E+17,50.08848,76.02592,45.2937,48.34802,-20.02053,-141.9429,37.41322,-0.4675641,6.630623,50.32565,-10.20568,15.24121,0,0,0,97.3956,58.9454,-86.88136,90.3703,-110.1962,-50.20705,0.001067912,0.1562898,0.241335,0,0.3,0,0,0,0,
6.38223E+17,49.311,77.10131,46.15754,48.78749,-20.67974,-141.9429,41.11213,-0.4675641,6.280415,57.13744,-9.839451,15.24121,0,0,0,95.49955,60.9665,-86.23932,97.27131,-110.2879,-56.89346,0.001067912,0.1562898,0.241335,0,0.3,0,0,0,0,
6.38223E+17,47.40264,78.97157,47.90859,49.37346,-22.07139,-141.9429,45.75344,-0.4675641,5.276482,64.90143,-9.25349,15.24121,0,0,0,91.62236,64.85078,-84.10671,104.3059,-110.5231,-66.75192,0.001067912,0.1562898,0.241335,0,0.3,0,0,0,0,
6.38223E+17,44.52832,80.9821,49.86976,50.03266,-24.19551,-141.9429,48.67488,-0.4675641,4.552717,69.00316,-8.814018,15.16796,0,0,0,86.15605,69.104,-80.76363,108.0881,-110.6674,-73.3083,0.001067912,0.1562898,0.241335,0,0.3,0,0,0,0,
6.38223E+17,41.51265,82.64195,51.2706,50.32565,-26.61259,-141.9429,49.05184,-0.4675641,4.529369,70.39482,-8.594284,15.16796,0,0,0,80.26707,72.17238,-77.66494,108.6701,-110.6717,-74.05698,0.001067912,0.1562898,0.241335,0,0.3,0,0,0,0,
6.38223E+17,39.55717,83.43681,51.92432,50.2524,-28.22399,-141.9429,48.81624,-0.4675641,4.529369,70.83429,-8.447793,15.24121,0,0,0,76.55833,73.58889,-75.66591,108.2815,-110.6717,-73.61093,0.001067912,0.1562898,0.241335,0,0.3,0,0,0,0,
6.38223E+17,36.16454,84.41869,52.76482,49.59319,-31.08055,-141.9429,48.29792,-0.4675641,4.529369,71.20052,-8.374548,15.16796,0,0,0,70.30355,75.37932,-72.16754,107.42,-110.6717,-72.63527,0.001067912,0.1562898,0.241335,0,0.3,0,0,0,0,
6.38223E+17,32.60699,84.95639,53.25511,47.9818,-34.23009,-141.8697,47.80316,-0.4675641,4.529369,71.12727,-8.301303,15.16796,0,0,0,63.89835,76.40663,-68.46177,106.5895,-110.6717,-71.71126,0.001067912,0.1562898,0.241335,0,0.3,0,0,0,0,
6.38223E+17,28.95519,85.12004,53.55863,45.49146,-37.1599,-141.8697,47.49688,-0.4675641,4.529369,70.98078,-8.301303,15.16796,0,0,0,57.42662,77.00673,-64.55828,106.0714,-110.6717,-71.14286,0.001067912,0.1562898,0.241335,0,0.3,0,0,0,0,
6.38223E+17,26.88192,85.12004,53.65202,43.73357,-38.77129,-141.7964,47.44976,-0.4675641,4.529369,70.90753,-8.301303,15.16796,0,0,0,53.69241,77.18169,-62.43364,105.9914,-110.6717,-71.05566,0.001067912,0.1562898,0.241335,0,0.3,0,0,0,0,
6.38223E+17,22.92384,85.02653,53.69871,39.48536,-41.7011,-139.6723,47.4262,-0.4675641,4.529369,70.76105,-8.301303,15.16796,0,0,0,46.36284,77.25056,-58.72107,105.9514,-110.6717,-71.01208,0.001067912,0.1562898,0.241335,0,0.3,0,0,0,0,
6.38223E+17,18.82441,84.55896,53.69871,32.7468,-44.7774,-130.4434,47.4262,-0.4675641,4.529369,70.6878,-8.301303,15.16796,0,0,0,38.7568,77.15179,-54.66144,105.9514,-110.6717,-71.01208,0.001067912,0.1562898,0.241335,0,0.3,0,0,0,0,
6.38223E+17,17.43437,84.27842,53.69871,29.74375,-45.87607,-127.1474,47.4262,-0.4675641,4.529369,70.6878,-8.301303,15.16796,0,0,0,36.18219,77.08829,-53.13474,105.9514,-110.6717,-71.01208,0.001067912,0.1562898,0.241335,0,0.3,0,0,0,0,
6.38223E+17,14.70142,83.39005,53.62867,22.05301,-47.78045,-120.1159,47.4262,-0.4675641,4.529369,70.6878,-8.301303,15.16796,0,0,0,31.14463,76.7349,-49.64569,105.9514,-110.6717,-71.01208,0.001067912,0.1562898,0.241335,0,0.3,0,0,0,0,
6.38223E+17,12.4161,82.33804,53.25511,13.48332,-49.17211,-114.6957,47.4262,-0.4675641,4.529369,70.6878,-8.301303,15.16796,0,0,0,26.79745,75.73239,-46.63129,105.9514,-110.6717,-71.01208,0.001067912,0.1562898,0.241335,0,0.3,0,0,0,0,
6.38223E+17,10.6491,81.33276,52.78817,5.79258,-49.68482,-111.8392,47.4262,-0.4675641,4.529369,70.6878,-8.228058,15.16796,0,0,0,23.33867,74.53195,-44.2293,105.9514,-110.6717,-71.01208,0.001067912,0.1562898,0.241335,0,0.3,0,0,0,0,
6.38223E+17,9.636024,80.6548,52.41461,1.69085,-49.83131,-110.5207,47.4262,-0.4675641,4.529369,70.6878,-8.228058,15.16796,0,0,0,21.31297,73.59425,-42.8202,105.9514,-110.6717,-71.01208,0.001067912,0.1562898,0.241335,0,0.3,0,0,0,0,
6.38223E+17,7.845467,79.27549,51.48072,-5.120951,-49.53833,-107.1515,47.4262,-0.4675641,4.529369,70.6878,-8.228058,15.09472,0,0,0,17.62887,71.32337,-40.41128,105.9514,-110.6717,-71.01208,0.001067912,0.1562898,0.241335,0,0.3,0,0,0,0,
6.38223E+17,6.07847,77.80266,50.3834,-11.78626,-48.73264,-104.8809,47.4262,-0.4675641,4.529369,70.6878,-8.228058,15.09472,0,0,0,13.86078,68.65946,-38.18851,105.9514,-110.6717,-71.01208,0.001067912,0.1562898,0.241335,0,0.3,0,0,0,0,
6.38223E+17,4.287913,76.23632,49.33278,-17.64587,-47.41422,-103.8554,47.4262,-0.4675641,4.529369,70.6878,-8.228058,15.16796,0,0,0,9.934716,65.97141,-35.84865,105.9514,-110.6717,-71.01208,0.001067912,0.1562898,0.241335,0,0.3,0,0,0,0,
6.38223E+17,3.392634,75.20768,48.7024,-20.57568,-46.68177,-103.5625,47.4262,-0.4675641,4.529369,70.6878,-8.228058,15.16796,0,0,0,7.943538,64.27343,-34.35408,105.9514,-110.6717,-71.01208,0.001067912,0.1562898,0.241335,0,0.3,0,0,0,0,
6.38223E+17,1.861237,73.29067,47.62842,-25.04364,-44.99713,-103.416,47.4262,-0.4675641,4.529369,70.6878,-8.228058,15.09472,0,0,0,4.445009,61.20002,-31.56426,105.9514,-110.6717,-71.01208,0.001067912,0.1562898,0.241335,0,0.3,0,0,0,0,
6.38223E+17,0.1649197,71.25676,46.62449,-29.29186,-43.23925,-103.416,47.4262,-0.4675641,4.529369,70.6878,-8.228058,15.09472,0,0,0,0.4023323,58.04649,-28.57365,105.9514,-110.6717,-71.01208,0.001067912,0.1562898,0.241335,0,0.3,0,0,0,0,
6.38223E+17,-1.413598,69.03584,45.43378,-33.32034,-41.26163,-103.416,47.4262,-0.4675641,4.529369,70.6878,-8.228058,15.09472,0,0,0,-3.520682,54.2967,-25.67908,105.9514,-110.6717,-71.01208,0.001067912,0.1562898,0.241335,0,0.3,0,0,0,0,
6.38223E+17,-2.214636,67.77341,44.78006,-35.22471,-40.16295,-103.416,47.4262,-0.4675641,4.529369,70.6878,-8.228058,15.09472,0,0,0,-5.578992,52.13749,-24.08545,105.9514,-110.6717,-71.01208,0.001067912,0.1562898,0.241335,0,0.3,0,0,0,0,
6.38223E+17,-3.463314,65.36546,43.63604,-38.08128,-38.18533,-103.416,47.4262,-0.4675641,4.529369,70.6878,-8.228058,15.16796,0,0,0,-8.916772,48.05269,-21.01395,105.9514,-110.6717,-71.01208,0.001067912,0.1562898,0.241335,0,0.3,0,0,0,0,
6.38223E+17,-4.570632,62.79386,42.42198,-40.49837,-36.20771,-103.4892,47.4262,-0.4675641,4.529369,70.6878,-8.228058,15.16796,0,0,0,-12.02673,43.50862,-17.90723,105.9514,-110.6717,-71.01208,0.001067912,0.1562898,0.241335,0,0.3,0,0,0,0,
6.38223E+17,-5.018272,61.29765,41.72157,-41.59705,-35.10904,-103.7822,47.4262,-0.4675641,4.529369,70.6878,-8.154812,15.16796,0,0,0,-13.36494,40.784,-16.14712,105.9514,-110.6717,-71.01208,0.001067912,0.1562898,0.241335,0,0.3,0,0,0,0,
6.38223E+17,-5.560151,58.63254,40.46081,-42.9887,-33.4244,-105.0274,47.4262,-0.4675641,4.529369,70.6878,-8.154812,15.09472,0,0,0,-15.10977,35.75108,-13.13721,105.9514,-110.6717,-71.01208,0.001067912,0.1562898,0.241335,0,0.3,0,0,0,0,
6.38223E+17,-5.91355,55.9908,39.22341,-43.7944,-31.66651,-106.7852,47.4262,-0.4675641,4.529369,70.76105,-8.228058,15.09472,0,0,0,-16.37209,30.58577,-10.28619,105.9514,-110.6717,-71.01208,0.001067912,0.1562898,0.241335,0,0.3,0,0,0,0,
6.38223E+17,-6.10203,52.90487,37.56575,-44.23387,-29.76214,-109.3488,47.4262,-0.4675641,4.529369,70.76105,-8.228058,15.09472,0,0,0,-17.19162,24.01422,-7.537899,105.9514,-110.6717,-71.01208,0.001067912,0.1562898,0.241335,0,0.3,0,0,0,0,
6.38223E+17,-6.10203,51.71259,36.84199,-44.30712,-29.02968,-110.3743,47.4262,-0.4675641,4.529369,70.76105,-8.228058,15.09472,0,0,0,-17.28241,21.29911,-6.688599,105.9514,-110.6717,-71.01208,0.001067912,0.1562898,0.241335,0,0.3,0,0,0,0,
6.38223E+17,-6.10203,49.07085,35.18433,-44.08738,-27.05207,-113.0843,47.4262,-0.4675641,4.529369,70.6878,-8.154812,15.16796,0,0,0,-17.45418,15.11133,-5.081916,105.9514,-110.6717,-71.01208,0.001067912,0.1562898,0.241335,0,0.3,0,0,0,0,
6.38223E+17,-6.07847,46.52262,33.59671,-43.72115,-25.29418,-114.769,47.4262,-0.4675641,4.529369,70.6878,-8.154812,15.16796,0,0,0,-17.52934,9.040632,-3.738435,105.9514,-110.6717,-71.01208,0.001067912,0.1562898,0.241335,0,0.3,0,0,0,0,
6.38223E+17,-5.93711,43.55359,31.51881,-42.76897,-23.46305,-115.3549,47.4262,-0.4675641,4.529369,70.6878,-8.228058,15.16796,0,0,0,-17.20725,1.555832,-2.887049,105.9514,-110.6717,-71.01208,0.001067912,0.1562898,0.241335,0,0.3,0,0,0,0,
6.38223E+17,-5.819311,42.45482,30.725,-42.25625,-22.80385,-115.4282,47.4262,-0.4675641,4.529369,70.6878,-8.154812,15.16796,0,0,0,-16.88351,-1.269187,-2.690262,105.9514,-110.6717,-71.01208,0.001067912,0.1562898,0.241335,0,0.3,0,0,0,0,
6.38223E+17,-5.395231,40.04686,28.95061,-40.79135,-21.41219,-115.4282,47.4262,-0.4675641,4.529369,70.6878,-8.228058,15.09472,0,0,0,-15.66753,-7.536975,-2.457522,105.9514,-110.6717,-71.01208,0.001067912,0.1562898,0.241335,0,0.3,0,0,0,0,
6.38223E+17,-4.570632,37.54539,26.82601,-38.59399,-19.80079,-115.4282,47.4262,-0.4675641,4.529369,70.76105,-8.228058,15.09472,0,0,0,-13.22087,-14.38689,-2.969749,105.9514,-110.6717,-71.01208,0.001067912,0.1562898,0.241335,0,0.3,0,0,0,0,
6.38223E+17,-3.651794,35.53487,25.00492,-36.1769,-18.26265,-115.3549,47.4262,-0.4675641,4.529369,70.76105,-8.228058,15.09472,0,0,0,-10.50176,-19.99851,-3.803098,105.9514,-110.6717,-71.01208,0.001067912,0.1562898,0.241335,0,0.3,0,0,0,0,
6.38223E+17,-3.062795,34.45947,24.02434,-34.56551,-17.38371,-115.2817,47.4262,-0.4675641,4.529369,70.6878,-8.228058,15.09472,0,0,0,-8.775446,-22.99572,-4.343909,105.9514,-110.6717,-71.01208,0.001067912,0.1562898,0.241335,0,0.3,0,0,0,0,
6.38223E+17,-1.861237,32.65935,22.36668,-31.70894,-15.99205,-115.3549,47.4262,-0.4675641,4.529369,70.6878,-8.228058,15.09472,0,0,0,-5.29442,-28.00633,-5.425426,105.9514,-110.6717,-71.01208,0.001067912,0.1562898,0.241335,0,0.3,0,0,0,0,
6.38223E+17,-0.4240793,30.64882,20.73237,-28.92563,-14.38065,-115.3549,47.4262,-0.4675641,4.529369,70.6878,-8.154812,15.16796,0,0,0,-1.198515,-33.38635,-6.426031,105.9514,-110.6717,-71.01208,0.001067912,0.1562898,0.241335,0,0.3,0,0,0,0,
6.38223E+17,0.4476392,29.45654,19.84518,-27.24099,-13.42846,-114.9155,47.4262,-0.4675641,4.529369,70.76105,-8.154812,15.09472,0,0,0,1.260824,-36.50418,-6.9736,105.9514,-110.6717,-71.01208,0.001067912,0.1562898,0.241335,0,0.3,0,0,0,0,
6.38223E+17,2.120397,26.65115,18.35095,-23.79847,-11.15786,-111.7659,47.4262,-0.4675641,4.529369,70.76105,-8.154812,15.16796,0,0,0,5.963038,-43.4035,-7.294775,105.9514,-110.6717,-71.01208,0.001067912,0.1562898,0.241335,0,0.3,0,0,0,0,
6.38223E+17,3.604674,23.28469,17.20694,-19.84323,-8.154812,-106.8585,47.4262,-0.4675641,4.529369,70.6878,-8.154812,15.09472,0,0,0,10.18129,-51.31833,-6.733375,105.9514,-110.6717,-71.01208,0.001067912,0.1562898,0.241335,0,0.3,0,0,0,0,
6.38223E+17,4.806232,19.56756,16.29639,-15.66825,-4.199574,-101.9511,47.4262,-0.4675641,4.529369,70.76105,-8.154812,15.16796,0,0,0,13.66281,-59.98107,-5.85587,105.9514,-110.6717,-71.01208,0.001067912,0.1562898,0.241335,0,0.3,0,0,0,0,
6.38223E+17,5.018272,18.11811,16.10961,-14.2766,-2.661425,-100.2664,47.4262,-0.4675641,4.529369,70.6878,-8.154812,15.09472,0,0,0,14.32286,-63.29494,-5.23806,105.9514,-110.6717,-71.01208,0.001067912,0.1562898,0.241335,0,0.3,0,0,0,0,
6.38223E+17,4.924032,14.96205,16.01623,-11.71302,0.707853,-97.04363,47.4262,-0.4675641,4.529369,70.76105,-8.228058,15.09472,0,0,0,14.2161,-70.39564,-3.339668,105.9514,-110.6717,-71.01208,0.001067912,0.1562898,0.241335,0,0.3,0,0,0,0,
6.38223E+17,4.476392,12.32031,16.27304,-10.10162,4.150376,-94.40681,47.4262,-0.4675641,4.529369,70.76105,-8.154812,15.09472,0,0,0,13.08446,-76.20383,-1.215756,105.9514,-110.6717,-71.01208,0.001067912,0.1562898,0.241335,0,0.3,0,0,0,0,
6.38223E+17,3.793154,10.63708,16.81003,-9.36917,6.713957,-92.57568,47.4262,-0.4675641,4.529369,70.76105,-8.228058,15.09472,0,0,0,11.22137,-79.68707,0.9016851,105.9514,-110.6717,-71.01208,0.001067912,0.1562898,0.241335,0,0.3,0,0,0,0,
6.38223E+17,3.180595,9.935737,17.20694,-9.22268,7.739389,-91.55025,47.4262,-0.4675641,4.529369,70.76105,-8.154812,15.16796,0,0,0,9.476449,-81.02292,2.184994,105.9514,-110.6717,-71.01208,0.001067912,0.1562898,0.241335,0,0.3,0,0,0,0,
6.38223E+17,1.554958,9.140878,17.95405,-9.588906,9.057802,-90.52482,47.4262,-0.4675641,4.529369,70.6878,-8.154812,15.16796,0,0,0,4.688041,-82.32208,4.348619,105.9514,-110.6717,-71.01208,0.001067912,0.1562898,0.241335,0,0.3,0,0,0,0,
6.38223E+17,-0.5183191,8.883718,18.88794,-11.2003,9.790254,-90.30508,47.4262,-0.4675641,4.529369,70.76105,-8.154812,15.16796,0,0,0,-1.582354,-82.22639,6.560976,105.9514,-110.6717,-71.01208,0.001067912,0.1562898,0.241335,0,0.3,0,0,0,0,
6.38223E+17,-2.662276,8.883718,20.03195,-13.91037,9.717009,-90.23183,47.4262,-0.4675641,4.529369,70.76105,-8.154812,15.09472,0,0,0,-8.241337,-81.33936,8.887066,105.9514,-110.6717,-71.01208,0.001067912,0.1562898,0.241335,0,0.3,0,0,0,0,
6.38223E+17,-3.981634,8.883718,20.75572,-15.88799,9.570518,-90.23183,47.4262,-0.4675641,4.529369,70.76105,-8.154812,15.09472,0,0,0,-12.42969,-80.75237,10.2254,105.9514,-110.6717,-71.01208,0.001067912,0.1562898,0.241335,0,0.3,0,0,0,0,
6.38223E+17,-6.431869,8.953853,22.1799,-19.40376,9.131048,-90.15859,47.4262,-0.4675641,4.529369,70.6878,-8.154812,15.09472,0,0,0,-20.39542,-79.37806,12.57079,105.9514,-110.6717,-71.01208,0.001067912,0.1562898,0.241335,0,0.3,0,0,0,0,
6.38223E+17,-8.952785,9.023986,23.76752,-23.06602,8.398596,-89.57263,47.4262,-0.4675641,4.529369,70.6878,-8.228058,15.09472,0,0,0,-28.85875,-77.77469,14.83381,105.9514,-110.6717,-71.01208,0.001067912,0.1562898,0.241335,0,0.3,0,0,0,0,
