zeyangz2/DNN_classification_different_people_hand/data/zeyang_right_18.csv
Timestamp,Therapist joint angle 0,Therapist joint angle 1,Therapist joint angle 2,Therapist joint angle 3,Therapist joint angle 4,Therapist joint angle 5,Patient joint angle 0,Patient joint angle 1,Patient joint angle 2,Patient joint angle 3,Patient joint angle 4,Patient joint angle 5,Virtual joint angle 0,Virtual joint angle 1,Virtual joint angle 2,Therapist position x,Therapist position y,Therapist position z,Patient position x,Patient position y,Patient position z,Virtual position x,Virtual position y,Virtual position z,Assistive Force, Obstacle Force Magnitude, Therapist Constant Force, Patient Constant Force, Recovery Factor, Assistance Level,label
6.38224E+17,0,0,0,0,0,0,0,0,0,0,0,0,0,0,0,0,0,0,0,0,0,0,0,0,0,0.3,0,0,0,0,0
6.38224E+17,20.80345,-0.9818845,-3.151881,26.7407,-63.38167,50.61862,-57.01511,-0.4675641,7.190958,-72.72624,-8.594284,-36.83611,0,0,0,44.75001,-112.0834,-50.56611,-125.8539,-110.0393,-86.66669,0.001067912,-0.1257102,0.09433498,0,0.3,0,0,0,0,
6.38224E+17,20.80345,-0.9818845,-3.151881,26.81394,-63.38167,50.61862,-57.01511,-0.4675641,7.190958,-72.72624,-8.594284,-36.90935,0,0,0,44.75001,-112.0834,-50.56611,-125.8539,-110.0393,-86.66669,0.001067912,-0.1257102,0.09433498,0,0.3,0,0,0,0,
6.38224E+17,20.80345,-0.9818845,-3.151881,26.81394,-63.38167,50.61862,-57.01511,-0.4675641,7.190958,-72.72624,-8.594284,-36.83611,0,0,0,44.75001,-112.0834,-50.56611,-125.8539,-110.0393,-86.66669,0.001067912,-0.1257102,0.09433498,0,0.3,0,0,0,0,
6.38224E+17,20.80345,-0.9818845,-3.151881,26.7407,-63.38167,50.61862,-57.01511,-0.4675641,7.190958,-72.72624,-8.594284,-36.90935,0,0,0,44.75001,-112.0834,-50.56611,-125.8539,-110.0393,-86.66669,0.001067912,-0.1257102,0.09433498,0,0.3,0,0,0,0,
6.38224E+17,20.80345,-0.9818845,-3.151881,26.7407,-63.38167,50.61862,-57.01511,-0.4675641,7.190958,-72.72624,-8.594284,-36.90935,0,0,0,44.75001,-112.0834,-50.56611,-125.8539,-110.0393,-86.66669,0.001067912,-0.1257102,0.09433498,0,0.3,0,0,0,0,
6.38224E+17,20.80345,-0.9818845,-3.151881,26.7407,-63.30842,50.61862,-57.01511,-0.4675641,7.190958,-72.72624,-8.594284,-36.83611,0,0,0,44.75001,-112.0834,-50.56611,-125.8539,-110.0393,-86.66669,0.001067912,-0.1257102,0.09433498,0,0.3,0,0,0,0,
6.38224E+17,20.80345,-0.9818845,-3.151881,26.81394,-63.38167,50.54538,-57.01511,-0.4675641,7.190958,-72.72624,-8.594284,-36.83611,0,0,0,44.75001,-112.0834,-50.56611,-125.8539,-110.0393,-86.66669,0.001067912,-0.1257102,0.09433498,0,0.3,0,0,0,0,
6.38224E+17,20.80345,-0.9818845,-3.151881,26.81394,-63.38167,50.61862,-57.01511,-0.4675641,7.190958,-72.72624,-8.594284,-36.83611,0,0,0,44.75001,-112.0834,-50.56611,-125.8539,-110.0393,-86.66669,0.001067912,-0.1257102,0.09433498,0,0.3,0,0,0,0,
6.38224E+17,20.80345,-0.9818845,-3.151881,26.81394,-63.30842,50.61862,-57.01511,-0.4675641,7.190958,-72.72624,-8.594284,-36.83611,0,0,0,44.75001,-112.0834,-50.56611,-125.8539,-110.0393,-86.66669,0.001067912,-0.1257102,0.09433498,0,0.3,0,0,0,0,
6.38224E+17,20.80345,-0.9818845,-3.151881,26.81394,-63.30842,50.61862,-57.01511,-0.4675641,7.190958,-72.72624,-8.594284,-36.83611,0,0,0,44.75001,-112.0834,-50.56611,-125.8539,-110.0393,-86.66669,0.001067912,-0.1257102,0.09433498,0,0.3,0,0,0,0,
6.38224E+17,20.80345,-0.9818845,-3.151881,26.81394,-63.38167,50.61862,-57.01511,-0.4675641,7.190958,-72.72624,-8.594284,-36.83611,0,0,0,44.75001,-112.0834,-50.56611,-125.8539,-110.0393,-86.66669,0.001067912,-0.1257102,0.09433498,0,0.3,0,0,0,0,
6.38224E+17,20.80345,-0.9818845,-3.151881,26.81394,-63.38167,50.61862,-57.01511,-0.4675641,7.190958,-72.72624,-8.594284,-36.83611,0,0,0,44.75001,-112.0834,-50.56611,-125.8539,-110.0393,-86.66669,0.001067912,-0.1257102,0.09433498,0,0.3,0,0,0,0,
6.38224E+17,20.80345,-0.9818845,-3.151881,26.81394,-63.38167,50.61862,-57.01511,-0.4675641,7.190958,-72.72624,-8.594284,-36.90935,0,0,0,44.75001,-112.0834,-50.56611,-125.8539,-110.0393,-86.66669,0.001067912,-0.1257102,0.09433498,0,0.3,0,0,0,0,
6.38224E+17,20.80345,-0.9818845,-3.151881,26.81394,-63.38167,50.61862,-57.01511,-0.4675641,7.190958,-72.72624,-8.594284,-36.90935,0,0,0,44.75001,-112.0834,-50.56611,-125.8539,-110.0393,-86.66669,0.001067912,-0.1257102,0.09433498,0,0.3,0,0,0,0,
6.38224E+17,20.80345,-0.9818845,-3.151881,26.81394,-63.38167,50.61862,-57.01511,-0.4675641,7.190958,-72.72624,-8.594284,-36.90935,0,0,0,44.75001,-112.0834,-50.56611,-125.8539,-110.0393,-86.66669,0.001067912,-0.1257102,0.09433498,0,0.3,0,0,0,0,
6.38224E+17,20.80345,-0.9818845,-3.151881,26.81394,-63.38167,50.61862,-57.01511,-0.4675641,7.190958,-72.72624,-8.594284,-36.83611,0,0,0,44.75001,-112.0834,-50.56611,-125.8539,-110.0393,-86.66669,0.001067912,-0.1257102,0.09433498,0,0.3,0,0,0,0,
6.38224E+17,20.80345,-0.9818845,-3.151881,26.81394,-63.30842,50.61862,-57.01511,-0.4675641,7.190958,-72.72624,-8.594284,-36.90935,0,0,0,44.75001,-112.0834,-50.56611,-125.8539,-110.0393,-86.66669,0.001067912,-0.1257102,0.09433498,0,0.3,0,0,0,0,
6.38224E+17,20.80345,-0.9818845,-3.151881,26.81394,-63.38167,50.61862,-57.01511,-0.4675641,7.190958,-72.72624,-8.594284,-36.83611,0,0,0,44.75001,-112.0834,-50.56611,-125.8539,-110.0393,-86.66669,0.001067912,-0.1257102,0.09433498,0,0.3,0,0,0,0,
6.38224E+17,20.80345,-0.9818845,-3.151881,26.81394,-63.30842,50.61862,-57.01511,-0.4675641,7.190958,-72.72624,-8.594284,-36.83611,0,0,0,44.75001,-112.0834,-50.56611,-125.8539,-110.0393,-86.66669,0.001067912,-0.1257102,0.09433498,0,0.3,0,0,0,0,
6.38224E+17,20.80345,-0.9818845,-3.151881,26.7407,-63.38167,50.61862,-57.01511,-0.4675641,7.190958,-72.72624,-8.594284,-36.83611,0,0,0,44.75001,-112.0834,-50.56611,-125.8539,-110.0393,-86.66669,0.001067912,-0.1257102,0.09433498,0,0.3,0,0,0,0,
6.38224E+17,20.80345,-0.9818845,-3.151881,26.81394,-63.38167,50.61862,-57.01511,-0.4675641,7.190958,-72.653,-8.594284,-36.83611,0,0,0,44.75001,-112.0834,-50.56611,-125.8539,-110.0393,-86.66669,0.001067912,-0.1257102,0.09433498,0,0.3,0,0,0,0,
6.38224E+17,20.80345,-0.9818845,-3.151881,26.81394,-63.38167,50.61862,-57.01511,-0.4675641,7.190958,-72.72624,-8.594284,-36.83611,0,0,0,44.75001,-112.0834,-50.56611,-125.8539,-110.0393,-86.66669,0.001067912,-0.1257102,0.09433498,0,0.3,0,0,0,0,
6.38224E+17,20.80345,-0.9818845,-3.151881,26.81394,-63.38167,50.61862,-57.01511,-0.4675641,7.190958,-72.72624,-8.594284,-36.83611,0,0,0,44.75001,-112.0834,-50.56611,-125.8539,-110.0393,-86.66669,0.001067912,-0.1257102,0.09433498,0,0.3,0,0,0,0,
6.38224E+17,20.80345,-0.9818845,-3.151881,26.7407,-63.38167,50.61862,-57.01511,-0.4675641,7.190958,-72.72624,-8.594284,-36.83611,0,0,0,44.75001,-112.0834,-50.56611,-125.8539,-110.0393,-86.66669,0.001067912,-0.1257102,0.09433498,0,0.3,0,0,0,0,
6.38224E+17,20.80345,-0.9818845,-3.151881,26.81394,-63.38167,50.61862,-57.01511,-0.4675641,7.190958,-72.72624,-8.594284,-36.83611,0,0,0,44.75001,-112.0834,-50.56611,-125.8539,-110.0393,-86.66669,0.001067912,-0.1257102,0.09433498,0,0.3,0,0,0,0,
6.38224E+17,20.80345,-0.9818845,-3.151881,26.81394,-63.30842,50.61862,-57.01511,-0.4675641,7.190958,-72.72624,-8.594284,-36.83611,0,0,0,44.75001,-112.0834,-50.56611,-125.8539,-110.0393,-86.66669,0.001067912,-0.1257102,0.09433498,0,0.3,0,0,0,0,
6.38224E+17,20.80345,-0.9818845,-3.151881,26.7407,-63.38167,50.61862,-57.01511,-0.4675641,7.190958,-72.72624,-8.594284,-36.83611,0,0,0,44.75001,-112.0834,-50.56611,-125.8539,-110.0393,-86.66669,0.001067912,-0.1257102,0.09433498,0,0.3,0,0,0,0,
6.38224E+17,20.80345,-0.9818845,-3.151881,26.81394,-63.30842,50.61862,-57.01511,-0.4675641,7.190958,-72.72624,-8.594284,-36.90935,0,0,0,44.75001,-112.0834,-50.56611,-125.8539,-110.0393,-86.66669,0.001067912,-0.1257102,0.09433498,0,0.3,0,0,0,0,
6.38224E+17,20.80345,-0.9818845,-3.151881,26.81394,-63.38167,50.61862,-57.01511,-0.4675641,7.190958,-72.72624,-8.594284,-36.83611,0,0,0,44.75001,-112.0834,-50.56611,-125.8539,-110.0393,-86.66669,0.001067912,-0.1257102,0.09433498,0,0.3,0,0,0,0,
6.38224E+17,20.80345,-0.9818845,-3.151881,26.7407,-63.38167,50.61862,-57.01511,-0.4675641,7.190958,-72.72624,-8.594284,-36.83611,0,0,0,44.75001,-112.0834,-50.56611,-125.8539,-110.0393,-86.66669,0.001067912,-0.1257102,0.09433498,0,0.3,0,0,0,0,
6.38224E+17,20.80345,-0.9818845,-3.151881,26.81394,-63.38167,50.61862,-57.01511,-0.4675641,7.190958,-72.72624,-8.594284,-36.83611,0,0,0,44.75001,-112.0834,-50.56611,-125.8539,-110.0393,-86.66669,0.001067912,-0.1257102,0.09433498,0,0.3,0,0,0,0,
6.38224E+17,20.80345,-0.9818845,-3.151881,26.7407,-63.38167,50.61862,-57.01511,-0.4675641,7.190958,-72.72624,-8.521038,-36.83611,0,0,0,44.75001,-112.0834,-50.56611,-125.8539,-110.0393,-86.66669,0.001067912,-0.1257102,0.09433498,0,0.3,0,0,0,0,
6.38224E+17,20.80345,-0.9818845,-3.151881,26.7407,-63.38167,50.61862,-57.01511,-0.4675641,7.190958,-72.72624,-8.594284,-36.90935,0,0,0,44.75001,-112.0834,-50.56611,-125.8539,-110.0393,-86.66669,0.001067912,-0.1257102,0.09433498,0,0.3,0,0,0,0,
6.38224E+17,20.80345,-0.9818845,-3.151881,26.7407,-63.38167,50.61862,-57.01511,-0.4675641,7.190958,-72.72624,-8.594284,-36.83611,0,0,0,44.75001,-112.0834,-50.56611,-125.8539,-110.0393,-86.66669,0.001067912,-0.1257102,0.09433498,0,0.3,0,0,0,0,
6.38224E+17,20.80345,-0.9818845,-3.151881,26.7407,-63.38167,50.61862,-57.01511,-0.4675641,7.190958,-72.72624,-8.594284,-36.90935,0,0,0,44.75001,-112.0834,-50.56611,-125.8539,-110.0393,-86.66669,0.001067912,-0.1257102,0.09433498,0,0.3,0,0,0,0,
6.38224E+17,20.80345,-0.9818845,-3.151881,26.7407,-63.30842,50.61862,-57.01511,-0.4675641,7.190958,-72.72624,-8.594284,-36.83611,0,0,0,44.75001,-112.0834,-50.56611,-125.8539,-110.0393,-86.66669,0.001067912,-0.1257102,0.09433498,0,0.3,0,0,0,0,
6.38224E+17,20.80345,-0.9818845,-3.151881,26.7407,-63.38167,50.61862,-57.01511,-0.4675641,7.190958,-72.72624,-8.594284,-36.90935,0,0,0,44.75001,-112.0834,-50.56611,-125.8539,-110.0393,-86.66669,0.001067912,-0.1257102,0.09433498,0,0.3,0,0,0,0,
6.38224E+17,20.80345,-0.9818845,-3.151881,26.7407,-63.38167,50.61862,-57.01511,-0.4675641,7.190958,-72.72624,-8.594284,-36.83611,0,0,0,44.75001,-112.0834,-50.56611,-125.8539,-110.0393,-86.66669,0.001067912,-0.1257102,0.09433498,0,0.3,0,0,0,0,
6.38224E+17,20.80345,-0.9818845,-3.151881,26.81394,-63.30842,50.61862,-57.01511,-0.4675641,7.190958,-72.72624,-8.594284,-36.83611,0,0,0,44.75001,-112.0834,-50.56611,-125.8539,-110.0393,-86.66669,0.001067912,-0.1257102,0.09433498,0,0.3,0,0,0,0,
6.38224E+17,20.80345,-0.9818845,-3.151881,26.81394,-63.38167,50.61862,-57.01511,-0.4675641,7.190958,-72.72624,-8.594284,-36.83611,0,0,0,44.75001,-112.0834,-50.56611,-125.8539,-110.0393,-86.66669,0.001067912,-0.1257102,0.09433498,0,0.3,0,0,0,0,
6.38224E+17,20.80345,-0.9818845,-3.151881,26.81394,-63.38167,50.61862,-57.01511,-0.4675641,7.190958,-72.72624,-8.594284,-36.90935,0,0,0,44.75001,-112.0834,-50.56611,-125.8539,-110.0393,-86.66669,0.001067912,-0.1257102,0.09433498,0,0.3,0,0,0,0,
6.38224E+17,20.80345,-0.9818845,-3.151881,26.7407,-63.38167,50.61862,-57.01511,-0.4675641,7.190958,-72.72624,-8.521038,-36.83611,0,0,0,44.75001,-112.0834,-50.56611,-125.8539,-110.0393,-86.66669,0.001067912,-0.1257102,0.09433498,0,0.3,0,0,0,0,
6.38224E+17,20.80345,-0.9818845,-3.151881,26.7407,-63.38167,50.61862,-57.01511,-0.4675641,7.190958,-72.72624,-8.594284,-36.90935,0,0,0,44.75001,-112.0834,-50.56611,-125.8539,-110.0393,-86.66669,0.001067912,-0.1257102,0.09433498,0,0.3,0,0,0,0,
6.38224E+17,20.80345,-0.9818845,-3.151881,26.7407,-63.38167,50.61862,-57.01511,-0.4675641,7.190958,-72.72624,-8.594284,-36.83611,0,0,0,44.75001,-112.0834,-50.56611,-125.8539,-110.0393,-86.66669,0.001067912,-0.1257102,0.09433498,0,0.3,0,0,0,0,
6.38224E+17,20.80345,-0.9818845,-3.151881,26.7407,-63.38167,50.61862,-57.01511,-0.4675641,7.190958,-72.72624,-8.594284,-36.83611,0,0,0,44.75001,-112.0834,-50.56611,-125.8539,-110.0393,-86.66669,0.001067912,-0.1257102,0.09433498,0,0.3,0,0,0,0,
6.38224E+17,20.80345,-0.9818845,-3.151881,26.81394,-63.38167,50.61862,-57.01511,-0.4675641,7.190958,-72.72624,-8.594284,-36.83611,0,0,0,44.75001,-112.0834,-50.56611,-125.8539,-110.0393,-86.66669,0.001067912,-0.1257102,0.09433498,0,0.3,0,0,0,0,
6.38224E+17,20.70921,-1.005263,-3.175228,26.81394,-63.30842,50.61862,-57.01511,-0.4675641,7.190958,-72.72624,-8.594284,-36.83611,0,0,0,44.5367,-112.1348,-50.5443,-125.8539,-110.0393,-86.66669,0.001067912,-0.1257102,0.09433498,0,0.3,0,0,1.46E-05,0,
6.38224E+17,20.37937,-0.9818845,-2.98845,26.66745,-63.30842,50.2524,-57.01511,-0.4675641,7.190958,-72.72624,-8.594284,-36.90935,0,0,0,44.00927,-112.1038,-49.88207,-125.8539,-110.0393,-86.66669,0.001067912,-0.1257102,0.09433498,0,0.3,0,0,0.000104733,0,
6.38224E+17,20.37937,-0.9585064,-2.848366,21.76003,-63.08869,50.54538,-57.01511,-0.4675641,7.190958,-72.72624,-8.594284,-36.83611,0,0,0,44.12298,-112.066,-49.57598,-125.8539,-110.0393,-86.66669,0.001067912,-0.1257102,0.09433498,0,0.3,0,0,0.000158543,0,
6.38224E+17,20.07309,-0.8416153,-2.871714,10.70001,-61.25756,54.06115,-57.01511,-0.4675641,7.190958,-72.72624,-8.594284,-36.90935,0,0,0,43.47028,-111.7912,-49.38878,-125.8539,-110.0393,-86.66669,0.001067912,-0.1257102,0.09433498,0,0.3,0,0,0.000259689,0,
6.38224E+17,19.71969,-0.5844551,-2.941756,4.986883,-59.71941,55.52605,-57.01511,-0.4675641,7.190958,-72.72624,-8.521038,-36.83611,0,0,0,42.68328,-111.1845,-49.26917,-125.8539,-110.0393,-86.66669,0.001067912,-0.1257102,0.09433498,0,0.3,0,0,0.000372209,0,
6.38224E+17,18.77729,0.3974294,-3.572132,-2.99684,-55.91066,57.57691,-57.01511,-0.4675641,7.190958,-72.72624,-8.594284,-36.90935,0,0,0,40.24867,-108.816,-49.96652,-125.8539,-110.0393,-86.66669,0.001067912,-0.1257102,0.09433498,0,0.3,0,0,0.000832527,0,
6.38224E+17,17.62285,1.285801,-4.856231,-8.124002,-50.27078,59.04182,-57.01511,-0.4675641,7.190958,-72.72624,-8.594284,-36.90935,0,0,0,36.94385,-106.529,-52.04918,-125.8539,-110.0393,-86.66669,0.001067912,-0.1257102,0.09433498,0,0.3,0,0,0.001694453,0,
6.38224E+17,17.05741,1.449449,-5.346524,-10.02838,-46.68177,59.55453,-57.01511,-0.4675641,7.190958,-72.72624,-8.594284,-36.90935,0,0,0,35.45826,-106.0468,-52.78553,-125.8539,-110.0393,-86.66669,0.001067912,-0.1257102,0.09433498,0,0.3,0,0,0.002268953,0,
6.38224E+17,16.32705,1.472827,-5.46326,-13.03143,-39.06427,58.82208,-57.01511,-0.4675641,7.190958,-72.72624,-8.594284,-36.83611,0,0,0,33.90588,-105.9668,-52.60385,-125.8539,-110.0393,-86.66669,0.001067912,-0.1257102,0.09433498,0,0.3,0,0,0.003529863,0,
6.38224E+17,16.35061,1.496205,-5.393219,-14.20335,-32.03274,55.67254,-57.01511,-0.4675641,7.190958,-72.72624,-8.594284,-36.83611,0,0,0,33.99876,-105.9278,-52.46343,-125.8539,-110.0393,-86.66669,0.001067912,-0.1257102,0.09433498,0,0.3,0,0,0.004765835,0,
6.38224E+17,16.49197,1.496205,-5.20644,-14.20335,-28.51697,53.47519,-57.01511,-0.4675641,7.190958,-72.72624,-8.521038,-36.83611,0,0,0,34.40744,-105.968,-52.13263,-125.8539,-110.0393,-86.66669,0.001067912,-0.1257102,0.09433498,0,0.3,0,0,0.005331674,0,
6.38224E+17,16.72757,1.659852,-4.062424,-13.54414,-22.65736,49.95942,-57.01511,-0.4675641,7.190958,-72.72624,-8.594284,-36.83611,0,0,0,35.64585,-105.8024,-49.74361,-125.8539,-110.0393,-86.66669,0.001067912,-0.1257102,0.09433498,0,0.3,0,0,0.006283545,0,
6.38224E+17,16.96317,2.150795,-3.035145,-13.39765,-19.72755,48.05504,-57.01511,-0.4675641,7.190958,-72.72624,-8.594284,-36.90935,0,0,0,36.81838,-104.8084,-47.64507,-125.8539,-110.0393,-86.66669,0.001067912,-0.1257102,0.09433498,0,0.3,0,0,0.00700329,0,
6.38224E+17,17.34013,2.571602,-2.451463,-13.69064,-18.1894,47.68882,-57.01511,-0.4675641,7.190958,-72.72624,-8.594284,-36.83611,0,0,0,38.0041,-103.8948,-46.63321,-125.8539,-110.0393,-86.66669,0.001067912,-0.1257102,0.09433498,0,0.3,0,0,0.00752958,0,
6.38224E+17,17.57573,2.875519,-2.311379,-13.76388,-17.45695,47.8353,-57.01511,-0.4675641,7.190958,-72.72624,-8.594284,-36.90935,0,0,0,38.59249,-103.2018,-46.512,-125.8539,-110.0393,-86.66669,0.001067912,-0.1257102,0.09433498,0,0.3,0,0,0.007731609,0,
6.38224E+17,17.92913,4.41848,-2.124601,-13.61739,-16.35827,48.27478,-57.01511,-0.4675641,7.190958,-72.72624,-8.594284,-36.83611,0,0,0,39.40665,-99.63496,-46.5564,-125.8539,-110.0393,-86.66669,0.001067912,-0.1257102,0.09433498,0,0.3,0,0,0.008045721,0,
6.38224E+17,18.02337,7.247243,-1.751045,-13.25116,-15.69907,48.64101,-57.01511,-0.4675641,7.190958,-72.72624,-8.594284,-36.83611,0,0,0,39.66878,-93.11546,-46.43128,-125.8539,-110.0393,-86.66669,0.001067912,-0.1257102,0.09433498,0,0.3,0,0,0.008260874,0,
6.38224E+17,18.02337,9.094121,-1.424183,-13.10467,-15.62582,48.78749,-57.01511,-0.4675641,7.190958,-72.72624,-8.594284,-36.83611,0,0,0,39.71506,-88.88194,-46.28905,-125.8539,-110.0393,-86.66669,0.001067912,-0.1257102,0.09433498,0,0.3,0,0,0.008325184,0,
6.38224E+17,18.02337,13.39571,-0.4902926,-12.81169,-15.9188,49.30021,-57.01511,-0.4675641,7.190958,-72.72624,-8.594284,-36.83611,0,0,0,39.78355,-79.10125,-46.07853,-125.8539,-110.0393,-86.66669,0.001067912,-0.1257102,0.09433498,0,0.3,0,0,0.008334284,0,
6.38224E+17,18.02337,17.74406,0.5603344,-12.6652,-16.94423,49.51994,-57.01511,-0.4675641,7.190958,-72.72624,-8.594284,-36.83611,0,0,0,39.69983,-69.35314,-46.33584,-125.8539,-110.0393,-86.66669,0.001067912,-0.1257102,0.09433498,0,0.3,0,0,0.008154741,0,
6.38224E+17,18.02337,20.12863,1.214058,-12.59196,-17.60344,49.59319,-57.01511,-0.4675641,7.190958,-72.72624,-8.594284,-36.83611,0,0,0,39.61332,-64.08047,-46.60173,-125.8539,-110.0393,-86.66669,0.001067912,-0.1257102,0.09433498,0,0.3,0,0,0.007985173,0,
6.38224E+17,18.02337,24.80427,2.708283,-12.44547,-18.9951,49.15372,-57.01511,-0.4675641,7.190958,-72.72624,-8.594284,-36.83611,0,0,0,39.40236,-53.90809,-47.2501,-125.8539,-110.0393,-86.66669,0.001067912,-0.1257102,0.09433498,0,0.3,0,0,0.007467895,0,
6.38224E+17,18.02337,29.57343,4.832884,-12.29898,-20.53325,48.64101,-57.01511,-0.4675641,7.190958,-72.72624,-8.594284,-36.90935,0,0,0,39.36013,-43.71253,-47.37987,-125.8539,-110.0393,-86.66669,0.001067912,-0.1257102,0.09433498,0,0.3,0,0,0.00665978,0,
6.38224E+17,18.02337,34.08542,7.401083,-12.37222,-22.51087,48.42127,-57.01511,-0.4675641,7.190958,-72.72624,-8.594284,-36.83611,0,0,0,39.48571,-34.15591,-46.99392,-125.8539,-110.0393,-86.66669,0.001067912,-0.1257102,0.09433498,0,0.3,0,0,0.005514191,0,
6.38224E+17,18.02337,36.18946,8.685184,-12.51871,-23.75603,48.34802,-57.01511,-0.4675641,7.190958,-72.72624,-8.521038,-36.83611,0,0,0,39.52932,-29.73341,-46.85991,-125.8539,-110.0393,-86.66669,0.001067912,-0.1257102,0.09433498,0,0.3,0,0,0.004818595,0,
6.38224E+17,18.04693,39.85984,11.08995,-12.95818,-26.31961,48.27478,-57.01511,-0.4675641,7.190958,-72.72624,-8.594284,-36.83611,0,0,0,39.65736,-22.0443,-46.6365,-125.8539,-110.0393,-86.66669,0.001067912,-0.1257102,0.09433498,0,0.3,0,0,0.003205601,0,
6.38224E+17,18.42389,42.78211,13.19121,-13.69064,-28.80995,48.93398,-57.01511,-0.4675641,7.190958,-72.72624,-8.594284,-36.83611,0,0,0,40.5491,-15.90847,-46.62438,-125.8539,-110.0393,-86.66669,0.001067912,-0.1257102,0.09433498,0,0.3,0,0,0.001316207,0,
6.38224E+17,18.96577,43.99778,14.14844,-13.98362,-29.98187,49.4467,-57.01511,-0.4675641,7.190958,-72.72624,-8.594284,-36.83611,0,0,0,41.77037,-13.32595,-46.80418,-125.8539,-110.0393,-86.66669,0.001067912,-0.1257102,0.09433498,0,0.3,0,0,0.000250327,0,
6.38224E+17,20.77989,45.54074,15.43254,-13.4709,-31.73976,50.2524,-57.01511,-0.4675641,7.190958,-72.72624,-8.521038,-36.83611,0,0,0,45.72514,-10.01361,-47.85032,-125.8539,-110.0393,-86.66669,0.001067912,-0.1257102,0.09433498,0,0.3,0,0,0,0,
6.38224E+17,23.51284,46.28884,16.31974,-11.27355,-33.2779,50.54538,-57.01511,-0.4675641,7.190958,-72.72624,-8.521038,-36.83611,0,0,0,51.71207,-8.237409,-49.49323,-125.8539,-110.0393,-86.66669,0.001067912,-0.1257102,0.09433498,0,0.3,0,0,0,0,
6.38224E+17,26.4814,46.38236,16.90342,-7.318305,-34.30334,49.37346,-57.01511,-0.4675641,7.190958,-72.72624,-8.594284,-36.83611,0,0,0,58.30828,-7.698784,-51.30653,-125.8539,-110.0393,-86.66669,0.001067912,-0.1257102,0.09433498,0,0.3,0,0,0,0,
6.38224E+17,28.05991,46.21871,17.13689,-4.754725,-34.66956,47.9818,-57.01511,-0.4675641,7.190958,-72.72624,-8.594284,-36.83611,0,0,0,61.88427,-7.802867,-52.25565,-125.8539,-110.0393,-86.66669,0.001067912,-0.1257102,0.09433498,0,0.3,0,0,0,0,
6.38224E+17,31.09915,45.49398,17.46376,0.8119082,-35.03579,44.83226,-57.01511,-0.4675641,7.190958,-72.72624,-8.594284,-36.83611,0,0,0,68.95287,-8.751365,-54.04169,-125.8539,-110.0393,-86.66669,0.001067912,-0.1257102,0.09433498,0,0.3,0,0,0,0,
6.38224E+17,34.04414,44.46534,17.74392,6.598277,-35.03579,41.90245,-57.01511,-0.4675641,7.190958,-72.653,-8.594284,-36.83611,0,0,0,76.02995,-10.24759,-55.81807,-125.8539,-110.0393,-86.66669,0.001067912,-0.1257102,0.09433498,0,0.3,0,0,0,0,
6.38224E+17,35.38706,43.9744,17.9307,9.454838,-34.96254,40.51079,-57.01511,-0.4675641,7.190958,-72.72624,-8.594284,-36.90935,0,0,0,79.3475,-10.93331,-56.64381,-125.8539,-110.0393,-86.66669,0.001067912,-0.1257102,0.09433498,0,0.3,0,0,0,0,
6.38224E+17,37.88441,42.75873,18.18752,14.582,-34.59632,38.16694,-57.01511,-0.4675641,7.190958,-72.72624,-8.521038,-36.83611,0,0,0,85.6815,-12.80484,-58.22549,-125.8539,-110.0393,-86.66669,0.001067912,-0.1257102,0.09433498,0,0.3,0,0,0,0,
6.38224E+17,40.24041,41.23915,18.21087,19.1232,-34.01036,36.33582,-57.01511,-0.4675641,7.190958,-72.72624,-8.594284,-36.83611,0,0,0,91.69812,-15.41609,-59.99505,-125.8539,-110.0393,-86.66669,0.001067912,-0.1257102,0.09433498,0,0.3,0,0,0,0,
6.38224E+17,41.41841,40.37416,18.21087,21.3938,-33.57088,35.53012,-57.01511,-0.4675641,7.190958,-72.72624,-8.594284,-36.90935,0,0,0,94.7767,-16.9399,-60.91654,-125.8539,-110.0393,-86.66669,0.001067912,-0.1257102,0.09433498,0,0.3,0,0,0,0,
6.38224E+17,43.84509,38.36363,18.23421,25.86176,-32.69194,33.77223,-57.01511,-0.4675641,7.190958,-72.72624,-8.594284,-36.83611,0,0,0,101.3322,-20.54017,-62.84804,-125.8539,-110.0393,-86.66669,0.001067912,-0.1257102,0.09433498,0,0.3,0,0,0,0,
6.38224E+17,46.13041,35.88554,18.23421,30.10997,-31.22704,32.08759,-57.01511,-0.4675641,7.190958,-72.72624,-8.594284,-36.83611,0,0,0,107.9679,-25.13839,-64.56045,-125.8539,-110.0393,-86.66669,0.001067912,-0.1257102,0.09433498,0,0.3,0,0,0,0,
6.38224E+17,48.06232,33.26719,18.23421,33.99197,-29.5424,30.54945,-57.01511,-0.4675641,7.190958,-72.72624,-8.594284,-36.83611,0,0,0,113.9778,-30.15553,-65.94817,-125.8539,-110.0393,-86.66669,0.001067912,-0.1257102,0.09433498,0,0.3,0,0,0,0,
6.38224E+17,48.81624,31.86449,18.23421,35.67661,-28.73671,29.89024,-57.01511,-0.4675641,7.190958,-72.653,-8.521038,-36.83611,0,0,0,116.6378,-32.9068,-66.29967,-125.8539,-110.0393,-86.66669,0.001067912,-0.1257102,0.09433498,0,0.3,0,0,0,0,
6.38224E+17,50.20628,28.91884,18.21087,38.60641,-26.83233,28.93805,-57.01511,-0.4675641,7.190958,-72.72624,-8.594284,-36.90935,0,0,0,121.7041,-38.83679,-66.97259,-125.8539,-110.0393,-86.66669,0.001067912,-0.1257102,0.09433498,0,0.3,0,0,0,0,
6.38224E+17,51.21936,25.80954,18.21087,41.17,-24.85471,28.27885,-57.01511,-0.4675641,7.190958,-72.72624,-8.594284,-36.83611,0,0,0,126.0701,-45.26282,-67.05713,-125.8539,-110.0393,-86.66669,0.001067912,-0.1257102,0.09433498,0,0.3,0,0,0,0,
6.38224E+17,51.61988,24.21982,18.21087,42.19543,-23.97577,28.05911,-57.01511,-0.4675641,7.190958,-72.72624,-8.594284,-36.83611,0,0,0,128.0015,-48.61557,-66.96954,-125.8539,-110.0393,-86.66669,0.001067912,-0.1257102,0.09433498,0,0.3,0,0,0,0,
6.38224E+17,52.23243,20.71309,18.21087,43.73357,-22.29113,27.76613,-57.01511,-0.4675641,7.190958,-72.72624,-8.594284,-36.83611,0,0,0,131.5431,-56.15651,-66.43391,-125.8539,-110.0393,-86.66669,0.001067912,-0.1257102,0.09433498,0,0.3,0,0,0,0,
6.38224E+17,52.58583,17.32325,18.39765,44.68576,-20.09377,27.39991,-57.01511,-0.4675641,7.190958,-72.72624,-8.594284,-36.83611,0,0,0,134.5387,-63.47775,-65.43464,-125.8539,-110.0393,-86.66669,0.001067912,-0.1257102,0.09433498,0,0.3,0,0,0,0,
6.38224E+17,52.60939,15.89718,18.65447,44.97874,-18.92185,26.96043,-57.01511,-0.4675641,7.190958,-72.72624,-8.594284,-36.83611,0,0,0,135.7851,-66.46828,-64.56969,-125.8539,-110.0393,-86.66669,0.001067912,-0.1257102,0.09433498,0,0.3,0,0,0,0,
6.38224E+17,52.58583,13.76976,19.35488,45.41821,-17.01748,26.00825,-57.01511,-0.4675641,7.190958,-72.72624,-8.594284,-36.83611,0,0,0,137.9734,-70.7235,-62.80732,-125.8539,-110.0393,-86.66669,0.001067912,-0.1257102,0.09433498,0,0.3,0,0,0,0,
6.38224E+17,52.49159,12.20342,20.40551,45.7112,-15.69907,25.1293,-57.01511,-0.4675641,7.190958,-72.72624,-8.594284,-36.90935,0,0,0,140.2735,-73.44414,-60.68163,-125.8539,-110.0393,-86.66669,0.001067912,-0.1257102,0.09433498,0,0.3,0,0,0,0,
6.38224E+17,52.27955,10.66046,21.29271,45.93093,-14.89337,24.39685,-57.01511,-0.4675641,7.190958,-72.72624,-8.594284,-36.83611,0,0,0,141.9635,-76.22897,-58.54723,-125.8539,-110.0393,-86.66669,0.001067912,-0.1257102,0.09433498,0,0.3,0,0,0,0,
6.38224E+17,52.09107,9.842223,21.50283,46.07742,-14.52714,24.10387,-57.01511,-0.4675641,7.190958,-72.72624,-8.594284,-36.83611,0,0,0,142.2281,-77.9245,-57.59283,-125.8539,-110.0393,-86.66669,0.001067912,-0.1257102,0.09433498,0,0.3,0,0,0,0,
6.38224E+17,51.66699,8.112236,21.68961,46.00418,-13.79469,23.22493,-57.01511,-0.4675641,7.190958,-72.72624,-8.594284,-36.90935,0,0,0,142.2143,-81.74139,-55.9028,-125.8539,-110.0393,-86.66669,0.001067912,-0.1257102,0.09433498,0,0.3,0,0,0,0,
6.38224E+17,51.17223,6.288737,21.71296,45.63795,-12.98899,22.27274,-57.01511,-0.4675641,7.190958,-72.72624,-8.594284,-36.83611,0,0,0,141.6918,-85.93166,-54.3138,-125.8539,-110.0393,-86.66669,0.001067912,-0.1257102,0.09433498,0,0.3,0,0,0,0,
6.38224E+17,50.91308,5.423743,21.71296,45.34497,-12.62277,21.76003,-57.01511,-0.4675641,7.190958,-72.72624,-8.594284,-36.83611,0,0,0,141.334,-87.93432,-53.54456,-125.8539,-110.0393,-86.66669,0.001067912,-0.1257102,0.09433498,0,0.3,0,0,0,0,
6.38224E+17,50.51255,4.254833,21.68961,44.83226,-11.89032,20.07539,-57.01511,-0.4675641,7.190958,-72.72624,-8.594284,-36.90935,0,0,0,140.6661,-90.66518,-52.44556,-125.8539,-110.0393,-86.66669,0.001067912,-0.1257102,0.09433498,0,0.3,0,0,0,0,
6.38224E+17,49.99424,3.740513,21.29271,44.24629,-11.23111,17.58505,-57.01511,-0.4675641,7.190958,-72.72624,-8.594284,-36.83611,0,0,0,139.0174,-92.19772,-51.67671,-125.8539,-110.0393,-86.66669,0.001067912,-0.1257102,0.09433498,0,0.3,0,0,0,0,
6.38224E+17,49.68796,3.553487,20.8958,44.02656,-11.08462,16.41313,-57.01511,-0.4675641,7.190958,-72.72624,-8.521038,-36.83611,0,0,0,137.7557,-92.96458,-51.47491,-125.8539,-110.0393,-86.66669,0.001067912,-0.1257102,0.09433498,0,0.3,0,0,0,0,
6.38224E+17,48.76912,2.852141,19.68175,43.14762,-10.49866,13.7763,-57.01511,-0.4675641,7.190958,-72.72624,-8.594284,-36.83611,0,0,0,133.9392,-95.57409,-50.96753,-125.8539,-110.0393,-86.66669,0.001067912,-0.1257102,0.09433498,0,0.3,0,0,0,0,
6.38224E+17,47.40264,1.917013,17.86066,41.68271,-9.619716,10.55352,-57.01511,-0.4675641,7.190958,-72.72624,-8.594284,-36.83611,0,0,0,128.2146,-99.11241,-50.46156,-125.8539,-110.0393,-86.66669,0.001067912,-0.1257102,0.09433498,0,0.3,0,0,0,0,
6.38224E+17,45.35292,1.519583,15.01229,39.48536,-8.081567,6.232051,-57.01511,-0.4675641,7.190958,-72.72624,-8.594284,-36.90935,0,0,0,119.4126,-101.9125,-50.39949,-125.8539,-110.0393,-86.66669,0.001067912,-0.1257102,0.09433498,0,0.3,0,0,0,0,
6.38224E+17,44.08069,1.519583,13.51807,38.24019,-7.349115,4.913638,-57.01511,-0.4675641,7.190958,-72.72624,-8.594284,-36.83611,0,0,0,114.4197,-102.7694,-50.19837,-125.8539,-110.0393,-86.66669,0.001067912,-0.1257102,0.09433498,0,0.3,0,0,0,0,
6.38224E+17,40.90009,1.519583,10.34284,34.3582,-5.664476,4.913638,-57.01511,-0.4675641,7.190958,-72.72624,-8.594284,-36.83611,0,0,0,102.9546,-104.297,-49.49639,-125.8539,-110.0393,-86.66669,0.001067912,-0.1257102,0.09433498,0,0.3,0,0,0,0,
6.38224E+17,37.97866,1.519583,7.797987,29.817,-3.613612,6.891257,-57.01511,-0.4675641,7.190958,-72.72624,-8.594284,-36.90935,0,0,0,93.16432,-105.2306,-49.01351,-125.8539,-110.0393,-86.66669,0.001067912,-0.1257102,0.09433498,0,0.3,0,0,0,0,
6.38224E+17,36.7771,1.519583,6.583929,27.61964,-2.58818,7.184238,-57.01511,-0.4675641,7.190958,-72.72624,-8.594284,-36.83611,0,0,0,88.96304,-105.5843,-49.3315,-125.8539,-110.0393,-86.66669,0.001067912,-0.1257102,0.09433498,0,0.3,0,0,0,0,
6.38224E+17,34.91586,1.636474,4.926273,24.25036,-0.2443342,6.525032,-57.01511,-0.4675641,7.190958,-72.72624,-8.594284,-36.83611,0,0,0,82.84919,-105.6992,-49.6585,-125.8539,-110.0393,-86.66669,0.001067912,-0.1257102,0.09433498,0,0.3,0,0,0,0,
6.38224E+17,33.73786,1.776743,3.525437,21.97976,2.172756,4.400921,-57.01511,-0.4675641,7.190958,-72.72624,-8.594284,-36.83611,0,0,0,78.58038,-105.6131,-50.69221,-125.8539,-110.0393,-86.66669,0.001067912,-0.1257102,0.09433498,0,0.3,0,0,0,0,
6.38224E+17,33.31378,1.800122,2.521505,20.95433,4.882828,0.4456824,-57.01511,-0.4675641,7.190958,-72.72624,-8.594284,-36.83611,0,0,0,76.42496,-105.682,-52.06509,-125.8539,-110.0393,-86.66669,0.001067912,-0.1257102,0.09433498,0,0.3,0,0,0,0,
6.38224E+17,33.33735,1.800122,2.21799,21.10082,6.420976,-3.216576,-57.01511,-0.4675641,7.190958,-72.72624,-8.594284,-36.83611,0,0,0,76.08489,-105.7112,-52.68618,-125.8539,-110.0393,-86.66669,0.001067912,-0.1257102,0.09433498,0,0.3,0,0,0,0,
6.38224E+17,33.45514,1.800122,1.79774,22.12625,9.717009,-16.62044,-57.01511,-0.4675641,7.190958,-72.72624,-8.594284,-36.83611,0,0,0,75.78366,-105.7455,-53.65839,-125.8539,-110.0393,-86.66669,0.001067912,-0.1257102,0.09433498,0,0.3,0,0,0,0,
6.38224E+17,33.43158,1.917013,1.844434,24.25036,12.35384,-28.85239,-57.01511,-0.4675641,7.190958,-72.72624,-8.521038,-36.90935,0,0,0,75.79148,-105.4701,-53.54395,-125.8539,-110.0393,-86.66669,0.001067912,-0.1257102,0.09433498,0,0.3,0,0,0,0,
6.38224E+17,33.40803,2.197551,1.96117,25.27579,13.52576,-33.32034,-57.01511,-0.4675641,7.190958,-72.72624,-8.594284,-36.83611,0,0,0,75.88087,-104.8086,-53.30569,-125.8539,-110.0393,-86.66669,0.001067912,-0.1257102,0.09433498,0,0.3,0,0,0,0,
6.38224E+17,33.26667,3.272949,2.47481,27.25341,15.64987,-38.4475,-57.01511,-0.4675641,7.190958,-72.72624,-8.594284,-36.83611,0,0,0,76.18654,-102.2623,-52.2199,-125.8539,-110.0393,-86.66669,0.001067912,-0.1257102,0.09433498,0,0.3,0,0,0,0,
6.38224E+17,32.84259,5.353609,3.011797,28.71832,17.18801,-40.93784,-57.01511,-0.4675641,7.190958,-72.72624,-8.594284,-36.83611,0,0,0,75.80442,-97.37396,-50.91634,-125.8539,-110.0393,-86.66669,0.001067912,-0.1257102,0.09433498,0,0.3,0,0,0,0,
6.38224E+17,32.55987,6.662788,3.291965,29.08454,17.77398,-41.08433,-57.01511,-0.4675641,7.190958,-72.72624,-8.594284,-36.83611,0,0,0,75.40279,-94.30793,-50.26378,-125.8539,-110.0393,-86.66669,0.001067912,-0.1257102,0.09433498,0,0.3,0,0,0,0,
6.38224E+17,32.15935,9.000608,4.506022,29.08454,18.65292,-36.68962,-57.01511,-0.4675641,7.190958,-72.72624,-8.594284,-36.83611,0,0,0,75.68137,-88.72589,-47.98071,-125.8539,-110.0393,-86.66669,0.001067912,-0.1257102,0.09433498,0,0.3,0,0,0,0,
6.38224E+17,32.01799,10.56695,5.9769,28.79156,18.72616,-27.53397,-57.01511,-0.4675641,7.190958,-72.72624,-8.521038,-36.83611,0,0,0,76.86308,-84.82081,-45.42923,-125.8539,-110.0393,-86.66669,0.001067912,-0.1257102,0.09433498,0,0.3,0,0,0,0,
6.38224E+17,31.99443,11.03451,6.467193,28.79156,18.50643,-22.77304,-57.01511,-0.4675641,7.190958,-72.72624,-8.521038,-36.83611,0,0,0,77.30553,-83.6282,-44.60852,-125.8539,-110.0393,-86.66669,0.001067912,-0.1257102,0.09433498,0,0.3,0,0,0,0,
6.38224E+17,31.85307,11.61897,7.214305,29.08454,18.28669,-14.05686,-57.01511,-0.4675641,7.190958,-72.72624,-8.594284,-36.83611,0,0,0,77.77012,-82.08733,-43.17865,-125.8539,-110.0393,-86.66669,0.001067912,-0.1257102,0.09433498,0,0.3,0,0,0,0,
6.38224E+17,31.71171,11.80599,7.284348,29.45077,18.43318,-8.270493,-57.01511,-0.4675641,7.190958,-72.72624,-8.594284,-36.83611,0,0,0,77.49962,-81.64055,-42.92476,-125.8539,-110.0393,-86.66669,0.001067912,-0.1257102,0.09433498,0,0.3,0,0,0,0,
6.38224E+17,31.71171,11.75924,7.097569,29.37753,18.87265,-4.095518,-57.01511,-0.4675641,7.190958,-72.72624,-8.594284,-36.90935,0,0,0,77.28459,-81.80149,-43.27275,-125.8539,-110.0393,-86.66669,0.001067912,-0.1257102,0.09433498,0,0.3,0,0,0,0,
6.38224E+17,31.71171,11.73586,7.097569,29.30428,19.09239,-3.143331,-57.01511,-0.4675641,7.190958,-72.72624,-8.594284,-36.90935,0,0,0,77.29041,-81.85476,-43.26333,-125.8539,-110.0393,-86.66669,0.001067912,-0.1257102,0.09433498,0,0.3,0,0,0,0,
6.38224E+17,31.75883,11.57221,6.864096,28.64507,19.67835,-2.337634,-57.01511,-0.4675641,7.190958,-72.72624,-8.594284,-36.83611,0,0,0,77.14987,-82.29382,-43.72012,-125.8539,-110.0393,-86.66669,0.001067912,-0.1257102,0.09433498,0,0.3,0,0,0,0,
6.38224E+17,31.80595,11.54883,6.980833,27.54639,20.70378,-1.385447,-57.01511,-0.4675641,7.190958,-72.72624,-8.521038,-36.83611,0,0,0,77.40024,-82.31438,-43.54513,-125.8539,-110.0393,-86.66669,0.001067912,-0.1257102,0.09433498,0,0.3,0,0,0,0,
6.38224E+17,31.82951,11.57221,7.120916,26.88719,21.07001,-0.3600145,-57.01511,-0.4675641,7.190958,-72.72624,-8.594284,-36.83611,0,0,0,77.61644,-82.22105,-43.31132,-125.8539,-110.0393,-86.66669,0.001067912,-0.1257102,0.09433498,0,0.3,0,0,0,0,
6.38224E+17,32.3007,11.87613,7.447778,25.1293,21.43624,4.620657,-57.01511,-0.4675641,7.190958,-72.72624,-8.594284,-36.83611,0,0,0,78.96854,-81.43202,-43.43752,-125.8539,-110.0393,-86.66669,0.001067912,-0.1257102,0.09433498,0,0.3,0,0,0,0,
6.38224E+17,33.5965,12.5541,7.447778,24.17712,20.63054,11.65219,-57.01511,-0.4675641,7.190958,-72.72624,-8.594284,-36.83611,0,0,0,81.58839,-79.88985,-45.53335,-125.8539,-110.0393,-86.66669,0.001067912,-0.1257102,0.09433498,0,0.3,0,0,0,0,
6.38224E+17,35.43418,13.06842,7.074222,23.51791,19.01915,18.90347,-57.01511,-0.4675641,7.190958,-72.72624,-8.521038,-36.90935,0,0,0,84.83101,-78.83251,-49.13186,-125.8539,-110.0393,-86.66669,0.001067912,-0.1257102,0.09433498,0,0.3,0,0,0,0,
6.38224E+17,36.40014,13.02166,7.027527,23.15168,18.06696,21.54029,-57.01511,-0.4675641,7.190958,-72.72624,-8.594284,-36.90935,0,0,0,86.77935,-78.95187,-50.64595,-125.8539,-110.0393,-86.66669,0.001067912,-0.1257102,0.09433498,0,0.3,0,0,0,0,
6.38224E+17,37.88441,12.71774,7.307694,22.34599,16.74854,22.78546,-57.01511,-0.4675641,7.190958,-72.72624,-8.594284,-36.83611,0,0,0,90.29311,-79.56007,-52.2983,-125.8539,-110.0393,-86.66669,0.001067912,-0.1257102,0.09433498,0,0.3,0,0,0,0,
6.38224E+17,39.03886,12.88139,7.751292,21.61354,15.64987,21.02757,-57.01511,-0.4675641,7.190958,-72.72624,-8.594284,-36.83611,0,0,0,93.20443,-79.05338,-53.41157,-125.8539,-110.0393,-86.66669,0.001067912,-0.1257102,0.09433498,0,0.3,0,0,0,0,
6.38224E+17,39.4865,13.11517,7.984766,21.17406,15.2104,19.41618,-57.01511,-0.4675641,7.190958,-72.72624,-8.594284,-36.83611,0,0,0,94.36403,-78.44884,-53.82229,-125.8539,-110.0393,-86.66669,0.001067912,-0.1257102,0.09433498,0,0.3,0,0,0,0,
6.38224E+17,40.75874,14.30746,8.264932,19.9289,14.11172,17.58505,-57.01511,-0.4675641,7.190958,-72.72624,-8.594284,-36.90935,0,0,0,96.87564,-75.66088,-55.95493,-125.8539,-110.0393,-86.66669,0.001067912,-0.1257102,0.09433498,0,0.3,0,0,0,0,
6.38224E+17,42.57285,16.48163,9.619073,19.19645,12.57357,16.92585,-57.01511,-0.4675641,7.190958,-72.72624,-8.594284,-36.83611,0,0,0,101.5827,-70.2927,-57.77457,-125.8539,-110.0393,-86.66669,0.001067912,-0.1257102,0.09433498,0,0.3,0,0,0,0,
6.38224E+17,44.38697,18.51554,11.65029,19.26969,10.37621,12.97061,-57.01511,-0.4675641,7.190958,-72.72624,-8.594284,-36.83611,0,0,0,107.2865,-64.90591,-58.74273,-125.8539,-110.0393,-86.66669,0.001067912,-0.1257102,0.09433498,0,0.3,0,0,0,0,
6.38224E+17,45.07021,19.42729,12.60752,19.56267,9.057802,10.33378,-57.01511,-0.4675641,7.190958,-72.72624,-8.594284,-36.90935,0,0,0,109.6396,-62.4311,-58.97879,-125.8539,-110.0393,-86.66669,0.001067912,-0.1257102,0.09433498,0,0.3,0,0,0,0,
6.38224E+17,46.08328,21.15727,13.6348,19.85565,6.933692,5.426354,-57.01511,-0.4675641,7.190958,-72.72624,-8.521038,-36.83611,0,0,0,112.2276,-58.11202,-60.28786,-125.8539,-110.0393,-86.66669,0.001067912,-0.1257102,0.09433498,0,0.3,0,0,0,0,
6.38224E+17,46.6016,22.34956,14.1251,19.41618,6.201241,-0.3600145,-57.01511,-0.4675641,7.190958,-72.72624,-8.594284,-36.90935,0,0,0,113.2583,-55.26101,-61.25299,-125.8539,-110.0393,-86.66669,0.001067912,-0.1257102,0.09433498,0,0.3,0,0,0,0,
6.38224E+17,46.69584,23.05091,14.77882,19.04996,6.05475,-2.410879,-57.01511,-0.4675641,7.190958,-72.72624,-8.594284,-36.83611,0,0,0,114.048,-53.37544,-60.86095,-125.8539,-110.0393,-86.66669,0.001067912,-0.1257102,0.09433498,0,0.3,0,0,0,0,
6.38224E+17,47.00212,24.89779,16.22635,18.39075,4.956073,-5.340686,-57.01511,-0.4675641,7.190958,-72.72624,-8.594284,-36.83611,0,0,0,115.7179,-48.54759,-60.4493,-125.8539,-110.0393,-86.66669,0.001067912,-0.1257102,0.09433498,0,0.3,0,0,0,0,
6.38224E+17,47.09636,27.11872,17.51045,17.80479,3.78415,-7.318305,-57.01511,-0.4675641,7.190958,-72.72624,-8.594284,-36.83611,0,0,0,116.33,-43.03515,-60.23574,-125.8539,-110.0393,-86.66669,0.001067912,-0.1257102,0.09433498,0,0.3,0,0,0,0,
6.38224E+17,47.0728,29.19938,19.33154,16.99909,2.172756,-8.783209,-57.01511,-0.4675641,7.190958,-72.72624,-8.594284,-36.90935,0,0,0,117.5566,-37.42676,-59.00566,-125.8539,-110.0393,-86.66669,0.001067912,-0.1257102,0.09433498,0,0.3,0,0,0,0,
6.38224E+17,47.0728,30.06437,20.4522,16.70611,1.293814,-9.588906,-57.01511,-0.4675641,7.190958,-72.72624,-8.594284,-36.83611,0,0,0,118.6236,-34.78945,-58.01318,-125.8539,-110.0393,-86.66669,0.001067912,-0.1257102,0.09433498,0,0.3,0,0,0,0,
6.38224E+17,47.0728,31.58395,22.36668,16.48637,-0.3175794,-11.34679,-57.01511,-0.4675641,7.190958,-72.72624,-8.594284,-36.90935,0,0,0,120.334,-30.12604,-56.42226,-125.8539,-110.0393,-86.66669,0.001067912,-0.1257102,0.09433498,0,0.3,0,0,0,0,
6.38224E+17,47.02568,32.823,24.18777,16.55962,-1.782483,-12.81169,-57.01511,-0.4675641,7.190958,-72.72624,-8.594284,-36.83611,0,0,0,121.966,-26.01111,-54.71702,-125.8539,-110.0393,-86.66669,0.001067912,-0.1257102,0.09433498,0,0.3,0,0,0,0,
6.38224E+17,47.02568,33.43083,25.09831,16.63286,-2.295199,-13.10467,-57.01511,-0.4675641,7.190958,-72.72624,-8.594284,-36.83611,0,0,0,122.8097,-23.94277,-53.93101,-125.8539,-110.0393,-86.66669,0.001067912,-0.1257102,0.09433498,0,0.3,0,0,0,0,
6.38224E+17,47.52044,34.83352,27.45638,16.8526,-3.686857,-13.4709,-57.01511,-0.4675641,7.190958,-72.72624,-8.594284,-36.83611,0,0,0,126.0713,-18.81103,-52.9097,-125.8539,-110.0393,-86.66669,0.001067912,-0.1257102,0.09433498,0,0.3,0,0,0,0,
6.38224E+17,48.58064,35.605,30.74835,17.87803,-5.078516,-13.61739,-57.01511,-0.4675641,7.190958,-72.72624,-8.594284,-36.90935,0,0,0,132.4285,-13.61824,-51.519,-125.8539,-110.0393,-86.66669,0.001067912,-0.1257102,0.09433498,0,0.3,0,0,0,0,
6.38224E+17,49.71152,35.69852,34.36718,19.70916,-6.836399,-13.54414,-57.01511,-0.4675641,7.190958,-72.72624,-8.594284,-36.90935,0,0,0,140.0259,-8.909613,-49.64782,-125.8539,-110.0393,-86.66669,0.001067912,-0.1257102,0.09433498,0,0.3,0,0,0,0,
6.38224E+17,50.34764,35.69852,36.53847,20.88108,-7.935077,-13.76388,-57.01511,-0.4675641,7.190958,-72.72624,-8.594284,-36.90935,0,0,0,144.5043,-5.978614,-48.58301,-125.8539,-110.0393,-86.66669,0.001067912,-0.1257102,0.09433498,0,0.3,0,0,0,0,
6.38224E+17,51.52563,35.69852,40.27403,23.88414,-9.839451,-15.81474,-57.01511,-0.4675641,7.190958,-72.72624,-8.594284,-36.90935,0,0,0,152.2688,-0.5784841,-47.34109,-125.8539,-110.0393,-86.66669,0.001067912,-0.1257102,0.09433498,0,0.3,0,0,0,0,
6.38224E+17,52.23243,35.69852,43.30918,27.18017,-11.59733,-19.62349,-57.01511,-0.4675641,7.190958,-72.72624,-8.594284,-36.83611,0,0,0,157.9128,4.128569,-46.00336,-125.8539,-110.0393,-86.66669,0.001067912,-0.1257102,0.09433498,0,0.3,0,0,0,0,
6.38224E+17,52.56227,35.69852,44.89679,28.79156,-12.69601,-21.7476,-57.01511,-0.4675641,7.190958,-72.72624,-8.594284,-36.83611,0,0,0,160.7213,6.700028,-45.30153,-125.8539,-110.0393,-86.66669,0.001067912,-0.1257102,0.09433498,0,0.3,0,0,0,0,
6.38224E+17,53.48111,35.67514,47.90859,32.01435,-14.4539,-26.06907,-57.01511,-0.4675641,7.190958,-72.72624,-8.521038,-36.83611,0,0,0,166.5836,11.73167,-44.99963,-125.8539,-110.0393,-86.66669,0.001067912,-0.1257102,0.09433498,0,0.3,0,0,0,0,
6.38224E+17,54.37639,35.1842,50.40675,35.09065,-16.43152,-29.58484,-57.01511,-0.4675641,7.190958,-72.72624,-8.594284,-36.83611,0,0,0,172.1196,15.1988,-45.01719,-125.8539,-110.0393,-86.66669,0.001067912,-0.1257102,0.09433498,0,0.3,0,0,0,0,
6.38224E+17,54.89471,34.62312,51.57411,36.6288,-17.38371,-30.75676,-57.01511,-0.4675641,7.190958,-72.72624,-8.521038,-36.83611,0,0,0,175.2386,16.23898,-45.16611,-125.8539,-110.0393,-86.66669,0.001067912,-0.1257102,0.09433498,0,0.3,0,0,0,0,
6.38224E+17,55.31879,32.823,53.32516,39.63185,-18.55563,-32.51464,-57.01511,-0.4675641,7.190958,-72.72624,-8.594284,-36.90935,0,0,0,180.1005,15.98541,-43.72983,-125.8539,-110.0393,-86.66669,0.001067912,-0.1257102,0.09433498,0,0.3,0,0,0,0,
6.38224E+17,55.31879,30.71896,53.88549,40.95026,-19.14159,-33.32034,-57.01511,-0.4675641,7.190958,-72.72624,-8.594284,-36.90935,0,0,0,182.857,12.87222,-41.8225,-125.8539,-110.0393,-86.66669,0.001067912,-0.1257102,0.09433498,0,0.3,0,0,0,0,
6.38224E+17,55.31879,29.66694,54.189,41.09675,-19.21483,-33.24709,-57.01511,-0.4675641,7.190958,-72.72624,-8.594284,-36.90935,0,0,0,184.2107,11.3277,-40.88581,-125.8539,-110.0393,-86.66669,0.001067912,-0.1257102,0.09433498,0,0.3,0,0,0,0,
6.38224E+17,55.31879,27.37588,54.88942,41.17,-18.70212,-32.73438,-57.01511,-0.4675641,7.190958,-72.72624,-8.594284,-36.83611,0,0,0,187.082,7.970696,-38.89904,-125.8539,-110.0393,-86.66669,0.001067912,-0.1257102,0.09433498,0,0.3,0,0,0,0,
6.38224E+17,55.29523,24.59387,55.19294,41.60947,-17.60344,-31.56245,-57.01511,-0.4675641,7.167611,-72.72624,-8.594284,-36.83611,0,0,0,189.6934,2.729917,-36.97669,-125.8087,-110.0461,-86.69605,0.001067912,-0.1257102,0.09433498,0,0.3,0,0,0,0,
6.38224E+17,55.27167,21.36768,55.16959,41.75596,-16.43152,-29.80457,-57.01511,-0.4675641,7.167611,-72.72624,-8.594284,-36.90935,0,0,0,192.0229,-4.226493,-35.24654,-125.8087,-110.0461,-86.69605,0.001067912,-0.1257102,0.09433498,0,0.3,0,0,0,0,
6.38224E+17,55.24811,19.68445,55.16959,41.68271,-15.77231,-28.99888,-57.01511,-0.4675641,7.167611,-72.72624,-8.521038,-36.83611,0,0,0,193.0967,-7.895192,-34.38462,-125.8087,-110.0461,-86.69605,0.001067912,-0.1257102,0.09433498,0,0.3,0,0,0,0,
6.38224E+17,55.20099,16.43488,55.02951,41.02351,-14.30741,-27.82695,-57.01511,-0.4675641,7.167611,-72.72624,-8.594284,-36.83611,0,0,0,194.7583,-15.35206,-32.99444,-125.8087,-110.0461,-86.69605,0.001067912,-0.1257102,0.09433498,0,0.3,0,0,0,0,
6.38224E+17,54.96539,13.72301,54.14231,39.99807,-12.76926,-26.36205,-57.01511,-0.4675641,7.167611,-72.72624,-8.521038,-36.83611,0,0,0,194.5647,-23.12858,-31.93913,-125.8087,-110.0461,-86.69605,0.001067912,-0.1257102,0.09433498,0,0.3,0,0,0,0,
6.38224E+17,54.72979,12.88139,53.27846,39.26562,-12.32979,-25.6296,-57.01511,-0.4675641,7.167611,-72.72624,-8.594284,-36.90935,0,0,0,193.3985,-26.65532,-31.56711,-125.8087,-110.0461,-86.69605,0.001067912,-0.1257102,0.09433498,0,0.3,0,0,0,0,
6.38224E+17,54.07011,12.03977,51.20055,37.72747,-11.3776,-23.65198,-57.01511,-0.4675641,7.167611,-72.72624,-8.594284,-36.83611,0,0,0,189.7552,-32.39105,-30.83919,-125.8087,-110.0461,-86.69605,0.001067912,-0.1257102,0.09433498,0,0.3,0,0,0,0,
6.38224E+17,53.26907,12.03977,49.07595,36.11608,-9.473226,-21.0884,-57.01511,-0.4675641,7.167611,-72.72624,-8.594284,-36.83611,0,0,0,185.2744,-36.18642,-30.0951,-125.8087,-110.0461,-86.69605,0.001067912,-0.1257102,0.09433498,0,0.3,0,0,0,0,
6.38224E+17,52.86855,12.2268,48.07202,35.31038,-8.667529,-19.98972,-57.01511,-0.4675641,7.167611,-72.653,-8.594284,-36.90935,0,0,0,182.9979,-37.51281,-29.7918,-125.8087,-110.0461,-86.69605,0.001067912,-0.1257102,0.09433498,0,0.3,0,0,0,0,
6.38224E+17,52.09107,13.09179,45.76064,33.62574,-7.349115,-18.23184,-57.01511,-0.4675641,7.167611,-72.72624,-8.594284,-36.83611,0,0,0,177.8539,-39.47727,-29.85002,-125.8087,-110.0461,-86.69605,0.001067912,-0.1257102,0.09433498,0,0.3,0,0,0,0,
6.38224E+17,51.50208,14.75165,43.33253,32.08759,-6.103948,-17.13316,-57.01511,-0.4675641,7.167611,-72.72624,-8.594284,-36.83611,0,0,0,172.5415,-39.69169,-31.11446,-125.8087,-110.0461,-86.69605,0.001067912,-0.1257102,0.09433498,0,0.3,0,0,0,0,
6.38224E+17,50.72459,17.22974,40.22734,30.54945,-5.15176,-16.18097,-57.01511,-0.4675641,7.167611,-72.72624,-8.521038,-36.83611,0,0,0,165.2623,-38.96235,-33.20282,-125.8087,-110.0461,-86.69605,0.001067912,-0.1257102,0.09433498,0,0.3,0,0,0,0,
6.38224E+17,50.22984,18.72594,38.70977,29.67051,-4.932025,-15.66825,-57.01511,-0.4675641,7.167611,-72.72624,-8.594284,-36.83611,0,0,0,161.1674,-37.89526,-34.21253,-125.8087,-110.0461,-86.69605,0.001067912,-0.1257102,0.09433498,0,0.3,0,0,0,0,
6.38224E+17,49.38168,21.64822,36.81864,27.83937,-5.591231,-14.86256,-57.01511,-0.4675641,7.167611,-72.72624,-8.521038,-36.83611,0,0,0,154.7418,-34.20781,-35.63441,-125.8087,-110.0461,-86.69605,0.001067912,-0.1257102,0.09433498,0,0.3,0,0,0,0,
6.38224E+17,48.76912,24.89779,36.04818,26.44772,-7.056135,-14.2766,-57.01511,-0.4675641,7.167611,-72.72624,-8.594284,-36.90935,0,0,0,149.982,-28.32602,-36.9078,-125.8087,-110.0461,-86.69605,0.001067912,-0.1257102,0.09433498,0,0.3,0,0,0,0,
6.38224E+17,48.6042,26.4875,35.97814,25.935,-8.081567,-14.20335,-57.01511,-0.4675641,7.167611,-72.72624,-8.521038,-36.83611,0,0,0,148.3009,-25.08787,-37.6245,-125.8087,-110.0461,-86.69605,0.001067912,-0.1257102,0.09433498,0,0.3,0,0,0,0,
6.38224E+17,48.41572,28.96559,35.97814,25.56878,-10.27892,-14.13011,-57.01511,-0.4675641,7.167611,-72.72624,-8.594284,-36.90935,0,0,0,145.8631,-19.983,-38.91821,-125.8087,-110.0461,-86.69605,0.001067912,-0.1257102,0.09433498,0,0.3,0,0,0,0,
6.38224E+17,48.46284,29.99424,35.97814,25.71527,-12.47628,-13.69064,-57.01511,-0.4675641,7.167611,-72.72624,-8.594284,-36.83611,0,0,0,145.0876,-17.89894,-39.81944,-125.8087,-110.0461,-86.69605,0.001067912,-0.1257102,0.09433498,0,0.3,0,0,0,0,
6.38224E+17,48.91048,30.06437,35.97814,26.08149,-13.72145,-12.29898,-57.01511,-0.4675641,7.167611,-72.72624,-8.594284,-36.83611,0,0,0,146.0258,-17.75762,-41.01058,-125.8087,-110.0461,-86.69605,0.001067912,-0.1257102,0.09433498,0,0.3,0,0,0,0,
6.38224E+17,49.14608,30.04099,36.00148,26.52096,-13.94118,-11.71302,-57.01511,-0.4675641,7.167611,-72.72624,-8.594284,-36.90935,0,0,0,146.6021,-17.77278,-41.56553,-125.8087,-110.0461,-86.69605,0.001067912,-0.1257102,0.09433498,0,0.3,0,0,0,0,
6.38224E+17,49.40524,29.69032,35.8614,27.18017,-14.16092,-11.2003,-57.01511,-0.4675641,7.167611,-72.72624,-8.594284,-36.83611,0,0,0,147.2822,-18.67187,-42.13725,-125.8087,-110.0461,-86.69605,0.001067912,-0.1257102,0.09433498,0,0.3,0,0,0,0,
6.38224E+17,49.4288,28.87208,35.62793,27.47315,-14.30741,-10.98056,-57.01511,-0.4675641,7.167611,-72.72624,-8.594284,-36.83611,0,0,0,147.7066,-20.65033,-41.87889,-125.8087,-110.0461,-86.69605,0.001067912,-0.1257102,0.09433498,0,0.3,0,0,0,0,
6.38224E+17,49.4288,28.40452,35.4645,27.47315,-14.16092,-10.90732,-57.01511,-0.4675641,7.167611,-72.72624,-8.521038,-36.83611,0,0,0,147.8676,-21.82653,-41.74096,-125.8087,-110.0461,-86.69605,0.001067912,-0.1257102,0.09433498,0,0.3,0,0,0,0,
6.38224E+17,49.311,27.7733,34.90416,27.18017,-13.50171,-10.83407,-57.01511,-0.4675641,7.167611,-72.72624,-8.594284,-36.83611,0,0,0,147.3233,-23.87402,-41.68114,-125.8087,-110.0461,-86.69605,0.001067912,-0.1257102,0.09433498,0,0.3,0,0,0,0,
6.38224E+17,48.91048,27.07196,34.74073,26.44772,-13.50171,-10.68758,-57.01511,-0.4675641,7.167611,-72.72624,-8.594284,-36.83611,0,0,0,146.7655,-25.5401,-40.36554,-125.8087,-110.0461,-86.69605,0.001067912,-0.1257102,0.09433498,0,0.3,0,0,0,0,
6.38224E+17,48.79268,26.60439,34.43722,26.00825,-13.72145,-10.17487,-57.01511,-0.4675641,7.167611,-72.72624,-8.594284,-36.83611,0,0,0,146.4342,-26.9121,-40.12352,-125.8087,-110.0461,-86.69605,0.001067912,-0.1257102,0.09433498,0,0.3,0,0,0,0,
6.38224E+17,48.4864,25.45886,33.64341,25.34904,-13.6482,-8.709964,-57.01511,-0.4675641,7.167611,-72.72624,-8.521038,-36.90935,0,0,0,145.4764,-30.34188,-39.58176,-125.8087,-110.0461,-86.69605,0.001067912,-0.1257102,0.09433498,0,0.3,0,0,0,0,
6.38224E+17,48.27436,24.33671,32.19588,24.32361,-13.06224,-7.684532,-57.01511,-0.4675641,7.167611,-72.72624,-8.594284,-36.83611,0,0,0,143.7089,-34.54167,-40.19466,-125.8087,-110.0461,-86.69605,0.001067912,-0.1257102,0.09433498,0,0.3,0,0,0,0,
6.38224E+17,48.2508,22.86388,30.49153,23.37142,-12.1833,-7.24506,-57.01511,-0.4675641,7.167611,-72.72624,-8.594284,-36.83611,0,0,0,142.1526,-39.74602,-41.47755,-125.8087,-110.0461,-86.69605,0.001067912,-0.1257102,0.09433498,0,0.3,0,0,0,0,
6.38224E+17,48.2508,21.78849,29.81446,22.93195,-11.96356,-7.318305,-57.01511,-0.4675641,7.167611,-72.72624,-8.594284,-36.90935,0,0,0,141.8453,-42.85278,-41.75175,-125.8087,-110.0461,-86.69605,0.001067912,-0.1257102,0.09433498,0,0.3,0,0,0,0,
6.38224E+17,48.27436,18.84283,29.09069,22.27274,-10.5719,-7.977511,-57.01511,-0.4675641,7.167611,-72.72624,-8.594284,-36.83611,0,0,0,142.5789,-50.10957,-41.2023,-125.8087,-110.0461,-86.69605,0.001067912,-0.1257102,0.09433498,0,0.3,0,0,0,0,
6.38224E+17,48.3686,14.96205,29.25412,21.83327,-8.521038,-8.636719,-57.01511,-0.4675641,7.167611,-72.72624,-8.594284,-36.83611,0,0,0,144.9985,-58.56446,-39.47211,-125.8087,-110.0461,-86.69605,0.001067912,-0.1257102,0.09433498,0,0.3,0,0,0,0,
6.38224E+17,48.41572,12.85801,29.55764,21.76003,-7.27587,-8.709964,-57.01511,-0.4675641,7.167611,-72.72624,-8.594284,-36.83611,0,0,0,146.4453,-62.97068,-38.40166,-125.8087,-110.0461,-86.69605,0.001067912,-0.1257102,0.09433498,0,0.3,0,0,0,0,
6.38224E+17,48.43928,9.023986,30.44483,21.83327,-4.85878,-8.490229,-57.01511,-0.4675641,7.167611,-72.72624,-8.594284,-36.83611,0,0,0,149.1037,-70.69769,-36.15223,-125.8087,-110.0461,-86.69605,0.001067912,-0.1257102,0.09433498,0,0.3,0,0,0,0,
6.38224E+17,48.43928,5.610769,31.37873,21.83327,-2.58818,-7.757777,-57.01511,-0.4675641,7.167611,-72.72624,-8.594284,-36.83611,0,0,0,151.256,-77.45917,-34.24397,-125.8087,-110.0461,-86.69605,0.001067912,-0.1257102,0.09433498,0,0.3,0,0,0,0,
6.38224E+17,48.43928,2.73525,32.33596,21.83327,-0.3908245,-6.659099,-57.01511,-0.4675641,7.167611,-72.72624,-8.594284,-36.83611,0,0,0,153.0362,-82.95732,-32.66558,-125.8087,-110.0461,-86.69605,0.001067912,-0.1257102,0.09433498,0,0.3,0,0,0,0,
6.38224E+17,48.43928,1.56634,32.8963,21.83327,0.4881175,-6.073137,-57.01511,-0.4675641,7.167611,-72.72624,-8.594284,-36.83611,0,0,0,153.9346,-84.97295,-31.86911,-125.8087,-110.0461,-86.69605,0.001067912,-0.1257102,0.09433498,0,0.3,0,0,0,0,
6.38224E+17,48.41572,-0.2104038,33.6901,21.83327,1.66004,-5.120951,-57.01511,-0.4675641,7.167611,-72.72624,-8.594284,-36.83611,0,0,0,155.0701,-88.09355,-30.74839,-125.8087,-110.0461,-86.69605,0.001067912,-0.1257102,0.09433498,0,0.3,0,0,0,0,
6.38224E+17,48.3686,-1.005263,34.08701,21.83327,2.319247,-4.608234,-57.01511,-0.4675641,7.167611,-72.72624,-8.594284,-36.90935,0,0,0,155.5154,-89.42832,-30.12452,-125.8087,-110.0461,-86.69605,0.001067912,-0.1257102,0.09433498,0,0.3,0,0,0,0,
6.38224E+17,48.34504,-1.005263,33.97027,21.90652,2.612227,-4.461744,-57.01511,-0.4675641,7.167611,-72.72624,-8.594284,-36.83611,0,0,0,155.2903,-89.58036,-30.21024,-125.8087,-110.0461,-86.69605,0.001067912,-0.1257102,0.09433498,0,0.3,0,0,0,0,
6.38224E+17,48.29792,-1.005263,33.83019,21.83327,2.978453,-4.315253,-57.01511,-0.4675641,7.167611,-72.72624,-8.594284,-36.83611,0,0,0,154.9746,-89.76221,-30.2626,-125.8087,-110.0461,-86.69605,0.001067912,-0.1257102,0.09433498,0,0.3,0,0,0,0,
6.38224E+17,48.29792,-1.005263,33.52667,21.68678,3.124943,-4.242009,-57.01511,-0.4675641,7.167611,-72.72624,-8.521038,-36.83611,0,0,0,154.5357,-90.15392,-30.65366,-125.8087,-110.0461,-86.69605,0.001067912,-0.1257102,0.09433498,0,0.3,0,0,0,0,
6.38224E+17,48.29792,-1.005263,33.31655,21.61354,3.051698,-4.242009,-57.01511,-0.4675641,7.167611,-72.72624,-8.594284,-36.83611,0,0,0,154.2309,-90.42329,-30.9252,-125.8087,-110.0461,-86.69605,0.001067912,-0.1257102,0.09433498,0,0.3,0,0,0,0,
6.38224E+17,48.29792,-1.005263,32.8963,21.46704,2.905208,-4.608234,-57.01511,-0.4675641,7.167611,-72.72624,-8.594284,-36.83611,0,0,0,153.6192,-90.95751,-31.47025,-125.8087,-110.0461,-86.69605,0.001067912,-0.1257102,0.09433498,0,0.3,0,0,0,0,
6.38224E+17,48.29792,-1.005263,32.59278,21.32055,2.685472,-5.267441,-57.01511,-0.4675641,7.167611,-72.72624,-8.594284,-36.90935,0,0,0,153.1756,-91.3396,-31.86551,-125.8087,-110.0461,-86.69605,0.001067912,-0.1257102,0.09433498,0,0.3,0,0,0,0,
6.38224E+17,48.29792,-0.9818845,32.35931,21.17406,2.392492,-5.780157,-57.01511,-0.4675641,7.167611,-72.72624,-8.594284,-36.90935,0,0,0,152.8341,-91.57697,-32.16984,-125.8087,-110.0461,-86.69605,0.001067912,-0.1257102,0.09433498,0,0.3,0,0,0,0,
6.38224E+17,48.29792,-0.9585064,32.28927,21.17406,2.319247,-5.926647,-57.01511,-0.4675641,7.167611,-72.72624,-8.594284,-36.90935,0,0,0,152.7319,-91.60973,-32.26087,-125.8087,-110.0461,-86.69605,0.001067912,-0.1257102,0.09433498,0,0.3,0,0,0,0,
6.38224E+17,48.29792,-0.7247244,32.03245,21.10082,2.172756,-6.073137,-57.01511,-0.4675641,7.167611,-72.72624,-8.594284,-36.83611,0,0,0,152.3601,-91.38385,-32.59217,-125.8087,-110.0461,-86.69605,0.001067912,-0.1257102,0.09433498,0,0.3,0,0,0,0,
6.38224E+17,48.41572,0.1636474,31.54216,21.24731,1.806531,-5.853402,-57.01511,-0.4675641,7.167611,-72.72624,-8.594284,-36.83611,0,0,0,151.921,-89.9174,-33.54277,-125.8087,-110.0461,-86.69605,0.001067912,-0.1257102,0.09433498,0,0.3,0,0,0,0,
6.38224E+17,48.55708,0.9585064,31.23864,21.3938,1.51355,-5.853402,-57.01511,-0.4675641,7.167611,-72.72624,-8.594284,-36.83611,0,0,0,151.7875,-88.43549,-34.3291,-125.8087,-110.0461,-86.69605,0.001067912,-0.1257102,0.09433498,0,0.3,0,0,0,0,
6.38224E+17,48.58064,3.202814,31.05186,22.05301,0.8543434,-5.706912,-57.01511,-0.4675641,7.167611,-72.72624,-8.594284,-36.83611,0,0,0,151.4214,-83.4407,-34.76311,-125.8087,-110.0461,-86.69605,0.001067912,-0.1257102,0.09433498,0,0.3,0,0,0,0,
6.38224E+17,48.67488,6.078333,30.88843,22.8587,-0.3175794,-5.706912,-57.01511,-0.4675641,7.167611,-72.72624,-8.594284,-36.90935,0,0,0,150.9894,-76.96661,-35.58521,-125.8087,-110.0461,-86.69605,0.001067912,-0.1257102,0.09433498,0,0.3,0,0,0,0,
6.38224E+17,48.69844,8.018724,30.88843,23.37142,-1.123276,-5.853402,-57.01511,-0.4675641,7.167611,-72.72624,-8.594284,-36.83611,0,0,0,150.6277,-72.48489,-36.01305,-125.8087,-110.0461,-86.69605,0.001067912,-0.1257102,0.09433498,0,0.3,0,0,0,0,
6.38224E+17,48.69844,11.78261,31.02851,24.32361,-2.807915,-6.512609,-57.01511,-0.4675641,7.167611,-72.72624,-8.594284,-36.83611,0,0,0,149.7064,-63.68913,-36.82248,-125.8087,-110.0461,-86.69605,0.001067912,-0.1257102,0.09433498,0,0.3,0,0,0,0,
6.38224E+17,48.62776,16.22447,31.47211,25.27579,-4.932025,-7.391551,-57.01511,-0.4675641,7.167611,-72.653,-8.594284,-36.90935,0,0,0,148.3296,-53.12531,-37.70754,-125.8087,-110.0461,-86.69605,0.001067912,-0.1257102,0.09433498,0,0.3,0,0,0,0,
6.38224E+17,48.53352,20.43255,32.14919,26.08149,-7.349115,-8.124002,-57.01511,-0.4675641,7.167611,-72.72624,-8.594284,-36.83611,0,0,0,146.8106,-42.99976,-38.61596,-125.8087,-110.0461,-86.69605,0.001067912,-0.1257102,0.09433498,0,0.3,0,0,0,0,
6.38224E+17,48.4864,22.8405,32.68617,26.44772,-8.594284,-8.490229,-57.01511,-0.4675641,7.167611,-72.72624,-8.594284,-36.90935,0,0,0,145.9467,-37.12075,-39.1655,-125.8087,-110.0461,-86.69605,0.001067912,-0.1257102,0.09433498,0,0.3,0,0,0,0,
6.38224E+17,48.43928,27.00183,33.94693,27.03368,-10.93813,-9.295925,-57.01511,-0.4675641,7.167611,-72.72624,-8.594284,-36.83611,0,0,0,144.6221,-26.72777,-40.12564,-125.8087,-110.0461,-86.69605,0.001067912,-0.1257102,0.09433498,0,0.3,0,0,0,0,
6.38224E+17,48.43928,30.8826,35.58123,27.69288,-13.42846,-10.76083,-57.01511,-0.4675641,7.167611,-72.72624,-8.594284,-36.83611,0,0,0,143.6903,-16.65642,-40.95186,-125.8087,-110.0461,-86.69605,0.001067912,-0.1257102,0.09433498,0,0.3,0,0,0,0,
6.38224E+17,48.39216,32.86975,36.46843,28.05911,-14.52714,-12.15249,-57.01511,-0.4675641,7.167611,-72.72624,-8.594284,-36.90935,0,0,0,143.008,-11.5148,-41.34653,-125.8087,-110.0461,-86.69605,0.001067912,-0.1257102,0.09433498,0,0.3,0,0,0,0,
6.38224E+17,48.27436,35.86216,37.84592,28.79156,-16.50476,-16.10773,-57.01511,-0.4675641,7.167611,-72.72624,-8.594284,-36.83611,0,0,0,141.7198,-3.830232,-41.96848,-125.8087,-110.0461,-86.69605,0.001067912,-0.1257102,0.09433498,0,0.3,0,0,0,0,
6.38224E+17,48.20368,37.82593,38.9199,29.23104,-17.67669,-20.06297,-57.01511,-0.4675641,7.167611,-72.72624,-8.594284,-36.83611,0,0,0,140.9814,1.379192,-42.31439,-125.8087,-110.0461,-86.69605,0.001067912,-0.1257102,0.09433498,0,0.3,0,0,0,0,
6.38224E+17,48.22724,38.80782,39.38684,29.59726,-17.67669,-22.33356,-57.01511,-0.4675641,7.167611,-72.72624,-8.594284,-36.83611,0,0,0,140.605,3.858332,-42.75483,-125.8087,-110.0461,-86.69605,0.001067912,-0.1257102,0.09433498,0,0.3,0,0,0,0,
6.38224E+17,48.22724,38.94809,39.36349,29.817,-17.31046,-22.62654,-57.01511,-0.4675641,7.167611,-72.72624,-8.594284,-36.90935,0,0,0,140.4209,4.078006,-42.91932,-125.8087,-110.0461,-86.69605,0.001067912,-0.1257102,0.09433498,0,0.3,0,0,0,0,
6.38224E+17,48.32148,38.90133,39.24675,30.18322,-16.50476,-21.89409,-57.01511,-0.4675641,7.167611,-72.72624,-8.594284,-36.83611,0,0,0,140.5211,3.821243,-43.24478,-125.8087,-110.0461,-86.69605,0.001067912,-0.1257102,0.09433498,0,0.3,0,0,0,0,
6.38224E+17,48.6042,38.87795,38.94324,30.62269,-16.13853,-18.08535,-57.01511,-0.4675641,7.167611,-72.72624,-8.594284,-36.83611,0,0,0,140.751,3.333432,-44.27962,-125.8087,-110.0461,-86.69605,0.001067912,-0.1257102,0.09433498,0,0.3,0,0,0,0,
6.38224E+17,48.722,38.78444,38.4296,30.69594,-16.13853,-15.44852,-57.01511,-0.4675641,7.167611,-72.72624,-8.594284,-36.83611,0,0,0,140.4071,2.416672,-45.09484,-125.8087,-110.0461,-86.69605,0.001067912,-0.1257102,0.09433498,0,0.3,0,0,0,0,
6.38224E+17,48.8398,38.66755,36.95872,30.62269,-15.69907,-11.93275,-57.01511,-0.4675641,7.167611,-72.72624,-8.594284,-36.83611,0,0,0,138.749,0.111315,-47.05457,-125.8087,-110.0461,-86.69605,0.001067912,-0.1257102,0.09433498,0,0.3,0,0,0,0,
6.38224E+17,48.43928,38.69093,35.60458,30.32971,-14.96661,-9.955132,-57.01511,-0.4675641,7.167611,-72.72624,-8.594284,-36.83611,0,0,0,135.9713,-1.711155,-47.7956,-125.8087,-110.0461,-86.69605,0.001067912,-0.1257102,0.09433498,0,0.3,0,0,0,0,
6.38224E+17,47.96808,38.80782,35.0209,30.03673,-14.4539,-9.076189,-57.01511,-0.4675641,7.167611,-72.72624,-8.594284,-36.83611,0,0,0,134.0255,-2.284223,-47.53767,-125.8087,-110.0461,-86.69605,0.001067912,-0.1257102,0.09433498,0,0.3,0,0,0,0,
6.38224E+17,46.38956,39.81308,33.52667,28.57183,-13.57495,-7.24506,-57.01511,-0.4675641,7.167611,-72.72624,-8.594284,-36.90935,0,0,0,127.4927,-2.432384,-46.89603,-125.8087,-110.0461,-86.69605,0.001067912,-0.1257102,0.09433498,0,0.3,0,0,0,0,
6.38224E+17,43.96289,41.42618,32.19588,25.86176,-14.08767,-6.292873,-57.01511,-0.4675641,7.167611,-72.72624,-8.594284,-36.90935,0,0,0,118.7332,-1.263343,-45.23866,-125.8087,-110.0461,-86.69605,0.001067912,-0.1257102,0.09433498,0,0.3,0,0,0,0,
6.38224E+17,41.01789,42.96914,31.1686,22.41923,-15.03986,-5.487176,-57.01511,-0.4675641,7.167611,-72.72624,-8.521038,-36.83611,0,0,0,109.333,0.1412703,-42.65603,-125.8087,-110.0461,-86.69605,0.001067912,-0.1257102,0.09433498,0,0.3,0,0,0,0,
6.38224E+17,39.22733,43.64711,30.74835,20.07539,-15.47933,-4.97446,-57.01511,-0.4675641,7.167611,-72.72624,-8.594284,-36.83611,0,0,0,104.1373,0.7863181,-40.78932,-125.8087,-110.0461,-86.69605,0.001067912,-0.1257102,0.09433498,0,0.3,0,0,0,0,
6.38224E+17,35.85826,44.62899,30.25806,15.09472,-16.57801,-3.216576,-57.01511,-0.4675641,7.167611,-72.72624,-8.594284,-36.90935,0,0,0,94.95278,1.847121,-36.97649,-125.8087,-110.0461,-86.69605,0.001067912,-0.1257102,0.09433498,0,0.3,0,0,0,0,
6.38224E+17,33.50227,44.7225,29.8378,9.821064,-17.74993,-0.8727306,-57.01511,-0.4675641,7.167611,-72.72624,-8.594284,-36.83611,0,0,0,88.9202,1.512133,-34.01778,-125.8087,-110.0461,-86.69605,0.001067912,-0.1257102,0.09433498,0,0.3,0,0,0,0,
6.38224E+17,33.12531,44.44196,29.62768,7.550464,-18.11616,0.1527017,-57.01511,-0.4675641,7.167611,-72.72624,-8.594284,-36.83611,0,0,0,88.05286,0.8045476,-33.40749,-125.8087,-110.0461,-86.69605,0.001067912,-0.1257102,0.09433498,0,0.3,0,0,0,0,
6.38224E+17,33.40803,43.03927,29.11404,4.913638,-18.11616,1.471115,-57.01511,-0.4675641,7.167611,-72.72624,-8.594284,-36.83611,0,0,0,89.3868,-2.140324,-32.82912,-125.8087,-110.0461,-86.69605,0.001067912,-0.1257102,0.09433498,0,0.3,0,0,0,0,
6.38224E+17,34.4211,40.42091,28.27354,4.474167,-17.09072,2.423302,-57.01511,-0.4675641,7.167611,-72.72624,-8.594284,-36.83611,0,0,0,93.09164,-7.62699,-32.50045,-125.8087,-110.0461,-86.69605,0.001067912,-0.1257102,0.09433498,0,0.3,0,0,0,0,
6.38224E+17,35.43418,36.8908,27.26961,5.572844,-15.18635,3.888205,-57.01511,-0.4675641,7.167611,-72.72624,-8.594284,-36.83611,0,0,0,97.2553,-15.13061,-31.67125,-125.8087,-110.0461,-86.69605,0.001067912,-0.1257102,0.09433498,0,0.3,0,0,0,0,
6.38224E+17,35.76402,35.16082,26.77931,6.305296,-14.38065,4.840393,-57.01511,-0.4675641,7.167611,-72.72624,-8.594284,-36.83611,0,0,0,98.83041,-18.90531,-31.13673,-125.8087,-110.0461,-86.69605,0.001067912,-0.1257102,0.09433498,0,0.3,0,0,0,0,
6.38224E+17,36.32946,31.5372,25.70534,7.770199,-11.45084,7.184238,-57.01511,-0.4675641,7.167611,-72.72624,-8.594284,-36.90935,0,0,0,101.5977,-27.05425,-30.1904,-125.8087,-110.0461,-86.69605,0.001067912,-0.1257102,0.09433498,0,0.3,0,0,0,0,
6.38224E+17,36.70642,27.96033,24.7948,8.868877,-8.008322,9.235103,-57.01511,-0.4675641,7.167611,-72.72624,-8.594284,-36.83611,0,0,0,103.8275,-35.18471,-29.08734,-125.8087,-110.0461,-86.69605,0.001067912,-0.1257102,0.09433498,0,0.3,0,0,0,0,
6.38224E+17,36.82422,25.99656,24.46794,9.454838,-6.323683,10.26054,-57.01511,-0.4675641,7.167611,-72.72624,-8.594284,-36.90935,0,0,0,104.9418,-39.57467,-28.195,-125.8087,-110.0461,-86.69605,0.001067912,-0.1257102,0.09433498,0,0.3,0,0,0,0,
6.38224E+17,36.98914,22.46645,24.11773,10.40703,-3.174141,12.16491,-57.01511,-0.4675641,7.167611,-72.72624,-8.594284,-36.83611,0,0,0,106.9263,-47.40089,-26.39805,-125.8087,-110.0461,-86.69605,0.001067912,-0.1257102,0.09433498,0,0.3,0,0,0,0,
6.38224E+17,37.05982,18.93634,24.02434,11.13948,-0.5373149,14.21577,-57.01511,-0.4675641,7.167611,-72.72624,-8.594284,-36.83611,0,0,0,108.7317,-55.17383,-24.37112,-125.8087,-110.0461,-86.69605,0.001067912,-0.1257102,0.09433498,0,0.3,0,0,0,0,
6.38224E+17,37.08338,17.13622,24.02434,11.43246,0.8543434,15.24121,-57.01511,-0.4675641,7.167611,-72.72624,-8.594284,-36.83611,0,0,0,109.5731,-59.15739,-23.38105,-125.8087,-110.0461,-86.69605,0.001067912,-0.1257102,0.09433498,0,0.3,0,0,0,0,
6.38224E+17,37.08338,14.30746,24.02434,11.94517,3.344679,16.63286,-57.01511,-0.4675641,7.167611,-72.72624,-8.594284,-36.83611,0,0,0,110.6486,-65.49409,-21.95803,-125.8087,-110.0461,-86.69605,0.001067912,-0.1257102,0.09433498,0,0.3,0,0,0,0,
6.38224E+17,37.08338,11.82937,24.02434,12.16491,5.322299,17.43856,-57.01511,-0.4675641,7.167611,-72.72624,-8.594284,-36.83611,0,0,0,111.4349,-71.11178,-20.91774,-125.8087,-110.0461,-86.69605,0.001067912,-0.1257102,0.09433498,0,0.3,0,0,0,0,
6.38224E+17,37.08338,9.655198,24.02434,12.3114,6.494221,17.80479,-57.01511,-0.4675641,7.167611,-72.72624,-8.594284,-36.83611,0,0,0,112.0036,-76.08297,-20.16537,-125.8087,-110.0461,-86.69605,0.001067912,-0.1257102,0.09433498,0,0.3,0,0,0,0,
6.38224E+17,37.08338,8.603179,24.02434,12.3114,6.860447,17.95128,-57.01511,-0.4675641,7.167611,-72.72624,-8.594284,-36.90935,0,0,0,112.2378,-78.50038,-19.85546,-125.8087,-110.0461,-86.69605,0.001067912,-0.1257102,0.09433498,0,0.3,0,0,0,0,
6.38224E+17,37.08338,6.592653,24.07103,12.16491,7.446409,17.80479,-57.01511,-0.4675641,7.167611,-72.72624,-8.521038,-36.83611,0,0,0,112.6707,-83.09407,-19.28274,-125.8087,-110.0461,-86.69605,0.001067912,-0.1257102,0.09433498,0,0.3,0,0,0,0,
6.38224E+17,37.08338,4.862666,24.14107,12.01842,7.812634,17.21883,-57.01511,-0.4675641,7.167611,-72.72624,-8.594284,-36.90935,0,0,0,113.0027,-87.0336,-18.84348,-125.8087,-110.0461,-86.69605,0.001067912,-0.1257102,0.09433498,0,0.3,0,0,0,0,
6.38224E+17,37.08338,3.974295,24.16442,11.87193,8.03237,16.92585,-57.01511,-0.4675641,7.167611,-72.72624,-8.594284,-36.90935,0,0,0,113.1287,-89.07279,-18.67686,-125.8087,-110.0461,-86.69605,0.001067912,-0.1257102,0.09433498,0,0.3,0,0,0,0,
6.38224E+17,37.08338,2.361199,24.18777,11.72544,8.545086,16.48637,-57.01511,-0.4675641,7.167611,-72.72624,-8.594284,-36.90935,0,0,0,113.2837,-92.799,-18.47181,-125.8087,-110.0461,-86.69605,0.001067912,-0.1257102,0.09433498,0,0.3,0,0,0,0,
6.38224E+17,37.10694,0.7714807,24.18777,11.65219,9.131048,16.19339,-57.01511,-0.4675641,7.167611,-72.72624,-8.594284,-36.83611,0,0,0,113.4063,-96.4974,-18.43775,-125.8087,-110.0461,-86.69605,0.001067912,-0.1257102,0.09433498,0,0.3,0,0,0,0,
6.38224E+17,37.1305,-0.6312115,24.18777,11.5057,9.643764,15.97366,-57.01511,-0.4675641,7.167611,-72.72624,-8.521038,-36.83611,0,0,0,113.4703,-99.76193,-18.48121,-125.8087,-110.0461,-86.69605,0.001067912,-0.1257102,0.09433498,0,0.3,0,0,0,0,
6.38224E+17,37.15406,-1.052019,24.18777,11.5057,9.936745,15.97366,-57.01511,-0.4675641,7.167611,-72.72624,-8.521038,-36.83611,0,0,0,113.5233,-100.7412,-18.53935,-125.8087,-110.0461,-86.69605,0.001067912,-0.1257102,0.09433498,0,0.3,0,0,0,0,
6.38224E+17,37.22474,-1.028641,23.58074,11.35921,10.52271,15.97366,-57.01511,-0.4675641,7.167611,-72.72624,-8.521038,-36.83611,0,0,0,112.9271,-101.2588,-19.70734,-125.8087,-110.0461,-86.69605,0.001067912,-0.1257102,0.09433498,0,0.3,0,0,0,0,
6.38224E+17,37.22474,-1.052019,23.30057,11.43246,10.88893,16.41313,-57.01511,-0.4675641,7.167611,-72.72624,-8.594284,-36.83611,0,0,0,112.5646,-101.5726,-20.18449,-125.8087,-110.0461,-86.69605,0.001067912,-0.1257102,0.09433498,0,0.3,0,0,0,0,
6.38224E+17,37.20118,-1.052019,23.25388,11.43246,11.10867,16.63286,-57.01511,-0.4675641,7.167611,-72.653,-8.521038,-36.90935,0,0,0,112.4433,-101.6156,-20.21774,-125.8087,-110.0461,-86.69605,0.001067912,-0.1257102,0.09433498,0,0.3,0,0,0,0,
6.38224E+17,37.20118,-1.052019,23.0671,11.57895,11.62138,16.92585,-57.01511,-0.4675641,7.167611,-72.72624,-8.594284,-36.83611,0,0,0,112.2017,-101.7865,-20.53608,-125.8087,-110.0461,-86.69605,0.001067912,-0.1257102,0.09433498,0,0.3,0,0,0,0,
6.38224E+17,37.27186,-1.028641,22.95036,11.65219,12.06085,17.07234,-57.01511,-0.4675641,7.167611,-72.72624,-8.594284,-36.83611,0,0,0,112.2331,-101.8383,-20.87283,-125.8087,-110.0461,-86.69605,0.001067912,-0.1257102,0.09433498,0,0.3,0,0,0,0,
6.38224E+17,37.3661,-1.005263,22.95036,11.65219,12.28059,17.14558,-57.01511,-0.4675641,7.167611,-72.72624,-8.594284,-36.83611,0,0,0,112.4761,-101.7839,-21.05686,-125.8087,-110.0461,-86.69605,0.001067912,-0.1257102,0.09433498,0,0.3,0,0,0,0,
6.38224E+17,37.81374,-0.9351282,23.32392,11.79868,12.57357,16.99909,-57.01511,-0.4675641,7.167611,-72.72624,-8.594284,-36.83611,0,0,0,114.1153,-101.2791,-21.30631,-125.8087,-110.0461,-86.69605,0.001067912,-0.1257102,0.09433498,0,0.3,0,0,0,0,
6.38224E+17,38.68546,-0.2805384,24.14107,12.45789,12.35384,16.70611,-57.01511,-0.4675641,7.167611,-72.72624,-8.594284,-36.83611,0,0,0,117.4374,-98.9903,-21.68784,-125.8087,-110.0461,-86.69605,0.001067912,-0.1257102,0.09433498,0,0.3,0,0,0,0,
6.38224E+17,40.16973,1.379314,25.49521,13.99604,11.18191,16.26664,-57.01511,-0.4675641,7.167611,-72.72624,-8.521038,-36.83611,0,0,0,123.0182,-93.80464,-22.62148,-125.8087,-110.0461,-86.69605,0.001067912,-0.1257102,0.09433498,0,0.3,0,0,0,0,
6.38224E+17,40.94721,2.267686,26.31237,15.16796,10.44946,16.12015,-57.01511,-0.4675641,7.167611,-72.72624,-8.594284,-36.83611,0,0,0,126.0624,-90.90728,-23.0617,-125.8087,-110.0461,-86.69605,0.001067912,-0.1257102,0.09433498,0,0.3,0,0,0,0,
6.38224E+17,42.57285,4.231455,28.1568,17.73154,8.691576,15.68068,-57.01511,-0.4675641,7.167611,-72.72624,-8.521038,-36.83611,0,0,0,132.5401,-84.37997,-24.07654,-125.8087,-110.0461,-86.69605,0.001067912,-0.1257102,0.09433498,0,0.3,0,0,0,0,
6.38224E+17,44.05713,6.148468,29.86115,20.22188,6.713957,14.80174,-57.01511,-0.4675641,7.167611,-72.72624,-8.521038,-36.83611,0,0,0,138.3643,-78.01325,-25.35518,-125.8087,-110.0461,-86.69605,0.001067912,-0.1257102,0.09433498,0,0.3,0,0,0,0,
6.38224E+17,44.74036,7.130352,30.725,21.61354,5.835015,14.21577,-57.01511,-0.4675641,7.167611,-72.72624,-8.594284,-36.83611,0,0,0,141.0956,-74.72923,-25.96987,-125.8087,-110.0461,-86.69605,0.001067912,-0.1257102,0.09433498,0,0.3,0,0,0,0,
6.38224E+17,45.96548,9.23439,32.19588,24.39685,3.710905,12.82412,-57.01511,-0.4675641,7.167611,-72.72624,-8.594284,-36.90935,0,0,0,145.7057,-68.09581,-27.47388,-125.8087,-110.0461,-86.69605,0.001067912,-0.1257102,0.09433498,0,0.3,0,0,0,0,
6.38224E+17,47.04924,10.96438,33.43328,26.81394,1.586795,11.28597,-57.01511,-0.4675641,7.167611,-72.72624,-8.594284,-36.90935,0,0,0,149.599,-62.57131,-29.08689,-125.8087,-110.0461,-86.69605,0.001067912,-0.1257102,0.09433498,0,0.3,0,0,0,0,
6.38224E+17,48.2508,11.99302,35.30106,29.23104,-0.4640697,9.381593,-57.01511,-0.4675641,7.167611,-72.72624,-8.594284,-36.83611,0,0,0,154.8079,-57.77139,-30.18258,-125.8087,-110.0461,-86.69605,0.001067912,-0.1257102,0.09433498,0,0.3,0,0,0,0,
6.38224E+17,48.8398,12.18004,36.305,30.4762,-1.489502,8.50265,-57.01511,-0.4675641,7.167611,-72.72624,-8.594284,-36.83611,0,0,0,157.5781,-55.97889,-30.59404,-125.8087,-110.0461,-86.69605,0.001067912,-0.1257102,0.09433498,0,0.3,0,0,0,0,
6.38224E+17,49.94712,12.18004,38.28952,32.67356,-2.88116,6.451786,-57.01511,-0.4675641,7.167611,-72.72624,-8.594284,-36.83611,0,0,0,163.0231,-53.18029,-31.30075,-125.8087,-110.0461,-86.69605,0.001067912,-0.1257102,0.09433498,0,0.3,0,0,0,0,
6.38224E+17,50.91308,11.99302,40.53086,34.79766,-4.053083,4.474167,-57.01511,-0.4675641,7.167611,-72.72624,-8.594284,-36.83611,0,0,0,168.5092,-50.29436,-31.47009,-125.8087,-110.0461,-86.69605,0.001067912,-0.1257102,0.09433498,0,0.3,0,0,0,0,
6.38224E+17,51.26648,11.6891,41.65152,35.89634,-4.565799,3.81496,-57.01511,-0.4675641,7.167611,-72.72624,-8.594284,-36.90935,0,0,0,170.9969,-49.27237,-31.19129,-125.8087,-110.0461,-86.69605,0.001067912,-0.1257102,0.09433498,0,0.3,0,0,0,0,
6.38224E+17,51.85547,10.59033,43.89286,37.87396,-5.078516,2.569792,-57.01511,-0.4675641,7.167611,-72.72624,-8.594284,-36.90935,0,0,0,175.7977,-48.23923,-30.28625,-125.8087,-110.0461,-86.69605,0.001067912,-0.1257102,0.09433498,0,0.3,0,0,0,0,
6.38224E+17,52.16175,9.094121,45.66725,39.33887,-5.15176,1.837341,-57.01511,-0.4675641,7.167611,-72.72624,-8.594284,-36.90935,0,0,0,179.3182,-48.76134,-29.06471,-125.8087,-110.0461,-86.69605,0.001067912,-0.1257102,0.09433498,0,0.3,0,0,0,0,
6.38224E+17,52.256,8.229127,46.34432,39.92483,-5.15176,1.617605,-57.01511,-0.4675641,7.167611,-72.72624,-8.594284,-36.90935,0,0,0,180.6523,-49.6179,-28.50426,-125.8087,-110.0461,-86.69605,0.001067912,-0.1257102,0.09433498,0,0.3,0,0,0,0,
6.38224E+17,52.35023,6.218602,47.23152,40.65728,-4.85878,1.251379,-57.01511,-0.4675641,7.167611,-72.72624,-8.521038,-36.90935,0,0,0,182.4673,-52.75491,-27.57859,-125.8087,-110.0461,-86.69605,0.001067912,-0.1257102,0.09433498,0,0.3,0,0,0,0,
6.38224E+17,52.35023,4.208076,47.62842,40.80377,-4.419309,1.324624,-57.01511,-0.4675641,7.167611,-72.72624,-8.594284,-36.90935,0,0,0,183.2987,-56.7343,-26.93718,-125.8087,-110.0461,-86.69605,0.001067912,-0.1257102,0.09433498,0,0.3,0,0,0,0,
6.38224E+17,52.20887,1.987147,47.97863,40.65728,-3.686857,1.324624,-57.01511,-0.4675641,7.167611,-72.72624,-8.594284,-36.83611,0,0,0,183.6026,-61.29157,-25.97874,-125.8087,-110.0461,-86.69605,0.001067912,-0.1257102,0.09433498,0,0.3,0,0,0,0,
6.38224E+17,52.04396,0.9585064,47.97863,40.43755,-3.174141,1.471115,-57.01511,-0.4675641,7.167611,-72.72624,-8.521038,-36.83611,0,0,0,183.2406,-63.6848,-25.41301,-125.8087,-110.0461,-86.69605,0.001067912,-0.1257102,0.09433498,0,0.3,0,0,0,0,
6.38224E+17,51.66699,-1.028641,47.74516,39.77834,-2.368444,1.837341,-57.01511,-0.4675641,7.167611,-72.72624,-8.594284,-36.90935,0,0,0,182.008,-68.71238,-24.43841,-125.8087,-110.0461,-86.69605,0.001067912,-0.1257102,0.09433498,0,0.3,0,0,0,0,
6.38224E+17,51.24292,-1.005263,45.83068,38.82615,-1.562747,2.643037,-57.01511,-0.4675641,7.167611,-72.653,-8.594284,-36.83611,0,0,0,178.5597,-71.90528,-25.00442,-125.8087,-110.0461,-86.69605,0.001067912,-0.1257102,0.09433498,0,0.3,0,0,0,0,
6.38224E+17,50.91308,-1.028641,45.20031,38.24019,-1.416257,3.228999,-57.01511,-0.4675641,7.167611,-72.72624,-8.594284,-36.83611,0,0,0,176.9328,-73.00639,-24.62765,-125.8087,-110.0461,-86.69605,0.001067912,-0.1257102,0.09433498,0,0.3,0,0,0,0,
6.38224E+17,50.11204,-1.005263,42.91228,36.84853,-0.7570504,5.572844,-57.01511,-0.4675641,7.167611,-72.72624,-8.594284,-36.83611,0,0,0,171.9707,-76.65467,-24.62153,-125.8087,-110.0461,-86.69605,0.001067912,-0.1257102,0.09433498,0,0.3,0,0,0,0,
6.38224E+17,49.28744,-1.005263,40.74098,35.38363,0.3416272,7.91669,-57.01511,-0.4675641,7.167611,-72.72624,-8.594284,-36.90935,0,0,0,167.0303,-80.02452,-24.61757,-125.8087,-110.0461,-86.69605,0.001067912,-0.1257102,0.09433498,0,0.3,0,0,0,0,
6.38224E+17,48.41572,-1.005263,38.47629,33.40601,1.66004,9.967555,-57.01511,-0.4675641,7.167611,-72.72624,-8.521038,-36.83611,0,0,0,161.7871,-83.38466,-24.78806,-125.8087,-110.0461,-86.69605,0.001067912,-0.1257102,0.09433498,0,0.3,0,0,0,0,
6.38224E+17,47.99164,-1.005263,37.35563,32.45382,2.026266,10.77325,-57.01511,-0.4675641,7.167611,-72.72624,-8.594284,-36.90935,0,0,0,159.1911,-84.98741,-24.97158,-125.8087,-110.0461,-86.69605,0.001067912,-0.1257102,0.09433498,0,0.3,0,0,0,0,
6.38224E+17,47.02568,-1.005263,34.88082,30.25646,2.978453,12.23815,-57.01511,-0.4675641,7.167611,-72.72624,-8.594284,-36.83611,0,0,0,153.3474,-88.38232,-25.47971,-125.8087,-110.0461,-86.69605,0.001067912,-0.1257102,0.09433498,0,0.3,0,0,0,0,
6.38224E+17,45.94193,-0.9818845,32.61613,28.05911,3.93064,13.26359,-57.01511,-0.4675641,7.167611,-72.653,-8.594284,-36.83611,0,0,0,147.4691,-91.25592,-25.6516,-125.8087,-110.0461,-86.69605,0.001067912,-0.1257102,0.09433498,0,0.3,0,0,0,0,
6.38224E+17,45.37648,-0.9818845,31.58885,26.96043,4.370111,13.62981,-57.01511,-0.4675641,7.167611,-72.72624,-8.594284,-36.83611,0,0,0,144.6122,-92.5265,-25.62589,-125.8087,-110.0461,-86.69605,0.001067912,-0.1257102,0.09433498,0,0.3,0,0,0,0,
6.38224E+17,44.17493,-0.9818845,29.62768,24.76308,5.102563,14.06928,-57.01511,-0.4675641,7.167611,-72.72624,-8.594284,-36.83611,0,0,0,138.8501,-94.85044,-25.44222,-125.8087,-110.0461,-86.69605,0.001067912,-0.1257102,0.09433498,0,0.3,0,0,0,0,
6.38224E+17,42.92625,-0.9117499,27.61982,22.71221,5.688524,14.28902,-57.01511,-0.4675641,7.167611,-72.72624,-8.594284,-36.83611,0,0,0,132.9112,-96.92579,-25.45183,-125.8087,-110.0461,-86.69605,0.001067912,-0.1257102,0.09433498,0,0.3,0,0,0,0,
6.38224E+17,42.26657,-0.8416153,26.63923,21.68678,6.05475,14.36226,-57.01511,-0.4675641,7.167611,-72.72624,-8.594284,-36.90935,0,0,0,129.8928,-97.80326,-25.43226,-125.8087,-110.0461,-86.69605,0.001067912,-0.1257102,0.09433498,0,0.3,0,0,0,0,
6.38224E+17,40.97078,-0.5844551,24.98158,19.63592,6.567466,14.43551,-57.01511,-0.4675641,7.167611,-72.72624,-8.594284,-36.83611,0,0,0,124.3553,-98.8845,-25.14807,-125.8087,-110.0461,-86.69605,0.001067912,-0.1257102,0.09433498,0,0.3,0,0,0,0,
6.38224E+17,39.58073,-0.09351282,23.5107,17.36532,7.080183,14.43551,-57.01511,-0.4675641,7.167611,-72.72624,-8.594284,-36.83611,0,0,0,118.8605,-99.14767,-24.57399,-125.8087,-110.0461,-86.69605,0.001067912,-0.1257102,0.09433498,0,0.3,0,0,0,0,
6.38224E+17,38.12002,0.7948589,22.15656,15.02147,7.446409,14.43551,-57.01511,-0.4675641,7.167611,-72.72624,-8.594284,-36.90935,0,0,0,113.3559,-98.30312,-23.88581,-125.8087,-110.0461,-86.69605,0.001067912,-0.1257102,0.09433498,0,0.3,0,0,0,0,
6.38224E+17,37.3661,1.42607,21.50283,13.92279,7.592898,14.43551,-57.01511,-0.4675641,7.167611,-72.72624,-8.594284,-36.90935,0,0,0,110.5708,-97.40008,-23.55192,-125.8087,-110.0461,-86.69605,0.001067912,-0.1257102,0.09433498,0,0.3,0,0,0,0,
6.38224E+17,35.81114,2.758628,20.35881,12.01842,7.812634,14.43551,-57.01511,-0.4675641,7.167611,-72.72624,-8.594284,-36.83611,0,0,0,105.0795,-95.25199,-22.71334,-125.8087,-110.0461,-86.69605,0.001067912,-0.1257102,0.09433498,0,0.3,0,0,0,0,
6.38224E+17,33.97346,4.395102,19.07472,10.0408,7.88588,14.43551,-57.01511,-0.4675641,7.167611,-72.72624,-8.594284,-36.83611,0,0,0,98.65031,-92.45906,-21.94869,-125.8087,-110.0461,-86.69605,0.001067912,-0.1257102,0.09433498,0,0.3,0,0,0,0,
6.38224E+17,32.93682,5.33023,18.39765,8.942122,7.959125,14.43551,-57.01511,-0.4675641,7.167611,-72.72624,-8.594284,-36.83611,0,0,0,95.07381,-90.79667,-21.59517,-125.8087,-110.0461,-86.69605,0.001067912,-0.1257102,0.09433498,0,0.3,0,0,0,0,
6.38224E+17,30.72219,7.364134,17.11355,6.671522,8.03237,14.43551,-57.01511,-0.4675641,7.167611,-72.72624,-8.521038,-36.83611,0,0,0,87.61035,-87.00362,-20.92744,-125.8087,-110.0461,-86.69605,0.001067912,-0.1257102,0.09433498,0,0.3,0,0,0,0,
6.38224E+17,28.36619,9.514929,16.15631,4.034696,8.03237,14.43551,-57.01511,-0.4675641,7.167611,-72.72624,-8.594284,-36.90935,0,0,0,80.11282,-82.69013,-19.97526,-125.8087,-110.0461,-86.69605,0.001067912,-0.1257102,0.09433498,0,0.3,0,0,0,0,
6.38224E+17,26.0102,11.80599,15.59597,0.9583986,7.959125,14.72849,-57.01511,-0.4675641,7.167611,-72.72624,-8.594284,-36.83611,0,0,0,72.96304,-77.80704,-18.82114,-125.8087,-110.0461,-86.69605,0.001067912,-0.1257102,0.09433498,0,0.3,0,0,0,0,
6.38224E+17,24.80864,13.06842,15.50258,-0.5065048,7.666144,15.16796,-57.01511,-0.4675641,7.167611,-72.653,-8.594284,-36.83611,0,0,0,69.45807,-74.99616,-18.08847,-125.8087,-110.0461,-86.69605,0.001067912,-0.1257102,0.09433498,0,0.3,0,0,0,0,
6.38224E+17,22.87672,15.49975,15.57263,-3.143331,7.006938,16.63286,-57.01511,-0.4675641,7.167611,-72.72624,-8.594284,-36.83611,0,0,0,63.87132,-69.46917,-16.97386,-125.8087,-110.0461,-86.69605,0.001067912,-0.1257102,0.09433498,0,0.3,0,0,0,0,
6.38224E+17,21.55737,18.37527,16.22635,-5.487176,6.201241,18.53724,-57.01511,-0.4675641,7.167611,-72.72624,-8.594284,-36.83611,0,0,0,60.19028,-62.65086,-15.99558,-125.8087,-110.0461,-86.69605,0.001067912,-0.1257102,0.09433498,0,0.3,0,0,0,0,
6.38224E+17,21.20397,19.98837,16.73999,-6.439363,5.76177,19.70916,-57.01511,-0.4675641,7.167611,-72.72624,-8.594284,-36.83611,0,0,0,59.21788,-58.76592,-15.70851,-125.8087,-110.0461,-86.69605,0.001067912,-0.1257102,0.09433498,0,0.3,0,0,0,0,
6.38224E+17,20.96836,23.40158,17.95405,-7.611286,4.589847,21.61354,-57.01511,-0.4675641,7.167611,-72.72624,-8.594284,-36.83611,0,0,0,58.50415,-50.54335,-15.68959,-125.8087,-110.0461,-86.69605,0.001067912,-0.1257102,0.09433498,0,0.3,0,0,0,0,
6.38224E+17,21.0626,26.86156,19.44827,-8.124002,3.051698,23.00519,-57.01511,-0.4675641,7.167611,-72.72624,-8.594284,-36.83611,0,0,0,58.71006,-42.13902,-15.90315,-125.8087,-110.0461,-86.69605,0.001067912,-0.1257102,0.09433498,0,0.3,0,0,0,0,
6.38224E+17,21.2982,30.64882,21.54953,-8.490229,0.707853,24.10387,-57.01511,-0.4675641,7.167611,-72.72624,-8.521038,-36.83611,0,0,0,59.46026,-32.70043,-15.82821,-125.8087,-110.0461,-86.69605,0.001067912,-0.1257102,0.09433498,0,0.3,0,0,0,0,
6.38224E+17,21.39244,32.51908,22.71689,-8.490229,-0.61056,24.54334,-57.01511,-0.4675641,7.167611,-72.72624,-8.521038,-36.83611,0,0,0,59.79749,-27.96893,-15.70555,-125.8087,-110.0461,-86.69605,0.001067912,-0.1257102,0.09433498,0,0.3,0,0,0,0,
6.38224E+17,21.76941,36.23622,25.42517,-8.636719,-3.686857,25.42229,-57.01511,-0.4675641,7.167611,-72.72624,-8.594284,-36.83611,0,0,0,61.12333,-18.25935,-15.2938,-125.8087,-110.0461,-86.69605,0.001067912,-0.1257102,0.09433498,0,0.3,0,0,0,0,
6.38224E+17,22.33484,39.5793,28.34358,-8.416983,-7.056135,26.44772,-57.01511,-0.4675641,7.167611,-72.72624,-8.594284,-36.90935,0,0,0,63.1164,-9.050177,-14.7225,-125.8087,-110.0461,-86.69605,0.001067912,-0.1257102,0.09433498,0,0.3,0,0,0,0,
6.38224E+17,22.75892,41.05212,29.72107,-8.197248,-8.814018,26.88719,-57.01511,-0.4675641,7.167611,-72.72624,-8.594284,-36.83611,0,0,0,64.47817,-4.880716,-14.65413,-125.8087,-110.0461,-86.69605,0.001067912,-0.1257102,0.09433498,0,0.3,0,0,0,0,
6.38224E+17,23.96048,43.57697,32.35931,-7.464796,-12.11005,27.61964,-57.01511,-0.4675641,7.167611,-72.653,-8.594284,-36.83611,0,0,0,68.21687,2.6301,-14.84756,-125.8087,-110.0461,-86.69605,0.001067912,-0.1257102,0.09433498,0,0.3,0,0,0,0,
6.38224E+17,25.56256,45.75114,35.11428,-5.999893,-15.69907,27.98586,-57.01511,-0.4675641,7.167611,-72.72624,-8.594284,-36.90935,0,0,0,73.24763,9.78958,-15.21368,-125.8087,-110.0461,-86.69605,0.001067912,-0.1257102,0.09433498,0,0.3,0,0,0,0,
6.38224E+17,26.45784,46.61614,36.39838,-5.047705,-17.45695,28.05911,-57.01511,-0.4675641,7.167611,-72.72624,-8.594284,-36.90935,0,0,0,76.06476,12.92972,-15.50612,-125.8087,-110.0461,-86.69605,0.001067912,-0.1257102,0.09433498,0,0.3,0,0,0,0,
6.38224E+17,28.43687,48.08897,38.80315,-2.484124,-20.53325,27.69288,-57.01511,-0.4675641,7.167611,-72.72624,-8.521038,-36.83611,0,0,0,82.20849,18.66667,-16.54217,-125.8087,-110.0461,-86.69605,0.001067912,-0.1257102,0.09433498,0,0.3,0,0,0,0,
6.38224E+17,30.58083,49.04747,41.25462,0.8119082,-23.46305,26.00825,-57.01511,-0.4675641,7.167611,-72.72624,-8.521038,-36.83611,0,0,0,89.20172,23.81222,-17.40288,-125.8087,-110.0461,-86.69605,0.001067912,-0.1257102,0.09433498,0,0.3,0,0,0,0,
6.38224E+17,32.72478,49.11761,43.28583,4.767147,-26.02663,23.00519,-57.01511,-0.4675641,7.167611,-72.72624,-8.521038,-36.83611,0,0,0,96.61063,27.09877,-18.00658,-125.8087,-110.0461,-86.69605,0.001067912,-0.1257102,0.09433498,0,0.3,0,0,0,0,
6.38224E+17,33.99702,48.76693,44.03294,6.891257,-26.97882,21.10082,-57.01511,-0.4675641,7.167611,-72.72624,-8.521038,-36.90935,0,0,0,100.9724,27.76313,-18.63552,-125.8087,-110.0461,-86.69605,0.001067912,-0.1257102,0.09433498,0,0.3,0,0,0,0,
6.38224E+17,36.4237,47.29411,44.94349,11.65219,-27.93101,17.43856,-57.01511,-0.4675641,7.167611,-72.72624,-8.594284,-36.90935,0,0,0,109.6317,26.95591,-19.77788,-125.8087,-110.0461,-86.69605,0.001067912,-0.1257102,0.09433498,0,0.3,0,0,0,0,
6.38224E+17,38.59122,45.16669,45.27035,16.55962,-27.2718,14.582,-57.01511,-0.4675641,7.167611,-72.72624,-8.594284,-36.83611,0,0,0,117.7375,24.06989,-20.81642,-125.8087,-110.0461,-86.69605,0.001067912,-0.1257102,0.09433498,0,0.3,0,0,0,0,
6.38224E+17,39.34513,44.13805,45.247,18.61049,-26.31961,13.62981,-57.01511,-0.4675641,7.167611,-72.72624,-8.594284,-36.83611,0,0,0,120.711,22.32822,-21.1068,-125.8087,-110.0461,-86.69605,0.001067912,-0.1257102,0.09433498,0,0.3,0,0,0,0,
6.38224E+17,40.59381,41.9405,44.8501,21.97976,-24.342,12.38465,-57.01511,-0.4675641,7.167611,-72.72624,-8.594284,-36.83611,0,0,0,125.7376,17.93654,-21.61738,-125.8087,-110.0461,-86.69605,0.001067912,-0.1257102,0.09433498,0,0.3,0,0,0,0,
6.38224E+17,41.25349,39.0416,43.44926,24.17712,-21.77841,11.94517,-57.01511,-0.4675641,7.167611,-72.72624,-8.594284,-36.83611,0,0,0,128.7646,10.53517,-21.54019,-125.8087,-110.0461,-86.69605,0.001067912,-0.1257102,0.09433498,0,0.3,0,0,0,0,
6.38224E+17,41.27705,35.97906,41.34801,24.54334,-18.55563,12.97061,-57.01511,-0.4675641,7.167611,-72.72624,-8.594284,-36.83611,0,0,0,129.3054,1.584427,-21.04577,-125.8087,-110.0461,-86.69605,0.001067912,-0.1257102,0.09433498,0,0.3,0,0,0,0,
6.38224E+17,41.22993,34.41272,40.1106,24.10387,-16.65125,13.84955,-57.01511,-0.4675641,7.167611,-72.72624,-8.594284,-36.83611,0,0,0,129.1307,-3.273607,-21.0006,-125.8087,-110.0461,-86.69605,0.001067912,-0.1257102,0.09433498,0,0.3,0,0,0,0,
6.38224E+17,41.20637,31.28004,37.82257,22.63897,-12.69601,15.53419,-57.01511,-0.4675641,7.167611,-72.72624,-8.594284,-36.90935,0,0,0,128.9475,-12.7468,-21.08749,-125.8087,-110.0461,-86.69605,0.001067912,-0.1257102,0.09433498,0,0.3,0,0,0,0,
6.38224E+17,41.20637,28.14736,36.23495,21.24731,-8.667529,17.29207,-57.01511,-0.4675641,7.167611,-72.653,-8.594284,-36.83611,0,0,0,129.3847,-21.30345,-20.58817,-125.8087,-110.0461,-86.69605,0.001067912,-0.1257102,0.09433498,0,0.3,0,0,0,0,
6.38224E+17,41.20637,26.46413,35.62793,20.5881,-6.763155,18.17101,-57.01511,-0.4675641,7.167611,-72.72624,-8.594284,-36.83611,0,0,0,129.815,-25.61339,-20.09681,-125.8087,-110.0461,-86.69605,0.001067912,-0.1257102,0.09433498,0,0.3,0,0,0,0,
6.38224E+17,41.22993,23.23793,34.67069,19.48943,-2.954405,19.70916,-57.01511,-0.4675641,7.167611,-72.72624,-8.594284,-36.90935,0,0,0,130.7549,-33.70844,-19.14728,-125.8087,-110.0461,-86.69605,0.001067912,-0.1257102,0.09433498,0,0.3,0,0,0,0,
6.38224E+17,41.46553,20.43255,34.22709,18.53724,-0.09784385,20.51486,-57.01511,-0.4675641,7.167611,-72.653,-8.594284,-36.90935,0,0,0,132.4114,-40.35266,-18.50457,-125.8087,-110.0461,-86.69605,0.001067912,-0.1257102,0.09433498,0,0.3,0,0,0,0,
6.38224E+17,41.74825,19.02986,34.20374,18.09777,1.367059,20.73459,-57.01511,-0.4675641,7.167611,-72.72624,-8.521038,-36.83611,0,0,0,133.8531,-43.45609,-18.37101,-125.8087,-110.0461,-86.69605,0.001067912,-0.1257102,0.09433498,0,0.3,0,0,0,0,
6.38224E+17,42.52573,16.48163,34.53061,17.73154,4.223621,20.95433,-57.01511,-0.4675641,7.167611,-72.72624,-8.594284,-36.90935,0,0,0,137.5227,-48.67441,-18.40551,-125.8087,-110.0461,-86.69605,0.001067912,-0.1257102,0.09433498,0,0.3,0,0,0,0,
6.38224E+17,43.65661,14.7984,35.18433,18.09777,6.494221,20.66135,-57.01511,-0.4675641,7.167611,-72.72624,-8.594284,-36.83611,0,0,0,142.0462,-51.57719,-19.48156,-125.8087,-110.0461,-86.69605,0.001067912,-0.1257102,0.09433498,0,0.3,0,0,0,0,
6.38224E+17,45.11733,13.98017,36.7019,19.41618,7.88588,19.41618,-57.01511,-0.4675641,7.167611,-72.72624,-8.594284,-36.83611,0,0,0,148.1563,-51.34864,-20.7992,-125.8087,-110.0461,-86.69605,0.001067912,-0.1257102,0.09433498,0,0.3,0,0,0,0,
6.38224E+17,45.777,14.00354,37.56575,20.51486,8.178861,18.68373,-57.01511,-0.4675641,7.167611,-72.72624,-8.594284,-36.83611,0,0,0,150.9845,-50.08215,-21.40602,-125.8087,-110.0461,-86.69605,0.001067912,-0.1257102,0.09433498,0,0.3,0,0,0,0,
6.38224E+17,46.76653,14.68151,39.2701,23.37142,8.178861,17.51181,-57.01511,-0.4675641,7.167611,-72.72624,-8.521038,-36.90935,0,0,0,155.4791,-46.08865,-22.17435,-125.8087,-110.0461,-86.69605,0.001067912,-0.1257102,0.09433498,0,0.3,0,0,0,0,
6.38224E+17,47.4262,16.45825,40.41412,26.88719,7.666144,16.63286,-57.01511,-0.4675641,7.167611,-72.72624,-8.594284,-36.83611,0,0,0,157.8399,-40.39956,-23.34194,-125.8087,-110.0461,-86.69605,0.001067912,-0.1257102,0.09433498,0,0.3,0,0,0,0,
6.38224E+17,47.63824,17.74406,40.71763,28.79156,7.299919,16.26664,-57.01511,-0.4675641,7.167611,-72.72624,-8.594284,-36.90935,0,0,0,158.1217,-37.07997,-24.15842,-125.8087,-110.0461,-86.69605,0.001067912,-0.1257102,0.09433498,0,0.3,0,0,0,0,
6.38224E+17,47.73248,20.87674,40.90441,32.23409,5.981505,15.97366,-57.01511,-0.4675641,7.167611,-72.72624,-8.594284,-36.90935,0,0,0,156.8182,-29.91592,-25.81883,-125.8087,-110.0461,-86.69605,0.001067912,-0.1257102,0.09433498,0,0.3,0,0,0,0,
6.38224E+17,47.63824,24.28995,40.90441,35.53012,4.296866,16.12015,-57.01511,-0.4675641,7.167611,-72.72624,-8.594284,-36.90935,0,0,0,154.3297,-22.58221,-27.61636,-125.8087,-110.0461,-86.69605,0.001067912,-0.1257102,0.09433498,0,0.3,0,0,0,0,
6.38224E+17,47.16704,27.42263,40.88106,38.24019,1.953021,16.19339,-57.01511,-0.4675641,7.167611,-72.72624,-8.594284,-36.90935,0,0,0,150.8055,-16.05751,-28.54136,-125.8087,-110.0461,-86.69605,0.001067912,-0.1257102,0.09433498,0,0.3,0,0,0,0,
6.38224E+17,46.88432,28.75519,40.78767,39.41211,0.707853,16.26664,-57.01511,-0.4675641,7.167611,-72.653,-8.594284,-36.83611,0,0,0,148.9278,-13.46359,-28.90936,-125.8087,-110.0461,-86.69605,0.001067912,-0.1257102,0.09433498,0,0.3,0,0,0,0,
6.38224E+17,46.27176,31.02288,40.48416,41.02351,-1.928973,16.33988,-57.01511,-0.4675641,7.167611,-72.72624,-8.594284,-36.83611,0,0,0,145.1408,-9.348119,-29.51356,-125.8087,-110.0461,-86.69605,0.001067912,-0.1257102,0.09433498,0,0.3,0,0,0,0,
6.38224E+17,45.63565,33.08016,40.04056,41.8292,-4.126328,16.63286,-57.01511,-0.4675641,7.167611,-72.72624,-8.521038,-36.83611,0,0,0,141.2108,-5.957316,-30.2382,-125.8087,-110.0461,-86.69605,0.001067912,-0.1257102,0.09433498,0,0.3,0,0,0,0,
6.38224E+17,45.32936,34.1088,39.87713,42.04893,-5.15176,17.07234,-57.01511,-0.4675641,7.167611,-72.72624,-8.594284,-36.83611,0,0,0,139.3211,-4.207443,-30.62156,-125.8087,-110.0461,-86.69605,0.001067912,-0.1257102,0.09433498,0,0.3,0,0,0,0,
6.38224E+17,44.59901,36.23622,39.667,42.19543,-7.568851,18.02452,-57.01511,-0.4675641,7.167611,-72.72624,-8.594284,-36.83611,0,0,0,135.2877,-0.4732015,-31.15523,-125.8087,-110.0461,-86.69605,0.001067912,-0.1257102,0.09433498,0,0.3,0,0,0,0,
6.38224E+17,43.65661,38.12985,39.22341,42.19543,-9.473226,19.34294,-57.01511,-0.4675641,7.167611,-72.72624,-8.594284,-36.83611,0,0,0,130.6239,2.381983,-31.45248,-125.8087,-110.0461,-86.69605,0.001067912,-0.1257102,0.09433498,0,0.3,0,0,0,0,
6.38224E+17,42.64353,39.90659,38.59303,41.8292,-11.3776,20.88108,-57.01511,-0.4675641,7.167611,-72.72624,-8.594284,-36.90935,0,0,0,125.6461,4.673204,-31.91907,-125.8087,-110.0461,-86.69605,0.001067912,-0.1257102,0.09433498,0,0.3,0,0,0,0,
6.38224E+17,42.07809,40.77158,38.10274,41.46298,-12.62277,21.68678,-57.01511,-0.4675641,7.167611,-72.72624,-8.594284,-36.90935,0,0,0,122.8206,5.499713,-32.31723,-125.8087,-110.0461,-86.69605,0.001067912,-0.1257102,0.09433498,0,0.3,0,0,0,0,
6.38224E+17,40.80585,42.05739,36.81864,40.58403,-14.23416,23.29818,-57.01511,-0.4675641,7.167611,-72.653,-8.594284,-36.83611,0,0,0,116.9261,5.92624,-32.91776,-125.8087,-110.0461,-86.69605,0.001067912,-0.1257102,0.09433498,0,0.3,0,0,0,0,
6.38224E+17,39.22733,42.94576,35.13763,39.04589,-15.55258,25.78851,-57.01511,-0.4675641,7.167611,-72.653,-8.594284,-36.83611,0,0,0,110.2655,5.152238,-33.28275,-125.8087,-110.0461,-86.69605,0.001067912,-0.1257102,0.09433498,0,0.3,0,0,0,0,
6.38224E+17,38.35562,43.2263,34.20374,38.0937,-16.21178,27.25341,-57.01511,-0.4675641,7.167611,-72.72624,-8.594284,-36.90935,0,0,0,106.8118,4.392667,-33.37235,-125.8087,-110.0461,-86.69605,0.001067912,-0.1257102,0.09433498,0,0.3,0,0,0,0,
6.38224E+17,36.32946,43.53021,32.19588,35.89634,-17.31046,30.40295,-57.01511,-0.4675641,7.167611,-72.72624,-8.594284,-36.83611,0,0,0,99.36857,2.348109,-33.22176,-125.8087,-110.0461,-86.69605,0.001067912,-0.1257102,0.09433498,0,0.3,0,0,0,0,
6.38224E+17,33.9499,43.55359,30.21136,33.11303,-17.96966,33.5525,-57.01511,-0.4675641,7.167611,-72.72624,-8.594284,-36.90935,0,0,0,91.44538,-0.005222065,-32.52062,-125.8087,-110.0461,-86.69605,0.001067912,-0.1257102,0.09433498,0,0.3,0,0,0,0,
6.38224E+17,32.63055,43.50684,29.23078,31.2819,-18.11616,35.23714,-57.01511,-0.4675641,7.167611,-72.653,-8.521038,-36.83611,0,0,0,87.26536,-1.215574,-32.05711,-125.8087,-110.0461,-86.69605,0.001067912,-0.1257102,0.09433498,0,0.3,0,0,0,0,
6.38224E+17,29.73267,42.99252,27.15287,27.32666,-18.1894,38.31343,-57.01511,-0.4675641,7.167611,-72.72624,-8.594284,-36.90935,0,0,0,78.55628,-4.372032,-30.80847,-125.8087,-110.0461,-86.69605,0.001067912,-0.1257102,0.09433498,0,0.3,0,0,0,0,
6.38224E+17,26.717,41.73009,24.95823,22.8587,-17.5302,41.46298,-57.01511,-0.4675641,7.167611,-72.72624,-8.594284,-36.83611,0,0,0,70.03872,-8.786451,-29.19636,-125.8087,-110.0461,-86.69605,0.001067912,-0.1257102,0.09433498,0,0.3,0,0,0,0,
6.38224E+17,24.1254,40.02348,23.09044,18.3175,-16.43152,44.31954,-57.01511,-0.4675641,7.167611,-72.72624,-8.594284,-36.90935,0,0,0,63.11466,-13.55933,-27.42305,-125.8087,-110.0461,-86.69605,0.001067912,-0.1257102,0.09433498,0,0.3,0,0,0,0,
6.38224E+17,22.92384,39.18187,22.24994,16.12015,-15.77231,45.49146,-57.01511,-0.4675641,7.167611,-72.72624,-8.594284,-36.83611,0,0,0,59.92888,-15.82247,-26.64301,-125.8087,-110.0461,-86.69605,0.001067912,-0.1257102,0.09433498,0,0.3,0,0,0,0,
6.38224E+17,20.45005,37.56877,20.75572,11.94517,-13.94118,47.54232,-57.01511,-0.4675641,7.167611,-72.72624,-8.594284,-36.90935,0,0,0,53.44045,-20.0403,-25.03624,-125.8087,-110.0461,-86.69605,0.001067912,-0.1257102,0.09433498,0,0.3,0,0,0,0,
6.38224E+17,18.14117,36.16608,19.6117,7.989935,-12.62277,48.71425,-57.01511,-0.4675641,7.167611,-72.72624,-8.594284,-36.83611,0,0,0,47.45518,-23.57067,-23.51321,-125.8087,-110.0461,-86.69605,0.001067912,-0.1257102,0.09433498,0,0.3,0,0,0,0,
6.38224E+17,16.93961,35.58163,19.1681,5.719335,-11.89032,49.08047,-57.01511,-0.4675641,7.167611,-72.72624,-8.594284,-36.90935,0,0,0,44.35607,-25.01566,-22.71903,-125.8087,-110.0461,-86.69605,0.001067912,-0.1257102,0.09433498,0,0.3,0,0,0,0,
6.38224E+17,14.70142,35.02055,18.65447,1.69085,-9.839451,49.51994,-57.01511,-0.4675641,7.167611,-72.72624,-8.594284,-36.83611,0,0,0,38.53927,-26.46884,-21.46183,-125.8087,-110.0461,-86.69605,0.001067912,-0.1257102,0.09433498,0,0.3,0,0,0,0,
6.38224E+17,12.46322,34.95041,18.56108,-2.264389,-8.301303,49.95942,-57.01511,-0.4675641,7.167611,-72.653,-8.594284,-36.83611,0,0,0,32.74905,-26.67193,-20.17853,-125.8087,-110.0461,-86.69605,0.001067912,-0.1257102,0.09433498,0,0.3,0,0,0,0,
6.38224E+17,11.56794,34.99717,18.56108,-4.095518,-7.788587,50.2524,-57.01511,-0.4675641,7.167611,-72.72624,-8.521038,-36.83611,0,0,0,30.41737,-26.58276,-19.74603,-125.8087,-110.0461,-86.69605,0.001067912,-0.1257102,0.09433498,0,0.3,0,0,0,0,
6.38224E+17,10.10722,35.41798,18.60777,-6.952079,-6.98289,51.20458,-57.01511,-0.4675641,7.167611,-72.653,-8.521038,-36.83611,0,0,0,26.53832,-25.7479,-19.47341,-125.8087,-110.0461,-86.69605,0.001067912,-0.1257102,0.09433498,0,0.3,0,0,0,0,
6.38224E+17,8.599386,36.30635,18.79455,-9.36917,-6.103948,52.30326,-57.01511,-0.4675641,7.167611,-72.72624,-8.594284,-36.83611,0,0,0,22.4921,-23.9329,-19.61716,-125.8087,-110.0461,-86.69605,0.001067912,-0.1257102,0.09433498,0,0.3,0,0,0,0,
6.38224E+17,7.280028,37.4285,19.07472,-11.2003,-5.517986,53.32869,-57.01511,-0.4675641,7.167611,-72.653,-8.594284,-36.83611,0,0,0,18.94114,-21.63192,-20.08118,-125.8087,-110.0461,-86.69605,0.001067912,-0.1257102,0.09433498,0,0.3,0,0,0,0,
6.38224E+17,6.691029,38.03634,19.30819,-12.07924,-5.444741,53.76817,-57.01511,-0.4675641,7.167611,-72.653,-8.594284,-36.90935,0,0,0,17.37489,-20.33447,-20.24445,-125.8087,-110.0461,-86.69605,0.001067912,-0.1257102,0.09433498,0,0.3,0,0,0,0,
6.38224E+17,5.465911,39.41565,19.86852,-13.83713,-5.957458,54.57386,-57.01511,-0.4675641,7.167611,-72.72624,-8.594284,-36.83611,0,0,0,14.13006,-17.39288,-20.68288,-125.8087,-110.0461,-86.69605,0.001067912,-0.1257102,0.09433498,0,0.3,0,0,0,0,
6.38224E+17,4.405713,40.74821,20.63898,-15.7415,-6.616664,55.08658,-57.01511,-0.4675641,7.167611,-72.653,-8.594284,-36.83611,0,0,0,11.3712,-14.39923,-20.76039,-125.8087,-110.0461,-86.69605,0.001067912,-0.1257102,0.09433498,0,0.3,0,0,0,0,
6.38224E+17,3.910954,41.42618,21.10593,-16.91342,-6.909645,55.37956,-57.01511,-0.4675641,7.167611,-72.653,-8.521038,-36.83611,0,0,0,10.09486,-12.82276,-20.68921,-125.8087,-110.0461,-86.69605,0.001067912,-0.1257102,0.09433498,0,0.3,0,0,0,0,
6.38224E+17,2.850755,42.82887,22.2266,-19.03753,-7.935077,55.74578,-57.01511,-0.4675641,7.167611,-72.72624,-8.594284,-36.83611,0,0,0,7.372628,-9.438656,-20.29386,-125.8087,-110.0461,-86.69605,0.001067912,-0.1257102,0.09433498,0,0.3,0,0,0,0,
6.38224E+17,1.743437,44.11467,23.39396,-21.16164,-9.180244,56.11201,-57.01511,-0.4675641,7.167611,-72.72624,-8.594284,-36.83611,0,0,0,4.5236,-6.213675,-19.73368,-125.8087,-110.0461,-86.69605,0.001067912,-0.1257102,0.09433498,0,0.3,0,0,0,0,
6.38224E+17,0.6596789,45.70439,25.05162,-23.43224,-10.13243,56.62473,-57.01511,-0.4675641,7.167611,-72.653,-8.594284,-36.83611,0,0,0,1.722292,-2.010568,-18.76855,-125.8087,-110.0461,-86.69605,0.001067912,-0.1257102,0.09433498,0,0.3,0,0,0,0,
6.38224E+17,0.2827196,46.56938,26.0322,-24.38443,-10.79164,56.77122,-57.01511,-0.4675641,7.167611,-72.72624,-8.594284,-36.83611,0,0,0,0.7411371,0.3684409,-18.1528,-125.8087,-110.0461,-86.69605,0.001067912,-0.1257102,0.09433498,0,0.3,0,0,0,0,
6.38224E+17,-0.3298394,48.32275,28.01672,-26.21556,-12.54952,57.65016,-57.01511,-0.4675641,7.167611,-72.653,-8.594284,-36.83611,0,0,0,-0.8710389,5.226621,-17.04519,-125.8087,-110.0461,-86.69605,0.001067912,-0.1257102,0.09433498,0,0.3,0,0,0,0,
6.38224E+17,-0.5654391,50.30989,30.3281,-27.82695,-14.38065,58.30937,-57.01511,-0.4675641,7.167611,-72.653,-8.594284,-36.90935,0,0,0,-1.504936,10.86335,-15.86024,-125.8087,-110.0461,-86.69605,0.001067912,-0.1257102,0.09433498,0,0.3,0,0,0,0,
6.38224E+17,-0.5654391,51.31516,31.44877,-28.48616,-15.47933,58.60235,-57.01511,-0.4675641,7.167611,-72.653,-8.594284,-36.83611,0,0,0,-1.509129,13.68062,-15.43538,-125.8087,-110.0461,-86.69605,0.001067912,-0.1257102,0.09433498,0,0.3,0,0,0,0,
6.38224E+17,-0.4711992,53.18541,33.57337,-29.87782,-17.89642,58.96857,-57.01511,-0.4675641,7.167611,-72.653,-8.594284,-36.90935,0,0,0,-1.263601,19.00285,-14.70509,-125.8087,-110.0461,-86.69605,0.001067912,-0.1257102,0.09433498,0,0.3,0,0,0,0,
6.38224E+17,-0.04711992,55.07904,35.88475,-31.34272,-20.16702,59.11506,-57.01511,-0.4675641,7.167611,-72.72624,-8.594284,-36.83611,0,0,0,-0.1270601,24.64948,-13.85041,-125.8087,-110.0461,-86.69605,0.001067912,-0.1257102,0.09433498,0,0.3,0,0,0,0,
6.38224E+17,0.2827196,55.94404,36.93538,-31.85544,-21.19245,59.18831,-57.01511,-0.4675641,7.167611,-72.72624,-8.594284,-36.83611,0,0,0,0.7638803,27.24078,-13.54371,-125.8087,-110.0461,-86.69605,0.001067912,-0.1257102,0.09433498,0,0.3,0,0,0,0,
6.38224E+17,1.060198,57.58052,38.94324,-32.51464,-23.75603,59.3348,-57.01511,-0.4675641,7.167611,-72.72624,-8.521038,-36.83611,0,0,0,2.873647,32.20132,-13.06863,-125.8087,-110.0461,-86.69605,0.001067912,-0.1257102,0.09433498,0,0.3,0,0,0,0,
6.38224E+17,1.979037,59.21699,40.9978,-32.66114,-26.31961,59.48129,-57.01511,-0.4675641,7.167611,-72.653,-8.594284,-36.83611,0,0,0,5.377905,37.26866,-12.71433,-125.8087,-110.0461,-86.69605,0.001067912,-0.1257102,0.09433498,0,0.3,0,0,0,0,
6.38224E+17,3.157035,60.57293,42.86558,-32.29491,-29.17617,59.55453,-57.01511,-0.4675641,7.167611,-72.653,-8.594284,-36.83611,0,0,0,8.604148,41.7563,-12.35477,-125.8087,-110.0461,-86.69605,0.001067912,-0.1257102,0.09433498,0,0.3,0,0,0,0,
6.38224E+17,3.934513,61.27427,43.89286,-31.78219,-30.42134,59.55453,-57.01511,-0.4675641,7.167611,-72.72624,-8.594284,-36.90935,0,0,0,10.74143,44.19166,-12.17547,-125.8087,-110.0461,-86.69605,0.001067912,-0.1257102,0.09433498,0,0.3,0,0,0,0,
6.38224E+17,5.72507,62.48994,45.83068,-30.31729,-33.05817,59.62778,-57.01511,-0.4675641,7.167611,-72.653,-8.594284,-36.83611,0,0,0,15.68597,48.70632,-11.88958,-125.8087,-110.0461,-86.69605,0.001067912,-0.1257102,0.09433498,0,0.3,0,0,0,0,
6.38224E+17,7.845467,63.37831,47.51169,-27.82695,-35.91473,59.70102,-57.01511,-0.4675641,7.167611,-72.653,-8.594284,-36.83611,0,0,0,21.5793,52.49295,-11.74162,-125.8087,-110.0461,-86.69605,0.001067912,-0.1257102,0.09433498,0,0.3,0,0,0,0,
6.38224E+17,8.976345,63.68222,48.28215,-26.14231,-37.37963,59.62778,-57.01511,-0.4675641,7.167611,-72.72624,-8.594284,-36.83611,0,0,0,24.75475,54.13864,-11.63592,-125.8087,-110.0461,-86.69605,0.001067912,-0.1257102,0.09433498,0,0.3,0,0,0,0,
6.38224E+17,11.28522,64.00952,49.79972,-21.52787,-40.01646,59.3348,-57.01511,-0.4675641,7.167611,-72.72624,-8.594284,-36.83611,0,0,0,31.3674,57.14161,-11.1605,-125.8087,-110.0461,-86.69605,0.001067912,-0.1257102,0.09433498,0,0.3,0,0,0,0,
6.38224E+17,13.7119,64.00952,51.17721,-15.59501,-42.50679,57.50367,-57.01511,-0.4675641,7.167611,-72.72624,-8.594284,-36.90935,0,0,0,38.47829,59.61494,-10.64803,-125.8087,-110.0461,-86.69605,0.001067912,-0.1257102,0.09433498,0,0.3,0,0,0,0,
6.38224E+17,16.02077,63.79912,52.39126,-8.416983,-44.26468,53.91465,-57.01511,-0.4675641,7.167611,-72.72624,-8.594284,-36.83611,0,0,0,45.40411,61.61953,-10.22346,-125.8087,-110.0461,-86.69605,0.001067912,-0.1257102,0.09433498,0,0.3,0,0,0,0,
6.38224E+17,17.24589,63.51858,53.02164,-4.022273,-45.07038,51.57081,-57.01511,-0.4675641,7.167611,-72.72624,-8.594284,-36.83611,0,0,0,49.21161,62.49698,-9.822588,-125.8087,-110.0461,-86.69605,0.001067912,-0.1257102,0.09433498,0,0.3,0,0,0,0,
6.38224E+17,19.46053,62.70034,54.14231,4.693902,-45.94932,46.44365,-57.01511,-0.4675641,7.167611,-72.653,-8.521038,-36.83611,0,0,0,56.38255,63.7345,-8.781323,-125.8087,-110.0461,-86.69605,0.001067912,-0.1257102,0.09433498,0,0.3,0,0,0,0,
6.38224E+17,21.48668,61.57819,55.30967,13.48332,-46.38879,41.24324,-57.01511,-0.4675641,7.167611,-72.72624,-8.594284,-36.90935,0,0,0,63.40937,64.73206,-7.26615,-125.8087,-110.0461,-86.69605,0.001067912,-0.1257102,0.09433498,0,0.3,0,0,0,0,
6.38224E+17,22.40552,60.90022,55.79996,17.73154,-46.46204,38.89939,-57.01511,-0.4675641,7.167611,-72.72624,-8.594284,-36.83611,0,0,0,66.75761,64.91389,-6.428182,-125.8087,-110.0461,-86.69605,0.001067912,-0.1257102,0.09433498,0,0.3,0,0,0,0,
6.38224E+17,24.26676,59.19361,56.71051,26.66745,-45.87607,34.3582,-57.01511,-0.4675641,7.167611,-72.72624,-8.594284,-36.83611,0,0,0,73.87959,64.69294,-4.471411,-125.8087,-110.0461,-86.69605,0.001067912,-0.1257102,0.09433498,0,0.3,0,0,0,0,
