zeyangz2/DNN_classification_different_people_hand/data/zeyang_right_26.csv
Timestamp,Therapist joint angle 0,Therapist joint angle 1,Therapist joint angle 2,Therapist joint angle 3,Therapist joint angle 4,Therapist joint angle 5,Patient joint angle 0,Patient joint angle 1,Patient joint angle 2,Patient joint angle 3,Patient joint angle 4,Patient joint angle 5,Virtual joint angle 0,Virtual joint angle 1,Virtual joint angle 2,Therapist position x,Therapist position y,Therapist position z,Patient position x,Patient position y,Patient position z,Virtual position x,Virtual position y,Virtual position z,Assistive Force, Obstacle Force Magnitude, Therapist Constant Force, Patient Constant Force, Recovery Factor, Assistance Level,label
6.38224E+17,0,0,0,0,0,0,0,0,0,0,0,0,0,0,0,0,0,0,0,0,0,0,0,0,0,0.3,0,0,0,0,0
6.38224E+17,-3.251275,-1.005263,-3.992383,-41.37731,-62.9422,-43.13519,-56.96799,-0.4675641,6.91079,-72.21353,-8.521038,-36.83611,0,0,0,-7.03522,-112.0159,-44.50452,-125.2441,-110.1194,-86.91598,0.001067912,-0.1257102,0.09433498,0,0.3,0,0,6.07E-08,0,
6.38224E+17,-3.251275,-1.005263,-3.992383,-41.30406,-62.9422,-43.13519,-56.96799,-0.4675641,6.91079,-72.14028,-8.594284,-36.83611,0,0,0,-7.03522,-112.0159,-44.50452,-125.2441,-110.1194,-86.91598,0.001067912,-0.1257102,0.09433498,0,0.3,0,0,6.07E-08,0,
6.38224E+17,-3.251275,-1.005263,-3.992383,-41.30406,-62.9422,-43.13519,-56.96799,-0.4675641,6.91079,-72.14028,-8.594284,-36.83611,0,0,0,-7.03522,-112.0159,-44.50452,-125.2441,-110.1194,-86.91598,0.001067912,-0.1257102,0.09433498,0,0.3,0,0,6.07E-08,0,
6.38224E+17,-3.251275,-1.005263,-3.992383,-41.30406,-62.9422,-43.13519,-56.96799,-0.4675641,6.91079,-72.21353,-8.594284,-36.83611,0,0,0,-7.03522,-112.0159,-44.50452,-125.2441,-110.1194,-86.91598,0.001067912,-0.1257102,0.09433498,0,0.3,0,0,6.07E-08,0,
6.38224E+17,-3.251275,-1.005263,-3.992383,-41.30406,-63.01544,-43.13519,-56.96799,-0.4675641,6.91079,-72.21353,-8.594284,-36.83611,0,0,0,-7.03522,-112.0159,-44.50452,-125.2441,-110.1194,-86.91598,0.001067912,-0.1257102,0.09433498,0,0.3,0,0,0,0,
6.38224E+17,-3.251275,-1.005263,-3.992383,-41.30406,-63.01544,-43.13519,-56.96799,-0.4675641,6.91079,-72.14028,-8.594284,-36.83611,0,0,0,-7.03522,-112.0159,-44.50452,-125.2441,-110.1194,-86.91598,0.001067912,-0.1257102,0.09433498,0,0.3,0,0,0,0,
6.38224E+17,-3.251275,-1.005263,-3.992383,-41.30406,-63.01544,-43.13519,-56.96799,-0.4675641,6.91079,-72.21353,-8.594284,-36.90935,0,0,0,-7.03522,-112.0159,-44.50452,-125.2441,-110.1194,-86.91598,0.001067912,-0.1257102,0.09433498,0,0.3,0,0,0,0,
6.38224E+17,-3.251275,-1.005263,-3.992383,-41.30406,-63.01544,-43.13519,-56.96799,-0.4675641,6.91079,-72.21353,-8.521038,-36.83611,0,0,0,-7.03522,-112.0159,-44.50452,-125.2441,-110.1194,-86.91598,0.001067912,-0.1257102,0.09433498,0,0.3,0,0,0,0,
6.38224E+17,-3.251275,-1.005263,-3.992383,-41.30406,-63.01544,-43.13519,-56.96799,-0.4675641,6.91079,-72.14028,-8.594284,-36.90935,0,0,0,-7.03522,-112.0159,-44.50452,-125.2441,-110.1194,-86.91598,0.001067912,-0.1257102,0.09433498,0,0.3,0,0,0,0,
6.38224E+17,-3.251275,-1.005263,-3.992383,-41.30406,-63.01544,-43.06195,-56.96799,-0.4675641,6.91079,-72.21353,-8.594284,-36.83611,0,0,0,-7.03522,-112.0159,-44.50452,-125.2441,-110.1194,-86.91598,0.001067912,-0.1257102,0.09433498,0,0.3,0,0,0,0,
6.38224E+17,-3.251275,-1.005263,-3.992383,-41.30406,-63.01544,-43.13519,-56.96799,-0.4675641,6.91079,-72.21353,-8.594284,-36.90935,0,0,0,-7.03522,-112.0159,-44.50452,-125.2441,-110.1194,-86.91598,0.001067912,-0.1257102,0.09433498,0,0.3,0,0,0,0,
6.38224E+17,-3.251275,-1.005263,-3.992383,-41.30406,-63.01544,-43.13519,-56.96799,-0.4675641,6.91079,-72.21353,-8.594284,-36.83611,0,0,0,-7.03522,-112.0159,-44.50452,-125.2441,-110.1194,-86.91598,0.001067912,-0.1257102,0.09433498,0,0.3,0,0,0,0,
6.38224E+17,-3.251275,-1.005263,-3.992383,-41.30406,-63.01544,-43.13519,-56.96799,-0.4675641,6.91079,-72.21353,-8.594284,-36.83611,0,0,0,-7.03522,-112.0159,-44.50452,-125.2441,-110.1194,-86.91598,0.001067912,-0.1257102,0.09433498,0,0.3,0,0,0,0,
6.38224E+17,-3.251275,-1.005263,-3.992383,-41.30406,-63.01544,-43.13519,-56.96799,-0.4675641,6.91079,-72.21353,-8.594284,-36.83611,0,0,0,-7.03522,-112.0159,-44.50452,-125.2441,-110.1194,-86.91598,0.001067912,-0.1257102,0.09433498,0,0.3,0,0,0,0,
6.38224E+17,-3.251275,-1.005263,-3.992383,-41.30406,-62.9422,-43.13519,-56.96799,-0.4675641,6.91079,-72.21353,-8.594284,-36.83611,0,0,0,-7.03522,-112.0159,-44.50452,-125.2441,-110.1194,-86.91598,0.001067912,-0.1257102,0.09433498,0,0.3,0,0,0,0,
6.38224E+17,-3.251275,-1.005263,-3.992383,-41.30406,-63.01544,-43.13519,-56.96799,-0.4675641,6.91079,-72.21353,-8.594284,-36.83611,0,0,0,-7.03522,-112.0159,-44.50452,-125.2441,-110.1194,-86.91598,0.001067912,-0.1257102,0.09433498,0,0.3,0,0,0,0,
6.38224E+17,-3.251275,-1.005263,-3.992383,-41.30406,-62.9422,-43.13519,-56.96799,-0.4675641,6.91079,-72.21353,-8.594284,-36.83611,0,0,0,-7.03522,-112.0159,-44.50452,-125.2441,-110.1194,-86.91598,0.001067912,-0.1257102,0.09433498,0,0.3,0,0,0,0,
6.38224E+17,-3.251275,-1.005263,-3.992383,-41.30406,-63.01544,-43.13519,-56.96799,-0.4675641,6.91079,-72.21353,-8.594284,-36.90935,0,0,0,-7.03522,-112.0159,-44.50452,-125.2441,-110.1194,-86.91598,0.001067912,-0.1257102,0.09433498,0,0.3,0,0,0,0,
6.38224E+17,-3.251275,-1.005263,-3.992383,-41.30406,-62.9422,-43.13519,-56.96799,-0.4675641,6.91079,-72.14028,-8.521038,-36.83611,0,0,0,-7.03522,-112.0159,-44.50452,-125.2441,-110.1194,-86.91598,0.001067912,-0.1257102,0.09433498,0,0.3,0,0,0,0,
6.38224E+17,-3.251275,-1.005263,-3.992383,-41.37731,-63.01544,-43.13519,-56.96799,-0.4675641,6.91079,-72.21353,-8.594284,-36.83611,0,0,0,-7.03522,-112.0159,-44.50452,-125.2441,-110.1194,-86.91598,0.001067912,-0.1257102,0.09433498,0,0.3,0,0,0,0,
6.38224E+17,-3.251275,-1.005263,-3.992383,-41.30406,-62.9422,-43.13519,-56.96799,-0.4675641,6.91079,-72.21353,-8.594284,-36.83611,0,0,0,-7.03522,-112.0159,-44.50452,-125.2441,-110.1194,-86.91598,0.001067912,-0.1257102,0.09433498,0,0.3,0,0,0,0,
6.38224E+17,-3.251275,-1.005263,-3.992383,-41.30406,-63.01544,-43.13519,-56.96799,-0.4675641,6.91079,-72.21353,-8.594284,-36.83611,0,0,0,-7.03522,-112.0159,-44.50452,-125.2441,-110.1194,-86.91598,0.001067912,-0.1257102,0.09433498,0,0.3,0,0,0,0,
6.38224E+17,-3.251275,-1.005263,-3.992383,-41.30406,-63.01544,-43.13519,-56.96799,-0.4675641,6.91079,-72.21353,-8.594284,-36.83611,0,0,0,-7.03522,-112.0159,-44.50452,-125.2441,-110.1194,-86.91598,0.001067912,-0.1257102,0.09433498,0,0.3,0,0,0,0,
6.38224E+17,-3.251275,-1.005263,-3.992383,-41.30406,-63.01544,-43.13519,-56.96799,-0.4675641,6.91079,-72.21353,-8.594284,-36.83611,0,0,0,-7.03522,-112.0159,-44.50452,-125.2441,-110.1194,-86.91598,0.001067912,-0.1257102,0.09433498,0,0.3,0,0,1.21E-07,0,
6.38224E+17,-3.251275,-1.005263,-3.992383,-41.30406,-63.01544,-43.13519,-56.96799,-0.4675641,6.91079,-72.21353,-8.594284,-36.83611,0,0,0,-7.03522,-112.0159,-44.50452,-125.2441,-110.1194,-86.91598,0.001067912,-0.1257102,0.09433498,0,0.3,0,0,1.82E-07,0,
6.38224E+17,-3.251275,-1.005263,-3.992383,-41.30406,-63.01544,-43.13519,-56.96799,-0.4675641,6.91079,-72.21353,-8.594284,-36.90935,0,0,0,-7.03522,-112.0159,-44.50452,-125.2441,-110.1194,-86.91598,0.001067912,-0.1257102,0.09433498,0,0.3,0,0,2.43E-07,0,
6.38224E+17,-3.251275,-1.005263,-3.992383,-41.30406,-63.01544,-43.13519,-56.96799,-0.4675641,6.91079,-72.21353,-8.594284,-36.83611,0,0,0,-7.03522,-112.0159,-44.50452,-125.2441,-110.1194,-86.91598,0.001067912,-0.1257102,0.09433498,0,0.3,0,0,2.43E-07,0,
6.38224E+17,-3.251275,-1.005263,-3.992383,-41.30406,-62.9422,-43.06195,-56.96799,-0.4675641,6.91079,-72.21353,-8.594284,-36.90935,0,0,0,-7.03522,-112.0159,-44.50452,-125.2441,-110.1194,-86.91598,0.001067912,-0.1257102,0.09433498,0,0.3,0,0,3.04E-07,0,
6.38224E+17,-3.251275,-1.005263,-3.992383,-41.30406,-62.9422,-43.13519,-56.96799,-0.4675641,6.91079,-72.21353,-8.667529,-36.83611,0,0,0,-7.03522,-112.0159,-44.50452,-125.2441,-110.1194,-86.91598,0.001067912,-0.1257102,0.09433498,0,0.3,0,0,3.64E-07,0,
6.38224E+17,-3.251275,-1.005263,-3.992383,-41.30406,-63.01544,-43.13519,-56.96799,-0.4675641,6.91079,-72.21353,-8.594284,-36.83611,0,0,0,-7.03522,-112.0159,-44.50452,-125.2441,-110.1194,-86.91598,0.001067912,-0.1257102,0.09433498,0,0.3,0,0,3.64E-07,0,
6.38224E+17,-3.251275,-1.005263,-3.992383,-41.37731,-62.9422,-43.13519,-56.96799,-0.4675641,6.91079,-72.21353,-8.667529,-36.83611,0,0,0,-7.03522,-112.0159,-44.50452,-125.2441,-110.1194,-86.91598,0.001067912,-0.1257102,0.09433498,0,0.3,0,0,4.25E-07,0,
6.38224E+17,-3.251275,-1.005263,-3.992383,-41.30406,-62.9422,-43.13519,-56.96799,-0.4675641,6.91079,-72.21353,-8.594284,-36.83611,0,0,0,-7.03522,-112.0159,-44.50452,-125.2441,-110.1194,-86.91598,0.001067912,-0.1257102,0.09433498,0,0.3,0,0,4.86E-07,0,
6.38224E+17,-3.251275,-1.005263,-3.992383,-41.30406,-63.01544,-43.13519,-56.96799,-0.4675641,6.91079,-72.21353,-8.594284,-36.83611,0,0,0,-7.03522,-112.0159,-44.50452,-125.2441,-110.1194,-86.91598,0.001067912,-0.1257102,0.09433498,0,0.3,0,0,4.86E-07,0,
6.38224E+17,-3.251275,-1.005263,-3.992383,-41.30406,-63.01544,-43.13519,-56.96799,-0.4675641,6.91079,-72.14028,-8.521038,-36.83611,0,0,0,-7.03522,-112.0159,-44.50452,-125.2441,-110.1194,-86.91598,0.001067912,-0.1257102,0.09433498,0,0.3,0,0,4.86E-07,0,
6.38224E+17,-3.251275,-1.005263,-3.992383,-41.37731,-63.01544,-43.13519,-56.96799,-0.4675641,6.91079,-72.21353,-8.594284,-36.83611,0,0,0,-7.03522,-112.0159,-44.50452,-125.2441,-110.1194,-86.91598,0.001067912,-0.1257102,0.09433498,0,0.3,0,0,5.47E-07,0,
6.38224E+17,-3.251275,-1.005263,-3.992383,-41.30406,-62.9422,-43.13519,-56.96799,-0.4675641,6.91079,-72.21353,-8.594284,-36.83611,0,0,0,-7.03522,-112.0159,-44.50452,-125.2441,-110.1194,-86.91598,0.001067912,-0.1257102,0.09433498,0,0.3,0,0,6.07E-07,0,
6.38224E+17,-3.251275,-1.005263,-3.992383,-41.37731,-63.01544,-43.13519,-56.96799,-0.4675641,6.91079,-72.21353,-8.594284,-36.90935,0,0,0,-7.03522,-112.0159,-44.50452,-125.2441,-110.1194,-86.91598,0.001067912,-0.1257102,0.09433498,0,0.3,0,0,6.07E-07,0,
6.38224E+17,-3.251275,-1.005263,-3.992383,-41.30406,-62.9422,-43.13519,-56.96799,-0.4675641,6.91079,-72.14028,-8.594284,-36.83611,0,0,0,-7.03522,-112.0159,-44.50452,-125.2441,-110.1194,-86.91598,0.001067912,-0.1257102,0.09433498,0,0.3,0,0,6.07E-07,0,
6.38224E+17,-3.251275,-1.005263,-3.992383,-41.30406,-63.01544,-43.13519,-56.96799,-0.4675641,6.91079,-72.14028,-8.594284,-36.83611,0,0,0,-7.03522,-112.0159,-44.50452,-125.2441,-110.1194,-86.91598,0.001067912,-0.1257102,0.09433498,0,0.3,0,0,5.47E-07,0,
6.38224E+17,-3.251275,-1.005263,-3.992383,-41.30406,-62.9422,-43.13519,-56.96799,-0.4675641,6.91079,-72.21353,-8.594284,-36.83611,0,0,0,-7.03522,-112.0159,-44.50452,-125.2441,-110.1194,-86.91598,0.001067912,-0.1257102,0.09433498,0,0.3,0,0,4.86E-07,0,
6.38224E+17,-3.251275,-1.005263,-3.992383,-41.30406,-63.01544,-43.13519,-56.96799,-0.4675641,6.91079,-72.21353,-8.594284,-36.83611,0,0,0,-7.03522,-112.0159,-44.50452,-125.2441,-110.1194,-86.91598,0.001067912,-0.1257102,0.09433498,0,0.3,0,0,4.25E-07,0,
6.38224E+17,-3.251275,-1.005263,-3.992383,-41.30406,-63.01544,-43.13519,-56.96799,-0.4675641,6.91079,-72.21353,-8.594284,-36.83611,0,0,0,-7.03522,-112.0159,-44.50452,-125.2441,-110.1194,-86.91598,0.001067912,-0.1257102,0.09433498,0,0.3,0,0,3.04E-07,0,
6.38224E+17,-3.251275,-1.005263,-3.992383,-41.30406,-63.01544,-43.13519,-56.96799,-0.4675641,6.91079,-72.21353,-8.521038,-36.83611,0,0,0,-7.03522,-112.0159,-44.50452,-125.2441,-110.1194,-86.91598,0.001067912,-0.1257102,0.09433498,0,0.3,0,0,3.04E-07,0,
6.38224E+17,-3.251275,-1.005263,-3.992383,-41.30406,-63.01544,-43.13519,-56.96799,-0.4675641,6.91079,-72.21353,-8.594284,-36.83611,0,0,0,-7.03522,-112.0159,-44.50452,-125.2441,-110.1194,-86.91598,0.001067912,-0.1257102,0.09433498,0,0.3,0,0,2.43E-07,0,
6.38224E+17,-3.251275,-1.005263,-3.992383,-41.30406,-63.01544,-43.06195,-56.96799,-0.4675641,6.91079,-72.21353,-8.594284,-36.83611,0,0,0,-7.03522,-112.0159,-44.50452,-125.2441,-110.1194,-86.91598,0.001067912,-0.1257102,0.09433498,0,0.3,0,0,1.82E-07,0,
6.38224E+17,-3.251275,-1.005263,-3.992383,-41.30406,-63.01544,-43.13519,-56.96799,-0.4675641,6.91079,-72.14028,-8.594284,-36.90935,0,0,0,-7.03522,-112.0159,-44.50452,-125.2441,-110.1194,-86.91598,0.001067912,-0.1257102,0.09433498,0,0.3,0,0,1.21E-07,0,
6.38224E+17,-3.251275,-1.005263,-3.992383,-41.30406,-62.9422,-43.13519,-56.96799,-0.4675641,6.91079,-72.14028,-8.594284,-36.83611,0,0,0,-7.03522,-112.0159,-44.50452,-125.2441,-110.1194,-86.91598,0.001067912,-0.1257102,0.09433498,0,0.3,0,0,6.07E-08,0,
6.38224E+17,-3.251275,-1.005263,-3.992383,-41.37731,-63.01544,-43.13519,-56.96799,-0.4675641,6.91079,-72.21353,-8.594284,-36.90935,0,0,0,-7.03522,-112.0159,-44.50452,-125.2441,-110.1194,-86.91598,0.001067912,-0.1257102,0.09433498,0,0.3,0,0,0,0,
6.38224E+17,-3.251275,-1.005263,-3.992383,-41.30406,-62.9422,-43.13519,-56.96799,-0.4675641,6.91079,-72.21353,-8.594284,-36.83611,0,0,0,-7.03522,-112.0159,-44.50452,-125.2441,-110.1194,-86.91598,0.001067912,-0.1257102,0.09433498,0,0.3,0,0,0,0,
6.38224E+17,-3.251275,-1.005263,-3.992383,-41.30406,-62.9422,-43.13519,-56.96799,-0.4675641,6.91079,-72.21353,-8.594284,-36.83611,0,0,0,-7.03522,-112.0159,-44.50452,-125.2441,-110.1194,-86.91598,0.001067912,-0.1257102,0.09433498,0,0.3,0,0,0,0,
6.38224E+17,-3.251275,-1.005263,-3.992383,-41.30406,-62.9422,-43.13519,-56.96799,-0.4675641,6.91079,-72.21353,-8.594284,-36.83611,0,0,0,-7.03522,-112.0159,-44.50452,-125.2441,-110.1194,-86.91598,0.001067912,-0.1257102,0.09433498,0,0.3,0,0,0,0,
6.38224E+17,-3.251275,-1.005263,-3.992383,-41.30406,-63.01544,-43.13519,-56.96799,-0.4675641,6.91079,-72.21353,-8.594284,-36.83611,0,0,0,-7.03522,-112.0159,-44.50452,-125.2441,-110.1194,-86.91598,0.001067912,-0.1257102,0.09433498,0,0.3,0,0,0,0,
6.38224E+17,-3.251275,-1.005263,-3.992383,-41.37731,-63.01544,-43.13519,-56.96799,-0.4675641,6.91079,-72.21353,-8.594284,-36.83611,0,0,0,-7.03522,-112.0159,-44.50452,-125.2441,-110.1194,-86.91598,0.001067912,-0.1257102,0.09433498,0,0.3,0,0,0,0,
6.38224E+17,-3.251275,-1.005263,-3.992383,-41.30406,-63.01544,-43.13519,-56.96799,-0.4675641,6.91079,-72.21353,-8.594284,-36.90935,0,0,0,-7.03522,-112.0159,-44.50452,-125.2441,-110.1194,-86.91598,0.001067912,-0.1257102,0.09433498,0,0.3,0,0,0,0,
6.38224E+17,-3.251275,-1.005263,-3.992383,-41.30406,-63.01544,-43.13519,-56.96799,-0.4675641,6.91079,-72.21353,-8.594284,-36.83611,0,0,0,-7.03522,-112.0159,-44.50452,-125.2441,-110.1194,-86.91598,0.001067912,-0.1257102,0.09433498,0,0.3,0,0,0,0,
6.38224E+17,-3.251275,-1.005263,-3.992383,-41.30406,-62.9422,-43.13519,-56.96799,-0.4675641,6.91079,-72.14028,-8.594284,-36.83611,0,0,0,-7.03522,-112.0159,-44.50452,-125.2441,-110.1194,-86.91598,0.001067912,-0.1257102,0.09433498,0,0.3,0,0,0,0,
6.38224E+17,-3.251275,-1.005263,-3.992383,-41.37731,-62.9422,-43.13519,-56.96799,-0.4675641,6.91079,-72.21353,-8.594284,-36.83611,0,0,0,-7.03522,-112.0159,-44.50452,-125.2441,-110.1194,-86.91598,0.001067912,-0.1257102,0.09433498,0,0.3,0,0,0,0,
6.38224E+17,-3.251275,-1.005263,-3.992383,-41.30406,-62.9422,-43.13519,-56.96799,-0.4675641,6.91079,-72.14028,-8.594284,-36.83611,0,0,0,-7.03522,-112.0159,-44.50452,-125.2441,-110.1194,-86.91598,0.001067912,-0.1257102,0.09433498,0,0.3,0,0,0,0,
6.38224E+17,-3.251275,-1.005263,-3.992383,-41.37731,-63.01544,-43.13519,-56.96799,-0.4675641,6.91079,-72.21353,-8.594284,-36.90935,0,0,0,-7.03522,-112.0159,-44.50452,-125.2441,-110.1194,-86.91598,0.001067912,-0.1257102,0.09433498,0,0.3,0,0,0,0,
6.38224E+17,-3.251275,-1.005263,-3.992383,-41.37731,-62.9422,-43.13519,-56.96799,-0.4675641,6.91079,-72.21353,-8.594284,-36.83611,0,0,0,-7.03522,-112.0159,-44.50452,-125.2441,-110.1194,-86.91598,0.001067912,-0.1257102,0.09433498,0,0.3,0,0,0,0,
6.38224E+17,-3.251275,-1.005263,-4.01573,-41.30406,-63.01544,-42.9887,-56.96799,-0.4675641,6.91079,-72.21353,-8.594284,-36.83611,0,0,0,-7.032146,-112.0121,-44.55864,-125.2441,-110.1194,-86.91598,0.001067912,-0.1257102,0.09433498,0,0.3,0,0,6.68E-07,0,
6.38224E+17,-3.109915,-1.005263,-4.225855,-42.40274,-62.86895,-39.54618,-56.96799,-0.4675641,6.91079,-72.21353,-8.594284,-36.83611,0,0,0,-6.700244,-111.977,-45.02873,-125.2441,-110.1194,-86.91598,0.001067912,-0.1257102,0.09433498,0,0.3,0,0,0,0,
6.38224E+17,-3.086355,-1.005263,-4.225855,-46.57772,-61.69703,-34.12604,-56.96799,-0.4675641,6.91079,-72.14028,-8.521038,-36.83611,0,0,0,-6.649534,-111.977,-45.02599,-125.2441,-110.1194,-86.91598,0.001067912,-0.1257102,0.09433498,0,0.3,0,0,0,0,
6.38224E+17,-3.086355,-0.9818845,-4.155813,-48.92156,-60.6716,-32.22166,-56.96799,-0.4675641,6.91079,-72.21353,-8.521038,-36.83611,0,0,0,-6.658338,-111.9345,-44.86271,-125.2441,-110.1194,-86.91598,0.001067912,-0.1257102,0.09433498,0,0.3,0,0,0,0,
6.38224E+17,-3.439754,-0.2571602,-4.039077,-49.8005,-58.47424,-32.66114,-56.96799,-0.4675641,6.91079,-72.21353,-8.594284,-36.90935,0,0,0,-7.437228,-110.2673,-44.61741,-125.2441,-110.1194,-86.91598,0.001067912,-0.1257102,0.09433498,0,0.3,0,0,0,0,
6.38224E+17,-4.193673,1.706609,-4.202508,-46.28474,-55.91066,-38.52075,-56.96799,-0.4675641,6.91079,-72.21353,-8.594284,-36.83611,0,0,0,-9.032685,-105.6701,-45.162,-125.2441,-110.1194,-86.91598,0.001067912,-0.1257102,0.09433498,0,0.3,0,0,0.000189943,0,
6.38224E+17,-4.664873,2.969032,-4.365939,-44.16063,-54.29927,-42.25625,-56.96799,-0.4675641,6.91079,-72.21353,-8.594284,-36.83611,0,0,0,-10.00487,-102.706,-45.73795,-125.2441,-110.1194,-86.91598,0.001067912,-0.1257102,0.09433498,0,0.3,0,0,0.000397927,0,
6.38224E+17,-5.489471,4.979557,-4.576064,-40.13214,-50.63701,-50.09349,-56.96799,-0.4675641,6.91079,-72.21353,-8.594284,-36.83611,0,0,0,-11.69073,-98.0001,-46.70277,-125.2441,-110.1194,-86.91598,0.001067912,-0.1257102,0.09433498,0,0.3,0,0,0.000966178,0,
6.38224E+17,-6.19627,6.966705,-5.439913,-35.15147,-45.94932,-57.27151,-56.96799,-0.4675641,6.91079,-72.21353,-8.594284,-36.83611,0,0,0,-12.92233,-93.22505,-49.3258,-125.2441,-110.1194,-86.91598,0.001067912,-0.1257102,0.09433498,0,0.3,0,0,0.001706513,0,
6.38224E+17,-6.45543,7.714807,-6.070289,-32.80762,-43.45898,-59.83509,-56.96799,-0.4675641,6.91079,-72.21353,-8.594284,-36.83611,0,0,0,-13.27143,-91.35109,-51.057,-125.2441,-110.1194,-86.91598,0.001067912,-0.1257102,0.09433498,0,0.3,0,0,0.002129588,0,
6.38224E+17,-6.667469,8.346018,-7.447778,-27.68046,-37.52613,-63.49735,-56.96799,-0.4675641,6.91079,-72.14028,-8.521038,-36.83611,0,0,0,-13.31195,-89.5191,-54.47282,-125.2441,-110.1194,-86.91598,0.001067912,-0.1257102,0.09433498,0,0.3,0,0,0.003030406,0,
6.38224E+17,-6.667469,8.112236,-8.70853,-22.69979,-30.12836,-64.96225,-56.96799,-0.4675641,6.91079,-72.21353,-8.594284,-36.90935,0,0,0,-12.98369,-89.64528,-57.28092,-125.2441,-110.1194,-86.91598,0.001067912,-0.1257102,0.09433498,0,0.3,0,0,0.003965727,0,
6.38224E+17,-6.667469,7.784942,-9.082087,-18.89104,-22.14464,-62.7649,-56.96799,-0.4675641,6.91079,-72.21353,-8.521038,-36.83611,0,0,0,-12.89619,-90.26527,-58.02944,-125.2441,-110.1194,-86.91598,0.001067912,-0.1257102,0.09433498,0,0.3,0,0,0.004904874,0,
6.38224E+17,-6.667469,7.714807,-9.175476,-17.49938,-18.33589,-61.73947,-56.96799,-0.4675641,6.91079,-72.14028,-8.594284,-36.83611,0,0,0,-12.87383,-90.39252,-58.22073,-125.2441,-110.1194,-86.91598,0.001067912,-0.1257102,0.09433498,0,0.3,0,0,0.00536895,0,
6.38224E+17,-6.691029,7.691429,-9.245518,-15.59501,-11.01137,-60.78728,-56.96799,-0.4675641,6.91079,-72.21353,-8.521038,-36.83611,0,0,0,-12.90121,-90.42036,-58.3786,-125.2441,-110.1194,-86.91598,0.001067912,-0.1257102,0.09433498,0,0.3,0,0,0.006283071,0,
6.38224E+17,-6.667469,7.691429,-9.338906,-14.2766,-4.492554,-60.86052,-56.96799,-0.4675641,6.91079,-72.21353,-8.594284,-36.83611,0,0,0,-12.83109,-90.38525,-58.58636,-125.2441,-110.1194,-86.91598,0.001067912,-0.1257102,0.09433498,0,0.3,0,0,0.007169372,0,
6.38224E+17,-6.620349,7.691429,-9.315559,-13.83713,-1.489502,-61.22675,-56.96799,-0.4675641,6.91079,-72.21353,-8.594284,-36.83611,0,0,0,-12.747,-90.39407,-58.52258,-125.2441,-110.1194,-86.91598,0.001067912,-0.1257102,0.09433498,0,0.3,0,0,0.007595484,0,
6.38224E+17,-6.408309,7.621294,-8.428363,-13.10467,5.90826,-58.58992,-56.96799,-0.4675641,6.91079,-72.21353,-8.594284,-36.83611,0,0,0,-12.57059,-90.87429,-56.42717,-125.2441,-110.1194,-86.91598,0.001067912,-0.1257102,0.09433498,0,0.3,0,0,0.008377792,0,
6.38224E+17,-6.19627,7.621294,-7.331042,-12.29898,13.15953,-53.90223,-56.96799,-0.4675641,6.91079,-72.21353,-8.594284,-36.83611,0,0,0,-12.42935,-91.22441,-53.86644,-125.2441,-110.1194,-86.91598,0.001067912,-0.1257102,0.09433498,0,0.3,0,0,0.00904797,0,
6.38224E+17,-6.03135,7.574538,-7.261,-12.15249,19.38537,-46.13824,-56.96799,-0.4675641,6.91079,-72.21353,-8.594284,-36.83611,0,0,0,-12.11828,-91.35298,-53.65603,-125.2441,-110.1194,-86.91598,0.001067912,-0.1257102,0.09433498,0,0.3,0,0,0.009642037,0,
6.38224E+17,-6.00779,7.364134,-7.611208,-12.29898,22.16869,-41.67029,-56.96799,-0.4675641,6.91079,-72.21353,-8.594284,-36.83611,0,0,0,-11.99318,-91.73303,-54.39153,-125.2441,-110.1194,-86.91598,0.001067912,-0.1257102,0.09433498,0,0.3,0,0,0.009938401,0,
6.38224E+17,-6.00779,6.522519,-8.28828,-12.6652,26.63664,-32.29491,-56.96799,-0.4675641,6.91079,-72.21353,-8.594284,-36.90935,0,0,0,-11.85462,-93.45948,-55.70813,-125.2441,-110.1194,-86.91598,0.001067912,-0.1257102,0.09433498,0,0.3,0,0,0.01055889,0,
6.38224E+17,-6.00779,5.58739,-8.96535,-13.17792,30.15241,-23.57873,-56.96799,-0.4675641,6.91079,-72.21353,-8.594284,-36.90935,0,0,0,-11.71559,-95.38736,-57.02923,-125.2441,-110.1194,-86.91598,0.001067912,-0.1257102,0.09433498,0,0.3,0,0,0.01121406,0,
6.38224E+17,-6.00779,5.166583,-9.432296,-13.39765,31.69056,-20.50244,-56.96799,-0.4675641,6.91079,-72.14028,-8.594284,-36.83611,0,0,0,-11.61291,-96.18871,-58.00486,-125.2441,-110.1194,-86.91598,0.001067912,-0.1257102,0.09433498,0,0.3,0,0,0.01155459,0,
6.38224E+17,-6.00779,4.137942,-10.38953,-13.17792,34.54712,-16.25422,-56.96799,-0.4675641,6.91079,-72.21353,-8.594284,-36.83611,0,0,0,-11.40354,-98.19139,-59.99429,-125.2441,-110.1194,-86.91598,0.001067912,-0.1257102,0.09433498,0,0.3,0,0,0.01226279,0,
6.38224E+17,-6.00779,2.969032,-11.62694,-12.51871,37.33044,-13.4709,-56.96799,-0.4675641,6.91079,-72.21353,-8.594284,-36.83611,0,0,0,-11.12531,-100.3567,-62.63796,-125.2441,-110.1194,-86.91598,0.001067912,-0.1257102,0.09433498,0,0.3,0,0,0.01300416,0,
6.38224E+17,-6.00779,2.361199,-12.16393,-12.15249,38.79534,-12.22573,-56.96799,-0.4675641,6.91079,-72.21353,-8.594284,-36.83611,0,0,0,-11.0042,-101.5122,-63.78877,-125.2441,-110.1194,-86.91598,0.001067912,-0.1257102,0.09433498,0,0.3,0,0,0.01338575,0,
6.38224E+17,-6.00779,1.659852,-12.60752,-11.56653,41.87164,-10.68758,-56.96799,-0.4675641,6.91079,-72.14028,-8.594284,-36.83611,0,0,0,-10.90465,-102.9221,-64.73467,-125.2441,-110.1194,-86.91598,0.001067912,-0.1257102,0.09433498,0,0.3,0,0,0.01414965,0,
6.38224E+17,-6.00779,1.542961,-12.70091,-11.34679,44.21548,-9.66215,-56.96799,-0.4675641,6.91079,-72.21353,-8.594284,-36.83611,0,0,0,-10.88325,-103.1464,-64.93803,-125.2441,-110.1194,-86.91598,0.001067912,-0.1257102,0.09433498,0,0.3,0,0,0.01489952,0,
6.38224E+17,-6.00779,1.332558,-12.91104,-11.63977,45.24092,-6.80559,-56.96799,-0.4675641,6.91079,-72.21353,-8.594284,-36.83611,0,0,0,-10.83463,-103.5276,-65.40006,-125.2441,-110.1194,-86.91598,0.001067912,-0.1257102,0.09433498,0,0.3,0,0,0.01563415,0,
6.38224E+17,-5.98423,1.075397,-13.26125,-11.93275,45.5339,-5.413931,-56.96799,-0.4675641,6.91079,-72.21353,-8.594284,-36.83611,0,0,0,-10.71084,-103.9414,-66.17269,-125.2441,-110.1194,-86.91598,0.001067912,-0.1257102,0.09433498,0,0.3,0,0,0.01599769,0,
6.38224E+17,-5.96067,0.4441859,-13.77489,-12.51871,45.90012,-3.802537,-56.96799,-0.4675641,6.91079,-72.21353,-8.594284,-36.83611,0,0,0,-10.55014,-105.1309,-67.30495,-125.2441,-110.1194,-86.91598,0.001067912,-0.1257102,0.09433498,0,0.3,0,0,0.01671786,0,
6.38224E+17,-5.96067,-0.0233782,-13.91497,-13.17792,46.04661,-3.582802,-56.96799,-0.4675641,6.91079,-72.14028,-8.594284,-36.83611,0,0,0,-10.51768,-106.1411,-67.61583,-125.2441,-110.1194,-86.91598,0.001067912,-0.1257102,0.09433498,0,0.3,0,0,0.01742686,0,
6.38224E+17,-5.98423,-0.09351282,-14.14844,-13.76388,45.82688,-3.729292,-56.96799,-0.4675641,6.91079,-72.21353,-8.594284,-36.90935,0,0,0,-10.50413,-106.1726,-68.14462,-125.2441,-110.1194,-86.91598,0.001067912,-0.1257102,0.09433498,0,0.3,0,0,0.01777917,0,
6.38224E+17,-5.98423,-0.1870256,-14.38192,-15.7415,44.50846,-4.461744,-56.96799,-0.4675641,6.91079,-72.14028,-8.594284,-36.83611,0,0,0,-10.44917,-106.2563,-68.66891,-125.2441,-110.1194,-86.91598,0.001067912,-0.1257102,0.09433498,0,0.3,0,0,0.01847358,0,
6.38224E+17,-5.98423,-0.233782,-14.38192,-18.67131,42.89707,-5.267441,-56.96799,-0.4675641,6.91079,-72.21353,-8.594284,-36.83611,0,0,0,-10.44912,-106.3651,-68.66931,-125.2441,-110.1194,-86.91598,0.001067912,-0.1257102,0.09433498,0,0.3,0,0,0.01915159,0,
6.38224E+17,-5.91355,-0.2571602,-14.38192,-19.76999,42.23786,-5.853402,-56.96799,-0.4675641,6.91079,-72.21353,-8.594284,-36.90935,0,0,0,-10.32613,-106.4195,-68.65673,-125.2441,-110.1194,-86.91598,0.001067912,-0.1257102,0.09433498,0,0.3,0,0,0.01947863,0,
6.38224E+17,-5.607271,0.1402692,-14.10175,-21.45462,41.21243,-7.025325,-56.96799,-0.4675641,6.91079,-72.21353,-8.594284,-36.83611,0,0,0,-9.854909,-105.655,-67.97302,-125.2441,-110.1194,-86.91598,0.001067912,-0.1257102,0.09433498,0,0.3,0,0,0.02007944,0,
6.38224E+17,-4.994712,1.028641,-13.51807,-21.96734,40.26024,-7.831022,-56.96799,-0.4675641,6.91079,-72.21353,-8.594284,-36.83611,0,0,0,-8.894236,-103.9118,-66.58023,-125.2441,-110.1194,-86.91598,0.001067912,-0.1257102,0.09433498,0,0.3,0,0,0.02056879,0,
6.38224E+17,-4.028753,2.267686,-12.67757,-22.04058,39.30806,-8.416983,-56.96799,-0.4675641,6.91079,-72.14028,-8.594284,-36.90935,0,0,0,-7.305333,-101.4726,-64.62692,-125.2441,-110.1194,-86.91598,0.001067912,-0.1257102,0.09433498,0,0.3,0,0,0.02086807,0,
6.38224E+17,-3.392634,3.039166,-12.21062,-21.89409,38.7221,-8.636719,-56.96799,-0.4675641,6.91079,-72.21353,-8.594284,-36.83611,0,0,0,-6.211217,-99.91315,-63.57582,-125.2441,-110.1194,-86.91598,0.001067912,-0.1257102,0.09433498,0,0.3,0,0,0.02092602,0,
6.38224E+17,-2.026157,4.909423,-11.30008,-21.0884,37.62342,-9.076189,-56.96799,-0.4675641,6.91079,-72.14028,-8.594284,-36.83611,0,0,0,-3.773559,-96.00273,-61.68555,-125.2441,-110.1194,-86.91598,0.001067912,-0.1257102,0.09433498,0,0.3,0,0,0.02082858,0,
6.38224E+17,-0.7067988,7.083596,-10.36619,-20.06297,36.305,-9.66215,-56.96799,-0.4675641,6.91079,-72.21353,-8.594284,-36.83611,0,0,0,-1.336412,-91.37907,-60.02088,-125.2441,-110.1194,-86.91598,0.001067912,-0.1257102,0.09433498,0,0.3,0,0,0.02043588,0,
6.38224E+17,-0.04711992,8.20575,-9.89924,-19.477,35.6458,-10.02838,-56.96799,-0.4675641,6.91079,-72.14028,-8.594284,-36.83611,0,0,0,-0.08969048,-88.98182,-59.29029,-125.2441,-110.1194,-86.91598,0.001067912,-0.1257102,0.09433498,0,0.3,0,0,0.02012712,0,
6.38224E+17,1.366478,10.96438,-8.731878,-17.86561,34.25414,-10.24811,-56.96799,-0.4675641,6.91079,-72.14028,-8.594284,-36.83611,0,0,0,2.639221,-83.09143,-57.70966,-125.2441,-110.1194,-86.91598,0.001067912,-0.1257102,0.09433498,0,0.3,0,0,0.01925054,0,
6.38224E+17,2.591596,13.98017,-7.401083,-16.40071,32.5695,-10.32136,-56.96799,-0.4675641,6.91079,-72.21353,-8.594284,-36.83611,0,0,0,5.074313,-76.67353,-56.24208,-125.2441,-110.1194,-86.91598,0.001067912,-0.1257102,0.09433498,0,0.3,0,0,0.01803708,0,
6.38224E+17,3.675354,17.41676,-5.72008,-15.08229,30.44539,-10.32136,-56.96799,-0.4675641,6.91079,-72.21353,-8.594284,-36.83611,0,0,0,7.304253,-69.4217,-54.63887,-125.2441,-110.1194,-86.91598,0.001067912,-0.1257102,0.09433498,0,0.3,0,0,0.01648686,0,
6.38224E+17,4.170113,19.12337,-4.832884,-14.49633,29.41996,-10.32136,-56.96799,-0.4675641,6.91079,-72.21353,-8.594284,-36.83611,0,0,0,8.344853,-65.84,-53.89739,-125.2441,-110.1194,-86.91598,0.001067912,-0.1257102,0.09433498,0,0.3,0,0,0.01557699,0,
6.38224E+17,5.041832,22.65348,-2.918408,-13.4709,26.85638,-10.32136,-56.96799,-0.4675641,6.91079,-72.21353,-8.594284,-36.90935,0,0,0,10.21841,-58.46638,-52.52704,-125.2441,-110.1194,-86.91598,0.001067912,-0.1257102,0.09433498,0,0.3,0,0,0.01350195,0,
6.38224E+17,5.465911,25.99656,-1.144016,-12.59196,24.51253,-10.24811,-56.96799,-0.4675641,6.91079,-72.14028,-8.521038,-36.83611,0,0,0,11.16326,-51.52382,-51.68759,-125.2441,-110.1194,-86.91598,0.001067912,-0.1257102,0.09433498,0,0.3,0,0,0.01114506,0,
6.38224E+17,5.630831,27.63304,-0.2801672,-12.29898,23.34061,-10.24811,-56.96799,-0.4675641,6.91079,-72.21353,-8.594284,-36.83611,0,0,0,11.52769,-48.14975,-51.42936,-125.2441,-110.1194,-86.91598,0.001067912,-0.1257102,0.09433498,0,0.3,0,0,0.009877415,0,
6.38224E+17,6.05491,30.92937,1.587614,-11.93275,21.07001,-10.24811,-56.96799,-0.4675641,6.91079,-72.21353,-8.594284,-36.90935,0,0,0,12.45551,-41.40945,-50.92637,-125.2441,-110.1194,-86.91598,0.001067912,-0.1257102,0.09433498,0,0.3,0,0,0.007153518,0,
6.38224E+17,6.785269,34.3192,3.595479,-11.56653,18.65292,-10.17487,-56.96799,-0.4675641,6.91079,-72.14028,-8.594284,-36.90935,0,0,0,14.00034,-34.55441,-50.68233,-125.2441,-110.1194,-86.91598,0.001067912,-0.1257102,0.09433498,0,0.3,0,0,0.004126574,0,
6.38224E+17,7.845467,37.56877,5.626691,-10.83407,16.08934,-9.955132,-56.96799,-0.4675641,6.91079,-72.21353,-8.594284,-36.90935,0,0,0,16.2124,-28.05223,-50.69106,-125.2441,-110.1194,-86.91598,0.001067912,-0.1257102,0.09433498,0,0.3,0,0,0.000760684,0,
6.38224E+17,8.575826,39.15849,6.653971,-10.32136,14.77092,-9.808641,-56.96799,-0.4675641,6.91079,-72.21353,-8.594284,-36.83611,0,0,0,17.72292,-24.89554,-50.82731,-125.2441,-110.1194,-86.91598,0.001067912,-0.1257102,0.09433498,0,0.3,0,0,0,0,
6.38224E+17,10.31926,41.96388,8.475058,-8.856454,12.50033,-9.588906,-56.96799,-0.4675641,6.91079,-72.21353,-8.594284,-36.83611,0,0,0,21.28235,-19.37777,-51.46416,-125.2441,-110.1194,-86.91598,0.001067912,-0.1257102,0.09433498,0,0.3,0,0,0,0,
6.38224E+17,12.43966,44.65237,10.20275,-6.878834,10.22972,-9.588906,-56.96799,-0.4675641,6.91079,-72.21353,-8.594284,-36.83611,0,0,0,25.52271,-14.1725,-52.64798,-125.2441,-110.1194,-86.91598,0.001067912,-0.1257102,0.09433498,0,0.3,0,0,0,0,
6.38224E+17,13.64122,45.93817,11.1133,-5.926647,9.131048,-9.66215,-56.96799,-0.4675641,6.91079,-72.21353,-8.594284,-36.83611,0,0,0,27.93288,-11.67547,-53.25165,-125.2441,-110.1194,-86.91598,0.001067912,-0.1257102,0.09433498,0,0.3,0,0,0,0,
6.38224E+17,16.35061,48.27599,12.88769,-3.509557,7.080183,-9.735395,-56.96799,-0.4675641,6.91079,-72.21353,-8.594284,-36.90935,0,0,0,33.3574,-7.11378,-54.64954,-125.2441,-110.1194,-86.91598,0.001067912,-0.1257102,0.09433498,0,0.3,0,0,0,0,
6.38224E+17,19.36629,50.35665,14.61539,-0.4332596,5.249053,-9.881886,-56.96799,-0.4675641,6.91079,-72.21353,-8.594284,-36.90935,0,0,0,39.37037,-3.001386,-56.34147,-125.2441,-110.1194,-86.91598,0.001067912,-0.1257102,0.09433498,0,0.3,0,0,0,0,
6.38224E+17,22.64112,52.15677,16.31974,3.082508,3.491169,-9.955132,-56.96799,-0.4675641,6.91079,-72.21353,-8.594284,-36.83611,0,0,0,45.9184,0.6783416,-58.26091,-125.2441,-110.1194,-86.91598,0.001067912,-0.1257102,0.09433498,0,0.3,0,0,0,0,
6.38224E+17,24.19608,52.95163,17.16024,4.693902,2.758718,-10.02838,-56.96799,-0.4675641,6.91079,-72.21353,-8.594284,-36.83611,0,0,0,49.05465,2.366555,-59.17848,-125.2441,-110.1194,-86.91598,0.001067912,-0.1257102,0.09433498,0,0.3,0,0,0,0,
6.38224E+17,27.35312,54.54135,18.93463,8.136425,1.074079,-10.76083,-56.96799,-0.4675641,6.91079,-72.21353,-8.594284,-36.90935,0,0,0,55.42579,5.833808,-61.20832,-125.2441,-110.1194,-86.91598,0.001067912,-0.1257102,0.09433498,0,0.3,0,0,0,0,
6.38224E+17,30.41591,55.89729,20.84911,11.72544,-0.4640697,-12.22573,-56.96799,-0.4675641,6.91079,-72.21353,-8.594284,-36.83611,0,0,0,61.88015,9.14993,-62.9449,-125.2441,-110.1194,-86.91598,0.001067912,-0.1257102,0.09433498,0,0.3,0,0,0,0,
6.38224E+17,31.87663,56.45836,21.85304,13.48332,-1.343012,-13.17792,-56.96799,-0.4675641,6.91079,-72.21353,-8.594284,-36.83611,0,0,0,65.12329,10.72747,-63.62986,-125.2441,-110.1194,-86.91598,0.001067912,-0.1257102,0.09433498,0,0.3,0,0,0,0,
6.38224E+17,34.72738,57.46363,23.83756,16.92585,-2.807915,-14.9358,-56.96799,-0.4675641,6.91079,-72.21353,-8.594284,-36.83611,0,0,0,71.55827,13.79617,-65.11219,-125.2441,-110.1194,-86.91598,0.001067912,-0.1257102,0.09433498,0,0.3,0,0,0,0,
6.38224E+17,37.29542,58.14159,25.54191,20.14863,-4.126328,-16.91342,-56.96799,-0.4675641,6.91079,-72.21353,-8.594284,-36.83611,0,0,0,77.48671,16.29377,-66.61728,-125.2441,-110.1194,-86.91598,0.001067912,-0.1257102,0.09433498,0,0.3,0,0,0,0,
6.38224E+17,39.93414,58.51564,27.3163,23.29818,-5.15176,-19.11078,-56.96799,-0.4675641,6.91079,-72.14028,-8.521038,-36.83611,0,0,0,83.98626,18.58888,-68.02507,-125.2441,-110.1194,-86.91598,0.001067912,-0.1257102,0.09433498,0,0.3,0,0,0,0,
6.38224E+17,41.13569,58.49226,28.08676,24.76308,-5.517986,-20.20946,-56.96799,-0.4675641,6.91079,-72.21353,-8.594284,-36.83611,0,0,0,87.1465,19.39403,-68.57763,-125.2441,-110.1194,-86.91598,0.001067912,-0.1257102,0.09433498,0,0.3,0,0,0,0,
6.38224E+17,43.60949,58.2351,29.62768,28.05911,-6.030703,-22.69979,-56.96799,-0.4675641,6.91079,-72.21353,-8.594284,-36.83611,0,0,0,93.88958,20.81091,-69.78891,-125.2441,-110.1194,-86.91598,0.001067912,-0.1257102,0.09433498,0,0.3,0,0,0,0,
6.38224E+17,45.70633,57.72078,31.02851,31.20865,-6.250438,-25.26337,-56.96799,-0.4675641,6.91079,-72.21353,-8.594284,-36.90935,0,0,0,100.1736,21.82244,-70.6163,-125.2441,-110.1194,-86.91598,0.001067912,-0.1257102,0.09433498,0,0.3,0,0,0,0,
6.38224E+17,46.6016,57.44025,31.5655,32.60031,-6.250438,-26.36205,-56.96799,-0.4675641,6.91079,-72.21353,-8.594284,-36.83611,0,0,0,102.8648,22.12163,-71.08102,-125.2441,-110.1194,-86.91598,0.001067912,-0.1257102,0.09433498,0,0.3,0,0,0,0,
6.38224E+17,48.18012,56.69214,32.33596,34.87091,-6.250438,-28.5594,-56.96799,-0.4675641,6.91079,-72.21353,-8.594284,-36.90935,0,0,0,107.7282,22.12395,-71.96262,-125.2441,-110.1194,-86.91598,0.001067912,-0.1257102,0.09433498,0,0.3,0,0,0,0,
6.38224E+17,49.5466,55.78039,33.05973,36.6288,-6.103948,-30.39053,-56.96799,-0.4675641,6.91079,-72.21353,-8.594284,-36.83611,0,0,0,112.4171,21.85459,-72.49472,-125.2441,-110.1194,-86.91598,0.001067912,-0.1257102,0.09433498,0,0.3,0,0,0,0,
6.38224E+17,50.2534,55.14918,33.2932,37.50774,-6.030703,-31.19623,-56.96799,-0.4675641,6.91079,-72.14028,-8.594284,-36.83611,0,0,0,114.8712,21.3191,-72.82417,-125.2441,-110.1194,-86.91598,0.001067912,-0.1257102,0.09433498,0,0.3,0,0,0,0,
6.38224E+17,51.4314,53.76987,33.62006,39.19238,-5.444741,-32.58789,-56.96799,-0.4675641,6.91079,-72.21353,-8.594284,-36.83611,0,0,0,119.3493,19.87252,-73.18172,-125.2441,-110.1194,-86.91598,0.001067912,-0.1257102,0.09433498,0,0.3,0,0,0,0,
6.38224E+17,52.60939,52.06326,33.90023,40.95026,-4.712289,-34.19928,-56.96799,-0.4675641,6.91079,-72.21353,-8.594284,-36.83611,0,0,0,124.2288,17.83997,-73.40221,-125.2441,-110.1194,-86.91598,0.001067912,-0.1257102,0.09433498,0,0.3,0,0,0,0,
6.38224E+17,53.62247,49.91246,33.87688,42.34192,-3.686857,-35.51769,-56.96799,-0.4675641,6.91079,-72.21353,-8.594284,-36.90935,0,0,0,128.9831,14.65881,-73.33348,-125.2441,-110.1194,-86.91598,0.001067912,-0.1257102,0.09433498,0,0.3,0,0,0,0,
6.38224E+17,54.04655,48.67342,33.87688,42.92788,-3.100896,-36.03041,-56.96799,-0.4675641,6.91079,-72.14028,-8.594284,-36.83611,0,0,0,131.4524,12.77809,-73.0073,-125.2441,-110.1194,-86.91598,0.001067912,-0.1257102,0.09433498,0,0.3,0,0,0,0,
6.38224E+17,54.80047,46.10182,33.87688,43.80682,-1.855728,-37.12909,-56.96799,-0.4675641,6.91079,-72.21353,-8.594284,-36.90935,0,0,0,136.2946,8.726284,-72.20639,-125.2441,-110.1194,-86.91598,0.001067912,-0.1257102,0.09433498,0,0.3,0,0,0,0,
6.38224E+17,55.27167,43.27305,33.87688,44.53928,-0.171089,-38.00803,-56.96799,-0.4675641,6.91079,-72.21353,-8.594284,-36.83611,0,0,0,140.8854,4.046088,-70.69321,-125.2441,-110.1194,-86.91598,0.001067912,-0.1257102,0.09433498,0,0.3,0,0,0,0,
6.38224E+17,55.27167,41.80023,33.87688,44.83226,0.6346079,-38.37426,-56.96799,-0.4675641,6.91079,-72.14028,-8.594284,-36.83611,0,0,0,142.79,1.520361,-69.37303,-125.2441,-110.1194,-86.91598,0.001067912,-0.1257102,0.09433498,0,0.3,0,0,0,0,
6.38224E+17,55.27167,39.27538,34.04031,45.05199,2.612227,-38.66724,-56.96799,-0.4675641,6.91079,-72.21353,-8.594284,-36.83611,0,0,0,146.188,-2.732674,-67.01767,-125.2441,-110.1194,-86.91598,0.001067912,-0.1257102,0.09433498,0,0.3,0,0,0,0,
6.38224E+17,55.27167,37.54539,34.20374,45.19848,4.663092,-38.74048,-56.96799,-0.4675641,6.91079,-72.21353,-8.594284,-36.83611,0,0,0,148.5026,-5.674167,-65.41325,-125.2441,-110.1194,-86.91598,0.001067912,-0.1257102,0.09433498,0,0.3,0,0,0,0,
6.38224E+17,55.27167,36.28297,34.53061,45.27173,6.127995,-38.81373,-56.96799,-0.4675641,6.91079,-72.21353,-8.594284,-36.90935,0,0,0,150.469,-7.593853,-64.0502,-125.2441,-110.1194,-86.91598,0.001067912,-0.1257102,0.09433498,0,0.3,0,0,0,0,
6.38224E+17,55.27167,35.67514,34.83412,45.34497,6.713957,-38.81373,-56.96799,-0.4675641,6.91079,-72.21353,-8.594284,-36.83611,0,0,0,151.6295,-8.336683,-63.24582,-125.2441,-110.1194,-86.91598,0.001067912,-0.1257102,0.09433498,0,0.3,0,0,0,0,
6.38224E+17,55.27167,34.62312,35.60458,45.63795,7.446409,-38.81373,-56.96799,-0.4675641,6.91079,-72.21353,-8.521038,-36.83611,0,0,0,153.9919,-9.304533,-61.60826,-125.2441,-110.1194,-86.91598,0.001067912,-0.1257102,0.09433498,0,0.3,0,0,0,0,
6.38224E+17,55.29523,33.68799,36.7486,45.85769,7.88588,-38.81373,-56.96799,-0.4675641,6.91079,-72.21353,-8.521038,-36.83611,0,0,0,156.8072,-9.533901,-59.75225,-125.2441,-110.1194,-86.91598,0.001067912,-0.1257102,0.09433498,0,0.3,0,0,0,0,
6.38224E+17,55.29523,32.72948,38.31286,46.15067,8.105616,-39.10671,-56.96799,-0.4675641,6.91079,-72.14028,-8.594284,-36.83611,0,0,0,160.185,-9.182589,-57.41288,-125.2441,-110.1194,-86.91598,0.001067912,-0.1257102,0.09433498,0,0.3,0,0,0,0,
6.38224E+17,55.29523,32.23854,39.38684,46.44365,8.178861,-39.47293,-56.96799,-0.4675641,6.91079,-72.14028,-8.594284,-36.90935,0,0,0,162.2898,-8.578524,-55.9552,-125.2441,-110.1194,-86.91598,0.001067912,-0.1257102,0.09433498,0,0.3,0,0,0,0,
6.38224E+17,55.29523,31.35017,41.8383,47.46908,8.325351,-40.42512,-56.96799,-0.4675641,6.91079,-72.21353,-8.594284,-36.90935,0,0,0,166.7458,-6.622169,-52.86919,-125.2441,-110.1194,-86.91598,0.001067912,-0.1257102,0.09433498,0,0.3,0,0,0,0,
6.38224E+17,55.29523,30.8826,44.42985,48.42127,8.398596,-41.89003,-56.96799,-0.4675641,6.91079,-72.21353,-8.594284,-36.83611,0,0,0,170.8263,-3.430331,-50.04321,-125.2441,-110.1194,-86.91598,0.001067912,-0.1257102,0.09433498,0,0.3,0,0,0,0,
6.38224E+17,55.29523,30.81247,46.06416,49.00723,8.252106,-42.69572,-56.96799,-0.4675641,6.91079,-72.21353,-8.594284,-36.83611,0,0,0,173.0966,-0.8693808,-48.4709,-125.2441,-110.1194,-86.91598,0.001067912,-0.1257102,0.09433498,0,0.3,0,0,0,0,
6.38224E+17,55.27167,30.81247,49.02925,50.54538,7.812634,-44.38036,-56.96799,-0.4675641,6.91079,-72.21353,-8.594284,-36.83611,0,0,0,176.8752,4.221778,-45.74639,-125.2441,-110.1194,-86.91598,0.001067912,-0.1257102,0.09433498,0,0.3,0,0,0,0,
6.38224E+17,55.27167,30.81247,51.94767,52.15677,7.666144,-45.91851,-56.96799,-0.4675641,6.91079,-72.21353,-8.594284,-36.83611,0,0,0,180.4265,9.461442,-43.28476,-125.2441,-110.1194,-86.91598,0.001067912,-0.1257102,0.09433498,0,0.3,0,0,0,0,
6.38224E+17,55.27167,30.78909,54.72599,53.76817,7.812634,-47.45666,-56.96799,-0.4675641,6.91079,-72.21353,-8.594284,-36.83611,0,0,0,183.6223,14.60117,-41.06951,-125.2441,-110.1194,-86.91598,0.001067912,-0.1257102,0.09433498,0,0.3,0,0,0,0,
6.38224E+17,55.27167,30.74234,55.94005,54.57386,7.88588,-48.26236,-56.96799,-0.4675641,6.91079,-72.21353,-8.594284,-36.83611,0,0,0,184.9889,16.8316,-40.12221,-125.2441,-110.1194,-86.91598,0.001067912,-0.1257102,0.09433498,0,0.3,0,0,0,0,
6.38224E+17,55.27167,30.53193,58.01796,56.18526,8.178861,-49.58077,-56.96799,-0.4675641,6.91079,-72.21353,-8.594284,-36.83611,0,0,0,187.3599,20.46498,-38.47876,-125.2441,-110.1194,-86.91598,0.001067912,-0.1257102,0.09433498,0,0.3,0,0,0,0,
6.38224E+17,55.27167,29.9241,59.25536,57.43042,8.691576,-50.82594,-56.96799,-0.4675641,6.91079,-72.14028,-8.521038,-36.83611,0,0,0,189.1771,21.70175,-37.21915,-125.2441,-110.1194,-86.91598,0.001067912,-0.1257102,0.09433498,0,0.3,0,0,0,0,
6.38224E+17,55.27167,29.43316,59.48883,57.7234,9.057802,-51.4119,-56.96799,-0.4675641,6.91079,-72.14028,-8.594284,-36.83611,0,0,0,189.8696,21.1766,-36.73914,-125.2441,-110.1194,-86.91598,0.001067912,-0.1257102,0.09433498,0,0.3,0,0,0,0,
6.38224E+17,55.27167,28.05384,59.41879,57.65016,10.08323,-52.36408,-56.96799,-0.4675641,6.91079,-72.14028,-8.594284,-36.83611,0,0,0,191.0702,18.22163,-35.90691,-125.2441,-110.1194,-86.91598,0.001067912,-0.1257102,0.09433498,0,0.3,0,0,0,0,
6.38224E+17,55.24811,26.04332,59.04524,56.69797,11.54814,-53.16978,-56.96799,-0.4675641,6.91079,-72.21353,-8.594284,-36.83611,0,0,0,192.3985,13.30733,-34.86899,-125.2441,-110.1194,-86.91598,0.001067912,-0.1257102,0.09433498,0,0.3,0,0,0,0,
6.38224E+17,55.24811,24.9913,58.85846,56.11201,12.28059,-53.46276,-56.96799,-0.4675641,6.91079,-72.21353,-8.594284,-36.83611,0,0,0,193.0809,10.7253,-34.39556,-125.2441,-110.1194,-86.91598,0.001067912,-0.1257102,0.09433498,0,0.3,0,0,0,0,
6.38224E+17,55.22455,22.88726,58.13469,54.86684,13.74549,-53.82899,-56.96799,-0.4675641,6.91079,-72.21353,-8.594284,-36.83611,0,0,0,193.9348,4.813673,-33.68496,-125.2441,-110.1194,-86.91598,0.001067912,-0.1257102,0.09433498,0,0.3,0,0,0,0,
6.38224E+17,55.22455,20.45593,57.2475,53.25545,15.43013,-53.97548,-56.96799,-0.4675641,6.91079,-72.14028,-8.594284,-36.83611,0,0,0,194.7446,-2.189786,-33.12265,-125.2441,-110.1194,-86.91598,0.001067912,-0.1257102,0.09433498,0,0.3,0,0,0,0,
6.38224E+17,55.22455,17.90771,56.3603,51.42432,17.11477,-54.12197,-56.96799,-0.4675641,6.91079,-72.21353,-8.594284,-36.83611,0,0,0,195.4165,-9.518641,-32.65611,-125.2441,-110.1194,-86.91598,0.001067912,-0.1257102,0.09433498,0,0.3,0,0,0,0,
6.38224E+17,55.22455,16.48163,56.01009,50.47213,17.99371,-54.26846,-56.96799,-0.4675641,6.91079,-72.21353,-8.594284,-36.83611,0,0,0,195.8499,-13.36645,-32.35522,-125.2441,-110.1194,-86.91598,0.001067912,-0.1257102,0.09433498,0,0.3,0,0,0,0,
6.38224E+17,55.22455,13.8399,55.40306,48.42127,19.38537,-54.70793,-56.96799,-0.4675641,6.91079,-72.21353,-8.594284,-36.83611,0,0,0,196.5167,-20.46749,-31.89219,-125.2441,-110.1194,-86.91598,0.001067912,-0.1257102,0.09433498,0,0.3,0,0,0,0,
6.38224E+17,55.22455,11.43194,55.26298,46.5169,20.63054,-55.36714,-56.96799,-0.4675641,6.91079,-72.21353,-8.594284,-36.83611,0,0,0,197.3713,-26.20377,-31.29877,-125.2441,-110.1194,-86.91598,0.001067912,-0.1257102,0.09433498,0,0.3,0,0,0,0,
6.38224E+17,55.22455,10.23965,55.26298,45.7112,21.07001,-55.80661,-56.96799,-0.4675641,6.91079,-72.21353,-8.594284,-36.83611,0,0,0,197.7998,-28.92917,-31.00123,-125.2441,-110.1194,-86.91598,0.001067912,-0.1257102,0.09433498,0,0.3,0,0,0,0,
6.38224E+17,55.22455,8.252506,55.23963,44.24629,21.80246,-56.6123,-56.96799,-0.4675641,6.91079,-72.21353,-8.594284,-36.90935,0,0,0,198.3847,-33.53838,-30.59508,-125.2441,-110.1194,-86.91598,0.001067912,-0.1257102,0.09433498,0,0.3,0,0,0,0,
6.38224E+17,55.22455,6.499141,55.21629,42.78139,22.31518,-57.71098,-56.96799,-0.4675641,6.91079,-72.21353,-8.594284,-36.83611,0,0,0,198.7895,-37.62987,-30.31397,-125.2441,-110.1194,-86.91598,0.001067912,-0.1257102,0.09433498,0,0.3,0,0,0,0,
6.38224E+17,55.22455,5.751038,55.12289,42.04893,22.60816,-58.15046,-56.96799,-0.4675641,6.91079,-72.21353,-8.594284,-36.83611,0,0,0,198.8401,-39.53946,-30.27881,-125.2441,-110.1194,-86.91598,0.001067912,-0.1257102,0.09433498,0,0.3,0,0,0,0,
6.38224E+17,55.22455,4.441859,54.93612,40.87702,23.04763,-58.8829,-56.96799,-0.4675641,6.91079,-72.21353,-8.594284,-36.83611,0,0,0,198.8578,-42.93055,-30.26655,-125.2441,-110.1194,-86.91598,0.001067912,-0.1257102,0.09433498,0,0.3,0,0,0,0,
6.38224E+17,55.22455,3.202814,54.53922,39.85158,23.34061,-59.39562,-56.96799,-0.4675641,6.91079,-72.21353,-8.594284,-36.83611,0,0,0,198.5777,-46.56208,-30.46108,-125.2441,-110.1194,-86.91598,0.001067912,-0.1257102,0.09433498,0,0.3,0,0,0,0,
6.38224E+17,55.20099,2.291064,53.7921,39.19238,23.63359,-59.54211,-56.96799,-0.4675641,6.91079,-72.21353,-8.594284,-36.83611,0,0,0,197.7685,-50.09131,-30.90236,-125.2441,-110.1194,-86.91598,0.001067912,-0.1257102,0.09433498,0,0.3,0,0,0,0,
6.38224E+17,55.13031,1.776743,53.30181,38.89939,23.78008,-59.61535,-56.96799,-0.4675641,6.91079,-72.21353,-8.594284,-36.90935,0,0,0,197.0774,-52.20542,-31.02183,-125.2441,-110.1194,-86.91598,0.001067912,-0.1257102,0.09433498,0,0.3,0,0,0,0,
6.38224E+17,54.96539,0.7247244,52.25118,38.45993,24.2928,-59.61535,-56.96799,-0.4675641,6.91079,-72.14028,-8.594284,-36.83611,0,0,0,195.5139,-56.60033,-31.27359,-125.2441,-110.1194,-86.91598,0.001067912,-0.1257102,0.09433498,0,0.3,0,0,0,0,
6.38224E+17,54.70623,-0.233782,51.2706,37.94721,24.80551,-59.61535,-56.96799,-0.4675641,6.91079,-72.21353,-8.594284,-36.83611,0,0,0,193.7468,-60.62361,-31.20125,-125.2441,-110.1194,-86.91598,0.001067912,-0.1257102,0.09433498,0,0.3,0,0,0,0,
6.38224E+17,54.56487,-0.7013461,50.73361,37.72747,25.24498,-59.46887,-56.96799,-0.4675641,6.91079,-72.21353,-8.594284,-36.83611,0,0,0,192.7598,-62.68306,-31.18479,-125.2441,-110.1194,-86.91598,0.001067912,-0.1257102,0.09433498,0,0.3,0,0,0,0,
6.38224E+17,54.18791,-1.005263,49.146,37.58098,26.27042,-58.15046,-56.96799,-0.4675641,6.91079,-72.21353,-8.594284,-36.83611,0,0,0,189.9162,-66.21827,-31.31717,-125.2441,-110.1194,-86.91598,0.001067912,-0.1257102,0.09433498,0,0.3,0,0,0,0,
6.38224E+17,53.66959,-1.005263,46.67118,37.58098,27.29585,-55.80661,-56.96799,-0.4675641,6.91079,-72.21353,-8.594284,-36.83611,0,0,0,185.5587,-70.4922,-31.89194,-125.2441,-110.1194,-86.91598,0.001067912,-0.1257102,0.09433498,0,0.3,0,0,0,0,
6.38224E+17,52.93923,-1.005263,43.82282,37.58098,28.76075,-52.65706,-56.96799,-0.4675641,6.91079,-72.21353,-8.594284,-36.83611,0,0,0,180.08,-75.19949,-32.35029,-125.2441,-110.1194,-86.91598,0.001067912,-0.1257102,0.09433498,0,0.3,0,0,0,0,
6.38224E+17,52.51515,-1.005263,42.21186,37.50774,29.56645,-50.89918,-56.96799,-0.4675641,6.91079,-72.21353,-8.594284,-36.83611,0,0,0,176.8933,-77.75728,-32.68933,-125.2441,-110.1194,-86.91598,0.001067912,-0.1257102,0.09433498,0,0.3,0,0,0,0,
6.38224E+17,51.54919,-1.005263,38.84985,37.06827,30.81162,-47.09043,-56.96799,-0.4675641,6.91079,-72.21353,-8.594284,-36.83611,0,0,0,169.9243,-82.84151,-33.42419,-125.2441,-110.1194,-86.91598,0.001067912,-0.1257102,0.09433498,0,0.3,0,0,0,0,
6.38224E+17,50.6068,-0.9818845,35.11428,36.18932,32.27652,-42.84221,-56.96799,-0.4675641,6.91079,-72.21353,-8.594284,-36.83611,0,0,0,162.3166,-88.01627,-35.0539,-125.2441,-110.1194,-86.91598,0.001067912,-0.1257102,0.09433498,0,0.3,0,0,0,0,
6.38224E+17,50.1356,-0.9818845,33.12977,35.8231,33.08222,-40.64486,-56.96799,-0.4675641,6.91079,-72.14028,-8.594284,-36.90935,0,0,0,158.2802,-90.60706,-36.17425,-125.2441,-110.1194,-86.91598,0.001067912,-0.1257102,0.09433498,0,0.3,0,0,0,0,
6.38224E+17,49.12252,-0.8649935,29.53429,34.94416,34.8401,-36.32339,-56.96799,-0.4675641,6.91079,-72.21353,-8.594284,-36.83611,0,0,0,150.5182,-94.68571,-38.07059,-125.2441,-110.1194,-86.91598,0.001067912,-0.1257102,0.09433498,0,0.3,0,0,0,0,
6.38224E+17,48.27436,-0.1402692,25.91546,34.3582,36.305,-32.4414,-56.96799,-0.4675641,6.91079,-72.14028,-8.594284,-36.83611,0,0,0,143.0208,-96.91676,-40.80823,-125.2441,-110.1194,-86.91598,0.001067912,-0.1257102,0.09433498,0,0.3,0,0,0,0,
6.38224E+17,48.0152,0.5143204,24.09438,34.2117,36.96421,-30.53703,-56.96799,-0.4675641,6.91079,-72.21353,-8.594284,-36.83611,0,0,0,139.5837,-97.18477,-42.73531,-125.2441,-110.1194,-86.91598,0.001067912,-0.1257102,0.09433498,0,0.3,0,0,0,0,
6.38224E+17,47.6618,2.150795,20.98919,33.91872,37.76991,-26.94801,-56.96799,-0.4675641,6.91079,-72.21353,-8.521038,-36.83611,0,0,0,133.8075,-96.14738,-46.43141,-125.2441,-110.1194,-86.91598,0.001067912,-0.1257102,0.09433498,0,0.3,0,0,0,0,
6.38224E+17,47.16704,4.16132,18.09413,33.84548,37.84315,-23.06602,-56.96799,-0.4675641,6.91079,-72.21353,-8.594284,-36.83611,0,0,0,127.9047,-93.72899,-49.77222,-125.2441,-110.1194,-86.91598,0.001067912,-0.1257102,0.09433498,0,0.3,0,0,0,0,
6.38224E+17,46.88432,6.592653,15.52593,33.69899,37.40368,-19.84323,-56.96799,-0.4675641,6.91079,-72.21353,-8.594284,-36.90935,0,0,0,122.7546,-89.8241,-53.4153,-125.2441,-110.1194,-86.91598,0.001067912,-0.1257102,0.09433498,0,0.3,0,0,0,0,
6.38224E+17,46.88432,7.971967,14.54535,33.5525,36.96421,-18.52482,-56.96799,-0.4675641,6.91079,-72.21353,-8.594284,-36.83611,0,0,0,120.8486,-87.2319,-55.19983,-125.2441,-110.1194,-86.91598,0.001067912,-0.1257102,0.09433498,0,0.3,0,0,0,0,
6.38224E+17,46.88432,10.89424,13.26125,33.33276,35.6458,-16.10773,-56.96799,-0.4675641,6.91079,-72.21353,-8.594284,-36.83611,0,0,0,117.9173,-81.2414,-57.94437,-125.2441,-110.1194,-86.91598,0.001067912,-0.1257102,0.09433498,0,0.3,0,0,0,0,
6.38224E+17,46.97857,14.2607,12.11723,33.33276,34.10765,-14.42309,-56.96799,-0.4675641,6.91079,-72.14028,-8.594284,-36.90935,0,0,0,114.9526,-74.1803,-61.07457,-125.2441,-110.1194,-86.91598,0.001067912,-0.1257102,0.09433498,0,0.3,0,0,0,0,
6.38224E+17,47.09636,16.03745,11.72033,33.25952,33.15546,-13.83713,-56.96799,-0.4675641,6.91079,-72.14028,-8.594284,-36.90935,0,0,0,113.7193,-70.37975,-62.66208,-125.2441,-110.1194,-86.91598,0.001067912,-0.1257102,0.09433498,0,0.3,0,0,0,0,
6.38224E+17,47.44976,19.66107,11.46351,33.18628,30.73837,-13.25116,-56.96799,-0.4675641,6.91079,-72.21353,-8.521038,-36.83611,0,0,0,112.0336,-62.47353,-65.50925,-125.2441,-110.1194,-86.91598,0.001067912,-0.1257102,0.09433498,0,0.3,0,0,0,0,
6.38224E+17,47.82672,23.33145,11.46351,33.18628,27.66208,-12.95818,-56.96799,-0.4675641,6.91079,-72.14028,-8.594284,-36.83611,0,0,0,110.3883,-54.52666,-68.34981,-125.2441,-110.1194,-86.91598,0.001067912,-0.1257102,0.09433498,0,0.3,0,0,0,0,
6.38224E+17,48.0152,25.24846,11.5102,33.11303,25.90419,-12.95818,-56.96799,-0.4675641,6.91079,-72.14028,-8.594284,-36.83611,0,0,0,109.4316,-50.43853,-69.86989,-125.2441,-110.1194,-86.91598,0.001067912,-0.1257102,0.09433498,0,0.3,0,0,0,0,
6.38224E+17,48.4864,28.49803,12.00049,32.96654,22.46167,-13.39765,-56.96799,-0.4675641,6.91079,-72.21353,-8.594284,-36.83611,0,0,0,108.5148,-43.46065,-72.29827,-125.2441,-110.1194,-86.91598,0.001067912,-0.1257102,0.09433498,0,0.3,0,0,0,0,
6.38224E+17,49.24032,31.2099,13.05112,33.18628,18.9459,-14.20335,-56.96799,-0.4675641,6.91079,-72.21353,-8.594284,-36.83611,0,0,0,109.1977,-37.45682,-74.22707,-125.2441,-110.1194,-86.91598,0.001067912,-0.1257102,0.09433498,0,0.3,0,0,0,0,
6.38224E+17,49.94712,33.47759,14.00836,34.13846,15.72311,-14.71607,-56.96799,-0.4675641,6.91079,-72.21353,-8.594284,-36.83611,0,0,0,109.8473,-32.47694,-76.0043,-125.2441,-110.1194,-86.91598,0.001067912,-0.1257102,0.09433498,0,0.3,0,0,0,0,
6.38224E+17,50.2534,34.48285,14.47531,34.79766,14.25821,-14.64282,-56.96799,-0.4675641,6.91079,-72.14028,-8.594284,-36.83611,0,0,0,110.1438,-30.26949,-76.75539,-125.2441,-110.1194,-86.91598,0.001067912,-0.1257102,0.09433498,0,0.3,0,0,0,0,
6.38224E+17,50.67748,36.56351,15.12903,36.40906,11.69463,-14.49633,-56.96799,-0.4675641,6.91079,-72.14028,-8.594284,-36.90935,0,0,0,109.7802,-25.93977,-78.42387,-125.2441,-110.1194,-86.91598,0.001067912,-0.1257102,0.09433498,0,0.3,0,0,0,0,
6.38224E+17,50.70104,38.66755,15.24576,37.58098,9.204292,-14.13011,-56.96799,-0.4675641,6.91079,-72.21353,-8.594284,-36.83611,0,0,0,107.7072,-21.98983,-80.19591,-125.2441,-110.1194,-86.91598,0.001067912,-0.1257102,0.09433498,0,0.3,0,0,0,0,
6.38224E+17,50.67748,39.81308,15.24576,38.02045,8.105616,-13.76388,-56.96799,-0.4675641,6.91079,-72.21353,-8.594284,-36.90935,0,0,0,106.3663,-19.92497,-81.22032,-125.2441,-110.1194,-86.91598,0.001067912,-0.1257102,0.09433498,0,0.3,0,0,0,0,
6.38224E+17,50.46544,42.05739,15.24576,38.53317,5.981505,-12.95818,-56.96799,-0.4675641,6.91079,-72.14028,-8.594284,-36.83611,0,0,0,103.4038,-15.9792,-83.00565,-125.2441,-110.1194,-86.91598,0.001067912,-0.1257102,0.09433498,0,0.3,0,0,0,0,
6.38224E+17,50.08848,44.23156,15.24576,38.60641,4.296866,-12.44547,-56.96799,-0.4675641,6.91079,-72.21353,-8.594284,-36.83611,0,0,0,100.186,-12.28737,-84.54722,-125.2441,-110.1194,-86.91598,0.001067912,-0.1257102,0.09433498,0,0.3,0,0,0,0,
6.38224E+17,49.61728,46.35898,15.24576,38.16694,2.538982,-11.71302,-56.96799,-0.4675641,6.91079,-72.21353,-8.594284,-36.83611,0,0,0,96.813,-8.804532,-86.00601,-125.2441,-110.1194,-86.91598,0.001067912,-0.1257102,0.09433498,0,0.3,0,0,0,0,
6.38224E+17,49.33456,47.411,15.24576,37.87396,1.66004,-11.34679,-56.96799,-0.4675641,6.91079,-72.21353,-8.594284,-36.90935,0,0,0,95.04977,-7.131115,-86.69399,-125.2441,-110.1194,-86.91598,0.001067912,-0.1257102,0.09433498,0,0.3,0,0,0,0,
6.38224E+17,48.74556,49.21112,15.24576,36.99502,0.4148723,-11.05381,-56.96799,-0.4675641,6.91079,-72.21353,-8.594284,-36.83611,0,0,0,91.85336,-4.344786,-87.78417,-125.2441,-110.1194,-86.91598,0.001067912,-0.1257102,0.09433498,0,0.3,0,0,0,0,
6.38224E+17,47.94452,51.08138,15.24576,35.89634,-0.4640697,-10.90732,-56.96799,-0.4675641,6.91079,-72.14028,-8.594284,-36.83611,0,0,0,88.23704,-1.555486,-88.74617,-125.2441,-110.1194,-86.91598,0.001067912,-0.1257102,0.09433498,0,0.3,0,0,0,0,
6.38224E+17,47.4262,52.06326,15.26911,35.31038,-0.9035407,-10.90732,-56.96799,-0.4675641,6.91079,-72.21353,-8.594284,-36.83611,0,0,0,86.23359,-0.1208706,-89.1269,-125.2441,-110.1194,-86.91598,0.001067912,-0.1257102,0.09433498,0,0.3,0,0,0,0,
6.38224E+17,46.15396,53.95689,15.33915,34.06521,-1.635992,-10.90732,-56.96799,-0.4675641,6.91079,-72.14028,-8.594284,-36.83611,0,0,0,82.02805,2.573759,-89.56132,-125.2441,-110.1194,-86.91598,0.001067912,-0.1257102,0.09433498,0,0.3,0,0,0,0,
6.38224E+17,44.31629,55.80377,15.45589,32.45382,-2.441689,-10.98056,-56.96799,-0.4675641,6.91079,-72.14028,-8.594284,-36.83611,0,0,0,77.18609,5.118609,-89.29945,-125.2441,-110.1194,-86.91598,0.001067912,-0.1257102,0.09433498,0,0.3,0,0,0,0,
6.38224E+17,43.27965,56.64539,15.50258,31.64813,-2.807915,-10.98056,-56.96799,-0.4675641,6.91079,-72.21353,-8.594284,-36.83611,0,0,0,74.69889,6.236562,-89.02503,-125.2441,-110.1194,-86.91598,0.001067912,-0.1257102,0.09433498,0,0.3,0,0,0,0,
6.38224E+17,40.97078,58.30524,15.68936,29.52402,-3.467122,-10.98056,-56.96799,-0.4675641,6.91079,-72.21353,-8.594284,-36.90935,0,0,0,69.58144,8.430426,-88.2232,-125.2441,-110.1194,-86.91598,0.001067912,-0.1257102,0.09433498,0,0.3,0,0,0,0,
6.38224E+17,38.35562,59.66118,15.75941,27.32666,-3.979838,-10.61434,-56.96799,-0.4675641,6.91079,-72.21353,-8.594284,-36.83611,0,0,0,64.27212,10.10072,-87.1296,-125.2441,-110.1194,-86.91598,0.001067912,-0.1257102,0.09433498,0,0.3,0,0,0,0,
6.38224E+17,36.8949,60.24563,15.78275,25.935,-4.272818,-10.24811,-56.96799,-0.4675641,6.91079,-72.21353,-8.594284,-36.90935,0,0,0,61.5053,10.79657,-86.41743,-125.2441,-110.1194,-86.91598,0.001067912,-0.1257102,0.09433498,0,0.3,0,0,0,0,
6.38224E+17,34.04414,60.94698,15.75941,23.29818,-4.932025,-9.442415,-56.96799,-0.4675641,6.91079,-72.21353,-8.594284,-36.83611,0,0,0,56.52894,11.5832,-84.68153,-125.2441,-110.1194,-86.91598,0.001067912,-0.1257102,0.09433498,0,0.3,0,0,0,0,
6.38224E+17,31.24051,60.94698,15.43254,20.5881,-5.371496,-8.490229,-56.96799,-0.4675641,6.91079,-72.21353,-8.594284,-36.83611,0,0,0,51.98877,11.37867,-82.64314,-125.2441,-110.1194,-86.91598,0.001067912,-0.1257102,0.09433498,0,0.3,0,0,0,0,
6.38224E+17,28.24839,60.45603,14.75547,17.29207,-5.517986,-7.318305,-56.96799,-0.4675641,6.91079,-72.21353,-8.594284,-36.90935,0,0,0,47.19565,10.40918,-80.50871,-125.2441,-110.1194,-86.91598,0.001067912,-0.1257102,0.09433498,0,0.3,0,0,0,0,
6.38224E+17,26.92904,60.01184,14.35857,15.31445,-5.591231,-6.732344,-56.96799,-0.4675641,6.91079,-72.21353,-8.594284,-36.90935,0,0,0,45.16208,9.66376,-79.44238,-125.2441,-110.1194,-86.91598,0.001067912,-0.1257102,0.09433498,0,0.3,0,0,0,0,
6.38224E+17,24.92644,58.7728,13.56476,12.01842,-5.517986,-5.560421,-56.96799,-0.4675641,6.91079,-72.21353,-8.594284,-36.83611,0,0,0,42.31802,7.749761,-77.29366,-125.2441,-110.1194,-86.91598,0.001067912,-0.1257102,0.09433498,0,0.3,0,0,0,0,
6.38224E+17,23.15944,57.04282,12.63087,9.088613,-5.15176,-4.681479,-56.96799,-0.4675641,6.91079,-72.21353,-8.594284,-36.83611,0,0,0,39.9991,5.118154,-74.84235,-125.2441,-110.1194,-86.91598,0.001067912,-0.1257102,0.09433498,0,0.3,0,0,0,0,
6.38224E+17,22.40552,56.22458,12.18727,7.989935,-4.85878,-4.388499,-56.96799,-0.4675641,6.91079,-72.21353,-8.594284,-36.83611,0,0,0,38.98716,3.848925,-73.78593,-125.2441,-110.1194,-86.91598,0.001067912,-0.1257102,0.09433498,0,0.3,0,0,0,0,
6.38224E+17,20.73277,54.3777,11.23003,5.646089,-3.979838,-3.802537,-56.96799,-0.4675641,6.91079,-72.14028,-8.594284,-36.90935,0,0,0,36.68887,0.9499917,-71.42341,-125.2441,-110.1194,-86.91598,0.001067912,-0.1257102,0.09433498,0,0.3,0,0,0,0,
6.38224E+17,18.98933,52.5542,10.34284,3.155754,-3.027651,-3.436311,-56.96799,-0.4675641,6.91079,-72.21353,-8.594284,-36.83611,0,0,0,34.17254,-1.962793,-69.04566,-125.2441,-110.1194,-86.91598,0.001067912,-0.1257102,0.09433498,0,0.3,0,0,0,0,
6.38224E+17,17.19877,50.5203,9.525684,0.1527017,-2.148709,-3.289821,-56.96799,-0.4675641,6.91079,-72.21353,-8.594284,-36.83611,0,0,0,31.59499,-5.235126,-66.27532,-125.2441,-110.1194,-86.91598,0.001067912,-0.1257102,0.09433498,0,0.3,0,0,0,0,
6.38224E+17,16.39773,49.37476,9.058739,-1.312202,-1.635992,-3.289821,-56.96799,-0.4675641,6.91079,-72.21353,-8.594284,-36.83611,0,0,0,30.43821,-7.126187,-64.91472,-125.2441,-110.1194,-86.91598,0.001067912,-0.1257102,0.09433498,0,0.3,0,0,0,0,
6.38224E+17,15.26685,47.13046,8.101501,-4.242009,-0.7570504,-3.216576,-56.96799,-0.4675641,6.91079,-72.21353,-8.594284,-36.83611,0,0,0,28.8369,-10.93633,-62.69996,-125.2441,-110.1194,-86.91598,0.001067912,-0.1257102,0.09433498,0,0.3,0,0,0,0,
6.38224E+17,14.48938,44.53548,7.00418,-6.878834,0.1951368,-3.582802,-56.96799,-0.4675641,6.91079,-72.21353,-8.594284,-36.83611,0,0,0,27.85106,-15.47972,-60.57549,-125.2441,-110.1194,-86.91598,0.001067912,-0.1257102,0.09433498,0,0.3,0,0,0,0,
6.38224E+17,14.27734,43.31981,6.443846,-7.977511,0.7810982,-3.949028,-56.96799,-0.4675641,6.91079,-72.14028,-8.594284,-36.83611,0,0,0,27.61668,-17.67011,-59.82611,-125.2441,-110.1194,-86.91598,0.001067912,-0.1257102,0.09433498,0,0.3,0,0,0,0,
6.38224E+17,14.1831,40.37416,4.972968,-9.735395,2.026266,-5.120951,-56.96799,-0.4675641,6.91079,-72.21353,-8.594284,-36.83611,0,0,0,27.72408,-23.11706,-58.64942,-125.2441,-110.1194,-86.91598,0.001067912,-0.1257102,0.09433498,0,0.3,0,0,0,0,
6.38224E+17,14.1831,37.54539,3.642174,-10.83407,3.564415,-6.439363,-56.96799,-0.4675641,6.91079,-72.21353,-8.594284,-36.83611,0,0,0,27.98154,-28.46854,-57.6307,-125.2441,-110.1194,-86.91598,0.001067912,-0.1257102,0.09433498,0,0.3,0,0,0,0,
6.38224E+17,14.20666,36.28297,3.081839,-11.27355,4.443357,-7.025325,-56.96799,-0.4675641,6.91079,-72.21353,-8.521038,-36.83611,0,0,0,28.14064,-30.89413,-57.19357,-125.2441,-110.1194,-86.91598,0.001067912,-0.1257102,0.09433498,0,0.3,0,0,0,0,
6.38224E+17,14.20666,33.87502,2.077907,-11.78626,6.420976,-8.197248,-56.96799,-0.4675641,6.91079,-72.21353,-8.594284,-36.83611,0,0,0,28.35819,-35.58527,-56.33426,-125.2441,-110.1194,-86.91598,0.001067912,-0.1257102,0.09433498,0,0.3,0,0,0,0,
6.38224E+17,14.08886,32.37881,1.587614,-11.71302,8.105616,-8.783209,-56.96799,-0.4675641,6.91079,-72.21353,-8.594284,-36.83611,0,0,0,28.31343,-38.53795,-55.53666,-125.2441,-110.1194,-86.91598,0.001067912,-0.1257102,0.09433498,0,0.3,0,0,0,0,
6.38224E+17,13.21714,31.7476,1.400836,-11.56653,9.717009,-8.929699,-56.96799,-0.4675641,6.91079,-72.21353,-8.594284,-36.83611,0,0,0,26.67279,-39.79427,-54.78281,-125.2441,-110.1194,-86.91598,0.001067912,-0.1257102,0.09433498,0,0.3,0,0,0,0,
6.38224E+17,12.55746,31.70084,1.400836,-11.85951,10.30297,-9.002944,-56.96799,-0.4675641,6.91079,-72.21353,-8.594284,-36.83611,0,0,0,25.37593,-39.88683,-54.42739,-125.2441,-110.1194,-86.91598,0.001067912,-0.1257102,0.09433498,0,0.3,0,0,0,0,
6.38224E+17,10.83758,31.65409,1.424183,-12.88494,10.81569,-9.588906,-56.96799,-0.4675641,6.91079,-72.21353,-8.594284,-36.83611,0,0,0,21.96629,-39.9781,-53.60762,-125.2441,-110.1194,-86.91598,0.001067912,-0.1257102,0.09433498,0,0.3,0,0,0,0,
6.38224E+17,8.882105,31.63071,1.587614,-14.64282,10.88893,-10.46785,-56.96799,-0.4675641,6.91079,-72.21353,-8.594284,-36.90935,0,0,0,18.10127,-40.01443,-52.52101,-125.2441,-110.1194,-86.91598,0.001067912,-0.1257102,0.09433498,0,0.3,0,0,0,0,
6.38224E+17,7.586308,31.63071,1.751045,-15.96124,10.88893,-10.98056,-56.96799,-0.4675641,6.91079,-72.21353,-8.594284,-36.90935,0,0,0,15.52748,-40.00335,-51.76441,-125.2441,-110.1194,-86.91598,0.001067912,-0.1257102,0.09433498,0,0.3,0,0,0,0,
6.38224E+17,4.947592,31.63071,2.101254,-18.8178,10.81569,-11.93275,-56.96799,-0.4675641,6.91079,-72.21353,-8.594284,-36.83611,0,0,0,10.21391,-39.97595,-50.3616,-125.2441,-110.1194,-86.91598,0.001067912,-0.1257102,0.09433498,0,0.3,0,0,0,0,
6.38224E+17,2.426676,31.65409,2.591547,-22.11383,10.6692,-13.32441,-56.96799,-0.4675641,6.91079,-72.14028,-8.594284,-36.83611,0,0,0,5.061476,-39.88291,-48.91592,-125.2441,-110.1194,-86.91598,0.001067912,-0.1257102,0.09433498,0,0.3,0,0,0,0,
6.38224E+17,-0.1649197,31.77098,3.24527,-25.04364,10.6692,-14.2766,-56.96799,-0.4675641,6.91079,-72.21353,-8.594284,-36.90935,0,0,0,-0.3480483,-39.57401,-47.43274,-125.2441,-110.1194,-86.91598,0.001067912,-0.1257102,0.09433498,0,0.3,0,0,0,0,
6.38224E+17,-1.649197,31.93463,3.665521,-26.58179,10.59595,-14.64282,-56.96799,-0.4675641,6.91079,-72.14028,-8.594284,-36.83611,0,0,0,-3.50232,-39.19155,-46.70734,-125.2441,-110.1194,-86.91598,0.001067912,-0.1257102,0.09433498,0,0.3,0,0,0,0,
6.38224E+17,-4.688432,32.44894,4.646106,-30.1708,10.30297,-15.37527,-56.96799,-0.4675641,6.91079,-72.21353,-8.594284,-36.90935,0,0,0,-10.08078,-38.01315,-45.43114,-125.2441,-110.1194,-86.91598,0.001067912,-0.1257102,0.09433498,0,0.3,0,0,0,0,
6.38224E+17,-7.232908,33.33732,5.906858,-33.39359,10.00999,-15.96124,-56.96799,-0.4675641,6.91079,-72.21353,-8.521038,-36.83611,0,0,0,-15.75431,-36.00721,-44.21525,-125.2441,-110.1194,-86.91598,0.001067912,-0.1257102,0.09433498,0,0.3,0,0,0,0,
6.38224E+17,-8.528707,34.13218,6.817402,-35.15147,9.790254,-16.10773,-56.96799,-0.4675641,6.91079,-72.21353,-8.521038,-36.83611,0,0,0,-18.71745,-34.23394,-43.53643,-125.2441,-110.1194,-86.91598,0.001067912,-0.1257102,0.09433498,0,0.3,0,0,0,0,
6.38224E+17,-10.74334,36.11932,8.871961,-38.4475,8.911312,-16.18097,-56.96799,-0.4675641,6.91079,-72.21353,-8.594284,-36.83611,0,0,0,-23.91361,-29.79886,-42.31347,-125.2441,-110.1194,-86.91598,0.001067912,-0.1257102,0.09433498,0,0.3,0,0,0,0,
6.38224E+17,-12.62814,38.36363,11.08995,-41.59705,7.592898,-16.18097,-56.96799,-0.4675641,6.91079,-72.21353,-8.594284,-36.90935,0,0,0,-28.46638,-24.74617,-41.29186,-125.2441,-110.1194,-86.91598,0.001067912,-0.1257102,0.09433498,0,0.3,0,0,0,0,
6.38224E+17,-13.52342,39.62605,12.28066,-42.9887,7.006938,-16.10773,-56.96799,-0.4675641,6.91079,-72.14028,-8.594284,-36.83611,0,0,0,-30.65045,-21.90141,-40.91117,-125.2441,-110.1194,-86.91598,0.001067912,-0.1257102,0.09433498,0,0.3,0,0,0,0,
6.38224E+17,-15.31397,42.38468,15.08233,-45.69878,5.542034,-15.66825,-56.96799,-0.4675641,6.91079,-72.14028,-8.594284,-36.83611,0,0,0,-35.17807,-15.51459,-39.88374,-125.2441,-110.1194,-86.91598,0.001067912,-0.1257102,0.09433498,0,0.3,0,0,0,0,
6.38224E+17,-16.98673,45.16669,18.00074,-48.3356,4.003886,-14.49633,-56.96799,-0.4675641,6.91079,-72.21353,-8.594284,-36.83611,0,0,0,-39.50661,-8.906241,-39.0226,-125.2441,-110.1194,-86.91598,0.001067912,-0.1257102,0.09433498,0,0.3,0,0,0,0,
6.38224E+17,-18.35321,47.66816,20.75572,-50.67944,2.246002,-12.95818,-56.96799,-0.4675641,6.91079,-72.21353,-8.594284,-36.83611,0,0,0,-43.15606,-2.765651,-38.2635,-125.2441,-110.1194,-86.91598,0.001067912,-0.1257102,0.09433498,0,0.3,0,0,0,0,
6.38224E+17,-19.03645,48.83707,22.13321,-51.63163,1.440305,-12.006,-56.96799,-0.4675641,6.91079,-72.21353,-8.594284,-36.83611,0,0,0,-45.01545,0.2178363,-37.8853,-125.2441,-110.1194,-86.91598,0.001067912,-0.1257102,0.09433498,0,0.3,0,0,0,0,
6.38224E+17,-20.35581,51.15151,24.93488,-53.60925,-0.2443342,-10.24811,-56.96799,-0.4675641,6.91079,-72.21353,-8.594284,-36.83611,0,0,0,-48.65165,6.283845,-37.22015,-125.2441,-110.1194,-86.91598,0.001067912,-0.1257102,0.09433498,0,0.3,0,0,0,0,
6.38224E+17,-21.46313,53.16203,27.47973,-55.58687,-1.709238,-8.783209,-56.96799,-0.4675641,6.91079,-72.21353,-8.521038,-36.83611,0,0,0,-51.76891,11.76991,-36.67851,-125.2441,-110.1194,-86.91598,0.001067912,-0.1257102,0.09433498,0,0.3,0,0,0,0,
6.38224E+17,-21.98145,54.09716,28.83387,-56.53906,-2.368444,-7.831022,-56.96799,-0.4675641,6.91079,-72.21353,-8.521038,-36.83611,0,0,0,-53.34203,14.54768,-36.20065,-125.2441,-110.1194,-86.91598,0.001067912,-0.1257102,0.09433498,0,0.3,0,0,0,0,
6.38224E+17,-23.13588,55.68688,31.6122,-58.58992,-3.613612,-5.999893,-56.96799,-0.4675641,6.91079,-72.21353,-8.594284,-36.90935,0,0,0,-56.99955,19.93009,-34.94798,-125.2441,-110.1194,-86.91598,0.001067912,-0.1257102,0.09433498,0,0.3,0,0,0,0,
6.38224E+17,-24.26676,56.64539,34.20374,-60.56754,-4.712289,-3.875783,-56.96799,-0.4675641,6.91079,-72.21353,-8.594284,-36.83611,0,0,0,-60.9407,24.44878,-33.17227,-125.2441,-110.1194,-86.91598,0.001067912,-0.1257102,0.09433498,0,0.3,0,0,0,0,
6.38224E+17,-24.90288,56.94931,35.53454,-61.51973,-5.078516,-2.630615,-56.96799,-0.4675641,6.91079,-72.21353,-8.594284,-36.90935,0,0,0,-63.25851,26.60681,-32.08913,-125.2441,-110.1194,-86.91598,0.001067912,-0.1257102,0.09433498,0,0.3,0,0,0,0,
6.38224E+17,-26.31648,57.06619,37.93931,-63.71709,-5.517986,-0.3600145,-56.96799,-0.4675641,6.91079,-72.21353,-8.594284,-36.90935,0,0,0,-68.48788,30.10241,-29.87557,-125.2441,-110.1194,-86.91598,0.001067912,-0.1257102,0.09433498,0,0.3,0,0,0,0,
6.38224E+17,-27.70651,56.92593,39.85378,-66.06093,-5.664476,1.251379,-56.96799,-0.4675641,6.91079,-72.21353,-8.594284,-36.90935,0,0,0,-73.56644,32.72229,-28.26527,-125.2441,-110.1194,-86.91598,0.001067912,-0.1257102,0.09433498,0,0.3,0,0,0,0,
6.38224E+17,-28.81383,56.57525,41.18458,-68.11179,-5.517986,2.130321,-56.96799,-0.4675641,6.91079,-72.21353,-8.594284,-36.83611,0,0,0,-77.72359,34.28708,-27.05211,-125.2441,-110.1194,-86.91598,0.001067912,-0.1257102,0.09433498,0,0.3,0,0,0,0,
6.38224E+17,-29.26147,56.38823,41.72157,-68.99074,-5.225006,2.423302,-56.96799,-0.4675641,6.91079,-72.21353,-8.594284,-36.90935,0,0,0,-79.46039,34.87407,-26.52988,-125.2441,-110.1194,-86.91598,0.001067912,-0.1257102,0.09433498,0,0.3,0,0,0,0,
6.38224E+17,-29.92115,56.08431,42.53872,-70.30915,-4.785534,2.716283,-56.96799,-0.4675641,6.91079,-72.21353,-8.594284,-36.83611,0,0,0,-82.08479,35.75673,-25.72204,-125.2441,-110.1194,-86.91598,0.001067912,-0.1257102,0.09433498,0,0.3,0,0,0,0,
6.38224E+17,-30.65151,55.4531,43.02901,-71.33459,-4.346064,2.789528,-56.96799,-0.4675641,6.91079,-72.21353,-8.594284,-36.90935,0,0,0,-84.94235,35.70541,-25.01458,-125.2441,-110.1194,-86.91598,0.001067912,-0.1257102,0.09433498,0,0.3,0,0,0,0,
6.38224E+17,-31.02847,54.96216,43.1224,-71.77406,-4.126328,2.862773,-56.96799,-0.4675641,6.91079,-72.21353,-8.594284,-36.83611,0,0,0,-86.44905,35.20187,-24.63641,-125.2441,-110.1194,-86.91598,0.001067912,-0.1257102,0.09433498,0,0.3,0,0,0,0,
6.38224E+17,-31.97087,53.55946,43.1224,-72.653,-3.393876,2.862773,-56.96799,-0.4675641,6.91079,-72.21353,-8.594284,-36.83611,0,0,0,-90.20407,33.29506,-23.82984,-125.2441,-110.1194,-86.91598,0.001067912,-0.1257102,0.09433498,0,0.3,0,0,0,0,
6.38224E+17,-33.10175,51.61907,42.86558,-73.97141,-2.441689,2.350057,-56.96799,-0.4675641,6.91079,-72.21353,-8.594284,-36.90935,0,0,0,-94.75896,30.14398,-22.99973,-125.2441,-110.1194,-86.91598,0.001067912,-0.1257102,0.09433498,0,0.3,0,0,0,0,
6.38224E+17,-33.66718,50.45016,42.56207,-74.70387,-1.855728,1.471115,-56.96799,-0.4675641,6.91079,-72.21353,-8.594284,-36.83611,0,0,0,-97.07363,27.95403,-22.61347,-125.2441,-110.1194,-86.91598,0.001067912,-0.1257102,0.09433498,0,0.3,0,0,0,0,
6.38224E+17,-34.72738,47.99545,41.65152,-75.87578,-0.09784385,-0.7262403,-56.96799,-0.4675641,6.91079,-72.21353,-8.594284,-36.83611,0,0,0,-101.3223,22.80206,-22.17135,-125.2441,-110.1194,-86.91598,0.001067912,-0.1257102,0.09433498,0,0.3,0,0,0,0,
6.38224E+17,-35.62266,45.37709,40.48416,-76.60824,1.440305,-2.484124,-56.96799,-0.4675641,6.91079,-72.21353,-8.594284,-36.83611,0,0,0,-104.9832,16.83715,-21.83341,-125.2441,-110.1194,-86.91598,0.001067912,-0.1257102,0.09433498,0,0.3,0,0,0,0,
6.38224E+17,-36.37658,42.43144,39.41019,-77.04771,3.271434,-4.242009,-56.96799,-0.4675641,6.91079,-72.21353,-8.594284,-36.83611,0,0,0,-108.5848,10.29327,-20.94299,-125.2441,-110.1194,-86.91598,0.001067912,-0.1257102,0.09433498,0,0.3,0,0,0,0,
6.38224E+17,-36.6593,40.98199,38.8732,-77.1942,4.296866,-5.194195,-56.96799,-0.4675641,6.91079,-72.21353,-8.594284,-36.83611,0,0,0,-110.0721,6.985948,-20.45775,-125.2441,-110.1194,-86.91598,0.001067912,-0.1257102,0.09433498,0,0.3,0,0,0,0,
6.38224E+17,-37.08338,37.94283,37.68249,-77.48718,6.127995,-6.878834,-56.96799,-0.4675641,6.91079,-72.21353,-8.594284,-36.90935,0,0,0,-112.5625,-0.1910245,-19.42598,-125.2441,-110.1194,-86.91598,0.001067912,-0.1257102,0.09433498,0,0.3,0,0,0,0,
6.38224E+17,-37.55458,34.41272,36.46843,-77.70691,7.739389,-9.295925,-56.96799,-0.4675641,6.91079,-72.21353,-8.594284,-36.90935,0,0,0,-115.3649,-8.525237,-18.29969,-125.2441,-110.1194,-86.91598,0.001067912,-0.1257102,0.09433498,0,0.3,0,0,0,0,
6.38224E+17,-37.86086,32.47232,35.90809,-77.8534,8.691576,-11.2003,-56.96799,-0.4675641,6.91079,-72.21353,-8.594284,-36.83611,0,0,0,-117.0468,-13.06344,-17.78468,-125.2441,-110.1194,-86.91598,0.001067912,-0.1257102,0.09433498,0,0.3,0,0,0,0,
6.38224E+17,-38.26138,28.77857,34.99755,-78.21963,10.59595,-15.00905,-56.96799,-0.4675641,6.91079,-72.21353,-8.594284,-36.83611,0,0,0,-119.7389,-21.68906,-16.5239,-125.2441,-110.1194,-86.91598,0.001067912,-0.1257102,0.09433498,0,0.3,0,0,0,0,
6.38224E+17,-38.44986,24.85103,34.20374,-78.36612,12.1341,-18.15859,-56.96799,-0.4675641,6.91079,-72.21353,-8.594284,-36.83611,0,0,0,-121.8558,-30.89457,-14.88083,-125.2441,-110.1194,-86.91598,0.001067912,-0.1257102,0.09433498,0,0.3,0,0,0,0,
6.38224E+17,-38.49697,23.05091,33.90023,-78.29288,12.86655,-19.33051,-56.96799,-0.4675641,6.91079,-72.21353,-8.594284,-36.83611,0,0,0,-122.6763,-35.1188,-14.1081,-125.2441,-110.1194,-86.91598,0.001067912,-0.1257102,0.09433498,0,0.3,0,0,0,0,
6.38224E+17,-38.52053,19.42729,33.17647,-78.07314,14.11172,-21.16164,-56.96799,-0.4675641,6.91079,-72.21353,-8.594284,-36.83611,0,0,0,-123.7677,-43.90892,-12.86714,-125.2441,-110.1194,-86.91598,0.001067912,-0.1257102,0.09433498,0,0.3,0,0,0,0,
6.38224E+17,-38.49697,16.29461,32.10249,-77.56042,15.43013,-23.06602,-56.96799,-0.4675641,6.91079,-72.21353,-8.594284,-36.90935,0,0,0,-123.7853,-52.19577,-12.71364,-125.2441,-110.1194,-86.91598,0.001067912,-0.1257102,0.09433498,0,0.3,0,0,0,0,
6.38224E+17,-38.1907,13.44247,30.53822,-76.90121,16.89503,-25.55635,-56.96799,-0.4675641,6.91079,-72.21353,-8.594284,-36.83611,0,0,0,-122.0818,-60.50335,-13.1599,-125.2441,-110.1194,-86.91598,0.001067912,-0.1257102,0.09433498,0,0.3,0,0,0,0,
6.38224E+17,-37.93154,12.13329,29.51094,-76.46174,17.62749,-27.02126,-56.96799,-0.4675641,6.91079,-72.21353,-8.594284,-36.83611,0,0,0,-120.5207,-64.67101,-13.71008,-125.2441,-110.1194,-86.91598,0.001067912,-0.1257102,0.09433498,0,0.3,0,0,0,0,
6.38224E+17,-37.22474,9.88898,27.3163,-75.28983,18.9459,-29.87782,-56.96799,-0.4675641,6.91079,-72.14028,-8.594284,-36.83611,0,0,0,-116.4899,-72.22823,-15.0178,-125.2441,-110.1194,-86.91598,0.001067912,-0.1257102,0.09433498,0,0.3,0,0,0,0,
6.38224E+17,-36.32946,7.621294,25.12166,-73.97141,20.19107,-32.95412,-56.96799,-0.4675641,6.91079,-72.21353,-8.594284,-36.83611,0,0,0,-111.8412,-79.7007,-16.26059,-125.2441,-110.1194,-86.91598,0.001067912,-0.1257102,0.09433498,0,0.3,0,0,0,0,
6.38224E+17,-35.88182,6.545897,24.07103,-73.38544,20.77703,-34.49226,-56.96799,-0.4675641,6.91079,-72.21353,-8.521038,-36.83611,0,0,0,-109.5274,-83.20218,-16.94277,-125.2441,-110.1194,-86.91598,0.001067912,-0.1257102,0.09433498,0,0.3,0,0,0,0,
6.38224E+17,-34.91586,4.652263,22.15656,-72.36002,21.65597,-37.93478,-56.96799,-0.4675641,6.91079,-72.14028,-8.594284,-36.83611,0,0,0,-104.8599,-89.33725,-18.12549,-125.2441,-110.1194,-86.91598,0.001067912,-0.1257102,0.09433498,0,0.3,0,0,0,0,
6.38224E+17,-33.85566,3.015788,20.42886,-71.48107,22.46167,-40.86459,-56.96799,-0.4675641,6.91079,-72.21353,-8.594284,-36.83611,0,0,0,-100.1171,-94.59743,-19.11069,-125.2441,-110.1194,-86.91598,0.001067912,-0.1257102,0.09433498,0,0.3,0,0,0,0,
6.38224E+17,-32.74835,1.542961,18.63112,-70.52889,23.19412,-43.20844,-56.96799,-0.4675641,6.91079,-72.21353,-8.594284,-36.83611,0,0,0,-95.15504,-99.42115,-20.40554,-125.2441,-110.1194,-86.91598,0.001067912,-0.1257102,0.09433498,0,0.3,0,0,0,0,
6.38224E+17,-32.18291,0.8649935,17.81396,-69.94292,23.4871,-44.16063,-56.96799,-0.4675641,6.91079,-72.21353,-8.594284,-36.83611,0,0,0,-92.7459,-101.5934,-20.97453,-125.2441,-110.1194,-86.91598,0.001067912,-0.1257102,0.09433498,0,0.3,0,0,0,0,
6.38224E+17,-31.05203,-0.3974294,16.29639,-68.69775,24.14631,-45.62553,-56.96799,-0.4675641,6.91079,-72.21353,-8.594284,-36.83611,0,0,0,-88.08369,-105.5674,-22.05521,-125.2441,-110.1194,-86.91598,0.001067912,-0.1257102,0.09433498,0,0.3,0,0,0,0,
6.38224E+17,-29.89759,-1.028641,14.59204,-67.52583,24.73227,-46.43123,-56.96799,-0.4675641,6.91079,-72.21353,-8.594284,-36.83611,0,0,0,-83.2035,-108.0926,-23.6406,-125.2441,-110.1194,-86.91598,0.001067912,-0.1257102,0.09433498,0,0.3,0,0,0,0,
6.38224E+17,-29.33215,-1.005263,13.44803,-66.72014,25.09849,-46.72421,-56.96799,-0.4675641,6.91079,-72.21353,-8.594284,-36.90935,0,0,0,-80.50639,-108.6832,-25.07774,-125.2441,-110.1194,-86.91598,0.001067912,-0.1257102,0.09433498,0,0.3,0,0,0,0,
6.38224E+17,-27.91855,-1.005263,11.41681,-64.96225,25.39147,-46.87069,-56.96799,-0.4675641,6.91079,-72.21353,-8.594284,-36.90935,0,0,0,-74.786,-109.7009,-27.21436,-125.2441,-110.1194,-86.91598,0.001067912,-0.1257102,0.09433498,0,0.3,0,0,0,0,
6.38224E+17,-26.26936,-0.9117499,9.035392,-62.98463,25.61121,-46.87069,-56.96799,-0.4675641,6.91079,-72.14028,-8.521038,-36.83611,0,0,0,-68.28083,-110.4672,-30.00801,-125.2441,-110.1194,-86.91598,0.001067912,-0.1257102,0.09433498,0,0.3,0,0,0,0,
6.38224E+17,-25.3034,-0.7013461,7.681251,-61.66622,25.97744,-46.72421,-56.96799,-0.4675641,6.91079,-72.21353,-8.594284,-36.83611,0,0,0,-64.60915,-110.4357,-31.68926,-125.2441,-110.1194,-86.91598,0.001067912,-0.1257102,0.09433498,0,0.3,0,0,0,0,
6.38224E+17,-23.20656,0.2571602,4.669453,-58.15046,26.70989,-44.96632,-56.96799,-0.4675641,6.91079,-72.14028,-8.594284,-36.83611,0,0,0,-56.8233,-108.9589,-35.81324,-125.2441,-110.1194,-86.91598,0.001067912,-0.1257102,0.09433498,0,0.3,0,0,0,0,
6.38224E+17,-20.87413,1.472827,2.147949,-53.90223,27.2226,-41.37731,-56.96799,-0.4675641,6.91079,-72.21353,-8.594284,-36.90935,0,0,0,-49.2799,-106.4788,-39.12361,-125.2441,-110.1194,-86.91598,0.001067912,-0.1257102,0.09433498,0,0.3,0,0,0,0,
6.38224E+17,-18.37677,3.132679,0.1167363,-48.77507,27.51558,-36.39664,-56.96799,-0.4675641,6.91079,-72.21353,-8.594284,-36.83611,0,0,0,-42.06332,-102.7124,-41.7316,-125.2441,-110.1194,-86.91598,0.001067912,-0.1257102,0.09433498,0,0.3,0,0,0,0,
6.38224E+17,-17.17521,4.231455,-0.7471125,-45.91851,27.44234,-33.54007,-56.96799,-0.4675641,6.91079,-72.21353,-8.594284,-36.90935,0,0,0,-38.75676,-100.1493,-42.95511,-125.2441,-110.1194,-86.91598,0.001067912,-0.1257102,0.09433498,0,0.3,0,0,0,0,
6.38224E+17,-14.84277,6.709544,-2.007865,-40.13214,26.70989,-27.0945,-56.96799,-0.4675641,6.91079,-72.21353,-8.594284,-36.83611,0,0,0,-32.72913,-94.33802,-44.84863,-125.2441,-110.1194,-86.91598,0.001067912,-0.1257102,0.09433498,0,0.3,0,0,0,0,
6.38224E+17,-12.93442,9.421416,-2.614894,-34.63876,25.46472,-20.2827,-56.96799,-0.4675641,6.91079,-72.14028,-8.594284,-36.83611,0,0,0,-28.08409,-88.03246,-46.06603,-125.2441,-110.1194,-86.91598,0.001067912,-0.1257102,0.09433498,0,0.3,0,0,0,0,
6.38224E+17,-12.20406,10.80073,-2.73163,-32.29491,24.73227,-17.2064,-56.96799,-0.4675641,6.91079,-72.21353,-8.594284,-36.83611,0,0,0,-26.34657,-84.85951,-46.53407,-125.2441,-110.1194,-86.91598,0.001067912,-0.1257102,0.09433498,0,0.3,0,0,0,0,
6.38224E+17,-10.83758,14.02692,-2.73163,-27.97344,22.97438,-11.85951,-56.96799,-0.4675641,6.91079,-72.21353,-8.594284,-36.83611,0,0,0,-23.13064,-77.5274,-47.52556,-125.2441,-110.1194,-86.91598,0.001067912,-0.1257102,0.09433498,0,0.3,0,0,0,0,
6.38224E+17,-9.565345,17.37,-2.451463,-24.23794,20.85028,-7.318305,-56.96799,-0.4675641,6.91079,-72.21353,-8.594284,-36.90935,0,0,0,-20.20074,-70.06749,-48.47513,-125.2441,-110.1194,-86.91598,0.001067912,-0.1257102,0.09433498,0,0.3,0,0,0,0,
6.38224E+17,-8.316667,20.87674,-1.891129,-20.50244,18.35994,-3.143331,-56.96799,-0.4675641,6.91079,-72.14028,-8.594284,-36.83611,0,0,0,-17.38547,-62.40694,-49.41913,-125.2441,-110.1194,-86.91598,0.001067912,-0.1257102,0.09433498,0,0.3,0,0,0,0,
6.38224E+17,-7.727668,22.81713,-1.44753,-18.74455,17.04152,-1.312202,-56.96799,-0.4675641,6.91079,-72.21353,-8.594284,-36.83611,0,0,0,-16.07477,-58.2455,-49.88929,-125.2441,-110.1194,-86.91598,0.001067912,-0.1257102,0.09433498,0,0.3,0,0,0,0,
6.38224E+17,-6.785269,26.72129,-0.2334726,-15.59501,14.03847,2.716283,-56.96799,-0.4675641,6.91079,-72.21353,-8.594284,-36.83611,0,0,0,-14.00835,-50.03795,-50.61502,-125.2441,-110.1194,-86.91598,0.001067912,-0.1257102,0.09433498,0,0.3,0,0,0,0,
6.38224E+17,-6.29051,30.34491,1.120669,-13.03143,10.6692,6.305296,-56.96799,-0.4675641,6.91079,-72.21353,-8.594284,-36.83611,0,0,0,-12.89516,-42.60551,-51.36949,-125.2441,-110.1194,-86.91598,0.001067912,-0.1257102,0.09433498,0,0.3,0,0,0,0,
6.38224E+17,-6.12559,32.02814,1.774392,-12.07924,9.057802,7.696954,-56.96799,-0.4675641,6.91079,-72.21353,-8.594284,-36.83611,0,0,0,-12.50423,-39.21579,-51.83751,-125.2441,-110.1194,-86.91598,0.001067912,-0.1257102,0.09433498,0,0.3,0,0,0,0,
6.38224E+17,-5.607271,35.79203,3.291965,-10.46785,5.542034,10.48027,-56.96799,-0.4675641,6.91079,-72.21353,-8.594284,-36.90935,0,0,0,-11.31704,-31.7909,-53.08051,-125.2441,-110.1194,-86.91598,0.001067912,-0.1257102,0.09433498,0,0.3,0,0,0,0,
6.38224E+17,-4.853352,39.01822,4.78619,-8.856454,2.099511,13.19034,-56.96799,-0.4675641,6.91079,-72.21353,-8.594284,-36.83611,0,0,0,-9.706993,-25.58218,-54.02924,-125.2441,-110.1194,-86.91598,0.001067912,-0.1257102,0.09433498,0,0.3,0,0,0,0,
6.38224E+17,-4.570632,40.63132,5.650038,-7.977511,0.3416272,14.582,-56.96799,-0.4675641,6.91079,-72.21353,-8.594284,-36.90935,0,0,0,-9.110726,-22.51609,-54.38363,-125.2441,-110.1194,-86.91598,0.001067912,-0.1257102,0.09433498,0,0.3,0,0,0,0,
6.38224E+17,-4.335033,43.95102,7.611208,-6.439363,-3.174141,17.36532,-56.96799,-0.4675641,6.91079,-72.21353,-8.594284,-36.83611,0,0,0,-8.591786,-16.27448,-55.00983,-125.2441,-110.1194,-86.91598,0.001067912,-0.1257102,0.09433498,0,0.3,0,0,0,0,
6.38224E+17,-4.264353,46.92005,9.292212,-5.487176,-6.836399,20.14863,-56.96799,-0.4675641,6.91079,-72.21353,-8.594284,-36.90935,0,0,0,-8.373672,-10.85111,-56.0493,-125.2441,-110.1194,-86.91598,0.001067912,-0.1257102,0.09433498,0,0.3,0,0,0,0,
6.38224E+17,-4.052313,49.58517,10.97322,-4.82797,-10.27892,22.1995,-56.96799,-0.4675641,6.91079,-72.21353,-8.594284,-36.83611,0,0,0,-7.903162,-6.033107,-56.79334,-125.2441,-110.1194,-86.91598,0.001067912,-0.1257102,0.09433498,0,0.3,0,0,0,0,
6.38224E+17,-3.793154,50.70732,11.69698,-4.534989,-11.67058,23.15168,-56.96799,-0.4675641,6.91079,-72.21353,-8.594284,-36.83611,0,0,0,-7.375118,-4.028401,-57.11126,-125.2441,-110.1194,-86.91598,0.001067912,-0.1257102,0.09433498,0,0.3,0,0,0,0,
6.38224E+17,-2.874315,52.71785,12.77096,-3.802537,-14.38065,25.1293,-56.96799,-0.4675641,6.91079,-72.21353,-8.594284,-36.83611,0,0,0,-5.528665,-0.5995706,-58.23563,-125.2441,-110.1194,-86.91598,0.001067912,-0.1257102,0.09433498,0,0.3,0,0,0,0,
6.38224E+17,-1.295798,54.65824,13.91497,-2.337634,-16.87099,26.7407,-56.96799,-0.4675641,6.91079,-72.14028,-8.594284,-36.83611,0,0,0,-2.46956,2.689086,-59.17308,-125.2441,-110.1194,-86.91598,0.001067912,-0.1257102,0.09433498,0,0.3,0,0,0,0,
6.38224E+17,-0.1649197,55.59337,14.5687,-1.312202,-17.96966,27.39991,-56.96799,-0.4675641,6.91079,-72.21353,-8.594284,-36.83611,0,0,0,-0.3134393,4.307797,-59.45643,-125.2441,-110.1194,-86.91598,0.001067912,-0.1257102,0.09433498,0,0.3,0,0,0,0,
6.38224E+17,2.850755,57.22984,15.89949,1.69085,-19.94728,28.49858,-56.96799,-0.4675641,6.91079,-72.21353,-8.594284,-36.83611,0,0,0,5.406628,7.228634,-59.77481,-125.2441,-110.1194,-86.91598,0.001067912,-0.1257102,0.09433498,0,0.3,0,0,0,0,
6.38224E+17,6.526109,58.51564,17.27698,6.012315,-21.41219,29.08454,-56.96799,-0.4675641,6.91079,-72.21353,-8.594284,-36.83611,0,0,0,12.41668,9.735307,-59.80999,-125.2441,-110.1194,-86.91598,0.001067912,-0.1257102,0.09433498,0,0.3,0,0,0,0,
6.38224E+17,10.34282,59.26375,18.07078,11.57895,-22.07139,29.08454,-56.96799,-0.4675641,6.91079,-72.21353,-8.594284,-36.83611,0,0,0,19.6625,11.19582,-60.61203,-125.2441,-110.1194,-86.91598,0.001067912,-0.1257102,0.09433498,0,0.3,0,0,0,0,
6.38224E+17,12.22762,59.45077,18.28091,14.36226,-22.14464,28.57183,-56.96799,-0.4675641,6.91079,-72.21353,-8.594284,-36.90935,0,0,0,23.21445,11.57022,-61.22892,-125.2441,-110.1194,-86.91598,0.001067912,-0.1257102,0.09433498,0,0.3,0,0,0,0,
6.38224E+17,15.95009,59.6378,18.7712,19.63592,-21.9249,26.96043,-56.96799,-0.4675641,6.91079,-72.14028,-8.594284,-36.83611,0,0,0,30.31439,12.15342,-62.28256,-125.2441,-110.1194,-86.91598,0.001067912,-0.1257102,0.09433498,0,0.3,0,0,0,0,
6.38224E+17,19.71969,59.96509,19.44827,25.34904,-21.41219,25.34904,-56.96799,-0.4675641,6.91079,-72.21353,-8.594284,-36.90935,0,0,0,37.5024,13.05246,-63.72314,-125.2441,-110.1194,-86.91598,0.001067912,-0.1257102,0.09433498,0,0.3,0,0,0,0,
6.38224E+17,21.43956,60.15212,19.82183,27.91262,-21.11921,24.39685,-56.96799,-0.4675641,6.91079,-72.21353,-8.594284,-36.83611,0,0,0,40.78711,13.56187,-64.48473,-125.2441,-110.1194,-86.91598,0.001067912,-0.1257102,0.09433498,0,0.3,0,0,0,0,
6.38224E+17,25.11492,60.68982,20.91915,33.25952,-20.31351,21.97976,-56.96799,-0.4675641,6.91079,-72.21353,-8.594284,-36.83611,0,0,0,47.91553,15.06858,-66.13058,-125.2441,-110.1194,-86.91598,0.001067912,-0.1257102,0.09433498,0,0.3,0,0,0,0,
6.38224E+17,28.62535,61.13401,22.01647,38.45993,-19.14159,19.41618,-56.96799,-0.4675641,6.91079,-72.21353,-8.594284,-36.83611,0,0,0,54.79038,16.50582,-67.96306,-125.2441,-110.1194,-86.91598,0.001067912,-0.1257102,0.09433498,0,0.3,0,0,0,0,
6.38224E+17,30.27455,61.27427,22.50677,40.87702,-18.48238,18.09777,-56.96799,-0.4675641,6.91079,-72.21353,-8.594284,-36.83611,0,0,0,58.04498,17.09536,-68.91656,-125.2441,-110.1194,-86.91598,0.001067912,-0.1257102,0.09433498,0,0.3,0,0,0,0,
6.38224E+17,33.50227,61.41454,23.39396,45.27173,-17.09072,15.68068,-56.96799,-0.4675641,6.91079,-72.21353,-8.521038,-36.90935,0,0,0,64.44283,18.05706,-70.99586,-125.2441,-110.1194,-86.91598,0.001067912,-0.1257102,0.09433498,0,0.3,0,0,0,0,
6.38224E+17,36.84778,61.36778,24.28116,49.37346,-15.62582,13.41008,-56.96799,-0.4675641,6.91079,-72.21353,-8.594284,-36.83611,0,0,0,71.20423,18.83945,-73.33463,-125.2441,-110.1194,-86.91598,0.001067912,-0.1257102,0.09433498,0,0.3,0,0,0,0,
6.38224E+17,39.83989,61.15738,25.12166,53.03571,-13.86794,10.91974,-56.96799,-0.4675641,6.91079,-72.21353,-8.594284,-36.90935,0,0,0,77.48044,19.42147,-75.48664,-125.2441,-110.1194,-86.91598,0.001067912,-0.1257102,0.09433498,0,0.3,0,0,0,0,
6.38224E+17,41.22993,60.94698,25.44852,54.64711,-12.91575,9.747819,-56.96799,-0.4675641,6.91079,-72.21353,-8.521038,-36.83611,0,0,0,80.44613,19.50938,-76.55393,-125.2441,-110.1194,-86.91598,0.001067912,-0.1257102,0.09433498,0,0.3,0,0,0,0,
6.38224E+17,43.86865,60.33914,26.00885,57.50367,-11.01137,7.403974,-56.96799,-0.4675641,6.91079,-72.21353,-8.594284,-36.90935,0,0,0,86.25557,19.38197,-78.61897,-125.2441,-110.1194,-86.91598,0.001067912,-0.1257102,0.09433498,0,0.3,0,0,0,0,
6.38224E+17,46.17752,59.40401,26.54584,59.77427,-8.740773,5.426354,-56.96799,-0.4675641,6.91079,-72.21353,-8.594284,-36.83611,0,0,0,91.96712,18.84285,-80.08742,-125.2441,-110.1194,-86.91598,0.001067912,-0.1257102,0.09433498,0,0.3,0,0,0,0,
6.38224E+17,47.33196,58.79618,26.82601,60.94619,-7.495606,4.547412,-56.96799,-0.4675641,6.91079,-72.21353,-8.594284,-36.83611,0,0,0,95.04765,18.4092,-80.74066,-125.2441,-110.1194,-86.91598,0.001067912,-0.1257102,0.09433498,0,0.3,0,0,0,0,
6.38224E+17,49.35812,57.51038,27.10618,62.85057,-5.00527,3.155754,-56.96799,-0.4675641,6.91079,-72.21353,-8.594284,-36.83611,0,0,0,100.4556,17.1259,-82.1217,-125.2441,-110.1194,-86.91598,0.001067912,-0.1257102,0.09433498,0,0.3,0,0,0,0,
6.38224E+17,51.17223,55.75702,27.12952,64.31547,-2.58818,1.69085,-56.96799,-0.4675641,6.91079,-72.14028,-8.594284,-36.83611,0,0,0,105.8276,14.90637,-83.17796,-125.2441,-110.1194,-86.91598,0.001067912,-0.1257102,0.09433498,0,0.3,0,0,0,0,
6.38224E+17,52.75076,53.69973,27.10618,65.41415,-0.09784385,0.2259469,-56.96799,-0.4675641,6.91079,-72.21353,-8.594284,-36.83611,0,0,0,111.2067,12.11684,-83.78876,-125.2441,-110.1194,-86.91598,0.001067912,-0.1257102,0.09433498,0,0.3,0,0,0,0,
6.38224E+17,53.52823,52.62434,27.10618,65.78037,1.147324,-0.4332596,-56.96799,-0.4675641,6.91079,-72.21353,-8.594284,-36.90935,0,0,0,113.9547,10.61625,-84.11483,-125.2441,-110.1194,-86.91598,0.001067912,-0.1257102,0.09433498,0,0.3,0,0,0,0,
6.38224E+17,54.96539,50.61381,27.08283,66.36633,4.077131,-1.678428,-56.96799,-0.4675641,6.91079,-72.14028,-8.594284,-36.83611,0,0,0,118.9952,7.686341,-84.92149,-125.2441,-110.1194,-86.91598,0.001067912,-0.1257102,0.09433498,0,0.3,0,0,0,0,
6.38224E+17,55.29523,48.88382,27.10618,66.58607,6.860447,-2.85035,-56.96799,-0.4675641,6.91079,-72.14028,-8.594284,-36.83611,0,0,0,122.0395,5.109594,-83.83083,-125.2441,-110.1194,-86.91598,0.001067912,-0.1257102,0.09433498,0,0.3,0,0,0,0,
6.38224E+17,55.29523,48.13572,27.17622,66.65932,8.398596,-3.289821,-56.96799,-0.4675641,6.91079,-72.14028,-8.594284,-36.83611,0,0,0,123.2309,4.030481,-83.00568,-125.2441,-110.1194,-86.91598,0.001067912,-0.1257102,0.09433498,0,0.3,0,0,0,0,
6.38224E+17,55.29523,47.0837,27.19957,66.73256,10.74244,-3.656047,-56.96799,-0.4675641,6.91079,-72.14028,-8.594284,-36.83611,0,0,0,124.7573,2.404632,-81.94859,-125.2441,-110.1194,-86.91598,0.001067912,-0.1257102,0.09433498,0,0.3,0,0,0,0,
6.38224E+17,55.29523,46.24208,27.19957,66.73256,12.20734,-3.802537,-56.96799,-0.4675641,6.91079,-72.21353,-8.594284,-36.83611,0,0,0,125.9285,1.060359,-81.13746,-125.2441,-110.1194,-86.91598,0.001067912,-0.1257102,0.09433498,0,0.3,0,0,0,0,
6.38224E+17,55.27167,45.68101,27.19957,66.73256,12.79331,-3.875783,-56.96799,-0.4675641,6.91079,-72.21353,-8.594284,-36.83611,0,0,0,126.6641,0.1526143,-80.5509,-125.2441,-110.1194,-86.91598,0.001067912,-0.1257102,0.09433498,0,0.3,0,0,0,0,
6.38224E+17,55.27167,44.09129,27.19957,66.80581,13.52576,-3.949028,-56.96799,-0.4675641,6.91079,-72.21353,-8.521038,-36.83611,0,0,0,128.81,-2.468722,-79.06348,-125.2441,-110.1194,-86.91598,0.001067912,-0.1257102,0.09433498,0,0.3,0,0,0,0,
6.38224E+17,55.27167,42.01063,27.15287,67.02554,14.18496,-3.949028,-56.96799,-0.4675641,6.91079,-72.21353,-8.594284,-36.83611,0,0,0,131.4472,-6.05682,-77.23543,-125.2441,-110.1194,-86.91598,0.001067912,-0.1257102,0.09433498,0,0.3,0,0,0,0,
6.38224E+17,55.27167,39.39227,27.05948,67.17203,14.99066,-3.875783,-56.96799,-0.4675641,6.91079,-72.21353,-8.521038,-36.83611,0,0,0,134.554,-10.77539,-75.08193,-125.2441,-110.1194,-86.91598,0.001067912,-0.1257102,0.09433498,0,0.3,0,0,0,0,
6.38224E+17,55.27167,38.01296,27.03613,67.31852,15.72311,-3.802537,-56.96799,-0.4675641,6.91079,-72.21353,-8.594284,-36.83611,0,0,0,136.1639,-13.3053,-73.96601,-125.2441,-110.1194,-86.91598,0.001067912,-0.1257102,0.09433498,0,0.3,0,0,0,0,
6.38224E+17,55.24811,35.1842,27.01279,67.46501,17.40775,-3.656047,-56.96799,-0.4675641,6.91079,-72.21353,-8.594284,-36.90935,0,0,0,139.31,-18.61502,-71.70039,-125.2441,-110.1194,-86.91598,0.001067912,-0.1257102,0.09433498,0,0.3,0,0,0,0,
6.38224E+17,55.24811,32.40219,27.01279,67.53825,19.31213,-3.509557,-56.96799,-0.4675641,6.91079,-72.21353,-8.594284,-36.83611,0,0,0,142.2686,-23.9954,-69.64777,-125.2441,-110.1194,-86.91598,0.001067912,-0.1257102,0.09433498,0,0.3,0,0,0,0,
6.38224E+17,55.24811,30.8826,27.01279,67.6115,20.19107,-3.436311,-56.96799,-0.4675641,6.91079,-72.21353,-8.594284,-36.90935,0,0,0,143.793,-27.00622,-68.59019,-125.2441,-110.1194,-86.91598,0.001067912,-0.1257102,0.09433498,0,0.3,0,0,0,0,
6.38224E+17,55.24811,27.84344,26.9194,67.53825,22.60816,-3.363066,-56.96799,-0.4675641,6.91079,-72.21353,-8.594284,-36.83611,0,0,0,146.4832,-33.2687,-66.7238,-125.2441,-110.1194,-86.91598,0.001067912,-0.1257102,0.09433498,0,0.3,0,0,0,0,
6.38224E+17,55.24811,24.61725,26.9194,67.39177,25.46472,-3.216576,-56.96799,-0.4675641,6.91079,-72.21353,-8.594284,-36.83611,0,0,0,149.2096,-40.00323,-64.83233,-125.2441,-110.1194,-86.91598,0.001067912,-0.1257102,0.09433498,0,0.3,0,0,0,0,
6.38224E+17,55.24811,22.77037,26.9194,67.31852,27.14936,-2.923595,-56.96799,-0.4675641,6.91079,-72.21353,-8.594284,-36.83611,0,0,0,150.6287,-43.93914,-63.84776,-125.2441,-110.1194,-86.91598,0.001067912,-0.1257102,0.09433498,0,0.3,0,0,0,0,
6.38224E+17,55.24811,19.3104,26.89605,67.68475,30.15241,-1.605182,-56.96799,-0.4675641,6.91079,-72.21353,-8.594284,-36.83611,0,0,0,152.964,-51.47843,-62.22761,-125.2441,-110.1194,-86.91598,0.001067912,-0.1257102,0.09433498,0,0.3,0,0,0,0,
6.38224E+17,55.24811,15.82704,26.77931,67.68475,33.3752,-0.3600145,-56.96799,-0.4675641,6.91079,-72.21353,-8.594284,-36.90935,0,0,0,154.7751,-59.32889,-60.97109,-125.2441,-110.1194,-86.91598,0.001067912,-0.1257102,0.09433498,0,0.3,0,0,0,0,
6.38224E+17,55.24811,12.41383,26.77931,67.39177,36.45149,0.4456824,-56.96799,-0.4675641,6.91079,-72.21353,-8.594284,-36.83611,0,0,0,156.3672,-67.03164,-59.86654,-125.2441,-110.1194,-86.91598,0.001067912,-0.1257102,0.09433498,0,0.3,0,0,0,0,
6.38224E+17,55.24811,10.75397,26.77931,67.31852,37.76991,0.8119082,-56.96799,-0.4675641,6.91079,-72.21353,-8.594284,-36.90935,0,0,0,157.0046,-70.81596,-59.42438,-125.2441,-110.1194,-86.91598,0.001067912,-0.1257102,0.09433498,0,0.3,0,0,0,0,
6.38224E+17,55.05963,7.644672,26.61588,67.09879,40.04051,1.837341,-56.96799,-0.4675641,6.91079,-72.21353,-8.594284,-36.83611,0,0,0,157.3151,-78.12947,-58.4406,-125.2441,-110.1194,-86.91598,0.001067912,-0.1257102,0.09433498,0,0.3,0,0,0,0,
6.38224E+17,54.49419,4.722397,26.14894,67.09879,41.6519,3.228999,-56.96799,-0.4675641,6.91079,-72.21353,-8.594284,-36.90935,0,0,0,156.0265,-85.37337,-57.03347,-125.2441,-110.1194,-86.91598,0.001067912,-0.1257102,0.09433498,0,0.3,0,0,0,0,
6.38224E+17,54.07011,3.38984,25.72869,67.02554,42.4576,4.327676,-56.96799,-0.4675641,6.91079,-72.14028,-8.594284,-36.83611,0,0,0,154.6638,-88.89475,-56.26909,-125.2441,-110.1194,-86.91598,0.001067912,-0.1257102,0.09433498,0,0.3,0,0,0,0,
6.38224E+17,53.03347,1.215667,24.16442,66.65932,43.84926,6.818012,-56.96799,-0.4675641,6.91079,-72.21353,-8.594284,-36.83611,0,0,0,150.1358,-95.48602,-55.35202,-125.2441,-110.1194,-86.91598,0.001067912,-0.1257102,0.09433498,0,0.3,0,0,0,0,
6.38224E+17,51.78479,-0.116891,21.59622,65.3409,44.94794,9.015368,-56.96799,-0.4675641,6.91079,-72.21353,-8.594284,-36.83611,0,0,0,143.3347,-100.911,-55.49512,-125.2441,-110.1194,-86.91598,0.001067912,-0.1257102,0.09433498,0,0.3,0,0,0,0,
6.38224E+17,50.77172,-0.09351282,19.09806,63.43653,45.90012,10.55352,-56.96799,-0.4675641,6.91079,-72.14028,-8.594284,-36.83611,0,0,0,137.0945,-102.8781,-56.42572,-125.2441,-110.1194,-86.91598,0.001067912,-0.1257102,0.09433498,0,0.3,0,0,0,0,
6.38224E+17,50.32408,0.2571602,17.74392,62.55759,46.1931,11.28597,-56.96799,-0.4675641,6.91079,-72.21353,-8.594284,-36.83611,0,0,0,133.9136,-103.0578,-57.26779,-125.2441,-110.1194,-86.91598,0.001067912,-0.1257102,0.09433498,0,0.3,0,0,0,0,
6.38224E+17,49.24032,1.379314,14.73212,60.72646,46.26635,12.53114,-56.96799,-0.4675641,6.91079,-72.21353,-8.594284,-36.83611,0,0,0,126.6633,-102.4063,-59.17261,-125.2441,-110.1194,-86.91598,0.001067912,-0.1257102,0.09433498,0,0.3,0,0,0,0,
6.38224E+17,47.94452,2.969032,11.32342,58.82208,45.82688,13.62981,-56.96799,-0.4675641,6.91079,-72.21353,-8.594284,-36.90935,0,0,0,118.3197,-100.4972,-61.60682,-125.2441,-110.1194,-86.91598,0.001067912,-0.1257102,0.09433498,0,0.3,0,0,0,0,
6.38224E+17,47.26128,3.880782,9.619073,57.79665,45.38741,14.14253,-56.96799,-0.4675641,6.91079,-72.14028,-8.594284,-36.90935,0,0,0,114.0806,-99.09995,-62.93664,-125.2441,-110.1194,-86.91598,0.001067912,-0.1257102,0.09433498,0,0.3,0,0,0,0,
6.38224E+17,45.40005,6.358871,5.579997,55.23307,44.28873,15.02147,-56.96799,-0.4675641,6.91079,-72.21353,-8.594284,-36.90935,0,0,0,103.597,-94.59885,-66.18967,-125.2441,-110.1194,-86.91598,0.001067912,-0.1257102,0.09433498,0,0.3,0,0,0,0,
6.38224E+17,43.25609,9.304525,1.891129,52.30326,43.2633,15.3877,-56.96799,-0.4675641,6.91079,-72.21353,-8.594284,-36.83611,0,0,0,93.19275,-88.3671,-69.30428,-125.2441,-110.1194,-86.91598,0.001067912,-0.1257102,0.09433498,0,0.3,0,0,0,0,
6.38224E+17,40.85297,12.7645,-1.494225,48.42127,42.01813,15.53419,-56.96799,-0.4675641,6.91079,-72.21353,-8.594284,-36.83611,0,0,0,82.79669,-80.49174,-72.6082,-125.2441,-110.1194,-86.91598,0.001067912,-0.1257102,0.09433498,0,0.3,0,0,0,0,
6.38224E+17,39.32158,14.75165,-2.98845,45.78444,41.13919,15.16796,-56.96799,-0.4675641,6.91079,-72.14028,-8.594284,-36.83611,0,0,0,77.30956,-75.86378,-73.9687,-125.2441,-110.1194,-86.91598,0.001067912,-0.1257102,0.09433498,0,0.3,0,0,0,0,
6.38224E+17,36.49438,18.21162,-4.832884,41.02351,39.45455,13.62981,-56.96799,-0.4675641,6.91079,-72.21353,-8.594284,-36.83611,0,0,0,68.65463,-67.85034,-75.54955,-125.2441,-110.1194,-86.91598,0.001067912,-0.1257102,0.09433498,0,0.3,0,0,0,0,
6.38224E+17,33.69075,21.69497,-6.046942,35.67661,37.76991,10.62676,-56.96799,-0.4675641,6.91079,-72.21353,-8.594284,-36.90935,0,0,0,60.93858,-59.96317,-76.94447,-125.2441,-110.1194,-86.91598,0.001067912,-0.1257102,0.09433498,0,0.3,0,0,0,0,
6.38224E+17,32.27715,23.35482,-6.443846,32.89329,36.89096,8.649141,-56.96799,-0.4675641,6.91079,-72.14028,-8.594284,-36.83611,0,0,0,57.38447,-56.29438,-77.49653,-125.2441,-110.1194,-86.91598,0.001067912,-0.1257102,0.09433498,0,0.3,0,0,0,0,
6.38224E+17,29.54419,26.44075,-6.677318,27.32666,35.27958,4.474167,-56.96799,-0.4675641,6.91079,-72.21353,-8.521038,-36.90935,0,0,0,51.23025,-49.71842,-77.96357,-125.2441,-110.1194,-86.91598,0.001067912,-0.1257102,0.09433498,0,0.3,0,0,0,0,
6.38224E+17,27.16464,29.12924,-6.303762,22.12625,33.88792,0.2259469,-56.96799,-0.4675641,6.91079,-72.21353,-8.594284,-36.83611,0,0,0,46.49614,-44.28145,-77.74077,-125.2441,-110.1194,-86.91598,0.001067912,-0.1257102,0.09433498,0,0.3,0,0,0,0,
6.38224E+17,26.3636,30.27477,-5.860164,19.56267,33.15546,-1.824918,-56.96799,-0.4675641,6.91079,-72.21353,-8.594284,-36.83611,0,0,0,45.09412,-42.07506,-77.36337,-125.2441,-110.1194,-86.91598,0.001067912,-0.1257102,0.09433498,0,0.3,0,0,0,0,
6.38224E+17,25.37408,31.98138,-5.276482,15.75392,31.69056,-4.461744,-56.96799,-0.4675641,6.91079,-72.21353,-8.594284,-36.83611,0,0,0,43.21563,-38.80695,-77.23174,-125.2441,-110.1194,-86.91598,0.001067912,-0.1257102,0.09433498,0,0.3,0,0,0,0,
6.38224E+17,24.43168,32.823,-4.879579,12.89736,30.51864,-6.366118,-56.96799,-0.4675641,6.91079,-72.21353,-8.594284,-36.83611,0,0,0,41.65758,-37.23492,-76.65118,-125.2441,-110.1194,-86.91598,0.001067912,-0.1257102,0.09433498,0,0.3,0,0,0,0,
6.38224E+17,23.27724,32.93989,-4.622759,10.26054,29.78619,-8.416983,-56.96799,-0.4675641,6.91079,-72.21353,-8.594284,-36.83611,0,0,0,39.97866,-37.05596,-75.419,-125.2441,-110.1194,-86.91598,0.001067912,-0.1257102,0.09433498,0,0.3,0,0,0,0,
6.38224E+17,22.57044,32.93989,-4.459328,8.942122,29.56645,-9.66215,-56.96799,-0.4675641,6.91079,-72.21353,-8.594284,-36.83611,0,0,0,38.97479,-37.08608,-74.58277,-125.2441,-110.1194,-86.91598,0.001067912,-0.1257102,0.09433498,0,0.3,0,0,0,0,
6.38224E+17,20.92125,32.91651,-3.898993,5.93907,29.12698,-12.59196,-56.96799,-0.4675641,6.91079,-72.14028,-8.521038,-36.83611,0,0,0,36.73503,-37.22678,-72.25739,-125.2441,-110.1194,-86.91598,0.001067912,-0.1257102,0.09433498,0,0.3,0,0,0,0,
6.38224E+17,19.50765,32.86975,-3.221923,3.009263,28.61426,-14.78931,-56.96799,-0.4675641,6.91079,-72.14028,-8.594284,-36.83611,0,0,0,34.89823,-37.41602,-69.84222,-125.2441,-110.1194,-86.91598,0.001067912,-0.1257102,0.09433498,0,0.3,0,0,0,0,
6.38224E+17,18.84797,32.84638,-2.684936,1.54436,28.39453,-15.59501,-56.96799,-0.4675641,6.91079,-72.14028,-8.521038,-36.83611,0,0,0,34.17452,-37.52612,-68.23782,-125.2441,-110.1194,-86.91598,0.001067912,-0.1257102,0.09433498,0,0.3,0,0,0,0,
6.38224E+17,17.71709,32.823,-1.564267,-0.7994855,27.95506,-16.62044,-56.96799,-0.4675641,6.91079,-72.21353,-8.594284,-36.83611,0,0,0,32.99417,-37.66853,-65.07196,-125.2441,-110.1194,-86.91598,0.001067912,-0.1257102,0.09433498,0,0.3,0,0,0,0,
6.38224E+17,16.56265,32.79962,-0.4669453,-2.484124,27.51558,-16.84018,-56.96799,-0.4675641,6.91079,-72.21353,-8.594284,-36.83611,0,0,0,31.643,-37.75953,-61.9524,-125.2441,-110.1194,-86.91598,0.001067912,-0.1257102,0.09433498,0,0.3,0,0,0,0,
6.38224E+17,15.12549,32.7061,0.3969035,-4.242009,27.14936,-17.2064,-56.96799,-0.4675641,6.91079,-72.14028,-8.594284,-36.83611,0,0,0,29.51987,-37.94379,-59.13773,-125.2441,-110.1194,-86.91598,0.001067912,-0.1257102,0.09433498,0,0.3,0,0,0,0,
6.38224E+17,14.3009,32.58922,0.8638488,-5.487176,26.92962,-17.57263,-56.96799,-0.4675641,6.91079,-72.21353,-8.594284,-36.83611,0,0,0,28.24977,-38.16091,-57.52896,-125.2441,-110.1194,-86.91598,0.001067912,-0.1257102,0.09433498,0,0.3,0,0,0,0,
6.38224E+17,12.91086,32.0749,1.657656,-8.050756,26.78313,-18.89104,-56.96799,-0.4675641,6.91079,-72.21353,-8.594284,-36.83611,0,0,0,26.10886,-39.1317,-54.45193,-125.2441,-110.1194,-86.91598,0.001067912,-0.1257102,0.09433498,0,0.3,0,0,0,0,
6.38224E+17,12.13338,31.11639,2.591547,-10.46785,26.92962,-20.35595,-56.96799,-0.4675641,6.91079,-72.21353,-8.594284,-36.83611,0,0,0,25.26315,-40.95124,-50.84199,-125.2441,-110.1194,-86.91598,0.001067912,-0.1257102,0.09433498,0,0.3,0,0,0,0,
6.38224E+17,11.9449,30.57869,3.105186,-11.42003,27.2226,-20.72217,-56.96799,-0.4675641,6.91079,-72.21353,-8.594284,-36.83611,0,0,0,25.25638,-41.96624,-48.96362,-125.2441,-110.1194,-86.91598,0.001067912,-0.1257102,0.09433498,0,0.3,0,0,0,0,
6.38224E+17,11.73286,29.62018,3.852299,-12.44547,27.88181,-21.0884,-56.96799,-0.4675641,6.91079,-72.21353,-8.594284,-36.83611,0,0,0,25.39482,-43.79071,-46.07625,-125.2441,-110.1194,-86.91598,0.001067912,-0.1257102,0.09433498,0,0.3,0,0,0,0,
6.38224E+17,11.5915,28.19411,4.249202,-12.73845,28.90724,-20.64893,-56.96799,-0.4675641,6.91079,-72.14028,-8.521038,-36.83611,0,0,0,25.60058,-46.63088,-43.53969,-125.2441,-110.1194,-86.91598,0.001067912,-0.1257102,0.09433498,0,0.3,0,0,0,0,
6.38224E+17,11.54438,27.23561,4.27255,-12.6652,29.71294,-20.06297,-56.96799,-0.4675641,6.91079,-72.21353,-8.594284,-36.90935,0,0,0,25.7164,-48.60171,-42.44909,-125.2441,-110.1194,-86.91598,0.001067912,-0.1257102,0.09433498,0,0.3,0,0,0,0,
6.38224E+17,11.21454,25.529,4.085772,-12.22573,31.17784,-18.96429,-56.96799,-0.4675641,6.91079,-72.14028,-8.594284,-36.83611,0,0,0,25.25012,-52.19153,-40.9972,-125.2441,-110.1194,-86.91598,0.001067912,-0.1257102,0.09433498,0,0.3,0,0,0,0,
6.38224E+17,10.48418,24.57049,2.871714,-11.78626,32.5695,-18.08535,-56.96799,-0.4675641,6.91079,-72.21353,-8.594284,-36.83611,0,0,0,23.2834,-54.38395,-42.53017,-125.2441,-110.1194,-86.91598,0.001067912,-0.1257102,0.09433498,0,0.3,0,0,0,0,
6.38224E+17,9.282625,24.00941,1.237405,-11.78626,33.3752,-17.71912,-56.96799,-0.4675641,6.91079,-72.21353,-8.594284,-36.83611,0,0,0,20.1134,-55.71056,-45.2908,-125.2441,-110.1194,-86.91598,0.001067912,-0.1257102,0.09433498,0,0.3,0,0,0,0,
6.38224E+17,8.670066,23.96266,0.3268617,-12.07924,33.59494,-17.64587,-56.96799,-0.4675641,6.91079,-72.21353,-8.594284,-36.90935,0,0,0,18.48387,-55.83891,-47.13383,-125.2441,-110.1194,-86.91598,0.001067912,-0.1257102,0.09433498,0,0.3,0,0,0,0,
6.38224E+17,7.821907,23.86915,-1.470878,-12.73845,33.59494,-17.79236,-56.96799,-0.4675641,6.91079,-72.21353,-8.594284,-36.90935,0,0,0,16.13016,-55.99609,-50.93084,-125.2441,-110.1194,-86.91598,0.001067912,-0.1257102,0.09433498,0,0.3,0,0,0,0,
