zeyangz2/DNN_classification_different_people_hand/data/zeyang_right_23.csv
Timestamp,Therapist joint angle 0,Therapist joint angle 1,Therapist joint angle 2,Therapist joint angle 3,Therapist joint angle 4,Therapist joint angle 5,Patient joint angle 0,Patient joint angle 1,Patient joint angle 2,Patient joint angle 3,Patient joint angle 4,Patient joint angle 5,Virtual joint angle 0,Virtual joint angle 1,Virtual joint angle 2,Therapist position x,Therapist position y,Therapist position z,Patient position x,Patient position y,Patient position z,Virtual position x,Virtual position y,Virtual position z,Assistive Force, Obstacle Force Magnitude, Therapist Constant Force, Patient Constant Force, Recovery Factor, Assistance Level,label
6.38224E+17,0,0,0,0,0,0,0,0,0,0,0,0,0,0,0,0,0,0,0,0,0,0,0,0,0,0.3,0,0,0,0,0
6.38224E+17,4.711992,-0.9818845,-5.486608,27.18017,-62.79571,79.11099,-56.99155,-0.4675641,6.980833,-72.36002,-8.594284,-36.83611,0,0,0,9.905333,-111.6742,-48.17712,-125.4133,-110.0997,-86.87933,0.001067912,-0.1257102,0.09433498,0,0.3,0,0,0,0,
6.38224E+17,4.711992,-0.9818845,-5.486608,27.18017,-62.79571,79.11099,-56.99155,-0.4675641,6.980833,-72.36002,-8.594284,-36.90935,0,0,0,9.905333,-111.6742,-48.17712,-125.4133,-110.0997,-86.87933,0.001067912,-0.1257102,0.09433498,0,0.3,0,0,0,0,
6.38224E+17,4.711992,-0.9818845,-5.486608,27.18017,-62.79571,79.18424,-56.99155,-0.4675641,6.980833,-72.28677,-8.521038,-36.90935,0,0,0,9.905333,-111.6742,-48.17712,-125.4133,-110.0997,-86.87933,0.001067912,-0.1257102,0.09433498,0,0.3,0,0,0,0,
6.38224E+17,4.711992,-0.9818845,-5.486608,27.18017,-62.79571,79.11099,-56.99155,-0.4675641,6.980833,-72.36002,-8.594284,-36.90935,0,0,0,9.905333,-111.6742,-48.17712,-125.4133,-110.0997,-86.87933,0.001067912,-0.1257102,0.09433498,0,0.3,0,0,0,0,
6.38224E+17,4.711992,-0.9818845,-5.486608,27.18017,-62.79571,79.11099,-56.99155,-0.4675641,6.980833,-72.36002,-8.594284,-36.90935,0,0,0,9.905333,-111.6742,-48.17712,-125.4133,-110.0997,-86.87933,0.001067912,-0.1257102,0.09433498,0,0.3,0,0,0,0,
6.38224E+17,4.711992,-0.9818845,-5.486608,27.18017,-62.79571,79.18424,-56.99155,-0.4675641,6.980833,-72.36002,-8.594284,-36.90935,0,0,0,9.905333,-111.6742,-48.17712,-125.4133,-110.0997,-86.87933,0.001067912,-0.1257102,0.09433498,0,0.3,0,0,1.08E-07,0,
6.38224E+17,4.711992,-0.9818845,-5.486608,27.18017,-62.79571,79.11099,-56.99155,-0.4675641,6.980833,-72.36002,-8.521038,-36.83611,0,0,0,9.905333,-111.6742,-48.17712,-125.4133,-110.0997,-86.87933,0.001067912,-0.1257102,0.09433498,0,0.3,0,0,1.08E-07,0,
6.38224E+17,4.711992,-0.9818845,-5.486608,27.18017,-62.79571,79.18424,-56.99155,-0.4675641,6.980833,-72.36002,-8.594284,-36.90935,0,0,0,9.905333,-111.6742,-48.17712,-125.4133,-110.0997,-86.87933,0.001067912,-0.1257102,0.09433498,0,0.3,0,0,2.17E-07,0,
6.38224E+17,4.711992,-0.9818845,-5.486608,27.18017,-62.79571,79.11099,-56.99155,-0.4675641,6.980833,-72.36002,-8.521038,-36.83611,0,0,0,9.905333,-111.6742,-48.17712,-125.4133,-110.0997,-86.87933,0.001067912,-0.1257102,0.09433498,0,0.3,0,0,2.17E-07,0,
6.38224E+17,4.711992,-0.9818845,-5.486608,27.18017,-62.79571,79.11099,-56.99155,-0.4675641,6.980833,-72.36002,-8.594284,-36.83611,0,0,0,9.905333,-111.6742,-48.17712,-125.4133,-110.0997,-86.87933,0.001067912,-0.1257102,0.09433498,0,0.3,0,0,2.17E-07,0,
6.38224E+17,4.711992,-0.9818845,-5.486608,27.18017,-62.79571,79.11099,-56.99155,-0.4675641,6.980833,-72.36002,-8.594284,-36.83611,0,0,0,9.905333,-111.6742,-48.17712,-125.4133,-110.0997,-86.87933,0.001067912,-0.1257102,0.09433498,0,0.3,0,0,2.17E-07,0,
6.38224E+17,4.711992,-0.9818845,-5.486608,27.18017,-62.79571,79.11099,-56.99155,-0.4675641,6.980833,-72.36002,-8.521038,-36.90935,0,0,0,9.905333,-111.6742,-48.17712,-125.4133,-110.0997,-86.87933,0.001067912,-0.1257102,0.09433498,0,0.3,0,0,2.17E-07,0,
6.38224E+17,4.711992,-0.9818845,-5.486608,27.18017,-62.79571,79.11099,-56.99155,-0.4675641,6.980833,-72.36002,-8.594284,-36.90935,0,0,0,9.905333,-111.6742,-48.17712,-125.4133,-110.0997,-86.87933,0.001067912,-0.1257102,0.09433498,0,0.3,0,0,3.25E-07,0,
6.38224E+17,4.711992,-0.9818845,-5.486608,27.18017,-62.79571,79.11099,-56.99155,-0.4675641,6.980833,-72.36002,-8.594284,-36.83611,0,0,0,9.905333,-111.6742,-48.17712,-125.4133,-110.0997,-86.87933,0.001067912,-0.1257102,0.09433498,0,0.3,0,0,3.25E-07,0,
6.38224E+17,4.711992,-0.9818845,-5.486608,27.18017,-62.79571,79.11099,-56.99155,-0.4675641,6.980833,-72.36002,-8.594284,-36.83611,0,0,0,9.905333,-111.6742,-48.17712,-125.4133,-110.0997,-86.87933,0.001067912,-0.1257102,0.09433498,0,0.3,0,0,3.25E-07,0,
6.38224E+17,4.711992,-0.9818845,-5.486608,27.18017,-62.79571,79.11099,-56.99155,-0.4675641,6.980833,-72.36002,-8.594284,-36.83611,0,0,0,9.905333,-111.6742,-48.17712,-125.4133,-110.0997,-86.87933,0.001067912,-0.1257102,0.09433498,0,0.3,0,0,3.25E-07,0,
6.38224E+17,4.711992,-0.9818845,-5.486608,27.18017,-62.79571,79.11099,-56.99155,-0.4675641,6.980833,-72.36002,-8.521038,-36.83611,0,0,0,9.905333,-111.6742,-48.17712,-125.4133,-110.0997,-86.87933,0.001067912,-0.1257102,0.09433498,0,0.3,0,0,3.25E-07,0,
6.38224E+17,4.711992,-0.9818845,-5.486608,27.18017,-62.79571,79.11099,-56.99155,-0.4675641,6.980833,-72.36002,-8.594284,-36.83611,0,0,0,9.905333,-111.6742,-48.17712,-125.4133,-110.0997,-86.87933,0.001067912,-0.1257102,0.09433498,0,0.3,0,0,2.17E-07,0,
6.38224E+17,4.711992,-0.9818845,-5.486608,27.18017,-62.79571,79.18424,-56.99155,-0.4675641,6.980833,-72.36002,-8.594284,-36.90935,0,0,0,9.905333,-111.6742,-48.17712,-125.4133,-110.0997,-86.87933,0.001067912,-0.1257102,0.09433498,0,0.3,0,0,2.17E-07,0,
6.38224E+17,4.711992,-0.9818845,-5.486608,27.18017,-62.79571,79.11099,-56.99155,-0.4675641,6.980833,-72.36002,-8.521038,-36.83611,0,0,0,9.905333,-111.6742,-48.17712,-125.4133,-110.0997,-86.87933,0.001067912,-0.1257102,0.09433498,0,0.3,0,0,1.08E-07,0,
6.38224E+17,4.711992,-0.9818845,-5.486608,27.18017,-62.79571,79.11099,-56.99155,-0.4675641,6.980833,-72.28677,-8.521038,-36.90935,0,0,0,9.905333,-111.6742,-48.17712,-125.4133,-110.0997,-86.87933,0.001067912,-0.1257102,0.09433498,0,0.3,0,0,0,0,
6.38224E+17,4.711992,-0.9818845,-5.486608,27.18017,-62.79571,79.11099,-56.99155,-0.4675641,6.980833,-72.36002,-8.594284,-36.90935,0,0,0,9.905333,-111.6742,-48.17712,-125.4133,-110.0997,-86.87933,0.001067912,-0.1257102,0.09433498,0,0.3,0,0,0,0,
6.38224E+17,4.711992,-0.9818845,-5.486608,27.18017,-62.79571,79.11099,-56.99155,-0.4675641,6.980833,-72.36002,-8.594284,-36.90935,0,0,0,9.905333,-111.6742,-48.17712,-125.4133,-110.0997,-86.87933,0.001067912,-0.1257102,0.09433498,0,0.3,0,0,0,0,
6.38224E+17,4.711992,-0.9818845,-5.486608,27.18017,-62.79571,79.18424,-56.99155,-0.4675641,6.980833,-72.36002,-8.594284,-36.90935,0,0,0,9.905333,-111.6742,-48.17712,-125.4133,-110.0997,-86.87933,0.001067912,-0.1257102,0.09433498,0,0.3,0,0,0,0,
6.38224E+17,4.711992,-0.9818845,-5.486608,27.18017,-62.79571,79.11099,-56.99155,-0.4675641,6.980833,-72.36002,-8.521038,-36.83611,0,0,0,9.905333,-111.6742,-48.17712,-125.4133,-110.0997,-86.87933,0.001067912,-0.1257102,0.09433498,0,0.3,0,0,0,0,
6.38224E+17,4.711992,-0.9818845,-5.486608,27.18017,-62.79571,79.11099,-56.99155,-0.4675641,6.980833,-72.36002,-8.594284,-36.90935,0,0,0,9.905333,-111.6742,-48.17712,-125.4133,-110.0997,-86.87933,0.001067912,-0.1257102,0.09433498,0,0.3,0,0,0,0,
6.38224E+17,4.711992,-0.9818845,-5.486608,27.18017,-62.79571,79.11099,-56.99155,-0.4675641,6.980833,-72.36002,-8.594284,-36.83611,0,0,0,9.905333,-111.6742,-48.17712,-125.4133,-110.0997,-86.87933,0.001067912,-0.1257102,0.09433498,0,0.3,0,0,0,0,
6.38224E+17,4.711992,-0.9818845,-5.486608,27.18017,-62.79571,79.11099,-56.99155,-0.4675641,6.980833,-72.36002,-8.594284,-36.83611,0,0,0,9.905333,-111.6742,-48.17712,-125.4133,-110.0997,-86.87933,0.001067912,-0.1257102,0.09433498,0,0.3,0,0,0,0,
6.38224E+17,4.711992,-0.9818845,-5.486608,27.18017,-62.79571,79.18424,-56.99155,-0.4675641,6.980833,-72.36002,-8.521038,-36.90935,0,0,0,9.905333,-111.6742,-48.17712,-125.4133,-110.0997,-86.87933,0.001067912,-0.1257102,0.09433498,0,0.3,0,0,0,0,
6.38224E+17,4.711992,-0.9818845,-5.486608,27.18017,-62.79571,79.18424,-56.99155,-0.4675641,6.980833,-72.36002,-8.594284,-36.90935,0,0,0,9.905333,-111.6742,-48.17712,-125.4133,-110.0997,-86.87933,0.001067912,-0.1257102,0.09433498,0,0.3,0,0,0,0,
6.38224E+17,4.711992,-0.9818845,-5.486608,27.18017,-62.79571,79.11099,-56.99155,-0.4675641,6.980833,-72.36002,-8.594284,-36.83611,0,0,0,9.905333,-111.6742,-48.17712,-125.4133,-110.0997,-86.87933,0.001067912,-0.1257102,0.09433498,0,0.3,0,0,0,0,
6.38224E+17,4.711992,-0.9818845,-5.486608,27.18017,-62.79571,79.11099,-56.99155,-0.4675641,6.980833,-72.36002,-8.594284,-36.83611,0,0,0,9.905333,-111.6742,-48.17712,-125.4133,-110.0997,-86.87933,0.001067912,-0.1257102,0.09433498,0,0.3,0,0,0,0,
6.38224E+17,4.711992,-0.9818845,-5.486608,27.18017,-62.79571,79.11099,-56.99155,-0.4675641,6.980833,-72.36002,-8.594284,-36.83611,0,0,0,9.905333,-111.6742,-48.17712,-125.4133,-110.0997,-86.87933,0.001067912,-0.1257102,0.09433498,0,0.3,0,0,0,0,
6.38224E+17,4.711992,-0.9818845,-5.486608,27.18017,-62.79571,79.18424,-56.99155,-0.4675641,6.980833,-72.36002,-8.594284,-36.83611,0,0,0,9.905333,-111.6742,-48.17712,-125.4133,-110.0997,-86.87933,0.001067912,-0.1257102,0.09433498,0,0.3,0,0,0,0,
6.38224E+17,4.711992,-0.9818845,-5.486608,27.18017,-62.79571,79.11099,-56.99155,-0.4675641,6.980833,-72.36002,-8.594284,-36.83611,0,0,0,9.905333,-111.6742,-48.17712,-125.4133,-110.0997,-86.87933,0.001067912,-0.1257102,0.09433498,0,0.3,0,0,0,0,
6.38224E+17,4.711992,-0.9818845,-5.486608,27.18017,-62.79571,79.18424,-56.99155,-0.4675641,6.980833,-72.36002,-8.521038,-36.83611,0,0,0,9.905333,-111.6742,-48.17712,-125.4133,-110.0997,-86.87933,0.001067912,-0.1257102,0.09433498,0,0.3,0,0,0,0,
6.38224E+17,4.711992,-0.9818845,-5.486608,27.18017,-62.79571,79.18424,-56.99155,-0.4675641,6.980833,-72.36002,-8.594284,-36.83611,0,0,0,9.905333,-111.6742,-48.17712,-125.4133,-110.0997,-86.87933,0.001067912,-0.1257102,0.09433498,0,0.3,0,0,0,0,
6.38224E+17,4.711992,-0.9818845,-5.486608,27.18017,-62.79571,79.18424,-56.99155,-0.4675641,6.980833,-72.36002,-8.521038,-36.83611,0,0,0,9.905333,-111.6742,-48.17712,-125.4133,-110.0997,-86.87933,0.001067912,-0.1257102,0.09433498,0,0.3,0,0,0,0,
6.38224E+17,4.711992,-0.9818845,-5.486608,27.18017,-62.79571,79.11099,-56.99155,-0.4675641,6.980833,-72.36002,-8.521038,-36.83611,0,0,0,9.905333,-111.6742,-48.17712,-125.4133,-110.0997,-86.87933,0.001067912,-0.1257102,0.09433498,0,0.3,0,0,0,0,
6.38224E+17,4.711992,-0.9818845,-5.486608,27.18017,-62.79571,79.11099,-56.99155,-0.4675641,6.980833,-72.36002,-8.594284,-36.83611,0,0,0,9.905333,-111.6742,-48.17712,-125.4133,-110.0997,-86.87933,0.001067912,-0.1257102,0.09433498,0,0.3,0,0,0,0,
6.38224E+17,4.711992,-0.9818845,-5.486608,27.18017,-62.79571,79.11099,-56.99155,-0.4675641,6.980833,-72.36002,-8.594284,-36.90935,0,0,0,9.905333,-111.6742,-48.17712,-125.4133,-110.0997,-86.87933,0.001067912,-0.1257102,0.09433498,0,0.3,0,0,0,0,
6.38224E+17,4.711992,-0.9818845,-5.486608,27.18017,-62.79571,79.11099,-56.99155,-0.4675641,6.980833,-72.36002,-8.521038,-36.90935,0,0,0,9.905333,-111.6742,-48.17712,-125.4133,-110.0997,-86.87933,0.001067912,-0.1257102,0.09433498,0,0.3,0,0,0,0,
6.38224E+17,4.711992,-0.9818845,-5.486608,27.18017,-62.79571,79.11099,-56.99155,-0.4675641,6.980833,-72.36002,-8.594284,-36.83611,0,0,0,9.905333,-111.6742,-48.17712,-125.4133,-110.0997,-86.87933,0.001067912,-0.1257102,0.09433498,0,0.3,0,0,1.08E-07,0,
6.38224E+17,4.711992,-0.9818845,-5.486608,27.18017,-62.79571,79.11099,-56.99155,-0.4675641,6.980833,-72.36002,-8.594284,-36.83611,0,0,0,9.905333,-111.6742,-48.17712,-125.4133,-110.0997,-86.87933,0.001067912,-0.1257102,0.09433498,0,0.3,0,0,1.08E-07,0,
6.38224E+17,4.735552,-0.9818845,-5.369871,26.96043,-62.79571,79.11099,-56.99155,-0.4675641,6.980833,-72.36002,-8.594284,-36.83611,0,0,0,9.977076,-111.6999,-47.91166,-125.4133,-110.0997,-86.87933,0.001067912,-0.1257102,0.09433498,0,0.3,0,0,0,0,
6.38224E+17,4.829792,-0.9585064,-5.113051,22.27274,-62.79571,78.9645,-56.99155,-0.4675641,6.980833,-72.36002,-8.521038,-36.83611,0,0,0,10.22535,-111.7001,-47.3342,-125.4133,-110.0997,-86.87933,0.001067912,-0.1257102,0.09433498,0,0.3,0,0,0,0,
6.38224E+17,4.523513,-0.8416153,-5.183093,13.48332,-61.62378,79.33073,-56.99155,-0.4675641,6.980833,-72.36002,-8.521038,-36.90935,0,0,0,9.565841,-111.4134,-47.43886,-125.4133,-110.0997,-86.87933,0.001067912,-0.1257102,0.09433498,0,0.3,0,0,0,0,
6.38224E+17,4.523513,-0.7013461,-5.20644,10.48027,-60.6716,79.55046,-56.99155,-0.4675641,6.980833,-72.36002,-8.594284,-36.83611,0,0,0,9.561919,-111.0821,-47.48843,-125.4133,-110.0997,-86.87933,0.001067912,-0.1257102,0.09433498,0,0.3,0,0,0,0,
6.38224E+17,4.523513,0.07013461,-5.253135,6.744767,-57.96152,78.9645,-56.99155,-0.4675641,6.980833,-72.36002,-8.521038,-36.90935,0,0,0,9.554164,-109.2767,-47.58645,-125.4133,-110.0997,-86.87933,0.001067912,-0.1257102,0.09433498,0,0.3,0,0,0,0,
6.38224E+17,4.523513,1.122154,-5.299829,4.913638,-54.59225,77.06013,-56.99155,-0.4675641,6.980833,-72.36002,-8.594284,-36.90935,0,0,0,9.54362,-106.8184,-47.71973,-125.4133,-110.0997,-86.87933,0.001067912,-0.1257102,0.09433498,0,0.3,0,0,0,0,
6.38224E+17,4.523513,2.174173,-5.626691,3.888205,-50.34403,75.00926,-56.99155,-0.4675641,6.980833,-72.36002,-8.521038,-36.83611,0,0,0,9.47834,-104.2985,-48.54485,-125.4133,-110.0997,-86.87933,0.001067912,-0.1257102,0.09433498,0,0.3,0,0,3.14E-05,0,
6.38224E+17,4.523513,2.59498,-5.9769,3.375489,-47.92694,73.98383,-56.99155,-0.4675641,6.980833,-72.36002,-8.594284,-36.90935,0,0,0,9.411173,-103.2376,-49.39384,-125.4133,-110.0997,-86.87933,0.001067912,-0.1257102,0.09433498,0,0.3,0,0,8.33E-05,0,
6.38224E+17,4.499953,2.969032,-7.261,1.617605,-41.92084,69.73561,-56.99155,-0.4675641,6.980833,-72.36002,-8.594284,-36.83611,0,0,0,9.126028,-102.0236,-52.39159,-125.4133,-110.0997,-86.87933,0.001067912,-0.1257102,0.09433498,0,0.3,0,0,0.000294545,0,
6.38224E+17,4.476392,2.805384,-8.101501,-0.0670338,-34.66956,63.50977,-56.99155,-0.4675641,6.980833,-72.36002,-8.521038,-36.83611,0,0,0,8.928537,-102.1425,-54.30141,-125.4133,-110.0997,-86.87933,0.001067912,-0.1257102,0.09433498,0,0.3,0,0,0.000618468,0,
6.38224E+17,4.405713,2.782006,-8.638489,-0.3600145,-31.1538,61.38566,-56.99155,-0.4675641,6.980833,-72.36002,-8.521038,-36.83611,0,0,0,8.693062,-102.015,-55.52065,-125.4133,-110.0997,-86.87933,0.001067912,-0.1257102,0.09433498,0,0.3,0,0,0.000825094,0,
6.38224E+17,4.122993,2.758628,-9.829199,-0.2867693,-23.90252,60.65321,-56.99155,-0.4675641,6.980833,-72.36002,-8.594284,-36.90935,0,0,0,7.939742,-101.6246,-58.20473,-125.4133,-110.0997,-86.87933,0.001067912,-0.1257102,0.09433498,0,0.3,0,0,0.001367785,0,
6.38224E+17,3.910954,2.641737,-11.23003,-0.2867693,-15.99205,63.50977,-56.99155,-0.4675641,6.980833,-72.36002,-8.521038,-36.83611,0,0,0,7.314316,-101.3006,-61.36117,-125.4133,-110.0997,-86.87933,0.001067912,-0.1257102,0.09433498,0,0.3,0,0,0.002077966,0,
6.38224E+17,3.863834,2.501468,-11.83706,-0.2135241,-12.03681,66.80581,-56.99155,-0.4675641,6.980833,-72.36002,-8.594284,-36.83611,0,0,0,7.134034,-101.3442,-62.72169,-125.4133,-110.0997,-86.87933,0.001067912,-0.1257102,0.09433498,0,0.3,0,0,0.002472789,0,
6.38224E+17,3.863834,1.987147,-12.53748,-0.2135241,-4.126328,75.08251,-56.99155,-0.4675641,6.980833,-72.36002,-8.521038,-36.90935,0,0,0,7.02982,-102.1962,-64.2647,-125.4133,-110.0997,-86.87933,0.001067912,-0.1257102,0.09433498,0,0.3,0,0,0.003288017,0,
6.38224E+17,3.863834,1.589718,-12.30401,0.5921727,4.663092,83.21272,-56.99155,-0.4675641,6.980833,-72.28677,-8.594284,-36.90935,0,0,0,7.067525,-103.2376,-63.70644,-125.4133,-110.0997,-86.87933,0.001067912,-0.1257102,0.09433498,0,0.3,0,0,0.004078637,0,
6.38224E+17,3.863834,1.589718,-11.74367,1.251379,9.204292,87.24121,-56.99155,-0.4675641,6.980833,-72.36002,-8.594284,-36.83611,0,0,0,7.153475,-103.5093,-62.43383,-125.4133,-110.0997,-86.87933,0.001067912,-0.1257102,0.09433498,0,0.3,0,0,0.004438444,0,
6.38224E+17,3.887394,1.613096,-9.922588,2.716283,18.06696,93.54029,-56.99155,-0.4675641,6.980833,-72.36002,-8.594284,-36.90935,0,0,0,7.479136,-104.2515,-58.2852,-125.4133,-110.0997,-86.87933,0.001067912,-0.1257102,0.09433498,0,0.3,0,0,0.005032412,0,
6.38224E+17,3.887394,1.613096,-8.685184,4.254431,26.78313,95.88414,-56.99155,-0.4675641,6.980833,-72.36002,-8.594284,-36.90935,0,0,0,7.671812,-104.7171,-55.44975,-125.4133,-110.0997,-86.87933,0.001067912,-0.1257102,0.09433498,0,0.3,0,0,0.005474717,0,
6.38224E+17,3.910954,1.613096,-8.591794,4.913638,31.17784,95.59116,-56.99155,-0.4675641,6.980833,-72.36002,-8.521038,-36.83611,0,0,0,7.732892,-104.7497,-55.23852,-125.4133,-110.0997,-86.87933,0.001067912,-0.1257102,0.09433498,0,0.3,0,0,0.005673646,0,
6.38224E+17,3.958073,1.542961,-8.661836,6.158805,38.64885,94.71221,-56.99155,-0.4675641,6.980833,-72.36002,-8.594284,-36.83611,0,0,0,7.815097,-104.8884,-55.40122,-125.4133,-110.0997,-86.87933,0.001067912,-0.1257102,0.09433498,0,0.3,0,0,0.006055459,0,
6.38224E+17,4.075873,0.9585064,-9.362254,7.696954,44.50846,94.27274,-56.99155,-0.4675641,6.980833,-72.36002,-8.594284,-36.90935,0,0,0,7.934977,-105.993,-56.99385,-125.4133,-110.0997,-86.87933,0.001067912,-0.1257102,0.09433498,0,0.3,0,0,0.006446595,0,
6.38224E+17,4.193673,-0.4909423,-10.57631,9.088613,49.2694,94.71221,-56.99155,-0.4675641,6.980833,-72.36002,-8.594284,-36.90935,0,0,0,7.961408,-108.8772,-59.77211,-125.4133,-110.0997,-86.87933,0.001067912,-0.1257102,0.09433498,0,0.3,0,0,0.006889876,0,
6.38224E+17,4.193673,-1.075397,-11.27673,9.674574,51.24702,95.73765,-56.99155,-0.4675641,6.980833,-72.28677,-8.521038,-36.83611,0,0,0,7.843,-109.9283,-61.38695,-125.4133,-110.0997,-86.87933,0.001067912,-0.1257102,0.09433498,0,0.3,0,0,0.007143876,0,
6.38224E+17,4.287913,-0.8182371,-12.3507,10.62676,54.54305,99.10693,-56.99155,-0.4675641,6.980833,-72.36002,-8.594284,-36.83611,0,0,0,7.836734,-108.8181,-63.82987,-125.4133,-110.0997,-86.87933,0.001067912,-0.1257102,0.09433498,0,0.3,0,0,0.007683098,0,
6.38224E+17,4.311473,-1.052019,-12.42074,11.21272,56.15445,101.3043,-56.99155,-0.4675641,6.980833,-72.36002,-8.594284,-36.83611,0,0,0,7.867074,-109.3272,-64.00072,-125.4133,-110.0997,-86.87933,0.001067912,-0.1257102,0.09433498,0,0.3,0,0,0.00821484,0,
6.38224E+17,4.311473,-0.9818845,-12.44409,11.5057,56.66716,101.817,-56.99155,-0.4675641,6.980833,-72.36002,-8.594284,-36.90935,0,0,0,7.863303,-109.1523,-64.05075,-125.4133,-110.0997,-86.87933,0.001067912,-0.1257102,0.09433498,0,0.3,0,0,0.008473935,0,
6.38224E+17,4.311473,-1.005263,-12.44409,12.01842,57.25312,102.1832,-56.99155,-0.4675641,6.980833,-72.36002,-8.594284,-36.83611,0,0,0,7.863232,-109.2067,-64.05169,-125.4133,-110.0997,-86.87933,0.001067912,-0.1257102,0.09433498,0,0.3,0,0,0.008979442,0,
6.38224E+17,4.335033,-1.005263,-12.44409,12.01842,57.47286,102.403,-56.99155,-0.4675641,6.980833,-72.36002,-8.594284,-36.83611,0,0,0,7.906119,-109.2067,-64.05493,-125.4133,-110.0997,-86.87933,0.001067912,-0.1257102,0.09433498,0,0.3,0,0,0.009466195,0,
6.38224E+17,4.335033,-1.005263,-12.44409,11.35921,56.8869,102.4762,-56.99155,-0.4675641,6.980833,-72.36002,-8.594284,-36.90935,0,0,0,7.906119,-109.2067,-64.05493,-125.4133,-110.0997,-86.87933,0.001067912,-0.1257102,0.09433498,0,0.3,0,0,0.009935276,0,
6.38224E+17,4.335033,-1.005263,-12.44409,10.70001,56.22769,102.4762,-56.99155,-0.4675641,6.980833,-72.36002,-8.594284,-36.83611,0,0,0,7.906119,-109.2067,-64.05493,-125.4133,-110.0997,-86.87933,0.001067912,-0.1257102,0.09433498,0,0.3,0,0,0.01016423,0,
6.38224E+17,4.335033,-1.005263,-12.44409,8.795631,53.44437,102.4762,-56.99155,-0.4675641,6.980833,-72.36002,-8.594284,-36.90935,0,0,0,7.906119,-109.2067,-64.05493,-125.4133,-110.0997,-86.87933,0.001067912,-0.1257102,0.09433498,0,0.3,0,0,0.01061153,0,
6.38224E+17,4.335033,-1.005263,-12.44409,6.305296,49.19616,101.8902,-56.99155,-0.4675641,6.980833,-72.36002,-8.594284,-36.83611,0,0,0,7.906119,-109.2067,-64.05493,-125.4133,-110.0997,-86.87933,0.001067912,-0.1257102,0.09433498,0,0.3,0,0,0.01104516,0,
6.38224E+17,4.335033,-1.005263,-12.44409,5.279863,47.07204,100.3521,-56.99155,-0.4675641,6.980833,-72.36002,-8.521038,-36.90935,0,0,0,7.906119,-109.2067,-64.05493,-125.4133,-110.0997,-86.87933,0.001067912,-0.1257102,0.09433498,0,0.3,0,0,0.0112571,0,
6.38224E+17,4.335033,-1.005263,-12.65422,4.034696,43.84926,98.59421,-56.99155,-0.4675641,6.980833,-72.36002,-8.521038,-36.83611,0,0,0,7.870036,-109.1004,-64.53093,-125.4133,-110.0997,-86.87933,0.001067912,-0.1257102,0.09433498,0,0.3,0,0,0.01167869,0,
6.38224E+17,4.335033,-1.005263,-13.02777,3.521979,41.35892,97.93501,-56.99155,-0.4675641,6.980833,-72.36002,-8.594284,-36.83611,0,0,0,7.805962,-108.9072,-65.37617,-125.4133,-110.0997,-86.87933,0.001067912,-0.1257102,0.09433498,0,0.3,0,0,0.01211016,0,
6.38224E+17,4.335033,-1.005263,-13.02777,3.155754,40.33349,97.27579,-56.99155,-0.4675641,6.980833,-72.36002,-8.521038,-36.83611,0,0,0,7.805962,-108.9072,-65.37617,-125.4133,-110.0997,-86.87933,0.001067912,-0.1257102,0.09433498,0,0.3,0,0,0.01232275,0,
6.38224E+17,4.335033,-1.005263,-13.02777,1.397869,38.94183,94.1995,-56.99155,-0.4675641,6.980833,-72.36002,-8.594284,-36.90935,0,0,0,7.805962,-108.9072,-65.37617,-125.4133,-110.0997,-86.87933,0.001067912,-0.1257102,0.09433498,0,0.3,0,0,0.01273882,0,
6.38224E+17,4.335033,-1.005263,-13.00443,-1.019221,38.28262,89.51181,-56.99155,-0.4675641,6.980833,-72.36002,-8.594284,-36.83611,0,0,0,7.809964,-108.9195,-65.32338,-125.4133,-110.0997,-86.87933,0.001067912,-0.1257102,0.09433498,0,0.3,0,0,0.01314242,0,
6.38224E+17,4.405713,-0.8182371,-12.70091,-4.022273,37.76991,84.45789,-56.99155,-0.4675641,6.980833,-72.36002,-8.594284,-36.90935,0,0,0,7.990488,-108.6414,-64.63953,-125.4133,-110.0997,-86.87933,0.001067912,-0.1257102,0.09433498,0,0.3,0,0,0.01351632,0,
6.38224E+17,4.547072,-0.4909423,-12.3507,-5.706912,37.47693,82.04079,-56.99155,-0.4675641,6.980833,-72.36002,-8.594284,-36.90935,0,0,0,8.310106,-108.0564,-63.85771,-125.4133,-110.0997,-86.87933,0.001067912,-0.1257102,0.09433498,0,0.3,0,0,0.01367156,0,
6.38224E+17,5.041832,0.3740513,-11.60359,-7.977511,36.74448,78.59828,-56.99155,-0.4675641,6.980833,-72.36002,-8.521038,-36.83611,0,0,0,9.361761,-106.4041,-62.23694,-125.4133,-110.0997,-86.87933,0.001067912,-0.1257102,0.09433498,0,0.3,0,0,0.0138835,0,
6.38224E+17,5.79575,1.42607,-10.69305,-9.588906,35.71904,76.10795,-56.99155,-0.4675641,6.980833,-72.36002,-8.594284,-36.83611,0,0,0,10.96326,-104.3657,-60.33901,-125.4133,-110.0997,-86.87933,0.001067912,-0.1257102,0.09433498,0,0.3,0,0,0.01390995,0,
6.38224E+17,6.26695,1.987147,-10.17941,-10.10162,35.13308,75.15575,-56.99155,-0.4675641,6.980833,-72.36002,-8.594284,-36.90935,0,0,0,11.97525,-103.277,-59.30285,-125.4133,-110.0997,-86.87933,0.001067912,-0.1257102,0.09433498,0,0.3,0,0,0.0138384,0,
6.38224E+17,7.492068,3.062545,-9.128781,-10.24811,34.10765,73.98383,-56.99155,-0.4675641,6.980833,-72.36002,-8.594284,-36.83611,0,0,0,14.60396,-101.1867,-57.30315,-125.4133,-110.0997,-86.87933,0.001067912,-0.1257102,0.09433498,0,0.3,0,0,0.01348456,0,
6.38224E+17,9.117705,4.41848,-7.821334,-9.515661,33.00897,73.32462,-56.99155,-0.4675641,6.980833,-72.36002,-8.521038,-36.83611,0,0,0,18.19265,-98.48611,-54.99378,-125.4133,-110.0997,-86.87933,0.001067912,-0.1257102,0.09433498,0,0.3,0,0,0.012776,0,
6.38224E+17,9.942304,5.166583,-7.120916,-8.929699,32.42301,73.17814,-56.99155,-0.4675641,6.980833,-72.36002,-8.594284,-36.83611,0,0,0,20.07608,-96.96304,-53.8186,-125.4133,-110.0997,-86.87933,0.001067912,-0.1257102,0.09433498,0,0.3,0,0,0.01227678,0,
6.38224E+17,11.8271,7.387512,-5.533302,-7.171815,30.95811,72.9584,-56.99155,-0.4675641,6.980833,-72.36002,-8.594284,-36.83611,0,0,0,24.46902,-92.23256,-51.49957,-125.4133,-110.0997,-86.87933,0.001067912,-0.1257102,0.09433498,0,0.3,0,0,0.01094206,0,
6.38224E+17,14.13598,10.21628,-3.572132,-5.267441,29.12698,72.73866,-56.99155,-0.4675641,6.980833,-72.36002,-8.594284,-36.83611,0,0,0,30.02181,-86.08939,-49.14499,-125.4133,-110.0997,-86.87933,0.001067912,-0.1257102,0.09433498,0,0.3,0,0,0.009075492,0,
6.38224E+17,15.29041,11.57221,-2.451463,-4.022273,28.10155,72.73866,-56.99155,-0.4675641,6.980833,-72.36002,-8.594284,-36.90935,0,0,0,32.94697,-83.12758,-47.83696,-125.4133,-110.0997,-86.87933,0.001067912,-0.1257102,0.09433498,0,0.3,0,0,0.007920837,0,
6.38224E+17,17.81133,14.63475,0.02334727,-0.9459759,25.7577,72.66542,-56.99155,-0.4675641,6.980833,-72.36002,-8.594284,-36.90935,0,0,0,39.48282,-76.30827,-45.4589,-125.4133,-110.0997,-86.87933,0.001067912,-0.1257102,0.09433498,0,0.3,0,0,0.005126944,0,
6.38224E+17,20.45005,18.07135,2.825019,2.276812,23.34061,72.51893,-56.99155,-0.4675641,6.980833,-72.28677,-8.521038,-36.83611,0,0,0,46.58923,-68.47263,-43.40948,-125.4133,-110.0997,-86.87933,0.001067912,-0.1257102,0.09433498,0,0.3,0,0,0.001648995,0,
6.38224E+17,22.87672,21.27416,5.766775,5.353109,20.85028,71.78648,-56.99155,-0.4675641,6.980833,-72.36002,-8.521038,-36.90935,0,0,0,53.51597,-60.94161,-41.51623,-125.4133,-110.0997,-86.87933,0.001067912,-0.1257102,0.09433498,0,0.3,0,0,0,0,
6.38224E+17,24.07828,22.8405,7.401083,6.818012,19.60511,71.12727,-56.99155,-0.4675641,6.980833,-72.36002,-8.594284,-36.83611,0,0,0,57.1469,-57.12693,-40.46647,-125.4133,-110.0997,-86.87933,0.001067912,-0.1257102,0.09433498,0,0.3,0,0,0,0,
6.38224E+17,26.26936,25.62251,10.41288,9.528083,17.11477,69.14965,-56.99155,-0.4675641,6.980833,-72.36002,-8.594284,-36.83611,0,0,0,63.88299,-50.13796,-38.91837,-125.4133,-110.0997,-86.87933,0.001067912,-0.1257102,0.09433498,0,0.3,0,0,0,0,
6.38224E+17,28.22483,28.00709,13.14451,11.94517,14.77092,66.73256,-56.99155,-0.4675641,6.980833,-72.36002,-8.594284,-36.90935,0,0,0,70.02155,-43.88758,-37.89617,-125.4133,-110.0997,-86.87933,0.001067912,-0.1257102,0.09433498,0,0.3,0,0,0,0,
6.38224E+17,29.14367,28.94222,14.45196,12.97061,13.67225,65.48739,-56.99155,-0.4675641,6.980833,-72.36002,-8.594284,-36.83611,0,0,0,73.0383,-41.24873,-37.36113,-125.4133,-110.0997,-86.87933,0.001067912,-0.1257102,0.09433498,0,0.3,0,0,0,0,
6.38224E+17,30.74575,30.43842,17.25363,15.02147,11.40165,62.85057,-56.99155,-0.4675641,6.980833,-72.36002,-8.521038,-36.83611,0,0,0,78.99659,-36.44269,-35.54625,-125.4133,-110.0997,-86.87933,0.001067912,-0.1257102,0.09433498,0,0.3,0,0,0,0,
6.38224E+17,31.85307,31.46706,20.07865,16.8526,9.424027,60.65321,-56.99155,-0.4675641,6.980833,-72.36002,-8.521038,-36.83611,0,0,0,84.18549,-32.28548,-32.85307,-125.4133,-110.0997,-86.87933,0.001067912,-0.1257102,0.09433498,0,0.3,0,0,0,0,
6.38224E+17,32.72478,32.21516,22.92702,18.61049,7.739389,58.45585,-56.99155,-0.4675641,6.980833,-72.36002,-8.521038,-36.90935,0,0,0,89.07464,-28.37668,-29.73393,-125.4133,-110.0997,-86.87933,0.001067912,-0.1257102,0.09433498,0,0.3,0,0,0,0,
6.38224E+17,33.12531,32.56584,24.25781,19.34294,7.006938,57.57691,-56.99155,-0.4675641,6.980833,-72.36002,-8.594284,-36.90935,0,0,0,91.35358,-26.44792,-28.34908,-125.4133,-110.0997,-86.87933,0.001067912,-0.1257102,0.09433498,0,0.3,0,0,0,0,
6.38224E+17,33.87922,33.01003,26.61588,20.51486,5.468789,55.96552,-56.99155,-0.4675641,6.980833,-72.36002,-8.594284,-36.90935,0,0,0,95.63831,-23.22173,-25.91364,-125.4133,-110.0997,-86.87933,0.001067912,-0.1257102,0.09433498,0,0.3,0,0,0,0,
6.38224E+17,34.82162,33.12691,28.9973,21.61354,4.003886,54.20764,-56.99155,-0.4675641,6.980833,-72.36002,-8.594284,-36.83611,0,0,0,100.6825,-20.40842,-23.60341,-125.4133,-110.0997,-86.87933,0.001067912,-0.1257102,0.09433498,0,0.3,0,0,0,0,
6.38224E+17,35.31638,33.12691,30.25806,22.27274,3.271434,53.40194,-56.99155,-0.4675641,6.980833,-72.36002,-8.594284,-36.90935,0,0,0,103.4031,-18.95786,-22.39701,-125.4133,-110.0997,-86.87933,0.001067912,-0.1257102,0.09433498,0,0.3,0,0,0,0,
6.38224E+17,36.32946,33.12691,32.68617,23.81089,1.586795,51.86379,-56.99155,-0.4675641,6.980833,-72.36002,-8.594284,-36.90935,0,0,0,108.8227,-16.00768,-20.36534,-125.4133,-110.0997,-86.87933,0.001067912,-0.1257102,0.09433498,0,0.3,0,0,0,0,
6.38224E+17,37.05982,33.12691,34.9742,25.27579,0.04864649,50.17915,-56.99155,-0.4675641,6.980833,-72.36002,-8.521038,-36.83611,0,0,0,113.3659,-13.04319,-18.23471,-125.4133,-110.0997,-86.87933,0.001067912,-0.1257102,0.09433498,0,0.3,0,0,0,0,
6.38224E+17,37.3661,33.12691,35.97814,25.78851,-0.9035407,49.51994,-56.99155,-0.4675641,6.980833,-72.36002,-8.594284,-36.83611,0,0,0,115.3215,-11.68716,-17.3306,-125.4133,-110.0997,-86.87933,0.001067912,-0.1257102,0.09433498,0,0.3,0,0,0,0,
6.38224E+17,38.00222,33.08016,38.07939,26.66745,-2.954405,48.20153,-56.99155,-0.4675641,6.980833,-72.36002,-8.594284,-36.83611,0,0,0,119.4313,-8.833371,-15.49709,-125.4133,-110.0997,-86.87933,0.001067912,-0.1257102,0.09433498,0,0.3,0,0,0,0,
6.38224E+17,38.44986,32.79962,40.1106,27.32666,-5.225006,46.80988,-56.99155,-0.4675641,6.980833,-72.36002,-8.594284,-36.90935,0,0,0,123.124,-6.400328,-13.28358,-125.4133,-110.0997,-86.87933,0.001067912,-0.1257102,0.09433498,0,0.3,0,0,0,0,
6.38224E+17,38.70901,32.33206,42.09512,28.05911,-7.642097,45.05199,-56.99155,-0.4675641,6.980833,-72.36002,-8.594284,-36.83611,0,0,0,126.3668,-4.281157,-10.66929,-125.4133,-110.0997,-86.87933,0.001067912,-0.1257102,0.09433498,0,0.3,0,0,0,0,
6.38224E+17,38.85038,32.02814,43.21579,28.42534,-8.740773,44.31954,-56.99155,-0.4675641,6.980833,-72.36002,-8.594284,-36.90935,0,0,0,128.195,-3.112545,-9.194309,-125.4133,-110.0997,-86.87933,0.001067912,-0.1257102,0.09433498,0,0.3,0,0,0,0,
6.38224E+17,39.15665,31.23328,45.48048,29.30428,-10.86488,42.92788,-56.99155,-0.4675641,6.980833,-72.28677,-8.594284,-36.90935,0,0,0,132.0365,-1.003518,-6.207027,-125.4133,-110.0997,-86.87933,0.001067912,-0.1257102,0.09433498,0,0.3,0,0,0,0,
6.38224E+17,39.43937,30.20464,47.62842,30.18322,-12.98899,41.60947,-56.99155,-0.4675641,6.980833,-72.36002,-8.594284,-36.90935,0,0,0,135.7955,0.5676757,-3.26126,-125.4133,-110.0997,-86.87933,0.001067912,-0.1257102,0.09433498,0,0.3,0,0,0,0,
6.38224E+17,39.55717,29.66694,48.63235,30.54945,-13.94118,40.95026,-56.99155,-0.4675641,6.980833,-72.36002,-8.594284,-36.83611,0,0,0,137.5255,1.223127,-1.856976,-125.4133,-110.0997,-86.87933,0.001067912,-0.1257102,0.09433498,0,0.3,0,0,0,0,
6.38224E+17,39.86345,28.59154,51.03712,31.42839,-16.28502,40.14456,-56.99155,-0.4675641,6.980833,-72.36002,-8.594284,-36.83611,0,0,0,141.5081,3.313565,1.111348,-125.4133,-110.0997,-86.87933,0.001067912,-0.1257102,0.09433498,0,0.3,0,0,0,0,
6.38224E+17,40.28753,27.23561,53.30181,32.45382,-18.92185,38.97264,-56.99155,-0.4675641,6.980833,-72.36002,-8.594284,-36.83611,0,0,0,145.804,4.687763,3.652048,-125.4133,-110.0997,-86.87933,0.001067912,-0.1257102,0.09433498,0,0.3,0,0,0,0,
6.38224E+17,40.47601,26.30048,54.35244,32.96654,-20.02053,37.87396,-56.99155,-0.4675641,6.980833,-72.36002,-8.594284,-36.83611,0,0,0,147.9422,4.718457,5.014918,-125.4133,-110.0997,-86.87933,0.001067912,-0.1257102,0.09433498,0,0.3,0,0,0,0,
6.38224E+17,40.82941,24.10293,56.40699,33.84548,-21.48543,35.38363,-56.99155,-0.4675641,6.980833,-72.36002,-8.521038,-36.83611,0,0,0,152.2085,4.025881,7.802388,-125.4133,-110.0997,-86.87933,0.001067912,-0.1257102,0.09433498,0,0.3,0,0,0,0,
6.38224E+17,41.18281,21.81186,58.29812,34.43144,-22.65736,32.45382,-56.99155,-0.4675641,6.980833,-72.36002,-8.521038,-36.83611,0,0,0,156.2249,2.822173,10.21235,-125.4133,-110.0997,-86.87933,0.001067912,-0.1257102,0.09433498,0,0.3,0,0,0,0,
6.38224E+17,41.55977,19.61431,59.88574,34.79766,-23.82928,29.59726,-56.99155,-0.4675641,6.980833,-72.36002,-8.594284,-36.83611,0,0,0,159.8554,1.208671,11.95431,-125.4133,-110.0997,-86.87933,0.001067912,-0.1257102,0.09433498,0,0.3,0,0,0,0,
6.38224E+17,41.79537,18.37527,60.6562,34.87091,-24.41524,28.13236,-56.99155,-0.4675641,6.980833,-72.36002,-8.594284,-36.90935,0,0,0,161.8136,0.03913848,12.65815,-125.4133,-110.0997,-86.87933,0.001067912,-0.1257102,0.09433498,0,0.3,0,0,0,0,
6.38224E+17,42.24301,16.03745,61.98699,34.94416,-25.44067,25.64202,-56.99155,-0.4675641,6.980833,-72.36002,-8.594284,-36.90935,0,0,0,165.3041,-2.440754,13.68021,-125.4133,-110.0997,-86.87933,0.001067912,-0.1257102,0.09433498,0,0.3,0,0,0,0,
6.38224E+17,42.69065,13.74638,63.01427,35.09065,-26.31961,22.71221,-56.99155,-0.4675641,6.980833,-72.36002,-8.521038,-36.83611,0,0,0,168.3988,-5.472802,14.2018,-125.4133,-110.0997,-86.87933,0.001067912,-0.1257102,0.09433498,0,0.3,0,0,0,0,
6.38224E+17,42.90269,12.67099,63.29443,35.09065,-26.75908,21.3938,-56.99155,-0.4675641,6.980833,-72.36002,-8.594284,-36.83611,0,0,0,169.663,-7.327642,14.21196,-125.4133,-110.0997,-86.87933,0.001067912,-0.1257102,0.09433498,0,0.3,0,0,0,0,
6.38224E+17,43.27965,10.52019,63.59795,35.16389,-27.19856,19.19645,-56.99155,-0.4675641,6.980833,-72.36002,-8.521038,-36.83611,0,0,0,171.7667,-11.59906,14.05413,-125.4133,-110.0997,-86.87933,0.001067912,-0.1257102,0.09433498,0,0.3,0,0,0,0,
6.38224E+17,43.70373,8.579801,63.45787,35.16389,-27.12531,17.73154,-56.99155,-0.4675641,6.980833,-72.36002,-8.594284,-36.83611,0,0,0,173.5293,-16.34416,13.21437,-125.4133,-110.0997,-86.87933,0.001067912,-0.1257102,0.09433498,0,0.3,0,0,0,0,
6.38224E+17,43.96289,7.597916,63.15435,35.09065,-26.97882,17.14558,-56.99155,-0.4675641,6.980833,-72.36002,-8.594284,-36.83611,0,0,0,174.3517,-19.23775,12.43064,-125.4133,-110.0997,-86.87933,0.001067912,-0.1257102,0.09433498,0,0.3,0,0,0,0,
6.38224E+17,44.50476,5.821173,62.03368,34.94416,-26.09988,16.41313,-56.99155,-0.4675641,6.980833,-72.36002,-8.594284,-36.90935,0,0,0,175.5507,-25.65992,10.26198,-125.4133,-110.0997,-86.87933,0.001067912,-0.1257102,0.09433498,0,0.3,0,0,0,0,
6.38224E+17,45.23512,4.137942,60.35268,34.65118,-24.78147,16.19339,-56.99155,-0.4675641,6.980833,-72.36002,-8.521038,-36.83611,0,0,0,176.7162,-32.99062,6.921698,-125.4133,-110.0997,-86.87933,0.001067912,-0.1257102,0.09433498,0,0.3,0,0,0,0,
6.38224E+17,46.05972,2.197551,58.46156,34.28495,-23.38981,16.0469,-56.99155,-0.4675641,6.980833,-72.36002,-8.521038,-36.83611,0,0,0,177.7871,-41.28814,2.9792,-125.4133,-110.0997,-86.87933,0.001067912,-0.1257102,0.09433498,0,0.3,0,0,0,0,
6.38224E+17,46.46024,1.239045,57.52766,33.99197,-22.7306,15.97366,-56.99155,-0.4675641,6.980833,-72.36002,-8.521038,-36.83611,0,0,0,178.1938,-45.36107,0.9847677,-125.4133,-110.0997,-86.87933,0.001067912,-0.1257102,0.09433498,0,0.3,0,0,0,0,
6.38224E+17,47.35552,-0.5844551,55.63654,33.62574,-20.97272,16.0469,-56.99155,-0.4675641,6.980833,-72.36002,-8.594284,-36.90935,0,0,0,179.0528,-53.27841,-3.445828,-125.4133,-110.0997,-86.87933,0.001067912,-0.1257102,0.09433498,0,0.3,0,0,0,0,
6.38224E+17,48.34504,-1.005263,52.88156,33.40601,-18.62887,16.19339,-56.99155,-0.4675641,6.980833,-72.36002,-8.594284,-36.83611,0,0,0,179.0656,-59.46154,-9.060678,-125.4133,-110.0997,-86.87933,0.001067912,-0.1257102,0.09433498,0,0.3,0,0,0,0,
6.38224E+17,48.91048,-0.9818845,51.43402,33.33276,-17.38371,16.33988,-56.99155,-0.4675641,6.980833,-72.36002,-8.594284,-36.90935,0,0,0,179.0719,-62.06756,-12.19331,-125.4133,-110.0997,-86.87933,0.001067912,-0.1257102,0.09433498,0,0.3,0,0,0,0,
6.38224E+17,49.92356,-0.9818845,49.26273,33.5525,-14.82012,17.14558,-56.99155,-0.4675641,6.980833,-72.36002,-8.521038,-36.90935,0,0,0,179.3375,-65.95819,-17.45979,-125.4133,-110.0997,-86.87933,0.001067912,-0.1257102,0.09433498,0,0.3,0,0,0,0,
6.38224E+17,51.17223,-0.9818845,48.35219,34.06521,-12.47628,17.95128,-56.99155,-0.4675641,6.980833,-72.36002,-8.521038,-36.83611,0,0,0,181.4958,-67.55286,-22.27877,-125.4133,-110.0997,-86.87933,0.001067912,-0.1257102,0.09433498,0,0.3,0,0,0,0,
6.38224E+17,51.83192,-0.9351282,48.18876,34.57793,-11.23111,18.17101,-56.99155,-0.4675641,6.980833,-72.36002,-8.594284,-36.83611,0,0,0,182.9679,-67.72793,-24.5334,-125.4133,-110.0997,-86.87933,0.001067912,-0.1257102,0.09433498,0,0.3,0,0,0,0,
6.38224E+17,53.22195,-0.8649935,48.00198,35.96959,-8.960509,18.39075,-56.99155,-0.4675641,6.980833,-72.36002,-8.521038,-36.90935,0,0,0,186.1723,-67.88825,-29.18652,-125.4133,-110.0997,-86.87933,0.001067912,-0.1257102,0.09433498,0,0.3,0,0,0,0,
6.38224E+17,54.58843,-0.6779679,47.83855,37.65423,-7.202625,18.46399,-56.99155,-0.4675641,6.980833,-72.36002,-8.521038,-36.90935,0,0,0,189.2351,-67.73532,-33.81011,-125.4133,-110.0997,-86.87933,0.001067912,-0.1257102,0.09433498,0,0.3,0,0,0,0,
6.38224E+17,55.36591,-0.350673,47.4183,39.11913,-5.884212,18.39075,-56.99155,-0.4675641,6.980833,-72.28677,-8.521038,-36.83611,0,0,0,190.5065,-67.69621,-36.761,-125.4133,-110.0997,-86.87933,0.001067912,-0.1257102,0.09433498,0,0.3,0,0,0,0,
6.38224E+17,55.36591,-0.2571602,46.90466,39.5586,-5.444741,18.3175,-56.99155,-0.4675641,6.980833,-72.36002,-8.594284,-36.90935,0,0,0,189.8387,-68.35516,-37.22229,-125.4133,-110.0997,-86.87933,0.001067912,-0.1257102,0.09433498,0,0.3,0,0,0,0,
6.38224E+17,55.36591,0.1870256,45.92407,39.41211,-4.639044,18.90347,-56.99155,-0.4675641,6.980833,-72.36002,-8.594284,-36.90935,0,0,0,188.5446,-68.97445,-38.11616,-125.4133,-110.0997,-86.87933,0.001067912,-0.1257102,0.09433498,0,0.3,0,0,0,0,
6.38224E+17,55.36591,1.355936,44.31311,39.11913,-3.320631,21.24731,-56.99155,-0.4675641,6.980833,-72.36002,-8.594284,-36.90935,0,0,0,186.3376,-68.9108,-39.64057,-125.4133,-110.0997,-86.87933,0.001067912,-0.1257102,0.09433498,0,0.3,0,0,0,0,
6.38224E+17,55.34235,2.291064,43.19244,38.97264,-2.58818,22.78546,-56.99155,-0.4675641,6.980833,-72.36002,-8.594284,-36.83611,0,0,0,184.678,-68.53922,-40.67471,-125.4133,-110.0997,-86.87933,0.001067912,-0.1257102,0.09433498,0,0.3,0,0,0,0,
6.38224E+17,55.27167,4.699019,41.25462,38.82615,-1.269767,26.37447,-56.99155,-0.4675641,6.980833,-72.36002,-8.594284,-36.83611,0,0,0,181.4949,-65.97652,-42.54418,-125.4133,-110.0997,-86.87933,0.001067912,-0.1257102,0.09433498,0,0.3,0,0,0,0,
6.38224E+17,55.22455,7.270621,39.87713,39.11913,-0.3175794,29.45077,-56.99155,-0.4675641,6.980833,-72.36002,-8.594284,-36.83611,0,0,0,178.8784,-62.10937,-44.1399,-125.4133,-110.0997,-86.87933,0.001067912,-0.1257102,0.09433498,0,0.3,0,0,0,0,
6.38224E+17,55.17743,8.369397,39.13002,39.33887,-0.09784385,30.62269,-56.99155,-0.4675641,6.980833,-72.36002,-8.594284,-36.90935,0,0,0,177.3892,-60.68201,-44.95765,-125.4133,-110.0997,-86.87933,0.001067912,-0.1257102,0.09433498,0,0.3,0,0,0,0,
6.38224E+17,54.87115,10.14614,37.19219,39.63185,0.1951368,32.38057,-56.99155,-0.4675641,6.980833,-72.36002,-8.521038,-36.90935,0,0,0,173.2828,-59.38738,-46.43439,-125.4133,-110.0997,-86.87933,0.001067912,-0.1257102,0.09433498,0,0.3,0,0,0,0,
6.38224E+17,54.65911,11.45532,34.95086,39.5586,0.3416272,33.84548,-56.99155,-0.4675641,6.980833,-72.36002,-8.594284,-36.90935,0,0,0,168.9255,-59.46568,-48.56298,-125.4133,-110.0997,-86.87933,0.001067912,-0.1257102,0.09433498,0,0.3,0,0,0,0,
6.38224E+17,54.56487,12.50734,32.42935,39.19238,1.000834,35.45687,-56.99155,-0.4675641,6.980833,-72.36002,-8.594284,-36.90935,0,0,0,164.336,-60.32561,-51.41078,-125.4133,-110.0997,-86.87933,0.001067912,-0.1257102,0.09433498,0,0.3,0,0,0,0,
6.38224E+17,54.54131,13.11517,31.1219,38.89939,1.51355,36.26257,-56.99155,-0.4675641,6.980833,-72.36002,-8.521038,-36.83611,0,0,0,161.9253,-60.54853,-53.02584,-125.4133,-110.0997,-86.87933,0.001067912,-0.1257102,0.09433498,0,0.3,0,0,0,0,
6.38224E+17,54.54131,14.588,28.85722,38.38668,2.246002,37.94721,-56.99155,-0.4675641,6.980833,-72.36002,-8.594284,-36.83611,0,0,0,157.5387,-59.85486,-56.15004,-125.4133,-110.0997,-86.87933,0.001067912,-0.1257102,0.09433498,0,0.3,0,0,0,0,
6.38224E+17,54.56487,16.85568,25.96216,38.02045,2.978453,40.29105,-56.99155,-0.4675641,6.980833,-72.36002,-8.521038,-36.83611,0,0,0,151.5466,-57.87633,-60.51154,-125.4133,-110.0997,-86.87933,0.001067912,-0.1257102,0.09433498,0,0.3,0,0,0,0,
6.38224E+17,54.56487,18.21162,24.32785,37.87396,3.344679,41.8292,-56.99155,-0.4675641,6.980833,-72.36002,-8.594284,-36.83611,0,0,0,147.9666,-56.48339,-63.05899,-125.4133,-110.0997,-86.87933,0.001067912,-0.1257102,0.09433498,0,0.3,0,0,0,0,
6.38224E+17,54.51775,20.94687,21.22267,37.80072,3.93064,44.53928,-56.99155,-0.4675641,6.980833,-72.36002,-8.594284,-36.83611,0,0,0,140.7176,-53.28339,-68.04288,-125.4133,-110.0997,-86.87933,0.001067912,-0.1257102,0.09433498,0,0.3,0,0,0,0,
6.38224E+17,54.28215,23.61198,19.09806,37.50774,3.78415,46.3704,-56.99155,-0.4675641,6.980833,-72.36002,-8.521038,-36.83611,0,0,0,134.6263,-49.24831,-71.54755,-125.4133,-110.0997,-86.87933,0.001067912,-0.1257102,0.09433498,0,0.3,0,0,0,0,
6.38224E+17,54.18791,24.7809,18.28091,37.288,3.564415,46.88312,-56.99155,-0.4675641,6.980833,-72.36002,-8.521038,-36.83611,0,0,0,132.1018,-47.37626,-73.03282,-125.4133,-110.0997,-86.87933,0.001067912,-0.1257102,0.09433498,0,0.3,0,0,0,0,
6.38224E+17,54.09367,26.65115,16.90342,36.77529,3.198189,47.46908,-56.99155,-0.4675641,6.980833,-72.36002,-8.594284,-36.90935,0,0,0,127.9398,-44.42368,-75.7155,-125.4133,-110.0997,-86.87933,0.001067912,-0.1257102,0.09433498,0,0.3,0,0,0,0,
6.38224E+17,54.09367,27.82006,15.52593,36.11608,2.685472,47.61557,-56.99155,-0.4675641,6.980833,-72.36002,-8.594284,-36.83611,0,0,0,124.4379,-42.90002,-78.251,-125.4133,-110.0997,-86.87933,0.001067912,-0.1257102,0.09433498,0,0.3,0,0,0,0,
6.38224E+17,53.95231,28.52141,13.98501,35.53012,2.538982,46.88312,-56.99155,-0.4675641,6.980833,-72.36002,-8.594284,-36.83611,0,0,0,120.7883,-42.37447,-80.43848,-125.4133,-110.0997,-86.87933,0.001067912,-0.1257102,0.09433498,0,0.3,0,0,0,0,
6.38224E+17,53.71671,28.73181,12.60752,35.09065,2.465737,46.29716,-56.99155,-0.4675641,6.980833,-72.36002,-8.594284,-36.90935,0,0,0,117.7217,-42.68194,-81.9277,-125.4133,-110.0997,-86.87933,0.001067912,-0.1257102,0.09433498,0,0.3,0,0,0,0,
6.38224E+17,53.05703,28.66168,9.47899,34.2117,2.685472,45.41821,-56.99155,-0.4675641,6.980833,-72.36002,-8.521038,-36.83611,0,0,0,111.0705,-44.21969,-84.82561,-125.4133,-110.0997,-86.87933,0.001067912,-0.1257102,0.09433498,0,0.3,0,0,0,0,
6.38224E+17,51.97327,27.91357,5.113051,32.45382,3.198189,44.17305,-56.99155,-0.4675641,6.980833,-72.36002,-8.594284,-36.83611,0,0,0,102.1832,-47.04301,-88.43893,-125.4133,-110.0997,-86.87933,0.001067912,-0.1257102,0.09433498,0,0.3,0,0,0,0,
6.38224E+17,51.45495,27.11872,3.572132,31.35514,3.93064,43.66033,-56.99155,-0.4675641,6.980833,-72.36002,-8.594284,-36.83611,0,0,0,99.3278,-48.95523,-89.21352,-125.4133,-110.0997,-86.87933,0.001067912,-0.1257102,0.09433498,0,0.3,0,0,0,0,
6.38224E+17,51.078,25.01468,2.241338,29.45077,5.835015,43.22086,-56.99155,-0.4675641,6.980833,-72.36002,-8.594284,-36.90935,0,0,0,98.07247,-53.51088,-89.15328,-125.4133,-110.0997,-86.87933,0.001067912,-0.1257102,0.09433498,0,0.3,0,0,0,0,
6.38224E+17,51.33715,22.98077,2.124601,28.35209,8.105616,43.80682,-56.99155,-0.4675641,6.980833,-72.36002,-8.594284,-36.83611,0,0,0,99.72089,-57.84553,-88.56463,-125.4133,-110.0997,-86.87933,0.001067912,-0.1257102,0.09433498,0,0.3,0,0,0,0,
6.38224E+17,51.59631,21.99889,2.124601,28.05911,9.204292,44.24629,-56.99155,-0.4675641,6.980833,-72.36002,-8.521038,-36.83611,0,0,0,100.7658,-59.95694,-88.47349,-125.4133,-110.0997,-86.87933,0.001067912,-0.1257102,0.09433498,0,0.3,0,0,0,0,
6.38224E+17,52.1382,19.84809,2.428116,27.91262,11.10867,45.05199,-56.99155,-0.4675641,6.980833,-72.36002,-8.521038,-36.90935,0,0,0,103.4852,-64.60427,-87.8997,-125.4133,-110.0997,-86.87933,0.001067912,-0.1257102,0.09433498,0,0.3,0,0,0,0,
6.38224E+17,52.44447,17.46352,3.24527,28.42534,12.50033,45.63795,-56.99155,-0.4675641,6.980833,-72.28677,-8.521038,-36.83611,0,0,0,106.8269,-69.76802,-86.21421,-125.4133,-110.0997,-86.87933,0.001067912,-0.1257102,0.09433498,0,0.3,0,0,0,0,
6.38224E+17,52.49159,16.10758,3.852299,28.71832,13.15953,46.15067,-56.99155,-0.4675641,6.980833,-72.36002,-8.594284,-36.90935,0,0,0,108.7359,-72.70184,-84.88863,-125.4133,-110.0997,-86.87933,0.001067912,-0.1257102,0.09433498,0,0.3,0,0,0,0,
6.38224E+17,52.53872,14.21395,4.996315,29.30428,14.18496,46.88312,-56.99155,-0.4675641,6.980833,-72.36002,-8.594284,-36.90935,0,0,0,111.8265,-76.7501,-82.66247,-125.4133,-110.0997,-86.87933,0.001067912,-0.1257102,0.09433498,0,0.3,0,0,0,0,
6.38224E+17,52.53872,12.64761,6.327109,29.817,15.2104,47.8353,-56.99155,-0.4675641,6.980833,-72.36002,-8.521038,-36.83611,0,0,0,114.9451,-79.99023,-80.27287,-125.4133,-110.0997,-86.87933,0.001067912,-0.1257102,0.09433498,0,0.3,0,0,0,0,
6.38224E+17,52.58583,11.33843,7.797987,30.40295,15.8696,49.15372,-56.99155,-0.4675641,6.980833,-72.36002,-8.521038,-36.83611,0,0,0,118.2187,-82.54974,-77.91868,-125.4133,-110.0997,-86.87933,0.001067912,-0.1257102,0.09433498,0,0.3,0,0,0,0,
6.38224E+17,52.58583,10.70722,8.498405,30.76918,16.16258,49.88617,-56.99155,-0.4675641,6.980833,-72.36002,-8.594284,-36.83611,0,0,0,119.7235,-83.76067,-76.76759,-125.4133,-110.0997,-86.87933,0.001067912,-0.1257102,0.09433498,0,0.3,0,0,0,0,
6.38224E+17,52.58583,9.538307,9.829199,31.57488,16.6753,51.27783,-56.99155,-0.4675641,6.980833,-72.36002,-8.594284,-36.90935,0,0,0,122.5318,-85.94553,-74.61932,-125.4133,-110.0997,-86.87933,0.001067912,-0.1257102,0.09433498,0,0.3,0,0,0,0,
6.38224E+17,52.58583,8.06548,11.97715,32.38057,17.33451,52.23001,-56.99155,-0.4675641,6.980833,-72.36002,-8.594284,-36.90935,0,0,0,126.8472,-88.3874,-71.31831,-125.4133,-110.0997,-86.87933,0.001067912,-0.1257102,0.09433498,0,0.3,0,0,0,0,
6.38224E+17,52.58583,7.223865,13.16786,32.7468,17.70073,52.523,-56.99155,-0.4675641,6.980833,-72.36002,-8.594284,-36.90935,0,0,0,129.2024,-89.72552,-69.51666,-125.4133,-110.0997,-86.87933,0.001067912,-0.1257102,0.09433498,0,0.3,0,0,0,0,
6.38224E+17,52.56227,5.07307,16.27304,33.69899,18.65292,52.30326,-56.99155,-0.4675641,6.980833,-72.36002,-8.594284,-36.90935,0,0,0,135.1368,-92.866,-64.88908,-125.4133,-110.0997,-86.87933,0.001067912,-0.1257102,0.09433498,0,0.3,0,0,0,0,
6.38224E+17,52.49159,2.758628,19.70509,34.57793,19.89809,50.9116,-56.99155,-0.4675641,6.980833,-72.36002,-8.521038,-36.83611,0,0,0,141.3266,-95.77316,-59.87337,-125.4133,-110.0997,-86.87933,0.001067912,-0.1257102,0.09433498,0,0.3,0,0,0,0,
6.38224E+17,52.37379,1.589718,21.54953,35.0174,20.55729,49.81293,-56.99155,-0.4675641,6.980833,-72.36002,-8.594284,-36.83611,0,0,0,144.3668,-96.97946,-57.0674,-125.4133,-110.0997,-86.87933,0.001067912,-0.1257102,0.09433498,0,0.3,0,0,0,0,
6.38224E+17,52.18531,-0.4675641,24.65471,35.67661,21.87571,47.76206,-56.99155,-0.4675641,6.980833,-72.36002,-8.594284,-36.83611,0,0,0,149.2878,-98.93177,-52.48924,-125.4133,-110.0997,-86.87933,0.001067912,-0.1257102,0.09433498,0,0.3,0,0,0,0,
6.38224E+17,52.02039,-1.005263,26.75597,36.26257,23.34061,46.66338,-56.99155,-0.4675641,6.980833,-72.36002,-8.594284,-36.90935,0,0,0,152.4141,-98.06202,-49.3584,-125.4133,-110.0997,-86.87933,0.001067912,-0.1257102,0.09433498,0,0.3,0,0,0,0,
6.38224E+17,51.9026,-1.005263,28.22684,37.06827,24.14631,46.29716,-56.99155,-0.4675641,6.980833,-72.36002,-8.521038,-36.83611,0,0,0,154.5589,-96.4818,-47.17166,-125.4133,-110.0997,-86.87933,0.001067912,-0.1257102,0.09433498,0,0.3,0,0,0,0,
6.38224E+17,51.85547,-1.005263,28.6471,37.58098,24.58578,46.44365,-56.99155,-0.4675641,6.980833,-72.36002,-8.521038,-36.83611,0,0,0,155.1356,-96.01604,-46.51337,-125.4133,-110.0997,-86.87933,0.001067912,-0.1257102,0.09433498,0,0.3,0,0,0,0,
6.38224E+17,51.57275,-1.005263,29.25412,38.53317,25.17174,47.24934,-56.99155,-0.4675641,6.980833,-72.36002,-8.521038,-36.83611,0,0,0,155.501,-95.33218,-44.98101,-125.4133,-110.0997,-86.87933,0.001067912,-0.1257102,0.09433498,0,0.3,0,0,0,0,
6.38224E+17,51.078,-1.005263,29.23078,39.33887,25.83095,48.64101,-56.99155,-0.4675641,6.980833,-72.36002,-8.594284,-36.90935,0,0,0,154.393,-95.35872,-43.67263,-125.4133,-110.0997,-86.87933,0.001067912,-0.1257102,0.09433498,0,0.3,0,0,0,0,
6.38224E+17,50.79528,-1.005263,29.06735,39.5586,26.27042,49.37346,-56.99155,-0.4675641,6.980833,-72.36002,-8.594284,-36.90935,0,0,0,153.5185,-95.54399,-43.1223,-125.4133,-110.0997,-86.87933,0.001067912,-0.1257102,0.09433498,0,0.3,0,0,0,0,
6.38224E+17,50.15916,-1.005263,28.6471,39.85158,27.07611,51.13134,-56.99155,-0.4675641,6.980833,-72.36002,-8.594284,-36.90935,0,0,0,151.461,-96.01604,-41.97444,-125.4133,-110.0997,-86.87933,0.001067912,-0.1257102,0.09433498,0,0.3,0,0,0,0,
6.38224E+17,49.40524,-1.005263,27.66651,40.07132,27.73532,53.25545,-56.99155,-0.4675641,6.980833,-72.36002,-8.594284,-36.90935,0,0,0,148.2572,-97.09298,-41.30175,-125.4133,-110.0997,-86.87933,0.001067912,-0.1257102,0.09433498,0,0.3,0,0,0,0,
6.38224E+17,48.53352,-1.005263,26.28902,39.92483,28.46777,55.67254,-56.99155,-0.4675641,6.980833,-72.36002,-8.594284,-36.83611,0,0,0,144.1662,-98.54731,-40.95277,-125.4133,-110.0997,-86.87933,0.001067912,-0.1257102,0.09433498,0,0.3,0,0,0,0,
6.38224E+17,48.10944,-1.005263,25.5886,39.85158,28.834,56.84446,-56.99155,-0.4675641,6.980833,-72.36002,-8.594284,-36.83611,0,0,0,142.1281,-99.26035,-40.86803,-125.4133,-110.0997,-86.87933,0.001067912,-0.1257102,0.09433498,0,0.3,0,0,0,0,
6.38224E+17,47.19061,-1.028641,23.88425,39.5586,29.56645,59.40804,-56.99155,-0.4675641,6.980833,-72.36002,-8.521038,-36.83611,0,0,0,137.4219,-100.9745,-41.05408,-125.4133,-110.0997,-86.87933,0.001067912,-0.1257102,0.09433498,0,0.3,0,0,0,0,
6.38224E+17,46.13041,-1.028641,21.75965,39.26562,30.2989,62.19136,-56.99155,-0.4675641,6.980833,-72.36002,-8.521038,-36.83611,0,0,0,131.7575,-102.8924,-41.69156,-125.4133,-110.0997,-86.87933,0.001067912,-0.1257102,0.09433498,0,0.3,0,0,0,0,
6.38224E+17,45.56496,-1.028641,20.80241,39.11913,30.59188,63.58302,-56.99155,-0.4675641,6.980833,-72.36002,-8.521038,-36.83611,0,0,0,129.0188,-103.7009,-41.85082,-125.4133,-110.0997,-86.87933,0.001067912,-0.1257102,0.09433498,0,0.3,0,0,0,0,
6.38224E+17,44.45765,-1.028641,18.42099,38.60641,31.25109,66.58607,-56.99155,-0.4675641,6.980833,-72.36002,-8.594284,-36.83611,0,0,0,122.8937,-105.5611,-43.10744,-125.4133,-110.0997,-86.87933,0.001067912,-0.1257102,0.09433498,0,0.3,0,0,0,0,
6.38224E+17,43.39745,-1.028641,15.43254,37.80072,31.69056,69.00316,-56.99155,-0.4675641,6.980833,-72.36002,-8.594284,-36.90935,0,0,0,115.9841,-107.5859,-45.68927,-125.4133,-110.0997,-86.87933,0.001067912,-0.1257102,0.09433498,0,0.3,0,0,0,0,
6.38224E+17,42.87913,-1.028641,13.79823,37.43449,31.9103,70.02859,-56.99155,-0.4675641,6.980833,-72.36002,-8.594284,-36.90935,0,0,0,112.3654,-108.5457,-47.34209,-125.4133,-110.0997,-86.87933,0.001067912,-0.1257102,0.09433498,0,0.3,0,0,0,0,
6.38224E+17,41.79537,-1.028641,10.48292,36.40906,32.13003,71.4935,-56.99155,-0.4675641,6.980833,-72.36002,-8.594284,-36.90935,0,0,0,105.0297,-110.1682,-50.86155,-125.4133,-110.0997,-86.87933,0.001067912,-0.1257102,0.09433498,0,0.3,0,0,0,0,
6.38224E+17,40.66449,-1.005263,7.868029,35.53012,32.27652,73.03164,-56.99155,-0.4675641,6.980833,-72.36002,-8.594284,-36.90935,0,0,0,98.77644,-111.0842,-53.36773,-125.4133,-110.0997,-86.87933,0.001067912,-0.1257102,0.09433498,0,0.3,0,0,0,0,
6.38224E+17,39.81633,-1.005263,6.443846,35.45687,32.34977,75.52198,-56.99155,-0.4675641,6.980833,-72.36002,-8.594284,-36.90935,0,0,0,94.95771,-111.4971,-54.44426,-125.4133,-110.0997,-86.87933,0.001067912,-0.1257102,0.09433498,0,0.3,0,0,0,0,
6.38224E+17,39.76921,-0.9117499,6.093637,35.89634,32.42301,77.20662,-56.99155,-0.4675641,6.980833,-72.36002,-8.594284,-36.90935,0,0,0,94.34805,-111.3685,-54.98615,-125.4133,-110.0997,-86.87933,0.001067912,-0.1257102,0.09433498,0,0.3,0,0,0,0,
6.38224E+17,39.9577,-0.07013461,6.070289,37.94721,32.42301,81.08862,-56.99155,-0.4675641,6.980833,-72.36002,-8.594284,-36.83611,0,0,0,94.69654,-109.4155,-55.32568,-125.4133,-110.0997,-86.87933,0.001067912,-0.1257102,0.09433498,0,0.3,0,0,0,0,
6.38224E+17,40.52313,2.010525,5.906858,41.02351,30.95811,85.55657,-56.99155,-0.4675641,6.980833,-72.36002,-8.521038,-36.90935,0,0,0,95.50825,-104.6136,-56.61559,-125.4133,-110.0997,-86.87933,0.001067912,-0.1257102,0.09433498,0,0.3,0,0,0,0,
6.38224E+17,40.85297,3.132679,5.696733,42.41516,29.85943,87.46095,-56.99155,-0.4675641,6.980833,-72.36002,-8.521038,-36.90935,0,0,0,95.75499,-102.0541,-57.62391,-125.4133,-110.0997,-86.87933,0.001067912,-0.1257102,0.09433498,0,0.3,0,0,0,0,
6.38224E+17,41.22993,5.236718,5.04301,44.68576,27.2226,90.46399,-56.99155,-0.4675641,6.980833,-72.36002,-8.594284,-36.90935,0,0,0,95.24753,-97.31284,-59.66424,-125.4133,-110.0997,-86.87933,0.001067912,-0.1257102,0.09433498,0,0.3,0,0,0,0,
6.38224E+17,41.25349,7.177108,3.875646,45.93093,24.80551,92.14863,-56.99155,-0.4675641,6.980833,-72.36002,-8.594284,-36.90935,0,0,0,93.1842,-93.03471,-62.10684,-125.4133,-110.0997,-86.87933,0.001067912,-0.1257102,0.09433498,0,0.3,0,0,0,0,
6.38224E+17,41.18281,9.187634,2.661588,46.15067,22.6814,93.10082,-56.99155,-0.4675641,6.980833,-72.36002,-8.594284,-36.83611,0,0,0,90.75708,-88.5644,-64.61625,-125.4133,-110.0997,-86.87933,0.001067912,-0.1257102,0.09433498,0,0.3,0,0,0,0,
6.38224E+17,41.13569,10.30979,2.241338,46.15067,21.65597,93.61353,-56.99155,-0.4675641,6.980833,-72.36002,-8.594284,-36.83611,0,0,0,89.73798,-86.0323,-65.61068,-125.4133,-110.0997,-86.87933,0.001067912,-0.1257102,0.09433498,0,0.3,0,0,0,0,
6.38224E+17,40.99433,12.62423,1.70435,45.93093,19.45862,94.56573,-56.99155,-0.4675641,6.980833,-72.36002,-8.594284,-36.83611,0,0,0,87.96246,-80.79658,-67.14056,-125.4133,-110.0997,-86.87933,0.001067912,-0.1257102,0.09433498,0,0.3,0,0,0,0,
6.38224E+17,40.75874,14.82178,1.377489,45.7112,17.26126,95.44467,-56.99155,-0.4675641,6.980833,-72.36002,-8.521038,-36.83611,0,0,0,86.25695,-75.84876,-68.27473,-125.4133,-110.0997,-86.87933,0.001067912,-0.1257102,0.09433498,0,0.3,0,0,0,0,
6.38224E+17,40.57025,16.06083,1.307447,45.5647,16.23583,95.95738,-56.99155,-0.4675641,6.980833,-72.36002,-8.521038,-36.83611,0,0,0,85.32194,-73.07298,-68.69852,-125.4133,-110.0997,-86.87933,0.001067912,-0.1257102,0.09433498,0,0.3,0,0,0,0,
6.38224E+17,40.19329,18.11811,1.2841,45.27173,14.33146,97.05606,-56.99155,-0.4675641,6.980833,-72.36002,-8.594284,-36.83611,0,0,0,83.72139,-68.49776,-69.25559,-125.4133,-110.0997,-86.87933,0.001067912,-0.1257102,0.09433498,0,0.3,0,0,0,0,
6.38224E+17,39.76921,19.94161,1.2841,44.97874,12.28059,98.15474,-56.99155,-0.4675641,6.980833,-72.36002,-8.521038,-36.83611,0,0,0,82.10047,-64.48586,-69.70222,-125.4133,-110.0997,-86.87933,0.001067912,-0.1257102,0.09433498,0,0.3,0,0,0,0,
6.38224E+17,39.53362,20.73647,1.2841,44.83226,11.25516,98.66745,-56.99155,-0.4675641,6.980833,-72.36002,-8.521038,-36.90935,0,0,0,81.28485,-62.75126,-69.86137,-125.4133,-110.0997,-86.87933,0.001067912,-0.1257102,0.09433498,0,0.3,0,0,0,0,
6.38224E+17,38.99174,21.97551,1.2841,44.46603,9.350782,99.54639,-56.99155,-0.4675641,6.980833,-72.36002,-8.594284,-36.90935,0,0,0,79.68902,-60.06557,-69.91323,-125.4133,-110.0997,-86.87933,0.001067912,-0.1257102,0.09433498,0,0.3,0,0,0,0,
6.38224E+17,38.33206,22.79375,1.2841,44.0998,7.519653,100.7916,-56.99155,-0.4675641,6.980833,-72.28677,-8.521038,-36.83611,0,0,0,78.10061,-58.30472,-69.57115,-125.4133,-110.0997,-86.87933,0.001067912,-0.1257102,0.09433498,0,0.3,0,0,0,0,
6.38224E+17,37.88441,23.12104,1.237405,43.88007,6.787202,101.3775,-56.99155,-0.4675641,6.980833,-72.36002,-8.594284,-36.83611,0,0,0,77.07733,-57.6057,-69.28424,-125.4133,-110.0997,-86.87933,0.001067912,-0.1257102,0.09433498,0,0.3,0,0,0,0,
6.38224E+17,36.91846,23.56523,1.003932,43.36735,5.322299,102.5494,-56.99155,-0.4675641,6.980833,-72.36002,-8.521038,-36.83611,0,0,0,74.8239,-56.66716,-68.76076,-125.4133,-110.0997,-86.87933,0.001067912,-0.1257102,0.09433498,0,0.3,0,0,0,0,
6.38224E+17,35.76402,23.79901,0.4902926,42.26867,4.370111,103.8679,-56.99155,-0.4675641,6.980833,-72.36002,-8.594284,-36.83611,0,0,0,71.97591,-56.18446,-68.42074,-125.4133,-110.0997,-86.87933,0.001067912,-0.1257102,0.09433498,0,0.3,0,0,0,0,
6.38224E+17,34.56246,23.82239,-0.09338906,41.02351,3.63766,104.82,-56.99155,-0.4675641,6.980833,-72.36002,-8.594284,-36.83611,0,0,0,69.08149,-56.13939,-68.07018,-125.4133,-110.0997,-86.87933,0.001067912,-0.1257102,0.09433498,0,0.3,0,0,0,0,
6.38224E+17,33.90279,23.82239,-0.3735563,40.29105,3.344679,105.1863,-56.99155,-0.4675641,6.980833,-72.36002,-8.521038,-36.90935,0,0,0,67.55865,-56.13673,-67.82267,-125.4133,-110.0997,-86.87933,0.001067912,-0.1257102,0.09433498,0,0.3,0,0,0,0,
6.38224E+17,32.55987,23.77563,-0.8638488,38.60641,2.978453,105.4793,-56.99155,-0.4675641,6.980833,-72.36002,-8.594284,-36.83611,0,0,0,64.59367,-56.22397,-67.19165,-125.4133,-110.0997,-86.87933,0.001067912,-0.1257102,0.09433498,0,0.3,0,0,0,0,
6.38224E+17,31.09915,23.51847,-1.54092,36.77529,2.978453,105.5525,-56.99155,-0.4675641,6.980833,-72.36002,-8.521038,-36.83611,0,0,0,61.30424,-56.73917,-66.72139,-125.4133,-110.0997,-86.87933,0.001067912,-0.1257102,0.09433498,0,0.3,0,0,0,0,
6.38224E+17,30.39235,23.28469,-1.891129,35.74985,3.051698,105.5525,-56.99155,-0.4675641,6.980833,-72.36002,-8.521038,-36.83611,0,0,0,59.74307,-57.2141,-66.48924,-125.4133,-110.0997,-86.87933,0.001067912,-0.1257102,0.09433498,0,0.3,0,0,0,0,
6.38224E+17,29.16723,22.70024,-2.568199,33.5525,3.198189,105.5525,-56.99155,-0.4675641,6.980833,-72.36002,-8.594284,-36.90935,0,0,0,57.0431,-58.40499,-66.14617,-125.4133,-110.0997,-86.87933,0.001067912,-0.1257102,0.09433498,0,0.3,0,0,0,0,
6.38224E+17,28.48399,22.04565,-3.151881,31.2819,3.710905,105.3328,-56.99155,-0.4675641,6.980833,-72.36002,-8.594284,-36.83611,0,0,0,55.44982,-59.74601,-66.15606,-125.4133,-110.0997,-86.87933,0.001067912,-0.1257102,0.09433498,0,0.3,0,0,0,0,
6.38224E+17,28.36619,21.22741,-3.525437,29.74375,4.150376,104.1608,-56.99155,-0.4675641,6.980833,-72.36002,-8.594284,-36.83611,0,0,0,55.16084,-61.46555,-66.18814,-125.4133,-110.0997,-86.87933,0.001067912,-0.1257102,0.09433498,0,0.3,0,0,0,0,
6.38224E+17,28.36619,20.61958,-3.712215,29.30428,4.370111,103.5749,-56.99155,-0.4675641,6.980833,-72.36002,-8.594284,-36.83611,0,0,0,55.19474,-62.75948,-66.12534,-125.4133,-110.0997,-86.87933,0.001067912,-0.1257102,0.09433498,0,0.3,0,0,0,0,
6.38224E+17,28.36619,19.14675,-4.062424,28.93805,4.882828,103.0622,-56.99155,-0.4675641,6.980833,-72.36002,-8.594284,-36.83611,0,0,0,55.36226,-65.92765,-65.81509,-125.4133,-110.0997,-86.87933,0.001067912,-0.1257102,0.09433498,0,0.3,0,0,0,0,
6.38224E+17,28.36619,17.27649,-4.599411,28.93805,5.835015,102.8424,-56.99155,-0.4675641,6.980833,-72.36002,-8.521038,-36.90935,0,0,0,55.41647,-69.96787,-65.71468,-125.4133,-110.0997,-86.87933,0.001067912,-0.1257102,0.09433498,0,0.3,0,0,0,0,
6.38224E+17,28.36619,16.20109,-4.926273,28.93805,6.347731,102.8424,-56.99155,-0.4675641,6.980833,-72.36002,-8.594284,-36.83611,0,0,0,55.39877,-72.3015,-65.74747,-125.4133,-110.0997,-86.87933,0.001067912,-0.1257102,0.09433498,0,0.3,0,0,0,0,
6.38224E+17,28.36619,13.69963,-5.836816,28.93805,7.666144,102.7692,-56.99155,-0.4675641,6.980833,-72.36002,-8.521038,-36.90935,0,0,0,55.1099,-77.72713,-66.28247,-125.4133,-110.0997,-86.87933,0.001067912,-0.1257102,0.09433498,0,0.3,0,0,0,0,
6.38224E+17,28.36619,10.59033,-6.677318,28.86481,9.570518,102.4762,-56.99155,-0.4675641,6.980833,-72.36002,-8.594284,-36.90935,0,0,0,54.9093,-84.58768,-66.654,-125.4133,-110.0997,-86.87933,0.001067912,-0.1257102,0.09433498,0,0.3,0,0,0,0,
6.38224E+17,28.36619,8.930473,-7.027527,28.79156,10.74244,102.2565,-56.99155,-0.4675641,6.980833,-72.36002,-8.594284,-36.90935,0,0,0,54.83596,-88.29751,-66.78983,-125.4133,-110.0997,-86.87933,0.001067912,-0.1257102,0.09433498,0,0.3,0,0,0,0,
6.38224E+17,28.36619,5.657525,-7.42443,28.71832,12.86655,101.8902,-56.99155,-0.4675641,6.980833,-72.36002,-8.594284,-36.83611,0,0,0,54.85999,-95.7361,-66.74532,-125.4133,-110.0997,-86.87933,0.001067912,-0.1257102,0.09433498,0,0.3,0,0,0,0,
6.38224E+17,28.36619,2.969032,-7.377736,29.0113,15.13715,101.7438,-56.99155,-0.4675641,6.980833,-72.36002,-8.594284,-36.90935,0,0,0,55.13476,-101.989,-66.23643,-125.4133,-110.0997,-86.87933,0.001067912,-0.1257102,0.09433498,0,0.3,0,0,0,0,
6.38224E+17,28.31907,1.940391,-7.214305,29.23104,16.16258,101.6705,-56.99155,-0.4675641,6.980833,-72.36002,-8.594284,-36.83611,0,0,0,55.27838,-104.4291,-65.76873,-125.4133,-110.0997,-86.87933,0.001067912,-0.1257102,0.09433498,0,0.3,0,0,0,0,
6.38224E+17,27.98923,0.3974294,-6.770707,29.67051,17.77398,101.524,-56.99155,-0.4675641,6.980833,-72.36002,-8.594284,-36.90935,0,0,0,55.20223,-108.145,-64.48263,-125.4133,-110.0997,-86.87933,0.001067912,-0.1257102,0.09433498,0,0.3,0,0,0,0,
6.38224E+17,27.09396,-0.6312115,-6.49054,29.67051,18.72616,100.7183,-56.99155,-0.4675641,6.980833,-72.36002,-8.521038,-36.90935,0,0,0,53.86534,-110.6143,-63.06051,-125.4133,-110.0997,-86.87933,0.001067912,-0.1257102,0.09433498,0,0.3,0,0,0,0,
6.38224E+17,25.63324,-1.005263,-6.443846,28.71832,19.45862,99.54639,-56.99155,-0.4675641,6.980833,-72.36002,-8.594284,-36.83611,0,0,0,51.20518,-111.4971,-61.63546,-125.4133,-110.0997,-86.87933,0.001067912,-0.1257102,0.09433498,0,0.3,0,0,0,0,
6.38224E+17,24.8322,-1.005263,-6.443846,27.91262,19.7516,98.88718,-56.99155,-0.4675641,6.980833,-72.36002,-8.594284,-36.83611,0,0,0,49.70827,-111.4971,-60.93003,-125.4133,-110.0997,-86.87933,0.001067912,-0.1257102,0.09433498,0,0.3,0,0,0,0,
6.38224E+17,23.25368,-1.005263,-6.443846,26.08149,20.19107,97.86176,-56.99155,-0.4675641,6.980833,-72.36002,-8.521038,-36.83611,0,0,0,46.73033,-111.4971,-59.60149,-125.4133,-110.0997,-86.87933,0.001067912,-0.1257102,0.09433498,0,0.3,0,0,0,0,
6.38224E+17,21.60448,-1.005263,-6.443846,24.25036,20.48405,97.27579,-56.99155,-0.4675641,6.980833,-72.36002,-8.594284,-36.90935,0,0,0,43.58119,-111.4971,-58.30164,-125.4133,-110.0997,-86.87933,0.001067912,-0.1257102,0.09433498,0,0.3,0,0,0,0,
6.38224E+17,20.73277,-1.005263,-6.467193,23.37142,20.55729,96.98281,-56.99155,-0.4675641,6.980833,-72.36002,-8.521038,-36.90935,0,0,0,41.88278,-111.491,-57.70184,-125.4133,-110.0997,-86.87933,0.001067912,-0.1257102,0.09433498,0,0.3,0,0,0,0,
6.38224E+17,18.87153,-1.005263,-6.49054,21.46704,20.63054,96.54334,-56.99155,-0.4675641,6.980833,-72.36002,-8.594284,-36.83611,0,0,0,38.24948,-111.4848,-56.45099,-125.4133,-110.0997,-86.87933,0.001067912,-0.1257102,0.09433498,0,0.3,0,0,0,0,
6.38224E+17,16.93961,-1.005263,-6.49054,19.1232,20.70378,95.59116,-56.99155,-0.4675641,6.980833,-72.36002,-8.594284,-36.83611,0,0,0,34.45541,-111.4848,-55.22513,-125.4133,-110.0997,-86.87933,0.001067912,-0.1257102,0.09433498,0,0.3,0,0,0,0,
6.38224E+17,15.87941,-1.005263,-6.49054,17.73154,20.77703,94.93195,-56.99155,-0.4675641,6.980833,-72.36002,-8.594284,-36.83611,0,0,0,32.35637,-111.4848,-54.60697,-125.4133,-110.0997,-86.87933,0.001067912,-0.1257102,0.09433498,0,0.3,0,0,0,0,
6.38224E+17,13.49986,-1.005263,-6.49054,14.582,20.92352,93.32056,-56.99155,-0.4675641,6.980833,-72.36002,-8.521038,-36.83611,0,0,0,27.60596,-111.4848,-53.36164,-125.4133,-110.0997,-86.87933,0.001067912,-0.1257102,0.09433498,0,0.3,0,0,0,0,
6.38224E+17,10.81402,-0.9351282,-6.327109,10.99299,21.2165,90.97672,-56.99155,-0.4675641,6.980833,-72.36002,-8.521038,-36.83611,0,0,0,22.25877,-111.3641,-51.82036,-125.4133,-110.0997,-86.87933,0.001067912,-0.1257102,0.09433498,0,0.3,0,0,0,0,
6.38224E+17,7.232908,-0.6312115,-5.930205,6.305296,21.58273,87.60744,-56.99155,-0.4675641,6.980833,-72.36002,-8.594284,-36.83611,0,0,0,15.05355,-110.7554,-49.73683,-125.4133,-110.0997,-86.87933,0.001067912,-0.1257102,0.09433498,0,0.3,0,0,0,0,
6.38224E+17,5.183192,-0.4441859,-5.533302,3.228999,21.58273,85.62981,-56.99155,-0.4675641,6.980833,-72.28677,-8.521038,-36.90935,0,0,0,10.88492,-110.4124,-48.35487,-125.4133,-110.0997,-86.87933,0.001067912,-0.1257102,0.09433498,0,0.3,0,0,0,0,
6.38224E+17,1.460718,-0.09351282,-4.155813,-4.095518,21.14326,81.3816,-56.99155,-0.4675641,6.980833,-72.36002,-8.521038,-36.90935,0,0,0,3.152952,-109.867,-44.70412,-125.4133,-110.0997,-86.87933,0.001067912,-0.1257102,0.09433498,0,0.3,0,0,0,0,
6.38224E+17,-1.460718,0.5844551,-2.544852,-12.15249,20.4108,76.91364,-56.99155,-0.4675641,6.980833,-72.36002,-8.594284,-36.83611,0,0,0,-3.24819,-108.5082,-40.96928,-125.4133,-110.0997,-86.87933,0.001067912,-0.1257102,0.09433498,0,0.3,0,0,0,0,
6.38224E+17,-2.403116,1.075397,-1.914476,-15.88799,19.97133,74.93602,-56.99155,-0.4675641,6.980833,-72.36002,-8.521038,-36.83611,0,0,0,-5.403585,-107.4228,-39.59174,-125.4133,-110.0997,-86.87933,0.001067912,-0.1257102,0.09433498,0,0.3,0,0,0,0,
6.38224E+17,-3.392634,2.220929,-1.02728,-21.89409,18.79941,71.93297,-56.99155,-0.4675641,6.980833,-72.28677,-8.521038,-36.83611,0,0,0,-7.743984,-104.8109,-37.72026,-125.4133,-110.0997,-86.87933,0.001067912,-0.1257102,0.09433498,0,0.3,0,0,0,0,
6.38224E+17,-3.840273,3.38984,-0.3969035,-25.84933,17.70073,69.66236,-56.99155,-0.4675641,6.980833,-72.36002,-8.594284,-36.83611,0,0,0,-8.853655,-102.1119,-36.45388,-125.4133,-110.0997,-86.87933,0.001067912,-0.1257102,0.09433498,0,0.3,0,0,0,0,
6.38224E+17,-4.028753,4.021051,-0.1167363,-27.38748,17.26126,68.56369,-56.99155,-0.4675641,6.980833,-72.36002,-8.594284,-36.83611,0,0,0,-9.326632,-100.6488,-35.92799,-125.4133,-110.0997,-86.87933,0.001067912,-0.1257102,0.09433498,0,0.3,0,0,0,0,
6.38224E+17,-4.382153,5.493878,0.350209,-29.87782,16.52881,66.43958,-56.99155,-0.4675641,6.980833,-72.36002,-8.594284,-36.90935,0,0,0,-10.20454,-97.23066,-35.18791,-125.4133,-110.0997,-86.87933,0.001067912,-0.1257102,0.09433498,0,0.3,0,0,0,0,
6.38224E+17,-4.499953,7.177108,0.7471125,-31.78219,15.64987,64.90143,-56.99155,-0.4675641,6.980833,-72.36002,-8.521038,-36.83611,0,0,0,-10.51686,-93.32834,-34.71926,-125.4133,-110.0997,-86.87933,0.001067912,-0.1257102,0.09433498,0,0.3,0,0,0,0,
6.38224E+17,-4.570632,8.836961,1.120669,-33.02736,14.84417,63.72951,-56.99155,-0.4675641,6.980833,-72.36002,-8.521038,-36.83611,0,0,0,-10.70809,-89.48882,-34.40219,-125.4133,-110.0997,-86.87933,0.001067912,-0.1257102,0.09433498,0,0.3,0,0,0,0,
6.38224E+17,-4.617752,9.678576,1.307447,-33.61332,14.4047,63.14355,-56.99155,-0.4675641,6.980833,-72.36002,-8.521038,-36.83611,0,0,0,-10.82786,-87.54637,-34.29194,-125.4133,-110.0997,-86.87933,0.001067912,-0.1257102,0.09433498,0,0.3,0,0,0,0,
6.38224E+17,-4.641313,11.33843,1.634309,-34.49226,13.599,62.04487,-56.99155,-0.4675641,6.980833,-72.36002,-8.594284,-36.90935,0,0,0,-10.88751,-83.72864,-34.24064,-125.4133,-110.0997,-86.87933,0.001067912,-0.1257102,0.09433498,0,0.3,0,0,0,0,
6.38224E+17,-4.641313,12.81126,2.031212,-35.29796,12.9398,60.94619,-56.99155,-0.4675641,6.980833,-72.36002,-8.594284,-36.90935,0,0,0,-10.9042,-80.34718,-34.03509,-125.4133,-110.0997,-86.87933,0.001067912,-0.1257102,0.09433498,0,0.3,0,0,0,0,
6.38224E+17,-4.617752,13.5126,2.241338,-35.95716,12.64682,60.28699,-56.99155,-0.4675641,6.980833,-72.36002,-8.594284,-36.90935,0,0,0,-10.85839,-78.73952,-33.91397,-125.4133,-110.0997,-86.87933,0.001067912,-0.1257102,0.09433498,0,0.3,0,0,0,0,
6.38224E+17,-4.382153,14.63475,2.381421,-37.20233,11.98761,58.82208,-56.99155,-0.4675641,6.980833,-72.36002,-8.594284,-36.90935,0,0,0,-10.28187,-76.19312,-34.17887,-125.4133,-110.0997,-86.87933,0.001067912,-0.1257102,0.09433498,0,0.3,0,0,0,0,
6.38224E+17,-3.793154,15.3361,2.264685,-38.15452,11.3284,57.43042,-56.99155,-0.4675641,6.980833,-72.28677,-8.521038,-36.83611,0,0,0,-8.856191,-74.62733,-34.77228,-125.4133,-110.0997,-86.87933,0.001067912,-0.1257102,0.09433498,0,0.3,0,0,0,0,
6.38224E+17,-3.510434,15.47637,2.124601,-38.4475,11.18191,56.84446,-56.99155,-0.4675641,6.980833,-72.36002,-8.521038,-36.83611,0,0,0,-8.171703,-74.32509,-35.14195,-125.4133,-110.0997,-86.87933,0.001067912,-0.1257102,0.09433498,0,0.3,0,0,0,0,
6.38224E+17,-2.968555,15.49975,1.727698,-38.81373,11.10867,55.74578,-56.99155,-0.4675641,6.980833,-72.36002,-8.594284,-36.83611,0,0,0,-6.862967,-74.3037,-36.00712,-125.4133,-110.0997,-86.87933,0.001067912,-0.1257102,0.09433498,0,0.3,0,0,0,0,
6.38224E+17,-2.426676,15.35948,1.307447,-38.74048,11.25516,54.86684,-56.99155,-0.4675641,6.980833,-72.36002,-8.594284,-36.90935,0,0,0,-5.573315,-74.6443,-36.83823,-125.4133,-110.0997,-86.87933,0.001067912,-0.1257102,0.09433498,0,0.3,0,0,0,0,
6.38224E+17,-2.026157,14.89192,0.793807,-38.4475,11.40165,54.13439,-56.99155,-0.4675641,6.980833,-72.36002,-8.594284,-36.90935,0,0,0,-4.62165,-75.71673,-37.7132,-125.4133,-110.0997,-86.87933,0.001067912,-0.1257102,0.09433498,0,0.3,0,0,0,0,
6.38224E+17,-1.861237,14.588,0.5369871,-38.30101,11.54814,53.69492,-56.99155,-0.4675641,6.980833,-72.36002,-8.594284,-36.90935,0,0,0,-4.23204,-76.40772,-38.11792,-125.4133,-110.0997,-86.87933,0.001067912,-0.1257102,0.09433498,0,0.3,0,0,0,0,
6.38224E+17,-1.554958,14.09706,0.1400836,-38.00803,12.06085,52.88922,-56.99155,-0.4675641,6.980833,-72.36002,-8.521038,-36.90935,0,0,0,-3.518431,-77.52019,-38.73761,-125.4133,-110.0997,-86.87933,0.001067912,-0.1257102,0.09433498,0,0.3,0,0,0,0,
6.38224E+17,-1.272238,13.58274,-0.1867781,-37.71505,12.57357,52.37651,-56.99155,-0.4675641,6.980833,-72.36002,-8.521038,-36.83611,0,0,0,-2.8683,-78.68214,-39.19611,-125.4133,-110.0997,-86.87933,0.001067912,-0.1257102,0.09433498,0,0.3,0,0,0,0,
6.38224E+17,-1.130878,13.34895,-0.3268617,-37.56856,12.79331,52.08353,-56.99155,-0.4675641,6.980833,-72.28677,-8.594284,-36.90935,0,0,0,-2.54571,-79.20983,-39.38871,-125.4133,-110.0997,-86.87933,0.001067912,-0.1257102,0.09433498,0,0.3,0,0,0,0,
6.38224E+17,-0.8481586,13.11517,-0.5369871,-37.27558,13.15953,51.64405,-56.99155,-0.4675641,6.980833,-72.36002,-8.594284,-36.83611,0,0,0,-1.903941,-79.7358,-39.74217,-125.4133,-110.0997,-86.87933,0.001067912,-0.1257102,0.09433498,0,0.3,0,0,0,0,
6.38224E+17,-0.5183191,13.02166,-0.6770707,-36.90935,13.45251,51.42432,-56.99155,-0.4675641,6.980833,-72.36002,-8.594284,-36.83611,0,0,0,-1.161042,-79.94435,-40.01013,-125.4133,-110.0997,-86.87933,0.001067912,-0.1257102,0.09433498,0,0.3,0,0,0,0,
6.38224E+17,-0.2827196,12.99828,-0.7471125,-36.76286,13.67225,51.27783,-56.99155,-0.4675641,6.980833,-72.36002,-8.594284,-36.83611,0,0,0,-0.632558,-79.99534,-40.15719,-125.4133,-110.0997,-86.87933,0.001067912,-0.1257102,0.09433498,0,0.3,0,0,0,0,
6.38224E+17,0.04711992,12.95152,-0.9105434,-36.46988,13.89198,50.98485,-56.99155,-0.4675641,6.980833,-72.36002,-8.594284,-36.83611,0,0,0,0.1051341,-80.09588,-40.51157,-125.4133,-110.0997,-86.87933,0.001067912,-0.1257102,0.09433498,0,0.3,0,0,0,0,
6.38224E+17,0.3062795,12.7645,-1.097321,-36.32339,13.96523,50.76511,-56.99155,-0.4675641,6.980833,-72.36002,-8.521038,-36.83611,0,0,0,0.6815627,-80.51263,-40.85112,-125.4133,-110.0997,-86.87933,0.001067912,-0.1257102,0.09433498,0,0.3,0,0,0,0,
6.38224E+17,0.4476392,12.46058,-1.2841,-36.1769,14.18496,50.47213,-56.99155,-0.4675641,6.980833,-72.36002,-8.594284,-36.90935,0,0,0,0.9939358,-81.19386,-41.13334,-125.4133,-110.0997,-86.87933,0.001067912,-0.1257102,0.09433498,0,0.3,0,0,0,0,
6.38224E+17,0.4711992,12.29694,-1.377489,-36.10366,14.25821,50.39889,-56.99155,-0.4675641,6.980833,-72.36002,-8.521038,-36.83611,0,0,0,1.045132,-81.56083,-41.26941,-125.4133,-110.0997,-86.87933,0.001067912,-0.1257102,0.09433498,0,0.3,0,0,0,0,
6.38224E+17,0.4947592,11.89951,-1.564267,-36.03041,14.4047,50.2524,-56.99155,-0.4675641,6.980833,-72.36002,-8.594284,-36.90935,0,0,0,1.095308,-82.4541,-41.51054,-125.4133,-110.0997,-86.87933,0.001067912,-0.1257102,0.09433498,0,0.3,0,0,0,0,
6.38224E+17,0.4947592,11.59559,-1.751045,-36.03041,14.55119,50.2524,-56.99155,-0.4675641,6.980833,-72.36002,-8.594284,-36.90935,0,0,0,1.0928,-83.13405,-41.80104,-125.4133,-110.0997,-86.87933,0.001067912,-0.1257102,0.09433498,0,0.3,0,0,0,0,
6.38224E+17,0.4947592,11.4787,-1.844434,-36.03041,14.69768,50.32565,-56.99155,-0.4675641,6.980833,-72.36002,-8.594284,-36.90935,0,0,0,1.091394,-83.39378,-41.96387,-125.4133,-110.0997,-86.87933,0.001067912,-0.1257102,0.09433498,0,0.3,0,0,0,0,
6.38224E+17,0.4947592,11.24492,-1.96117,-36.03041,14.84417,50.32565,-56.99155,-0.4675641,6.980833,-72.36002,-8.594284,-36.83611,0,0,0,1.089975,-83.91821,-42.12821,-125.4133,-110.0997,-86.87933,0.001067912,-0.1257102,0.09433498,0,0.3,0,0,0,0,
6.38224E+17,0.4947592,11.01113,-2.171296,-35.95716,15.13715,50.39889,-56.99155,-0.4675641,6.980833,-72.36002,-8.594284,-36.90935,0,0,0,1.086661,-84.43444,-42.51191,-125.4133,-110.0997,-86.87933,0.001067912,-0.1257102,0.09433498,0,0.3,0,0,0,0,
6.38224E+17,0.4711992,10.91762,-2.288032,-35.88392,15.2104,50.39889,-56.99155,-0.4675641,6.980833,-72.36002,-8.521038,-36.83611,0,0,0,1.033024,-84.63754,-42.74156,-125.4133,-110.0997,-86.87933,0.001067912,-0.1257102,0.09433498,0,0.3,0,0,0,0,
6.38224E+17,0.4005193,10.80073,-2.544852,-35.51769,15.57662,50.39889,-56.99155,-0.4675641,6.980833,-72.36002,-8.594284,-36.90935,0,0,0,0.8742571,-84.87952,-43.2863,-125.4133,-110.0997,-86.87933,0.001067912,-0.1257102,0.09433498,0,0.3,0,0,0,0,
6.38224E+17,0.2827196,10.66046,-2.754977,-35.00498,15.8696,50.39889,-56.99155,-0.4675641,6.980833,-72.36002,-8.521038,-36.83611,0,0,0,0.6150146,-85.17767,-43.7125,-125.4133,-110.0997,-86.87933,0.001067912,-0.1257102,0.09433498,0,0.3,0,0,0,0,
6.38224E+17,0.2355996,10.59033,-2.778325,-34.41902,16.23583,50.39889,-56.99155,-0.4675641,6.980833,-72.28677,-8.594284,-36.90935,0,0,0,0.5124134,-85.33547,-43.73621,-125.4133,-110.0997,-86.87933,0.001067912,-0.1257102,0.09433498,0,0.3,0,0,0,0,
6.38224E+17,0.2355996,10.59033,-2.778325,-34.12604,16.38232,50.47213,-56.99155,-0.4675641,6.980833,-72.36002,-8.521038,-36.83611,0,0,0,0.5124134,-85.33547,-43.73621,-125.4133,-110.0997,-86.87933,0.001067912,-0.1257102,0.09433498,0,0.3,0,0,0,0,
6.38224E+17,0.3062795,10.59033,-2.778325,-33.54007,16.38232,50.83836,-56.99155,-0.4675641,6.980833,-72.36002,-8.521038,-36.83611,0,0,0,0.6661361,-85.33547,-43.73694,-125.4133,-110.0997,-86.87933,0.001067912,-0.1257102,0.09433498,0,0.3,0,0,0,0,
6.38224E+17,0.7303588,10.47344,-2.754977,-33.02736,16.16258,51.79055,-56.99155,-0.4675641,6.980833,-72.36002,-8.594284,-36.90935,0,0,0,1.589769,-85.60556,-43.64129,-125.4133,-110.0997,-86.87933,0.001067912,-0.1257102,0.09433498,0,0.3,0,0,0,0,
6.38224E+17,1.130878,10.42668,-2.754977,-32.58789,16.08934,52.30326,-56.99155,-0.4675641,6.980833,-72.36002,-8.521038,-36.83611,0,0,0,2.461874,-85.71258,-43.63572,-125.4133,-110.0997,-86.87933,0.001067912,-0.1257102,0.09433498,0,0.3,0,0,0,0,
6.38224E+17,2.073277,10.37992,-2.778325,-31.48921,16.08934,53.40194,-56.99155,-0.4675641,6.980833,-72.36002,-8.594284,-36.83611,0,0,0,4.51149,-85.81699,-43.72768,-125.4133,-110.0997,-86.87933,0.001067912,-0.1257102,0.09433498,0,0.3,0,0,0,0,
6.38224E+17,3.086355,10.30979,-2.918408,-30.24404,16.08934,54.28088,-56.99155,-0.4675641,6.980833,-72.28677,-8.521038,-36.83611,0,0,0,6.698233,-85.96136,-44.12281,-125.4133,-110.0997,-86.87933,0.001067912,-0.1257102,0.09433498,0,0.3,0,0,0,0,
6.38224E+17,3.746034,10.23965,-3.081839,-29.43835,16.08934,54.64711,-56.99155,-0.4675641,6.980833,-72.36002,-8.521038,-36.90935,0,0,0,8.105141,-86.10207,-44.55815,-125.4133,-110.0997,-86.87933,0.001067912,-0.1257102,0.09433498,0,0.3,0,0,0,0,
6.38224E+17,5.371671,10.00587,-3.455395,-27.60722,16.16258,55.01333,-56.99155,-0.4675641,6.980833,-72.36002,-8.521038,-36.90935,0,0,0,11.54141,-86.58813,-45.60688,-125.4133,-110.0997,-86.87933,0.001067912,-0.1257102,0.09433498,0,0.3,0,0,0,0,
6.38224E+17,7.044428,9.865602,-3.782257,-25.55635,16.38232,55.15982,-56.99155,-0.4675641,6.980833,-72.36002,-8.594284,-36.90935,0,0,0,15.03328,-86.86168,-46.69368,-125.4133,-110.0997,-86.87933,0.001067912,-0.1257102,0.09433498,0,0.3,0,0,0,0,
6.38224E+17,9.070585,9.842223,-4.062424,-22.84628,16.74854,55.37956,-56.99155,-0.4675641,6.980833,-72.36002,-8.594284,-36.83611,0,0,0,19.22404,-86.87068,-47.93445,-125.4133,-110.0997,-86.87933,0.001067912,-0.1257102,0.09433498,0,0.3,0,0,0,0,
6.38224E+17,10.2957,9.842223,-4.132466,-21.16164,17.04152,55.74578,-56.99155,-0.4675641,6.980833,-72.28677,-8.594284,-36.90935,0,0,0,21.76516,-86.85904,-48.53298,-125.4133,-110.0997,-86.87933,0.001067912,-0.1257102,0.09433498,0,0.3,0,0,0,0,
6.38224E+17,12.86374,9.865602,-4.132466,-17.27965,17.62749,56.99095,-56.99155,-0.4675641,6.980833,-72.36002,-8.521038,-36.83611,0,0,0,27.10971,-86.80543,-49.63759,-125.4133,-110.0997,-86.87933,0.001067912,-0.1257102,0.09433498,0,0.3,0,0,0,0,
6.38224E+17,15.73805,10.02925,-3.969035,-12.81169,18.1402,58.60235,-56.99155,-0.4675641,6.980833,-72.28677,-8.521038,-36.83611,0,0,0,33.11353,-86.45715,-50.84449,-125.4133,-110.0997,-86.87933,0.001067912,-0.1257102,0.09433498,0,0.3,0,0,0,0,
6.38224E+17,17.10453,10.21628,-3.805604,-10.54109,18.28669,59.3348,-56.99155,-0.4675641,6.980833,-72.36002,-8.594284,-36.83611,0,0,0,35.99541,-86.05444,-51.37799,-125.4133,-110.0997,-86.87933,0.001067912,-0.1257102,0.09433498,0,0.3,0,0,0,0,
6.38224E+17,20.07309,10.59033,-3.24527,-5.340686,18.21345,61.16593,-56.99155,-0.4675641,6.980833,-72.36002,-8.521038,-36.83611,0,0,0,42.39764,-85.27837,-52.32416,-125.4133,-110.0997,-86.87933,0.001067912,-0.1257102,0.09433498,0,0.3,0,0,0,0,
6.38224E+17,22.78248,10.91762,-2.638241,-0.2135241,17.92047,62.41109,-56.99155,-0.4675641,6.980833,-72.36002,-8.594284,-36.90935,0,0,0,48.32614,-84.60251,-53.2882,-125.4133,-110.0997,-86.87933,0.001067912,-0.1257102,0.09433498,0,0.3,0,0,0,0,
6.38224E+17,25.46832,11.10465,-1.96117,4.767147,17.62749,63.0703,-56.99155,-0.4675641,6.980833,-72.36002,-8.521038,-36.90935,0,0,0,54.30611,-84.23847,-54.33267,-125.4133,-110.0997,-86.87933,0.001067912,-0.1257102,0.09433498,0,0.3,0,0,0,0,
6.38224E+17,26.717,11.12803,-1.517572,7.184238,17.62749,63.21679,-56.99155,-0.4675641,6.980833,-72.36002,-8.594284,-36.90935,0,0,0,57.23709,-84.21642,-54.63077,-125.4133,-110.0997,-86.87933,0.001067912,-0.1257102,0.09433498,0,0.3,0,0,0,0,
6.38224E+17,28.83739,11.24492,-0.02334727,11.5057,17.33451,63.36329,-56.99155,-0.4675641,6.980833,-72.36002,-8.594284,-36.83611,0,0,0,63.05715,-83.9963,-53.82657,-125.4133,-110.0997,-86.87933,0.001067912,-0.1257102,0.09433498,0,0.3,0,0,0,0,
6.38224E+17,30.65151,11.36181,1.260752,15.46094,16.96828,63.43653,-56.99155,-0.4675641,6.980833,-72.36002,-8.521038,-36.90935,0,0,0,68.14735,-83.69726,-53.3552,-125.4133,-110.0997,-86.87933,0.001067912,-0.1257102,0.09433498,0,0.3,0,0,0,0,
6.38224E+17,31.45255,11.40856,1.937823,17.07234,16.74854,63.43653,-56.99155,-0.4675641,6.980833,-72.36002,-8.594284,-36.90935,0,0,0,70.55907,-83.54659,-52.99373,-125.4133,-110.0997,-86.87933,0.001067912,-0.1257102,0.09433498,0,0.3,0,0,0,0,
6.38224E+17,33.07819,11.50208,3.665521,20.22188,16.45556,63.50977,-56.99155,-0.4675641,6.980833,-72.36002,-8.521038,-36.83611,0,0,0,75.97151,-83.13676,-51.71288,-125.4133,-110.0997,-86.87933,0.001067912,-0.1257102,0.09433498,0,0.3,0,0,0,0,
6.38224E+17,34.72738,11.64235,5.603344,23.73765,15.8696,63.50977,-56.99155,-0.4675641,6.980833,-72.36002,-8.594284,-36.83611,0,0,0,81.8203,-82.45254,-50.30706,-125.4133,-110.0997,-86.87933,0.001067912,-0.1257102,0.09433498,0,0.3,0,0,0,0,
6.38224E+17,35.52842,11.73586,6.653971,25.71527,15.35689,63.50977,-56.99155,-0.4675641,6.980833,-72.36002,-8.521038,-36.83611,0,0,0,84.84975,-81.97836,-49.51977,-125.4133,-110.0997,-86.87933,0.001067912,-0.1257102,0.09433498,0,0.3,0,0,0,0,
6.38224E+17,36.94202,11.94626,8.918655,29.96349,14.25821,63.80275,-56.99155,-0.4675641,6.980833,-72.36002,-8.594284,-36.90935,0,0,0,90.8334,-80.78505,-47.55588,-125.4133,-110.0997,-86.87933,0.001067912,-0.1257102,0.09433498,0,0.3,0,0,0,0,
6.38224E+17,38.1907,12.27356,10.97322,34.28495,13.23278,64.31547,-56.99155,-0.4675641,6.980833,-72.36002,-8.594284,-36.90935,0,0,0,96.25723,-79.2144,-45.988,-125.4133,-110.0997,-86.87933,0.001067912,-0.1257102,0.09433498,0,0.3,0,0,0,0,
6.38224E+17,39.34513,12.71774,13.00443,38.53317,12.1341,65.48739,-56.99155,-0.4675641,6.980833,-72.36002,-8.521038,-36.90935,0,0,0,101.4928,-77.22316,-44.54915,-125.4133,-110.0997,-86.87933,0.001067912,-0.1257102,0.09433498,0,0.3,0,0,0,0,
6.38224E+17,39.88701,12.99828,14.05505,40.58403,11.54814,66.07335,-56.99155,-0.4675641,6.980833,-72.36002,-8.594284,-36.90935,0,0,0,104.0904,-76.01455,-43.80189,-125.4133,-110.0997,-86.87933,0.001067912,-0.1257102,0.09433498,0,0.3,0,0,0,0,
6.38224E+17,40.82941,13.91003,16.22635,44.31954,10.37621,66.87905,-56.99155,-0.4675641,6.980833,-72.36002,-8.594284,-36.90935,0,0,0,108.9911,-72.63097,-42.21351,-125.4133,-110.0997,-86.87933,0.001067912,-0.1257102,0.09433498,0,0.3,0,0,0,0,
6.38224E+17,41.79537,15.31272,18.46769,48.12829,8.984557,67.46501,-56.99155,-0.4675641,6.980833,-72.36002,-8.594284,-36.83611,0,0,0,113.8716,-67.91677,-40.97088,-125.4133,-110.0997,-86.87933,0.001067912,-0.1257102,0.09433498,0,0.3,0,0,0,0,
6.38224E+17,42.21945,16.20109,19.63505,50.10591,8.105616,67.75799,-56.99155,-0.4675641,6.980833,-72.36002,-8.594284,-36.83611,0,0,0,116.1596,-65.04006,-40.33116,-125.4133,-110.0997,-86.87933,0.001067912,-0.1257102,0.09433498,0,0.3,0,0,0,0,
6.38224E+17,42.76133,17.90771,21.89973,53.69492,6.274486,68.19746,-56.99155,-0.4675641,6.980833,-72.36002,-8.594284,-36.83611,0,0,0,119.9202,-59.37413,-38.67256,-125.4133,-110.0997,-86.87933,0.001067912,-0.1257102,0.09433498,0,0.3,0,0,0,0,
6.38224E+17,43.09117,19.7312,24.04768,56.99095,4.663092,68.4172,-56.99155,-0.4675641,6.980833,-72.36002,-8.521038,-36.83611,0,0,0,122.8736,-53.40609,-37.00386,-125.4133,-110.0997,-86.87933,0.001067912,-0.1257102,0.09433498,0,0.3,0,0,0,0,
6.38224E+17,43.20897,20.82998,25.07496,58.60235,3.78415,68.49045,-56.99155,-0.4675641,6.980833,-72.36002,-8.594284,-36.83611,0,0,0,124.0253,-50.01357,-36.31789,-125.4133,-110.0997,-86.87933,0.001067912,-0.1257102,0.09433498,0,0.3,0,0,0,0,
6.38224E+17,43.39745,22.93402,26.84936,61.23917,2.172756,68.19746,-56.99155,-0.4675641,6.980833,-72.36002,-8.594284,-36.90935,0,0,0,125.756,-43.66188,-35.35488,-125.4133,-110.0997,-86.87933,0.001067912,-0.1257102,0.09433498,0,0.3,0,0,0,0,
6.38224E+17,43.60949,24.96792,28.43697,63.14355,0.6346079,67.39177,-56.99155,-0.4675641,6.980833,-72.36002,-8.521038,-36.90935,0,0,0,127.1796,-37.62172,-34.84257,-125.4133,-110.0997,-86.87933,0.001067912,-0.1257102,0.09433498,0,0.3,0,0,0,0,
6.38224E+17,43.72729,27.07196,29.55764,64.90143,-0.7570504,66.1466,-56.99155,-0.4675641,6.980833,-72.36002,-8.594284,-36.83611,0,0,0,127.5458,-31.95701,-35.00811,-125.4133,-110.0997,-86.87933,0.001067912,-0.1257102,0.09433498,0,0.3,0,0,0,0,
6.38224E+17,43.72729,28.07722,29.90785,65.56064,-1.489502,65.56064,-56.99155,-0.4675641,6.980833,-72.36002,-8.521038,-36.83611,0,0,0,127.2865,-29.47891,-35.27928,-125.4133,-110.0997,-86.87933,0.001067912,-0.1257102,0.09433498,0,0.3,0,0,0,0,
6.38224E+17,43.72729,30.1345,30.39814,66.51283,-3.027651,64.53521,-56.99155,-0.4675641,6.980833,-72.36002,-8.521038,-36.83611,0,0,0,126.3587,-24.72247,-36.24923,-125.4133,-110.0997,-86.87933,0.001067912,-0.1257102,0.09433498,0,0.3,0,0,0,0,
6.38224E+17,43.68017,32.21516,30.53822,67.02554,-4.712289,63.94925,-56.99155,-0.4675641,6.980833,-72.36002,-8.594284,-36.90935,0,0,0,124.7129,-20.41416,-37.75492,-125.4133,-110.0997,-86.87933,0.001067912,-0.1257102,0.09433498,0,0.3,0,0,0,0,
6.38224E+17,43.63305,33.19705,30.53822,67.17203,-5.591231,63.80275,-56.99155,-0.4675641,6.980833,-72.36002,-8.594284,-36.83611,0,0,0,123.7534,-18.49126,-38.54609,-125.4133,-110.0997,-86.87933,0.001067912,-0.1257102,0.09433498,0,0.3,0,0,0,0,
6.38224E+17,43.51525,35.09068,30.53822,67.31852,-7.642097,63.65627,-56.99155,-0.4675641,6.980833,-72.36002,-8.594284,-36.90935,0,0,0,121.7831,-14.84386,-40.08572,-125.4133,-110.0997,-86.87933,0.001067912,-0.1257102,0.09433498,0,0.3,0,0,0,0,
6.38224E+17,43.32677,36.86742,30.51488,67.24528,-9.399981,63.50977,-56.99155,-0.4675641,6.980833,-72.36002,-8.594284,-36.83611,0,0,0,119.6616,-11.52527,-41.48704,-125.4133,-110.0997,-86.87933,0.001067912,-0.1257102,0.09433498,0,0.3,0,0,0,0,
6.38224E+17,43.20897,37.61553,30.44483,67.09879,-10.20568,63.43653,-56.99155,-0.4675641,6.980833,-72.36002,-8.594284,-36.83611,0,0,0,118.5829,-10.22187,-42.11167,-125.4133,-110.0997,-86.87933,0.001067912,-0.1257102,0.09433498,0,0.3,0,0,0,0,
6.38224E+17,42.99693,39.06498,29.97789,66.73256,-11.67058,62.99706,-56.99155,-0.4675641,6.980833,-72.36002,-8.594284,-36.90935,0,0,0,116.0474,-8.122863,-43.89107,-125.4133,-110.0997,-86.87933,0.001067912,-0.1257102,0.09433498,0,0.3,0,0,0,0,
6.38224E+17,42.69065,40.42091,28.78718,65.70713,-12.98899,62.41109,-56.99155,-0.4675641,6.980833,-72.36002,-8.594284,-36.90935,0,0,0,112.3751,-7.056019,-46.53038,-125.4133,-110.0997,-86.87933,0.001067912,-0.1257102,0.09433498,0,0.3,0,0,0,0,
6.38224E+17,42.47861,40.95861,28.01672,64.90143,-13.72145,62.11811,-56.99155,-0.4675641,6.980833,-72.36002,-8.594284,-36.83611,0,0,0,110.3073,-6.960039,-47.8804,-125.4133,-110.0997,-86.87933,0.001067912,-0.1257102,0.09433498,0,0.3,0,0,0,0,
6.38224E+17,42.10165,41.70671,26.31237,62.92381,-14.67363,61.89838,-56.99155,-0.4675641,6.980833,-72.36002,-8.594284,-36.83611,0,0,0,106.3754,-7.463573,-50.62884,-125.4133,-110.0997,-86.87933,0.001067912,-0.1257102,0.09433498,0,0.3,0,0,0,0,
6.38224E+17,41.51265,41.87036,24.3045,60.87295,-15.47933,61.75189,-56.99155,-0.4675641,6.980833,-72.36002,-8.594284,-36.83611,0,0,0,102.1916,-9.177197,-52.89483,-125.4133,-110.0997,-86.87933,0.001067912,-0.1257102,0.09433498,0,0.3,0,0,0,0,
6.38224E+17,40.66449,41.54307,21.66626,58.45585,-16.21178,61.75189,-56.99155,-0.4675641,6.980833,-72.36002,-8.594284,-36.90935,0,0,0,97.11842,-12.14341,-55.29778,-125.4133,-110.0997,-86.87933,0.001067912,-0.1257102,0.09433498,0,0.3,0,0,0,0,
6.38224E+17,40.16973,41.14564,20.21873,56.91771,-16.43152,61.67865,-56.99155,-0.4675641,6.980833,-72.36002,-8.594284,-36.83611,0,0,0,94.50317,-14.04198,-56.4007,-125.4133,-110.0997,-86.87933,0.001067912,-0.1257102,0.09433498,0,0.3,0,0,0,0,
6.38224E+17,39.34513,39.62605,17.39371,53.54843,-16.50476,61.82513,-56.99155,-0.4675641,6.980833,-72.36002,-8.594284,-36.83611,0,0,0,90.38952,-18.85512,-58.09291,-125.4133,-110.0997,-86.87933,0.001067912,-0.1257102,0.09433498,0,0.3,0,0,0,0,
6.38224E+17,39.03886,37.10121,14.73212,50.76511,-15.99205,62.77732,-56.99155,-0.4675641,6.980833,-72.36002,-8.521038,-36.83611,0,0,0,88.34682,-25.17613,-59.40191,-125.4133,-110.0997,-86.87933,0.001067912,-0.1257102,0.09433498,0,0.3,0,0,0,0,
6.38224E+17,39.03886,35.48811,13.26125,49.59319,-15.55258,63.43653,-56.99155,-0.4675641,6.980833,-72.36002,-8.594284,-36.83611,0,0,0,87.65441,-29.02991,-60.25579,-125.4133,-110.0997,-86.87933,0.001067912,-0.1257102,0.09433498,0,0.3,0,0,0,0,
6.38224E+17,39.03886,32.09827,10.45957,47.61557,-13.79469,65.3409,-56.99155,-0.4675641,6.980833,-72.36002,-8.594284,-36.90935,0,0,0,86.39894,-36.92556,-61.80401,-125.4133,-110.0997,-86.87933,0.001067912,-0.1257102,0.09433498,0,0.3,0,0,0,0,
6.38224E+17,39.18022,28.91884,8.218237,45.78444,-11.45084,67.17203,-56.99155,-0.4675641,6.980833,-72.36002,-8.521038,-36.83611,0,0,0,85.78286,-44.14651,-63.09563,-125.4133,-110.0997,-86.87933,0.001067912,-0.1257102,0.09433498,0,0.3,0,0,0,0,
6.38224E+17,39.32158,27.44601,7.401083,45.05199,-9.912696,67.90449,-56.99155,-0.4675641,6.980833,-72.36002,-8.594284,-36.83611,0,0,0,85.87415,-47.42633,-63.51285,-125.4133,-110.0997,-86.87933,0.001067912,-0.1257102,0.09433498,0,0.3,0,0,0,0,
6.38224E+17,39.7221,25.38873,6.700665,43.95331,-6.836399,68.85667,-56.99155,-0.4675641,6.980833,-72.36002,-8.594284,-36.83611,0,0,0,86.93232,-51.91432,-63.72164,-125.4133,-110.0997,-86.87933,0.001067912,-0.1257102,0.09433498,0,0.3,0,0,0,0,
6.38224E+17,40.40533,23.84577,6.653971,43.51384,-4.639044,69.58913,-56.99155,-0.4675641,6.980833,-72.36002,-8.594284,-36.90935,0,0,0,89.07339,-55.19156,-63.70885,-125.4133,-110.0997,-86.87933,0.001067912,-0.1257102,0.09433498,0,0.3,0,0,0,0,
6.38224E+17,41.67757,22.32619,6.74736,42.92788,-2.514934,69.22289,-56.99155,-0.4675641,6.980833,-72.36002,-8.594284,-36.83611,0,0,0,92.44041,-58.41954,-64.51535,-125.4133,-110.0997,-86.87933,0.001067912,-0.1257102,0.09433498,0,0.3,0,0,0,0,
6.38224E+17,42.61997,21.74173,7.074222,42.48841,-1.123276,67.83124,-56.99155,-0.4675641,6.980833,-72.36002,-8.594284,-36.83611,0,0,0,94.99261,-59.58891,-65.11854,-125.4133,-110.0997,-86.87933,0.001067912,-0.1257102,0.09433498,0,0.3,0,0,0,0,
6.38224E+17,44.50476,21.017,8.171543,42.19543,1.000834,64.46196,-56.99155,-0.4675641,6.980833,-72.36002,-8.594284,-36.83611,0,0,0,100.5419,-60.82078,-66.05487,-125.4133,-110.0997,-86.87933,0.001067912,-0.1257102,0.09433498,0,0.3,0,0,0,0,
6.38224E+17,46.15396,20.24553,9.268865,42.92788,2.538982,61.6054,-56.99155,-0.4675641,6.980833,-72.36002,-8.521038,-36.83611,0,0,0,105.7211,-62.11396,-66.80391,-125.4133,-110.0997,-86.87933,0.001067912,-0.1257102,0.09433498,0,0.3,0,0,0,0,
6.38224E+17,46.88432,19.75458,9.73581,43.36735,3.124943,60.28699,-56.99155,-0.4675641,6.980833,-72.36002,-8.521038,-36.90935,0,0,0,108.0746,-63.00826,-67.16009,-125.4133,-110.0997,-86.87933,0.001067912,-0.1257102,0.09433498,0,0.3,0,0,0,0,
6.38224E+17,48.41572,18.63243,10.85648,44.24629,4.370111,58.01638,-56.99155,-0.4675641,6.980833,-72.36002,-8.521038,-36.83611,0,0,0,113.302,-65.00856,-67.81138,-125.4133,-110.0997,-86.87933,0.001067912,-0.1257102,0.09433498,0,0.3,0,0,0,0,
6.38224E+17,49.99424,17.72068,12.25731,45.49146,5.395544,56.03876,-56.99155,-0.4675641,6.980833,-72.36002,-8.594284,-36.83611,0,0,0,118.9822,-66.3715,-68.49171,-125.4133,-110.0997,-86.87933,0.001067912,-0.1257102,0.09433498,0,0.3,0,0,0,0,
6.38224E+17,50.77172,17.4869,13.07447,46.22392,5.76177,55.15982,-56.99155,-0.4675641,6.980833,-72.36002,-8.594284,-36.90935,0,0,0,121.891,-66.47312,-68.83786,-125.4133,-110.0997,-86.87933,0.001067912,-0.1257102,0.09433498,0,0.3,0,0,0,0,
6.38224E+17,52.37379,17.44014,15.3625,48.27478,6.494221,53.54843,-56.99155,-0.4675641,6.980833,-72.36002,-8.594284,-36.90935,0,0,0,128.7395,-65.26904,-69.11339,-125.4133,-110.0997,-86.87933,0.001067912,-0.1257102,0.09433498,0,0.3,0,0,0,0,
6.38224E+17,53.85807,17.60379,18.18752,50.98485,6.860447,52.37651,-56.99155,-0.4675641,6.980833,-72.36002,-8.594284,-36.83611,0,0,0,136.2574,-63.00842,-68.83659,-125.4133,-110.0997,-86.87933,0.001067912,-0.1257102,0.09433498,0,0.3,0,0,0,0,
6.38224E+17,55.01251,18.21162,20.4522,53.76817,7.153428,51.13134,-56.99155,-0.4675641,6.980833,-72.28677,-8.521038,-36.83611,0,0,0,141.9531,-59.9186,-68.99954,-125.4133,-110.0997,-86.87933,0.001067912,-0.1257102,0.09433498,0,0.3,0,0,0,0,
6.38224E+17,55.29523,18.86621,21.64292,55.15982,7.299919,50.39889,-56.99155,-0.4675641,6.980833,-72.36002,-8.594284,-36.83611,0,0,0,144.1696,-57.47891,-68.50447,-125.4133,-110.0997,-86.87933,0.001067912,-0.1257102,0.09433498,0,0.3,0,0,0,0,
6.38224E+17,55.27167,20.61958,23.34727,57.7234,6.860447,49.51994,-56.99155,-0.4675641,6.980833,-72.36002,-8.594284,-36.83611,0,0,0,146.0076,-52.12054,-67.14272,-125.4133,-110.0997,-86.87933,0.001067912,-0.1257102,0.09433498,0,0.3,0,0,0,0,
6.38224E+17,55.22455,23.26131,24.28116,60.50672,5.468789,49.08047,-56.99155,-0.4675641,6.980833,-72.36002,-8.521038,-36.90935,0,0,0,145.6708,-45.54039,-67.19871,-125.4133,-110.0997,-86.87933,0.001067912,-0.1257102,0.09433498,0,0.3,0,0,0,0,
6.38224E+17,55.20099,24.61725,24.44459,61.75189,4.663092,49.08047,-56.99155,-0.4675641,6.980833,-72.36002,-8.594284,-36.90935,0,0,0,144.8622,-42.49922,-67.67184,-125.4133,-110.0997,-86.87933,0.001067912,-0.1257102,0.09433498,0,0.3,0,0,0,0,
6.38224E+17,54.94183,27.23561,24.67806,63.29004,2.758718,49.22696,-56.99155,-0.4675641,6.980833,-72.36002,-8.594284,-36.83611,0,0,0,142.6291,-36.79319,-68.26406,-125.4133,-110.0997,-86.87933,0.001067912,-0.1257102,0.09433498,0,0.3,0,0,0,0,
6.38224E+17,54.49419,29.64356,25.00492,64.24223,0.6346079,49.81293,-56.99155,-0.4675641,6.980833,-72.28677,-8.521038,-36.90935,0,0,0,140.2323,-31.54602,-68.30182,-125.4133,-110.0997,-86.87933,0.001067912,-0.1257102,0.09433498,0,0.3,0,0,0,0,
6.38224E+17,54.25859,30.71896,25.07496,64.53521,-0.3175794,50.03266,-56.99155,-0.4675641,6.980833,-72.36002,-8.594284,-36.83611,0,0,0,138.9183,-29.31347,-68.37475,-125.4133,-110.0997,-86.87933,0.001067912,-0.1257102,0.09433498,0,0.3,0,0,0,0,
6.38224E+17,53.66959,33.0334,25.09831,64.82819,-2.295199,50.47213,-56.99155,-0.4675641,6.980833,-72.36002,-8.594284,-36.83611,0,0,0,135.6314,-24.71647,-68.60797,-125.4133,-110.0997,-86.87933,0.001067912,-0.1257102,0.09433498,0,0.3,0,0,0,0,
6.38224E+17,52.77431,35.41798,25.07496,65.04792,-4.272818,50.9116,-56.99155,-0.4675641,6.980833,-72.36002,-8.594284,-36.90935,0,0,0,131.5318,-20.15106,-68.41895,-125.4133,-110.0997,-86.87933,0.001067912,-0.1257102,0.09433498,0,0.3,0,0,0,0,
6.38224E+17,52.27955,36.51675,25.00492,65.04792,-5.15176,51.27783,-56.99155,-0.4675641,6.980833,-72.36002,-8.521038,-36.83611,0,0,0,129.3591,-18.15034,-68.29614,-125.4133,-110.0997,-86.87933,0.001067912,-0.1257102,0.09433498,0,0.3,0,0,0,0,
6.38224E+17,51.14867,38.55066,24.58467,64.90143,-7.202625,52.08353,-56.99155,-0.4675641,6.980833,-72.36002,-8.521038,-36.83611,0,0,0,124.422,-14.80692,-68.12854,-125.4133,-110.0997,-86.87933,0.001067912,-0.1257102,0.09433498,0,0.3,0,0,0,0,
6.38224E+17,49.7822,40.46767,23.9076,64.31547,-8.960509,52.96247,-56.99155,-0.4675641,6.980833,-72.36002,-8.521038,-36.83611,0,0,0,118.7321,-12.01193,-67.95038,-125.4133,-110.0997,-86.87933,0.001067912,-0.1257102,0.09433498,0,0.3,0,0,0,0,
6.38224E+17,48.0152,42.19766,22.67019,63.14355,-10.49866,53.9879,-56.99155,-0.4675641,6.980833,-72.36002,-8.594284,-36.83611,0,0,0,111.637,-10.12731,-67.88522,-125.4133,-110.0997,-86.87933,0.001067912,-0.1257102,0.09433498,0,0.3,0,0,0,0,
6.38224E+17,46.955,42.99252,21.80634,62.26461,-11.23111,54.64711,-56.99155,-0.4675641,6.980833,-72.36002,-8.594284,-36.90935,0,0,0,107.4839,-9.526359,-67.96166,-125.4133,-110.0997,-86.87933,0.001067912,-0.1257102,0.09433498,0,0.3,0,0,0,0,
6.38224E+17,44.41053,44.41859,19.96191,59.84751,-12.76926,56.18526,-56.99155,-0.4675641,6.980833,-72.36002,-8.521038,-36.90935,0,0,0,98.5099,-8.657294,-67.79196,-125.4133,-110.0997,-86.87933,0.001067912,-0.1257102,0.09433498,0,0.3,0,0,0,0,
6.38224E+17,41.37129,45.23682,17.79062,56.47824,-14.23416,58.23612,-56.99155,-0.4675641,6.980833,-72.36002,-8.594284,-36.83611,0,0,0,88.99226,-8.941503,-67.30608,-125.4133,-110.0997,-86.87933,0.001067912,-0.1257102,0.09433498,0,0.3,0,0,0,0,
6.38224E+17,39.83989,45.2602,16.66995,54.64711,-14.4539,59.48129,-56.99155,-0.4675641,6.980833,-72.36002,-8.594284,-36.90935,0,0,0,84.6394,-9.675777,-66.90634,-125.4133,-110.0997,-86.87933,0.001067912,-0.1257102,0.09433498,0,0.3,0,0,0,0,
6.38224E+17,36.84778,44.97966,14.54535,50.9116,-14.82012,62.26461,-56.99155,-0.4675641,6.980833,-72.36002,-8.594284,-36.83611,0,0,0,76.65041,-11.46681,-66.06721,-125.4133,-110.0997,-86.87933,0.001067912,-0.1257102,0.09433498,0,0.3,0,0,0,0,
6.38224E+17,34.09126,43.81075,12.00049,46.95637,-14.89337,65.63388,-56.99155,-0.4675641,6.980833,-72.36002,-8.594284,-36.83611,0,0,0,69.47867,-14.77039,-65.69673,-125.4133,-110.0997,-86.87933,0.001067912,-0.1257102,0.09433498,0,0.3,0,0,0,0,
6.38224E+17,33.0075,42.80549,10.64635,45.12524,-14.74688,67.17203,-56.99155,-0.4675641,6.980833,-72.36002,-8.594284,-36.83611,0,0,0,66.71548,-17.09167,-65.64664,-125.4133,-110.0997,-86.87933,0.001067912,-0.1257102,0.09433498,0,0.3,0,0,0,0,
6.38224E+17,31.02847,39.88321,7.564514,41.46298,-13.42846,70.46806,-56.99155,-0.4675641,6.980833,-72.36002,-8.521038,-36.83611,0,0,0,61.79435,-23.33216,-65.62257,-125.4133,-110.0997,-86.87933,0.001067912,-0.1257102,0.09433498,0,0.3,0,0,0,0,
6.38224E+17,28.86095,36.44662,4.27255,38.31343,-10.64515,73.54436,-56.99155,-0.4675641,6.980833,-72.36002,-8.594284,-36.90935,0,0,0,56.57214,-30.4097,-65.70447,-125.4133,-110.0997,-86.87933,0.001067912,-0.1257102,0.09433498,0,0.3,0,0,0,0,
6.38224E+17,26.41072,33.01003,1.167363,35.23714,-7.056135,76.0347,-56.99155,-0.4675641,6.980833,-72.36002,-8.521038,-36.83611,0,0,0,50.94803,-37.32515,-65.76404,-125.4133,-110.0997,-86.87933,0.001067912,-0.1257102,0.09433498,0,0.3,0,0,0,0,
6.38224E+17,24.95,31.30341,-0.1634309,33.5525,-4.932025,77.13338,-56.99155,-0.4675641,6.980833,-72.36002,-8.594284,-36.83611,0,0,0,47.90168,-40.71479,-65.39003,-125.4133,-110.0997,-86.87933,0.001067912,-0.1257102,0.09433498,0,0.3,0,0,0,0,
6.38224E+17,21.48668,28.38114,-2.21799,29.74375,-0.9035407,78.59828,-56.99155,-0.4675641,6.980833,-72.28677,-8.521038,-36.83611,0,0,0,41.08295,-46.51423,-63.98374,-125.4133,-110.0997,-86.87933,0.001067912,-0.1257102,0.09433498,0,0.3,0,0,0,0,
6.38224E+17,17.10453,26.4875,-3.151881,25.71527,2.905208,79.33073,-56.99155,-0.4675641,6.980833,-72.36002,-8.594284,-36.83611,0,0,0,32.94701,-50.32383,-61.2842,-125.4133,-110.0997,-86.87933,0.001067912,-0.1257102,0.09433498,0,0.3,0,0,0,0,
6.38224E+17,14.74854,25.97318,-3.291965,23.59116,4.443357,79.62371,-56.99155,-0.4675641,6.980833,-72.28677,-8.594284,-36.90935,0,0,0,28.56968,-51.37926,-59.82347,-125.4133,-110.0997,-86.87933,0.001067912,-0.1257102,0.09433498,0,0.3,0,0,0,0,
6.38224E+17,9.329745,25.57575,-3.081839,17.87803,7.006938,79.84344,-56.99155,-0.4675641,6.980833,-72.36002,-8.594284,-36.90935,0,0,0,18.33769,-52.2394,-56.73178,-125.4133,-110.0997,-86.87933,0.001067912,-0.1257102,0.09433498,0,0.3,0,0,0,0,
6.38224E+17,3.910954,25.55238,-2.124601,11.06623,8.618331,79.62371,-56.99155,-0.4675641,6.980833,-72.36002,-8.594284,-36.83611,0,0,0,7.86849,-52.38968,-53.25509,-125.4133,-110.0997,-86.87933,0.001067912,-0.1257102,0.09433498,0,0.3,0,0,0,0,
6.38224E+17,1.554958,25.55238,-1.494225,7.477218,9.131048,78.9645,-56.99155,-0.4675641,6.980833,-72.36002,-8.594284,-36.90935,0,0,0,3.170274,-52.436,-51.56306,-125.4133,-110.0997,-86.87933,0.001067912,-0.1257102,0.09433498,0,0.3,0,0,0,0,
6.38224E+17,-3.062795,25.59913,0.1634309,-0.57975,9.424027,76.91364,-56.99155,-0.4675641,6.980833,-72.36002,-8.521038,-36.83611,0,0,0,-6.445876,-52.38264,-47.88172,-125.4133,-110.0997,-86.87933,0.001067912,-0.1257102,0.09433498,0,0.3,0,0,0,0,
6.38224E+17,-6.785269,25.64589,2.101254,-8.563474,9.204292,74.13033,-56.99155,-0.4675641,6.980833,-72.36002,-8.594284,-36.90935,0,0,0,-14.7807,-52.1954,-44.12369,-125.4133,-110.0997,-86.87933,0.001067912,-0.1257102,0.09433498,0,0.3,0,0,0,0,
6.38224E+17,-9.164824,25.94981,4.225855,-16.10773,8.691576,70.83429,-56.99155,-0.4675641,6.980833,-72.36002,-8.594284,-36.83611,0,0,0,-20.66303,-51.28569,-40.27445,-125.4133,-110.0997,-86.87933,0.001067912,-0.1257102,0.09433498,0,0.3,0,0,0,0,
6.38224E+17,-9.918744,26.30048,5.20644,-19.477,8.398596,69.00316,-56.99155,-0.4675641,6.980833,-72.36002,-8.594284,-36.90935,0,0,0,-22.67633,-50.36528,-38.67097,-125.4133,-110.0997,-86.87933,0.001067912,-0.1257102,0.09433498,0,0.3,0,0,0,0,
6.38224E+17,-10.62554,27.32912,6.817402,-24.45767,7.592898,66.00011,-56.99155,-0.4675641,6.980833,-72.36002,-8.521038,-36.83611,0,0,0,-24.76266,-47.83601,-36.35734,-125.4133,-110.0997,-86.87933,0.001067912,-0.1257102,0.09433498,0,0.3,0,0,0,0,
6.38224E+17,-10.71978,28.68506,8.241585,-28.04669,6.640712,63.72951,-56.99155,-0.4675641,6.980833,-72.36002,-8.521038,-36.83611,0,0,0,-25.31531,-44.61553,-34.62563,-125.4133,-110.0997,-86.87933,0.001067912,-0.1257102,0.09433498,0,0.3,0,0,0,0,
6.38224E+17,-10.71978,29.43316,8.871961,-29.3651,6.05475,62.92381,-56.99155,-0.4675641,6.980833,-72.36002,-8.594284,-36.90935,0,0,0,-25.42786,-42.87529,-34.03107,-125.4133,-110.0997,-86.87933,0.001067912,-0.1257102,0.09433498,0,0.3,0,0,0,0,
6.38224E+17,-10.67266,31.16315,10.2728,-31.70894,4.736337,61.53215,-56.99155,-0.4675641,6.980833,-72.36002,-8.521038,-36.83611,0,0,0,-25.53659,-38.85686,-32.84708,-125.4133,-110.0997,-86.87933,0.001067912,-0.1257102,0.09433498,0,0.3,0,0,0,0,
6.38224E+17,-10.5313,33.29056,12.02384,-33.46683,3.491169,60.50672,-56.99155,-0.4675641,6.980833,-72.36002,-8.594284,-36.83611,0,0,0,-25.45041,-33.8806,-31.44931,-125.4133,-110.0997,-86.87933,0.001067912,-0.1257102,0.09433498,0,0.3,0,0,0,0,
6.38224E+17,-10.46062,34.50623,12.95773,-34.05279,2.612227,60.14049,-56.99155,-0.4675641,6.980833,-72.36002,-8.594284,-36.83611,0,0,0,-25.3803,-31.06213,-30.88295,-125.4133,-110.0997,-86.87933,0.001067912,-0.1257102,0.09433498,0,0.3,0,0,0,0,
6.38224E+17,-10.22502,37.05445,14.9656,-34.93173,0.707853,59.77427,-56.99155,-0.4675641,6.980833,-72.36002,-8.594284,-36.90935,0,0,0,-25.00433,-25.1237,-29.72918,-125.4133,-110.0997,-86.87933,0.001067912,-0.1257102,0.09433498,0,0.3,0,0,0,0,
6.38224E+17,-9.683144,39.62605,17.25363,-35.59094,-1.416257,59.55453,-56.99155,-0.4675641,6.980833,-72.36002,-8.521038,-36.83611,0,0,0,-23.92824,-18.9522,-28.11563,-125.4133,-110.0997,-86.87933,0.001067912,-0.1257102,0.09433498,0,0.3,0,0,0,0,
6.38224E+17,-9.282625,40.95861,18.39765,-35.81068,-2.514934,59.48129,-56.99155,-0.4675641,6.980833,-72.36002,-8.594284,-36.83611,0,0,0,-23.03272,-15.7716,-27.42959,-125.4133,-110.0997,-86.87933,0.001067912,-0.1257102,0.09433498,0,0.3,0,0,0,0,
6.38224E+17,-8.293106,43.81075,20.8958,-36.1769,-5.00527,59.40804,-56.99155,-0.4675641,6.980833,-72.36002,-8.594284,-36.83611,0,0,0,-20.74004,-8.914298,-26.06231,-125.4133,-110.0997,-86.87933,0.001067912,-0.1257102,0.09433498,0,0.3,0,0,0,0,
6.38224E+17,-7.044428,46.546,23.37061,-36.03041,-7.788587,59.3348,-56.99155,-0.4675641,6.980833,-72.36002,-8.594284,-36.90935,0,0,0,-17.73498,-2.257386,-24.83034,-125.4133,-110.0997,-86.87933,0.001067912,-0.1257102,0.09433498,0,0.3,0,0,0,0,
