zeyangz2/DNN_classification_different_people_hand/data/zeyang_right_12.csv
Timestamp,Therapist joint angle 0,Therapist joint angle 1,Therapist joint angle 2,Therapist joint angle 3,Therapist joint angle 4,Therapist joint angle 5,Patient joint angle 0,Patient joint angle 1,Patient joint angle 2,Patient joint angle 3,Patient joint angle 4,Patient joint angle 5,Virtual joint angle 0,Virtual joint angle 1,Virtual joint angle 2,Therapist position x,Therapist position y,Therapist position z,Patient position x,Patient position y,Patient position z,Virtual position x,Virtual position y,Virtual position z,Assistive Force, Obstacle Force Magnitude, Therapist Constant Force, Patient Constant Force, Recovery Factor, Assistance Level,label
6.38224E+17,0,0,0,0,0,0,0,0,0,0,0,0,0,0,0,0,0,0,0,0,0,0,0,0,0,0.3,0,0,0,0,0
6.38224E+17,23.93692,-0.9818845,-2.077907,43.73357,-63.30842,7.403974,56.02559,36.61026,-12.81765,-60.78728,-41.7011,14.06928,0,0,0,52.13451,-112.1974,-50.90617,64.23486,-27.15129,-125.0648,0.001067912,-0.1257102,0.09433498,0,0.3,0,0,0,0,
6.38224E+17,23.93692,-0.9818845,-2.077907,43.80682,-63.30842,7.403974,56.02559,36.61026,-12.81765,-60.78728,-41.7011,14.06928,0,0,0,52.13451,-112.1974,-50.90617,64.23486,-27.15129,-125.0648,0.001067912,-0.1257102,0.09433498,0,0.3,0,0,0,0,
6.38224E+17,23.93692,-0.9818845,-2.077907,43.73357,-63.30842,7.403974,56.02559,36.61026,-12.81765,-60.78728,-41.7011,14.06928,0,0,0,52.13451,-112.1974,-50.90617,64.23486,-27.15129,-125.0648,0.001067912,-0.1257102,0.09433498,0,0.3,0,0,0,0,
6.38224E+17,23.93692,-0.9818845,-2.077907,43.73357,-63.30842,7.403974,56.02559,36.61026,-12.81765,-60.78728,-41.7011,14.06928,0,0,0,52.13451,-112.1974,-50.90617,64.23486,-27.15129,-125.0648,0.001067912,-0.1257102,0.09433498,0,0.3,0,0,0,0,
6.38224E+17,23.93692,-0.9818845,-2.077907,43.80682,-63.30842,7.403974,56.02559,36.61026,-12.81765,-60.78728,-41.7011,14.06928,0,0,0,52.13451,-112.1974,-50.90617,64.23486,-27.15129,-125.0648,0.001067912,-0.1257102,0.09433498,0,0.3,0,0,0,0,
6.38224E+17,23.93692,-0.9818845,-2.077907,43.73357,-63.30842,7.403974,56.02559,36.61026,-12.81765,-60.78728,-41.7011,14.06928,0,0,0,52.13451,-112.1974,-50.90617,64.23486,-27.15129,-125.0648,0.001067912,-0.1257102,0.09433498,0,0.3,0,0,0,0,
6.38224E+17,23.93692,-0.9818845,-2.077907,43.73357,-63.30842,7.403974,56.02559,36.61026,-12.81765,-60.78728,-41.7011,14.06928,0,0,0,52.13451,-112.1974,-50.90617,64.23486,-27.15129,-125.0648,0.001067912,-0.1257102,0.09433498,0,0.3,0,0,0,0,
6.38224E+17,23.93692,-0.9818845,-2.077907,43.73357,-63.30842,7.403974,56.02559,36.61026,-12.81765,-60.78728,-41.7011,14.06928,0,0,0,52.13451,-112.1974,-50.90617,64.23486,-27.15129,-125.0648,0.001067912,-0.1257102,0.09433498,0,0.3,0,0,0,0,
6.38224E+17,23.93692,-0.9818845,-2.077907,43.80682,-63.30842,7.403974,56.02559,36.61026,-12.81765,-60.78728,-41.7011,14.06928,0,0,0,52.13451,-112.1974,-50.90617,64.23486,-27.15129,-125.0648,0.001067912,-0.1257102,0.09433498,0,0.3,0,0,0,0,
6.38224E+17,23.93692,-0.9818845,-2.077907,43.73357,-63.30842,7.403974,56.02559,36.61026,-12.81765,-60.78728,-41.7011,14.06928,0,0,0,52.13451,-112.1974,-50.90617,64.23486,-27.15129,-125.0648,0.001067912,-0.1257102,0.09433498,0,0.3,0,0,0,0,
6.38224E+17,23.93692,-0.9818845,-2.077907,43.73357,-63.30842,7.403974,56.02559,36.61026,-12.81765,-60.78728,-41.7011,14.06928,0,0,0,52.13451,-112.1974,-50.90617,64.23486,-27.15129,-125.0648,0.001067912,-0.1257102,0.09433498,0,0.3,0,0,0,0,
6.38224E+17,23.93692,-0.9818845,-2.077907,43.73357,-63.30842,7.403974,56.02559,36.61026,-12.81765,-60.78728,-41.7011,14.06928,0,0,0,52.13451,-112.1974,-50.90617,64.23486,-27.15129,-125.0648,0.001067912,-0.1257102,0.09433498,0,0.3,0,0,0,0,
6.38224E+17,23.93692,-0.9818845,-2.077907,43.80682,-63.23518,7.403974,56.02559,36.61026,-12.81765,-60.78728,-41.7011,14.06928,0,0,0,52.13451,-112.1974,-50.90617,64.23486,-27.15129,-125.0648,0.001067912,-0.1257102,0.09433498,0,0.3,0,0,0,0,
6.38224E+17,23.93692,-0.9818845,-2.077907,43.73357,-63.30842,7.403974,56.02559,36.61026,-12.81765,-60.78728,-41.7011,14.06928,0,0,0,52.13451,-112.1974,-50.90617,64.23486,-27.15129,-125.0648,0.001067912,-0.1257102,0.09433498,0,0.3,0,0,0,0,
6.38224E+17,23.93692,-0.9818845,-2.077907,43.80682,-63.30842,7.403974,56.02559,36.61026,-12.81765,-60.78728,-41.7011,14.06928,0,0,0,52.13451,-112.1974,-50.90617,64.23486,-27.15129,-125.0648,0.001067912,-0.1257102,0.09433498,0,0.3,0,0,0,0,
6.38224E+17,23.93692,-0.9818845,-2.077907,43.73357,-63.30842,7.403974,56.02559,36.61026,-12.81765,-60.78728,-41.7011,14.06928,0,0,0,52.13451,-112.1974,-50.90617,64.23486,-27.15129,-125.0648,0.001067912,-0.1257102,0.09433498,0,0.3,0,0,0,0,
6.38224E+17,23.93692,-0.9818845,-2.077907,43.73357,-63.30842,7.403974,56.02559,36.61026,-12.81765,-60.78728,-41.7011,14.06928,0,0,0,52.13451,-112.1974,-50.90617,64.23486,-27.15129,-125.0648,0.001067912,-0.1257102,0.09433498,0,0.3,0,0,0,0,
6.38224E+17,23.93692,-0.9818845,-2.077907,43.73357,-63.30842,7.403974,56.02559,36.61026,-12.81765,-60.78728,-41.7011,14.06928,0,0,0,52.13451,-112.1974,-50.90617,64.23486,-27.15129,-125.0648,0.001067912,-0.1257102,0.09433498,0,0.3,0,0,0,0,
6.38224E+17,23.93692,-0.9818845,-2.077907,43.73357,-63.30842,7.403974,56.02559,36.61026,-12.81765,-60.78728,-41.7011,14.06928,0,0,0,52.13451,-112.1974,-50.90617,64.23486,-27.15129,-125.0648,0.001067912,-0.1257102,0.09433498,0,0.3,0,0,0,0,
6.38224E+17,23.93692,-0.9818845,-2.077907,43.73357,-63.23518,7.330729,56.02559,36.61026,-12.81765,-60.78728,-41.7011,14.06928,0,0,0,52.13451,-112.1974,-50.90617,64.23486,-27.15129,-125.0648,0.001067912,-0.1257102,0.09433498,0,0.3,0,0,0,0,
6.38224E+17,23.93692,-0.9818845,-2.077907,43.73357,-63.30842,7.403974,56.02559,36.61026,-12.81765,-60.78728,-41.7011,14.06928,0,0,0,52.13451,-112.1974,-50.90617,64.23486,-27.15129,-125.0648,0.001067912,-0.1257102,0.09433498,0,0.3,0,0,0,0,
6.38224E+17,23.93692,-0.9818845,-2.077907,43.73357,-63.30842,7.403974,56.02559,36.61026,-12.81765,-60.78728,-41.7011,14.06928,0,0,0,52.13451,-112.1974,-50.90617,64.23486,-27.15129,-125.0648,0.001067912,-0.1257102,0.09433498,0,0.3,0,0,0,0,
6.38224E+17,23.93692,-0.9818845,-2.077907,43.73357,-63.30842,7.403974,56.02559,36.61026,-12.81765,-60.78728,-41.7011,14.06928,0,0,0,52.13451,-112.1974,-50.90617,64.23486,-27.15129,-125.0648,0.001067912,-0.1257102,0.09433498,0,0.3,0,0,0,0,
6.38224E+17,23.93692,-0.9818845,-2.077907,43.73357,-63.30842,7.403974,56.02559,36.61026,-12.81765,-60.78728,-41.7011,14.06928,0,0,0,52.13451,-112.1974,-50.90617,64.23486,-27.15129,-125.0648,0.001067912,-0.1257102,0.09433498,0,0.3,0,0,0,0,
6.38224E+17,23.93692,-0.9818845,-2.077907,43.73357,-63.30842,7.330729,56.02559,36.61026,-12.81765,-60.78728,-41.7011,14.06928,0,0,0,52.13451,-112.1974,-50.90617,64.23486,-27.15129,-125.0648,0.001067912,-0.1257102,0.09433498,0,0.3,0,0,0,0,
6.38224E+17,23.93692,-0.9818845,-2.077907,43.73357,-63.30842,7.403974,56.02559,36.61026,-12.81765,-60.78728,-41.7011,14.06928,0,0,0,52.13451,-112.1974,-50.90617,64.23486,-27.15129,-125.0648,0.001067912,-0.1257102,0.09433498,0,0.3,0,0,0,0,
6.38224E+17,23.93692,-0.9818845,-2.077907,43.73357,-63.30842,7.403974,56.02559,36.61026,-12.81765,-60.78728,-41.7011,14.06928,0,0,0,52.13451,-112.1974,-50.90617,64.23486,-27.15129,-125.0648,0.001067912,-0.1257102,0.09433498,0,0.3,0,0,0,0,
6.38224E+17,23.93692,-0.9818845,-2.077907,43.73357,-63.30842,7.403974,56.02559,36.61026,-12.81765,-60.78728,-41.7011,14.06928,0,0,0,52.13451,-112.1974,-50.90617,64.23486,-27.15129,-125.0648,0.001067912,-0.1257102,0.09433498,0,0.3,0,0,0,0,
6.38224E+17,23.93692,-0.9818845,-2.077907,43.73357,-63.30842,7.403974,56.02559,36.61026,-12.81765,-60.78728,-41.7011,14.06928,0,0,0,52.13451,-112.1974,-50.90617,64.23486,-27.15129,-125.0648,0.001067912,-0.1257102,0.09433498,0,0.3,0,0,0,0,
6.38224E+17,23.93692,-0.9818845,-2.077907,43.73357,-63.30842,7.403974,56.02559,36.61026,-12.81765,-60.78728,-41.7011,14.06928,0,0,0,52.13451,-112.1974,-50.90617,64.23486,-27.15129,-125.0648,0.001067912,-0.1257102,0.09433498,0,0.3,0,0,0,0,
6.38224E+17,23.93692,-0.9818845,-2.077907,43.80682,-63.30842,7.403974,56.02559,36.61026,-12.81765,-60.78728,-41.7011,14.06928,0,0,0,52.13451,-112.1974,-50.90617,64.23486,-27.15129,-125.0648,0.001067912,-0.1257102,0.09433498,0,0.3,0,0,0,0,
6.38224E+17,23.93692,-0.9818845,-2.077907,43.73357,-63.30842,7.403974,56.02559,36.61026,-12.81765,-60.78728,-41.7011,14.06928,0,0,0,52.13451,-112.1974,-50.90617,64.23486,-27.15129,-125.0648,0.001067912,-0.1257102,0.09433498,0,0.3,0,0,0,0,
6.38224E+17,23.93692,-0.9818845,-2.077907,43.80682,-63.30842,7.403974,56.02559,36.61026,-12.81765,-60.78728,-41.7011,14.06928,0,0,0,52.13451,-112.1974,-50.90617,64.23486,-27.15129,-125.0648,0.001067912,-0.1257102,0.09433498,0,0.3,0,0,0,0,
6.38224E+17,23.93692,-0.9818845,-2.077907,43.73357,-63.30842,7.403974,56.02559,36.61026,-12.81765,-60.78728,-41.7011,14.06928,0,0,0,52.13451,-112.1974,-50.90617,64.23486,-27.15129,-125.0648,0.001067912,-0.1257102,0.09433498,0,0.3,0,0,0,0,
6.38224E+17,23.93692,-0.9818845,-2.077907,43.73357,-63.30842,7.403974,56.02559,36.61026,-12.81765,-60.78728,-41.7011,14.06928,0,0,0,52.13451,-112.1974,-50.90617,64.23486,-27.15129,-125.0648,0.001067912,-0.1257102,0.09433498,0,0.3,0,0,0,0,
6.38224E+17,23.93692,-0.9818845,-2.077907,43.73357,-63.38167,7.330729,56.02559,36.61026,-12.81765,-60.78728,-41.7011,14.06928,0,0,0,52.13451,-112.1974,-50.90617,64.23486,-27.15129,-125.0648,0.001067912,-0.1257102,0.09433498,0,0.3,0,0,0,0,
6.38224E+17,23.93692,-0.9818845,-2.077907,43.73357,-63.30842,7.403974,56.02559,36.61026,-12.81765,-60.78728,-41.7011,14.06928,0,0,0,52.13451,-112.1974,-50.90617,64.23486,-27.15129,-125.0648,0.001067912,-0.1257102,0.09433498,0,0.3,0,0,0,0,
6.38224E+17,23.93692,-0.9818845,-2.077907,43.73357,-63.30842,7.403974,56.02559,36.61026,-12.81765,-60.78728,-41.7011,14.06928,0,0,0,52.13451,-112.1974,-50.90617,64.23486,-27.15129,-125.0648,0.001067912,-0.1257102,0.09433498,0,0.3,0,0,0,0,
6.38224E+17,23.93692,-0.9818845,-2.077907,43.73357,-63.30842,7.403974,56.02559,36.61026,-12.81765,-60.78728,-41.7011,14.06928,0,0,0,52.13451,-112.1974,-50.90617,64.23486,-27.15129,-125.0648,0.001067912,-0.1257102,0.09433498,0,0.3,0,0,0,0,
6.38224E+17,23.93692,-0.9818845,-2.077907,43.73357,-63.30842,7.403974,56.02559,36.61026,-12.81765,-60.78728,-41.7011,14.06928,0,0,0,52.13451,-112.1974,-50.90617,64.23486,-27.15129,-125.0648,0.001067912,-0.1257102,0.09433498,0,0.3,0,0,0,0,
6.38224E+17,23.93692,-0.9818845,-2.077907,43.73357,-63.30842,7.330729,56.02559,36.61026,-12.81765,-60.78728,-41.7011,14.06928,0,0,0,52.13451,-112.1974,-50.90617,64.23486,-27.15129,-125.0648,0.001067912,-0.1257102,0.09433498,0,0.3,0,0,0,0,
6.38224E+17,23.93692,-0.9818845,-2.077907,43.80682,-63.30842,7.403974,56.02559,36.61026,-12.81765,-60.78728,-41.7011,14.06928,0,0,0,52.13451,-112.1974,-50.90617,64.23486,-27.15129,-125.0648,0.001067912,-0.1257102,0.09433498,0,0.3,0,0,0,0,
6.38224E+17,24.1254,-0.9351282,-0.700418,41.60947,-63.01544,9.601329,56.02559,36.61026,-12.81765,-60.78728,-41.7011,14.06928,0,0,0,53.83128,-112.1664,-48.15165,64.23486,-27.15129,-125.0648,0.001067912,-0.1257102,0.09433498,0,0.3,0,0,0,0,
6.38224E+17,23.93692,-0.7247244,-1.237405,33.18628,-60.81809,17.80479,56.02559,36.61026,-12.81765,-60.78728,-41.7011,14.06928,0,0,0,52.93147,-111.6556,-49.11086,64.23486,-27.15129,-125.0648,0.001067912,-0.1257102,0.09433498,0,0.3,0,0,0,0,
6.38224E+17,23.81912,-0.4909423,-2.311379,28.49858,-58.76722,20.80784,56.02559,36.61026,-12.81765,-60.78728,-41.7011,14.06928,0,0,0,51.67958,-111.0341,-51.28254,64.23486,-27.15129,-125.0648,0.001067912,-0.1257102,0.09433498,0,0.3,0,0,0,0,
6.38224E+17,23.79556,-0.4441859,-4.202508,21.24731,-52.76112,25.05606,56.02559,36.61026,-12.81765,-60.78728,-41.7011,14.06928,0,0,0,49.85889,-110.6752,-55.28104,64.23486,-27.15129,-125.0648,0.001067912,-0.1257102,0.09433498,0,0.3,0,0,0,0,
6.38224E+17,23.79556,-0.4675641,-5.159746,16.77936,-45.14362,28.05911,56.02559,36.61026,-12.81765,-60.78728,-41.7011,14.06928,0,0,0,48.96283,-110.5478,-57.3131,64.23486,-27.15129,-125.0648,0.001067912,-0.1257102,0.09433498,0,0.3,0,0,0,0,
6.38224E+17,23.79556,-0.4909423,-5.183093,15.24121,-37.37963,29.59726,56.02559,36.61026,-12.81765,-60.78728,-41.7011,14.06928,0,0,0,48.94081,-110.5974,-57.36303,64.23486,-27.15129,-125.0648,0.001067912,-0.1257102,0.09433498,0,0.3,0,0,0,0,
6.38224E+17,23.79556,-0.5376987,-5.113051,15.31445,-33.4244,30.10997,56.02559,36.61026,-12.81765,-60.78728,-41.7011,14.06928,0,0,0,49.00593,-110.7208,-57.21537,64.23486,-27.15129,-125.0648,0.001067912,-0.1257102,0.09433498,0,0.3,0,0,0,0,
6.38224E+17,23.79556,-0.6312115,-4.856231,16.41313,-25.44067,30.32971,56.02559,36.61026,-12.81765,-60.78728,-41.7011,14.06928,0,0,0,49.24529,-110.9904,-56.67256,64.23486,-27.15129,-125.0648,0.001067912,-0.1257102,0.09433498,0,0.3,0,0,0,0,
6.38224E+17,23.79556,-0.6545897,-4.342592,18.17101,-17.16397,29.817,56.02559,36.61026,-12.81765,-60.78728,-41.7011,14.06928,0,0,0,49.72581,-111.1406,-55.58282,64.23486,-27.15129,-125.0648,0.001067912,-0.1257102,0.09433498,0,0.3,0,0,0,0,
6.38224E+17,23.772,-0.6545897,-3.898993,19.04996,-13.28197,29.817,56.02559,36.61026,-12.81765,-60.78728,-41.7011,14.06928,0,0,0,50.09454,-111.2148,-54.62,64.23486,-27.15129,-125.0648,0.001067912,-0.1257102,0.09433498,0,0.3,0,0,0,0,
6.38224E+17,23.772,-0.6545897,-3.642174,20.51486,-6.689909,29.96349,56.02559,36.61026,-12.81765,-60.78728,-41.7011,14.06928,0,0,0,50.33495,-111.2541,-54.07417,64.23486,-27.15129,-125.0648,0.001067912,-0.1257102,0.09433498,0,0.3,0,0,0,0,
6.38224E+17,23.772,-0.6545897,-3.712215,21.90652,-0.8302955,31.42839,56.02559,36.61026,-12.81765,-60.78728,-41.7011,14.06928,0,0,0,50.26938,-111.2437,-54.22305,64.23486,-27.15129,-125.0648,0.001067912,-0.1257102,0.09433498,0,0.3,0,0,0,0,
6.38224E+17,23.81912,-0.7013461,-4.389286,23.51791,4.663092,34.79766,56.02559,36.61026,-12.81765,-60.78728,-41.7011,14.06928,0,0,0,49.7279,-111.2412,-55.70359,64.23486,-27.15129,-125.0648,0.001067912,-0.1257102,0.09433498,0,0.3,0,0,0,0,
6.38224E+17,23.81912,-0.7247244,-4.856231,24.4701,7.006938,36.77529,56.02559,36.61026,-12.81765,-60.78728,-41.7011,14.06928,0,0,0,49.29016,-111.208,-56.69517,64.23486,-27.15129,-125.0648,0.001067912,-0.1257102,0.09433498,0,0.3,0,0,0,0,
6.38224E+17,23.84268,-0.8416153,-5.626691,26.15474,10.96218,40.87702,56.02559,36.61026,-12.81765,-60.78728,-41.7011,14.06928,0,0,0,48.61276,-111.3162,-58.35212,64.23486,-27.15129,-125.0648,0.001067912,-0.1257102,0.09433498,0,0.3,0,0,0,0,
6.38224E+17,23.84268,-0.9117499,-5.72008,27.25341,14.47795,43.07437,56.02559,36.61026,-12.81765,-60.78728,-41.7011,14.06928,0,0,0,48.52432,-111.4579,-58.55223,64.23486,-27.15129,-125.0648,0.001067912,-0.1257102,0.09433498,0,0.3,0,0,0,0,
6.38224E+17,23.84268,-0.9117499,-5.766775,27.61964,16.23583,43.73357,56.02559,36.61026,-12.81765,-60.78728,-41.7011,14.06928,0,0,0,48.48061,-111.4471,-58.65113,64.23486,-27.15129,-125.0648,0.001067912,-0.1257102,0.09433498,0,0.3,0,0,0,0,
6.38224E+17,23.96048,-0.9818845,-6.257067,27.98586,18.87265,44.83226,56.02559,36.61026,-12.81765,-60.78728,-41.7011,14.06928,0,0,0,48.24409,-111.4907,-59.79054,64.23486,-27.15129,-125.0648,0.001067912,-0.1257102,0.09433498,0,0.3,0,0,0,0,
6.38224E+17,24.10184,-0.9818845,-7.074222,28.35209,21.07001,47.1761,56.02559,36.61026,-12.81765,-60.78728,-41.7011,14.06928,0,0,0,47.7404,-111.27,-61.63419,64.23486,-27.15129,-125.0648,0.001067912,-0.1257102,0.09433498,0,0.3,0,0,0,0,
6.38224E+17,24.10184,-0.9818845,-7.284348,28.49858,21.94895,48.78749,56.02559,36.61026,-12.81765,-60.78728,-41.7011,14.06928,0,0,0,47.54226,-111.2089,-62.0771,64.23486,-27.15129,-125.0648,0.001067912,-0.1257102,0.09433498,0,0.3,0,0,0,0,
6.38224E+17,24.10184,-0.9818845,-7.284348,28.93805,22.53491,51.93703,56.02559,36.61026,-12.81765,-60.78728,-41.7011,14.06928,0,0,0,47.54226,-111.2089,-62.0771,64.23486,-27.15129,-125.0648,0.001067912,-0.1257102,0.09433498,0,0.3,0,0,0,0,
6.38224E+17,24.1254,-0.9818845,-7.377736,29.15779,21.72922,53.84141,56.02559,36.61026,-12.81765,-60.78728,-41.7011,14.06928,0,0,0,47.49784,-111.1811,-62.2934,64.23486,-27.15129,-125.0648,0.001067912,-0.1257102,0.09433498,0,0.3,0,0,0,0,
6.38224E+17,24.17252,-0.9818845,-7.564514,29.30428,21.28975,54.35413,56.02559,36.61026,-12.81765,-60.78728,-41.7011,14.06928,0,0,0,47.40855,-111.1246,-62.72572,64.23486,-27.15129,-125.0648,0.001067912,-0.1257102,0.09433498,0,0.3,0,0,0,0,
6.38224E+17,24.2432,-0.9818845,-8.078154,29.45077,20.63054,55.08658,56.02559,36.61026,-12.81765,-60.78728,-41.7011,14.06928,0,0,0,47.05252,-110.9619,-63.86416,64.23486,-27.15129,-125.0648,0.001067912,-0.1257102,0.09433498,0,0.3,0,0,0,0,
6.38224E+17,24.2432,-0.9818845,-8.078154,29.30428,20.19107,54.94009,56.02559,36.61026,-12.81765,-60.78728,-41.7011,14.06928,0,0,0,47.05252,-110.9619,-63.86416,64.23486,-27.15129,-125.0648,0.001067912,-0.1257102,0.09433498,0,0.3,0,0,0,0,
6.38224E+17,24.21964,-0.9818845,-7.844682,28.79156,20.04458,52.96247,56.02559,36.61026,-12.81765,-60.78728,-41.7011,14.06928,0,0,0,47.23032,-111.0372,-63.35405,64.23486,-27.15129,-125.0648,0.001067912,-0.1257102,0.09433498,0,0.3,0,0,0,0,
6.38224E+17,24.21964,-0.9818845,-7.844682,28.27885,20.04458,51.57081,56.02559,36.61026,-12.81765,-60.78728,-41.7011,14.06928,0,0,0,47.23032,-111.0372,-63.35405,64.23486,-27.15129,-125.0648,0.001067912,-0.1257102,0.09433498,0,0.3,0,0,0,0,
6.38224E+17,24.10184,-0.9585064,-7.611208,26.88719,20.19107,48.34802,56.02559,36.61026,-12.81765,-60.78728,-41.7011,14.06928,0,0,0,47.2346,-111.0559,-62.76482,64.23486,-27.15129,-125.0648,0.001067912,-0.1257102,0.09433498,0,0.3,0,0,0,0,
6.38224E+17,23.96048,-0.8649935,-7.097569,25.34904,20.26431,44.97874,56.02559,36.61026,-12.81765,-60.78728,-41.7011,14.06928,0,0,0,47.45685,-110.9913,-61.562,64.23486,-27.15129,-125.0648,0.001067912,-0.1257102,0.09433498,0,0.3,0,0,0,0,
6.38224E+17,23.91336,-0.7948589,-6.700665,24.4701,20.33756,43.14762,56.02559,36.61026,-12.81765,-60.78728,-41.7011,14.06928,0,0,0,47.74171,-110.939,-60.6825,64.23486,-27.15129,-125.0648,0.001067912,-0.1257102,0.09433498,0,0.3,0,0,0,0,
6.38224E+17,23.8898,-0.3974294,-5.276482,23.15168,20.26431,39.5586,56.02559,36.61026,-12.81765,-60.78728,-41.7011,14.06928,0,0,0,49.03633,-110.3599,-57.64004,64.23486,-27.15129,-125.0648,0.001067912,-0.1257102,0.09433498,0,0.3,0,0,0,0,
6.38224E+17,23.8898,0.7714807,-3.595479,22.34599,20.19107,36.55555,56.02559,36.61026,-12.81765,-60.78728,-41.7011,14.06928,0,0,0,50.61235,-107.942,-54.08183,64.23486,-27.15129,-125.0648,0.001067912,-0.1257102,0.09433498,0,0.3,0,0,0,0,
6.38224E+17,23.8898,1.636474,-2.684936,21.97976,19.97133,35.0174,56.02559,36.61026,-12.81765,-60.78728,-41.7011,14.06928,0,0,0,51.45215,-106.0454,-52.1858,64.23486,-27.15129,-125.0648,0.001067912,-0.1257102,0.09433498,0,0.3,0,0,0,0,
6.38224E+17,23.8898,3.787269,-0.6070289,21.61354,19.01915,32.30733,56.02559,36.61026,-12.81765,-60.78728,-41.7011,14.06928,0,0,0,53.31385,-101.1845,-47.98262,64.23486,-27.15129,-125.0648,0.001067912,-0.1257102,0.09433498,0,0.3,0,0,0,0,
6.38224E+17,23.8898,6.475762,1.984518,21.3938,17.33451,30.69594,56.02559,36.61026,-12.81765,-60.78728,-41.7011,14.06928,0,0,0,55.52949,-94.88042,-42.98034,64.23486,-27.15129,-125.0648,0.001067912,-0.1257102,0.09433498,0,0.3,0,0,0,0,
6.38224E+17,23.8898,7.784942,3.291965,21.46704,16.45556,30.4762,56.02559,36.61026,-12.81765,-60.78728,-41.7011,14.06928,0,0,0,56.60732,-91.71701,-40.5469,64.23486,-27.15129,-125.0648,0.001067912,-0.1257102,0.09433498,0,0.3,0,0,0,0,
6.38224E+17,23.8898,10.68384,6.210372,21.76003,14.47795,30.18322,56.02559,36.61026,-12.81765,-60.78728,-41.7011,14.06928,0,0,0,58.90989,-84.49574,-35.34837,64.23486,-27.15129,-125.0648,0.001067912,-0.1257102,0.09433498,0,0.3,0,0,0,0,
6.38224E+17,23.8898,13.46585,9.035392,22.05301,11.98761,30.03673,56.02559,36.61026,-12.81765,-60.78728,-41.7011,14.06928,0,0,0,61.00032,-77.29269,-30.62877,64.23486,-27.15129,-125.0648,0.001067912,-0.1257102,0.09433498,0,0.3,0,0,0,0,
6.38224E+17,23.86624,16.01407,11.65029,22.1995,9.277537,29.67051,56.02559,36.61026,-12.81765,-60.78728,-41.7011,14.06928,0,0,0,62.75535,-70.46506,-26.50893,64.23486,-27.15129,-125.0648,0.001067912,-0.1257102,0.09433498,0,0.3,0,0,0,0,
6.38224E+17,23.86624,17.18298,12.841,22.27274,7.812634,29.37753,56.02559,36.61026,-12.81765,-60.78728,-41.7011,14.06928,0,0,0,63.53664,-67.27017,-24.74303,64.23486,-27.15129,-125.0648,0.001067912,-0.1257102,0.09433498,0,0.3,0,0,0,0,
6.38224E+17,23.86624,19.42729,15.08233,22.1995,5.322299,28.35209,56.02559,36.61026,-12.81765,-60.78728,-41.7011,14.06928,0,0,0,64.92104,-61.0529,-21.614,64.23486,-27.15129,-125.0648,0.001067912,-0.1257102,0.09433498,0,0.3,0,0,0,0,
6.38224E+17,23.86624,21.74173,17.25363,22.05301,2.465737,26.88719,56.02559,36.61026,-12.81765,-60.78728,-41.7011,14.06928,0,0,0,66.11848,-54.60345,-18.9075,64.23486,-27.15129,-125.0648,0.001067912,-0.1257102,0.09433498,0,0.3,0,0,0,0,
6.38224E+17,23.8898,22.86388,18.25756,21.97976,1.220569,26.15474,56.02559,36.61026,-12.81765,-60.78728,-41.7011,14.06928,0,0,0,66.67971,-51.47463,-17.80634,64.23486,-27.15129,-125.0648,0.001067912,-0.1257102,0.09433498,0,0.3,0,0,0,0,
6.38224E+17,23.8898,25.13157,20.33547,21.76003,-1.416257,24.83632,56.02559,36.61026,-12.81765,-60.78728,-41.7011,14.06928,0,0,0,67.65888,-45.05531,-15.59565,64.23486,-27.15129,-125.0648,0.001067912,-0.1257102,0.09433498,0,0.3,0,0,0,0,
6.38224E+17,23.8898,27.72655,22.67019,21.68678,-3.979838,23.07844,56.02559,36.61026,-12.81765,-60.78728,-41.7011,14.06928,0,0,0,68.61761,-37.65582,-13.4311,64.23486,-27.15129,-125.0648,0.001067912,-0.1257102,0.09433498,0,0.3,0,0,0,0,
6.38224E+17,23.8898,29.05911,23.88425,21.61354,-5.517986,22.05301,56.02559,36.61026,-12.81765,-60.78728,-41.7011,14.06928,0,0,0,69.07153,-33.81096,-12.40629,64.23486,-27.15129,-125.0648,0.001067912,-0.1257102,0.09433498,0,0.3,0,0,0,0,
6.38224E+17,23.8898,32.02814,26.38241,21.61354,-8.301303,19.63592,56.02559,36.61026,-12.81765,-60.78728,-41.7011,14.06928,0,0,0,69.78106,-25.3911,-10.80437,64.23486,-27.15129,-125.0648,0.001067912,-0.1257102,0.09433498,0,0.3,0,0,0,0,
6.38224E+17,23.86624,35.13744,28.83387,21.54029,-11.23111,16.70611,56.02559,36.61026,-12.81765,-60.78728,-41.7011,14.06928,0,0,0,70.14237,-16.71927,-9.812606,64.23486,-27.15129,-125.0648,0.001067912,-0.1257102,0.09433498,0,0.3,0,0,0,0,
6.38224E+17,23.84268,38.15323,31.47211,21.54029,-14.08767,13.92279,56.02559,36.61026,-12.81765,-60.78728,-41.7011,14.06928,0,0,0,70.52995,-8.004278,-8.759291,64.23486,-27.15129,-125.0648,0.001067912,-0.1257102,0.09433498,0,0.3,0,0,0,0,
6.38224E+17,23.84268,39.62605,32.82626,21.54029,-15.69907,12.45789,56.02559,36.61026,-12.81765,-60.78728,-41.7011,14.06928,0,0,0,70.73864,-3.65924,-8.287065,64.23486,-27.15129,-125.0648,0.001067912,-0.1257102,0.09433498,0,0.3,0,0,0,0,
6.38224E+17,23.91336,42.4782,35.62793,21.61354,-18.84861,9.528083,56.02559,36.61026,-12.81765,-60.78728,-41.7011,14.06928,0,0,0,71.35426,5.013395,-7.431288,64.23486,-27.15129,-125.0648,0.001067912,-0.1257102,0.09433498,0,0.3,0,0,0,0,
6.38224E+17,24.19608,45.14331,38.21947,21.97976,-21.77841,6.744767,56.02559,36.61026,-12.81765,-60.78728,-41.7011,14.06928,0,0,0,72.36373,13.11226,-7.303931,64.23486,-27.15129,-125.0648,0.001067912,-0.1257102,0.09433498,0,0.3,0,0,0,0,
6.38224E+17,24.40812,46.35898,39.50357,22.27274,-23.24332,5.353109,56.02559,36.61026,-12.81765,-60.78728,-41.7011,14.06928,0,0,0,73.08337,16.9616,-7.299272,64.23486,-27.15129,-125.0648,0.001067912,-0.1257102,0.09433498,0,0.3,0,0,0,0,
6.38224E+17,24.97356,48.53315,41.88499,23.22493,-25.88014,2.716283,56.02559,36.61026,-12.81765,-60.78728,-41.7011,14.06928,0,0,0,74.86959,23.99709,-7.598005,64.23486,-27.15129,-125.0648,0.001067912,-0.1257102,0.09433498,0,0.3,0,0,0,0,
6.38224E+17,25.84528,50.4034,44.10299,24.54334,-28.29723,-0.2135241,56.02559,36.61026,-12.81765,-60.78728,-41.7011,14.06928,0,0,0,77.51028,30.34569,-8.335117,64.23486,-27.15129,-125.0648,0.001067912,-0.1257102,0.09433498,0,0.3,0,0,0,0,
6.38224E+17,26.41072,51.15151,45.10692,25.49553,-29.32266,-1.824918,56.02559,36.61026,-12.81765,-60.78728,-41.7011,14.06928,0,0,0,79.2256,33.08739,-8.825989,64.23486,-27.15129,-125.0648,0.001067912,-0.1257102,0.09433498,0,0.3,0,0,0,0,
6.38224E+17,27.87143,52.46069,46.78792,27.83937,-30.78757,-5.047705,56.02559,36.61026,-12.81765,-60.78728,-41.7011,14.06928,0,0,0,83.41859,37.7831,-10.60958,64.23486,-27.15129,-125.0648,0.001067912,-0.1257102,0.09433498,0,0.3,0,0,0,0,
6.38224E+17,29.73267,53.23217,48.28215,30.54945,-31.44678,-8.856454,56.02559,36.61026,-12.81765,-60.78728,-41.7011,14.06928,0,0,0,88.9525,41.43287,-12.60609,64.23486,-27.15129,-125.0648,0.001067912,-0.1257102,0.09433498,0,0.3,0,0,0,0,
6.38224E+17,32.04155,53.25555,49.5429,33.69899,-31.66651,-13.39765,56.02559,36.61026,-12.81765,-60.78728,-41.7011,14.06928,0,0,0,96.15462,43.67696,-14.71844,64.23486,-27.15129,-125.0648,0.001067912,-0.1257102,0.09433498,0,0.3,0,0,0,0,
6.38224E+17,33.26667,52.97501,50.00984,35.16389,-31.44678,-15.66825,56.02559,36.61026,-12.81765,-60.78728,-41.7011,14.06928,0,0,0,100.0888,44.11485,-15.78596,64.23486,-27.15129,-125.0648,0.001067912,-0.1257102,0.09433498,0,0.3,0,0,0,0,
6.38224E+17,35.55198,51.71259,50.87369,38.0937,-30.27485,-19.69674,56.02559,36.61026,-12.81765,-60.78728,-41.7011,14.06928,0,0,0,108.1898,43.86995,-16.96423,64.23486,-27.15129,-125.0648,0.001067912,-0.1257102,0.09433498,0,0.3,0,0,0,0,
6.38224E+17,37.69594,49.70206,51.59746,40.65728,-28.59021,-23.06602,56.02559,36.61026,-12.81765,-60.78728,-41.7011,14.06928,0,0,0,116.6366,42.22023,-17.41773,64.23486,-27.15129,-125.0648,0.001067912,-0.1257102,0.09433498,0,0.3,0,0,0,0,
6.38224E+17,38.61478,48.60329,51.85428,41.68271,-27.63803,-24.60417,56.02559,36.61026,-12.81765,-60.78728,-41.7011,14.06928,0,0,0,120.4803,41.01691,-17.50675,64.23486,-27.15129,-125.0648,0.001067912,-0.1257102,0.09433498,0,0.3,0,0,0,0,
6.38224E+17,40.35821,46.03168,52.13445,43.22086,-25.36743,-27.60722,56.02559,36.61026,-12.81765,-60.78728,-41.7011,14.06928,0,0,0,128.1227,37.47351,-17.58371,64.23486,-27.15129,-125.0648,0.001067912,-0.1257102,0.09433498,0,0.3,0,0,0,0,
6.38224E+17,41.84249,42.99252,52.27453,44.02656,-23.31656,-30.1708,56.02559,36.61026,-12.81765,-60.78728,-41.7011,14.06928,0,0,0,135.4258,32.68771,-17.11035,64.23486,-27.15129,-125.0648,0.001067912,-0.1257102,0.09433498,0,0.3,0,0,0,0,
6.38224E+17,42.47861,41.4028,52.32122,44.24629,-22.14464,-31.12299,56.02559,36.61026,-12.81765,-60.78728,-41.7011,14.06928,0,0,0,138.8197,30.03278,-16.74133,64.23486,-27.15129,-125.0648,0.001067912,-0.1257102,0.09433498,0,0.3,0,0,0,0,
6.38224E+17,43.58593,38.19999,52.36792,44.53928,-19.6543,-32.88087,56.02559,36.61026,-12.81765,-60.78728,-41.7011,14.06928,0,0,0,145.0587,24.39272,-15.9484,64.23486,-27.15129,-125.0648,0.001067912,-0.1257102,0.09433498,0,0.3,0,0,0,0,
6.38224E+17,44.62257,34.52961,52.36792,44.39278,-17.31046,-34.63876,56.02559,36.61026,-12.81765,-60.78728,-41.7011,14.06928,0,0,0,151.3494,17.51504,-14.99331,64.23486,-27.15129,-125.0648,0.001067912,-0.1257102,0.09433498,0,0.3,0,0,0,0,
6.38224E+17,45.49429,30.39166,52.39126,43.95331,-14.96661,-35.81068,56.02559,36.61026,-12.81765,-60.78728,-41.7011,14.06928,0,0,0,157.3743,9.433903,-13.66786,64.23486,-27.15129,-125.0648,0.001067912,-0.1257102,0.09433498,0,0.3,0,0,0,0,
6.38224E+17,45.84768,28.311,52.48465,43.58709,-13.79469,-36.39664,56.02559,36.61026,-12.81765,-60.78728,-41.7011,14.06928,0,0,0,160.1234,5.38554,-12.89587,64.23486,-27.15129,-125.0648,0.001067912,-0.1257102,0.09433498,0,0.3,0,0,0,0,
6.38224E+17,46.38956,23.96266,52.81152,42.6349,-11.15786,-37.34882,56.02559,36.61026,-12.81765,-60.78728,-41.7011,14.06928,0,0,0,165.1478,-3.093019,-11.02454,64.23486,-27.15129,-125.0648,0.001067912,-0.1257102,0.09433498,0,0.3,0,0,0,0,
6.38224E+17,46.67228,19.91823,52.85821,41.31649,-8.594284,-38.4475,56.02559,36.61026,-12.81765,-60.78728,-41.7011,14.06928,0,0,0,168.5278,-11.73584,-9.383481,64.23486,-27.15129,-125.0648,0.001067912,-0.1257102,0.09433498,0,0.3,0,0,0,0,
6.38224E+17,46.67228,17.95446,52.85821,40.58403,-7.349115,-38.88697,56.02559,36.61026,-12.81765,-60.78728,-41.7011,14.06928,0,0,0,169.6066,-16.05874,-8.365806,64.23486,-27.15129,-125.0648,0.001067912,-0.1257102,0.09433498,0,0.3,0,0,0,0,
6.38224E+17,46.6016,14.40097,52.81152,39.11913,-5.00527,-39.47293,56.02559,36.61026,-12.81765,-60.78728,-41.7011,14.06928,0,0,0,171.0355,-24.08695,-6.618873,64.23486,-27.15129,-125.0648,0.001067912,-0.1257102,0.09433498,0,0.3,0,0,0,0,
6.38224E+17,46.20108,11.52545,52.41461,37.80072,-3.027651,-39.69267,56.02559,36.61026,-12.81765,-60.78728,-41.7011,14.06928,0,0,0,170.5794,-31.34215,-4.776465,64.23486,-27.15129,-125.0648,0.001067912,-0.1257102,0.09433498,0,0.3,0,0,0,0,
6.38224E+17,45.84768,10.26303,52.04106,37.06827,-2.295199,-39.76591,56.02559,36.61026,-12.81765,-60.78728,-41.7011,14.06928,0,0,0,169.5835,-34.91452,-3.711601,64.23486,-27.15129,-125.0648,0.001067912,-0.1257102,0.09433498,0,0.3,0,0,0,0,
6.38224E+17,44.81104,8.439531,50.45344,35.31038,-0.5373149,-39.69267,56.02559,36.61026,-12.81765,-60.78728,-41.7011,14.06928,0,0,0,165.4331,-41.98343,-1.8221,64.23486,-27.15129,-125.0648,0.001067912,-0.1257102,0.09433498,0,0.3,0,0,0,0,
6.38224E+17,43.68017,7.364134,48.7024,33.11303,1.147324,-38.59399,56.02559,36.61026,-12.81765,-60.78728,-41.7011,14.06928,0,0,0,160.527,-47.56492,-0.2516811,64.23486,-27.15129,-125.0648,0.001067912,-0.1257102,0.09433498,0,0.3,0,0,0,0,
6.38224E+17,42.64353,7.270621,47.06809,30.91567,2.538982,-36.1769,56.02559,36.61026,-12.81765,-60.78728,-41.7011,14.06928,0,0,0,155.7503,-50.60228,0.7691387,64.23486,-27.15129,-125.0648,0.001067912,-0.1257102,0.09433498,0,0.3,0,0,0,0,
6.38224E+17,42.07809,7.691429,46.04081,30.03673,3.417924,-34.63876,56.02559,36.61026,-12.81765,-60.78728,-41.7011,14.06928,0,0,0,152.8865,-51.36706,0.9829888,64.23486,-27.15129,-125.0648,0.001067912,-0.1257102,0.09433498,0,0.3,0,0,0,0,
6.38224E+17,40.82941,9.281147,43.16909,28.27885,5.029318,-31.26948,56.02559,36.61026,-12.81765,-60.78728,-41.7011,14.06928,0,0,0,145.6923,-52.40063,0.2611355,64.23486,-27.15129,-125.0648,0.001067912,-0.1257102,0.09433498,0,0.3,0,0,0,0,
6.38224E+17,39.53362,11.82937,39.78374,26.37447,6.201241,-27.9002,56.02559,36.61026,-12.81765,-60.78728,-41.7011,14.06928,0,0,0,137.3936,-51.78837,-1.877324,64.23486,-27.15129,-125.0648,0.001067912,-0.1257102,0.09433498,0,0.3,0,0,0,0,
6.38224E+17,38.92105,13.39571,38.28952,25.27579,6.567466,-26.36205,56.02559,36.61026,-12.81765,-60.78728,-41.7011,14.06928,0,0,0,133.4089,-50.42118,-3.138803,64.23486,-27.15129,-125.0648,0.001067912,-0.1257102,0.09433498,0,0.3,0,0,0,0,
6.38224E+17,37.86086,17.25311,35.95479,23.59116,6.05475,-23.43224,56.02559,36.61026,-12.81765,-60.78728,-41.7011,14.06928,0,0,0,126.2143,-45.04349,-5.991931,64.23486,-27.15129,-125.0648,0.001067912,-0.1257102,0.09433498,0,0.3,0,0,0,0,
6.38224E+17,37.1305,21.1339,34.81077,22.41923,4.882828,-21.23489,56.02559,36.61026,-12.81765,-60.78728,-41.7011,14.06928,0,0,0,121.032,-38.05677,-8.4939,64.23486,-27.15129,-125.0648,0.001067912,-0.1257102,0.09433498,0,0.3,0,0,0,0,
6.38224E+17,36.72998,23.26131,34.36718,22.05301,4.077131,-20.35595,56.02559,36.61026,-12.81765,-60.78728,-41.7011,14.06928,0,0,0,118.2847,-34.05875,-9.8321,64.23486,-27.15129,-125.0648,0.001067912,-0.1257102,0.09433498,0,0.3,0,0,0,0,
6.38224E+17,35.97606,27.5629,33.7368,21.17406,1.733285,-19.33051,56.02559,36.61026,-12.81765,-60.78728,-41.7011,14.06928,0,0,0,112.9514,-25.83954,-12.74908,64.23486,-27.15129,-125.0648,0.001067912,-0.1257102,0.09433498,0,0.3,0,0,0,0,
6.38224E+17,35.4813,31.35017,33.64341,20.22188,-1.196521,-18.96429,56.02559,36.61026,-12.81765,-60.78728,-41.7011,14.06928,0,0,0,108.9831,-18.28649,-15.45587,64.23486,-27.15129,-125.0648,0.001067912,-0.1257102,0.09433498,0,0.3,0,0,0,0,
6.38224E+17,35.15146,35.02055,33.83019,19.41618,-4.492554,-19.69674,56.02559,36.61026,-12.81765,-60.78728,-41.7011,14.06928,0,0,0,105.6177,-10.89709,-18.35779,64.23486,-27.15129,-125.0648,0.001067912,-0.1257102,0.09433498,0,0.3,0,0,0,0,
6.38224E+17,35.05722,36.63364,34.01696,19.04996,-6.177193,-20.50244,56.02559,36.61026,-12.81765,-60.78728,-41.7011,14.06928,0,0,0,104.3158,-7.610638,-19.68781,64.23486,-27.15129,-125.0648,0.001067912,-0.1257102,0.09433498,0,0.3,0,0,0,0,
6.38224E+17,34.96298,39.20525,34.53061,18.3175,-9.106999,-22.48005,56.02559,36.61026,-12.81765,-60.78728,-41.7011,14.06928,0,0,0,102.5296,-2.216295,-21.72096,64.23486,-27.15129,-125.0648,0.001067912,-0.1257102,0.09433498,0,0.3,0,0,0,0,
6.38224E+17,35.19858,41.02874,35.0209,17.87803,-11.96356,-24.31118,56.02559,36.61026,-12.81765,-60.78728,-41.7011,14.06928,0,0,0,102.0958,1.679934,-23.61242,64.23486,-27.15129,-125.0648,0.001067912,-0.1257102,0.09433498,0,0.3,0,0,0,0,
6.38224E+17,35.4813,41.49631,35.18433,17.80479,-12.91575,-25.04364,56.02559,36.61026,-12.81765,-60.78728,-41.7011,14.06928,0,0,0,102.5728,2.71666,-24.44897,64.23486,-27.15129,-125.0648,0.001067912,-0.1257102,0.09433498,0,0.3,0,0,0,0,
6.38224E+17,36.4237,41.47293,35.44115,18.24426,-14.30741,-26.36205,56.02559,36.61026,-12.81765,-60.78728,-41.7011,14.06928,0,0,0,105.2367,3.021406,-25.73401,64.23486,-27.15129,-125.0648,0.001067912,-0.1257102,0.09433498,0,0.3,0,0,0,0,
6.38224E+17,37.4839,40.77158,35.67462,19.34294,-14.74688,-27.75371,56.02559,36.61026,-12.81765,-60.78728,-41.7011,14.06928,0,0,0,108.7797,2.107772,-26.50296,64.23486,-27.15129,-125.0648,0.001067912,-0.1257102,0.09433498,0,0.3,0,0,0,0,
6.38224E+17,37.97866,40.117,35.67462,20.00214,-14.82012,-28.41291,56.02559,36.61026,-12.81765,-60.78728,-41.7011,14.06928,0,0,0,110.6087,0.9483463,-26.66856,64.23486,-27.15129,-125.0648,0.001067912,-0.1257102,0.09433498,0,0.3,0,0,0,0,
6.38224E+17,38.8975,38.01296,35.65128,21.24731,-14.67363,-29.29186,56.02559,36.61026,-12.81765,-60.78728,-41.7011,14.06928,0,0,0,114.7765,-2.885253,-26.09322,64.23486,-27.15129,-125.0648,0.001067912,-0.1257102,0.09433498,0,0.3,0,0,0,0,
6.38224E+17,39.58073,34.88028,35.51119,22.63897,-13.57495,-29.65808,56.02559,36.61026,-12.81765,-60.78728,-41.7011,14.06928,0,0,0,119.0552,-8.939174,-24.33844,64.23486,-27.15129,-125.0648,0.001067912,-0.1257102,0.09433498,0,0.3,0,0,0,0,
6.38224E+17,39.81633,33.15029,35.32441,23.22493,-12.98899,-29.73133,56.02559,36.61026,-12.81765,-60.78728,-41.7011,14.06928,0,0,0,120.8617,-12.52838,-23.37132,64.23486,-27.15129,-125.0648,0.001067912,-0.1257102,0.09433498,0,0.3,0,0,0,0,
6.38224E+17,40.00481,29.40978,34.92751,24.10387,-10.35217,-28.7059,56.02559,36.61026,-12.81765,-60.78728,-41.7011,14.06928,0,0,0,123.7576,-20.49876,-20.88662,64.23486,-27.15129,-125.0648,0.001067912,-0.1257102,0.09433498,0,0.3,0,0,0,0,
6.38224E+17,39.9577,25.87967,34.624,24.61659,-6.98289,-26.72828,56.02559,36.61026,-12.81765,-60.78728,-41.7011,14.06928,0,0,0,125.7115,-28.17856,-18.30806,64.23486,-27.15129,-125.0648,0.001067912,-0.1257102,0.09433498,0,0.3,0,0,0,0,
6.38224E+17,39.7221,22.27943,34.53061,24.68983,-3.320631,-24.38443,56.02559,36.61026,-12.81765,-60.78728,-41.7011,14.06928,0,0,0,127.1635,-35.95069,-15.30095,64.23486,-27.15129,-125.0648,0.001067912,-0.1257102,0.09433498,0,0.3,0,0,0,0,
6.38224E+17,39.53362,20.64295,34.53061,24.61659,-1.782483,-23.21251,56.02559,36.61026,-12.81765,-60.78728,-41.7011,14.06928,0,0,0,127.5463,-39.49522,-13.80875,64.23486,-27.15129,-125.0648,0.001067912,-0.1257102,0.09433498,0,0.3,0,0,0,0,
6.38224E+17,38.82682,17.88433,34.29713,24.10387,1.220569,-21.23489,56.02559,36.61026,-12.81765,-60.78728,-41.7011,14.06928,0,0,0,126.6771,-45.86268,-10.94637,64.23486,-27.15129,-125.0648,0.001067912,-0.1257102,0.09433498,0,0.3,0,0,0,0,
6.38224E+17,37.9551,15.94393,33.6901,23.22493,3.93064,-19.03753,56.02559,36.61026,-12.81765,-60.78728,-41.7011,14.06928,0,0,0,124.3554,-50.97307,-8.924996,64.23486,-27.15129,-125.0648,0.001067912,-0.1257102,0.09433498,0,0.3,0,0,0,0,
6.38224E+17,37.38966,15.45299,33.24651,22.8587,5.029318,-17.71912,56.02559,36.61026,-12.81765,-60.78728,-41.7011,14.06928,0,0,0,122.4408,-52.64242,-8.144184,64.23486,-27.15129,-125.0648,0.001067912,-0.1257102,0.09433498,0,0.3,0,0,0,0,
6.38224E+17,35.92894,15.24259,32.31261,21.97976,6.860447,-15.30203,56.02559,36.61026,-12.81765,-60.78728,-41.7011,14.06928,0,0,0,117.3209,-54.2914,-6.449814,64.23486,-27.15129,-125.0648,0.001067912,-0.1257102,0.09433498,0,0.3,0,0,0,0,
6.38224E+17,34.46822,15.28934,31.91571,20.88108,7.959125,-12.95818,56.02559,36.61026,-12.81765,-60.78728,-41.7011,14.06928,0,0,0,112.6966,-54.67749,-4.180404,64.23486,-27.15129,-125.0648,0.001067912,-0.1257102,0.09433498,0,0.3,0,0,0,0,
6.38224E+17,33.8321,15.45299,31.89237,20.22188,8.471841,-11.71302,56.02559,36.61026,-12.81765,-60.78728,-41.7011,14.06928,0,0,0,110.7852,-54.33897,-3.061529,64.23486,-27.15129,-125.0648,0.001067912,-0.1257102,0.09433498,0,0.3,0,0,0,0,
6.38224E+17,33.14886,16.24785,31.91571,19.1232,8.691576,-10.10162,56.02559,36.61026,-12.81765,-60.78728,-41.7011,14.06928,0,0,0,108.5552,-52.53065,-2.13664,64.23486,-27.15129,-125.0648,0.001067912,-0.1257102,0.09433498,0,0.3,0,0,0,0,
6.38224E+17,32.96038,17.6973,32.31261,18.24426,7.812634,-9.22268,56.02559,36.61026,-12.81765,-60.78728,-41.7011,14.06928,0,0,0,107.8978,-48.81315,-1.950194,64.23486,-27.15129,-125.0648,0.001067912,-0.1257102,0.09433498,0,0.3,0,0,0,0,
6.38224E+17,32.96038,19.59093,32.98969,17.87803,6.640712,-8.856454,56.02559,36.61026,-12.81765,-60.78728,-41.7011,14.06928,0,0,0,107.8531,-43.7872,-2.019081,64.23486,-27.15129,-125.0648,0.001067912,-0.1257102,0.09433498,0,0.3,0,0,0,0,
6.38224E+17,32.93682,20.71309,33.31655,17.73154,5.688524,-8.709964,56.02559,36.61026,-12.81765,-60.78728,-41.7011,14.06928,0,0,0,107.6418,-40.9194,-2.195347,64.23486,-27.15129,-125.0648,0.001067912,-0.1257102,0.09433498,0,0.3,0,0,0,0,
6.38224E+17,32.74835,23.47172,33.87688,17.51181,3.78415,-8.856454,56.02559,36.61026,-12.81765,-60.78728,-41.7011,14.06928,0,0,0,106.3761,-34.24932,-2.959263,64.23486,-27.15129,-125.0648,0.001067912,-0.1257102,0.09433498,0,0.3,0,0,0,0,
6.38224E+17,32.23003,26.97845,34.20374,17.21883,1.220569,-9.076189,56.02559,36.61026,-12.81765,-60.78728,-41.7011,14.06928,0,0,0,103.3571,-26.44136,-4.412321,64.23486,-27.15129,-125.0648,0.001067912,-0.1257102,0.09433498,0,0.3,0,0,0,0,
6.38224E+17,31.64103,30.83585,34.74073,16.63286,-1.855728,-9.36917,56.02559,36.61026,-12.81765,-60.78728,-41.7011,14.06928,0,0,0,99.9307,-17.87634,-6.175286,64.23486,-27.15129,-125.0648,0.001067912,-0.1257102,0.09433498,0,0.3,0,0,0,0,
6.38224E+17,31.38187,32.86975,35.13763,16.19339,-3.686857,-9.955132,56.02559,36.61026,-12.81765,-60.78728,-41.7011,14.06928,0,0,0,98.28964,-13.32668,-7.211066,64.23486,-27.15129,-125.0648,0.001067912,-0.1257102,0.09433498,0,0.3,0,0,0,0,
6.38224E+17,30.91067,36.56351,35.79136,15.31445,-7.495606,-12.22573,56.02559,36.61026,-12.81765,-60.78728,-41.7011,14.06928,0,0,0,95.08304,-5.378735,-9.544936,64.23486,-27.15129,-125.0648,0.001067912,-0.1257102,0.09433498,0,0.3,0,0,0,0,
6.38224E+17,30.34523,39.18187,36.11822,14.36226,-11.01137,-15.52176,56.02559,36.61026,-12.81765,-60.78728,-41.7011,14.06928,0,0,0,91.93243,-0.1220596,-11.31121,64.23486,-27.15129,-125.0648,0.001067912,-0.1257102,0.09433498,0,0.3,0,0,0,0,
6.38224E+17,30.10963,40.00011,36.16492,13.7763,-12.32979,-17.2064,56.02559,36.61026,-12.81765,-60.78728,-41.7011,14.06928,0,0,0,90.72112,1.409551,-11.90847,64.23486,-27.15129,-125.0648,0.001067912,-0.1257102,0.09433498,0,0.3,0,0,0,0,
6.38224E+17,29.89759,40.77158,35.97814,12.75087,-14.74688,-19.98972,56.02559,36.61026,-12.81765,-60.78728,-41.7011,14.06928,0,0,0,89.38651,2.521249,-12.88696,64.23486,-27.15129,-125.0648,0.001067912,-0.1257102,0.09433498,0,0.3,0,0,0,0,
6.38224E+17,29.89759,40.56118,35.32441,12.16491,-15.69907,-21.7476,56.02559,36.61026,-12.81765,-60.78728,-41.7011,14.06928,0,0,0,88.92933,1.263022,-13.6821,64.23486,-27.15129,-125.0648,0.001067912,-0.1257102,0.09433498,0,0.3,0,0,0,0,
6.38224E+17,29.89759,40.25727,34.85747,11.94517,-15.9188,-22.62654,56.02559,36.61026,-12.81765,-60.78728,-41.7011,14.06928,0,0,0,88.71465,0.0996794,-14.05549,64.23486,-27.15129,-125.0648,0.001067912,-0.1257102,0.09433498,0,0.3,0,0,0,0,
6.38224E+17,29.89759,39.01822,33.78349,11.5057,-15.69907,-24.0182,56.02559,36.61026,-12.81765,-60.78728,-41.7011,14.06928,0,0,0,88.60262,-3.530319,-14.25034,64.23486,-27.15129,-125.0648,0.001067912,-0.1257102,0.09433498,0,0.3,0,0,0,0,
6.38224E+17,29.89759,36.84405,32.59278,11.13948,-15.18635,-24.67741,56.02559,36.61026,-12.81765,-60.78728,-41.7011,14.06928,0,0,0,88.99699,-9.038214,-13.56443,64.23486,-27.15129,-125.0648,0.001067912,-0.1257102,0.09433498,0,0.3,0,0,0,0,
6.38224E+17,29.89759,35.30109,31.93906,10.91974,-14.52714,-24.8239,56.02559,36.61026,-12.81765,-60.78728,-41.7011,14.06928,0,0,0,89.40965,-12.75293,-12.84672,64.23486,-27.15129,-125.0648,0.001067912,-0.1257102,0.09433498,0,0.3,0,0,0,0,
6.38224E+17,29.96827,31.84111,30.86509,10.77325,-13.06224,-24.23794,56.02559,36.61026,-12.81765,-60.78728,-41.7011,14.06928,0,0,0,90.75971,-20.76381,-10.94833,64.23486,-27.15129,-125.0648,0.001067912,-0.1257102,0.09433498,0,0.3,0,0,0,0,
6.38224E+17,30.08607,28.38114,30.02458,10.77325,-10.35217,-22.62654,56.02559,36.61026,-12.81765,-60.78728,-41.7011,14.06928,0,0,0,92.26261,-28.72,-9.099426,64.23486,-27.15129,-125.0648,0.001067912,-0.1257102,0.09433498,0,0.3,0,0,0,0,
6.38224E+17,30.10963,24.2432,29.32417,10.77325,-7.27587,-20.50244,56.02559,36.61026,-12.81765,-60.78728,-41.7011,14.06928,0,0,0,93.75861,-38.15798,-6.670545,64.23486,-27.15129,-125.0648,0.001067912,-0.1257102,0.09433498,0,0.3,0,0,0,0,
6.38224E+17,30.10963,22.25605,29.11404,10.77325,-5.884212,-19.62349,56.02559,36.61026,-12.81765,-60.78728,-41.7011,14.06928,0,0,0,94.46028,-42.64581,-5.460572,64.23486,-27.15129,-125.0648,0.001067912,-0.1257102,0.09433498,0,0.3,0,0,0,0,
6.38224E+17,30.10963,17.97784,28.95061,10.55352,-2.807915,-18.15859,56.02559,36.61026,-12.81765,-60.78728,-41.7011,14.06928,0,0,0,96.01102,-52.17786,-2.786435,64.23486,-27.15129,-125.0648,0.001067912,-0.1257102,0.09433498,0,0.3,0,0,0,0,
6.38224E+17,30.10963,13.58274,28.95061,10.11404,0.04864649,-17.05991,56.02559,36.61026,-12.81765,-60.78728,-41.7011,14.06928,0,0,0,97.40619,-62.01908,-0.3805742,64.23486,-27.15129,-125.0648,0.001067912,-0.1257102,0.09433498,0,0.3,0,0,0,0,
6.38224E+17,30.10963,11.52545,28.9973,9.894309,1.586795,-16.76693,56.02559,36.61026,-12.81765,-60.78728,-41.7011,14.06928,0,0,0,97.97596,-66.63982,0.6019419,64.23486,-27.15129,-125.0648,0.001067912,-0.1257102,0.09433498,0,0.3,0,0,0,0,
6.38224E+17,30.10963,8.229127,29.23078,9.454838,4.443357,-16.47395,56.02559,36.61026,-12.81765,-60.78728,-41.7011,14.06928,0,0,0,98.87421,-73.93253,2.150903,64.23486,-27.15129,-125.0648,0.001067912,-0.1257102,0.09433498,0,0.3,0,0,0,0,
6.38224E+17,30.10963,5.493878,29.74442,8.942122,6.640712,-16.40071,56.02559,36.61026,-12.81765,-60.78728,-41.7011,14.06928,0,0,0,99.77772,-79.66391,3.708939,64.23486,-27.15129,-125.0648,0.001067912,-0.1257102,0.09433498,0,0.3,0,0,0,0,
6.38224E+17,30.10963,3.226192,30.42149,8.575896,8.105616,-16.32746,56.02559,36.61026,-12.81765,-60.78728,-41.7011,14.06928,0,0,0,100.663,-84.13622,5.23557,64.23486,-27.15129,-125.0648,0.001067912,-0.1257102,0.09433498,0,0.3,0,0,0,0,
6.38224E+17,30.10963,2.197551,30.74835,8.35616,8.618331,-16.32746,56.02559,36.61026,-12.81765,-60.78728,-41.7011,14.06928,0,0,0,101.0484,-86.14049,5.900088,64.23486,-27.15129,-125.0648,0.001067912,-0.1257102,0.09433498,0,0.3,0,0,0,0,
6.38224E+17,30.10963,0.3039166,31.37873,8.136425,9.424027,-16.32746,56.02559,36.61026,-12.81765,-60.78728,-41.7011,14.06928,0,0,0,101.7271,-89.78946,7.070464,64.23486,-27.15129,-125.0648,0.001067912,-0.1257102,0.09433498,0,0.3,0,0,0,0,
6.38224E+17,30.10963,-1.052019,31.96241,7.91669,10.00999,-16.32746,56.02559,36.61026,-12.81765,-60.78728,-41.7011,14.06928,0,0,0,102.2967,-92.23188,8.052792,64.23486,-27.15129,-125.0648,0.001067912,-0.1257102,0.09433498,0,0.3,0,0,0,0,
6.38224E+17,30.13319,-1.052019,31.77563,7.770199,10.44946,-16.32746,56.02559,36.61026,-12.81765,-60.78728,-41.7011,14.06928,0,0,0,102.1839,-92.4614,7.691425,64.23486,-27.15129,-125.0648,0.001067912,-0.1257102,0.09433498,0,0.3,0,0,0,0,
6.38224E+17,30.25099,-1.052019,32.0091,7.843444,10.88893,-16.32746,56.02559,36.61026,-12.81765,-60.78728,-41.7011,14.06928,0,0,0,102.7781,-92.17432,7.879495,64.23486,-27.15129,-125.0648,0.001067912,-0.1257102,0.09433498,0,0.3,0,0,0,0,
6.38224E+17,30.25099,-1.052019,32.07914,8.282915,11.47489,-16.25422,56.02559,36.61026,-12.81765,-60.78728,-41.7011,14.06928,0,0,0,102.8477,-92.08782,7.998857,64.23486,-27.15129,-125.0648,0.001067912,-0.1257102,0.09433498,0,0.3,0,0,0,0,
6.38224E+17,30.25099,-1.052019,32.10249,8.429405,11.84112,-16.25422,56.02559,36.61026,-12.81765,-60.78728,-41.7011,14.06928,0,0,0,102.8709,-92.05896,8.038624,64.23486,-27.15129,-125.0648,0.001067912,-0.1257102,0.09433498,0,0.3,0,0,0,0,
6.38224E+17,30.25099,-0.9818845,32.10249,8.649141,12.72006,-15.96124,56.02559,36.61026,-12.81765,-60.78728,-41.7011,14.06928,0,0,0,102.8723,-91.89575,8.041126,64.23486,-27.15129,-125.0648,0.001067912,-0.1257102,0.09433498,0,0.3,0,0,0,0,
6.38224E+17,30.29811,-0.6078333,32.07914,8.50265,13.52576,-15.66825,56.02559,36.61026,-12.81765,-60.78728,-41.7011,14.06928,0,0,0,103.0002,-91.05414,7.927144,64.23486,-27.15129,-125.0648,0.001067912,-0.1257102,0.09433498,0,0.3,0,0,0,0,
6.38224E+17,30.65151,1.16891,31.42542,8.282915,14.03847,-15.66825,56.02559,36.61026,-12.81765,-60.78728,-41.7011,14.06928,0,0,0,103.4157,-87.71983,6.158081,64.23486,-27.15129,-125.0648,0.001067912,-0.1257102,0.09433498,0,0.3,0,0,0,0,
6.38224E+17,30.83999,2.711872,30.91178,8.429405,13.89198,-15.66825,56.02559,36.61026,-12.81765,-60.78728,-41.7011,14.06928,0,0,0,103.4025,-84.74963,4.834302,64.23486,-27.15129,-125.0648,0.001067912,-0.1257102,0.09433498,0,0.3,0,0,0,0,
6.38224E+17,30.95779,6.662788,29.76777,8.942122,12.9398,-15.7415,56.02559,36.61026,-12.81765,-60.78728,-41.7011,14.06928,0,0,0,102.1898,-76.93177,2.00654,64.23486,-27.15129,-125.0648,0.001067912,-0.1257102,0.09433498,0,0.3,0,0,0,0,
6.38224E+17,30.83999,11.12803,29.02065,9.528083,11.10867,-15.66825,56.02559,36.61026,-12.81765,-60.78728,-41.7011,14.06928,0,0,0,100.2391,-67.52042,-0.4638836,64.23486,-27.15129,-125.0648,0.001067912,-0.1257102,0.09433498,0,0.3,0,0,0,0,
6.38224E+17,30.67507,13.25544,28.92726,9.821064,10.00999,-15.66825,56.02559,36.61026,-12.81765,-60.78728,-41.7011,14.06928,0,0,0,99.125,-62.78632,-1.238874,64.23486,-27.15129,-125.0648,0.001067912,-0.1257102,0.09433498,0,0.3,0,0,0,0,
6.38224E+17,29.96827,17.58041,28.81053,10.26054,7.006938,-15.66825,56.02559,36.61026,-12.81765,-60.78728,-41.7011,14.06928,0,0,0,95.60074,-53.21613,-2.552696,64.23486,-27.15129,-125.0648,0.001067912,-0.1257102,0.09433498,0,0.3,0,0,0,0,
6.38224E+17,28.48399,20.61958,28.67044,10.11404,3.710905,-15.7415,56.02559,36.61026,-12.81765,-60.78728,-41.7011,14.06928,0,0,0,90.03404,-46.68974,-2.41739,64.23486,-27.15129,-125.0648,0.001067912,-0.1257102,0.09433498,0,0.3,0,0,0,0,
6.38224E+17,27.44736,21.78849,28.62375,9.528083,2.099511,-15.66825,56.02559,36.61026,-12.81765,-60.78728,-41.7011,14.06928,0,0,0,86.51979,-44.20554,-1.773518,64.23486,-27.15129,-125.0648,0.001067912,-0.1257102,0.09433498,0,0.3,0,0,0,0,
6.38224E+17,25.11492,23.35482,28.53036,7.843444,-0.61056,-15.7415,56.02559,36.61026,-12.81765,-60.78728,-41.7011,14.06928,0,0,0,78.99397,-40.94337,0.1698306,64.23486,-27.15129,-125.0648,0.001067912,-0.1257102,0.09433498,0,0.3,0,0,0,0,
6.38224E+17,22.61756,23.93928,28.32023,5.353109,-2.221954,-15.44852,56.02559,36.61026,-12.81765,-60.78728,-41.7011,14.06928,0,0,0,71.20075,-39.93012,2.551156,64.23486,-27.15129,-125.0648,0.001067912,-0.1257102,0.09433498,0,0.3,0,0,0,0,
6.38224E+17,20.21445,23.79901,28.13346,2.057076,-2.954405,-14.2766,56.02559,36.61026,-12.81765,-60.78728,-41.7011,14.06928,0,0,0,63.88556,-40.43427,5.150849,64.23486,-27.15129,-125.0648,0.001067912,-0.1257102,0.09433498,0,0.3,0,0,0,0,
6.38224E+17,19.17781,23.58861,28.08676,0.3724372,-3.174141,-13.61739,56.02559,36.61026,-12.81765,-60.78728,-41.7011,14.06928,0,0,0,60.76932,-40.93388,6.373579,64.23486,-27.15129,-125.0648,0.001067912,-0.1257102,0.09433498,0,0.3,0,0,0,0,
6.38224E+17,17.45793,22.44308,27.89998,-2.85035,-3.320631,-12.22573,56.02559,36.61026,-12.81765,-60.78728,-41.7011,14.06928,0,0,0,55.69553,-43.59176,8.746948,64.23486,-27.15129,-125.0648,0.001067912,-0.1257102,0.09433498,0,0.3,0,0,0,0,
6.38224E+17,16.53909,20.2689,27.7132,-5.633667,-2.661425,-10.83407,56.02559,36.61026,-12.81765,-60.78728,-41.7011,14.06928,0,0,0,53.2635,-48.50697,11.01508,64.23486,-27.15129,-125.0648,0.001067912,-0.1257102,0.09433498,0,0.3,0,0,0,0,
6.38224E+17,16.44485,18.74932,27.64316,-6.80559,-2.148709,-10.17487,56.02559,36.61026,-12.81765,-60.78728,-41.7011,14.06928,0,0,0,53.26189,-51.91622,12.09674,64.23486,-27.15129,-125.0648,0.001067912,-0.1257102,0.09433498,0,0.3,0,0,0,0,
6.38224E+17,16.46841,15.75691,27.45638,-8.197248,-0.3175794,-9.295925,56.02559,36.61026,-12.81765,-60.78728,-41.7011,14.06928,0,0,0,53.81234,-58.76767,13.68589,64.23486,-27.15129,-125.0648,0.001067912,-0.1257102,0.09433498,0,0.3,0,0,0,0,
6.38224E+17,16.77469,12.88139,27.01279,-9.002944,1.733285,-8.709964,56.02559,36.61026,-12.81765,-60.78728,-41.7011,14.06928,0,0,0,54.99738,-65.72402,14.10132,64.23486,-27.15129,-125.0648,0.001067912,-0.1257102,0.09433498,0,0.3,0,0,0,0,
6.38224E+17,17.74065,10.49681,26.73262,-9.442415,3.857395,-8.563474,56.02559,36.61026,-12.81765,-60.78728,-41.7011,14.06928,0,0,0,58.23075,-71.45313,13.6651,64.23486,-27.15129,-125.0648,0.001067912,-0.1257102,0.09433498,0,0.3,0,0,0,0,
6.38224E+17,18.49457,9.398038,26.63923,-9.22268,4.809582,-8.490229,56.02559,36.61026,-12.81765,-60.78728,-41.7011,14.06928,0,0,0,60.69919,-74.06955,13.11791,64.23486,-27.15129,-125.0648,0.001067912,-0.1257102,0.09433498,0,0.3,0,0,0,0,
6.38224E+17,20.30869,7.247243,26.61588,-7.904267,6.420976,-8.416983,56.02559,36.61026,-12.81765,-60.78728,-41.7011,14.06928,0,0,0,66.6481,-79.04665,11.73933,64.23486,-27.15129,-125.0648,0.001067912,-0.1257102,0.09433498,0,0.3,0,0,0,0,
6.38224E+17,22.38196,5.376987,26.63923,-5.999893,7.519653,-8.563474,56.02559,36.61026,-12.81765,-60.78728,-41.7011,14.06928,0,0,0,73.3204,-83.34854,9.697681,64.23486,-27.15129,-125.0648,0.001067912,-0.1257102,0.09433498,0,0.3,0,0,0,0,
6.38224E+17,23.5364,4.488615,26.70927,-5.047705,7.959125,-9.22268,56.02559,36.61026,-12.81765,-60.78728,-41.7011,14.06928,0,0,0,77.02187,-85.33527,8.48087,64.23486,-27.15129,-125.0648,0.001067912,-0.1257102,0.09433498,0,0.3,0,0,0,0,
6.38224E+17,25.84528,3.085923,26.89605,-2.557369,8.618331,-11.34679,56.02559,36.61026,-12.81765,-60.78728,-41.7011,14.06928,0,0,0,84.34641,-88.39667,5.777619,64.23486,-27.15129,-125.0648,0.001067912,-0.1257102,0.09433498,0,0.3,0,0,0,0,
6.38224E+17,28.03635,2.571602,26.89605,-0.140279,9.057802,-14.2766,56.02559,36.61026,-12.81765,-60.78728,-41.7011,14.06928,0,0,0,90.96978,-89.59223,2.477707,64.23486,-27.15129,-125.0648,0.001067912,-0.1257102,0.09433498,0,0.3,0,0,0,0,
6.38224E+17,29.09655,2.548224,26.89605,1.104889,8.984557,-15.66825,56.02559,36.61026,-12.81765,-60.78728,-41.7011,14.06928,0,0,0,94.1162,-89.64658,0.7673819,64.23486,-27.15129,-125.0648,0.001067912,-0.1257102,0.09433498,0,0.3,0,0,0,0,
6.38224E+17,31.14627,2.59498,27.03613,3.741715,8.545086,-18.67131,56.02559,36.61026,-12.81765,-60.78728,-41.7011,14.06928,0,0,0,100.2525,-89.39003,-2.462532,64.23486,-27.15129,-125.0648,0.001067912,-0.1257102,0.09433498,0,0.3,0,0,0,0,
6.38224E+17,32.55987,2.945654,27.40969,6.232051,8.252106,-21.38138,56.02559,36.61026,-12.81765,-60.78728,-41.7011,14.06928,0,0,0,104.7092,-88.17712,-4.367836,64.23486,-27.15129,-125.0648,0.001067912,-0.1257102,0.09433498,0,0.3,0,0,0,0,
6.38224E+17,33.62006,3.997673,28.13346,8.429405,7.739389,-23.13926,56.02559,36.61026,-12.81765,-60.78728,-41.7011,14.06928,0,0,0,108.4686,-84.9483,-5.215661,64.23486,-27.15129,-125.0648,0.001067912,-0.1257102,0.09433498,0,0.3,0,0,0,0,
6.38224E+17,34.02058,4.909423,28.53036,9.601329,7.446409,-23.57873,56.02559,36.61026,-12.81765,-60.78728,-41.7011,14.06928,0,0,0,109.969,-82.39433,-5.440523,64.23486,-27.15129,-125.0648,0.001067912,-0.1257102,0.09433498,0,0.3,0,0,0,0,
6.38224E+17,34.35042,7.55116,28.9973,11.65219,6.347731,-23.94496,56.02559,36.61026,-12.81765,-60.78728,-41.7011,14.06928,0,0,0,111.0661,-75.75987,-5.840597,64.23486,-27.15129,-125.0648,0.001067912,-0.1257102,0.09433498,0,0.3,0,0,0,0,
6.38224E+17,34.44466,11.10465,29.55764,13.19034,4.809582,-24.09145,56.02559,36.61026,-12.81765,-60.78728,-41.7011,14.06928,0,0,0,111.2186,-66.9624,-6.190703,64.23486,-27.15129,-125.0648,0.001067912,-0.1257102,0.09433498,0,0.3,0,0,0,0,
6.38224E+17,34.56246,13.11517,30.00124,13.92279,3.857395,-23.94496,56.02559,36.61026,-12.81765,-60.78728,-41.7011,14.06928,0,0,0,111.5032,-61.87471,-6.490136,64.23486,-27.15129,-125.0648,0.001067912,-0.1257102,0.09433498,0,0.3,0,0,0,0,
6.38224E+17,34.70382,17.67392,31.02851,15.16796,1.220569,-23.50549,56.02559,36.61026,-12.81765,-60.78728,-41.7011,14.06928,0,0,0,111.4717,-50.43408,-7.387342,64.23486,-27.15129,-125.0648,0.001067912,-0.1257102,0.09433498,0,0.3,0,0,0,0,
6.38224E+17,34.82162,21.99889,32.28927,16.12015,-1.928973,-23.359,56.02559,36.61026,-12.81765,-60.78728,-41.7011,14.06928,0,0,0,111.2786,-39.42762,-8.369949,64.23486,-27.15129,-125.0648,0.001067912,-0.1257102,0.09433498,0,0.3,0,0,0,0,
6.38224E+17,34.93942,24.14968,33.05973,16.55962,-3.760103,-23.28575,56.02559,36.61026,-12.81765,-60.78728,-41.7011,14.06928,0,0,0,111.3482,-33.85455,-8.969912,64.23486,-27.15129,-125.0648,0.001067912,-0.1257102,0.09433498,0,0.3,0,0,0,0,
6.38224E+17,35.29282,27.7733,34.50726,17.21883,-7.202625,-23.50549,56.02559,36.61026,-12.81765,-60.78728,-41.7011,14.06928,0,0,0,111.8142,-24.39996,-10.38723,64.23486,-27.15129,-125.0648,0.001067912,-0.1257102,0.09433498,0,0.3,0,0,0,0,
6.38224E+17,36.04674,30.76572,35.93144,17.87803,-10.5719,-24.89715,56.02559,36.61026,-12.81765,-60.78728,-41.7011,14.06928,0,0,0,113.4729,-16.41376,-12.4356,64.23486,-27.15129,-125.0648,0.001067912,-0.1257102,0.09433498,0,0.3,0,0,0,0,
6.38224E+17,37.1305,33.43083,37.21554,18.83022,-13.6482,-27.38748,56.02559,36.61026,-12.81765,-60.78728,-41.7011,14.06928,0,0,0,115.8609,-9.378891,-15.32375,64.23486,-27.15129,-125.0648,0.001067912,-0.1257102,0.09433498,0,0.3,0,0,0,0,
6.38224E+17,37.76662,34.55299,37.77588,19.41618,-15.03986,-28.85239,56.02559,36.61026,-12.81765,-60.78728,-41.7011,14.06928,0,0,0,117.2922,-6.419707,-16.9558,64.23486,-27.15129,-125.0648,0.001067912,-0.1257102,0.09433498,0,0.3,0,0,0,0,
6.38224E+17,39.2509,36.25959,38.84985,20.95433,-17.45695,-32.36815,56.02559,36.61026,-12.81765,-60.78728,-41.7011,14.06928,0,0,0,120.9592,-1.632833,-20.308,64.23486,-27.15129,-125.0648,0.001067912,-0.1257102,0.09433498,0,0.3,0,0,0,0,
6.38224E+17,40.99433,37.17134,39.90048,23.22493,-19.06834,-35.88392,56.02559,36.61026,-12.81765,-60.78728,-41.7011,14.06928,0,0,0,125.815,1.619395,-23.58747,64.23486,-27.15129,-125.0648,0.001067912,-0.1257102,0.09433498,0,0.3,0,0,0,0,
6.38224E+17,41.91317,37.45188,40.39077,24.4701,-19.50781,-37.34882,56.02559,36.61026,-12.81765,-60.78728,-41.7011,14.06928,0,0,0,128.4386,2.874404,-25.26908,64.23486,-27.15129,-125.0648,0.001067912,-0.1257102,0.09433498,0,0.3,0,0,0,0,
6.38224E+17,44.01001,37.80256,41.4414,27.47315,-20.02053,-40.64486,56.02559,36.61026,-12.81765,-60.78728,-41.7011,14.06928,0,0,0,134.5253,5.122283,-29.09369,64.23486,-27.15129,-125.0648,0.001067912,-0.1257102,0.09433498,0,0.3,0,0,0,0,
6.38224E+17,46.27176,37.63891,42.84223,30.91567,-20.16702,-44.16063,56.02559,36.61026,-12.81765,-60.78728,-41.7011,14.06928,0,0,0,141.8315,7.008515,-32.67912,64.23486,-27.15129,-125.0648,0.001067912,-0.1257102,0.09433498,0,0.3,0,0,0,0,
6.38224E+17,47.33196,37.40512,43.63604,32.60031,-20.09377,-46.065,56.02559,36.61026,-12.81765,-60.78728,-41.7011,14.06928,0,0,0,145.5508,7.842589,-34.18985,64.23486,-27.15129,-125.0648,0.001067912,-0.1257102,0.09433498,0,0.3,0,0,0,0,
6.38224E+17,49.28744,36.44662,45.52717,35.96959,-19.94728,-50.02024,56.02559,36.61026,-12.81765,-60.78728,-41.7011,14.06928,0,0,0,153.436,9.148573,-36.31572,64.23486,-27.15129,-125.0648,0.001067912,-0.1257102,0.09433498,0,0.3,0,0,0,0,
6.38224E+17,50.98376,34.81015,47.34826,39.33887,-19.21483,-53.24303,56.02559,36.61026,-12.81765,-60.78728,-41.7011,14.06928,0,0,0,161.2703,9.124018,-37.68016,64.23486,-27.15129,-125.0648,0.001067912,-0.1257102,0.09433498,0,0.3,0,0,0,0,
6.38224E+17,52.39735,32.86975,49.30943,42.19543,-18.04291,-56.24608,56.02559,36.61026,-12.81765,-60.78728,-41.7011,14.06928,0,0,0,168.8412,8.782507,-38.31231,64.23486,-27.15129,-125.0648,0.001067912,-0.1257102,0.09433498,0,0.3,0,0,0,0,
6.38224E+17,53.05703,31.86449,50.36005,43.4406,-17.38371,-57.78423,56.02559,36.61026,-12.81765,-60.78728,-41.7011,14.06928,0,0,0,172.5888,8.67497,-38.56418,64.23486,-27.15129,-125.0648,0.001067912,-0.1257102,0.09433498,0,0.3,0,0,0,0,
6.38224E+17,54.18791,29.73707,52.29787,45.85769,-16.28502,-60.4943,56.02559,36.61026,-12.81765,-60.78728,-41.7011,14.06928,0,0,0,179.4577,7.943307,-38.86341,64.23486,-27.15129,-125.0648,0.001067912,-0.1257102,0.09433498,0,0.3,0,0,0,0,
6.38224E+17,55.15387,27.23561,53.90884,47.68882,-15.33284,-63.20437,56.02559,36.61026,-12.81765,-60.78728,-41.7011,14.06928,0,0,0,185.7412,5.824987,-39.03461,64.23486,-27.15129,-125.0648,0.001067912,-0.1257102,0.09433498,0,0.3,0,0,0,0,
6.38224E+17,55.31879,25.83291,54.70264,48.34802,-14.74688,-64.37629,56.02559,36.61026,-12.81765,-60.78728,-41.7011,14.06928,0,0,0,188.1983,4.404733,-38.12659,64.23486,-27.15129,-125.0648,0.001067912,-0.1257102,0.09433498,0,0.3,0,0,0,0,
6.38224E+17,55.36591,23.19118,55.82331,49.4467,-13.57495,-66.06093,56.02559,36.61026,-12.81765,-60.78728,-41.7011,14.06928,0,0,0,191.6268,0.9543423,-35.98715,64.23486,-27.15129,-125.0648,0.001067912,-0.1257102,0.09433498,0,0.3,0,0,0,0,
6.38224E+17,55.34235,20.8066,56.29026,49.88617,-12.54952,-66.72014,56.02559,36.61026,-12.81765,-60.78728,-41.7011,14.06928,0,0,0,193.7814,-3.289493,-34.38115,64.23486,-27.15129,-125.0648,0.001067912,-0.1257102,0.09433498,0,0.3,0,0,0,0,
6.38224E+17,55.29523,19.75458,56.3603,49.88617,-12.11005,-66.86663,56.02559,36.61026,-12.81765,-60.78728,-41.7011,14.06928,0,0,0,194.4432,-5.450477,-33.68718,64.23486,-27.15129,-125.0648,0.001067912,-0.1257102,0.09433498,0,0.3,0,0,0,0,
6.38224E+17,55.20099,17.76744,56.38364,49.59319,-11.15786,-66.93987,56.02559,36.61026,-12.81765,-60.78728,-41.7011,14.06928,0,0,0,195.4675,-9.784164,-32.50152,64.23486,-27.15129,-125.0648,0.001067912,-0.1257102,0.09433498,0,0.3,0,0,0,0,
6.38224E+17,54.98895,15.45299,56.38364,49.00723,-10.5719,-67.08636,56.02559,36.61026,-12.81765,-60.78728,-41.7011,14.06928,0,0,0,196.2245,-14.94566,-30.89569,64.23486,-27.15129,-125.0648,0.001067912,-0.1257102,0.09433498,0,0.3,0,0,0,0,
6.38224E+17,54.87115,14.16719,56.3603,48.64101,-10.13243,-67.01311,56.02559,36.61026,-12.81765,-60.78728,-41.7011,14.06928,0,0,0,196.5425,-17.884,-30.0697,64.23486,-27.15129,-125.0648,0.001067912,-0.1257102,0.09433498,0,0.3,0,0,0,0,
6.38224E+17,54.54131,11.52545,56.3603,47.61557,-8.887264,-66.42715,56.02559,36.61026,-12.81765,-60.78728,-41.7011,14.06928,0,0,0,196.8566,-23.87794,-28.14759,64.23486,-27.15129,-125.0648,0.001067912,-0.1257102,0.09433498,0,0.3,0,0,0,0,
6.38224E+17,54.18791,9.000608,56.24356,46.44365,-7.715342,-65.10874,56.02559,36.61026,-12.81765,-60.78728,-41.7011,14.06928,0,0,0,196.7148,-29.88581,-26.4117,64.23486,-27.15129,-125.0648,0.001067912,-0.1257102,0.09433498,0,0.3,0,0,0,0,
6.38224E+17,53.76383,6.335493,55.63654,45.05199,-6.689909,-63.49735,56.02559,36.61026,-12.81765,-60.78728,-41.7011,14.06928,0,0,0,195.6882,-37.203,-24.93812,64.23486,-27.15129,-125.0648,0.001067912,-0.1257102,0.09433498,0,0.3,0,0,0,0,
6.38224E+17,53.52823,5.143205,55.0762,44.24629,-6.177193,-62.69165,56.02559,36.61026,-12.81765,-60.78728,-41.7011,14.06928,0,0,0,194.7238,-41.03687,-24.41039,64.23486,-27.15129,-125.0648,0.001067912,-0.1257102,0.09433498,0,0.3,0,0,0,0,
6.38224E+17,52.89211,2.688493,53.69871,42.04893,-4.785534,-60.93377,56.02559,36.61026,-12.81765,-60.78728,-41.7011,14.06928,0,0,0,191.9361,-49.34248,-23.14831,64.23486,-27.15129,-125.0648,0.001067912,-0.1257102,0.09433498,0,0.3,0,0,0,0,
6.38224E+17,52.27955,0.6312115,52.08775,39.92483,-3.320631,-58.58992,56.02559,36.61026,-12.81765,-60.78728,-41.7011,14.06928,0,0,0,188.6933,-57.11838,-22.40364,64.23486,-27.15129,-125.0648,0.001067912,-0.1257102,0.09433498,0,0.3,0,0,0,0,
6.38224E+17,51.87903,-0.3974294,50.96708,38.75291,-2.58818,-57.27151,56.02559,36.61026,-12.81765,-60.78728,-41.7011,14.06928,0,0,0,186.3958,-61.55437,-22.08687,64.23486,-27.15129,-125.0648,0.001067912,-0.1257102,0.09433498,0,0.3,0,0,0,0,
6.38224E+17,50.93663,-1.028641,47.76851,36.40906,-0.8302955,-54.48819,56.02559,36.61026,-12.81765,-60.78728,-41.7011,14.06928,0,0,0,180.1872,-68.67216,-22.10706,64.23486,-27.15129,-125.0648,0.001067912,-0.1257102,0.09433498,0,0.3,0,0,0,0,
6.38224E+17,49.80576,-1.028641,44.87344,34.13846,0.9275885,-51.55839,56.02559,36.61026,-12.81765,-60.78728,-41.7011,14.06928,0,0,0,173.7117,-73.54466,-21.58218,64.23486,-27.15129,-125.0648,0.001067912,-0.1257102,0.09433498,0,0.3,0,0,0,0,
6.38224E+17,48.41572,-1.005263,42.14182,32.08759,2.685472,-48.11587,56.02559,36.61026,-12.81765,-60.78728,-41.7011,14.06928,0,0,0,166.6523,-77.86673,-20.47093,64.23486,-27.15129,-125.0648,0.001067912,-0.1257102,0.09433498,0,0.3,0,0,0,0,
6.38224E+17,47.49688,-1.005263,40.78767,30.91567,3.857395,-45.84526,56.02559,36.61026,-12.81765,-60.78728,-41.7011,14.06928,0,0,0,162.5183,-79.95356,-19.41311,64.23486,-27.15129,-125.0648,0.001067912,-0.1257102,0.09433498,0,0.3,0,0,0,0,
6.38224E+17,45.58852,-1.005263,38.31286,28.71832,5.835015,-41.30406,56.02559,36.61026,-12.81765,-60.78728,-41.7011,14.06928,0,0,0,154.2962,-83.6209,-17.19146,64.23486,-27.15129,-125.0648,0.001067912,-0.1257102,0.09433498,0,0.3,0,0,0,0,
6.38224E+17,43.39745,-0.9818845,35.65128,26.08149,7.739389,-36.54313,56.02559,36.61026,-12.81765,-60.78728,-41.7011,14.06928,0,0,0,145.0054,-87.29259,-14.9974,64.23486,-27.15129,-125.0648,0.001067912,-0.1257102,0.09433498,0,0.3,0,0,0,0,
6.38224E+17,42.38437,-0.9818845,34.43722,24.90957,8.691576,-34.63876,56.02559,36.61026,-12.81765,-60.78728,-41.7011,14.06928,0,0,0,140.712,-88.91505,-14.16628,64.23486,-27.15129,-125.0648,0.001067912,-0.1257102,0.09433498,0,0.3,0,0,0,0,
6.38224E+17,40.16973,-0.6779679,31.68224,22.56572,10.59595,-30.90325,56.02559,36.61026,-12.81765,-60.78728,-41.7011,14.06928,0,0,0,131.1893,-91.70524,-12.94203,64.23486,-27.15129,-125.0648,0.001067912,-0.1257102,0.09433498,0,0.3,0,0,0,0,
6.38224E+17,37.62526,-0.0233782,28.9973,19.9289,12.1341,-27.53397,56.02559,36.61026,-12.81765,-60.78728,-41.7011,14.06928,0,0,0,120.8741,-93.33799,-11.53478,64.23486,-27.15129,-125.0648,0.001067912,-0.1257102,0.09433498,0,0.3,0,0,0,0,
6.38224E+17,36.51794,0.4909423,28.06341,18.53724,12.64682,-26.14231,56.02559,36.61026,-12.81765,-60.78728,-41.7011,14.06928,0,0,0,116.6818,-93.1791,-10.76675,64.23486,-27.15129,-125.0648,0.001067912,-0.1257102,0.09433498,0,0.3,0,0,0,0,
6.38224E+17,34.68026,2.314442,26.61588,16.33988,13.30602,-23.21251,56.02559,36.61026,-12.81765,-60.78728,-41.7011,14.06928,0,0,0,109.8066,-90.48375,-9.652386,64.23486,-27.15129,-125.0648,0.001067912,-0.1257102,0.09433498,0,0.3,0,0,0,0,
6.38224E+17,33.10175,5.026314,25.1917,14.87498,12.86655,-20.13621,56.02559,36.61026,-12.81765,-60.78728,-41.7011,14.06928,0,0,0,103.5443,-85.63368,-9.523864,64.23486,-27.15129,-125.0648,0.001067912,-0.1257102,0.09433498,0,0.3,0,0,0,0,
6.38224E+17,31.80595,8.135615,24.25781,13.99604,11.98761,-18.0121,56.02559,36.61026,-12.81765,-60.78728,-41.7011,14.06928,0,0,0,98.44859,-79.35477,-9.605465,64.23486,-27.15129,-125.0648,0.001067912,-0.1257102,0.09433498,0,0.3,0,0,0,0,
6.38224E+17,31.19339,10.076,23.97764,13.48332,11.18191,-17.05991,56.02559,36.61026,-12.81765,-60.78728,-41.7011,14.06928,0,0,0,96.06745,-75.16227,-9.682468,64.23486,-27.15129,-125.0648,0.001067912,-0.1257102,0.09433498,0,0.3,0,0,0,0,
6.38224E+17,30.34523,13.86327,23.83756,12.82412,9.424027,-15.81474,56.02559,36.61026,-12.81765,-60.78728,-41.7011,14.06928,0,0,0,92.63426,-66.67314,-10.11235,64.23486,-27.15129,-125.0648,0.001067912,-0.1257102,0.09433498,0,0.3,0,0,0,0,
6.38224E+17,29.68555,17.97784,23.81421,12.3114,7.153428,-14.86256,56.02559,36.61026,-12.81765,-60.78728,-41.7011,14.06928,0,0,0,89.48105,-57.48816,-11.38105,64.23486,-27.15129,-125.0648,0.001067912,-0.1257102,0.09433498,0,0.3,0,0,0,0,
6.38224E+17,29.37927,19.82472,23.81421,12.09166,5.981505,-14.42309,56.02559,36.61026,-12.81765,-60.78728,-41.7011,14.06928,0,0,0,87.9576,-53.4217,-12.11826,64.23486,-27.15129,-125.0648,0.001067912,-0.1257102,0.09433498,0,0.3,0,0,0,0,
6.38224E+17,28.86095,22.77037,23.81421,11.87193,3.344679,-13.91037,56.02559,36.61026,-12.81765,-60.78728,-41.7011,14.06928,0,0,0,85.33891,-47.0349,-13.50951,64.23486,-27.15129,-125.0648,0.001067912,-0.1257102,0.09433498,0,0.3,0,0,0,0,
6.38224E+17,28.64891,24.66401,23.65078,11.57895,1.51355,-13.25116,56.02559,36.61026,-12.81765,-60.78728,-41.7011,14.06928,0,0,0,83.74849,-43.15316,-15.05592,64.23486,-27.15129,-125.0648,0.001067912,-0.1257102,0.09433498,0,0.3,0,0,0,0,
6.38224E+17,28.81383,25.31859,23.60409,11.57895,0.9275885,-12.88494,56.02559,36.61026,-12.81765,-60.78728,-41.7011,14.06928,0,0,0,83.83118,-41.81587,-15.94881,64.23486,-27.15129,-125.0648,0.001067912,-0.1257102,0.09433498,0,0.3,0,0,0,0,
6.38224E+17,29.59131,26.51088,23.60409,12.16491,0.4148723,-12.006,56.02559,36.61026,-12.81765,-60.78728,-41.7011,14.06928,0,0,0,85.29256,-39.32002,-18.1549,64.23486,-27.15129,-125.0648,0.001067912,-0.1257102,0.09433498,0,0.3,0,0,0,0,
6.38224E+17,30.48659,27.60966,23.67413,13.26359,0.1951368,-11.56653,56.02559,36.61026,-12.81765,-60.78728,-41.7011,14.06928,0,0,0,87.11449,-36.97735,-20.37976,64.23486,-27.15129,-125.0648,0.001067912,-0.1257102,0.09433498,0,0.3,0,0,0,0,
6.38224E+17,31.52323,28.91884,24.02434,14.72849,0.1218917,-11.42003,56.02559,36.61026,-12.81765,-60.78728,-41.7011,14.06928,0,0,0,89.41267,-33.96415,-22.57448,64.23486,-27.15129,-125.0648,0.001067912,-0.1257102,0.09433498,0,0.3,0,0,0,0,
6.38224E+17,31.97087,29.66694,24.21111,15.53419,-0.09784385,-11.42003,56.02559,36.61026,-12.81765,-60.78728,-41.7011,14.06928,0,0,0,90.30785,-32.26804,-23.66357,64.23486,-27.15129,-125.0648,0.001067912,-0.1257102,0.09433498,0,0.3,0,0,0,0,
6.38224E+17,32.77191,31.23328,24.39789,16.99909,-0.8302955,-11.34679,56.02559,36.61026,-12.81765,-60.78728,-41.7011,14.06928,0,0,0,91.53623,-28.94655,-26.1605,64.23486,-27.15129,-125.0648,0.001067912,-0.1257102,0.09433498,0,0.3,0,0,0,0,
6.38224E+17,33.9499,32.7061,24.58467,18.39075,-1.562747,-11.34679,56.02559,36.61026,-12.81765,-60.78728,-41.7011,14.06928,0,0,0,93.64745,-25.85848,-29.24975,64.23486,-27.15129,-125.0648,0.001067912,-0.1257102,0.09433498,0,0.3,0,0,0,0,
6.38224E+17,34.63314,33.33732,24.67806,19.1232,-1.855728,-11.34679,56.02559,36.61026,-12.81765,-60.78728,-41.7011,14.06928,0,0,0,94.95679,-24.53613,-30.8725,64.23486,-27.15129,-125.0648,0.001067912,-0.1257102,0.09433498,0,0.3,0,0,0,0,
6.38224E+17,35.9525,34.66988,24.65471,20.5881,-2.368444,-11.42003,56.02559,36.61026,-12.81765,-60.78728,-41.7011,14.06928,0,0,0,97.04977,-21.9878,-34.53931,64.23486,-27.15129,-125.0648,0.001067912,-0.1257102,0.09433498,0,0.3,0,0,0,0,
6.38224E+17,37.57814,36.11932,24.39789,22.1995,-2.807915,-12.006,56.02559,36.61026,-12.81765,-60.78728,-41.7011,14.06928,0,0,0,99.2836,-19.48602,-39.32581,64.23486,-27.15129,-125.0648,0.001067912,-0.1257102,0.09433498,0,0.3,0,0,0,0,
6.38224E+17,38.40274,36.77391,24.14107,23.00519,-2.88116,-12.51871,56.02559,36.61026,-12.81765,-60.78728,-41.7011,14.06928,0,0,0,100.2295,-18.5062,-41.90428,64.23486,-27.15129,-125.0648,0.001067912,-0.1257102,0.09433498,0,0.3,0,0,0,0,
6.38224E+17,40.24041,38.15323,23.37061,24.76308,-2.661425,-14.42309,56.02559,36.61026,-12.81765,-60.78728,-41.7011,14.06928,0,0,0,101.9112,-16.68054,-47.92677,64.23486,-27.15129,-125.0648,0.001067912,-0.1257102,0.09433498,0,0.3,0,0,0,0,
6.38224E+17,42.03097,39.53254,22.81028,26.52096,-2.295199,-16.84018,56.02559,36.61026,-12.81765,-60.78728,-41.7011,14.06928,0,0,0,103.473,-14.69172,-53.55645,64.23486,-27.15129,-125.0648,0.001067912,-0.1257102,0.09433498,0,0.3,0,0,0,0,
6.38224E+17,43.89221,40.56118,22.15656,28.42534,-2.002218,-18.8178,56.02559,36.61026,-12.81765,-60.78728,-41.7011,14.06928,0,0,0,105.1042,-13.44089,-59.10085,64.23486,-27.15129,-125.0648,0.001067912,-0.1257102,0.09433498,0,0.3,0,0,0,0,
6.38224E+17,44.74036,40.88848,21.7363,29.37753,-1.635992,-19.69674,56.02559,36.61026,-12.81765,-60.78728,-41.7011,14.06928,0,0,0,105.7214,-13.22915,-61.66604,64.23486,-27.15129,-125.0648,0.001067912,-0.1257102,0.09433498,0,0.3,0,0,0,0,
6.38224E+17,46.62516,41.4028,21.10593,31.2819,-0.9767859,-20.86866,56.02559,36.61026,-12.81765,-60.78728,-41.7011,14.06928,0,0,0,107.6078,-12.86356,-66.67982,64.23486,-27.15129,-125.0648,0.001067912,-0.1257102,0.09433498,0,0.3,0,0,0,0,
6.38224E+17,48.65132,41.58982,20.61563,33.18628,-0.09784385,-21.67436,56.02559,36.61026,-12.81765,-60.78728,-41.7011,14.06928,0,0,0,110.1182,-12.94388,-71.44291,64.23486,-27.15129,-125.0648,0.001067912,-0.1257102,0.09433498,0,0.3,0,0,0,0,
6.38224E+17,49.6644,41.54307,20.21873,34.28495,0.5613627,-22.11383,56.02559,36.61026,-12.81765,-60.78728,-41.7011,14.06928,0,0,0,111.2095,-13.34756,-73.91863,64.23486,-27.15129,-125.0648,0.001067912,-0.1257102,0.09433498,0,0.3,0,0,0,0,
6.38224E+17,51.1958,41.0755,19.30819,36.33582,1.806531,-22.77304,56.02559,36.61026,-12.81765,-60.78728,-41.7011,14.06928,0,0,0,112.6991,-14.88154,-77.72402,64.23486,-27.15129,-125.0648,0.001067912,-0.1257102,0.09433498,0,0.3,0,0,0,0,
6.38224E+17,52.11464,40.28064,17.81396,37.87396,3.271434,-23.06602,56.02559,36.61026,-12.81765,-60.78728,-41.7011,14.06928,0,0,0,112.4876,-17.39146,-80.82689,64.23486,-27.15129,-125.0648,0.001067912,-0.1257102,0.09433498,0,0.3,0,0,0,0,
6.38224E+17,52.18531,39.83646,16.50652,38.38668,4.370111,-23.13926,56.02559,36.61026,-12.81765,-60.78728,-41.7011,14.06928,0,0,0,110.8243,-19.0805,-82.34038,64.23486,-27.15129,-125.0648,0.001067912,-0.1257102,0.09433498,0,0.3,0,0,0,0,
6.38224E+17,51.99683,39.48579,13.84493,38.53317,6.420976,-22.40681,56.02559,36.61026,-12.81765,-60.78728,-41.7011,14.06928,0,0,0,106.2407,-21.33027,-85.33624,64.23486,-27.15129,-125.0648,0.001067912,-0.1257102,0.09433498,0,0.3,0,0,0,0,
6.38224E+17,51.4314,39.55592,11.34677,37.58098,8.252106,-21.30813,56.02559,36.61026,-12.81765,-60.78728,-41.7011,14.06928,0,0,0,100.8989,-22.47218,-87.89395,64.23486,-27.15129,-125.0648,0.001067912,-0.1257102,0.09433498,0,0.3,0,0,0,0,
6.38224E+17,50.79528,40.02348,9.245518,36.33582,10.00999,-20.06297,56.02559,36.61026,-12.81765,-60.78728,-41.7011,14.06928,0,0,0,95.73145,-22.51005,-90.26019,64.23486,-27.15129,-125.0648,0.001067912,-0.1257102,0.09433498,0,0.3,0,0,0,0,
6.38224E+17,50.46544,40.60794,8.405016,35.60336,10.81569,-19.55025,56.02559,36.61026,-12.81765,-60.78728,-41.7011,14.06928,0,0,0,93.11076,-21.77299,-91.50103,64.23486,-27.15129,-125.0648,0.001067912,-0.1257102,0.09433498,0,0.3,0,0,0,0,
6.38224E+17,49.80576,42.45482,7.284348,34.06521,11.54814,-19.11078,56.02559,36.61026,-12.81765,-60.78728,-41.7011,14.06928,0,0,0,88.06924,-18.91135,-93.94089,64.23486,-27.15129,-125.0648,0.001067912,-0.1257102,0.09433498,0,0.3,0,0,0,0,
6.38224E+17,49.05184,45.02642,7.214305,32.45382,11.10867,-19.84323,56.02559,36.61026,-12.81765,-60.78728,-41.7011,14.06928,0,0,0,83.83515,-14.60816,-95.60628,64.23486,-27.15129,-125.0648,0.001067912,-0.1257102,0.09433498,0,0.3,0,0,0,0,
6.38224E+17,48.65132,46.49924,7.377736,31.57488,10.6692,-20.50244,56.02559,36.61026,-12.81765,-60.78728,-41.7011,14.06928,0,0,0,81.76423,-12.16855,-96.3952,64.23486,-27.15129,-125.0648,0.001067912,-0.1257102,0.09433498,0,0.3,0,0,0,0,
6.38224E+17,48.06232,49.74882,8.311626,29.89024,9.643764,-22.40681,56.02559,36.61026,-12.81765,-60.78728,-41.7011,14.06928,0,0,0,78.43345,-6.824085,-97.88253,64.23486,-27.15129,-125.0648,0.001067912,-0.1257102,0.09433498,0,0.3,0,0,0,0,
6.38224E+17,48.06232,53.18541,10.41288,28.64507,7.959125,-24.75066,56.02559,36.61026,-12.81765,-60.78728,-41.7011,14.06928,0,0,0,77.36918,-1.046654,-98.83871,64.23486,-27.15129,-125.0648,0.001067912,-0.1257102,0.09433498,0,0.3,0,0,0,0,
6.38224E+17,48.20368,54.72837,11.62694,28.35209,6.933692,-25.84933,56.02559,36.61026,-12.81765,-60.78728,-41.7011,14.06928,0,0,0,77.44342,1.606356,-99.11654,64.23486,-27.15129,-125.0648,0.001067912,-0.1257102,0.09433498,0,0.3,0,0,0,0,
6.38224E+17,48.8398,57.29997,13.91497,28.27885,4.370111,-27.97344,56.02559,36.61026,-12.81765,-60.78728,-41.7011,14.06928,0,0,0,78.38102,6.128764,-99.82871,64.23486,-27.15129,-125.0648,0.001067912,-0.1257102,0.09433498,0,0.3,0,0,0,0,
6.38224E+17,50.0178,58.74942,15.89949,29.30428,1.66004,-30.09755,56.02559,36.61026,-12.81765,-60.78728,-41.7011,14.06928,0,0,0,81.00033,9.103272,-100.4255,64.23486,-27.15129,-125.0648,0.001067912,-0.1257102,0.09433498,0,0.3,0,0,0,0,
6.38224E+17,51.17223,59.14686,17.46376,30.76918,-0.09784385,-31.48921,56.02559,36.61026,-12.81765,-60.78728,-41.7011,14.06928,0,0,0,84.45182,10.62542,-100.3816,64.23486,-27.15129,-125.0648,0.001067912,-0.1257102,0.09433498,0,0.3,0,0,0,0,
6.38224E+17,51.85547,59.14686,18.23421,31.79461,-0.8302955,-32.07517,56.02559,36.61026,-12.81765,-60.78728,-41.7011,14.06928,0,0,0,86.59866,11.17504,-100.3392,64.23486,-27.15129,-125.0648,0.001067912,-0.1257102,0.09433498,0,0.3,0,0,0,0,
6.38224E+17,53.15127,58.74942,19.77514,33.91872,-2.075463,-33.32034,56.02559,36.61026,-12.81765,-60.78728,-41.7011,14.06928,0,0,0,91.46198,11.86576,-99.8063,64.23486,-27.15129,-125.0648,0.001067912,-0.1257102,0.09433498,0,0.3,0,0,0,0,
6.38224E+17,54.11723,57.44025,21.01254,36.40906,-2.73467,-34.49226,56.02559,36.61026,-12.81765,-60.78728,-41.7011,14.06928,0,0,0,96.88729,11.25898,-98.25969,64.23486,-27.15129,-125.0648,0.001067912,-0.1257102,0.09433498,0,0.3,0,0,0,0,
6.38224E+17,54.39995,56.34147,21.3394,37.50774,-2.807915,-34.78524,56.02559,36.61026,-12.81765,-60.78728,-41.7011,14.06928,0,0,0,99.55044,10.13692,-97.07876,64.23486,-27.15129,-125.0648,0.001067912,-0.1257102,0.09433498,0,0.3,0,0,0,0,
6.38224E+17,54.70623,53.18541,21.783,39.85158,-2.075463,-34.56551,56.02559,36.61026,-12.81765,-60.78728,-41.7011,14.06928,0,0,0,105.6099,6.278913,-93.59125,64.23486,-27.15129,-125.0648,0.001067912,-0.1257102,0.09433498,0,0.3,0,0,0,0,
6.38224E+17,54.68267,49.16436,22.10986,41.90245,-0.3175794,-32.4414,56.02559,36.61026,-12.81765,-60.78728,-41.7011,14.06928,0,0,0,112.1028,0.6971158,-88.92586,64.23486,-27.15129,-125.0648,0.001067912,-0.1257102,0.09433498,0,0.3,0,0,0,0,
6.38224E+17,54.49419,46.73303,22.13321,42.78139,1.000834,-30.75676,56.02559,36.61026,-12.81765,-60.78728,-41.7011,14.06928,0,0,0,115.3022,-3.072295,-86.0881,64.23486,-27.15129,-125.0648,0.001067912,-0.1257102,0.09433498,0,0.3,0,0,0,0,
6.38224E+17,53.71671,42.12752,21.59622,43.95331,4.003886,-27.02126,56.02559,36.61026,-12.81765,-60.78728,-41.7011,14.06928,0,0,0,119.2874,-11.19003,-80.77823,64.23486,-27.15129,-125.0648,0.001067912,-0.1257102,0.09433498,0,0.3,0,0,0,0,
6.38224E+17,52.58583,37.98958,20.14869,44.02656,7.153428,-22.40681,56.02559,36.61026,-12.81765,-60.78728,-41.7011,14.06928,0,0,0,119.9574,-19.75988,-76.58862,64.23486,-27.15129,-125.0648,0.001067912,-0.1257102,0.09433498,0,0.3,0,0,0,0,
6.38224E+17,51.078,34.38934,17.76727,43.22086,10.44946,-17.49938,56.02559,36.61026,-12.81765,-60.78728,-41.7011,14.06928,0,0,0,117.272,-28.32185,-73.64905,64.23486,-27.15129,-125.0648,0.001067912,-0.1257102,0.09433498,0,0.3,0,0,0,0,
6.38224E+17,50.22984,32.98664,16.66995,42.41516,11.69463,-15.37527,56.02559,36.61026,-12.81765,-60.78728,-41.7011,14.06928,0,0,0,115.3741,-31.79417,-72.32565,64.23486,-27.15129,-125.0648,0.001067912,-0.1257102,0.09433498,0,0.3,0,0,0,0,
6.38224E+17,48.20368,30.32153,14.82551,40.80377,14.03847,-11.49328,56.02559,36.61026,-12.81765,-60.78728,-41.7011,14.06928,0,0,0,111.2535,-38.2387,-68.89077,64.23486,-27.15129,-125.0648,0.001067912,-0.1257102,0.09433498,0,0.3,0,0,0,0,
6.38224E+17,45.98904,28.21749,13.44803,39.19238,15.79636,-7.977511,56.02559,36.61026,-12.81765,-60.78728,-41.7011,14.06928,0,0,0,106.8129,-43.2932,-65.16248,64.23486,-27.15129,-125.0648,0.001067912,-0.1257102,0.09433498,0,0.3,0,0,0,0,
6.38224E+17,44.74036,27.32912,12.74761,38.45993,16.38232,-6.292873,56.02559,36.61026,-12.81765,-60.78728,-41.7011,14.06928,0,0,0,104.0995,-45.49199,-63.30277,64.23486,-27.15129,-125.0648,0.001067912,-0.1257102,0.09433498,0,0.3,0,0,0,0,
6.38224E+17,41.88961,25.7394,11.15999,36.55555,16.96828,-2.923595,56.02559,36.61026,-12.81765,-60.78728,-41.7011,14.06928,0,0,0,97.4362,-49.56737,-59.71597,64.23486,-27.15129,-125.0648,0.001067912,-0.1257102,0.09433498,0,0.3,0,0,0,0,
6.38224E+17,38.8975,24.31333,9.73581,34.06521,16.38232,-0.3600145,56.02559,36.61026,-12.81765,-60.78728,-41.7011,14.06928,0,0,0,90.46766,-53.17577,-56.22217,64.23486,-27.15129,-125.0648,0.001067912,-0.1257102,0.09433498,0,0.3,0,0,0,0,
6.38224E+17,37.46034,23.63536,9.082087,32.67356,16.08934,0.5921727,56.02559,36.61026,-12.81765,-60.78728,-41.7011,14.06928,0,0,0,87.104,-54.86626,-54.671,64.23486,-27.15129,-125.0648,0.001067912,-0.1257102,0.09433498,0,0.3,0,0,0,0,
6.38224E+17,34.27974,22.23267,8.008113,29.52402,15.57662,2.130321,56.02559,36.61026,-12.81765,-60.78728,-41.7011,14.06928,0,0,0,79.98684,-58.24416,-51.00459,64.23486,-27.15129,-125.0648,0.001067912,-0.1257102,0.09433498,0,0.3,0,0,0,0,
6.38224E+17,31.07559,21.53132,7.751292,26.15474,14.91741,3.66847,56.02559,36.61026,-12.81765,-60.78728,-41.7011,14.06928,0,0,0,73.3113,-59.8408,-46.70332,64.23486,-27.15129,-125.0648,0.001067912,-0.1257102,0.09433498,0,0.3,0,0,0,0,
6.38224E+17,29.61487,21.5547,7.984766,24.76308,14.47795,4.400921,56.02559,36.61026,-12.81765,-60.78728,-41.7011,14.06928,0,0,0,70.44263,-59.71581,-44.42344,64.23486,-27.15129,-125.0648,0.001067912,-0.1257102,0.09433498,0,0.3,0,0,0,0,
6.38224E+17,26.52852,21.78849,9.058739,21.76003,13.23278,5.93907,56.02559,36.61026,-12.81765,-60.78728,-41.7011,14.06928,0,0,0,64.68246,-58.83977,-38.7786,64.23486,-27.15129,-125.0648,0.001067912,-0.1257102,0.09433498,0,0.3,0,0,0,0,
6.38224E+17,23.51284,22.11578,10.08602,19.1232,11.54814,8.136425,56.02559,36.61026,-12.81765,-60.78728,-41.7011,14.06928,0,0,0,58.60319,-57.73567,-33.65445,64.23486,-27.15129,-125.0648,0.001067912,-0.1257102,0.09433498,0,0.3,0,0,0,0,
6.38224E+17,20.35581,22.25605,10.76309,16.55962,10.08323,10.70001,56.02559,36.61026,-12.81765,-60.78728,-41.7011,14.06928,0,0,0,51.59241,-57.14825,-29.29399,64.23486,-27.15129,-125.0648,0.001067912,-0.1257102,0.09433498,0,0.3,0,0,0,0,
6.38224E+17,18.68305,22.23267,10.97322,15.24121,9.497273,12.09166,56.02559,36.61026,-12.81765,-60.78728,-41.7011,14.06928,0,0,0,47.67169,-57.1064,-27.37274,64.23486,-27.15129,-125.0648,0.001067912,-0.1257102,0.09433498,0,0.3,0,0,0,0,
6.38224E+17,14.7721,22.23267,11.39347,12.23815,8.545086,15.3877,56.02559,36.61026,-12.81765,-60.78728,-41.7011,14.06928,0,0,0,38.18983,-56.9167,-23.52175,64.23486,-27.15129,-125.0648,0.001067912,-0.1257102,0.09433498,0,0.3,0,0,0,0,
6.38224E+17,11.09674,22.27943,11.9538,8.649141,7.812634,18.68373,56.02559,36.61026,-12.81765,-60.78728,-41.7011,14.06928,0,0,0,29.06522,-56.55212,-20.15871,64.23486,-27.15129,-125.0648,0.001067912,-0.1257102,0.09433498,0,0.3,0,0,0,0,
6.38224E+17,9.353305,22.32619,12.25731,6.671522,7.446409,20.22188,56.02559,36.61026,-12.81765,-60.78728,-41.7011,14.06928,0,0,0,24.64873,-56.3033,-18.70228,64.23486,-27.15129,-125.0648,0.001067912,-0.1257102,0.09433498,0,0.3,0,0,0,0,
6.38224E+17,6.14915,22.4197,12.7943,2.789528,6.860447,23.07844,56.02559,36.61026,-12.81765,-60.78728,-41.7011,14.06928,0,0,0,16.36762,-55.83099,-16.42786,64.23486,-27.15129,-125.0648,0.001067912,-0.1257102,0.09433498,0,0.3,0,0,0,0,
6.38224E+17,2.874315,22.70024,13.54141,-1.092466,6.201241,25.34904,56.02559,36.61026,-12.81765,-60.78728,-41.7011,14.06928,0,0,0,7.734595,-54.83192,-14.30015,64.23486,-27.15129,-125.0648,0.001067912,-0.1257102,0.09433498,0,0.3,0,0,0,0,
6.38224E+17,1.225118,22.9574,14.1251,-3.289821,5.835015,26.15474,56.02559,36.61026,-12.81765,-60.78728,-41.7011,14.06928,0,0,0,3.321082,-53.95549,-13.05477,64.23486,-27.15129,-125.0648,0.001067912,-0.1257102,0.09433498,0,0.3,0,0,0,0,
6.38224E+17,-2.120397,23.68212,15.50258,-7.684532,4.809582,27.32666,56.02559,36.61026,-12.81765,-60.78728,-41.7011,14.06928,0,0,0,-5.837121,-51.58688,-10.69566,64.23486,-27.15129,-125.0648,0.001067912,-0.1257102,0.09433498,0,0.3,0,0,0,0,
6.38224E+17,-5.277431,24.75752,17.02016,-12.81169,3.564415,28.05911,56.02559,36.61026,-12.81765,-60.78728,-41.7011,14.06928,0,0,0,-14.72815,-48.31535,-8.90258,64.23486,-27.15129,-125.0648,0.001067912,-0.1257102,0.09433498,0,0.3,0,0,0,0,
6.38224E+17,-7.232908,26.09007,17.95405,-17.57263,1.879776,28.27885,56.02559,36.61026,-12.81765,-60.78728,-41.7011,14.06928,0,0,0,-20.25375,-44.86125,-8.762272,64.23486,-27.15129,-125.0648,0.001067912,-0.1257102,0.09433498,0,0.3,0,0,0,0,
6.38224E+17,-7.586308,26.95507,18.16417,-19.84323,0.9275885,28.13236,56.02559,36.61026,-12.81765,-60.78728,-41.7011,14.06928,0,0,0,-21.18039,-42.90836,-9.320458,64.23486,-27.15129,-125.0648,0.001067912,-0.1257102,0.09433498,0,0.3,0,0,0,0,
6.38224E+17,-7.044428,28.96559,18.16417,-22.40681,-0.61056,27.32666,56.02559,36.61026,-12.81765,-60.78728,-41.7011,14.06928,0,0,0,-19.40639,-38.77548,-11.30452,64.23486,-27.15129,-125.0648,0.001067912,-0.1257102,0.09433498,0,0.3,0,0,0,0,
6.38224E+17,-5.442351,31.51382,18.07078,-22.84628,-2.368444,25.86176,56.02559,36.61026,-12.81765,-60.78728,-41.7011,14.06928,0,0,0,-14.70529,-33.71978,-14.00211,64.23486,-27.15129,-125.0648,0.001067912,-0.1257102,0.09433498,0,0.3,0,0,0,0,
6.38224E+17,-4.217233,32.68273,17.90735,-22.5533,-3.174141,25.05606,56.02559,36.61026,-12.81765,-60.78728,-41.7011,14.06928,0,0,0,-11.26895,-31.53264,-15.52545,64.23486,-27.15129,-125.0648,0.001067912,-0.1257102,0.09433498,0,0.3,0,0,0,0,
6.38224E+17,-1.225118,34.17893,17.34702,-20.13621,-4.492554,22.8587,56.02559,36.61026,-12.81765,-60.78728,-41.7011,14.06928,0,0,0,-3.208778,-29.02151,-18.30615,64.23486,-27.15129,-125.0648,0.001067912,-0.1257102,0.09433498,0,0.3,0,0,0,0,
6.38224E+17,2.261756,34.69325,16.55321,-15.96124,-5.078516,20.88108,56.02559,36.61026,-12.81765,-60.78728,-41.7011,14.06928,0,0,0,5.826353,-28.57287,-20.83099,64.23486,-27.15129,-125.0648,0.001067912,-0.1257102,0.09433498,0,0.3,0,0,0,0,
6.38224E+17,3.887394,34.62312,16.17966,-13.39765,-5.225006,19.85565,56.02559,36.61026,-12.81765,-60.78728,-41.7011,14.06928,0,0,0,9.958702,-28.95212,-21.79531,64.23486,-27.15129,-125.0648,0.001067912,-0.1257102,0.09433498,0,0.3,0,0,0,0,
6.38224E+17,6.973749,33.68799,15.66602,-7.977511,-5.00527,17.58505,56.02559,36.61026,-12.81765,-60.78728,-41.7011,14.06928,0,0,0,17.84369,-31.08108,-22.47226,64.23486,-27.15129,-125.0648,0.001067912,-0.1257102,0.09433498,0,0.3,0,0,0,0,
6.38224E+17,8.834986,31.46706,14.87221,-3.143331,-4.272818,15.16796,56.02559,36.61026,-12.81765,-60.78728,-41.7011,14.06928,0,0,0,22.72594,-35.92306,-22.1399,64.23486,-27.15129,-125.0648,0.001067912,-0.1257102,0.09433498,0,0.3,0,0,0,0,
6.38224E+17,9.141265,30.06437,14.31187,-1.312202,-3.540367,14.06928,56.02559,36.61026,-12.81765,-60.78728,-41.7011,14.06928,0,0,0,23.57199,-39.05672,-21.86079,64.23486,-27.15129,-125.0648,0.001067912,-0.1257102,0.09433498,0,0.3,0,0,0,0,
6.38224E+17,8.764306,26.93169,13.02777,0.9583986,-1.709238,12.38465,56.02559,36.61026,-12.81765,-60.78728,-41.7011,14.06928,0,0,0,22.69523,-46.16976,-21.14117,64.23486,-27.15129,-125.0648,0.001067912,-0.1257102,0.09433498,0,0.3,0,0,0,0,
6.38224E+17,7.586308,23.1678,12.00049,1.471115,0.4881175,11.5057,56.02559,36.61026,-12.81765,-60.78728,-41.7011,14.06928,0,0,0,19.84548,-54.62248,-19.3434,64.23486,-27.15129,-125.0648,0.001067912,-0.1257102,0.09433498,0,0.3,0,0,0,0,
6.38224E+17,5.88999,19.75458,11.62694,0.2259469,3.271434,11.28597,56.02559,36.61026,-12.81765,-60.78728,-41.7011,14.06928,0,0,0,15.63678,-62.19251,-16.77707,64.23486,-27.15129,-125.0648,0.001067912,-0.1257102,0.09433498,0,0.3,0,0,0,0,
6.38224E+17,5.159632,18.25838,11.58024,-0.7262403,4.443357,11.21272,56.02559,36.61026,-12.81765,-60.78728,-41.7011,14.06928,0,0,0,13.79585,-65.50669,-15.56663,64.23486,-27.15129,-125.0648,0.001067912,-0.1257102,0.09433498,0,0.3,0,0,0,0,
6.38224E+17,4.429273,15.35948,11.48686,-2.99684,6.640712,11.13948,56.02559,36.61026,-12.81765,-60.78728,-41.7011,14.06928,0,0,0,11.98144,-72.00808,-13.67048,64.23486,-27.15129,-125.0648,0.001067912,-0.1257102,0.09433498,0,0.3,0,0,0,0,
6.38224E+17,4.971152,12.78788,11.30008,-4.461744,8.178861,11.21272,56.02559,36.61026,-12.81765,-60.78728,-41.7011,14.06928,0,0,0,13.53295,-77.89895,-12.76544,64.23486,-27.15129,-125.0648,0.001067912,-0.1257102,0.09433498,0,0.3,0,0,0,0,
6.38224E+17,5.560151,11.57221,11.20669,-4.754725,8.838067,11.13948,56.02559,36.61026,-12.81765,-60.78728,-41.7011,14.06928,0,0,0,15.1688,-80.70696,-12.53082,64.23486,-27.15129,-125.0648,0.001067912,-0.1257102,0.09433498,0,0.3,0,0,0,0,
6.38224E+17,7.256468,9.772089,11.04326,-4.461744,10.44946,11.21272,56.02559,36.61026,-12.81765,-60.78728,-41.7011,14.06928,0,0,0,19.82556,-84.89732,-12.64874,64.23486,-27.15129,-125.0648,0.001067912,-0.1257102,0.09433498,0,0.3,0,0,0,0,
6.38224E+17,9.895184,9.23439,10.80978,-3.070086,11.84112,11.13948,56.02559,36.61026,-12.81765,-60.78728,-41.7011,14.06928,0,0,0,26.91654,-86.23457,-14.04862,64.23486,-27.15129,-125.0648,0.001067912,-0.1257102,0.09433498,0,0.3,0,0,0,0,
6.38224E+17,11.28522,9.281147,10.7164,-1.971408,12.28059,11.13948,56.02559,36.61026,-12.81765,-60.78728,-41.7011,14.06928,0,0,0,30.6065,-86.16776,-14.97355,64.23486,-27.15129,-125.0648,0.001067912,-0.1257102,0.09433498,0,0.3,0,0,0,0,
6.38224E+17,15.59669,9.514929,10.55296,1.69085,12.9398,11.06623,56.02559,36.61026,-12.81765,-60.78728,-41.7011,14.06928,0,0,0,41.92609,-85.70116,-18.15418,64.23486,-27.15129,-125.0648,0.001067912,-0.1257102,0.09433498,0,0.3,0,0,0,0,
6.38224E+17,21.03905,9.795467,10.55296,7.477218,13.30602,11.06623,56.02559,36.61026,-12.81765,-60.78728,-41.7011,14.06928,0,0,0,55.94297,-85.05748,-22.90989,64.23486,-27.15129,-125.0648,0.001067912,-0.1257102,0.09433498,0,0.3,0,0,0,0,
6.38224E+17,25.13848,10.09938,10.64635,14.50875,13.01304,9.454838,56.02559,36.61026,-12.81765,-60.78728,-41.7011,14.06928,0,0,0,66.23586,-84.3208,-27.19844,64.23486,-27.15129,-125.0648,0.001067912,-0.1257102,0.09433498,0,0.3,0,0,0,0,
6.38224E+17,26.05732,10.35654,10.6697,17.21883,12.79331,8.06318,56.02559,36.61026,-12.81765,-60.78728,-41.7011,14.06928,0,0,0,68.46763,-83.72175,-28.32625,64.23486,-27.15129,-125.0648,0.001067912,-0.1257102,0.09433498,0,0.3,0,0,0,0,
6.38224E+17,26.55208,11.64235,10.64635,21.17406,12.20734,5.646089,56.02559,36.61026,-12.81765,-60.78728,-41.7011,14.06928,0,0,0,69.39509,-80.79427,-29.48121,64.23486,-27.15129,-125.0648,0.001067912,-0.1257102,0.09433498,0,0.3,0,0,0,0,
6.38224E+17,25.58612,13.95679,10.87983,22.93195,10.88893,4.620657,56.02559,36.61026,-12.81765,-60.78728,-41.7011,14.06928,0,0,0,66.75933,-75.44038,-28.92584,64.23486,-27.15129,-125.0648,0.001067912,-0.1257102,0.09433498,0,0.3,0,0,0,0,
6.38224E+17,24.64372,15.42961,11.1133,23.22493,10.08323,4.327676,56.02559,36.61026,-12.81765,-60.78728,-41.7011,14.06928,0,0,0,64.31705,-72.02106,-28.15211,64.23486,-27.15129,-125.0648,0.001067912,-0.1257102,0.09433498,0,0.3,0,0,0,0,
6.38224E+17,22.02856,18.39865,11.81372,22.49248,8.105616,4.034696,56.02559,36.61026,-12.81765,-60.78728,-41.7011,14.06928,0,0,0,57.69848,-65.08662,-25.74597,64.23486,-27.15129,-125.0648,0.001067912,-0.1257102,0.09433498,0,0.3,0,0,0,0,
6.38224E+17,18.68305,21.43781,12.86434,20.44161,5.981505,4.181186,56.02559,36.61026,-12.81765,-60.78728,-41.7011,14.06928,0,0,0,49.27155,-57.91466,-22.64154,64.23486,-27.15129,-125.0648,0.001067912,-0.1257102,0.09433498,0,0.3,0,0,0,0,
6.38224E+17,14.96058,24.80427,13.96167,16.70611,3.78415,4.986883,56.02559,36.61026,-12.81765,-60.78728,-41.7011,14.06928,0,0,0,39.55484,-50.11753,-20.32199,64.23486,-27.15129,-125.0648,0.001067912,-0.1257102,0.09433498,0,0.3,0,0,0,0,
6.38224E+17,13.07578,26.44075,14.49865,14.582,2.758718,5.426354,56.02559,36.61026,-12.81765,-60.78728,-41.7011,14.06928,0,0,0,34.56626,-46.37624,-19.52538,64.23486,-27.15129,-125.0648,0.001067912,-0.1257102,0.09433498,0,0.3,0,0,0,0,
6.38224E+17,8.999906,29.26951,15.22242,9.528083,0.8543434,6.158805,56.02559,36.61026,-12.81765,-60.78728,-41.7011,14.06928,0,0,0,23.6743,-40.124,-18.87477,64.23486,-27.15129,-125.0648,0.001067912,-0.1257102,0.09433498,0,0.3,0,0,0,0,
6.38224E+17,4.994712,32.00476,15.66602,3.888205,-0.09784385,6.525032,56.02559,36.61026,-12.81765,-60.78728,-41.7011,14.06928,0,0,0,12.98032,-34.3722,-19.82637,64.23486,-27.15129,-125.0648,0.001067912,-0.1257102,0.09433498,0,0.3,0,0,0,0,
6.38224E+17,2.992115,33.73475,16.10961,0.5921727,-0.4640697,6.598277,56.02559,36.61026,-12.81765,-60.78728,-41.7011,14.06928,0,0,0,7.720037,-30.70792,-20.65403,64.23486,-27.15129,-125.0648,0.001067912,-0.1257102,0.09433498,0,0.3,0,0,0,0,
6.38224E+17,-0.588999,37.40512,17.11355,-5.560421,-1.269767,6.744767,56.02559,36.61026,-12.81765,-60.78728,-41.7011,14.06928,0,0,0,-1.4923,-23.09268,-23.18932,64.23486,-27.15129,-125.0648,0.001067912,-0.1257102,0.09433498,0,0.3,0,0,0,0,
6.38224E+17,-3.722474,41.0755,17.884,-11.27355,-2.002218,6.378541,56.02559,36.61026,-12.81765,-60.78728,-41.7011,14.06928,0,0,0,-9.185132,-15.93853,-27.17275,64.23486,-27.15129,-125.0648,0.001067912,-0.1257102,0.09433498,0,0.3,0,0,0,0,
6.38224E+17,-5.159632,43.08603,18.3743,-14.05686,-2.368444,5.79258,56.02559,36.61026,-12.81765,-60.78728,-41.7011,14.06928,0,0,0,-12.53856,-12.11067,-29.49056,64.23486,-27.15129,-125.0648,0.001067912,-0.1257102,0.09433498,0,0.3,0,0,0,0,
6.38224E+17,-7.539187,47.55127,19.54166,-19.11078,-3.247386,4.547412,56.02559,36.61026,-12.81765,-60.78728,-41.7011,14.06928,0,0,0,-17.66094,-3.922342,-34.90714,64.23486,-27.15129,-125.0648,0.001067912,-0.1257102,0.09433498,0,0.3,0,0,0,0,
6.38224E+17,-9.047026,51.82948,20.68568,-22.84628,-4.199574,3.448734,56.02559,36.61026,-12.81765,-60.78728,-41.7011,14.06928,0,0,0,-20.36567,3.433187,-40.4457,64.23486,-27.15129,-125.0648,0.001067912,-0.1257102,0.09433498,0,0.3,0,0,0,0,
6.38224E+17,-10.08366,56.13107,21.96978,-25.33662,-5.298251,2.643037,56.02559,36.61026,-12.81765,-60.78728,-41.7011,14.06928,0,0,0,-21.74636,10.40615,-46.06471,64.23486,-27.15129,-125.0648,0.001067912,-0.1257102,0.09433498,0,0.3,0,0,0,0,
6.38224E+17,-10.48418,58.35199,22.76358,-26.14231,-5.810967,2.350057,56.02559,36.61026,-12.81765,-60.78728,-41.7011,14.06928,0,0,0,-22.12059,13.90593,-48.8138,64.23486,-27.15129,-125.0648,0.001067912,-0.1257102,0.09433498,0,0.3,0,0,0,0,
6.38224E+17,-10.93182,62.9575,24.86484,-27.31424,-7.422361,1.983831,56.02559,36.61026,-12.81765,-60.78728,-41.7011,14.06928,0,0,0,-22.13082,21.13203,-53.76904,64.23486,-27.15129,-125.0648,0.001067912,-0.1257102,0.09433498,0,0.3,0,0,0,0,
6.38224E+17,-11.1203,67.65652,27.73655,-28.11993,-9.326735,1.69085,56.02559,36.61026,-12.81765,-60.78728,-41.7011,14.06928,0,0,0,-21.74723,28.66061,-57.71098,64.23486,-27.15129,-125.0648,0.001067912,-0.1257102,0.09433498,0,0.3,0,0,0,0,
6.38224E+17,-11.26166,69.8307,29.27747,-28.48616,-10.42541,1.617605,56.02559,36.61026,-12.81765,-60.78728,-41.7011,14.06928,0,0,0,-21.71466,32.2066,-59.29905,64.23486,-27.15129,-125.0648,0.001067912,-0.1257102,0.09433498,0,0.3,0,0,0,0,
6.38224E+17,-11.7093,74.27255,33.05973,-29.29186,-12.76926,1.617605,56.02559,36.61026,-12.81765,-60.78728,-41.7011,14.06928,0,0,0,-22.09886,39.94669,-61.72579,64.23486,-27.15129,-125.0648,0.001067912,-0.1257102,0.09433498,0,0.3,0,0,0,0,
6.38224E+17,-12.43966,78.45725,37.68249,-30.83001,-15.77231,1.764095,56.02559,36.61026,-12.81765,-60.78728,-41.7011,14.06928,0,0,0,-23.30709,48.46851,-62.69204,64.23486,-27.15129,-125.0648,0.001067912,-0.1257102,0.09433498,0,0.3,0,0,0,0,
6.38224E+17,-12.8873,80.53791,40.32073,-31.85544,-17.60344,1.983831,56.02559,36.61026,-12.81765,-60.78728,-41.7011,14.06928,0,0,0,-24.13413,53.21511,-62.86742,64.23486,-27.15129,-125.0648,0.001067912,-0.1257102,0.09433498,0,0.3,0,0,0,0,
6.38224E+17,-13.64122,83.9745,45.27035,-34.34578,-20.89947,3.302244,56.02559,36.61026,-12.81765,-60.78728,-41.7011,14.06928,0,0,0,-25.64407,62.11655,-62.68279,64.23486,-27.15129,-125.0648,0.001067912,-0.1257102,0.09433498,0,0.3,0,0,0,0,
6.38224E+17,-14.1831,86.80327,49.75303,-37.93478,-24.48849,6.232051,56.02559,36.61026,-12.81765,-60.78728,-41.7011,14.06928,0,0,0,-26.76069,70.33723,-62.46141,64.23486,-27.15129,-125.0648,0.001067912,-0.1257102,0.09433498,0,0.3,0,0,0,0,
6.38224E+17,-14.46582,88.86055,53.13838,-41.74353,-27.71127,9.381593,56.02559,36.61026,-12.81765,-60.78728,-41.7011,14.06928,0,0,0,-27.31422,76.67904,-62.4732,64.23486,-27.15129,-125.0648,0.001067912,-0.1257102,0.09433498,0,0.3,0,0,0,0,
6.38224E+17,-14.5365,89.6554,54.44583,-43.50142,-29.02968,10.8465,56.02559,36.61026,-12.81765,-60.78728,-41.7011,14.06928,0,0,0,-27.43168,79.15823,-62.5576,64.23486,-27.15129,-125.0648,0.001067912,-0.1257102,0.09433498,0,0.3,0,0,0,0,
6.38224E+17,-14.58362,90.94121,56.40699,-46.43123,-30.93406,13.33683,56.02559,36.61026,-12.81765,-60.78728,-41.7011,14.06928,0,0,0,-27.41734,82.9008,-62.96967,64.23486,-27.15129,-125.0648,0.001067912,-0.1257102,0.09433498,0,0.3,0,0,0,0,
6.38224E+17,-14.58362,91.87634,57.43428,-48.77507,-32.25247,15.31445,56.02559,36.61026,-12.81765,-60.78728,-41.7011,14.06928,0,0,0,-27.19808,84.85063,-63.81242,64.23486,-27.15129,-125.0648,0.001067912,-0.1257102,0.09433498,0,0.3,0,0,0,0,
6.38224E+17,-14.58362,92.18025,57.66774,-49.58077,-32.76519,15.90041,56.02559,36.61026,-12.81765,-60.78728,-41.7011,14.06928,0,0,0,-27.0935,85.28414,-64.21438,64.23486,-27.15129,-125.0648,0.001067912,-0.1257102,0.09433498,0,0.3,0,0,0,0,
6.38224E+17,-14.58362,92.50755,57.73779,-50.89918,-33.35115,16.63286,56.02559,36.61026,-12.81765,-60.78728,-41.7011,14.06928,0,0,0,-26.92379,85.39078,-64.86667,64.23486,-27.15129,-125.0648,0.001067912,-0.1257102,0.09433498,0,0.3,0,0,0,0,
6.38224E+17,-14.58362,92.57768,57.43428,-51.48514,-33.57088,16.8526,56.02559,36.61026,-12.81765,-60.78728,-41.7011,14.06928,0,0,0,-26.78739,84.7872,-65.39094,64.23486,-27.15129,-125.0648,0.001067912,-0.1257102,0.09433498,0,0.3,0,0,0,0,
6.38224E+17,-14.58362,92.48417,56.38364,-51.48514,-33.57088,17.07234,56.02559,36.61026,-12.81765,-60.78728,-41.7011,14.06928,0,0,0,-26.50599,82.74822,-66.4725,64.23486,-27.15129,-125.0648,0.001067912,-0.1257102,0.09433498,0,0.3,0,0,0,0,
6.38224E+17,-14.58362,92.36728,55.63654,-51.19216,-33.49764,16.92585,56.02559,36.61026,-12.81765,-60.78728,-41.7011,14.06928,0,0,0,-26.32967,81.31802,-67.15022,64.23486,-27.15129,-125.0648,0.001067912,-0.1257102,0.09433498,0,0.3,0,0,0,0,
6.38224E+17,-14.58362,91.96985,54.07227,-50.23997,-33.05817,15.60743,56.02559,36.61026,-12.81765,-60.78728,-41.7011,14.06928,0,0,0,-26.03472,78.37617,-68.28387,64.23486,-27.15129,-125.0648,0.001067912,-0.1257102,0.09433498,0,0.3,0,0,0,0,
6.38224E+17,-14.58362,91.31527,52.0644,-49.21454,-32.54545,13.84955,56.02559,36.61026,-12.81765,-60.78728,-41.7011,14.06928,0,0,0,-25.71119,74.68458,-69.52736,64.23486,-27.15129,-125.0648,0.001067912,-0.1257102,0.09433498,0,0.3,0,0,0,0,
6.38224E+17,-14.58362,90.8477,50.92039,-48.55533,-31.95949,12.82412,56.02559,36.61026,-12.81765,-60.78728,-41.7011,14.06928,0,0,0,-25.56774,72.62161,-70.07874,64.23486,-27.15129,-125.0648,0.001067912,-0.1257102,0.09433498,0,0.3,0,0,0,0,
6.38224E+17,-14.58362,89.95933,49.02925,-47.09043,-30.71432,10.62676,56.02559,36.61026,-12.81765,-60.78728,-41.7011,14.06928,0,0,0,-25.37562,69.2659,-70.81715,64.23486,-27.15129,-125.0648,0.001067912,-0.1257102,0.09433498,0,0.3,0,0,0,0,
6.38224E+17,-14.58362,89.14109,47.02139,-45.77202,-29.46916,8.06318,56.02559,36.61026,-12.81765,-60.78728,-41.7011,14.06928,0,0,0,-25.0682,65.77695,-71.99875,64.23486,-27.15129,-125.0648,0.001067912,-0.1257102,0.09433498,0,0.3,0,0,0,0,
6.38224E+17,-14.58362,88.11245,44.75671,-44.67334,-28.15074,5.353109,56.02559,36.61026,-12.81765,-60.78728,-41.7011,14.06928,0,0,0,-24.74712,61.93542,-73.23284,64.23486,-27.15129,-125.0648,0.001067912,-0.1257102,0.09433498,0,0.3,0,0,0,0,
6.38224E+17,-14.58362,87.57475,43.70608,-44.23387,-27.34505,4.034696,56.02559,36.61026,-12.81765,-60.78728,-41.7011,14.06928,0,0,0,-24.62085,60.18267,-73.71819,64.23486,-27.15129,-125.0648,0.001067912,-0.1257102,0.09433498,0,0.3,0,0,0,0,
6.38224E+17,-14.58362,86.38246,41.60483,-43.28168,-25.73365,1.178134,56.02559,36.61026,-12.81765,-60.78728,-41.7011,14.06928,0,0,0,-24.41301,56.72288,-74.51701,64.23486,-27.15129,-125.0648,0.001067912,-0.1257102,0.09433498,0,0.3,0,0,0,0,
6.38224E+17,-14.58362,84.79274,39.43353,-42.3295,-24.19551,-1.238957,56.02559,36.61026,-12.81765,-60.78728,-41.7011,14.06928,0,0,0,-24.3746,53.15518,-74.66463,64.23486,-27.15129,-125.0648,0.001067912,-0.1257102,0.09433498,0,0.3,0,0,0,0,
6.38224E+17,-14.58362,83.85761,38.21947,-41.81678,-23.46305,-2.191144,56.02559,36.61026,-12.81765,-60.78728,-41.7011,14.06928,0,0,0,-24.36566,51.16846,-74.699,64.23486,-27.15129,-125.0648,0.001067912,-0.1257102,0.09433498,0,0.3,0,0,0,0,
6.38224E+17,-14.58362,81.77695,35.30106,-40.7181,-21.9249,-3.802537,56.02559,36.61026,-12.81765,-60.78728,-41.7011,14.06928,0,0,0,-24.20533,46.49849,-75.31526,64.23486,-27.15129,-125.0648,0.001067912,-0.1257102,0.09433498,0,0.3,0,0,0,0,
6.38224E+17,-14.58362,79.39238,31.96241,-39.61942,-20.02053,-5.560421,56.02559,36.61026,-12.81765,-60.78728,-41.7011,14.06928,0,0,0,-23.95501,41.28761,-76.27736,64.23486,-27.15129,-125.0648,0.001067912,-0.1257102,0.09433498,0,0.3,0,0,0,0,
6.38224E+17,-14.58362,77.94293,30.16467,-39.03346,-18.84861,-6.659099,56.02559,36.61026,-12.81765,-60.78728,-41.7011,14.06928,0,0,0,-23.88544,38.46591,-76.54477,64.23486,-27.15129,-125.0648,0.001067912,-0.1257102,0.09433498,0,0.3,0,0,0,0,
6.38224E+17,-14.58362,74.85701,26.40576,-38.08128,-16.35827,-9.442415,56.02559,36.61026,-12.81765,-60.78728,-41.7011,14.06928,0,0,0,-23.7035,32.63247,-77.24406,64.23486,-27.15129,-125.0648,0.001067912,-0.1257102,0.09433498,0,0.3,0,0,0,0,
6.38224E+17,-14.58362,71.30352,22.69354,-37.49532,-13.57495,-12.95818,56.02559,36.61026,-12.81765,-60.78728,-41.7011,14.06928,0,0,0,-23.71702,26.63686,-77.19209,64.23486,-27.15129,-125.0648,0.001067912,-0.1257102,0.09433498,0,0.3,0,0,0,0,
6.38224E+17,-14.58362,69.40989,20.80241,-37.34882,-11.89032,-14.78931,56.02559,36.61026,-12.81765,-60.78728,-41.7011,14.06928,0,0,0,-23.73279,23.52462,-77.13148,64.23486,-27.15129,-125.0648,0.001067912,-0.1257102,0.09433498,0,0.3,0,0,0,0,
6.38224E+17,-14.56006,65.76289,17.16024,-37.20233,-8.814018,-17.86561,56.02559,36.61026,-12.81765,-60.78728,-41.7011,14.06928,0,0,0,-23.65279,17.53208,-77.28534,64.23486,-27.15129,-125.0648,0.001067912,-0.1257102,0.09433498,0,0.3,0,0,0,0,
6.38224E+17,-14.56006,61.83535,13.47137,-36.76286,-5.371496,-20.57568,56.02559,36.61026,-12.81765,-60.78728,-41.7011,14.06928,0,0,0,-23.63293,11.2296,-77.36179,64.23486,-27.15129,-125.0648,0.001067912,-0.1257102,0.09433498,0,0.3,0,0,0,0,
6.38224E+17,-14.5365,57.90781,10.24945,-36.39664,-2.075463,-23.06602,56.02559,36.61026,-12.81765,-60.78728,-41.7011,14.06928,0,0,0,-23.73779,5.10131,-76.8034,64.23486,-27.15129,-125.0648,0.001067912,-0.1257102,0.09433498,0,0.3,0,0,0,0,
6.38224E+17,-14.51294,55.9908,8.731878,-36.32339,-0.5373149,-24.0182,56.02559,36.61026,-12.81765,-60.78728,-41.7011,14.06928,0,0,0,-23.76429,2.085764,-76.54583,64.23486,-27.15129,-125.0648,0.001067912,-0.1257102,0.09433498,0,0.3,0,0,0,0,
6.38224E+17,-14.48938,52.36718,6.070289,-36.10366,2.831963,-25.48311,56.02559,36.61026,-12.81765,-60.78728,-41.7011,14.06928,0,0,0,-23.90038,-3.647102,-75.86333,64.23486,-27.15129,-125.0648,0.001067912,-0.1257102,0.09433498,0,0.3,0,0,0,0,
6.38224E+17,-14.48938,49.16436,3.992383,-35.95716,5.981505,-26.58179,56.02559,36.61026,-12.81765,-60.78728,-41.7011,14.06928,0,0,0,-24.13953,-8.785329,-74.93791,64.23486,-27.15129,-125.0648,0.001067912,-0.1257102,0.09433498,0,0.3,0,0,0,0,
6.38224E+17,-14.48938,47.71491,3.175228,-35.88392,7.592898,-26.94801,56.02559,36.61026,-12.81765,-60.78728,-41.7011,14.06928,0,0,0,-24.29616,-11.14212,-74.33179,64.23486,-27.15129,-125.0648,0.001067912,-0.1257102,0.09433498,0,0.3,0,0,0,0,
6.38224E+17,-14.46582,45.14331,1.96117,-35.81068,10.44946,-27.38748,56.02559,36.61026,-12.81765,-60.78728,-41.7011,14.06928,0,0,0,-24.63553,-15.39365,-72.85649,64.23486,-27.15129,-125.0648,0.001067912,-0.1257102,0.09433498,0,0.3,0,0,0,0,
