zeyangz2/DNN_classification_different_people_hand/data/zeyang_right_8.csv
Timestamp,Therapist joint angle 0,Therapist joint angle 1,Therapist joint angle 2,Therapist joint angle 3,Therapist joint angle 4,Therapist joint angle 5,Patient joint angle 0,Patient joint angle 1,Patient joint angle 2,Patient joint angle 3,Patient joint angle 4,Patient joint angle 5,Virtual joint angle 0,Virtual joint angle 1,Virtual joint angle 2,Therapist position x,Therapist position y,Therapist position z,Patient position x,Patient position y,Patient position z,Virtual position x,Virtual position y,Virtual position z,Assistive Force, Obstacle Force Magnitude, Therapist Constant Force, Patient Constant Force, Recovery Factor, Assistance Level,label
6.38223E+17,0,0,0,0,0,0,0,0,0,0,0,0,0,0,0,0,0,0,0,0,0,0,0,0,0,0.3,0,0,0,0,0
6.38223E+17,33.8321,-0.9818845,-0.4435981,35.31038,-63.30842,47.10286,-4.570632,-0.4441859,0.1400836,-35.22471,-8.447793,45.05199,0,0,0,73.65839,-112.2811,-58.45367,-10.65206,-111.0334,-35.10307,0.001067912,-0.1257102,0.09433498,0,0.3,0,0,0,0,
6.38223E+17,33.8321,-0.9818845,-0.4435981,35.23714,-63.30842,47.10286,-4.570632,-0.4441859,0.1400836,-35.22471,-8.447793,45.05199,0,0,0,73.65839,-112.2811,-58.45367,-10.65206,-111.0334,-35.10307,0.001067912,-0.1257102,0.09433498,0,0.3,0,0,0,0,
6.38223E+17,33.8321,-0.9818845,-0.4435981,35.23714,-63.38167,47.10286,-4.570632,-0.4441859,0.1400836,-35.22471,-8.447793,45.05199,0,0,0,73.65839,-112.2811,-58.45367,-10.65206,-111.0334,-35.10307,0.001067912,-0.1257102,0.09433498,0,0.3,0,0,0,0,
6.38223E+17,33.8321,-0.9818845,-0.4435981,35.23714,-63.30842,47.1761,-4.570632,-0.4441859,0.1400836,-35.22471,-8.447793,45.05199,0,0,0,73.65839,-112.2811,-58.45367,-10.65206,-111.0334,-35.10307,0.001067912,-0.1257102,0.09433498,0,0.3,0,0,0,0,
6.38223E+17,33.8321,-0.9818845,-0.4435981,35.23714,-63.38167,47.10286,-4.570632,-0.4441859,0.1400836,-35.22471,-8.447793,45.05199,0,0,0,73.65839,-112.2811,-58.45367,-10.65206,-111.0334,-35.10307,0.001067912,-0.1257102,0.09433498,0,0.3,0,0,0,0,
6.38223E+17,33.8321,-0.9818845,-0.4435981,35.23714,-63.30842,47.1761,-4.570632,-0.4441859,0.1400836,-35.22471,-8.447793,45.05199,0,0,0,73.65839,-112.2811,-58.45367,-10.65206,-111.0334,-35.10307,0.001067912,-0.1257102,0.09433498,0,0.3,0,0,8.72E-08,0,
6.38223E+17,33.8321,-0.9818845,-0.4435981,35.23714,-63.38167,47.10286,-4.570632,-0.4441859,0.1400836,-35.22471,-8.447793,45.05199,0,0,0,73.65839,-112.2811,-58.45367,-10.65206,-111.0334,-35.10307,0.001067912,-0.1257102,0.09433498,0,0.3,0,0,8.72E-08,0,
6.38223E+17,33.8321,-0.9818845,-0.4435981,35.23714,-63.30842,47.10286,-4.570632,-0.4441859,0.1400836,-35.22471,-8.447793,45.05199,0,0,0,73.65839,-112.2811,-58.45367,-10.65206,-111.0334,-35.10307,0.001067912,-0.1257102,0.09433498,0,0.3,0,0,8.72E-08,0,
6.38223E+17,33.8321,-0.9818845,-0.4435981,35.31038,-63.30842,47.10286,-4.570632,-0.4441859,0.1400836,-35.22471,-8.447793,45.12524,0,0,0,73.65839,-112.2811,-58.45367,-10.65206,-111.0334,-35.10307,0.001067912,-0.1257102,0.09433498,0,0.3,0,0,8.72E-08,0,
6.38223E+17,33.8321,-0.9818845,-0.4435981,35.31038,-63.38167,47.10286,-4.570632,-0.4441859,0.1400836,-35.22471,-8.447793,45.05199,0,0,0,73.65839,-112.2811,-58.45367,-10.65206,-111.0334,-35.10307,0.001067912,-0.1257102,0.09433498,0,0.3,0,0,8.72E-08,0,
6.38223E+17,33.8321,-0.9818845,-0.4435981,35.23714,-63.30842,47.10286,-4.570632,-0.4441859,0.1400836,-35.22471,-8.447793,45.05199,0,0,0,73.65839,-112.2811,-58.45367,-10.65206,-111.0334,-35.10307,0.001067912,-0.1257102,0.09433498,0,0.3,0,0,8.72E-08,0,
6.38223E+17,33.8321,-0.9818845,-0.4435981,35.23714,-63.38167,47.10286,-4.570632,-0.4441859,0.1400836,-35.22471,-8.447793,45.05199,0,0,0,73.65839,-112.2811,-58.45367,-10.65206,-111.0334,-35.10307,0.001067912,-0.1257102,0.09433498,0,0.3,0,0,8.72E-08,0,
6.38223E+17,33.8321,-0.9818845,-0.4435981,35.23714,-63.38167,47.1761,-4.570632,-0.4441859,0.1400836,-35.22471,-8.447793,45.05199,0,0,0,73.65839,-112.2811,-58.45367,-10.65206,-111.0334,-35.10307,0.001067912,-0.1257102,0.09433498,0,0.3,0,0,8.72E-08,0,
6.38223E+17,33.8321,-0.9818845,-0.4435981,35.23714,-63.38167,47.1761,-4.570632,-0.4441859,0.1400836,-35.22471,-8.447793,45.05199,0,0,0,73.65839,-112.2811,-58.45367,-10.65206,-111.0334,-35.10307,0.001067912,-0.1257102,0.09433498,0,0.3,0,0,8.72E-08,0,
6.38223E+17,33.8321,-0.9818845,-0.4435981,35.23714,-63.38167,47.10286,-4.570632,-0.4441859,0.1400836,-35.22471,-8.447793,45.05199,0,0,0,73.65839,-112.2811,-58.45367,-10.65206,-111.0334,-35.10307,0.001067912,-0.1257102,0.09433498,0,0.3,0,0,8.72E-08,0,
6.38223E+17,33.8321,-0.9818845,-0.4435981,35.23714,-63.38167,47.1761,-4.570632,-0.4441859,0.1400836,-35.22471,-8.447793,45.05199,0,0,0,73.65839,-112.2811,-58.45367,-10.65206,-111.0334,-35.10307,0.001067912,-0.1257102,0.09433498,0,0.3,0,0,8.72E-08,0,
6.38223E+17,33.8321,-0.9818845,-0.4435981,35.23714,-63.30842,47.10286,-4.570632,-0.4441859,0.1400836,-35.22471,-8.447793,45.12524,0,0,0,73.65839,-112.2811,-58.45367,-10.65206,-111.0334,-35.10307,0.001067912,-0.1257102,0.09433498,0,0.3,0,0,8.72E-08,0,
6.38223E+17,33.8321,-0.9818845,-0.4435981,35.23714,-63.30842,47.1761,-4.570632,-0.4441859,0.1400836,-35.22471,-8.447793,45.05199,0,0,0,73.65839,-112.2811,-58.45367,-10.65206,-111.0334,-35.10307,0.001067912,-0.1257102,0.09433498,0,0.3,0,0,8.72E-08,0,
6.38223E+17,33.8321,-0.9818845,-0.4435981,35.23714,-63.38167,47.10286,-4.570632,-0.4441859,0.1400836,-35.22471,-8.447793,45.05199,0,0,0,73.65839,-112.2811,-58.45367,-10.65206,-111.0334,-35.10307,0.001067912,-0.1257102,0.09433498,0,0.3,0,0,8.72E-08,0,
6.38223E+17,33.8321,-0.9818845,-0.4435981,35.31038,-63.30842,47.10286,-4.570632,-0.4441859,0.1400836,-35.22471,-8.447793,45.05199,0,0,0,73.65839,-112.2811,-58.45367,-10.65206,-111.0334,-35.10307,0.001067912,-0.1257102,0.09433498,0,0.3,0,0,8.72E-08,0,
6.38223E+17,33.8321,-0.9818845,-0.4435981,35.31038,-63.38167,47.10286,-4.570632,-0.4441859,0.1400836,-35.22471,-8.447793,45.05199,0,0,0,73.65839,-112.2811,-58.45367,-10.65206,-111.0334,-35.10307,0.001067912,-0.1257102,0.09433498,0,0.3,0,0,8.72E-08,0,
6.38223E+17,33.8321,-0.9818845,-0.4435981,35.31038,-63.38167,47.10286,-4.570632,-0.4441859,0.1400836,-35.22471,-8.447793,45.05199,0,0,0,73.65839,-112.2811,-58.45367,-10.65206,-111.0334,-35.10307,0.001067912,-0.1257102,0.09433498,0,0.3,0,0,8.72E-08,0,
6.38223E+17,33.8321,-0.9818845,-0.4435981,35.23714,-63.38167,47.1761,-4.570632,-0.4441859,0.1400836,-35.22471,-8.447793,45.05199,0,0,0,73.65839,-112.2811,-58.45367,-10.65206,-111.0334,-35.10307,0.001067912,-0.1257102,0.09433498,0,0.3,0,0,8.72E-08,0,
6.38223E+17,33.8321,-0.9818845,-0.4435981,35.23714,-63.30842,47.1761,-4.570632,-0.4441859,0.1400836,-35.22471,-8.447793,45.05199,0,0,0,73.65839,-112.2811,-58.45367,-10.65206,-111.0334,-35.10307,0.001067912,-0.1257102,0.09433498,0,0.3,0,0,8.72E-08,0,
6.38223E+17,33.8321,-0.9818845,-0.4435981,35.23714,-63.30842,47.1761,-4.570632,-0.4441859,0.1400836,-35.22471,-8.447793,45.05199,0,0,0,73.65839,-112.2811,-58.45367,-10.65206,-111.0334,-35.10307,0.001067912,-0.1257102,0.09433498,0,0.3,0,0,8.72E-08,0,
6.38223E+17,33.8321,-0.9818845,-0.4435981,35.31038,-63.30842,47.10286,-4.570632,-0.4441859,0.1400836,-35.22471,-8.447793,45.12524,0,0,0,73.65839,-112.2811,-58.45367,-10.65206,-111.0334,-35.10307,0.001067912,-0.1257102,0.09433498,0,0.3,0,0,8.72E-08,0,
6.38223E+17,33.8321,-0.9818845,-0.4435981,35.23714,-63.38167,47.10286,-4.570632,-0.4441859,0.1400836,-35.22471,-8.447793,45.05199,0,0,0,73.65839,-112.2811,-58.45367,-10.65206,-111.0334,-35.10307,0.001067912,-0.1257102,0.09433498,0,0.3,0,0,8.72E-08,0,
6.38223E+17,33.8321,-0.9818845,-0.4435981,35.23714,-63.38167,47.10286,-4.570632,-0.4441859,0.1400836,-35.22471,-8.447793,45.05199,0,0,0,73.65839,-112.2811,-58.45367,-10.65206,-111.0334,-35.10307,0.001067912,-0.1257102,0.09433498,0,0.3,0,0,8.72E-08,0,
6.38223E+17,33.8321,-0.9818845,-0.4435981,35.23714,-63.38167,47.10286,-4.570632,-0.4441859,0.1400836,-35.22471,-8.447793,45.05199,0,0,0,73.65839,-112.2811,-58.45367,-10.65206,-111.0334,-35.10307,0.001067912,-0.1257102,0.09433498,0,0.3,0,0,8.72E-08,0,
6.38223E+17,33.8321,-0.9818845,-0.4435981,35.23714,-63.38167,47.1761,-4.570632,-0.4441859,0.1400836,-35.15147,-8.447793,45.05199,0,0,0,73.65839,-112.2811,-58.45367,-10.65206,-111.0334,-35.10307,0.001067912,-0.1257102,0.09433498,0,0.3,0,0,8.72E-08,0,
6.38223E+17,33.8321,-0.9818845,-0.4435981,35.23714,-63.38167,47.1761,-4.570632,-0.4441859,0.1400836,-35.22471,-8.521038,45.05199,0,0,0,73.65839,-112.2811,-58.45367,-10.65206,-111.0334,-35.10307,0.001067912,-0.1257102,0.09433498,0,0.3,0,0,8.72E-08,0,
6.38223E+17,33.8321,-0.9818845,-0.4435981,35.23714,-63.38167,47.1761,-4.570632,-0.4441859,0.1400836,-35.15147,-8.447793,45.05199,0,0,0,73.65839,-112.2811,-58.45367,-10.65206,-111.0334,-35.10307,0.001067912,-0.1257102,0.09433498,0,0.3,0,0,8.72E-08,0,
6.38223E+17,33.8321,-0.9818845,-0.4435981,35.23714,-63.30842,47.10286,-4.570632,-0.4441859,0.1400836,-35.22471,-8.447793,45.05199,0,0,0,73.65839,-112.2811,-58.45367,-10.65206,-111.0334,-35.10307,0.001067912,-0.1257102,0.09433498,0,0.3,0,0,8.72E-08,0,
6.38223E+17,33.8321,-0.9818845,-0.4435981,35.23714,-63.30842,47.10286,-4.570632,-0.4441859,0.1400836,-35.22471,-8.447793,45.05199,0,0,0,73.65839,-112.2811,-58.45367,-10.65206,-111.0334,-35.10307,0.001067912,-0.1257102,0.09433498,0,0.3,0,0,8.72E-08,0,
6.38223E+17,33.8321,-0.9818845,-0.4435981,35.23714,-63.38167,47.10286,-4.570632,-0.4441859,0.1400836,-35.22471,-8.447793,45.05199,0,0,0,73.65839,-112.2811,-58.45367,-10.65206,-111.0334,-35.10307,0.001067912,-0.1257102,0.09433498,0,0.3,0,0,8.72E-08,0,
6.38223E+17,33.8321,-0.9818845,-0.4435981,35.31038,-63.30842,47.10286,-4.570632,-0.4441859,0.1400836,-35.22471,-8.447793,45.05199,0,0,0,73.65839,-112.2811,-58.45367,-10.65206,-111.0334,-35.10307,0.001067912,-0.1257102,0.09433498,0,0.3,0,0,8.72E-08,0,
6.38223E+17,33.8321,-1.005263,-0.6303762,35.23714,-63.38167,46.88312,-4.570632,-0.4441859,0.1400836,-35.22471,-8.447793,45.05199,0,0,0,73.41585,-112.3315,-58.81554,-10.65206,-111.0334,-35.10307,0.001067912,-0.1257102,0.09433498,0,0.3,0,0,2.25E-05,0,
6.38223E+17,33.57294,-1.005263,-1.400836,35.74985,-63.30842,42.70815,-4.570632,-0.4441859,0.1400836,-35.22471,-8.447793,45.05199,0,0,0,71.92819,-112.2997,-59.97837,-10.65206,-111.0334,-35.10307,0.001067912,-0.1257102,0.09433498,0,0.3,0,0,0.000326302,0,
6.38223E+17,33.31378,-1.005263,-1.751045,36.6288,-63.23518,39.41211,-4.570632,-0.4441859,0.1400836,-35.22471,-8.447793,45.05199,0,0,0,70.98978,-112.2773,-60.33502,-10.65206,-111.0334,-35.10307,0.001067912,-0.1257102,0.09433498,0,0.3,0,0,0.000644407,0,
6.38223E+17,32.84259,-0.9818845,-2.031212,41.09675,-62.28299,33.5525,-4.570632,-0.4441859,0.1400836,-35.22471,-8.447793,45.05199,0,0,0,69.74615,-112.2013,-60.30161,-10.65206,-111.0334,-35.10307,0.001067912,-0.1257102,0.09433498,0,0.3,0,0,0.001564104,0,
6.38223E+17,32.84259,-0.3740513,-1.844434,44.61252,-60.74484,29.15779,-4.570632,-0.4441859,0.1400836,-35.22471,-8.447793,45.05199,0,0,0,69.99085,-110.8015,-59.92252,-10.65206,-111.0334,-35.10307,0.001067912,-0.1257102,0.09433498,0,0.3,0,0,0.002458252,0,
6.38223E+17,32.84259,1.636474,-2.007865,41.53622,-57.15583,28.13236,-4.570632,-0.4441859,0.1400836,-35.22471,-8.447793,45.05199,0,0,0,69.75673,-106.1099,-60.28522,-10.65206,-111.0334,-35.10307,0.001067912,-0.1257102,0.09433498,0,0.3,0,0,0.003308451,0,
6.38223E+17,32.84259,2.922275,-2.241338,38.97264,-54.66549,28.79156,-4.570632,-0.4441859,0.1400836,-35.22471,-8.447793,45.05199,0,0,0,69.39769,-103.0996,-60.84143,-10.65206,-111.0334,-35.10307,0.001067912,-0.1257102,0.09433498,0,0.3,0,0,0.004097609,0,
6.38223E+17,32.84259,5.07307,-3.735562,33.77223,-49.3186,29.37753,-4.570632,-0.4441859,0.1400836,-35.22471,-8.447793,45.05199,0,0,0,67.32501,-97.92506,-64.05236,-10.65206,-111.0334,-35.10307,0.001067912,-0.1257102,0.09433498,0,0.3,0,0,0.004886943,0,
6.38223E+17,32.84259,6.078333,-5.626691,28.86481,-42.50679,29.59726,-4.570632,-0.4441859,0.1400836,-35.22471,-8.447793,45.05199,0,0,0,64.82277,-95.23733,-67.92875,-10.65206,-111.0334,-35.10307,0.001067912,-0.1257102,0.09433498,0,0.3,0,0,0.005746036,0,
6.38223E+17,32.84259,5.867929,-6.74736,25.71527,-33.35115,29.59726,-4.570632,-0.4441859,0.1400836,-35.22471,-8.447793,45.05199,0,0,0,63.44413,-95.44327,-70.06448,-10.65206,-111.0334,-35.10307,0.001067912,-0.1257102,0.09433498,0,0.3,0,0,0.006674802,0,
6.38223E+17,32.79546,5.189961,-5.953553,25.42229,-24.19551,30.84243,-4.570632,-0.4441859,0.1400836,-35.22471,-8.447793,45.05199,0,0,0,64.44016,-97.21816,-68.34106,-10.65206,-111.0334,-35.10307,0.001067912,-0.1257102,0.09433498,0,0.3,0,0,0.00761316,0,
6.38223E+17,32.60699,4.745775,-4.459328,26.00825,-18.84861,32.16084,-4.570632,-0.4441859,0.1400836,-35.22471,-8.447793,45.12524,0,0,0,66.0253,-98.56364,-65.13684,-10.65206,-111.0334,-35.10307,0.001067912,-0.1257102,0.09433498,0,0.3,0,0,0.008067645,0,
6.38223E+17,31.75883,4.605506,-0.5136398,28.13236,-9.546471,36.33582,-4.570632,-0.4441859,0.1400836,-35.22471,-8.447793,45.05199,0,0,0,69.33226,-99.28734,-56.34888,-10.65206,-111.0334,-35.10307,0.001067912,-0.1257102,0.09433498,0,0.3,0,0,0.008894998,0,
6.38223E+17,30.39235,4.605506,3.852299,30.54945,-1.782483,40.73053,-4.570632,-0.4441859,0.1400836,-35.22471,-8.447793,45.05199,0,0,0,71.77898,-98.9914,-45.96826,-10.65206,-111.0334,-35.10307,0.001067912,-0.1257102,0.09433498,0,0.3,0,0,0.009589284,0,
6.38223E+17,28.90807,4.628884,6.794055,32.38057,4.516602,42.48841,-4.570632,-0.4441859,0.1400836,-35.22471,-8.447793,45.05199,0,0,0,71.87783,-98.30206,-38.18688,-10.65206,-111.0334,-35.10307,0.001067912,-0.1257102,0.09433498,0,0.3,0,0,0.01027685,0,
6.38223E+17,27.73007,4.605506,6.91079,32.60031,9.350782,42.70815,-4.570632,-0.4441859,0.1400836,-35.22471,-8.447793,45.05199,0,0,0,69.31423,-98.32388,-36.49405,-10.65206,-111.0334,-35.10307,0.001067912,-0.1257102,0.09433498,0,0.3,0,0,0.011436,0,
6.38223E+17,27.73007,4.465237,5.369871,31.79461,12.28059,43.80682,-4.570632,-0.4441859,0.1400836,-35.22471,-8.447793,45.05199,0,0,0,67.66713,-99.03291,-39.62733,-10.65206,-111.0334,-35.10307,0.001067912,-0.1257102,0.09433498,0,0.3,0,0,0.01301101,0,
6.38223E+17,28.50755,4.137942,2.825019,31.2819,13.89198,52.88922,-4.570632,-0.4441859,0.1400836,-35.22471,-8.447793,45.05199,0,0,0,66.61544,-100.2157,-45.69818,-10.65206,-111.0334,-35.10307,0.001067912,-0.1257102,0.09433498,0,0.3,0,0,0.01471332,0,
6.38223E+17,29.14367,3.763891,0.9805852,31.35514,13.96523,65.41415,-4.570632,-0.4441859,0.1400836,-35.22471,-8.447793,45.05199,0,0,0,65.91293,-101.2267,-50.13997,-10.65206,-111.0334,-35.10307,0.001067912,-0.1257102,0.09433498,0,0.3,0,0,0.01638494,0,
6.38223E+17,29.75623,3.062545,-1.400836,31.72137,13.45251,84.67763,-4.570632,-0.4441859,0.1400836,-35.22471,-8.447793,45.05199,0,0,0,64.47057,-102.8358,-55.57835,-10.65206,-111.0334,-35.10307,0.001067912,-0.1257102,0.09433498,0,0.3,0,0,0.0180502,0,
6.38223E+17,29.92115,2.641737,-2.591547,31.79461,13.01304,94.8587,-4.570632,-0.4441859,0.1400836,-35.22471,-8.447793,45.05199,0,0,0,63.43776,-103.7174,-58.12254,-10.65206,-111.0334,-35.10307,0.001067912,-0.1257102,0.09433498,0,0.3,0,0,0.0189113,0,
6.38223E+17,29.92115,1.542961,-4.43598,31.9411,12.42708,107.8231,-4.570632,-0.4441859,0.1400836,-35.22471,-8.447793,45.12524,0,0,0,61.3472,-106.0099,-61.75502,-10.65206,-111.0334,-35.10307,0.001067912,-0.1257102,0.09433498,0,0.3,0,0,0.02075244,0,
6.38223E+17,29.92115,0.6545897,-5.323177,32.30733,12.35384,111.1191,-4.570632,-0.4441859,0.1400836,-35.22471,-8.447793,45.12524,0,0,0,60.34076,-107.9014,-63.50379,-10.65206,-111.0334,-35.10307,0.001067912,-0.1257102,0.09433498,0,0.3,0,0,0.02263351,0,
6.38223E+17,29.92115,0.07013461,-5.953553,32.7468,12.72006,112.1446,-4.570632,-0.4441859,0.1400836,-35.22471,-8.447793,45.05199,0,0,0,59.61677,-109.1175,-64.76176,-10.65206,-111.0334,-35.10307,0.001067912,-0.1257102,0.09433498,0,0.3,0,0,0.02450413,0,
6.38223E+17,29.92115,-0.1636474,-6.467193,33.33276,13.08629,112.4375,-4.570632,-0.4441859,0.1400836,-35.22471,-8.447793,45.05199,0,0,0,59.02375,-109.5323,-65.79217,-10.65206,-111.0334,-35.10307,0.001067912,-0.1257102,0.09433498,0,0.3,0,0,0.02634317,0,
6.38223E+17,29.92115,-0.2104038,-6.513887,34.06521,13.37927,112.5108,-4.570632,-0.4441859,0.1400836,-35.22471,-8.447793,45.05199,0,0,0,58.96972,-109.6288,-65.88606,-10.65206,-111.0334,-35.10307,0.001067912,-0.1257102,0.09433498,0,0.3,0,0,0.02812676,0,
6.38223E+17,29.94471,-0.233782,-6.513887,34.43144,13.45251,112.3643,-4.570632,-0.4441859,0.1400836,-35.22471,-8.447793,45.05199,0,0,0,59.01174,-109.6832,-65.91051,-10.65206,-111.0334,-35.10307,0.001067912,-0.1257102,0.09433498,0,0.3,0,0,0.02984084,0,
6.38223E+17,29.94471,-0.2571602,-6.49054,34.28495,13.599,111.2656,-4.570632,-0.4441859,0.1400836,-35.22471,-8.447793,45.05199,0,0,0,59.03857,-109.7438,-65.86393,-10.65206,-111.0334,-35.10307,0.001067912,-0.1257102,0.09433498,0,0.3,0,0,0.03149756,0,
6.38223E+17,29.92115,-0.2571602,-6.420498,34.2117,13.81874,110.4599,-4.570632,-0.4441859,0.1400836,-35.22471,-8.521038,45.05199,0,0,0,59.07722,-109.7621,-65.69926,-10.65206,-111.0334,-35.10307,0.001067912,-0.1257102,0.09433498,0,0.3,0,0,0.03230799,0,
6.38223E+17,29.82691,0.0233782,-6.023595,33.84548,14.4047,108.995,-4.570632,-0.4441859,0.1400836,-35.22471,-8.447793,45.05199,0,0,0,59.36572,-109.2093,-64.80442,-10.65206,-111.0334,-35.10307,0.001067912,-0.1257102,0.09433498,0,0.3,0,0,0.03390462,0,
6.38223E+17,29.75623,1.332558,-5.556649,32.82005,15.28364,106.8709,-4.570632,-0.4441859,0.1400836,-35.22471,-8.447793,45.05199,0,0,0,59.75666,-106.2723,-63.82391,-10.65206,-111.0334,-35.10307,0.001067912,-0.1257102,0.09433498,0,0.3,0,0,0.03544239,0,
6.38223E+17,29.89759,3.600243,-5.486608,30.62269,15.8696,104.0144,-4.570632,-0.4441859,0.1400836,-35.22471,-8.447793,45.05199,0,0,0,59.98204,-101.0154,-64.02788,-10.65206,-111.0334,-35.10307,0.001067912,-0.1257102,0.09433498,0,0.3,0,0,0.03682556,0,
6.38223E+17,30.83999,6.732923,-4.692801,27.39991,15.43013,99.54639,-4.570632,-0.4441859,0.1400836,-35.22471,-8.447793,45.05199,0,0,0,62.29657,-93.91882,-64.01218,-10.65206,-111.0334,-35.10307,0.001067912,-0.1257102,0.09433498,0,0.3,0,0,0.0377197,0,
6.38223E+17,34.27974,11.80599,-1.214058,25.71527,13.45251,93.02757,-4.570632,-0.4441859,0.1400836,-35.22471,-8.447793,45.05199,0,0,0,71.92708,-82.68687,-62.82873,-10.65206,-111.0334,-35.10307,0.001067912,-0.1257102,0.09433498,0,0.3,0,0,0.03710782,0,
6.38223E+17,36.5415,14.19057,0.6070289,26.44772,11.69463,89.36532,-4.570632,-0.4441859,0.1400836,-35.22471,-8.447793,45.05199,0,0,0,77.81566,-77.30206,-63.34731,-10.65206,-111.0334,-35.10307,0.001067912,-0.1257102,0.09433498,0,0.3,0,0,0.03504214,0,
6.38223E+17,40.35821,17.20636,3.432048,28.93805,8.618331,82.8465,-4.570632,-0.4441859,0.1400836,-35.22471,-8.447793,45.05199,0,0,0,87.65752,-70.31403,-65.20045,-10.65206,-111.0334,-35.10307,0.001067912,-0.1257102,0.09433498,0,0.3,0,0,0.03108745,0,
6.38223E+17,42.19589,18.30513,4.739495,30.32971,7.299919,79.84344,-4.570632,-0.4441859,0.1400836,-35.22471,-8.447793,45.05199,0,0,0,92.43504,-67.6618,-66.39366,-10.65206,-111.0334,-35.10307,0.001067912,-0.1257102,0.09433498,0,0.3,0,0,0.02845184,0,
6.38223E+17,48.41572,21.15727,9.268865,35.96959,3.857395,68.4172,-4.570632,-0.4441859,0.1400836,-35.22471,-8.447793,45.05199,0,0,0,109.0852,-60.12899,-71.55315,-10.65206,-111.0334,-35.10307,0.001067912,-0.1257102,0.09433498,0,0.3,0,0,0.01767071,0,
6.38223E+17,51.29004,22.04565,11.30008,39.33887,2.392492,61.38566,-4.570632,-0.4441859,0.1400836,-35.22471,-8.447793,45.05199,0,0,0,116.8373,-57.36266,-74.71227,-10.65206,-111.0334,-35.10307,0.001067912,-0.1257102,0.09433498,0,0.3,0,0,0.008652321,0,
6.38223E+17,52.70363,22.4197,12.18727,41.09675,1.879776,57.65016,-4.570632,-0.4441859,0.1400836,-35.22471,-8.447793,45.12524,0,0,0,120.458,-56.13655,-76.59769,-10.65206,-111.0334,-35.10307,0.001067912,-0.1257102,0.09433498,0,0.3,0,0,0.003715412,0,
6.38223E+17,55.20099,23.02753,13.6348,44.02656,1.293814,51.42432,-4.570632,-0.4441859,0.1400836,-35.22471,-8.447793,45.05199,0,0,0,126.5892,-54.07896,-80.37144,-10.65206,-111.0334,-35.10307,0.001067912,-0.1257102,0.09433498,0,0.3,0,0,0,0,
6.38223E+17,55.31879,24.00941,14.0784,45.85769,1.147324,46.59014,-4.570632,-0.4441859,0.1400836,-35.22471,-8.447793,45.05199,0,0,0,126.8442,-51.73632,-80.58041,-10.65206,-111.0334,-35.10307,0.001067912,-0.1257102,0.09433498,0,0.3,0,0,0,0,
6.38223E+17,55.29523,26.90831,14.10175,45.63795,1.000834,43.51384,-4.570632,-0.4441859,0.1400836,-35.22471,-8.447793,45.05199,0,0,0,124.4674,-45.63202,-82.14931,-10.65206,-111.0334,-35.10307,0.001067912,-0.1257102,0.09433498,0,0.3,0,0,0,0,
6.38223E+17,55.27167,30.90598,14.9189,45.27173,0.1218917,40.65728,-4.570632,-0.4441859,0.1400836,-35.22471,-8.447793,45.05199,0,0,0,122.2495,-37.01225,-83.61093,-10.65206,-111.0334,-35.10307,0.001067912,-0.1257102,0.09433498,0,0.3,0,0,0,0,
6.38223E+17,55.22455,35.25433,16.17966,45.27173,-2.148709,38.24019,-4.570632,-0.4441859,0.1400836,-35.22471,-8.447793,45.05199,0,0,0,119.9656,-27.74782,-85.04792,-10.65206,-111.0334,-35.10307,0.001067912,-0.1257102,0.09433498,0,0.3,0,0,0,0,
6.38223E+17,55.22455,38.97147,17.37037,44.97874,-5.078516,36.4823,-4.570632,-0.4441859,0.1400836,-35.15147,-8.447793,45.05199,0,0,0,117.8581,-20.0503,-86.51138,-10.65206,-111.0334,-35.10307,0.001067912,-0.1257102,0.09433498,0,0.3,0,0,0,0,
6.38223E+17,55.22455,40.91186,17.62719,44.31954,-6.909645,35.8231,-4.570632,-0.4441859,0.1400836,-35.22471,-8.447793,45.05199,0,0,0,115.9449,-16.40829,-87.83984,-10.65206,-111.0334,-35.10307,0.001067912,-0.1257102,0.09433498,0,0.3,0,0,0,0,
6.38223E+17,55.22455,42.52495,17.62719,43.22086,-8.521038,35.38363,-4.570632,-0.4441859,0.1400836,-35.22471,-8.447793,45.05199,0,0,0,113.8928,-13.60607,-89.26478,-10.65206,-111.0334,-35.10307,0.001067912,-0.1257102,0.09433498,0,0.3,0,0,0,0,
6.38223E+17,55.22455,42.94576,17.5338,42.56165,-9.326735,35.31038,-4.570632,-0.4441859,0.1400836,-35.22471,-8.447793,45.05199,0,0,0,113.1767,-12.95237,-89.76203,-10.65206,-111.0334,-35.10307,0.001067912,-0.1257102,0.09433498,0,0.3,0,0,0,0,
6.38223E+17,55.22455,42.33792,16.92677,41.38973,-10.35217,35.09065,-4.570632,-0.4441859,0.1400836,-35.22471,-8.447793,45.05199,0,0,0,112.8555,-14.41148,-89.98508,-10.65206,-111.0334,-35.10307,0.001067912,-0.1257102,0.09433498,0,0.3,0,0,0,0,
6.38223E+17,55.22455,39.92997,15.85279,40.73053,-10.5719,34.94416,-4.570632,-0.4441859,0.1400836,-35.22471,-8.447793,45.05199,0,0,0,113.9137,-19.33745,-89.25024,-10.65206,-111.0334,-35.10307,0.001067912,-0.1257102,0.09433498,0,0.3,0,0,0,0,
6.38223E+17,55.22455,35.97906,14.68543,40.3643,-9.326735,35.16389,-4.570632,-0.4441859,0.1400836,-35.22471,-8.447793,45.05199,0,0,0,116.4053,-27.30204,-87.52012,-10.65206,-111.0334,-35.10307,0.001067912,-0.1257102,0.09433498,0,0.3,0,0,0,0,
6.38223E+17,55.22455,30.81247,13.35464,40.21781,-6.470173,36.26257,-4.570632,-0.4441859,0.1400836,-35.22471,-8.447793,45.05199,0,0,0,119.3717,-38.08825,-85.4603,-10.65206,-111.0334,-35.10307,0.001067912,-0.1257102,0.09433498,0,0.3,0,0,0,0,
6.38223E+17,55.22455,24.21982,11.65029,40.43755,-1.635992,39.04589,-4.570632,-0.4441859,0.1400836,-35.22471,-8.447793,45.05199,0,0,0,122.0104,-52.54747,-83.62809,-10.65206,-111.0334,-35.10307,0.001067912,-0.1257102,0.09433498,0,0.3,0,0,0,0,
6.38223E+17,55.22455,19.84809,10.62301,40.43755,2.319247,40.65728,-4.570632,-0.4441859,0.1400836,-35.22471,-8.447793,45.12524,0,0,0,123.2181,-62.43856,-82.78945,-10.65206,-111.0334,-35.10307,0.001067912,-0.1257102,0.09433498,0,0.3,0,0,0,0,
6.38223E+17,55.22455,14.42435,9.362254,40.29105,7.299919,42.34192,-4.570632,-0.4441859,0.1400836,-35.22471,-8.447793,45.05199,0,0,0,123.8984,-75.00603,-82.31704,-10.65206,-111.0334,-35.10307,0.001067912,-0.1257102,0.09433498,0,0.3,0,0,0,0,
6.38223E+17,55.22455,11.87613,8.848614,40.14456,9.570518,43.00113,-4.570632,-0.4441859,0.1400836,-35.22471,-8.447793,45.12524,0,0,0,124.0371,-80.96994,-82.22077,-10.65206,-111.0334,-35.10307,0.001067912,-0.1257102,0.09433498,0,0.3,0,0,0,0,
6.38223E+17,55.20099,4.932801,8.334974,39.33887,16.60205,44.39278,-4.570632,-0.4441859,0.1400836,-35.22471,-8.447793,45.05199,0,0,0,124.9694,-97.12508,-81.49723,-10.65206,-111.0334,-35.10307,0.001067912,-0.1257102,0.09433498,0,0.3,0,0,0,0,
6.38223E+17,55.20099,2.945654,8.358321,39.04589,18.65292,44.61252,-4.570632,-0.4441859,0.1400836,-35.22471,-8.447793,45.05199,0,0,0,125.2744,-101.7309,-81.28523,-10.65206,-111.0334,-35.10307,0.001067912,-0.1257102,0.09433498,0,0.3,0,0,0,0,
6.38223E+17,55.20099,-0.07013461,8.428363,38.0937,22.53491,44.83226,-4.570632,-0.4441859,0.1400836,-35.22471,-8.447793,45.05199,0,0,0,125.5514,-108.723,-81.0927,-10.65206,-111.0334,-35.10307,0.001067912,-0.1257102,0.09433498,0,0.3,0,0,0,0,
6.38223E+17,55.22455,-1.028641,8.264932,37.14151,25.68446,44.75901,-4.570632,-0.4441859,0.1400836,-35.22471,-8.447793,45.05199,0,0,0,125.2606,-111.0089,-81.37119,-10.65206,-111.0334,-35.10307,0.001067912,-0.1257102,0.09433498,0,0.3,0,0,0,0,
6.38223E+17,55.10675,-0.7948589,7.961418,36.55555,28.32128,44.75901,-4.570632,-0.4441859,0.1400836,-35.15147,-8.447793,45.05199,0,0,0,124.515,-110.5646,-81.50893,-10.65206,-111.0334,-35.10307,0.001067912,-0.1257102,0.09433498,0,0.3,0,0,0,0,
6.38223E+17,54.84759,0.3039166,7.821334,36.84853,29.4932,44.83226,-4.570632,-0.4441859,0.1400836,-35.22471,-8.447793,45.05199,0,0,0,123.8658,-108.0521,-81.12624,-10.65206,-111.0334,-35.10307,0.001067912,-0.1257102,0.09433498,0,0.3,0,0,0,0,
6.38223E+17,53.76383,4.184699,7.00418,37.36125,30.15241,44.83226,-4.570632,-0.4441859,0.1400836,-35.22471,-8.447793,45.05199,0,0,0,120.3875,-99.27405,-80.12289,-10.65206,-111.0334,-35.10307,0.001067912,-0.1257102,0.09433498,0,0.3,0,0,0,0,
6.38223E+17,52.04396,10.14614,6.046942,37.14151,28.68751,45.05199,-4.570632,-0.4441859,0.1400836,-35.22471,-8.447793,45.05199,0,0,0,114.5761,-85.76717,-78.97478,-10.65206,-111.0334,-35.10307,0.001067912,-0.1257102,0.09433498,0,0.3,0,0,0,0,
6.38223E+17,49.0754,17.37,5.136398,36.18932,24.95201,46.29716,-4.570632,-0.4441859,0.1400836,-35.22471,-8.447793,45.05199,0,0,0,105.1811,-69.65405,-77.16017,-10.65206,-111.0334,-35.10307,0.001067912,-0.1257102,0.09433498,0,0.3,0,0,0,0,
6.38223E+17,45.70633,22.4197,4.692801,34.3582,21.07001,47.24934,-4.570632,-0.4441859,0.1400836,-35.22471,-8.447793,45.05199,0,0,0,96.04238,-58.69485,-74.64687,-10.65206,-111.0334,-35.10307,0.001067912,-0.1257102,0.09433498,0,0.3,0,0,0,0,
6.38223E+17,43.68017,24.80427,4.599411,32.67356,18.9459,47.61557,-4.570632,-0.4441859,0.1400836,-35.22471,-8.447793,45.05199,0,0,0,90.98465,-53.62761,-73.07401,-10.65206,-111.0334,-35.10307,0.001067912,-0.1257102,0.09433498,0,0.3,0,0,0,0,
6.38223E+17,39.69854,28.70843,4.669453,28.57183,14.91741,47.9818,-4.570632,-0.4441859,0.1400836,-35.22471,-8.447793,45.05199,0,0,0,81.64073,-45.50238,-70.00814,-10.65206,-111.0334,-35.10307,0.001067912,-0.1257102,0.09433498,0,0.3,0,0,0,0,
6.38223E+17,34.91586,33.61786,5.299829,22.12625,9.8635,45.85769,-4.570632,-0.4441859,0.1400836,-35.22471,-8.447793,45.05199,0,0,0,70.61037,-35.60055,-67.19211,-10.65206,-111.0334,-35.10307,0.001067912,-0.1257102,0.09433498,0,0.3,0,0,0,0,
6.38223E+17,34.02058,34.88028,5.556649,20.36837,8.545086,44.39278,-4.570632,-0.4441859,0.1400836,-35.22471,-8.447793,45.05199,0,0,0,68.42894,-33.11538,-66.9785,-10.65206,-111.0334,-35.10307,0.001067912,-0.1257102,0.09433498,0,0.3,0,0,0,0,
6.38223E+17,32.37139,37.07783,5.369871,16.8526,5.981505,41.53622,-4.570632,-0.4441859,0.1400836,-35.22471,-8.521038,45.05199,0,0,0,63.64278,-29.01814,-67.95424,-10.65206,-111.0334,-35.10307,0.001067912,-0.1257102,0.09433498,0,0.3,0,0,0,0,
6.38223E+17,31.64103,38.62079,3.945688,13.70306,4.003886,38.24019,-4.570632,-0.4441859,0.1400836,-35.22471,-8.447793,45.05199,0,0,0,59.46894,-26.45177,-71.83953,-10.65206,-111.0334,-35.10307,0.001067912,-0.1257102,0.09433498,0,0.3,0,0,0,0,
6.38223E+17,31.24051,39.18187,2.358074,10.48027,2.465737,31.79461,-4.570632,-0.4441859,0.1400836,-35.22471,-8.447793,45.05199,0,0,0,56.45416,-25.63868,-75.28166,-10.65206,-111.0334,-35.10307,0.001067912,-0.1257102,0.09433498,0,0.3,0,0,0,0,
6.38223E+17,30.53371,39.0416,1.44753,8.649141,2.172756,27.61964,-4.570632,-0.4441859,0.1400836,-35.22471,-8.447793,45.05199,0,0,0,54.33039,-25.96235,-76.23926,-10.65206,-111.0334,-35.10307,0.001067912,-0.1257102,0.09433498,0,0.3,0,0,0,0,
6.38223E+17,27.47091,38.73769,0.6537234,5.499599,2.465737,23.07844,-4.570632,-0.4441859,0.1400836,-35.22471,-8.447793,45.05199,0,0,0,48.68402,-26.54679,-74.71283,-10.65206,-111.0334,-35.10307,0.001067912,-0.1257102,0.09433498,0,0.3,0,0,0,0,
6.38223E+17,25.0678,38.52728,0.4902926,3.448734,2.685472,21.54029,-4.570632,-0.4441859,0.1400836,-35.22471,-8.447793,45.05199,0,0,0,44.68339,-26.93311,-72.82146,-10.65206,-111.0334,-35.10307,0.001067912,-0.1257102,0.09433498,0,0.3,0,0,0,0,
6.38223E+17,15.92653,37.28823,0.6303762,-5.853402,3.051698,18.39075,-4.570632,-0.4441859,0.1400836,-35.22471,-8.447793,45.05199,0,0,0,29.51498,-29.20516,-64.91868,-10.65206,-111.0334,-35.10307,0.001067912,-0.1257102,0.09433498,0,0.3,0,0,0,0,
6.38223E+17,12.8873,36.56351,0.8638488,-9.808641,3.124943,17.36532,-4.570632,-0.4441859,0.1400836,-35.22471,-8.447793,45.05199,0,0,0,24.33675,-30.54645,-61.98181,-10.65206,-111.0334,-35.10307,0.001067912,-0.1257102,0.09433498,0,0.3,0,0,0,0,
6.38223E+17,7.539187,34.22569,1.354141,-18.52482,3.271434,15.68068,-4.570632,-0.4441859,0.1400836,-35.22471,-8.447793,45.05199,0,0,0,14.87973,-34.9595,-55.92147,-10.65206,-111.0334,-35.10307,0.001067912,-0.1257102,0.09433498,0,0.3,0,0,0,0,
6.38223E+17,4.735552,30.22802,1.44753,-26.80152,4.003886,15.16796,-4.570632,-0.4441859,0.1400836,-35.22471,-8.447793,45.05199,0,0,0,9.790164,-42.82339,-50.16796,-10.65206,-111.0334,-35.10307,0.001067912,-0.1257102,0.09433498,0,0.3,0,0,0,0,
6.38223E+17,5.136071,24.00941,0.9805852,-32.4414,7.006938,16.55962,-4.570632,-0.4441859,0.1400836,-35.22471,-8.447793,45.12524,0,0,0,11.10911,-55.72212,-44.75378,-10.65206,-111.0334,-35.10307,0.001067912,-0.1257102,0.09433498,0,0.3,0,0,0,0,
6.38223E+17,6.47899,20.12863,0.6070289,-33.68657,9.936745,18.53724,-4.570632,-0.4441859,0.1400836,-35.22471,-8.447793,45.05199,0,0,0,14.28744,-64.10292,-42.5406,-10.65206,-111.0334,-35.10307,0.001067912,-0.1257102,0.09433498,0,0.3,0,0,0,0,
6.38223E+17,9.636024,16.13096,0.2101254,-33.17385,14.55119,21.68678,-4.570632,-0.4441859,0.1400836,-35.22471,-8.447793,45.12524,0,0,0,21.52433,-72.94997,-41.57532,-10.65206,-111.0334,-35.10307,0.001067912,-0.1257102,0.09433498,0,0.3,0,0,0,0,
6.38223E+17,11.66218,14.93867,-0.0700418,-31.85544,16.6753,23.29818,-4.570632,-0.4441859,0.1400836,-35.22471,-8.447793,45.05199,0,0,0,26.0115,-75.62428,-42.32635,-10.65206,-111.0334,-35.10307,0.001067912,-0.1257102,0.09433498,0,0.3,0,0,0,0,
6.38223E+17,20.59141,14.30746,-0.9805852,-22.62654,22.31518,28.13236,-4.570632,-0.4441859,0.1400836,-35.22471,-8.447793,45.05199,0,0,0,44.64209,-77.02633,-49.52753,-10.65206,-111.0334,-35.10307,0.001067912,-0.1257102,0.09433498,0,0.3,0,0,0,0,
6.38223E+17,25.23272,14.30746,-0.8405016,-14.78931,23.92657,30.32971,-4.570632,-0.4441859,0.1400836,-35.22471,-8.447793,45.05199,0,0,0,54.2495,-77.03151,-53.23462,-10.65206,-111.0334,-35.10307,0.001067912,-0.1257102,0.09433498,0,0.3,0,0,0,0,
6.38223E+17,27.18819,14.30746,-0.7471125,-9.881886,24.65902,31.2819,-4.570632,-0.4441859,0.1400836,-35.22471,-8.447793,45.05199,0,0,0,58.24528,-77.03452,-54.95948,-10.65206,-111.0334,-35.10307,0.001067912,-0.1257102,0.09433498,0,0.3,0,0,0,0,
6.38223E+17,28.24839,14.30746,-0.7471125,-3.729292,25.17174,32.23409,-4.570632,-0.4441859,0.1400836,-35.22471,-8.447793,45.05199,0,0,0,60.33336,-77.03452,-56.0566,-10.65206,-111.0334,-35.10307,0.001067912,-0.1257102,0.09433498,0,0.3,0,0,0,0,
6.38223E+17,25.32696,14.30746,-1.02728,0.8119082,25.68446,34.43144,-4.570632,-0.4441859,0.1400836,-35.22471,-8.447793,45.05199,0,0,0,54.25283,-77.02442,-53.71687,-10.65206,-111.0334,-35.10307,0.001067912,-0.1257102,0.09433498,0,0.3,0,0,0,0,
6.38223E+17,21.84008,14.30746,-1.003932,0.4456824,25.83095,36.11608,-4.570632,-0.4441859,0.1400836,-35.22471,-8.447793,45.05199,0,0,0,47.20064,-77.02539,-50.57901,-10.65206,-111.0334,-35.10307,0.001067912,-0.1257102,0.09433498,0,0.3,0,0,0,0,
6.38223E+17,14.0653,14.14381,0,-3.949028,25.97744,38.75291,-4.570632,-0.4441859,0.1400836,-35.22471,-8.447793,45.05199,0,0,0,31.42529,-77.41505,-42.91917,-10.65206,-111.0334,-35.10307,0.001067912,-0.1257102,0.09433498,0,0.3,0,0,0,0,
6.38223E+17,6.785269,13.76976,2.381421,-12.44547,25.39147,40.65728,-4.570632,-0.4441859,0.1400836,-35.22471,-8.447793,45.05199,0,0,0,15.95697,-78.14474,-34.23752,-10.65206,-111.0334,-35.10307,0.001067912,-0.1257102,0.09433498,0,0.3,0,0,0,0,
6.38223E+17,2.049716,13.41909,4.552717,-23.13926,23.99982,42.78139,-4.570632,-0.4441859,0.1400836,-35.22471,-8.374548,45.05199,0,0,0,5.017857,-78.63245,-28.14557,-10.65206,-111.0334,-35.10307,0.001067912,-0.1257102,0.09433498,0,0.3,0,0,0,0,
6.38223E+17,0.6832389,13.34895,5.159746,-28.26642,23.26737,44.39278,-4.570632,-0.4441859,0.1400836,-35.22471,-8.447793,45.05199,0,0,0,1.690173,-78.67164,-26.62038,-10.65206,-111.0334,-35.10307,0.001067912,-0.1257102,0.09433498,0,0.3,0,0,0,0,
6.38223E+17,0.2120396,13.69963,5.439913,-31.48921,22.6814,46.00418,-4.570632,-0.4441859,0.1400836,-35.22471,-8.447793,45.05199,0,0,0,0.5262441,-77.81789,-26.15287,-10.65206,-111.0334,-35.10307,0.001067912,-0.1257102,0.09433498,0,0.3,0,0,0,0,
6.38223E+17,0.2827196,14.30746,5.486608,-32.00193,22.53491,46.80988,-4.570632,-0.4441859,0.1400836,-35.15147,-8.447793,45.05199,0,0,0,0.7005022,-76.43492,-26.38777,-10.65206,-111.0334,-35.10307,0.001067912,-0.1257102,0.09433498,0,0.3,0,0,0,0,
6.38223E+17,0.3769594,16.0842,5.813469,-31.56245,21.94895,47.61557,-4.570632,-0.4441859,0.1400836,-35.22471,-8.447793,45.05199,0,0,0,0.9318498,-72.36958,-26.71593,-10.65206,-111.0334,-35.10307,0.001067912,-0.1257102,0.09433498,0,0.3,0,0,0,0,
6.38223E+17,0.3769594,18.11811,6.677318,-30.61027,20.70378,47.9818,-4.570632,-0.4441859,0.1400836,-35.22471,-8.447793,45.05199,0,0,0,0.935841,-67.62669,-26.10929,-10.65206,-111.0334,-35.10307,0.001067912,-0.1257102,0.09433498,0,0.3,0,0,0,0,
6.38223E+17,0.4005193,20.29228,8.311626,-29.73133,18.87265,48.12829,-4.570632,-0.4441859,0.1400836,-35.22471,-8.447793,45.05199,0,0,0,1.009056,-62.35234,-24.00313,-10.65206,-111.0334,-35.10307,0.001067912,-0.1257102,0.09433498,0,0.3,0,0,0,0,
6.38223E+17,0.4005193,22.39632,10.10937,-28.99888,16.52881,48.27478,-4.570632,-0.4441859,0.1400836,-35.22471,-8.447793,45.05199,0,0,0,1.025467,-57.12186,-21.65549,-10.65206,-111.0334,-35.10307,0.001067912,-0.1257102,0.09433498,0,0.3,0,0,0,0,
6.38223E+17,0.3298394,24.40685,12.67757,-27.97344,13.45251,48.64101,-4.570632,-0.4441859,0.1400836,-35.22471,-8.447793,45.05199,0,0,0,0.8675348,-51.64702,-17.65386,-10.65206,-111.0334,-35.10307,0.001067912,-0.1257102,0.09433498,0,0.3,0,0,0,0,
6.38223E+17,0,25.90305,14.59204,-27.46073,11.18191,48.78749,-4.570632,-0.4441859,0.1400836,-35.22471,-8.447793,45.05199,0,0,0,0,-47.44478,-14.80155,-10.65206,-111.0334,-35.10307,0.001067912,-0.1257102,0.09433498,0,0.3,0,0,0,0,
6.38223E+17,-0.9895183,27.8902,16.69329,-27.38748,8.325351,48.86074,-4.570632,-0.4441859,0.1400836,-35.22471,-8.447793,45.05199,0,0,0,-2.696898,-42.00184,-12.20789,-10.65206,-111.0334,-35.10307,0.001067912,-0.1257102,0.09433498,0,0.3,0,0,0,0,
6.38223E+17,-1.814117,29.05911,17.86066,-27.68046,6.933692,48.78749,-4.570632,-0.4441859,0.1400836,-35.22471,-8.447793,45.05199,0,0,0,-4.984799,-38.80358,-10.96627,-10.65206,-111.0334,-35.10307,0.001067912,-0.1257102,0.09433498,0,0.3,0,0,0,0,
6.38223E+17,-5.513031,33.19705,21.82969,-31.04974,2.538982,47.68882,-4.570632,-0.4441859,0.1400836,-35.22471,-8.447793,45.05199,0,0,0,-15.48417,-27.4261,-7.92318,-10.65206,-111.0334,-35.10307,0.001067912,-0.1257102,0.09433498,0,0.3,0,0,0,0,
6.38223E+17,-6.926629,34.83352,23.23053,-33.02736,0.9275885,47.1761,-4.570632,-0.4441859,0.1400836,-35.22471,-8.447793,45.05199,0,0,0,-19.54332,-23.01998,-7.479606,-10.65206,-111.0334,-35.10307,0.001067912,-0.1257102,0.09433498,0,0.3,0,0,0,0,
6.38223E+17,-9.848064,38.05972,25.96216,-37.71505,-2.295199,46.22392,-4.570632,-0.4441859,0.1400836,-35.22471,-8.447793,45.05199,0,0,0,-27.94272,-14.33484,-7.384107,-10.65206,-111.0334,-35.10307,0.001067912,-0.1257102,0.09433498,0,0.3,0,0,0,0,
6.38223E+17,-12.8873,41.44955,28.50701,-43.35493,-5.444741,44.83226,-4.570632,-0.4441859,0.1400836,-35.22471,-8.447793,45.05199,0,0,0,-36.48713,-5.560059,-8.876372,-10.65206,-111.0334,-35.10307,0.001067912,-0.1257102,0.09433498,0,0.3,0,0,0,0,
6.38223E+17,-16.09145,45.68101,31.28534,-50.45971,-8.594284,43.00113,-4.570632,-0.4441859,0.1400836,-35.22471,-8.447793,45.05199,0,0,0,-45.01651,4.796939,-12.29928,-10.65206,-111.0334,-35.10307,0.001067912,-0.1257102,0.09433498,0,0.3,0,0,0,0,
6.38223E+17,-17.31657,47.52789,31.89237,-53.38951,-9.692961,42.26867,-4.570632,-0.4441859,0.1400836,-35.22471,-8.447793,45.05199,0,0,0,-47.77127,8.490005,-15.13019,-10.65206,-111.0334,-35.10307,0.001067912,-0.1257102,0.09433498,0,0.3,0,0,0,0,
6.38223E+17,-18.82441,50.09949,32.12584,-56.6123,-10.64515,41.09675,-4.570632,-0.4441859,0.1400836,-35.22471,-8.447793,45.05199,0,0,0,-50.48193,12.71897,-20.26712,-10.65206,-111.0334,-35.10307,0.001067912,-0.1257102,0.09433498,0,0.3,0,0,0,0,
6.38223E+17,-20.21445,52.3438,32.19588,-58.29694,-11.3776,39.85158,-4.570632,-0.4441859,0.1400836,-35.22471,-8.447793,45.05199,0,0,0,-52.70007,16.07699,-25.22678,-10.65206,-111.0334,-35.10307,0.001067912,-0.1257102,0.09433498,0,0.3,0,0,0,0,
6.38223E+17,-21.86364,54.84526,32.17253,-59.76185,-11.81707,37.58098,-4.570632,-0.4441859,0.1400836,-35.22471,-8.447793,45.05199,0,0,0,-55.03539,19.50305,-31.19376,-10.65206,-111.0334,-35.10307,0.001067912,-0.1257102,0.09433498,0,0.3,0,0,0,0,
6.38223E+17,-22.68824,56.78566,31.84567,-60.71403,-12.25654,35.60336,-4.570632,-0.4441859,0.1400836,-35.22471,-8.447793,45.05199,0,0,0,-55.31385,21.63709,-36.04174,-10.65206,-111.0334,-35.10307,0.001067912,-0.1257102,0.09433498,0,0.3,0,0,0,0,
6.38223E+17,-23.0652,57.79092,31.37873,-61.00701,-12.62277,34.3582,-4.570632,-0.4441859,0.1400836,-35.22471,-8.447793,45.05199,0,0,0,-55.04929,22.3318,-39.07122,-10.65206,-111.0334,-35.10307,0.001067912,-0.1257102,0.09433498,0,0.3,0,0,0,0,
6.38223E+17,-23.67776,59.42739,30.14132,-60.64079,-13.13548,31.79461,-4.570632,-0.4441859,0.1400836,-35.22471,-8.447793,45.05199,0,0,0,-54.1288,22.84271,-44.911,-10.65206,-111.0334,-35.10307,0.001067912,-0.1257102,0.09433498,0,0.3,0,0,0,0,
6.38223E+17,-24.361,60.36252,28.50701,-59.6886,-13.35522,28.49858,-4.570632,-0.4441859,0.1400836,-35.22471,-8.447793,45.05199,0,0,0,-53.45239,22.07156,-50.30133,-10.65206,-111.0334,-35.10307,0.001067912,-0.1257102,0.09433498,0,0.3,0,0,0,0,
6.38223E+17,-25.0678,60.73657,26.61588,-58.66317,-13.06224,24.68983,-4.570632,-0.4441859,0.1400836,-35.22471,-8.447793,45.05199,0,0,0,-52.93022,20.46316,-55.19057,-10.65206,-111.0334,-35.10307,0.001067912,-0.1257102,0.09433498,0,0.3,0,0,0,0,
6.38223E+17,-25.98664,60.75995,25.44852,-58.07721,-12.47628,20.36837,-4.570632,-0.4441859,0.1400836,-35.22471,-8.447793,45.05199,0,0,0,-53.64759,19.29737,-58.29101,-10.65206,-111.0334,-35.10307,0.001067912,-0.1257102,0.09433498,0,0.3,0,0,0,0,
6.38223E+17,-27.47091,60.52617,25.49521,-58.51668,-11.96356,17.43856,-4.570632,-0.4441859,0.1400836,-35.22471,-8.447793,45.05199,0,0,0,-56.74442,19.07737,-59.20974,-10.65206,-111.0334,-35.10307,0.001067912,-0.1257102,0.09433498,0,0.3,0,0,0,0,
6.38223E+17,-29.96827,58.74942,26.33572,-60.93377,-11.3776,15.82717,-4.570632,-0.4441859,0.1400836,-35.22471,-8.447793,45.05199,0,0,0,-64.10725,17.84219,-57.17085,-10.65206,-111.0334,-35.10307,0.001067912,-0.1257102,0.09433498,0,0.3,0,0,0,0,
6.38223E+17,-31.73527,56.69214,27.08283,-64.01007,-10.42541,15.31445,-4.570632,-0.4441859,0.1400836,-35.22471,-8.447793,45.05199,0,0,0,-70.45118,16.06679,-54.43672,-10.65206,-111.0334,-35.10307,0.001067912,-0.1257102,0.09433498,0,0.3,0,0,0,0,
6.38223E+17,-33.3609,53.69973,28.04007,-67.89206,-8.667529,15.3877,-4.570632,-0.4441859,0.1400836,-35.22471,-8.447793,45.12524,0,0,0,-77.88489,13.12291,-50.05581,-10.65206,-111.0334,-35.10307,0.001067912,-0.1257102,0.09433498,0,0.3,0,0,0,0,
6.38223E+17,-33.97346,51.99313,28.50701,-69.86968,-7.642097,15.97366,-4.570632,-0.4441859,0.1400836,-35.22471,-8.447793,45.12524,0,0,0,-81.44892,11.23891,-47.47628,-10.65206,-111.0334,-35.10307,0.001067912,-0.1257102,0.09433498,0,0.3,0,0,0,0,
6.38223E+17,-34.6567,47.99545,28.97396,-73.45869,-5.444741,17.80479,-4.570632,-0.4441859,0.1400836,-35.22471,-8.447793,45.05199,0,0,0,-87.47825,5.781366,-41.81116,-10.65206,-111.0334,-35.10307,0.001067912,-0.1257102,0.09433498,0,0.3,0,0,0,0,
6.38223E+17,-34.79806,44.16143,28.95061,-75.43631,-3.393876,19.78241,-4.570632,-0.4441859,0.1400836,-35.22471,-8.447793,45.05199,0,0,0,-91.43037,-0.4336414,-36.78944,-10.65206,-111.0334,-35.10307,0.001067912,-0.1257102,0.09433498,0,0.3,0,0,0,0,
6.38223E+17,-34.72738,40.25727,28.27354,-76.75472,-1.416257,21.46704,-4.570632,-0.4441859,0.1400836,-35.22471,-8.447793,45.05199,0,0,0,-93.95695,-7.917301,-32.79739,-10.65206,-111.0334,-35.10307,0.001067912,-0.1257102,0.09433498,0,0.3,0,0,0,0,
6.38223E+17,-34.0677,36.37648,26.24233,-77.1942,0.4881175,22.34599,-4.570632,-0.4441859,0.1400836,-35.22471,-8.447793,45.05199,0,0,0,-93.17245,-17.16753,-30.56764,-10.65206,-111.0334,-35.10307,0.001067912,-0.1257102,0.09433498,0,0.3,0,0,0,0,
6.38223E+17,-32.11223,31.30341,21.75965,-75.72929,2.905208,22.93195,-4.570632,-0.4441859,0.1400836,-35.22471,-8.447793,45.05199,0,0,0,-86.84553,-31.21377,-29.97197,-10.65206,-111.0334,-35.10307,0.001067912,-0.1257102,0.09433498,0,0.3,0,0,0,0,
6.38223E+17,-30.51015,28.66168,18.49104,-73.97141,4.736337,22.93195,-4.570632,-0.4441859,0.1400836,-35.15147,-8.447793,45.05199,0,0,0,-80.87672,-39.15602,-31.10419,-10.65206,-111.0334,-35.10307,0.001067912,-0.1257102,0.09433498,0,0.3,0,0,0,0,
6.38223E+17,-27.96567,26.16021,14.00836,-70.96836,7.299919,21.76003,-4.570632,-0.4441859,0.1400836,-35.22471,-8.521038,45.05199,0,0,0,-71.26492,-47.24253,-34.12624,-10.65206,-111.0334,-35.10307,0.001067912,-0.1257102,0.09433498,0,0.3,0,0,0,0,
6.38223E+17,-24.99712,25.43548,9.73581,-67.08636,9.497273,19.70916,-4.570632,-0.4441859,0.1400836,-35.22471,-8.447793,45.05199,0,0,0,-60.41713,-50.8064,-38.76804,-10.65206,-111.0334,-35.10307,0.001067912,-0.1257102,0.09433498,0,0.3,0,0,0,0,
6.38223E+17,-21.5338,25.48224,6.140331,-61.9592,10.96218,17.07234,-4.570632,-0.4441859,0.1400836,-35.22471,-8.447793,45.05199,0,0,0,-49.42006,-51.86361,-43.10662,-10.65206,-111.0334,-35.10307,0.001067912,-0.1257102,0.09433498,0,0.3,0,0,0,0,
6.38223E+17,-20.12021,25.50562,5.04301,-59.54211,11.47489,15.90041,-4.570632,-0.4441859,0.1400836,-35.22471,-8.447793,45.05199,0,0,0,-45.43296,-52.06334,-44.33416,-10.65206,-111.0334,-35.10307,0.001067912,-0.1257102,0.09433498,0,0.3,0,0,0,0,
6.38223E+17,-18.32965,25.55238,4.039077,-55.22065,12.28059,14.21577,-4.570632,-0.4441859,0.1400836,-35.22471,-8.447793,45.05199,0,0,0,-40.78853,-52.15014,-45.23064,-10.65206,-111.0334,-35.10307,0.001067912,-0.1257102,0.09433498,0,0.3,0,0,0,0,
6.38223E+17,-18.09405,25.76278,3.992383,-52.43733,12.79331,12.89736,-4.570632,-0.4441859,0.1400836,-35.22471,-8.447793,45.05199,0,0,0,-40.1824,-51.71634,-45.36855,-10.65206,-111.0334,-35.10307,0.001067912,-0.1257102,0.09433498,0,0.3,0,0,0,0,
6.38223E+17,-18.42389,25.87967,4.576064,-50.89918,12.79331,11.79868,-4.570632,-0.4441859,0.1400836,-35.22471,-8.447793,45.05199,0,0,0,-41.28039,-51.36996,-44.42911,-10.65206,-111.0334,-35.10307,0.001067912,-0.1257102,0.09433498,0,0.3,0,0,0,0,
6.38223E+17,-19.10713,25.90305,5.416566,-50.6062,12.72006,11.65219,-4.570632,-0.4441859,0.1400836,-35.22471,-8.447793,45.05199,0,0,0,-43.38526,-51.15065,-43.11125,-10.65206,-111.0334,-35.10307,0.001067912,-0.1257102,0.09433498,0,0.3,0,0,0,0,
6.38223E+17,-20.75632,25.97318,7.097569,-51.19216,12.42708,11.5057,-4.570632,-0.4441859,0.1400836,-35.22471,-8.447793,45.05199,0,0,0,-48.32456,-50.57747,-40.842,-10.65206,-111.0334,-35.10307,0.001067912,-0.1257102,0.09433498,0,0.3,0,0,0,0,
6.38223E+17,-22.7118,26.04332,9.198823,-52.73031,11.84112,11.43246,-4.570632,-0.4441859,0.1400836,-35.22471,-8.447793,45.05199,0,0,0,-54.48874,-49.73767,-38.16581,-10.65206,-111.0334,-35.10307,0.001067912,-0.1257102,0.09433498,0,0.3,0,0,0,0,
6.38223E+17,-25.04424,26.04332,12.65422,-55.58687,10.88893,11.94517,-4.570632,-0.4441859,0.1400836,-35.22471,-8.447793,45.05199,0,0,0,-63.08389,-48.21352,-33.33842,-10.65206,-111.0334,-35.10307,0.001067912,-0.1257102,0.09433498,0,0.3,0,0,0,0,
6.38223E+17,-26.15156,25.97318,14.94225,-57.63773,10.15648,12.82412,-4.570632,-0.4441859,0.1400836,-35.22471,-8.447793,45.05199,0,0,0,-67.99194,-47.09024,-29.87671,-10.65206,-111.0334,-35.10307,0.001067912,-0.1257102,0.09433498,0,0.3,0,0,0,0,
6.38223E+17,-26.76412,25.83291,16.55321,-58.95615,9.643764,13.7763,-4.570632,-0.4441859,0.1400836,-35.22471,-8.447793,45.05199,0,0,0,-71.15766,-46.36636,-27.26228,-10.65206,-111.0334,-35.10307,0.001067912,-0.1257102,0.09433498,0,0.3,0,0,0,0,
6.38223E+17,-27.75363,25.13157,19.6584,-61.22675,8.911312,16.48637,-4.570632,-0.4441859,0.1400836,-35.22471,-8.447793,45.05199,0,0,0,-77.10896,-45.59418,-21.81253,-10.65206,-111.0334,-35.10307,0.001067912,-0.1257102,0.09433498,0,0.3,0,0,0,0,
6.38223E+17,-28.50755,23.68212,22.50677,-63.27761,8.618331,19.70916,-4.570632,-0.4441859,0.1400836,-35.22471,-8.447793,45.05199,0,0,0,-82.64759,-46.28168,-16.17991,-10.65206,-111.0334,-35.10307,0.001067912,-0.1257102,0.09433498,0,0.3,0,0,0,0,
6.38223E+17,-28.83739,21.32092,24.37455,-65.0355,8.764822,23.37142,-4.570632,-0.4441859,0.1400836,-35.22471,-8.447793,45.05199,0,0,0,-86.46014,-49.62922,-11.32242,-10.65206,-111.0334,-35.10307,0.001067912,-0.1257102,0.09433498,0,0.3,0,0,0,0,
6.38223E+17,-28.86095,18.35189,25.70534,-65.91444,9.570518,27.10692,-4.570632,-0.4441859,0.1400836,-35.22471,-8.521038,45.05199,0,0,0,-89.01087,-54.8177,-6.84703,-10.65206,-111.0334,-35.10307,0.001067912,-0.1257102,0.09433498,0,0.3,0,0,0,0,
6.38223E+17,-28.86095,15.17245,26.70927,-66.13418,11.03542,30.32971,-4.570632,-0.4441859,0.1400836,-35.22471,-8.521038,45.12524,0,0,0,-91.05271,-60.87032,-3.142285,-10.65206,-111.0334,-35.10307,0.001067912,-0.1257102,0.09433498,0,0.3,0,0,0,0,
6.38223E+17,-28.55467,11.24492,27.52643,-65.76794,12.79331,33.40601,-4.570632,-0.4441859,0.1400836,-35.22471,-8.447793,45.12524,0,0,0,-91.97561,-68.90079,0.6632034,-10.65206,-111.0334,-35.10307,0.001067912,-0.1257102,0.09433498,0,0.3,0,0,0,0,
6.38223E+17,-28.15415,8.953853,27.66651,-65.18199,13.74549,35.0174,-4.570632,-0.4441859,0.1400836,-35.15147,-8.447793,45.05199,0,0,0,-91.3694,-73.99901,2.381114,-10.65206,-111.0334,-35.10307,0.001067912,-0.1257102,0.09433498,0,0.3,0,0,0,0,
6.38223E+17,-27.75363,7.317377,27.73655,-64.66927,14.4047,36.04284,-4.570632,-0.4441859,0.1400836,-35.22471,-8.447793,45.05199,0,0,0,-90.49191,-77.69349,3.620345,-10.65206,-111.0334,-35.10307,0.001067912,-0.1257102,0.09433498,0,0.3,0,0,0,0,
6.38223E+17,-26.81124,4.137942,27.73655,-63.71709,15.8696,37.87396,-4.570632,-0.4441859,0.1400836,-35.22471,-8.447793,45.05199,0,0,0,-87.98429,-85.05541,5.744449,-10.65206,-111.0334,-35.10307,0.001067912,-0.1257102,0.09433498,0,0.3,0,0,0,0,
6.38223E+17,-25.93952,1.309179,27.73655,-62.54516,17.55424,39.77834,-4.570632,-0.4441859,0.1400836,-35.22471,-8.447793,45.05199,0,0,0,-85.4623,-91.63096,7.344165,-10.65206,-111.0334,-35.10307,0.001067912,-0.1257102,0.09433498,0,0.3,0,0,0,0,
6.38223E+17,-25.04424,-1.005263,27.40969,-61.1535,19.16564,42.04893,-4.570632,-0.4441859,0.1400836,-35.22471,-8.447793,45.05199,0,0,0,-82.42725,-97.36932,8.060069,-10.65206,-111.0334,-35.10307,0.001067912,-0.1257102,0.09433498,0,0.3,0,0,0,0,
6.38223E+17,-24.57304,-1.075397,26.63923,-60.42105,19.97133,43.00113,-4.570632,-0.4441859,0.1400836,-35.22471,-8.447793,45.05199,0,0,0,-80.30819,-98.34729,7.276588,-10.65206,-111.0334,-35.10307,0.001067912,-0.1257102,0.09433498,0,0.3,0,0,0,0,
6.38223E+17,-23.72488,-1.028641,25.1917,-59.02939,21.07001,44.17305,-4.570632,-0.4441859,0.1400836,-35.22471,-8.447793,45.05199,0,0,0,-76.48131,-99.71084,5.673915,-10.65206,-111.0334,-35.10307,0.001067912,-0.1257102,0.09433498,0,0.3,0,0,0,0,
6.38223E+17,-22.64112,-1.005263,23.65078,-57.93071,21.72922,44.68576,-4.570632,-0.4441859,0.1400836,-35.22471,-8.447793,45.05199,0,0,0,-71.91948,-101.1391,4.076528,-10.65206,-111.0334,-35.10307,0.001067912,-0.1257102,0.09433498,0,0.3,0,0,0,0,
6.38223E+17,-21.46313,-1.005263,22.24994,-56.97853,22.09544,44.68576,-4.570632,-0.4441859,0.1400836,-35.22471,-8.447793,45.05199,0,0,0,-67.26096,-102.4104,2.724681,-10.65206,-111.0334,-35.10307,0.001067912,-0.1257102,0.09433498,0,0.3,0,0,0,0,
6.38223E+17,-20.33225,-1.005263,20.82576,-56.02634,22.46167,44.17305,-4.570632,-0.4441859,0.1400836,-35.22471,-8.447793,45.05199,0,0,0,-62.80021,-103.6272,1.127822,-10.65206,-111.0334,-35.10307,0.001067912,-0.1257102,0.09433498,0,0.3,0,0,0,0,
6.38223E+17,-18.56525,-1.005263,18.46769,-54.19521,23.4871,43.22086,-4.570632,-0.4441859,0.1400836,-35.22471,-8.447793,45.05199,0,0,0,-55.89898,-105.4723,-1.915678,-10.65206,-111.0334,-35.10307,0.001067912,-0.1257102,0.09433498,0,0.3,0,0,0,0,
6.38223E+17,-16.58621,-1.005263,15.99288,-51.92461,24.65902,41.75596,-4.570632,-0.4441859,0.1400836,-35.15147,-8.447793,45.05199,0,0,0,-48.54774,-107.1783,-5.356603,-10.65206,-111.0334,-35.10307,0.001067912,-0.1257102,0.09433498,0,0.3,0,0,0,0,
6.38223E+17,-14.37158,-1.005263,13.61146,-49.58077,26.05068,39.85158,-4.570632,-0.4441859,0.1400836,-35.22471,-8.447793,45.05199,0,0,0,-40.88296,-108.5943,-8.792826,-10.65206,-111.0334,-35.10307,0.001067912,-0.1257102,0.09433498,0,0.3,0,0,0,0,
6.38223E+17,-13.26426,-1.005263,12.44409,-48.18911,26.63664,38.82615,-4.570632,-0.4441859,0.1400836,-35.22471,-8.447793,45.05199,0,0,0,-37.18454,-109.2067,-10.60888,-10.65206,-111.0334,-35.10307,0.001067912,-0.1257102,0.09433498,0,0.3,0,0,0,0,
6.38223E+17,-11.07318,-1.005263,10.20275,-45.2593,27.88181,36.99502,-4.570632,-0.4441859,0.1400836,-35.22471,-8.447793,45.05199,0,0,0,-30.14424,-110.2309,-14.32195,-10.65206,-111.0334,-35.10307,0.001067912,-0.1257102,0.09433498,0,0.3,0,0,0,0,
6.38223E+17,-8.811425,-1.005263,7.844682,-42.10976,29.20022,35.45687,-4.570632,-0.4441859,0.1400836,-35.22471,-8.447793,45.05199,0,0,0,-23.21183,-111.0916,-18.60821,-10.65206,-111.0334,-35.10307,0.001067912,-0.1257102,0.09433498,0,0.3,0,0,0,0,
6.38223E+17,-6.45543,-1.005263,5.626691,-38.74048,30.51864,34.13846,-4.570632,-0.4441859,0.1400836,-35.22471,-8.447793,45.05199,0,0,0,-16.46024,-111.697,-22.87428,-10.65206,-111.0334,-35.10307,0.001067912,-0.1257102,0.09433498,0,0.3,0,0,0,0,
6.38223E+17,-5.324551,-0.9818845,4.622759,-37.12909,30.95811,33.62574,-4.570632,-0.4441859,0.1400836,-35.22471,-8.447793,45.05199,0,0,0,-13.37002,-111.8513,-24.89395,-10.65206,-111.0334,-35.10307,0.001067912,-0.1257102,0.09433498,0,0.3,0,0,0,0,
6.38223E+17,-2.756516,-0.9818845,2.171296,-32.88087,31.83705,32.7468,-4.570632,-0.4441859,0.1400836,-35.22471,-8.447793,45.05199,0,0,0,-6.65506,-112.1894,-30.12744,-10.65206,-111.0334,-35.10307,0.001067912,-0.1257102,0.09433498,0,0.3,0,0,0,0,
6.38223E+17,-0.3298394,-0.9818845,-0.2101254,-28.33967,32.78923,32.67356,-4.570632,-0.4441859,0.1400836,-35.22471,-8.447793,45.05199,0,0,0,-0.7647349,-112.2842,-35.51083,-10.65206,-111.0334,-35.10307,0.001067912,-0.1257102,0.09433498,0,0.3,0,0,0,0,
6.38223E+17,2.049716,-0.9585064,-2.684936,-22.5533,33.74142,32.67356,-4.570632,-0.4441859,0.1400836,-35.22471,-8.447793,45.05199,0,0,0,4.545398,-112.0843,-41.3466,-10.65206,-111.0334,-35.10307,0.001067912,-0.1257102,0.09433498,0,0.3,0,0,0,0,
6.38223E+17,3.604674,-0.8649935,-4.109118,-18.37833,34.47387,32.82005,-4.570632,-0.4441859,0.1400836,-35.22471,-8.447793,45.05199,0,0,0,7.782254,-111.6703,-44.81543,-10.65206,-111.0334,-35.10307,0.001067912,-0.1257102,0.09433498,0,0.3,0,0,0,0,
6.38223E+17,5.136071,-0.5844551,-5.113051,-13.98362,34.98659,33.25952,-4.570632,-0.4441859,0.1400836,-35.22471,-8.447793,45.05199,0,0,0,10.87315,-110.8296,-47.37891,-10.65206,-111.0334,-35.10307,0.001067912,-0.1257102,0.09433498,0,0.3,0,0,0,0,
6.38223E+17,6.738149,-0.2104038,-5.509954,-8.490229,34.98659,34.3582,-4.570632,-0.4441859,0.1400836,-35.22471,-8.447793,45.05199,0,0,0,14.14379,-109.8736,-48.63763,-10.65206,-111.0334,-35.10307,0.001067912,-0.1257102,0.09433498,0,0.3,0,0,0,0,
6.38223E+17,7.798347,-0.116891,-5.416566,-4.022273,34.32739,36.26257,-4.570632,-0.4441859,0.1400836,-35.22471,-8.447793,45.05199,0,0,0,16.38583,-109.6766,-48.70484,-10.65206,-111.0334,-35.10307,0.001067912,-0.1257102,0.09433498,0,0.3,0,0,0,0,
6.38223E+17,7.963267,0.5376987,-4.109118,-0.7994855,33.22871,38.38668,-4.570632,-0.4441859,0.1400836,-35.22471,-8.447793,45.05199,0,0,0,17.14947,-108.4058,-45.75491,-10.65206,-111.0334,-35.10307,0.001067912,-0.1257102,0.09433498,0,0.3,0,0,0,0,
6.38223E+17,7.869027,1.42607,-2.871714,0.1527017,32.42301,39.63185,-4.570632,-0.4441859,0.1400836,-35.22471,-8.447793,45.05199,0,0,0,17.33651,-106.5139,-42.9145,-10.65206,-111.0334,-35.10307,0.001067912,-0.1257102,0.09433498,0,0.3,0,0,0,0,
6.38223E+17,7.232908,4.55875,0.4435981,1.178134,30.00592,42.56165,-4.570632,-0.4441859,0.1400836,-35.22471,-8.447793,45.12524,0,0,0,16.86604,-99.39718,-35.45544,-10.65206,-111.0334,-35.10307,0.001067912,-0.1257102,0.09433498,0,0.3,0,0,0,0,
6.38223E+17,5.93711,8.97723,3.338659,0.3724372,26.41691,44.83226,-4.570632,-0.4441859,0.1400836,-35.22471,-8.447793,45.05199,0,0,0,14.42762,-88.96548,-29.61567,-10.65206,-111.0334,-35.10307,0.001067912,-0.1257102,0.09433498,0,0.3,0,0,0,0,
6.38223E+17,3.628234,14.91529,7.471125,-3.070086,21.07001,46.15067,-4.570632,-0.4441859,0.1400836,-35.22471,-8.447793,45.05199,0,0,0,9.25163,-74.54488,-22.4469,-10.65206,-111.0334,-35.10307,0.001067912,-0.1257102,0.09433498,0,0.3,0,0,0,0,
6.38223E+17,1.979037,18.84283,10.2261,-6.219628,17.62749,46.5169,-4.570632,-0.4441859,0.1400836,-35.22471,-8.447793,45.05199,0,0,0,5.175848,-64.81322,-18.56184,-10.65206,-111.0334,-35.10307,0.001067912,-0.1257102,0.09433498,0,0.3,0,0,0,0,
6.38223E+17,0.6596789,21.74173,12.42074,-8.709964,15.06391,46.73663,-4.570632,-0.4441859,0.1400836,-35.22471,-8.447793,45.05199,0,0,0,1.75631,-57.48292,-15.81411,-10.65206,-111.0334,-35.10307,0.001067912,-0.1257102,0.09433498,0,0.3,0,0,0,0,
6.38223E+17,-2.026157,27.60966,17.34702,-14.78931,9.790254,46.88312,-4.570632,-0.4441859,0.1400836,-35.22471,-8.447793,45.05199,0,0,0,-5.583528,-42.13432,-10.5245,-10.65206,-111.0334,-35.10307,0.001067912,-0.1257102,0.09433498,0,0.3,0,0,0,0,
6.38223E+17,-4.287913,33.2438,22.6235,-21.38138,4.296866,46.88312,-4.570632,-0.4441859,0.1400836,-35.22471,-8.447793,45.05199,0,0,0,-12.174,-26.63621,-5.982818,-10.65206,-111.0334,-35.10307,0.001067912,-0.1257102,0.09433498,0,0.3,0,0,0,0,
6.38223E+17,-6.47899,38.17661,27.33965,-27.68046,-0.9035407,46.88312,-4.570632,-0.4441859,0.1400836,-35.22471,-8.447793,45.05199,0,0,0,-18.73921,-12.68279,-3.340062,-10.65206,-111.0334,-35.10307,0.001067912,-0.1257102,0.09433498,0,0.3,0,0,0,0,
6.38223E+17,-8.057507,41.00537,30.09463,-31.78219,-3.906592,46.95637,-4.570632,-0.4441859,0.1400836,-35.22471,-8.447793,45.12524,0,0,0,-23.47768,-4.529314,-2.505599,-10.65206,-111.0334,-35.10307,0.001067912,-0.1257102,0.09433498,0,0.3,0,0,0,0,
6.38223E+17,-10.60198,45.23682,34.67069,-39.17995,-8.228058,46.95637,-4.570632,-0.4441859,0.1400836,-35.22471,-8.447793,45.12524,0,0,0,-31.23326,8.359899,-1.488496,-10.65206,-111.0334,-35.10307,0.001067912,-0.1257102,0.09433498,0,0.3,0,0,0,0,
6.38223E+17,-12.95798,49.28125,39.38684,-48.3356,-12.47628,46.80988,-4.570632,-0.4441859,0.1400836,-35.22471,-8.447793,45.05199,0,0,0,-38.48077,21.35529,-1.111999,-10.65206,-111.0334,-35.10307,0.001067912,-0.1257102,0.09433498,0,0.3,0,0,0,0,
6.38223E+17,-14.86634,51.82948,42.2352,-55.9531,-15.33284,46.22392,-4.570632,-0.4441859,0.1400836,-35.22471,-8.447793,45.05199,0,0,0,-44.14083,29.45519,-2.063423,-10.65206,-111.0334,-35.10307,0.001067912,-0.1257102,0.09433498,0,0.3,0,0,0,0,
6.38223E+17,-15.76161,52.92825,43.37922,-59.76185,-16.35827,45.7112,-4.570632,-0.4441859,0.1400836,-35.22471,-8.447793,45.05199,0,0,0,-46.71406,32.82551,-2.842858,-10.65206,-111.0334,-35.10307,0.001067912,-0.1257102,0.09433498,0,0.3,0,0,0,0,
6.38223E+17,-17.43437,54.96216,45.38708,-65.98769,-17.5302,44.02656,-4.570632,-0.4441859,0.1400836,-35.22471,-8.447793,45.05199,0,0,0,-51.3795,38.87987,-4.741826,-10.65206,-111.0334,-35.10307,0.001067912,-0.1257102,0.09433498,0,0.3,0,0,0,0,
6.38223E+17,-19.08357,56.38823,46.81127,-71.0416,-17.82317,42.04893,-4.570632,-0.4441859,0.1400836,-35.22471,-8.447793,45.12524,0,0,0,-55.92214,43.13964,-6.706584,-10.65206,-111.0334,-35.10307,0.001067912,-0.1257102,0.09433498,0,0.3,0,0,0,0,
6.38223E+17,-20.92125,57.29997,47.62842,-75.43631,-17.01748,40.07132,-4.570632,-0.4441859,0.1400836,-35.22471,-8.447793,45.05199,0,0,0,-60.90385,45.69607,-9.035866,-10.65206,-111.0334,-35.10307,0.001067912,-0.1257102,0.09433498,0,0.3,0,0,0,0,
6.38223E+17,-22.33484,57.62727,47.88524,-77.92664,-16.21178,38.53317,-4.570632,-0.4441859,0.1400836,-35.22471,-8.447793,45.05199,0,0,0,-64.72417,46.54825,-10.80914,-10.65206,-111.0334,-35.10307,0.001067912,-0.1257102,0.09433498,0,0.3,0,0,0,0,
6.38223E+17,-23.183,57.62727,47.79185,-79.09857,-15.77231,37.80072,-4.570632,-0.4441859,0.1400836,-35.22471,-8.447793,45.12524,0,0,0,-66.99165,46.38714,-11.9186,-10.65206,-111.0334,-35.10307,0.001067912,-0.1257102,0.09433498,0,0.3,0,0,0,0,
6.38223E+17,-24.69084,57.32335,46.83461,-81.00294,-14.4539,36.18932,-4.570632,-0.4441859,0.1400836,-35.22471,-8.447793,45.05199,0,0,0,-70.70293,44.36921,-14.56605,-10.65206,-111.0334,-35.10307,0.001067912,-0.1257102,0.09433498,0,0.3,0,0,0,0,
6.38223E+17,-25.70392,56.27134,44.99018,-81.95513,-13.06224,34.3582,-4.570632,-0.4441859,0.1400836,-35.22471,-8.447793,45.05199,0,0,0,-73.0041,39.94521,-16.68523,-10.65206,-111.0334,-35.10307,0.001067912,-0.1257102,0.09433498,0,0.3,0,0,0,0,
6.38223E+17,-26.0102,55.6635,43.9629,-81.95513,-12.40303,33.47925,-4.570632,-0.4441859,0.1400836,-35.22471,-8.447793,45.12524,0,0,0,-73.57978,37.47839,-17.55721,-10.65206,-111.0334,-35.10307,0.001067912,-0.1257102,0.09433498,0,0.3,0,0,0,0,
6.38223E+17,-26.43428,53.93351,40.78767,-80.9297,-10.79164,31.50163,-4.570632,-0.4441859,0.1400836,-35.22471,-8.447793,45.05199,0,0,0,-73.72842,30.17736,-20.0479,-10.65206,-111.0334,-35.10307,0.001067912,-0.1257102,0.09433498,0,0.3,0,0,0,0,
6.38223E+17,-26.55208,51.82948,37.0988,-78.95209,-8.960509,29.15779,-4.570632,-0.4441859,0.1400836,-35.22471,-8.447793,45.05199,0,0,0,-72.79414,21.82693,-22.67926,-10.65206,-111.0334,-35.10307,0.001067912,-0.1257102,0.09433498,0,0.3,0,0,0,0,
6.38223E+17,-26.57564,49.25787,33.08308,-76.60824,-6.98289,26.66745,-4.570632,-0.4441859,0.1400836,-35.22471,-8.447793,45.05199,0,0,0,-71.50068,12.65195,-25.41467,-10.65206,-111.0334,-35.10307,0.001067912,-0.1257102,0.09433498,0,0.3,0,0,0,0,
6.38223E+17,-26.57564,47.15384,30.21136,-74.9236,-5.371496,24.83632,-4.570632,-0.4441859,0.1400836,-35.15147,-8.447793,45.05199,0,0,0,-70.58871,5.882103,-27.23775,-10.65206,-111.0334,-35.10307,0.001067912,-0.1257102,0.09433498,0,0.3,0,0,0,0,
6.38223E+17,-26.57564,45.09655,27.43304,-73.60519,-3.760103,22.71221,-4.570632,-0.4441859,0.1400836,-35.15147,-8.447793,45.12524,0,0,0,-69.59853,-0.5533213,-29.21722,-10.65206,-111.0334,-35.10307,0.001067912,-0.1257102,0.09433498,0,0.3,0,0,0,0,
6.38223E+17,-26.55208,42.31455,23.65078,-72.06703,-1.855728,19.19645,-4.570632,-0.4441859,0.1400836,-35.22471,-8.447793,45.05199,0,0,0,-67.9912,-9.028348,-32.29058,-10.65206,-111.0334,-35.10307,0.001067912,-0.1257102,0.09433498,0,0.3,0,0,0,0,
6.38223E+17,-26.4814,40.84172,21.87639,-71.33459,-0.9767859,17.43856,-4.570632,-0.4441859,0.1400836,-35.22471,-8.447793,45.05199,0,0,0,-67.13969,-13.19033,-33.57905,-10.65206,-111.0334,-35.10307,0.001067912,-0.1257102,0.09433498,0,0.3,0,0,0,0,
6.38223E+17,-26.03376,36.39986,16.71664,-69.43021,1.953021,11.79868,-4.570632,-0.4441859,0.1400836,-35.22471,-8.447793,45.12524,0,0,0,-63.94317,-25.23234,-37.44288,-10.65206,-111.0334,-35.10307,0.001067912,-0.1257102,0.09433498,0,0.3,0,0,0,0,
6.38223E+17,-25.8924,35.37122,15.57263,-69.06399,2.612227,10.33378,-4.570632,-0.4441859,0.1400836,-35.22471,-8.447793,45.05199,0,0,0,-63.11597,-27.91231,-38.32389,-10.65206,-111.0334,-35.10307,0.001067912,-0.1257102,0.09433498,0,0.3,0,0,0,0,
6.38223E+17,-25.4212,33.08016,12.70091,-68.03855,4.663092,7.110993,-4.570632,-0.4441859,0.1400836,-35.22471,-8.447793,45.05199,0,0,0,-60.54997,-33.95306,-40.95373,-10.65206,-111.0334,-35.10307,0.001067912,-0.1257102,0.09433498,0,0.3,0,0,0,0,
6.38223E+17,-24.66728,31.46706,9.969283,-66.93987,6.274486,4.547412,-4.570632,-0.4441859,0.1400836,-35.22471,-8.447793,45.05199,0,0,0,-57.10374,-38.3767,-44.01057,-10.65206,-111.0334,-35.10307,0.001067912,-0.1257102,0.09433498,0,0.3,0,0,0,0,
6.38223E+17,-23.6542,30.43842,7.541167,-65.47498,7.739389,2.130321,-4.570632,-0.4441859,0.1400836,-35.22471,-8.447793,45.05199,0,0,0,-53.14968,-41.28992,-47.00821,-10.65206,-111.0334,-35.10307,0.001067912,-0.1257102,0.09433498,0,0.3,0,0,0,0,
6.38223E+17,-22.9474,30.06437,6.257067,-64.66927,8.471841,0.738663,-4.570632,-0.4441859,0.1400836,-35.22471,-8.447793,45.05199,0,0,0,-50.66305,-42.40092,-48.69004,-10.65206,-111.0334,-35.10307,0.001067912,-0.1257102,0.09433498,0,0.3,0,0,0,0,
6.38223E+17,-21.43956,29.7137,4.085772,-62.98463,9.570518,-1.531937,-4.570632,-0.4441859,0.1400836,-35.15147,-8.447793,45.05199,0,0,0,-45.80596,-43.56399,-51.70414,-10.65206,-111.0334,-35.10307,0.001067912,-0.1257102,0.09433498,0,0.3,0,0,0,0,
6.38223E+17,-19.67257,29.55005,2.334727,-60.78728,10.6692,-3.363066,-4.570632,-0.4441859,0.1400836,-35.22471,-8.447793,45.05199,0,0,0,-40.88105,-44.12326,-54.00119,-10.65206,-111.0334,-35.10307,0.001067912,-0.1257102,0.09433498,0,0.3,0,0,0,0,
6.38223E+17,-17.78777,29.55005,1.02728,-58.29694,11.76787,-4.82797,-4.570632,-0.4441859,0.1400836,-35.22471,-8.447793,45.05199,0,0,0,-36.16882,-44.21253,-55.61464,-10.65206,-111.0334,-35.10307,0.001067912,-0.1257102,0.09433498,0,0.3,0,0,0,0,
6.38223E+17,-16.65689,29.55005,0.4669453,-56.75879,12.35384,-5.413931,-4.570632,-0.4441859,0.1400836,-35.22471,-8.447793,45.05199,0,0,0,-33.56302,-44.22953,-56.17205,-10.65206,-111.0334,-35.10307,0.001067912,-0.1257102,0.09433498,0,0.3,0,0,0,0,
6.38223E+17,-15.47889,29.55005,0,-54.78117,12.9398,-5.853402,-4.570632,-0.4441859,0.1400836,-35.22471,-8.447793,45.05199,0,0,0,-30.95968,-44.23396,-56.55309,-10.65206,-111.0334,-35.10307,0.001067912,-0.1257102,0.09433498,0,0.3,0,0,0,0,
6.38223E+17,-14.56006,29.55005,-0.1634309,-52.73031,13.52576,-5.999893,-4.570632,-0.4441859,0.1400836,-35.22471,-8.447793,45.05199,0,0,0,-29.0673,-44.23342,-56.43915,-10.65206,-111.0334,-35.10307,0.001067912,-0.1257102,0.09433498,0,0.3,0,0,0,0,
6.38223E+17,-14.25378,29.52667,-0.0700418,-51.26541,13.45251,-6.073137,-4.570632,-0.4441859,0.1400836,-35.22471,-8.447793,45.05199,0,0,0,-28.52877,-44.2812,-56.04871,-10.65206,-111.0334,-35.10307,0.001067912,-0.1257102,0.09433498,0,0.3,0,0,0,0,
6.38223E+17,-14.25378,29.29289,0.3969035,-50.45971,13.08629,-6.073137,-4.570632,-0.4441859,0.1400836,-35.22471,-8.447793,45.12524,0,0,0,-28.86214,-44.75209,-54.73644,-10.65206,-111.0334,-35.10307,0.001067912,-0.1257102,0.09433498,0,0.3,0,0,0,0,
6.38223E+17,-14.3009,29.03573,0.700418,-50.16673,13.01304,-6.073137,-4.570632,-0.4441859,0.1400836,-35.22471,-8.447793,45.05199,0,0,0,-29.20209,-45.26796,-53.79311,-10.65206,-111.0334,-35.10307,0.001067912,-0.1257102,0.09433498,0,0.3,0,0,0,0,
6.38223E+17,-14.70142,28.33438,1.54092,-49.87375,12.86655,-5.926647,-4.570632,-0.4441859,0.1400836,-35.22471,-8.447793,45.05199,0,0,0,-30.69735,-46.66167,-51.35044,-10.65206,-111.0334,-35.10307,0.001067912,-0.1257102,0.09433498,0,0.3,0,0,0,0,
6.38223E+17,-15.45534,27.3525,2.661588,-50.02024,12.72006,-5.267441,-4.570632,-0.4441859,0.1400836,-35.22471,-8.447793,45.05199,0,0,0,-33.21318,-48.58668,-48.22357,-10.65206,-111.0334,-35.10307,0.001067912,-0.1257102,0.09433498,0,0.3,0,0,0,0,
6.38223E+17,-16.60977,25.59913,4.342592,-51.26541,12.50033,-4.022273,-4.570632,-0.4441859,0.1400836,-35.22471,-8.447793,45.05199,0,0,0,-37.26293,-52.00035,-43.43182,-10.65206,-111.0334,-35.10307,0.001067912,-0.1257102,0.09433498,0,0.3,0,0,0,0,
6.38223E+17,-17.29301,24.64063,5.439913,-52.0711,12.35384,-3.070086,-4.570632,-0.4441859,0.1400836,-35.22471,-8.447793,45.05199,0,0,0,-39.78776,-53.80241,-40.5513,-10.65206,-111.0334,-35.10307,0.001067912,-0.1257102,0.09433498,0,0.3,0,0,0,0,
6.38223E+17,-18.65949,23.02753,7.681251,-53.31627,12.1341,-1.165711,-4.570632,-0.4441859,0.1400836,-35.22471,-8.447793,45.05199,0,0,0,-44.9674,-56.64048,-35.18958,-10.65206,-111.0334,-35.10307,0.001067912,-0.1257102,0.09433498,0,0.3,0,0,0,0,
6.38223E+17,-19.36629,22.18591,8.871961,-54.19521,11.98761,-0.2135241,-4.570632,-0.4441859,0.1400836,-35.15147,-8.447793,45.05199,0,0,0,-47.76566,-58.04981,-32.45689,-10.65206,-111.0334,-35.10307,0.001067912,-0.1257102,0.09433498,0,0.3,0,0,0,0,
6.38223E+17,-20.73277,20.33904,11.65029,-55.9531,11.69463,1.983831,-4.570632,-0.4441859,0.1400836,-35.22471,-8.447793,45.05199,0,0,0,-53.79685,-60.90371,-26.22663,-10.65206,-111.0334,-35.10307,0.001067912,-0.1257102,0.09433498,0,0.3,0,0,0,0,
6.38223E+17,-22.14636,18.65581,14.9189,-57.78423,11.25516,5.060128,-4.570632,-0.4441859,0.1400836,-35.22471,-8.447793,45.05199,0,0,0,-60.57013,-62.84863,-19.52935,-10.65206,-111.0334,-35.10307,0.001067912,-0.1257102,0.09433498,0,0.3,0,0,0,0,
6.38223E+17,-23.72488,16.83231,19.09806,-60.12807,10.81569,8.649141,-4.570632,-0.4441859,0.1400836,-35.22471,-8.447793,45.05199,0,0,0,-68.9085,-64.04605,-11.55708,-10.65206,-111.0334,-35.10307,0.001067912,-0.1257102,0.09433498,0,0.3,0,0,0,0,
6.38223E+17,-24.43168,15.85042,21.26936,-61.1535,10.52271,10.55352,-4.570632,-0.4441859,0.1400836,-35.22471,-8.447793,45.05199,0,0,0,-73.06502,-64.49544,-7.515492,-10.65206,-111.0334,-35.10307,0.001067912,-0.1257102,0.09433498,0,0.3,0,0,0,0,
6.38223E+17,-25.98664,13.5126,26.17229,-63.86357,10.15648,15.16796,-4.570632,-0.4441859,0.1400836,-35.22471,-8.447793,45.05199,0,0,0,-82.58276,-65.16941,1.070013,-10.65206,-111.0334,-35.10307,0.001067912,-0.1257102,0.09433498,0,0.3,0,0,0,0,
6.38223E+17,-27.28243,11.17478,30.3281,-66.35391,9.936745,19.70916,-4.570632,-0.4441859,0.1400836,-35.22471,-8.447793,45.05199,0,0,0,-90.83062,-65.90722,7.763553,-10.65206,-111.0334,-35.10307,0.001067912,-0.1257102,0.09433498,0,0.3,0,0,0,0,
6.38223E+17,-28.31907,9.421416,33.52667,-68.47802,9.936745,24.39685,-4.570632,-0.4441859,0.1400836,-35.22471,-8.447793,45.05199,0,0,0,-97.34484,-65.98571,12.29491,-10.65206,-111.0334,-35.10307,0.001067912,-0.1257102,0.09433498,0,0.3,0,0,0,0,
6.38223E+17,-28.69603,9.187634,34.60065,-69.28372,10.00999,26.44772,-4.570632,-0.4441859,0.1400836,-35.22471,-8.447793,45.05199,0,0,0,-99.56771,-65.12263,13.54405,-10.65206,-111.0334,-35.10307,0.001067912,-0.1257102,0.09433498,0,0.3,0,0,0,0,
6.38223E+17,-29.12011,9.935737,35.65128,-70.38239,10.15648,29.52402,-4.570632,-0.4441859,0.1400836,-35.22471,-8.447793,45.05199,0,0,0,-101.7438,-61.9988,14.29657,-10.65206,-111.0334,-35.10307,0.001067912,-0.1257102,0.09433498,0,0.3,0,0,0,0,
6.38223E+17,-29.35571,13.55936,35.8614,-71.11485,9.497273,31.64813,-4.570632,-0.4441859,0.1400836,-35.22471,-8.447793,45.05199,0,0,0,-101.8469,-53.45745,12.72621,-10.65206,-111.0334,-35.10307,0.001067912,-0.1257102,0.09433498,0,0.3,0,0,0,0,
6.38223E+17,-29.35571,17.27649,35.95479,-71.40782,8.545086,32.30733,-4.570632,-0.4441859,0.1400836,-35.22471,-8.447793,45.05199,0,0,0,-100.8058,-44.99153,10.87534,-10.65206,-111.0334,-35.10307,0.001067912,-0.1257102,0.09433498,0,0.3,0,0,0,0,
6.38223E+17,-29.07299,23.49509,36.63186,-72.06703,6.420976,32.7468,-4.570632,-0.4441859,0.1400836,-35.22471,-8.447793,45.05199,0,0,0,-98.08881,-30.49877,8.076457,-10.65206,-111.0334,-35.10307,0.001067912,-0.1257102,0.09433498,0,0.3,0,0,0,0,
6.38223E+17,-28.71959,27.00183,37.30893,-72.57975,5.029318,32.7468,-4.570632,-0.4441859,0.1400836,-35.22471,-8.447793,45.05199,0,0,0,-95.93115,-22.17038,6.729682,-10.65206,-111.0334,-35.10307,0.001067912,-0.1257102,0.09433498,0,0.3,0,0,0,0,
6.38223E+17,-27.35312,37.05445,40.36742,-74.48412,-0.2443342,31.79461,-4.570632,-0.4441859,0.1400836,-35.22471,-8.447793,45.05199,0,0,0,-88.58218,2.102951,2.885149,-10.65206,-111.0334,-35.10307,0.001067912,-0.1257102,0.09433498,0,0.3,0,0,0,0,
6.38223E+17,-26.9526,39.85984,41.51144,-75.36307,-2.221954,31.42839,-4.570632,-0.4441859,0.1400836,-35.22471,-8.447793,45.05199,0,0,0,-86.45429,8.959971,1.673712,-10.65206,-111.0334,-35.10307,0.001067912,-0.1257102,0.09433498,0,0.3,0,0,0,0,
6.38223E+17,-26.55208,44.23156,43.33253,-77.12095,-5.884212,31.2819,-4.570632,-0.4441859,0.1400836,-35.22471,-8.447793,45.12524,0,0,0,-83.61688,19.37304,-1.021513,-10.65206,-111.0334,-35.10307,0.001067912,-0.1257102,0.09433498,0,0.3,0,0,0,0,
6.38223E+17,-26.74056,46.8733,43.79947,-78.51261,-8.228058,31.35514,-4.570632,-0.4441859,0.1400836,-35.22471,-8.447793,45.05199,0,0,0,-82.5464,24.42709,-4.513753,-10.65206,-111.0334,-35.10307,0.001067912,-0.1257102,0.09433498,0,0.3,0,0,0,0,
6.38223E+17,-28.01279,48.08897,42.39864,-79.4648,-9.692961,30.40295,-4.570632,-0.4441859,0.1400836,-35.22471,-8.447793,45.05199,0,0,0,-84.06622,24.11163,-10.32957,-10.65206,-111.0334,-35.10307,0.001067912,-0.1257102,0.09433498,0,0.3,0,0,0,0,
6.38223E+17,-28.41331,47.80843,41.58148,-79.53804,-9.692961,29.96349,-4.570632,-0.4441859,0.1400836,-35.22471,-8.447793,45.05199,0,0,0,-84.72687,22.40198,-11.73793,-10.65206,-111.0334,-35.10307,0.001067912,-0.1257102,0.09433498,0,0.3,0,0,0,0,
6.38223E+17,-29.59131,46.03168,38.61638,-79.17181,-8.887264,28.05911,-4.570632,-0.4441859,0.1400836,-35.22471,-8.447793,45.05199,0,0,0,-86.81366,15.1332,-15.47635,-10.65206,-111.0334,-35.10307,0.001067912,-0.1257102,0.09433498,0,0.3,0,0,0,0,
6.38223E+17,-30.34523,42.78211,34.83412,-78.07314,-6.98289,25.1293,-4.570632,-0.4441859,0.1400836,-35.22471,-8.447793,45.05199,0,0,0,-87.92709,4.46804,-18.15313,-10.65206,-111.0334,-35.10307,0.001067912,-0.1257102,0.09433498,0,0.3,0,0,0,0,
6.38223E+17,-30.60439,38.22336,30.30475,-76.16876,-4.346064,21.83327,-4.570632,-0.4441859,0.1400836,-35.22471,-8.447793,45.05199,0,0,0,-87.59126,-9.270736,-20.26717,-10.65206,-111.0334,-35.10307,0.001067912,-0.1257102,0.09433498,0,0.3,0,0,0,0,
6.38223E+17,-30.48659,34.03867,27.26961,-74.26439,-2.075463,19.41618,-4.570632,-0.4441859,0.1400836,-35.22471,-8.447793,45.05199,0,0,0,-87.05891,-20.53658,-20.47417,-10.65206,-111.0334,-35.10307,0.001067912,-0.1257102,0.09433498,0,0.3,0,0,0,0,
6.38223E+17,-30.32167,30.50856,25.51856,-73.01923,-0.3175794,17.58505,-4.570632,-0.4441859,0.1400836,-35.22471,-8.447793,45.05199,0,0,0,-87.00443,-29.29375,-19.58895,-10.65206,-111.0334,-35.10307,0.001067912,-0.1257102,0.09433498,0,0.3,0,0,0,0,
6.38223E+17,-29.75623,24.85103,23.60409,-71.48107,2.831963,14.80174,-4.570632,-0.4441859,0.1400836,-35.22471,-8.447793,45.05199,0,0,0,-86.55539,-42.80144,-16.94769,-10.65206,-111.0334,-35.10307,0.001067912,-0.1257102,0.09433498,0,0.3,0,0,0,0,
6.38223E+17,-28.71959,18.11811,22.50677,-69.86968,6.494221,12.3114,-4.570632,-0.4441859,0.1400836,-35.22471,-8.447793,45.05199,0,0,0,-85.42916,-58.37455,-12.43704,-10.65206,-111.0334,-35.10307,0.001067912,-0.1257102,0.09433498,0,0.3,0,0,0,0,
6.38223E+17,-27.61227,11.05789,22.39003,-67.96531,10.52271,11.06623,-4.570632,-0.4441859,0.1400836,-35.22471,-8.447793,45.05199,0,0,0,-84.20078,-74.37043,-7.372772,-10.65206,-111.0334,-35.10307,0.001067912,-0.1257102,0.09433498,0,0.3,0,0,0,0,
6.38223E+17,-27.11752,8.135615,22.39003,-66.72014,12.35384,10.77325,-4.570632,-0.4441859,0.1400836,-35.22471,-8.447793,45.05199,0,0,0,-83.32436,-81.07582,-5.642582,-10.65206,-111.0334,-35.10307,0.001067912,-0.1257102,0.09433498,0,0.3,0,0,0,0,
6.38223E+17,-26.38716,4.441859,22.39003,-64.44954,15.57662,10.91974,-4.570632,-0.4441859,0.1400836,-35.22471,-8.521038,45.05199,0,0,0,-81.66204,-89.61945,-3.750252,-10.65206,-111.0334,-35.10307,0.001067912,-0.1257102,0.09433498,0,0.3,0,0,0,0,
6.38223E+17,-25.68036,4.769154,21.87639,-62.03245,17.84722,12.09166,-4.570632,-0.4441859,0.1400836,-35.22471,-8.447793,45.05199,0,0,0,-79.119,-89.31055,-3.808514,-10.65206,-111.0334,-35.10307,0.001067912,-0.1257102,0.09433498,0,0.3,0,0,0,0,
6.38223E+17,-25.11492,10.75397,21.45614,-58.8829,18.06696,15.02147,-4.570632,-0.4441859,0.1400836,-35.22471,-8.447793,45.05199,0,0,0,-76.3075,-75.8765,-5.561292,-10.65206,-111.0334,-35.10307,0.001067912,-0.1257102,0.09433498,0,0.3,0,0,0,0,
6.38223E+17,-25.11492,15.71015,21.50283,-57.71098,16.89503,16.70611,-4.570632,-0.4441859,0.1400836,-35.22471,-8.447793,45.05199,0,0,0,-75.23013,-64.61145,-7.859669,-10.65206,-111.0334,-35.10307,0.001067912,-0.1257102,0.09433498,0,0.3,0,0,0,0,
6.38223E+17,-25.11492,24.38347,22.1799,-56.31932,13.81874,18.61049,-4.570632,-0.4441859,0.1400836,-35.22471,-8.447793,45.05199,0,0,0,-72.91682,-45.08008,-12.79469,-10.65206,-111.0334,-35.10307,0.001067912,-0.1257102,0.09433498,0,0.3,0,0,0,0,
6.38223E+17,-25.11492,28.19411,22.92702,-55.80661,11.98761,19.19645,-4.570632,-0.4441859,0.1400836,-35.22471,-8.447793,45.05199,0,0,0,-71.93153,-36.46302,-14.89665,-10.65206,-111.0334,-35.10307,0.001067912,-0.1257102,0.09433498,0,0.3,0,0,0,0,
6.38223E+17,-25.13848,37.4285,25.51856,-55.07415,6.713957,20.14863,-4.570632,-0.4441859,0.1400836,-35.22471,-8.447793,45.05199,0,0,0,-69.38913,-15.94489,-20.47867,-10.65206,-111.0334,-35.10307,0.001067912,-0.1257102,0.09433498,0,0.3,0,0,0,0,
6.38223E+17,-25.23272,45.02642,27.80659,-54.92767,1.953021,20.51486,-4.570632,-0.4441859,0.1400836,-35.22471,-8.447793,45.05199,0,0,0,-66.69631,-0.2655576,-26.82295,-10.65206,-111.0334,-35.10307,0.001067912,-0.1257102,0.09433498,0,0.3,0,0,0,0,
6.38223E+17,-25.68036,52.13339,29.86115,-55.22065,-2.73467,20.73459,-4.570632,-0.4441859,0.1400836,-35.22471,-8.447793,45.05199,0,0,0,-64.24352,12.97636,-34.74462,-10.65206,-111.0334,-35.10307,0.001067912,-0.1257102,0.09433498,0,0.3,0,0,0,0,
6.38223E+17,-26.05732,55.1258,30.60827,-55.51363,-4.639044,20.73459,-4.570632,-0.4441859,0.1400836,-35.22471,-8.447793,45.05199,0,0,0,-63.31797,17.98145,-38.85785,-10.65206,-111.0334,-35.10307,0.001067912,-0.1257102,0.09433498,0,0.3,0,0,0,0,
6.38223E+17,-27.11752,60.59631,31.91571,-56.31932,-7.861832,20.29512,-4.570632,-0.4441859,0.1400836,-35.22471,-8.447793,45.05199,0,0,0,-61.97644,26.33109,-47.32866,-10.65206,-111.0334,-35.10307,0.001067912,-0.1257102,0.09433498,0,0.3,0,0,0,0,
6.38223E+17,-28.79027,64.47708,32.406,-57.34475,-10.05919,19.56267,-4.570632,-0.4441859,0.1400836,-35.22471,-8.447793,45.05199,0,0,0,-62.08903,31.10314,-55.36504,-10.65206,-111.0334,-35.10307,0.001067912,-0.1257102,0.09433498,0,0.3,0,0,0,0,
6.38223E+17,-31.26407,67.16558,32.42935,-59.10264,-11.23111,18.46399,-4.570632,-0.4441859,0.1400836,-35.22471,-8.447793,45.05199,0,0,0,-63.96946,33.69487,-62.98993,-10.65206,-111.0334,-35.10307,0.001067912,-0.1257102,0.09433498,0,0.3,0,0,0,0,
6.38223E+17,-33.8321,69.03584,32.42935,-61.22675,-11.3776,17.07234,-4.570632,-0.4441859,0.1400836,-35.22471,-8.447793,45.05199,0,0,0,-66.37743,35.3183,-69.31665,-10.65206,-111.0334,-35.10307,0.001067912,-0.1257102,0.09433498,0,0.3,0,0,0,0,
6.38223E+17,-35.17502,69.76056,32.42935,-62.47192,-11.3776,16.48637,-4.570632,-0.4441859,0.1400836,-35.22471,-8.447793,45.05199,0,0,0,-67.77064,35.91181,-72.19003,-10.65206,-111.0334,-35.10307,0.001067912,-0.1257102,0.09433498,0,0.3,0,0,0,0,
6.38223E+17,-39.15665,70.62555,32.42935,-66.13418,-11.01137,15.46094,-4.570632,-0.4441859,0.1400836,-35.22471,-8.447793,45.05199,0,0,0,-73.0881,36.59397,-78.59659,-10.65206,-111.0334,-35.10307,0.001067912,-0.1257102,0.09433498,0,0.3,0,0,0,0,
6.38223E+17,-41.27705,70.62555,32.42935,-68.33153,-10.64515,14.80174,-4.570632,-0.4441859,0.1400836,-35.22471,-8.447793,45.05199,0,0,0,-76.35888,36.59397,-81.36227,-10.65206,-111.0334,-35.10307,0.001067912,-0.1257102,0.09433498,0,0.3,0,0,0,0,
6.38223E+17,-44.29272,70.53204,32.42935,-71.77406,-9.766206,13.99604,-4.570632,-0.4441859,0.1400836,-35.22471,-8.447793,45.05199,0,0,0,-80.97282,36.5216,-85.35299,-10.65206,-111.0334,-35.10307,0.001067912,-0.1257102,0.09433498,0,0.3,0,0,0,0,
6.38223E+17,-47.09636,70.11123,32.35931,-75.28983,-8.667529,13.04385,-4.570632,-0.4441859,0.1400836,-35.22471,-8.447793,45.12524,0,0,0,-85.51022,36.10447,-88.87888,-10.65206,-111.0334,-35.10307,0.001067912,-0.1257102,0.09433498,0,0.3,0,0,0,0,
6.38223E+17,-49.71152,69.38651,31.91571,-78.87884,-7.495606,11.57895,-4.570632,-0.4441859,0.1400836,-35.22471,-8.447793,45.05199,0,0,0,-89.58744,34.97144,-92.40528,-10.65206,-111.0334,-35.10307,0.001067912,-0.1257102,0.09433498,0,0.3,0,0,0,0,
6.38223E+17,-51.05444,68.89557,31.5655,-80.56348,-6.98289,10.55352,-4.570632,-0.4441859,0.1400836,-35.22471,-8.447793,45.12524,0,0,0,-91.634,34.1358,-94.29029,-10.65206,-111.0334,-35.10307,0.001067912,-0.1257102,0.09433498,0,0.3,0,0,0,0,
6.38223E+17,-53.24551,67.79679,30.725,-82.90732,-5.957458,8.429405,-4.570632,-0.4441859,0.1400836,-35.22471,-8.447793,45.05199,0,0,0,-94.96138,32.18044,-97.42738,-10.65206,-111.0334,-35.10307,0.001067912,-0.1257102,0.09433498,0,0.3,0,0,0,0,
6.38223E+17,-55.36591,66.25382,29.37086,-84.8117,-4.932025,6.158805,-4.570632,-0.4441859,0.1400836,-35.22471,-8.447793,45.12524,0,0,0,-97.99614,29.20073,-100.6609,-10.65206,-111.0334,-35.10307,0.001067912,-0.1257102,0.09433498,0,0.3,0,0,0,0,
6.38223E+17,-57.41562,63.35493,26.49915,-86.56957,-3.174141,3.741715,-4.570632,-0.4441859,0.1400836,-35.22471,-8.447793,45.05199,0,0,0,-100.5231,23.19808,-104.1014,-10.65206,-111.0334,-35.10307,0.001067912,-0.1257102,0.09433498,0,0.3,0,0,0,0,
6.38223E+17,-57.43919,61.99899,25.05162,-86.93581,-2.295199,2.936018,-4.570632,-0.4441859,0.1400836,-35.22471,-8.447793,45.05199,0,0,0,-100.3556,20.28464,-104.2666,-10.65206,-111.0334,-35.10307,0.001067912,-0.1257102,0.09433498,0,0.3,0,0,0,0,
6.38223E+17,-57.43919,60.05861,22.74024,-86.78931,-0.9767859,2.350057,-4.570632,-0.4441859,0.1400836,-35.22471,-8.447793,45.05199,0,0,0,-99.54032,15.91834,-104.7872,-10.65206,-111.0334,-35.10307,0.001067912,-0.1257102,0.09433498,0,0.3,0,0,0,0,
6.38223E+17,-57.43919,57.95457,20.59229,-86.20335,0.04864649,1.983831,-4.570632,-0.4441859,0.1400836,-35.15147,-8.447793,45.05199,0,0,0,-99.16263,11.55129,-105.0284,-10.65206,-111.0334,-35.10307,0.001067912,-0.1257102,0.09433498,0,0.3,0,0,0,0,
6.38223E+17,-57.41562,54.96216,17.60384,-85.32441,1.293814,1.324624,-4.570632,-0.4441859,0.1400836,-35.22471,-8.447793,45.05199,0,0,0,-98.48982,5.428107,-105.401,-10.65206,-111.0334,-35.10307,0.001067912,-0.1257102,0.09433498,0,0.3,0,0,0,0,
6.38223E+17,-57.41562,52.03988,14.68543,-84.73845,2.099511,-0.0670338,-4.570632,-0.4441859,0.1400836,-35.22471,-8.447793,45.05199,0,0,0,-97.59922,-0.5054032,-105.9702,-10.65206,-111.0334,-35.10307,0.001067912,-0.1257102,0.09433498,0,0.3,0,0,0,0,
6.38223E+17,-57.39207,49.91246,12.58418,-84.29898,2.465737,-1.165711,-4.570632,-0.4441859,0.1400836,-35.22471,-8.447793,45.05199,0,0,0,-96.81039,-4.775578,-106.4183,-10.65206,-111.0334,-35.10307,0.001067912,-0.1257102,0.09433498,0,0.3,0,0,0,0,
6.38223E+17,-57.32139,45.49398,8.148195,-83.27354,3.857395,-3.802537,-4.570632,-0.4441859,0.1400836,-35.22471,-8.447793,45.05199,0,0,0,-94.58865,-13.55167,-107.675,-10.65206,-111.0334,-35.10307,0.001067912,-0.1257102,0.09433498,0,0.3,0,0,0,0,
6.38223E+17,-56.87374,40.79496,3.338659,-82.24812,5.688524,-6.659099,-4.570632,-0.4441859,0.1400836,-35.22471,-8.447793,45.05199,0,0,0,-91.04867,-22.64891,-108.9367,-10.65206,-111.0334,-35.10307,0.001067912,-0.1257102,0.09433498,0,0.3,0,0,0,0,
6.38223E+17,-56.52034,38.64417,1.144016,-81.58891,6.567466,-7.977511,-4.570632,-0.4441859,0.1400836,-35.22471,-8.447793,45.05199,0,0,0,-89.09161,-26.69876,-109.427,-10.65206,-111.0334,-35.10307,0.001067912,-0.1257102,0.09433498,0,0.3,0,0,0,0,
6.38223E+17,-55.88423,34.62312,-2.848366,-80.27049,8.691576,-10.83407,-4.570632,-0.4441859,0.1400836,-35.22471,-8.447793,45.05199,0,0,0,-85.36383,-34.069,-110.5201,-10.65206,-111.0334,-35.10307,0.001067912,-0.1257102,0.09433498,0,0.3,0,0,0,0,
6.38223E+17,-55.57795,32.09827,-5.066357,-79.17181,10.88893,-13.61739,-4.570632,-0.4441859,0.1400836,-35.22471,-8.447793,45.05199,0,0,0,-83.47105,-38.62042,-111.149,-10.65206,-111.0334,-35.10307,0.001067912,-0.1257102,0.09433498,0,0.3,0,0,0,0,
6.38223E+17,-55.57795,31.44369,-5.346524,-78.73235,12.28059,-16.03448,-4.570632,-0.4441859,0.1400836,-35.22471,-8.447793,45.05199,0,0,0,-83.59708,-39.85645,-111.0626,-10.65206,-111.0334,-35.10307,0.001067912,-0.1257102,0.09433498,0,0.3,0,0,0,0,
6.38223E+17,-55.57795,31.5372,-5.04301,-78.58585,12.64682,-17.42614,-4.570632,-0.4441859,0.1400836,-35.22471,-8.447793,45.05199,0,0,0,-84.08361,-39.73482,-110.7292,-10.65206,-111.0334,-35.10307,0.001067912,-0.1257102,0.09433498,0,0.3,0,0,0,0,
6.38223E+17,-55.57795,31.84111,-4.202508,-78.58585,12.72006,-18.52482,-4.570632,-0.4441859,0.1400836,-35.22471,-8.447793,45.05199,0,0,0,-85.38548,-39.2906,-109.8371,-10.65206,-111.0334,-35.10307,0.001067912,-0.1257102,0.09433498,0,0.3,0,0,0,0,
6.38223E+17,-55.57795,32.7061,-2.428116,-78.73235,12.64682,-19.18402,-4.570632,-0.4441859,0.1400836,-35.22471,-8.447793,45.05199,0,0,0,-87.89951,-37.82727,-108.1143,-10.65206,-111.0334,-35.10307,0.001067912,-0.1257102,0.09433498,0,0.3,0,0,0,0,
6.38223E+17,-55.57795,34.17893,0.3268617,-79.02532,12.06085,-19.477,-4.570632,-0.4441859,0.1400836,-35.22471,-8.447793,45.05199,0,0,0,-91.62902,-35.08457,-105.5585,-10.65206,-111.0334,-35.10307,0.001067912,-0.1257102,0.09433498,0,0.3,0,0,0,0,
6.38223E+17,-55.57795,35.88554,4.319244,-79.61128,11.03542,-18.89104,-4.570632,-0.4441859,0.1400836,-35.22471,-8.447793,45.05199,0,0,0,-97.40525,-31.45578,-101.6002,-10.65206,-111.0334,-35.10307,0.001067912,-0.1257102,0.09433498,0,0.3,0,0,0,0,
6.38223E+17,-55.50727,37.05445,8.008113,-80.41698,9.8635,-17.49938,-4.570632,-0.4441859,0.1400836,-35.22471,-8.447793,45.05199,0,0,0,-103.0241,-28.34641,-97.56277,-10.65206,-111.0334,-35.10307,0.001067912,-0.1257102,0.09433498,0,0.3,0,0,0,0,
6.38223E+17,-55.31879,37.54539,10.01598,-80.85645,9.277537,-16.32746,-4.570632,-0.4441859,0.1400836,-35.22471,-8.447793,45.05199,0,0,0,-106.0164,-26.70552,-94.99215,-10.65206,-111.0334,-35.10307,0.001067912,-0.1257102,0.09433498,0,0.3,0,0,0,0,
6.38223E+17,-54.84759,38.01296,14.33522,-81.80864,8.105616,-13.03143,-4.570632,-0.4441859,0.1400836,-35.22471,-8.447793,45.12524,0,0,0,-112.897,-23.72575,-88.85031,-10.65206,-111.0334,-35.10307,0.001067912,-0.1257102,0.09433498,0,0.3,0,0,0,0,
6.38223E+17,-54.28215,37.73242,19.70509,-83.49328,7.080183,-8.783209,-4.570632,-0.4441859,0.1400836,-35.15147,-8.447793,45.05199,0,0,0,-122.1314,-20.58428,-80.532,-10.65206,-111.0334,-35.10307,0.001067912,-0.1257102,0.09433498,0,0.3,0,0,0,0,
6.38223E+17,-53.90519,37.14796,22.15656,-84.22573,6.713957,-6.512609,-4.570632,-0.4441859,0.1400836,-35.22471,-8.447793,45.05199,0,0,0,-126.5249,-19.62622,-76.10399,-10.65206,-111.0334,-35.10307,0.001067912,-0.1257102,0.09433498,0,0.3,0,0,0,0,
6.38223E+17,-53.38687,35.44136,25.14501,-85.25117,6.640712,-2.923595,-4.570632,-0.4441859,0.1400836,-35.22471,-8.447793,45.05199,0,0,0,-132.6858,-20.03755,-69.76163,-10.65206,-111.0334,-35.10307,0.001067912,-0.1257102,0.09433498,0,0.3,0,0,0,0,
6.38223E+17,-53.15127,34.24907,26.35906,-85.69064,6.787202,-1.458692,-4.570632,-0.4441859,0.1400836,-35.22471,-8.447793,45.05199,0,0,0,-135.5845,-21.08725,-66.73986,-10.65206,-111.0334,-35.10307,0.001067912,-0.1257102,0.09433498,0,0.3,0,0,0,0,
6.38223E+17,-52.72719,31.42031,27.92333,-86.1301,7.446409,1.178134,-4.570632,-0.4441859,0.1400836,-35.22471,-8.447793,45.12524,0,0,0,-140.2471,-24.95776,-61.61546,-10.65206,-111.0334,-35.10307,0.001067912,-0.1257102,0.09433498,0,0.3,0,0,0,0,
6.38223E+17,-52.11464,27.72655,28.57705,-85.76388,8.618331,4.254431,-4.570632,-0.4441859,0.1400836,-35.22471,-8.447793,45.05199,0,0,0,-143.5039,-31.7132,-56.69414,-10.65206,-111.0334,-35.10307,0.001067912,-0.1257102,0.09433498,0,0.3,0,0,0,0,
6.38223E+17,-51.36071,23.42496,28.6004,-84.95818,10.59595,7.184238,-4.570632,-0.4441859,0.1400836,-35.22471,-8.447793,45.05199,0,0,0,-145.4346,-40.7156,-52.0877,-10.65206,-111.0334,-35.10307,0.001067912,-0.1257102,0.09433498,0,0.3,0,0,0,0,
6.38223E+17,-50.98376,21.46119,28.53036,-84.29898,11.62138,8.429405,-4.570632,-0.4441859,0.1400836,-35.22471,-8.447793,45.05199,0,0,0,-145.911,-45.01764,-50.12511,-10.65206,-111.0334,-35.10307,0.001067912,-0.1257102,0.09433498,0,0.3,0,0,0,0,
6.38223E+17,-49.99424,17.46352,28.06341,-82.83408,13.81874,11.21272,-4.570632,-0.4441859,0.1400836,-35.22471,-8.447793,45.05199,0,0,0,-145.4886,-54.30357,-46.24559,-10.65206,-111.0334,-35.10307,0.001067912,-0.1257102,0.09433498,0,0.3,0,0,0,0,
6.38223E+17,-48.76912,13.93341,27.26961,-80.78321,16.16258,14.582,-4.570632,-0.4441859,0.1400836,-35.22471,-8.447793,45.05199,0,0,0,-143.2857,-63.06965,-42.77634,-10.65206,-111.0334,-35.10307,0.001067912,-0.1257102,0.09433498,0,0.3,0,0,0,0,
6.38223E+17,-47.56756,11.59559,25.89212,-78.51261,18.28669,18.3175,-4.570632,-0.4441859,0.1400836,-35.22471,-8.447793,45.05199,0,0,0,-139.3921,-69.81036,-40.92269,-10.65206,-111.0334,-35.10307,0.001067912,-0.1257102,0.09433498,0,0.3,0,0,0,0,
6.38223E+17,-46.97857,10.80073,24.93488,-77.48718,19.09239,19.63592,-4.570632,-0.4441859,0.1400836,-35.22471,-8.447793,45.12524,0,0,0,-136.8663,-72.58115,-40.6243,-10.65206,-111.0334,-35.10307,0.001067912,-0.1257102,0.09433498,0,0.3,0,0,0,0,
6.38223E+17,-45.84768,9.538307,22.71689,-75.65604,20.4108,21.3938,-4.570632,-0.4441859,0.1400836,-35.22471,-8.521038,45.05199,0,0,0,-131.3031,-77.55825,-40.87574,-10.65206,-111.0334,-35.10307,0.001067912,-0.1257102,0.09433498,0,0.3,0,0,0,0,
6.38223E+17,-44.29272,8.32264,19.07472,-73.53194,21.58273,22.1995,-4.570632,-0.4441859,0.1400836,-35.22471,-8.447793,45.05199,0,0,0,-122.5731,-83.37614,-42.7128,-10.65206,-111.0334,-35.10307,0.001067912,-0.1257102,0.09433498,0,0.3,0,0,0,0,
6.38223E+17,-43.30321,7.971967,16.57656,-72.21353,22.31518,21.54029,-4.570632,-0.4441859,0.1400836,-35.22471,-8.447793,45.05199,0,0,0,-116.6684,-85.96377,-44.55833,-10.65206,-111.0334,-35.10307,0.001067912,-0.1257102,0.09433498,0,0.3,0,0,0,0,
6.38223E+17,-41.93673,7.878454,12.63087,-70.23591,23.4871,20.44161,-4.570632,-0.4441859,0.1400836,-35.22471,-8.447793,45.05199,0,0,0,-107.7655,-88.49425,-48.3982,-10.65206,-111.0334,-35.10307,0.001067912,-0.1257102,0.09433498,0,0.3,0,0,0,0,
6.38223E+17,-41.13569,7.971967,10.17941,-68.91749,24.14631,19.78241,-4.570632,-0.4441859,0.1400836,-35.15147,-8.447793,45.05199,0,0,0,-102.3793,-89.40684,-51.13789,-10.65206,-111.0334,-35.10307,0.001067912,-0.1257102,0.09433498,0,0.3,0,0,0,0,
6.38223E+17,-38.82682,9.748712,3.432048,-63.27761,26.49015,18.3175,-4.570632,-0.4441859,0.1400836,-35.22471,-8.447793,45.05199,0,0,0,-87.40403,-87.18104,-59.74544,-10.65206,-111.0334,-35.10307,0.001067912,-0.1257102,0.09433498,0,0.3,0,0,0,0,
6.38223E+17,-38.09645,11.33843,2.101254,-61.51973,27.00287,18.09777,-4.570632,-0.4441859,0.1400836,-35.22471,-8.447793,45.05199,0,0,0,-83.68615,-83.69321,-61.60751,-10.65206,-111.0334,-35.10307,0.001067912,-0.1257102,0.09433498,0,0.3,0,0,0,0,
6.38223E+17,-36.75354,17.04271,0.9572379,-57.49125,26.78313,18.09777,-4.570632,-0.4441859,0.1400836,-35.22471,-8.447793,45.05199,0,0,0,-77.62223,-70.89857,-64.41462,-10.65206,-111.0334,-35.10307,0.001067912,-0.1257102,0.09433498,0,0.3,0,0,0,0,
6.38223E+17,-36.21166,24.4536,2.918408,-53.97548,24.07306,18.24426,-4.570632,-0.4441859,0.1400836,-35.22471,-8.447793,45.05199,0,0,0,-75.72337,-54.62599,-64.9313,-10.65206,-111.0334,-35.10307,0.001067912,-0.1257102,0.09433498,0,0.3,0,0,0,0,
6.38223E+17,-35.99962,32.09827,7.494472,-51.63163,19.45862,18.61049,-4.570632,-0.4441859,0.1400836,-35.22471,-8.447793,45.05199,0,0,0,-76.62225,-38.00225,-62.88704,-10.65206,-111.0334,-35.10307,0.001067912,-0.1257102,0.09433498,0,0.3,0,0,0,0,
6.38223E+17,-35.9525,35.62838,10.13271,-50.89918,16.82179,19.26969,-4.570632,-0.4441859,0.1400836,-35.22471,-8.447793,45.12524,0,0,0,-77.41022,-30.24033,-61.61801,-10.65206,-111.0334,-35.10307,0.001067912,-0.1257102,0.09433498,0,0.3,0,0,0,0,
6.38223E+17,-35.9525,42.03401,15.68936,-50.23997,10.59595,21.46704,-4.570632,-0.4441859,0.1400836,-35.22471,-8.447793,45.05199,0,0,0,-79.32274,-15.74427,-58.98106,-10.65206,-111.0334,-35.10307,0.001067912,-0.1257102,0.09433498,0,0.3,0,0,0,0,
6.38223E+17,-35.90538,46.82654,19.89187,-50.6062,4.589847,24.10387,-4.570632,-0.4441859,0.1400836,-35.15147,-8.447793,45.05199,0,0,0,-80.11539,-4.79362,-57.69681,-10.65206,-111.0334,-35.10307,0.001067912,-0.1257102,0.09433498,0,0.3,0,0,0,0,
6.38223E+17,-35.38706,50.30989,22.41338,-50.97242,-0.4640697,26.66745,-4.570632,-0.4441859,0.1400836,-35.22471,-8.447793,45.05199,0,0,0,-78.76096,2.687789,-57.46954,-10.65206,-111.0334,-35.10307,0.001067912,-0.1257102,0.09433498,0,0.3,0,0,0,0,
6.38223E+17,-34.68026,52.92825,23.60409,-50.45971,-4.346064,29.0113,-4.570632,-0.4441859,0.1400836,-35.22471,-8.447793,45.05199,0,0,0,-76.12066,7.554304,-58.33686,-10.65206,-111.0334,-35.10307,0.001067912,-0.1257102,0.09433498,0,0.3,0,0,0,0,
6.38223E+17,-34.39754,54.40108,24.11773,-49.8005,-6.030703,30.18322,-4.570632,-0.4441859,0.1400836,-35.22471,-8.447793,45.05199,0,0,0,-74.63457,10.06886,-59.33893,-10.65206,-111.0334,-35.10307,0.001067912,-0.1257102,0.09433498,0,0.3,0,0,0,0,
6.38223E+17,-34.35042,56.97268,25.28509,-48.70182,-7.861832,31.42839,-4.570632,-0.4441859,0.1400836,-35.22471,-8.447793,45.05199,0,0,0,-73.14845,14.57784,-61.32083,-10.65206,-111.0334,-35.10307,0.001067912,-0.1257102,0.09433498,0,0.3,0,0,0,0,
6.38223E+17,-34.35042,60.08199,26.80266,-48.18911,-9.692961,32.38057,-4.570632,-0.4441859,0.1400836,-35.22471,-8.447793,45.05199,0,0,0,-71.45683,19.90625,-63.79597,-10.65206,-111.0334,-35.10307,0.001067912,-0.1257102,0.09433498,0,0.3,0,0,0,0,
6.38223E+17,-34.37398,63.51858,28.08676,-48.18911,-11.52409,32.82005,-4.570632,-0.4441859,0.1400836,-35.22471,-8.447793,45.05199,0,0,0,-69.01804,25.06266,-67.45345,-10.65206,-111.0334,-35.10307,0.001067912,-0.1257102,0.09433498,0,0.3,0,0,0,0,
6.38223E+17,-34.63314,66.86166,29.37086,-48.62858,-13.28197,33.03978,-4.570632,-0.4441859,0.1400836,-35.22471,-8.447793,45.05199,0,0,0,-66.94986,29.76352,-71.42066,-10.65206,-111.0334,-35.10307,0.001067912,-0.1257102,0.09433498,0,0.3,0,0,0,0,
6.38223E+17,-34.91586,68.33449,30.00124,-48.9948,-14.08767,33.11303,-4.570632,-0.4441859,0.1400836,-35.22471,-8.447793,45.05199,0,0,0,-66.34296,31.79644,-73.30568,-10.65206,-111.0334,-35.10307,0.001067912,-0.1257102,0.09433498,0,0.3,0,0,0,0,
6.38223E+17,-35.88182,70.60218,31.09856,-50.31322,-15.77231,33.18628,-4.570632,-0.4441859,0.1400836,-35.22471,-8.447793,45.05199,0,0,0,-66.32819,34.94547,-76.65997,-10.65206,-111.0334,-35.10307,0.001067912,-0.1257102,0.09433498,0,0.3,0,0,0,0,
6.38223E+17,-37.9551,71.74771,31.98576,-53.31627,-17.23721,32.38057,-4.570632,-0.4441859,0.1400836,-35.22471,-8.447793,45.05199,0,0,0,-69.13219,36.88593,-79.72175,-10.65206,-111.0334,-35.10307,0.001067912,-0.1257102,0.09433498,0,0.3,0,0,0,0,
6.38223E+17,-39.03886,71.72433,32.12584,-55.29389,-17.45695,31.42839,-4.570632,-0.4441859,0.1400836,-35.15147,-8.447793,45.05199,0,0,0,-71.00272,37.04191,-80.79041,-10.65206,-111.0334,-35.10307,0.001067912,-0.1257102,0.09433498,0,0.3,0,0,0,0,
6.38223E+17,-40.33466,71.46716,32.4527,-58.37019,-17.09072,30.03673,-4.570632,-0.4441859,0.1400836,-35.22471,-8.447793,45.05199,0,0,0,-73.74846,37.25933,-81.49535,-10.65206,-111.0334,-35.10307,0.001067912,-0.1257102,0.09433498,0,0.3,0,0,0,0,
6.38223E+17,-40.99433,71.21001,32.66283,-59.90833,-16.87099,29.37753,-4.570632,-0.4441859,0.1400836,-35.22471,-8.447793,45.05199,0,0,0,-75.38593,37.331,-81.61108,-10.65206,-111.0334,-35.10307,0.001067912,-0.1257102,0.09433498,0,0.3,0,0,0,0,
6.38223E+17,-42.40793,70.11123,32.98969,-62.83814,-16.28502,27.98586,-4.570632,-0.4441859,0.1400836,-35.22471,-8.447793,45.05199,0,0,0,-79.5612,36.89653,-81.24358,-10.65206,-111.0334,-35.10307,0.001067912,-0.1257102,0.09433498,0,0.3,0,0,0,0,
6.38223E+17,-43.56237,68.428,33.36324,-66.06093,-15.69907,26.88719,-4.570632,-0.4441859,0.1400836,-35.22471,-8.447793,45.05199,0,0,0,-84.32638,35.98564,-79.68204,-10.65206,-111.0334,-35.10307,0.001067912,-0.1257102,0.09433498,0,0.3,0,0,0,0,
6.38223E+17,-44.10425,67.49287,33.6901,-67.45258,-15.25959,26.7407,-4.570632,-0.4441859,0.1400836,-35.22471,-8.447793,45.05199,0,0,0,-87.00655,35.58913,-78.57953,-10.65206,-111.0334,-35.10307,0.001067912,-0.1257102,0.09433498,0,0.3,0,0,0,0,
6.38223E+17,-45.28225,65.15505,34.5773,-70.01617,-14.23416,26.7407,-4.570632,-0.4441859,0.1400836,-35.22471,-8.447793,45.12524,0,0,0,-93.58881,34.56298,-75.67874,-10.65206,-111.0334,-35.10307,0.001067912,-0.1257102,0.09433498,0,0.3,0,0,0,0,
6.38223E+17,-46.34245,62.02237,35.44115,-72.87273,-12.98899,27.47315,-4.570632,-0.4441859,0.1400836,-35.22471,-8.447793,45.05199,0,0,0,-101.2026,32.47371,-71.78207,-10.65206,-111.0334,-35.10307,0.001067912,-0.1257102,0.09433498,0,0.3,0,0,0,0,
6.38223E+17,-47.52044,58.21173,36.58516,-75.58281,-11.74383,29.45077,-4.570632,-0.4441859,0.1400836,-35.22471,-8.447793,45.05199,0,0,0,-110.4251,29.62128,-67.2365,-10.65206,-111.0334,-35.10307,0.001067912,-0.1257102,0.09433498,0,0.3,0,0,0,0,
6.38223E+17,-48.29792,55.33621,37.47236,-77.26745,-10.64515,30.91567,-4.570632,-0.4441859,0.1400836,-35.22471,-8.447793,45.05199,0,0,0,-117.1971,27.19804,-63.92359,-10.65206,-111.0334,-35.10307,0.001067912,-0.1257102,0.09433498,0,0.3,0,0,0,0,
6.38223E+17,-49.68796,49.2345,39.94717,-80.63672,-8.154812,34.13846,-4.570632,-0.4441859,0.1400836,-35.22471,-8.447793,45.05199,0,0,0,-131.685,22.11672,-56.62538,-10.65206,-111.0334,-35.10307,0.001067912,-0.1257102,0.09433498,0,0.3,0,0,0,0,
6.38223E+17,-50.74816,42.71198,42.88893,-83.63977,-5.298251,38.0937,-4.570632,-0.4441859,0.1400836,-35.22471,-8.447793,45.05199,0,0,0,-146.1529,16.10094,-48.93026,-10.65206,-111.0334,-35.10307,0.001067912,-0.1257102,0.09433498,0,0.3,0,0,0,0,
6.38223E+17,-51.17223,35.69852,45.97077,-85.61739,-2.295199,44.39278,-4.570632,-0.4441859,0.1400836,-35.22471,-8.447793,45.05199,0,0,0,-159.0555,8.480791,-40.33918,-10.65206,-111.0334,-35.10307,0.001067912,-0.1257102,0.09433498,0,0.3,0,0,0,0,
6.38223E+17,-51.1958,31.28004,47.74516,-85.76388,-0.3908245,50.03266,-4.570632,-0.4441859,0.1400836,-35.22471,-8.447793,45.12524,0,0,0,-165.7295,2.919712,-35.08006,-10.65206,-111.0334,-35.10307,0.001067912,-0.1257102,0.09433498,0,0.3,0,0,0,0,
6.38223E+17,-51.10155,28.03047,48.81913,-85.10468,1.293814,56.11201,-4.570632,-0.4441859,0.1400836,-35.22471,-8.447793,45.12524,0,0,0,-169.7164,-1.786101,-31.41369,-10.65206,-111.0334,-35.10307,0.001067912,-0.1257102,0.09433498,0,0.3,0,0,0,0,
6.38223E+17,-50.8424,27.53952,49.0993,-84.73845,1.953021,58.16287,-4.570632,-0.4441859,0.1400836,-35.22471,-8.447793,45.05199,0,0,0,-169.8403,-2.305164,-30.04075,-10.65206,-111.0334,-35.10307,0.001067912,-0.1257102,0.09433498,0,0.3,0,0,0,0,
6.38223E+17,-49.7822,28.28763,50.68691,-84.006,2.538982,61.89838,-4.570632,-0.4441859,0.1400836,-35.22471,-8.447793,45.05199,0,0,0,-168.4473,2.059398,-25.91123,-10.65206,-111.0334,-35.10307,0.001067912,-0.1257102,0.09433498,0,0.3,0,0,0,0,
6.38223E+17,-49.40524,29.05911,51.64415,-84.15249,2.465737,62.48434,-4.570632,-0.4441859,0.1400836,-35.22471,-8.447793,45.05199,0,0,0,-167.9132,5.370144,-24.45763,-10.65206,-111.0334,-35.10307,0.001067912,-0.1257102,0.09433498,0,0.3,0,0,0,0,
6.38223E+17,-48.76912,30.97612,54.07227,-84.95818,1.66004,63.14355,-4.570632,-0.4441859,0.1400836,-35.22471,-8.447793,45.05199,0,0,0,-167.1927,13.73765,-21.82459,-10.65206,-111.0334,-35.10307,0.001067912,-0.1257102,0.09433498,0,0.3,0,0,0,0,
6.38223E+17,-48.43928,32.77624,57.27084,-86.34984,0.6346079,63.43653,-4.570632,-0.4441859,0.1400836,-35.22471,-8.447793,45.05199,0,0,0,-167.8319,23.44216,-19.54751,-10.65206,-111.0334,-35.10307,0.001067912,-0.1257102,0.09433498,0,0.3,0,0,0,0,
6.38223E+17,-48.55708,35.02055,61.9403,-89.86562,-0.3908245,63.58302,-4.570632,-0.4441859,0.1400836,-35.22471,-8.447793,45.05199,0,0,0,-170.0744,37.1489,-18.18263,-10.65206,-111.0334,-35.10307,0.001067912,-0.1257102,0.09433498,0,0.3,0,0,0,0,
6.38223E+17,-48.81624,35.95568,64.20498,-91.47701,-0.6838052,63.65627,-4.570632,-0.4441859,0.1400836,-35.22471,-8.447793,45.12524,0,0,0,-171.5974,43.62005,-18.21376,-10.65206,-111.0334,-35.10307,0.001067912,-0.1257102,0.09433498,0,0.3,0,0,0,0,
6.38223E+17,-49.47592,36.6804,67.82381,-93.7476,-0.7570504,63.65627,-4.570632,-0.4441859,0.1400836,-35.22471,-8.447793,45.05199,0,0,0,-175.1573,52.67297,-18.62418,-10.65206,-111.0334,-35.10307,0.001067912,-0.1257102,0.09433498,0,0.3,0,0,0,0,
6.38223E+17,-50.27696,36.72716,71.44263,-96.23794,-0.2443342,63.65627,-4.570632,-0.4441859,0.1400836,-35.22471,-8.447793,45.05199,0,0,0,-179.4375,60.65481,-19.25615,-10.65206,-111.0334,-35.10307,0.001067912,-0.1257102,0.09433498,0,0.3,0,0,0,0,
6.38223E+17,-51.12512,36.65702,74.92138,-98.65503,0.707853,63.58302,-4.570632,-0.4441859,0.1400836,-35.22471,-8.447793,45.05199,0,0,0,-183.5242,68.27285,-20.3974,-10.65206,-111.0334,-35.10307,0.001067912,-0.1257102,0.09433498,0,0.3,0,0,0,0,
6.38223E+17,-51.66699,36.61026,77.06932,-100.3397,1.66004,63.65627,-4.570632,-0.4441859,0.1400836,-35.22471,-8.447793,45.05199,0,0,0,-185.9151,73.03577,-21.34911,-10.65206,-111.0334,-35.10307,0.001067912,-0.1257102,0.09433498,0,0.3,0,0,0,0,
6.38223E+17,-51.9026,36.56351,78.37677,-101.2186,2.099511,63.65627,-4.570632,-0.4441859,0.1400836,-35.22471,-8.447793,45.05199,0,0,0,-187.0782,75.92169,-21.67559,-10.65206,-111.0334,-35.10307,0.001067912,-0.1257102,0.09433498,0,0.3,0,0,0,0,
6.38223E+17,-52.18531,36.42324,80.57141,-102.6835,2.978453,63.80275,-4.570632,-0.4441859,0.1400836,-35.22471,-8.447793,45.05199,0,0,0,-188.6902,80.68079,-21.90939,-10.65206,-111.0334,-35.10307,0.001067912,-0.1257102,0.09433498,0,0.3,0,0,0,0,
6.38223E+17,-52.23243,36.56351,82.3925,-103.7089,3.710905,64.60844,-4.570632,-0.4441859,0.1400836,-35.22471,-8.447793,45.05199,0,0,0,-189.1533,85.1347,-21.79905,-10.65206,-111.0334,-35.10307,0.001067912,-0.1257102,0.09433498,0,0.3,0,0,0,0,
6.38223E+17,-52.23243,37.03107,83.55987,-104.7344,4.443357,66.21985,-4.570632,-0.4441859,0.1400836,-35.22471,-8.447793,45.05199,0,0,0,-188.9007,88.70257,-21.99479,-10.65206,-111.0334,-35.10307,0.001067912,-0.1257102,0.09433498,0,0.3,0,0,0,0,
6.38223E+17,-52.256,38.12985,84.26028,-105.8331,5.029318,67.83124,-4.570632,-0.4441859,0.1400836,-35.22471,-8.447793,45.05199,0,0,0,-187.8644,92.35012,-22.9213,-10.65206,-111.0334,-35.10307,0.001067912,-0.1257102,0.09433498,0,0.3,0,0,0,0,
6.38223E+17,-52.256,39.71957,84.65718,-107.4445,4.663092,69.22289,-4.570632,-0.4441859,0.1400836,-35.22471,-8.447793,45.05199,0,0,0,-186.0967,96.14789,-24.28965,-10.65206,-111.0334,-35.10307,0.001067912,-0.1257102,0.09433498,0,0.3,0,0,0,0,
6.38223E+17,-52.1382,41.77685,85.42764,-108.6896,4.003886,71.347,-4.570632,-0.4441859,0.1400836,-35.22471,-8.447793,45.05199,0,0,0,-183.4552,101.5615,-25.73035,-10.65206,-111.0334,-35.10307,0.001067912,-0.1257102,0.09433498,0,0.3,0,0,0,0,
6.38223E+17,-51.83192,43.2263,86.33819,-109.4221,3.564415,72.8119,-4.570632,-0.4441859,0.1400836,-35.22471,-8.447793,45.05199,0,0,0,-181.018,106.1623,-26.0661,-10.65206,-111.0334,-35.10307,0.001067912,-0.1257102,0.09433498,0,0.3,0,0,0,0,
6.38223E+17,-51.33715,45.51736,87.31877,-110.6672,2.758718,74.71628,-4.570632,-0.4441859,0.1400836,-35.22471,-8.447793,45.05199,0,0,0,-176.9697,112.2523,-26.75883,-10.65206,-111.0334,-35.10307,0.001067912,-0.1257102,0.09433498,0,0.3,0,0,0,0,
6.38223E+17,-51.03088,46.77979,87.64564,-111.3264,2.246002,75.66847,-4.570632,-0.4441859,0.1400836,-35.22471,-8.447793,45.05199,0,0,0,-174.589,115.0478,-27.12634,-10.65206,-111.0334,-35.10307,0.001067912,-0.1257102,0.09433498,0,0.3,0,0,0,0,
6.38223E+17,-49.68796,51.61907,87.80907,-112.8646,0.268382,78.23206,-4.570632,-0.4441859,0.1400836,-35.15147,-8.447793,45.05199,0,0,0,-164.7434,122.7852,-28.57787,-10.65206,-111.0334,-35.10307,0.001067912,-0.1257102,0.09433498,0,0.3,0,0,0,0,
6.38223E+17,-49.24032,53.04515,87.66898,-113.2308,-0.3908245,78.9645,-4.570632,-0.4441859,0.1400836,-35.22471,-8.447793,45.05199,0,0,0,-161.6467,124.4875,-29.01869,-10.65206,-111.0334,-35.10307,0.001067912,-0.1257102,0.09433498,0,0.3,0,0,0,0,
