zeyangz2/DNN_classification_different_people_hand/data_by_names/Zeyang/zeyang_right_28.csv
Timestamp,Therapist joint angle 0,Therapist joint angle 1,Therapist joint angle 2,Therapist joint angle 3,Therapist joint angle 4,Therapist joint angle 5,Patient joint angle 0,Patient joint angle 1,Patient joint angle 2,Patient joint angle 3,Patient joint angle 4,Patient joint angle 5,Virtual joint angle 0,Virtual joint angle 1,Virtual joint angle 2,Therapist position x,Therapist position y,Therapist position z,Patient position x,Patient position y,Patient position z,Virtual position x,Virtual position y,Virtual position z,Assistive Force, Obstacle Force Magnitude, Therapist Constant Force, Patient Constant Force, Recovery Factor, Assistance Level
638224325917523890,0,0,0,0,0,0,0,0,0,0,0,0,0,0,0,0,0,0,0,0,0,0,0,0,0,0.3,0,0,0,0
638224325917593865,15.21973,-0.9818845,-1.70435,-72.36002,-63.23518,-47.09043,-56.89731,-0.4675641,6.607276,-71.48107,-8.594284,-36.83611,0,0,0,33.96092,-112.2261,-43.523,-124.5559,-110.2025,-87.14465,0.001067912,-0.1257102,0.09433498,0,0.3,0,0,0,0
638224325917893782,15.21973,-0.9818845,-1.70435,-72.43327,-63.23518,-47.09043,-56.89731,-0.4675641,6.607276,-71.48107,-8.521038,-36.90935,0,0,0,33.96092,-112.2261,-43.523,-124.5559,-110.2025,-87.14465,0.001067912,-0.1257102,0.09433498,0,0.3,0,0,0,0
638224325918243667,15.21973,-0.9818845,-1.70435,-72.43327,-63.23518,-47.09043,-56.89731,-0.4675641,6.607276,-71.48107,-8.521038,-36.90935,0,0,0,33.96092,-112.2261,-43.523,-124.5559,-110.2025,-87.14465,0.001067912,-0.1257102,0.09433498,0,0.3,0,0,0,0
638224325918583559,15.21973,-0.9818845,-1.70435,-72.43327,-63.16194,-47.09043,-56.89731,-0.4675641,6.607276,-71.48107,-8.594284,-36.90935,0,0,0,33.96092,-112.2261,-43.523,-124.5559,-110.2025,-87.14465,0.001067912,-0.1257102,0.09433498,0,0.3,0,0,0,0
638224325918913575,15.21973,-0.9818845,-1.70435,-72.43327,-63.16194,-47.09043,-56.89731,-0.4675641,6.607276,-71.48107,-8.521038,-36.90935,0,0,0,33.96092,-112.2261,-43.523,-124.5559,-110.2025,-87.14465,0.001067912,-0.1257102,0.09433498,0,0.3,0,0,0,0
638224325919263336,15.21973,-0.9818845,-1.70435,-72.43327,-63.16194,-47.09043,-56.89731,-0.4675641,6.607276,-71.48107,-8.521038,-36.83611,0,0,0,33.96092,-112.2261,-43.523,-124.5559,-110.2025,-87.14465,0.001067912,-0.1257102,0.09433498,0,0.3,0,0,0,0
638224325919593237,15.21973,-0.9818845,-1.70435,-72.43327,-63.23518,-47.09043,-56.89731,-0.4675641,6.607276,-71.48107,-8.594284,-36.83611,0,0,0,33.96092,-112.2261,-43.523,-124.5559,-110.2025,-87.14465,0.001067912,-0.1257102,0.09433498,0,0.3,0,0,0,0
638224325919933123,15.21973,-0.9818845,-1.70435,-72.43327,-63.16194,-47.09043,-56.89731,-0.4675641,6.607276,-71.48107,-8.521038,-36.83611,0,0,0,33.96092,-112.2261,-43.523,-124.5559,-110.2025,-87.14465,0.001067912,-0.1257102,0.09433498,0,0.3,0,0,0,0
638224325920273017,15.21973,-0.9818845,-1.70435,-72.36002,-63.23518,-47.09043,-56.89731,-0.4675641,6.607276,-71.48107,-8.521038,-36.83611,0,0,0,33.96092,-112.2261,-43.523,-124.5559,-110.2025,-87.14465,0.001067912,-0.1257102,0.09433498,0,0.3,0,0,0,0
638224325920613045,15.21973,-0.9818845,-1.70435,-72.43327,-63.23518,-47.09043,-56.89731,-0.4675641,6.607276,-71.48107,-8.521038,-36.90935,0,0,0,33.96092,-112.2261,-43.523,-124.5559,-110.2025,-87.14465,0.001067912,-0.1257102,0.09433498,0,0.3,0,0,0,0
638224325920962801,15.21973,-0.9818845,-1.70435,-72.43327,-63.23518,-47.09043,-56.89731,-0.4675641,6.607276,-71.48107,-8.521038,-36.83611,0,0,0,33.96092,-112.2261,-43.523,-124.5559,-110.2025,-87.14465,0.001067912,-0.1257102,0.09433498,0,0.3,0,0,0,0
638224325921302676,15.21973,-0.9818845,-1.70435,-72.43327,-63.23518,-47.09043,-56.89731,-0.4675641,6.607276,-71.48107,-8.521038,-36.90935,0,0,0,33.96092,-112.2261,-43.523,-124.5559,-110.2025,-87.14465,0.001067912,-0.1257102,0.09433498,0,0.3,0,0,0,0
638224325921642717,15.21973,-0.9818845,-1.70435,-72.43327,-63.23518,-47.09043,-56.89731,-0.4675641,6.607276,-71.48107,-8.521038,-36.83611,0,0,0,33.96092,-112.2261,-43.523,-124.5559,-110.2025,-87.14465,0.001067912,-0.1257102,0.09433498,0,0.3,0,0,0,0
638224325921992470,15.21973,-0.9818845,-1.70435,-72.43327,-63.16194,-47.09043,-56.89731,-0.4675641,6.607276,-71.48107,-8.521038,-36.83611,0,0,0,33.96092,-112.2261,-43.523,-124.5559,-110.2025,-87.14465,0.001067912,-0.1257102,0.09433498,0,0.3,0,0,0,0
638224325922322361,15.21973,-0.9818845,-1.70435,-72.36002,-63.16194,-47.09043,-56.89731,-0.4675641,6.607276,-71.48107,-8.521038,-36.90935,0,0,0,33.96092,-112.2261,-43.523,-124.5559,-110.2025,-87.14465,0.001067912,-0.1257102,0.09433498,0,0.3,0,0,0,0
638224325922662264,15.21973,-0.9818845,-1.70435,-72.43327,-63.23518,-47.09043,-56.89731,-0.4675641,6.607276,-71.48107,-8.521038,-36.83611,0,0,0,33.96092,-112.2261,-43.523,-124.5559,-110.2025,-87.14465,0.001067912,-0.1257102,0.09433498,0,0.3,0,0,0,0
638224325923002145,15.21973,-0.9818845,-1.70435,-72.43327,-63.23518,-47.09043,-56.89731,-0.4675641,6.607276,-71.48107,-8.521038,-36.83611,0,0,0,33.96092,-112.2261,-43.523,-124.5559,-110.2025,-87.14465,0.001067912,-0.1257102,0.09433498,0,0.3,0,0,0,0
638224325923342041,15.21973,-0.9818845,-1.70435,-72.43327,-63.23518,-47.09043,-56.89731,-0.4675641,6.607276,-71.48107,-8.594284,-36.83611,0,0,0,33.96092,-112.2261,-43.523,-124.5559,-110.2025,-87.14465,0.001067912,-0.1257102,0.09433498,0,0.3,0,0,0,0
638224325923681921,15.21973,-0.9818845,-1.70435,-72.43327,-63.16194,-47.09043,-56.89731,-0.4675641,6.607276,-71.48107,-8.521038,-36.90935,0,0,0,33.96092,-112.2261,-43.523,-124.5559,-110.2025,-87.14465,0.001067912,-0.1257102,0.09433498,0,0.3,0,0,0,0
638224325924021811,15.21973,-0.9818845,-1.70435,-72.43327,-63.16194,-47.09043,-56.89731,-0.4675641,6.607276,-71.48107,-8.521038,-36.83611,0,0,0,33.96092,-112.2261,-43.523,-124.5559,-110.2025,-87.14465,0.001067912,-0.1257102,0.09433498,0,0.3,0,0,0,0
638224325924361703,15.21973,-0.9818845,-1.70435,-72.43327,-63.16194,-47.09043,-56.89731,-0.4675641,6.607276,-71.48107,-8.594284,-36.83611,0,0,0,33.96092,-112.2261,-43.523,-124.5559,-110.2025,-87.14465,0.001067912,-0.1257102,0.09433498,0,0.3,0,0,0,0
638224325924701605,15.21973,-0.9818845,-1.70435,-72.43327,-63.16194,-47.09043,-56.89731,-0.4675641,6.607276,-71.48107,-8.521038,-36.90935,0,0,0,33.96092,-112.2261,-43.523,-124.5559,-110.2025,-87.14465,0.001067912,-0.1257102,0.09433498,0,0.3,0,0,0,0
638224325925041630,15.21973,-0.9818845,-1.70435,-72.43327,-63.23518,-47.09043,-56.89731,-0.4675641,6.607276,-71.48107,-8.594284,-36.83611,0,0,0,33.96092,-112.2261,-43.523,-124.5559,-110.2025,-87.14465,0.001067912,-0.1257102,0.09433498,0,0.3,0,0,0,0
638224325925381494,15.21973,-0.9818845,-1.70435,-72.43327,-63.23518,-47.09043,-56.89731,-0.4675641,6.607276,-71.48107,-8.521038,-36.83611,0,0,0,33.96092,-112.2261,-43.523,-124.5559,-110.2025,-87.14465,0.001067912,-0.1257102,0.09433498,0,0.3,0,0,0,0
638224325925721276,15.21973,-0.9818845,-1.70435,-72.43327,-63.16194,-47.09043,-56.89731,-0.4675641,6.607276,-71.48107,-8.594284,-36.83611,0,0,0,33.96092,-112.2261,-43.523,-124.5559,-110.2025,-87.14465,0.001067912,-0.1257102,0.09433498,0,0.3,0,0,0,0
638224325926061173,15.21973,-0.9818845,-1.70435,-72.43327,-63.16194,-47.09043,-56.89731,-0.4675641,6.607276,-71.48107,-8.594284,-36.90935,0,0,0,33.96092,-112.2261,-43.523,-124.5559,-110.2025,-87.14465,0.001067912,-0.1257102,0.09433498,0,0.3,0,0,0,0
638224325926411057,15.21973,-0.9818845,-1.70435,-72.43327,-63.23518,-47.09043,-56.89731,-0.4675641,6.607276,-71.48107,-8.521038,-36.83611,0,0,0,33.96092,-112.2261,-43.523,-124.5559,-110.2025,-87.14465,0.001067912,-0.1257102,0.09433498,0,0.3,0,0,0,0
638224325926750954,15.21973,-0.9818845,-1.70435,-72.43327,-63.16194,-47.09043,-56.89731,-0.4675641,6.607276,-71.48107,-8.521038,-36.83611,0,0,0,33.96092,-112.2261,-43.523,-124.5559,-110.2025,-87.14465,0.001067912,-0.1257102,0.09433498,0,0.3,0,0,0,0
638224325927080846,15.21973,-0.9818845,-1.70435,-72.36002,-63.23518,-47.09043,-56.89731,-0.4675641,6.607276,-71.48107,-8.521038,-36.90935,0,0,0,33.96092,-112.2261,-43.523,-124.5559,-110.2025,-87.14465,0.001067912,-0.1257102,0.09433498,0,0.3,0,0,0,0
638224325927430739,15.21973,-0.9818845,-1.70435,-72.43327,-63.23518,-47.09043,-56.89731,-0.4675641,6.607276,-71.48107,-8.521038,-36.83611,0,0,0,33.96092,-112.2261,-43.523,-124.5559,-110.2025,-87.14465,0.001067912,-0.1257102,0.09433498,0,0.3,0,0,0,0
638224325927780619,15.21973,-0.9818845,-1.70435,-72.43327,-63.23518,-47.09043,-56.89731,-0.4675641,6.607276,-71.40782,-8.521038,-36.83611,0,0,0,33.96092,-112.2261,-43.523,-124.5559,-110.2025,-87.14465,0.001067912,-0.1257102,0.09433498,0,0.3,0,0,0,0
638224325928120522,15.21973,-0.9818845,-1.70435,-72.43327,-63.16194,-47.09043,-56.89731,-0.4675641,6.607276,-71.48107,-8.594284,-36.83611,0,0,0,33.96092,-112.2261,-43.523,-124.5559,-110.2025,-87.14465,0.001067912,-0.1257102,0.09433498,0,0.3,0,0,0,0
638224325928450423,15.21973,-0.9818845,-1.70435,-72.36002,-63.16194,-47.09043,-56.89731,-0.4675641,6.607276,-71.48107,-8.594284,-36.83611,0,0,0,33.96092,-112.2261,-43.523,-124.5559,-110.2025,-87.14465,0.001067912,-0.1257102,0.09433498,0,0.3,0,0,0,0
638224325928800305,15.21973,-0.9818845,-1.70435,-72.43327,-63.16194,-47.09043,-56.89731,-0.4675641,6.607276,-71.48107,-8.594284,-36.83611,0,0,0,33.96092,-112.2261,-43.523,-124.5559,-110.2025,-87.14465,0.001067912,-0.1257102,0.09433498,0,0.3,0,0,0,0
638224325929130203,15.21973,-0.9818845,-1.70435,-72.43327,-63.23518,-47.09043,-56.89731,-0.4675641,6.607276,-71.48107,-8.521038,-36.83611,0,0,0,33.96092,-112.2261,-43.523,-124.5559,-110.2025,-87.14465,0.001067912,-0.1257102,0.09433498,0,0.3,0,0,0,0
638224325929470083,15.21973,-0.9818845,-1.70435,-72.43327,-63.23518,-47.09043,-56.89731,-0.4675641,6.607276,-71.48107,-8.521038,-36.90935,0,0,0,33.96092,-112.2261,-43.523,-124.5559,-110.2025,-87.14465,0.001067912,-0.1257102,0.09433498,0,0.3,0,0,0,0
638224325929819974,15.21973,-0.9818845,-1.70435,-72.36002,-63.16194,-47.09043,-56.89731,-0.4675641,6.607276,-71.48107,-8.521038,-36.83611,0,0,0,33.96092,-112.2261,-43.523,-124.5559,-110.2025,-87.14465,0.001067912,-0.1257102,0.09433498,0,0.3,0,0,0,0
638224325930159862,15.21973,-0.9818845,-1.70435,-72.43327,-63.23518,-47.09043,-56.89731,-0.4675641,6.607276,-71.48107,-8.594284,-36.90935,0,0,0,33.96092,-112.2261,-43.523,-124.5559,-110.2025,-87.14465,0.001067912,-0.1257102,0.09433498,0,0.3,0,0,0,0
638224325930499756,15.21973,-0.9818845,-1.70435,-72.43327,-63.23518,-47.09043,-56.89731,-0.4675641,6.607276,-71.48107,-8.594284,-36.83611,0,0,0,33.96092,-112.2261,-43.523,-124.5559,-110.2025,-87.14465,0.001067912,-0.1257102,0.09433498,0,0.3,0,0,0,0
638224325930839645,15.21973,-0.9818845,-1.70435,-72.43327,-63.23518,-47.09043,-56.89731,-0.4675641,6.607276,-71.48107,-8.521038,-36.83611,0,0,0,33.96092,-112.2261,-43.523,-124.5559,-110.2025,-87.14465,0.001067912,-0.1257102,0.09433498,0,0.3,0,0,0,0
638224325931189532,15.21973,-0.9818845,-1.70435,-72.43327,-63.23518,-47.09043,-56.89731,-0.4675641,6.607276,-71.48107,-8.594284,-36.90935,0,0,0,33.96092,-112.2261,-43.523,-124.5559,-110.2025,-87.14465,0.001067912,-0.1257102,0.09433498,0,0.3,0,0,0,0
638224325931529438,15.21973,-0.9818845,-1.70435,-72.43327,-63.23518,-47.09043,-56.89731,-0.4675641,6.607276,-71.48107,-8.594284,-36.83611,0,0,0,33.96092,-112.2261,-43.523,-124.5559,-110.2025,-87.14465,0.001067912,-0.1257102,0.09433498,0,0.3,0,0,0,0
638224325931869316,15.21973,-0.9818845,-1.70435,-72.43327,-63.16194,-47.09043,-56.89731,-0.4675641,6.607276,-71.48107,-8.521038,-36.83611,0,0,0,33.96092,-112.2261,-43.523,-124.5559,-110.2025,-87.14465,0.001067912,-0.1257102,0.09433498,0,0.3,0,0,0,0
638224325932209210,15.21973,-0.9818845,-1.70435,-72.43327,-63.16194,-47.09043,-56.89731,-0.4675641,6.607276,-71.48107,-8.521038,-36.90935,0,0,0,33.96092,-112.2261,-43.523,-124.5559,-110.2025,-87.14465,0.001067912,-0.1257102,0.09433498,0,0.3,0,0,0,0
638224325932559095,15.21973,-0.9818845,-1.70435,-72.43327,-63.23518,-47.09043,-56.89731,-0.4675641,6.607276,-71.48107,-8.594284,-36.90935,0,0,0,33.96092,-112.2261,-43.523,-124.5559,-110.2025,-87.14465,0.001067912,-0.1257102,0.09433498,0,0.3,0,0,0,0
638224325932898977,15.21973,-0.9818845,-1.681003,-72.28677,-63.23518,-47.01719,-56.89731,-0.4675641,6.607276,-71.48107,-8.521038,-36.90935,0,0,0,33.97518,-112.2277,-43.47059,-124.5559,-110.2025,-87.14465,0.001067912,-0.1257102,0.09433498,0,0.3,0,0,0,0
638224325933238883,15.21973,-0.9818845,-1.44753,-70.60213,-62.42948,-47.23692,-56.89731,-0.4675641,6.607276,-71.48107,-8.594284,-36.83611,0,0,0,34.11777,-112.2426,-42.94646,-124.5559,-110.2025,-87.14465,0.001067912,-0.1257102,0.09433498,0,0.3,0,0,0,0
638224325933578762,15.10193,-0.8649935,-1.330794,-65.40173,-61.62378,-49.43428,-56.89731,-0.4675641,6.607276,-71.48107,-8.521038,-36.90935,0,0,0,33.93178,-111.9771,-42.61012,-124.5559,-110.2025,-87.14465,0.001067912,-0.1257102,0.09433498,0,0.3,0,0,0,0
638224325933928648,14.96058,-0.7247244,-1.2841,-60.86052,-61.40405,-50.67944,-56.89731,-0.4675641,6.607276,-71.48107,-8.521038,-36.83611,0,0,0,33.65067,-111.6532,-42.41744,-124.5559,-110.2025,-87.14465,0.001067912,-0.1257102,0.09433498,0,0.3,0,0,0,0
638224325934268549,14.37158,-0.4441859,-1.2841,-47.31017,-60.6716,-58.73641,-56.89731,-0.4675641,6.607276,-71.48107,-8.594284,-36.83611,0,0,0,32.35598,-111.0003,-42.07172,-124.5559,-110.2025,-87.14465,0.001067912,-0.1257102,0.09433498,0,0.3,0,0,4.770059E-05,0
638224325934598448,13.66478,-0.1870256,-1.307447,-30.9765,-58.47424,-74.9236,-56.89731,-0.4675641,6.607276,-71.48107,-8.594284,-36.90935,0,0,0,30.78374,-110.4006,-41.73178,-124.5559,-110.2025,-87.14465,0.001067912,-0.1257102,0.09433498,0,0.3,0,0,0.000358404,0
638224325934948336,13.33494,0.09351282,-1.400836,-23.57873,-56.86285,-81.07619,-56.89731,-0.4675641,6.607276,-71.48107,-8.521038,-36.83611,0,0,0,30.00433,-109.7425,-41.76758,-124.5559,-110.2025,-87.14465,0.001067912,-0.1257102,0.09433498,0,0.3,0,0,0.0005824297,0
638224325935288228,12.72238,0.7013461,-1.54092,-11.2003,-52.68787,-87.44852,-56.89731,-0.4675641,6.607276,-71.48107,-8.521038,-36.83611,0,0,0,28.57539,-108.3195,-41.78153,-124.5559,-110.2025,-87.14465,0.001067912,-0.1257102,0.09433498,0,0.3,0,0,0.001159198,0
638224325935638113,12.08626,0.8649935,-1.54092,-1.678428,-47.26773,-90.08535,-56.89731,-0.4675641,6.607276,-71.48107,-8.521038,-36.83611,0,0,0,27.16735,-107.9387,-41.47718,-124.5559,-110.2025,-87.14465,0.001067912,-0.1257102,0.09433498,0,0.3,0,0,0.001873965,0
638224325935978166,11.37946,0.8649935,-1.517572,5.206618,-41.04189,-89.86562,-56.89731,-0.4675641,6.607276,-71.48107,-8.521038,-36.90935,0,0,0,25.61095,-107.9401,-41.09845,-124.5559,-110.2025,-87.14465,0.001067912,-0.1257102,0.09433498,0,0.3,0,0,0.002730627,0
638224325936317897,10.95538,0.8649935,-1.494225,7.696954,-37.9656,-87.88799,-56.89731,-0.4675641,6.607276,-71.48107,-8.521038,-36.83611,0,0,0,24.67871,-107.9416,-40.85905,-124.5559,-110.2025,-87.14465,0.001067912,-0.1257102,0.09433498,0,0.3,0,0,0.003219047,0
638224325936657797,9.965863,0.8649935,-1.494225,11.13948,-32.17923,-82.10162,-56.89731,-0.4675641,6.607276,-71.48107,-8.521038,-36.83611,0,0,0,22.47333,-107.9416,-40.45187,-124.5559,-110.2025,-87.14465,0.001067912,-0.1257102,0.09433498,0,0.3,0,0,0.004351611,0
638224325936987696,9.188385,0.8649935,-1.79774,13.1171,-27.19856,-77.63367,-56.89731,-0.4675641,6.607276,-71.48107,-8.594284,-36.90935,0,0,0,20.62304,-107.9213,-40.85575,-124.5559,-110.2025,-87.14465,0.001067912,-0.1257102,0.09433498,0,0.3,0,0,0.005674978,0
638224325937337577,8.905665,0.9818845,-2.007865,13.92279,-24.70822,-76.242,-56.89731,-0.4675641,6.607276,-71.40782,-8.521038,-36.90935,0,0,0,19.91734,-107.633,-41.24275,-124.5559,-110.2025,-87.14465,0.001067912,-0.1257102,0.09433498,0,0.3,0,0,0.006390115,0
638224325937667467,8.811425,1.56634,-2.568199,14.87498,-20.46,-73.97141,-56.89731,-0.4675641,6.607276,-71.48107,-8.594284,-36.90935,0,0,0,19.50401,-106.221,-42.52775,-124.5559,-110.2025,-87.14465,0.001067912,-0.1257102,0.09433498,0,0.3,0,0,0.007855192,0
638224325938007358,8.905665,2.220929,-3.058492,15.46094,-17.16397,-69.21047,-56.89731,-0.4675641,6.607276,-71.48107,-8.594284,-36.83611,0,0,0,19.5267,-104.6424,-43.73572,-124.5559,-110.2025,-87.14465,0.001067912,-0.1257102,0.09433498,0,0.3,0,0,0.009299851,0
638224325938347296,8.929225,2.220929,-3.362006,15.3877,-15.77231,-63.13113,-56.89731,-0.4675641,6.607276,-71.48107,-8.594284,-36.90935,0,0,0,19.46847,-104.6028,-44.44051,-124.5559,-110.2025,-87.14465,0.001067912,-0.1257102,0.09433498,0,0.3,0,0,0.01002093,0
638224325938687131,8.929225,2.150795,-3.688868,14.50875,-12.91575,-49.36103,-56.89731,-0.4675641,6.607276,-71.48107,-8.521038,-36.83611,0,0,0,19.35158,-104.7191,-45.18445,-124.5559,-110.2025,-87.14465,0.001067912,-0.1257102,0.09433498,0,0.3,0,0,0.01145306,0
638224325939037035,8.905665,2.174173,-3.735562,13.62981,-9.692961,-39.91241,-56.89731,-0.4675641,6.607276,-71.48107,-8.521038,-36.83611,0,0,0,19.28383,-104.6577,-45.28567,-124.5559,-110.2025,-87.14465,0.001067912,-0.1257102,0.09433498,0,0.3,0,0,0.01284705,0
638224325939376928,8.740746,2.267686,-3.548784,13.26359,-6.909645,-32.95412,-56.89731,-0.4675641,6.607276,-71.48107,-8.594284,-36.90935,0,0,0,18.99416,-104.4679,-44.81022,-124.5559,-110.2025,-87.14465,0.001067912,-0.1257102,0.09433498,0,0.3,0,0,0.01420243,0
638224325939726811,8.505146,2.407955,-3.338659,13.1171,-5.664476,-29.3651,-56.89731,-0.4675641,6.607276,-71.48107,-8.521038,-36.90935,0,0,0,18.55624,-104.1711,-44.26354,-124.5559,-110.2025,-87.14465,0.001067912,-0.1257102,0.09433498,0,0.3,0,0,0.01487887,0
638224325940056707,7.492068,3.202814,-2.778325,12.89736,-3.393876,-23.13926,-56.89731,-0.4675641,6.607276,-71.48107,-8.521038,-36.90935,0,0,0,16.51741,-102.3929,-42.75348,-124.5559,-110.2025,-87.14465,0.001067912,-0.1257102,0.09433498,0,0.3,0,0,0.01629931,0
638224325940396599,5.536591,4.839288,-2.171296,12.01842,-1.855728,-19.03753,-56.89731,-0.4675641,6.607276,-71.40782,-8.521038,-36.90935,0,0,0,12.33249,-98.6547,-41.12394,-124.5559,-110.2025,-87.14465,0.001067912,-0.1257102,0.09433498,0,0.3,0,0,0.01795908,0
638224325940736488,4.217233,5.867929,-1.751045,10.99299,-1.416257,-16.5472,-56.89731,-0.4675641,6.607276,-71.48107,-8.594284,-36.83611,0,0,0,9.455281,-96.3046,-40.1216,-124.5559,-110.2025,-87.14465,0.001067912,-0.1257102,0.09433498,0,0.3,0,0,0.01892646,0
638224325941076382,1.484278,8.018724,-0.6303762,7.623709,-1.562747,-10.3946,-56.89731,-0.4675641,6.607276,-71.48107,-8.521038,-36.90935,0,0,0,3.382342,-91.39005,-37.81474,-124.5559,-110.2025,-87.14465,0.001067912,-0.1257102,0.09433498,0,0.3,0,0,0.02114519,0
638224325941416276,-1.107318,10.12276,0.7471125,3.155754,-2.441689,-3.582802,-56.89731,-0.4675641,6.607276,-71.48107,-8.594284,-36.83611,0,0,0,-2.570495,-86.55135,-35.36186,-124.5559,-110.2025,-87.14465,0.001067912,-0.1257102,0.09433498,0,0.3,0,0,0.02367731,0
638224325941756150,-2.285316,11.05789,1.494225,1.104889,-3.027651,-0.3600145,-56.89731,-0.4675641,6.607276,-71.48107,-8.521038,-36.83611,0,0,0,-5.357361,-84.37803,-34.10539,-124.5559,-110.2025,-87.14465,0.001067912,-0.1257102,0.09433498,0,0.3,0,0,0.02503854,0
638224325942096052,-4.523513,12.88139,3.198575,-3.436311,-4.712289,6.964502,-56.89731,-0.4675641,6.607276,-71.48107,-8.521038,-36.90935,0,0,0,-10.83922,-80.06408,-31.34355,-124.5559,-110.2025,-87.14465,0.001067912,-0.1257102,0.09433498,0,0.3,0,0,0.02790373,0
638224325942435948,-6.24339,14.70489,5.019662,-7.611286,-6.98289,14.43551,-56.89731,-0.4675641,6.607276,-71.48107,-8.521038,-36.83611,0,0,0,-15.296,-75.63894,-28.53414,-124.5559,-110.2025,-87.14465,0.001067912,-0.1257102,0.09433498,0,0.3,0,0,0.0308581,0
638224325942785837,-7.374268,16.59852,6.980833,-11.05381,-9.25349,20.88108,-56.89731,-0.4675641,6.607276,-71.48107,-8.521038,-36.90935,0,0,0,-18.48247,-70.91821,-25.54074,-124.5559,-110.2025,-87.14465,0.001067912,-0.1257102,0.09433498,0,0.3,0,0,0.03374752,0
638224325943125729,-7.845467,17.58041,7.938071,-12.44547,-10.42541,24.10387,-56.89731,-0.4675641,6.607276,-71.48107,-8.594284,-36.90935,0,0,0,-19.86616,-68.44467,-24.17451,-124.5559,-110.2025,-87.14465,0.001067912,-0.1257102,0.09433498,0,0.3,0,0,0.03514002,0
638224325943465618,-8.505146,19.54418,9.875894,-15.08229,-12.91575,29.59726,-56.89731,-0.4675641,6.607276,-71.48107,-8.594284,-36.90935,0,0,0,-21.96856,-63.41391,-21.44518,-124.5559,-110.2025,-87.14465,0.001067912,-0.1257102,0.09433498,0,0.3,0,0,0.0377745,0
638224325943795650,-8.575826,21.18065,10.83313,-17.42614,-15.33284,33.5525,-56.89731,-0.4675641,6.607276,-71.48107,-8.594284,-36.90935,0,0,0,-22.27895,-59.44288,-20.61574,-124.5559,-110.2025,-87.14465,0.001067912,-0.1257102,0.09433498,0,0.3,0,0,0.04017067,0
638224325944135403,-8.575826,21.81186,11.01991,-18.45157,-16.13853,34.87091,-56.89731,-0.4675641,6.607276,-71.48107,-8.594284,-36.83611,0,0,0,-22.26233,-57.9936,-20.726,-124.5559,-110.2025,-87.14465,0.001067912,-0.1257102,0.09433498,0,0.3,0,0,0.0413036,0
638224325944475311,-8.575826,22.25605,10.92652,-20.20946,-16.06529,35.31038,-56.89731,-0.4675641,6.607276,-71.48107,-8.594284,-36.90935,0,0,0,-22.17267,-57.07668,-21.32049,-124.5559,-110.2025,-87.14465,0.001067912,-0.1257102,0.09433498,0,0.3,0,0,0.04350562,0
638224325944815192,-8.528707,22.51321,11.25338,-21.82085,-13.86794,35.89634,-56.89731,-0.4675641,6.607276,-71.48107,-8.521038,-36.83611,0,0,0,-22.12866,-56.37694,-20.78944,-124.5559,-110.2025,-87.14465,0.001067912,-0.1257102,0.09433498,0,0.3,0,0,0.0456193,0
638224325945155201,-8.410906,22.98077,11.81372,-22.62654,-12.32979,37.72747,-56.89731,-0.4675641,6.607276,-71.48107,-8.521038,-36.83611,0,0,0,-21.95059,-55.11263,-19.89645,-124.5559,-110.2025,-87.14465,0.001067912,-0.1257102,0.09433498,0,0.3,0,0,0.04659419,0
638224325945494981,-8.057507,24.66401,13.05112,-24.53092,-9.692961,43.00113,-56.89731,-0.4675641,6.607276,-71.48107,-8.521038,-36.83611,0,0,0,-21.20693,-50.90898,-18.54594,-124.5559,-110.2025,-87.14465,0.001067912,-0.1257102,0.09433498,0,0.3,0,0,0.04824738,0
638224325945824990,-7.468508,26.39399,14.35857,-26.21556,-8.154812,48.93398,-56.89731,-0.4675641,6.607276,-71.48107,-8.594284,-36.83611,0,0,0,-19.82827,-46.49272,-17.09693,-124.5559,-110.2025,-87.14465,0.001067912,-0.1257102,0.09433498,0,0.3,0,0,0.04961882,0
638224325946164759,-7.209348,26.65115,14.84886,-27.0945,-7.422361,51.79055,-56.89731,-0.4675641,6.607276,-71.48107,-8.521038,-36.90935,0,0,0,-19.24539,-45.7317,-16.20665,-124.5559,-110.2025,-87.14465,0.001067912,-0.1257102,0.09433498,0,0.3,0,0,0.05020013,0
638224325946504784,-6.855949,26.53426,15.3625,-28.33967,-4.785534,57.7234,-56.89731,-0.4675641,6.607276,-71.48107,-8.521038,-36.83611,0,0,0,-18.45893,-45.66344,-14.82405,-124.5559,-110.2025,-87.14465,0.001067912,-0.1257102,0.09433498,0,0.3,0,0,0.05125521,0
638224325946854536,-6.549669,26.58102,15.94618,-28.48616,-1.050031,64.68169,-56.89731,-0.4675641,6.607276,-71.48107,-8.521038,-36.83611,0,0,0,-17.78164,-45.19955,-13.47638,-124.5559,-110.2025,-87.14465,0.001067912,-0.1257102,0.09433498,0,0.3,0,0,0.0521721,0
638224325947184427,-6.431869,26.58102,16.06292,-27.9002,3.344679,71.71323,-56.89731,-0.4675641,6.607276,-71.48107,-8.521038,-36.90935,0,0,0,-17.49243,-45.12464,-13.18063,-124.5559,-110.2025,-87.14465,0.001067912,-0.1257102,0.09433498,0,0.3,0,0,0.05300584,0
638224325947524447,-6.431869,26.55764,16.2497,-27.46073,5.835015,74.93602,-56.89731,-0.4675641,6.607276,-71.40782,-8.521038,-36.83611,0,0,0,-17.54193,-45.05235,-12.74154,-124.5559,-110.2025,-87.14465,0.001067912,-0.1257102,0.09433498,0,0.3,0,0,0.05340572,0
638224325947864218,-6.431869,26.58102,16.41313,-25.6296,9.8635,80.79563,-56.89731,-0.4675641,6.607276,-71.48107,-8.594284,-36.83611,0,0,0,-17.5801,-44.89672,-12.403,-124.5559,-110.2025,-87.14465,0.001067912,-0.1257102,0.09433498,0,0.3,0,0,0.05417636,0
638224325948204106,-6.502549,26.58102,16.52986,-22.84628,12.72006,84.45789,-56.89731,-0.4675641,6.607276,-71.48107,-8.521038,-36.83611,0,0,0,-17.80197,-44.81969,-12.16594,-124.5559,-110.2025,-87.14465,0.001067912,-0.1257102,0.09433498,0,0.3,0,0,0.05492258,0
638224325948544014,-6.596789,26.58102,16.59991,-21.0884,13.81874,85.84955,-56.89731,-0.4675641,6.607276,-71.48107,-8.521038,-36.90935,0,0,0,-18.07678,-44.77321,-12.04022,-124.5559,-110.2025,-87.14465,0.001067912,-0.1257102,0.09433498,0,0.3,0,0,0.05529389,0
638224325948883888,-6.832388,26.58102,16.66995,-17.42614,15.13715,87.68068,-56.89731,-0.4675641,6.607276,-71.48107,-8.594284,-36.83611,0,0,0,-18.73795,-44.72654,-11.96078,-124.5559,-110.2025,-87.14465,0.001067912,-0.1257102,0.09433498,0,0.3,0,0,0.05604717,0
638224325949223789,-7.020868,26.58102,16.92677,-15.08229,14.99066,84.67763,-56.89731,-0.4675641,6.607276,-71.48107,-8.521038,-36.83611,0,0,0,-19.32225,-44.5538,-11.45535,-124.5559,-110.2025,-87.14465,0.001067912,-0.1257102,0.09433498,0,0.3,0,0,0.05678996,0
638224325949563675,-7.067988,26.58102,17.16024,-14.49633,14.4047,81.52808,-56.89731,-0.4675641,6.607276,-71.48107,-8.521038,-36.90935,0,0,0,-19.5152,-44.39454,-10.95572,-124.5559,-110.2025,-87.14465,0.001067912,-0.1257102,0.09433498,0,0.3,0,0,0.05714994,0
638224325949903565,-7.067988,26.53426,18.35095,-13.83713,12.79331,74.35006,-56.89731,-0.4675641,6.607276,-71.48107,-8.521038,-36.90935,0,0,0,-19.84593,-43.64677,-8.288289,-124.5559,-110.2025,-87.14465,0.001067912,-0.1257102,0.09433498,0,0.3,0,0,0.05777283,0
638224325950253450,-7.115108,26.39399,19.75179,-13.39765,10.81569,68.56369,-56.89731,-0.4675641,6.607276,-71.48107,-8.594284,-36.83611,0,0,0,-20.37728,-42.87484,-5.102386,-124.5559,-110.2025,-87.14465,0.001067912,-0.1257102,0.09433498,0,0.3,0,0,0.05826088,0
638224325950593332,-7.586308,26.0667,21.01254,-12.59196,9.790254,65.63388,-56.89731,-0.4675641,6.607276,-71.48107,-8.594284,-36.83611,0,0,0,-22.12669,-42.53622,-2.215331,-124.5559,-110.2025,-87.14465,0.001067912,-0.1257102,0.09433498,0,0.3,0,0,0.0586733,0
638224325950933237,-7.986827,26.09007,21.85304,-12.29898,9.570518,64.75494,-56.89731,-0.4675641,6.607276,-71.48107,-8.594284,-36.83611,0,0,0,-23.53716,-41.77254,-0.5945237,-124.5559,-110.2025,-87.14465,0.001067912,-0.1257102,0.09433498,0,0.3,0,0,0.05885974,0
638224325951263131,-9.211945,26.09007,23.32392,-12.29898,9.204292,62.70407,-56.89731,-0.4675641,6.607276,-71.48107,-8.521038,-36.83611,0,0,0,-27.62449,-40.45765,1.983742,-124.5559,-110.2025,-87.14465,0.001067912,-0.1257102,0.09433498,0,0.3,0,0,0.05925127,0
638224325951603034,-10.48418,26.23034,24.86484,-13.39765,9.057802,59.04182,-56.89731,-0.4675641,6.607276,-71.48107,-8.594284,-36.83611,0,0,0,-31.9691,-38.70059,4.405995,-124.5559,-110.2025,-87.14465,0.001067912,-0.1257102,0.09433498,0,0.3,0,0,0.05967956,0
638224325951942916,-11.04962,26.30048,25.91546,-14.13011,8.838067,56.91771,-56.89731,-0.4675641,6.607276,-71.48107,-8.521038,-36.83611,0,0,0,-34.08194,-37.50576,6.179253,-124.5559,-110.2025,-87.14465,0.001067912,-0.1257102,0.09433498,0,0.3,0,0,0.05987816,0
638224325952282794,-12.39254,26.39399,28.41362,-15.81474,8.03237,53.10896,-56.89731,-0.4675641,6.607276,-71.48107,-8.521038,-36.83611,0,0,0,-39.25221,-34.65648,10.29019,-124.5559,-110.2025,-87.14465,0.001067912,-0.1257102,0.09433498,0,0.3,0,0,0.06021494,0
638224325952622697,-14.39514,26.65115,31.68224,-18.15859,6.933692,50.39889,-56.89731,-0.4675641,6.607276,-71.48107,-8.521038,-36.90935,0,0,0,-47.04119,-30.31228,14.92793,-124.5559,-110.2025,-87.14465,0.001067912,-0.1257102,0.09433498,0,0.3,0,0,0.06047692,0
638224325952962596,-15.64381,26.95507,33.66676,-19.76999,6.127995,49.59319,-56.89731,-0.4675641,6.607276,-71.48107,-8.521038,-36.90935,0,0,0,-51.9863,-27.18755,17.2958,-124.5559,-110.2025,-87.14465,0.001067912,-0.1257102,0.09433498,0,0.3,0,0,0.06056545,0
638224325953302483,-17.99981,27.74993,37.51905,-24.16469,4.296866,48.64101,-56.89731,-0.4675641,6.607276,-71.48107,-8.521038,-36.90935,0,0,0,-61.56381,-20.32712,21.12605,-124.5559,-110.2025,-87.14465,0.001067912,-0.1257102,0.09433498,0,0.3,0,0,0.06062689,0
638224325953642402,-19.64901,28.94222,41.25462,-29.51159,1.733285,48.05504,-56.89731,-0.4675641,6.607276,-71.48107,-8.521038,-36.83611,0,0,0,-68.80749,-12.36905,24.3621,-124.5559,-110.2025,-87.14465,0.001067912,-0.1257102,0.09433498,0,0.3,0,0,0.0604359,0
638224325953992260,-20.45005,30.06437,44.56993,-34.05279,-1.196521,47.54232,-56.89731,-0.4675641,6.607276,-71.48107,-8.521038,-36.83611,0,0,0,-73.01976,-4.843101,27.47052,-124.5559,-110.2025,-87.14465,0.001067912,-0.1257102,0.09433498,0,0.3,0,0,0.05990859,0
638224325954332149,-20.82701,30.55531,46.11085,-36.25014,-2.661425,47.32259,-56.89731,-0.4675641,6.607276,-71.48107,-8.594284,-36.83611,0,0,0,-74.99773,-1.305809,28.80293,-124.5559,-110.2025,-87.14465,0.001067912,-0.1257102,0.09433498,0,0.3,0,0,0.05951502,0
638224325954672045,-21.62804,31.11639,48.95922,-40.64486,-5.664476,47.1761,-56.89731,-0.4675641,6.607276,-71.48107,-8.594284,-36.83611,0,0,0,-79.14942,4.70529,31.2731,-124.5559,-110.2025,-87.14465,0.001067912,-0.1257102,0.09433498,0,0.3,0,0,0.05852026,0
638224325955011927,-22.42908,31.46706,51.20055,-45.47904,-7.715342,47.02961,-56.89731,-0.4675641,6.607276,-71.48107,-8.521038,-36.83611,0,0,0,-83.04787,9.403193,32.8493,-124.5559,-110.2025,-87.14465,0.001067912,-0.1257102,0.09433498,0,0.3,0,0,0.05730715,0
638224325955351838,-22.75892,31.63071,51.92432,-47.74964,-8.374548,46.95637,-56.89731,-0.4675641,6.607276,-71.48107,-8.521038,-36.83611,0,0,0,-84.53276,11.0472,33.14976,-124.5559,-110.2025,-87.14465,0.001067912,-0.1257102,0.09433498,0,0.3,0,0,0.0566567,0
638224325955681723,-23.23012,32.19178,52.74147,-51.26541,-9.106999,46.3704,-56.89731,-0.4675641,6.607276,-71.40782,-8.521038,-36.83611,0,0,0,-86.37313,13.66112,32.88138,-124.5559,-110.2025,-87.14465,0.001067912,-0.1257102,0.09433498,0,0.3,0,0,0.05531885,0
638224325956031614,-23.32436,33.5711,54.09562,-53.60925,-9.912696,45.7112,-56.89731,-0.4675641,6.607276,-71.48107,-8.594284,-36.90935,0,0,0,-86.75762,18.88771,32.8634,-124.5559,-110.2025,-87.14465,0.001067912,-0.1257102,0.09433498,0,0.3,0,0,0.05382928,0
638224325956381504,-23.27724,35.72189,56.15017,-55.87985,-11.15786,45.41821,-56.89731,-0.4675641,6.607276,-71.48107,-8.521038,-36.83611,0,0,0,-86.54805,26.92824,32.83225,-124.5559,-110.2025,-87.14465,0.001067912,-0.1257102,0.09433498,0,0.3,0,0,0.05203113,0
638224325956711393,-23.183,36.77391,57.08406,-57.12502,-12.11005,45.41821,-56.89731,-0.4675641,6.607276,-71.48107,-8.594284,-36.90935,0,0,0,-86.11791,30.71772,32.74289,-124.5559,-110.2025,-87.14465,0.001067912,-0.1257102,0.09433498,0,0.3,0,0,0.05101429,0
638224325957051295,-22.52332,39.11173,58.53159,-59.46887,-13.79469,46.29716,-56.89731,-0.4675641,6.607276,-71.40782,-8.521038,-36.83611,0,0,0,-83.20302,37.85934,32.28882,-124.5559,-110.2025,-87.14465,0.001067912,-0.1257102,0.09433498,0,0.3,0,0,0.04875139,0
638224325957381181,-21.0626,42.1509,59.44214,-61.00701,-15.77231,47.10286,-56.89731,-0.4675641,6.607276,-71.48107,-8.521038,-36.83611,0,0,0,-76.79861,45.04301,31.06567,-124.5559,-110.2025,-87.14465,0.001067912,-0.1257102,0.09433498,0,0.3,0,0,0.04616507,0
638224325957721073,-20.14377,43.71724,59.58222,-61.37324,-16.94423,47.39584,-56.89731,-0.4675641,6.607276,-71.48107,-8.594284,-36.83611,0,0,0,-72.79275,47.99289,30.09569,-124.5559,-110.2025,-87.14465,0.001067912,-0.1257102,0.09433498,0,0.3,0,0,0.04476412,0
638224325958060950,-17.76421,47.03695,59.60557,-60.93377,-19.50781,47.68882,-56.89731,-0.4675641,6.607276,-71.48107,-8.594284,-36.90935,0,0,0,-62.82151,53.46621,27.73685,-124.5559,-110.2025,-87.14465,0.001067912,-0.1257102,0.09433498,0,0.3,0,0,0.04174766,0
638224325958400853,-14.96058,50.54368,59.60557,-59.17588,-22.21789,47.76206,-56.89731,-0.4675641,6.607276,-71.48107,-8.521038,-36.83611,0,0,0,-51.57029,58.84234,24.64402,-124.5559,-110.2025,-87.14465,0.001067912,-0.1257102,0.09433498,0,0.3,0,0,0.0384386,0
638224325958740754,-13.45274,52.22691,59.58222,-58.00396,-23.68279,47.61557,-56.89731,-0.4675641,6.607276,-71.48107,-8.521038,-36.90935,0,0,0,-45.75555,61.24025,22.93053,-124.5559,-110.2025,-87.14465,0.001067912,-0.1257102,0.09433498,0,0.3,0,0,0.03667405,0
638224325959080648,-10.22502,55.14918,59.30205,-55.36714,-26.75908,46.29716,-56.89731,-0.4675641,6.607276,-71.48107,-8.594284,-36.90935,0,0,0,-33.8814,64.70592,19.4842,-124.5559,-110.2025,-87.14465,0.001067912,-0.1257102,0.09433498,0,0.3,0,0,0.03295043,0
638224325959410544,-6.855949,57.11295,58.55495,-51.33865,-29.5424,43.73357,-56.89731,-0.4675641,6.607276,-71.48107,-8.521038,-36.83611,0,0,0,-22.22417,65.76356,16.49208,-124.5559,-110.2025,-87.14465,0.001067912,-0.1257102,0.09433498,0,0.3,0,0,0.02901699,0
638224325959750435,-5.112512,57.83767,57.97126,-48.62858,-30.71432,41.8292,-56.89731,-0.4675641,6.607276,-71.48107,-8.521038,-36.83611,0,0,0,-16.39983,65.51511,14.95443,-124.5559,-110.2025,-87.14465,0.001067912,-0.1257102,0.09433498,0,0.3,0,0,0.02700215,0
638224325960090320,-1.743437,58.74942,56.52373,-42.03651,-32.6187,36.4823,-56.89731,-0.4675641,6.607276,-71.48107,-8.521038,-36.90935,0,0,0,-5.488759,63.79707,11.97519,-124.5559,-110.2025,-87.14465,0.001067912,-0.1257102,0.09433498,0,0.3,0,0,0.02290584,0
638224325960430204,1.272238,59.02996,54.46917,-34.78524,-33.57088,29.96349,-56.89731,-0.4675641,6.607276,-71.48107,-8.594284,-36.90935,0,0,0,3.93305,60.19402,8.747497,-124.5559,-110.2025,-87.14465,0.001067912,-0.1257102,0.09433498,0,0.3,0,0,0.01880331,0
638224325960780083,3.793154,58.86631,51.85428,-27.46073,-33.35115,23.22493,-56.89731,-0.4675641,6.607276,-71.48107,-8.594284,-36.83611,0,0,0,11.49893,55.12725,5.088155,-124.5559,-110.2025,-87.14465,0.001067912,-0.1257102,0.09433498,0,0.3,0,0,0.0147999,0
638224325961109993,4.947592,58.67929,50.59352,-24.09145,-32.91168,20.14863,-56.89731,-0.4675641,6.607276,-71.48107,-8.594284,-36.83611,0,0,0,14.86454,52.61408,3.361321,-124.5559,-110.2025,-87.14465,0.001067912,-0.1257102,0.09433498,0,0.3,0,0,0.01284575,0
638224325961459879,7.115108,58.25848,47.90859,-18.0121,-31.22704,15.68068,-56.89731,-0.4675641,6.607276,-71.48107,-8.594284,-36.83611,0,0,0,20.94646,47.3683,-0.5425433,-124.5559,-110.2025,-87.14465,0.001067912,-0.1257102,0.09433498,0,0.3,0,0,0.009043066,0
638224325961789776,8.811425,57.60389,44.96684,-12.22573,-29.24942,12.60438,-56.89731,-0.4675641,6.607276,-71.48107,-8.521038,-36.90935,0,0,0,25.37979,41.59873,-4.622469,-124.5559,-110.2025,-87.14465,0.001067912,-0.1257102,0.09433498,0,0.3,0,0,0.005430071,0
638224325962139665,9.353305,57.13633,43.40257,-9.955132,-28.15074,11.35921,-56.89731,-0.4675641,6.607276,-71.48107,-8.521038,-36.90935,0,0,0,26.65176,38.47458,-6.541472,-124.5559,-110.2025,-87.14465,0.001067912,-0.1257102,0.09433498,0,0.3,0,0,0.003718233,0
638224325962469560,9.730264,55.89729,39.97052,-6.80559,-25.51392,8.722386,-56.89731,-0.4675641,6.607276,-71.48107,-8.521038,-36.83611,0,0,0,27.11421,31.57218,-10.22829,-124.5559,-110.2025,-87.14465,0.001067912,-0.1257102,0.09433498,0,0.3,0,0,0.0005568162,0
638224325962809452,9.848064,54.33094,36.67855,-5.413931,-22.7306,6.598277,-56.89731,-0.4675641,6.607276,-71.48107,-8.594284,-36.90935,0,0,0,26.92279,24.73675,-13.25946,-124.5559,-110.2025,-87.14465,0.001067912,-0.1257102,0.09433498,0,0.3,0,0,0,0
638224325963149346,10.03654,53.60622,35.44115,-4.97446,-21.19245,6.012315,-56.89731,-0.4675641,6.607276,-71.40782,-8.594284,-36.90935,0,0,0,27.26481,22.04939,-14.29818,-124.5559,-110.2025,-87.14465,0.001067912,-0.1257102,0.09433498,0,0.3,0,0,0,0
638224325963489231,10.95538,52.18015,33.31655,-4.461744,-18.40914,5.133373,-56.89731,-0.4675641,6.607276,-71.48107,-8.594284,-36.83611,0,0,0,29.45919,17.25509,-16.16298,-124.5559,-110.2025,-87.14465,0.001067912,-0.1257102,0.09433498,0,0.3,0,0,0,0
638224325963829122,12.32186,50.80084,31.5655,-3.509557,-15.9188,4.400921,-56.89731,-0.4675641,6.607276,-71.48107,-8.594284,-36.90935,0,0,0,32.88216,13.07024,-17.81474,-124.5559,-110.2025,-87.14465,0.001067912,-0.1257102,0.09433498,0,0.3,0,0,0,0
638224325964159016,13.33494,50.16962,30.84174,-2.777105,-14.74688,3.81496,-56.89731,-0.4675641,6.607276,-71.48107,-8.594284,-36.83611,0,0,0,35.46767,11.26281,-18.71881,-124.5559,-110.2025,-87.14465,0.001067912,-0.1257102,0.09433498,0,0.3,0,0,0,0
638224325964508902,15.90297,49.35139,29.95454,-0.7994855,-12.8425,2.789528,-56.89731,-0.4675641,6.607276,-71.48107,-8.521038,-36.83611,0,0,0,42.04669,8.987811,-20.77301,-124.5559,-110.2025,-87.14465,0.001067912,-0.1257102,0.09433498,0,0.3,0,0,0,0
638224325964848966,19.36629,48.72018,29.41755,2.130321,-11.3776,1.178134,-56.89731,-0.4675641,6.607276,-71.48107,-8.521038,-36.83611,0,0,0,50.89277,7.405757,-23.5603,-124.5559,-110.2025,-87.14465,0.001067912,-0.1257102,0.09433498,0,0.3,0,0,0,0
638224325965188687,23.25368,48.32275,29.37086,5.79258,-10.20568,-1.531937,-56.89731,-0.4675641,6.607276,-71.48107,-8.521038,-36.83611,0,0,0,60.82801,6.73977,-26.79404,-124.5559,-110.2025,-87.14465,0.001067912,-0.1257102,0.09433498,0,0.3,0,0,0,0
638224325965528590,25.13848,48.20586,29.46425,7.770199,-9.692961,-3.143331,-56.89731,-0.4675641,6.607276,-71.48107,-8.521038,-36.83611,0,0,0,65.61755,6.665424,-28.51608,-124.5559,-110.2025,-87.14465,0.001067912,-0.1257102,0.09433498,0,0.3,0,0,0,0
638224325965868472,28.86095,48.18248,30.04793,11.94517,-8.740773,-6.292873,-56.89731,-0.4675641,6.607276,-71.48107,-8.521038,-36.83611,0,0,0,75.14647,7.303366,-32.00286,-124.5559,-110.2025,-87.14465,0.001067912,-0.1257102,0.09433498,0,0.3,0,0,0,0
638224325966208505,32.44207,48.32275,31.40207,15.90041,-8.081567,-9.955132,-56.89731,-0.4675641,6.607276,-71.48107,-8.521038,-36.83611,0,0,0,84.83885,9.130924,-34.88206,-124.5559,-110.2025,-87.14465,0.001067912,-0.1257102,0.09433498,0,0.3,0,0,0,0
638224325966558262,34.16194,48.57991,32.38266,17.95128,-7.861832,-11.93275,-56.89731,-0.4675641,6.607276,-71.48107,-8.521038,-36.83611,0,0,0,89.64295,10.73363,-36.25576,-124.5559,-110.2025,-87.14465,0.001067912,-0.1257102,0.09433498,0,0.3,0,0,0,0
638224325966888156,36.84778,49.67868,34.55396,21.83327,-8.154812,-15.88799,-56.89731,-0.4675641,6.607276,-71.48107,-8.594284,-36.83611,0,0,0,97.10257,15.19367,-38.77572,-124.5559,-110.2025,-87.14465,0.001067912,-0.1257102,0.09433498,0,0.3,0,0,0,0
638224325967228039,38.82682,51.52556,37.35563,25.1293,-9.106999,-19.69674,-56.89731,-0.4675641,6.607276,-71.48107,-8.594284,-36.83611,0,0,0,102.7459,21.74993,-40.6823,-124.5559,-110.2025,-87.14465,0.001067912,-0.1257102,0.09433498,0,0.3,0,0,0,0
638224325967568063,40.21685,54.00365,41.04449,28.49858,-10.64515,-23.43224,-56.89731,-0.4675641,6.607276,-71.48107,-8.594284,-36.83611,0,0,0,107.1432,30.66485,-41.63881,-124.5559,-110.2025,-87.14465,0.001067912,-0.1257102,0.09433498,0,0.3,0,0,0,0
638224325967917815,40.78229,55.31283,43.14575,29.96349,-11.74383,-25.19013,-56.89731,-0.4675641,6.607276,-71.48107,-8.594284,-36.83611,0,0,0,109.1352,35.70554,-41.83666,-124.5559,-110.2025,-87.14465,0.001067912,-0.1257102,0.09433498,0,0.3,0,0,0,0
638224325968247716,41.98385,57.15971,47.4183,33.25952,-14.38065,-28.5594,-56.89731,-0.4675641,6.607276,-71.48107,-8.521038,-36.83611,0,0,0,114.053,45.15867,-41.60945,-124.5559,-110.2025,-87.14465,0.001067912,-0.1257102,0.09433498,0,0.3,0,0,0,0
638224325968597612,43.35033,57.37011,50.75696,36.40906,-17.01748,-32.00193,-56.89731,-0.4675641,6.607276,-71.48107,-8.521038,-36.83611,0,0,0,120.253,51.29482,-40.96495,-124.5559,-110.2025,-87.14465,0.001067912,-0.1257102,0.09433498,0,0.3,0,0,0,0
638224325968937503,44.03357,57.01944,52.0644,38.02045,-17.96966,-33.83306,-56.89731,-0.4675641,6.607276,-71.48107,-8.521038,-36.83611,0,0,0,123.5595,53.23106,-40.55028,-124.5559,-110.2025,-87.14465,0.001067912,-0.1257102,0.09433498,0,0.3,0,0,0,0
638224325969277386,45.37648,55.6635,53.81545,40.80377,-19.06834,-37.20233,-56.89731,-0.4675641,6.607276,-71.48107,-8.594284,-36.90935,0,0,0,130.1382,54.73407,-39.91088,-124.5559,-110.2025,-87.14465,0.001067912,-0.1257102,0.09433498,0,0.3,0,0,0,0
638224325969617277,46.62516,53.41919,54.6326,42.6349,-19.36132,-40.13214,-56.89731,-0.4675641,6.607276,-71.48107,-8.521038,-36.83611,0,0,0,136.8068,53.24706,-39.09199,-124.5559,-110.2025,-87.14465,0.001067912,-0.1257102,0.09433498,0,0.3,0,0,0,0
638224325969957164,47.21416,52.0165,54.72599,43.22086,-19.21483,-41.45055,-56.89731,-0.4675641,6.607276,-71.48107,-8.594284,-36.90935,0,0,0,140.1268,51.44694,-38.65545,-124.5559,-110.2025,-87.14465,0.001067912,-0.1257102,0.09433498,0,0.3,0,0,0,0
638224325970297061,48.27436,48.65004,54.70264,43.95331,-17.89642,-43.28168,-56.89731,-0.4675641,6.607276,-71.48107,-8.521038,-36.83611,0,0,0,146.9798,46.402,-37.27771,-124.5559,-110.2025,-87.14465,0.001067912,-0.1257102,0.09433498,0,0.3,0,0,0,0
638224325970636950,49.09896,45.14331,54.56256,44.24629,-16.35827,-44.30712,-56.89731,-0.4675641,6.607276,-71.48107,-8.521038,-36.83611,0,0,0,153.2116,40.56009,-35.62907,-124.5559,-110.2025,-87.14465,0.001067912,-0.1257102,0.09433498,0,0.3,0,0,0,0
638224325970986847,49.68796,41.49631,54.09562,44.24629,-14.16092,-44.74659,-56.89731,-0.4675641,6.607276,-71.48107,-8.521038,-36.83611,0,0,0,158.5244,33.50293,-33.85426,-124.5559,-110.2025,-87.14465,0.001067912,-0.1257102,0.09433498,0,0.3,0,0,0,0
638224325971316734,49.87644,39.76632,53.67536,44.0998,-13.13548,-44.81983,-56.89731,-0.4675641,6.607276,-71.48107,-8.594284,-36.90935,0,0,0,160.5299,29.65724,-33.05837,-124.5559,-110.2025,-87.14465,0.001067912,-0.1257102,0.09433498,0,0.3,0,0,0,0
638224325971646626,50.06492,36.3531,52.57804,43.29411,-10.71839,-44.67334,-56.89731,-0.4675641,6.607276,-71.48107,-8.521038,-36.90935,0,0,0,163.5536,21.36037,-31.42768,-124.5559,-110.2025,-87.14465,0.001067912,-0.1257102,0.09433498,0,0.3,0,0,0,0
638224325971996519,50.11204,33.08016,51.24725,42.04893,-8.008322,-43.94089,-56.89731,-0.4675641,6.607276,-71.48107,-8.521038,-36.83611,0,0,0,165.5285,12.66212,-30.00575,-124.5559,-110.2025,-87.14465,0.001067912,-0.1257102,0.09433498,0,0.3,0,0,0,0
638224325972346414,50.11204,31.72422,50.4301,41.31649,-6.689909,-43.35493,-56.89731,-0.4675641,6.607276,-71.48107,-8.594284,-36.90935,0,0,0,165.9045,8.523091,-29.69151,-124.5559,-110.2025,-87.14465,0.001067912,-0.1257102,0.09433498,0,0.3,0,0,0,0
638224325972686297,50.11204,29.36302,48.53897,39.92483,-4.126328,-42.10976,-56.89731,-0.4675641,6.607276,-71.48107,-8.594284,-36.83611,0,0,0,165.8533,0.4445834,-29.73429,-124.5559,-110.2025,-87.14465,0.001067912,-0.1257102,0.09433498,0,0.3,0,0,0,0
638224325973016190,50.11204,27.46939,46.32097,38.60641,-1.635992,-41.01108,-56.89731,-0.4675641,6.607276,-71.48107,-8.594284,-36.83611,0,0,0,164.7831,-7.232896,-30.62871,-124.5559,-110.2025,-87.14465,0.001067912,-0.1257102,0.09433498,0,0.3,0,0,0,0
638224325973346092,50.11204,26.53426,45.10692,38.02045,-0.3908245,-40.35188,-56.89731,-0.4675641,6.607276,-71.48107,-8.594284,-36.90935,0,0,0,164.0275,-11.19474,-31.26024,-124.5559,-110.2025,-87.14465,0.001067912,-0.1257102,0.09433498,0,0.3,0,0,0,0
638224325973685990,50.06492,24.82765,42.7255,37.14151,1.806531,-39.10671,-56.89731,-0.4675641,6.607276,-71.48107,-8.594284,-36.90935,0,0,0,162.1733,-18.61826,-32.58324,-124.5559,-110.2025,-87.14465,0.001067912,-0.1257102,0.09433498,0,0.3,0,0,0,0
638224325974025872,49.92356,23.44834,39.78374,36.33582,4.223621,-37.42207,-56.89731,-0.4675641,6.607276,-71.48107,-8.594284,-36.83611,0,0,0,158.9042,-26.06193,-34.65184,-124.5559,-110.2025,-87.14465,0.001067912,-0.1257102,0.09433498,0,0.3,0,0,0,0
638224325974365762,49.82932,22.79375,38.17278,35.8231,5.395544,-36.54313,-56.89731,-0.4675641,6.607276,-71.48107,-8.594284,-36.83611,0,0,0,156.9141,-29.82139,-35.88486,-124.5559,-110.2025,-87.14465,0.001067912,-0.1257102,0.09433498,0,0.3,0,0,0,0
638224325974715644,49.61728,21.62484,35.06759,34.94416,7.666144,-34.56551,-56.89731,-0.4675641,6.607276,-71.48107,-8.521038,-36.83611,0,0,0,152.7883,-36.65046,-38.39642,-124.5559,-110.2025,-87.14465,0.001067912,-0.1257102,0.09433498,0,0.3,0,0,0,0
638224325975055537,49.4288,20.64295,31.82232,34.13846,9.8635,-32.4414,-56.89731,-0.4675641,6.607276,-71.48107,-8.521038,-36.83611,0,0,0,148.1992,-42.94416,-41.4571,-124.5559,-110.2025,-87.14465,0.001067912,-0.1257102,0.09433498,0,0.3,0,0,0,0
638224325975395576,49.16964,19.96499,28.04007,33.5525,11.98761,-29.87782,-56.89731,-0.4675641,6.607276,-71.48107,-8.594284,-36.83611,0,0,0,142.2668,-48.81546,-45.41701,-124.5559,-110.2025,-87.14465,0.001067912,-0.1257102,0.09433498,0,0.3,0,0,0,0
638224325975735324,49.02828,19.7312,26.12559,33.18628,12.9398,-28.7059,-56.89731,-0.4675641,6.607276,-71.48107,-8.594284,-36.90935,0,0,0,139.1073,-51.35574,-47.54635,-124.5559,-110.2025,-87.14465,0.001067912,-0.1257102,0.09433498,0,0.3,0,0,0,0
638224325976075216,48.9576,19.26364,22.41338,32.67356,14.69768,-26.28881,-56.89731,-0.4675641,6.607276,-71.48107,-8.594284,-36.83611,0,0,0,133.2927,-55.93213,-52.30712,-124.5559,-110.2025,-87.14465,0.001067912,-0.1257102,0.09433498,0,0.3,0,0,0,0
638224325976415116,48.9576,19.07661,19.09806,32.45382,16.74854,-23.87171,-56.89731,-0.4675641,6.607276,-71.48107,-8.594284,-36.90935,0,0,0,127.9593,-59.07734,-56.95028,-124.5559,-110.2025,-87.14465,0.001067912,-0.1257102,0.09433498,0,0.3,0,0,0,0
638224325976755000,48.9576,19.07661,17.69723,32.45382,17.481,-22.69979,-56.89731,-0.4675641,6.607276,-71.48107,-8.521038,-36.83611,0,0,0,125.6261,-60.1063,-58.98158,-124.5559,-110.2025,-87.14465,0.001067912,-0.1257102,0.09433498,0,0.3,0,0,0,0
638224325977094900,49.14608,19.07661,15.05899,32.7468,18.9459,-20.42919,-56.89731,-0.4675641,6.607276,-71.48107,-8.521038,-36.83611,0,0,0,121.5297,-61.83754,-63.24863,-124.5559,-110.2025,-87.14465,0.001067912,-0.1257102,0.09433498,0,0.3,0,0,0,0
638224325977434778,49.9,19.07661,13.40133,33.03978,20.04458,-18.8178,-56.89731,-0.4675641,6.607276,-71.48107,-8.594284,-36.90935,0,0,0,120.0417,-62.78587,-67.26553,-124.5559,-110.2025,-87.14465,0.001067912,-0.1257102,0.09433498,0,0.3,0,0,0,0
638224325977774670,51.17223,19.07661,12.14058,33.99197,20.99677,-17.35289,-56.89731,-0.4675641,6.607276,-71.48107,-8.521038,-36.83611,0,0,0,120.0271,-63.43449,-71.74991,-124.5559,-110.2025,-87.14465,0.001067912,-0.1257102,0.09433498,0,0.3,0,0,0,0
638224325978134549,51.99683,19.09999,11.5569,34.57793,21.28975,-16.62044,-56.89731,-0.4675641,6.607276,-71.48107,-8.521038,-36.83611,0,0,0,120.3433,-63.66201,-74.31682,-124.5559,-110.2025,-87.14465,0.001067912,-0.1257102,0.09433498,0,0.3,0,0,0,0
638224325978474472,53.74027,19.28702,10.2728,36.04284,21.87571,-15.59501,-56.89731,-0.4675641,6.607276,-71.48107,-8.521038,-36.83611,0,0,0,120.6668,-63.8168,-79.8419,-124.5559,-110.2025,-87.14465,0.001067912,-0.1257102,0.09433498,0,0.3,0,0,0,0
638224325978814345,55.36591,19.63769,9.012045,37.21476,22.24193,-15.15554,-56.89731,-0.4675641,6.607276,-71.48107,-8.521038,-36.90935,0,0,0,120.5253,-63.53876,-85.09931,-124.5559,-110.2025,-87.14465,0.001067912,-0.1257102,0.09433498,0,0.3,0,0,0,0
638224325979154234,55.31879,19.75458,8.148195,37.87396,22.31518,-14.78931,-56.89731,-0.4675641,6.607276,-71.48107,-8.521038,-36.83611,0,0,0,118.7466,-63.58257,-86.18358,-124.5559,-110.2025,-87.14465,0.001067912,-0.1257102,0.09433498,0,0.3,0,0,0,0
638224325979494124,55.31879,19.89485,5.159746,38.45993,23.19412,-12.88494,-56.89731,-0.4675641,6.607276,-71.48107,-8.594284,-36.83611,0,0,0,112.9751,-64.0813,-90.17712,-124.5559,-110.2025,-87.14465,0.001067912,-0.1257102,0.09433498,0,0.3,0,0,0,0
638224325979834018,55.29523,20.40917,1.727698,38.53317,24.73227,-9.955132,-56.89731,-0.4675641,6.607276,-71.48107,-8.521038,-36.83611,0,0,0,106.0501,-63.43729,-94.90437,-124.5559,-110.2025,-87.14465,0.001067912,-0.1257102,0.09433498,0,0.3,0,0,0,0
638224325980173904,55.27167,21.36768,-0.3969035,38.45993,26.05068,-7.09857,-56.89731,-0.4675641,6.607276,-71.48107,-8.521038,-36.83611,0,0,0,101.3027,-61.41053,-98.13052,-124.5559,-110.2025,-87.14465,0.001067912,-0.1257102,0.09433498,0,0.3,0,0,0,0
638224325980513797,55.24811,21.95213,-1.073974,38.45993,26.49015,-5.780157,-56.89731,-0.4675641,6.607276,-71.48107,-8.521038,-36.83611,0,0,0,99.56673,-60.12609,-99.27323,-124.5559,-110.2025,-87.14465,0.001067912,-0.1257102,0.09433498,0,0.3,0,0,0,0
638224325980853691,55.22455,22.98077,-1.564267,38.60641,26.85638,-4.095518,-56.89731,-0.4675641,6.607276,-71.48107,-8.521038,-36.83611,0,0,0,97.84982,-57.8875,-100.4048,-124.5559,-110.2025,-87.14465,0.001067912,-0.1257102,0.09433498,0,0.3,0,0,0,0
638224325981193583,55.17743,24.05617,-1.564267,38.67966,26.49015,-3.143331,-56.89731,-0.4675641,6.607276,-71.48107,-8.521038,-36.83611,0,0,0,96.97401,-55.59257,-100.8946,-124.5559,-110.2025,-87.14465,0.001067912,-0.1257102,0.09433498,0,0.3,0,0,0,0
638224325981543494,55.05963,24.66401,-1.517572,38.67966,26.19717,-2.85035,-56.89731,-0.4675641,6.607276,-71.48107,-8.521038,-36.90935,0,0,0,96.44585,-54.30677,-100.9674,-124.5559,-110.2025,-87.14465,0.001067912,-0.1257102,0.09433498,0,0.3,0,0,0,0
638224325981883359,54.51775,26.09007,-1.44753,38.31343,25.53797,-2.557369,-56.89731,-0.4675641,6.607276,-71.48107,-8.521038,-36.83611,0,0,0,94.7787,-51.3123,-100.7893,-124.5559,-110.2025,-87.14465,0.001067912,-0.1257102,0.09433498,0,0.3,0,0,0,0
638224325982233250,53.52823,27.67979,-1.307447,37.65423,24.65902,-2.410879,-56.89731,-0.4675641,6.607276,-71.48107,-8.521038,-36.83611,0,0,0,92.51456,-48.02024,-99.96335,-124.5559,-110.2025,-87.14465,0.001067912,-0.1257102,0.09433498,0,0.3,0,0,0,0
638224325982563146,52.86855,28.59154,-1.190711,37.21476,24.2928,-2.337634,-56.89731,-0.4675641,6.607276,-71.48107,-8.521038,-36.83611,0,0,0,91.13985,-46.15493,-99.3428,-124.5559,-110.2025,-87.14465,0.001067912,-0.1257102,0.09433498,0,0.3,0,0,0,0
638224325982903037,51.47852,30.81247,-0.8638488,36.04284,23.56034,-2.337634,-56.89731,-0.4675641,6.607276,-71.48107,-8.521038,-36.83611,0,0,0,88.03045,-41.679,-98.27351,-124.5559,-110.2025,-87.14465,0.001067912,-0.1257102,0.09433498,0,0.3,0,0,0,0
638224325983252922,49.85288,33.50097,-0.02334727,34.50468,22.60816,-2.557369,-56.89731,-0.4675641,6.607276,-71.48107,-8.594284,-36.83611,0,0,0,84.95683,-36.39732,-96.69021,-124.5559,-110.2025,-87.14465,0.001067912,-0.1257102,0.09433498,0,0.3,0,0,0,0
638224325983592814,48.06232,36.61026,1.494225,32.45382,21.2165,-3.216576,-56.89731,-0.4675641,6.607276,-71.48107,-8.521038,-36.83611,0,0,0,82.21181,-30.42889,-94.48792,-124.5559,-110.2025,-87.14465,0.001067912,-0.1257102,0.09433498,0,0.3,0,0,0,0
638224325983932707,47.14348,38.27012,2.498158,31.2819,20.33756,-3.802537,-56.89731,-0.4675641,6.607276,-71.48107,-8.521038,-36.90935,0,0,0,81.007,-27.28032,-93.18814,-124.5559,-110.2025,-87.14465,0.001067912,-0.1257102,0.09433498,0,0.3,0,0,0,0
638224325984282595,45.02308,41.58982,4.529369,28.93805,18.1402,-4.97446,-56.89731,-0.4675641,6.607276,-71.48107,-8.521038,-36.83611,0,0,0,78.00072,-21.0667,-90.41211,-124.5559,-110.2025,-87.14465,0.001067912,-0.1257102,0.09433498,0,0.3,0,0,0,0
638224325984612493,42.24301,44.90953,6.583929,26.37447,15.79636,-6.366118,-56.89731,-0.4675641,6.607276,-71.48107,-8.521038,-36.90935,0,0,0,73.76969,-14.97687,-87.116,-124.5559,-110.2025,-87.14465,0.001067912,-0.1257102,0.09433498,0,0.3,0,0,0,0
638224325984952387,40.71161,46.47587,7.587861,25.05606,14.55119,-6.878834,-56.89731,-0.4675641,6.607276,-71.48107,-8.594284,-36.83611,0,0,0,71.38325,-12.14232,-85.39333,-124.5559,-110.2025,-87.14465,0.001067912,-0.1257102,0.09433498,0,0.3,0,0,0,0
638224325985302273,37.10694,49.37476,9.502337,22.34599,11.98761,-7.757777,-56.89731,-0.4675641,6.607276,-71.48107,-8.594284,-36.90935,0,0,0,65.66354,-6.959689,-81.54909,-124.5559,-110.2025,-87.14465,0.001067912,-0.1257102,0.09433498,0,0.3,0,0,0,0
638224325985642164,33.17242,51.89961,11.34677,19.19645,9.497273,-8.343738,-56.89731,-0.4675641,6.607276,-71.48107,-8.594284,-36.90935,0,0,0,59.37709,-2.456365,-77.51692,-124.5559,-110.2025,-87.14465,0.001067912,-0.1257102,0.09433498,0,0.3,0,0,0,0
638224325985992053,28.86095,54.02703,13.14451,15.46094,7.006938,-8.490229,-56.89731,-0.4675641,6.607276,-71.48107,-8.594284,-36.83611,0,0,0,52.44626,1.413202,-73.19054,-124.5559,-110.2025,-87.14465,0.001067912,-0.1257102,0.09433498,0,0.3,0,0,0,0
638224325986331945,26.5992,54.77513,13.96167,13.62981,5.835015,-8.490229,-56.89731,-0.4675641,6.607276,-71.48107,-8.594284,-36.83611,0,0,0,48.84388,2.872406,-70.80759,-124.5559,-110.2025,-87.14465,0.001067912,-0.1257102,0.09433498,0,0.3,0,0,0,0
638224325986671841,21.81652,55.54661,15.19907,9.528083,3.63766,-8.490229,-56.89731,-0.4675641,6.607276,-71.48107,-8.521038,-36.83611,0,0,0,41.02919,4.623118,-65.85543,-124.5559,-110.2025,-87.14465,0.001067912,-0.1257102,0.09433498,0,0.3,0,0,0,0
638224325987011733,16.86893,55.49986,16.06292,4.620657,1.806531,-8.270493,-56.89731,-0.4675641,6.607276,-71.48107,-8.521038,-36.83611,0,0,0,32.6246,5.103229,-60.7601,-124.5559,-110.2025,-87.14465,0.001067912,-0.1257102,0.09433498,0,0.3,0,0,0,0
638224325987361619,14.58362,55.33621,16.48317,2.203566,1.000834,-8.124002,-56.89731,-0.4675641,6.607276,-71.48107,-8.521038,-36.83611,0,0,0,28.62379,5.161127,-58.33261,-124.5559,-110.2025,-87.14465,0.001067912,-0.1257102,0.09433498,0,0.3,0,0,0,0
638224325987701517,10.67266,54.35432,16.99681,-2.99684,-0.4640697,-8.124002,-56.89731,-0.4675641,6.607276,-71.48107,-8.594284,-36.90935,0,0,0,21.61131,4.189656,-53.67546,-124.5559,-110.2025,-87.14465,0.001067912,-0.1257102,0.09433498,0,0.3,0,0,0,0
638224325988041398,8.010387,52.39055,17.06685,-6.952079,-1.343012,-8.124002,-56.89731,-0.4675641,6.607276,-71.48107,-8.521038,-36.83611,0,0,0,16.79433,1.510745,-49.0091,-124.5559,-110.2025,-87.14465,0.001067912,-0.1257102,0.09433498,0,0.3,0,0,0,0
638224325988391285,6.502549,49.81895,17.0435,-9.66215,-1.562747,-8.270493,-56.89731,-0.4675641,6.607276,-71.40782,-8.521038,-36.83611,0,0,0,14.16982,-2.262936,-44.03226,-124.5559,-110.2025,-87.14465,0.001067912,-0.1257102,0.09433498,0,0.3,0,0,0,0
638224325988731177,6.314069,48.62666,17.0435,-10.54109,-1.562747,-8.490229,-56.89731,-0.4675641,6.607276,-71.48107,-8.521038,-36.83611,0,0,0,13.99189,-4.075262,-41.89778,-124.5559,-110.2025,-87.14465,0.001067912,-0.1257102,0.09433498,0,0.3,0,0,0,0
638224325989071255,6.33763,46.3356,16.88007,-11.2003,-1.489502,-8.563474,-56.89731,-0.4675641,6.607276,-71.48107,-8.594284,-36.90935,0,0,0,14.43753,-7.789675,-38.35929,-124.5559,-110.2025,-87.14465,0.001067912,-0.1257102,0.09433498,0,0.3,0,0,0,0
638224325989410968,6.502549,43.92765,16.88007,-11.27355,-1.269767,-8.050756,-56.89731,-0.4675641,6.607276,-71.48107,-8.594284,-36.83611,0,0,0,15.26141,-11.74308,-34.45532,-124.5559,-110.2025,-87.14465,0.001067912,-0.1257102,0.09433498,0,0.3,0,0,0,0
638224325989750852,6.667469,42.94576,16.88007,-11.27355,-1.196521,-7.318305,-56.89731,-0.4675641,6.607276,-71.48107,-8.521038,-36.83611,0,0,0,15.82917,-13.40245,-32.93923,-124.5559,-110.2025,-87.14465,0.001067912,-0.1257102,0.09433498,0,0.3,0,0,0,0
638224325990080746,6.997309,41.16902,16.73999,-11.56653,-1.489502,-5.267441,-56.89731,-0.4675641,6.607276,-71.48107,-8.594284,-36.90935,0,0,0,16.90786,-16.56688,-30.59306,-124.5559,-110.2025,-87.14465,0.001067912,-0.1257102,0.09433498,0,0.3,0,0,0,0
638224325990420637,7.162228,39.32214,16.2497,-11.78626,-1.855728,-2.557369,-56.89731,-0.4675641,6.607276,-71.48107,-8.521038,-36.83611,0,0,0,17.51411,-20.17164,-28.97263,-124.5559,-110.2025,-87.14465,0.001067912,-0.1257102,0.09433498,0,0.3,0,0,0,0
638224325990760538,7.280028,38.19999,15.78275,-11.85951,-1.928973,-1.092466,-56.89731,-0.4675641,6.607276,-71.48107,-8.594284,-36.83611,0,0,0,17.87547,-22.50796,-28.42318,-124.5559,-110.2025,-87.14465,0.001067912,-0.1257102,0.09433498,0,0.3,0,0,0,0
638224325991110415,7.892587,35.62838,14.35857,-11.93275,-1.489502,1.251379,-56.89731,-0.4675641,6.607276,-71.48107,-8.521038,-36.83611,0,0,0,19.42449,-28.15471,-28.23209,-124.5559,-110.2025,-87.14465,0.001067912,-0.1257102,0.09433498,0,0.3,0,0,0,0
638224325991440319,8.999906,33.38407,13.05112,-11.05381,-0.09784385,2.496547,-56.89731,-0.4675641,6.607276,-71.48107,-8.521038,-36.90935,0,0,0,22.12907,-33.17977,-28.63107,-124.5559,-110.2025,-87.14465,0.001067912,-0.1257102,0.09433498,0,0.3,0,0,0,0
638224325991780201,10.36638,31.2099,11.86041,-9.36917,1.440305,3.81496,-56.89731,-0.4675641,6.607276,-71.48107,-8.521038,-36.90935,0,0,0,25.45425,-38.05453,-29.20094,-124.5559,-110.2025,-87.14465,0.001067912,-0.1257102,0.09433498,0,0.3,0,0,0,0
638224325992110105,11.0025,30.11112,11.32342,-8.270493,2.246002,4.693902,-56.89731,-0.4675641,6.607276,-71.48107,-8.521038,-36.90935,0,0,0,27.01276,-40.50541,-29.4138,-124.5559,-110.2025,-87.14465,0.001067912,-0.1257102,0.09433498,0,0.3,0,0,0,0
638224325992449999,12.1805,27.98371,10.2261,-6.146383,4.296866,6.744767,-56.89731,-0.4675641,6.607276,-71.48107,-8.594284,-36.83611,0,0,0,29.84123,-45.31116,-30.10108,-124.5559,-110.2025,-87.14465,0.001067912,-0.1257102,0.09433498,0,0.3,0,0,0,0
638224325992799880,13.45274,25.57575,9.128781,-4.388499,6.347731,8.35616,-56.89731,-0.4675641,6.607276,-71.48107,-8.521038,-36.90935,0,0,0,32.90511,-50.74328,-30.79056,-124.5559,-110.2025,-87.14465,0.001067912,-0.1257102,0.09433498,0,0.3,0,0,0,0
638224325993139779,14.3009,24.2432,8.615141,-3.289821,7.519653,9.161857,-56.89731,-0.4675641,6.607276,-71.48107,-8.594284,-36.83611,0,0,0,34.96865,-53.74047,-31.1715,-124.5559,-110.2025,-87.14465,0.001067912,-0.1257102,0.09433498,0,0.3,0,0,0,0
638224325993479664,15.97365,21.90538,7.891376,-1.019221,9.936745,10.55352,-56.89731,-0.4675641,6.607276,-71.48107,-8.521038,-36.83611,0,0,0,39.08617,-58.98766,-31.80339,-124.5559,-110.2025,-87.14465,0.001067912,-0.1257102,0.09433498,0,0.3,0,0,0,0
638224325993809681,18.04693,19.66107,7.42443,1.397869,12.28059,11.57895,-56.89731,-0.4675641,6.607276,-71.48107,-8.521038,-36.90935,0,0,0,44.24099,-64.01568,-32.56877,-124.5559,-110.2025,-87.14465,0.001067912,-0.1257102,0.09433498,0,0.3,0,0,0,0
638224325994149586,19.29561,18.81945,7.401083,2.716283,13.30602,12.01842,-56.89731,-0.4675641,6.607276,-71.48107,-8.521038,-36.83611,0,0,0,47.38488,-65.87204,-33.00675,-124.5559,-110.2025,-87.14465,0.001067912,-0.1257102,0.09433498,0,0.3,0,0,0,0
638224325994499337,22.02856,18.07135,7.727945,5.865825,15.2104,12.97061,-56.89731,-0.4675641,6.607276,-71.48107,-8.521038,-36.90935,0,0,0,54.27376,-67.42356,-34.21031,-124.5559,-110.2025,-87.14465,0.001067912,-0.1257102,0.09433498,0,0.3,0,0,0,0
638224325994829239,24.97356,18.25838,8.615141,9.967555,16.60205,13.99604,-56.89731,-0.4675641,6.607276,-71.48107,-8.521038,-36.90935,0,0,0,61.89943,-66.71648,-35.44614,-124.5559,-110.2025,-87.14465,0.001067912,-0.1257102,0.09433498,0,0.3,0,0,0,0
638224325995179125,27.73007,19.12337,10.34284,15.16796,17.04152,15.68068,-56.89731,-0.4675641,6.607276,-71.48107,-8.521038,-36.83611,0,0,0,69.7646,-64.14731,-35.63733,-124.5559,-110.2025,-87.14465,0.001067912,-0.1257102,0.09433498,0,0.3,0,0,0,0
638224325995519136,28.79027,20.03512,11.41681,18.3175,16.74854,17.21883,-56.89731,-0.4675641,6.607276,-71.48107,-8.521038,-36.83611,0,0,0,73.0479,-61.67624,-35.42291,-124.5559,-110.2025,-87.14465,0.001067912,-0.1257102,0.09433498,0,0.3,0,0,0,0
638224325995859087,29.19079,21.882,12.37405,24.4701,15.50338,21.02757,-56.89731,-0.4675641,6.607276,-71.48107,-8.594284,-36.90935,0,0,0,74.2887,-57.20316,-35.37583,-124.5559,-110.2025,-87.14465,0.001067912,-0.1257102,0.09433498,0,0.3,0,0,0,0
638224325996198796,28.24839,22.86388,12.21062,28.57183,14.03847,25.05606,-56.89731,-0.4675641,6.607276,-71.48107,-8.594284,-36.83611,0,0,0,71.50402,-55.17095,-35.26559,-124.5559,-110.2025,-87.14465,0.001067912,-0.1257102,0.09433498,0,0.3,0,0,0,0
638224325996548687,27.61227,22.9574,12.02384,29.67051,13.599,26.66745,-56.89731,-0.4675641,6.607276,-71.48107,-8.594284,-36.90935,0,0,0,69.78583,-55.06173,-34.93164,-124.5559,-110.2025,-87.14465,0.001067912,-0.1257102,0.09433498,0,0.3,0,0,0,0
638224325996888583,26.05732,22.93402,11.18334,30.76918,13.08629,29.74375,-56.89731,-0.4675641,6.607276,-71.48107,-8.521038,-36.83611,0,0,0,65.30731,-55.50529,-34.78943,-124.5559,-110.2025,-87.14465,0.001067912,-0.1257102,0.09433498,0,0.3,0,0,0,0
638224325997238464,24.14896,22.74699,10.03932,30.4762,12.72006,31.79461,-56.89731,-0.4675641,6.607276,-71.48107,-8.521038,-36.90935,0,0,0,59.82188,-56.39674,-34.92252,-124.5559,-110.2025,-87.14465,0.001067912,-0.1257102,0.09433498,0,0.3,0,0,0,0
638224325997578352,21.91076,22.27943,9.105433,29.08454,12.64682,33.11303,-56.89731,-0.4675641,6.607276,-71.48107,-8.594284,-36.83611,0,0,0,53.92108,-57.76345,-34.28988,-124.5559,-110.2025,-87.14465,0.001067912,-0.1257102,0.09433498,0,0.3,0,0,0,0
638224325997918243,20.75632,22.02227,8.731878,28.2056,12.72006,33.62574,-56.89731,-0.4675641,6.607276,-71.48107,-8.521038,-36.83611,0,0,0,50.98476,-58.45258,-33.82286,-124.5559,-110.2025,-87.14465,0.001067912,-0.1257102,0.09433498,0,0.3,0,0,0,0
638224325998248129,18.07049,21.53132,8.008113,25.935,12.9398,34.43144,-56.89731,-0.4675641,6.607276,-71.48107,-8.594284,-36.90935,0,0,0,44.23943,-59.75885,-32.76286,-124.5559,-110.2025,-87.14465,0.001067912,-0.1257102,0.09433498,0,0.3,0,0,0,0
638224325998598033,15.05481,21.1339,7.611208,23.37142,13.15953,34.79766,-56.89731,-0.4675641,6.607276,-71.48107,-8.594284,-36.83611,0,0,0,36.89473,-60.74598,-31.18206,-124.5559,-110.2025,-87.14465,0.001067912,-0.1257102,0.09433498,0,0.3,0,0,0,0
638224325998937934,13.52342,21.017,7.564514,22.05301,13.23278,34.87091,-56.89731,-0.4675641,6.607276,-71.48107,-8.521038,-36.83611,0,0,0,33.21346,-61.01418,-30.25467,-124.5559,-110.2025,-87.14465,0.001067912,-0.1257102,0.09433498,0,0.3,0,0,0,0
638224325999297947,10.20146,20.87674,7.587861,18.97671,13.37927,35.16389,-56.89731,-0.4675641,6.607276,-71.48107,-8.521038,-36.83611,0,0,0,25.18571,-61.3119,-28.39423,-124.5559,-110.2025,-87.14465,0.001067912,-0.1257102,0.09433498,0,0.3,0,0,0,0
638224325999607696,6.714589,20.71309,7.587861,15.46094,13.52576,35.45687,-56.89731,-0.4675641,6.607276,-71.48107,-8.594284,-36.83611,0,0,0,16.6428,-61.66796,-26.98724,-124.5559,-110.2025,-87.14465,0.001067912,-0.1257102,0.09433498,0,0.3,0,0,0,0
638224325999947609,4.806232,20.68971,7.564514,13.55657,13.67225,35.60336,-56.89731,-0.4675641,6.607276,-71.48107,-8.521038,-36.83611,0,0,0,11.92315,-61.72602,-26.54593,-124.5559,-110.2025,-87.14465,0.001067912,-0.1257102,0.09433498,0,0.3,0,0,0,0
638224326000277501,1.060198,20.73647,7.657903,9.894309,13.96523,35.60336,-56.89731,-0.4675641,6.607276,-71.48107,-8.521038,-36.83611,0,0,0,2.636318,-61.59545,-25.893,-124.5559,-110.2025,-87.14465,0.001067912,-0.1257102,0.09433498,0,0.3,0,0,0,0
638224326000617398,-3.157035,21.15727,7.961418,5.93907,14.4047,34.94416,-56.89731,-0.4675641,6.607276,-71.48107,-8.521038,-36.90935,0,0,0,-7.866106,-60.5848,-25.73566,-124.5559,-110.2025,-87.14465,0.001067912,-0.1257102,0.09433498,0,0.3,0,0,0,0
638224326000967279,-5.348111,21.60146,8.101501,3.741715,14.55119,34.50468,-56.89731,-0.4675641,6.607276,-71.48107,-8.521038,-36.90935,0,0,0,-13.30778,-59.5766,-26.19446,-124.5559,-110.2025,-87.14465,0.001067912,-0.1257102,0.09433498,0,0.3,0,0,0,0
638224326001307168,-9.423985,22.93402,8.101501,-0.5065048,14.91741,34.2117,-56.89731,-0.4675641,6.607276,-71.48107,-8.521038,-36.90935,0,0,0,-23.18574,-56.70656,-28.65922,-124.5559,-110.2025,-87.14465,0.001067912,-0.1257102,0.09433498,0,0.3,0,0,0,0
638224326001647064,-13.0051,25.34197,8.148195,-4.315253,15.2104,34.65118,-56.89731,-0.4675641,6.607276,-71.40782,-8.521038,-36.83611,0,0,0,-31.37428,-51.57733,-32.50821,-124.5559,-110.2025,-87.14465,0.001067912,-0.1257102,0.09433498,0,0.3,0,0,0,0
638224326001996934,-16.20925,28.96559,8.241585,-7.464796,14.47795,35.45687,-56.89731,-0.4675641,6.607276,-71.48107,-8.594284,-36.90935,0,0,0,-37.90378,-44.04351,-37.96293,-124.5559,-110.2025,-87.14465,0.001067912,-0.1257102,0.09433498,0,0.3,0,0,0,0
638224326002336840,-17.45793,30.76572,8.28828,-8.709964,14.11172,35.74985,-56.89731,-0.4675641,6.607276,-71.48107,-8.594284,-36.83611,0,0,0,-40.14254,-40.39484,-40.7074,-124.5559,-110.2025,-87.14465,0.001067912,-0.1257102,0.09433498,0,0.3,0,0,0,0
638224326002676735,-19.74325,35.11406,8.615141,-10.90732,13.15953,36.11608,-56.89731,-0.4675641,6.607276,-71.48107,-8.594284,-36.83611,0,0,0,-43.59614,-31.79167,-46.87967,-124.5559,-110.2025,-87.14465,0.001067912,-0.1257102,0.09433498,0,0.3,0,0,0,0
638224326003016630,-21.62804,39.69619,9.47899,-12.29898,12.20734,35.53012,-56.89731,-0.4675641,6.607276,-71.48107,-8.521038,-36.83611,0,0,0,-45.91247,-23.00638,-52.55396,-124.5559,-110.2025,-87.14465,0.001067912,-0.1257102,0.09433498,0,0.3,0,0,0,0
638224326003356517,-22.594,42.33792,10.45957,-12.81169,11.54814,34.87091,-56.89731,-0.4675641,6.607276,-71.48107,-8.521038,-36.83611,0,0,0,-47.17152,-17.97267,-54.99426,-124.5559,-110.2025,-87.14465,0.001067912,-0.1257102,0.09433498,0,0.3,0,0,0,0
638224326003696402,-24.38456,47.92532,13.51807,-13.91037,9.204292,33.40601,-56.89731,-0.4675641,6.607276,-71.48107,-8.521038,-36.83611,0,0,0,-49.76127,-7.323735,-58.57326,-124.5559,-110.2025,-87.14465,0.001067912,-0.1257102,0.09433498,0,0.3,0,0,0,0
638224326004036307,-25.37408,53.69973,17.46376,-14.86256,5.835015,32.38057,-56.89731,-0.4675641,6.607276,-71.48107,-8.521038,-36.90935,0,0,0,-50.97926,3.616671,-60.86244,-124.5559,-110.2025,-87.14465,0.001067912,-0.1257102,0.09433498,0,0.3,0,0,0,0
638224326004376192,-25.79816,59.33388,22.2266,-14.86256,1.293814,31.79461,-56.89731,-0.4675641,6.607276,-71.48107,-8.521038,-36.90935,0,0,0,-51.55207,14.6101,-61.70066,-124.5559,-110.2025,-87.14465,0.001067912,-0.1257102,0.09433498,0,0.3,0,0,0,0
638224326004716075,-26.08088,61.90548,24.70141,-14.56958,-1.709238,31.72137,-56.89731,-0.4675641,6.607276,-71.48107,-8.594284,-36.90935,0,0,0,-52.1077,19.83943,-61.89503,-124.5559,-110.2025,-87.14465,0.001067912,-0.1257102,0.09433498,0,0.3,0,0,0,0
638224326005055972,-26.52852,65.08492,27.94668,-13.98362,-7.495606,31.79461,-56.89731,-0.4675641,6.607276,-71.48107,-8.521038,-36.90935,0,0,0,-53.00377,26.49026,-62.17326,-124.5559,-110.2025,-87.14465,0.001067912,-0.1257102,0.09433498,0,0.3,0,0,0,0
638224326005405858,-26.88192,66.11356,28.97396,-13.25116,-12.54952,31.57488,-56.89731,-0.4675641,6.607276,-71.48107,-8.594284,-36.83611,0,0,0,-53.62226,28.61864,-62.57202,-124.5559,-110.2025,-87.14465,0.001067912,-0.1257102,0.09433498,0,0.3,0,0,0,0
638224326005745752,-27.11752,66.27721,29.06735,-12.88494,-14.52714,31.13541,-56.89731,-0.4675641,6.607276,-71.48107,-8.594284,-36.83611,0,0,0,-53.98456,28.87781,-62.9344,-124.5559,-110.2025,-87.14465,0.001067912,-0.1257102,0.09433498,0,0.3,0,0,0,0
638224326006085630,-27.28243,66.44086,28.83387,-12.006,-17.31046,29.817,-56.89731,-0.4675641,6.607276,-71.48107,-8.521038,-36.83611,0,0,0,-53.90988,28.76751,-63.82291,-124.5559,-110.2025,-87.14465,0.001067912,-0.1257102,0.09433498,0,0.3,0,0,0,0
638224326006435539,-27.28243,66.02005,27.47973,-10.83407,-18.9951,28.2056,-56.89731,-0.4675641,6.607276,-71.48107,-8.521038,-36.83611,0,0,0,-53.04708,26.88559,-65.4958,-124.5559,-110.2025,-87.14465,0.001067912,-0.1257102,0.09433498,0,0.3,0,0,0,0
638224326006775418,-27.28243,64.10303,25.23839,-9.735395,-19.43457,26.66745,-56.89731,-0.4675641,6.607276,-71.48107,-8.521038,-36.83611,0,0,0,-52.75906,22.6885,-66.05426,-124.5559,-110.2025,-87.14465,0.001067912,-0.1257102,0.09433498,0,0.3,0,0,0,0
638224326007115317,-27.28243,62.72372,23.93095,-9.076189,-19.06834,26.30123,-56.89731,-0.4675641,6.607276,-71.48107,-8.521038,-36.90935,0,0,0,-52.80657,19.98585,-65.96214,-124.5559,-110.2025,-87.14465,0.001067912,-0.1257102,0.09433498,0,0.3,0,0,0,0
638224326007455209,-27.25887,59.87158,21.26936,-7.904267,-17.45695,25.935,-56.89731,-0.4675641,6.607276,-71.48107,-8.521038,-36.90935,0,0,0,-52.81184,14.41784,-65.84847,-124.5559,-110.2025,-87.14465,0.001067912,-0.1257102,0.09433498,0,0.3,0,0,0,0
638224326007795110,-27.02328,56.59863,18.79455,-6.659099,-15.77231,26.52096,-56.89731,-0.4675641,6.607276,-71.40782,-8.521038,-36.90935,0,0,0,-52.87362,8.43544,-64.6838,-124.5559,-110.2025,-87.14465,0.001067912,-0.1257102,0.09433498,0,0.3,0,0,0,0
638224326008135001,-26.90548,54.30756,17.25363,-5.999893,-14.74688,27.32666,-56.89731,-0.4675641,6.607276,-71.48107,-8.521038,-36.83611,0,0,0,-53.10448,4.302208,-63.70013,-124.5559,-110.2025,-87.14465,0.001067912,-0.1257102,0.09433498,0,0.3,0,0,0,0
638224326008474883,-26.62276,49.35139,14.47531,-4.754725,-12.8425,28.57183,-56.89731,-0.4675641,6.607276,-71.48107,-8.594284,-36.90935,0,0,0,-53.86294,-4.591704,-60.89481,-124.5559,-110.2025,-87.14465,0.001067912,-0.1257102,0.09433498,0,0.3,0,0,0,0
638224326008814759,-26.34004,44.44196,11.90711,-3.436311,-9.985942,30.40295,-56.89731,-0.4675641,6.607276,-71.48107,-8.594284,-36.83611,0,0,0,-54.4506,-13.7609,-58.37113,-124.5559,-110.2025,-87.14465,0.001067912,-0.1257102,0.09433498,0,0.3,0,0,0,0
638224326009154663,-26.19868,41.80023,10.62301,-2.70386,-8.521038,31.50163,-56.89731,-0.4675641,6.607276,-71.48107,-8.594284,-36.83611,0,0,0,-54.74036,-18.83207,-57.0964,-124.5559,-110.2025,-87.14465,0.001067912,-0.1257102,0.09433498,0,0.3,0,0,0,0
638224326009504558,-26.05732,36.23622,8.731878,-1.385447,-5.664476,33.03978,-56.89731,-0.4675641,6.607276,-71.48107,-8.521038,-36.83611,0,0,0,-56.13973,-29.62915,-53.53814,-124.5559,-110.2025,-87.14465,0.001067912,-0.1257102,0.09433498,0,0.3,0,0,0,0
638224326009844455,-26.05732,30.8826,8.03146,-0.5065048,-3.027651,33.91872,-56.89731,-0.4675641,6.607276,-71.48107,-8.521038,-36.83611,0,0,0,-58.45585,-40.24605,-48.80142,-124.5559,-110.2025,-87.14465,0.001067912,-0.1257102,0.09433498,0,0.3,0,0,0,0
638224326010194339,-26.2458,25.99656,7.961418,0.4456824,-0.4640697,34.87091,-56.89731,-0.4675641,6.607276,-71.48107,-8.521038,-36.83611,0,0,0,-61.17159,-50.26511,-44.28335,-124.5559,-110.2025,-87.14465,0.001067912,-0.1257102,0.09433498,0,0.3,0,0,0,0
638224326010524225,-26.55208,23.51847,8.008113,0.8851534,0.5613627,35.23714,-56.89731,-0.4675641,6.607276,-71.48107,-8.521038,-36.83611,0,0,0,-62.96161,-55.48701,-42.35545,-124.5559,-110.2025,-87.14465,0.001067912,-0.1257102,0.09433498,0,0.3,0,0,0,0
638224326010864114,-27.75363,19.26364,8.498405,1.104889,2.978453,35.8231,-56.89731,-0.4675641,6.607276,-71.48107,-8.521038,-36.83611,0,0,0,-67.79723,-64.5416,-39.5085,-124.5559,-110.2025,-87.14465,0.001067912,-0.1257102,0.09433498,0,0.3,0,0,0,0
638224326011194015,-29.70911,16.13096,9.712462,-0.2135241,5.102563,35.96959,-56.89731,-0.4675641,6.607276,-71.48107,-8.521038,-36.90935,0,0,0,-74.63516,-71.03954,-37.54896,-124.5559,-110.2025,-87.14465,0.001067912,-0.1257102,0.09433498,0,0.3,0,0,0,0
638224326011543901,-30.72219,15.21921,10.50627,-1.238957,5.835015,35.74985,-56.89731,-0.4675641,6.607276,-71.48107,-8.594284,-36.90935,0,0,0,-78.15823,-72.75831,-36.8326,-124.5559,-110.2025,-87.14465,0.001067912,-0.1257102,0.09433498,0,0.3,0,0,0,0
638224326011873800,-32.91327,14.61138,12.67757,-3.949028,6.420976,34.79766,-56.89731,-0.4675641,6.607276,-71.48107,-8.594284,-36.83611,0,0,0,-86.01686,-73.10993,-35.45566,-124.5559,-110.2025,-87.14465,0.001067912,-0.1257102,0.09433498,0,0.3,0,0,0,0
638224326012213698,-35.4813,15.1257,15.31581,-7.171815,5.76177,34.3582,-56.89731,-0.4675641,6.607276,-71.48107,-8.594284,-36.90935,0,0,0,-95.16451,-70.468,-34.84214,-124.5559,-110.2025,-87.14465,0.001067912,-0.1257102,0.09433498,0,0.3,0,0,0,0
638224326012553576,-36.82422,15.59326,16.59991,-8.636719,5.322299,34.3582,-56.89731,-0.4675641,6.607276,-71.48107,-8.521038,-36.90935,0,0,0,-99.81672,-68.59702,-35.03976,-124.5559,-110.2025,-87.14465,0.001067912,-0.1257102,0.09433498,0,0.3,0,0,0,0
638224326012893479,-39.76921,17.18298,19.28484,-12.51871,4.077131,34.28495,-56.89731,-0.4675641,6.607276,-71.48107,-8.521038,-36.83611,0,0,0,-109.6689,-63.12269,-36.57739,-124.5559,-110.2025,-87.14465,0.001067912,-0.1257102,0.09433498,0,0.3,0,0,0,0
638224326013233364,-42.40793,19.75458,22.2266,-17.27965,2.392492,34.28495,-56.89731,-0.4675641,6.607276,-71.48107,-8.521038,-36.90935,0,0,0,-118.6578,-55.02021,-38.4392,-124.5559,-110.2025,-87.14465,0.001067912,-0.1257102,0.09433498,0,0.3,0,0,0,0
638224326013573257,-44.41053,23.56523,25.6353,-22.11383,-0.171089,33.99197,-56.89731,-0.4675641,6.607276,-71.48107,-8.521038,-36.83611,0,0,0,-125.9085,-43.56147,-39.82373,-124.5559,-110.2025,-87.14465,0.001067912,-0.1257102,0.09433498,0,0.3,0,0,0,0
638224326013913140,-45.14088,25.66927,27.10618,-24.67741,-1.709238,33.84548,-56.89731,-0.4675641,6.607276,-71.48107,-8.521038,-36.83611,0,0,0,-128.2647,-37.58935,-40.71451,-124.5559,-110.2025,-87.14465,0.001067912,-0.1257102,0.09433498,0,0.3,0,0,0,0
638224326014243048,-45.98904,29.83059,29.20743,-29.43835,-5.00527,33.18628,-56.89731,-0.4675641,6.607276,-71.40782,-8.521038,-36.83611,0,0,0,-129.9983,-26.71248,-42.76404,-124.5559,-110.2025,-87.14465,0.001067912,-0.1257102,0.09433498,0,0.3,0,0,0,0
638224326014592915,-46.55449,34.24907,30.7717,-32.73438,-7.788587,32.45382,-56.89731,-0.4675641,6.607276,-71.48107,-8.521038,-36.90935,0,0,0,-129.5607,-16.17778,-45.63538,-124.5559,-110.2025,-87.14465,0.001067912,-0.1257102,0.09433498,0,0.3,0,0,0,0
638224326014932821,-46.93144,36.49338,31.42542,-34.05279,-9.033754,32.08759,-56.89731,-0.4675641,6.607276,-71.48107,-8.521038,-36.90935,0,0,0,-129.1083,-11.13294,-47.66544,-124.5559,-110.2025,-87.14465,0.001067912,-0.1257102,0.09433498,0,0.3,0,0,0,0
638224326015272711,-47.63824,40.91186,32.28927,-36.54313,-11.3776,31.06216,-56.89731,-0.4675641,6.607276,-71.48107,-8.521038,-36.83611,0,0,0,-127.0989,-2.048468,-52.44821,-124.5559,-110.2025,-87.14465,0.001067912,-0.1257102,0.09433498,0,0.3,0,0,0,0
638224326015612604,-48.10944,45.23682,32.84961,-38.66724,-13.35522,29.89024,-56.89731,-0.4675641,6.607276,-71.48107,-8.521038,-36.83611,0,0,0,-123.7496,6.00465,-57.35261,-124.5559,-110.2025,-87.14465,0.001067912,-0.1257102,0.09433498,0,0.3,0,0,0,0
638224326015952496,-48.39216,47.34086,32.98969,-39.47293,-14.01443,29.23104,-56.89731,-0.4675641,6.607276,-71.48107,-8.594284,-36.83611,0,0,0,-121.854,9.565537,-60.13316,-124.5559,-110.2025,-87.14465,0.001067912,-0.1257102,0.09433498,0,0.3,0,0,0,0
638224326016302386,-48.86336,51.43205,33.03638,-40.93784,-15.25959,27.83937,-56.89731,-0.4675641,6.607276,-71.40782,-8.521038,-36.83611,0,0,0,-117.3658,15.82169,-65.83308,-124.5559,-110.2025,-87.14465,0.001067912,-0.1257102,0.09433498,0,0.3,0,0,0,0
638224326016632280,-49.35812,54.96216,33.01303,-41.96327,-16.21178,26.59421,-56.89731,-0.4675641,6.607276,-71.48107,-8.521038,-36.90935,0,0,0,-113.2211,20.71318,-71.16415,-124.5559,-110.2025,-87.14465,0.001067912,-0.1257102,0.09433498,0,0.3,0,0,0,0
638224326016982160,-50.53612,57.79092,33.03638,-42.69572,-16.87099,25.56878,-56.89731,-0.4675641,6.607276,-71.48107,-8.521038,-36.90935,0,0,0,-110.9984,24.38801,-76.96745,-124.5559,-110.2025,-87.14465,0.001067912,-0.1257102,0.09433498,0,0.3,0,0,0,0
638224326017312066,-51.54919,58.86631,33.17647,-43.28168,-16.87099,25.20255,-56.89731,-0.4675641,6.607276,-71.48107,-8.521038,-36.90935,0,0,0,-111.1424,25.8802,-80.09902,-124.5559,-110.2025,-87.14465,0.001067912,-0.1257102,0.09433498,0,0.3,0,0,0,0
638224326017651949,-54.30571,60.33914,34.25044,-45.40579,-16.50476,24.76308,-56.89731,-0.4675641,6.607276,-71.48107,-8.521038,-36.83611,0,0,0,-114.6449,29.05946,-86.20084,-124.5559,-110.2025,-87.14465,0.001067912,-0.1257102,0.09433498,0,0.3,0,0,0,0
638224326017991852,-57.48631,60.59631,35.8147,-48.77507,-15.9188,24.90957,-56.89731,-0.4675641,6.607276,-71.40782,-8.521038,-36.83611,0,0,0,-121.0094,31.3868,-91.21784,-124.5559,-110.2025,-87.14465,0.001067912,-0.1257102,0.09433498,0,0.3,0,0,0,0
638224326018331860,-57.43919,60.64306,36.44508,-50.89918,-15.62582,25.42229,-56.89731,-0.4675641,6.607276,-71.48107,-8.594284,-36.90935,0,0,0,-121.8647,32.30523,-90.53164,-124.5559,-110.2025,-87.14465,0.001067912,-0.1257102,0.09433498,0,0.3,0,0,0,0
638224326018681623,-57.43919,60.54955,36.56182,-52.73031,-15.1131,29.37753,-56.89731,-0.4675641,6.607276,-71.48107,-8.521038,-36.83611,0,0,0,-122.2086,32.36,-90.31206,-124.5559,-110.2025,-87.14465,0.001067912,-0.1257102,0.09433498,0,0.3,0,0,0,0
638224326019011524,-57.43919,60.22225,36.42173,-52.80355,-14.60039,34.2117,-56.89731,-0.4675641,6.607276,-71.48107,-8.594284,-36.90935,0,0,0,-122.5458,31.78969,-90.09671,-124.5559,-110.2025,-87.14465,0.001067912,-0.1257102,0.09433498,0,0.3,0,0,0,0
638224326019361397,-57.43919,59.96509,36.42173,-52.65706,-14.23416,36.04284,-56.89731,-0.4675641,6.607276,-71.48107,-8.594284,-36.90935,0,0,0,-122.9831,31.49128,-89.81748,-124.5559,-110.2025,-87.14465,0.001067912,-0.1257102,0.09433498,0,0.3,0,0,0,0
638224326019701298,-57.41562,59.07672,36.42173,-52.65706,-13.42846,38.67966,-56.89731,-0.4675641,6.607276,-71.48107,-8.594284,-36.90935,0,0,0,-124.4915,30.41459,-88.78218,-124.5559,-110.2025,-87.14465,0.001067912,-0.1257102,0.09433498,0,0.3,0,0,0,0
638224326020041188,-57.41562,57.20647,36.42173,-53.16978,-12.69601,40.14456,-56.89731,-0.4675641,6.607276,-71.48107,-8.521038,-36.83611,0,0,0,-127.5672,28.14514,-86.81636,-124.5559,-110.2025,-87.14465,0.001067912,-0.1257102,0.09433498,0,0.3,0,0,0,0
638224326020391078,-57.41562,54.28419,36.42173,-53.97548,-12.03681,40.80377,-56.89731,-0.4675641,6.607276,-71.48107,-8.521038,-36.90935,0,0,0,-132.3034,24.3173,-83.78925,-124.5559,-110.2025,-87.14465,0.001067912,-0.1257102,0.09433498,0,0.3,0,0,0,0
638224326020730969,-57.41562,52.46069,36.44508,-54.41495,-11.59733,41.09675,-56.89731,-0.4675641,6.607276,-71.48107,-8.521038,-36.90935,0,0,0,-135.21,21.81765,-81.93154,-124.5559,-110.2025,-87.14465,0.001067912,-0.1257102,0.09433498,0,0.3,0,0,0,0
638224326021070864,-57.39207,48.27599,36.44508,-55.1474,-10.86488,41.60947,-56.89731,-0.4675641,6.607276,-71.48107,-8.594284,-36.90935,0,0,0,-141.4917,15.60673,-77.83468,-124.5559,-110.2025,-87.14465,0.001067912,-0.1257102,0.09433498,0,0.3,0,0,0,0
638224326021420746,-57.39207,43.64711,36.23495,-56.02634,-9.180244,42.6349,-56.89731,-0.4675641,6.607276,-71.40782,-8.521038,-36.83611,0,0,0,-147.6819,7.83004,-73.87463,-124.5559,-110.2025,-87.14465,0.001067912,-0.1257102,0.09433498,0,0.3,0,0,0,0
638224326021760644,-57.39207,41.19239,36.00148,-56.39257,-8.374548,43.29411,-56.89731,-0.4675641,6.607276,-71.48107,-8.594284,-36.90935,0,0,0,-150.5583,3.292533,-72.03457,-124.5559,-110.2025,-87.14465,0.001067912,-0.1257102,0.09433498,0,0.3,0,0,0,0
638224326022092197,-57.36851,36.11932,35.4178,-56.83204,-6.616664,44.24629,-56.89731,-0.4675641,6.607276,-71.48107,-8.521038,-36.83611,0,0,0,-155.7988,-6.717617,-68.59183,-124.5559,-110.2025,-87.14465,0.001067912,-0.1257102,0.09433498,0,0.3,0,0,0,0
638224326022431956,-57.25071,30.92937,34.48391,-57.12502,-4.639044,44.68576,-56.89731,-0.4675641,6.607276,-71.48107,-8.521038,-36.83611,0,0,0,-159.7039,-18.02908,-65.62781,-124.5559,-110.2025,-87.14465,0.001067912,-0.1257102,0.09433498,0,0.3,0,0,0,0
638224326022771854,-56.92087,25.71602,33.40994,-57.05178,-2.514934,44.83226,-56.89731,-0.4675641,6.607276,-71.48107,-8.521038,-36.83611,0,0,0,-162.1943,-30.10219,-62.701,-124.5559,-110.2025,-87.14465,0.001067912,-0.1257102,0.09433498,0,0.3,0,0,0,0
638224326023121737,-56.59103,23.14442,32.8963,-56.83204,-1.196521,44.83226,-56.89731,-0.4675641,6.607276,-71.48107,-8.521038,-36.90935,0,0,0,-162.8141,-36.20475,-60.95726,-124.5559,-110.2025,-87.14465,0.001067912,-0.1257102,0.09433498,0,0.3,0,0,0,0
638224326023461632,-55.17743,18.63243,31.28534,-55.9531,1.147324,44.83226,-56.89731,-0.4675641,6.607276,-71.48107,-8.521038,-36.90935,0,0,0,-160.5806,-48.00507,-56.64972,-124.5559,-110.2025,-87.14465,0.001067912,-0.1257102,0.09433498,0,0.3,0,0,0,0
638224326023791525,-53.33975,14.61138,29.25412,-54.12197,3.857395,44.17305,-56.89731,-0.4675641,6.607276,-71.40782,-8.521038,-36.83611,0,0,0,-155.788,-59.35358,-52.39725,-124.5559,-110.2025,-87.14465,0.001067912,-0.1257102,0.09433498,0,0.3,0,0,0,0
638224326024141408,-52.49159,12.88139,28.29689,-53.16978,4.956073,43.36735,-56.89731,-0.4675641,6.607276,-71.48107,-8.594284,-36.83611,0,0,0,-153.2644,-64.33691,-50.71033,-124.5559,-110.2025,-87.14465,0.001067912,-0.1257102,0.09433498,0,0.3,0,0,0,0
638224326024481293,-50.67748,10.12276,26.63923,-51.11892,7.006938,40.80377,-56.89731,-0.4675641,6.607276,-71.48107,-8.594284,-36.83611,0,0,0,-147.8058,-72.40725,-47.27529,-124.5559,-110.2025,-87.14465,0.001067912,-0.1257102,0.09433498,0,0.3,0,0,0,0
638224326024821336,-48.62776,8.06548,25.30844,-49.43428,8.471841,37.72747,-56.89731,-0.4675641,6.607276,-71.48107,-8.594284,-36.83611,0,0,0,-141.8592,-78.49138,-43.40639,-124.5559,-110.2025,-87.14465,0.001067912,-0.1257102,0.09433498,0,0.3,0,0,0,0
638224326025170632,-47.47332,7.060217,24.46794,-48.3356,9.057802,36.18932,-56.89731,-0.4675641,6.607276,-71.48107,-8.521038,-36.83611,0,0,0,-138.2323,-81.63389,-41.56496,-124.5559,-110.2025,-87.14465,0.001067912,-0.1257102,0.09433498,0,0.3,0,0,0,0
638224326025510527,-45.47073,4.979557,23.04375,-46.43123,9.936745,32.82005,-56.89731,-0.4675641,6.607276,-71.48107,-8.594284,-36.90935,0,0,0,-131.9167,-87.78468,-38.58324,-124.5559,-110.2025,-87.14465,0.001067912,-0.1257102,0.09433498,0,0.3,0,0,0,0
638224326025850550,-43.63305,2.548224,21.99312,-44.74659,10.6692,29.30428,-56.89731,-0.4675641,6.607276,-71.48107,-8.521038,-36.83611,0,0,0,-126.3852,-94.36719,-35.78567,-124.5559,-110.2025,-87.14465,0.001067912,-0.1257102,0.09433498,0,0.3,0,0,0,0
638224326026210304,-41.65401,-0.3039166,21.10593,-42.84221,11.54814,26.52096,-56.89731,-0.4675641,6.607276,-71.48107,-8.521038,-36.90935,0,0,0,-120.5418,-101.7617,-32.838,-124.5559,-110.2025,-87.14465,0.001067912,-0.1257102,0.09433498,0,0.3,0,0,0,0
638224326026530196,-40.80585,-1.098776,20.80241,-41.89003,11.91436,25.56878,-56.89731,-0.4675641,6.607276,-71.48107,-8.521038,-36.90935,0,0,0,-118.0768,-103.8641,-31.58498,-124.5559,-110.2025,-87.14465,0.001067912,-0.1257102,0.09433498,0,0.3,0,0,0,0
638224326026870087,-39.51006,-0.9351282,19.47162,-40.20539,11.76787,21.97976,-56.89731,-0.4675641,6.607276,-71.48107,-8.521038,-36.90935,0,0,0,-113.108,-104.5496,-31.18802,-124.5559,-110.2025,-87.14465,0.001067912,-0.1257102,0.09433498,0,0.3,0,0,0,0
638224326027200169,-39.15665,-1.052019,19.2148,-39.83916,10.88893,14.65524,-56.89731,-0.4675641,6.607276,-71.48107,-8.594284,-36.90935,0,0,0,-111.9008,-105.0196,-30.93397,-124.5559,-110.2025,-87.14465,0.001067912,-0.1257102,0.09433498,0,0.3,0,0,0,0
638224326027539882,-39.13309,-1.005263,19.2148,-40.35188,10.44946,9.747819,-56.89731,-0.4675641,6.607276,-71.48107,-8.521038,-36.83611,0,0,0,-111.8455,-104.9108,-30.88645,-124.5559,-110.2025,-87.14465,0.001067912,-0.1257102,0.09433498,0,0.3,0,0,0,0
638224326027879903,-38.82682,-1.005263,19.14476,-42.25625,9.643764,-0.8727306,-56.89731,-0.4675641,6.607276,-71.48107,-8.594284,-36.83611,0,0,0,-111.0126,-104.9643,-30.41049,-124.5559,-110.2025,-87.14465,0.001067912,-0.1257102,0.09433498,0,0.3,0,0,0,0
638224326028220962,-37.62526,-0.9818845,18.28091,-43.50142,9.643764,-8.416983,-56.89731,-0.4675641,6.607276,-71.48107,-8.594284,-36.83611,0,0,0,-106.9337,-105.555,-29.62037,-124.5559,-110.2025,-87.14465,0.001067912,-0.1257102,0.09433498,0,0.3,0,0,0,0
638224326028570719,-35.90538,-0.9818845,16.83338,-42.47599,10.30297,-12.22573,-56.89731,-0.4675641,6.607276,-71.48107,-8.521038,-36.90935,0,0,0,-100.8382,-106.5712,-29.0751,-124.5559,-110.2025,-87.14465,0.001067912,-0.1257102,0.09433498,0,0.3,0,0,0,0
638224326028910623,-34.98654,-0.9585064,16.15631,-41.45055,10.96218,-13.32441,-56.89731,-0.4675641,6.607276,-71.48107,-8.521038,-36.83611,0,0,0,-97.72593,-106.9642,-28.71311,-124.5559,-110.2025,-87.14465,0.001067912,-0.1257102,0.09433498,0,0.3,0,0,0,0
638224326029250631,-32.98395,-0.9117499,14.77882,-39.32644,12.35384,-14.2766,-56.89731,-0.4675641,6.607276,-71.48107,-8.594284,-36.83611,0,0,0,-91.10555,-107.7104,-27.97366,-124.5559,-110.2025,-87.14465,0.001067912,-0.1257102,0.09433498,0,0.3,0,0,0,0
638224326029600397,-30.32167,-0.6779679,13.30794,-36.83611,13.74549,-13.76388,-56.89731,-0.4675641,6.607276,-71.48107,-8.521038,-36.83611,0,0,0,-82.81414,-107.997,-26.75355,-124.5559,-110.2025,-87.14465,0.001067912,-0.1257102,0.09433498,0,0.3,0,0,0,0
638224326029940283,-28.71959,-0.4441859,12.56083,-35.15147,14.47795,-12.81169,-56.89731,-0.4675641,6.607276,-71.40782,-8.521038,-36.83611,0,0,0,-78.01125,-107.8421,-25.97513,-124.5559,-110.2025,-87.14465,0.001067912,-0.1257102,0.09433498,0,0.3,0,0,0,0
638224326030274333,-25.4212,0.4909423,11.20669,-30.75676,16.23583,-9.808641,-56.89731,-0.4675641,6.607276,-71.48107,-8.521038,-36.83611,0,0,0,-68.36608,-106.3147,-24.50873,-124.5559,-110.2025,-87.14465,0.001067912,-0.1257102,0.09433498,0,0.3,0,0,0,0
638224326030614219,-22.19348,2.454711,10.03932,-25.04364,17.84722,-5.340686,-56.89731,-0.4675641,6.607276,-71.48107,-8.594284,-36.83611,0,0,0,-59.10569,-102.2468,-23.46884,-124.5559,-110.2025,-87.14465,0.001067912,-0.1257102,0.09433498,0,0.3,0,0,0,0
638224326030964107,-20.68565,3.810647,9.502337,-22.04058,18.43318,-2.99684,-56.89731,-0.4675641,6.607276,-71.48107,-8.521038,-36.83611,0,0,0,-54.77687,-99.30794,-23.2773,-124.5559,-110.2025,-87.14465,0.001067912,-0.1257102,0.09433498,0,0.3,0,0,0,0
638224326031303999,-17.99981,6.89657,8.591794,-16.25422,18.87265,1.471115,-56.89731,-0.4675641,6.607276,-71.48107,-8.594284,-36.83611,0,0,0,-47.06491,-92.4912,-23.49747,-124.5559,-110.2025,-87.14465,0.001067912,-0.1257102,0.09433498,0,0.3,0,0,0,0
638224326031643902,-16.04433,10.37992,7.984766,-11.05381,18.43318,4.986883,-56.89731,-0.4675641,6.607276,-71.48107,-8.594284,-36.90935,0,0,0,-41.37184,-84.68091,-24.48945,-124.5559,-110.2025,-87.14465,0.001067912,-0.1257102,0.09433498,0,0.3,0,0,0,0
638224326031993777,-14.7721,14.28408,7.657903,-7.318305,17.33451,7.257483,-56.89731,-0.4675641,6.607276,-71.48107,-8.521038,-36.83611,0,0,0,-37.48063,-75.90929,-26.21125,-124.5559,-110.2025,-87.14465,0.001067912,-0.1257102,0.09433498,0,0.3,0,0,0,0
638224326032333659,-14.44226,16.43488,7.634556,-5.926647,16.60205,8.209671,-56.89731,-0.4675641,6.607276,-71.48107,-8.521038,-36.83611,0,0,0,-36.31765,-71.08984,-27.33391,-124.5559,-110.2025,-87.14465,0.001067912,-0.1257102,0.09433498,0,0.3,0,0,0,0
638224326032663583,-14.27734,20.75984,7.727945,-3.802537,14.69768,9.528083,-56.89731,-0.4675641,6.607276,-71.48107,-8.521038,-36.83611,0,0,0,-35.17324,-61.52274,-30.1315,-124.5559,-110.2025,-87.14465,0.001067912,-0.1257102,0.09433498,0,0.3,0,0,0,0
638224326033003463,-14.32446,24.59387,8.124848,-2.85035,12.64682,10.33378,-56.89731,-0.4675641,6.607276,-71.48107,-8.521038,-36.83611,0,0,0,-34.66226,-53.16342,-32.60664,-124.5559,-110.2025,-87.14465,0.001067912,-0.1257102,0.09433498,0,0.3,0,0,0,0
638224326033373340,-14.39514,26.44075,8.428363,-2.557369,11.62138,10.62676,-56.89731,-0.4675641,6.607276,-71.40782,-8.521038,-36.83611,0,0,0,-34.54315,-49.18277,-33.76589,-124.5559,-110.2025,-87.14465,0.001067912,-0.1257102,0.09433498,0,0.3,0,0,0,0
638224326033683242,-14.51294,29.90072,9.292212,-2.557369,9.643764,10.91974,-56.89731,-0.4675641,6.607276,-71.48107,-8.594284,-36.90935,0,0,0,-34.36504,-41.77534,-35.5939,-124.5559,-110.2025,-87.14465,0.001067912,-0.1257102,0.09433498,0,0.3,0,0,0,0
638224326034013144,-14.51294,33.50097,10.62301,-3.070086,7.373164,11.06623,-56.89731,-0.4675641,6.607276,-71.40782,-8.521038,-36.83611,0,0,0,-34.02627,-34.1119,-36.90261,-124.5559,-110.2025,-87.14465,0.001067912,-0.1257102,0.09433498,0,0.3,0,0,0,0
638224326034353026,-14.48938,35.20757,11.46351,-3.289821,6.274486,11.06623,-56.89731,-0.4675641,6.607276,-71.48107,-8.594284,-36.90935,0,0,0,-33.8918,-30.45821,-37.1998,-124.5559,-110.2025,-87.14465,0.001067912,-0.1257102,0.09433498,0,0.3,0,0,0,0
638224326034692925,-14.32446,38.57404,13.21455,-3.802537,3.857395,11.13948,-56.89731,-0.4675641,6.607276,-71.48107,-8.594284,-36.83611,0,0,0,-33.33564,-23.3219,-37.80194,-124.5559,-110.2025,-87.14465,0.001067912,-0.1257102,0.09433498,0,0.3,0,0,0,0
638224326035022818,-13.57054,42.19766,15.61932,-3.949028,1.000834,11.13948,-56.89731,-0.4675641,6.607276,-71.48107,-8.521038,-36.83611,0,0,0,-31.60484,-15.50573,-37.41669,-124.5559,-110.2025,-87.14465,0.001067912,-0.1257102,0.09433498,0,0.3,0,0,0,0
638224326035372704,-12.46322,45.86803,18.70116,-3.509557,-2.441689,11.13948,-56.89731,-0.4675641,6.607276,-71.48107,-8.521038,-36.90935,0,0,0,-29.26631,-7.249271,-35.93599,-124.5559,-110.2025,-87.14465,0.001067912,-0.1257102,0.09433498,0,0.3,0,0,0,0
638224326035702603,-11.63862,47.45775,20.17204,-3.143331,-4.346064,11.13948,-56.89731,-0.4675641,6.607276,-71.48107,-8.521038,-36.90935,0,0,0,-27.46602,-3.571024,-35.00239,-124.5559,-110.2025,-87.14465,0.001067912,-0.1257102,0.09433498,0,0.3,0,0,0,0
638224326036042497,-8.952785,49.86571,22.71689,-1.312202,-7.935077,11.13948,-56.89731,-0.4675641,6.607276,-71.48107,-8.521038,-36.90935,0,0,0,-21.39031,2.295562,-32.57283,-124.5559,-110.2025,-87.14465,0.001067912,-0.1257102,0.09433498,0,0.3,0,0,0,0
638224326036392513,-5.772191,51.43205,24.86484,2.057076,-10.71839,11.13948,-56.89731,-0.4675641,6.607276,-71.48107,-8.521038,-36.83611,0,0,0,-14.00051,6.623519,-29.8489,-124.5559,-110.2025,-87.14465,0.001067912,-0.1257102,0.09433498,0,0.3,0,0,0,0
638224326036732275,-4.146553,52.06326,25.82208,4.034696,-11.96356,10.91974,-56.89731,-0.4675641,6.607276,-71.48107,-8.594284,-36.90935,0,0,0,-10.12792,8.486674,-28.64993,-124.5559,-110.2025,-87.14465,0.001067912,-0.1257102,0.09433498,0,0.3,0,0,0,0
638224326037072149,-0.8717186,52.8815,27.3163,8.35616,-13.6482,9.601329,-56.89731,-0.4675641,6.607276,-71.48107,-8.521038,-36.90935,0,0,0,-2.155286,11.20213,-26.69964,-124.5559,-110.2025,-87.14465,0.001067912,-0.1257102,0.09433498,0,0.3,0,0,0,0
638224326037412053,2.591596,52.95163,28.50701,12.89736,-14.60039,7.330729,-56.89731,-0.4675641,6.607276,-71.48107,-8.521038,-36.90935,0,0,0,6.510508,12.59778,-24.51189,-124.5559,-110.2025,-87.14465,0.001067912,-0.1257102,0.09433498,0,0.3,0,0,0,0
638224326037751940,4.052313,52.90487,28.97396,14.87498,-14.89337,6.232051,-56.89731,-0.4675641,6.607276,-71.48107,-8.521038,-36.83611,0,0,0,10.24852,13.05475,-23.68749,-124.5559,-110.2025,-87.14465,0.001067912,-0.1257102,0.09433498,0,0.3,0,0,0,0
638224326038091836,7.397828,52.43731,29.8845,19.34294,-15.18635,3.66847,-56.89731,-0.4675641,6.607276,-71.48107,-8.594284,-36.90935,0,0,0,19.02221,13.43612,-21.84364,-124.5559,-110.2025,-87.14465,0.001067912,-0.1257102,0.09433498,0,0.3,0,0,0,0
638224326038441725,10.57842,51.31516,30.56157,23.59116,-15.18635,0.8851534,-56.89731,-0.4675641,6.607276,-71.48107,-8.521038,-36.83611,0,0,0,27.74871,12.61699,-19.76665,-124.5559,-110.2025,-87.14465,0.001067912,-0.1257102,0.09433498,0,0.3,0,0,0,0
638224326038781624,13.57054,49.58517,30.79504,27.98586,-14.89337,-2.044653,-56.89731,-0.4675641,6.607276,-71.48107,-8.521038,-36.83611,0,0,0,36.30481,10.33055,-17.94554,-124.5559,-110.2025,-87.14465,0.001067912,-0.1257102,0.09433498,0,0.3,0,0,0,0
638224326039121502,14.84277,48.60329,30.74835,29.817,-14.4539,-3.436311,-56.89731,-0.4675641,6.607276,-71.48107,-8.521038,-36.90935,0,0,0,40.05379,8.778556,-17.20945,-124.5559,-110.2025,-87.14465,0.001067912,-0.1257102,0.09433498,0,0.3,0,0,0,0
638224326039461395,17.03385,46.42911,30.44483,32.96654,-13.35522,-5.926647,-56.89731,-0.4675641,6.607276,-71.48107,-8.521038,-36.90935,0,0,0,46.71791,5.00167,-15.86488,-124.5559,-110.2025,-87.14465,0.001067912,-0.1257102,0.09433498,0,0.3,0,0,0,0
638224326039801301,18.70661,44.11467,30.09463,35.16389,-12.1833,-7.977511,-56.89731,-0.4675641,6.607276,-71.48107,-8.594284,-36.90935,0,0,0,52.15073,0.8002714,-14.33582,-124.5559,-110.2025,-87.14465,0.001067912,-0.1257102,0.09433498,0,0.3,0,0,0,0
638224326040141188,19.34273,43.06265,29.81446,36.04284,-11.59733,-8.783209,-56.89731,-0.4675641,6.607276,-71.48107,-8.594284,-36.83611,0,0,0,54.22942,-1.298729,-13.86452,-124.5559,-110.2025,-87.14465,0.001067912,-0.1257102,0.09433498,0,0.3,0,0,0,0
638224326040481074,20.35581,41.02874,29.09069,37.288,-9.692961,-10.10162,-56.89731,-0.4675641,6.607276,-71.48107,-8.594284,-36.83611,0,0,0,57.54484,-5.642105,-13.25053,-124.5559,-110.2025,-87.14465,0.001067912,-0.1257102,0.09433498,0,0.3,0,0,0,0
638224326040820963,21.13329,38.92471,28.11011,38.02045,-8.008322,-10.68758,-56.89731,-0.4675641,6.607276,-71.48107,-8.521038,-36.90935,0,0,0,60.05594,-10.48692,-12.98019,-124.5559,-110.2025,-87.14465,0.001067912,-0.1257102,0.09433498,0,0.3,0,0,0,0
638224326041160859,21.41601,37.98958,27.61982,38.16694,-7.27587,-10.76083,-56.89731,-0.4675641,6.607276,-71.48107,-8.521038,-36.90935,0,0,0,60.94775,-12.72453,-12.95746,-124.5559,-110.2025,-87.14465,0.001067912,-0.1257102,0.09433498,0,0.3,0,0,0,0
638224326041510740,22.14636,35.62838,26.45245,38.53317,-5.664476,-10.76083,-56.89731,-0.4675641,6.607276,-71.48107,-8.521038,-36.83611,0,0,0,63.25243,-18.35904,-12.93895,-124.5559,-110.2025,-87.14465,0.001067912,-0.1257102,0.09433498,0,0.3,0,0,0,0
638224326041850634,23.0652,33.17367,25.68199,38.60641,-3.906592,-10.76083,-56.89731,-0.4675641,6.607276,-71.48107,-8.521038,-36.90935,0,0,0,66.3699,-23.86052,-12.48571,-124.5559,-110.2025,-87.14465,0.001067912,-0.1257102,0.09433498,0,0.3,0,0,0,0
638224326042190524,24.31388,30.78909,25.44852,39.04589,-2.148709,-10.68758,-56.89731,-0.4675641,6.607276,-71.48107,-8.521038,-36.83611,0,0,0,70.75906,-28.80217,-11.73721,-124.5559,-110.2025,-87.14465,0.001067912,-0.1257102,0.09433498,0,0.3,0,0,0,0
638224326042530415,25.09136,29.7137,25.47187,39.5586,-1.123276,-10.68758,-56.89731,-0.4675641,6.607276,-71.48107,-8.521038,-36.83611,0,0,0,73.43317,-30.94082,-11.52541,-124.5559,-110.2025,-87.14465,0.001067912,-0.1257102,0.09433498,0,0.3,0,0,0,0
638224326042880310,26.78768,27.84344,25.70534,40.80377,0.7810982,-10.61434,-56.89731,-0.4675641,6.607276,-71.48107,-8.521038,-36.83611,0,0,0,79.20858,-34.52116,-11.45982,-124.5559,-110.2025,-87.14465,0.001067912,-0.1257102,0.09433498,0,0.3,0,0,0,0
638224326043220201,28.79027,25.94981,26.98944,42.12218,2.392492,-11.34679,-56.89731,-0.4675641,6.607276,-71.48107,-8.521038,-36.90935,0,0,0,86.89264,-37.12511,-10.22929,-124.5559,-110.2025,-87.14465,0.001067912,-0.1257102,0.09433498,0,0.3,0,0,0,0
638224326043560087,29.66199,25.24846,27.80659,42.78139,2.978453,-12.15249,-56.89731,-0.4675641,6.607276,-71.48107,-8.521038,-36.83611,0,0,0,90.47283,-37.72202,-9.489465,-124.5559,-110.2025,-87.14465,0.001067912,-0.1257102,0.09433498,0,0.3,0,0,0,0
638224326043909981,31.45255,24.19644,29.69772,44.17305,4.003886,-14.49633,-56.89731,-0.4675641,6.607276,-71.48107,-8.594284,-36.83611,0,0,0,97.9401,-37.82896,-8.228766,-124.5559,-110.2025,-87.14465,0.001067912,-0.1257102,0.09433498,0,0.3,0,0,0,0
638224326044249884,33.29023,23.42496,31.89237,46.00418,4.663092,-17.27965,-56.89731,-0.4675641,6.607276,-71.48107,-8.594284,-36.90935,0,0,0,105.8305,-36.85678,-7.178535,-124.5559,-110.2025,-87.14465,0.001067912,-0.1257102,0.09433498,0,0.3,0,0,0,0
638224326044599758,34.98654,22.6301,34.25044,47.8353,5.029318,-20.42919,-56.89731,-0.4675641,6.607276,-71.48107,-8.521038,-36.90935,0,0,0,113.6069,-35.56472,-6.02142,-124.5559,-110.2025,-87.14465,0.001067912,-0.1257102,0.09433498,0,0.3,0,0,0,0
638224326044929651,35.81114,22.18591,35.60458,48.56776,5.175808,-22.26032,-56.89731,-0.4675641,6.607276,-71.48107,-8.594284,-36.83611,0,0,0,117.6737,-34.71606,-5.258219,-124.5559,-110.2025,-87.14465,0.001067912,-0.1257102,0.09433498,0,0.3,0,0,0,0
638224326045269546,37.46034,21.3443,38.4296,50.32565,5.542034,-26.06907,-56.89731,-0.4675641,6.607276,-71.48107,-8.521038,-36.83611,0,0,0,125.9532,-32.57712,-3.969157,-124.5559,-110.2025,-87.14465,0.001067912,-0.1257102,0.09433498,0,0.3,0,0,0,0
638224326045609434,38.8975,20.5962,41.3947,51.79055,5.615279,-30.31729,-56.89731,-0.4675641,6.607276,-71.48107,-8.521038,-36.90935,0,0,0,133.751,-29.77567,-2.575763,-124.5559,-110.2025,-87.14465,0.001067912,-0.1257102,0.09433498,0,0.3,0,0,0,0
638224326045949462,39.4865,20.22215,42.91228,52.59624,5.542034,-32.58789,-56.89731,-0.4675641,6.607276,-71.48107,-8.521038,-36.83611,0,0,0,137.3061,-28.22126,-1.704368,-124.5559,-110.2025,-87.14465,0.001067912,-0.1257102,0.09433498,0,0.3,0,0,0,0
638224326046289207,40.49957,19.42729,45.94742,53.91465,5.468789,-36.76286,-56.89731,-0.4675641,6.607276,-71.48107,-8.521038,-36.90935,0,0,0,143.9142,-25.0171,0.1544069,-124.5559,-110.2025,-87.14465,0.001067912,-0.1257102,0.09433498,0,0.3,0,0,0,0
638224326046629111,41.34773,18.86621,48.51562,55.08658,5.468789,-40.57161,-56.89731,-0.4675641,6.607276,-71.48107,-8.594284,-36.90935,0,0,0,149.3568,-21.86318,1.37388,-124.5559,-110.2025,-87.14465,0.001067912,-0.1257102,0.09433498,0,0.3,0,0,0,0
638224326046978988,42.05453,18.4454,51.17721,56.11201,5.322299,-44.16063,-56.89731,-0.4675641,6.607276,-71.48107,-8.594284,-36.90935,0,0,0,154.3243,-18.0569,2.716851,-124.5559,-110.2025,-87.14465,0.001067912,-0.1257102,0.09433498,0,0.3,0,0,0,0
638224326047308892,42.36081,18.28176,52.53135,56.55148,5.175808,-45.91851,-56.89731,-0.4675641,6.607276,-71.48107,-8.521038,-36.83611,0,0,0,156.629,-15.93987,3.416495,-124.5559,-110.2025,-87.14465,0.001067912,-0.1257102,0.09433498,0,0.3,0,0,0,0
638224326047658783,42.85557,18.0246,55.49645,57.50367,4.956073,-49.1413,-56.89731,-0.4675641,6.607276,-71.48107,-8.521038,-36.83611,0,0,0,160.9909,-10.92523,5.166506,-124.5559,-110.2025,-87.14465,0.001067912,-0.1257102,0.09433498,0,0.3,0,0,0,0
638224326047998672,43.23253,18.0246,58.64833,58.45585,4.663092,-52.29084,-56.89731,-0.4675641,6.607276,-71.48107,-8.594284,-36.83611,0,0,0,164.86,-4.768745,7.00843,-124.5559,-110.2025,-87.14465,0.001067912,-0.1257102,0.09433498,0,0.3,0,0,0,0
638224326048338563,43.39745,18.0246,60.39938,59.04182,4.443357,-53.90223,-56.89731,-0.4675641,6.607276,-71.48107,-8.521038,-36.83611,0,0,0,166.7841,-1.256558,8.034969,-124.5559,-110.2025,-87.14465,0.001067912,-0.1257102,0.09433498,0,0.3,0,0,0,0
638224326048678459,43.72729,18.04797,64.20498,60.14049,3.93064,-57.78423,-56.89731,-0.4675641,6.607276,-71.48107,-8.521038,-36.83611,0,0,0,170.6303,6.635958,10.0342,-124.5559,-110.2025,-87.14465,0.001067912,-0.1257102,0.09433498,0,0.3,0,0,0,0
638224326049008355,43.93933,18.04797,68.38414,61.45891,3.417924,-62.39867,-56.89731,-0.4675641,6.607276,-71.48107,-8.521038,-36.83611,0,0,0,174.0021,15.53986,12.21669,-124.5559,-110.2025,-87.14465,0.001067912,-0.1257102,0.09433498,0,0.3,0,0,0,0
638224326049348240,44.01001,18.04797,70.39201,62.11811,2.978453,-64.96225,-56.89731,-0.4675641,6.607276,-71.48107,-8.594284,-36.90935,0,0,0,175.3676,19.9136,13.18503,-124.5559,-110.2025,-87.14465,0.001067912,-0.1257102,0.09433498,0,0.3,0,0,0,0
638224326049688142,44.10425,18.0246,73.75401,63.36329,1.953021,-69.94292,-56.89731,-0.4675641,6.607276,-71.48107,-8.521038,-36.83611,0,0,0,177.3537,27.30562,14.63766,-124.5559,-110.2025,-87.14465,0.001067912,-0.1257102,0.09433498,0,0.3,0,0,0,0
638224326050036637,44.12781,17.90771,76.20547,64.24223,1.147324,-74.19114,-56.89731,-0.4675641,6.607276,-71.48107,-8.594284,-36.90935,0,0,0,178.5168,32.557,15.68622,-124.5559,-110.2025,-87.14465,0.001067912,-0.1257102,0.09433498,0,0.3,0,0,0,0
638224326050366535,44.12781,17.76744,77.11602,64.53521,0.707853,-75.87578,-56.89731,-0.4675641,6.607276,-71.40782,-8.521038,-36.90935,0,0,0,178.9268,34.30824,16.10895,-124.5559,-110.2025,-87.14465,0.001067912,-0.1257102,0.09433498,0,0.3,0,0,0,0
638224326050706426,44.08069,17.20636,78.44682,64.75494,-0.2443342,-78.29288,-56.89731,-0.4675641,6.607276,-71.48107,-8.521038,-36.90935,0,0,0,179.5041,36.0898,17.0088,-124.5559,-110.2025,-87.14465,0.001067912,-0.1257102,0.09433498,0,0.3,0,0,0,0
638224326051036321,43.91577,16.22447,79.07719,64.90143,-0.9035407,-79.83102,-56.89731,-0.4675641,6.607276,-71.48107,-8.521038,-36.83611,0,0,0,179.624,35.34015,18.20415,-124.5559,-110.2025,-87.14465,0.001067912,-0.1257102,0.09433498,0,0.3,0,0,0,0
638224326051376208,43.82153,15.03218,79.07719,64.82819,-1.416257,-80.78321,-56.89731,-0.4675641,6.607276,-71.48107,-8.521038,-36.83611,0,0,0,179.8345,32.66786,19.03869,-124.5559,-110.2025,-87.14465,0.001067912,-0.1257102,0.09433498,0,0.3,0,0,0,0
638224326051716104,43.72729,14.12043,79.03049,64.68169,-1.635992,-81.07619,-56.89731,-0.4675641,6.607276,-71.48107,-8.521038,-36.83611,0,0,0,179.8809,30.50748,19.70523,-124.5559,-110.2025,-87.14465,0.001067912,-0.1257102,0.09433498,0,0.3,0,0,0,0
638224326052058774,43.58593,11.99302,78.79703,64.16898,-2.075463,-81.58891,-56.89731,-0.4675641,6.607276,-71.48107,-8.594284,-36.90935,0,0,0,180.1155,25.15118,20.88297,-124.5559,-110.2025,-87.14465,0.001067912,-0.1257102,0.09433498,0,0.3,0,0,0,0
638224326052398669,43.39745,9.748712,78.23669,63.36329,-2.368444,-81.80864,-56.89731,-0.4675641,6.607276,-71.48107,-8.594284,-36.90935,0,0,0,179.9904,18.74384,22.00155,-124.5559,-110.2025,-87.14465,0.001067912,-0.1257102,0.09433498,0,0.3,0,0,0,0
638224326052738572,43.27965,8.743448,77.7464,62.85057,-2.58818,-81.88189,-56.89731,-0.4675641,6.607276,-71.48107,-8.594284,-36.90935,0,0,0,179.6937,15.31849,22.47204,-124.5559,-110.2025,-87.14465,0.001067912,-0.1257102,0.09433498,0,0.3,0,0,0,0
