zeyangz2/DNN_classification_different_people_hand/data_by_names/Zeyang/zeyang_right_24.csv
Timestamp,Therapist joint angle 0,Therapist joint angle 1,Therapist joint angle 2,Therapist joint angle 3,Therapist joint angle 4,Therapist joint angle 5,Patient joint angle 0,Patient joint angle 1,Patient joint angle 2,Patient joint angle 3,Patient joint angle 4,Patient joint angle 5,Virtual joint angle 0,Virtual joint angle 1,Virtual joint angle 2,Therapist position x,Therapist position y,Therapist position z,Patient position x,Patient position y,Patient position z,Virtual position x,Virtual position y,Virtual position z,Assistive Force, Obstacle Force Magnitude, Therapist Constant Force, Patient Constant Force, Recovery Factor, Assistance Level
638224245001775928,0,0,0,0,0,0,0,0,0,0,0,0,0,0,0,0,0,0,0,0,0,0,0,0,0,0.3,0,0,0,0
638224245001925735,-31.38187,-0.9818845,0.1634309,-29.95106,-62.86895,-74.85035,-56.96799,-0.4675641,6.980833,-72.28677,-8.594284,-36.83611,0,0,0,-69.62849,-112.2846,-54.19901,-125.3798,-110.0997,-86.82777,0.001067912,-0.1257102,0.09433498,0,0.3,0,0,0,0
638224245002265635,-31.38187,-0.9818845,0.1634309,-29.95106,-62.86895,-74.85035,-56.96799,-0.4675641,6.980833,-72.36002,-8.594284,-36.83611,0,0,0,-69.62849,-112.2846,-54.19901,-125.3798,-110.0997,-86.82777,0.001067912,-0.1257102,0.09433498,0,0.3,0,0,0,0
638224245002605541,-31.38187,-0.9818845,0.1634309,-30.02431,-62.9422,-74.85035,-56.96799,-0.4675641,6.980833,-72.28677,-8.594284,-36.83611,0,0,0,-69.62849,-112.2846,-54.19901,-125.3798,-110.0997,-86.82777,0.001067912,-0.1257102,0.09433498,0,0.3,0,0,0,0
638224245002955425,-31.38187,-0.9818845,0.1634309,-29.95106,-62.86895,-74.85035,-56.96799,-0.4675641,6.980833,-72.28677,-8.594284,-36.83611,0,0,0,-69.62849,-112.2846,-54.19901,-125.3798,-110.0997,-86.82777,0.001067912,-0.1257102,0.09433498,0,0.3,0,0,0,0
638224245003285309,-31.38187,-0.9818845,0.1634309,-30.02431,-62.9422,-74.85035,-56.96799,-0.4675641,6.980833,-72.28677,-8.521038,-36.83611,0,0,0,-69.62849,-112.2846,-54.19901,-125.3798,-110.0997,-86.82777,0.001067912,-0.1257102,0.09433498,0,0.3,0,0,0,0
638224245003635198,-31.38187,-0.9818845,0.1634309,-29.95106,-62.86895,-74.85035,-56.96799,-0.4675641,6.980833,-72.36002,-8.594284,-36.90935,0,0,0,-69.62849,-112.2846,-54.19901,-125.3798,-110.0997,-86.82777,0.001067912,-0.1257102,0.09433498,0,0.3,0,0,0,0
638224245003975091,-31.38187,-0.9818845,0.1634309,-30.02431,-62.9422,-74.85035,-56.96799,-0.4675641,6.980833,-72.28677,-8.521038,-36.90935,0,0,0,-69.62849,-112.2846,-54.19901,-125.3798,-110.0997,-86.82777,0.001067912,-0.1257102,0.09433498,0,0.3,0,0,0,0
638224245004314982,-31.38187,-0.9818845,0.1634309,-29.95106,-62.86895,-74.85035,-56.96799,-0.4675641,6.980833,-72.28677,-8.594284,-36.83611,0,0,0,-69.62849,-112.2846,-54.19901,-125.3798,-110.0997,-86.82777,0.001067912,-0.1257102,0.09433498,0,0.3,0,0,0,0
638224245004654868,-31.38187,-0.9818845,0.1634309,-29.95106,-62.86895,-74.85035,-56.96799,-0.4675641,6.980833,-72.28677,-8.594284,-36.83611,0,0,0,-69.62849,-112.2846,-54.19901,-125.3798,-110.0997,-86.82777,0.001067912,-0.1257102,0.09433498,0,0.3,0,0,0,0
638224245004994759,-31.38187,-0.9818845,0.1634309,-30.02431,-62.9422,-74.85035,-56.96799,-0.4675641,6.980833,-72.36002,-8.594284,-36.90935,0,0,0,-69.62849,-112.2846,-54.19901,-125.3798,-110.0997,-86.82777,0.001067912,-0.1257102,0.09433498,0,0.3,0,0,0,0
638224245005344668,-31.38187,-0.9818845,0.1634309,-30.02431,-62.86895,-74.85035,-56.96799,-0.4675641,6.980833,-72.28677,-8.521038,-36.83611,0,0,0,-69.62849,-112.2846,-54.19901,-125.3798,-110.0997,-86.82777,0.001067912,-0.1257102,0.09433498,0,0.3,0,0,0,0
638224245005684544,-31.38187,-0.9818845,0.1634309,-30.02431,-62.86895,-74.85035,-56.96799,-0.4675641,6.980833,-72.28677,-8.594284,-36.83611,0,0,0,-69.62849,-112.2846,-54.19901,-125.3798,-110.0997,-86.82777,0.001067912,-0.1257102,0.09433498,0,0.3,0,0,0,0
638224245006024430,-31.38187,-0.9818845,0.1634309,-30.02431,-62.86895,-74.85035,-56.96799,-0.4675641,6.980833,-72.28677,-8.594284,-36.83611,0,0,0,-69.62849,-112.2846,-54.19901,-125.3798,-110.0997,-86.82777,0.001067912,-0.1257102,0.09433498,0,0.3,0,0,0,0
638224245006354455,-31.38187,-0.9818845,0.1634309,-30.02431,-62.86895,-74.85035,-56.96799,-0.4675641,6.980833,-72.28677,-8.594284,-36.90935,0,0,0,-69.62849,-112.2846,-54.19901,-125.3798,-110.0997,-86.82777,0.001067912,-0.1257102,0.09433498,0,0.3,0,0,0,0
638224245006684225,-31.38187,-0.9818845,0.1634309,-30.02431,-62.86895,-74.85035,-56.96799,-0.4675641,6.980833,-72.36002,-8.594284,-36.83611,0,0,0,-69.62849,-112.2846,-54.19901,-125.3798,-110.0997,-86.82777,0.001067912,-0.1257102,0.09433498,0,0.3,0,0,0,0
638224245007034106,-31.38187,-0.9818845,0.1634309,-29.95106,-62.86895,-74.85035,-56.96799,-0.4675641,6.980833,-72.28677,-8.594284,-36.83611,0,0,0,-69.62849,-112.2846,-54.19901,-125.3798,-110.0997,-86.82777,0.001067912,-0.1257102,0.09433498,0,0.3,0,0,0,0
638224245007374016,-31.38187,-0.9818845,0.1634309,-30.02431,-62.86895,-74.85035,-56.96799,-0.4675641,6.980833,-72.28677,-8.521038,-36.90935,0,0,0,-69.62849,-112.2846,-54.19901,-125.3798,-110.0997,-86.82777,0.001067912,-0.1257102,0.09433498,0,0.3,0,0,0,0
638224245007713904,-31.38187,-0.9818845,0.1634309,-30.02431,-62.86895,-74.85035,-56.96799,-0.4675641,6.980833,-72.28677,-8.594284,-36.90935,0,0,0,-69.62849,-112.2846,-54.19901,-125.3798,-110.0997,-86.82777,0.001067912,-0.1257102,0.09433498,0,0.3,0,0,0,0
638224245008053792,-31.38187,-0.9818845,0.1634309,-29.95106,-62.86895,-74.85035,-56.96799,-0.4675641,6.980833,-72.28677,-8.594284,-36.90935,0,0,0,-69.62849,-112.2846,-54.19901,-125.3798,-110.0997,-86.82777,0.001067912,-0.1257102,0.09433498,0,0.3,0,0,0,0
638224245008393682,-31.38187,-0.9818845,0.1634309,-30.02431,-62.9422,-74.85035,-56.96799,-0.4675641,6.980833,-72.28677,-8.594284,-36.83611,0,0,0,-69.62849,-112.2846,-54.19901,-125.3798,-110.0997,-86.82777,0.001067912,-0.1257102,0.09433498,0,0.3,0,0,0,0
638224245008733563,-31.38187,-0.9818845,0.1634309,-30.02431,-62.86895,-74.85035,-56.96799,-0.4675641,6.980833,-72.36002,-8.594284,-36.90935,0,0,0,-69.62849,-112.2846,-54.19901,-125.3798,-110.0997,-86.82777,0.001067912,-0.1257102,0.09433498,0,0.3,0,0,0,0
638224245009063466,-31.38187,-0.9818845,0.1634309,-30.02431,-62.86895,-74.85035,-56.96799,-0.4675641,6.980833,-72.28677,-8.594284,-36.83611,0,0,0,-69.62849,-112.2846,-54.19901,-125.3798,-110.0997,-86.82777,0.001067912,-0.1257102,0.09433498,0,0.3,0,0,0,0
638224245009403357,-31.38187,-0.9818845,0.1634309,-30.02431,-62.86895,-74.85035,-56.96799,-0.4675641,6.980833,-72.36002,-8.594284,-36.90935,0,0,0,-69.62849,-112.2846,-54.19901,-125.3798,-110.0997,-86.82777,0.001067912,-0.1257102,0.09433498,0,0.3,0,0,0,0
638224245009753248,-31.38187,-0.9818845,0.1634309,-30.02431,-62.86895,-74.85035,-56.96799,-0.4675641,6.980833,-72.28677,-8.521038,-36.83611,0,0,0,-69.62849,-112.2846,-54.19901,-125.3798,-110.0997,-86.82777,0.001067912,-0.1257102,0.09433498,0,0.3,0,0,0,0
638224245010083143,-31.38187,-0.9818845,0.1634309,-30.02431,-62.86895,-74.9236,-56.96799,-0.4675641,6.980833,-72.28677,-8.521038,-36.83611,0,0,0,-69.62849,-112.2846,-54.19901,-125.3798,-110.0997,-86.82777,0.001067912,-0.1257102,0.09433498,0,0.3,0,0,0,0
638224245010423032,-31.38187,-0.9818845,0.1634309,-30.02431,-62.86895,-74.85035,-56.96799,-0.4675641,6.980833,-72.28677,-8.594284,-36.83611,0,0,0,-69.62849,-112.2846,-54.19901,-125.3798,-110.0997,-86.82777,0.001067912,-0.1257102,0.09433498,0,0.3,0,0,0,0
638224245010772925,-31.38187,-0.9818845,0.1634309,-30.02431,-62.86895,-74.85035,-56.96799,-0.4675641,6.980833,-72.28677,-8.594284,-36.90935,0,0,0,-69.62849,-112.2846,-54.19901,-125.3798,-110.0997,-86.82777,0.001067912,-0.1257102,0.09433498,0,0.3,0,0,0,0
638224245011112812,-31.38187,-0.9818845,0.1634309,-29.95106,-62.86895,-74.85035,-56.96799,-0.4675641,6.980833,-72.28677,-8.594284,-36.90935,0,0,0,-69.62849,-112.2846,-54.19901,-125.3798,-110.0997,-86.82777,0.001067912,-0.1257102,0.09433498,0,0.3,0,0,0,0
638224245011452705,-31.38187,-0.9818845,0.1634309,-29.95106,-62.9422,-74.85035,-56.96799,-0.4675641,6.980833,-72.28677,-8.594284,-36.83611,0,0,0,-69.62849,-112.2846,-54.19901,-125.3798,-110.0997,-86.82777,0.001067912,-0.1257102,0.09433498,0,0.3,0,0,0,0
638224245011792599,-31.38187,-0.9818845,0.1634309,-29.95106,-62.86895,-74.85035,-56.96799,-0.4675641,6.980833,-72.36002,-8.521038,-36.90935,0,0,0,-69.62849,-112.2846,-54.19901,-125.3798,-110.0997,-86.82777,0.001067912,-0.1257102,0.09433498,0,0.3,0,0,0,0
638224245012132488,-31.38187,-0.9818845,0.1634309,-30.02431,-62.86895,-74.85035,-56.96799,-0.4675641,6.980833,-72.28677,-8.594284,-36.90935,0,0,0,-69.62849,-112.2846,-54.19901,-125.3798,-110.0997,-86.82777,0.001067912,-0.1257102,0.09433498,0,0.3,0,0,0,0
638224245012482375,-31.38187,-0.9818845,0.1634309,-29.95106,-62.86895,-74.85035,-56.96799,-0.4675641,6.980833,-72.28677,-8.594284,-36.90935,0,0,0,-69.62849,-112.2846,-54.19901,-125.3798,-110.0997,-86.82777,0.001067912,-0.1257102,0.09433498,0,0.3,0,0,0,0
638224245012822269,-31.38187,-0.9818845,0.1634309,-30.02431,-62.86895,-74.85035,-56.96799,-0.4675641,6.980833,-72.28677,-8.521038,-36.90935,0,0,0,-69.62849,-112.2846,-54.19901,-125.3798,-110.0997,-86.82777,0.001067912,-0.1257102,0.09433498,0,0.3,0,0,0,0
638224245013167346,-31.38187,-0.9818845,0.1634309,-29.95106,-62.86895,-74.85035,-56.96799,-0.4675641,6.980833,-72.28677,-8.594284,-36.90935,0,0,0,-69.62849,-112.2846,-54.19901,-125.3798,-110.0997,-86.82777,0.001067912,-0.1257102,0.09433498,0,0.3,0,0,0,0
638224245013507239,-31.38187,-0.9818845,0.1634309,-30.02431,-62.86895,-74.85035,-56.96799,-0.4675641,6.980833,-72.28677,-8.521038,-36.83611,0,0,0,-69.62849,-112.2846,-54.19901,-125.3798,-110.0997,-86.82777,0.001067912,-0.1257102,0.09433498,0,0.3,0,0,0,0
638224245013857126,-31.38187,-0.9818845,0.1634309,-29.95106,-62.9422,-74.85035,-56.96799,-0.4675641,6.980833,-72.28677,-8.521038,-36.90935,0,0,0,-69.62849,-112.2846,-54.19901,-125.3798,-110.0997,-86.82777,0.001067912,-0.1257102,0.09433498,0,0.3,0,0,0,0
638224245014197030,-31.38187,-0.9818845,0.1634309,-29.95106,-62.86895,-74.85035,-56.96799,-0.4675641,6.980833,-72.28677,-8.594284,-36.90935,0,0,0,-69.62849,-112.2846,-54.19901,-125.3798,-110.0997,-86.82777,0.001067912,-0.1257102,0.09433498,0,0.3,0,0,0,0
638224245014526913,-31.38187,-0.9818845,0.1634309,-29.95106,-62.9422,-74.85035,-56.96799,-0.4675641,6.980833,-72.28677,-8.594284,-36.90935,0,0,0,-69.62849,-112.2846,-54.19901,-125.3798,-110.0997,-86.82777,0.001067912,-0.1257102,0.09433498,0,0.3,0,0,0,0
638224245014866825,-31.38187,-0.9818845,0.1634309,-29.95106,-62.86895,-74.85035,-56.96799,-0.4675641,6.980833,-72.36002,-8.594284,-36.90935,0,0,0,-69.62849,-112.2846,-54.19901,-125.3798,-110.0997,-86.82777,0.001067912,-0.1257102,0.09433498,0,0.3,0,0,0,0
638224245015206696,-31.38187,-0.9818845,0.1634309,-30.02431,-62.9422,-74.85035,-56.96799,-0.4675641,6.980833,-72.28677,-8.594284,-36.90935,0,0,0,-69.62849,-112.2846,-54.19901,-125.3798,-110.0997,-86.82777,0.001067912,-0.1257102,0.09433498,0,0.3,0,0,0,0
638224245015546588,-31.38187,-0.9818845,0.1634309,-30.02431,-62.86895,-74.85035,-56.96799,-0.4675641,6.980833,-72.36002,-8.594284,-36.83611,0,0,0,-69.62849,-112.2846,-54.19901,-125.3798,-110.0997,-86.82777,0.001067912,-0.1257102,0.09433498,0,0.3,0,0,1.18039E-07,0
638224245015886479,-31.38187,-0.9818845,0.1634309,-30.02431,-62.86895,-74.85035,-56.96799,-0.4675641,6.980833,-72.36002,-8.521038,-36.83611,0,0,0,-69.62849,-112.2846,-54.19901,-125.3798,-110.0997,-86.82777,0.001067912,-0.1257102,0.09433498,0,0.3,0,0,1.18039E-07,0
638224245016216374,-31.38187,-0.9818845,0.1634309,-29.95106,-62.86895,-74.85035,-56.96799,-0.4675641,6.980833,-72.28677,-8.521038,-36.90935,0,0,0,-69.62849,-112.2846,-54.19901,-125.3798,-110.0997,-86.82777,0.001067912,-0.1257102,0.09433498,0,0.3,0,0,2.360781E-07,0
638224245016556270,-31.38187,-0.9818845,0.1634309,-29.95106,-62.86895,-74.85035,-56.96799,-0.4675641,6.980833,-72.36002,-8.594284,-36.90935,0,0,0,-69.62849,-112.2846,-54.19901,-125.3798,-110.0997,-86.82777,0.001067912,-0.1257102,0.09433498,0,0.3,0,0,3.541171E-07,0
638224245016896158,-31.38187,-0.9818845,0.1634309,-29.95106,-62.86895,-74.85035,-56.96799,-0.4675641,6.980833,-72.28677,-8.594284,-36.90935,0,0,0,-69.62849,-112.2846,-54.19901,-125.3798,-110.0997,-86.82777,0.001067912,-0.1257102,0.09433498,0,0.3,0,0,3.541171E-07,0
638224245017236049,-31.38187,-0.9818845,0.1634309,-29.95106,-62.86895,-74.85035,-56.96799,-0.4675641,6.980833,-72.28677,-8.594284,-36.90935,0,0,0,-69.62849,-112.2846,-54.19901,-125.3798,-110.0997,-86.82777,0.001067912,-0.1257102,0.09433498,0,0.3,0,0,4.721562E-07,0
638224245017565945,-31.38187,-0.9818845,0.1634309,-30.02431,-62.86895,-74.85035,-56.96799,-0.4675641,6.980833,-72.36002,-8.594284,-36.83611,0,0,0,-69.62849,-112.2846,-54.19901,-125.3798,-110.0997,-86.82777,0.001067912,-0.1257102,0.09433498,0,0.3,0,0,4.721562E-07,0
638224245017915833,-31.38187,-0.9818845,0.1634309,-29.95106,-62.9422,-74.85035,-56.96799,-0.4675641,6.980833,-72.36002,-8.594284,-36.83611,0,0,0,-69.62849,-112.2846,-54.19901,-125.3798,-110.0997,-86.82777,0.001067912,-0.1257102,0.09433498,0,0.3,0,0,5.901952E-07,0
638224245018255725,-31.38187,-0.9818845,0.1634309,-29.95106,-62.9422,-74.85035,-56.96799,-0.4675641,6.980833,-72.28677,-8.521038,-36.90935,0,0,0,-69.62849,-112.2846,-54.19901,-125.3798,-110.0997,-86.82777,0.001067912,-0.1257102,0.09433498,0,0.3,0,0,5.901952E-07,0
638224245018595616,-31.38187,-0.9818845,0.1634309,-29.95106,-62.86895,-74.85035,-56.96799,-0.4675641,6.980833,-72.28677,-8.594284,-36.83611,0,0,0,-69.62849,-112.2846,-54.19901,-125.3798,-110.0997,-86.82777,0.001067912,-0.1257102,0.09433498,0,0.3,0,0,7.082343E-07,0
638224245018925510,-31.38187,-0.9818845,0.1634309,-30.02431,-62.86895,-74.85035,-56.96799,-0.4675641,6.980833,-72.28677,-8.521038,-36.83611,0,0,0,-69.62849,-112.2846,-54.19901,-125.3798,-110.0997,-86.82777,0.001067912,-0.1257102,0.09433498,0,0.3,0,0,7.082343E-07,0
638224245019265402,-31.38187,-0.9818845,0.1167363,-30.02431,-62.86895,-74.85035,-56.96799,-0.4675641,6.980833,-72.36002,-8.594284,-36.90935,0,0,0,-69.57189,-112.2848,-54.29179,-125.3798,-110.0997,-86.82777,0.001067912,-0.1257102,0.09433498,0,0.3,0,0,3.541171E-07,0
638224245019605297,-31.35831,-0.9818845,-0.02334727,-30.39053,-62.86895,-74.85035,-56.96799,-0.4675641,6.980833,-72.28677,-8.521038,-36.90935,0,0,0,-69.35532,-112.2851,-54.5416,-125.3798,-110.0997,-86.82777,0.001067912,-0.1257102,0.09433498,0,0.3,0,0,0,0
638224245019945195,-31.35831,-0.9818845,-0.09338906,-35.07822,-61.84352,-74.7771,-56.96799,-0.4675641,6.980833,-72.28677,-8.594284,-36.83611,0,0,0,-69.27049,-112.2849,-54.6808,-125.3798,-110.0997,-86.82777,0.001067912,-0.1257102,0.09433498,0,0.3,0,0,0,0
638224245020275080,-31.35831,-0.9585064,-0.09338906,-42.40274,-60.08564,-72.87273,-56.96799,-0.4675641,6.980833,-72.28677,-8.521038,-36.90935,0,0,0,-69.27097,-112.2305,-54.68002,-125.3798,-110.0997,-86.82777,0.001067912,-0.1257102,0.09433498,0,0.3,0,0,0,0
638224245020614974,-31.35831,-0.9585064,-0.09338906,-45.69878,-58.98696,-69.79643,-56.96799,-0.4675641,6.980833,-72.28677,-8.594284,-36.90935,0,0,0,-69.27097,-112.2305,-54.68002,-125.3798,-110.0997,-86.82777,0.001067912,-0.1257102,0.09433498,0,0.3,0,0,0,0
638224245020954868,-31.35831,-0.9585064,-0.09338906,-52.14435,-56.7896,-60.93377,-56.96799,-0.4675641,6.980833,-72.28677,-8.594284,-36.90935,0,0,0,-69.27097,-112.2305,-54.68002,-125.3798,-110.0997,-86.82777,0.001067912,-0.1257102,0.09433498,0,0.3,0,0,0,0
638224245021294891,-31.35831,-0.9818845,-0.09338906,-57.49125,-54.00629,-49.72726,-56.96799,-0.4675641,6.980833,-72.28677,-8.594284,-36.83611,0,0,0,-69.27049,-112.2849,-54.6808,-125.3798,-110.0997,-86.82777,0.001067912,-0.1257102,0.09433498,0,0.3,0,0,0,0
638224245021644638,-31.35831,-0.9818845,-0.09338906,-60.71403,-51.00323,-37.7883,-56.96799,-0.4675641,6.980833,-72.28677,-8.594284,-36.83611,0,0,0,-69.27049,-112.2849,-54.6808,-125.3798,-110.0997,-86.82777,0.001067912,-0.1257102,0.09433498,0,0.3,0,0,0,0
638224245021984536,-31.38187,-0.9585064,-0.09338906,-61.59297,-49.39184,-31.41597,-56.96799,-0.4675641,6.980833,-72.28677,-8.594284,-36.83611,0,0,0,-69.31771,-112.2305,-54.70851,-125.3798,-110.0997,-86.82777,0.001067912,-0.1257102,0.09433498,0,0.3,0,0,0,0
638224245022324613,-31.57035,-0.9585064,-0.09338906,-62.32543,-45.80283,-18.8178,-56.96799,-0.4675641,6.980833,-72.28677,-8.521038,-36.83611,0,0,0,-69.69117,-112.2305,-54.93715,-125.3798,-110.0997,-86.82777,0.001067912,-0.1257102,0.09433498,0,0.3,0,0,0,0
638224245022674316,-32.04155,-0.9351282,-0.09338906,-62.61841,-41.48137,-6.732344,-56.96799,-0.4675641,6.980833,-72.36002,-8.594284,-36.90935,0,0,0,-70.62198,-112.1761,-55.51336,-125.3798,-110.0997,-86.82777,0.001067912,-0.1257102,0.09433498,0,0.3,0,0,0.0003131576,0
638224245023014229,-32.3007,-0.9351282,-0.09338906,-62.7649,-39.21077,-1.385447,-56.96799,-0.4675641,6.980833,-72.28677,-8.521038,-36.90935,0,0,0,-71.13164,-112.1761,-55.83394,-125.3798,-110.0997,-86.82777,0.001067912,-0.1257102,0.09433498,0,0.3,0,0,0.0006171081,0
638224245023354102,-32.72478,-0.9351282,-0.09338906,-62.98463,-34.37658,9.015368,-56.96799,-0.4675641,6.980833,-72.28677,-8.594284,-36.90935,0,0,0,-71.96248,-112.1761,-56.36351,-125.3798,-110.0997,-86.82777,0.001067912,-0.1257102,0.09433498,0,0.3,0,0,0.001417649,0
638224245023693990,-32.98395,-0.9351282,-0.1167363,-63.64384,-29.39591,17.21883,-56.96799,-0.4675641,6.980833,-72.28677,-8.594284,-36.83611,0,0,0,-72.4387,-112.176,-56.73573,-125.3798,-110.0997,-86.82777,0.001067912,-0.1257102,0.09433498,0,0.3,0,0,0.002386395,0
638224245024033895,-33.03107,-0.9585064,-0.1167363,-64.2298,-27.12531,19.85565,-56.96799,-0.4675641,6.980833,-72.28677,-8.594284,-36.90935,0,0,0,-72.52998,-112.2304,-56.7961,-125.3798,-110.0997,-86.82777,0.001067912,-0.1257102,0.09433498,0,0.3,0,0,0.002891484,0
638224245024363905,-33.07819,-0.9585064,-0.1167363,-64.96225,-22.7306,22.05301,-56.96799,-0.4675641,6.980833,-72.28677,-8.594284,-36.90935,0,0,0,-72.62169,-112.2304,-56.85578,-125.3798,-110.0997,-86.82777,0.001067912,-0.1257102,0.09433498,0,0.3,0,0,0.003889977,0
638224245024703667,-33.38446,-0.9585064,-0.1167363,-64.88901,-18.55563,23.07844,-56.96799,-0.4675641,6.980833,-72.28677,-8.594284,-36.83611,0,0,0,-73.21665,-112.2304,-57.24558,-125.3798,-110.0997,-86.82777,0.001067912,-0.1257102,0.09433498,0,0.3,0,0,0.005006744,0
638224245025053558,-33.64362,-0.9585064,-0.1167363,-64.96225,-14.23416,24.39685,-56.96799,-0.4675641,6.980833,-72.36002,-8.594284,-36.83611,0,0,0,-73.71844,-112.2304,-57.57789,-125.3798,-110.0997,-86.82777,0.001067912,-0.1257102,0.09433498,0,0.3,0,0,0.006264568,0
638224245025393584,-33.73786,-0.9585064,-0.1167363,-64.96225,-12.1833,25.05606,-56.96799,-0.4675641,6.980833,-72.36002,-8.594284,-36.83611,0,0,0,-73.90054,-112.2304,-57.69929,-125.3798,-110.0997,-86.82777,0.001067912,-0.1257102,0.09433498,0,0.3,0,0,0.006920157,0
638224245025733331,-33.78498,-0.9585064,-0.1167363,-64.74252,-8.081567,26.52096,-56.96799,-0.4675641,6.980833,-72.36002,-8.521038,-36.90935,0,0,0,-73.99152,-112.2304,-57.7601,-125.3798,-110.0997,-86.82777,0.001067912,-0.1257102,0.09433498,0,0.3,0,0,0.008226731,0
638224245026073244,-33.80854,-0.9585064,-0.1634309,-64.30305,-4.199574,27.76613,-56.96799,-0.4675641,6.980833,-72.28677,-8.521038,-36.83611,0,0,0,-73.97652,-112.2302,-57.88084,-125.3798,-110.0997,-86.82777,0.001067912,-0.1257102,0.09433498,0,0.3,0,0,0.00950297,0
638224245026413122,-33.80854,-0.9585064,-0.1867781,-64.08331,-2.368444,28.35209,-56.96799,-0.4675641,6.980833,-72.28677,-8.521038,-36.90935,0,0,0,-73.94628,-112.23,-57.92599,-125.3798,-110.0997,-86.82777,0.001067912,-0.1257102,0.09433498,0,0.3,0,0,0.0101248,0
638224245026763008,-33.78498,-0.9585064,-0.1867781,-63.42411,1.51355,29.0113,-56.96799,-0.4675641,6.980833,-72.28677,-8.521038,-36.90935,0,0,0,-73.90087,-112.23,-57.89559,-125.3798,-110.0997,-86.82777,0.001067912,-0.1257102,0.09433498,0,0.3,0,0,0.01133228,0
638224245027093014,-33.78498,-0.9585064,-0.1867781,-62.39867,5.468789,29.45077,-56.96799,-0.4675641,6.980833,-72.28677,-8.594284,-36.90935,0,0,0,-73.90087,-112.23,-57.89559,-125.3798,-110.0997,-86.82777,0.001067912,-0.1257102,0.09433498,0,0.3,0,0,0.0124955,0
638224245027442805,-33.78498,-0.9585064,-0.2101254,-60.78728,9.204292,29.67051,-56.96799,-0.4675641,6.980833,-72.28677,-8.594284,-36.83611,0,0,0,-73.87065,-112.2298,-57.94075,-125.3798,-110.0997,-86.82777,0.001067912,-0.1257102,0.09433498,0,0.3,0,0,0.0136223,0
638224245027772829,-33.78498,-0.9585064,-0.3035145,-59.6886,10.74244,29.74375,-56.96799,-0.4675641,6.980833,-72.36002,-8.594284,-36.90935,0,0,0,-73.74979,-112.2289,-58.1214,-125.3798,-110.0997,-86.82777,0.001067912,-0.1257102,0.09433498,0,0.3,0,0,0.01417053,0
638224245028122577,-33.78498,-0.9585064,-0.9805852,-57.34475,13.67225,29.74375,-56.96799,-0.4675641,6.980833,-72.28677,-8.594284,-36.83611,0,0,0,-72.87357,-112.2112,-59.43102,-125.3798,-110.0997,-86.82777,0.001067912,-0.1257102,0.09433498,0,0.3,0,0,0.01521883,0
638224245028452474,-33.78498,-0.9585064,-1.751045,-54.78117,16.45556,29.817,-56.96799,-0.4675641,6.980833,-72.28677,-8.594284,-36.83611,0,0,0,-71.87672,-112.1684,-60.92093,-125.3798,-110.0997,-86.82777,0.001067912,-0.1257102,0.09433498,0,0.3,0,0,0.01618587,0
638224245028802361,-33.78498,-0.9585064,-1.891129,-53.38951,17.70073,29.817,-56.96799,-0.4675641,6.980833,-72.28677,-8.594284,-36.90935,0,0,0,-71.69552,-112.1581,-61.19177,-125.3798,-110.0997,-86.82777,0.001067912,-0.1257102,0.09433498,0,0.3,0,0,0.01664799,0
638224245029139058,-33.78498,-0.9585064,-1.914476,-50.97242,19.60511,29.817,-56.96799,-0.4675641,6.980833,-72.28677,-8.594284,-36.90935,0,0,0,-71.66532,-112.1563,-61.23691,-125.3798,-110.0997,-86.82777,0.001067912,-0.1257102,0.09433498,0,0.3,0,0,0.01755034,0
638224245029488956,-33.78498,-0.9585064,-1.96117,-49.1413,20.85028,29.817,-56.96799,-0.4675641,6.980833,-72.28677,-8.521038,-36.90935,0,0,0,-71.60492,-112.1526,-61.32718,-125.3798,-110.0997,-86.82777,0.001067912,-0.1257102,0.09433498,0,0.3,0,0,0.0184243,0
638224245029828837,-33.78498,-0.9585064,-1.984518,-48.55533,21.28975,29.817,-56.96799,-0.4675641,6.980833,-72.28677,-8.521038,-36.90935,0,0,0,-71.57472,-112.1507,-61.37231,-125.3798,-110.0997,-86.82777,0.001067912,-0.1257102,0.09433498,0,0.3,0,0,0.0188506,0
638224245030168730,-33.78498,-0.9818845,-2.031212,-48.04262,21.36299,29.817,-56.96799,-0.4675641,6.980833,-72.36002,-8.594284,-36.83611,0,0,0,-71.51382,-112.2013,-61.46335,-125.3798,-110.0997,-86.82777,0.001067912,-0.1257102,0.09433498,0,0.3,0,0,0.0196826,0
638224245030498623,-33.78498,-0.9818845,-2.031212,-48.04262,21.14326,29.89024,-56.96799,-0.4675641,6.980833,-72.28677,-8.594284,-36.90935,0,0,0,-71.51382,-112.2013,-61.46335,-125.3798,-110.0997,-86.82777,0.001067912,-0.1257102,0.09433498,0,0.3,0,0,0.02049058,0
638224245030848512,-33.78498,-0.9818845,-2.147949,-48.48209,20.77703,29.0113,-56.96799,-0.4675641,6.980833,-72.28677,-8.594284,-36.83611,0,0,0,-71.36284,-112.1914,-61.68901,-125.3798,-110.0997,-86.82777,0.001067912,-0.1257102,0.09433498,0,0.3,0,0,0.02127223,0
638224245031178406,-33.78498,-0.9818845,-2.404768,-48.84832,20.70378,27.98586,-56.96799,-0.4675641,6.980833,-72.28677,-8.521038,-36.83611,0,0,0,-71.03072,-112.1677,-62.1854,-125.3798,-110.0997,-86.82777,0.001067912,-0.1257102,0.09433498,0,0.3,0,0,0.02164317,0
638224245031528286,-33.78498,-0.9818845,-2.614894,-49.8005,20.55729,25.56878,-56.96799,-0.4675641,6.980833,-72.36002,-8.594284,-36.90935,0,0,0,-70.75903,-112.1463,-62.59147,-125.3798,-110.0997,-86.82777,0.001067912,-0.1257102,0.09433498,0,0.3,0,0,0.02235465,0
638224245031858193,-33.45514,-0.9818845,-2.404768,-50.82594,20.26431,22.56572,-56.96799,-0.4675641,6.980833,-72.28677,-8.521038,-36.83611,0,0,0,-70.41838,-112.1677,-61.77826,-125.3798,-110.0997,-86.82777,0.001067912,-0.1257102,0.09433498,0,0.3,0,0,0.02296703,0
638224245032198080,-32.96038,-0.9818845,-2.171296,-51.4119,20.11782,21.3938,-56.96799,-0.4675641,6.980833,-72.28677,-8.594284,-36.83611,0,0,0,-69.79089,-112.1894,-60.7186,-125.3798,-110.0997,-86.82777,0.001067912,-0.1257102,0.09433498,0,0.3,0,0,0.0231389,0
638224245032537983,-31.24051,-0.9351282,-1.96117,-52.43733,19.97133,21.17406,-56.96799,-0.4675641,6.980833,-72.28677,-8.594284,-36.90935,0,0,0,-66.78352,-112.0982,-58.25304,-125.3798,-110.0997,-86.82777,0.001067912,-0.1257102,0.09433498,0,0.3,0,0,0.0229364,0
638224245032877861,-28.81383,-0.8416153,-1.96117,-52.43733,19.97133,24.17712,-56.96799,-0.4675641,6.980833,-72.28677,-8.594284,-36.90935,0,0,0,-62.06367,-111.8806,-55.52114,-125.3798,-110.0997,-86.82777,0.001067912,-0.1257102,0.09433498,0,0.3,0,0,0.02172272,0
638224245033217755,-27.47091,-0.7247244,-1.937823,-51.99786,20.04458,26.15474,-56.96799,-0.4675641,6.980833,-72.28677,-8.521038,-36.90935,0,0,0,-59.42911,-111.6104,-54.04611,-125.3798,-110.0997,-86.82777,0.001067912,-0.1257102,0.09433498,0,0.3,0,0,0.02070104,0
638224245033557645,-24.57304,-0.3740513,-1.867781,-49.87375,20.26431,29.74375,-56.96799,-0.4675641,6.980833,-72.28677,-8.594284,-36.90935,0,0,0,-53.64538,-110.7997,-51.03251,-125.3798,-110.0997,-86.82777,0.001067912,-0.1257102,0.09433498,0,0.3,0,0,0.0177549,0
638224245033897546,-21.72228,-0.07013461,-1.867781,-46.72421,20.55729,32.82005,-56.96799,-0.4675641,6.980833,-72.28677,-8.594284,-36.83611,0,0,0,-47.74528,-110.0924,-48.50711,-125.3798,-110.0997,-86.82777,0.001067912,-0.1257102,0.09433498,0,0.3,0,0,0.01364767,0
638224245034247433,-18.94221,0.4675641,-1.867781,-43.13519,21.07001,35.60336,-56.96799,-0.4675641,6.980833,-72.28677,-8.521038,-36.83611,0,0,0,-41.875,-108.841,-46.3365,-125.3798,-110.0997,-86.82777,0.001067912,-0.1257102,0.09433498,0,0.3,0,0,0.008458796,0
638224245034577322,-17.62285,0.8416153,-1.867781,-41.37731,21.28975,36.92178,-56.96799,-0.4675641,6.980833,-72.28677,-8.521038,-36.83611,0,0,0,-39.05152,-107.9705,-45.41415,-125.3798,-110.0997,-86.82777,0.001067912,-0.1257102,0.09433498,0,0.3,0,0,0.005487871,0
638224245034917213,-15.10193,1.613096,-2.124601,-37.93478,21.65597,39.48536,-56.96799,-0.4675641,6.980833,-72.28677,-8.594284,-36.83611,0,0,0,-33.44085,-106.1545,-44.42934,-125.3798,-110.0997,-86.82777,0.001067912,-0.1257102,0.09433498,0,0.3,0,0,0,0
638224245035257113,-12.15694,2.782006,-2.241338,-34.05279,21.87571,43.88007,-56.96799,-0.4675641,6.980833,-72.36002,-8.594284,-36.90935,0,0,0,-26.95084,-103.4257,-43.24229,-125.3798,-110.0997,-86.82777,0.001067912,-0.1257102,0.09433498,0,0.3,0,0,0,0
638224245035596998,-10.69622,3.530109,-2.241338,-32.07517,21.87571,46.00418,-56.96799,-0.4675641,6.980833,-72.28677,-8.521038,-36.90935,0,0,0,-23.7351,-101.6872,-42.69011,-125.3798,-110.0997,-86.82777,0.001067912,-0.1257102,0.09433498,0,0.3,0,0,0,0
638224245035926891,-7.751227,5.283474,-2.241338,-28.11993,21.50948,49.30021,-56.96799,-0.4675641,6.980833,-72.36002,-8.594284,-36.90935,0,0,0,-17.20541,-97.61866,-41.9473,-125.3798,-110.0997,-86.82777,0.001067912,-0.1257102,0.09433498,0,0.3,0,0,0,0
638224245036276779,-4.971152,7.200486,-2.241338,-24.31118,20.99677,51.05809,-56.96799,-0.4675641,6.980833,-72.36002,-8.521038,-36.83611,0,0,0,-11.01229,-93.18367,-41.74483,-125.3798,-110.0997,-86.82777,0.001067912,-0.1257102,0.09433498,0,0.3,0,0,0,0
638224245036616671,-3.439754,8.275885,-2.21799,-22.33356,20.63054,51.57081,-56.96799,-0.4675641,6.980833,-72.28677,-8.594284,-36.90935,0,0,0,-7.607901,-90.70574,-41.77794,-125.3798,-110.0997,-86.82777,0.001067912,-0.1257102,0.09433498,0,0.3,0,0,0,0
638224245036946556,-0.4005193,10.45006,-2.171296,-18.59806,19.97133,52.08353,-56.96799,-0.4675641,6.980833,-72.28677,-8.594284,-36.83611,0,0,0,-0.8813815,-85.71745,-42.26716,-125.3798,-110.0997,-86.82777,0.001067912,-0.1257102,0.09433498,0,0.3,0,0,0,0
638224245037286461,2.426676,12.88139,-1.984518,-15.15554,18.87265,51.86379,-56.96799,-0.4675641,6.980833,-72.28677,-8.594284,-36.90935,0,0,0,5.308533,-80.19184,-43.0862,-125.3798,-110.0997,-86.82777,0.001067912,-0.1257102,0.09433498,0,0.3,0,0,0,0
638224245037626348,3.722474,14.19057,-1.79774,-13.4709,18.21345,51.57081,-56.96799,-0.4675641,6.980833,-72.28677,-8.521038,-36.83611,0,0,0,8.121799,-77.2439,-43.51637,-125.3798,-110.0997,-86.82777,0.001067912,-0.1257102,0.09433498,0,0.3,0,0,0,0
638224245037966235,6.19627,17.06609,-1.167363,-10.24811,16.60205,50.9116,-56.96799,-0.4675641,6.980833,-72.28677,-8.594284,-36.83611,0,0,0,13.46608,-70.83749,-44.3174,-125.3798,-110.0997,-86.82777,0.001067912,-0.1257102,0.09433498,0,0.3,0,0,0,0
638224245038316128,8.552266,20.22215,-0.1167363,-7.318305,14.69768,50.17915,-56.96799,-0.4675641,6.980833,-72.36002,-8.594284,-36.83611,0,0,0,18.56791,-63.90584,-44.8798,-125.3798,-110.0997,-86.82777,0.001067912,-0.1257102,0.09433498,0,0.3,0,0,0,0
638224245038646023,10.38994,23.26131,1.050627,-4.681479,12.50033,49.37346,-56.96799,-0.4675641,6.980833,-72.28677,-8.521038,-36.90935,0,0,0,22.53529,-57.3143,-45.44337,-125.3798,-110.0997,-86.82777,0.001067912,-0.1257102,0.09433498,0,0.3,0,0,0,0
638224245038985915,11.26166,24.89779,1.821087,-3.436311,11.25516,49.00723,-56.96799,-0.4675641,6.980833,-72.28677,-8.521038,-36.83611,0,0,0,24.44916,-53.7922,-45.56638,-125.3798,-110.0997,-86.82777,0.001067912,-0.1257102,0.09433498,0,0.3,0,0,0,0
638224245039325804,12.91086,28.1006,3.548784,-1.165711,8.471841,48.56776,-56.96799,-0.4675641,6.980833,-72.28677,-8.521038,-36.83611,0,0,0,28.12712,-46.93363,-45.64741,-125.3798,-110.0997,-86.82777,0.001067912,-0.1257102,0.09433498,0,0.3,0,0,0,0
638224245039665693,14.46582,30.83585,5.346524,0.8851534,5.76177,48.12829,-56.96799,-0.4675641,6.980833,-72.28677,-8.594284,-36.90935,0,0,0,31.70616,-41.06727,-45.44894,-125.3798,-110.0997,-86.82777,0.001067912,-0.1257102,0.09433498,0,0.3,0,0,0,0
638224245039995583,15.31397,32.30868,6.443846,1.983831,4.223621,47.90855,-56.96799,-0.4675641,6.980833,-72.28677,-8.594284,-36.90935,0,0,0,33.71888,-37.88458,-45.21254,-125.3798,-110.0997,-86.82777,0.001067912,-0.1257102,0.09433498,0,0.3,0,0,0,0
638224245040335500,16.77469,34.69325,8.311626,3.888205,1.293814,47.61557,-56.96799,-0.4675641,6.980833,-72.28677,-8.594284,-36.83611,0,0,0,37.20704,-32.69884,-44.91734,-125.3798,-110.0997,-86.82777,0.001067912,-0.1257102,0.09433498,0,0.3,0,0,0,0
638224245040675375,18.18829,36.75054,10.08602,5.719335,-1.343012,47.39584,-56.96799,-0.4675641,6.980833,-72.28677,-8.594284,-36.83611,0,0,0,40.64059,-28.15162,-44.65574,-125.3798,-110.0997,-86.82777,0.001067912,-0.1257102,0.09433498,0,0.3,0,0,0,0
638224245041025264,18.84797,37.68567,10.92652,6.525032,-2.58818,47.1761,-56.96799,-0.4675641,6.980833,-72.36002,-8.594284,-36.83611,0,0,0,42.25812,-26.06178,-44.55742,-125.3798,-110.0997,-86.82777,0.001067912,-0.1257102,0.09433498,0,0.3,0,0,0,0
638224245041365156,20.23801,39.64943,12.7943,8.282915,-5.00527,46.59014,-56.96799,-0.4675641,6.980833,-72.36002,-8.594284,-36.90935,0,0,0,45.73248,-21.6,-44.30672,-125.3798,-110.0997,-86.82777,0.001067912,-0.1257102,0.09433498,0,0.3,0,0,0,0
638224245041705051,21.58092,41.56644,14.84886,10.0408,-7.642097,45.78444,-56.96799,-0.4675641,6.980833,-72.28677,-8.594284,-36.90935,0,0,0,49.26673,-17.07066,-43.7953,-125.3798,-110.0997,-86.82777,0.001067912,-0.1257102,0.09433498,0,0.3,0,0,0,0
638224245042044939,22.85316,43.50684,17.02016,12.01842,-9.912696,44.39278,-56.96799,-0.4675641,6.980833,-72.36002,-8.594284,-36.90935,0,0,0,52.72147,-12.35589,-43.25562,-125.3798,-110.0997,-86.82777,0.001067912,-0.1257102,0.09433498,0,0.3,0,0,0,0
638224245042374839,23.55996,44.67575,18.3276,13.26359,-11.45084,43.58709,-56.96799,-0.4675641,6.980833,-72.28677,-8.594284,-36.90935,0,0,0,54.66282,-9.478148,-42.99303,-125.3798,-110.0997,-86.82777,0.001067912,-0.1257102,0.09433498,0,0.3,0,0,0,0
638224245042714725,24.64372,46.35898,20.42886,15.24121,-13.57495,42.26867,-56.96799,-0.4675641,6.980833,-72.28677,-8.594284,-36.90935,0,0,0,57.7822,-5.110676,-42.39674,-125.3798,-110.0997,-86.82777,0.001067912,-0.1257102,0.09433498,0,0.3,0,0,0,0
638224245043054615,26.0102,48.13572,22.85697,17.43856,-16.28502,40.51079,-56.96799,-0.4675641,6.980833,-72.28677,-8.594284,-36.83611,0,0,0,61.74123,-0.2195606,-41.81888,-125.3798,-110.0997,-86.82777,0.001067912,-0.1257102,0.09433498,0,0.3,0,0,0,0
638224245043404505,26.69344,48.9072,24.04768,18.61049,-17.60344,39.48536,-56.96799,-0.4675641,6.980833,-72.28677,-8.594284,-36.83611,0,0,0,63.7834,2.072589,-41.49463,-125.3798,-110.0997,-86.82777,0.001067912,-0.1257102,0.09433498,0,0.3,0,0,0,0
638224245043734399,28.13059,50.30989,26.4758,21.10082,-19.94728,37.21476,-56.96799,-0.4675641,6.980833,-72.28677,-8.521038,-36.90935,0,0,0,68.18209,6.599518,-40.82022,-125.3798,-110.0997,-86.82777,0.001067912,-0.1257102,0.09433498,0,0.3,0,0,0,0
638224245044074296,29.56775,51.33854,28.48367,24.03063,-21.55868,34.79766,-56.96799,-0.4675641,6.980833,-72.28677,-8.521038,-36.83611,0,0,0,72.48904,10.26805,-40.57881,-125.3798,-110.0997,-86.82777,0.001067912,-0.1257102,0.09433498,0,0.3,0,0,0,0
638224245044414182,30.34523,51.73597,29.39421,25.71527,-22.21789,33.40601,-56.96799,-0.4675641,6.980833,-72.28677,-8.594284,-36.83611,0,0,0,74.78716,11.86881,-40.59874,-125.3798,-110.0997,-86.82777,0.001067912,-0.1257102,0.09433498,0,0.3,0,0,0,0
638224245044744077,31.99443,52.32042,31.19195,28.93805,-23.24332,30.54945,-56.96799,-0.4675641,6.980833,-72.36002,-8.594284,-36.90935,0,0,0,79.77879,14.81618,-40.64961,-125.3798,-110.0997,-86.82777,0.001067912,-0.1257102,0.09433498,0,0.3,0,0,0,0
638224245045093976,33.73786,52.5542,32.75621,32.38057,-23.82928,27.39991,-56.96799,-0.4675641,6.980833,-72.36002,-8.594284,-36.90935,0,0,0,85.10267,17.07569,-40.92644,-125.3798,-110.0997,-86.82777,0.001067912,-0.1257102,0.09433498,0,0.3,0,0,0,0
638224245045433853,34.58602,52.57758,33.45663,33.91872,-23.90252,25.86176,-56.96799,-0.4675641,6.980833,-72.28677,-8.521038,-36.90935,0,0,0,87.73013,17.99913,-41.11153,-125.3798,-110.0997,-86.82777,0.001067912,-0.1257102,0.09433498,0,0.3,0,0,0,0
638224245045763757,36.11742,52.57758,34.64734,36.70204,-23.90252,22.71221,-56.96799,-0.4675641,6.980833,-72.28677,-8.594284,-36.83611,0,0,0,92.45259,19.55086,-41.64679,-125.3798,-110.0997,-86.82777,0.001067912,-0.1257102,0.09433498,0,0.3,0,0,0,0
638224245046103642,37.74306,52.48407,35.67462,39.5586,-23.5363,19.1232,-56.96799,-0.4675641,6.980833,-72.36002,-8.594284,-36.90935,0,0,0,97.31201,20.79529,-42.63833,-125.3798,-110.0997,-86.82777,0.001067912,-0.1257102,0.09433498,0,0.3,0,0,0,0
638224245046453534,39.10954,52.13339,36.3517,41.46298,-23.17007,15.97366,-56.96799,-0.4675641,6.980833,-72.28677,-8.594284,-36.90935,0,0,0,101.4937,21.22282,-43.50453,-125.3798,-110.0997,-86.82777,0.001067912,-0.1257102,0.09433498,0,0.3,0,0,0,0
638224245046793424,39.79277,51.94637,36.7019,42.34192,-22.87709,14.36226,-56.96799,-0.4675641,6.980833,-72.28677,-8.594284,-36.83611,0,0,0,103.614,21.4402,-43.95671,-125.3798,-110.0997,-86.82777,0.001067912,-0.1257102,0.09433498,0,0.3,0,0,0,0
638224245047133318,41.13569,51.66583,37.33228,43.88007,-22.21789,11.13948,-56.96799,-0.4675641,6.980833,-72.36002,-8.521038,-36.83611,0,0,0,107.609,21.91977,-45.15044,-125.3798,-110.0997,-86.82777,0.001067912,-0.1257102,0.09433498,0,0.3,0,0,0,0
638224245047483226,42.45505,51.50218,37.89261,45.19848,-21.55868,8.06318,-56.96799,-0.4675641,6.980833,-72.28677,-8.521038,-36.83611,0,0,0,111.316,22.47903,-46.67844,-125.3798,-110.0997,-86.82777,0.001067912,-0.1257102,0.09433498,0,0.3,0,0,0,0
638224245047823101,43.04405,51.45543,38.21947,45.93093,-21.33894,6.744767,-56.96799,-0.4675641,6.980833,-72.28677,-8.521038,-36.83611,0,0,0,113.0278,22.8802,-47.32917,-125.3798,-110.0997,-86.82777,0.001067912,-0.1257102,0.09433498,0,0.3,0,0,0,0
638224245048162990,44.33985,51.2684,39.03663,47.54232,-20.82623,4.254431,-56.96799,-0.4675641,6.980833,-72.28677,-8.521038,-36.83611,0,0,0,117.0117,23.79565,-48.61036,-125.3798,-110.0997,-86.82777,0.001067912,-0.1257102,0.09433498,0,0.3,0,0,0,0
638224245048492873,45.63565,50.96449,39.92382,49.00723,-20.31351,1.983831,-56.96799,-0.4675641,6.980833,-72.36002,-8.594284,-36.90935,0,0,0,121.2226,24.66448,-49.78772,-125.3798,-110.0997,-86.82777,0.001067912,-0.1257102,0.09433498,0,0.3,0,0,0,0
638224245048842771,46.86076,50.59044,40.83437,50.61862,-19.50781,-0.2867693,-56.96799,-0.4675641,6.980833,-72.36002,-8.594284,-36.83611,0,0,0,125.3999,25.48688,-50.84166,-125.3798,-110.0997,-86.82777,0.001067912,-0.1257102,0.09433498,0,0.3,0,0,0,0
638224245049172666,47.47332,50.35665,41.27797,51.35107,-18.9951,-1.312202,-56.96799,-0.4675641,6.980833,-72.36002,-8.594284,-36.90935,0,0,0,127.5321,25.81869,-51.37912,-125.3798,-110.0997,-86.82777,0.001067912,-0.1257102,0.09433498,0,0.3,0,0,0,0
638224245049502560,48.76912,49.84233,42.02508,52.81598,-17.74993,-3.509557,-56.96799,-0.4675641,6.980833,-72.28677,-8.521038,-36.83611,0,0,0,131.8123,26.20646,-52.83146,-125.3798,-110.0997,-86.82777,0.001067912,-0.1257102,0.09433498,0,0.3,0,0,0,0
638224245049852449,49.99424,49.16436,42.37529,53.9879,-16.65125,-5.633667,-56.96799,-0.4675641,6.980833,-72.36002,-8.521038,-36.90935,0,0,0,135.6337,25.72928,-54.51657,-125.3798,-110.0997,-86.82777,0.001067912,-0.1257102,0.09433498,0,0.3,0,0,0,0
638224245050192340,50.65392,48.67342,42.49202,54.35413,-16.21178,-6.659099,-56.96799,-0.4675641,6.980833,-72.28677,-8.521038,-36.83611,0,0,0,137.7564,25.16176,-55.41253,-125.3798,-110.0997,-86.82777,0.001067912,-0.1257102,0.09433498,0,0.3,0,0,0,0
638224245050532232,51.87903,47.45775,42.74884,55.01333,-14.96661,-8.490229,-56.96799,-0.4675641,6.980833,-72.28677,-8.594284,-36.90935,0,0,0,142.1414,23.67574,-56.81285,-125.3798,-110.0997,-86.82777,0.001067912,-0.1257102,0.09433498,0,0.3,0,0,0,0
638224245050872124,53.00991,46.07844,42.84223,55.67254,-13.42846,-9.955132,-56.96799,-0.4675641,6.980833,-72.36002,-8.521038,-36.83611,0,0,0,146.3106,21.62462,-58.13671,-125.3798,-110.0997,-86.82777,0.001067912,-0.1257102,0.09433498,0,0.3,0,0,0,0
638224245051207686,53.55179,45.37709,42.84223,55.96552,-12.69601,-10.61434,-56.96799,-0.4675641,6.980833,-72.28677,-8.521038,-36.83611,0,0,0,148.2866,20.48516,-58.831,-125.3798,-110.0997,-86.82777,0.001067912,-0.1257102,0.09433498,0,0.3,0,0,0,0
638224245051567558,54.58843,43.90427,42.84223,56.55148,-11.23111,-11.56653,-56.96799,-0.4675641,6.980833,-72.36002,-8.594284,-36.83611,0,0,0,152.2067,18.04622,-60.13607,-125.3798,-110.0997,-86.82777,0.001067912,-0.1257102,0.09433498,0,0.3,0,0,0,0
638224245051907464,55.27167,42.12752,42.77219,57.0642,-9.106999,-12.22573,-56.96799,-0.4675641,6.980833,-72.28677,-8.521038,-36.90935,0,0,0,155.7064,14.91206,-60.41985,-125.3798,-110.0997,-86.82777,0.001067912,-0.1257102,0.09433498,0,0.3,0,0,0,0
638224245052247494,55.29523,40.25727,42.56207,57.43042,-7.202625,-12.29898,-56.96799,-0.4675641,6.980833,-72.28677,-8.521038,-36.90935,0,0,0,157.8117,11.30525,-59.05652,-125.3798,-110.0997,-86.82777,0.001067912,-0.1257102,0.09433498,0,0.3,0,0,0,0
638224245052597241,55.29523,39.41565,42.37529,57.50367,-6.177193,-12.07924,-56.96799,-0.4675641,6.980833,-72.28677,-8.521038,-36.90935,0,0,0,158.5797,9.507664,-58.52468,-125.3798,-110.0997,-86.82777,0.001067912,-0.1257102,0.09433498,0,0.3,0,0,0,0
638224245052927137,55.27167,37.9662,41.67487,57.57691,-4.272818,-10.76083,-56.96799,-0.4675641,6.980833,-72.28677,-8.594284,-36.90935,0,0,0,159.2724,5.783356,-57.94803,-125.3798,-110.0997,-86.82777,0.001067912,-0.1257102,0.09433498,0,0.3,0,0,0,0
638224245053267026,55.27167,36.3531,41.11454,57.7234,-2.441689,-9.149435,-56.96799,-0.4675641,6.980833,-72.28677,-8.521038,-36.83611,0,0,0,160.332,1.929098,-57.21349,-125.3798,-110.0997,-86.82777,0.001067912,-0.1257102,0.09433498,0,0.3,0,0,0,0
638224245053616915,55.27167,35.44136,40.90441,57.7234,-1.635992,-8.343738,-56.96799,-0.4675641,6.980833,-72.36002,-8.594284,-36.90935,0,0,0,161.0513,-0.110759,-56.71493,-125.3798,-110.0997,-86.82777,0.001067912,-0.1257102,0.09433498,0,0.3,0,0,0,0
638224245053956805,55.27167,33.40745,40.50751,57.79665,0.1951368,-6.659099,-56.96799,-0.4675641,6.980833,-72.36002,-8.594284,-36.83611,0,0,0,162.675,-4.617703,-55.58944,-125.3798,-110.0997,-86.82777,0.001067912,-0.1257102,0.09433498,0,0.3,0,0,0,0
638224245054286850,55.27167,31.16315,40.04056,57.7234,1.733285,-5.047705,-56.96799,-0.4675641,6.980833,-72.28677,-8.594284,-36.83611,0,0,0,164.2864,-9.735805,-54.47247,-125.3798,-110.0997,-86.82777,0.001067912,-0.1257102,0.09433498,0,0.3,0,0,0,0
638224245054636580,55.27167,28.77857,39.50357,57.43042,3.93064,-3.436311,-56.96799,-0.4675641,6.980833,-72.28677,-8.594284,-36.83611,0,0,0,165.7754,-15.34271,-53.44037,-125.3798,-110.0997,-86.82777,0.001067912,-0.1257102,0.09433498,0,0.3,0,0,0,0
638224245054976477,55.27167,27.49277,39.10667,57.21069,5.102563,-2.410879,-56.96799,-0.4675641,6.980833,-72.28677,-8.594284,-36.90935,0,0,0,166.3477,-18.56675,-53.04366,-125.3798,-110.0997,-86.82777,0.001067912,-0.1257102,0.09433498,0,0.3,0,0,0,0
638224245055316363,55.27167,24.89779,38.3829,56.77122,7.226673,-0.7994855,-56.96799,-0.4675641,6.980833,-72.28677,-8.594284,-36.90935,0,0,0,167.4589,-25.03978,-52.27343,-125.3798,-110.0997,-86.82777,0.001067912,-0.1257102,0.09433498,0,0.3,0,0,0,0
638224245055656269,55.27167,22.18591,37.51905,56.03876,9.497273,0.299192,-56.96799,-0.4675641,6.980833,-72.28677,-8.521038,-36.83611,0,0,0,168.2276,-32.06195,-51.74055,-125.3798,-110.0997,-86.82777,0.001067912,-0.1257102,0.09433498,0,0.3,0,0,0,0
638224245055996297,55.27167,20.78322,36.98207,55.52605,10.6692,0.738663,-56.96799,-0.4675641,6.980833,-72.28677,-8.594284,-36.90935,0,0,0,168.3927,-35.85615,-51.62615,-125.3798,-110.0997,-86.82777,0.001067912,-0.1257102,0.09433498,0,0.3,0,0,0,0
638224245056336040,55.27167,18.16486,35.72132,54.42737,12.79331,1.617605,-56.96799,-0.4675641,6.980833,-72.28677,-8.594284,-36.90935,0,0,0,168.12,-43.34021,-51.81515,-125.3798,-110.0997,-86.82777,0.001067912,-0.1257102,0.09433498,0,0.3,0,0,0,0
638224245056675937,55.27167,16.06083,34.15705,53.1822,14.91741,2.350057,-56.96799,-0.4675641,6.980833,-72.28677,-8.594284,-36.90935,0,0,0,166.8515,-50.10505,-52.69447,-125.3798,-110.0997,-86.82777,0.001067912,-0.1257102,0.09433498,0,0.3,0,0,0,0
638224245057015833,55.27167,15.19583,33.05973,52.44975,16.16258,2.789528,-56.96799,-0.4675641,6.980833,-72.28677,-8.594284,-36.90935,0,0,0,165.5491,-53.45738,-53.59721,-125.3798,-110.0997,-86.82777,0.001067912,-0.1257102,0.09433498,0,0.3,0,0,0,0
638224245057355725,55.27167,13.98017,30.67831,50.83836,18.06696,4.254431,-56.96799,-0.4675641,6.980833,-72.36002,-8.521038,-36.83611,0,0,0,162.2665,-59.12158,-55.87258,-125.3798,-110.0997,-86.82777,0.001067912,-0.1257102,0.09433498,0,0.3,0,0,0,0
638224245057695620,55.27167,13.5126,27.7132,49.51994,19.60511,6.305296,-56.96799,-0.4675641,6.980833,-72.28677,-8.594284,-36.83611,0,0,0,157.5285,-63.54449,-59.15682,-125.3798,-110.0997,-86.82777,0.001067912,-0.1257102,0.09433498,0,0.3,0,0,0,0
638224245058045504,55.22455,13.62949,23.86091,47.76206,20.70378,8.50265,-56.96799,-0.4675641,6.980833,-72.28677,-8.521038,-36.83611,0,0,0,150.7563,-67.17969,-63.66737,-125.3798,-110.0997,-86.82777,0.001067912,-0.1257102,0.09433498,0,0.3,0,0,0,0
638224245058385394,55.20099,13.79314,22.1799,47.02961,21.14326,9.454838,-56.96799,-0.4675641,6.980833,-72.28677,-8.594284,-36.83611,0,0,0,147.6824,-68.33958,-65.71181,-125.3798,-110.0997,-86.82777,0.001067912,-0.1257102,0.09433498,0,0.3,0,0,0,0
638224245058725275,55.20099,14.37759,19.91522,45.49146,21.72922,10.91974,-56.96799,-0.4675641,6.980833,-72.28677,-8.594284,-36.90935,0,0,0,143.3714,-68.91308,-68.70792,-125.3798,-110.0997,-86.82777,0.001067912,-0.1257102,0.09433498,0,0.3,0,0,0,0
638224245059075173,55.20099,15.61664,18.3743,44.0998,21.94895,11.79868,-56.96799,-0.4675641,6.980833,-72.28677,-8.521038,-36.83611,0,0,0,139.9767,-67.30373,-71.06725,-125.3798,-110.0997,-86.82777,0.001067912,-0.1257102,0.09433498,0,0.3,0,0,0,0
638224245059415055,55.20099,16.55177,17.86066,43.51384,21.72922,11.94517,-56.96799,-0.4675641,6.980833,-72.28677,-8.594284,-36.90935,0,0,0,138.5486,-65.58427,-72.05977,-125.3798,-110.0997,-86.82777,0.001067912,-0.1257102,0.09433498,0,0.3,0,0,0,0
638224245059754961,55.20099,18.93634,17.30033,42.34192,20.85028,12.3114,-56.96799,-0.4675641,6.980833,-72.36002,-8.594284,-36.83611,0,0,0,136.1389,-60.69272,-73.73448,-125.3798,-110.0997,-86.82777,0.001067912,-0.1257102,0.09433498,0,0.3,0,0,0,0
638224245060104852,55.20099,21.81186,17.25363,41.31649,19.23888,12.45789,-56.96799,-0.4675641,6.980833,-72.28677,-8.594284,-36.83611,0,0,0,134.1406,-54.45187,-75.12328,-125.3798,-110.0997,-86.82777,0.001067912,-0.1257102,0.09433498,0,0.3,0,0,0,0
638224245060454733,55.20099,25.01468,17.5338,40.51079,17.04152,12.38465,-56.96799,-0.4675641,6.980833,-72.36002,-8.594284,-36.83611,0,0,0,132.2196,-47.41738,-76.45836,-125.3798,-110.0997,-86.82777,0.001067912,-0.1257102,0.09433498,0,0.3,0,0,0,0
638224245060804613,55.20099,26.65115,17.83731,40.07132,15.8696,12.16491,-56.96799,-0.4675641,6.980833,-72.28677,-8.594284,-36.90935,0,0,0,131.4095,-43.77478,-77.0214,-125.3798,-110.0997,-86.82777,0.001067912,-0.1257102,0.09433498,0,0.3,0,0,0,0
638224245061144513,55.20099,29.57343,18.86459,39.41211,13.30602,11.21272,-56.96799,-0.4675641,6.980833,-72.28677,-8.594284,-36.90935,0,0,0,130.6416,-37.02379,-77.55509,-125.3798,-110.0997,-86.82777,0.001067912,-0.1257102,0.09433498,0,0.3,0,0,0,0
638224245061484396,55.20099,32.05152,20.84911,39.04589,10.6692,9.821064,-56.96799,-0.4675641,6.980833,-72.28677,-8.521038,-36.90935,0,0,0,131.7829,-30.50199,-76.76189,-125.3798,-110.0997,-86.82777,0.001067912,-0.1257102,0.09433498,0,0.3,0,0,0,0
638224245061824295,55.22455,33.08016,22.10986,39.04589,9.277537,9.161857,-56.96799,-0.4675641,6.980833,-72.28677,-8.594284,-36.90935,0,0,0,133.0048,-27.40995,-75.99374,-125.3798,-110.0997,-86.82777,0.001067912,-0.1257102,0.09433498,0,0.3,0,0,0,0
638224245062174185,55.22455,34.59974,24.56132,39.99807,6.787202,8.282915,-56.96799,-0.4675641,6.980833,-72.28677,-8.594284,-36.83611,0,0,0,135.6899,-22.21261,-74.12923,-125.3798,-110.0997,-86.82777,0.001067912,-0.1257102,0.09433498,0,0.3,0,0,0,0
638224245062514069,55.22455,35.41798,27.29295,41.60947,5.029318,7.843444,-56.96799,-0.4675641,6.980833,-72.28677,-8.594284,-36.83611,0,0,0,139.4886,-17.87338,-71.49152,-125.3798,-110.0997,-86.82777,0.001067912,-0.1257102,0.09433498,0,0.3,0,0,0,0
638224245062853967,55.24811,35.3946,30.00124,43.66033,3.93064,7.91669,-56.96799,-0.4675641,6.980833,-72.36002,-8.594284,-36.90935,0,0,0,144.0988,-14.89615,-68.37804,-125.3798,-110.0997,-86.82777,0.001067912,-0.1257102,0.09433498,0,0.3,0,0,0,0
638224245063193857,55.24811,35.30109,31.54216,44.97874,3.710905,8.136425,-56.96799,-0.4675641,6.980833,-72.28677,-8.521038,-36.83611,0,0,0,146.734,-13.23889,-66.54983,-125.3798,-110.0997,-86.82777,0.001067912,-0.1257102,0.09433498,0,0.3,0,0,0,0
638224245063533750,55.24811,35.48811,34.27379,48.34802,3.491169,8.429405,-56.96799,-0.4675641,6.980833,-72.36002,-8.594284,-36.90935,0,0,0,150.9118,-9.430364,-63.65134,-125.3798,-110.0997,-86.82777,0.001067912,-0.1257102,0.09433498,0,0.3,0,0,0,0
638224245063873651,55.22455,36.49338,35.60458,51.57081,3.564415,8.50265,-56.96799,-0.4675641,6.980833,-72.28677,-8.594284,-36.83611,0,0,0,151.825,-5.763557,-62.92534,-125.3798,-110.0997,-86.82777,0.001067912,-0.1257102,0.09433498,0,0.3,0,0,0,0
638224245064213534,55.20099,37.28823,35.79136,52.81598,3.491169,8.575896,-56.96799,-0.4675641,6.980833,-72.28677,-8.594284,-36.90935,0,0,0,151.1596,-4.030356,-63.29521,-125.3798,-110.0997,-86.82777,0.001067912,-0.1257102,0.09433498,0,0.3,0,0,0,0
638224245064553434,55.17743,39.25201,35.95479,54.50062,2.831963,8.575896,-56.96799,-0.4675641,6.980833,-72.28677,-8.521038,-36.90935,0,0,0,149.0456,-0.219366,-64.67348,-125.3798,-110.0997,-86.82777,0.001067912,-0.1257102,0.09433498,0,0.3,0,0,0,0
638224245064903312,55.03607,41.56644,35.90809,55.23307,1.51355,8.35616,-56.96799,-0.4675641,6.980833,-72.28677,-8.594284,-36.90935,0,0,0,145.8559,3.818141,-66.3574,-125.3798,-110.0997,-86.82777,0.001067912,-0.1257102,0.09433498,0,0.3,0,0,0,0
638224245065233208,54.75335,43.90427,35.58123,55.30631,-0.171089,7.696954,-56.96799,-0.4675641,6.980833,-72.28677,-8.594284,-36.90935,0,0,0,141.8313,7.36988,-68.12595,-125.3798,-110.0997,-86.82777,0.001067912,-0.1257102,0.09433498,0,0.3,0,0,0,0
638224245065583109,54.54131,45.14331,35.27772,55.08658,-1.123276,7.477218,-56.96799,-0.4675641,6.980833,-72.28677,-8.594284,-36.83611,0,0,0,139.3436,9.016336,-69.1087,-125.3798,-110.0997,-86.82777,0.001067912,-0.1257102,0.09433498,0,0.3,0,0,0,0
638224245065912995,53.95231,47.76167,34.1804,54.13439,-2.954405,7.623709,-56.96799,-0.4675641,6.980833,-72.28677,-8.594284,-36.83611,0,0,0,133.0481,11.75951,-71.51559,-125.3798,-110.0997,-86.82777,0.001067912,-0.1257102,0.09433498,0,0.3,0,0,0,0
638224245066252897,53.15127,50.33327,32.70952,52.44975,-4.932025,7.91669,-56.96799,-0.4675641,6.980833,-72.36002,-8.594284,-36.90935,0,0,0,125.7787,13.79538,-74.08859,-125.3798,-110.0997,-86.82777,0.001067912,-0.1257102,0.09433498,0,0.3,0,0,0,0
638224245066582777,52.70363,51.45543,31.96241,51.42432,-6.030703,8.209671,-56.96799,-0.4675641,6.980833,-72.28677,-8.594284,-36.83611,0,0,0,122.2575,14.51263,-75.22702,-125.3798,-110.0997,-86.82777,0.001067912,-0.1257102,0.09433498,0,0.3,0,0,0,0
638224245066922673,51.69056,53.32568,30.58492,49.30021,-8.008322,9.161857,-56.96799,-0.4675641,6.980833,-72.28677,-8.594284,-36.90935,0,0,0,115.7362,15.50468,-76.91609,-125.3798,-110.0997,-86.82777,0.001067912,-0.1257102,0.09433498,0,0.3,0,0,0,0
638224245067272568,50.44188,54.98553,29.37086,46.80988,-9.399981,10.18729,-56.96799,-0.4675641,6.980833,-72.36002,-8.594284,-36.90935,0,0,0,109.4149,16.35497,-77.9687,-125.3798,-110.0997,-86.82777,0.001067912,-0.1257102,0.09433498,0,0.3,0,0,0,0
638224245067612448,49.73508,55.80377,28.78718,45.41821,-9.912696,10.55352,-56.96799,-0.4675641,6.980833,-72.28677,-8.594284,-36.90935,0,0,0,106.1897,16.77626,-78.40627,-125.3798,-110.0997,-86.82777,0.001067912,-0.1257102,0.09433498,0,0.3,0,0,0,0
638224245067952340,48.06232,57.51038,27.7132,42.26867,-10.79164,11.28597,-56.96799,-0.4675641,6.980833,-72.28677,-8.521038,-36.83611,0,0,0,99.41288,17.77628,-79.03384,-125.3798,-110.0997,-86.82777,0.001067912,-0.1257102,0.09433498,0,0.3,0,0,0,0
638224245068298332,46.0126,59.3105,26.94275,38.75291,-11.74383,11.57895,-56.96799,-0.4675641,6.980833,-72.28677,-8.521038,-36.83611,0,0,0,92.44095,19.14762,-79.1201,-125.3798,-110.0997,-86.82777,0.001067912,-0.1257102,0.09433498,0,0.3,0,0,0,0
638224245068638212,43.60949,61.01711,26.38241,34.94416,-12.69601,11.65219,-56.96799,-0.4675641,6.980833,-72.36002,-8.594284,-36.90935,0,0,0,85.438,20.53848,-78.66101,-125.3798,-110.0997,-86.82777,0.001067912,-0.1257102,0.09433498,0,0.3,0,0,0,0
638224245068968111,42.21945,61.85873,26.17229,32.96654,-13.35522,11.72544,-56.96799,-0.4675641,6.980833,-72.28677,-8.521038,-36.83611,0,0,0,81.78644,21.25847,-78.21363,-125.3798,-110.0997,-86.82777,0.001067912,-0.1257102,0.09433498,0,0.3,0,0,0,0
638224245069307994,38.94461,63.54195,25.98551,28.35209,-14.52714,11.43246,-56.96799,-0.4675641,6.980833,-72.36002,-8.594284,-36.83611,0,0,0,74.07027,22.86407,-76.69983,-125.3798,-110.0997,-86.82777,0.001067912,-0.1257102,0.09433498,0,0.3,0,0,0,0
638224245069648025,35.22214,64.96803,25.68199,23.81089,-15.40608,10.62676,-56.96799,-0.4675641,6.980833,-72.36002,-8.594284,-36.83611,0,0,0,65.87285,23.99788,-75.04586,-125.3798,-110.0997,-86.82777,0.001067912,-0.1257102,0.09433498,0,0.3,0,0,0,0
638224245069987771,32.93682,65.57586,25.68199,21.17406,-16.06529,9.601329,-56.96799,-0.4675641,6.980833,-72.36002,-8.594284,-36.90935,0,0,0,61.40125,24.58965,-73.57175,-125.3798,-110.0997,-86.82777,0.001067912,-0.1257102,0.09433498,0,0.3,0,0,0,0
638224245070337684,28.31907,66.11356,25.68199,15.60743,-17.45695,8.06318,-56.96799,-0.4675641,6.980833,-72.28677,-8.521038,-36.83611,0,0,0,53.02987,25.10176,-69.94133,-125.3798,-110.0997,-86.82777,0.001067912,-0.1257102,0.09433498,0,0.3,0,0,0,0
638224245070677701,23.67776,66.11356,25.70534,9.528083,-18.62887,7.257483,-56.96799,-0.4675641,6.980833,-72.28677,-8.521038,-36.90935,0,0,0,44.91265,25.12531,-65.92814,-125.3798,-110.0997,-86.82777,0.001067912,-0.1257102,0.09433498,0,0.3,0,0,0,0
638224245071017451,21.58092,66.02005,25.79873,6.305296,-18.9951,6.964502,-56.96799,-0.4675641,6.980833,-72.28677,-8.521038,-36.83611,0,0,0,41.28028,25.13146,-63.9864,-125.3798,-110.0997,-86.82777,0.001067912,-0.1257102,0.09433498,0,0.3,0,0,0,0
638224245071367350,17.81133,65.43559,25.91546,-0.0670338,-19.6543,6.744767,-56.96799,-0.4675641,6.980833,-72.28677,-8.594284,-36.90935,0,0,0,34.78374,24.69079,-60.0849,-125.3798,-110.0997,-86.82777,0.001067912,-0.1257102,0.09433498,0,0.3,0,0,0,0
638224245071707233,14.67786,64.47708,25.89212,-6.146383,-19.87404,6.891257,-56.96799,-0.4675641,6.980833,-72.36002,-8.594284,-36.83611,0,0,0,29.31345,23.72273,-56.43758,-125.3798,-110.0997,-86.82777,0.001067912,-0.1257102,0.09433498,0,0.3,0,0,0,0
638224245072057126,12.46322,63.63547,25.86877,-11.12705,-19.94728,6.964502,-56.96799,-0.4675641,6.980833,-72.28677,-8.594284,-36.83611,0,0,0,25.33649,22.84208,-53.71629,-125.3798,-110.0997,-86.82777,0.001067912,-0.1257102,0.09433498,0,0.3,0,0,0,0
638224245072397012,11.56794,63.26142,25.84542,-13.4709,-19.94728,7.037747,-56.96799,-0.4675641,6.980833,-72.28677,-8.594284,-36.90935,0,0,0,23.68861,22.42924,-52.61938,-125.3798,-110.0997,-86.82777,0.001067912,-0.1257102,0.09433498,0,0.3,0,0,0,0
638224245072726906,10.36638,62.46656,25.47187,-17.42614,-19.94728,6.964502,-56.96799,-0.4675641,6.980833,-72.36002,-8.521038,-36.83611,0,0,0,21.4118,21.20901,-51.29954,-125.3798,-110.0997,-86.82777,0.001067912,-0.1257102,0.09433498,0,0.3,0,0,0,0
638224245073066799,10.10722,61.53143,24.65471,-20.2827,-19.87404,6.964502,-56.96799,-0.4675641,6.980833,-72.28677,-8.594284,-36.83611,0,0,0,20.91704,19.38158,-51.00811,-125.3798,-110.0997,-86.82777,0.001067912,-0.1257102,0.09433498,0,0.3,0,0,0,0
638224245073406689,10.13078,61.01711,24.11773,-21.0884,-19.72755,7.037747,-56.96799,-0.4675641,6.980833,-72.36002,-8.594284,-36.83611,0,0,0,20.94971,18.29025,-51.1039,-125.3798,-110.0997,-86.82777,0.001067912,-0.1257102,0.09433498,0,0.3,0,0,0,0
638224245073756590,10.13078,59.75469,22.76358,-21.96734,-18.92185,6.964502,-56.96799,-0.4675641,6.980833,-72.36002,-8.521038,-36.90935,0,0,0,20.8904,15.58469,-51.4358,-125.3798,-110.0997,-86.82777,0.001067912,-0.1257102,0.09433498,0,0.3,0,0,0,0
638224245074096472,10.27214,58.46889,21.43279,-22.33356,-17.67669,6.451786,-56.96799,-0.4675641,6.980833,-72.28677,-8.521038,-36.83611,0,0,0,21.125,12.88329,-51.78448,-125.3798,-110.0997,-86.82777,0.001067912,-0.1257102,0.09433498,0,0.3,0,0,0,0
638224245074446371,10.31926,57.39349,20.4522,-22.62654,-16.57801,5.719335,-56.96799,-0.4675641,6.980833,-72.28677,-8.594284,-36.90935,0,0,0,21.21898,10.73871,-51.81221,-125.3798,-110.0997,-86.82777,0.001067912,-0.1257102,0.09433498,0,0.3,0,0,0,0
638224245074786241,10.4135,56.85579,20.12534,-22.91953,-16.21178,5.060128,-56.96799,-0.4675641,6.980833,-72.28677,-8.594284,-36.90935,0,0,0,21.47163,9.79563,-51.51535,-125.3798,-110.0997,-86.82777,0.001067912,-0.1257102,0.09433498,0,0.3,0,0,0,0
638224245075116144,10.67266,55.42972,19.2148,-23.65198,-15.69907,3.082508,-56.96799,-0.4675641,6.980833,-72.28677,-8.594284,-36.90935,0,0,0,22.14075,7.23324,-50.86618,-125.3798,-110.0997,-86.82777,0.001067912,-0.1257102,0.09433498,0,0.3,0,0,0,0
638224245075456049,11.09674,53.37244,18.39765,-24.60417,-15.18635,1.617605,-56.96799,-0.4675641,6.980833,-72.36002,-8.594284,-36.90935,0,0,0,23.41248,3.833105,-48.97964,-125.3798,-110.0997,-86.82777,0.001067912,-0.1257102,0.09433498,0,0.3,0,0,0,0
638224245075785930,11.3559,52.08664,17.86066,-25.04364,-14.74688,1.104889,-56.96799,-0.4675641,6.980833,-72.36002,-8.594284,-36.90935,0,0,0,24.18721,1.632028,-47.91647,-125.3798,-110.0997,-86.82777,0.001067912,-0.1257102,0.09433498,0,0.3,0,0,0,0
638224245076125822,11.89778,49.18774,16.69329,-25.6296,-13.28197,-0.9459759,-56.96799,-0.4675641,6.980833,-72.28677,-8.594284,-36.90935,0,0,0,25.86558,-3.45347,-45.58544,-125.3798,-110.0997,-86.82777,0.001067912,-0.1257102,0.09433498,0,0.3,0,0,0,0
638224245076465722,12.36898,46.92005,15.50258,-25.70284,-11.30435,-3.509557,-56.96799,-0.4675641,6.980833,-72.28677,-8.521038,-36.83611,0,0,0,27.14479,-7.749489,-44.56893,-125.3798,-110.0997,-86.82777,0.001067912,-0.1257102,0.09433498,0,0.3,0,0,0,0
638224245076805599,12.6517,45.98492,14.77882,-25.48311,-9.985942,-4.388499,-56.96799,-0.4675641,6.980833,-72.28677,-8.594284,-36.83611,0,0,0,27.7446,-9.688895,-44.75175,-125.3798,-110.0997,-86.82777,0.001067912,-0.1257102,0.09433498,0,0.3,0,0,0,0
638224245077145509,13.21714,44.55886,13.33129,-24.67741,-7.861832,-5.194195,-56.96799,-0.4675641,6.980833,-72.28677,-8.594284,-36.90935,0,0,0,28.75492,-12.84273,-45.91753,-125.3798,-110.0997,-86.82777,0.001067912,-0.1257102,0.09433498,0,0.3,0,0,0,0
638224245077485391,13.61766,43.01589,11.90711,-23.43224,-6.177193,-5.487176,-56.96799,-0.4675641,6.980833,-72.36002,-8.594284,-36.90935,0,0,0,29.43357,-16.15923,-46.85005,-125.3798,-110.0997,-86.82777,0.001067912,-0.1257102,0.09433498,0,0.3,0,0,0,0
638224245077825288,13.75902,42.05739,11.15999,-22.84628,-5.517986,-5.560421,-56.96799,-0.4675641,6.980833,-72.28677,-8.594284,-36.83611,0,0,0,29.68674,-18.15064,-47.11297,-125.3798,-110.0997,-86.82777,0.001067912,-0.1257102,0.09433498,0,0.3,0,0,0,0
638224245078165173,13.97106,40.02348,9.689116,-21.96734,-3.979838,-5.560421,-56.96799,-0.4675641,6.980833,-72.36002,-8.594284,-36.90935,0,0,0,30.07273,-22.34023,-47.47478,-125.3798,-110.0997,-86.82777,0.001067912,-0.1257102,0.09433498,0,0.3,0,0,0,0
638224245078505076,14.01818,37.82593,8.148195,-21.52787,-2.148709,-5.633667,-56.96799,-0.4675641,6.980833,-72.28677,-8.594284,-36.83611,0,0,0,30.09229,-26.87497,-47.81932,-125.3798,-110.0997,-86.82777,0.001067912,-0.1257102,0.09433498,0,0.3,0,0,0,0
638224245078834959,14.04174,35.65176,6.794055,-21.60111,-0.02459868,-5.780157,-56.96799,-0.4675641,6.980833,-72.28677,-8.521038,-36.90935,0,0,0,30.11804,-31.33957,-47.92692,-125.3798,-110.0997,-86.82777,0.001067912,-0.1257102,0.09433498,0,0.3,0,0,0,0
638224245079174845,14.04174,34.6465,6.163678,-21.67436,0.8543434,-5.926647,-56.96799,-0.4675641,6.980833,-72.28677,-8.594284,-36.83611,0,0,0,30.09115,-33.41812,-48.03444,-125.3798,-110.0997,-86.82777,0.001067912,-0.1257102,0.09433498,0,0.3,0,0,0,0
638224245079514733,14.04174,32.77624,5.066357,-22.11383,2.758718,-6.732344,-56.96799,-0.4675641,6.980833,-72.36002,-8.521038,-36.83611,0,0,0,30.06061,-37.28871,-48.15653,-125.3798,-110.0997,-86.82777,0.001067912,-0.1257102,0.09433498,0,0.3,0,0,0,0
638224245079854633,14.04174,30.74234,4.039077,-22.69979,4.736337,-7.611286,-56.96799,-0.4675641,6.980833,-72.36002,-8.594284,-36.83611,0,0,0,30.08685,-41.50319,-48.05161,-125.3798,-110.0997,-86.82777,0.001067912,-0.1257102,0.09433498,0,0.3,0,0,0,0
638224245080194517,14.08886,29.69032,3.548784,-22.99277,5.542034,-8.050756,-56.96799,-0.4675641,6.980833,-72.36002,-8.594284,-36.83611,0,0,0,30.20856,-43.69446,-47.9856,-125.3798,-110.0997,-86.82777,0.001067912,-0.1257102,0.09433498,0,0.3,0,0,0,0
638224245080534410,14.70142,27.53952,2.708283,-23.359,7.299919,-8.563474,-56.96799,-0.4675641,6.980833,-72.36002,-8.594284,-36.90935,0,0,0,31.60632,-48.1953,-47.88601,-125.3798,-110.0997,-86.82777,0.001067912,-0.1257102,0.09433498,0,0.3,0,0,0,0
638224245080874299,15.85585,25.13157,2.171296,-22.48005,8.911312,-8.343738,-56.96799,-0.4675641,6.980833,-72.28677,-8.594284,-36.90935,0,0,0,34.36501,-53.27074,-47.35694,-125.3798,-110.0997,-86.82777,0.001067912,-0.1257102,0.09433498,0,0.3,0,0,0,0
638224245081214201,16.44485,23.93928,1.937823,-21.60111,9.936745,-7.831022,-56.96799,-0.4675641,6.980833,-72.28677,-8.594284,-36.83611,0,0,0,35.77945,-55.81454,-47.13227,-125.3798,-110.0997,-86.82777,0.001067912,-0.1257102,0.09433498,0,0.3,0,0,0,0
638224245081564089,17.59929,21.76511,1.70435,-19.11078,11.84112,-5.706912,-56.96799,-0.4675641,6.980833,-72.28677,-8.594284,-36.83611,0,0,0,38.64434,-60.49452,-46.52238,-125.3798,-110.0997,-86.82777,0.001067912,-0.1257102,0.09433498,0,0.3,0,0,0,0
638224245081893984,18.82441,19.54418,1.681003,-16.5472,13.599,-2.191144,-56.96799,-0.4675641,6.980833,-72.28677,-8.594284,-36.90935,0,0,0,41.81102,-65.33256,-45.70224,-125.3798,-110.0997,-86.82777,0.001067912,-0.1257102,0.09433498,0,0.3,0,0,0,0
638224245082243880,20.30869,17.34663,1.681003,-13.76388,15.50338,1.69085,-56.96799,-0.4675641,6.980833,-72.28677,-8.594284,-36.83611,0,0,0,45.53551,-70.18407,-45.30884,-125.3798,-110.0997,-86.82777,0.001067912,-0.1257102,0.09433498,0,0.3,0,0,0,0
638224245082583772,20.99193,16.4115,1.70435,-12.29898,16.52881,3.741715,-56.96799,-0.4675641,6.980833,-72.36002,-8.594284,-36.83611,0,0,0,47.24532,-72.2651,-45.21988,-125.3798,-110.0997,-86.82777,0.001067912,-0.1257102,0.09433498,0,0.3,0,0,0,0
638224245082933664,22.3584,14.91529,1.844434,-9.076189,18.1402,7.696954,-56.96799,-0.4675641,6.980833,-72.28677,-8.594284,-36.83611,0,0,0,50.64978,-75.60786,-45.21074,-125.3798,-110.0997,-86.82777,0.001067912,-0.1257102,0.09433498,0,0.3,0,0,0,0
638224245083263550,23.8898,13.72301,2.101254,-5.999893,19.38537,11.5057,-56.96799,-0.4675641,6.980833,-72.36002,-8.521038,-36.90935,0,0,0,54.44241,-78.27595,-45.43464,-125.3798,-110.0997,-86.82777,0.001067912,-0.1257102,0.09433498,0,0.3,0,0,0,0
638224245083613446,24.64372,13.16193,2.21799,-4.315253,19.82484,13.33683,-56.96799,-0.4675641,6.980833,-72.28677,-8.521038,-36.90935,0,0,0,56.29481,-79.53578,-45.63895,-125.3798,-110.0997,-86.82777,0.001067912,-0.1257102,0.09433498,0,0.3,0,0,0,0
638224245083943334,25.98664,12.27356,2.47481,-0.9459759,20.70378,16.63286,-56.96799,-0.4675641,6.980833,-72.28677,-8.521038,-36.83611,0,0,0,59.61634,-81.52816,-46.046,-125.3798,-110.0997,-86.82777,0.001067912,-0.1257102,0.09433498,0,0.3,0,0,0,0
638224245084293217,27.37668,11.64235,2.591547,1.910586,21.28975,19.04996,-56.96799,-0.4675641,6.980833,-72.36002,-8.594284,-36.83611,0,0,0,62.83047,-82.95334,-47.01686,-125.3798,-110.0997,-86.82777,0.001067912,-0.1257102,0.09433498,0,0.3,0,0,0,0
638224245084643105,29.07299,11.33843,2.895061,4.547412,21.72922,20.66135,-56.96799,-0.4675641,6.980833,-72.28677,-8.521038,-36.83611,0,0,0,66.80597,-83.61269,-48.19011,-125.3798,-110.0997,-86.82777,0.001067912,-0.1257102,0.09433498,0,0.3,0,0,0,0
638224245084983010,30.10963,11.33843,3.151881,5.93907,21.94895,21.32055,-56.96799,-0.4675641,6.980833,-72.28677,-8.594284,-36.83611,0,0,0,69.26837,-83.58116,-48.90206,-125.3798,-110.0997,-86.82777,0.001067912,-0.1257102,0.09433498,0,0.3,0,0,0,0
638224245085342873,32.25359,11.36181,3.898993,9.088613,21.87571,22.34599,-56.96799,-0.4675641,6.980833,-72.28677,-8.594284,-36.83611,0,0,0,74.60896,-83.42089,-50.11837,-125.3798,-110.0997,-86.82777,0.001067912,-0.1257102,0.09433498,0,0.3,0,0,0,0
638224245085682775,34.53891,11.59559,4.972968,12.89736,21.50948,23.00519,-56.96799,-0.4675641,6.980833,-72.28677,-8.594284,-36.83611,0,0,0,80.61569,-82.69435,-51.22388,-125.3798,-110.0997,-86.82777,0.001067912,-0.1257102,0.09433498,0,0.3,0,0,0,0
638224245086022665,35.62266,11.87613,5.650038,14.72849,21.14326,23.15168,-56.96799,-0.4675641,6.980833,-72.28677,-8.521038,-36.83611,0,0,0,83.65312,-81.9092,-51.60213,-125.3798,-110.0997,-86.82777,0.001067912,-0.1257102,0.09433498,0,0.3,0,0,0,0
638224245086362553,37.64882,12.69436,7.120916,18.53724,20.33756,23.37142,-56.96799,-0.4675641,6.980833,-72.28677,-8.594284,-36.83611,0,0,0,89.55902,-79.66774,-52.25998,-125.3798,-110.0997,-86.82777,0.001067912,-0.1257102,0.09433498,0,0.3,0,0,0,0
638224245086702442,39.06242,13.88665,8.405016,22.49248,18.87265,23.44467,-56.96799,-0.4675641,6.980833,-72.28677,-8.594284,-36.83611,0,0,0,93.85967,-76.56351,-52.70078,-125.3798,-110.0997,-86.82777,0.001067912,-0.1257102,0.09433498,0,0.3,0,0,0,0
638224245087047742,39.53362,15.45299,9.128781,25.86176,17.11477,23.51791,-56.96799,-0.4675641,6.980833,-72.28677,-8.594284,-36.90935,0,0,0,95.27964,-72.78022,-52.90461,-125.3798,-110.0997,-86.82777,0.001067912,-0.1257102,0.09433498,0,0.3,0,0,0,0
638224245087387630,39.51006,16.29461,9.245518,27.18017,16.23583,23.51791,-56.96799,-0.4675641,6.980833,-72.28677,-8.521038,-36.83611,0,0,0,95.06194,-70.85278,-53.07186,-125.3798,-110.0997,-86.82777,0.001067912,-0.1257102,0.09433498,0,0.3,0,0,0,0
638224245087727524,39.34513,17.90771,9.362254,28.86481,14.47795,23.51791,-56.96799,-0.4675641,6.980833,-72.28677,-8.594284,-36.90935,0,0,0,94.19982,-67.22065,-53.4451,-125.3798,-110.0997,-86.82777,0.001067912,-0.1257102,0.09433498,0,0.3,0,0,0,0
638224245088057416,39.08598,19.21688,9.385601,29.74375,12.79331,23.51791,-56.96799,-0.4675641,6.980833,-72.28677,-8.594284,-36.90935,0,0,0,93.10139,-64.32339,-53.73145,-125.3798,-110.0997,-86.82777,0.001067912,-0.1257102,0.09433498,0,0.3,0,0,0,0
638224245088407305,39.01529,19.70782,9.315559,30.03673,12.1341,23.51791,-56.96799,-0.4675641,6.980833,-72.28677,-8.594284,-36.90935,0,0,0,92.619,-63.27255,-54.03746,-125.3798,-110.0997,-86.82777,0.001067912,-0.1257102,0.09433498,0,0.3,0,0,0,0
638224245088737199,38.82682,20.43255,8.638489,30.25646,11.18191,23.51791,-56.96799,-0.4675641,6.980833,-72.28677,-8.594284,-36.83611,0,0,0,90.90368,-61.93416,-55.39692,-125.3798,-110.0997,-86.82777,0.001067912,-0.1257102,0.09433498,0,0.3,0,0,0,0
638224245089077096,38.63834,20.75984,7.634556,29.817,10.81569,23.6644,-56.96799,-0.4675641,6.980833,-72.28677,-8.521038,-36.83611,0,0,0,88.92006,-61.5518,-57.11449,-125.3798,-110.0997,-86.82777,0.001067912,-0.1257102,0.09433498,0,0.3,0,0,0,0
638224245089406989,38.56766,20.87674,7.097569,29.45077,10.81569,23.73765,-56.96799,-0.4675641,6.980833,-72.36002,-8.594284,-36.83611,0,0,0,87.94976,-61.45774,-58.04959,-125.3798,-110.0997,-86.82777,0.001067912,-0.1257102,0.09433498,0,0.3,0,0,0,0
638224245089746884,38.52053,20.90011,6.373804,28.35209,11.18191,23.73765,-56.96799,-0.4675641,6.980833,-72.28677,-8.594284,-36.90935,0,0,0,86.8051,-61.60448,-59.30129,-125.3798,-110.0997,-86.82777,0.001067912,-0.1257102,0.09433498,0,0.3,0,0,0,0
638224245090086776,38.49697,20.90011,6.000247,27.32666,11.84112,23.73765,-56.96799,-0.4675641,6.980833,-72.36002,-8.594284,-36.83611,0,0,0,86.22221,-61.69817,-59.94208,-125.3798,-110.0997,-86.82777,0.001067912,-0.1257102,0.09433498,0,0.3,0,0,0,0
638224245090416665,38.49697,20.90011,5.813469,26.81394,12.20734,23.73765,-56.96799,-0.4675641,6.980833,-72.36002,-8.521038,-36.90935,0,0,0,85.95306,-61.74291,-60.28049,-125.3798,-110.0997,-86.82777,0.001067912,-0.1257102,0.09433498,0,0.3,0,0,0,0
638224245090766566,38.37918,20.94687,5.393219,26.00825,13.15953,23.73765,-56.96799,-0.4675641,6.980833,-72.28677,-8.594284,-36.90935,0,0,0,85.1022,-61.73677,-60.89754,-125.3798,-110.0997,-86.82777,0.001067912,-0.1257102,0.09433498,0,0.3,0,0,0,0
638224245091106444,37.88441,21.25079,5.369871,25.1293,14.18496,23.44467,-56.96799,-0.4675641,6.980833,-72.28677,-8.521038,-36.83611,0,0,0,83.98159,-61.08195,-60.41035,-125.3798,-110.0997,-86.82777,0.001067912,-0.1257102,0.09433498,0,0.3,0,0,0,0
638224245091446335,36.72998,22.25605,5.346524,23.81089,15.13715,22.56572,-56.96799,-0.4675641,6.980833,-72.36002,-8.594284,-36.83611,0,0,0,81.23893,-58.91402,-59.47855,-125.3798,-110.0997,-86.82777,0.001067912,-0.1257102,0.09433498,0,0.3,0,0,0,0
638224245091786228,35.8347,23.12104,5.369871,23.00519,15.64987,21.90652,-56.96799,-0.4675641,6.980833,-72.28677,-8.594284,-36.83611,0,0,0,79.10497,-57.05157,-58.80816,-125.3798,-110.0997,-86.82777,0.001067912,-0.1257102,0.09433498,0,0.3,0,0,0,0
638224245092126121,33.26667,25.50562,5.46326,20.5881,16.08934,20.36837,-56.96799,-0.4675641,6.980833,-72.36002,-8.594284,-36.83611,0,0,0,72.98279,-51.97379,-57.10332,-125.3798,-110.0997,-86.82777,0.001067912,-0.1257102,0.09433498,0,0.3,0,0,0,0
638224245092466011,30.48659,28.19411,6.023595,16.99909,15.72311,18.46399,-56.96799,-0.4675641,6.980833,-72.36002,-8.594284,-36.83611,0,0,0,66.72582,-46.26117,-55.01139,-125.3798,-110.0997,-86.82777,0.001067912,-0.1257102,0.09433498,0,0.3,0,0,0,0
638224245092805902,29.00231,29.47991,6.373804,14.87498,15.43013,17.51181,-56.96799,-0.4675641,6.980833,-72.36002,-8.594284,-36.90935,0,0,0,63.46074,-43.55174,-53.87469,-125.3798,-110.0997,-86.82777,0.001067912,-0.1257102,0.09433498,0,0.3,0,0,0,0
638224245093155796,25.79816,32.21516,7.00418,10.62676,14.69768,15.75392,-56.96799,-0.4675641,6.980833,-72.36002,-8.594284,-36.90935,0,0,0,56.17675,-37.91593,-52.13326,-125.3798,-110.0997,-86.82777,0.001067912,-0.1257102,0.09433498,0,0.3,0,0,0,0
638224245093485686,22.8296,34.99717,7.307694,6.012315,13.89198,14.582,-56.96799,-0.4675641,6.980833,-72.28677,-8.521038,-36.83611,0,0,0,48.96439,-32.43583,-52.03659,-125.3798,-110.0997,-86.82777,0.001067912,-0.1257102,0.09433498,0,0.3,0,0,0,0
638224245093835593,20.33225,37.45188,7.354388,1.69085,13.23278,13.92279,-56.96799,-0.4675641,6.980833,-72.36002,-8.594284,-36.90935,0,0,0,42.71418,-27.81352,-53.078,-125.3798,-110.0997,-86.82777,0.001067912,-0.1257102,0.09433498,0,0.3,0,0,0,0
638224245094165470,19.17781,38.45715,7.354388,0.006211365,13.08629,13.70306,-56.96799,-0.4675641,6.980833,-72.28677,-8.594284,-36.83611,0,0,0,39.91038,-25.96874,-53.59991,-125.3798,-110.0997,-86.82777,0.001067912,-0.1257102,0.09433498,0,0.3,0,0,0,0
638224245094515369,16.77469,40.28064,7.307694,-2.85035,13.30602,13.41008,-56.96799,-0.4675641,6.980833,-72.28677,-8.594284,-36.90935,0,0,0,34.25579,-22.70179,-54.70794,-125.3798,-110.0997,-86.82777,0.001067912,-0.1257102,0.09433498,0,0.3,0,0,0,0
638224245094855242,14.1831,42.54833,7.284348,-5.926647,13.67225,13.19034,-56.96799,-0.4675641,6.980833,-72.36002,-8.594284,-36.90935,0,0,0,28.21368,-18.75089,-56.71214,-125.3798,-110.0997,-86.82777,0.001067912,-0.1257102,0.09433498,0,0.3,0,0,0,0
638224245095205136,13.1229,43.62373,7.307694,-7.391551,13.74549,12.97061,-56.96799,-0.4675641,6.980833,-72.36002,-8.594284,-36.83611,0,0,0,25.7673,-16.9161,-57.82175,-125.3798,-110.0997,-86.82777,0.001067912,-0.1257102,0.09433498,0,0.3,0,0,0,0
638224245095545021,11.37946,45.77452,7.190958,-10.17487,13.96523,11.35921,-56.96799,-0.4675641,6.980833,-72.28677,-8.594284,-36.90935,0,0,0,21.64481,-13.39245,-60.80474,-125.3798,-110.0997,-86.82777,0.001067912,-0.1257102,0.09433498,0,0.3,0,0,0,0
638224245095894920,9.942304,47.57465,6.887444,-12.51871,14.18496,7.037747,-56.96799,-0.4675641,6.980833,-72.28677,-8.521038,-36.90935,0,0,0,18.29347,-10.60448,-63.98816,-125.3798,-110.0997,-86.82777,0.001067912,-0.1257102,0.09433498,0,0.3,0,0,0,0
638224245096234814,9.023465,49.30463,6.74736,-14.64282,14.47795,2.276812,-56.96799,-0.4675641,6.980833,-72.36002,-8.594284,-36.90935,0,0,0,16.09429,-7.97216,-67.0033,-125.3798,-110.0997,-86.82777,0.001067912,-0.1257102,0.09433498,0,0.3,0,0,0,0
638224245096574713,8.834986,50.14624,6.724013,-15.52176,14.55119,-0.140279,-56.96799,-0.4675641,6.980833,-72.28677,-8.594284,-36.90935,0,0,0,15.52299,-6.712294,-68.48094,-125.3798,-110.0997,-86.82777,0.001067912,-0.1257102,0.09433498,0,0.3,0,0,0,0
638224245096904600,8.717185,51.43205,6.724013,-16.76693,14.25821,-4.168763,-56.96799,-0.4675641,6.980833,-72.36002,-8.594284,-36.83611,0,0,0,14.96622,-4.820503,-70.74112,-125.3798,-110.0997,-86.82777,0.001067912,-0.1257102,0.09433498,0,0.3,0,0,0,0
638224245097244480,8.340226,52.39055,6.724013,-17.71912,14.18496,-7.24506,-56.96799,-0.4675641,6.980833,-72.28677,-8.521038,-36.83611,0,0,0,14.06904,-3.444366,-72.38197,-125.3798,-110.0997,-86.82777,0.001067912,-0.1257102,0.09433498,0,0.3,0,0,0,0
638224245097574381,7.798347,52.64771,6.724013,-18.23184,14.18496,-8.270493,-56.96799,-0.4675641,6.980833,-72.36002,-8.594284,-36.90935,0,0,0,13.09635,-3.080173,-72.72376,-125.3798,-110.0997,-86.82777,0.001067912,-0.1257102,0.09433498,0,0.3,0,0,0,0
638224245097914274,5.84287,52.92825,6.467193,-20.20946,14.18496,-9.808641,-56.96799,-0.4675641,6.980833,-72.28677,-8.594284,-36.83611,0,0,0,9.712304,-2.753962,-73.44054,-125.3798,-110.0997,-86.82777,0.001067912,-0.1257102,0.09433498,0,0.3,0,0,0,0
638224245098244311,3.133475,52.92825,6.116984,-23.50549,14.25821,-12.07924,-56.96799,-0.4675641,6.980833,-72.36002,-8.594284,-36.83611,0,0,0,5.170767,-2.843292,-73.89648,-125.3798,-110.0997,-86.82777,0.001067912,-0.1257102,0.09433498,0,0.3,0,0,0,0
638224245098594047,1.507838,52.92825,6.093637,-25.6296,14.03847,-13.91037,-56.96799,-0.4675641,6.980833,-72.36002,-8.594284,-36.83611,0,0,0,2.48772,-2.849071,-73.84182,-125.3798,-110.0997,-86.82777,0.001067912,-0.1257102,0.09433498,0,0.3,0,0,0,0
638224245098933949,-1.672757,52.90487,6.093637,-30.09755,13.599,-17.79236,-56.96799,-0.4675641,6.980833,-72.28677,-8.594284,-36.90935,0,0,0,-2.761009,-2.881879,-73.80598,-125.3798,-110.0997,-86.82777,0.001067912,-0.1257102,0.09433498,0,0.3,0,0,0,0
638224245099273840,-4.570632,52.90487,5.906858,-34.56551,13.45251,-21.67436,-56.96799,-0.4675641,6.980833,-72.28677,-8.521038,-36.90935,0,0,0,-7.502785,-2.92732,-74.49741,-125.3798,-110.0997,-86.82777,0.001067912,-0.1257102,0.09433498,0,0.3,0,0,0,0
638224245099623722,-5.98423,52.90487,5.836816,-36.68962,13.52576,-23.79847,-56.96799,-0.4675641,6.980833,-72.28677,-8.594284,-36.90935,0,0,0,-9.798885,-2.943997,-74.87234,-125.3798,-110.0997,-86.82777,0.001067912,-0.1257102,0.09433498,0,0.3,0,0,0,0
638224245099953614,-9.047026,52.81136,5.72008,-40.64486,13.67225,-28.63265,-56.96799,-0.4675641,6.980833,-72.28677,-8.521038,-36.83611,0,0,0,-14.76421,-3.102762,-75.62505,-125.3798,-110.0997,-86.82777,0.001067912,-0.1257102,0.09433498,0,0.3,0,0,0,0
638224245100293523,-11.8271,52.78798,5.72008,-44.67334,13.67225,-34.85849,-56.96799,-0.4675641,6.980833,-72.28677,-8.594284,-36.90935,0,0,0,-19.25311,-3.135658,-76.40786,-125.3798,-110.0997,-86.82777,0.001067912,-0.1257102,0.09433498,0,0.3,0,0,0,0
638224245100633406,-12.81662,52.71785,5.673386,-46.57772,13.37927,-38.30101,-56.96799,-0.4675641,6.980833,-72.28677,-8.521038,-36.90935,0,0,0,-20.84286,-3.245242,-76.7328,-125.3798,-110.0997,-86.82777,0.001067912,-0.1257102,0.09433498,0,0.3,0,0,0,0
638224245100973431,-13.9475,52.62434,5.556649,-49.72726,13.15953,-44.52685,-56.96799,-0.4675641,6.980833,-72.28677,-8.594284,-36.90935,0,0,0,-22.62353,-3.403801,-77.25647,-125.3798,-110.0997,-86.82777,0.001067912,-0.1257102,0.09433498,0,0.3,0,0,0,0
638224245101313202,-14.11242,52.5542,5.533302,-51.55839,13.23278,-51.19216,-56.96799,-0.4675641,6.980833,-72.28677,-8.594284,-36.83611,0,0,0,-22.90406,-3.508218,-77.24867,-125.3798,-110.0997,-86.82777,0.001067912,-0.1257102,0.09433498,0,0.3,0,0,0,0
638224245101663078,-14.1831,51.75934,4.78619,-52.29084,13.37927,-55.9531,-56.96799,-0.4675641,6.980833,-72.28677,-8.594284,-36.83611,0,0,0,-22.95005,-4.799537,-77.53963,-125.3798,-110.0997,-86.82777,0.001067912,-0.1257102,0.09433498,0,0.3,0,0,0,0
638224245102002969,-14.1831,51.01124,4.155813,-52.29084,13.599,-57.12502,-56.96799,-0.4675641,6.980833,-72.28677,-8.521038,-36.83611,0,0,0,-22.925,-6.000504,-77.63873,-125.3798,-110.0997,-86.82777,0.001067912,-0.1257102,0.09433498,0,0.3,0,0,0,0
638224245102342866,-14.1831,49.11761,2.708283,-52.21759,14.4047,-58.22369,-56.96799,-0.4675641,6.980833,-72.28677,-8.594284,-36.83611,0,0,0,-22.929,-9.031173,-77.62291,-125.3798,-110.0997,-86.82777,0.001067912,-0.1257102,0.09433498,0,0.3,0,0,0,0
638224245102682751,-14.15954,47.06033,1.330794,-52.0711,15.94285,-57.78423,-56.96799,-0.4675641,6.980833,-72.36002,-8.594284,-36.90935,0,0,0,-22.97955,-12.34232,-77.26526,-125.3798,-110.0997,-86.82777,0.001067912,-0.1257102,0.09433498,0,0.3,0,0,0,0
638224245103032641,-14.11242,45.75114,0.6303762,-52.0711,16.74854,-57.63773,-56.96799,-0.4675641,6.980833,-72.28677,-8.594284,-36.90935,0,0,0,-23.04527,-14.47121,-76.687,-125.3798,-110.0997,-86.82777,0.001067912,-0.1257102,0.09433498,0,0.3,0,0,0,0
638224245103372525,-13.85326,42.52495,-0.8171543,-52.43733,18.50643,-57.5645,-56.96799,-0.4675641,6.980833,-72.28677,-8.521038,-36.90935,0,0,0,-23.07563,-19.85368,-74.77843,-125.3798,-110.0997,-86.82777,0.001067912,-0.1257102,0.09433498,0,0.3,0,0,0,0
638224245103712428,-13.49986,39.18187,-1.867781,-52.8768,20.48405,-56.46581,-56.96799,-0.4675641,6.980833,-72.28677,-8.521038,-36.90935,0,0,0,-23.11534,-25.68075,-72.06664,-125.3798,-110.0997,-86.82777,0.001067912,-0.1257102,0.09433498,0,0.3,0,0,0,0
638224245104054213,-13.21714,35.51149,-3.081839,-53.38951,22.6814,-54.3417,-56.96799,-0.4675641,6.980833,-72.28677,-8.594284,-36.90935,0,0,0,-23.17918,-32.34863,-69.65787,-125.3798,-110.0997,-86.82777,0.001067912,-0.1257102,0.09433498,0,0.3,0,0,0,0
638224245104384106,-13.1229,33.45421,-3.735562,-53.60925,24.07306,-53.24303,-56.96799,-0.4675641,6.980833,-72.28677,-8.594284,-36.83611,0,0,0,-23.28743,-36.20478,-68.45908,-125.3798,-110.0997,-86.82777,0.001067912,-0.1257102,0.09433498,0,0.3,0,0,0,0
638224245104723999,-12.8873,29.176,-4.926273,-54.41495,26.78313,-51.48514,-56.96799,-0.4675641,6.980833,-72.28677,-8.594284,-36.83611,0,0,0,-23.41414,-44.50009,-66.01424,-125.3798,-110.0997,-86.82777,0.001067912,-0.1257102,0.09433498,0,0.3,0,0,0,0
638224245105053892,-12.67526,24.61725,-6.23372,-55.1474,29.4932,-50.02024,-56.96799,-0.4675641,6.980833,-72.28677,-8.521038,-36.83611,0,0,0,-23.42365,-53.66399,-64.20138,-125.3798,-110.0997,-86.82777,0.001067912,-0.1257102,0.09433498,0,0.3,0,0,0,0
638224245105403791,-12.58102,22.32619,-6.700665,-55.58687,30.81162,-49.65401,-56.96799,-0.4675641,6.980833,-72.36002,-8.521038,-36.83611,0,0,0,-23.47968,-58.43227,-63.14425,-125.3798,-110.0997,-86.82777,0.001067912,-0.1257102,0.09433498,0,0.3,0,0,0,0
638224245105733668,-12.48678,18.25838,-7.401083,-56.46581,33.59494,-49.28778,-56.96799,-0.4675641,6.980833,-72.36002,-8.594284,-36.90935,0,0,0,-23.66658,-67.11012,-61.48027,-125.3798,-110.0997,-86.82777,0.001067912,-0.1257102,0.09433498,0,0.3,0,0,0,0
638224245106073570,-12.48678,15.28934,-7.634556,-57.27151,35.49931,-49.43428,-56.96799,-0.4675641,6.980833,-72.28677,-8.594284,-36.90935,0,0,0,-23.98123,-73.65438,-60.0594,-125.3798,-110.0997,-86.82777,0.001067912,-0.1257102,0.09433498,0,0.3,0,0,0,0
638224245106443440,-12.48678,13.23206,-7.611208,-57.78423,36.74448,-51.11892,-56.96799,-0.4675641,6.980833,-72.28677,-8.521038,-36.83611,0,0,0,-24.24788,-78.3019,-58.8553,-125.3798,-110.0997,-86.82777,0.001067912,-0.1257102,0.09433498,0,0.3,0,0,0,0
638224245106783342,-12.4161,12.32031,-7.447778,-57.93071,37.18394,-52.21759,-56.96799,-0.4675641,6.980833,-72.28677,-8.594284,-36.83611,0,0,0,-24.29477,-80.42119,-57.99892,-125.3798,-110.0997,-86.82777,0.001067912,-0.1257102,0.09433498,0,0.3,0,0,0,0
638224245107113242,-11.8271,10.14614,-7.331042,-58.07721,37.76991,-54.04872,-56.96799,-0.4675641,6.980833,-72.28677,-8.594284,-36.90935,0,0,0,-23.41634,-85.41906,-56.52654,-125.3798,-110.0997,-86.82777,0.001067912,-0.1257102,0.09433498,0,0.3,0,0,0,0
638224245107463133,-10.57842,8.392776,-7.331042,-57.49125,38.50236,-54.92767,-56.96799,-0.4675641,6.980833,-72.28677,-8.594284,-36.83611,0,0,0,-21.09461,-89.44639,-55.39668,-125.3798,-110.0997,-86.82777,0.001067912,-0.1257102,0.09433498,0,0.3,0,0,0,0
638224245107803010,-9.871624,7.668051,-7.354388,-56.83204,39.01508,-55.1474,-56.96799,-0.4675641,6.980833,-72.28677,-8.594284,-36.90935,0,0,0,-19.73081,-91.10961,-54.96601,-125.3798,-110.0997,-86.82777,0.001067912,-0.1257102,0.09433498,0,0.3,0,0,0,0
638224245108142901,-8.575826,6.475762,-7.354388,-55.22065,39.89402,-55.29389,-56.96799,-0.4675641,6.980833,-72.28677,-8.521038,-36.83611,0,0,0,-17.21264,-93.86338,-54.21101,-125.3798,-110.0997,-86.82777,0.001067912,-0.1257102,0.09433498,0,0.3,0,0,0,0
638224245108482834,-7.421387,5.774416,-7.354388,-52.80355,40.69971,-54.56144,-56.96799,-0.4675641,6.980833,-72.28677,-8.521038,-36.83611,0,0,0,-14.93204,-95.48637,-53.71468,-125.3798,-110.0997,-86.82777,0.001067912,-0.1257102,0.09433498,0,0.3,0,0,0,0
638224245108822692,-6.808829,5.751038,-7.354388,-51.48514,40.99269,-53.24303,-56.96799,-0.4675641,6.980833,-72.36002,-8.521038,-36.83611,0,0,0,-13.70628,-95.5405,-53.55617,-125.3798,-110.0997,-86.82777,0.001067912,-0.1257102,0.09433498,0,0.3,0,0,0,0
638224245109152588,-5.442351,5.634147,-7.42443,-47.82288,41.43217,-49.06805,-56.96799,-0.4675641,6.980833,-72.28677,-8.521038,-36.90935,0,0,0,-10.95208,-95.79025,-53.39603,-125.3798,-110.0997,-86.82777,0.001067912,-0.1257102,0.09433498,0,0.3,0,0,0,0
638224245109492492,-3.746034,5.423743,-7.42443,-42.84221,41.94488,-42.62248,-56.96799,-0.4675641,6.980833,-72.36002,-8.594284,-36.83611,0,0,0,-7.547501,-96.27766,-53.07512,-125.3798,-110.0997,-86.82777,0.001067912,-0.1257102,0.09433498,0,0.3,0,0,0,0
638224245109832369,-1.790557,5.400365,-7.42443,-37.12909,42.31111,-35.73743,-56.96799,-0.4675641,6.980833,-72.28677,-8.521038,-36.90935,0,0,0,-3.609755,-96.33183,-52.87958,-125.3798,-110.0997,-86.82777,0.001067912,-0.1257102,0.09433498,0,0.3,0,0,0,0
638224245110170692,-0.7539188,5.400365,-7.42443,-34.05279,42.4576,-32.22166,-56.96799,-0.4675641,6.980833,-72.28677,-8.594284,-36.83611,0,0,0,-1.5201,-96.33183,-52.83317,-125.3798,-110.0997,-86.82777,0.001067912,-0.1257102,0.09433498,0,0.3,0,0,0,0
638224245110500587,1.602077,5.400365,-7.42443,-27.60722,42.60409,-24.97039,-56.96799,-0.4675641,6.980833,-72.28677,-8.594284,-36.90935,0,0,0,3.229885,-96.33183,-52.86833,-125.3798,-110.0997,-86.82777,0.001067912,-0.1257102,0.09433498,0,0.3,0,0,0,0
638224245110840465,4.287913,5.400365,-7.42443,-20.42919,42.23786,-17.49938,-56.96799,-0.4675641,6.980833,-72.28677,-8.594284,-36.90935,0,0,0,8.637752,-96.33183,-53.14654,-125.3798,-110.0997,-86.82777,0.001067912,-0.1257102,0.09433498,0,0.3,0,0,0,0
638224245111188374,5.583711,5.423743,-7.42443,-16.98667,42.01813,-14.42309,-56.96799,-0.4675641,6.980833,-72.36002,-8.521038,-36.90935,0,0,0,11.24026,-96.27766,-53.37644,-125.3798,-110.0997,-86.82777,0.001067912,-0.1257102,0.09433498,0,0.3,0,0,0,0
638224245111528273,8.340226,5.493878,-7.401083,-9.735395,41.21243,-8.124002,-56.96799,-0.4675641,6.980833,-72.36002,-8.594284,-36.83611,0,0,0,16.76209,-96.12218,-54.01208,-125.3798,-110.0997,-86.82777,0.001067912,-0.1257102,0.09433498,0,0.3,0,0,0,0
638224245111858158,10.86114,5.540634,-7.307694,-2.630615,39.96726,-2.484124,-56.96799,-0.4675641,6.980833,-72.28677,-8.521038,-36.83611,0,0,0,21.81356,-96.04168,-54.65857,-125.3798,-110.0997,-86.82777,0.001067912,-0.1257102,0.09433498,0,0.3,0,0,0,0
638224245112208068,11.9449,5.540634,-7.284348,0.4456824,39.30806,0.299192,-56.96799,-0.4675641,6.980833,-72.28677,-8.521038,-36.83611,0,0,0,23.97118,-96.04858,-55.03876,-125.3798,-110.0997,-86.82777,0.001067912,-0.1257102,0.09433498,0,0.3,0,0,0,0
638224245112547945,14.11242,5.72766,-7.237653,6.012315,37.84315,5.499599,-56.96799,-0.4675641,6.980833,-72.28677,-8.521038,-36.83611,0,0,0,28.25547,-95.62914,-55.96335,-125.3798,-110.0997,-86.82777,0.001067912,-0.1257102,0.09433498,0,0.3,0,0,0,0
638224245112897836,16.11501,6.171845,-7.050874,11.13948,36.23176,9.894309,-56.96799,-0.4675641,6.980833,-72.36002,-8.594284,-36.90935,0,0,0,32.25552,-94.65498,-56.70794,-125.3798,-110.0997,-86.82777,0.001067912,-0.1257102,0.09433498,0,0.3,0,0,0,0
638224245113227731,17.01029,6.452384,-6.957485,13.48332,35.35282,12.01842,-56.96799,-0.4675641,6.980833,-72.28677,-8.521038,-36.90935,0,0,0,34.03809,-94.03252,-57.08791,-125.3798,-110.0997,-86.82777,0.001067912,-0.1257102,0.09433498,0,0.3,0,0,0,0
638224245113567621,18.70661,7.130352,-6.74736,17.58505,33.59494,15.68068,-56.96799,-0.4675641,6.980833,-72.28677,-8.594284,-36.90935,0,0,0,37.41264,-92.52405,-57.8611,-125.3798,-110.0997,-86.82777,0.001067912,-0.1257102,0.09433498,0,0.3,0,0,0,0
638224245113907524,19.95529,8.06548,-6.607276,21.10082,31.69056,18.68373,-56.96799,-0.4675641,6.980833,-72.28677,-8.594284,-36.83611,0,0,0,39.82381,-90.40468,-58.66873,-125.3798,-110.0997,-86.82777,0.001067912,-0.1257102,0.09433498,0,0.3,0,0,0,0
638224245114247395,20.49717,9.211012,-6.560582,23.73765,29.93268,20.88108,-56.96799,-0.4675641,6.980833,-72.36002,-8.594284,-36.90935,0,0,0,40.75692,-87.78132,-59.32422,-125.3798,-110.0997,-86.82777,0.001067912,-0.1257102,0.09433498,0,0.3,0,0,0,0
638224245114597306,20.52073,9.912358,-6.560582,24.61659,29.05373,21.61354,-56.96799,-0.4675641,6.980833,-72.28677,-8.594284,-36.83611,0,0,0,40.7067,-86.17169,-59.59492,-125.3798,-110.0997,-86.82777,0.001067912,-0.1257102,0.09433498,0,0.3,0,0,0,0
638224245114927187,20.49717,11.6891,-6.560582,25.78851,27.44234,22.49248,-56.96799,-0.4675641,6.980833,-72.28677,-8.521038,-36.83611,0,0,0,40.39065,-82.10992,-60.30402,-125.3798,-110.0997,-86.82777,0.001067912,-0.1257102,0.09433498,0,0.3,0,0,0,0
638224245115277077,20.40293,13.88665,-6.443846,26.22798,25.68446,23.00519,-56.96799,-0.4675641,6.980833,-72.36002,-8.594284,-36.90935,0,0,0,39.91235,-77.15328,-61.0457,-125.3798,-110.0997,-86.82777,0.001067912,-0.1257102,0.09433498,0,0.3,0,0,0,0
638224245115616968,20.28513,15.1257,-6.327109,26.30123,24.80551,23.15168,-56.96799,-0.4675641,6.980833,-72.28677,-8.521038,-36.90935,0,0,0,39.53484,-74.39174,-61.38813,-125.3798,-110.0997,-86.82777,0.001067912,-0.1257102,0.09433498,0,0.3,0,0,0,0
638224245115956852,19.97885,17.74406,-5.906858,25.935,23.04763,23.29818,-56.96799,-0.4675641,6.980833,-72.36002,-8.521038,-36.90935,0,0,0,38.70574,-68.6515,-61.88456,-125.3798,-110.0997,-86.82777,0.001067912,-0.1257102,0.09433498,0,0.3,0,0,0,0
638224245116296763,19.55477,20.38579,-5.276482,25.42229,21.28975,23.37142,-56.96799,-0.4675641,6.980833,-72.28677,-8.521038,-36.83611,0,0,0,37.73326,-62.98384,-62.11737,-125.3798,-110.0997,-86.82777,0.001067912,-0.1257102,0.09433498,0,0.3,0,0,0,0
638224245116626637,19.34273,21.67159,-4.879579,24.98281,20.4108,23.44467,-56.96799,-0.4675641,6.980833,-72.28677,-8.594284,-36.90935,0,0,0,37.28896,-60.2724,-62.12347,-125.3798,-110.0997,-86.82777,0.001067912,-0.1257102,0.09433498,0,0.3,0,0,0,0
638224245116966545,18.89509,24.28995,-3.852299,23.88414,18.65292,23.00519,-56.96799,-0.4675641,6.980833,-72.28677,-8.594284,-36.90935,0,0,0,36.45949,-54.84458,-61.83074,-125.3798,-110.0997,-86.82777,0.001067912,-0.1257102,0.09433498,0,0.3,0,0,0,0
638224245117306429,18.37677,26.79142,-2.614894,22.93195,17.04152,21.83327,-56.96799,-0.4675641,6.980833,-72.36002,-8.521038,-36.83611,0,0,0,35.60958,-49.75445,-61.15855,-125.3798,-110.0997,-86.82777,0.001067912,-0.1257102,0.09433498,0,0.3,0,0,0,0
638224245117646311,17.43437,28.96559,-1.400836,22.05301,15.28364,20.5881,-56.96799,-0.4675641,6.980833,-72.28677,-8.594284,-36.83611,0,0,0,33.97894,-45.38083,-60.15058,-125.3798,-110.0997,-86.82777,0.001067912,-0.1257102,0.09433498,0,0.3,0,0,0,0
638224245117976221,16.77469,29.85397,-0.8638488,21.32055,14.47795,20.00214,-56.96799,-0.4675641,6.980833,-72.28677,-8.521038,-36.90935,0,0,0,32.79856,-43.6044,-59.54226,-125.3798,-110.0997,-86.82777,0.001067912,-0.1257102,0.09433498,0,0.3,0,0,0,0
638224245118336115,15.31397,31.46706,0.2568199,19.78241,12.9398,18.75698,-56.96799,-0.4675641,6.980833,-72.28677,-8.521038,-36.83611,0,0,0,30.19744,-40.38885,-58.07245,-125.3798,-110.0997,-86.82777,0.001067912,-0.1257102,0.09433498,0,0.3,0,0,0,0
638224245118675995,13.85326,32.98664,1.610961,17.95128,11.3284,17.80479,-56.96799,-0.4675641,6.980833,-72.28677,-8.594284,-36.83611,0,0,0,27.6794,-37.34575,-56.11013,-125.3798,-110.0997,-86.82777,0.001067912,-0.1257102,0.09433498,0,0.3,0,0,0,0
638224245119015874,13.28782,33.68799,2.334727,17.07234,10.52271,17.43856,-56.96799,-0.4675641,6.980833,-72.28677,-8.594284,-36.90935,0,0,0,26.75116,-35.92406,-55.07707,-125.3798,-110.0997,-86.82777,0.001067912,-0.1257102,0.09433498,0,0.3,0,0,0,0
638224245119355961,12.34542,35.37122,4.179161,15.24121,8.471841,16.92585,-56.96799,-0.4675641,6.980833,-72.28677,-8.594284,-36.83611,0,0,0,25.32604,-32.45289,-52.63506,-125.3798,-110.0997,-86.82777,0.001067912,-0.1257102,0.09433498,0,0.3,0,0,0,0
638224245119695677,11.75642,37.14796,6.23372,13.7763,6.201241,16.55962,-56.96799,-0.4675641,6.980833,-72.28677,-8.521038,-36.90935,0,0,0,24.6071,-28.68474,-50.11327,-125.3798,-110.0997,-86.82777,0.001067912,-0.1257102,0.09433498,0,0.3,0,0,0,0
638224245120035570,11.45014,38.99485,8.358321,12.75087,3.857395,16.12015,-56.96799,-0.4675641,6.980833,-72.36002,-8.594284,-36.83611,0,0,0,24.42216,-24.67306,-47.77428,-125.3798,-110.0997,-86.82777,0.001067912,-0.1257102,0.09433498,0,0.3,0,0,0,0
638224245120385449,11.3559,39.95335,9.432296,12.38465,2.612227,15.82717,-56.96799,-0.4675641,6.980833,-72.28677,-8.594284,-36.83611,0,0,0,24.4308,-22.56458,-46.70357,-125.3798,-110.0997,-86.82777,0.001067912,-0.1257102,0.09433498,0,0.3,0,0,0,0
638224245120725338,11.2381,41.8236,11.60359,11.87193,0.04864649,15.09472,-56.96799,-0.4675641,6.980833,-72.28677,-8.594284,-36.83611,0,0,0,24.59363,-18.35163,-44.57516,-125.3798,-110.0997,-86.82777,0.001067912,-0.1257102,0.09433498,0,0.3,0,0,0,0
638224245121065232,11.21454,43.90427,13.86828,11.5057,-2.58818,14.21577,-56.96799,-0.4675641,6.980833,-72.36002,-8.594284,-36.83611,0,0,0,24.9019,-13.64047,-42.75351,-125.3798,-110.0997,-86.82777,0.001067912,-0.1257102,0.09433498,0,0.3,0,0,0,0
638224245121405127,11.21454,44.90953,15.01229,11.35921,-3.906592,13.7763,-56.96799,-0.4675641,6.980833,-72.28677,-8.521038,-36.83611,0,0,0,25.08496,-11.30512,-41.8302,-125.3798,-110.0997,-86.82777,0.001067912,-0.1257102,0.09433498,0,0.3,0,0,0,0
638224245121745014,11.21454,46.94343,17.27698,11.21272,-6.836399,12.89736,-56.96799,-0.4675641,6.980833,-72.36002,-8.521038,-36.90935,0,0,0,25.40817,-6.547098,-40.20005,-125.3798,-110.0997,-86.82777,0.001067912,-0.1257102,0.09433498,0,0.3,0,0,0,0
638224245122084906,11.3559,48.93058,19.54166,11.06623,-9.399981,12.09166,-56.96799,-0.4675641,6.980833,-72.36002,-8.594284,-36.90935,0,0,0,26.03289,-1.784394,-38.72643,-125.3798,-110.0997,-86.82777,0.001067912,-0.1257102,0.09433498,0,0.3,0,0,0,0
638224245122424941,11.52082,49.93584,20.70902,10.99299,-10.64515,11.79868,-56.96799,-0.4675641,6.980833,-72.36002,-8.594284,-36.90935,0,0,0,26.56041,0.6719449,-38.04379,-125.3798,-110.0997,-86.82777,0.001067912,-0.1257102,0.09433498,0,0.3,0,0,0,0
638224245122774685,11.89778,51.92299,22.99706,11.13948,-13.13548,10.99299,-56.96799,-0.4675641,6.980833,-72.28677,-8.521038,-36.90935,0,0,0,27.69582,5.568792,-36.89866,-125.3798,-110.0997,-86.82777,0.001067912,-0.1257102,0.09433498,0,0.3,0,0,0,0
638224245123114574,12.36898,53.86338,24.98158,11.57895,-15.62582,9.894309,-56.96799,-0.4675641,6.980833,-72.28677,-8.594284,-36.83611,0,0,0,28.90834,10.17095,-36.52707,-125.3798,-110.0997,-86.82777,0.001067912,-0.1257102,0.09433498,0,0.3,0,0,0,0
638224245123464476,13.0051,55.71026,26.77931,12.3114,-17.96966,8.575896,-56.96799,-0.4675641,6.980833,-72.28677,-8.521038,-36.83611,0,0,0,30.42691,14.47564,-36.61006,-125.3798,-110.0997,-86.82777,0.001067912,-0.1257102,0.09433498,0,0.3,0,0,0,0
638224245123794362,13.38206,56.64539,27.59647,12.82412,-18.92185,7.843444,-56.96799,-0.4675641,6.980833,-72.28677,-8.594284,-36.90935,0,0,0,31.26605,16.55602,-36.92632,-125.3798,-110.0997,-86.82777,0.001067912,-0.1257102,0.09433498,0,0.3,0,0,0,0
638224245124134245,14.13598,58.53902,29.02065,13.99604,-20.60649,6.012315,-56.96799,-0.4675641,6.980833,-72.36002,-8.594284,-36.90935,0,0,0,32.79662,20.48976,-38.1273,-125.3798,-110.0997,-86.82777,0.001067912,-0.1257102,0.09433498,0,0.3,0,0,0,0
638224245124474159,14.79566,60.50279,30.46818,15.09472,-21.77841,4.400921,-56.96799,-0.4675641,6.980833,-72.28677,-8.521038,-36.83611,0,0,0,34.03488,24.47931,-39.49359,-125.3798,-110.0997,-86.82777,0.001067912,-0.1257102,0.09433498,0,0.3,0,0,0,0
638224245124804040,14.98414,61.50805,31.19195,15.53419,-22.21789,3.66847,-56.96799,-0.4675641,6.980833,-72.36002,-8.594284,-36.90935,0,0,0,34.30346,26.47667,-40.18579,-125.3798,-110.0997,-86.82777,0.001067912,-0.1257102,0.09433498,0,0.3,0,0,0,0
638224245125143927,15.03126,63.56533,32.38266,16.33988,-23.38981,2.276812,-56.96799,-0.4675641,6.980833,-72.28677,-8.521038,-36.90935,0,0,0,33.91798,30.14452,-42.04202,-125.3798,-110.0997,-86.82777,0.001067912,-0.1257102,0.09433498,0,0.3,0,0,0,0
638224245125493818,14.81922,65.38884,33.22316,16.55962,-24.41524,1.031644,-56.96799,-0.4675641,6.980833,-72.28677,-8.594284,-36.90935,0,0,0,32.89133,33.03282,-44.03012,-125.3798,-110.0997,-86.82777,0.001067912,-0.1257102,0.09433498,0,0.3,0,0,0,0
638224245125833849,14.6543,66.25382,33.43328,16.55962,-24.85471,0.4456824,-56.96799,-0.4675641,6.980833,-72.28677,-8.594284,-36.83611,0,0,0,32.17211,34.12607,-45.31746,-125.3798,-110.0997,-86.82777,0.001067912,-0.1257102,0.09433498,0,0.3,0,0,0,0
638224245126173600,14.11242,67.8903,33.55002,16.0469,-25.44067,-0.3600145,-56.96799,-0.4675641,6.980833,-72.36002,-8.594284,-36.90935,0,0,0,30.20708,35.75972,-48.20078,-125.3798,-110.0997,-86.82777,0.001067912,-0.1257102,0.09433498,0,0.3,0,0,0,0
638224245126513495,13.26426,69.5034,33.52667,14.72849,-25.73365,-0.57975,-56.96799,-0.4675641,6.980833,-72.28677,-8.521038,-36.83611,0,0,0,27.61234,37.09361,-51.21524,-125.3798,-110.0997,-86.82777,0.001067912,-0.1257102,0.09433498,0,0.3,0,0,0,0
638224245126863382,12.32186,71.02299,33.52667,12.75087,-25.88014,-0.3600145,-56.96799,-0.4675641,6.980833,-72.28677,-8.594284,-36.83611,0,0,0,24.97169,38.28791,-54.02907,-125.3798,-110.0997,-86.82777,0.001067912,-0.1257102,0.09433498,0,0.3,0,0,0,0
638224245127203278,11.77998,71.79446,33.52667,11.72544,-25.88014,-0.2867693,-56.96799,-0.4675641,6.980833,-72.28677,-8.594284,-36.83611,0,0,0,23.54195,38.86035,-55.464,-125.3798,-110.0997,-86.82777,0.001067912,-0.1257102,0.09433498,0,0.3,0,0,0,0
638224245127553168,10.46062,73.24391,33.36324,9.235103,-25.95339,-0.140279,-56.96799,-0.4675641,6.980833,-72.36002,-8.594284,-36.83611,0,0,0,20.29469,39.66402,-58.42807,-125.3798,-110.0997,-86.82777,0.001067912,-0.1257102,0.09433498,0,0.3,0,0,0,0
638224245127893052,9.164824,73.94525,32.47605,6.451786,-25.73365,0.4456824,-56.96799,-0.4675641,6.980833,-72.28677,-8.521038,-36.83611,0,0,0,17.27826,39.00288,-61.25426,-125.3798,-110.0997,-86.82777,0.001067912,-0.1257102,0.09433498,0,0.3,0,0,0,0
638224245128242948,8.340226,73.92188,30.84174,3.66847,-24.78147,1.104889,-56.96799,-0.4675641,6.980833,-72.28677,-8.521038,-36.83611,0,0,0,15.27318,36.99148,-64.16826,-125.3798,-110.0997,-86.82777,0.001067912,-0.1257102,0.09433498,0,0.3,0,0,0,0
638224245128582835,8.104627,73.80499,30.09463,2.569792,-24.12226,1.324624,-56.96799,-0.4675641,6.980833,-72.36002,-8.521038,-36.83611,0,0,0,14.67021,36.03419,-65.33135,-125.3798,-110.0997,-86.82777,0.001067912,-0.1257102,0.09433498,0,0.3,0,0,0,0
638224245128912726,7.845467,73.24391,28.39028,0.738663,-22.65736,1.617605,-56.96799,-0.4675641,6.980833,-72.28677,-8.594284,-36.90935,0,0,0,13.90258,33.72615,-67.4542,-125.3798,-110.0997,-86.82777,0.001067912,-0.1257102,0.09433498,0,0.3,0,0,0,0
638224245129252618,7.633427,72.19189,26.54584,-0.3600145,-20.97272,1.69085,-56.96799,-0.4675641,6.980833,-72.28677,-8.594284,-36.90935,0,0,0,13.33373,31.01883,-68.86115,-125.3798,-110.0997,-86.82777,0.001067912,-0.1257102,0.09433498,0,0.3,0,0,0,0
638224245129592517,7.492068,71.46716,25.49521,-0.8727306,-19.80079,1.764095,-56.96799,-0.4675641,6.980833,-72.28677,-8.521038,-36.83611,0,0,0,13.01068,29.42015,-69.41822,-125.3798,-110.0997,-86.82777,0.001067912,-0.1257102,0.09433498,0,0.3,0,0,0,0
638224245129932413,7.374268,69.69042,23.30057,-1.751673,-17.60344,1.764095,-56.96799,-0.4675641,6.980833,-72.28677,-8.594284,-36.83611,0,0,0,12.71078,25.93546,-70.13712,-125.3798,-110.0997,-86.82777,0.001067912,-0.1257102,0.09433498,0,0.3,0,0,0,0
638224245130270175,7.185789,67.4695,20.91915,-2.410879,-15.18635,1.764095,-56.96799,-0.4675641,6.980833,-72.36002,-8.594284,-36.83611,0,0,0,12.34724,21.96189,-70.41621,-125.3798,-110.0997,-86.82777,0.001067912,-0.1257102,0.09433498,0,0.3,0,0,0,0
638224245130610070,6.950189,66.16032,19.6117,-2.630615,-14.01443,1.764095,-56.96799,-0.4675641,6.980833,-72.36002,-8.594284,-36.90935,0,0,0,11.93793,19.70835,-70.41956,-125.3798,-110.0997,-86.82777,0.001067912,-0.1257102,0.09433498,0,0.3,0,0,0,0
638224245130949958,6.00779,63.2848,16.85673,-3.070086,-11.15786,1.910586,-56.96799,-0.4675641,6.980833,-72.28677,-8.594284,-36.83611,0,0,0,10.32162,14.84484,-70.27457,-125.3798,-110.0997,-86.82777,0.001067912,-0.1257102,0.09433498,0,0.3,0,0,0,0
638224245131289848,4.028753,60.47941,14.59204,-3.729292,-7.861832,2.130321,-56.96799,-0.4675641,6.980833,-72.28677,-8.594284,-36.83611,0,0,0,6.976662,10.33964,-69.29348,-125.3798,-110.0997,-86.82777,0.001067912,-0.1257102,0.09433498,0,0.3,0,0,0,0
638224245131639749,0.9188384,58.09484,13.30794,-5.120951,-4.85878,2.643037,-56.96799,-0.4675641,6.980833,-72.28677,-8.594284,-36.90935,0,0,0,1.62241,6.784872,-67.19043,-125.3798,-110.0997,-86.82777,0.001067912,-0.1257102,0.09433498,0,0.3,0,0,0,0
638224245131979628,-1.036638,57.18309,13.07447,-6.439363,-3.613612,2.936018,-56.96799,-0.4675641,6.980833,-72.28677,-8.521038,-36.90935,0,0,0,-1.853247,5.525075,-65.93082,-125.3798,-110.0997,-86.82777,0.001067912,-0.1257102,0.09433498,0,0.3,0,0,0,0
638224245132319520,-5.041832,55.78039,13.09782,-9.808641,-1.709238,4.107941,-56.96799,-0.4675641,6.980833,-72.36002,-8.521038,-36.90935,0,0,0,-9.246223,3.734691,-63.54652,-125.3798,-110.0997,-86.82777,0.001067912,-0.1257102,0.09433498,0,0.3,0,0,0,0
638224245132669409,-8.434465,54.9154,13.56476,-14.20335,-0.3175794,5.206618,-56.96799,-0.4675641,6.980833,-72.36002,-8.521038,-36.83611,0,0,0,-15.8301,2.840609,-61.59317,-125.3798,-110.0997,-86.82777,0.001067912,-0.1257102,0.09433498,0,0.3,0,0,0,0
638224245132999303,-9.777385,54.75175,13.86828,-16.47395,0.268382,5.719335,-56.96799,-0.4675641,6.980833,-72.28677,-8.594284,-36.83611,0,0,0,-18.49714,2.788744,-61.01037,-125.3798,-110.0997,-86.82777,0.001067912,-0.1257102,0.09433498,0,0.3,0,0,0,0
638224245133339193,-11.7093,54.72837,14.33522,-20.50244,1.074079,6.305296,-56.96799,-0.4675641,6.980833,-72.28677,-8.521038,-36.83611,0,0,0,-22.32818,3.022118,-60.61938,-125.3798,-110.0997,-86.82777,0.001067912,-0.1257102,0.09433498,0,0.3,0,0,0,0
638224245133669089,-13.31138,54.96216,14.38192,-23.43224,1.733285,6.598277,-56.96799,-0.4675641,6.980833,-72.36002,-8.594284,-36.90935,0,0,0,-25.25318,3.362356,-61.61619,-125.3798,-110.0997,-86.82777,0.001067912,-0.1257102,0.09433498,0,0.3,0,0,0,0
638224245134018990,-14.23022,55.21932,14.38192,-24.60417,2.026266,6.671522,-56.96799,-0.4675641,6.980833,-72.36002,-8.594284,-36.83611,0,0,0,-26.84088,3.704872,-62.51063,-125.3798,-110.0997,-86.82777,0.001067912,-0.1257102,0.09433498,0,0.3,0,0,0,0
638224245134358869,-16.42129,55.92066,14.38192,-26.87477,2.538982,6.818012,-56.96799,-0.4675641,6.980833,-72.36002,-8.521038,-36.83611,0,0,0,-30.48711,4.627773,-64.90563,-125.3798,-110.0997,-86.82777,0.001067912,-0.1257102,0.09433498,0,0.3,0,0,0,0
638224245134698778,-18.98933,56.66877,14.40526,-29.3651,2.905208,6.891257,-56.96799,-0.4675641,6.980833,-72.28677,-8.521038,-36.83611,0,0,0,-34.6372,5.607465,-67.69536,-125.3798,-110.0997,-86.82777,0.001067912,-0.1257102,0.09433498,0,0.3,0,0,0,0
638224245135038667,-21.25109,57.62727,14.42861,-32.14842,3.124943,6.891257,-56.96799,-0.4675641,6.980833,-72.28677,-8.521038,-36.83611,0,0,0,-37.92236,6.831136,-70.83828,-125.3798,-110.0997,-86.82777,0.001067912,-0.1257102,0.09433498,0,0.3,0,0,0,0
638224245135368554,-22.28772,58.2351,14.42861,-33.39359,3.344679,6.891257,-56.96799,-0.4675641,6.980833,-72.28677,-8.594284,-36.83611,0,0,0,-39.22565,7.582233,-72.64957,-125.3798,-110.0997,-86.82777,0.001067912,-0.1257102,0.09433498,0,0.3,0,0,0,0
638224245135708431,-24.4788,59.49752,14.45196,-35.81068,3.710905,6.818012,-56.96799,-0.4675641,6.980833,-72.28677,-8.521038,-36.90935,0,0,0,-41.83555,9.114889,-76.46017,-125.3798,-110.0997,-86.82777,0.001067912,-0.1257102,0.09433498,0,0.3,0,0,0,0
638224245136088310,-27.02328,60.7132,14.45196,-38.30101,4.077131,6.891257,-56.96799,-0.4675641,6.980833,-72.28677,-8.594284,-36.90935,0,0,0,-44.75929,10.52502,-80.59309,-125.3798,-110.0997,-86.82777,0.001067912,-0.1257102,0.09433498,0,0.3,0,0,0,0
638224245136428334,-28.27195,61.18076,14.45196,-39.61942,4.296866,6.818012,-56.96799,-0.4675641,6.980833,-72.28677,-8.594284,-36.83611,0,0,0,-46.21047,11.05348,-82.42712,-125.3798,-110.0997,-86.82777,0.001067912,-0.1257102,0.09433498,0,0.3,0,0,0,0
638224245136768094,-31.33475,61.90548,14.63874,-42.47599,4.956073,6.305296,-56.96799,-0.4675641,6.980833,-72.36002,-8.594284,-36.83611,0,0,0,-50.183,11.96636,-85.92612,-125.3798,-110.0997,-86.82777,0.001067912,-0.1257102,0.09433498,0,0.3,0,0,0,0
638224245137108123,-35.05722,62.25616,14.98894,-46.13824,5.688524,5.279863,-56.96799,-0.4675641,6.980833,-72.28677,-8.521038,-36.83611,0,0,0,-55.46677,12.5569,-89.30338,-125.3798,-110.0997,-86.82777,0.001067912,-0.1257102,0.09433498,0,0.3,0,0,0,0
