zeyangz2/DNN_classification_different_people_hand/data_by_names/Zeyang/zeyang_right_10.csv
Timestamp,Therapist joint angle 0,Therapist joint angle 1,Therapist joint angle 2,Therapist joint angle 3,Therapist joint angle 4,Therapist joint angle 5,Patient joint angle 0,Patient joint angle 1,Patient joint angle 2,Patient joint angle 3,Patient joint angle 4,Patient joint angle 5,Virtual joint angle 0,Virtual joint angle 1,Virtual joint angle 2,Therapist position x,Therapist position y,Therapist position z,Patient position x,Patient position y,Patient position z,Virtual position x,Virtual position y,Virtual position z,Assistive Force, Obstacle Force Magnitude, Therapist Constant Force, Patient Constant Force, Recovery Factor, Assistance Level
638224215305756923,0,0,0,0,0,0,0,0,0,0,0,0,0,0,0,0,0,0,0,0,0,0,0,0,0,0.3,0,0,0,0
638224215305846893,39.08598,-0.9585064,-4.365939,29.15779,-38.99103,16.41313,-16.98673,-0.4441859,-4.295897,-61.37324,-7.056135,34.65118,0,0,0,77.66319,-111.8438,-72.73767,-36.03881,-110.6591,-50.37467,0.001067912,-0.1257102,0.09433498,0,0.3,0,0,0,0
638224215306186776,39.08598,-0.9585064,-4.365939,29.15779,-38.99103,16.41313,-16.98673,-0.4441859,-4.295897,-61.37324,-7.056135,34.65118,0,0,0,77.66319,-111.8438,-72.73767,-36.03881,-110.6591,-50.37467,0.001067912,-0.1257102,0.09433498,0,0.3,0,0,0,0
638224215306526672,39.08598,-0.9585064,-4.365939,29.15779,-38.99103,16.48637,-16.98673,-0.4441859,-4.295897,-61.37324,-7.056135,34.65118,0,0,0,77.66319,-111.8438,-72.73767,-36.03881,-110.6591,-50.37467,0.001067912,-0.1257102,0.09433498,0,0.3,0,0,0,0
638224215306866571,39.08598,-0.9585064,-4.365939,29.15779,-38.99103,16.48637,-16.98673,-0.4441859,-4.295897,-61.37324,-7.056135,34.65118,0,0,0,77.66319,-111.8438,-72.73767,-36.03881,-110.6591,-50.37467,0.001067912,-0.1257102,0.09433498,0,0.3,0,0,0,0
638224215307206466,39.08598,-0.9585064,-4.365939,29.15779,-38.99103,16.41313,-16.98673,-0.4441859,-4.295897,-61.37324,-6.98289,34.65118,0,0,0,77.66319,-111.8438,-72.73767,-36.03881,-110.6591,-50.37467,0.001067912,-0.1257102,0.09433498,0,0.3,0,0,0,0
638224215307556345,39.08598,-0.9585064,-4.365939,29.15779,-38.99103,16.41313,-16.98673,-0.4441859,-4.295897,-61.37324,-7.056135,34.57793,0,0,0,77.66319,-111.8438,-72.73767,-36.03881,-110.6591,-50.37467,0.001067912,-0.1257102,0.09433498,0,0.3,0,0,0,0
638224215307906240,39.08598,-0.9585064,-4.365939,29.15779,-38.99103,16.48637,-16.98673,-0.4441859,-4.295897,-61.37324,-6.98289,34.65118,0,0,0,77.66319,-111.8438,-72.73767,-36.03881,-110.6591,-50.37467,0.001067912,-0.1257102,0.09433498,0,0.3,0,0,0,0
638224215308236136,39.08598,-0.9585064,-4.365939,29.15779,-38.99103,16.48637,-16.98673,-0.4441859,-4.295897,-61.29999,-7.056135,34.57793,0,0,0,77.66319,-111.8438,-72.73767,-36.03881,-110.6591,-50.37467,0.001067912,-0.1257102,0.09433498,0,0.3,0,0,0,0
638224215308576032,39.08598,-0.9585064,-4.365939,29.15779,-38.91778,16.48637,-16.98673,-0.4441859,-4.295897,-61.37324,-7.056135,34.65118,0,0,0,77.66319,-111.8438,-72.73767,-36.03881,-110.6591,-50.37467,0.001067912,-0.1257102,0.09433498,0,0.3,0,0,0,0
638224215308925915,39.08598,-0.9585064,-4.365939,29.15779,-38.91778,16.48637,-16.98673,-0.4441859,-4.295897,-61.37324,-6.98289,34.65118,0,0,0,77.66319,-111.8438,-72.73767,-36.03881,-110.6591,-50.37467,0.001067912,-0.1257102,0.09433498,0,0.3,0,0,0,0
638224215309265799,39.08598,-0.9585064,-4.365939,29.15779,-38.99103,16.48637,-16.98673,-0.4441859,-4.295897,-61.37324,-7.056135,34.65118,0,0,0,77.66319,-111.8438,-72.73767,-36.03881,-110.6591,-50.37467,0.001067912,-0.1257102,0.09433498,0,0.3,0,0,0,0
638224215309605689,39.08598,-0.9585064,-4.365939,29.15779,-38.99103,16.41313,-16.98673,-0.4441859,-4.295897,-61.37324,-6.98289,34.65118,0,0,0,77.66319,-111.8438,-72.73767,-36.03881,-110.6591,-50.37467,0.001067912,-0.1257102,0.09433498,0,0.3,0,0,0,0
638224215309945593,39.08598,-0.9585064,-4.365939,29.15779,-38.99103,16.48637,-16.98673,-0.4441859,-4.295897,-61.37324,-7.056135,34.65118,0,0,0,77.66319,-111.8438,-72.73767,-36.03881,-110.6591,-50.37467,0.001067912,-0.1257102,0.09433498,0,0.3,0,0,0,0
638224215310275478,39.08598,-0.9585064,-4.365939,29.15779,-38.99103,16.48637,-16.98673,-0.4441859,-4.295897,-61.37324,-7.056135,34.65118,0,0,0,77.66319,-111.8438,-72.73767,-36.03881,-110.6591,-50.37467,0.001067912,-0.1257102,0.09433498,0,0.3,0,0,0,0
638224215310615380,39.08598,-0.9585064,-4.365939,29.15779,-38.99103,16.48637,-16.98673,-0.4441859,-4.295897,-61.37324,-6.98289,34.65118,0,0,0,77.66319,-111.8438,-72.73767,-36.03881,-110.6591,-50.37467,0.001067912,-0.1257102,0.09433498,0,0.3,0,0,0,0
638224215310965249,39.08598,-0.9585064,-4.365939,29.15779,-38.99103,16.48637,-16.98673,-0.4441859,-4.295897,-61.37324,-6.98289,34.57793,0,0,0,77.66319,-111.8438,-72.73767,-36.03881,-110.6591,-50.37467,0.001067912,-0.1257102,0.09433498,0,0.3,0,0,0,0
638224215311305149,39.08598,-0.9585064,-4.365939,29.15779,-38.99103,16.48637,-16.98673,-0.4441859,-4.295897,-61.37324,-6.98289,34.57793,0,0,0,77.66319,-111.8438,-72.73767,-36.03881,-110.6591,-50.37467,0.001067912,-0.1257102,0.09433498,0,0.3,0,0,0,0
638224215311645029,39.08598,-0.9585064,-4.365939,29.15779,-38.99103,16.48637,-16.98673,-0.4441859,-4.295897,-61.29999,-6.98289,34.57793,0,0,0,77.66319,-111.8438,-72.73767,-36.03881,-110.6591,-50.37467,0.001067912,-0.1257102,0.09433498,0,0.3,0,0,0,0
638224215311974947,39.06242,-0.9351282,-4.319244,29.08454,-38.99103,16.48637,-16.98673,-0.4441859,-4.295897,-61.37324,-7.056135,34.65118,0,0,0,77.69271,-111.7976,-72.6209,-36.03881,-110.6591,-50.37467,0.001067912,-0.1257102,0.09433498,0,0.3,0,0,0,0
638224215312324825,38.7797,-0.9351282,-4.202508,27.25341,-39.21077,16.70611,-16.98673,-0.4441859,-4.295897,-61.29999,-6.98289,34.57793,0,0,0,77.38911,-111.8178,-72.02749,-36.03881,-110.6591,-50.37467,0.001067912,-0.1257102,0.09433498,0,0.3,0,0,0,0
638224215312654729,38.68546,-0.9351282,-4.179161,25.42229,-39.28401,16.26664,-16.98673,-0.4441859,-4.295897,-61.37324,-7.056135,34.57793,0,0,0,77.26444,-111.8217,-71.85802,-36.03881,-110.6591,-50.37467,0.001067912,-0.1257102,0.09433498,0,0.3,0,0,0,0
638224215312994622,38.37918,-0.9818845,-4.155813,19.56267,-38.99103,15.82717,-16.98673,-0.4441859,-4.295897,-61.37324,-6.98289,34.65118,0,0,0,76.78005,-111.9345,-71.40533,-36.03881,-110.6591,-50.37467,0.001067912,-0.1257102,0.09433498,0,0.3,0,0,0,0
638224215313334518,38.33206,-0.9818845,-4.109118,14.43551,-38.40507,14.14253,-16.98673,-0.4441859,-4.295897,-61.37324,-7.056135,34.65118,0,0,0,76.76752,-111.9423,-71.25719,-36.03881,-110.6591,-50.37467,0.001067912,-0.1257102,0.09433498,0,0.3,0,0,0,0
638224215313674395,38.33206,-0.9818845,-4.109118,12.89736,-38.18533,13.55657,-16.98673,-0.4441859,-4.295897,-61.37324,-6.98289,34.65118,0,0,0,76.76752,-111.9423,-71.25719,-36.03881,-110.6591,-50.37467,0.001067912,-0.1257102,0.09433498,0,0.3,0,0,0,0
638224215314024284,38.35562,-0.9818845,-4.132466,10.99299,-37.89235,13.1171,-16.98673,-0.4441859,-4.295897,-61.37324,-7.056135,34.57793,0,0,0,76.77381,-111.9384,-71.33126,-36.03881,-110.6591,-50.37467,0.001067912,-0.1257102,0.09433498,0,0.3,0,0,0,0
638224215314364173,38.35562,-0.9818845,-4.155813,8.50265,-36.3542,11.94517,-16.98673,-0.4441859,-4.295897,-61.37324,-6.98289,34.57793,0,0,0,76.74018,-111.9345,-71.37376,-36.03881,-110.6591,-50.37467,0.001067912,-0.1257102,0.09433498,0,0.3,0,0,0,0
638224215314714064,38.35562,-0.9585064,-4.155813,6.305296,-33.13141,10.33378,-16.98673,-0.4441859,-4.295897,-61.37324,-6.98289,34.65118,0,0,0,76.74075,-111.8801,-71.37304,-36.03881,-110.6591,-50.37467,0.001067912,-0.1257102,0.09433498,0,0.3,0,0,0,0
638224215315063953,38.35562,-0.9585064,-4.155813,5.426354,-30.93406,9.161857,-16.98673,-0.4441859,-4.295897,-61.37324,-6.98289,34.65118,0,0,0,76.74075,-111.8801,-71.37304,-36.03881,-110.6591,-50.37467,0.001067912,-0.1257102,0.09433498,0,0.3,0,0,0,0
638224215315403850,38.35562,-0.9585064,-4.155813,4.913638,-26.39286,7.770199,-16.98673,-0.4441859,-4.295897,-61.29999,-7.056135,34.57793,0,0,0,76.74075,-111.8801,-71.37304,-36.03881,-110.6591,-50.37467,0.001067912,-0.1257102,0.09433498,0,0.3,0,0,0,0
638224215315743744,38.37918,-0.7247244,-4.319244,4.986883,-20.67974,3.888205,-16.98673,-0.4441859,-4.295897,-61.37324,-7.056135,34.57793,0,0,0,76.55007,-111.3079,-71.6957,-36.03881,-110.6591,-50.37467,0.001067912,-0.1257102,0.09433498,0,0.3,0,0,0,0
638224215316083631,38.40274,-0.2571602,-4.809536,4.913638,-17.60344,-0.8727306,-16.98673,-0.4441859,-4.295897,-61.37324,-7.056135,34.65118,0,0,0,75.88902,-110.129,-72.61128,-36.03881,-110.6591,-50.37467,0.001067912,-0.1257102,0.09433498,0,0.3,0,0,0,0
638224215316421447,38.40274,0.7948589,-5.650038,3.81496,-10.64515,-13.54414,-16.98673,-0.4441859,-4.295897,-61.37324,-7.056135,34.57793,0,0,0,74.6718,-107.5023,-74.14688,-36.03881,-110.6591,-50.37467,0.001067912,-0.1257102,0.09433498,0,0.3,0,0,0.000282658,0
638224215316771341,38.44986,1.262423,-5.416566,1.837341,-3.027651,-25.11688,-16.98673,-0.4441859,-4.295897,-61.37324,-7.056135,34.65118,0,0,0,75.07342,-106.4666,-73.80005,-36.03881,-110.6591,-50.37467,0.001067912,-0.1257102,0.09433498,0,0.3,0,0,0.000853129,0
638224215317111226,38.59122,1.519583,-5.299829,0.1527017,4.296866,-30.46378,-16.98673,-0.4441859,-4.295897,-61.37324,-6.98289,34.65118,0,0,0,75.46613,-105.8937,-73.78548,-36.03881,-110.6591,-50.37467,0.001067912,-0.1257102,0.09433498,0,0.3,0,0,0.001271862,0
638224215317451121,38.73257,1.753365,-5.323177,-0.3600145,7.080183,-30.83001,-16.98673,-0.4441859,-4.295897,-61.37324,-6.98289,34.65118,0,0,0,75.65563,-105.3448,-74.02629,-36.03881,-110.6591,-50.37467,0.001067912,-0.1257102,0.09433498,0,0.3,0,0,0.001416462,0
638224215317791003,38.73257,1.729987,-5.486608,-2.044653,12.20734,-30.61027,-16.98673,-0.4441859,-4.295897,-61.37324,-6.98289,34.57793,0,0,0,75.41973,-105.3633,-74.3204,-36.03881,-110.6591,-50.37467,0.001067912,-0.1257102,0.09433498,0,0.3,0,0,0.001709232,0
638224215318130904,38.73257,1.729987,-6.537234,-4.681479,15.94285,-29.80457,-16.98673,-0.4441859,-4.295897,-61.37324,-6.98289,34.57793,0,0,0,73.89822,-105.1072,-76.21734,-36.03881,-110.6591,-50.37467,0.001067912,-0.1257102,0.09433498,0,0.3,0,0,0.002219761,0
638224215318500768,38.70901,1.729987,-7.354388,-6.512609,19.01915,-27.68046,-16.98673,-0.4441859,-4.295897,-61.37324,-6.98289,34.65118,0,0,0,72.67973,-104.8772,-77.66013,-36.03881,-110.6591,-50.37467,0.001067912,-0.1257102,0.09433498,0,0.3,0,0,0.00294686,0
638224215318840668,38.68546,1.729987,-7.611208,-6.585854,20.63054,-26.14231,-16.98673,-0.4441859,-4.295897,-61.37324,-7.056135,34.65118,0,0,0,72.272,-104.7994,-78.09285,-36.03881,-110.6591,-50.37467,0.001067912,-0.1257102,0.09433498,0,0.3,0,0,0.003353962,0
638224215319180572,38.6619,1.729987,-7.727945,-4.901215,24.36604,-21.38138,-16.98673,-0.4441859,-4.295897,-61.37324,-7.056135,34.65118,0,0,0,72.06667,-104.7631,-78.27338,-36.03881,-110.6591,-50.37467,0.001067912,-0.1257102,0.09433498,0,0.3,0,0,0.004170743,0
638224215319520450,38.6619,1.729987,-7.727945,-1.605182,27.95506,-17.05991,-16.98673,-0.4441859,-4.295897,-61.37324,-6.98289,34.65118,0,0,0,72.06667,-104.7631,-78.27338,-36.03881,-110.6591,-50.37467,0.001067912,-0.1257102,0.09433498,0,0.3,0,0,0.004941526,0
638224215319850356,38.6619,1.729987,-7.727945,0.3724372,29.12698,-15.81474,-16.98673,-0.4441859,-4.295897,-61.37324,-6.98289,34.57793,0,0,0,72.06667,-104.7631,-78.27338,-36.03881,-110.6591,-50.37467,0.001067912,-0.1257102,0.09433498,0,0.3,0,0,0.005310892,0
638224215320190246,38.6619,1.729987,-7.284348,5.133373,30.07917,-14.78931,-16.98673,-0.4441859,-4.295897,-61.37324,-6.98289,34.65118,0,0,0,72.70612,-104.898,-77.47413,-36.03881,-110.6591,-50.37467,0.001067912,-0.1257102,0.09433498,0,0.3,0,0,0.005963245,0
638224215320530142,38.6619,1.683231,-6.49054,9.235103,29.41996,-12.37222,-16.98673,-0.4441859,-4.295897,-61.37324,-7.056135,34.57793,0,0,0,73.85399,-105.2283,-76.03941,-36.03881,-110.6591,-50.37467,0.001067912,-0.1257102,0.09433498,0,0.3,0,0,0.00640121,0
638224215320870023,38.6619,1.636474,-6.467193,10.62676,28.76075,-7.757777,-16.98673,-0.4441859,-4.295897,-61.37324,-7.056135,34.65118,0,0,0,73.88969,-105.3432,-75.99478,-36.03881,-110.6591,-50.37467,0.001067912,-0.1257102,0.09433498,0,0.3,0,0,0.006592865,0
638224215321209918,38.6619,1.42607,-6.864096,12.45789,27.14936,6.08556,-16.98673,-0.4441859,-4.295897,-61.29999,-6.98289,34.57793,0,0,0,73.32468,-105.7255,-76.701,-36.03881,-110.6591,-50.37467,0.001067912,-0.1257102,0.09433498,0,0.3,0,0,0.00701173,0
638224215321559812,38.6619,1.052019,-7.634556,14.582,26.41691,19.1232,-16.98673,-0.4441859,-4.295897,-61.37324,-7.056135,34.57793,0,0,0,72.22517,-106.3696,-78.07528,-36.03881,-110.6591,-50.37467,0.001067912,-0.1257102,0.09433498,0,0.3,0,0,0.007571165,0
638224215321909848,38.6619,0.3974294,-7.821334,16.77936,26.70989,28.86481,-16.98673,-0.4441859,-4.295897,-61.37324,-7.056135,34.65118,0,0,0,71.9681,-107.8345,-78.39659,-36.03881,-110.6591,-50.37467,0.001067912,-0.1257102,0.09433498,0,0.3,0,0,0.008184989,0
638224215322249583,38.6619,0.116891,-7.821334,17.51181,27.00287,31.64813,-16.98673,-0.4441859,-4.295897,-61.37324,-7.056135,34.65118,0,0,0,71.96993,-108.4874,-78.3943,-36.03881,-110.6591,-50.37467,0.001067912,-0.1257102,0.09433498,0,0.3,0,0,0.00848331,0
638224215322589484,38.6619,-0.5376987,-8.03146,18.39075,27.73532,35.38363,-16.98673,-0.4441859,-4.295897,-61.37324,-6.98289,34.65118,0,0,0,71.66384,-109.9435,-78.77689,-36.03881,-110.6591,-50.37467,0.001067912,-0.1257102,0.09433498,0,0.3,0,0,0.009091186,0
638224215322929366,38.73257,-0.9351282,-9.105433,19.04996,28.10155,36.04284,-16.98673,-0.4441859,-4.295897,-61.37324,-7.056135,34.65118,0,0,0,70.22038,-110.4959,-80.8027,-36.03881,-110.6591,-50.37467,0.001067912,-0.1257102,0.09433498,0,0.3,0,0,0.009799914,0
638224215323269258,38.82682,-0.8883717,-9.829199,19.26969,28.24804,34.43144,-16.98673,-0.4441859,-4.295897,-61.37324,-6.98289,34.65118,0,0,0,69.32364,-110.1101,-82.21137,-36.03881,-110.6591,-50.37467,0.001067912,-0.1257102,0.09433498,0,0.3,0,0,0.0102129,0
638224215323609151,38.82682,-0.8649935,-10.17941,19.26969,27.88181,29.59726,-16.98673,-0.4441859,-4.295897,-61.37324,-6.98289,34.57793,0,0,0,68.82091,-109.9141,-82.83604,-36.03881,-110.6591,-50.37467,0.001067912,-0.1257102,0.09433498,0,0.3,0,0,0.01106821,0
638224215323949051,38.80325,-0.5376987,-9.502337,19.1232,27.36909,26.81394,-16.98673,-0.4441859,-4.295897,-61.37324,-7.056135,34.57793,0,0,0,69.76452,-109.4217,-81.59053,-36.03881,-110.6591,-50.37467,0.001067912,-0.1257102,0.09433498,0,0.3,0,0,0.01181335,0
638224215324288921,38.80325,-0.04675641,-9.012045,19.1232,27.14936,26.15474,-16.98673,-0.4441859,-4.295897,-61.37324,-7.056135,34.57793,0,0,0,70.47393,-108.4627,-80.70831,-36.03881,-110.6591,-50.37467,0.001067912,-0.1257102,0.09433498,0,0.3,0,0,0.01211834,0
638224215324618841,38.80325,1.729987,-7.751292,19.04996,26.49015,25.86176,-16.98673,-0.4441859,-4.295897,-61.37324,-7.056135,34.65118,0,0,0,72.25495,-104.7558,-78.49342,-36.03881,-110.6591,-50.37467,0.001067912,-0.1257102,0.09433498,0,0.3,0,0,0.01254157,0
638224215324968715,38.80325,4.488615,-6.420498,18.90347,25.17174,25.78851,-16.98673,-0.4441859,-4.295897,-61.37324,-6.98289,34.65118,0,0,0,73.96278,-98.72752,-76.36956,-36.03881,-110.6591,-50.37467,0.001067912,-0.1257102,0.09433498,0,0.3,0,0,0.01267176,0
638224215325308598,39.03886,8.088859,-4.739495,18.53724,23.56034,25.78851,-16.98673,-0.4441859,-4.295897,-61.37324,-6.98289,34.65118,0,0,0,76.21479,-90.78053,-74.36296,-36.03881,-110.6591,-50.37467,0.001067912,-0.1257102,0.09433498,0,0.3,0,0,0.01237946,0
638224215325638509,39.2509,10.02925,-3.735562,18.39075,22.60816,25.78851,-16.98673,-0.4441859,-4.295897,-61.37324,-7.056135,34.65118,0,0,0,77.58653,-86.49366,-73.39185,-36.03881,-110.6591,-50.37467,0.001067912,-0.1257102,0.09433498,0,0.3,0,0,0.01200117,0
638224215325988389,39.91058,14.40097,-1.144016,18.09777,19.97133,25.56878,-16.98673,-0.4441859,-4.295897,-61.37324,-6.98289,34.65118,0,0,0,81.15974,-76.80843,-71.32043,-36.03881,-110.6591,-50.37467,0.001067912,-0.1257102,0.09433498,0,0.3,0,0,0.0105964,0
638224215326328279,40.73517,19.28702,2.194643,18.17101,16.89503,24.90957,-16.98673,-0.4441859,-4.295897,-61.37324,-6.98289,34.57793,0,0,0,85.46783,-65.85661,-69.10778,-36.03881,-110.6591,-50.37467,0.001067912,-0.1257102,0.09433498,0,0.3,0,0,0.008161264,0
638224215326668173,41.15925,21.76511,4.085772,18.39075,15.13715,24.61659,-16.98673,-0.4441859,-4.295897,-61.37324,-6.98289,34.65118,0,0,0,87.76149,-60.2146,-67.95689,-36.03881,-110.6591,-50.37467,0.001067912,-0.1257102,0.09433498,0,0.3,0,0,0.006499615,0
638224215327008076,42.17233,26.51088,8.03146,19.1232,11.25516,24.25036,-16.98673,-0.4441859,-4.295897,-61.37324,-6.98289,34.57793,0,0,0,92.62082,-49.16889,-66.10428,-36.03881,-110.6591,-50.37467,0.001067912,-0.1257102,0.09433498,0,0.3,0,0,0.002260736,0
638224215327357956,43.89221,30.50856,12.21062,20.22188,7.226673,23.6644,-16.98673,-0.4441859,-4.295897,-61.37324,-6.98289,34.57793,0,0,0,99.20655,-39.28579,-65.23107,-36.03881,-110.6591,-50.37467,0.001067912,-0.1257102,0.09433498,0,0.3,0,0,0,0
638224215327697831,44.85817,32.26192,14.28853,20.95433,5.102563,22.8587,-16.98673,-0.4441859,-4.295897,-61.37324,-7.056135,34.57793,0,0,0,102.7521,-34.69388,-65.08794,-36.03881,-110.6591,-50.37467,0.001067912,-0.1257102,0.09433498,0,0.3,0,0,0,0
638224215328037744,47.19061,35.34784,18.88794,23.37142,0.8543434,20.66135,-16.98673,-0.4441859,-4.295897,-61.29999,-6.98289,34.57793,0,0,0,111.4626,-25.67141,-65.10053,-36.03881,-110.6591,-50.37467,0.001067912,-0.1257102,0.09433498,0,0.3,0,0,0,0
638224215328387632,49.05184,36.98432,22.57681,26.30123,-2.441689,18.09777,-16.98673,-0.4441859,-4.295897,-61.37324,-6.98289,34.65118,0,0,0,119.1233,-19.55794,-64.98676,-36.03881,-110.6591,-50.37467,0.001067912,-0.1257102,0.09433498,0,0.3,0,0,0,0
638224215328727525,50.3712,38.10647,25.49521,29.45077,-5.810967,14.14253,-16.98673,-0.4441859,-4.295897,-61.37324,-7.056135,34.65118,0,0,0,125.0231,-14.72096,-64.81596,-36.03881,-110.6591,-50.37467,0.001067912,-0.1257102,0.09433498,0,0.3,0,0,0,0
638224215329067412,50.70104,38.48052,26.28902,30.54945,-7.056135,11.87193,-16.98673,-0.4441859,-4.295897,-61.37324,-7.056135,34.57793,0,0,0,126.4858,-13.23094,-64.82641,-36.03881,-110.6591,-50.37467,0.001067912,-0.1257102,0.09433498,0,0.3,0,0,0,0
638224215329397312,50.81884,39.08836,26.82601,32.08759,-8.887264,7.696954,-16.98673,-0.4441859,-4.295897,-61.37324,-6.98289,34.57793,0,0,0,126.878,-11.56943,-64.94025,-36.03881,-110.6591,-50.37467,0.001067912,-0.1257102,0.09433498,0,0.3,0,0,0,0
638224215329747191,50.6068,39.53254,26.68592,32.7468,-9.766206,4.767147,-16.98673,-0.4441859,-4.295897,-61.37324,-6.98289,34.65118,0,0,0,125.7633,-10.91633,-65.07182,-36.03881,-110.6591,-50.37467,0.001067912,-0.1257102,0.09433498,0,0.3,0,0,0,0
638224215330077094,50.18272,39.74295,26.24233,32.89329,-9.985942,3.448734,-16.98673,-0.4441859,-4.295897,-61.37324,-6.98289,34.65118,0,0,0,124.0456,-10.99931,-64.93567,-36.03881,-110.6591,-50.37467,0.001067912,-0.1257102,0.09433498,0,0.3,0,0,0,0
638224215330416990,48.67488,40.23389,24.63136,32.38057,-10.20568,1.54436,-16.98673,-0.4441859,-4.295897,-61.37324,-6.98289,34.57793,0,0,0,118.1874,-11.73422,-64.42798,-36.03881,-110.6591,-50.37467,0.001067912,-0.1257102,0.09433498,0,0.3,0,0,0,0
638224215330756879,46.88432,40.77158,22.99706,31.06216,-10.20568,0.9583986,-16.98673,-0.4441859,-4.295897,-61.37324,-6.98289,34.65118,0,0,0,111.7491,-12.31843,-63.71965,-36.03881,-110.6591,-50.37467,0.001067912,-0.1257102,0.09433498,0,0.3,0,0,0,0
638224215331106766,44.66969,41.35604,20.91915,29.30428,-10.13243,0.5921727,-16.98673,-0.4441859,-4.295897,-61.29999,-6.98289,34.57793,0,0,0,103.8412,-13.10109,-63.30457,-36.03881,-110.6591,-50.37467,0.001067912,-0.1257102,0.09433498,0,0.3,0,0,0,0
638224215331446649,43.27965,41.65996,19.91522,28.27885,-9.692961,0.4456824,-16.98673,-0.4441859,-4.295897,-61.37324,-7.056135,34.57793,0,0,0,99.43982,-13.3865,-62.7519,-36.03881,-110.6591,-50.37467,0.001067912,-0.1257102,0.09433498,0,0.3,0,0,0,0
638224215331786549,40.02837,42.10415,18.18752,25.71527,-8.447793,0.1527017,-16.98673,-0.4441859,-4.295897,-61.37324,-7.056135,34.57793,0,0,0,90.40243,-13.9293,-60.72087,-36.03881,-110.6591,-50.37467,0.001067912,-0.1257102,0.09433498,0,0.3,0,0,0,0
638224215332126440,36.58862,42.26779,16.45982,23.00519,-7.495606,0.1527017,-16.98673,-0.4441859,-4.295897,-61.37324,-6.98289,34.65118,0,0,0,81.34148,-14.84438,-58.77814,-36.03881,-110.6591,-50.37467,0.001067912,-0.1257102,0.09433498,0,0.3,0,0,0,0
638224215332466333,35.15146,42.29117,15.71271,21.46704,-7.12938,0.1527017,-16.98673,-0.4441859,-4.295897,-61.37324,-6.98289,34.65118,0,0,0,77.58479,-15.28592,-58.1685,-36.03881,-110.6591,-50.37467,0.001067912,-0.1257102,0.09433498,0,0.3,0,0,0,0
638224215332806225,33.31378,42.22104,14.9189,18.46399,-6.470173,0.1527017,-16.98673,-0.4441859,-4.295897,-61.37324,-6.98289,34.65118,0,0,0,73.09322,-15.89473,-57.13452,-36.03881,-110.6591,-50.37467,0.001067912,-0.1257102,0.09433498,0,0.3,0,0,0,0
638224215333146117,33.12531,41.68334,14.87221,15.90041,-6.689909,0.1527017,-16.98673,-0.4441859,-4.295897,-61.37324,-6.98289,34.65118,0,0,0,73.12676,-16.85336,-56.282,-36.03881,-110.6591,-50.37467,0.001067912,-0.1257102,0.09433498,0,0.3,0,0,0,0
638224215333485997,33.43158,41.12226,14.87221,15.16796,-6.689909,0.1527017,-16.98673,-0.4441859,-4.295897,-61.37324,-7.056135,34.65118,0,0,0,74.20058,-17.83285,-55.95378,-36.03881,-110.6591,-50.37467,0.001067912,-0.1257102,0.09433498,0,0.3,0,0,0,0
638224215333825892,34.58602,38.99485,14.87221,14.582,-6.543418,0.2259469,-16.98673,-0.4441859,-4.295897,-61.37324,-6.98289,34.65118,0,0,0,78.25872,-21.62232,-54.84829,-36.03881,-110.6591,-50.37467,0.001067912,-0.1257102,0.09433498,0,0.3,0,0,0,0
638224215334165791,36.04674,35.95568,14.87221,15.16796,-6.250438,-0.4332596,-16.98673,-0.4441859,-4.295897,-61.37324,-6.98289,34.65118,0,0,0,83.65874,-27.23518,-53.40094,-36.03881,-110.6591,-50.37467,0.001067912,-0.1257102,0.09433498,0,0.3,0,0,0,0
638224215334515669,37.43678,32.35543,14.82551,16.77936,-4.932025,-1.092466,-16.98673,-0.4441859,-4.295897,-61.37324,-7.056135,34.57793,0,0,0,89.21803,-34.19581,-51.81278,-36.03881,-110.6591,-50.37467,0.001067912,-0.1257102,0.09433498,0,0.3,0,0,0,0
638224215334855570,37.93154,30.48518,14.70878,17.6583,-4.126328,-1.385447,-16.98673,-0.4441859,-4.295897,-61.29999,-6.98289,34.65118,0,0,0,91.45435,-37.97946,-51.00502,-36.03881,-110.6591,-50.37467,0.001067912,-0.1257102,0.09433498,0,0.3,0,0,0,0
638224215335195465,38.56766,26.51088,14.68543,19.04996,-2.441689,-1.898163,-16.98673,-0.4441859,-4.295897,-61.37324,-7.056135,34.65118,0,0,0,95.46961,-46.12061,-48.61872,-36.03881,-110.6591,-50.37467,0.001067912,-0.1257102,0.09433498,0,0.3,0,0,0,0
638224215335535355,38.82682,22.06903,14.80217,19.85565,-0.61056,-2.191144,-16.98673,-0.4441859,-4.295897,-61.37324,-7.056135,34.65118,0,0,0,98.84049,-55.47191,-45.53497,-36.03881,-110.6591,-50.37467,0.001067912,-0.1257102,0.09433498,0,0.3,0,0,0,0
638224215335875246,38.94461,19.56756,14.9189,20.14863,0.4148723,-2.117898,-16.98673,-0.4441859,-4.295897,-61.37324,-6.98289,34.65118,0,0,0,100.5583,-60.84361,-43.92505,-36.03881,-110.6591,-50.37467,0.001067912,-0.1257102,0.09433498,0,0.3,0,0,0,0
638224215336225131,39.20378,14.70489,15.45589,20.5881,2.685472,-1.971408,-16.98673,-0.4441859,-4.295897,-61.37324,-6.98289,34.65118,0,0,0,103.9896,-71.32789,-40.86332,-36.03881,-110.6591,-50.37467,0.001067912,-0.1257102,0.09433498,0,0.3,0,0,0,0
638224215336565024,39.34513,9.468172,16.15631,21.17406,5.395544,-1.458692,-16.98673,-0.4441859,-4.295897,-61.37324,-6.98289,34.65118,0,0,0,106.9156,-82.79746,-37.93439,-36.03881,-110.6591,-50.37467,0.001067912,-0.1257102,0.09433498,0,0.3,0,0,0,0
638224215336904927,39.32158,4.301589,17.4871,21.61354,7.812634,0.07945653,-16.98673,-0.4441859,-4.295897,-61.37324,-7.056135,34.57793,0,0,0,109.6537,-93.83508,-34.48222,-36.03881,-110.6591,-50.37467,0.001067912,-0.1257102,0.09433498,0,0.3,0,0,0,0
638224215337234811,39.2509,1.917013,18.23421,21.83327,9.131048,0.9583986,-16.98673,-0.4441859,-4.295897,-61.37324,-7.056135,34.57793,0,0,0,110.7261,-98.84306,-32.83234,-36.03881,-110.6591,-50.37467,0.001067912,-0.1257102,0.09433498,0,0.3,0,0,0,0
638224215337574703,39.10954,-1.122154,19.44827,22.05301,11.3284,2.716283,-16.98673,-0.4441859,-4.295897,-61.37324,-7.056135,34.65118,0,0,0,112.1092,-105.0029,-30.44653,-36.03881,-110.6591,-50.37467,0.001067912,-0.1257102,0.09433498,0,0.3,0,0,0,0
638224215337924588,39.01529,-0.9818845,19.42492,22.05301,11.91436,4.474167,-16.98673,-0.4441859,-4.295897,-61.37324,-7.056135,34.65118,0,0,0,111.8538,-104.6946,-30.29748,-36.03881,-110.6591,-50.37467,0.001067912,-0.1257102,0.09433498,0,0.3,0,0,0,0
638224215338254487,38.75614,-1.028641,20.19538,22.1995,12.20734,5.572844,-16.98673,-0.4441859,-4.295897,-61.29999,-6.98289,34.65118,0,0,0,112.2831,-104.1957,-28.47887,-36.03881,-110.6591,-50.37467,0.001067912,-0.1257102,0.09433498,0,0.3,0,0,0,0
638224215338594379,38.37918,-0.7481025,20.77907,22.41923,12.9398,8.209671,-16.98673,-0.4441859,-4.295897,-61.37324,-6.98289,34.65118,0,0,0,112.1568,-103.0674,-26.73767,-36.03881,-110.6591,-50.37467,0.001067912,-0.1257102,0.09433498,0,0.3,0,0,0,0
638224215338944257,37.79018,0.8649935,20.82576,22.49248,13.67225,9.747819,-16.98673,-0.4441859,-4.295897,-61.37324,-7.056135,34.57793,0,0,0,110.755,-99.2746,-25.51495,-36.03881,-110.6591,-50.37467,0.001067912,-0.1257102,0.09433498,0,0.3,0,0,0,0
638224215339274161,37.57814,2.618359,20.38216,22.34599,14.11172,10.26054,-16.98673,-0.4441859,-4.295897,-61.37324,-6.98289,34.65118,0,0,0,109.5607,-95.55918,-25.97022,-36.03881,-110.6591,-50.37467,0.001067912,-0.1257102,0.09433498,0,0.3,0,0,0,0
638224215339614052,36.87134,7.364134,19.2148,22.34599,13.74549,10.8465,-16.98673,-0.4441859,-4.295897,-61.37324,-6.98289,34.65118,0,0,0,105.6857,-85.47915,-27.44308,-36.03881,-110.6591,-50.37467,0.001067912,-0.1257102,0.09433498,0,0.3,0,0,0,0
638224215339953945,35.05722,13.39571,18.3276,21.97976,12.28059,11.13948,-16.98673,-0.4441859,-4.295897,-61.37324,-6.98289,34.65118,0,0,0,98.59699,-72.34183,-27.83779,-36.03881,-110.6591,-50.37467,0.001067912,-0.1257102,0.09433498,0,0.3,0,0,0,0
638224215340293834,33.8321,16.6219,18.18752,21.3938,11.03542,11.28597,-16.98673,-0.4441859,-4.295897,-61.37324,-6.98289,34.65118,0,0,0,94.31535,-65.19245,-27.63405,-36.03881,-110.6591,-50.37467,0.001067912,-0.1257102,0.09433498,0,0.3,0,0,0,0
638224215340633728,30.81643,23.19118,18.23421,19.26969,8.03237,12.23815,-16.98673,-0.4441859,-4.295897,-61.29999,-6.98289,34.65118,0,0,0,84.16925,-50.7906,-27.24677,-36.03881,-110.6591,-50.37467,0.001067912,-0.1257102,0.09433498,0,0.3,0,0,0,0
638224215341003593,26.66988,30.2514,18.79455,15.31445,4.077131,13.26359,-16.98673,-0.4441859,-4.295897,-61.37324,-6.98289,34.57793,0,0,0,70.98683,-35.7087,-27.02334,-36.03881,-110.6591,-50.37467,0.001067912,-0.1257102,0.09433498,0,0.3,0,0,0,0
638224215341342844,22.26416,36.63364,20.00861,10.18729,-0.2443342,14.14253,-16.98673,-0.4441859,-4.295897,-61.37324,-6.98289,34.65118,0,0,0,57.83041,-22.38172,-27.09329,-36.03881,-110.6591,-50.37467,0.001067912,-0.1257102,0.09433498,0,0.3,0,0,0,0
638224215341682731,20.21445,39.53254,20.82576,7.110993,-2.514934,14.50875,-16.98673,-0.4441859,-4.295897,-61.37324,-7.056135,34.57793,0,0,0,51.9192,-16.40824,-27.34747,-36.03881,-110.6591,-50.37467,0.001067912,-0.1257102,0.09433498,0,0.3,0,0,0,0
638224215342022642,16.98673,44.97966,22.76358,0.07945653,-7.202625,15.16796,-16.98673,-0.4441859,-4.295897,-61.37324,-6.98289,34.65118,0,0,0,42.6315,-5.354056,-28.79306,-36.03881,-110.6591,-50.37467,0.001067912,-0.1257102,0.09433498,0,0.3,0,0,0,0
638224215342370950,17.01029,48.74355,24.58467,-5.560421,-11.52409,15.16796,-16.98673,-0.4441859,-4.295897,-61.37324,-6.98289,34.65118,0,0,0,41.95473,2.336462,-31.21038,-36.03881,-110.6591,-50.37467,0.001067912,-0.1257102,0.09433498,0,0.3,0,0,0,0
638224215342700848,19.69613,50.00598,25.12166,-7.684532,-15.47933,13.62981,-16.98673,-0.4441859,-4.295897,-61.37324,-7.056135,34.57793,0,0,0,47.96557,4.774758,-34.35883,-36.03881,-110.6591,-50.37467,0.001067912,-0.1257102,0.09433498,0,0.3,0,0,0,0
638224215343040730,21.1804,49.91246,25.02827,-7.171815,-16.65125,12.16491,-16.98673,-0.4441859,-4.295897,-61.37324,-6.98289,34.57793,0,0,0,51.40927,4.542627,-35.67442,-36.03881,-110.6591,-50.37467,0.001067912,-0.1257102,0.09433498,0,0.3,0,0,0,0
638224215343390705,24.10184,49.07085,24.63136,-4.315253,-17.96966,8.282915,-16.98673,-0.4441859,-4.295897,-61.37324,-6.98289,34.57793,0,0,0,58.37028,2.882396,-37.87285,-36.03881,-110.6591,-50.37467,0.001067912,-0.1257102,0.09433498,0,0.3,0,0,0,0
638224215343720602,26.05732,46.99019,23.58074,-0.5065048,-17.96966,4.986883,-16.98673,-0.4441859,-4.295897,-61.37324,-6.98289,34.57793,0,0,0,63.38959,-1.35447,-38.7114,-36.03881,-110.6591,-50.37467,0.001067912,-0.1257102,0.09433498,0,0.3,0,0,0,0
638224215344060498,26.43428,45.44723,22.64685,1.178134,-17.45695,3.595225,-16.98673,-0.4441859,-4.295897,-61.37324,-7.056135,34.57793,0,0,0,64.50538,-4.692322,-38.59972,-36.03881,-110.6591,-50.37467,0.001067912,-0.1257102,0.09433498,0,0.3,0,0,0,0
638224215344407060,26.5992,42.08076,20.68568,3.302244,-15.62582,2.057076,-16.98673,-0.4441859,-4.295897,-61.37324,-6.98289,34.57793,0,0,0,65.40555,-12.03507,-37.73356,-36.03881,-110.6591,-50.37467,0.001067912,-0.1257102,0.09433498,0,0.3,0,0,0,0
638224215344746936,26.4814,38.73769,18.84124,4.474167,-13.6482,1.324624,-16.98673,-0.4441859,-4.295897,-61.37324,-6.98289,34.57793,0,0,0,65.58427,-19.41018,-36.70128,-36.03881,-110.6591,-50.37467,0.001067912,-0.1257102,0.09433498,0,0.3,0,0,0,0
638224215345086831,26.128,37.28823,18.00074,4.986883,-12.1833,0.9583986,-16.98673,-0.4441859,-4.295897,-61.37324,-6.98289,34.65118,0,0,0,64.86857,-22.68608,-36.10039,-36.03881,-110.6591,-50.37467,0.001067912,-0.1257102,0.09433498,0,0.3,0,0,0,0
638224215345416739,24.45524,34.38934,16.43647,5.426354,-9.619716,0.2259469,-16.98673,-0.4441859,-4.295897,-61.37324,-6.98289,34.65118,0,0,0,61.17604,-29.23265,-33.83303,-36.03881,-110.6591,-50.37467,0.001067912,-0.1257102,0.09433498,0,0.3,0,0,0,0
638224215345766604,21.67517,31.28004,14.94225,4.620657,-7.202625,0.299192,-16.98673,-0.4441859,-4.295897,-61.29999,-6.98289,34.65118,0,0,0,54.79214,-36.25276,-30.48952,-36.03881,-110.6591,-50.37467,0.001067912,-0.1257102,0.09433498,0,0.3,0,0,0,0
638224215346106519,18.28253,27.96033,13.93832,1.983831,-4.85878,0.5921727,-16.98673,-0.4441859,-4.295897,-61.29999,-6.98289,34.65118,0,0,0,47.02575,-43.55109,-26.0117,-36.03881,-110.6591,-50.37467,0.001067912,-0.1257102,0.09433498,0,0.3,0,0,0,0
638224215346446405,16.44485,26.0667,13.82158,0.1527017,-3.686857,1.031644,-16.98673,-0.4441859,-4.295897,-61.37324,-6.98289,34.65118,0,0,0,42.92905,-47.5425,-22.91005,-36.03881,-110.6591,-50.37467,0.001067912,-0.1257102,0.09433498,0,0.3,0,0,0,0
638224215346786302,13.14646,22.11578,13.98501,-4.388499,-1.123276,2.862773,-16.98673,-0.4441859,-4.295897,-61.37324,-6.98289,34.57793,0,0,0,35.42739,-55.84384,-16.66711,-36.03881,-110.6591,-50.37467,0.001067912,-0.1257102,0.09433498,0,0.3,0,0,0,0
638224215347136189,10.93182,17.93108,14.47531,-8.563474,1.733285,6.232051,-16.98673,-0.4441859,-4.295897,-61.37324,-6.98289,34.57793,0,0,0,30.38148,-64.71203,-11.05177,-36.03881,-110.6591,-50.37467,0.001067912,-0.1257102,0.09433498,0,0.3,0,0,0,0
638224215347476080,10.5313,15.82704,14.89556,-10.32136,3.271434,7.989935,-16.98673,-0.4441859,-4.295897,-61.37324,-7.056135,34.57793,0,0,0,29.71395,-69.14978,-8.515235,-36.03881,-110.6591,-50.37467,0.001067912,-0.1257102,0.09433498,0,0.3,0,0,0,0
638224215347825986,11.09674,11.33843,16.06292,-12.81169,6.494221,12.01842,-16.98673,-0.4441859,-4.295897,-61.37324,-7.056135,34.57793,0,0,0,32.26587,-78.57669,-3.839951,-36.03881,-110.6591,-50.37467,0.001067912,-0.1257102,0.09433498,0,0.3,0,0,0,0
638224215348165863,13.1229,7.621294,16.90342,-13.25116,9.8635,15.75392,-16.98673,-0.4441859,-4.295897,-61.37324,-7.056135,34.57793,0,0,0,38.81139,-86.55326,-1.869388,-36.03881,-110.6591,-50.37467,0.001067912,-0.1257102,0.09433498,0,0.3,0,0,0,0
638224215348505744,16.68045,5.353609,17.25363,-11.63977,12.50033,18.09777,-16.98673,-0.4441859,-4.295897,-61.37324,-6.98289,34.57793,0,0,0,49.4617,-91.55756,-3.28096,-36.03881,-110.6591,-50.37467,0.001067912,-0.1257102,0.09433498,0,0.3,0,0,0,0
638224215348845631,19.03645,5.07307,17.27698,-9.735395,13.52576,18.75698,-16.98673,-0.4441859,-4.295897,-61.29999,-6.98289,34.65118,0,0,0,56.24188,-92.19165,-5.348645,-36.03881,-110.6591,-50.37467,0.001067912,-0.1257102,0.09433498,0,0.3,0,0,0,0
638224215349195531,24.57304,5.704282,17.9307,-3.070086,14.91741,19.63592,-16.98673,-0.4441859,-4.295897,-61.37324,-7.056135,34.57793,0,0,0,72.25181,-90.26893,-10.34197,-36.03881,-110.6591,-50.37467,0.001067912,-0.1257102,0.09433498,0,0.3,0,0,0,0
638224215349535405,28.57823,7.574538,18.65447,5.79258,14.84417,20.36837,-16.98673,-0.4441859,-4.295897,-61.37324,-6.98289,34.65118,0,0,0,83.63605,-85.41678,-14.81188,-36.03881,-110.6591,-50.37467,0.001067912,-0.1257102,0.09433498,0,0.3,0,0,0,0
638224215349875311,29.56775,8.766827,18.58442,9.601329,14.47795,20.5881,-16.98673,-0.4441859,-4.295897,-61.37324,-7.056135,34.57793,0,0,0,86.00426,-82.72211,-16.75651,-36.03881,-110.6591,-50.37467,0.001067912,-0.1257102,0.09433498,0,0.3,0,0,0,0
638224215350215206,30.20387,11.45532,17.65053,15.31445,13.52576,20.80784,-16.98673,-0.4441859,-4.295897,-61.37324,-6.98289,34.57793,0,0,0,86.09016,-77.23856,-20.45526,-36.03881,-110.6591,-50.37467,0.001067912,-0.1257102,0.09433498,0,0.3,0,0,0,0
638224215350555099,29.61487,14.37759,16.31974,18.39075,12.64682,20.95433,-16.98673,-0.4441859,-4.295897,-61.37324,-6.98289,34.57793,0,0,0,82.35031,-71.51485,-23.4748,-36.03881,-110.6591,-50.37467,0.001067912,-0.1257102,0.09433498,0,0.3,0,0,0,0
638224215350904988,27.77719,17.08947,14.87221,19.56267,11.40165,21.61354,-16.98673,-0.4441859,-4.295897,-61.37324,-6.98289,34.65118,0,0,0,75.35235,-66.34602,-25.29356,-36.03881,-110.6591,-50.37467,0.001067912,-0.1257102,0.09433498,0,0.3,0,0,0,0
638224215351254864,26.50496,18.235,14.17179,19.41618,10.81569,22.12625,-16.98673,-0.4441859,-4.295897,-61.37324,-7.056135,34.65118,0,0,0,71.09226,-64.21439,-25.79186,-36.03881,-110.6591,-50.37467,0.001067912,-0.1257102,0.09433498,0,0.3,0,0,0,0
638224215351594766,23.55996,19.98837,12.95773,17.58505,9.8635,23.22493,-16.98673,-0.4441859,-4.295897,-61.37324,-7.056135,34.65118,0,0,0,62.04222,-61.0214,-26.07004,-36.03881,-110.6591,-50.37467,0.001067912,-0.1257102,0.09433498,0,0.3,0,0,0,0
638224215351924661,20.68565,21.29754,12.16393,14.21577,9.277537,24.17712,-16.98673,-0.4441859,-4.295897,-61.37324,-6.98289,34.65118,0,0,0,53.81308,-58.5719,-25.82985,-36.03881,-110.6591,-50.37467,0.001067912,-0.1257102,0.09433498,0,0.3,0,0,0,0
638224215352264543,19.31917,21.92875,11.88376,12.23815,9.057802,24.54334,-16.98673,-0.4441859,-4.295897,-61.37324,-6.98289,34.65118,0,0,0,50.00905,-57.34195,-25.69958,-36.03881,-110.6591,-50.37467,0.001067912,-0.1257102,0.09433498,0,0.3,0,0,0,0
638224215352614439,16.91605,23.21456,11.48686,8.06318,8.398596,24.90957,-16.98673,-0.4441859,-4.295897,-61.37324,-6.98289,34.65118,0,0,0,43.38631,-54.76577,-25.69255,-36.03881,-110.6591,-50.37467,0.001067912,-0.1257102,0.09433498,0,0.3,0,0,0,0
638224215352954310,14.96058,24.40685,11.46351,3.595225,7.666144,24.90957,-16.98673,-0.4441859,-4.295897,-61.37324,-7.056135,34.57793,0,0,0,38.19021,-52.23788,-25.4289,-36.03881,-110.6591,-50.37467,0.001067912,-0.1257102,0.09433498,0,0.3,0,0,0,0
638224215353294228,14.23022,24.87441,11.46351,1.69085,7.226673,24.61659,-16.98673,-0.4441859,-4.295897,-61.37324,-6.98289,34.57793,0,0,0,36.25379,-51.24877,-25.39349,-36.03881,-110.6591,-50.37467,0.001067912,-0.1257102,0.09433498,0,0.3,0,0,0,0
638224215353634115,12.81662,25.90305,11.46351,-2.264389,6.347731,23.88414,-16.98673,-0.4441859,-4.295897,-61.37324,-7.056135,34.65118,0,0,0,32.4884,-49.08596,-25.54352,-36.03881,-110.6591,-50.37467,0.001067912,-0.1257102,0.09433498,0,0.3,0,0,0,0
638224215353974008,11.73286,27.30574,11.41681,-5.780157,5.468789,22.41923,-16.98673,-0.4441859,-4.295897,-61.37324,-6.98289,34.65118,0,0,0,29.4626,-46.18863,-26.49027,-36.03881,-110.6591,-50.37467,0.001067912,-0.1257102,0.09433498,0,0.3,0,0,0,0
638224215354313881,11.73286,29.52667,11.39347,-8.783209,4.150376,20.14863,-16.98673,-0.4441859,-4.295897,-61.37324,-6.98289,34.57793,0,0,0,28.9516,-41.65347,-28.95066,-36.03881,-110.6591,-50.37467,0.001067912,-0.1257102,0.09433498,0,0.3,0,0,0,0
638224215354653791,12.27474,30.95274,11.67363,-9.808641,3.198189,18.61049,-16.98673,-0.4441859,-4.295897,-61.37324,-7.056135,34.65118,0,0,0,30.04914,-38.65577,-30.23969,-36.03881,-110.6591,-50.37467,0.001067912,-0.1257102,0.09433498,0,0.3,0,0,0,0
638224215355003666,14.51294,33.87502,12.98108,-9.955132,0.1951368,15.02147,-16.98673,-0.4441859,-4.295897,-61.37324,-6.98289,34.65118,0,0,0,35.25142,-32.26511,-32.16972,-36.03881,-110.6591,-50.37467,0.001067912,-0.1257102,0.09433498,0,0.3,0,0,0,0
638224215355341168,15.99721,36.07257,15.33915,-7.24506,-3.027651,12.60438,-16.98673,-0.4441859,-4.295897,-61.37324,-6.98289,34.65118,0,0,0,39.42556,-26.73192,-30.83151,-36.03881,-110.6591,-50.37467,0.001067912,-0.1257102,0.09433498,0,0.3,0,0,0,0
638224215355681060,15.83229,37.31161,16.81003,-5.560421,-4.85878,11.94517,-16.98673,-0.4441859,-4.295897,-61.37324,-6.98289,34.57793,0,0,0,39.45689,-23.47175,-29.21168,-36.03881,-110.6591,-50.37467,0.001067912,-0.1257102,0.09433498,0,0.3,0,0,0,0
638224215356010948,14.39514,40.25727,19.70509,-3.656047,-8.154812,11.57895,-16.98673,-0.4441859,-4.295897,-61.37324,-6.98289,34.65118,0,0,0,36.47794,-16.01756,-26.22773,-36.03881,-110.6591,-50.37467,0.001067912,-0.1257102,0.09433498,0,0.3,0,0,0,0
638224215356350847,12.08626,43.27305,22.50677,-3.802537,-11.52409,12.38465,-16.98673,-0.4441859,-4.295897,-61.37324,-7.056135,34.65118,0,0,0,31.0175,-8.435084,-23.4968,-36.03881,-110.6591,-50.37467,0.001067912,-0.1257102,0.09433498,0,0.3,0,0,0,0
638224215356690740,10.6491,44.76926,23.86091,-4.681479,-13.28197,13.1171,-16.98673,-0.4441859,-4.295897,-61.37324,-6.98289,34.57793,0,0,0,27.46294,-4.690409,-22.29544,-36.03881,-110.6591,-50.37467,0.001067912,-0.1257102,0.09433498,0,0.3,0,0,0,0
638224215357040632,7.869027,47.6214,26.49915,-7.831022,-16.7245,15.09472,-16.98673,-0.4441859,-4.295897,-61.37324,-6.98289,34.65118,0,0,0,20.4515,2.516213,-20.37648,-36.03881,-110.6591,-50.37467,0.001067912,-0.1257102,0.09433498,0,0.3,0,0,0,0
638224215357370517,5.183192,50.4034,29.34751,-12.29898,-19.87404,17.07234,-16.98673,-0.4441859,-4.295897,-61.37324,-7.056135,34.57793,0,0,0,13.58268,9.866713,-18.61485,-36.03881,-110.6591,-50.37467,0.001067912,-0.1257102,0.09433498,0,0.3,0,0,0,0
638224215357710404,2.874315,52.57758,31.79898,-18.0121,-22.87709,18.83022,-16.98673,-0.4441859,-4.295897,-61.37324,-7.056135,34.65118,0,0,0,7.587101,15.91904,-17.2378,-36.03881,-110.6591,-50.37467,0.001067912,-0.1257102,0.09433498,0,0.3,0,0,0,0
638224215358050305,1.931917,53.34906,32.77956,-21.01515,-24.342,19.70916,-16.98673,-0.4441859,-4.295897,-61.37324,-6.98289,34.57793,0,0,0,5.11742,18.21966,-16.63775,-36.03881,-110.6591,-50.37467,0.001067912,-0.1257102,0.09433498,0,0.3,0,0,0,0
638224215358400192,0.3062795,54.14392,34.11036,-26.58179,-26.39286,21.02757,-16.98673,-0.4441859,-4.295897,-61.37324,-7.056135,34.65118,0,0,0,0.8172886,21.02063,-15.46109,-36.03881,-110.6591,-50.37467,0.001067912,-0.1257102,0.09433498,0,0.3,0,0,0,0
638224215358740081,-1.295798,53.81662,34.22709,-31.70894,-27.41829,21.68678,-16.98673,-0.4441859,-4.295897,-61.37324,-6.98289,34.57793,0,0,0,-3.476497,20.72526,-14.65731,-36.03881,-110.6591,-50.37467,0.001067912,-0.1257102,0.09433498,0,0.3,0,0,0,0
638224215359089972,-1.931917,53.11528,33.7368,-34.19928,-27.56478,21.83327,-16.98673,-0.4441859,-4.295897,-61.29999,-6.98289,34.65118,0,0,0,-5.194917,19.11576,-14.34025,-36.03881,-110.6591,-50.37467,0.001067912,-0.1257102,0.09433498,0,0.3,0,0,0,0
638224215359429861,-2.285316,50.70732,31.58885,-37.56856,-26.75908,22.05301,-16.98673,-0.4441859,-4.295897,-61.37324,-6.98289,34.57793,0,0,0,-6.152806,12.961,-14.17315,-36.03881,-110.6591,-50.37467,0.001067912,-0.1257102,0.09433498,0,0.3,0,0,0,0
638224215359769756,-2.285316,47.10708,28.67044,-38.08128,-24.70822,21.97976,-16.98673,-0.4441859,-4.295897,-61.37324,-6.98289,34.57793,0,0,0,-6.170349,4.045349,-13.73356,-36.03881,-110.6591,-50.37467,0.001067912,-0.1257102,0.09433498,0,0.3,0,0,0,0
638224215360109642,-2.120397,42.12752,25.05162,-37.05584,-21.41219,21.10082,-16.98673,-0.4441859,-4.295897,-61.37324,-6.98289,34.65118,0,0,0,-5.748402,-8.006418,-13.09186,-36.03881,-110.6591,-50.37467,0.001067912,-0.1257102,0.09433498,0,0.3,0,0,0,0
638224215360439535,-1.931917,39.46241,23.41731,-36.32339,-19.50781,20.66135,-16.98673,-0.4441859,-4.295897,-61.37324,-6.98289,34.65118,0,0,0,-5.25732,-14.26308,-12.49024,-36.03881,-110.6591,-50.37467,0.001067912,-0.1257102,0.09433498,0,0.3,0,0,0,0
638224215360779434,-1.460718,33.92177,20.52225,-34.34578,-15.62582,20.51486,-16.98673,-0.4441859,-4.295897,-61.37324,-6.98289,34.65118,0,0,0,-4.012437,-27.11973,-10.99863,-36.03881,-110.6591,-50.37467,0.001067912,-0.1257102,0.09433498,0,0.3,0,0,0,0
638224215361129308,-0.8010387,28.77857,18.35095,-32.00193,-11.30435,21.24731,-16.98673,-0.4441859,-4.295897,-61.37324,-7.056135,34.57793,0,0,0,-2.220953,-39.02047,-9.502545,-36.03881,-110.6591,-50.37467,0.001067912,-0.1257102,0.09433498,0,0.3,0,0,0,0
638224215361459220,-0.4005193,26.37061,17.65053,-30.83001,-9.106999,21.83327,-16.98673,-0.4441859,-4.295897,-61.37324,-6.98289,34.65118,0,0,0,-1.1178,-44.49153,-8.447235,-36.03881,-110.6591,-50.37467,0.001067912,-0.1257102,0.09433498,0,0.3,0,0,0,0
638224215361799110,0.5183191,21.99889,16.88007,-28.77914,-5.225006,22.71221,-16.98673,-0.4441859,-4.295897,-61.37324,-6.98289,34.65118,0,0,0,1.468765,-54.30317,-5.994948,-36.03881,-110.6591,-50.37467,0.001067912,-0.1257102,0.09433498,0,0.3,0,0,0,0
638224215362139000,1.531397,18.16486,16.66995,-27.02126,-2.221954,23.29818,-16.98673,-0.4441859,-4.295897,-61.37324,-6.98289,34.57793,0,0,0,4.408429,-62.82354,-3.452101,-36.03881,-110.6591,-50.37467,0.001067912,-0.1257102,0.09433498,0,0.3,0,0,0,0
638224215362488868,2.191077,16.10758,16.66995,-26.14231,-0.9035407,23.44467,-16.98673,-0.4441859,-4.295897,-61.37324,-7.056135,34.57793,0,0,0,6.360593,-67.39885,-2.104102,-36.03881,-110.6591,-50.37467,0.001067912,-0.1257102,0.09433498,0,0.3,0,0,0,0
638224215362828779,3.793154,12.18004,16.97346,-24.09145,1.220569,24.10387,-16.98673,-0.4441859,-4.295897,-61.37324,-6.98289,34.65118,0,0,0,11.19846,-76.05652,0.5560927,-36.03881,-110.6591,-50.37467,0.001067912,-0.1257102,0.09433498,0,0.3,0,0,0,0
638224215363168665,5.371671,8.766827,17.79062,-21.01515,3.78415,26.30123,-16.98673,-0.4441859,-4.295897,-61.29999,-6.98289,34.57793,0,0,0,16.15211,-83.29877,3.428006,-36.03881,-110.6591,-50.37467,0.001067912,-0.1257102,0.09433498,0,0.3,0,0,0,0
638224215363508559,5.819311,7.621294,18.3743,-18.08535,6.347731,29.45077,-16.98673,-0.4441859,-4.295897,-61.37324,-7.056135,34.57793,0,0,0,17.66313,-85.51597,4.959303,-36.03881,-110.6591,-50.37467,0.001067912,-0.1257102,0.09433498,0,0.3,0,0,0,0
638224215363858450,5.772191,7.971967,18.46769,-16.98667,7.373164,30.69594,-16.98673,-0.4441859,-4.295897,-61.37324,-7.056135,34.57793,0,0,0,17.5302,-84.63868,5.068785,-36.03881,-110.6591,-50.37467,0.001067912,-0.1257102,0.09433498,0,0.3,0,0,0,0
638224215364198330,5.513031,10.02925,18.8179,-15.81474,8.691576,32.52707,-16.98673,-0.4441859,-4.295897,-61.37324,-7.056135,34.65118,0,0,0,16.74785,-79.64923,5.169467,-36.03881,-110.6591,-50.37467,0.001067912,-0.1257102,0.09433498,0,0.3,0,0,0,0
638224215364538233,4.971152,14.28408,19.49497,-15.52176,8.252106,33.77223,-16.98673,-0.4441859,-4.295897,-61.37324,-6.98289,34.65118,0,0,0,15.05438,-69.45374,4.726004,-36.03881,-110.6591,-50.37467,0.001067912,-0.1257102,0.09433498,0,0.3,0,0,0,0
638224215364878125,4.664873,16.90244,20.03195,-15.66825,7.519653,34.13846,-16.98673,-0.4441859,-4.295897,-61.37324,-7.056135,34.65118,0,0,0,14.09142,-63.16198,4.343743,-36.03881,-110.6591,-50.37467,0.001067912,-0.1257102,0.09433498,0,0.3,0,0,0,0
638224215365218017,3.958073,22.88726,22.06317,-16.84018,4.809582,34.57793,-16.98673,-0.4441859,-4.295897,-61.37324,-6.98289,34.65118,0,0,0,11.93756,-48.37246,4.179179,-36.03881,-110.6591,-50.37467,0.001067912,-0.1257102,0.09433498,0,0.3,0,0,0,0
638224215365557896,3.251275,28.82533,25.16835,-18.74455,0.1951368,34.87091,-16.98673,-0.4441859,-4.295897,-61.37324,-7.056135,34.57793,0,0,0,9.842214,-33.04654,4.908778,-36.03881,-110.6591,-50.37467,0.001067912,-0.1257102,0.09433498,0,0.3,0,0,0,0
638224215365907786,2.379556,33.59448,28.29689,-21.01515,-4.932025,34.87091,-16.98673,-0.4441859,-4.295897,-61.37324,-6.98289,34.65118,0,0,0,7.236391,-20.28103,5.790151,-36.03881,-110.6591,-50.37467,0.001067912,-0.1257102,0.09433498,0,0.3,0,0,0,0
638224215366247683,1.696317,35.86216,29.95454,-22.77304,-7.935077,35.0174,-16.98673,-0.4441859,-4.295897,-61.37324,-6.98289,34.65118,0,0,0,5.170107,-14.06595,6.22748,-36.03881,-110.6591,-50.37467,0.001067912,-0.1257102,0.09433498,0,0.3,0,0,0,0
638224215366587559,0.2355996,38.12985,32.28927,-25.92258,-11.67058,35.31038,-16.98673,-0.4441859,-4.295897,-61.37324,-7.056135,34.65118,0,0,0,0.7242413,-7.042618,7.778188,-36.03881,-110.6591,-50.37467,0.001067912,-0.1257102,0.09433498,0,0.3,0,0,0,0
638224215366927465,-1.531397,39.95335,34.67069,-30.61027,-14.96661,35.67661,-16.98673,-0.4441859,-4.295897,-61.37324,-6.98289,34.65118,0,0,0,-4.759119,-0.6892022,9.665509,-36.03881,-110.6591,-50.37467,0.001067912,-0.1257102,0.09433498,0,0.3,0,0,0,0
638224215367267367,-2.426676,40.67807,35.76801,-33.32034,-16.35827,36.18932,-16.98673,-0.4441859,-4.295897,-61.37324,-7.056135,34.65118,0,0,0,-7.582149,2.069733,10.5636,-36.03881,-110.6591,-50.37467,0.001067912,-0.1257102,0.09433498,0,0.3,0,0,0,0
638224215367607256,-4.264353,41.02874,37.28558,-38.08128,-18.1894,37.58098,-16.98673,-0.4441859,-4.295897,-61.37324,-6.98289,34.65118,0,0,0,-13.487,4.789236,12.52635,-36.03881,-110.6591,-50.37467,0.001067912,-0.1257102,0.09433498,0,0.3,0,0,0,0
638224215367947146,-6.314069,40.67807,38.80315,-42.40274,-18.84861,39.26562,-16.98673,-0.4441859,-4.295897,-61.37324,-6.98289,34.65118,0,0,0,-20.31233,6.348511,15.22347,-36.03881,-110.6591,-50.37467,0.001067912,-0.1257102,0.09433498,0,0.3,0,0,0,0
638224215368287041,-7.209348,40.30402,39.41019,-44.52685,-18.9951,40.21781,-16.98673,-0.4441859,-4.295897,-61.37324,-6.98289,34.65118,0,0,0,-23.38669,6.577581,16.53211,-36.03881,-110.6591,-50.37467,0.001067912,-0.1257102,0.09433498,0,0.3,0,0,0,0
638224215368626927,-8.740746,39.20525,39.87713,-48.26236,-18.70212,42.41516,-16.98673,-0.4441859,-4.295897,-61.37324,-6.98289,34.57793,0,0,0,-28.69495,5.304962,18.28456,-36.03881,-110.6591,-50.37467,0.001067912,-0.1257102,0.09433498,0,0.3,0,0,0,0
638224215368956817,-10.13078,37.84931,39.7137,-50.75269,-17.45695,44.17305,-16.98673,-0.4441859,-4.295897,-61.37324,-6.98289,34.65118,0,0,0,-33.5083,2.592746,19.18087,-36.03881,-110.6591,-50.37467,0.001067912,-0.1257102,0.09433498,0,0.3,0,0,0,0
638224215369306710,-11.28522,36.30635,38.59303,-52.65706,-16.21178,45.19848,-16.98673,-0.4441859,-4.295897,-61.37324,-6.98289,34.57793,0,0,0,-37.30763,-1.919008,18.60739,-36.03881,-110.6591,-50.37467,0.001067912,-0.1257102,0.09433498,0,0.3,0,0,0,0
638224215369636610,-11.52082,35.32447,37.51905,-53.24303,-15.40608,45.41821,-16.98673,-0.4441859,-4.295897,-61.37324,-7.056135,34.65118,0,0,0,-37.95007,-5.312885,17.83422,-36.03881,-110.6591,-50.37467,0.001067912,-0.1257102,0.09433498,0,0.3,0,0,0,0
638224215369976501,-11.1203,33.22043,34.60065,-53.02329,-13.57495,45.7112,-16.98673,-0.4441859,-4.295897,-61.37324,-7.056135,34.57793,0,0,0,-36.12057,-13.35705,15.4134,-36.03881,-110.6591,-50.37467,0.001067912,-0.1257102,0.09433498,0,0.3,0,0,0,0
638224215370316396,-9.918744,32.0749,31.54216,-51.19216,-11.3776,45.7112,-16.98673,-0.4441859,-4.295897,-61.37324,-6.98289,34.65118,0,0,0,-31.47955,-19.48577,11.67196,-36.03881,-110.6591,-50.37467,0.001067912,-0.1257102,0.09433498,0,0.3,0,0,0,0
638224215370666280,-8.905665,31.65409,29.97789,-49.8005,-10.13243,45.19848,-16.98673,-0.4441859,-4.295897,-61.37324,-6.98289,34.57793,0,0,0,-27.88747,-22.1795,9.620511,-36.03881,-110.6591,-50.37467,0.001067912,-0.1257102,0.09433498,0,0.3,0,0,0,0
638224215371006163,-6.14915,31.28004,27.24626,-45.84526,-8.154812,43.73357,-16.98673,-0.4441859,-4.295897,-61.37324,-6.98289,34.65118,0,0,0,-18.74718,-25.96626,5.658995,-36.03881,-110.6591,-50.37467,0.001067912,-0.1257102,0.09433498,0,0.3,0,0,0,0
638224215371346043,-2.921435,31.32679,25.14501,-40.64486,-6.543418,42.04893,-16.98673,-0.4441859,-4.295897,-61.37324,-6.98289,34.65118,0,0,0,-8.693445,-28.03198,1.999825,-36.03881,-110.6591,-50.37467,0.001067912,-0.1257102,0.09433498,0,0.3,0,0,0,0
638224215371685948,-1.342918,31.39693,24.3045,-38.00803,-5.884212,41.38973,-16.98673,-0.4441859,-4.295897,-61.37324,-6.98289,34.57793,0,0,0,-3.953913,-28.71078,0.3133789,-36.03881,-110.6591,-50.37467,0.001067912,-0.1257102,0.09433498,0,0.3,0,0,0,0
638224215372025846,2.073277,31.77098,23.11379,-32.14842,-4.492554,40.14456,-16.98673,-0.4441859,-4.295897,-61.37324,-6.98289,34.65118,0,0,0,5.995224,-29.08346,-2.742032,-36.03881,-110.6591,-50.37467,0.001067912,-0.1257102,0.09433498,0,0.3,0,0,0,0
638224215372365731,4.759112,32.33206,22.69354,-26.50854,-3.540367,38.89939,-16.98673,-0.4441859,-4.295897,-61.37324,-6.98289,34.57793,0,0,0,13.6167,-28.35732,-4.793354,-36.03881,-110.6591,-50.37467,0.001067912,-0.1257102,0.09433498,0,0.3,0,0,0,0
638224215372715621,7.020868,32.51908,22.46007,-21.01515,-3.100896,37.87396,-16.98673,-0.4441859,-4.295897,-61.37324,-6.98289,34.65118,0,0,0,19.97097,-28.19852,-6.187781,-36.03881,-110.6591,-50.37467,0.001067912,-0.1257102,0.09433498,0,0.3,0,0,0,0
638224215373055518,7.916147,32.51908,22.43672,-18.45157,-2.88116,37.36125,-16.98673,-0.4441859,-4.295897,-61.37324,-6.98289,34.57793,0,0,0,22.49539,-28.21927,-6.569365,-36.03881,-110.6591,-50.37467,0.001067912,-0.1257102,0.09433498,0,0.3,0,0,0,0
638224215373385411,8.505146,32.42557,22.31999,-14.71607,-3.100896,36.55555,-16.98673,-0.4441859,-4.295897,-61.29999,-7.056135,34.65118,0,0,0,24.1374,-28.50632,-6.942064,-36.03881,-110.6591,-50.37467,0.001067912,-0.1257102,0.09433498,0,0.3,0,0,0,0
638224215373735299,8.057507,31.63071,21.92308,-12.37222,-3.467122,35.89634,-16.98673,-0.4441859,-4.295897,-61.37324,-7.056135,34.57793,0,0,0,22.8932,-30.42253,-6.634312,-36.03881,-110.6591,-50.37467,0.001067912,-0.1257102,0.09433498,0,0.3,0,0,0,0
638224215374075170,7.586308,30.83585,21.71296,-11.78626,-3.320631,35.8231,-16.98673,-0.4441859,-4.295897,-61.37324,-6.98289,34.65118,0,0,0,21.62919,-32.1861,-5.950709,-36.03881,-110.6591,-50.37467,0.001067912,-0.1257102,0.09433498,0,0.3,0,0,0,0
638224215374405065,5.91355,28.38114,21.22267,-11.2003,-2.73467,35.8231,-16.98673,-0.4441859,-4.295897,-61.37324,-7.056135,34.65118,0,0,0,17.06076,-37.57042,-3.637389,-36.03881,-110.6591,-50.37467,0.001067912,-0.1257102,0.09433498,0,0.3,0,0,0,0
638224215374744979,3.062795,24.47698,21.03589,-11.93275,-1.123276,37.06827,-16.98673,-0.4441859,-4.295897,-61.37324,-6.98289,34.65118,0,0,0,9.042127,-45.86241,0.6401409,-36.03881,-110.6591,-50.37467,0.001067912,-0.1257102,0.09433498,0,0.3,0,0,0,0
638224215375084860,1.366478,22.30281,21.05923,-12.73845,-0.171089,38.0937,-16.98673,-0.4441859,-4.295897,-61.37324,-6.98289,34.57793,0,0,0,4.08483,-50.48696,2.892569,-36.03881,-110.6591,-50.37467,0.001067912,-0.1257102,0.09433498,0,0.3,0,0,0,0
638224215375434758,-2.921435,17.34663,21.66626,-16.18097,2.758718,41.17,-16.98673,-0.4441859,-4.295897,-61.37324,-6.98289,34.65118,0,0,0,-8.996508,-60.8203,7.938396,-36.03881,-110.6591,-50.37467,0.001067912,-0.1257102,0.09433498,0,0.3,0,0,0,0
638224215375774638,-7.303588,12.99828,22.78693,-20.79542,5.76177,44.68576,-16.98673,-0.4441859,-4.295897,-61.37324,-6.98289,34.57793,0,0,0,-23.08371,-69.59891,11.75706,-36.03881,-110.6591,-50.37467,0.001067912,-0.1257102,0.09433498,0,0.3,0,0,0,0
638224215376114541,-10.48418,10.37992,24.25781,-25.33662,8.545086,48.27478,-16.98673,-0.4441859,-4.295897,-61.37324,-7.056135,34.65118,0,0,0,-33.83688,-74.19974,14.49915,-36.03881,-110.6591,-50.37467,0.001067912,-0.1257102,0.09433498,0,0.3,0,0,0,0
638224215376454435,-11.42658,9.982493,24.7948,-27.46073,9.497273,49.95942,-16.98673,-0.4441859,-4.295897,-61.37324,-6.98289,34.65118,0,0,0,-37.09731,-74.59135,15.19263,-36.03881,-110.6591,-50.37467,0.001067912,-0.1257102,0.09433498,0,0.3,0,0,0,0
638224215376794312,-12.39254,10.77735,25.21505,-30.61027,10.52271,52.59624,-16.98673,-0.4441859,-4.295897,-61.37324,-7.056135,34.65118,0,0,0,-40.30496,-72.35825,15.08136,-36.03881,-110.6591,-50.37467,0.001067912,-0.1257102,0.09433498,0,0.3,0,0,0,0
638224215377134208,-12.86374,13.13855,24.91153,-32.66114,10.37621,53.9879,-16.98673,-0.4441859,-4.295897,-61.37324,-6.98289,34.65118,0,0,0,-41.41618,-67.28168,13.0099,-36.03881,-110.6591,-50.37467,0.001067912,-0.1257102,0.09433498,0,0.3,0,0,0,0
638224215377474116,-13.1229,14.54124,24.65471,-33.32034,10.15648,54.35413,-16.98673,-0.4441859,-4.295897,-61.37324,-6.98289,34.65118,0,0,0,-41.93557,-64.36248,11.5317,-36.03881,-110.6591,-50.37467,0.001067912,-0.1257102,0.09433498,0,0.3,0,0,0,0
638224215377813992,-14.32446,18.11811,24.46794,-34.56551,9.277537,54.64711,-16.98673,-0.4441859,-4.295897,-61.37324,-6.98289,34.65118,0,0,0,-45.02157,-56.55551,7.962203,-36.03881,-110.6591,-50.37467,0.001067912,-0.1257102,0.09433498,0,0.3,0,0,0,0
638224215378163869,-15.99721,21.74173,24.70141,-36.39664,7.959125,54.57386,-16.98673,-0.4441859,-4.295897,-61.37324,-6.98289,34.65118,0,0,0,-49.49316,-48.40224,4.284853,-36.03881,-110.6591,-50.37467,0.001067912,-0.1257102,0.09433498,0,0.3,0,0,0,0
638224215378503775,-17.43437,24.7809,25.28509,-38.59399,6.494221,54.57386,-16.98673,-0.4441859,-4.295897,-61.37324,-6.98289,34.65118,0,0,0,-53.33941,-41.33067,1.499114,-36.03881,-110.6591,-50.37467,0.001067912,-0.1257102,0.09433498,0,0.3,0,0,0,0
638224215378833672,-18.30609,26.30048,25.5886,-39.69267,5.90826,54.64711,-16.98673,-0.4441859,-4.295897,-61.37324,-7.056135,34.65118,0,0,0,-55.63871,-37.83628,-0.1740337,-36.03881,-110.6591,-50.37467,0.001067912,-0.1257102,0.09433498,0,0.3,0,0,0,0
638224215379183548,-20.68565,29.01235,26.31237,-41.96327,4.809582,54.72035,-16.98673,-0.4441859,-4.295897,-61.37324,-6.98289,34.65118,0,0,0,-62.07352,-31.50921,-3.952654,-36.03881,-110.6591,-50.37467,0.001067912,-0.1257102,0.09433498,0,0.3,0,0,0,0
638224215379525005,-23.63064,31.65409,27.363,-45.18605,4.077131,54.7936,-16.98673,-0.4441859,-4.295897,-61.29999,-6.98289,34.57793,0,0,0,-70.06784,-25.09908,-8.204548,-36.03881,-110.6591,-50.37467,0.001067912,-0.1257102,0.09433498,0,0.3,0,0,0,0
638224215379864899,-25.23272,33.12691,28.08676,-47.31017,3.78415,54.86684,-16.98673,-0.4441859,-4.295897,-61.29999,-6.98289,34.65118,0,0,0,-74.37066,-21.42097,-10.53829,-36.03881,-110.6591,-50.37467,0.001067912,-0.1257102,0.09433498,0,0.3,0,0,0,0
638224215380204793,-28.36619,35.67514,29.74442,-51.4119,3.491169,54.86684,-16.98673,-0.4441859,-4.295897,-61.37324,-7.056135,34.57793,0,0,0,-82.89837,-14.66254,-14.81621,-36.03881,-110.6591,-50.37467,0.001067912,-0.1257102,0.09433498,0,0.3,0,0,0,0
638224215380544688,-31.66459,38.12985,32.0558,-56.24608,3.344679,54.86684,-16.98673,-0.4441859,-4.295897,-61.37324,-6.98289,34.65118,0,0,0,-92.21707,-7.331954,-18.83122,-36.03881,-110.6591,-50.37467,0.001067912,-0.1257102,0.09433498,0,0.3,0,0,0,0
638224215380884578,-33.07819,39.32214,33.15312,-58.66317,3.271434,54.86684,-16.98673,-0.4441859,-4.295897,-61.37324,-6.98289,34.65118,0,0,0,-96.10429,-3.791028,-20.80355,-36.03881,-110.6591,-50.37467,0.001067912,-0.1257102,0.09433498,0,0.3,0,0,0,0
638224215381224470,-35.33994,41.63658,35.27772,-63.13113,3.271434,54.86684,-16.98673,-0.4441859,-4.295897,-61.37324,-7.056135,34.57793,0,0,0,-102.1948,3.086301,-24.22821,-36.03881,-110.6591,-50.37467,0.001067912,-0.1257102,0.09433498,0,0.3,0,0,0,0
638224215381564354,-37.20118,43.92765,36.98207,-66.35391,3.198189,55.30631,-16.98673,-0.4441859,-4.295897,-61.37324,-6.98289,34.65118,0,0,0,-106.5693,9.338326,-27.95617,-36.03881,-110.6591,-50.37467,0.001067912,-0.1257102,0.09433498,0,0.3,0,0,0,0
638224215381914231,-38.63834,46.61614,37.5424,-68.771,3.124943,55.67254,-16.98673,-0.4441859,-4.295897,-61.37324,-7.056135,34.57793,0,0,0,-107.9295,14.53097,-33.33447,-36.03881,-110.6591,-50.37467,0.001067912,-0.1257102,0.09433498,0,0.3,0,0,0,0
638224215382254129,-39.13309,48.11234,37.75253,-69.50346,2.978453,55.67254,-16.98673,-0.4441859,-4.295897,-61.37324,-6.98289,34.57793,0,0,0,-107.7189,17.18827,-35.95821,-36.03881,-110.6591,-50.37467,0.001067912,-0.1257102,0.09433498,0,0.3,0,0,0,0
638224215382594034,-39.62786,51.24502,38.21947,-70.30915,2.392492,55.81903,-16.98673,-0.4441859,-4.295897,-61.37324,-7.056135,34.57793,0,0,0,-105.8594,22.57436,-40.51451,-36.03881,-110.6591,-50.37467,0.001067912,-0.1257102,0.09433498,0,0.3,0,0,0,0
638224215382933928,-39.69854,54.84526,38.0327,-70.67538,1.293814,55.30631,-16.98673,-0.4441859,-4.295897,-61.37324,-6.98289,34.65118,0,0,0,-101.5223,27.3426,-46.05938,-36.03881,-110.6591,-50.37467,0.001067912,-0.1257102,0.09433498,0,0.3,0,0,0,0
638224215383274560,-39.60429,56.24796,37.56575,-70.60213,0.5613627,54.57386,-16.98673,-0.4441859,-4.295897,-61.37324,-7.056135,34.57793,0,0,0,-99.05761,28.52339,-48.62819,-36.03881,-110.6591,-50.37467,0.001067912,-0.1257102,0.09433498,0,0.3,0,0,0,0
638224215383614452,-38.99174,58.07146,35.4178,-69.28372,-0.5373149,52.44975,-16.98673,-0.4441859,-4.295897,-61.37324,-7.056135,34.57793,0,0,0,-92.99985,27.85197,-53.47087,-36.03881,-110.6591,-50.37467,0.001067912,-0.1257102,0.09433498,0,0.3,0,0,0,0
638224215383964327,-38.14358,58.44551,32.31261,-67.01311,-0.9035407,49.4467,-16.98673,-0.4441859,-4.295897,-61.37324,-6.98289,34.65118,0,0,0,-87.12595,24.28328,-57.40804,-36.03881,-110.6591,-50.37467,0.001067912,-0.1257102,0.09433498,0,0.3,0,0,0,0
638224215384304231,-36.94202,57.46363,28.6004,-64.74252,-0.4640697,45.27173,-16.98673,-0.4441859,-4.295897,-61.37324,-6.98289,34.57793,0,0,0,-81.46924,18.69215,-60.00873,-36.03881,-110.6591,-50.37467,0.001067912,-0.1257102,0.09433498,0,0.3,0,0,0,0
638224215384654108,-36.09386,56.48174,26.28902,-63.57059,0.1218917,43.14762,-16.98673,-0.4441859,-4.295897,-61.37324,-6.98289,34.57793,0,0,0,-78.17302,14.96743,-61.12389,-36.03881,-110.6591,-50.37467,0.001067912,-0.1257102,0.09433498,0,0.3,0,0,0,0
638224215384993990,-33.92635,53.3023,21.3394,-60.71403,1.953021,38.75291,-16.98673,-0.4441859,-4.295897,-61.37324,-6.98289,34.57793,0,0,0,-71.55965,6.0623,-61.9637,-36.03881,-110.6591,-50.37467,0.001067912,-0.1257102,0.09433498,0,0.3,0,0,0,0
638224215385333881,-31.71171,48.34613,16.203,-57.71098,4.882828,34.2117,-16.98673,-0.4441859,-4.295897,-61.37324,-6.98289,34.57793,0,0,0,-66.14642,-5.067632,-61.29875,-36.03881,-110.6591,-50.37467,0.001067912,-0.1257102,0.09433498,0,0.3,0,0,0,0
638224215385673794,-30.62795,45.5875,13.58811,-56.46581,6.713957,31.9411,-16.98673,-0.4441859,-4.295897,-61.37324,-6.98289,34.65118,0,0,0,-63.50444,-11.01294,-61.0893,-36.03881,-110.6591,-50.37467,0.001067912,-0.1257102,0.09433498,0,0.3,0,0,0,0
638224215386023681,-28.03635,39.67281,8.568447,-54.26846,10.74244,27.91262,-16.98673,-0.4441859,-4.295897,-61.29999,-6.98289,34.57793,0,0,0,-57.58253,-23.38063,-60.21858,-36.03881,-110.6591,-50.37467,0.001067912,-0.1257102,0.09433498,0,0.3,0,0,0,0
638224215386364453,-24.78508,32.93989,4.085772,-51.33865,15.64987,24.25036,-16.98673,-0.4441859,-4.295897,-61.37324,-6.98289,34.57793,0,0,0,-50.89865,-37.15085,-58.11984,-36.03881,-110.6591,-50.37467,0.001067912,-0.1257102,0.09433498,0,0.3,0,0,0,0
638224215386704333,-21.98145,26.88494,1.470878,-47.82288,21.28975,22.1995,-16.98673,-0.4441859,-4.295897,-61.37324,-7.056135,34.65118,0,0,0,-45.80012,-49.65517,-54.88494,-36.03881,-110.6591,-50.37467,0.001067912,-0.1257102,0.09433498,0,0.3,0,0,0,0
638224215387044238,-20.96836,24.33671,0.8638488,-46.13824,24.07306,21.68678,-16.98673,-0.4441859,-4.295897,-61.37324,-6.98289,34.57793,0,0,0,-44.19867,-55.03155,-53.01823,-36.03881,-110.6591,-50.37467,0.001067912,-0.1257102,0.09433498,0,0.3,0,0,0,0
638224215387384128,-19.97885,21.06376,0.5603344,-43.35493,28.68751,20.95433,-16.98673,-0.4441859,-4.295897,-61.37324,-6.98289,34.65118,0,0,0,-42.96328,-62.06675,-50.17362,-36.03881,-110.6591,-50.37467,0.001067912,-0.1257102,0.09433498,0,0.3,0,0,0,0
638224215387734015,-19.97885,20.52606,1.003932,-41.59705,31.47083,20.29512,-16.98673,-0.4441859,-4.295897,-61.37324,-6.98289,34.57793,0,0,0,-43.4678,-63.22256,-48.78586,-36.03881,-110.6591,-50.37467,0.001067912,-0.1257102,0.09433498,0,0.3,0,0,0,0
638224215388063912,-20.07309,20.99363,1.657656,-40.86459,32.13003,20.00214,-16.98673,-0.4441859,-4.295897,-61.37324,-6.98289,34.65118,0,0,0,-44.05407,-62.16968,-47.79115,-36.03881,-110.6591,-50.37467,0.001067912,-0.1257102,0.09433498,0,0.3,0,0,0,0
638224215388403804,-20.49717,22.46645,3.24527,-40.0589,32.05679,19.78241,-16.98673,-0.4441859,-4.295897,-61.37324,-7.056135,34.57793,0,0,0,-45.79343,-58.82746,-45.85144,-36.03881,-110.6591,-50.37467,0.001067912,-0.1257102,0.09433498,0,0.3,0,0,0,0
638224215388753689,-21.51024,25.01468,5.509954,-39.91241,30.44539,19.78241,-16.98673,-0.4441859,-4.295897,-61.37324,-7.056135,34.57793,0,0,0,-49.00358,-52.99676,-44.01236,-36.03881,-110.6591,-50.37467,0.001067912,-0.1257102,0.09433498,0,0.3,0,0,0,0
638224215389083572,-22.09924,26.44075,6.817402,-40.27863,29.34671,19.78241,-16.98673,-0.4441859,-4.295897,-61.37324,-7.056135,34.57793,0,0,0,-50.87528,-49.68012,-43.05454,-36.03881,-110.6591,-50.37467,0.001067912,-0.1257102,0.09433498,0,0.3,0,0,0,0
638224215389433935,-23.23012,29.45654,9.922588,-41.59705,26.19717,20.00214,-16.98673,-0.4441859,-4.295897,-61.37324,-7.056135,34.65118,0,0,0,-54.86068,-42.42866,-40.53606,-36.03881,-110.6591,-50.37467,0.001067912,-0.1257102,0.09433498,0,0.3,0,0,0,0
638224215389773840,-24.31388,32.51908,13.49472,-43.13519,22.60816,20.95433,-16.98673,-0.4441859,-4.295897,-61.37324,-7.056135,34.65118,0,0,0,-59.10885,-34.63205,-37.52292,-36.03881,-110.6591,-50.37467,0.001067912,-0.1257102,0.09433498,0,0.3,0,0,0,0
638224215390123732,-25.39764,34.95041,16.73999,-44.74659,19.53186,22.56572,-16.98673,-0.4441859,-4.295897,-61.37324,-7.056135,34.65118,0,0,0,-63.35197,-27.957,-34.91687,-36.03881,-110.6591,-50.37467,0.001067912,-0.1257102,0.09433498,0,0.3,0,0,0,0
638224215390460226,-26.10444,36.04919,18.42099,-45.62553,17.99371,23.73765,-16.98673,-0.4441859,-4.295897,-61.29999,-6.98289,34.65118,0,0,0,-65.98074,-24.69343,-33.69296,-36.03881,-110.6591,-50.37467,0.001067912,-0.1257102,0.09433498,0,0.3,0,0,0,0
638224215390800108,-27.68295,38.08309,22.13321,-48.04262,14.84417,26.52096,-16.98673,-0.4441859,-4.295897,-61.37324,-6.98289,34.65118,0,0,0,-72.10407,-17.92273,-30.91265,-36.03881,-110.6591,-50.37467,0.001067912,-0.1257102,0.09433498,0,0.3,0,0,0,0
638224215391149991,-29.12011,39.7897,25.6353,-50.75269,11.91436,29.30428,-16.98673,-0.4441859,-4.295897,-61.37324,-6.98289,34.65118,0,0,0,-77.93994,-11.53364,-28.43516,-36.03881,-110.6591,-50.37467,0.001067912,-0.1257102,0.09433498,0,0.3,0,0,0,0
638224215391479892,-29.68555,40.46767,27.05948,-52.14435,10.52271,30.69594,-16.98673,-0.4441859,-4.295897,-61.37324,-6.98289,34.57793,0,0,0,-80.28425,-8.856141,-27.51421,-36.03881,-110.6591,-50.37467,0.001067912,-0.1257102,0.09433498,0,0.3,0,0,0,0
638224215391819794,-30.41591,41.26253,28.78718,-54.3417,8.325351,33.62574,-16.98673,-0.4441859,-4.295897,-61.37324,-6.98289,34.65118,0,0,0,-83.25882,-5.574183,-26.52902,-36.03881,-110.6591,-50.37467,0.001067912,-0.1257102,0.09433498,0,0.3,0,0,0,0
638224215392159671,-30.60439,41.51969,28.9973,-55.9531,6.860447,36.18932,-16.98673,-0.4441859,-4.295897,-61.37324,-7.056135,34.65118,0,0,0,-83.74142,-4.888882,-26.77575,-36.03881,-110.6591,-50.37467,0.001067912,-0.1257102,0.09433498,0,0.3,0,0,0,0
638224215392499572,-30.53371,41.51969,27.87663,-56.83204,6.274486,37.50774,-16.98673,-0.4441859,-4.295897,-61.37324,-7.056135,34.65118,0,0,0,-82.4015,-6.130885,-28.64802,-36.03881,-110.6591,-50.37467,0.001067912,-0.1257102,0.09433498,0,0.3,0,0,0,0
638224215392839464,-30.22743,41.35604,26.75597,-57.12502,6.127995,37.65423,-16.98673,-0.4441859,-4.295897,-61.37324,-6.98289,34.65118,0,0,0,-80.61381,-7.613323,-29.99401,-36.03881,-110.6591,-50.37467,0.001067912,-0.1257102,0.09433498,0,0.3,0,0,0,0
638224215393179348,-28.64891,39.88321,23.27722,-56.68555,6.274486,36.26257,-16.98673,-0.4441859,-4.295897,-61.29999,-6.98289,34.65118,0,0,0,-74.32481,-13.63845,-32.30511,-36.03881,-110.6591,-50.37467,0.001067912,-0.1257102,0.09433498,0,0.3,0,0,0,0
638224215393519249,-26.34004,36.84405,20.07865,-54.3417,7.299919,33.91872,-16.98673,-0.4441859,-4.295897,-61.37324,-6.98289,34.65118,0,0,0,-67.66229,-21.93343,-31.68626,-36.03881,-110.6591,-50.37467,0.001067912,-0.1257102,0.09433498,0,0.3,0,0,0,0
638224215393849134,-25.39764,35.11406,19.02802,-52.80355,8.471841,32.82005,-16.98673,-0.4441859,-4.295897,-61.37324,-6.98289,34.65118,0,0,0,-65.43164,-26.00993,-30.53662,-36.03881,-110.6591,-50.37467,0.001067912,-0.1257102,0.09433498,0,0.3,0,0,0,0
638224215394189026,-24.5966,31.86449,18.04744,-50.23997,10.96218,31.06216,-16.98673,-0.4441859,-4.295897,-61.37324,-6.98289,34.65118,0,0,0,-64.33469,-33.04215,-27.80881,-36.03881,-110.6591,-50.37467,0.001067912,-0.1257102,0.09433498,0,0.3,0,0,0,0
638224215394528916,-24.95,29.01235,18.72451,-49.21454,13.08629,29.52402,-16.98673,-0.4441859,-4.295897,-61.37324,-7.056135,34.57793,0,0,0,-67.24953,-38.26769,-23.80371,-36.03881,-110.6591,-50.37467,0.001067912,-0.1257102,0.09433498,0,0.3,0,0,0,0
638224215394868813,-25.60968,27.8902,19.91522,-49.21454,13.96523,29.08454,-16.98673,-0.4441859,-4.295897,-61.37324,-7.056135,34.57793,0,0,0,-70.57745,-39.64709,-21.10733,-36.03881,-110.6591,-50.37467,0.001067912,-0.1257102,0.09433498,0,0.3,0,0,0,0
638224215395198714,-27.94211,26.44075,23.83756,-50.53296,14.62444,28.86481,-16.98673,-0.4441859,-4.295897,-61.37324,-6.98289,34.65118,0,0,0,-81.20184,-39.24754,-15.25863,-36.03881,-110.6591,-50.37467,0.001067912,-0.1257102,0.09433498,0,0.3,0,0,0,0
638224215395538605,-30.62795,25.90305,28.69379,-53.31627,13.74549,29.23104,-16.98673,-0.4441859,-4.295897,-61.37324,-6.98289,34.65118,0,0,0,-93.72968,-35.37048,-10.03806,-36.03881,-110.6591,-50.37467,0.001067912,-0.1257102,0.09433498,0,0.3,0,0,0,0
638224215395878496,-31.78239,25.87967,31.07521,-55.29389,13.23278,29.96349,-16.98673,-0.4441859,-4.295897,-61.37324,-7.056135,34.57793,0,0,0,-99.44361,-32.65805,-7.853734,-36.03881,-110.6591,-50.37467,0.001067912,-0.1257102,0.09433498,0,0.3,0,0,0,0
638224215396228385,-33.05463,26.46413,33.40994,-58.29694,11.76787,31.9411,-16.98673,-0.4441859,-4.295897,-61.37324,-6.98289,34.65118,0,0,0,-105.162,-28.53848,-6.752286,-36.03881,-110.6591,-50.37467,0.001067912,-0.1257102,0.09433498,0,0.3,0,0,0,0
638224215396568264,-33.43158,28.24087,33.45663,-60.12807,10.37621,33.33276,-16.98673,-0.4441859,-4.295897,-61.37324,-6.98289,34.65118,0,0,0,-105.2261,-24.80589,-8.957514,-36.03881,-110.6591,-50.37467,0.001067912,-0.1257102,0.09433498,0,0.3,0,0,0,0
638224215396908146,-32.98395,30.6722,32.21923,-61.1535,8.838067,33.47925,-16.98673,-0.4441859,-4.295897,-61.37324,-6.98289,34.65118,0,0,0,-101.1455,-21.44075,-12.50402,-36.03881,-110.6591,-50.37467,0.001067912,-0.1257102,0.09433498,0,0.3,0,0,0,0
638224215397238062,-32.23003,32.19178,31.47211,-61.08026,8.03237,33.03978,-16.98673,-0.4441859,-4.295897,-61.37324,-7.056135,34.57793,0,0,0,-97.31477,-19.34059,-13.99621,-36.03881,-110.6591,-50.37467,0.001067912,-0.1257102,0.09433498,0,0.3,0,0,0,0
638224215397577948,-30.58083,35.23095,30.60827,-59.17588,6.567466,32.67356,-16.98673,-0.4441859,-4.295897,-61.37324,-7.056135,34.57793,0,0,0,-89.95877,-14.49405,-16.1218,-36.03881,-110.6591,-50.37467,0.001067912,-0.1257102,0.09433498,0,0.3,0,0,0,0
638224215397917845,-30.01539,38.73769,31.00517,-56.83204,4.956073,32.67356,-16.98673,-0.4441859,-4.295897,-61.37324,-6.98289,34.57793,0,0,0,-86.39326,-7.502528,-18.80527,-36.03881,-110.6591,-50.37467,0.001067912,-0.1257102,0.09433498,0,0.3,0,0,0,0
638224215398247741,-30.03895,40.72483,31.49546,-56.09959,4.150376,32.7468,-16.98673,-0.4441859,-4.295897,-61.37324,-6.98289,34.65118,0,0,0,-85.46334,-3.353959,-20.55527,-36.03881,-110.6591,-50.37467,0.001067912,-0.1257102,0.09433498,0,0.3,0,0,0,0
638224215398597628,-30.25099,44.81602,32.35931,-55.73336,2.612227,32.96654,-16.98673,-0.4441859,-4.295897,-61.29999,-6.98289,34.65118,0,0,0,-83.61259,4.697573,-24.98281,-36.03881,-110.6591,-50.37467,0.001067912,-0.1257102,0.09433498,0,0.3,0,0,0,0
638224215398927512,-30.86355,49.16436,33.64341,-56.02634,0.707853,33.11303,-16.98673,-0.4441859,-4.295897,-61.37324,-6.98289,34.65118,0,0,0,-82.63087,13.22697,-30.08434,-36.03881,-110.6591,-50.37467,0.001067912,-0.1257102,0.09433498,0,0.3,0,0,0,0
638224215399307400,-31.97087,53.44257,35.09094,-57.12502,-0.7570504,33.18628,-16.98673,-0.4441859,-4.295897,-61.37324,-6.98289,34.65118,0,0,0,-82.64604,21.35237,-35.93892,-36.03881,-110.6591,-50.37467,0.001067912,-0.1257102,0.09433498,0,0.3,0,0,0,0
638224215399647287,-32.77191,55.49986,35.90809,-58.15046,-1.562747,33.18628,-16.98673,-0.4441859,-4.295897,-61.37324,-7.056135,34.65118,0,0,0,-83.21807,25.23903,-39.08168,-36.03881,-110.6591,-50.37467,0.001067912,-0.1257102,0.09433498,0,0.3,0,0,0,0
638224215399977178,-34.53891,58.5624,36.98207,-60.34781,-2.368444,33.25952,-16.98673,-0.4441859,-4.295897,-61.37324,-6.98289,34.65118,0,0,0,-84.91446,30.60222,-44.97823,-36.03881,-110.6591,-50.37467,0.001067912,-0.1257102,0.09433498,0,0.3,0,0,0,0
638224215400317084,-37.17762,60.75995,37.5891,-63.13113,-2.441689,33.25952,-16.98673,-0.4441859,-4.295897,-61.37324,-6.98289,34.65118,0,0,0,-88.5162,34.04135,-51.63956,-36.03881,-110.6591,-50.37467,0.001067912,-0.1257102,0.09433498,0,0.3,0,0,0,0
638224215400656958,-38.6619,61.43792,37.91596,-64.66927,-2.221954,33.18628,-16.98673,-0.4441859,-4.295897,-61.37324,-6.98289,34.57793,0,0,0,-91.0224,35.26971,-54.58049,-36.03881,-110.6591,-50.37467,0.001067912,-0.1257102,0.09433498,0,0.3,0,0,0,0
638224215400996876,-41.53621,62.25616,38.40625,-67.89206,-1.562747,33.18628,-16.98673,-0.4441859,-4.295897,-61.37324,-6.98289,34.57793,0,0,0,-96.09447,36.87329,-59.87319,-36.03881,-110.6591,-50.37467,0.001067912,-0.1257102,0.09433498,0,0.3,0,0,0,0
638224215401336743,-44.33985,62.79386,38.96659,-71.11485,-0.3175794,33.18628,-16.98673,-0.4441859,-4.295897,-61.29999,-6.98289,34.65118,0,0,0,-101.2209,38.2658,-64.76934,-36.03881,-110.6591,-50.37467,0.001067912,-0.1257102,0.09433498,0,0.3,0,0,0,0
638224215401676647,-45.56496,62.86399,39.15337,-72.72624,0.4148723,33.11303,-16.98673,-0.4441859,-4.295897,-61.37324,-6.98289,34.57793,0,0,0,-103.5497,38.61426,-66.82255,-36.03881,-110.6591,-50.37467,0.001067912,-0.1257102,0.09433498,0,0.3,0,0,0,0
638224215402016542,-48.15656,62.84061,39.29345,-75.87578,1.66004,32.89329,-16.98673,-0.4441859,-4.295897,-61.37324,-6.98289,34.65118,0,0,0,-108.2587,38.7956,-71.40775,-36.03881,-110.6591,-50.37467,0.001067912,-0.1257102,0.09433498,0,0.3,0,0,0,0
638224215402356425,-50.489,62.84061,39.45688,-78.80559,2.831963,32.67356,-16.98673,-0.4441859,-4.295897,-61.37324,-7.056135,34.65118,0,0,0,-112.3412,39.0369,-75.70685,-36.03881,-110.6591,-50.37467,0.001067912,-0.1257102,0.09433498,0,0.3,0,0,0,0
638224215402696319,-51.76123,62.84061,39.57362,-80.27049,3.63766,32.60031,-16.98673,-0.4441859,-4.295897,-61.37324,-6.98289,34.65118,0,0,0,-114.535,39.20977,-78.09426,-36.03881,-110.6591,-50.37467,0.001067912,-0.1257102,0.09433498,0,0.3,0,0,0,0
638224215403036202,-53.99943,62.86399,39.57362,-82.54109,5.175808,32.60031,-16.98673,-0.4441859,-4.295897,-61.37324,-6.98289,34.65118,0,0,0,-117.9333,39.2346,-82.66462,-36.03881,-110.6591,-50.37467,0.001067912,-0.1257102,0.09433498,0,0.3,0,0,0,0
638224215403376084,-56.21407,63.00426,39.57362,-84.29898,6.787202,32.82005,-16.98673,-0.4441859,-4.295897,-61.37324,-6.98289,34.65118,0,0,0,-120.9148,39.38314,-87.44759,-36.03881,-110.6591,-50.37467,0.001067912,-0.1257102,0.09433498,0,0.3,0,0,0,0
638224215403715996,-57.41562,63.2848,39.57362,-85.69064,8.178861,32.89329,-16.98673,-0.4441859,-4.295897,-61.37324,-7.056135,34.57793,0,0,0,-122.0939,39.6781,-90.31462,-36.03881,-110.6591,-50.37467,0.001067912,-0.1257102,0.09433498,0,0.3,0,0,0,0
638224215404055885,-57.43919,63.56533,39.57362,-86.05686,8.838067,33.40601,-16.98673,-0.4441859,-4.295897,-61.37324,-6.98289,34.57793,0,0,0,-121.6338,39.9702,-90.6791,-36.03881,-110.6591,-50.37467,0.001067912,-0.1257102,0.09433498,0,0.3,0,0,0,0
638224215404395758,-57.43919,64.59397,39.64366,-86.1301,10.30297,35.89634,-16.98673,-0.4441859,-4.295897,-61.37324,-6.98289,34.65118,0,0,0,-119.9249,41.1206,-91.77035,-36.03881,-110.6591,-50.37467,0.001067912,-0.1257102,0.09433498,0,0.3,0,0,0,0
638224215404735648,-57.46275,65.90316,39.59696,-85.39766,10.59595,38.89939,-16.98673,-0.4441859,-4.295897,-61.37324,-7.056135,34.57793,0,0,0,-117.5531,42.32699,-93.35292,-36.03881,-110.6591,-50.37467,0.001067912,-0.1257102,0.09433498,0,0.3,0,0,0,0
638224215405075560,-57.46275,66.65126,39.45688,-85.03143,10.44946,40.14456,-16.98673,-0.4441859,-4.295897,-61.37324,-7.056135,34.65118,0,0,0,-115.9973,42.81996,-94.3455,-36.03881,-110.6591,-50.37467,0.001067912,-0.1257102,0.09433498,0,0.3,0,0,0,0
638224215405415452,-57.43919,68.40462,38.56968,-84.22573,9.717009,41.97569,-16.98673,-0.4441859,-4.295897,-61.37324,-7.056135,34.65118,0,0,0,-111.4366,43.07989,-97.19068,-36.03881,-110.6591,-50.37467,0.001067912,-0.1257102,0.09433498,0,0.3,0,0,0,0
638224215405765320,-57.41562,69.92421,36.58516,-82.76083,8.911312,42.41516,-16.98673,-0.4441859,-4.295897,-61.37324,-6.98289,34.65118,0,0,0,-105.5381,41.52127,-100.8961,-36.03881,-110.6591,-50.37467,0.001067912,-0.1257102,0.09433498,0,0.3,0,0,0,0
638224215406105235,-57.39207,70.88271,33.80684,-80.9297,8.105616,41.17,-16.98673,-0.4441859,-4.295897,-61.37324,-7.056135,34.65118,0,0,0,-99.28919,38.54284,-104.8325,-36.03881,-110.6591,-50.37467,0.001067912,-0.1257102,0.09433498,0,0.3,0,0,0,0
638224215406445119,-57.39207,70.9996,32.19588,-80.124,7.959125,39.92483,-16.98673,-0.4441859,-4.295897,-61.37324,-6.98289,34.65118,0,0,0,-96.42389,36.58963,-106.6655,-36.03881,-110.6591,-50.37467,0.001067912,-0.1257102,0.09433498,0,0.3,0,0,0,0
638224215406785009,-57.36851,70.83595,29.25412,-78.95209,7.88588,36.4823,-16.98673,-0.4441859,-4.295897,-61.29999,-6.98289,34.65118,0,0,0,-91.74562,32.96743,-109.6051,-36.03881,-110.6591,-50.37467,0.001067912,-0.1257102,0.09433498,0,0.3,0,0,0,0
638224215407134898,-57.03867,70.27488,25.84542,-77.92664,7.959125,32.30733,-16.98673,-0.4441859,-4.295897,-61.37324,-6.98289,34.57793,0,0,0,-86.53831,28.86392,-112.2344,-36.03881,-110.6591,-50.37467,0.001067912,-0.1257102,0.09433498,0,0.3,0,0,0,0
638224215407464789,-56.70883,69.7138,23.83756,-77.12095,8.03237,30.03673,-16.98673,-0.4441859,-4.295897,-61.37324,-6.98289,34.65118,0,0,0,-83.69491,26.45406,-113.3912,-36.03881,-110.6591,-50.37467,0.001067912,-0.1257102,0.09433498,0,0.3,0,0,0,0
638224215407804682,-56.14339,68.05395,20.0553,-75.50956,8.252106,25.935,-16.98673,-0.4441859,-4.295897,-61.37324,-6.98289,34.57793,0,0,0,-79.36184,21.77302,-115.1082,-36.03881,-110.6591,-50.37467,0.001067912,-0.1257102,0.09433498,0,0.3,0,0,0,0
638224215408144566,-55.48371,64.9914,16.31974,-73.97141,8.911312,21.54029,-16.98673,-0.4441859,-4.295897,-61.37324,-7.056135,34.65118,0,0,0,-77.32523,16.22055,-115.1735,-36.03881,-110.6591,-50.37467,0.001067912,-0.1257102,0.09433498,0,0.3,0,0,0,0
638224215408484466,-55.01251,62.81723,14.1251,-73.45869,9.424027,19.48943,-16.98673,-0.4441859,-4.295897,-61.37324,-6.98289,34.57793,0,0,0,-76.5705,12.65381,-114.7597,-36.03881,-110.6591,-50.37467,0.001067912,-0.1257102,0.09433498,0,0.3,0,0,0,0
638224215408814370,-53.50467,58.2351,9.875894,-72.14028,11.18191,16.48637,-16.98673,-0.4441859,-4.295897,-61.37324,-6.98289,34.65118,0,0,0,-74.82074,5.352259,-112.995,-36.03881,-110.6591,-50.37467,0.001067912,-0.1257102,0.09433498,0,0.3,0,0,0,0
638224215409164248,-51.97327,52.8815,6.023595,-70.23591,13.15953,14.50875,-16.98673,-0.4441859,-4.295897,-61.37324,-6.98289,34.65118,0,0,0,-74.41278,-2.931911,-110.1564,-36.03881,-110.6591,-50.37467,0.001067912,-0.1257102,0.09433498,0,0.3,0,0,0,0
638224215409504149,-50.77172,47.20059,3.362006,-68.84425,16.01609,13.04385,-16.98673,-0.4441859,-4.295897,-61.37324,-7.056135,34.65118,0,0,0,-76.24142,-11.92668,-106.1063,-36.03881,-110.6591,-50.37467,0.001067912,-0.1257102,0.09433498,0,0.3,0,0,0,0
638224215409844041,-50.1356,44.5121,2.381421,-68.55127,17.481,12.53114,-16.98673,-0.4441859,-4.295897,-61.37324,-6.98289,34.65118,0,0,0,-77.24232,-16.3985,-103.8469,-36.03881,-110.6591,-50.37467,0.001067912,-0.1257102,0.09433498,0,0.3,0,0,0,0
638224215410183933,-48.4864,39.22863,0.5136398,-67.96531,20.33756,11.94517,-16.98673,-0.4441859,-4.295897,-61.37324,-6.98289,34.65118,0,0,0,-78.24356,-25.66192,-99.09283,-36.03881,-110.6591,-50.37467,0.001067912,-0.1257102,0.09433498,0,0.3,0,0,0,0
638224215410523825,-46.366,33.43083,-1.190711,-66.42715,23.78008,11.72544,-16.98673,-0.4441859,-4.295897,-61.37324,-6.98289,34.65118,0,0,0,-78.5401,-36.5047,-93.46836,-36.03881,-110.6591,-50.37467,0.001067912,-0.1257102,0.09433498,0,0.3,0,0,0,0
638224215410863695,-45.40005,30.62544,-1.70435,-65.54821,25.68446,11.87193,-16.98673,-0.4441859,-4.295897,-61.37324,-7.056135,34.65118,0,0,0,-78.88092,-42.00937,-90.56297,-36.03881,-110.6591,-50.37467,0.001067912,-0.1257102,0.09433498,0,0.3,0,0,0,0
638224215411203603,-43.68017,24.68738,-1.984518,-63.71709,29.27347,12.89736,-16.98673,-0.4441859,-4.295897,-61.37324,-6.98289,34.57793,0,0,0,-80.48903,-54.22412,-84.06465,-36.03881,-110.6591,-50.37467,0.001067912,-0.1257102,0.09433498,0,0.3,0,0,0,0
638224215411542254,-42.90269,19.77796,-0.5603344,-61.88596,32.71599,13.92279,-16.98673,-0.4441859,-4.295897,-61.37324,-6.98289,34.65118,0,0,0,-84.536,-64.87119,-77.38699,-36.03881,-110.6591,-50.37467,0.001067912,-0.1257102,0.09433498,0,0.3,0,0,0,0
638224215411892142,-42.97337,17.79081,0.8171543,-61.37324,34.1809,14.50875,-16.98673,-0.4441859,-4.295897,-61.37324,-6.98289,34.57793,0,0,0,-87.84856,-69.24233,-74.05612,-36.03881,-110.6591,-50.37467,0.001067912,-0.1257102,0.09433498,0,0.3,0,0,0,0
638224215412228810,-43.51525,15.40624,4.01573,-60.78728,36.23176,16.0469,-16.98673,-0.4441859,-4.295897,-61.37324,-7.056135,34.65118,0,0,0,-94.94852,-74.2467,-68.34845,-36.03881,-110.6591,-50.37467,0.001067912,-0.1257102,0.09433498,0,0.3,0,0,0,0
638224215412568700,-44.97597,14.86854,8.03146,-60.86052,36.67123,18.61049,-16.98673,-0.4441859,-4.295897,-61.37324,-6.98289,34.65118,0,0,0,-104.266,-74.47415,-63.99648,-36.03881,-110.6591,-50.37467,0.001067912,-0.1257102,0.09433498,0,0.3,0,0,0,0
638224215412918570,-46.8372,15.3361,11.93045,-61.88596,35.42606,21.24731,-16.98673,-0.4441859,-4.295897,-61.37324,-6.98289,34.65118,0,0,0,-113.9111,-71.85103,-61.51944,-36.03881,-110.6591,-50.37467,0.001067912,-0.1257102,0.09433498,0,0.3,0,0,0,0
638224215413268478,-47.75604,15.8738,13.75154,-62.61841,34.54712,22.78546,-16.98673,-0.4441859,-4.295897,-61.37324,-6.98289,34.65118,0,0,0,-118.4194,-69.7038,-60.80814,-36.03881,-110.6591,-50.37467,0.001067912,-0.1257102,0.09433498,0,0.3,0,0,0,0
638224215413608372,-49.28744,17.32325,16.36643,-64.74252,32.42301,24.90957,-16.98673,-0.4441859,-4.295897,-61.37324,-7.056135,34.57793,0,0,0,-124.975,-64.88995,-60.80687,-36.03881,-110.6591,-50.37467,0.001067912,-0.1257102,0.09433498,0,0.3,0,0,0,0
638224215413948261,-50.3712,19.12337,17.51045,-67.01311,30.15241,26.08149,-16.98673,-0.4441859,-4.295897,-61.29999,-6.98289,34.65118,0,0,0,-127.9394,-60.13494,-62.40098,-36.03881,-110.6591,-50.37467,0.001067912,-0.1257102,0.09433498,0,0.3,0,0,0,0
638224215414288151,-50.8424,20.01174,17.58049,-67.96531,29.12698,26.37447,-16.98673,-0.4441859,-4.295897,-61.37324,-6.98289,34.57793,0,0,0,-128.3899,-58.13763,-63.79583,-36.03881,-110.6591,-50.37467,0.001067912,-0.1257102,0.09433498,0,0.3,0,0,0,0
638224215414628032,-51.73767,22.18591,17.37037,-69.79643,27.36909,26.08149,-16.98673,-0.4441859,-4.295897,-61.37324,-7.056135,34.65118,0,0,0,-128.2115,-53.56384,-67.2315,-36.03881,-110.6591,-50.37467,0.001067912,-0.1257102,0.09433498,0,0.3,0,0,0,0
638224215414967935,-52.37379,24.57049,16.6466,-71.55432,25.97744,24.83632,-16.98673,-0.4441859,-4.295897,-61.37324,-6.98289,34.57793,0,0,0,-126.3064,-48.9627,-70.98891,-36.03881,-110.6591,-50.37467,0.001067912,-0.1257102,0.09433498,0,0.3,0,0,0,0
638224215415307822,-52.58583,27.44601,14.75547,-73.16571,24.65902,22.8587,-16.98673,-0.4441859,-4.295897,-61.37324,-7.056135,34.65118,0,0,0,-120.9699,-44.13964,-75.8141,-36.03881,-110.6591,-50.37467,0.001067912,-0.1257102,0.09433498,0,0.3,0,0,0,0
638224215415647709,-52.53872,28.73181,13.37798,-73.45869,24.14631,21.97976,-16.98673,-0.4441859,-4.295897,-61.37324,-6.98289,34.65118,0,0,0,-117.307,-42.27879,-78.46307,-36.03881,-110.6591,-50.37467,0.001067912,-0.1257102,0.09433498,0,0.3,0,0,0,0
638224215415977611,-52.02039,30.8826,10.06267,-73.09246,23.12087,19.78241,-16.98673,-0.4441859,-4.295897,-61.37324,-7.056135,34.57793,0,0,0,-108.5734,-39.50272,-83.58537,-36.03881,-110.6591,-50.37467,0.001067912,-0.1257102,0.09433498,0,0.3,0,0,0,0
638224215416327500,-50.34764,31.5372,6.163678,-71.8473,22.75465,17.14558,-16.98673,-0.4441859,-4.295897,-61.37324,-6.98289,34.65118,0,0,0,-98.52951,-39.48015,-86.68751,-36.03881,-110.6591,-50.37467,0.001067912,-0.1257102,0.09433498,0,0.3,0,0,0,0
638224215416667393,-49.1932,31.35017,4.599411,-70.82186,22.82789,16.19339,-16.98673,-0.4441859,-4.295897,-61.37324,-6.98289,34.65118,0,0,0,-94.29265,-40.19296,-86.93923,-36.03881,-110.6591,-50.37467,0.001067912,-0.1257102,0.09433498,0,0.3,0,0,0,0
638224215417007287,-46.86076,31.02288,3.105186,-68.03855,23.85333,15.09472,-16.98673,-0.4441859,-4.295897,-61.37324,-6.98289,34.57793,0,0,0,-88.65733,-41.07825,-85.27199,-36.03881,-110.6591,-50.37467,0.001067912,-0.1257102,0.09433498,0,0.3,0,0,0,0
638224215417347162,-45.44716,30.83585,3.642174,-65.40173,25.39147,14.80174,-16.98673,-0.4441859,-4.295897,-61.37324,-6.98289,34.57793,0,0,0,-87.62934,-41.37809,-82.0779,-36.03881,-110.6591,-50.37467,0.001067912,-0.1257102,0.09433498,0,0.3,0,0,0,0
638224215417687064,-44.90529,30.57869,4.319244,-64.30305,25.90419,14.94823,-16.98673,-0.4441859,-4.295897,-61.37324,-6.98289,34.57793,0,0,0,-88.13499,-41.78329,-79.92313,-36.03881,-110.6591,-50.37467,0.001067912,-0.1257102,0.09433498,0,0.3,0,0,0,0
638224215418036949,-43.49169,29.45654,6.513887,-61.9592,26.78313,16.92585,-16.98673,-0.4441859,-4.295897,-61.37324,-7.056135,34.57793,0,0,0,-90.32548,-43.56253,-73.13914,-36.03881,-110.6591,-50.37467,0.001067912,-0.1257102,0.09433498,0,0.3,0,0,0,0
638224215418376829,-41.79537,28.1006,9.082087,-59.6886,27.58883,20.14863,-16.98673,-0.4441859,-4.295897,-61.37324,-6.98289,34.65118,0,0,0,-92.42648,-45.51755,-64.95979,-36.03881,-110.6591,-50.37467,0.001067912,-0.1257102,0.09433498,0,0.3,0,0,0,0
638224215418726731,-40.07549,26.69791,11.72033,-57.19827,28.10155,24.32361,-16.98673,-0.4441859,-4.295897,-61.37324,-6.98289,34.65118,0,0,0,-94.13673,-47.30742,-56.46194,-36.03881,-110.6591,-50.37467,0.001067912,-0.1257102,0.09433498,0,0.3,0,0,0,0
638224215419056631,-39.27446,25.97318,13.00443,-56.02634,28.32128,26.44772,-16.98673,-0.4441859,-4.295897,-61.37324,-7.056135,34.65118,0,0,0,-94.88497,-48.17924,-52.31771,-36.03881,-110.6591,-50.37467,0.001067912,-0.1257102,0.09433498,0,0.3,0,0,0,0
638224215419406515,-37.8373,24.19644,15.99288,-53.16978,28.32128,31.13541,-16.98673,-0.4441859,-4.295897,-61.37324,-6.98289,34.65118,0,0,0,-97.15054,-50.18314,-43.27248,-36.03881,-110.6591,-50.37467,0.001067912,-0.1257102,0.09433498,0,0.3,0,0,0,0
638224215419746389,-37.17762,22.93402,19.77514,-50.89918,27.73532,35.0174,-16.98673,-0.4441859,-4.295897,-61.37324,-6.98289,34.57793,0,0,0,-101.4753,-50.17344,-34.55267,-36.03881,-110.6591,-50.37467,0.001067912,-0.1257102,0.09433498,0,0.3,0,0,0,0
638224215420086302,-37.03626,22.46645,21.7363,-50.23997,27.14936,36.55555,-16.98673,-0.4441859,-4.295897,-61.37324,-6.98289,34.65118,0,0,0,-103.9686,-49.55987,-30.56056,-36.03881,-110.6591,-50.37467,0.001067912,-0.1257102,0.09433498,0,0.3,0,0,0,0
638224215420426194,-36.51794,21.36768,26.05555,-49.58077,25.31823,39.5586,-16.98673,-0.4441859,-4.295897,-61.37324,-6.98289,34.65118,0,0,0,-108.7538,-47.86118,-21.47383,-36.03881,-110.6591,-50.37467,0.001067912,-0.1257102,0.09433498,0,0.3,0,0,0,0
638224215420776060,-35.78758,20.24553,30.14132,-48.9948,23.26737,42.92788,-16.98673,-0.4441859,-4.295897,-61.37324,-6.98289,34.57793,0,0,0,-112.3197,-45.82475,-12.54376,-36.03881,-110.6591,-50.37467,0.001067912,-0.1257102,0.09433498,0,0.3,0,0,0,0
638224215421115974,-35.15146,19.09999,34.32048,-48.3356,20.77703,46.80988,-16.98673,-0.4441859,-4.295897,-61.37324,-7.056135,34.57793,0,0,0,-115.8357,-43.14885,-3.84674,-36.03881,-110.6591,-50.37467,0.001067912,-0.1257102,0.09433498,0,0.3,0,0,0,0
638224215421445855,-34.98654,18.51554,36.46843,-48.04262,19.53186,48.86074,-16.98673,-0.4441859,-4.295897,-61.29999,-6.98289,34.65118,0,0,0,-117.9497,-41.54114,0.1838556,-36.03881,-110.6591,-50.37467,0.001067912,-0.1257102,0.09433498,0,0.3,0,0,0,0
638224215421785756,-34.72738,17.27649,40.60089,-48.04262,17.04152,52.88922,-16.98673,-0.4441859,-4.295897,-61.37324,-7.056135,34.65118,0,0,0,-121.9759,-38.29477,7.625866,-36.03881,-110.6591,-50.37467,0.001067912,-0.1257102,0.09433498,0,0.3,0,0,0,0
638224215422125650,-34.56246,16.17772,44.45319,-48.3356,14.77092,56.62473,-16.98673,-0.4441859,-4.295897,-61.37324,-6.98289,34.65118,0,0,0,-125.6342,-34.68461,14.0226,-36.03881,-110.6591,-50.37467,0.001067912,-0.1257102,0.09433498,0,0.3,0,0,0,0
638224215422465542,-34.53891,15.6634,46.5311,-48.70182,13.52576,58.60235,-16.98673,-0.4441859,-4.295897,-61.37324,-6.98289,34.65118,0,0,0,-127.6673,-32.38702,17.13717,-36.03881,-110.6591,-50.37467,0.001067912,-0.1257102,0.09433498,0,0.3,0,0,0,0
638224215422805435,-34.63314,15.10232,50.36005,-49.65401,11.3284,61.75189,-16.98673,-0.4441859,-4.295897,-61.37324,-6.98289,34.65118,0,0,0,-131.528,-26.97862,22.07489,-36.03881,-110.6591,-50.37467,0.001067912,-0.1257102,0.09433498,0,0.3,0,0,0,0
638224215423145327,-34.96298,14.93867,54.32909,-51.26541,9.350782,64.24223,-16.98673,-0.4441859,-4.295897,-61.37324,-6.98289,34.65118,0,0,0,-135.9118,-20.03461,26.01934,-36.03881,-110.6591,-50.37467,0.001067912,-0.1257102,0.09433498,0,0.3,0,0,0,0
638224215423485204,-35.1279,14.98543,56.3603,-52.43733,8.471841,65.12117,-16.98673,-0.4441859,-4.295897,-61.37324,-6.98289,34.65118,0,0,0,-138.0013,-16.04095,27.80283,-36.03881,-110.6591,-50.37467,0.001067912,-0.1257102,0.09433498,0,0.3,0,0,0,0
638224215423825093,-35.2457,15.68677,60.02582,-55.36714,7.080183,66.1466,-16.98673,-0.4441859,-4.295897,-61.29999,-6.98289,34.65118,0,0,0,-140.7495,-7.218016,30.83763,-36.03881,-110.6591,-50.37467,0.001067912,-0.1257102,0.09433498,0,0.3,0,0,0,0
638224215424164996,-35.2457,17.93108,62.40724,-59.17588,5.90826,66.51283,-16.98673,-0.4441859,-4.295897,-61.37324,-7.056135,34.57793,0,0,0,-141.4178,2.639246,31.78345,-36.03881,-110.6591,-50.37467,0.001067912,-0.1257102,0.09433498,0,0.3,0,0,0,0
638224215424514890,-35.15146,21.18065,64.36842,-63.20437,4.589847,66.00011,-16.98673,-0.4441859,-4.295897,-61.37324,-6.98289,34.65118,0,0,0,-140.8083,13.84572,31.61786,-36.03881,-110.6591,-50.37467,0.001067912,-0.1257102,0.09433498,0,0.3,0,0,0,0
638224215424854766,-34.96298,22.9574,64.97544,-65.32848,3.93064,65.26765,-16.98673,-0.4441859,-4.295897,-61.37324,-7.056135,34.57793,0,0,0,-139.6057,18.95476,31.30207,-36.03881,-110.6591,-50.37467,0.001067912,-0.1257102,0.09433498,0,0.3,0,0,0,0
638224215425194673,-34.16194,26.86156,65.13887,-69.06399,2.172756,63.72951,-16.98673,-0.4441859,-4.295897,-61.37324,-7.056135,34.65118,0,0,0,-134.7423,27.53931,30.20086,-36.03881,-110.6591,-50.37467,0.001067912,-0.1257102,0.09433498,0,0.3,0,0,0,0
638224215425534564,-33.12531,30.9995,65.04549,-71.48107,0.1218917,62.70407,-16.98673,-0.4441859,-4.295897,-61.37324,-6.98289,34.65118,0,0,0,-128.5328,35.76913,28.62863,-36.03881,-110.6591,-50.37467,0.001067912,-0.1257102,0.09433498,0,0.3,0,0,0,0
638224215425874451,-32.51274,33.10354,64.78866,-72.28677,-0.9767859,62.26461,-16.98673,-0.4441859,-4.295897,-61.37324,-6.98289,34.65118,0,0,0,-124.8866,39.37804,27.58654,-36.03881,-110.6591,-50.37467,0.001067912,-0.1257102,0.09433498,0,0.3,0,0,0,0
638224215426214341,-30.93423,37.66228,63.38783,-73.38544,-3.540367,61.38566,-16.98673,-0.4441859,-4.295897,-61.37324,-6.98289,34.57793,0,0,0,-115.5521,45.09365,24.46206,-36.03881,-110.6591,-50.37467,0.001067912,-0.1257102,0.09433498,0,0.3,0,0,0,0
638224215426544238,-29.23791,41.84698,60.70289,-72.72624,-6.323683,59.84751,-16.98673,-0.4441859,-4.295897,-61.37324,-6.98289,34.65118,0,0,0,-105.3217,47.06031,19.80857,-36.03881,-110.6591,-50.37467,0.001067912,-0.1257102,0.09433498,0,0.3,0,0,0,0
638224215426894110,-28.31907,43.64711,59.09193,-72.06703,-7.495606,58.45585,-16.98673,-0.4441859,-4.295897,-61.37324,-7.056135,34.57793,0,0,0,-100.0499,46.89328,17.31465,-36.03881,-110.6591,-50.37467,0.001067912,-0.1257102,0.09433498,0,0.3,0,0,0,0
638224215427234008,-25.96308,46.45249,54.6326,-69.50346,-9.546471,53.91465,-16.98673,-0.4441859,-4.295897,-61.37324,-6.98289,34.57793,0,0,0,-87.82695,42.81724,12.01684,-36.03881,-110.6591,-50.37467,0.001067912,-0.1257102,0.09433498,0,0.3,0,0,0,0
638224215427573912,-23.48928,46.96681,49.0526,-64.88901,-10.79164,47.8353,-16.98673,-0.4441859,-4.295897,-61.37324,-6.98289,34.65118,0,0,0,-76.41598,33.43029,7.484674,-36.03881,-110.6591,-50.37467,0.001067912,-0.1257102,0.09433498,0,0.3,0,0,0,0
638224215427913804,-21.95788,45.0498,44.8501,-59.6886,-11.01137,41.75596,-16.98673,-0.4441859,-4.295897,-61.37324,-7.056135,34.57793,0,0,0,-70.39375,23.18554,6.250059,-36.03881,-110.6591,-50.37467,0.001067912,-0.1257102,0.09433498,0,0.3,0,0,0,0
638224215428255958,-21.41601,43.55359,43.28583,-57.418,-10.35217,39.04589,-16.98673,-0.4441859,-4.295897,-61.37324,-6.98289,34.65118,0,0,0,-68.67225,18.16141,6.736955,-36.03881,-110.6591,-50.37467,0.001067912,-0.1257102,0.09433498,0,0.3,0,0,0,0
638224215428595849,-20.92125,40.5378,41.93169,-53.60925,-8.081567,35.53012,-16.98673,-0.4441859,-4.295897,-61.37324,-7.056135,34.65118,0,0,0,-68.0079,10.81611,9.547143,-36.03881,-110.6591,-50.37467,0.001067912,-0.1257102,0.09433498,0,0.3,0,0,0,0
638224215428935742,-21.34533,37.87269,42.25855,-51.4119,-5.664476,34.06521,-16.98673,-0.4441859,-4.295897,-61.37324,-6.98289,34.57793,0,0,0,-70.95521,6.52006,13.21618,-36.03881,-110.6591,-50.37467,0.001067912,-0.1257102,0.09433498,0,0.3,0,0,0,0
638224215429275634,-21.81652,36.82067,42.84223,-50.89918,-4.712289,33.69899,-16.98673,-0.4441859,-4.295897,-61.37324,-7.056135,34.65118,0,0,0,-73.3699,5.492245,14.93451,-36.03881,-110.6591,-50.37467,0.001067912,-0.1257102,0.09433498,0,0.3,0,0,0,0
638224215429615512,-23.27724,34.99717,44.82675,-51.19216,-3.686857,33.40601,-16.98673,-0.4441859,-4.295897,-61.37324,-6.98289,34.65118,0,0,0,-80.31843,5.253644,18.35141,-36.03881,-110.6591,-50.37467,0.001067912,-0.1257102,0.09433498,0,0.3,0,0,0,0
638224215429955416,-24.78508,33.52435,46.85796,-53.24303,-3.833347,33.33276,-16.98673,-0.4441859,-4.295897,-61.37324,-6.98289,34.57793,0,0,0,-87.39291,5.812064,20.91501,-36.03881,-110.6591,-50.37467,0.001067912,-0.1257102,0.09433498,0,0.3,0,0,0,0
638224215430295316,-25.4212,33.0334,47.79185,-54.41495,-3.906592,33.33276,-16.98673,-0.4441859,-4.295897,-61.37324,-6.98289,34.65118,0,0,0,-90.39034,6.454813,21.83,-36.03881,-110.6591,-50.37467,0.001067912,-0.1257102,0.09433498,0,0.3,0,0,0,0
638224215430635208,-26.55208,32.65935,49.51955,-57.27151,-4.272818,33.62574,-16.98673,-0.4441859,-4.295897,-61.37324,-6.98289,34.57793,0,0,0,-95.52457,8.742122,22.80735,-36.03881,-110.6591,-50.37467,0.001067912,-0.1257102,0.09433498,0,0.3,0,0,0,0
638224215430985091,-27.07039,32.65935,50.07989,-60.27456,-4.492554,34.06521,-16.98673,-0.4441859,-4.295897,-61.37324,-6.98289,34.65118,0,0,0,-97.63299,9.738195,22.68493,-36.03881,-110.6591,-50.37467,0.001067912,-0.1257102,0.09433498,0,0.3,0,0,0,0
638224215431324987,-27.07039,32.65935,49.146,-61.9592,-4.346064,34.43144,-16.98673,-0.4441859,-4.295897,-61.37324,-6.98289,34.65118,0,0,0,-96.99209,8.082666,21.43089,-36.03881,-110.6591,-50.37467,0.001067912,-0.1257102,0.09433498,0,0.3,0,0,0,0
638224215431664879,-26.9526,32.65935,48.35219,-62.25218,-4.199574,34.50468,-16.98673,-0.4441859,-4.295897,-61.37324,-6.98289,34.57793,0,0,0,-96.04956,6.69367,20.54407,-36.03881,-110.6591,-50.37467,0.001067912,-0.1257102,0.09433498,0,0.3,0,0,0,0
638224215432014747,-26.38716,32.54246,45.80734,-61.66622,-3.467122,34.65118,-16.98673,-0.4441859,-4.295897,-61.37324,-7.056135,34.57793,0,0,0,-92.45348,2.127499,18.00122,-36.03881,-110.6591,-50.37467,0.001067912,-0.1257102,0.09433498,0,0.3,0,0,0,0
638224215432344655,-25.27984,31.63071,42.32859,-59.24913,-2.58818,34.65118,-16.98673,-0.4441859,-4.295897,-61.37324,-6.98289,34.65118,0,0,0,-86.83244,-5.300623,15.51287,-36.03881,-110.6591,-50.37467,0.001067912,-0.1257102,0.09433498,0,0.3,0,0,0,0
638224215432694564,-24.7144,30.92937,40.62424,-57.85748,-2.002218,34.65118,-16.98673,-0.4441859,-4.295897,-61.37324,-6.98289,34.57793,0,0,0,-84.12556,-9.322746,14.43108,-36.03881,-110.6591,-50.37467,0.001067912,-0.1257102,0.09433498,0,0.3,0,0,0,0
638224215433034443,-23.48928,29.01235,36.98207,-54.56144,-0.02459868,34.65118,-16.98673,-0.4441859,-4.295897,-61.37324,-6.98289,34.57793,0,0,0,-78.45412,-18.49866,12.17448,-36.03881,-110.6591,-50.37467,0.001067912,-0.1257102,0.09433498,0,0.3,0,0,0,0
638224215433374336,-22.21704,26.4875,33.92358,-50.89918,2.758718,34.65118,-16.98673,-0.4441859,-4.295897,-61.37324,-6.98289,34.57793,0,0,0,-73.26883,-27.82707,11.03723,-36.03881,-110.6591,-50.37467,0.001067912,-0.1257102,0.09433498,0,0.3,0,0,0,0
638224215433724220,-21.1804,23.72888,31.5655,-47.74964,5.835015,34.65118,-16.98673,-0.4441859,-4.295897,-61.37324,-7.056135,34.57793,0,0,0,-69.32795,-36.60857,10.5696,-36.03881,-110.6591,-50.37467,0.001067912,-0.1257102,0.09433498,0,0.3,0,0,0,0
638224215434064093,-20.77989,22.44308,30.67831,-46.43123,7.519653,34.65118,-16.98673,-0.4441859,-4.295897,-61.37324,-6.98289,34.65118,0,0,0,-67.86472,-40.42866,10.49426,-36.03881,-110.6591,-50.37467,0.001067912,-0.1257102,0.09433498,0,0.3,0,0,0,0
638224215434393995,-20.04953,19.84809,29.06735,-43.94089,10.52271,34.50468,-16.98673,-0.4441859,-4.295897,-61.29999,-7.056135,34.65118,0,0,0,-65.21181,-47.92847,10.33723,-36.03881,-110.6591,-50.37467,0.001067912,-0.1257102,0.09433498,0,0.3,0,0,0,0
638224215434733893,-19.22493,17.08947,27.73655,-42.03651,13.08629,34.2117,-16.98673,-0.4441859,-4.295897,-61.37324,-7.056135,34.65118,0,0,0,-62.40605,-55.49083,10.60504,-36.03881,-110.6591,-50.37467,0.001067912,-0.1257102,0.09433498,0,0.3,0,0,0,0
638224215435073794,-18.84797,15.92056,27.24626,-41.23082,14.25821,34.13846,-16.98673,-0.4441859,-4.295897,-61.37324,-7.056135,34.65118,0,0,0,-61.15001,-58.62595,10.78522,-36.03881,-110.6591,-50.37467,0.001067912,-0.1257102,0.09433498,0,0.3,0,0,0,0
638224215435410113,-18.14117,13.72301,26.31237,-39.76591,16.52881,33.84548,-16.98673,-0.4441859,-4.295897,-61.37324,-6.98289,34.65118,0,0,0,-58.73879,-64.54932,10.92523,-36.03881,-110.6591,-50.37467,0.001067912,-0.1257102,0.09433498,0,0.3,0,0,0,0
638224215435750007,-17.43437,11.64235,25.47187,-38.52075,18.28669,33.5525,-16.98673,-0.4441859,-4.295897,-61.37324,-7.056135,34.57793,0,0,0,-56.31411,-70.12765,10.9715,-36.03881,-110.6591,-50.37467,0.001067912,-0.1257102,0.09433498,0,0.3,0,0,0,0
638224215436119880,-16.77469,9.63182,24.81814,-37.42207,19.89809,33.25952,-16.98673,-0.4441859,-4.295897,-61.37324,-6.98289,34.57793,0,0,0,-54.09757,-75.37278,11.11624,-36.03881,-110.6591,-50.37467,0.001067912,-0.1257102,0.09433498,0,0.3,0,0,0,0
638224215436449787,-16.53909,8.790204,24.56132,-37.05584,20.55729,33.03978,-16.98673,-0.4441859,-4.295897,-61.37324,-6.98289,34.65118,0,0,0,-53.2938,-77.55595,11.11713,-36.03881,-110.6591,-50.37467,0.001067912,-0.1257102,0.09433498,0,0.3,0,0,0,0
638224215436799669,-16.16213,7.41089,24.09438,-36.46988,21.43624,32.52707,-16.98673,-0.4441859,-4.295897,-61.37324,-7.056135,34.57793,0,0,0,-51.96218,-81.18176,10.94721,-36.03881,-110.6591,-50.37467,0.001067912,-0.1257102,0.09433498,0,0.3,0,0,0,0
638224215437129564,-15.73805,6.218602,23.62743,-35.95716,22.24193,32.01435,-16.98673,-0.4441859,-4.295897,-61.37324,-7.056135,34.65118,0,0,0,-50.45341,-84.37664,10.6872,-36.03881,-110.6591,-50.37467,0.001067912,-0.1257102,0.09433498,0,0.3,0,0,0,0
638224215437469458,-15.50245,5.72766,23.37061,-35.66418,22.6814,31.79461,-16.98673,-0.4441859,-4.295897,-61.37324,-7.056135,34.65118,0,0,0,-49.60207,-85.75138,10.47952,-36.03881,-110.6591,-50.37467,0.001067912,-0.1257102,0.09433498,0,0.3,0,0,0,0
638224215437809349,-15.10193,4.81591,22.90367,-35.07822,23.26737,31.35514,-16.98673,-0.4441859,-4.295897,-61.37324,-6.98289,34.65118,0,0,0,-48.1412,-88.29141,10.04528,-36.03881,-110.6591,-50.37467,0.001067912,-0.1257102,0.09433498,0,0.3,0,0,0,0
638224215438149248,-14.70142,3.880782,22.50677,-34.41902,23.85333,30.98892,-16.98673,-0.4441859,-4.295897,-61.37324,-7.056135,34.65118,0,0,0,-46.7186,-90.8181,9.712792,-36.03881,-110.6591,-50.37467,0.001067912,-0.1257102,0.09433498,0,0.3,0,0,0,0
638224215438489138,-14.58362,3.413218,22.36668,-34.12604,24.21955,30.76918,-16.98673,-0.4441859,-4.295897,-61.37324,-7.056135,34.65118,0,0,0,-46.29396,-92.02853,9.583817,-36.03881,-110.6591,-50.37467,0.001067912,-0.1257102,0.09433498,0,0.3,0,0,0,0
638224215438829027,-14.44226,2.501468,22.06317,-33.61332,24.80551,30.40295,-16.98673,-0.4441859,-4.295897,-61.37324,-6.98289,34.65118,0,0,0,-45.71902,-94.41476,9.170213,-36.03881,-110.6591,-50.37467,0.001067912,-0.1257102,0.09433498,0,0.3,0,0,0,0
638224215439168919,-14.27734,1.636474,21.783,-33.32034,25.24498,30.03673,-16.98673,-0.4441859,-4.295897,-61.37324,-6.98289,34.57793,0,0,0,-45.07661,-96.67007,8.785287,-36.03881,-110.6591,-50.37467,0.001067912,-0.1257102,0.09433498,0,0.3,0,0,0,0
638224215439508813,-14.11242,0.7714807,21.57287,-33.10061,25.53797,29.817,-16.98673,-0.4441859,-4.295897,-61.37324,-6.98289,34.65118,0,0,0,-44.46606,-98.86343,8.514584,-36.03881,-110.6591,-50.37467,0.001067912,-0.1257102,0.09433498,0,0.3,0,0,0,0
638224215439848683,-14.0653,0.3740513,21.50283,-32.88087,25.61121,29.817,-16.98673,-0.4441859,-4.295897,-61.37324,-6.98289,34.65118,0,0,0,-44.28599,-99.84821,8.412975,-36.03881,-110.6591,-50.37467,0.001067912,-0.1257102,0.09433498,0,0.3,0,0,0,0
638224215440178602,-14.01818,-0.350673,21.36275,-32.36815,25.7577,30.10997,-16.98673,-0.4441859,-4.295897,-61.37324,-6.98289,34.65118,0,0,0,-44.06718,-101.6541,8.155224,-36.03881,-110.6591,-50.37467,0.001067912,-0.1257102,0.09433498,0,0.3,0,0,0,0
638224215440518487,-13.85326,-0.5610769,21.05923,-31.6357,25.83095,30.25646,-16.98673,-0.4441859,-4.295897,-61.37324,-7.056135,34.57793,0,0,0,-43.40033,-102.3993,7.638166,-36.03881,-110.6591,-50.37467,0.001067912,-0.1257102,0.09433498,0,0.3,0,0,0,0
638224215440858378,-13.7119,-0.5610769,20.9425,-31.19623,25.83095,30.40295,-16.98673,-0.4441859,-4.295897,-61.37324,-6.98289,34.65118,0,0,0,-42.90588,-102.4967,7.498291,-36.03881,-110.6591,-50.37467,0.001067912,-0.1257102,0.09433498,0,0.3,0,0,0,0
638224215441208266,-13.2407,-0.4909423,20.9425,-30.09755,25.90419,30.84243,-16.98673,-0.4441859,-4.295897,-61.37324,-7.056135,34.65118,0,0,0,-41.45861,-102.3335,7.846657,-36.03881,-110.6591,-50.37467,0.001067912,-0.1257102,0.09433498,0,0.3,0,0,0,0
638224215441548156,-12.32186,-0.233782,20.9425,-28.77914,25.83095,31.79461,-16.98673,-0.4441859,-4.295897,-61.37324,-6.98289,34.65118,0,0,0,-38.62859,-101.7349,8.492532,-36.03881,-110.6591,-50.37467,0.001067912,-0.1257102,0.09433498,0,0.3,0,0,0.002428004,0
638224215441878057,-11.5915,-0.0233782,20.87246,-27.82695,25.90419,32.45382,-16.98673,-0.4441859,-4.295897,-61.37324,-6.98289,34.57793,0,0,0,-36.34089,-101.3034,8.822456,-36.03881,-110.6591,-50.37467,0.001067912,-0.1257102,0.09433498,0,0.3,0,0,0.003664311,0
638224215442217954,-9.282625,0.4441859,20.54559,-24.97039,26.5634,33.62574,-16.98673,-0.4441859,-4.295897,-61.37324,-6.98289,34.65118,0,0,0,-29.05829,-100.4842,9.436463,-36.03881,-110.6591,-50.37467,0.001067912,-0.1257102,0.09433498,0,0.3,0,0,0.00616944,0
