zeyangz2/DNN_classification_different_people_hand/data_by_names/Zeyang/zeyang_right_7.csv
Timestamp,Therapist joint angle 0,Therapist joint angle 1,Therapist joint angle 2,Therapist joint angle 3,Therapist joint angle 4,Therapist joint angle 5,Patient joint angle 0,Patient joint angle 1,Patient joint angle 2,Patient joint angle 3,Patient joint angle 4,Patient joint angle 5,Virtual joint angle 0,Virtual joint angle 1,Virtual joint angle 2,Therapist position x,Therapist position y,Therapist position z,Patient position x,Patient position y,Patient position z,Virtual position x,Virtual position y,Virtual position z,Assistive Force, Obstacle Force Magnitude, Therapist Constant Force, Patient Constant Force, Recovery Factor, Assistance Level
638223384819422784,0,0,0,0,0,0,0,0,0,0,0,0,0,0,0,0,0,0,0,0,0,0,0,0,0,0.3,0,0,0,0
638223384819492757,-10.57842,-1.005263,0.9338906,0.8851534,-63.38167,15.90041,-4.570632,-0.4441859,0.1400836,-35.22471,-8.447793,45.05199,0,0,0,-24.87578,-112.3218,-35.15002,-10.65206,-111.0334,-35.10307,0.001067912,-0.1257102,0.09433498,0,0.3,0,0,0,0
638223384819822655,-10.57842,-1.005263,0.9338906,0.8119082,-63.38167,15.90041,-4.570632,-0.4441859,0.1400836,-35.22471,-8.447793,45.12524,0,0,0,-24.87578,-112.3218,-35.15002,-10.65206,-111.0334,-35.10307,0.001067912,-0.1257102,0.09433498,0,0.3,0,0,0,0
638223384820182543,-10.57842,-1.005263,0.9338906,0.8851534,-63.38167,15.90041,-4.570632,-0.4441859,0.1400836,-35.22471,-8.447793,45.05199,0,0,0,-24.87578,-112.3218,-35.15002,-10.65206,-111.0334,-35.10307,0.001067912,-0.1257102,0.09433498,0,0.3,0,0,0,0
638223384820532424,-10.57842,-1.005263,0.9338906,0.8119082,-63.38167,15.90041,-4.570632,-0.4441859,0.1400836,-35.22471,-8.447793,45.05199,0,0,0,-24.87578,-112.3218,-35.15002,-10.65206,-111.0334,-35.10307,0.001067912,-0.1257102,0.09433498,0,0.3,0,0,0,0
638223384820892308,-10.57842,-1.005263,0.9338906,0.8851534,-63.30842,15.90041,-4.570632,-0.4441859,0.1400836,-35.22471,-8.447793,45.05199,0,0,0,-24.87578,-112.3218,-35.15002,-10.65206,-111.0334,-35.10307,0.001067912,-0.1257102,0.09433498,0,0.3,0,0,0,0
638223384821312180,-10.57842,-1.005263,0.9338906,0.8851534,-63.38167,15.90041,-4.570632,-0.4441859,0.1400836,-35.15147,-8.447793,45.05199,0,0,0,-24.87578,-112.3218,-35.15002,-10.65206,-111.0334,-35.10307,0.001067912,-0.1257102,0.09433498,0,0.3,0,0,0,0
638223384821662068,-10.57842,-1.005263,0.9338906,0.8851534,-63.30842,15.90041,-4.570632,-0.4441859,0.1400836,-35.22471,-8.447793,45.05199,0,0,0,-24.87578,-112.3218,-35.15002,-10.65206,-111.0334,-35.10307,0.001067912,-0.1257102,0.09433498,0,0.3,0,0,0,0
638223384822021956,-10.57842,-1.005263,0.9338906,0.8851534,-63.38167,15.90041,-4.570632,-0.4441859,0.1400836,-35.22471,-8.447793,45.12524,0,0,0,-24.87578,-112.3218,-35.15002,-10.65206,-111.0334,-35.10307,0.001067912,-0.1257102,0.09433498,0,0.3,0,0,0,0
638223384822381836,-10.57842,-1.005263,0.9338906,0.8119082,-63.38167,15.90041,-4.570632,-0.4441859,0.1400836,-35.22471,-8.447793,45.05199,0,0,0,-24.87578,-112.3218,-35.15002,-10.65206,-111.0334,-35.10307,0.001067912,-0.1257102,0.09433498,0,0.3,0,0,0,0
638223384822811701,-10.57842,-1.005263,0.9338906,0.8119082,-63.38167,15.97366,-4.570632,-0.4441859,0.1400836,-35.15147,-8.447793,45.12524,0,0,0,-24.87578,-112.3218,-35.15002,-10.65206,-111.0334,-35.10307,0.001067912,-0.1257102,0.09433498,0,0.3,0,0,0,0
638223384823171583,-10.57842,-1.005263,0.9338906,0.8851534,-63.38167,15.90041,-4.570632,-0.4441859,0.1400836,-35.22471,-8.447793,45.05199,0,0,0,-24.87578,-112.3218,-35.15002,-10.65206,-111.0334,-35.10307,0.001067912,-0.1257102,0.09433498,0,0.3,0,0,0,0
638223384823531471,-10.57842,-1.005263,0.9338906,0.8119082,-63.30842,15.90041,-4.570632,-0.4441859,0.1400836,-35.22471,-8.447793,45.05199,0,0,0,-24.87578,-112.3218,-35.15002,-10.65206,-111.0334,-35.10307,0.001067912,-0.1257102,0.09433498,0,0.3,0,0,0,0
638223384823901350,-10.57842,-1.005263,0.9338906,0.8851534,-63.30842,15.90041,-4.570632,-0.4441859,0.1400836,-35.22471,-8.447793,45.05199,0,0,0,-24.87578,-112.3218,-35.15002,-10.65206,-111.0334,-35.10307,0.001067912,-0.1257102,0.09433498,0,0.3,0,0,0,0
638223384824331212,-10.57842,-1.005263,0.9338906,0.8851534,-63.38167,15.90041,-4.570632,-0.4441859,0.1400836,-35.22471,-8.447793,45.05199,0,0,0,-24.87578,-112.3218,-35.15002,-10.65206,-111.0334,-35.10307,0.001067912,-0.1257102,0.09433498,0,0.3,0,0,0,0
638223384824661105,-10.57842,-1.005263,0.9338906,0.8851534,-63.38167,15.90041,-4.570632,-0.4441859,0.1400836,-35.22471,-8.447793,45.05199,0,0,0,-24.87578,-112.3218,-35.15002,-10.65206,-111.0334,-35.10307,0.001067912,-0.1257102,0.09433498,0,0.3,0,0,0,0
638223384825030996,-10.57842,-1.005263,0.9338906,0.8851534,-63.38167,15.90041,-4.570632,-0.4441859,0.1400836,-35.15147,-8.447793,45.05199,0,0,0,-24.87578,-112.3218,-35.15002,-10.65206,-111.0334,-35.10307,0.001067912,-0.1257102,0.09433498,0,0.3,0,0,0,0
638223384825390875,-10.57842,-1.005263,0.9338906,0.8851534,-63.38167,15.90041,-4.570632,-0.4441859,0.1400836,-35.22471,-8.447793,45.05199,0,0,0,-24.87578,-112.3218,-35.15002,-10.65206,-111.0334,-35.10307,0.001067912,-0.1257102,0.09433498,0,0.3,0,0,0,0
638223384825880727,-10.57842,-1.005263,0.9338906,0.8851534,-63.38167,15.90041,-4.570632,-0.4441859,0.1400836,-35.22471,-8.447793,45.05199,0,0,0,-24.87578,-112.3218,-35.15002,-10.65206,-111.0334,-35.10307,0.001067912,-0.1257102,0.09433498,0,0.3,0,0,0,0
638223384826220610,-10.57842,-1.005263,0.9338906,0.8119082,-63.38167,15.90041,-4.570632,-0.4441859,0.1400836,-35.22471,-8.447793,45.05199,0,0,0,-24.87578,-112.3218,-35.15002,-10.65206,-111.0334,-35.10307,0.001067912,-0.1257102,0.09433498,0,0.3,0,0,0,0
638223384826590495,-10.57842,-1.005263,0.9338906,0.8851534,-63.38167,15.90041,-4.570632,-0.4441859,0.1400836,-35.22471,-8.447793,45.05199,0,0,0,-24.87578,-112.3218,-35.15002,-10.65206,-111.0334,-35.10307,0.001067912,-0.1257102,0.09433498,0,0.3,0,0,0,0
638223384826945447,-10.57842,-1.005263,0.9338906,0.8119082,-63.38167,15.90041,-4.570632,-0.4441859,0.1400836,-35.22471,-8.447793,45.05199,0,0,0,-24.87578,-112.3218,-35.15002,-10.65206,-111.0334,-35.10307,0.001067912,-0.1257102,0.09433498,0,0.3,0,0,0,0
638223384827375313,-10.57842,-1.005263,0.9338906,0.8851534,-63.38167,15.90041,-4.570632,-0.4441859,0.1400836,-35.22471,-8.447793,45.05199,0,0,0,-24.87578,-112.3218,-35.15002,-10.65206,-111.0334,-35.10307,0.001067912,-0.1257102,0.09433498,0,0.3,0,0,0,0
638223384827735193,-10.57842,-1.005263,0.9338906,0.8851534,-63.38167,15.90041,-4.570632,-0.4441859,0.1400836,-35.22471,-8.447793,45.12524,0,0,0,-24.87578,-112.3218,-35.15002,-10.65206,-111.0334,-35.10307,0.001067912,-0.1257102,0.09433498,0,0.3,0,0,0,0
638223384828095083,-10.57842,-1.005263,0.9338906,0.8851534,-63.38167,15.90041,-4.570632,-0.4441859,0.1400836,-35.22471,-8.447793,45.05199,0,0,0,-24.87578,-112.3218,-35.15002,-10.65206,-111.0334,-35.10307,0.001067912,-0.1257102,0.09433498,0,0.3,0,0,0,0
638223384828454965,-10.57842,-1.005263,0.9338906,0.8851534,-63.38167,15.90041,-4.570632,-0.4441859,0.1400836,-35.22471,-8.447793,45.05199,0,0,0,-24.87578,-112.3218,-35.15002,-10.65206,-111.0334,-35.10307,0.001067912,-0.1257102,0.09433498,0,0.3,0,0,0,0
638223384828904826,-10.57842,-1.005263,0.9338906,0.8851534,-63.38167,15.97366,-4.570632,-0.4441859,0.1400836,-35.22471,-8.447793,45.05199,0,0,0,-24.87578,-112.3218,-35.15002,-10.65206,-111.0334,-35.10307,0.001067912,-0.1257102,0.09433498,0,0.3,0,0,0,0
638223384829264704,-10.57842,-1.005263,0.9338906,0.8851534,-63.38167,15.97366,-4.570632,-0.4441859,0.1400836,-35.22471,-8.447793,45.05199,0,0,0,-24.87578,-112.3218,-35.15002,-10.65206,-111.0334,-35.10307,0.001067912,-0.1257102,0.09433498,0,0.3,0,0,0,0
638223384829624599,-10.57842,-1.005263,0.9338906,0.8851534,-63.38167,15.90041,-4.570632,-0.4441859,0.1400836,-35.22471,-8.447793,45.12524,0,0,0,-24.87578,-112.3218,-35.15002,-10.65206,-111.0334,-35.10307,0.001067912,-0.1257102,0.09433498,0,0.3,0,0,0,0
638223384829984474,-10.57842,-1.005263,0.9338906,0.8851534,-63.38167,15.90041,-4.570632,-0.4441859,0.1400836,-35.22471,-8.374548,45.05199,0,0,0,-24.87578,-112.3218,-35.15002,-10.65206,-111.0334,-35.10307,0.001067912,-0.1257102,0.09433498,0,0.3,0,0,0,0
638223384830414352,-10.57842,-1.005263,0.9338906,0.8851534,-63.38167,15.90041,-4.570632,-0.4441859,0.1400836,-35.22471,-8.447793,45.05199,0,0,0,-24.87578,-112.3218,-35.15002,-10.65206,-111.0334,-35.10307,0.001067912,-0.1257102,0.09433498,0,0.3,0,0,0,0
638223384830774224,-10.57842,-1.005263,0.9338906,0.8851534,-63.38167,15.90041,-4.570632,-0.4441859,0.1400836,-35.22471,-8.447793,45.05199,0,0,0,-24.87578,-112.3218,-35.15002,-10.65206,-111.0334,-35.10307,0.001067912,-0.1257102,0.09433498,0,0.3,0,0,0,0
638223384831134108,-10.57842,-1.005263,0.9338906,0.8851534,-63.30842,15.90041,-4.570632,-0.4441859,0.1400836,-35.22471,-8.447793,45.05199,0,0,0,-24.87578,-112.3218,-35.15002,-10.65206,-111.0334,-35.10307,0.001067912,-0.1257102,0.09433498,0,0.3,0,0,0,0
638223384831504009,-10.57842,-1.005263,0.9338906,0.8851534,-63.38167,15.97366,-4.570632,-0.4441859,0.1400836,-35.22471,-8.447793,45.05199,0,0,0,-24.87578,-112.3218,-35.15002,-10.65206,-111.0334,-35.10307,0.001067912,-0.1257102,0.09433498,0,0.3,0,0,0,0
638223384831887455,-10.57842,-1.005263,0.9338906,0.8851534,-63.38167,15.97366,-4.570632,-0.4441859,0.1400836,-35.22471,-8.447793,45.05199,0,0,0,-24.87578,-112.3218,-35.15002,-10.65206,-111.0334,-35.10307,0.001067912,-0.1257102,0.09433498,0,0.3,0,0,0,0
638223384832247340,-10.55486,-1.005263,0.8171543,0.8851534,-63.38167,15.97366,-4.570632,-0.4441859,0.1400836,-35.22471,-8.447793,45.05199,0,0,0,-24.77125,-112.326,-35.40686,-10.65206,-111.0334,-35.10307,0.001067912,-0.1257102,0.09433498,0,0.3,0,0,0.0001079742,0
638223384832607228,-10.2957,-1.005263,-0.04669453,0.2259469,-63.38167,15.75392,-4.570632,-0.4441859,0.1400836,-35.22471,-8.447793,45.12524,0,0,0,-23.81034,-112.3395,-37.27426,-10.65206,-111.0334,-35.10307,0.001067912,-0.1257102,0.09433498,0,0.3,0,0,0.001541353,0
638223384832967113,-9.565345,-1.005263,-0.793807,-5.487176,-63.38167,13.84955,-4.570632,-0.4441859,0.1400836,-35.22471,-8.447793,45.05199,0,0,0,-21.84867,-112.3267,-38.696,-10.65206,-111.0334,-35.10307,0.001067912,-0.1257102,0.09433498,0,0.3,0,0,0.005572657,0
638223384833456949,-8.858545,-0.9818845,-0.9572379,-23.13926,-62.57597,11.65219,-4.570632,-0.4441859,0.1400836,-35.22471,-8.447793,45.05199,0,0,0,-20.18922,-112.2665,-38.8112,-10.65206,-111.0334,-35.10307,0.001067912,-0.1257102,0.09433498,0,0.3,0,0,0.01264907,0
638223384833816831,-9.306185,-0.4208077,0.09338906,-44.08738,-60.52511,6.232051,-4.570632,-0.4441859,0.1400836,-35.22471,-8.447793,45.05199,0,0,0,-21.59864,-110.9792,-36.54417,-10.65206,-111.0334,-35.10307,0.001067912,-0.1257102,0.09433498,0,0.3,0,0,0.01915884,0
638223384834176719,-10.36638,0.7247244,0.2101254,-52.95005,-57.15583,0.006211365,-4.570632,-0.4441859,0.1400836,-35.22471,-8.447793,45.05199,0,0,0,-24.08135,-108.3124,-36.70607,-10.65206,-111.0334,-35.10307,0.001067912,-0.1257102,0.09433498,0,0.3,0,0,0.02112715,0
638223384834546599,-11.49726,1.122154,0.2101254,-53.46276,-52.2484,-3.729292,-4.570632,-0.4441859,0.1400836,-35.22471,-8.447793,45.05199,0,0,0,-26.67185,-107.3876,-37.2216,-10.65206,-111.0334,-35.10307,0.001067912,-0.1257102,0.09433498,0,0.3,0,0,0.01752921,0
638223384834966467,-12.03914,0.9585064,0.2101254,-51.04567,-45.50985,-4.608234,-4.570632,-0.4441859,0.1400836,-35.22471,-8.447793,45.12524,0,0,0,-27.91223,-107.7684,-37.47295,-10.65206,-111.0334,-35.10307,0.001067912,-0.1257102,0.09433498,0,0.3,0,0,0.01126925,0
638223384835326352,-12.03914,0.8182371,0.2101254,-48.40885,-40.67567,-3.802537,-4.570632,-0.4441859,0.1400836,-35.22471,-8.447793,45.05199,0,0,0,-27.91329,-108.0948,-37.468,-10.65206,-111.0334,-35.10307,0.001067912,-0.1257102,0.09433498,0,0.3,0,0,0.005112248,0
638223384835696232,-12.03914,0.7714807,0.2101254,-45.55228,-35.25552,-5.999893,-4.570632,-0.4441859,0.1400836,-35.22471,-8.447793,45.05199,0,0,0,-27.9136,-108.2036,-37.46652,-10.65206,-111.0334,-35.10307,0.001067912,-0.1257102,0.09433498,0,0.3,0,0,0,0
638223384836046126,-12.01558,0.6779679,0.2101254,-44.23387,-32.47221,-9.22268,-4.570632,-0.4441859,0.1400836,-35.22471,-8.447793,45.05199,0,0,0,-27.86036,-108.4212,-37.45236,-10.65206,-111.0334,-35.10307,0.001067912,-0.1257102,0.09433498,0,0.3,0,0,0,0
638223384836475984,-11.85066,0.1870256,0.2101254,-41.59705,-26.17312,-13.69064,-4.570632,-0.4441859,0.1400836,-35.22471,-8.447793,45.05199,0,0,0,-27.48524,-109.5638,-37.36427,-10.65206,-111.0334,-35.10307,0.001067912,-0.1257102,0.09433498,0,0.3,0,0,0,0
638223384836835869,-11.3559,-0.04675641,0.4902926,-38.74048,-19.28808,-16.91342,-4.570632,-0.4441859,0.1400836,-35.22471,-8.447793,45.05199,0,0,0,-26.48166,-110.1039,-36.49188,-10.65206,-111.0334,-35.10307,0.001067912,-0.1257102,0.09433498,0,0.3,0,0,0,0
638223384837195753,-10.83758,0.04675641,0.6070289,-35.3712,-11.81707,-22.40681,-4.570632,-0.4441859,0.1400836,-35.22471,-8.447793,45.05199,0,0,0,-25.33884,-109.8837,-35.99088,-10.65206,-111.0334,-35.10307,0.001067912,-0.1257102,0.09433498,0,0.3,0,0,0,0
638223384837525647,-10.2957,0.04675641,1.003932,-31.70894,-4.492554,-29.3651,-4.570632,-0.4441859,0.1400836,-35.22471,-8.447793,45.05199,0,0,0,-24.25101,-109.8707,-34.84838,-10.65206,-111.0334,-35.10307,0.001067912,-0.1257102,0.09433498,0,0.3,0,0,0,0
638223384837995497,-9.918744,0.04675641,1.307447,-27.31424,4.223621,-35.59094,-4.570632,-0.4441859,0.1400836,-35.22471,-8.447793,45.12524,0,0,0,-23.49382,-109.8565,-33.99602,-10.65206,-111.0334,-35.10307,0.001067912,-0.1257102,0.09433498,0,0.3,0,0,0,0
638223384838355383,-9.918744,0.04675641,1.214058,-25.11688,8.764822,-37.71505,-4.570632,-0.4441859,0.1400836,-35.22471,-8.447793,45.05199,0,0,0,-23.45639,-109.8612,-34.21007,-10.65206,-111.0334,-35.10307,0.001067912,-0.1257102,0.09433498,0,0.3,0,0,0,0
638223384838715270,-9.942304,0.0233782,0.4669453,-22.5533,14.33146,-38.15452,-4.570632,-0.4441859,0.1400836,-35.22471,-8.447793,45.05199,0,0,0,-23.21136,-109.9412,-35.93221,-10.65206,-111.0334,-35.10307,0.001067912,-0.1257102,0.09433498,0,0.3,0,0,0,0
638223384839075160,-9.942304,-0.0233782,-0.04669453,-21.52787,16.60205,-37.34882,-4.570632,-0.4441859,0.1400836,-35.22471,-8.447793,45.05199,0,0,0,-23.00496,-110.0544,-37.10969,-10.65206,-111.0334,-35.10307,0.001067912,-0.1257102,0.09433498,0,0.3,0,0,0,0
638223384839505034,-9.942304,-0.09351282,-1.564267,-21.16164,22.31518,-35.88392,-4.570632,-0.4441859,0.1400836,-35.22471,-8.447793,45.05199,0,0,0,-22.39519,-110.1679,-40.58836,-10.65206,-111.0334,-35.10307,0.001067912,-0.1257102,0.09433498,0,0.3,0,0,0,0
638223384839864901,-9.942304,-0.2104038,-2.031212,-21.96734,23.70683,-35.22471,-4.570632,-0.4441859,0.1400836,-35.22471,-8.447793,45.05199,0,0,0,-22.20752,-110.4059,-41.65899,-10.65206,-111.0334,-35.10307,0.001067912,-0.1257102,0.09433498,0,0.3,0,0,0.0005707875,0
638223384840224788,-9.989424,-0.7247244,-3.805604,-24.23794,25.7577,-29.95106,-4.570632,-0.4441859,0.1400836,-35.22471,-8.447793,45.05199,0,0,0,-21.5946,-111.3926,-45.74858,-10.65206,-111.0334,-35.10307,0.001067912,-0.1257102,0.09433498,0,0.3,0,0,0.0001254691,0
638223384840584671,-10.03654,-1.005263,-6.187026,-25.99582,27.44234,-21.82085,-4.570632,-0.4441859,0.1400836,-35.22471,-8.447793,45.05199,0,0,0,-20.73152,-111.5628,-51.21265,-10.65206,-111.0334,-35.10307,0.001067912,-0.1257102,0.09433498,0,0.3,0,0,0,0
638223384841014539,-10.03654,-1.005263,-7.354388,-27.24099,28.834,-12.6652,-4.570632,-0.4441859,0.1400836,-35.22471,-8.447793,45.05199,0,0,0,-20.26133,-111.2425,-53.86929,-10.65206,-111.0334,-35.10307,0.001067912,-0.1257102,0.09433498,0,0.3,0,0,0,0
638223384841364428,-10.03654,-0.9818845,-7.261,-27.97344,29.41996,-9.881886,-4.570632,-0.4441859,0.1400836,-35.22471,-8.447793,45.12524,0,0,0,-20.29907,-111.2158,-53.65607,-10.65206,-111.0334,-35.10307,0.001067912,-0.1257102,0.09433498,0,0.3,0,0,0,0
638223384841724313,-10.03654,-1.005263,-7.261,-29.73133,30.15241,-8.124002,-4.570632,-0.4441859,0.1400836,-35.22471,-8.521038,45.05199,0,0,0,-20.2989,-111.2701,-53.657,-10.65206,-111.0334,-35.10307,0.001067912,-0.1257102,0.09433498,0,0.3,0,0,0,0
638223384842094194,-10.03654,-0.6078333,-7.120916,-32.4414,30.81162,-9.442415,-4.570632,-0.4441859,0.1400836,-35.22471,-8.447793,45.05199,0,0,0,-20.35755,-110.3861,-53.32566,-10.65206,-111.0334,-35.10307,0.001067912,-0.1257102,0.09433498,0,0.3,0,0,0,0
638223384842514059,-9.636024,1.846878,-7.120916,-36.46988,31.39758,-10.98056,-4.570632,-0.4441859,0.1400836,-35.22471,-8.447793,45.05199,0,0,0,-19.54265,-104.6738,-53.24706,-10.65206,-111.0334,-35.10307,0.001067912,-0.1257102,0.09433498,0,0.3,0,0,0,0
638223384842873943,-8.882105,4.16132,-6.980833,-38.30101,31.1046,-12.73845,-4.570632,-0.4441859,0.1400836,-35.22471,-8.447793,45.05199,0,0,0,-18.03281,-99.33493,-52.9591,-10.65206,-111.0334,-35.10307,0.001067912,-0.1257102,0.09433498,0,0.3,0,0,0,0
638223384843233826,-5.701511,9.561686,-6.187026,-40.35188,29.56645,-19.25727,-4.570632,-0.4441859,0.1400836,-35.22471,-8.447793,45.05199,0,0,0,-11.63597,-87.07261,-51.80371,-10.65206,-111.0334,-35.10307,0.001067912,-0.1257102,0.09433498,0,0.3,0,0,0,0
638223384843593713,-0.8010387,14.07368,-4.646106,-38.59399,27.80857,-27.9002,-4.570632,-0.4441859,0.1400836,-35.22471,-8.447793,45.05199,0,0,0,-1.657308,-77.13517,-49.81573,-10.65206,-111.0334,-35.10307,0.001067912,-0.1257102,0.09433498,0,0.3,0,0,0,0
638223384844023575,5.91355,17.93108,-2.311379,-32.4414,27.07611,-36.83611,-4.570632,-0.4441859,0.1400836,-35.22471,-8.447793,45.05199,0,0,0,12.51734,-68.83667,-47.50171,-10.65206,-111.0334,-35.10307,0.001067912,-0.1257102,0.09433498,0,0.3,0,0,0,0
638223384844363468,9.989424,19.75458,-0.7237652,-28.04669,27.66208,-39.76591,-4.570632,-0.4441859,0.1400836,-35.22471,-8.521038,45.05199,0,0,0,21.47822,-64.91813,-46.40933,-10.65206,-111.0334,-35.10307,0.001067912,-0.1257102,0.09433498,0,0.3,0,0,0,0
638223384844723354,15.62025,22.48983,2.241338,-21.01515,29.27347,-41.45055,-4.570632,-0.4441859,0.1400836,-35.22471,-8.447793,45.05199,0,0,0,34.57936,-58.88901,-44.66947,-10.65206,-111.0334,-35.10307,0.001067912,-0.1257102,0.09433498,0,0.3,0,0,0,0
638223384845093239,20.56785,25.66927,5.486608,-13.39765,30.66513,-39.61942,-4.570632,-0.4441859,0.1400836,-35.22471,-8.447793,45.05199,0,0,0,46.70385,-51.62509,-43.88437,-10.65206,-111.0334,-35.10307,0.001067912,-0.1257102,0.09433498,0,0.3,0,0,0,0
638223384845583081,25.7746,30.20464,9.689116,-4.461744,30.59188,-37.05584,-4.570632,-0.4441859,0.1400836,-35.22471,-8.447793,45.05199,0,0,0,59.87144,-41.01078,-44.35972,-10.65206,-111.0334,-35.10307,0.001067912,-0.1257102,0.09433498,0,0.3,0,0,0,0
638223384845912977,28.95519,32.98664,12.51413,0.299192,29.05373,-36.32339,-4.570632,-0.4441859,0.1400836,-35.22471,-8.447793,45.05199,0,0,0,68.13969,-34.2304,-45.19571,-10.65206,-111.0334,-35.10307,0.001067912,-0.1257102,0.09433498,0,0.3,0,0,0,0
638223384846272862,30.76931,34.45947,14.17179,2.936018,27.80857,-36.03041,-4.570632,-0.4441859,0.1400836,-35.22471,-8.447793,45.05199,0,0,0,72.95103,-30.48911,-45.82433,-10.65206,-111.0334,-35.10307,0.001067912,-0.1257102,0.09433498,0,0.3,0,0,0,0
638223384846612748,34.44466,37.35837,17.9307,8.429405,24.87876,-35.66418,-4.570632,-0.4441859,0.1400836,-35.22471,-8.447793,45.05199,0,0,0,83.17182,-22.60656,-47.0835,-10.65206,-111.0334,-35.10307,0.001067912,-0.1257102,0.09433498,0,0.3,0,0,0,0
638223384847072606,37.10694,39.62605,20.80241,12.16491,22.31518,-36.76286,-4.570632,-0.4441859,0.1400836,-35.22471,-8.447793,45.05199,0,0,0,90.53674,-16.25981,-48.66911,-10.65206,-111.0334,-35.10307,0.001067912,-0.1257102,0.09433498,0,0.3,0,0,0,0
638223384847432491,39.91058,41.91712,23.9076,15.53419,19.38537,-39.47293,-4.570632,-0.4441859,0.1400836,-35.22471,-8.521038,45.05199,0,0,0,98.33613,-9.473476,-50.78541,-10.65206,-111.0334,-35.10307,0.001067912,-0.1257102,0.09433498,0,0.3,0,0,0,0
638223384847792376,42.87913,43.67049,26.84936,18.39075,16.52881,-42.54923,-4.570632,-0.4441859,0.1400836,-35.22471,-8.447793,45.05199,0,0,0,106.615,-3.544991,-53.53476,-10.65206,-111.0334,-35.10307,0.001067912,-0.1257102,0.09433498,0,0.3,0,0,0,0
638223384848152257,45.56496,44.23156,29.65103,21.68678,14.03847,-46.94394,-4.570632,-0.4441859,0.1400836,-35.22471,-8.447793,45.05199,0,0,0,115.3319,0.4811699,-55.2704,-10.65206,-111.0334,-35.10307,0.001067912,-0.1257102,0.09433498,0,0.3,0,0,0,0
638223384848582119,48.55708,43.48346,32.68617,25.56878,11.91436,-52.36408,-4.570632,-0.4441859,0.1400836,-35.22471,-8.447793,45.05199,0,0,0,126.512,2.881305,-56.64617,-10.65206,-111.0334,-35.10307,0.001067912,-0.1257102,0.09433498,0,0.3,0,0,0,0
638223384848942008,50.55968,42.29117,34.83412,27.91262,11.25516,-55.36714,-4.570632,-0.4441859,0.1400836,-35.22471,-8.447793,45.05199,0,0,0,135.0061,3.62611,-57.2955,-10.65206,-111.0334,-35.10307,0.001067912,-0.1257102,0.09433498,0,0.3,0,0,0,0
638223384849301892,52.58583,40.46767,37.19219,30.62269,11.18191,-58.66317,-4.570632,-0.4441859,0.1400836,-35.22471,-8.447793,45.05199,0,0,0,144.602,3.668419,-57.73673,-10.65206,-111.0334,-35.10307,0.001067912,-0.1257102,0.09433498,0,0.3,0,0,0,0
638223384849661778,53.48111,39.43903,38.17278,31.79461,11.3284,-60.27456,-4.570632,-0.4441859,0.1400836,-35.22471,-8.447793,45.05199,0,0,0,148.9997,3.228302,-58.01995,-10.65206,-111.0334,-35.10307,0.001067912,-0.1257102,0.09433498,0,0.3,0,0,0,0
638223384850091643,55.31879,35.86216,40.04056,34.28495,12.79331,-65.25523,-4.570632,-0.4441859,0.1400836,-35.22471,-8.447793,45.05199,0,0,0,159.4159,-0.6199172,-58.04249,-10.65206,-111.0334,-35.10307,0.001067912,-0.1257102,0.09433498,0,0.3,0,0,0,0
638223384850451528,55.31879,34.36596,40.1573,34.79766,13.52576,-66.57365,-4.570632,-0.4441859,0.1400836,-35.22471,-8.447793,45.05199,0,0,0,161.2339,-3.293358,-56.78453,-10.65206,-111.0334,-35.10307,0.001067912,-0.1257102,0.09433498,0,0.3,0,0,0,0
638223384850811408,55.31879,30.9995,39.97052,35.0174,15.28364,-67.74557,-4.570632,-0.4441859,0.1400836,-35.22471,-8.447793,45.05199,0,0,0,164.439,-10.16679,-54.56679,-10.65206,-111.0334,-35.10307,0.001067912,-0.1257102,0.09433498,0,0.3,0,0,0,0
638223384851171294,55.22455,27.25899,38.40625,34.94416,18.06696,-68.18504,-4.570632,-0.4441859,0.1400836,-35.22471,-8.447793,45.12524,0,0,0,165.4142,-20.07041,-53.48924,-10.65206,-111.0334,-35.10307,0.001067912,-0.1257102,0.09433498,0,0.3,0,0,0,0
638223384851601160,54.28215,23.65874,34.81077,34.50468,21.58273,-66.42715,-4.570632,-0.4441859,0.1400836,-35.22471,-8.447793,45.05199,0,0,0,160.9736,-32.62414,-52.60264,-10.65206,-111.0334,-35.10307,0.001067912,-0.1257102,0.09433498,0,0.3,0,0,0,0
638223384851961050,53.31619,22.0924,32.38266,33.77223,23.92657,-64.37629,-4.570632,-0.4441859,0.1400836,-35.22471,-8.447793,45.05199,0,0,0,156.3613,-39.10963,-51.87063,-10.65206,-111.0334,-35.10307,0.001067912,-0.1257102,0.09433498,0,0.3,0,0,0,0
638223384852320934,51.94971,21.20403,28.97396,32.23409,26.92962,-61.00701,-4.570632,-0.4441859,0.1400836,-35.22471,-8.447793,45.05199,0,0,0,148.7675,-45.07853,-51.90965,-10.65206,-111.0334,-35.10307,0.001067912,-0.1257102,0.09433498,0,0.3,0,0,0,0
638223384852680814,51.14867,21.46119,26.54584,31.64813,28.17479,-58.80966,-4.570632,-0.4441859,0.1400836,-35.22471,-8.447793,45.05199,0,0,0,143.0614,-47.15297,-53.11456,-10.65206,-111.0334,-35.10307,0.001067912,-0.1257102,0.09433498,0,0.3,0,0,0,0
638223384853100679,46.7194,24.61725,18.39765,28.49858,30.59188,-50.53296,-4.570632,-0.4441859,0.1400836,-35.22471,-8.447793,45.05199,0,0,0,118.8952,-47.63681,-56.38479,-10.65206,-111.0334,-35.10307,0.001067912,-0.1257102,0.09433498,0,0.3,0,0,0,0
638223384853460564,44.66969,25.99656,16.31974,26.88719,30.59188,-47.6764,-4.570632,-0.4441859,0.1400836,-35.22471,-8.447793,45.05199,0,0,0,110.605,-46.17753,-56.46231,-10.65206,-111.0334,-35.10307,0.001067912,-0.1257102,0.09433498,0,0.3,0,0,0,0
638223384853820451,40.42889,28.07722,13.72819,23.07844,29.85943,-42.47599,-4.570632,-0.4441859,0.1400836,-35.22471,-8.521038,45.05199,0,0,0,96.82336,-43.42786,-54.69909,-10.65206,-111.0334,-35.10307,0.001067912,-0.1257102,0.09433498,0,0.3,0,0,0,0
638223384854180334,36.84778,28.82533,13.00443,18.53724,28.98049,-38.00803,-4.570632,-0.4441859,0.1400836,-35.22471,-8.447793,45.05199,0,0,0,88.05526,-42.28643,-50.84851,-10.65206,-111.0334,-35.10307,0.001067912,-0.1257102,0.09433498,0,0.3,0,0,0,0
638223384854610199,34.91586,29.10587,13.19121,13.1171,28.32128,-34.63876,-4.570632,-0.4441859,0.1400836,-35.22471,-8.447793,45.05199,0,0,0,84.10536,-41.61667,-47.85889,-10.65206,-111.0334,-35.10307,0.001067912,-0.1257102,0.09433498,0,0.3,0,0,0,0
638223384854970084,34.7745,29.69032,13.70484,10.8465,27.95506,-33.68657,-4.570632,-0.4441859,0.1400836,-35.22471,-8.447793,45.05199,0,0,0,84.09013,-40.15356,-47.2452,-10.65206,-111.0334,-35.10307,0.001067912,-0.1257102,0.09433498,0,0.3,0,0,0,0
638223384855339972,34.91586,31.7476,14.82551,8.868877,27.00287,-33.02736,-4.570632,-0.4441859,0.1400836,-35.22471,-8.447793,45.05199,0,0,0,84.4356,-35.39484,-47.38579,-10.65206,-111.0334,-35.10307,0.001067912,-0.1257102,0.09433498,0,0.3,0,0,0,0
638223384855679863,34.91586,33.50097,15.52593,8.429405,26.12393,-32.88087,-4.570632,-0.4441859,0.1400836,-35.22471,-8.447793,45.05199,0,0,0,84.0769,-31.53131,-47.89967,-10.65206,-111.0334,-35.10307,0.001067912,-0.1257102,0.09433498,0,0.3,0,0,0,0
638223384856139710,34.27974,42.01063,18.65447,7.550464,21.14326,-33.61332,-4.570632,-0.4441859,0.1400836,-35.22471,-8.447793,45.05199,0,0,0,79.83005,-13.74748,-51.2346,-10.65206,-111.0334,-35.10307,0.001067912,-0.1257102,0.09433498,0,0.3,0,0,0,0
638223384856504665,33.03107,47.52789,21.03589,6.818012,16.60205,-34.85849,-4.570632,-0.4441859,0.1400836,-35.22471,-8.447793,45.05199,0,0,0,75.17301,-2.753224,-52.73101,-10.65206,-111.0334,-35.10307,0.001067912,-0.1257102,0.09433498,0,0.3,0,0,0,0
638223384856854542,32.23003,50.28652,22.39003,6.158805,13.81874,-35.59094,-4.570632,-0.4441859,0.1400836,-35.22471,-8.447793,45.05199,0,0,0,72.53046,2.632324,-53.30732,-10.65206,-111.0334,-35.10307,0.001067912,-0.1257102,0.09433498,0,0.3,0,0,0,0
638223384857224426,30.36879,54.9154,24.63136,4.474167,8.471841,-36.90935,-4.570632,-0.4441859,0.1400836,-35.22471,-8.447793,45.05199,0,0,0,66.8482,11.25464,-54.26767,-10.65206,-111.0334,-35.10307,0.001067912,-0.1257102,0.09433498,0,0.3,0,0,0,0
638223384857644292,27.6594,58.2351,26.0789,1.910586,3.710905,-37.49532,-4.570632,-0.4441859,0.1400836,-35.22471,-8.447793,45.05199,0,0,0,59.80098,16.95264,-54.24952,-10.65206,-111.0334,-35.10307,0.001067912,-0.1257102,0.09433498,0,0.3,0,0,0,0
638223384858004178,23.51284,60.15212,26.52249,-2.410879,-0.3908245,-37.49532,-4.570632,-0.4441859,0.1400836,-35.22471,-8.447793,45.05199,0,0,0,50.23456,19.69497,-52.88919,-10.65206,-111.0334,-35.10307,0.001067912,-0.1257102,0.09433498,0,0.3,0,0,0,0
638223384858364061,19.97885,60.52617,26.17229,-8.050756,-2.661425,-37.20233,-4.570632,-0.4441859,0.1400836,-35.22471,-8.447793,45.12524,0,0,0,42.51391,19.76404,-51.40967,-10.65206,-111.0334,-35.10307,0.001067912,-0.1257102,0.09433498,0,0.3,0,0,0,0
638223384858733950,17.85845,60.05861,25.12166,-14.2766,-3.906592,-37.05584,-4.570632,-0.4441859,0.1400836,-35.22471,-8.447793,45.05199,0,0,0,37.77195,18.16642,-51.11519,-10.65206,-111.0334,-35.10307,0.001067912,-0.1257102,0.09433498,0,0.3,0,0,0,0
638223384859163806,18.37677,57.65065,22.36668,-19.69674,-4.126328,-39.17995,-4.570632,-0.4441859,0.1400836,-35.22471,-8.447793,45.05199,0,0,0,38.49282,12.6865,-52.47949,-10.65206,-111.0334,-35.10307,0.001067912,-0.1257102,0.09433498,0,0.3,0,0,0,0
638223384859523696,21.03905,54.5881,19.6584,-20.79542,-3.100896,-41.96327,-4.570632,-0.4441859,0.1400836,-35.22471,-8.447793,45.05199,0,0,0,43.84524,6.453548,-54.3615,-10.65206,-111.0334,-35.10307,0.001067912,-0.1257102,0.09433498,0,0.3,0,0,0,0
638223384859873580,23.3008,52.60096,18.16417,-20.13621,-2.002218,-43.50142,-4.570632,-0.4441859,0.1400836,-35.22471,-8.447793,45.05199,0,0,0,48.48059,2.58175,-55.78365,-10.65206,-111.0334,-35.10307,0.001067912,-0.1257102,0.09433498,0,0.3,0,0,0,0
638223384860243461,29.68555,48.55653,16.13296,-15.66825,1.147324,-45.99176,-4.570632,-0.4441859,0.1400836,-35.15147,-8.447793,45.05199,0,0,0,62.06115,-4.788233,-59.48143,-10.65206,-111.0334,-35.10307,0.001067912,-0.1257102,0.09433498,0,0.3,0,0,0,0
638223384860663329,36.04674,46.24208,16.13296,-8.270493,4.516602,-47.31017,-4.570632,-0.4441859,0.1400836,-35.22471,-8.447793,45.12524,0,0,0,76.07428,-8.43411,-63.82216,-10.65206,-111.0334,-35.10307,0.001067912,-0.1257102,0.09433498,0,0.3,0,0,0,0
638223384861023213,40.61737,45.33034,17.60384,0.006211365,6.933692,-48.70182,-4.570632,-0.4441859,0.1400836,-35.22471,-8.447793,45.12524,0,0,0,87.28474,-8.920515,-66.57562,-10.65206,-111.0334,-35.10307,0.001067912,-0.1257102,0.09433498,0,0.3,0,0,0,0
638223384861383102,42.29013,45.65763,19.05137,7.110993,7.739389,-50.6062,-4.570632,-0.4441859,0.1400836,-35.22471,-8.447793,45.05199,0,0,0,92.00477,-7.327199,-67.20309,-10.65206,-111.0334,-35.10307,0.001067912,-0.1257102,0.09433498,0,0.3,0,0,0,0
638223384861742983,42.31369,46.94343,20.35881,11.35921,7.519653,-51.99786,-4.570632,-0.4441859,0.1400836,-35.22471,-8.447793,45.05199,0,0,0,92.51838,-4.233753,-66.72242,-10.65206,-111.0334,-35.10307,0.001067912,-0.1257102,0.09433498,0,0.3,0,0,0,0
638223384862172849,40.90009,49.32801,21.50283,13.84955,6.127995,-52.80355,-4.570632,-0.4441859,0.1400836,-35.22471,-8.447793,45.05199,0,0,0,88.90543,0.4209429,-65.7151,-10.65206,-111.0334,-35.10307,0.001067912,-0.1257102,0.09433498,0,0.3,0,0,0,0
638223384862532748,39.01529,50.89435,21.64292,13.62981,5.029318,-52.95005,-4.570632,-0.4441859,0.1400836,-35.22471,-8.447793,45.05199,0,0,0,83.91171,2.878601,-64.78421,-10.65206,-111.0334,-35.10307,0.001067912,-0.1257102,0.09433498,0,0.3,0,0,0,0
638223384862902618,35.29282,52.15677,21.08258,11.65219,3.93064,-52.73031,-4.570632,-0.4441859,0.1400836,-35.22471,-8.447793,45.05199,0,0,0,74.98016,4.231533,-62.42359,-10.65206,-111.0334,-35.10307,0.001067912,-0.1257102,0.09433498,0,0.3,0,0,0,0
638223384863242508,32.27715,52.39055,20.38216,9.821064,3.63766,-51.92461,-4.570632,-0.4441859,0.1400836,-35.22471,-8.447793,45.05199,0,0,0,68.25966,3.98739,-60.27848,-10.65206,-111.0334,-35.10307,0.001067912,-0.1257102,0.09433498,0,0.3,0,0,0,0
638223384863702363,19.97885,51.058,18.44434,-0.2867693,3.93064,-47.60315,-4.570632,-0.4441859,0.1400836,-35.22471,-8.447793,45.12524,0,0,0,43.05241,0.5673013,-49.92847,-10.65206,-111.0334,-35.10307,0.001067912,-0.1257102,0.09433498,0,0.3,0,0,0,0
638223384864062247,15.85585,50.30989,18.44434,-5.267441,4.516602,-45.91851,-4.570632,-0.4441859,0.1400836,-35.22471,-8.447793,45.05199,0,0,0,34.79478,-0.5358675,-45.84378,-10.65206,-111.0334,-35.10307,0.001067912,-0.1257102,0.09433498,0,0.3,0,0,0,0
638223384864402137,10.93182,49.53841,19.07472,-15.88799,5.90826,-43.57467,-4.570632,-0.4441859,0.1400836,-35.22471,-8.447793,45.12524,0,0,0,24.67507,-1.220007,-40.59633,-10.65206,-111.0334,-35.10307,0.001067912,-0.1257102,0.09433498,0,0.3,0,0,0,0
638223384864762024,10.31926,49.42152,19.6117,-24.23794,6.567466,-42.54923,-4.570632,-0.4441859,0.1400836,-35.22471,-8.447793,45.05199,0,0,0,23.55614,-0.9828035,-38.97621,-10.65206,-111.0334,-35.10307,0.001067912,-0.1257102,0.09433498,0,0.3,0,0,0,0
638223384865221880,12.25118,49.95922,20.17204,-29.14537,6.567466,-42.10976,-4.570632,-0.4441859,0.1400836,-35.22471,-8.447793,45.05199,0,0,0,27.96191,0.2704914,-39.57805,-10.65206,-111.0334,-35.10307,0.001067912,-0.1257102,0.09433498,0,0.3,0,0,0,0
638223384865581761,14.11242,50.91772,20.84911,-29.58484,6.201241,-42.40274,-4.570632,-0.4441859,0.1400836,-35.22471,-8.447793,45.05199,0,0,0,32.07007,2.243431,-40.79071,-10.65206,-111.0334,-35.10307,0.001067912,-0.1257102,0.09433498,0,0.3,0,0,0,0
638223384865951643,17.95269,53.06852,22.50677,-28.11993,4.956073,-43.28168,-4.570632,-0.4441859,0.1400836,-35.22471,-8.447793,45.05199,0,0,0,40.43074,6.750634,-43.5665,-10.65206,-111.0334,-35.10307,0.001067912,-0.1257102,0.09433498,0,0.3,0,0,0,0
638223384866311528,22.9474,55.71026,24.7481,-23.94496,2.392492,-45.18605,-4.570632,-0.4441859,0.1400836,-35.22471,-8.447793,45.05199,0,0,0,51.05585,12.42092,-47.76229,-10.65206,-111.0334,-35.10307,0.001067912,-0.1257102,0.09433498,0,0.3,0,0,0,0
638223384866741391,27.70651,57.15971,26.33572,-18.15859,-0.9035407,-48.26236,-4.570632,-0.4441859,0.1400836,-35.22471,-8.447793,45.05199,0,0,0,61.12772,15.87912,-51.95102,-10.65206,-111.0334,-35.10307,0.001067912,-0.1257102,0.09433498,0,0.3,0,0,0,0
638223384867101275,30.08607,56.92593,26.26567,-13.17792,-3.027651,-51.63163,-4.570632,-0.4441859,0.1400836,-35.22471,-8.521038,45.12524,0,0,0,66.0634,15.51089,-54.32077,-10.65206,-111.0334,-35.10307,0.001067912,-0.1257102,0.09433498,0,0.3,0,0,0,0
638223384867461161,30.76931,56.48174,25.84542,-10.98056,-3.613612,-53.09653,-4.570632,-0.4441859,0.1400836,-35.22471,-8.447793,45.12524,0,0,0,67.41097,14.51375,-55.12919,-10.65206,-111.0334,-35.10307,0.001067912,-0.1257102,0.09433498,0,0.3,0,0,0,0
638223384867821047,31.12271,55.21932,24.60802,-8.270493,-3.613612,-55.22065,-4.570632,-0.4441859,0.1400836,-35.22471,-8.447793,45.05199,0,0,0,68.01824,11.63703,-55.69584,-10.65206,-111.0334,-35.10307,0.001067912,-0.1257102,0.09433498,0,0.3,0,0,0,0
638223384868250910,31.12271,53.27893,22.90367,-7.09857,-2.441689,-56.46581,-4.570632,-0.4441859,0.1400836,-35.22471,-8.447793,45.05199,0,0,0,68.03604,7.400709,-55.66637,-10.65206,-111.0334,-35.10307,0.001067912,-0.1257102,0.09433498,0,0.3,0,0,0,0
638223384868614136,31.12271,49.95922,20.82576,-6.439363,-0.171089,-57.05178,-4.570632,-0.4441859,0.1400836,-35.22471,-8.447793,45.05199,0,0,0,68.84639,0.8032924,-54.32424,-10.65206,-111.0334,-35.10307,0.001067912,-0.1257102,0.09433498,0,0.3,0,0,0,0
638223384868979449,31.09915,45.30696,18.60777,-5.853402,3.271434,-56.02634,-4.570632,-0.4441859,0.1400836,-35.22471,-8.447793,45.05199,0,0,0,70.42063,-8.232649,-51.60846,-10.65206,-111.0334,-35.10307,0.001067912,-0.1257102,0.09433498,0,0.3,0,0,0,0
638223384869339288,31.07559,39.46241,16.78668,-5.340686,8.03237,-53.97548,-4.570632,-0.4441859,0.1400836,-35.22471,-8.447793,45.05199,0,0,0,73.01951,-19.56401,-47.18749,-10.65206,-111.0334,-35.10307,0.001067912,-0.1257102,0.09433498,0,0.3,0,0,0,0
638223384869769163,31.07559,31.18653,15.54928,-5.047705,14.84417,-51.33865,-4.570632,-0.4441859,0.1400836,-35.22471,-8.447793,45.05199,0,0,0,77.33536,-36.06735,-40.02613,-10.65206,-111.0334,-35.10307,0.001067912,-0.1257102,0.09433498,0,0.3,0,0,0,0
638223384870129032,30.98135,24.71076,15.47924,-5.194195,20.55729,-50.31322,-4.570632,-0.4441859,0.1400836,-35.22471,-8.447793,45.05199,0,0,0,80.67754,-49.4177,-33.98096,-10.65206,-111.0334,-35.10307,0.001067912,-0.1257102,0.09433498,0,0.3,0,0,0,0
638223384870488919,30.76931,17.53365,16.22635,-6.366118,27.2226,-49.8005,-4.570632,-0.4441859,0.1400836,-35.22471,-8.447793,45.05199,0,0,0,84.11285,-64.51423,-27.07737,-10.65206,-111.0334,-35.10307,0.001067912,-0.1257102,0.09433498,0,0.3,0,0,0,0
638223384870848805,30.62795,14.68151,16.71664,-7.24506,30.22566,-50.02024,-4.570632,-0.4441859,0.1400836,-35.22471,-8.447793,45.05199,0,0,0,85.2597,-70.5675,-24.34408,-10.65206,-111.0334,-35.10307,0.001067912,-0.1257102,0.09433498,0,0.3,0,0,0,0
638223384871268669,30.22743,11.29167,16.99681,-8.856454,34.8401,-50.89918,-4.570632,-0.4441859,0.1400836,-35.22471,-8.447793,45.05199,0,0,0,85.45757,-78.065,-21.68074,-10.65206,-111.0334,-35.10307,0.001067912,-0.1257102,0.09433498,0,0.3,0,0,0,0
638223384871628558,30.10963,10.66046,16.6466,-10.17487,37.84315,-51.70488,-4.570632,-0.4441859,0.1400836,-35.22471,-8.447793,45.05199,0,0,0,84.90477,-79.74307,-21.93831,-10.65206,-111.0334,-35.10307,0.001067912,-0.1257102,0.09433498,0,0.3,0,0,0,0
638223384871988443,30.10963,11.85275,16.17966,-10.10162,39.30806,-51.85137,-4.570632,-0.4441859,0.1400836,-35.22471,-8.447793,45.05199,0,0,0,84.11008,-77.32865,-23.3087,-10.65206,-111.0334,-35.10307,0.001067912,-0.1257102,0.09433498,0,0.3,0,0,0,0
638223384872358324,30.08607,15.07894,15.15238,-9.076189,39.30806,-50.67944,-4.570632,-0.4441859,0.1400836,-35.22471,-8.447793,45.05199,0,0,0,82.02,-70.67301,-26.77875,-10.65206,-111.0334,-35.10307,0.001067912,-0.1257102,0.09433498,0,0.3,0,0,0,0
638223384872778197,29.75623,21.29754,14.75547,-7.24506,37.18394,-48.62858,-4.570632,-0.4441859,0.1400836,-35.22471,-8.447793,45.05199,0,0,0,78.51965,-57.16811,-31.00377,-10.65206,-111.0334,-35.10307,0.001067912,-0.1257102,0.09433498,0,0.3,0,0,0,0
638223384873118081,29.19079,26.39399,15.47924,-6.219628,34.62037,-46.79745,-4.570632,-0.4441859,0.1400836,-35.22471,-8.447793,45.05199,0,0,0,75.61555,-45.88345,-33.00084,-10.65206,-111.0334,-35.10307,0.001067912,-0.1257102,0.09433498,0,0.3,0,0,0,0
638223384873447975,28.86095,29.22275,16.15631,-5.853402,32.86248,-45.77202,-4.570632,-0.4441859,0.1400836,-35.22471,-8.447793,45.05199,0,0,0,74.08458,-39.63119,-33.92958,-10.65206,-111.0334,-35.10307,0.001067912,-0.1257102,0.09433498,0,0.3,0,0,0,0
638223384873807881,28.24839,36.6804,18.86459,-5.120951,27.44234,-43.42817,-4.570632,-0.4441859,0.1400836,-35.22471,-8.521038,45.05199,0,0,0,71.02286,-23.18042,-36.16115,-10.65206,-111.0334,-35.10307,0.001067912,-0.1257102,0.09433498,0,0.3,0,0,0,0
638223384874307701,28.22483,45.63425,24.37455,-4.242009,18.28669,-41.96327,-4.570632,-0.4441859,0.1400836,-35.22471,-8.374548,45.12524,0,0,0,70.12488,-2.783437,-37.70366,-10.65206,-111.0334,-35.10307,0.001067912,-0.1257102,0.09433498,0,0.3,0,0,0,0
638223384874667584,28.31907,48.22923,26.35906,-4.022273,14.99066,-41.81678,-4.570632,-0.4441859,0.1400836,-35.22471,-8.447793,45.05199,0,0,0,70.22651,3.319064,-38.02916,-10.65206,-111.0334,-35.10307,0.001067912,-0.1257102,0.09433498,0,0.3,0,0,0,0
638223384875027471,28.90807,52.53082,29.93119,-3.509557,8.838067,-41.59705,-4.570632,-0.4441859,0.1400836,-35.22471,-8.447793,45.05199,0,0,0,71.37857,13.62285,-39.09099,-10.65206,-111.0334,-35.10307,0.001067912,-0.1257102,0.09433498,0,0.3,0,0,0,0
638223384875387360,29.61487,55.56999,32.70952,-2.630615,3.051698,-41.5238,-4.570632,-0.4441859,0.1400836,-35.22471,-8.447793,45.05199,0,0,0,72.8678,21.13592,-40.15696,-10.65206,-111.0334,-35.10307,0.001067912,-0.1257102,0.09433498,0,0.3,0,0,0,0
638223384875807222,30.06251,57.69741,34.39052,-1.312202,-2.661425,-41.45055,-4.570632,-0.4441859,0.1400836,-35.15147,-8.447793,45.05199,0,0,0,73.42902,26.02109,-41.48705,-10.65206,-111.0334,-35.10307,0.001067912,-0.1257102,0.09433498,0,0.3,0,0,0,0
638223384876167109,29.77979,58.25848,34.36718,-0.8727306,-4.785534,-41.45055,-4.570632,-0.4441859,0.1400836,-35.22471,-8.447793,45.05199,0,0,0,72.22998,26.68283,-42.12613,-10.65206,-111.0334,-35.10307,0.001067912,-0.1257102,0.09433498,0,0.3,0,0,0,0
638223384876526995,28.60179,58.39875,33.64341,-1.092466,-6.250438,-41.45055,-4.570632,-0.4441859,0.1400836,-35.22471,-8.447793,45.12524,0,0,0,68.81824,25.91216,-42.13781,-10.65206,-111.0334,-35.10307,0.001067912,-0.1257102,0.09433498,0,0.3,0,0,0,0
638223384876886881,26.41072,58.30524,32.59278,-2.410879,-6.763155,-40.42512,-4.570632,-0.4441859,0.1400836,-35.22471,-8.447793,45.05199,0,0,0,63.11404,24.46199,-41.26729,-10.65206,-111.0334,-35.10307,0.001067912,-0.1257102,0.09433498,0,0.3,0,0,0,0
638223384877346735,22.52332,57.88443,31.05186,-5.487176,-6.616664,-38.30101,-4.570632,-0.4441859,0.1400836,-35.22471,-8.447793,45.05199,0,0,0,53.50439,22.0534,-39.32755,-10.65206,-111.0334,-35.10307,0.001067912,-0.1257102,0.09433498,0,0.3,0,0,0,0
638223384877706621,18.49457,57.2766,30.00124,-9.22268,-6.323683,-36.1769,-4.570632,-0.4441859,0.1400836,-35.22471,-8.447793,45.05199,0,0,0,44.01811,20.05298,-36.7523,-10.65206,-111.0334,-35.10307,0.001067912,-0.1257102,0.09433498,0,0.3,0,0,0,0
638223384878066506,15.83229,56.78566,29.53429,-11.85951,-6.103948,-35.07822,-4.570632,-0.4441859,0.1400836,-35.22471,-8.447793,45.05199,0,0,0,37.86221,18.89163,-34.83507,-10.65206,-111.0334,-35.10307,0.001067912,-0.1257102,0.09433498,0,0.3,0,0,0,0
638223384878426391,9.730264,55.35958,28.88057,-18.0121,-5.371496,-32.95412,-4.570632,-0.4441859,0.1400836,-35.22471,-8.447793,45.05199,0,0,0,23.69613,16.29675,-30.16147,-10.65206,-111.0334,-35.10307,0.001067912,-0.1257102,0.09433498,0,0.3,0,0,0,0
638223384878846255,2.662276,53.0919,29.11404,-25.92258,-4.272818,-31.12299,-4.570632,-0.4441859,0.1400836,-35.22471,-8.447793,45.05199,0,0,0,6.733327,13.475,-23.54398,-10.65206,-111.0334,-35.10307,0.001067912,-0.1257102,0.09433498,0,0.3,0,0,0,0
638223384879206137,-3.840273,49.77219,30.725,-35.59094,-2.807915,-29.14537,-4.570632,-0.4441859,0.1400836,-35.22471,-8.447793,45.05199,0,0,0,-10.33107,10.52884,-14.44423,-10.65206,-111.0334,-35.10307,0.001067912,-0.1257102,0.09433498,0,0.3,0,0,0,0
638223384879566025,-8.481586,46.63952,33.78349,-44.30712,-1.196521,-26.87477,-4.570632,-0.4441859,0.1400836,-35.22471,-8.447793,45.05199,0,0,0,-24.44029,9.468753,-4.455909,-10.65206,-111.0334,-35.10307,0.001067912,-0.1257102,0.09433498,0,0.3,0,0,0,0
638223384879925912,-11.42658,44.60561,37.986,-52.14435,-0.171089,-24.23794,-4.570632,-0.4441859,0.1400836,-35.22471,-8.447793,45.12524,0,0,0,-35.06828,11.89012,5.153789,-10.65206,-111.0334,-35.10307,0.001067912,-0.1257102,0.09433498,0,0.3,0,0,0,0
638223384880355771,-12.43966,44.04454,41.69822,-59.54211,0.1951368,-22.18707,-4.570632,-0.4441859,0.1400836,-35.22471,-8.447793,45.05199,0,0,0,-39.75573,16.49026,11.87452,-10.65206,-111.0334,-35.10307,0.001067912,-0.1257102,0.09433498,0,0.3,0,0,0,0
638223384880715656,-11.99202,44.90953,42.49202,-63.42411,0.04864649,-21.45462,-4.570632,-0.4441859,0.1400836,-35.22471,-8.447793,45.05199,0,0,0,-38.33826,19.16521,12.14091,-10.65206,-111.0334,-35.10307,0.001067912,-0.1257102,0.09433498,0,0.3,0,0,0,0
638223384881085546,-10.34282,47.24735,42.02508,-65.69471,-0.8302955,-21.7476,-4.570632,-0.4441859,0.1400836,-35.22471,-8.447793,45.05199,0,0,0,-32.27987,22.20842,8.523085,-10.65206,-111.0334,-35.10307,0.001067912,-0.1257102,0.09433498,0,0.3,0,0,0,0
638223384881445426,-8.999906,48.93058,41.32466,-65.47498,-1.855728,-22.11383,-4.570632,-0.4441859,0.1400836,-35.22471,-8.447793,45.05199,0,0,0,-27.47925,23.74127,5.149037,-10.65206,-111.0334,-35.10307,0.001067912,-0.1257102,0.09433498,0,0.3,0,0,0,0
638223384881865289,-5.701511,52.11002,39.97052,-63.13113,-4.199574,-23.28575,-4.570632,-0.4441859,0.1400836,-35.22471,-8.447793,45.05199,0,0,0,-16.64638,26.39256,-1.619233,-10.65206,-111.0334,-35.10307,0.001067912,-0.1257102,0.09433498,0,0.3,0,0,0,0
638223384882205181,-1.130878,55.10242,38.96659,-58.37019,-7.202625,-24.60417,-4.570632,-0.4441859,0.1400836,-35.22471,-8.521038,45.05199,0,0,0,-3.160772,29.03914,-8.230746,-10.65206,-111.0334,-35.10307,0.001067912,-0.1257102,0.09433498,0,0.3,0,0,0,0
638223384882565068,3.934513,57.29997,37.5424,-51.04567,-10.27892,-25.70284,-4.570632,-0.4441859,0.1400836,-35.22471,-8.447793,45.05199,0,0,0,10.51871,29.83187,-15.4136,-10.65206,-111.0334,-35.10307,0.001067912,-0.1257102,0.09433498,0,0.3,0,0,0,0
638223384882934954,9.211945,58.53902,36.21161,-42.18301,-12.40303,-27.53397,-4.570632,-0.4441859,0.1400836,-35.22471,-8.447793,45.12524,0,0,0,23.75319,29.50479,-21.88683,-10.65206,-111.0334,-35.10307,0.001067912,-0.1257102,0.09433498,0,0.3,0,0,0,0
638223384883384808,14.98414,59.26375,34.69404,-30.39053,-13.28197,-30.68352,-4.570632,-0.4441859,0.1400836,-35.22471,-8.447793,45.05199,0,0,0,37.24577,28.32739,-29.1928,-10.65206,-111.0334,-35.10307,0.001067912,-0.1257102,0.09433498,0,0.3,0,0,0,0
638223384883744689,17.76421,59.3105,33.62006,-23.72522,-12.91575,-33.10061,-4.570632,-0.4441859,0.1400836,-35.22471,-8.447793,45.05199,0,0,0,43.29179,26.97958,-33.22193,-10.65206,-111.0334,-35.10307,0.001067912,-0.1257102,0.09433498,0,0.3,0,0,0,0
638223384884114571,20.61497,58.93645,31.47211,-16.10773,-11.67058,-36.61637,-4.570632,-0.4441859,0.1400836,-35.22471,-8.447793,45.05199,0,0,0,48.73819,23.84355,-38.7869,-10.65206,-111.0334,-35.10307,0.001067912,-0.1257102,0.09433498,0,0.3,0,0,0,0
638223384884474457,21.48668,58.42213,30.30475,-13.25116,-10.71839,-38.00803,-4.570632,-0.4441859,0.1400836,-35.22471,-8.447793,45.05199,0,0,0,50.22425,21.82655,-40.76137,-10.65206,-111.0334,-35.10307,0.001067912,-0.1257102,0.09433498,0,0.3,0,0,0,0
638223384884904320,22.33484,54.40108,25.42517,-7.831022,-6.616664,-41.59705,-4.570632,-0.4441859,0.1400836,-35.22471,-8.447793,45.05199,0,0,0,51.25521,11.34383,-43.59305,-10.65206,-111.0334,-35.10307,0.001067912,-0.1257102,0.09433498,0,0.3,0,0,0,0
638223384885264206,22.33484,52.22691,23.60409,-6.732344,-4.785534,-42.62248,-4.570632,-0.4441859,0.1400836,-35.22471,-8.447793,45.05199,0,0,0,51.33176,6.562377,-43.40671,-10.65206,-111.0334,-35.10307,0.001067912,-0.1257102,0.09433498,0,0.3,0,0,0,0
638223384885624117,22.28772,46.3356,19.82183,-5.120951,0.04864649,-43.72115,-4.570632,-0.4441859,0.1400836,-35.22471,-8.447793,45.05199,0,0,0,52.06746,-5.634341,-41.31888,-10.65206,-111.0334,-35.10307,0.001067912,-0.1257102,0.09433498,0,0.3,0,0,0,0
638223384885983975,22.2406,39.32214,16.6466,-3.582802,6.127995,-42.76897,-4.570632,-0.4441859,0.1400836,-35.22471,-8.447793,45.05199,0,0,0,53.50409,-19.91008,-37.50735,-10.65206,-111.0334,-35.10307,0.001067912,-0.1257102,0.09433498,0,0.3,0,0,0,0
638223384886403841,22.2406,28.68506,14.63874,-1.971408,15.72311,-39.91241,-4.570632,-0.4441859,0.1400836,-35.22471,-8.447793,45.05199,0,0,0,57.03373,-41.66397,-28.87574,-10.65206,-111.0334,-35.10307,0.001067912,-0.1257102,0.09433498,0,0.3,0,0,0,0
638223384886763732,22.2406,22.44308,14.75547,-1.019221,21.72922,-37.6418,-4.570632,-0.4441859,0.1400836,-35.22471,-8.447793,45.05199,0,0,0,59.5048,-54.69392,-22.83281,-10.65206,-111.0334,-35.10307,0.001067912,-0.1257102,0.09433498,0,0.3,0,0,0,0
638223384887133614,22.21704,16.29461,15.59597,0.2259469,28.834,-35.07822,-4.570632,-0.4441859,0.1400836,-35.22471,-8.447793,45.05199,0,0,0,61.95244,-67.67539,-16.66916,-10.65206,-111.0334,-35.10307,0.001067912,-0.1257102,0.09433498,0,0.3,0,0,0,0
638223384887493494,22.28772,14.07368,15.75941,1.471115,34.10765,-33.32034,-4.570632,-0.4441859,0.1400836,-35.22471,-8.447793,45.05199,0,0,0,62.79183,-72.56082,-15.1542,-10.65206,-111.0334,-35.10307,0.001067912,-0.1257102,0.09433498,0,0.3,0,0,0,0
638223384887913359,22.19348,15.75691,15.68936,3.302244,36.37825,-31.6357,-4.570632,-0.4441859,0.1400836,-35.22471,-8.447793,45.05199,0,0,0,62.09963,-68.81958,-16.13002,-10.65206,-111.0334,-35.10307,0.001067912,-0.1257102,0.09433498,0,0.3,0,0,0,0
638223384888273250,22.05212,17.46352,15.59597,4.181186,36.305,-30.68352,-4.570632,-0.4441859,0.1400836,-35.22471,-8.447793,45.05199,0,0,0,61.21902,-65.07211,-17.22358,-10.65206,-111.0334,-35.10307,0.001067912,-0.1257102,0.09433498,0,0.3,0,0,0,0
638223384888643127,21.15685,21.71835,15.24576,5.865825,34.76685,-28.41291,-4.570632,-0.4441859,0.1400836,-35.22471,-8.447793,45.05199,0,0,0,57.36849,-55.96157,-20.11413,-10.65206,-111.0334,-35.10307,0.001067912,-0.1257102,0.09433498,0,0.3,0,0,0,0
638223384889003018,18.98933,26.41737,15.03564,6.232051,31.69056,-25.99582,-4.570632,-0.4441859,0.1400836,-35.22471,-8.447793,45.05199,0,0,0,50.1165,-46.10641,-22.71301,-10.65206,-111.0334,-35.10307,0.001067912,-0.1257102,0.09433498,0,0.3,0,0,0,0
638223384889422878,14.13598,32.09827,15.78275,3.082508,26.78313,-23.94496,-4.570632,-0.4441859,0.1400836,-35.22471,-8.447793,45.05199,0,0,0,36.44695,-34.1141,-23.63324,-10.65206,-111.0334,-35.10307,0.001067912,-0.1257102,0.09433498,0,0.3,0,0,0,0
638223384889782766,11.14386,34.6465,16.95012,-0.140279,24.07306,-23.28575,-4.570632,-0.4441859,0.1400836,-35.22471,-8.447793,45.12524,0,0,0,28.71661,-28.39612,-22.57101,-10.65206,-111.0334,-35.10307,0.001067912,-0.1257102,0.09433498,0,0.3,0,0,0,0
638223384890142654,6.26695,37.61553,19.54166,-6.292873,19.82484,-21.96734,-4.570632,-0.4441859,0.1400836,-35.22471,-8.447793,45.05199,0,0,0,16.39972,-20.92735,-19.01348,-10.65206,-111.0334,-35.10307,0.001067912,-0.1257102,0.09433498,0,0.3,0,0,0,0
638223384890512560,1.390038,39.25201,22.64685,-13.91037,15.50338,-19.62349,-4.570632,-0.4441859,0.1400836,-35.22471,-8.447793,45.05199,0,0,0,3.750554,-15.34328,-13.78676,-10.65206,-111.0334,-35.10307,0.001067912,-0.1257102,0.09433498,0,0.3,0,0,0,0
638223384890972384,-3.581114,39.43903,26.26567,-22.5533,11.3284,-15.96124,-4.570632,-0.4441859,0.1400836,-35.22471,-8.447793,45.05199,0,0,0,-10.11866,-11.52036,-6.668068,-10.65206,-111.0334,-35.10307,0.001067912,-0.1257102,0.09433498,0,0.3,0,0,0,0
638223384891322271,-6.502549,39.15849,28.6004,-28.77914,8.838067,-13.25116,-4.570632,-0.4441859,0.1400836,-35.15147,-8.447793,45.05199,0,0,0,-18.93885,-9.522366,-2.19159,-10.65206,-111.0334,-35.10307,0.001067912,-0.1257102,0.09433498,0,0.3,0,0,0,0
638223384891672162,-7.986827,38.76106,29.8378,-32.29491,7.592898,-12.07924,-4.570632,-0.4441859,0.1400836,-35.22471,-8.447793,45.05199,0,0,0,-23.66648,-8.8358,0.3271101,-10.65206,-111.0334,-35.10307,0.001067912,-0.1257102,0.09433498,0,0.3,0,0,0,0
638223384892042045,-10.38994,37.38175,31.86902,-38.96022,5.90826,-10.68758,-4.570632,-0.4441859,0.1400836,-35.22471,-8.447793,45.05199,0,0,0,-31.80717,-8.938647,5.125146,-10.65206,-111.0334,-35.10307,0.001067912,-0.1257102,0.09433498,0,0.3,0,0,0,0
638223384892461907,-12.08626,35.23095,33.10642,-44.96632,5.029318,-9.955132,-4.570632,-0.4441859,0.1400836,-35.22471,-8.447793,45.05199,0,0,0,-38.05764,-11.42552,9.380963,-10.65206,-111.0334,-35.10307,0.001067912,-0.1257102,0.09433498,0,0.3,0,0,0,0
638223384892821798,-13.21714,32.823,33.6901,-49.21454,4.736337,-9.588906,-4.570632,-0.4441859,0.1400836,-35.22471,-8.447793,45.05199,0,0,0,-42.53426,-15.32209,12.75207,-10.65206,-111.0334,-35.10307,0.001067912,-0.1257102,0.09433498,0,0.3,0,0,0,0
638223384893181684,-14.08886,30.27477,34.11036,-52.21759,5.102563,-10.02838,-4.570632,-0.4441859,0.1400836,-35.22471,-8.447793,45.12524,0,0,0,-46.23752,-19.83027,15.88092,-10.65206,-111.0334,-35.10307,0.001067912,-0.1257102,0.09433498,0,0.3,0,0,0,0
638223384893541569,-14.7721,27.63304,34.41387,-54.70793,5.90826,-11.2003,-4.570632,-0.4441859,0.1400836,-35.22471,-8.447793,45.05199,0,0,0,-49.33881,-24.81199,18.75881,-10.65206,-111.0334,-35.10307,0.001067912,-0.1257102,0.09433498,0,0.3,0,0,0,0
638223384893971427,-15.40822,23.79901,34.5773,-56.83204,7.080183,-13.17792,-4.570632,-0.4441859,0.1400836,-35.22471,-8.447793,45.05199,0,0,0,-52.52492,-32.63457,22.23379,-10.65206,-111.0334,-35.10307,0.001067912,-0.1257102,0.09433498,0,0.3,0,0,0,0
638223384894321317,-15.64381,21.11052,34.50726,-57.71098,8.03237,-14.49633,-4.570632,-0.4441859,0.1400836,-35.22471,-8.447793,45.05199,0,0,0,-53.91635,-38.50925,24.18811,-10.65206,-111.0334,-35.10307,0.001067912,-0.1257102,0.09433498,0,0.3,0,0,0,0
638223384894681201,-15.76161,19.35715,34.46056,-58.00396,8.764822,-15.30203,-4.570632,-0.4441859,0.1400836,-35.22471,-8.447793,45.05199,0,0,0,-54.67112,-42.39957,25.34887,-10.65206,-111.0334,-35.10307,0.001067912,-0.1257102,0.09433498,0,0.3,0,0,0,0
638223384895041089,-15.80873,15.64002,34.06366,-58.51668,10.37621,-16.91342,-4.570632,-0.4441859,0.1400836,-35.22471,-8.447793,45.05199,0,0,0,-55.33094,-51.16908,27.07171,-10.65206,-111.0334,-35.10307,0.001067912,-0.1257102,0.09433498,0,0.3,0,0,0,0
638223384895510940,-15.64381,10.87086,33.64341,-58.00396,12.35384,-19.62349,-4.570632,-0.4441859,0.1400836,-35.22471,-8.447793,45.05199,0,0,0,-55.23528,-62.51482,28.89808,-10.65206,-111.0334,-35.10307,0.001067912,-0.1257102,0.09433498,0,0.3,0,0,0,0
638223384895870823,-15.43177,9.304525,33.52667,-57.5645,12.86655,-20.64893,-4.570632,-0.4441859,0.1400836,-35.22471,-8.447793,45.05199,0,0,0,-54.61461,-66.25414,29.49846,-10.65206,-111.0334,-35.10307,0.001067912,-0.1257102,0.09433498,0,0.3,0,0,0,0
638223384896230709,-14.91346,6.288737,33.45663,-56.39257,13.81874,-22.33356,-4.570632,-0.4441859,0.1400836,-35.22471,-8.447793,45.05199,0,0,0,-53.03262,-73.29734,30.77304,-10.65206,-111.0334,-35.10307,0.001067912,-0.1257102,0.09433498,0,0.3,0,0,0,0
638223384896590595,-14.11242,3.857404,33.05973,-55.07415,14.47795,-23.87171,-4.570632,-0.4441859,0.1400836,-35.22471,-8.447793,45.05199,0,0,0,-50.17729,-79.44002,31.2311,-10.65206,-111.0334,-35.10307,0.001067912,-0.1257102,0.09433498,0,0.3,0,0,0,0
638223384897020460,-12.43966,1.005263,31.77563,-52.65706,15.2104,-26.06907,-4.570632,-0.4441859,0.1400836,-35.22471,-8.447793,45.05199,0,0,0,-43.84715,-87.67355,30.42214,-10.65206,-111.0334,-35.10307,0.001067912,-0.1257102,0.09433498,0,0.3,0,0,0,0
638223384897380340,-11.28522,-0.4909423,30.79504,-50.82594,15.64987,-27.75371,-4.570632,-0.4441859,0.1400836,-35.22471,-8.447793,45.05199,0,0,0,-39.4549,-92.34081,29.3679,-10.65206,-111.0334,-35.10307,0.001067912,-0.1257102,0.09433498,0,0.3,0,0,0,0
638223384897740226,-9.706704,-1.028641,28.88057,-48.04262,16.45556,-30.1708,-4.570632,-0.4441859,0.1400836,-35.22471,-8.447793,45.05199,0,0,0,-33.33899,-95.80898,26.5538,-10.65206,-111.0334,-35.10307,0.001067912,-0.1257102,0.09433498,0,0.3,0,0,0,0
638223384898100110,-8.717185,-1.005263,27.47973,-45.69878,17.18801,-32.80762,-4.570632,-0.4441859,0.1400836,-35.22471,-8.447793,45.05199,0,0,0,-29.53273,-97.2942,24.26085,-10.65206,-111.0334,-35.10307,0.001067912,-0.1257102,0.09433498,0,0.3,0,0,0,0
638223384898529975,-8.081067,-0.04675641,25.98551,-44.16063,18.1402,-36.25014,-4.570632,-0.4441859,0.1400836,-35.22471,-8.447793,45.05199,0,0,0,-26.95879,-96.62779,21.52212,-10.65206,-111.0334,-35.10307,0.001067912,-0.1257102,0.09433498,0,0.3,0,0,0,0
638223384898889857,-7.256468,3.296327,24.02434,-43.13519,18.65292,-39.2532,-4.570632,-0.4441859,0.1400836,-35.22471,-8.447793,45.05199,0,0,0,-23.67313,-90.78061,17.56834,-10.65206,-111.0334,-35.10307,0.001067912,-0.1257102,0.09433498,0,0.3,0,0,0,0
638223384899259740,-6.855949,5.774416,23.16049,-42.69572,18.35994,-40.57161,-4.570632,-0.4441859,0.1400836,-35.22471,-8.447793,45.05199,0,0,0,-22.09854,-85.83628,15.44724,-10.65206,-111.0334,-35.10307,0.001067912,-0.1257102,0.09433498,0,0.3,0,0,0,0
638223384899609629,-6.314069,11.52545,22.15656,-42.10976,16.89503,-43.20844,-4.570632,-0.4441859,0.1400836,-35.22471,-8.447793,45.05199,0,0,0,-19.90087,-73.50925,11.50491,-10.65206,-111.0334,-35.10307,0.001067912,-0.1257102,0.09433498,0,0.3,0,0,0,0
638223384900039497,-5.536591,20.15201,22.01647,-42.25625,13.67225,-46.79745,-4.570632,-0.4441859,0.1400836,-35.22471,-8.447793,45.05199,0,0,0,-16.90122,-54.33492,6.008665,-10.65206,-111.0334,-35.10307,0.001067912,-0.1257102,0.09433498,0,0.3,0,0,0,0
638223384900379387,-5.136071,24.31333,22.34333,-42.3295,11.54814,-47.82288,-4.570632,-0.4441859,0.1400836,-35.22471,-8.447793,45.05199,0,0,0,-15.41707,-45.08469,3.175164,-10.65206,-111.0334,-35.10307,0.001067912,-0.1257102,0.09433498,0,0.3,0,0,0,0
638223384900739271,-4.688432,30.41504,23.37061,-42.40274,8.325351,-49.28778,-4.570632,-0.4441859,0.1400836,-35.22471,-8.447793,45.05199,0,0,0,-13.72331,-31.54993,-1.016421,-10.65206,-111.0334,-35.10307,0.001067912,-0.1257102,0.09433498,0,0.3,0,0,0,0
638223384901099153,-4.405713,36.75054,25.26174,-42.47599,4.736337,-50.53296,-4.570632,-0.4441859,0.1400836,-35.22471,-8.447793,45.05199,0,0,0,-12.57934,-17.45985,-5.079771,-10.65206,-111.0334,-35.10307,0.001067912,-0.1257102,0.09433498,0,0.3,0,0,0,0
638223384901559011,-4.122993,42.80549,27.61982,-43.06195,0.268382,-51.33865,-4.570632,-0.4441859,0.1400836,-35.22471,-8.447793,45.05199,0,0,0,-11.47887,-4.191001,-9.107599,-10.65206,-111.0334,-35.10307,0.001067912,-0.1257102,0.09433498,0,0.3,0,0,0,0
638223384901918895,-3.793154,45.7979,28.50701,-43.42817,-2.88116,-51.55839,-4.570632,-0.4441859,0.1400836,-35.22471,-8.447793,45.05199,0,0,0,-10.36074,1.764147,-12.07915,-10.65206,-111.0334,-35.10307,0.001067912,-0.1257102,0.09433498,0,0.3,0,0,0,0
638223384902288772,-3.416194,47.38762,28.39028,-43.72115,-5.444741,-51.70488,-4.570632,-0.4441859,0.1400836,-35.22471,-8.447793,45.05199,0,0,0,-9.157992,4.177137,-14.9359,-10.65206,-111.0334,-35.10307,0.001067912,-0.1257102,0.09433498,0,0.3,0,0,0,0
638223384902648658,-3.298395,47.71491,27.99337,-43.64791,-6.103948,-51.85137,-4.570632,-0.4441859,0.1400836,-35.22471,-8.447793,45.05199,0,0,0,-8.763371,4.254858,-16.29136,-10.65206,-111.0334,-35.10307,0.001067912,-0.1257102,0.09433498,0,0.3,0,0,0,0
638223384903068525,-2.850755,47.48113,26.38241,-43.28168,-6.396928,-52.8768,-4.570632,-0.4441859,0.1400836,-35.22471,-8.447793,45.05199,0,0,0,-7.429234,2.174897,-19.1571,-10.65206,-111.0334,-35.10307,0.001067912,-0.1257102,0.09433498,0,0.3,0,0,0,0
638223384903428408,-1.884797,46.21871,24.3045,-42.3295,-6.030703,-54.63469,-4.570632,-0.4441859,0.1400836,-35.22471,-8.447793,45.05199,0,0,0,-4.839788,-1.904456,-21.27876,-10.65206,-111.0334,-35.10307,0.001067912,-0.1257102,0.09433498,0,0.3,0,0,0,0
638223384903798292,-0.3062795,43.50684,21.40944,-40.57161,-4.85878,-57.93071,-4.570632,-0.4441859,0.1400836,-35.22471,-8.447793,45.05199,0,0,0,-0.7772151,-8.99465,-22.95758,-10.65206,-111.0334,-35.10307,0.001067912,-0.1257102,0.09433498,0,0.3,0,0,0,0
638223384904158177,2.520916,39.34552,17.62719,-37.7883,-2.58818,-62.17894,-4.570632,-0.4441859,0.1400836,-35.22471,-8.447793,45.05199,0,0,0,6.311971,-19.19554,-24.98309,-10.65206,-111.0334,-35.10307,0.001067912,-0.1257102,0.09433498,0,0.3,0,0,0,0
638223384904578044,8.033947,32.42557,13.19121,-31.56245,2.246002,-63.64384,-4.570632,-0.4441859,0.1400836,-35.22471,-8.447793,45.05199,0,0,0,19.98424,-34.97868,-26.76349,-10.65206,-111.0334,-35.10307,0.001067912,-0.1257102,0.09433498,0,0.3,0,0,0,0
638223384904937929,11.61506,28.33438,11.93045,-25.70284,6.713957,-60.05483,-4.570632,-0.4441859,0.1400836,-35.22471,-8.447793,45.05199,0,0,0,29.18163,-43.82943,-26.37766,-10.65206,-111.0334,-35.10307,0.001067912,-0.1257102,0.09433498,0,0.3,0,0,0,0
638223384905307813,14.44226,25.36535,11.67363,-18.30508,12.57357,-54.3417,-4.570632,-0.4441859,0.1400836,-35.22471,-8.447793,45.12524,0,0,0,36.78111,-50.11615,-25.53439,-10.65206,-111.0334,-35.10307,0.001067912,-0.1257102,0.09433498,0,0.3,0,0,0,0
638223384905657699,14.96058,25.38873,11.67363,-15.00905,15.13715,-52.36408,-4.570632,-0.4441859,0.1400836,-35.22471,-8.447793,45.05199,0,0,0,38.06553,-50.06699,-25.8955,-10.65206,-111.0334,-35.10307,0.001067912,-0.1257102,0.09433498,0,0.3,0,0,0,0
638223384906097565,14.25378,29.43316,12.02384,-10.17487,18.06696,-49.50752,-4.570632,-0.4441859,0.1400836,-35.22471,-8.447793,45.05199,0,0,0,35.43502,-41.5452,-28.8628,-10.65206,-111.0334,-35.10307,0.001067912,-0.1257102,0.09433498,0,0.3,0,0,0,0
638223384906427458,13.73546,31.30341,12.37405,-9.881886,17.55424,-49.28778,-4.570632,-0.4441859,0.1400836,-35.22471,-8.447793,45.05199,0,0,0,33.83841,-37.61754,-29.91164,-10.65206,-111.0334,-35.10307,0.001067912,-0.1257102,0.09433498,0,0.3,0,0,0,0
638223384906797338,12.2983,34.3192,13.16786,-10.46785,15.50338,-50.75269,-4.570632,-0.4441859,0.1400836,-35.22471,-8.447793,45.05199,0,0,0,29.92941,-31.3107,-31.06173,-10.65206,-111.0334,-35.10307,0.001067912,-0.1257102,0.09433498,0,0.3,0,0,0,0
638223384907157225,10.08366,34.99717,13.72819,-12.29898,13.30602,-53.24303,-4.570632,-0.4441859,0.1400836,-35.22471,-8.447793,45.05199,0,0,0,24.66678,-29.7095,-29.6424,-10.65206,-111.0334,-35.10307,0.001067912,-0.1257102,0.09433498,0,0.3,0,0,0,0
638223384907687048,5.465911,32.65935,14.45196,-17.79236,12.35384,-55.1474,-4.570632,-0.4441859,0.1400836,-35.22471,-8.447793,45.05199,0,0,0,13.86381,-33.81902,-23.46534,-10.65206,-111.0334,-35.10307,0.001067912,-0.1257102,0.09433498,0,0.3,0,0,0,0
638223384908006952,3.604674,31.02288,14.84886,-20.42919,12.72006,-55.22065,-4.570632,-0.4441859,0.1400836,-35.22471,-8.447793,45.05199,0,0,0,9.333304,-36.82085,-20.19424,-10.65206,-111.0334,-35.10307,0.001067912,-0.1257102,0.09433498,0,0.3,0,0,0,0
638223384908336843,0.9895183,28.311,15.85279,-24.67741,13.81874,-53.82899,-4.570632,-0.4441859,0.1400836,-35.22471,-8.447793,45.05199,0,0,0,2.656502,-41.68605,-14.54664,-10.65206,-111.0334,-35.10307,0.001067912,-0.1257102,0.09433498,0,0.3,0,0,0,0
638223384908706733,-0.612559,27.00183,17.0902,-28.7059,15.06391,-51.4119,-4.570632,-0.4441859,0.1400836,-35.22471,-8.447793,45.05199,0,0,0,-1.689197,-43.56829,-10.35676,-10.65206,-111.0334,-35.10307,0.001067912,-0.1257102,0.09433498,0,0.3,0,0,0,0
638223384909136595,-1.036638,27.70317,18.21087,-31.56245,15.43013,-49.36103,-4.570632,-0.4441859,0.1400836,-35.22471,-8.447793,45.12524,0,0,0,-2.889937,-41.32765,-8.638447,-10.65206,-111.0334,-35.10307,0.001067912,-0.1257102,0.09433498,0,0.3,0,0,0,0
638223384909476482,-0.9423984,28.49803,18.60777,-32.36815,15.2104,-48.70182,-4.570632,-0.4441859,0.1400836,-35.22471,-8.447793,45.05199,0,0,0,-2.627324,-39.40406,-8.628793,-10.65206,-111.0334,-35.10307,0.001067912,-0.1257102,0.09433498,0,0.3,0,0,0,0
638223384909836372,-0.588999,31.49044,19.70509,-33.39359,14.03847,-47.6764,-4.570632,-0.4441859,0.1400836,-35.22471,-8.447793,45.12524,0,0,0,-1.631136,-32.53489,-9.684383,-10.65206,-111.0334,-35.10307,0.001067912,-0.1257102,0.09433498,0,0.3,0,0,0,0
638223384910196255,-0.4005193,35.41798,21.43279,-34.05279,11.62138,-47.23692,-4.570632,-0.4441859,0.1400836,-35.22471,-8.447793,45.05199,0,0,0,-1.10028,-23.49718,-10.95343,-10.65206,-111.0334,-35.10307,0.001067912,-0.1257102,0.09433498,0,0.3,0,0,0,0
638223384910656104,-0.5183191,38.90133,23.27722,-34.85849,8.398596,-47.01719,-4.570632,-0.4441859,0.1400836,-35.22471,-8.447793,45.05199,0,0,0,-1.415504,-15.4045,-11.88232,-10.65206,-111.0334,-35.10307,0.001067912,-0.1257102,0.09433498,0,0.3,0,0,0,0
638223384911015991,-0.7067988,42.03401,25.07496,-35.95716,5.102563,-46.94394,-4.570632,-0.4441859,0.1400836,-35.22471,-8.521038,45.05199,0,0,0,-1.918929,-8.144934,-12.80223,-10.65206,-111.0334,-35.10307,0.001067912,-0.1257102,0.09433498,0,0.3,0,0,0,0
638223384911375875,-1.248678,45.09655,27.01279,-37.71505,1.293814,-47.09043,-4.570632,-0.4441859,0.1400836,-35.22471,-8.447793,45.05199,0,0,0,-3.37119,-1.000751,-13.68693,-10.65206,-111.0334,-35.10307,0.001067912,-0.1257102,0.09433498,0,0.3,0,0,0,0
638223384911745756,-2.026157,46.96681,28.32023,-39.83916,-1.855728,-47.82288,-4.570632,-0.4441859,0.1400836,-35.22471,-8.447793,45.05199,0,0,0,-5.454049,3.433995,-14.18437,-10.65206,-111.0334,-35.10307,0.001067912,-0.1257102,0.09433498,0,0.3,0,0,0,0
638223384912165621,-3.463314,47.73829,29.18408,-42.9887,-4.639044,-49.21454,-4.570632,-0.4441859,0.1400836,-35.22471,-8.447793,45.05199,0,0,0,-9.345583,5.617534,-13.92851,-10.65206,-111.0334,-35.10307,0.001067912,-0.1257102,0.09433498,0,0.3,0,0,0,0
638223384912525506,-4.664873,47.27073,29.23078,-45.47904,-5.591231,-50.31322,-4.570632,-0.4441859,0.1400836,-35.22471,-8.447793,45.05199,0,0,0,-12.65465,4.935448,-13.26419,-10.65206,-111.0334,-35.10307,0.001067912,-0.1257102,0.09433498,0,0.3,0,0,0,0
638223384912895395,-6.26695,45.70439,28.6004,-48.62858,-5.737722,-52.0711,-4.570632,-0.4441859,0.1400836,-35.22471,-8.447793,45.05199,0,0,0,-17.13398,1.716173,-12.32724,-10.65206,-111.0334,-35.10307,0.001067912,-0.1257102,0.09433498,0,0.3,0,0,0,0
638223384913255274,-6.926629,44.37183,27.73655,-50.02024,-5.517986,-53.60925,-4.570632,-0.4441859,0.1400836,-35.22471,-8.447793,45.05199,0,0,0,-18.98008,-1.42442,-12.11589,-10.65206,-111.0334,-35.10307,0.001067912,-0.1257102,0.09433498,0,0.3,0,0,0,0
638223384913675146,-7.421387,40.72483,25.07496,-52.0711,-4.053083,-57.78423,-4.570632,-0.4441859,0.1400836,-35.22471,-8.447793,45.05199,0,0,0,-20.35313,-10.43118,-12.09625,-10.65206,-111.0334,-35.10307,0.001067912,-0.1257102,0.09433498,0,0.3,0,0,0,0
638223384914035027,-6.47899,36.3531,21.68961,-51.92461,-1.269767,-60.34781,-4.570632,-0.4441859,0.1400836,-35.22471,-8.447793,45.05199,0,0,0,-17.67966,-21.51423,-12.67009,-10.65206,-111.0334,-35.10307,0.001067912,-0.1257102,0.09433498,0,0.3,0,0,0,0
638223384914394911,-4.311473,32.19178,18.65447,-49.28778,2.319247,-61.29999,-4.570632,-0.4441859,0.1400836,-35.22471,-8.521038,45.05199,0,0,0,-11.6905,-31.95156,-13.28667,-10.65206,-111.0334,-35.10307,0.001067912,-0.1257102,0.09433498,0,0.3,0,0,0,0
638223384914764801,-1.107318,28.84871,16.34309,-44.6001,6.494221,-59.46887,-4.570632,-0.4441859,0.1400836,-35.22471,-8.447793,45.05199,0,0,0,-2.982333,-40.27069,-14.05483,-10.65206,-111.0334,-35.10307,0.001067912,-0.1257102,0.09433498,0,0.3,0,0,0,0
638223384915184662,2.732955,27.93695,15.43254,-37.34882,11.03542,-54.19521,-4.570632,-0.4441859,0.1400836,-35.22471,-8.447793,45.05199,0,0,0,7.309247,-42.71755,-15.22955,-10.65206,-111.0334,-35.10307,0.001067912,-0.1257102,0.09433498,0,0.3,0,0,0,0
638223384915544544,4.287913,29.10587,15.61932,-33.02736,12.79331,-51.85137,-4.570632,-0.4441859,0.1400836,-35.22471,-8.447793,45.05199,0,0,0,11.39579,-40.21088,-16.36196,-10.65206,-111.0334,-35.10307,0.001067912,-0.1257102,0.09433498,0,0.3,0,0,0,0
638223384915914431,4.900472,31.65409,16.66995,-28.41291,12.9398,-50.31322,-4.570632,-0.4441859,0.1400836,-35.22471,-8.447793,45.12524,0,0,0,12.96449,-34.415,-17.14046,-10.65206,-111.0334,-35.10307,0.001067912,-0.1257102,0.09433498,0,0.3,0,0,0,0
638223384916274313,4.570632,32.56584,17.25363,-27.24099,12.42708,-49.94699,-4.570632,-0.4441859,0.1400836,-35.22471,-8.447793,45.05199,0,0,0,12.10746,-32.22132,-16.89745,-10.65206,-111.0334,-35.10307,0.001067912,-0.1257102,0.09433498,0,0.3,0,0,0,0
638223384916704174,2.002597,32.84638,18.95798,-26.94801,10.59595,-49.43428,-4.570632,-0.4441859,0.1400836,-35.22471,-8.447793,45.05199,0,0,0,5.428781,-30.43922,-13.0918,-10.65206,-111.0334,-35.10307,0.001067912,-0.1257102,0.09433498,0,0.3,0,0,0,0
638223384917064060,0.4240793,32.2853,19.63505,-27.9002,10.30297,-49.21454,-4.570632,-0.4441859,0.1400836,-35.22471,-8.447793,45.05199,0,0,0,1.166058,-31.01901,-10.81106,-10.65206,-111.0334,-35.10307,0.001067912,-0.1257102,0.09433498,0,0.3,0,0,0,0
638223384917423947,-2.921435,30.62544,20.96585,-31.19623,10.30297,-48.48209,-4.570632,-0.4441859,0.1400836,-35.22471,-8.447793,45.05199,0,0,0,-8.28023,-33.23977,-6.097209,-10.65206,-111.0334,-35.10307,0.001067912,-0.1257102,0.09433498,0,0.3,0,0,0,0
638223384917783831,-5.93711,28.56816,22.46007,-35.51769,10.59595,-47.16368,-4.570632,-0.4441859,0.1400836,-35.15147,-8.447793,45.05199,0,0,0,-17.38353,-36.11637,-1.192022,-10.65206,-111.0334,-35.10307,0.001067912,-0.1257102,0.09433498,0,0.3,0,0,0,0
638223384918223690,-8.999906,26.04332,24.51463,-41.01108,11.76787,-43.86765,-4.570632,-0.4441859,0.1400836,-35.22471,-8.447793,45.05199,0,0,0,-27.39769,-39.43182,4.634058,-10.65206,-111.0334,-35.10307,0.001067912,-0.1257102,0.09433498,0,0.3,0,0,0,0
638223384918583582,-10.2957,25.41211,25.75204,-43.42817,12.35384,-41.81678,-4.570632,-0.4441859,0.1400836,-35.22471,-8.447793,45.05199,0,0,0,-31.88251,-39.5321,7.162932,-10.65206,-111.0334,-35.10307,0.001067912,-0.1257102,0.09433498,0,0.3,0,0,0,0
638223384918943465,-11.75642,25.57575,27.7599,-46.79745,12.06085,-38.66724,-4.570632,-0.4441859,0.1400836,-35.22471,-8.447793,45.05199,0,0,0,-37.16301,-37.08463,10.21768,-10.65206,-111.0334,-35.10307,0.001067912,-0.1257102,0.09433498,0,0.3,0,0,0,0
638223384919313350,-12.58102,26.67453,29.34751,-49.1413,11.10867,-35.95716,-4.570632,-0.4441859,0.1400836,-35.22471,-8.447793,45.05199,0,0,0,-40.19067,-33.02256,11.73291,-10.65206,-111.0334,-35.10307,0.001067912,-0.1257102,0.09433498,0,0.3,0,0,0,0
638223384919743211,-13.87682,28.49803,31.72893,-51.26541,9.350782,-33.54007,-4.570632,-0.4441859,0.1400836,-35.22471,-8.447793,45.05199,0,0,0,-44.92627,-26.44517,13.50414,-10.65206,-111.0334,-35.10307,0.001067912,-0.1257102,0.09433498,0,0.3,0,0,0,0
638223384920103096,-15.21973,30.2514,34.624,-53.46276,7.446409,-32.14842,-4.570632,-0.4441859,0.1400836,-35.22471,-8.447793,45.05199,0,0,0,-50.13079,-19.20245,15.91109,-10.65206,-111.0334,-35.10307,0.001067912,-0.1257102,0.09433498,0,0.3,0,0,0,0
638223384920462976,-15.97365,31.28004,36.49178,-55.00091,6.347731,-31.6357,-4.570632,-0.4441859,0.1400836,-35.22471,-8.447793,45.05199,0,0,0,-53.18712,-14.61753,17.45796,-10.65206,-111.0334,-35.10307,0.001067912,-0.1257102,0.09433498,0,0.3,0,0,0,0
638223384920822861,-17.38725,33.22043,40.25069,-58.95615,4.296866,-31.04974,-4.570632,-0.4441859,0.1400836,-35.15147,-8.447793,45.05199,0,0,0,-59.08387,-5.368687,20.33396,-10.65206,-111.0334,-35.10307,0.001067912,-0.1257102,0.09433498,0,0.3,0,0,0,0
638223384921242731,-18.75373,35.04393,44.31311,-63.42411,2.319247,-30.75676,-4.570632,-0.4441859,0.1400836,-35.22471,-8.447793,45.05199,0,0,0,-65.04956,4.503828,23.23887,-10.65206,-111.0334,-35.10307,0.001067912,-0.1257102,0.09433498,0,0.3,0,0,0,0
638223384921602612,-19.90817,36.63364,48.37553,-68.40478,0.4148723,-30.61027,-4.570632,-0.4441859,0.1400836,-35.22471,-8.447793,45.05199,0,0,0,-70.38078,14.3423,25.98819,-10.65206,-111.0334,-35.10307,0.001067912,-0.1257102,0.09433498,0,0.3,0,0,0,0
638223384921962499,-20.73277,37.63891,51.55077,-72.87273,-0.6838052,-30.53703,-4.570632,-0.4441859,0.1400836,-35.22471,-8.447793,45.05199,0,0,0,-74.35297,21.86475,28.07962,-10.65206,-111.0334,-35.10307,0.001067912,-0.1257102,0.09433498,0,0.3,0,0,0,0
638223384922332398,-21.39244,38.31688,54.46917,-76.82797,-1.343012,-30.46378,-4.570632,-0.4441859,0.1400836,-35.22471,-8.447793,45.05199,0,0,0,-77.74593,28.53321,30.11127,-10.65206,-111.0334,-35.10307,0.001067912,-0.1257102,0.09433498,0,0.3,0,0,0,0
638223384922762246,-22.02856,38.71431,57.97126,-81.22268,-1.709238,-30.39053,-4.570632,-0.4441859,0.1400836,-35.22471,-8.447793,45.05199,0,0,0,-81.42793,36.03064,32.90228,-10.65206,-111.0334,-35.10307,0.001067912,-0.1257102,0.09433498,0,0.3,0,0,0,0
638223384923092141,-22.4762,38.73769,60.72623,-84.07924,-1.709238,-30.39053,-4.570632,-0.4441859,0.1400836,-35.22471,-8.447793,45.05199,0,0,0,-84.23432,41.58865,35.24878,-10.65206,-111.0334,-35.10307,0.001067912,-0.1257102,0.09433498,0,0.3,0,0,0,0
638223384923452026,-22.66468,38.73769,62.43059,-85.98362,-1.635992,-30.46378,-4.570632,-0.4441859,0.1400836,-35.22471,-8.447793,45.05199,0,0,0,-85.6311,45.07711,36.7127,-10.65206,-111.0334,-35.10307,0.001067912,-0.1257102,0.09433498,0,0.3,0,0,0,0
638223384923821912,-23.04164,38.64417,65.65251,-89.86562,-1.343012,-31.26948,-4.570632,-0.4441859,0.1400836,-35.22471,-8.447793,45.05199,0,0,0,-88.31617,51.64851,39.29014,-10.65206,-111.0334,-35.10307,0.001067912,-0.1257102,0.09433498,0,0.3,0,0,0,0
638223384924281759,-23.4186,38.38701,67.28682,-93.08839,-0.8302955,-33.10061,-4.570632,-0.4441859,0.1400836,-35.22471,-8.447793,45.05199,0,0,0,-90.43201,54.66749,40.44004,-10.65206,-111.0334,-35.10307,0.001067912,-0.1257102,0.09433498,0,0.3,0,0,0,0
638223384924641649,-23.84268,37.63891,66.84322,-94.99277,-0.171089,-35.00498,-4.570632,-0.4441859,0.1400836,-35.22471,-8.447793,45.05199,0,0,0,-92.24569,52.3449,40.37774,-10.65206,-111.0334,-35.10307,0.001067912,-0.1257102,0.09433498,0,0.3,0,0,0,0
638223384924971541,-24.361,36.02581,64.27502,-94.69979,0.5613627,-36.9826,-4.570632,-0.4441859,0.1400836,-35.22471,-8.447793,45.05199,0,0,0,-94.03841,43.89894,39.33217,-10.65206,-111.0334,-35.10307,0.001067912,-0.1257102,0.09433498,0,0.3,0,0,0,0
638223384925311568,-24.64372,33.54772,59.90908,-92.2827,1.51355,-38.81373,-4.570632,-0.4441859,0.1400836,-35.22471,-8.447793,45.05199,0,0,0,-94.45133,30.18522,37.5344,-10.65206,-111.0334,-35.10307,0.001067912,-0.1257102,0.09433498,0,0.3,0,0,0,0
638223384925811279,-24.54948,28.35776,53.76875,-85.32441,2.831963,-40.13214,-4.570632,-0.4441859,0.1400836,-35.22471,-8.447793,45.05199,0,0,0,-93.44663,7.872054,36.23154,-10.65206,-111.0334,-35.10307,0.001067912,-0.1257102,0.09433498,0,0.3,0,0,0,0
638223384926141165,-24.54948,24.94454,52.25118,-81.66216,4.077131,-40.49837,-4.570632,-0.4441859,0.1400836,-35.22471,-8.447793,45.05199,0,0,0,-94.04397,-2.047861,37.5393,-10.65206,-111.0334,-35.10307,0.001067912,-0.1257102,0.09433498,0,0.3,0,0,0,0
638223384926501055,-24.38456,21.67159,51.99436,-78.58585,5.90826,-41.01108,-4.570632,-0.4441859,0.1400836,-35.15147,-8.447793,45.05199,0,0,0,-94.54364,-9.514503,40.21968,-10.65206,-111.0334,-35.10307,0.001067912,-0.1257102,0.09433498,0,0.3,0,0,0,0
638223384926860939,-24.21964,20.97025,51.85428,-77.78016,6.640712,-41.23082,-4.570632,-0.4441859,0.1400836,-35.22471,-8.447793,45.05199,0,0,0,-94.10389,-11.29174,40.84884,-10.65206,-111.0334,-35.10307,0.001067912,-0.1257102,0.09433498,0,0.3,0,0,0,0
638223384927330975,-23.25368,22.02227,51.24725,-76.3885,7.080183,-41.67029,-4.570632,-0.4441859,0.1400836,-35.22471,-8.447793,45.05199,0,0,0,-89.86272,-10.12005,40.77409,-10.65206,-111.0334,-35.10307,0.001067912,-0.1257102,0.09433498,0,0.3,0,0,0,0
638223384927660683,-22.97096,22.88726,51.15386,-76.242,6.787202,-41.74353,-4.570632,-0.4441859,0.1400836,-35.22471,-8.447793,45.05199,0,0,0,-88.47649,-8.428918,40.3816,-10.65206,-111.0334,-35.10307,0.001067912,-0.1257102,0.09433498,0,0.3,0,0,0,0
638223384928030570,-22.52332,25.03806,50.99043,-76.09552,5.615279,-41.81678,-4.570632,-0.4441859,0.1400836,-35.22471,-8.447793,45.05199,0,0,0,-85.97275,-4.150781,38.96785,-10.65206,-111.0334,-35.10307,0.001067912,-0.1257102,0.09433498,0,0.3,0,0,0,0
638223384928390450,-22.3584,26.60439,51.20055,-76.09552,4.443357,-42.40274,-4.570632,-0.4441859,0.1400836,-35.22471,-8.447793,45.05199,0,0,0,-84.88849,-0.4887935,38.03006,-10.65206,-111.0334,-35.10307,0.001067912,-0.1257102,0.09433498,0,0.3,0,0,0,0
638223384928850304,-22.75892,26.8148,52.81152,-76.53499,3.63766,-42.91546,-4.570632,-0.4441859,0.1400836,-35.22471,-8.447793,45.05199,0,0,0,-87.13676,2.903318,39.3569,-10.65206,-111.0334,-35.10307,0.001067912,-0.1257102,0.09433498,0,0.3,0,0,0,0
638223384929210191,-23.772,25.78616,56.15017,-78.14638,3.417924,-43.13519,-4.570632,-0.4441859,0.1400836,-35.22471,-8.447793,45.05199,0,0,0,-93.0426,7.080703,42.88534,-10.65206,-111.0334,-35.10307,0.001067912,-0.1257102,0.09433498,0,0.3,0,0,0,0
638223384929570074,-24.73796,23.9159,59.60557,-80.85645,3.78415,-43.13519,-4.570632,-0.4441859,0.1400836,-35.22471,-8.447793,45.05199,0,0,0,-99.14512,9.941042,46.83132,-10.65206,-111.0334,-35.10307,0.001067912,-0.1257102,0.09433498,0,0.3,0,0,0,0
638223384929929958,-25.27984,22.65348,62.01034,-82.98056,5.102563,-42.54923,-4.570632,-0.4441859,0.1400836,-35.22471,-8.447793,45.05199,0,0,0,-102.8374,12.12788,49.40244,-10.65206,-111.0334,-35.10307,0.001067912,-0.1257102,0.09433498,0,0.3,0,0,0,0
638223384930359818,-25.44476,23.19118,62.43059,-84.73845,6.787202,-42.03651,-4.570632,-0.4441859,0.1400836,-35.22471,-8.447793,45.05199,0,0,0,-103.4502,14.14585,49.07703,-10.65206,-111.0334,-35.10307,0.001067912,-0.1257102,0.09433498,0,0.3,0,0,0,0
638223384930719706,-25.1856,24.47698,62.01034,-85.69064,7.739389,-41.89003,-4.570632,-0.4441859,0.1400836,-35.22471,-8.447793,45.05199,0,0,0,-101.7571,16.0178,48.03593,-10.65206,-111.0334,-35.10307,0.001067912,-0.1257102,0.09433498,0,0.3,0,0,0,0
638223384931089592,-24.43168,27.16547,60.2126,-86.42309,7.959125,-41.45055,-4.570632,-0.4441859,0.1400836,-35.22471,-8.447793,45.05199,0,0,0,-96.93789,17.98649,45.03471,-10.65206,-111.0334,-35.10307,0.001067912,-0.1257102,0.09433498,0,0.3,0,0,0,0
638223384931449474,-23.8898,28.91884,58.88181,-86.42309,7.519653,-41.23082,-4.570632,-0.4441859,0.1400836,-35.22471,-8.447793,45.05199,0,0,0,-93.50286,18.91811,42.75265,-10.65206,-111.0334,-35.10307,0.001067912,-0.1257102,0.09433498,0,0.3,0,0,0,0
638223384931879333,-22.40552,33.19705,54.98281,-85.32441,5.981505,-40.86459,-4.570632,-0.4441859,0.1400836,-35.22471,-8.447793,45.05199,0,0,0,-84.15897,19.84262,35.77912,-10.65206,-111.0334,-35.10307,0.001067912,-0.1257102,0.09433498,0,0.3,0,0,0,0
638223384932239218,-20.23801,37.98958,50.26667,-82.32136,3.051698,-40.86459,-4.570632,-0.4441859,0.1400836,-35.22471,-8.447793,45.05199,0,0,0,-71.82905,20.18998,26.47673,-10.65206,-111.0334,-35.10307,0.001067912,-0.1257102,0.09433498,0,0.3,0,0,0,0
638223384932609107,-18.30609,41.89374,47.27821,-78.14638,-0.171089,-42.40274,-4.570632,-0.4441859,0.1400836,-35.22471,-8.447793,45.05199,0,0,0,-61.94868,21.92478,18.89874,-10.65206,-111.0334,-35.10307,0.001067912,-0.1257102,0.09433498,0,0.3,0,0,0,0
638223384932968986,-16.82181,45.00304,45.62056,-74.55737,-3.247386,-44.96632,-4.570632,-0.4441859,0.1400836,-35.22471,-8.447793,45.05199,0,0,0,-54.86839,24.38178,13.13315,-10.65206,-111.0334,-35.10307,0.001067912,-0.1257102,0.09433498,0,0.3,0,0,0,0
638223384933398848,-15.59669,47.76167,44.63997,-71.33459,-6.763155,-47.09043,-4.570632,-0.4441859,0.1400836,-35.22471,-8.447793,45.05199,0,0,0,-49.29313,27.19302,8.237467,-10.65206,-111.0334,-35.10307,0.001067912,-0.1257102,0.09433498,0,0.3,0,0,0,0
638223384933768736,-15.36109,48.29937,43.82282,-70.08942,-8.374548,-48.11587,-4.570632,-0.4441859,0.1400836,-35.22471,-8.447793,45.05199,0,0,0,-47.95912,26.70326,6.227433,-10.65206,-111.0334,-35.10307,0.001067912,-0.1257102,0.09433498,0,0.3,0,0,0,0
638223384934098628,-15.38465,47.45775,41.90834,-68.69775,-9.326735,-50.16673,-4.570632,-0.4441859,0.1400836,-35.22471,-8.447793,45.05199,0,0,0,-47.54996,22.3585,4.459822,-10.65206,-111.0334,-35.10307,0.001067912,-0.1257102,0.09433498,0,0.3,0,0,0,0
638223384934468512,-15.40822,46.35898,40.39077,-67.89206,-9.25349,-51.4119,-4.570632,-0.4441859,0.1400836,-35.22471,-8.447793,45.05199,0,0,0,-47.41058,18.28739,3.676689,-10.65206,-111.0334,-35.10307,0.001067912,-0.1257102,0.09433498,0,0.3,0,0,0,0
638223384934928362,-15.31397,40.02348,34.39052,-64.01007,-6.030703,-54.41495,-4.570632,-0.4441859,0.1400836,-35.22471,-8.447793,45.05199,0,0,0,-46.86259,-0.9337563,2.786783,-10.65206,-111.0334,-35.10307,0.001067912,-0.1257102,0.09433498,0,0.3,0,0,0,0
638223384935288252,-15.0077,35.88554,31.91571,-61.1535,-2.807915,-55.58687,-4.570632,-0.4441859,0.1400836,-35.22471,-8.447793,45.05199,0,0,0,-46.23196,-11.67555,4.097364,-10.65206,-111.0334,-35.10307,0.001067912,-0.1257102,0.09433498,0,0.3,0,0,0,0
638223384935648132,-14.91346,33.8984,31.33203,-59.61535,-0.9767859,-55.9531,-4.570632,-0.4441859,0.1400836,-35.22471,-8.447793,45.05199,0,0,0,-46.33139,-16.18113,5.611734,-10.65206,-111.0334,-35.10307,0.001067912,-0.1257102,0.09433498,0,0.3,0,0,0,0
638223384935978028,-14.81922,30.92937,31.19195,-57.12502,2.758718,-55.73336,-4.570632,-0.4441859,0.1400836,-35.22471,-8.447793,45.05199,0,0,0,-46.92119,-22.18318,8.998715,-10.65206,-111.0334,-35.10307,0.001067912,-0.1257102,0.09433498,0,0.3,0,0,0,0
638223384936447879,-14.37158,30.08775,31.14525,-55.80661,4.809582,-55.07415,-4.570632,-0.4441859,0.1400836,-35.15147,-8.447793,45.05199,0,0,0,-45.75792,-23.92699,10.23308,-10.65206,-111.0334,-35.10307,0.001067912,-0.1257102,0.09433498,0,0.3,0,0,0,0
638223384936807765,-12.98154,30.41504,30.42149,-54.48819,5.835015,-54.56144,-4.570632,-0.4441859,0.1400836,-35.22471,-8.447793,45.05199,0,0,0,-41.00103,-24.13109,9.506423,-10.65206,-111.0334,-35.10307,0.001067912,-0.1257102,0.09433498,0,0.3,0,0,0,0
638223384937167647,-10.24858,31.65409,28.6471,-52.14435,6.127995,-54.48819,-4.570632,-0.4441859,0.1400836,-35.22471,-8.447793,45.05199,0,0,0,-31.57026,-23.69581,6.260485,-10.65206,-111.0334,-35.10307,0.001067912,-0.1257102,0.09433498,0,0.3,0,0,0,0
638223384937527533,-6.47899,33.12691,26.17229,-47.96938,6.05475,-54.56144,-4.570632,-0.4441859,0.1400836,-35.22471,-8.447793,45.05199,0,0,0,-19.23818,-23.45271,1.053609,-10.65206,-111.0334,-35.10307,0.001067912,-0.1257102,0.09433498,0,0.3,0,0,0,0
638223384937957394,-1.719877,33.94515,23.13714,-41.08433,6.347731,-54.56144,-4.570632,-0.4441859,0.1400836,-35.22471,-8.447793,45.05199,0,0,0,-4.892756,-24.81175,-5.402293,-10.65206,-111.0334,-35.10307,0.001067912,-0.1257102,0.09433498,0,0.3,0,0,0,0
638223384938317280,0.8245987,33.94515,21.43279,-35.73743,6.933692,-54.63469,-4.570632,-0.4441859,0.1400836,-35.22471,-8.447793,45.05199,0,0,0,2.293292,-26.31592,-9.015644,-10.65206,-111.0334,-35.10307,0.001067912,-0.1257102,0.09433498,0,0.3,0,0,0,0
638223384938677165,1.507838,33.85164,20.70902,-32.80762,7.519653,-54.63469,-4.570632,-0.4441859,0.1400836,-35.22471,-8.447793,45.05199,0,0,0,4.154942,-27.10218,-10.50428,-10.65206,-111.0334,-35.10307,0.001067912,-0.1257102,0.09433498,0,0.3,0,0,0,0
638223384939037052,0.9188384,33.80488,19.98526,-28.92563,8.838067,-54.63469,-4.570632,-0.4441859,0.1400836,-35.22471,-8.447793,45.05199,0,0,0,2.507746,-27.77828,-11.9885,-10.65206,-111.0334,-35.10307,0.001067912,-0.1257102,0.09433498,0,0.3,0,0,0,0
638223384939466916,-0.9188384,33.80488,20.0553,-28.19318,9.8635,-54.63469,-4.570632,-0.4441859,0.1400836,-35.15147,-8.447793,45.05199,0,0,0,-2.510202,-27.72247,-11.83536,-10.65206,-111.0334,-35.10307,0.001067912,-0.1257102,0.09433498,0,0.3,0,0,0,0
638223384939826800,-3.227715,33.75813,20.70902,-29.29186,10.30297,-54.63469,-4.570632,-0.4441859,0.1400836,-35.22471,-8.447793,45.05199,0,0,0,-8.897314,-27.28302,-10.5792,-10.65206,-111.0334,-35.10307,0.001067912,-0.1257102,0.09433498,0,0.3,0,0,0,0
638223384940186683,-6.26695,33.54772,22.2266,-32.14842,10.15648,-54.70793,-4.570632,-0.4441859,0.1400836,-35.22471,-8.447793,45.05199,0,0,0,-17.63819,-26.39805,-7.735876,-10.65206,-111.0334,-35.10307,0.001067912,-0.1257102,0.09433498,0,0.3,0,0,0,0
638223384940546574,-9.447544,33.31394,24.70141,-36.32339,9.643764,-54.78117,-4.570632,-0.4441859,0.1400836,-35.22471,-8.447793,45.05199,0,0,0,-27.43884,-24.55889,-3.454699,-10.65206,-111.0334,-35.10307,0.001067912,-0.1257102,0.09433498,0,0.3,0,0,0,0
638223384940976432,-14.20666,32.33206,30.35144,-44.01414,8.252106,-55.07415,-4.570632,-0.4441859,0.1400836,-35.22471,-8.447793,45.05199,0,0,0,-44.18981,-20.40441,6.201153,-10.65206,-111.0334,-35.10307,0.001067912,-0.1257102,0.09433498,0,0.3,0,0,0,0
638223384941346313,-16.96317,30.74234,35.11428,-50.31322,7.080183,-55.51363,-4.570632,-0.4441859,0.1400836,-35.22471,-8.447793,45.05199,0,0,0,-55.81752,-17.56554,14.64147,-10.65206,-111.0334,-35.10307,0.001067912,-0.1257102,0.09433498,0,0.3,0,0,0,0
638223384941706200,-19.27205,27.49277,40.92776,-58.00396,5.90826,-55.9531,-4.570632,-0.4441859,0.1400836,-35.22471,-8.447793,45.05199,0,0,0,-67.87531,-15.84151,25.77502,-10.65206,-111.0334,-35.10307,0.001067912,-0.1257102,0.09433498,0,0.3,0,0,0,0
638223384942076082,-20.12021,25.38873,43.82282,-61.37324,5.615279,-55.9531,-4.570632,-0.4441859,0.1400836,-35.22471,-8.447793,45.12524,0,0,0,-73.20354,-15.68516,31.46968,-10.65206,-111.0334,-35.10307,0.001067912,-0.1257102,0.09433498,0,0.3,0,0,0,0
638223384942505949,-21.5338,19.91823,50.87369,-68.771,5.76177,-53.09653,-4.570632,-0.4441859,0.1400836,-35.22471,-8.447793,45.05199,0,0,0,-83.98846,-15.36862,44.49876,-10.65206,-111.0334,-35.10307,0.001067912,-0.1257102,0.09433498,0,0.3,0,0,0,0
638223384942835843,-21.62804,18.93634,52.18114,-70.38239,5.981505,-51.55839,-4.570632,-0.4441859,0.1400836,-35.22471,-8.447793,45.05199,0,0,0,-85.31635,-15.14143,46.82671,-10.65206,-111.0334,-35.10307,0.001067912,-0.1257102,0.09433498,0,0.3,0,0,0,0
638223384943195724,-21.39244,19.02986,52.9516,-72.28677,6.274486,-48.48209,-4.570632,-0.4441859,0.1400836,-35.22471,-8.447793,45.05199,0,0,0,-84.80256,-13.51176,48.12466,-10.65206,-111.0334,-35.10307,0.001067912,-0.1257102,0.09433498,0,0.3,0,0,0,0
638223384943535619,-20.89769,20.64295,52.99829,-73.16571,5.835015,-46.21149,-4.570632,-0.4441859,0.1400836,-35.22471,-8.447793,45.05199,0,0,0,-82.49905,-9.893559,47.71987,-10.65206,-111.0334,-35.10307,0.001067912,-0.1257102,0.09433498,0,0.3,0,0,0,0
638223384944025461,-19.83749,24.2432,52.08775,-73.67843,4.589847,-44.81983,-4.570632,-0.4441859,0.1400836,-35.22471,-8.447793,45.05199,0,0,0,-76.96428,-3.832506,44.98845,-10.65206,-111.0334,-35.10307,0.001067912,-0.1257102,0.09433498,0,0.3,0,0,0,0
638223384944385349,-19.27205,26.11345,51.13051,-73.45869,3.78415,-44.52685,-4.570632,-0.4441859,0.1400836,-35.22471,-8.447793,45.05199,0,0,0,-73.78735,-1.639593,42.68358,-10.65206,-111.0334,-35.10307,0.001067912,-0.1257102,0.09433498,0,0.3,0,0,0,0
638223384944745228,-18.35321,28.61492,49.9865,-72.43327,2.099511,-44.30712,-4.570632,-0.4441859,0.1400836,-35.22471,-8.447793,45.05199,0,0,0,-69.01857,1.474244,39.69457,-10.65206,-111.0334,-35.10307,0.001067912,-0.1257102,0.09433498,0,0.3,0,0,0,0
638223384945085124,-17.66997,30.85923,49.40281,-71.11485,0.4881175,-44.23387,-4.570632,-0.4441859,0.1400836,-35.22471,-8.447793,45.05199,0,0,0,-65.47974,4.973516,37.19701,-10.65206,-111.0334,-35.10307,0.001067912,-0.1257102,0.09433498,0,0.3,0,0,0,0
638223384945554969,-16.96317,33.10354,49.146,-69.94292,-1.269767,-44.16063,-4.570632,-0.4441859,0.1400836,-35.22471,-8.447793,45.05199,0,0,0,-62.01831,8.950842,34.97009,-10.65206,-111.0334,-35.10307,0.001067912,-0.1257102,0.09433498,0,0.3,0,0,0,0
638223384945914857,-16.42129,34.41272,48.93587,-69.35696,-2.58818,-44.16063,-4.570632,-0.4441859,0.1400836,-35.22471,-8.447793,45.05199,0,0,0,-59.52338,11.1147,33.61596,-10.65206,-111.0334,-35.10307,0.001067912,-0.1257102,0.09433498,0,0.3,0,0,0,0
638223384946274743,-16.06789,35.06731,48.67905,-68.91749,-3.320631,-44.16063,-4.570632,-0.4441859,0.1400836,-35.22471,-8.447793,45.05199,0,0,0,-57.9273,11.91683,32.76673,-10.65206,-111.0334,-35.10307,0.001067912,-0.1257102,0.09433498,0,0.3,0,0,0,0
638223384946634631,-15.36109,36.02581,47.76851,-67.89206,-4.346064,-44.30712,-4.570632,-0.4441859,0.1400836,-35.22471,-8.521038,45.05199,0,0,0,-54.72443,12.15153,30.85402,-10.65206,-111.0334,-35.10307,0.001067912,-0.1257102,0.09433498,0,0.3,0,0,0,0
638223384947064495,-14.58362,36.28297,46.04081,-66.06093,-5.00527,-44.81983,-4.570632,-0.4441859,0.1400836,-35.22471,-8.447793,45.05199,0,0,0,-51.23575,9.698663,28.5779,-10.65206,-111.0334,-35.10307,0.001067912,-0.1257102,0.09433498,0,0.3,0,0,0,0
638223384947424373,-13.8297,35.76865,43.58934,-63.71709,-5.15176,-45.99176,-4.570632,-0.4441859,0.1400836,-35.22471,-8.447793,45.05199,0,0,0,-47.84102,4.7095,25.98885,-10.65206,-111.0334,-35.10307,0.001067912,-0.1257102,0.09433498,0,0.3,0,0,0,0
638223384947784258,-13.2407,34.34258,41.16123,-60.71403,-4.785534,-47.5299,-4.570632,-0.4441859,0.1400836,-35.22471,-8.447793,45.05199,0,0,0,-45.32122,-1.815896,24.2625,-10.65206,-111.0334,-35.10307,0.001067912,-0.1257102,0.09433498,0,0.3,0,0,0,0
638223384948144143,-12.67526,32.09827,38.70977,-57.78423,-3.393876,-49.36103,-4.570632,-0.4441859,0.1400836,-35.22471,-8.447793,45.12524,0,0,0,-43.08621,-9.847586,23.22429,-10.65206,-111.0334,-35.10307,0.001067912,-0.1257102,0.09433498,0,0.3,0,0,0,0
638223384948614012,-12.0627,28.21749,35.79136,-54.56144,-0.9035407,-50.38646,-4.570632,-0.4441859,0.1400836,-35.22471,-8.447793,45.05199,0,0,0,-40.85396,-21.76661,22.82384,-10.65206,-111.0334,-35.10307,0.001067912,-0.1257102,0.09433498,0,0.3,0,0,0,0
638223384948973885,-11.85066,25.27184,34.50726,-52.58382,1.000834,-50.6062,-4.570632,-0.4441859,0.1400836,-35.22471,-8.447793,45.05199,0,0,0,-40.27787,-29.60875,23.60129,-10.65206,-111.0334,-35.10307,0.001067912,-0.1257102,0.09433498,0,0.3,0,0,0,0
638223384949333769,-11.4737,21.20403,33.43328,-50.23997,3.857395,-50.6062,-4.570632,-0.4441859,0.1400836,-35.22471,-8.447793,45.05199,0,0,0,-39.34466,-39.70292,25.49058,-10.65206,-111.0334,-35.10307,0.001067912,-0.1257102,0.09433498,0,0.3,0,0,0,0
638223384949693651,-10.93182,17.34663,33.15312,-47.60315,6.860447,-49.06805,-4.570632,-0.4441859,0.1400836,-35.22471,-8.447793,45.05199,0,0,0,-37.96822,-48.5337,28.22814,-10.65206,-111.0334,-35.10307,0.001067912,-0.1257102,0.09433498,0,0.3,0,0,0,0
638223384950093531,-10.4135,14.72827,33.15312,-45.18605,9.643764,-46.43123,-4.570632,-0.4441859,0.1400836,-35.22471,-8.447793,45.05199,0,0,0,-36.49265,-54.38998,30.21925,-10.65206,-111.0334,-35.10307,0.001067912,-0.1257102,0.09433498,0,0.3,0,0,0,0
638223384950443411,-10.13078,14.16719,33.17647,-43.86765,10.81569,-44.89308,-4.570632,-0.4441859,0.1400836,-35.22471,-8.447793,45.05199,0,0,0,-35.5777,-55.6248,30.7624,-10.65206,-111.0334,-35.10307,0.001067912,-0.1257102,0.09433498,0,0.3,0,0,0,0
638223384950803297,-9.659584,14.84516,33.45663,-41.96327,11.98761,-43.06195,-4.570632,-0.4441859,0.1400836,-35.22471,-8.447793,45.05199,0,0,0,-33.96413,-53.73906,31.19579,-10.65206,-111.0334,-35.10307,0.001067912,-0.1257102,0.09433498,0,0.3,0,0,0,0
638223384951163180,-9.518225,16.76217,33.90023,-40.7181,11.62138,-42.18301,-4.570632,-0.4441859,0.1400836,-35.22471,-8.447793,45.05199,0,0,0,-33.41286,-48.87374,30.92798,-10.65206,-111.0334,-35.10307,0.001067912,-0.1257102,0.09433498,0,0.3,0,0,0,0
638223384951623034,-10.08366,18.86621,34.95086,-40.27863,9.936745,-40.93784,-4.570632,-0.4441859,0.1400836,-35.22471,-8.374548,45.05199,0,0,0,-35.46869,-42.82951,31.09943,-10.65206,-111.0334,-35.10307,0.001067912,-0.1257102,0.09433498,0,0.3,0,0,0,0
638223384951982919,-10.62554,19.05324,35.58123,-40.7181,9.204292,-40.27863,-4.570632,-0.4441859,0.1400836,-35.22471,-8.447793,45.05199,0,0,0,-37.54818,-41.57076,31.79341,-10.65206,-111.0334,-35.10307,0.001067912,-0.1257102,0.09433498,0,0.3,0,0,0,0
638223384952342805,-11.54438,19.02986,36.53847,-42.03651,8.398596,-39.54618,-4.570632,-0.4441859,0.1400836,-35.22471,-8.447793,45.05199,0,0,0,-41.11684,-40.31082,32.9475,-10.65206,-111.0334,-35.10307,0.001067912,-0.1257102,0.09433498,0,0.3,0,0,0,0
638223384952702689,-12.93442,18.86621,38.26617,-43.72115,7.88588,-38.37426,-4.570632,-0.4441859,0.1400836,-35.22471,-8.447793,45.05199,0,0,0,-46.73054,-38.22873,35.12448,-10.65206,-111.0334,-35.10307,0.001067912,-0.1257102,0.09433498,0,0.3,0,0,0,0
638223384953132553,-14.84277,18.65581,40.78767,-46.79745,7.299919,-37.12909,-4.570632,-0.4441859,0.1400836,-35.22471,-8.521038,45.05199,0,0,0,-54.68032,-34.95773,37.98286,-10.65206,-111.0334,-35.10307,0.001067912,-0.1257102,0.09433498,0,0.3,0,0,0,0
638223384953492438,-16.58621,18.07135,43.40257,-50.23997,6.933692,-36.10366,-4.570632,-0.4441859,0.1400836,-35.22471,-8.447793,45.05199,0,0,0,-62.34381,-32.16931,40.96212,-10.65206,-111.0334,-35.10307,0.001067912,-0.1257102,0.09433498,0,0.3,0,0,0,0
638223384953852327,-17.45793,17.65055,44.8501,-52.36408,6.787202,-35.73743,-4.570632,-0.4441859,0.1400836,-35.22471,-8.447793,45.05199,0,0,0,-66.33662,-30.75593,42.58278,-10.65206,-111.0334,-35.10307,0.001067912,-0.1257102,0.09433498,0,0.3,0,0,0,0
638223384954192216,-18.47101,16.87906,46.50775,-56.90528,6.713957,-35.3712,-4.570632,-0.4441859,0.1400836,-35.22471,-8.447793,45.05199,0,0,0,-71.07848,-29.71048,44.43893,-10.65206,-111.0334,-35.10307,0.001067912,-0.1257102,0.09433498,0,0.3,0,0,0,0
638223384954652069,-18.56525,16.71542,46.50775,-59.98158,6.933692,-35.73743,-4.570632,-0.4441859,0.1400836,-35.22471,-8.447793,45.05199,0,0,0,-71.46342,-30.0751,44.42607,-10.65206,-111.0334,-35.10307,0.001067912,-0.1257102,0.09433498,0,0.3,0,0,0,0
638223384955011953,-18.37677,17.20636,46.46106,-61.59297,7.226673,-36.32339,-4.570632,-0.4441859,0.1400836,-35.22471,-8.447793,45.05199,0,0,0,-70.63441,-29.061,44.27267,-10.65206,-111.0334,-35.10307,0.001067912,-0.1257102,0.09433498,0,0.3,0,0,0,0
638223384955351847,-17.92913,18.65581,46.15754,-62.25218,7.153428,-36.76286,-4.570632,-0.4441859,0.1400836,-35.22471,-8.447793,45.05199,0,0,0,-68.50117,-26.36228,43.36564,-10.65206,-111.0334,-35.10307,0.001067912,-0.1257102,0.09433498,0,0.3,0,0,0,0
638223384955711732,-17.22233,21.18065,45.43378,-62.61841,6.347731,-37.05584,-4.570632,-0.4441859,0.1400836,-35.15147,-8.447793,45.05199,0,0,0,-64.9439,-22.04547,41.16073,-10.65206,-111.0334,-35.10307,0.001067912,-0.1257102,0.09433498,0,0.3,0,0,0,0
638223384956171584,-16.09145,25.08481,44.33646,-62.39867,4.663092,-37.71505,-4.570632,-0.4441859,0.1400836,-35.22471,-8.447793,45.05199,0,0,0,-59.30551,-15.49337,37.23386,-10.65206,-111.0334,-35.10307,0.001067912,-0.1257102,0.09433498,0,0.3,0,0,0,0
638223384956541468,-15.07837,28.07722,43.44926,-61.81271,3.124943,-38.66724,-4.570632,-0.4441859,0.1400836,-35.22471,-8.521038,45.05199,0,0,0,-54.4637,-10.69726,33.80478,-10.65206,-111.0334,-35.10307,0.001067912,-0.1257102,0.09433498,0,0.3,0,0,0,0
638223384956901351,-13.8297,31.5372,42.39864,-60.56754,1.000834,-40.0589,-4.570632,-0.4441859,0.1400836,-35.22471,-8.447793,45.05199,0,0,0,-48.66076,-5.376181,29.31879,-10.65206,-111.0334,-35.10307,0.001067912,-0.1257102,0.09433498,0,0.3,0,0,0,0
638223384957271237,-13.21714,33.22043,41.86165,-59.83509,-0.02459868,-40.93784,-4.570632,-0.4441859,0.1400836,-35.22471,-8.447793,45.05199,0,0,0,-45.85314,-2.906203,26.88316,-10.65206,-111.0334,-35.10307,0.001067912,-0.1257102,0.09433498,0,0.3,0,0,0,0
638223384957701094,-11.45014,37.19472,40.43747,-57.27151,-3.027651,-43.64791,-4.570632,-0.4441859,0.1400836,-35.22471,-8.447793,45.05199,0,0,0,-38.25741,2.468906,20.53236,-10.65206,-111.0334,-35.10307,0.001067912,-0.1257102,0.09433498,0,0.3,0,0,0,0
638223384958060979,-10.97894,38.12985,39.90048,-56.39257,-3.833347,-44.6001,-4.570632,-0.4441859,0.1400836,-35.22471,-8.447793,45.05199,0,0,0,-36.26764,3.385631,18.59761,-10.65206,-111.0334,-35.10307,0.001067912,-0.1257102,0.09433498,0,0.3,0,0,0,0
638223384958430868,-10.27214,39.32214,38.56968,-54.70793,-4.85878,-46.21149,-4.570632,-0.4441859,0.1400836,-35.22471,-8.447793,45.05199,0,0,0,-33.2214,3.591442,14.96212,-10.65206,-111.0334,-35.10307,0.001067912,-0.1257102,0.09433498,0,0.3,0,0,0,0
638223384958790746,-9.848064,39.67281,37.00542,-53.02329,-5.225006,-47.45666,-4.570632,-0.4441859,0.1400836,-35.22471,-8.447793,45.05199,0,0,0,-31.28283,1.990532,11.85684,-10.65206,-111.0334,-35.10307,0.001067912,-0.1257102,0.09433498,0,0.3,0,0,0,0
638223384959220611,-9.494664,39.36889,34.78743,-51.04567,-4.785534,-49.43428,-4.570632,-0.4441859,0.1400836,-35.22471,-8.447793,45.05199,0,0,0,-29.55522,-1.581588,8.366117,-10.65206,-111.0334,-35.10307,0.001067912,-0.1257102,0.09433498,0,0.3,0,0,0,0
638223384959580501,-9.447544,38.71431,33.55002,-50.16673,-4.346064,-50.82594,-4.570632,-0.4441859,0.1400836,-35.15147,-8.447793,45.05199,0,0,0,-29.17627,-4.382289,6.98651,-10.65206,-111.0334,-35.10307,0.001067912,-0.1257102,0.09433498,0,0.3,0,0,0,0
638223384959940380,-9.423985,37.14796,31.82232,-49.28778,-3.247386,-52.43733,-4.570632,-0.4441859,0.1400836,-35.22471,-8.447793,45.05199,0,0,0,-28.91698,-9.42901,5.870646,-10.65206,-111.0334,-35.10307,0.001067912,-0.1257102,0.09433498,0,0.3,0,0,0,0
638223384960300268,-9.235504,34.99717,30.02458,-48.62858,-1.855728,-53.60925,-4.570632,-0.4441859,0.1400836,-35.22471,-8.447793,45.05199,0,0,0,-28.24068,-15.62485,5.331249,-10.65206,-111.0334,-35.10307,0.001067912,-0.1257102,0.09433498,0,0.3,0,0,0,0
638223384960730142,-8.458026,32.35543,27.78325,-47.60315,0.1218917,-55.07415,-4.570632,-0.4441859,0.1400836,-35.22471,-8.447793,45.12524,0,0,0,-25.71114,-23.26215,4.553638,-10.65206,-111.0334,-35.10307,0.001067912,-0.1257102,0.09433498,0,0.3,0,0,0,0
638223384961060037,-7.892587,31.2099,26.77931,-46.94394,0.8543434,-55.66012,-4.570632,-0.4441859,0.1400836,-35.22471,-8.447793,45.05199,0,0,0,-23.91124,-26.59941,4.132912,-10.65206,-111.0334,-35.10307,0.001067912,-0.1257102,0.09433498,0,0.3,0,0,0,0
638223384961429905,-5.748631,27.93695,23.93095,-44.16063,3.051698,-56.53906,-4.570632,-0.4441859,0.1400836,-35.22471,-8.447793,45.12524,0,0,0,-17.21837,-36.06213,2.686845,-10.65206,-111.0334,-35.10307,0.001067912,-0.1257102,0.09433498,0,0.3,0,0,0,0
638223384961759806,-3.015675,24.52374,21.54953,-39.98565,5.90826,-56.39257,-4.570632,-0.4441859,0.1400836,-35.22471,-8.447793,45.05199,0,0,0,-8.959371,-45.32928,1.714748,-10.65206,-111.0334,-35.10307,0.001067912,-0.1257102,0.09433498,0,0.3,0,0,0,0
638223384962099697,-0.4240793,21.92875,19.86852,-34.93173,9.204292,-55.44038,-4.570632,-0.4441859,0.1400836,-35.22471,-8.447793,45.05199,0,0,0,-1.251024,-52.26233,0.6680788,-10.65206,-111.0334,-35.10307,0.001067912,-0.1257102,0.09433498,0,0.3,0,0,0,0
638223384962449583,0.5654391,21.11052,19.26149,-32.66114,10.52271,-54.85442,-4.570632,-0.4441859,0.1400836,-35.22471,-8.447793,45.05199,0,0,0,1.661776,-54.50704,0.03184217,-10.65206,-111.0334,-35.10307,0.001067912,-0.1257102,0.09433498,0,0.3,0,0,0,0
638223384962799470,2.073277,20.24553,18.44434,-28.33967,12.79331,-53.90223,-4.570632,-0.4441859,0.1400836,-35.22471,-8.447793,45.05199,0,0,0,6.052554,-57.00507,-1.158392,-10.65206,-111.0334,-35.10307,0.001067912,-0.1257102,0.09433498,0,0.3,0,0,0,0
638223384963145414,2.709396,20.19877,18.21087,-24.75066,14.4047,-53.46276,-4.570632,-0.4441859,0.1400836,-35.22471,-8.521038,45.05199,0,0,0,7.885761,-57.27805,-1.713563,-10.65206,-111.0334,-35.10307,0.001067912,-0.1257102,0.09433498,0,0.3,0,0,0,0
638223384963475304,2.709396,20.24553,18.21087,-23.57873,14.84417,-53.38951,-4.570632,-0.4441859,0.1400836,-35.22471,-8.447793,45.05199,0,0,0,7.883983,-57.17593,-1.751136,-10.65206,-111.0334,-35.10307,0.001067912,-0.1257102,0.09433498,0,0.3,0,0,0,0
638223384963815207,2.073277,20.57282,18.49104,-21.96734,15.50338,-53.09653,-4.570632,-0.4441859,0.1400836,-35.22471,-8.447793,45.05199,0,0,0,6.046673,-56.25672,-1.320843,-10.65206,-111.0334,-35.10307,0.001067912,-0.1257102,0.09433498,0,0.3,0,0,0,0
638223384964175079,0.6596789,20.92349,19.14476,-21.96734,15.8696,-52.36408,-4.570632,-0.4441859,0.1400836,-35.22471,-8.447793,45.05199,0,0,0,1.937571,-55.00273,-0.07157461,-10.65206,-111.0334,-35.10307,0.001067912,-0.1257102,0.09433498,0,0.3,0,0,0,0
638223384964534966,-2.238196,21.39106,20.8958,-23.65198,15.72311,-50.67944,-4.570632,-0.4441859,0.1400836,-35.22471,-8.447793,45.05199,0,0,0,-6.706572,-52.59271,3.244764,-10.65206,-111.0334,-35.10307,0.001067912,-0.1257102,0.09433498,0,0.3,0,0,0,0
638223384964904856,-5.465911,22.20929,23.37061,-27.24099,14.91741,-48.84832,-4.570632,-0.4441859,0.1400836,-35.22471,-8.447793,45.05199,0,0,0,-16.7983,-48.65463,7.201692,-10.65206,-111.0334,-35.10307,0.001067912,-0.1257102,0.09433498,0,0.3,0,0,0,0
638223384965294727,-8.434465,23.07429,26.12559,-31.78219,13.599,-46.65096,-4.570632,-0.4441859,0.1400836,-35.22471,-8.447793,45.05199,0,0,0,-26.60756,-44.11266,11.08905,-10.65206,-111.0334,-35.10307,0.001067912,-0.1257102,0.09433498,0,0.3,0,0,0,0
638223384965654609,-9.895184,23.35482,27.61982,-34.49226,12.72006,-45.55228,-4.570632,-0.4441859,0.1400836,-35.22471,-8.447793,45.05199,0,0,0,-31.66194,-41.94071,13.15481,-10.65206,-111.0334,-35.10307,0.001067912,-0.1257102,0.09433498,0,0.3,0,0,0,0
638223384966014501,-12.39254,23.54185,30.49153,-39.98565,11.18191,-43.72115,-4.570632,-0.4441859,0.1400836,-35.22471,-8.447793,45.05199,0,0,0,-40.75716,-38.29575,17.13938,-10.65206,-111.0334,-35.10307,0.001067912,-0.1257102,0.09433498,0,0.3,0,0,0,0
638223384966373815,-14.5365,23.56523,33.80684,-45.84526,9.643764,-41.59705,-4.570632,-0.4441859,0.1400836,-35.22471,-8.447793,45.05199,0,0,0,-49.30191,-34.14054,21.78664,-10.65206,-111.0334,-35.10307,0.001067912,-0.1257102,0.09433498,0,0.3,0,0,0,0
638223384966803507,-16.49197,23.61198,37.84592,-51.4119,8.105616,-39.39969,-4.570632,-0.4441859,0.1400836,-35.22471,-8.447793,45.12524,0,0,0,-57.91211,-28.53953,27.25866,-10.65206,-111.0334,-35.10307,0.001067912,-0.1257102,0.09433498,0,0.3,0,0,0,0
638223384967161080,-17.50505,23.77563,40.46081,-54.63469,7.373164,-38.08128,-4.570632,-0.4441859,0.1400836,-35.22471,-8.447793,45.05199,0,0,0,-62.73492,-24.34848,30.55861,-10.65206,-111.0334,-35.10307,0.001067912,-0.1257102,0.09433498,0,0.3,0,0,0,0
638223384967530966,-18.63593,24.33671,44.03294,-58.73641,6.420976,-36.68962,-4.570632,-0.4441859,0.1400836,-35.22471,-8.447793,45.05199,0,0,0,-68.44463,-17.56739,34.608,-10.65206,-111.0334,-35.10307,0.001067912,-0.1257102,0.09433498,0,0.3,0,0,0,0
638223384967890843,-19.60189,24.89779,47.8152,-63.13113,5.468789,-35.88392,-4.570632,-0.4441859,0.1400836,-35.22471,-8.447793,45.05199,0,0,0,-73.72785,-10.05728,38.68028,-10.65206,-111.0334,-35.10307,0.001067912,-0.1257102,0.09433498,0,0.3,0,0,0,0
638223384968315666,-20.26157,25.29522,51.10716,-67.45258,4.516602,-35.51769,-4.570632,-0.4441859,0.1400836,-35.22471,-8.447793,45.05199,0,0,0,-77.69501,-3.397792,42.1207,-10.65206,-111.0334,-35.10307,0.001067912,-0.1257102,0.09433498,0,0.3,0,0,0,0
638223384968645418,-20.49717,25.41211,52.13445,-69.06399,4.296866,-35.44445,-4.570632,-0.4441859,0.1400836,-35.22471,-8.447793,45.05199,0,0,0,-79.0388,-1.277707,43.08074,-10.65206,-111.0334,-35.10307,0.001067912,-0.1257102,0.09433498,0,0.3,0,0,0,0
638223384969015175,-20.89769,25.50562,54.32909,-72.5065,4.003886,-35.81068,-4.570632,-0.4441859,0.1400836,-35.15147,-8.447793,45.05199,0,0,0,-81.57198,3.010225,45.29179,-10.65206,-111.0334,-35.10307,0.001067912,-0.1257102,0.09433498,0,0.3,0,0,0,0
638223384969370584,-21.03905,25.50562,55.05285,-75.36307,4.003886,-37.27558,-4.570632,-0.4441859,0.1400836,-35.22471,-8.447793,45.05199,0,0,0,-82.44836,4.384837,45.99859,-10.65206,-111.0334,-35.10307,0.001067912,-0.1257102,0.09433498,0,0.3,0,0,0,0
638223384969840449,-21.0626,25.08481,54.35244,-77.56042,4.150376,-39.91241,-4.570632,-0.4441859,0.1400836,-35.22471,-8.447793,45.05199,0,0,0,-82.34837,2.168895,45.47619,-10.65206,-111.0334,-35.10307,0.001067912,-0.1257102,0.09433498,0,0.3,0,0,0,0
