zeyangz2/DNN_classification_different_people_hand/data_by_names/Zeyang/zeyang_right_25.csv
Timestamp,Therapist joint angle 0,Therapist joint angle 1,Therapist joint angle 2,Therapist joint angle 3,Therapist joint angle 4,Therapist joint angle 5,Patient joint angle 0,Patient joint angle 1,Patient joint angle 2,Patient joint angle 3,Patient joint angle 4,Patient joint angle 5,Virtual joint angle 0,Virtual joint angle 1,Virtual joint angle 2,Therapist position x,Therapist position y,Therapist position z,Patient position x,Patient position y,Patient position z,Virtual position x,Virtual position y,Virtual position z,Assistive Force, Obstacle Force Magnitude, Therapist Constant Force, Patient Constant Force, Recovery Factor, Assistance Level
638224246810212711,0,0,0,0,0,0,0,0,0,0,0,0,0,0,0,0,0,0,0,0,0,0,0,0,0,0.3,0,0,0,0
638224246810292680,0.8481586,-1.005263,-4.646106,14.06928,-63.38167,-22.5533,-56.96799,-0.4675641,6.957485,-72.28677,-8.594284,-36.90935,0,0,0,1.813735,-111.9013,-45.83543,-125.3346,-110.1062,-86.85717,0.001067912,-0.1257102,0.09433498,0,0.3,0,0,0,0
638224246810592589,0.8481586,-1.005263,-4.646106,14.06928,-63.38167,-22.5533,-56.96799,-0.4675641,6.957485,-72.28677,-8.594284,-36.90935,0,0,0,1.813735,-111.9013,-45.83543,-125.3346,-110.1062,-86.85717,0.001067912,-0.1257102,0.09433498,0,0.3,0,0,0,0
638224246810932485,0.8481586,-1.005263,-4.646106,13.99604,-63.38167,-22.5533,-56.96799,-0.4675641,6.957485,-72.28677,-8.521038,-36.83611,0,0,0,1.813735,-111.9013,-45.83543,-125.3346,-110.1062,-86.85717,0.001067912,-0.1257102,0.09433498,0,0.3,0,0,0,0
638224246811272384,0.8481586,-1.005263,-4.646106,13.99604,-63.30842,-22.5533,-56.96799,-0.4675641,6.957485,-72.28677,-8.594284,-36.83611,0,0,0,1.813735,-111.9013,-45.83543,-125.3346,-110.1062,-86.85717,0.001067912,-0.1257102,0.09433498,0,0.3,0,0,0,0
638224246811612280,0.8481586,-1.005263,-4.646106,13.99604,-63.38167,-22.5533,-56.96799,-0.4675641,6.957485,-72.28677,-8.521038,-36.83611,0,0,0,1.813735,-111.9013,-45.83543,-125.3346,-110.1062,-86.85717,0.001067912,-0.1257102,0.09433498,0,0.3,0,0,0,0
638224246811952166,0.8481586,-1.005263,-4.646106,13.99604,-63.38167,-22.5533,-56.96799,-0.4675641,6.957485,-72.28677,-8.594284,-36.90935,0,0,0,1.813735,-111.9013,-45.83543,-125.3346,-110.1062,-86.85717,0.001067912,-0.1257102,0.09433498,0,0.3,0,0,0,0
638224246812302050,0.8481586,-1.005263,-4.646106,13.99604,-63.38167,-22.5533,-56.96799,-0.4675641,6.957485,-72.28677,-8.594284,-36.83611,0,0,0,1.813735,-111.9013,-45.83543,-125.3346,-110.1062,-86.85717,0.001067912,-0.1257102,0.09433498,0,0.3,0,0,0,0
638224246812641942,0.8481586,-1.005263,-4.646106,13.99604,-63.38167,-22.5533,-56.96799,-0.4675641,6.957485,-72.28677,-8.521038,-36.83611,0,0,0,1.813735,-111.9013,-45.83543,-125.3346,-110.1062,-86.85717,0.001067912,-0.1257102,0.09433498,0,0.3,0,0,0,0
638224246812991831,0.8481586,-1.005263,-4.646106,14.06928,-63.38167,-22.5533,-56.96799,-0.4675641,6.957485,-72.28677,-8.521038,-36.90935,0,0,0,1.813735,-111.9013,-45.83543,-125.3346,-110.1062,-86.85717,0.001067912,-0.1257102,0.09433498,0,0.3,0,0,0,0
638224246813321730,0.8481586,-1.005263,-4.646106,13.99604,-63.38167,-22.5533,-56.96799,-0.4675641,6.957485,-72.28677,-8.521038,-36.83611,0,0,0,1.813735,-111.9013,-45.83543,-125.3346,-110.1062,-86.85717,0.001067912,-0.1257102,0.09433498,0,0.3,0,0,0,0
638224246813671634,0.8481586,-1.005263,-4.646106,14.06928,-63.38167,-22.5533,-56.96799,-0.4675641,6.957485,-72.28677,-8.594284,-36.90935,0,0,0,1.813735,-111.9013,-45.83543,-125.3346,-110.1062,-86.85717,0.001067912,-0.1257102,0.09433498,0,0.3,0,0,0,0
638224246814001513,0.8481586,-1.005263,-4.646106,14.06928,-63.38167,-22.5533,-56.96799,-0.4675641,6.957485,-72.28677,-8.594284,-36.90935,0,0,0,1.813735,-111.9013,-45.83543,-125.3346,-110.1062,-86.85717,0.001067912,-0.1257102,0.09433498,0,0.3,0,0,0,0
638224246814341404,0.8481586,-1.005263,-4.646106,13.99604,-63.38167,-22.5533,-56.96799,-0.4675641,6.957485,-72.28677,-8.594284,-36.83611,0,0,0,1.813735,-111.9013,-45.83543,-125.3346,-110.1062,-86.85717,0.001067912,-0.1257102,0.09433498,0,0.3,0,0,0,0
638224246814691295,0.8481586,-1.005263,-4.646106,13.99604,-63.38167,-22.5533,-56.96799,-0.4675641,6.957485,-72.28677,-8.521038,-36.83611,0,0,0,1.813735,-111.9013,-45.83543,-125.3346,-110.1062,-86.85717,0.001067912,-0.1257102,0.09433498,0,0.3,0,0,0,0
638224246815031185,0.8481586,-1.005263,-4.646106,13.99604,-63.38167,-22.5533,-56.96799,-0.4675641,6.957485,-72.28677,-8.594284,-36.83611,0,0,0,1.813735,-111.9013,-45.83543,-125.3346,-110.1062,-86.85717,0.001067912,-0.1257102,0.09433498,0,0.3,0,0,0,0
638224246815371060,0.8481586,-1.005263,-4.646106,13.99604,-63.38167,-22.5533,-56.96799,-0.4675641,6.957485,-72.28677,-8.521038,-36.83611,0,0,0,1.813735,-111.9013,-45.83543,-125.3346,-110.1062,-86.85717,0.001067912,-0.1257102,0.09433498,0,0.3,0,0,0,0
638224246815710976,0.8481586,-1.005263,-4.646106,13.99604,-63.38167,-22.5533,-56.96799,-0.4675641,6.957485,-72.28677,-8.521038,-36.90935,0,0,0,1.813735,-111.9013,-45.83543,-125.3346,-110.1062,-86.85717,0.001067912,-0.1257102,0.09433498,0,0.3,0,0,0,0
638224246816060867,0.8481586,-1.005263,-4.646106,14.06928,-63.38167,-22.5533,-56.96799,-0.4675641,6.957485,-72.28677,-8.594284,-36.90935,0,0,0,1.813735,-111.9013,-45.83543,-125.3346,-110.1062,-86.85717,0.001067912,-0.1257102,0.09433498,0,0.3,0,0,1.142005E-07,0
638224246816390740,0.8481586,-1.005263,-4.646106,14.06928,-63.30842,-22.5533,-56.96799,-0.4675641,6.957485,-72.28677,-8.594284,-36.90935,0,0,0,1.813735,-111.9013,-45.83543,-125.3346,-110.1062,-86.85717,0.001067912,-0.1257102,0.09433498,0,0.3,0,0,1.142005E-07,0
638224246816740623,0.8481586,-1.005263,-4.646106,13.99604,-63.38167,-22.5533,-56.96799,-0.4675641,6.957485,-72.28677,-8.594284,-36.90935,0,0,0,1.813735,-111.9013,-45.83543,-125.3346,-110.1062,-86.85717,0.001067912,-0.1257102,0.09433498,0,0.3,0,0,2.28401E-07,0
638224246817080528,0.8481586,-1.005263,-4.646106,13.99604,-63.38167,-22.5533,-56.96799,-0.4675641,6.957485,-72.28677,-8.521038,-36.83611,0,0,0,1.813735,-111.9013,-45.83543,-125.3346,-110.1062,-86.85717,0.001067912,-0.1257102,0.09433498,0,0.3,0,0,3.426016E-07,0
638224246817420422,0.8481586,-1.005263,-4.646106,13.99604,-63.38167,-22.5533,-56.96799,-0.4675641,6.957485,-72.28677,-8.594284,-36.90935,0,0,0,1.813735,-111.9013,-45.83543,-125.3346,-110.1062,-86.85717,0.001067912,-0.1257102,0.09433498,0,0.3,0,0,3.426016E-07,0
638224246817760299,0.8481586,-1.005263,-4.646106,13.99604,-63.38167,-22.5533,-56.96799,-0.4675641,6.957485,-72.28677,-8.594284,-36.83611,0,0,0,1.813735,-111.9013,-45.83543,-125.3346,-110.1062,-86.85717,0.001067912,-0.1257102,0.09433498,0,0.3,0,0,4.568021E-07,0
638224246818100203,0.8481586,-1.005263,-4.646106,13.99604,-63.38167,-22.5533,-56.96799,-0.4675641,6.957485,-72.28677,-8.594284,-36.83611,0,0,0,1.813735,-111.9013,-45.83543,-125.3346,-110.1062,-86.85717,0.001067912,-0.1257102,0.09433498,0,0.3,0,0,4.568021E-07,0
638224246818430102,0.8481586,-1.005263,-4.646106,13.99604,-63.38167,-22.5533,-56.96799,-0.4675641,6.957485,-72.28677,-8.521038,-36.83611,0,0,0,1.813735,-111.9013,-45.83543,-125.3346,-110.1062,-86.85717,0.001067912,-0.1257102,0.09433498,0,0.3,0,0,4.568021E-07,0
638224246818769989,0.8481586,-1.005263,-4.646106,13.99604,-63.38167,-22.5533,-56.96799,-0.4675641,6.957485,-72.28677,-8.594284,-36.90935,0,0,0,1.813735,-111.9013,-45.83543,-125.3346,-110.1062,-86.85717,0.001067912,-0.1257102,0.09433498,0,0.3,0,0,5.710027E-07,0
638224246819109882,0.8481586,-1.005263,-4.646106,13.99604,-63.38167,-22.5533,-56.96799,-0.4675641,6.957485,-72.28677,-8.594284,-36.83611,0,0,0,1.813735,-111.9013,-45.83543,-125.3346,-110.1062,-86.85717,0.001067912,-0.1257102,0.09433498,0,0.3,0,0,5.710027E-07,0
638224246819449776,0.8481586,-1.005263,-4.646106,14.06928,-63.30842,-22.5533,-56.96799,-0.4675641,6.957485,-72.28677,-8.521038,-36.90935,0,0,0,1.813735,-111.9013,-45.83543,-125.3346,-110.1062,-86.85717,0.001067912,-0.1257102,0.09433498,0,0.3,0,0,6.852032E-07,0
638224246819779670,0.8481586,-1.005263,-4.646106,13.99604,-63.38167,-22.5533,-56.96799,-0.4675641,6.957485,-72.28677,-8.594284,-36.90935,0,0,0,1.813735,-111.9013,-45.83543,-125.3346,-110.1062,-86.85717,0.001067912,-0.1257102,0.09433498,0,0.3,0,0,6.852032E-07,0
638224246820129559,0.8481586,-1.005263,-4.646106,14.06928,-63.38167,-22.5533,-56.96799,-0.4675641,6.957485,-72.28677,-8.594284,-36.90935,0,0,0,1.813735,-111.9013,-45.83543,-125.3346,-110.1062,-86.85717,0.001067912,-0.1257102,0.09433498,0,0.3,0,0,6.852032E-07,0
638224246820489431,0.8481586,-1.005263,-4.646106,13.99604,-63.38167,-22.5533,-56.96799,-0.4675641,6.957485,-72.28677,-8.594284,-36.90935,0,0,0,1.813735,-111.9013,-45.83543,-125.3346,-110.1062,-86.85717,0.001067912,-0.1257102,0.09433498,0,0.3,0,0,6.852032E-07,0
638224246820799329,0.8481586,-1.005263,-4.646106,13.99604,-63.38167,-22.5533,-56.96799,-0.4675641,6.957485,-72.28677,-8.594284,-36.83611,0,0,0,1.813735,-111.9013,-45.83543,-125.3346,-110.1062,-86.85717,0.001067912,-0.1257102,0.09433498,0,0.3,0,0,7.994037E-07,0
638224246821139229,0.8481586,-1.005263,-4.646106,13.99604,-63.38167,-22.5533,-56.96799,-0.4675641,6.957485,-72.28677,-8.594284,-36.90935,0,0,0,1.813735,-111.9013,-45.83543,-125.3346,-110.1062,-86.85717,0.001067912,-0.1257102,0.09433498,0,0.3,0,0,7.994037E-07,0
638224246821479125,0.8481586,-1.005263,-4.646106,13.99604,-63.38167,-22.5533,-56.96799,-0.4675641,6.957485,-72.28677,-8.521038,-36.83611,0,0,0,1.813735,-111.9013,-45.83543,-125.3346,-110.1062,-86.85717,0.001067912,-0.1257102,0.09433498,0,0.3,0,0,7.994037E-07,0
638224246821829016,0.8481586,-1.005263,-4.646106,13.99604,-63.38167,-22.5533,-56.96799,-0.4675641,6.957485,-72.28677,-8.521038,-36.83611,0,0,0,1.813735,-111.9013,-45.83543,-125.3346,-110.1062,-86.85717,0.001067912,-0.1257102,0.09433498,0,0.3,0,0,7.994037E-07,0
638224246822168904,0.8481586,-1.005263,-4.646106,13.99604,-63.38167,-22.5533,-56.96799,-0.4675641,6.957485,-72.28677,-8.521038,-36.90935,0,0,0,1.813735,-111.9013,-45.83543,-125.3346,-110.1062,-86.85717,0.001067912,-0.1257102,0.09433498,0,0.3,0,0,6.852032E-07,0
638224246822508799,0.8481586,-1.005263,-4.646106,13.99604,-63.38167,-22.5533,-56.96799,-0.4675641,6.957485,-72.28677,-8.594284,-36.90935,0,0,0,1.813735,-111.9013,-45.83543,-125.3346,-110.1062,-86.85717,0.001067912,-0.1257102,0.09433498,0,0.3,0,0,5.710027E-07,0
638224246822848683,0.8481586,-1.005263,-4.646106,13.99604,-63.38167,-22.5533,-56.96799,-0.4675641,6.957485,-72.28677,-8.521038,-36.83611,0,0,0,1.813735,-111.9013,-45.83543,-125.3346,-110.1062,-86.85717,0.001067912,-0.1257102,0.09433498,0,0.3,0,0,5.710027E-07,0
638224246823188591,0.8481586,-1.005263,-4.646106,13.99604,-63.38167,-22.5533,-56.96799,-0.4675641,6.957485,-72.28677,-8.594284,-36.90935,0,0,0,1.813735,-111.9013,-45.83543,-125.3346,-110.1062,-86.85717,0.001067912,-0.1257102,0.09433498,0,0.3,0,0,4.568021E-07,0
638224246823528474,0.8481586,-1.005263,-4.646106,13.99604,-63.38167,-22.5533,-56.96799,-0.4675641,6.957485,-72.28677,-8.594284,-36.83611,0,0,0,1.813735,-111.9013,-45.83543,-125.3346,-110.1062,-86.85717,0.001067912,-0.1257102,0.09433498,0,0.3,0,0,4.568021E-07,0
638224246823858367,0.9188384,-1.005263,-4.692801,13.92279,-63.38167,-22.5533,-56.96799,-0.4675641,6.957485,-72.28677,-8.594284,-36.90935,0,0,0,1.96313,-111.8925,-45.94606,-125.3346,-110.1062,-86.85717,0.001067912,-0.1257102,0.09433498,0,0.3,0,0,0,0
638224246824208257,1.060198,-1.005263,-4.716148,13.1171,-63.38167,-22.04058,-56.96799,-0.4675641,6.957485,-72.28677,-8.594284,-36.83611,0,0,0,2.264116,-111.888,-46.00543,-125.3346,-110.1062,-86.85717,0.001067912,-0.1257102,0.09433498,0,0.3,0,0,0,0
638224246824548135,1.319358,-1.005263,-4.716148,7.989935,-63.38167,-18.45157,-56.96799,-0.4675641,6.957485,-72.28677,-8.594284,-36.90935,0,0,0,2.817479,-111.888,-46.01692,-125.3346,-110.1062,-86.85717,0.001067912,-0.1257102,0.09433498,0,0.3,0,0,0,0
638224246824878029,1.413598,-0.9818845,-4.692801,-1.312202,-63.30842,-14.56958,-56.96799,-0.4675641,6.957485,-72.28677,-8.594284,-36.90935,0,0,0,3.020047,-111.8381,-45.96664,-125.3346,-110.1062,-86.85717,0.001067912,-0.1257102,0.09433498,0,0.3,0,0,0,0
638224246825217933,1.225118,-0.8649935,-4.692801,-6.512609,-63.01544,-12.6652,-56.96799,-0.4675641,6.957485,-72.28677,-8.521038,-36.90935,0,0,0,2.617534,-111.5661,-45.95298,-125.3346,-110.1062,-86.85717,0.001067912,-0.1257102,0.09433498,0,0.3,0,0,0,0
638224246825547829,0.9895183,-0.116891,-5.159746,-13.83713,-61.77028,-10.24811,-56.96799,-0.4675641,6.957485,-72.28677,-8.521038,-36.83611,0,0,0,2.095777,-109.7317,-47.01093,-125.3346,-110.1062,-86.85717,0.001067912,-0.1257102,0.09433498,0,0.3,0,0,0,0
638224246825887721,0.8952785,1.028641,-5.930205,-18.8178,-59.93914,-9.076189,-56.96799,-0.4675641,6.957485,-72.28677,-8.594284,-36.83611,0,0,0,1.867978,-106.8924,-48.8134,-125.3346,-110.1062,-86.85717,0.001067912,-0.1257102,0.09433498,0,0.3,0,0,0,0
638224246826227609,0.8245987,1.729987,-6.303762,-20.57568,-58.91372,-8.783209,-56.96799,-0.4675641,6.957485,-72.28677,-8.594284,-36.83611,0,0,0,1.70751,-105.168,-49.71484,-125.3346,-110.1062,-86.85717,0.001067912,-0.1257102,0.09433498,0,0.3,0,0,0,0
638224246826567490,0.7067988,3.506731,-6.957485,-22.84628,-56.56987,-8.270493,-56.96799,-0.4675641,6.957485,-72.28677,-8.521038,-36.83611,0,0,0,1.442621,-100.8616,-51.41164,-125.3346,-110.1062,-86.85717,0.001067912,-0.1257102,0.09433498,0,0.3,0,0,3.905658E-05,0
638224246826907399,0.6361189,5.423743,-7.401083,-24.0182,-54.37251,-8.124002,-56.96799,-0.4675641,6.957485,-72.28677,-8.594284,-36.83611,0,0,0,1.283136,-96.28467,-52.78154,-125.3346,-110.1062,-86.85717,0.001067912,-0.1257102,0.09433498,0,0.3,0,0,0.0003387188,0
638224246827247292,0.612559,7.340756,-7.564514,-24.45767,-52.54139,-8.270493,-56.96799,-0.4675641,6.957485,-72.28677,-8.594284,-36.83611,0,0,0,1.226281,-91.80135,-53.65404,-125.3346,-110.1062,-86.85717,0.001067912,-0.1257102,0.09433498,0,0.3,0,0,0.0005955558,0
638224246827577182,0.612559,8.275885,-7.611208,-24.53092,-51.5892,-8.490229,-56.96799,-0.4675641,6.957485,-72.28677,-8.594284,-36.90935,0,0,0,1.221968,-89.63078,-54.05742,-125.3346,-110.1062,-86.85717,0.001067912,-0.1257102,0.09433498,0,0.3,0,0,0.0006944534,0
638224246827917066,0.612559,10.076,-7.77464,-24.23794,-49.53833,-9.36917,-56.96799,-0.4675641,6.957485,-72.28677,-8.521038,-36.83611,0,0,0,1.210796,-85.44405,-55.10238,-125.3346,-110.1062,-86.85717,0.001067912,-0.1257102,0.09433498,0,0.3,0,0,0.0008310372,0
638224246828256948,0.612559,11.52545,-7.891376,-23.65198,-47.48747,-10.46785,-56.96799,-0.4675641,6.957485,-72.28677,-8.521038,-36.83611,0,0,0,1.20116,-82.09343,-56.00364,-125.3346,-110.1062,-86.85717,0.001067912,-0.1257102,0.09433498,0,0.3,0,0,0.0008925913,0
638224246828586860,0.612559,12.08653,-7.938071,-23.43224,-46.38879,-10.83407,-56.96799,-0.4675641,6.957485,-72.28677,-8.594284,-36.90935,0,0,0,1.197153,-80.80025,-56.37843,-125.3346,-110.1062,-86.85717,0.001067912,-0.1257102,0.09433498,0,0.3,0,0,0.0008992149,0
638224246828926750,0.4240793,13.20868,-8.264932,-23.28575,-43.82521,-10.90732,-56.96799,-0.4675641,6.957485,-72.21353,-8.521038,-36.90935,0,0,0,0.8189995,-78.14475,-57.70004,-125.3346,-110.1062,-86.85717,0.001067912,-0.1257102,0.09433498,0,0.3,0,0,0.0009096072,0
638224246829266644,-0.04711992,13.98017,-8.70853,-24.45767,-40.96865,-9.149435,-56.96799,-0.4675641,6.957485,-72.28677,-8.594284,-36.90935,0,0,0,-0.08981392,-76.24716,-59.1402,-125.3346,-110.1062,-86.85717,0.001067912,-0.1257102,0.09433498,0,0.3,0,0,0.000999483,0
638224246829596538,-0.3769594,14.33084,-9.012045,-25.6296,-39.28401,-7.464796,-56.96799,-0.4675641,6.957485,-72.28677,-8.594284,-36.90935,0,0,0,-0.7126011,-75.34699,-60.04007,-125.3346,-110.1062,-86.85717,0.001067912,-0.1257102,0.09433498,0,0.3,0,0,0.001099637,0
638224246829946417,-0.9659585,14.65813,-9.572379,-28.77914,-35.76824,-3.509557,-56.96799,-0.4675641,6.957485,-72.28677,-8.594284,-36.90935,0,0,0,-1.801056,-74.39892,-61.53056,-125.3346,-110.1062,-86.85717,0.001067912,-0.1257102,0.09433498,0,0.3,0,0,0.001413574,0
638224246830286317,-1.484278,14.68151,-9.945935,-32.14842,-31.44678,0.006211365,-56.96799,-0.4675641,6.957485,-72.28677,-8.521038,-36.83611,0,0,0,-2.744747,-74.19891,-62.42154,-125.3346,-110.1062,-86.85717,0.001067912,-0.1257102,0.09433498,0,0.3,0,0,0.001861697,0
638224246830626201,-1.625637,14.68151,-9.945935,-33.68657,-29.24942,1.471115,-56.96799,-0.4675641,6.957485,-72.28677,-8.594284,-36.83611,0,0,0,-3.006084,-74.19891,-62.42863,-125.3346,-110.1062,-86.85717,0.001067912,-0.1257102,0.09433498,0,0.3,0,0,0.002112824,0
638224246830966090,-1.696317,14.68151,-9.945935,-36.39664,-24.78147,4.034696,-56.96799,-0.4675641,6.957485,-72.28677,-8.521038,-36.83611,0,0,0,-3.136746,-74.19891,-62.43243,-125.3346,-110.1062,-86.85717,0.001067912,-0.1257102,0.09433498,0,0.3,0,0,0.002618161,0
638224246831305991,-1.672757,14.68151,-9.922588,-37.93478,-21.11921,5.279863,-56.96799,-0.4675641,6.957485,-72.28677,-8.594284,-36.83611,0,0,0,-3.094755,-74.20828,-62.37764,-125.3346,-110.1062,-86.85717,0.001067912,-0.1257102,0.09433498,0,0.3,0,0,0.003099174,0
638224246831635887,-1.696317,14.68151,-9.89924,-38.15452,-19.58106,5.646089,-56.96799,-0.4675641,6.957485,-72.28677,-8.594284,-36.90935,0,0,0,-3.139915,-74.21764,-62.32542,-125.3346,-110.1062,-86.85717,0.001067912,-0.1257102,0.09433498,0,0.3,0,0,0.003335341,0
638224246831985770,-1.696317,14.588,-9.89924,-37.05584,-17.45695,5.646089,-56.96799,-0.4675641,6.957485,-72.28677,-8.594284,-36.90935,0,0,0,-3.141543,-74.42822,-62.27046,-125.3346,-110.1062,-86.85717,0.001067912,-0.1257102,0.09433498,0,0.3,0,0,0.003799223,0
638224246832325665,-1.696317,14.2607,-9.89924,-34.05279,-15.84556,5.865825,-56.96799,-0.4675641,6.957485,-72.28677,-8.594284,-36.83611,0,0,0,-3.14716,-75.16595,-62.08079,-125.3346,-110.1062,-86.85717,0.001067912,-0.1257102,0.09433498,0,0.3,0,0,0.004269158,0
638224246832665568,-1.696317,13.62949,-9.89924,-30.46378,-14.82012,6.818012,-56.96799,-0.4675641,6.957485,-72.28677,-8.594284,-36.90935,0,0,0,-3.15764,-76.59172,-61.72691,-125.3346,-110.1062,-86.85717,0.001067912,-0.1257102,0.09433498,0,0.3,0,0,0.004754282,0
638224246833005440,-1.719877,13.18531,-9.89924,-28.77914,-14.52714,7.770199,-56.96799,-0.4675641,6.957485,-72.28677,-8.594284,-36.90935,0,0,0,-3.208678,-77.59734,-61.48861,-125.3346,-110.1062,-86.85717,0.001067912,-0.1257102,0.09433498,0,0.3,0,0,0.005012946,0
638224246833355334,-2.143956,11.92288,-9.89924,-26.14231,-14.08767,9.528083,-56.96799,-0.4675641,6.957485,-72.28677,-8.594284,-36.90935,0,0,0,-4.023417,-80.46519,-60.87711,-125.3346,-110.1062,-86.85717,0.001067912,-0.1257102,0.09433498,0,0.3,0,0,0.005630428,0
638224246833685234,-3.133475,10.42668,-10.06267,-25.11688,-13.72145,11.65219,-56.96799,-0.4675641,6.957485,-72.28677,-8.521038,-36.90935,0,0,0,-5.895231,-83.81541,-60.66283,-125.3346,-110.1062,-86.85717,0.001067912,-0.1257102,0.09433498,0,0.3,0,0,0.006504862,0
638224246834035119,-3.840273,9.655198,-10.10937,-25.11688,-13.50171,13.1171,-56.96799,-0.4675641,6.957485,-72.28677,-8.594284,-36.83611,0,0,0,-7.236975,-85.56441,-60.53815,-125.3346,-110.1062,-86.85717,0.001067912,-0.1257102,0.09433498,0,0.3,0,0,0.007069812,0
638224246834365015,-5.018272,8.158993,-10.03932,-26.06907,-13.06224,16.70611,-56.96799,-0.4675641,6.957485,-72.28677,-8.594284,-36.83611,0,0,0,-9.513096,-89.03309,-60.01274,-125.3346,-110.1062,-86.85717,0.001067912,-0.1257102,0.09433498,0,0.3,0,0,0.008423545,0
638224246834704907,-5.395231,6.312115,-10.03932,-27.16775,-12.32979,21.83327,-56.96799,-0.4675641,6.957485,-72.28677,-8.521038,-36.90935,0,0,0,-10.27656,-93.2971,-59.53872,-125.3346,-110.1062,-86.85717,0.001067912,-0.1257102,0.09433498,0,0.3,0,0,0.009936017,0
638224246835054797,-5.513031,4.652263,-10.06267,-27.38748,-10.79164,26.52096,-56.96799,-0.4675641,6.957485,-72.28677,-8.594284,-36.90935,0,0,0,-10.53057,-97.13294,-59.24598,-125.3346,-110.1062,-86.85717,0.001067912,-0.1257102,0.09433498,0,0.3,0,0,0.01148081,0
638224246835394687,-5.701511,4.091186,-10.06267,-27.31424,-9.692961,28.42534,-56.96799,-0.4675641,6.957485,-72.28677,-8.594284,-36.90935,0,0,0,-10.89931,-98.43498,-59.18217,-125.3346,-110.1062,-86.85717,0.001067912,-0.1257102,0.09433498,0,0.3,0,0,0.01227347,0
638224246835724576,-6.14915,3.506731,-9.89924,-27.0945,-7.27587,31.79461,-56.96799,-0.4675641,6.957485,-72.28677,-8.594284,-36.83611,0,0,0,-11.80165,-99.85818,-58.80859,-125.3346,-110.1062,-86.85717,0.001067912,-0.1257102,0.09433498,0,0.3,0,0,0.013907,0
638224246836074477,-6.26695,3.600243,-9.572379,-26.80152,-5.591231,34.65118,-56.96799,-0.4675641,6.957485,-72.28677,-8.521038,-36.90935,0,0,0,-12.10721,-99.7696,-58.10119,-125.3346,-110.1062,-86.85717,0.001067912,-0.1257102,0.09433498,0,0.3,0,0,0.01552488,0
638224246836404366,-6.26695,3.670378,-9.502337,-26.65503,-5.078516,35.74985,-56.96799,-0.4675641,6.957485,-72.28677,-8.594284,-36.90935,0,0,0,-12.12363,-99.63371,-57.95168,-125.3346,-110.1062,-86.85717,0.001067912,-0.1257102,0.09433498,0,0.3,0,0,0.01631366,0
638224246836744259,-6.26695,3.880782,-9.455643,-26.4353,-4.346064,37.36125,-56.96799,-0.4675641,6.957485,-72.28677,-8.594284,-36.83611,0,0,0,-12.13181,-99.16297,-57.87718,-125.3346,-110.1062,-86.85717,0.001067912,-0.1257102,0.09433498,0,0.3,0,0,0.01785194,0
638224246837074152,-6.24339,4.278211,-9.502337,-26.21556,-4.053083,38.16694,-56.96799,-0.4675641,6.957485,-72.28677,-8.594284,-36.83611,0,0,0,-12.06757,-98.22244,-58.04417,-125.3346,-110.1062,-86.85717,0.001067912,-0.1257102,0.09433498,0,0.3,0,0,0.01933495,0
638224246837414049,-6.24339,4.652263,-9.549031,-26.06907,-3.833347,38.45993,-56.96799,-0.4675641,6.957485,-72.28677,-8.521038,-36.83611,0,0,0,-12.04855,-97.33654,-58.21809,-125.3346,-110.1062,-86.85717,0.001067912,-0.1257102,0.09433498,0,0.3,0,0,0.0200559,0
638224246837753929,-6.24339,5.306852,-9.89924,-25.84933,-3.100896,38.67966,-56.96799,-0.4675641,6.957485,-72.28677,-8.594284,-36.83611,0,0,0,-11.9468,-95.68114,-59.14814,-125.3346,-110.1062,-86.85717,0.001067912,-0.1257102,0.09433498,0,0.3,0,0,0.02146136,0
638224246838103818,-6.24339,5.821173,-10.13271,-25.55635,-2.002218,38.89939,-56.96799,-0.4675641,6.957485,-72.28677,-8.521038,-36.90935,0,0,0,-11.87598,-94.39525,-59.79544,-125.3346,-110.1062,-86.85717,0.001067912,-0.1257102,0.09433498,0,0.3,0,0,0.02282023,0
638224246838443712,-6.24339,5.98482,-10.20275,-25.26337,-0.3175794,38.97264,-56.96799,-0.4675641,6.957485,-72.28677,-8.521038,-36.90935,0,0,0,-11.85427,-93.98762,-59.99389,-125.3346,-110.1062,-86.85717,0.001067912,-0.1257102,0.09433498,0,0.3,0,0,0.02413708,0
638224246838783622,-6.24339,6.078333,-10.2261,-25.19013,0.4881175,38.97264,-56.96799,-0.4675641,6.957485,-72.28677,-8.521038,-36.90935,0,0,0,-11.84597,-93.76154,-60.06978,-125.3346,-110.1062,-86.85717,0.001067912,-0.1257102,0.09433498,0,0.3,0,0,0.02478071,0
638224246839123499,-6.24339,6.265358,-10.17941,-24.75066,2.758718,38.97264,-56.96799,-0.4675641,6.957485,-72.28677,-8.594284,-36.90935,0,0,0,-11.85251,-93.34803,-60.00998,-125.3346,-110.1062,-86.85717,0.001067912,-0.1257102,0.09433498,0,0.3,0,0,0.02603669,0
638224246839463392,-6.12559,6.218602,-9.852547,-24.09145,5.688524,37.94721,-56.96799,-0.4675641,6.957485,-72.28677,-8.594284,-36.90935,0,0,0,-11.71094,-93.58852,-59.22921,-125.3346,-110.1062,-86.85717,0.001067912,-0.1257102,0.09433498,0,0.3,0,0,0.02724116,0
638224246839803282,-6.03135,6.218602,-9.619073,-23.72522,7.592898,36.70204,-56.96799,-0.4675641,6.957485,-72.28677,-8.594284,-36.83611,0,0,0,-11.58772,-93.6804,-58.6775,-125.3346,-110.1062,-86.85717,0.001067912,-0.1257102,0.09433498,0,0.3,0,0,0.02781445,0
638224246840143174,-5.88999,6.218602,-9.525684,-22.77304,11.25516,34.94416,-56.96799,-0.4675641,6.957485,-72.28677,-8.594284,-36.83611,0,0,0,-11.3391,-93.71655,-58.43605,-125.3346,-110.1062,-86.85717,0.001067912,-0.1257102,0.09433498,0,0.3,0,0,0.02891466,0
638224246840483065,-5.86643,6.171845,-9.525684,-21.52787,15.06391,34.13846,-56.96799,-0.4675641,6.957485,-72.28677,-8.594284,-36.83611,0,0,0,-11.2951,-93.82474,-58.41971,-125.3346,-110.1062,-86.85717,0.001067912,-0.1257102,0.09433498,0,0.3,0,0,0.02997912,0
638224246840822956,-5.86643,6.125089,-9.549031,-20.86866,16.89503,33.84548,-56.96799,-0.4675641,6.957485,-72.28677,-8.521038,-36.83611,0,0,0,-11.29081,-93.92393,-58.46143,-125.3346,-110.1062,-86.85717,0.001067912,-0.1257102,0.09433498,0,0.3,0,0,0.03050216,0
638224246841162852,-5.86643,5.961442,-9.712462,-19.477,20.19107,33.5525,-56.96799,-0.4675641,6.957485,-72.28677,-8.594284,-36.83611,0,0,0,-11.25658,-94.23905,-58.79458,-125.3346,-110.1062,-86.85717,0.001067912,-0.1257102,0.09433498,0,0.3,0,0,0.03153476,0
638224246841502740,-5.86643,5.680903,-10.15606,-18.15859,23.19412,33.11303,-56.96799,-0.4675641,6.957485,-72.28677,-8.594284,-36.90935,0,0,0,-11.15941,-94.71049,-59.74033,-125.3346,-110.1062,-86.85717,0.001067912,-0.1257102,0.09433498,0,0.3,0,0,0.03255617,0
638224246841852620,-5.86643,5.260096,-10.73974,-16.98667,26.05068,32.82005,-56.96799,-0.4675641,6.957485,-72.28677,-8.594284,-36.90935,0,0,0,-11.03241,-95.43907,-60.97638,-125.3346,-110.1062,-86.85717,0.001067912,-0.1257102,0.09433498,0,0.3,0,0,0.0335745,0
638224246842182535,-5.86643,4.979557,-10.92652,-16.5472,27.51558,32.67356,-56.96799,-0.4675641,6.957485,-72.28677,-8.594284,-36.90935,0,0,0,-10.99472,-96.00769,-61.34314,-125.3346,-110.1062,-86.85717,0.001067912,-0.1257102,0.09433498,0,0.3,0,0,0.03408246,0
638224246842522427,-5.86643,4.511993,-11.25338,-16.25422,29.85943,32.67356,-56.96799,-0.4675641,6.957485,-72.28677,-8.594284,-36.90935,0,0,0,-10.92762,-96.94583,-61.9962,-125.3346,-110.1062,-86.85717,0.001067912,-0.1257102,0.09433498,0,0.3,0,0,0.03509222,0
638224246842862309,-5.86643,4.044429,-11.90711,-16.40071,31.83705,33.33276,-56.96799,-0.4675641,6.957485,-72.28677,-8.594284,-36.83611,0,0,0,-10.78358,-97.72559,-63.39814,-125.3346,-110.1062,-86.85717,0.001067912,-0.1257102,0.09433498,0,0.3,0,0,0.03609799,0
638224246843212191,-5.86643,3.810647,-12.14058,-16.69369,32.71599,34.57793,-56.96799,-0.4675641,6.957485,-72.28677,-8.594284,-36.83611,0,0,0,-10.73306,-98.15521,-63.88974,-125.3346,-110.1062,-86.85717,0.001067912,-0.1257102,0.09433498,0,0.3,0,0,0.03659853,0
638224246843552080,-5.86643,3.483352,-12.30401,-18.08535,34.10765,37.06827,-56.96799,-0.4675641,6.957485,-72.28677,-8.594284,-36.90935,0,0,0,-10.70002,-98.83489,-64.21134,-125.3346,-110.1062,-86.85717,0.001067912,-0.1257102,0.09433498,0,0.3,0,0,0.03758876,0
638224246843891972,-5.86643,3.436596,-12.42074,-19.98972,34.54712,38.53317,-56.96799,-0.4675641,6.957485,-72.28677,-8.521038,-36.83611,0,0,0,-10.67357,-98.88535,-64.46881,-125.3346,-110.1062,-86.85717,0.001067912,-0.1257102,0.09433498,0,0.3,0,0,0.03855981,0
638224246844231852,-5.86643,3.436596,-12.49079,-21.01515,34.25414,39.19238,-56.96799,-0.4675641,6.957485,-72.28677,-8.594284,-36.83611,0,0,0,-10.6573,-98.85018,-64.62716,-125.3346,-110.1062,-86.85717,0.001067912,-0.1257102,0.09433498,0,0.3,0,0,0.03903751,0
638224246844601745,-5.86643,3.343083,-12.56083,-23.06602,32.93573,40.80377,-56.96799,-0.4675641,6.957485,-72.28677,-8.594284,-36.83611,0,0,0,-10.64235,-99.03209,-64.77265,-125.3346,-110.1062,-86.85717,0.001067912,-0.1257102,0.09433498,0,0.3,0,0,0.03997852,0
638224246844911653,-5.86643,2.758628,-12.56083,-24.31118,31.69056,41.68271,-56.96799,-0.4675641,6.957485,-72.21353,-8.521038,-36.90935,0,0,0,-10.64975,-100.3904,-64.70064,-125.3346,-110.1062,-86.85717,0.001067912,-0.1257102,0.09433498,0,0.3,0,0,0.04090606,0
638224246845251544,-5.86643,1.8235,-12.53748,-25.11688,30.88486,42.12218,-56.96799,-0.4675641,6.957485,-72.28677,-8.521038,-36.90935,0,0,0,-10.66406,-102.5769,-64.56133,-125.3346,-110.1062,-86.85717,0.001067912,-0.1257102,0.09433498,0,0.3,0,0,0.04182503,0
638224246845591434,-5.86643,1.379314,-12.42074,-25.48311,30.59188,42.26867,-56.96799,-0.4675641,6.957485,-72.28677,-8.521038,-36.83611,0,0,0,-10.69413,-103.669,-64.26871,-125.3346,-110.1062,-86.85717,0.001067912,-0.1257102,0.09433498,0,0.3,0,0,0.04228006,0
638224246845931319,-5.86643,1.075397,-11.9538,-26.4353,29.93268,41.60947,-56.96799,-0.4675641,6.957485,-72.28677,-8.594284,-36.90935,0,0,0,-10.80425,-104.6056,-63.19693,-125.3346,-110.1062,-86.85717,0.001067912,-0.1257102,0.09433498,0,0.3,0,0,0.04317254,0
638224246846271223,-5.86643,1.075397,-10.99656,-27.68046,28.834,39.33887,-56.96799,-0.4675641,6.957485,-72.28677,-8.594284,-36.83611,0,0,0,-11.02741,-105.0488,-61.02505,-125.3346,-110.1062,-86.85717,0.001067912,-0.1257102,0.09433498,0,0.3,0,0,0.04403087,0
638224246846601113,-5.819311,1.052019,-10.50627,-28.48616,28.17479,38.02045,-56.96799,-0.4675641,6.957485,-72.28677,-8.594284,-36.83611,0,0,0,-11.05291,-105.3161,-59.89972,-125.3346,-110.1062,-86.85717,0.001067912,-0.1257102,0.09433498,0,0.3,0,0,0.04444188,0
638224246846940990,-5.536591,1.075397,-9.432296,-29.87782,27.14936,35.8231,-56.96799,-0.4675641,6.957485,-72.28677,-8.594284,-36.83611,0,0,0,-10.75506,-105.6944,-57.3972,-125.3346,-110.1062,-86.85717,0.001067912,-0.1257102,0.09433498,0,0.3,0,0,0.04520325,0
638224246847280895,-4.570632,1.402692,-8.148195,-30.53703,26.49015,34.65118,-56.96799,-0.4675641,6.957485,-72.28677,-8.594284,-36.83611,0,0,0,-9.11709,-105.3895,-54.30402,-125.3346,-110.1062,-86.85717,0.001067912,-0.1257102,0.09433498,0,0.3,0,0,0.04579476,0
638224246847630777,-3.816714,1.8235,-7.587861,-30.1708,26.19717,34.3582,-56.96799,-0.4675641,6.957485,-72.28677,-8.521038,-36.83611,0,0,0,-7.699841,-104.589,-52.93247,-125.3346,-110.1062,-86.85717,0.001067912,-0.1257102,0.09433498,0,0.3,0,0,0.04598844,0
638224246847970689,-2.214636,3.085923,-6.583929,-28.77914,25.61121,34.79766,-56.96799,-0.4675641,6.957485,-72.28677,-8.521038,-36.90935,0,0,0,-4.55474,-101.9419,-50.57112,-125.3346,-110.1062,-86.85717,0.001067912,-0.1257102,0.09433498,0,0.3,0,0,0.04614564,0
638224246848310554,-0.4005193,4.605506,-5.766775,-26.4353,24.65902,35.8231,-56.96799,-0.4675641,6.957485,-72.28677,-8.594284,-36.90935,0,0,0,-0.8354871,-98.61784,-48.83241,-125.3346,-110.1062,-86.85717,0.001067912,-0.1257102,0.09433498,0,0.3,0,0,0.04598695,0
638224246848650452,1.719877,6.288737,-5.253135,-23.79847,23.78008,36.99502,-56.96799,-0.4675641,6.957485,-72.28677,-8.594284,-36.83611,0,0,0,3.611723,-94.83291,-48.06565,-125.3346,-110.1062,-86.85717,0.001067912,-0.1257102,0.09433498,0,0.3,0,0,0.04546649,0
638224246848990334,2.827195,7.247243,-5.019662,-22.04058,23.26737,37.58098,-56.96799,-0.4675641,6.957485,-72.28677,-8.594284,-36.90935,0,0,0,5.949287,-92.6663,-47.87994,-125.3346,-110.1062,-86.85717,0.001067912,-0.1257102,0.09433498,0,0.3,0,0,0.04506895,0
638224246849330235,5.230311,9.281147,-4.576064,-18.23184,22.09544,38.89939,-56.96799,-0.4675641,6.957485,-72.21353,-8.594284,-36.83611,0,0,0,11.02713,-88.06835,-47.88836,-125.3346,-110.1062,-86.85717,0.001067912,-0.1257102,0.09433498,0,0.3,0,0,0.04397868,0
638224246849660139,7.751227,11.36181,-4.179161,-14.34984,20.92352,40.07132,-56.96799,-0.4675641,6.957485,-72.28677,-8.594284,-36.90935,0,0,0,16.32206,-83.37496,-48.43699,-125.3346,-110.1062,-86.85717,0.001067912,-0.1257102,0.09433498,0,0.3,0,0,0.04249379,0
638224246850000028,8.976345,12.36707,-4.039077,-12.29898,20.19107,40.58403,-56.96799,-0.4675641,6.957485,-72.28677,-8.594284,-36.83611,0,0,0,18.85784,-81.1087,-48.96729,-125.3346,-110.1062,-86.85717,0.001067912,-0.1257102,0.09433498,0,0.3,0,0,0.04161102,0
638224246850339913,11.33234,14.21395,-3.712215,-8.343738,18.72616,41.38973,-56.96799,-0.4675641,6.957485,-72.28677,-8.594284,-36.83611,0,0,0,23.7045,-76.97701,-50.06807,-125.3346,-110.1062,-86.85717,0.001067912,-0.1257102,0.09433498,0,0.3,0,0,0.03958168,0
638224246850679806,13.61766,15.82704,-3.198575,-4.608234,17.33451,41.68271,-56.96799,-0.4675641,6.957485,-72.28677,-8.594284,-36.83611,0,0,0,28.45409,-73.42313,-50.89326,-125.3346,-110.1062,-86.85717,0.001067912,-0.1257102,0.09433498,0,0.3,0,0,0.03723029,0
638224246851019705,14.84277,16.50501,-2.895061,-2.70386,16.60205,41.75596,-56.96799,-0.4675641,6.957485,-72.28677,-8.594284,-36.90935,0,0,0,31.02706,-71.94518,-51.27128,-125.3346,-110.1062,-86.85717,0.001067912,-0.1257102,0.09433498,0,0.3,0,0,0.03592783,0
638224246851359590,17.29301,17.79081,-2.241338,1.178134,15.13715,42.04893,-56.96799,-0.4675641,6.957485,-72.28677,-8.521038,-36.83611,0,0,0,36.19354,-69.15387,-52.09597,-125.3346,-110.1062,-86.85717,0.001067912,-0.1257102,0.09433498,0,0.3,0,0,0.03307316,0
638224246851699486,19.69613,18.88959,-1.610961,4.840393,13.81874,42.26867,-56.96799,-0.4675641,6.957485,-72.28677,-8.594284,-36.90935,0,0,0,41.25924,-66.77583,-53.09288,-125.3346,-110.1062,-86.85717,0.001067912,-0.1257102,0.09433498,0,0.3,0,0,0.02990295,0
638224246852049363,22.05212,19.82472,-0.8171543,8.35616,12.57357,42.48841,-56.96799,-0.4675641,6.957485,-72.28677,-8.594284,-36.90935,0,0,0,46.38503,-64.76162,-53.84306,-125.3346,-110.1062,-86.85717,0.001067912,-0.1257102,0.09433498,0,0.3,0,0,0.02642829,0
638224246852389261,23.3008,20.33904,-0.3035145,10.33378,11.98761,42.85464,-56.96799,-0.4675641,6.957485,-72.28677,-8.521038,-36.83611,0,0,0,49.17959,-63.64906,-54.16067,-125.3346,-110.1062,-86.85717,0.001067912,-0.1257102,0.09433498,0,0.3,0,0,0.02456784,0
638224246852719164,25.51544,21.27416,0.5603344,13.92279,10.88893,43.51384,-56.96799,-0.4675641,6.957485,-72.28677,-8.594284,-36.90935,0,0,0,54.0885,-61.6101,-55.02969,-125.3346,-110.1062,-86.85717,0.001067912,-0.1257102,0.09433498,0,0.3,0,0,0.02063307,0
638224246853069037,27.80075,22.18591,1.517572,17.36532,9.790254,44.17305,-56.96799,-0.4675641,6.957485,-72.28677,-8.521038,-36.83611,0,0,0,59.23669,-59.59851,-56.00121,-125.3346,-110.1062,-86.85717,0.001067912,-0.1257102,0.09433498,0,0.3,0,0,0.01641621,0
638224246853418933,28.93163,22.58335,2.031212,19.04996,9.277537,44.31954,-56.96799,-0.4675641,6.957485,-72.28677,-8.594284,-36.83611,0,0,0,61.85012,-58.70622,-56.45475,-125.3346,-110.1062,-86.85717,0.001067912,-0.1257102,0.09433498,0,0.3,0,0,0.01420289,0
638224246853758813,31.09915,23.14442,2.98845,22.34599,8.325351,44.68576,-56.96799,-0.4675641,6.957485,-72.28677,-8.521038,-36.83611,0,0,0,66.92545,-57.40542,-57.40269,-125.3346,-110.1062,-86.85717,0.001067912,-0.1257102,0.09433498,0,0.3,0,0,0.009580967,0
638224246854088717,33.2431,23.40158,3.805604,25.86176,7.519653,44.75901,-56.96799,-0.4675641,6.957485,-72.28677,-8.594284,-36.90935,0,0,0,71.94028,-56.74291,-58.59404,-125.3346,-110.1062,-86.85717,0.001067912,-0.1257102,0.09433498,0,0.3,0,0,0.004677082,0
638224246854428615,34.3033,23.40158,4.225855,27.54639,7.226673,44.75901,-56.96799,-0.4675641,6.957485,-72.21353,-8.521038,-36.90935,0,0,0,74.50864,-56.67442,-59.13795,-125.3346,-110.1062,-86.85717,0.001067912,-0.1257102,0.09433498,0,0.3,0,0,0.002158276,0
638224246854768503,36.32946,23.40158,5.159746,30.76918,6.787202,44.75901,-56.96799,-0.4675641,6.957485,-72.28677,-8.594284,-36.90935,0,0,0,79.60665,-56.49659,-60.09538,-125.3346,-110.1062,-86.85717,0.001067912,-0.1257102,0.09433498,0,0.3,0,0,0,0
638224246855098398,38.12002,23.30807,6.023595,33.69899,6.494221,44.75901,-56.96799,-0.4675641,6.957485,-72.28677,-8.594284,-36.83611,0,0,0,84.23877,-56.5005,-60.99358,-125.3346,-110.1062,-86.85717,0.001067912,-0.1257102,0.09433498,0,0.3,0,0,0,0
638224246855438294,38.94461,23.14442,6.373804,35.09065,6.494221,44.75901,-56.96799,-0.4675641,6.957485,-72.28677,-8.594284,-36.90935,0,0,0,86.37881,-56.7625,-61.46997,-125.3346,-110.1062,-86.85717,0.001067912,-0.1257102,0.09433498,0,0.3,0,0,0,0
638224246855778175,40.52313,22.46645,6.840749,37.72747,6.787202,44.83226,-56.96799,-0.4675641,6.957485,-72.28677,-8.521038,-36.83611,0,0,0,90.38906,-58.092,-62.60449,-125.3346,-110.1062,-86.85717,0.001067912,-0.1257102,0.09433498,0,0.3,0,0,0,0
638224246856118080,41.74825,21.62484,7.00418,39.63185,7.373164,44.75901,-56.96799,-0.4675641,6.957485,-72.28677,-8.594284,-36.90935,0,0,0,93.37029,-59.86169,-63.731,-125.3346,-110.1062,-86.85717,0.001067912,-0.1257102,0.09433498,0,0.3,0,0,0,0
638224246856457956,43.13829,20.17539,7.120916,41.60947,8.398596,44.68576,-56.96799,-0.4675641,6.957485,-72.28677,-8.594284,-36.83611,0,0,0,96.8879,-62.97968,-64.95192,-125.3346,-110.1062,-86.85717,0.001067912,-0.1257102,0.09433498,0,0.3,0,0,0,0
638224246856787863,43.86865,19.1935,7.144264,42.41516,9.204292,44.68576,-56.96799,-0.4675641,6.957485,-72.28677,-8.521038,-36.83611,0,0,0,98.76883,-65.1246,-65.60152,-125.3346,-110.1062,-86.85717,0.001067912,-0.1257102,0.09433498,0,0.3,0,0,0,0
638224246857127749,45.32936,17.01933,7.354388,43.73357,11.10867,44.17305,-56.96799,-0.4675641,6.957485,-72.28677,-8.594284,-36.83611,0,0,0,102.8193,-69.87218,-66.70609,-125.3346,-110.1062,-86.85717,0.001067912,-0.1257102,0.09433498,0,0.3,0,0,0,0
638224246857467648,46.8372,14.54124,7.77464,44.75901,13.15953,43.07437,-56.96799,-0.4675641,6.957485,-72.28677,-8.521038,-36.83611,0,0,0,107.3095,-75.29313,-67.71072,-125.3346,-110.1062,-86.85717,0.001067912,-0.1257102,0.09433498,0,0.3,0,0,0,0
638224246857817528,47.52044,13.3022,8.054807,45.27173,14.33146,42.41516,-56.96799,-0.4675641,6.957485,-72.28677,-8.594284,-36.90935,0,0,0,109.49,-78.00233,-68.09278,-125.3346,-110.1062,-86.85717,0.001067912,-0.1257102,0.09433498,0,0.3,0,0,0,0
638224246858157422,48.86336,10.77735,8.871961,45.93093,16.89503,40.80377,-56.96799,-0.4675641,6.957485,-72.21353,-8.521038,-36.90935,0,0,0,114.1494,-83.46901,-68.64254,-125.3346,-110.1062,-86.85717,0.001067912,-0.1257102,0.09433498,0,0.3,0,0,0,0
638224246858497318,50.08848,8.766827,10.06267,46.59014,19.23888,38.97264,-56.96799,-0.4675641,6.957485,-72.21353,-8.594284,-36.83611,0,0,0,118.9609,-87.62435,-68.84258,-125.3346,-110.1062,-86.85717,0.001067912,-0.1257102,0.09433498,0,0.3,0,0,0,0
638224246858837206,50.65392,7.901833,10.73974,46.88312,20.19107,38.02045,-56.96799,-0.4675641,6.957485,-72.28677,-8.594284,-36.83611,0,0,0,121.3614,-89.33176,-68.85376,-125.3346,-110.1062,-86.85717,0.001067912,-0.1257102,0.09433498,0,0.3,0,0,0,0
638224246859167103,51.66699,6.405628,12.07054,47.61557,22.0222,36.33582,-56.96799,-0.4675641,6.957485,-72.28677,-8.521038,-36.90935,0,0,0,125.8232,-92.17435,-68.86304,-125.3346,-110.1062,-86.85717,0.001067912,-0.1257102,0.09433498,0,0.3,0,0,0,0
638224246859506997,52.63295,5.376987,13.28459,48.34802,23.70683,34.57793,-56.96799,-0.4675641,6.957485,-72.28677,-8.594284,-36.83611,0,0,0,129.8687,-93.93563,-69.17615,-125.3346,-110.1062,-86.85717,0.001067912,-0.1257102,0.09433498,0,0.3,0,0,0,0
638224246859836890,53.03347,5.096448,13.86828,48.56776,24.21955,33.77223,-56.96799,-0.4675641,6.957485,-72.28677,-8.521038,-36.90935,0,0,0,131.6615,-94.26694,-69.25648,-125.3346,-110.1062,-86.85717,0.001067912,-0.1257102,0.09433498,0,0.3,0,0,0,0
638224246860186772,53.81095,4.745775,15.24576,49.30021,25.39147,32.16084,-56.96799,-0.4675641,6.957485,-72.28677,-8.594284,-36.83611,0,0,0,135.5548,-94.27431,-69.17865,-125.3346,-110.1062,-86.85717,0.001067912,-0.1257102,0.09433498,0,0.3,0,0,0,0
638224246860516672,54.51775,4.699019,16.66995,50.2524,26.27042,30.84243,-56.96799,-0.4675641,6.957485,-72.21353,-8.521038,-36.83611,0,0,0,139.3702,-93.47149,-69.00336,-125.3346,-110.1062,-86.85717,0.001067912,-0.1257102,0.09433498,0,0.3,0,0,0,0
638224246860856550,55.17743,4.699019,18.21087,51.42432,26.78313,29.74375,-56.96799,-0.4675641,6.957485,-72.28677,-8.521038,-36.83611,0,0,0,143.3134,-92.39664,-68.66083,-125.3346,-110.1062,-86.85717,0.001067912,-0.1257102,0.09433498,0,0.3,0,0,0,0
638224246861196455,55.27167,4.722397,18.98133,52.01028,27.00287,29.23104,-56.96799,-0.4675641,6.957485,-72.21353,-8.521038,-36.83611,0,0,0,144.8703,-91.77059,-67.93103,-125.3346,-110.1062,-86.85717,0.001067912,-0.1257102,0.09433498,0,0.3,0,0,0,0
638224246861536345,55.27167,4.792531,20.77907,53.1822,27.2226,28.64507,-56.96799,-0.4675641,6.957485,-72.28677,-8.594284,-36.90935,0,0,0,148.0928,-90.18518,-65.69729,-125.3346,-110.1062,-86.85717,0.001067912,-0.1257102,0.09433498,0,0.3,0,0,0,0
638224246861876246,55.27167,5.166583,22.43672,54.57386,27.51558,28.49858,-56.96799,-0.4675641,6.957485,-72.21353,-8.521038,-36.83611,0,0,0,150.9786,-87.89722,-63.697,-125.3346,-110.1062,-86.85717,0.001067912,-0.1257102,0.09433498,0,0.3,0,0,0,0
638224246862216125,55.27167,5.540634,23.13714,55.37956,27.44234,28.49858,-56.96799,-0.4675641,6.957485,-72.28677,-8.594284,-36.90935,0,0,0,152.147,-86.39909,-62.88709,-125.3346,-110.1062,-86.85717,0.001067912,-0.1257102,0.09433498,0,0.3,0,0,0,0
638224246862556021,55.27167,6.849813,24.16442,57.0642,26.5634,28.49858,-56.96799,-0.4675641,6.957485,-72.28677,-8.594284,-36.83611,0,0,0,153.6767,-82.41086,-61.82677,-125.3346,-110.1062,-86.85717,0.001067912,-0.1257102,0.09433498,0,0.3,0,0,0,0
638224246862895896,55.22455,8.836961,24.7948,59.11506,24.95201,28.57183,-56.96799,-0.4675641,6.957485,-72.28677,-8.594284,-36.90935,0,0,0,154.1674,-77.22154,-61.29881,-125.3346,-110.1062,-86.85717,0.001067912,-0.1257102,0.09433498,0,0.3,0,0,0,0
638224246863235809,55.22455,10.05263,24.91153,60.28699,23.85333,28.86481,-56.96799,-0.4675641,6.957485,-72.28677,-8.521038,-36.83611,0,0,0,153.9885,-74.31641,-61.423,-125.3346,-110.1062,-86.85717,0.001067912,-0.1257102,0.09433498,0,0.3,0,0,0,0
638224246863565701,55.15387,12.46058,25.00492,62.19136,21.50948,29.37753,-56.96799,-0.4675641,6.957485,-72.28677,-8.594284,-36.90935,0,0,0,153.1205,-68.72865,-61.74556,-125.3346,-110.1062,-86.85717,0.001067912,-0.1257102,0.09433498,0,0.3,0,0,0,0
638224246863905593,54.98895,15.03218,25.00492,63.58302,18.65292,29.817,-56.96799,-0.4675641,6.957485,-72.28677,-8.521038,-36.90935,0,0,0,151.6482,-62.91544,-62.12116,-125.3346,-110.1062,-86.85717,0.001067912,-0.1257102,0.09433498,0,0.3,0,0,0,0
638224246864245484,54.82403,17.25311,24.91153,64.82819,16.08934,30.25646,-56.96799,-0.4675641,6.957485,-72.21353,-8.521038,-36.90935,0,0,0,150.0061,-58.04227,-62.62649,-125.3346,-110.1062,-86.85717,0.001067912,-0.1257102,0.09433498,0,0.3,0,0,0,0
638224246864585379,54.70623,18.18824,24.7948,65.3409,14.84417,30.54945,-56.96799,-0.4675641,6.957485,-72.28677,-8.521038,-36.83611,0,0,0,149.0466,-56.08334,-62.84348,-125.3346,-110.1062,-86.85717,0.001067912,-0.1257102,0.09433498,0,0.3,0,0,0,0
638224246864925268,54.51775,19.70782,24.3045,66.1466,12.57357,31.13541,-56.96799,-0.4675641,6.957485,-72.21353,-8.594284,-36.90935,0,0,0,146.9184,-53.21251,-63.62279,-125.3346,-110.1062,-86.85717,0.001067912,-0.1257102,0.09433498,0,0.3,0,0,0,0
638224246865265151,54.30571,20.90011,23.34727,66.58607,10.44946,31.9411,-56.96799,-0.4675641,6.957485,-72.28677,-8.594284,-36.90935,0,0,0,144.0927,-51.51001,-64.83068,-125.3346,-110.1062,-86.85717,0.001067912,-0.1257102,0.09433498,0,0.3,0,0,0,0
638224246865605064,54.18791,21.36768,22.57681,66.58607,9.424027,32.38057,-56.96799,-0.4675641,6.957485,-72.28677,-8.594284,-36.83611,0,0,0,142.2224,-51.19455,-65.73031,-125.3346,-110.1062,-86.85717,0.001067912,-0.1257102,0.09433498,0,0.3,0,0,0,0
638224246865944943,53.99943,21.74173,20.82576,66.29308,7.592898,33.47925,-56.96799,-0.4675641,6.957485,-72.28677,-8.521038,-36.90935,0,0,0,138.5621,-51.89175,-67.67662,-125.3346,-110.1062,-86.85717,0.001067912,-0.1257102,0.09433498,0,0.3,0,0,0,0
638224246866284826,53.85807,21.71835,18.65447,65.3409,6.420976,34.72442,-56.96799,-0.4675641,6.957485,-72.28677,-8.521038,-36.83611,0,0,0,134.4887,-53.64902,-70.12834,-125.3346,-110.1062,-86.85717,0.001067912,-0.1257102,0.09433498,0,0.3,0,0,0,0
638224246866614736,53.76383,21.64822,17.39371,64.68169,6.05475,35.60336,-56.96799,-0.4675641,6.957485,-72.28677,-8.594284,-36.83611,0,0,0,132.125,-54.7086,-71.52096,-125.3346,-110.1062,-86.85717,0.001067912,-0.1257102,0.09433498,0,0.3,0,0,0,0
638224246866964618,53.50467,21.06376,15.05899,62.92381,5.542034,37.36125,-56.96799,-0.4675641,6.957485,-72.21353,-8.521038,-36.83611,0,0,0,127.8899,-57.49373,-73.73257,-125.3346,-110.1062,-86.85717,0.001067912,-0.1257102,0.09433498,0,0.3,0,0,0,0
638224246867294511,53.24551,19.7312,13.44803,61.31242,5.688524,39.26562,-56.96799,-0.4675641,6.957485,-72.28677,-8.594284,-36.90935,0,0,0,125.4152,-61.3237,-74.68269,-125.3346,-110.1062,-86.85717,0.001067912,-0.1257102,0.09433498,0,0.3,0,0,0,0
638224246867644405,53.15127,18.93634,12.77096,60.65321,6.127995,40.21781,-56.96799,-0.4675641,6.957485,-72.21353,-8.594284,-36.90935,0,0,0,124.523,-63.42672,-75.02962,-125.3346,-110.1062,-86.85717,0.001067912,-0.1257102,0.09433498,0,0.3,0,0,0,0
638224246867984295,52.9628,17.32325,11.5102,59.48129,7.299919,42.12218,-56.96799,-0.4675641,6.957485,-72.28677,-8.594284,-36.83611,0,0,0,122.858,-67.61163,-75.64471,-125.3346,-110.1062,-86.85717,0.001067912,-0.1257102,0.09433498,0,0.3,0,0,0,0
638224246868324167,52.89211,15.56988,10.52962,58.5291,8.838067,43.80682,-56.96799,-0.4675641,6.957485,-72.28677,-8.594284,-36.83611,0,0,0,121.8784,-71.96152,-76.1477,-125.3346,-110.1062,-86.85717,0.001067912,-0.1257102,0.09433498,0,0.3,0,0,0,0
638224246868664058,52.82143,13.72301,9.549031,57.7234,10.6692,45.27173,-56.96799,-0.4675641,6.957485,-72.28677,-8.594284,-36.83611,0,0,0,120.84,-76.51792,-76.69865,-125.3346,-110.1062,-86.85717,0.001067912,-0.1257102,0.09433498,0,0.3,0,0,0,0
638224246869013963,52.70363,12.78788,8.895308,57.28393,11.69463,45.93093,-56.96799,-0.4675641,6.957485,-72.28677,-8.521038,-36.83611,0,0,0,119.8536,-78.88016,-77.05802,-125.3346,-110.1062,-86.85717,0.001067912,-0.1257102,0.09433498,0,0.3,0,0,0,0
638224246869353854,52.27955,11.36181,7.587861,56.33175,13.30602,47.02961,-56.96799,-0.4675641,6.957485,-72.28677,-8.521038,-36.83611,0,0,0,117.3417,-82.56186,-77.59109,-125.3346,-110.1062,-86.85717,0.001067912,-0.1257102,0.09433498,0,0.3,0,0,0,0
638224246869693745,51.61988,10.28641,6.163678,55.23307,14.77092,48.34802,-56.96799,-0.4675641,6.957485,-72.28677,-8.521038,-36.90935,0,0,0,114.0779,-85.41698,-77.99741,-125.3346,-110.1062,-86.85717,0.001067912,-0.1257102,0.09433498,0,0.3,0,0,0,0
638224246870033631,51.12512,9.865602,5.323177,54.64711,15.35689,49.00723,-56.96799,-0.4675641,6.957485,-72.28677,-8.521038,-36.83611,0,0,0,111.9115,-86.57702,-78.12974,-125.3346,-110.1062,-86.85717,0.001067912,-0.1257102,0.09433498,0,0.3,0,0,0,0
638224246870373528,49.85288,9.094121,3.455395,52.96247,16.6753,50.2524,-56.96799,-0.4675641,6.957485,-72.28677,-8.594284,-36.90935,0,0,0,106.7939,-88.6807,-78.27098,-125.3346,-110.1062,-86.85717,0.001067912,-0.1257102,0.09433498,0,0.3,0,0,0,0
638224246870703422,48.29792,8.649935,1.774392,50.83836,17.92047,51.49756,-56.96799,-0.4675641,6.957485,-72.21353,-8.521038,-36.83611,0,0,0,101.5114,-89.88062,-77.90007,-125.3346,-110.1062,-86.85717,0.001067912,-0.1257102,0.09433498,0,0.3,0,0,0,0
638224246871043326,46.20108,8.556422,0.09338906,48.49451,18.79941,52.96247,-56.96799,-0.4675641,6.957485,-72.28677,-8.594284,-36.90935,0,0,0,95.33409,-90.15958,-76.93136,-125.3346,-110.1062,-86.85717,0.001067912,-0.1257102,0.09433498,0,0.3,0,0,0,0
638224246871383201,44.97597,8.556422,-0.7471125,47.10286,19.16564,53.62167,-56.96799,-0.4675641,6.957485,-72.28677,-8.521038,-36.83611,0,0,0,91.97509,-90.14841,-76.29771,-125.3346,-110.1062,-86.85717,0.001067912,-0.1257102,0.09433498,0,0.3,0,0,0,0
638224246871723095,42.36081,8.533044,-2.077907,43.73357,19.67835,54.72035,-56.96799,-0.4675641,6.957485,-72.28677,-8.594284,-36.83611,0,0,0,85.5984,-90.12587,-74.47893,-125.3346,-110.1062,-86.85717,0.001067912,-0.1257102,0.09433498,0,0.3,0,0,0,0
638224246872062976,39.93414,8.533044,-2.98845,40.43755,20.11782,55.52605,-56.96799,-0.4675641,6.957485,-72.28677,-8.594284,-36.83611,0,0,0,80.18807,-90.03221,-72.56216,-125.3346,-110.1062,-86.85717,0.001067912,-0.1257102,0.09433498,0,0.3,0,0,0,0
638224246872402881,38.59122,8.533044,-3.455395,38.67966,20.4108,55.96552,-56.96799,-0.4675641,6.957485,-72.28677,-8.594284,-36.90935,0,0,0,77.24434,-89.97113,-71.55726,-125.3346,-110.1062,-86.85717,0.001067912,-0.1257102,0.09433498,0,0.3,0,0,0,0
638224246872742770,36.14098,8.533044,-4.27255,35.38363,20.77703,56.33175,-56.96799,-0.4675641,6.957485,-72.28677,-8.521038,-36.83611,0,0,0,71.91656,-89.84297,-69.87579,-125.3346,-110.1062,-86.85717,0.001067912,-0.1257102,0.09433498,0,0.3,0,0,0,0
638224246873082664,33.66718,8.533044,-4.716148,31.64813,21.07001,56.55148,-56.96799,-0.4675641,6.957485,-72.28677,-8.521038,-36.83611,0,0,0,67.02857,-89.76207,-67.72009,-125.3346,-110.1062,-86.85717,0.001067912,-0.1257102,0.09433498,0,0.3,0,0,0,0
638224246873432552,32.63055,8.556422,-4.762842,29.96349,21.14326,56.55148,-56.96799,-0.4675641,6.957485,-72.28677,-8.521038,-36.83611,0,0,0,65.13427,-89.69928,-66.62191,-125.3346,-110.1062,-86.85717,0.001067912,-0.1257102,0.09433498,0,0.3,0,0,0,0
638224246873772449,30.74575,8.696692,-4.762842,26.52096,20.99677,56.69797,-56.96799,-0.4675641,6.957485,-72.28677,-8.521038,-36.90935,0,0,0,61.72816,-89.37651,-64.57677,-125.3346,-110.1062,-86.85717,0.001067912,-0.1257102,0.09433498,0,0.3,0,0,0,0
638224246874112340,29.19079,9.094121,-4.692801,23.81089,20.55729,56.62473,-56.96799,-0.4675641,6.957485,-72.28677,-8.594284,-36.90935,0,0,0,58.89894,-88.4761,-62.92298,-125.3346,-110.1062,-86.85717,0.001067912,-0.1257102,0.09433498,0,0.3,0,0,0,0
638224246874452229,28.20127,9.795467,-4.412633,21.32055,20.04458,56.47824,-56.96799,-0.4675641,6.957485,-72.28677,-8.521038,-36.83611,0,0,0,57.25007,-86.91769,-61.58476,-125.3346,-110.1062,-86.85717,0.001067912,-0.1257102,0.09433498,0,0.3,0,0,0,0
638224246874782123,27.87143,10.30979,-4.202508,20.29512,19.7516,56.40499,-56.96799,-0.4675641,6.957485,-72.28677,-8.594284,-36.90935,0,0,0,56.7648,-85.77577,-61.01057,-125.3346,-110.1062,-86.85717,0.001067912,-0.1257102,0.09433498,0,0.3,0,0,0,0
638224246875122014,27.47091,11.64235,-3.735562,18.68373,18.72616,56.18526,-56.96799,-0.4675641,6.957485,-72.28677,-8.521038,-36.83611,0,0,0,56.24081,-82.8064,-60.17838,-125.3346,-110.1062,-86.85717,0.001067912,-0.1257102,0.09433498,0,0.3,0,0,0,0
638224246875461906,27.25887,13.27882,-3.151881,17.51181,17.40775,55.89228,-56.96799,-0.4675641,6.957485,-72.28677,-8.594284,-36.83611,0,0,0,56.08479,-79.16912,-59.49609,-125.3346,-110.1062,-86.85717,0.001067912,-0.1257102,0.09433498,0,0.3,0,0,0,0
638224246875801801,27.18819,14.16719,-2.801672,16.92585,16.74854,55.59929,-56.96799,-0.4675641,6.957485,-72.28677,-8.521038,-36.83611,0,0,0,56.09827,-77.2029,-59.13924,-125.3346,-110.1062,-86.85717,0.001067912,-0.1257102,0.09433498,0,0.3,0,0,0,0
638224246876141672,26.88192,16.0842,-2.124601,16.12015,15.2104,55.01333,-56.96799,-0.4675641,6.957485,-72.28677,-8.594284,-36.90935,0,0,0,55.69914,-72.96375,-58.47506,-125.3346,-110.1062,-86.85717,0.001067912,-0.1257102,0.09433498,0,0.3,0,0,0,0
638224246876481576,26.2458,18.00122,-1.54092,15.24121,13.81874,54.06115,-56.96799,-0.4675641,6.957485,-72.28677,-8.521038,-36.83611,0,0,0,54.49805,-68.74167,-57.81844,-125.3346,-110.1062,-86.85717,0.001067912,-0.1257102,0.09433498,0,0.3,0,0,0,0
638224246876821456,25.84528,19.02986,-1.237405,14.582,13.01304,53.40194,-56.96799,-0.4675641,6.957485,-72.28677,-8.594284,-36.90935,0,0,0,53.7005,-66.48869,-57.48884,-125.3346,-110.1062,-86.85717,0.001067912,-0.1257102,0.09433498,0,0.3,0,0,0,0
638224246877161366,24.99712,20.97025,-0.5603344,13.26359,11.54814,52.23001,-56.96799,-0.4675641,6.957485,-72.21353,-8.521038,-36.83611,0,0,0,52.06672,-62.26991,-56.67789,-125.3346,-110.1062,-86.85717,0.001067912,-0.1257102,0.09433498,0,0.3,0,0,0,0
638224246877501255,24.1254,22.81713,0.2334726,11.94517,10.00999,51.49756,-56.96799,-0.4675641,6.957485,-72.28677,-8.594284,-36.90935,0,0,0,50.46177,-58.28695,-55.67533,-125.3346,-110.1062,-86.85717,0.001067912,-0.1257102,0.09433498,0,0.3,0,0,0,0
638224246877841134,23.70132,23.7055,0.6537234,11.35921,9.204292,51.20458,-56.96799,-0.4675641,6.957485,-72.28677,-8.521038,-36.83611,0,0,0,49.69135,-56.37987,-55.15702,-125.3346,-110.1062,-86.85717,0.001067912,-0.1257102,0.09433498,0,0.3,0,0,0,0
638224246878191028,22.75892,25.66927,1.610961,10.33378,7.592898,50.83836,-56.96799,-0.4675641,6.957485,-72.28677,-8.594284,-36.83611,0,0,0,47.94616,-52.18332,-54.06128,-125.3346,-110.1062,-86.85717,0.001067912,-0.1257102,0.09433498,0,0.3,0,0,0,0
638224246878520929,21.62804,27.70317,2.684936,9.235103,5.835015,50.61862,-56.96799,-0.4675641,6.957485,-72.28677,-8.594284,-36.83611,0,0,0,45.81829,-47.86039,-52.7915,-125.3346,-110.1062,-86.85717,0.001067912,-0.1257102,0.09433498,0,0.3,0,0,0,0
638224246878860803,20.66209,29.83059,3.805604,7.989935,4.370111,50.61862,-56.96799,-0.4675641,6.957485,-72.28677,-8.521038,-36.83611,0,0,0,43.94175,-43.37272,-51.8284,-125.3346,-110.1062,-86.85717,0.001067912,-0.1257102,0.09433498,0,0.3,0,0,0,0
638224246879210724,20.37937,31.02288,4.412633,7.403974,3.417924,50.54538,-56.96799,-0.4675641,6.957485,-72.28677,-8.594284,-36.83611,0,0,0,43.3676,-40.87877,-51.60938,-125.3346,-110.1062,-86.85717,0.001067912,-0.1257102,0.09433498,0,0.3,0,0,0,0
638224246879540598,20.37937,33.33732,5.486608,6.598277,1.51355,50.54538,-56.96799,-0.4675641,6.957485,-72.28677,-8.521038,-36.83611,0,0,0,43.23582,-36.1043,-51.96411,-125.3346,-110.1062,-86.85717,0.001067912,-0.1257102,0.09433498,0,0.3,0,0,0,0
638224246879880505,20.87413,35.69852,6.373804,6.305296,-0.171089,50.54538,-56.96799,-0.4675641,6.957485,-72.28677,-8.594284,-36.90935,0,0,0,43.86149,-31.36332,-53.33228,-125.3346,-110.1062,-86.85717,0.001067912,-0.1257102,0.09433498,0,0.3,0,0,0,0
638224246880220381,21.36888,36.84405,6.817402,6.305296,-0.9767859,50.61862,-56.96799,-0.4675641,6.957485,-72.28677,-8.521038,-36.90935,0,0,0,44.65203,-29.09529,-54.22906,-125.3346,-110.1062,-86.85717,0.001067912,-0.1257102,0.09433498,0,0.3,0,0,0,0
638224246880560268,22.97096,39.11173,7.821334,6.964502,-2.514934,50.54538,-56.96799,-0.4675641,6.957485,-72.28677,-8.594284,-36.90935,0,0,0,47.46219,-24.63767,-56.37834,-125.3346,-110.1062,-86.85717,0.001067912,-0.1257102,0.09433498,0,0.3,0,0,0,0
638224246880900167,24.99712,41.28591,8.96535,8.50265,-3.686857,50.54538,-56.96799,-0.4675641,6.957485,-72.28677,-8.521038,-36.83611,0,0,0,51.12436,-20.38425,-58.69905,-125.3346,-110.1062,-86.85717,0.001067912,-0.1257102,0.09433498,0,0.3,0,0,0,0
638224246881230060,26.0102,42.33792,9.525684,9.528083,-4.272818,50.39889,-56.96799,-0.4675641,6.957485,-72.28677,-8.594284,-36.83611,0,0,0,52.90371,-18.34982,-59.93031,-125.3346,-110.1062,-86.85717,0.001067912,-0.1257102,0.09433498,0,0.3,0,0,0,0
638224246881559954,27.80075,44.25494,10.57631,11.57895,-5.225006,49.73968,-56.96799,-0.4675641,6.957485,-72.28677,-8.521038,-36.83611,0,0,0,55.96152,-14.67597,-62.21291,-125.3346,-110.1062,-86.85717,0.001067912,-0.1257102,0.09433498,0,0.3,0,0,0,0
638224246881909836,29.70911,46.19533,11.83706,13.99604,-6.250438,48.71425,-56.96799,-0.4675641,6.957485,-72.28677,-8.521038,-36.83611,0,0,0,59.30267,-10.9251,-64.41975,-125.3346,-110.1062,-86.85717,0.001067912,-0.1257102,0.09433498,0,0.3,0,0,0,0
638224246882259720,31.33475,47.94869,13.12116,16.12015,-7.495606,47.54232,-56.96799,-0.4675641,6.957485,-72.28677,-8.521038,-36.83611,0,0,0,62.19083,-7.500099,-66.20366,-125.3346,-110.1062,-86.85717,0.001067912,-0.1257102,0.09433498,0,0.3,0,0,0,0
638224246882589614,32.11223,48.79031,13.77489,17.21883,-8.154812,46.95637,-56.96799,-0.4675641,6.957485,-72.28677,-8.521038,-36.90935,0,0,0,63.57948,-5.845014,-67.04365,-125.3346,-110.1062,-86.85717,0.001067912,-0.1257102,0.09433498,0,0.3,0,0,0,0
638224246882919526,33.8321,50.38003,15.22242,19.26969,-9.326735,45.49146,-56.96799,-0.4675641,6.957485,-72.28677,-8.521038,-36.90935,0,0,0,66.83894,-2.602955,-68.62811,-125.3346,-110.1062,-86.85717,0.001067912,-0.1257102,0.09433498,0,0.3,0,0,0,0
638224246883269415,35.38706,51.78272,16.62325,21.32055,-10.20568,43.88007,-56.96799,-0.4675641,6.957485,-72.28677,-8.521038,-36.90935,0,0,0,69.86503,0.3422975,-69.99332,-125.3346,-110.1062,-86.85717,0.001067912,-0.1257102,0.09433498,0,0.3,0,0,0,0
638224246883619294,36.11742,52.48407,17.30033,22.27274,-10.64515,43.07437,-56.96799,-0.4675641,6.957485,-72.28677,-8.521038,-36.83611,0,0,0,71.24197,1.80396,-70.71524,-125.3346,-110.1062,-86.85717,0.001067912,-0.1257102,0.09433498,0,0.3,0,0,0,0
638224246883949200,37.55458,53.86338,18.7712,24.32361,-11.52409,41.38973,-56.96799,-0.4675641,6.957485,-72.28677,-8.521038,-36.90935,0,0,0,74.08608,4.78795,-71.98933,-125.3346,-110.1062,-86.85717,0.001067912,-0.1257102,0.09433498,0,0.3,0,0,0,0
638224246884289089,38.68546,55.17256,20.24208,26.22798,-12.40303,39.70509,-56.96799,-0.4675641,6.957485,-72.28677,-8.594284,-36.90935,0,0,0,76.43951,7.699592,-72.88824,-125.3346,-110.1062,-86.85717,0.001067912,-0.1257102,0.09433498,0,0.3,0,0,0,0
638224246884628978,39.22733,55.85053,21.01254,27.25341,-12.8425,38.82615,-56.96799,-0.4675641,6.957485,-72.28677,-8.594284,-36.90935,0,0,0,77.57773,9.224763,-73.32291,-125.3346,-110.1062,-86.85717,0.001067912,-0.1257102,0.09433498,0,0.3,0,0,0,0
638224246884968871,40.09905,57.34673,22.67019,29.08454,-13.86794,36.99502,-56.96799,-0.4675641,6.957485,-72.28677,-8.594284,-36.90935,0,0,0,79.44855,12.57698,-73.99864,-125.3346,-110.1062,-86.85717,0.001067912,-0.1257102,0.09433498,0,0.3,0,0,0,0
638224246885308759,40.61737,58.93645,24.46794,30.69594,-14.67363,35.31038,-56.96799,-0.4675641,6.957485,-72.28677,-8.521038,-36.90935,0,0,0,80.7496,16.20275,-74.19561,-125.3346,-110.1062,-86.85717,0.001067912,-0.1257102,0.09433498,0,0.3,0,0,0,0
638224246885638651,40.82941,59.77807,25.49521,31.42839,-15.1131,34.43144,-56.96799,-0.4675641,6.957485,-72.28677,-8.594284,-36.90935,0,0,0,81.41259,18.21081,-74.13043,-125.3346,-110.1062,-86.85717,0.001067912,-0.1257102,0.09433498,0,0.3,0,0,0,0
638224246885978547,41.34773,61.39116,27.59647,32.82005,-16.43152,32.60031,-56.96799,-0.4675641,6.957485,-72.28677,-8.521038,-36.83611,0,0,0,82.99121,22.24013,-74.04166,-125.3346,-110.1062,-86.85717,0.001067912,-0.1257102,0.09433498,0,0.3,0,0,0,0
638224246886308446,42.03097,62.84061,29.69772,34.13846,-17.96966,30.62269,-56.96799,-0.4675641,6.957485,-72.28677,-8.521038,-36.90935,0,0,0,84.98689,26.16221,-74.06503,-125.3346,-110.1062,-86.85717,0.001067912,-0.1257102,0.09433498,0,0.3,0,0,0,0
638224246886658335,43.20897,64.05627,32.0558,35.96959,-19.50781,28.2056,-56.96799,-0.4675641,6.957485,-72.28677,-8.521038,-36.90935,0,0,0,88.39925,30.2432,-74.24387,-125.3346,-110.1062,-86.85717,0.001067912,-0.1257102,0.09433498,0,0.3,0,0,0,0
638224246887008222,43.96289,64.45371,33.24651,37.06827,-20.09377,26.96043,-56.96799,-0.4675641,6.957485,-72.28677,-8.594284,-36.90935,0,0,0,90.67122,32.14011,-74.33541,-125.3346,-110.1062,-86.85717,0.001067912,-0.1257102,0.09433498,0,0.3,0,0,0,0
638224246887348119,45.63565,64.96803,35.60458,39.70509,-21.11921,24.03063,-56.96799,-0.4675641,6.957485,-72.28677,-8.594284,-36.90935,0,0,0,95.83936,35.75389,-74.61389,-125.3346,-110.1062,-86.85717,0.001067912,-0.1257102,0.09433498,0,0.3,0,0,0,0
638224246887688009,47.21416,65.08492,37.51905,42.41516,-21.63192,20.66135,-56.96799,-0.4675641,6.957485,-72.28677,-8.594284,-36.83611,0,0,0,100.8306,38.52287,-75.02615,-125.3346,-110.1062,-86.85717,0.001067912,-0.1257102,0.09433498,0,0.3,0,0,0,0
638224246888037895,48.0152,65.08492,38.45295,43.88007,-21.63192,18.75698,-56.96799,-0.4675641,6.957485,-72.28677,-8.594284,-36.83611,0,0,0,103.3988,39.8606,-75.29898,-125.3346,-110.1062,-86.85717,0.001067912,-0.1257102,0.09433498,0,0.3,0,0,0,0
638224246888367793,49.38168,65.01479,40.25069,46.5169,-21.63192,15.31445,-56.96799,-0.4675641,6.957485,-72.28677,-8.521038,-36.83611,0,0,0,108.1565,42.44466,-75.58867,-125.3346,-110.1062,-86.85717,0.001067912,-0.1257102,0.09433498,0,0.3,0,0,0,0
638224246888707680,50.53612,64.68748,41.86165,48.86074,-21.48543,11.87193,-56.96799,-0.4675641,6.957485,-72.28677,-8.594284,-36.83611,0,0,0,112.7184,44.58343,-75.55138,-125.3346,-110.1062,-86.85717,0.001067912,-0.1257102,0.09433498,0,0.3,0,0,0,0
638224246889047559,51.59631,64.17316,43.21579,50.98485,-21.33894,8.429405,-56.96799,-0.4675641,6.957485,-72.28677,-8.594284,-36.83611,0,0,0,117.0821,46.19751,-75.53962,-125.3346,-110.1062,-86.85717,0.001067912,-0.1257102,0.09433498,0,0.3,0,0,0,0
638224246889387465,52.11464,63.8225,43.77612,51.93703,-21.2657,6.964502,-56.96799,-0.4675641,6.957485,-72.28677,-8.594284,-36.90935,0,0,0,119.2425,46.73733,-75.57117,-125.3346,-110.1062,-86.85717,0.001067912,-0.1257102,0.09433498,0,0.3,0,0,0,0
638224246889727340,53.08059,62.9575,44.61663,53.76817,-20.89947,4.620657,-56.96799,-0.4675641,6.957485,-72.28677,-8.594284,-36.90935,0,0,0,123.3499,47.19928,-75.67094,-125.3346,-110.1062,-86.85717,0.001067912,-0.1257102,0.09433498,0,0.3,0,0,0,0
638224246890077259,54.02299,61.76521,45.08357,55.23307,-20.31351,2.789528,-56.96799,-0.4675641,6.957485,-72.28677,-8.594284,-36.90935,0,0,0,127.4704,46.67848,-75.8155,-125.3346,-110.1062,-86.85717,0.001067912,-0.1257102,0.09433498,0,0.3,0,0,0,0
638224246890417135,54.47063,61.11063,45.13026,55.81903,-19.80079,2.130321,-56.96799,-0.4675641,6.957485,-72.28677,-8.521038,-36.90935,0,0,0,129.3408,46.02707,-75.99205,-125.3346,-110.1062,-86.85717,0.001067912,-0.1257102,0.09433498,0,0.3,0,0,0,0
638224246890767015,55.27167,59.59104,45.10692,56.77122,-18.11616,1.104889,-56.96799,-0.4675641,6.957485,-72.28677,-8.594284,-36.83611,0,0,0,133.1138,44.23907,-76.0802,-125.3346,-110.1062,-86.85717,0.001067912,-0.1257102,0.09433498,0,0.3,0,0,0,0
638224246891096918,55.29523,58.04808,44.89679,57.43042,-16.7245,0.738663,-56.96799,-0.4675641,6.957485,-72.28677,-8.594284,-36.83611,0,0,0,135.3931,42.03408,-74.58266,-125.3346,-110.1062,-86.85717,0.001067912,-0.1257102,0.09433498,0,0.3,0,0,0,0
638224246891436794,55.29523,57.41687,44.71001,57.65016,-16.13853,0.738663,-56.96799,-0.4675641,6.957485,-72.28677,-8.594284,-36.83611,0,0,0,136.1608,40.94346,-74.05103,-125.3346,-110.1062,-86.85717,0.001067912,-0.1257102,0.09433498,0,0.3,0,0,0,0
638224246891766708,55.29523,55.89729,43.98625,58.08963,-14.67363,1.031644,-56.96799,-0.4675641,6.957485,-72.28677,-8.594284,-36.90935,0,0,0,137.5993,37.82211,-73.05475,-125.3346,-110.1062,-86.85717,0.001067912,-0.1257102,0.09433498,0,0.3,0,0,0,0
638224246892106595,55.29523,54.12054,43.19244,58.38261,-13.13548,1.910586,-56.96799,-0.4675641,6.957485,-72.28677,-8.521038,-36.83611,0,0,0,139.2842,34.17707,-71.8879,-125.3346,-110.1062,-86.85717,0.001067912,-0.1257102,0.09433498,0,0.3,0,0,0,0
638224246892446480,55.29523,52.3438,42.46867,58.45585,-11.81707,2.789528,-56.96799,-0.4675641,6.957485,-72.28677,-8.594284,-36.90935,0,0,0,140.9917,30.55679,-70.70531,-125.3346,-110.1062,-86.85717,0.001067912,-0.1257102,0.09433498,0,0.3,0,0,0,0
638224246892776383,55.29523,51.33854,42.09512,58.45585,-11.23111,3.375489,-56.96799,-0.4675641,6.957485,-72.28677,-8.521038,-36.90935,0,0,0,141.9753,28.52635,-70.02414,-125.3346,-110.1062,-86.85717,0.001067912,-0.1257102,0.09433498,0,0.3,0,0,0,0
638224246893116278,55.29523,49.30463,41.34801,58.5291,-9.473226,4.767147,-56.96799,-0.4675641,6.957485,-72.28677,-8.594284,-36.90935,0,0,0,143.9033,24.34695,-68.68889,-125.3346,-110.1062,-86.85717,0.001067912,-0.1257102,0.09433498,0,0.3,0,0,0,0
638224246893466156,55.29523,47.29411,40.62424,58.5291,-7.788587,6.378541,-56.96799,-0.4675641,6.957485,-72.28677,-8.594284,-36.83611,0,0,0,145.73,20.12945,-67.42382,-125.3346,-110.1062,-86.85717,0.001067912,-0.1257102,0.09433498,0,0.3,0,0,0,0
638224246893806053,55.29523,46.17195,40.25069,58.5291,-6.909645,7.257483,-56.96799,-0.4675641,6.957485,-72.28677,-8.521038,-36.83611,0,0,0,146.7494,17.77551,-66.71783,-125.3346,-110.1062,-86.85717,0.001067912,-0.1257102,0.09433498,0,0.3,0,0,0,0
638224246894145947,55.29523,43.99778,39.38684,58.5291,-5.00527,8.942122,-56.96799,-0.4675641,6.957485,-72.28677,-8.594284,-36.83611,0,0,0,148.4256,12.91551,-65.55695,-125.3346,-110.1062,-86.85717,0.001067912,-0.1257102,0.09433498,0,0.3,0,0,0,0
638224246894485838,55.29523,41.89374,38.45295,58.5291,-3.027651,10.62676,-56.96799,-0.4675641,6.957485,-72.28677,-8.594284,-36.83611,0,0,0,149.778,7.965691,-64.62034,-125.3346,-110.1062,-86.85717,0.001067912,-0.1257102,0.09433498,0,0.3,0,0,0,0
638224246894835720,55.29523,40.81834,37.986,58.5291,-2.002218,11.5057,-56.96799,-0.4675641,6.957485,-72.28677,-8.594284,-36.83611,0,0,0,150.4356,5.41466,-64.16492,-125.3346,-110.1062,-86.85717,0.001067912,-0.1257102,0.09433498,0,0.3,0,0,0,0
638224246895175611,55.29523,38.62079,37.12215,58.38261,0.1951368,13.1171,-56.96799,-0.4675641,6.957485,-72.28677,-8.594284,-36.83611,0,0,0,151.812,0.2554475,-63.21166,-125.3346,-110.1062,-86.85717,0.001067912,-0.1257102,0.09433498,0,0.3,0,0,0,0
638224246895515510,55.29523,36.44662,36.2583,58.16287,2.026266,14.50875,-56.96799,-0.4675641,6.957485,-72.28677,-8.521038,-36.83611,0,0,0,153.0209,-4.958246,-62.37447,-125.3346,-110.1062,-86.85717,0.001067912,-0.1257102,0.09433498,0,0.3,0,0,0,0
638224246895855400,55.29523,34.41272,35.20768,58.01638,4.223621,16.12015,-56.96799,-0.4675641,6.957485,-72.28677,-8.521038,-36.90935,0,0,0,153.6449,-10.24321,-61.94227,-125.3346,-110.1062,-86.85717,0.001067912,-0.1257102,0.09433498,0,0.3,0,0,0,0
638224246896195284,55.29523,33.40745,34.624,57.86989,5.322299,16.92585,-56.96799,-0.4675641,6.957485,-72.28677,-8.521038,-36.90935,0,0,0,153.8022,-12.96243,-61.83334,-125.3346,-110.1062,-86.85717,0.001067912,-0.1257102,0.09433498,0,0.3,0,0,0,0
638224246896535176,55.29523,31.46706,33.2932,57.65016,7.373164,18.53724,-56.96799,-0.4675641,6.957485,-72.28677,-8.521038,-36.83611,0,0,0,153.6816,-18.50379,-61.9169,-125.3346,-110.1062,-86.85717,0.001067912,-0.1257102,0.09433498,0,0.3,0,0,0,0
638224246896875073,55.29523,29.78383,31.72893,57.0642,9.277537,20.14863,-56.96799,-0.4675641,6.957485,-72.28677,-8.594284,-36.83611,0,0,0,152.7983,-23.83144,-62.52862,-125.3346,-110.1062,-86.85717,0.001067912,-0.1257102,0.09433498,0,0.3,0,0,0,0
638224246897204969,55.29523,29.05911,30.91178,56.77122,10.30297,20.88108,-56.96799,-0.4675641,6.957485,-72.28677,-8.594284,-36.90935,0,0,0,152.1438,-26.28923,-62.98189,-125.3346,-110.1062,-86.85717,0.001067912,-0.1257102,0.09433498,0,0.3,0,0,0,0
638224246897544858,55.29523,27.67979,29.13739,55.89228,12.1341,22.27274,-56.96799,-0.4675641,6.957485,-72.28677,-8.594284,-36.90935,0,0,0,150.4584,-31.18014,-64.14911,-125.3346,-110.1062,-86.85717,0.001067912,-0.1257102,0.09433498,0,0.3,0,0,0,0
638224246897884752,55.29523,26.8148,27.22291,54.7936,13.599,23.37142,-56.96799,-0.4675641,6.957485,-72.28677,-8.594284,-36.90935,0,0,0,147.9874,-35.07403,-65.8604,-125.3346,-110.1062,-86.85717,0.001067912,-0.1257102,0.09433498,0,0.3,0,0,0,0
638224246898224645,55.29523,26.53426,26.05555,54.06115,14.25821,23.88414,-56.96799,-0.4675641,6.957485,-72.28677,-8.594284,-36.90935,0,0,0,146.232,-36.87563,-67.07616,-125.3346,-110.1062,-86.85717,0.001067912,-0.1257102,0.09433498,0,0.3,0,0,0,0
638224246898564536,55.27167,26.39399,23.60409,52.44975,15.2104,24.90957,-56.96799,-0.4675641,6.957485,-72.28677,-8.521038,-36.83611,0,0,0,142.0545,-39.56359,-69.88284,-125.3346,-110.1062,-86.85717,0.001067912,-0.1257102,0.09433498,0,0.3,0,0,0,0
638224246898904409,55.27167,26.39399,21.45614,50.69187,15.8696,25.64202,-56.96799,-0.4675641,6.957485,-72.28677,-8.521038,-36.90935,0,0,0,138.2597,-41.47898,-72.51325,-125.3346,-110.1062,-86.85717,0.001067912,-0.1257102,0.09433498,0,0.3,0,0,0,0
638224246899244311,55.27167,26.39399,20.56894,49.81293,16.08934,26.08149,-56.96799,-0.4675641,6.957485,-72.28677,-8.594284,-36.83611,0,0,0,136.6756,-42.21938,-73.61134,-125.3346,-110.1062,-86.85717,0.001067912,-0.1257102,0.09433498,0,0.3,0,0,0,0
638224246899584209,55.24811,26.51088,19.14476,48.64101,16.45556,27.18017,-56.96799,-0.4675641,6.957485,-72.28677,-8.521038,-36.90935,0,0,0,133.9756,-43.10167,-75.40127,-125.3346,-110.1062,-86.85717,0.001067912,-0.1257102,0.09433498,0,0.3,0,0,0,0
638224246899924101,55.22455,26.74467,17.79062,47.76206,16.74854,28.42534,-56.96799,-0.4675641,6.957485,-72.28677,-8.521038,-36.90935,0,0,0,131.2817,-43.61359,-77.19023,-125.3346,-110.1062,-86.85717,0.001067912,-0.1257102,0.09433498,0,0.3,0,0,0,0
638224246900263989,55.22455,27.1421,16.66995,46.95637,16.89503,29.37753,-56.96799,-0.4675641,6.957485,-72.28677,-8.521038,-36.83611,0,0,0,128.8912,-43.5616,-78.85013,-125.3346,-110.1062,-86.85717,0.001067912,-0.1257102,0.09433498,0,0.3,0,0,0,0
638224246900603876,55.17743,27.37588,16.203,46.59014,16.82179,29.67051,-56.96799,-0.4675641,6.957485,-72.28677,-8.594284,-36.83611,0,0,0,127.7573,-43.38543,-79.48169,-125.3346,-110.1062,-86.85717,0.001067912,-0.1257102,0.09433498,0,0.3,0,0,0,0
638224246900933774,54.91827,28.12398,15.17572,45.85769,16.45556,30.18322,-56.96799,-0.4675641,6.957485,-72.28677,-8.594284,-36.90935,0,0,0,124.807,-42.4911,-80.6936,-125.3346,-110.1062,-86.85717,0.001067912,-0.1257102,0.09433498,0,0.3,0,0,0,0
638224246901273667,54.18791,29.43316,14.17179,44.83226,15.79636,30.62269,-56.96799,-0.4675641,6.957485,-72.28677,-8.594284,-36.90935,0,0,0,120.657,-40.41239,-81.29071,-125.3346,-110.1062,-86.85717,0.001067912,-0.1257102,0.09433498,0,0.3,0,0,0,0
638224246901623551,53.38687,30.4618,13.79823,43.95331,15.2104,30.98892,-56.96799,-0.4675641,6.957485,-72.28677,-8.521038,-36.90935,0,0,0,117.7916,-38.54812,-80.82832,-125.3346,-110.1062,-86.85717,0.001067912,-0.1257102,0.09433498,0,0.3,0,0,0,0
638224246901953449,51.71412,32.823,13.51807,41.68271,13.74549,31.72137,-56.96799,-0.4675641,6.957485,-72.28677,-8.594284,-36.90935,0,0,0,112.4265,-34.02393,-79.60589,-125.3346,-110.1062,-86.85717,0.001067912,-0.1257102,0.09433498,0,0.3,0,0,0,0
638224246902293329,49.87644,35.41798,13.51807,38.97264,11.76787,32.38057,-56.96799,-0.4675641,6.957485,-72.28677,-8.594284,-36.90935,0,0,0,106.9325,-29.02446,-78.22927,-125.3346,-110.1062,-86.85717,0.001067912,-0.1257102,0.09433498,0,0.3,0,0,0,0
638224246902633262,48.8398,36.72716,13.54141,37.58098,10.52271,32.60031,-56.96799,-0.4675641,6.957485,-72.28677,-8.594284,-36.83611,0,0,0,103.9737,-26.54901,-77.45544,-125.3346,-110.1062,-86.85717,0.001067912,-0.1257102,0.09433498,0,0.3,0,0,0,0
638224246902973127,46.8372,39.01822,13.82158,34.87091,8.252106,32.82005,-56.96799,-0.4675641,6.957485,-72.28677,-8.594284,-36.90935,0,0,0,98.80842,-22.18594,-75.68338,-125.3346,-110.1062,-86.85717,0.001067912,-0.1257102,0.09433498,0,0.3,0,0,0,0
638224246903303019,44.74036,41.35604,14.45196,31.79461,5.835015,32.96654,-56.96799,-0.4675641,6.957485,-72.28677,-8.594284,-36.90935,0,0,0,93.88193,-17.67127,-73.61334,-125.3346,-110.1062,-86.85717,0.001067912,-0.1257102,0.09433498,0,0.3,0,0,0,0
638224246903642911,42.73777,43.53021,15.47924,28.86481,3.271434,32.96654,-56.96799,-0.4675641,6.957485,-72.28677,-8.594284,-36.90935,0,0,0,89.76418,-13.31995,-71.20206,-125.3346,-110.1062,-86.85717,0.001067912,-0.1257102,0.09433498,0,0.3,0,0,0,0
638224246903982806,41.79537,44.62899,16.29639,27.47315,1.879776,33.03978,-56.96799,-0.4675641,6.957485,-72.28677,-8.594284,-36.90935,0,0,0,88.18769,-10.96225,-69.70139,-125.3346,-110.1062,-86.85717,0.001067912,-0.1257102,0.09433498,0,0.3,0,0,0,0
638224246904312685,40.14618,46.59276,18.02409,25.05606,-0.9767859,32.96654,-56.96799,-0.4675641,6.957485,-72.28677,-8.594284,-36.90935,0,0,0,85.68341,-6.578898,-66.76395,-125.3346,-110.1062,-86.85717,0.001067912,-0.1257102,0.09433498,0,0.3,0,0,0,0
638224246904652593,38.61478,48.22923,19.6117,23.22493,-3.833347,33.03978,-56.96799,-0.4675641,6.957485,-72.28677,-8.521038,-36.90935,0,0,0,83.37068,-2.809661,-63.96857,-125.3346,-110.1062,-86.85717,0.001067912,-0.1257102,0.09433498,0,0.3,0,0,0,0
638224246904992487,38.02578,48.9072,20.31212,22.49248,-5.225006,32.96654,-56.96799,-0.4675641,6.957485,-72.28677,-8.594284,-36.83611,0,0,0,82.50836,-1.209005,-62.84198,-125.3346,-110.1062,-86.85717,0.001067912,-0.1257102,0.09433498,0,0.3,0,0,0,0
638224246905332377,37.03626,50.09949,21.64292,21.10082,-7.861832,32.96654,-56.96799,-0.4675641,6.957485,-72.28677,-8.594284,-36.83611,0,0,0,81.14488,1.70182,-60.80877,-125.3346,-110.1062,-86.85717,0.001067912,-0.1257102,0.09433498,0,0.3,0,0,0,0
638224246905682248,36.21166,50.89435,22.57681,19.9289,-9.912696,32.96654,-56.96799,-0.4675641,6.957485,-72.28677,-8.594284,-36.90935,0,0,0,79.93517,3.696675,-59.17907,-125.3346,-110.1062,-86.85717,0.001067912,-0.1257102,0.09433498,0,0.3,0,0,0,0
638224246906012160,35.8347,51.19827,22.92702,19.34294,-10.79164,32.96654,-56.96799,-0.4675641,6.957485,-72.28677,-8.594284,-36.90935,0,0,0,79.33321,4.456593,-58.4921,-125.3346,-110.1062,-86.85717,0.001067912,-0.1257102,0.09433498,0,0.3,0,0,0,0
638224246906352036,35.15146,51.73597,23.60409,18.3175,-12.25654,32.96654,-56.96799,-0.4675641,6.957485,-72.28677,-8.594284,-36.90935,0,0,0,78.28743,5.858622,-57.17065,-125.3346,-110.1062,-86.85717,0.001067912,-0.1257102,0.09433498,0,0.3,0,0,0,0
638224246906701941,34.53891,52.25029,24.28116,17.29207,-13.72145,33.03978,-56.96799,-0.4675641,6.957485,-72.28677,-8.594284,-36.83611,0,0,0,77.37614,7.235191,-55.93062,-125.3346,-110.1062,-86.85717,0.001067912,-0.1257102,0.09433498,0,0.3,0,0,0,0
638224246907041830,34.37398,52.43731,24.58467,16.77936,-14.30741,32.96654,-56.96799,-0.4675641,6.957485,-72.28677,-8.594284,-36.90935,0,0,0,77.22078,7.793301,-55.46197,-125.3346,-110.1062,-86.85717,0.001067912,-0.1257102,0.09433498,0,0.3,0,0,0,0
638224246907381718,34.35042,52.67109,25.21505,16.19339,-15.25959,32.96654,-56.96799,-0.4675641,6.957485,-72.28677,-8.594284,-36.83611,0,0,0,77.68149,8.741831,-54.6882,-125.3346,-110.1062,-86.85717,0.001067912,-0.1257102,0.09433498,0,0.3,0,0,0,0
638224246907721630,34.53891,52.95163,26.0322,16.26664,-16.21178,32.96654,-56.96799,-0.4675641,6.957485,-72.28677,-8.594284,-36.90935,0,0,0,78.73228,9.958944,-53.96028,-125.3346,-110.1062,-86.85717,0.001067912,-0.1257102,0.09433498,0,0.3,0,0,0,0
638224246908071497,34.98654,53.18541,27.01279,16.77936,-17.38371,32.7468,-56.96799,-0.4675641,6.957485,-72.28677,-8.594284,-36.90935,0,0,0,80.54504,11.30498,-53.26223,-125.3346,-110.1062,-86.85717,0.001067912,-0.1257102,0.09433498,0,0.3,0,0,0,0
638224246908411384,35.33994,53.23217,27.50308,17.21883,-17.89642,32.45382,-56.96799,-0.4675641,6.957485,-72.28677,-8.521038,-36.83611,0,0,0,81.78971,11.89277,-53.00483,-125.3346,-110.1062,-86.85717,0.001067912,-0.1257102,0.09433498,0,0.3,0,0,0,0
638224246908761290,36.44726,53.23217,28.43697,18.46399,-18.77536,31.86786,-56.96799,-0.4675641,6.957485,-72.28677,-8.594284,-36.90935,0,0,0,85.14391,12.91217,-53.06281,-125.3346,-110.1062,-86.85717,0.001067912,-0.1257102,0.09433498,0,0.3,0,0,0,0
638224246909101175,37.93154,53.13866,29.16073,20.29512,-19.14159,31.06216,-56.96799,-0.4675641,6.957485,-72.28677,-8.594284,-36.90935,0,0,0,89.1161,13.59323,-54.00522,-125.3346,-110.1062,-86.85717,0.001067912,-0.1257102,0.09433498,0,0.3,0,0,0,0
638224246909441055,38.75614,53.04515,29.41755,21.54029,-19.21483,30.40295,-56.96799,-0.4675641,6.957485,-72.21353,-8.521038,-36.83611,0,0,0,91.18775,13.75494,-54.75734,-125.3346,-110.1062,-86.85717,0.001067912,-0.1257102,0.09433498,0,0.3,0,0,0,0
638224246909780957,40.64093,52.67109,29.90785,24.10387,-18.77536,28.71832,-56.96799,-0.4675641,6.957485,-72.28677,-8.594284,-36.90935,0,0,0,95.97229,13.79403,-56.53897,-125.3346,-110.1062,-86.85717,0.001067912,-0.1257102,0.09433498,0,0.3,0,0,0,0
638224246910130839,42.64353,51.96975,30.51488,27.10692,-17.74993,26.66745,-56.96799,-0.4675641,6.957485,-72.28677,-8.594284,-36.90935,0,0,0,101.5231,13.5072,-58.11264,-125.3346,-110.1062,-86.85717,0.001067912,-0.1257102,0.09433498,0,0.3,0,0,0,0
638224246910470736,44.62257,51.03462,31.07521,30.25646,-16.57801,25.05606,-56.96799,-0.4675641,6.957485,-72.28677,-8.594284,-36.83611,0,0,0,107.2528,12.82009,-59.67472,-125.3346,-110.1062,-86.85717,0.001067912,-0.1257102,0.09433498,0,0.3,0,0,0,0
638224246910810624,45.6592,50.47354,31.35538,31.72137,-16.06529,23.95738,-56.96799,-0.4675641,6.957485,-72.28677,-8.594284,-36.90935,0,0,0,110.3235,12.33188,-60.53632,-125.3346,-110.1062,-86.85717,0.001067912,-0.1257102,0.09433498,0,0.3,0,0,0,0
638224246911150520,47.70892,49.14098,31.82232,34.50468,-14.60039,21.76003,-56.96799,-0.4675641,6.957485,-72.28677,-8.594284,-36.83611,0,0,0,116.5463,10.89968,-62.33416,-125.3346,-110.1062,-86.85717,0.001067912,-0.1257102,0.09433498,0,0.3,0,0,0,0
638224246911500398,49.5466,47.31749,32.10249,37.288,-12.98899,19.63592,-56.96799,-0.4675641,6.957485,-72.28677,-8.521038,-36.83611,0,0,0,122.7155,8.417823,-63.71355,-125.3346,-110.1062,-86.85717,0.001067912,-0.1257102,0.09433498,0,0.3,0,0,0,0
638224246911840304,50.27696,46.31222,32.12584,38.45993,-12.1833,18.75698,-56.96799,-0.4675641,6.957485,-72.28677,-8.521038,-36.83611,0,0,0,125.3868,6.845575,-64.16665,-125.3346,-110.1062,-86.85717,0.001067912,-0.1257102,0.09433498,0,0.3,0,0,0,0
638224246912170195,51.57275,44.09129,32.10249,40.73053,-9.399981,17.21883,-56.96799,-0.4675641,6.957485,-72.28677,-8.594284,-36.90935,0,0,0,130.5479,3.174786,-64.77789,-125.3346,-110.1062,-86.85717,0.001067912,-0.1257102,0.09433498,0,0.3,0,0,0,0
638224246912510088,52.37379,42.33792,32.03245,42.19543,-6.689909,16.19339,-56.96799,-0.4675641,6.957485,-72.28677,-8.521038,-36.83611,0,0,0,134.0867,0.1143094,-64.9916,-125.3346,-110.1062,-86.85717,0.001067912,-0.1257102,0.09433498,0,0.3,0,0,0,0
638224246912849971,52.93923,40.67807,31.89237,43.22086,-4.126328,15.68068,-56.96799,-0.4675641,6.957485,-72.28677,-8.521038,-36.83611,0,0,0,136.9224,-2.951137,-64.9437,-125.3346,-110.1062,-86.85717,0.001067912,-0.1257102,0.09433498,0,0.3,0,0,0,0
638224246913189856,53.15127,39.7897,31.79898,43.58709,-2.73467,15.68068,-56.96799,-0.4675641,6.957485,-72.28677,-8.521038,-36.83611,0,0,0,138.2251,-4.644234,-64.76098,-125.3346,-110.1062,-86.85717,0.001067912,-0.1257102,0.09433498,0,0.3,0,0,0,0
638224246913519766,53.29263,38.05972,31.47211,44.0998,-0.09784385,15.82717,-56.96799,-0.4675641,6.957485,-72.28677,-8.594284,-36.83611,0,0,0,139.989,-8.175532,-63.97741,-125.3346,-110.1062,-86.85717,0.001067912,-0.1257102,0.09433498,0,0.3,0,0,0,0
638224246913869656,53.33975,36.16608,31.00517,44.46603,2.612227,15.90041,-56.96799,-0.4675641,6.957485,-72.28677,-8.594284,-36.83611,0,0,0,141.4625,-12.25352,-63.05967,-125.3346,-110.1062,-86.85717,0.001067912,-0.1257102,0.09433498,0,0.3,0,0,0,0
638224246914209548,53.33975,35.16082,30.79504,44.53928,3.857395,15.90041,-56.96799,-0.4675641,6.957485,-72.28677,-8.594284,-36.83611,0,0,0,142.2201,-14.4055,-62.49579,-125.3346,-110.1062,-86.85717,0.001067912,-0.1257102,0.09433498,0,0.3,0,0,0,0
638224246914549440,53.33975,32.7061,30.02458,44.61252,6.420976,16.12015,-56.96799,-0.4675641,6.957485,-72.28677,-8.521038,-36.83611,0,0,0,143.5377,-20.05286,-61.5151,-125.3346,-110.1062,-86.85717,0.001067912,-0.1257102,0.09433498,0,0.3,0,0,0,0
638224246914879333,53.31619,30.11112,29.11404,44.46603,8.911312,16.55962,-56.96799,-0.4675641,6.957485,-72.28677,-8.521038,-36.83611,0,0,0,144.5395,-26.25277,-60.67708,-125.3346,-110.1062,-86.85717,0.001067912,-0.1257102,0.09433498,0,0.3,0,0,0,0
638224246915219216,53.29263,28.94222,28.6004,44.24629,10.08323,16.92585,-56.96799,-0.4675641,6.957485,-72.28677,-8.594284,-36.90935,0,0,0,144.7307,-29.19688,-60.44209,-125.3346,-110.1062,-86.85717,0.001067912,-0.1257102,0.09433498,0,0.3,0,0,0,0
638224246915559114,53.05703,26.58102,27.17622,43.80682,12.42708,17.80479,-56.96799,-0.4675641,6.957485,-72.28677,-8.521038,-36.83611,0,0,0,143.99,-35.6098,-60.07027,-125.3346,-110.1062,-86.85717,0.001067912,-0.1257102,0.09433498,0,0.3,0,0,0,0
638224246915899006,52.63295,24.82765,25.47187,42.78139,14.47795,18.61049,-56.96799,-0.4675641,6.957485,-72.28677,-8.521038,-36.90935,0,0,0,141.7657,-41.04557,-60.09105,-125.3346,-110.1062,-86.85717,0.001067912,-0.1257102,0.09433498,0,0.3,0,0,0,0
638224246916238897,52.39735,24.17306,24.53798,42.19543,15.50338,19.04996,-56.96799,-0.4675641,6.957485,-72.28677,-8.594284,-36.90935,0,0,0,140.2593,-43.35061,-60.32545,-125.3346,-110.1062,-86.85717,0.001067912,-0.1257102,0.09433498,0,0.3,0,0,0,0
638224246916578789,51.78479,23.3782,22.57681,40.95026,17.11477,20.14863,-56.96799,-0.4675641,6.957485,-72.28677,-8.594284,-36.90935,0,0,0,136.3952,-46.86771,-60.95893,-125.3346,-110.1062,-86.85717,0.001067912,-0.1257102,0.09433498,0,0.3,0,0,0,0
638224246916928669,50.88952,23.26131,20.17204,39.48536,18.28669,21.61354,-56.96799,-0.4675641,6.957485,-72.28677,-8.594284,-36.83611,0,0,0,130.7404,-49.15722,-62.06045,-125.3346,-110.1062,-86.85717,0.001067912,-0.1257102,0.09433498,0,0.3,0,0,0,0
638224246917258554,49.92356,23.51847,17.65053,37.80072,18.9459,22.78546,-56.96799,-0.4675641,6.957485,-72.28677,-8.594284,-36.83611,0,0,0,124.5003,-50.50975,-63.59845,-125.3346,-110.1062,-86.85717,0.001067912,-0.1257102,0.09433498,0,0.3,0,0,0,0
638224246917608452,49.33456,23.86915,16.27304,36.77529,19.16564,23.44467,-56.96799,-0.4675641,6.957485,-72.28677,-8.521038,-36.90935,0,0,0,120.8422,-50.69766,-64.53607,-125.3346,-110.1062,-86.85717,0.001067912,-0.1257102,0.09433498,0,0.3,0,0,0,0
638224246917938356,48.20368,24.82765,14.05505,34.72442,19.09239,24.4701,-56.96799,-0.4675641,6.957485,-72.28677,-8.521038,-36.83611,0,0,0,114.3698,-50.01553,-66.10479,-125.3346,-110.1062,-86.85717,0.001067912,-0.1257102,0.09433498,0,0.3,0,0,0,0
638224246918288247,46.955,26.25372,12.09388,32.45382,18.43318,25.27579,-56.96799,-0.4675641,6.957485,-72.28677,-8.521038,-36.90935,0,0,0,107.8196,-48.05341,-67.64812,-125.3346,-110.1062,-86.85717,0.001067912,-0.1257102,0.09433498,0,0.3,0,0,0,0
638224246918628134,46.27176,27.11872,11.32342,31.20865,17.84722,25.64202,-56.96799,-0.4675641,6.957485,-72.28677,-8.521038,-36.90935,0,0,0,104.689,-46.61858,-68.20825,-125.3346,-110.1062,-86.85717,0.001067912,-0.1257102,0.09433498,0,0.3,0,0,0,0
638224246918968019,44.92884,28.70843,10.24945,28.79156,16.6753,26.22798,-56.96799,-0.4675641,6.957485,-72.28677,-8.594284,-36.90935,0,0,0,99.35607,-43.81704,-68.74685,-125.3346,-110.1062,-86.85717,0.001067912,-0.1257102,0.09433498,0,0.3,0,0,0,0
638224246919307921,43.58593,30.36828,9.502337,26.44772,15.35689,26.66745,-56.96799,-0.4675641,6.957485,-72.28677,-8.594284,-36.90935,0,0,0,94.50039,-40.75436,-69.066,-125.3346,-110.1062,-86.85717,0.001067912,-0.1257102,0.09433498,0,0.3,0,0,0,0
638224246919657801,42.19589,32.09827,8.825266,24.32361,14.11172,26.88719,-56.96799,-0.4675641,6.957485,-72.28677,-8.521038,-36.90935,0,0,0,89.61697,-37.56265,-69.502,-125.3346,-110.1062,-86.85717,0.001067912,-0.1257102,0.09433498,0,0.3,0,0,0,0
638224246919987699,41.46553,32.91651,8.568447,23.29818,13.52576,26.96043,-56.96799,-0.4675641,6.957485,-72.28677,-8.594284,-36.83611,0,0,0,87.28078,-36.04705,-69.57735,-125.3346,-110.1062,-86.85717,0.001067912,-0.1257102,0.09433498,0,0.3,0,0,0,0
638224246920317590,39.91058,34.59974,8.124848,21.24731,12.42708,27.03368,-56.96799,-0.4675641,6.957485,-72.28677,-8.594284,-36.83611,0,0,0,82.51633,-32.94003,-69.69858,-125.3346,-110.1062,-86.85717,0.001067912,-0.1257102,0.09433498,0,0.3,0,0,0,0
638224246920657492,38.02578,36.3531,7.868029,19.04996,11.40165,27.10692,-56.96799,-0.4675641,6.957485,-72.28677,-8.521038,-36.83611,0,0,0,77.40353,-29.70011,-69.36981,-125.3346,-110.1062,-86.85717,0.001067912,-0.1257102,0.09433498,0,0.3,0,0,0,0
638224246920987382,36.98914,37.2181,7.844682,17.87803,10.88893,27.03368,-56.96799,-0.4675641,6.957485,-72.28677,-8.521038,-36.90935,0,0,0,74.84243,-28.09523,-68.99155,-125.3346,-110.1062,-86.85717,0.001067912,-0.1257102,0.09433498,0,0.3,0,0,0,0
638224246921327270,34.44466,39.11173,7.844682,15.09472,9.8635,27.03368,-56.96799,-0.4675641,6.957485,-72.28677,-8.594284,-36.83611,0,0,0,68.81735,-24.63026,-68.01266,-125.3346,-110.1062,-86.85717,0.001067912,-0.1257102,0.09433498,0,0.3,0,0,0,0
638224246921677160,31.38187,41.0755,7.961418,12.09166,8.764822,27.03368,-56.96799,-0.4675641,6.957485,-72.28677,-8.521038,-36.90935,0,0,0,61.96537,-21.0967,-66.76215,-125.3346,-110.1062,-86.85717,0.001067912,-0.1257102,0.09433498,0,0.3,0,0,0,0
638224246922017055,29.68555,42.01063,8.101501,10.33378,8.105616,27.03368,-56.96799,-0.4675641,6.957485,-72.28677,-8.521038,-36.83611,0,0,0,58.37609,-19.42221,-65.94582,-125.3346,-110.1062,-86.85717,0.001067912,-0.1257102,0.09433498,0,0.3,0,0,0,0
638224246922356938,26.15156,43.95102,8.638489,6.598277,6.933692,27.03368,-56.96799,-0.4675641,6.957485,-72.28677,-8.521038,-36.90935,0,0,0,51.14086,-15.93658,-64.19585,-125.3346,-110.1062,-86.85717,0.001067912,-0.1257102,0.09433498,0,0.3,0,0,0,0
638224246922686839,22.52332,46.1252,9.782504,2.276812,5.468789,26.66745,-56.96799,-0.4675641,6.957485,-72.28677,-8.594284,-36.90935,0,0,0,44.08255,-11.93493,-62.04771,-125.3346,-110.1062,-86.85717,0.001067912,-0.1257102,0.09433498,0,0.3,0,0,0,0
638224246923026734,20.82701,47.27073,10.52962,0.07945653,4.809582,26.59421,-56.96799,-0.4675641,6.957485,-72.28677,-8.521038,-36.83611,0,0,0,40.83518,-9.799818,-61.00307,-125.3346,-110.1062,-86.85717,0.001067912,-0.1257102,0.09433498,0,0.3,0,0,0,0
638224246923366627,17.76421,49.77219,12.44409,-4.388499,2.978453,26.7407,-56.96799,-0.4675641,6.957485,-72.28677,-8.594284,-36.83611,0,0,0,35.04274,-5.056756,-58.96996,-125.3346,-110.1062,-86.85717,0.001067912,-0.1257102,0.09433498,0,0.3,0,0,0,0
638224246923696520,15.19618,52.57758,14.75547,-8.416983,0.707853,26.81394,-56.96799,-0.4675641,6.957485,-72.28677,-8.594284,-36.90935,0,0,0,30.14395,0.3011539,-57.37254,-125.3346,-110.1062,-86.85717,0.001067912,-0.1257102,0.09433498,0,0.3,0,0,0,0
638224246924046406,13.28782,55.89729,17.86066,-12.07924,-2.075463,26.88719,-56.96799,-0.4675641,6.957485,-72.28677,-8.594284,-36.90935,0,0,0,26.58484,6.845075,-55.78131,-125.3346,-110.1062,-86.85717,0.001067912,-0.1257102,0.09433498,0,0.3,0,0,0,0
638224246924386292,12.67526,57.69741,19.68175,-14.05686,-3.760103,26.88719,-56.96799,-0.4675641,6.957485,-72.28677,-8.521038,-36.83611,0,0,0,25.49117,10.50303,-55.00856,-125.3346,-110.1062,-86.85717,0.001067912,-0.1257102,0.09433498,0,0.3,0,0,0,0
638224246924776167,12.2983,61.41454,23.65078,-17.57263,-7.642097,26.66745,-56.96799,-0.4675641,6.957485,-72.28677,-8.594284,-36.90935,0,0,0,24.98478,18.29562,-53.74311,-125.3346,-110.1062,-86.85717,0.001067912,-0.1257102,0.09433498,0,0.3,0,0,0,0
638224246925096063,12.43966,64.80437,27.47973,-20.50244,-12.11005,25.71527,-56.96799,-0.4675641,6.957485,-72.28677,-8.594284,-36.90935,0,0,0,25.48333,25.70836,-52.82652,-125.3346,-110.1062,-86.85717,0.001067912,-0.1257102,0.09433498,0,0.3,0,0,0,0
638224246925435959,12.6517,66.0668,28.88057,-21.89409,-14.4539,25.20255,-56.96799,-0.4675641,6.957485,-72.28677,-8.594284,-36.90935,0,0,0,25.95483,28.4694,-52.72493,-125.3346,-110.1062,-86.85717,0.001067912,-0.1257102,0.09433498,0,0.3,0,0,0,0
638224246925765857,13.42918,67.4695,30.18801,-24.16469,-18.40914,23.88414,-56.96799,-0.4675641,6.957485,-72.28677,-8.594284,-36.83611,0,0,0,27.43955,31.25707,-53.43047,-125.3346,-110.1062,-86.85717,0.001067912,-0.1257102,0.09433498,0,0.3,0,0,0,0
638224246926105741,14.63074,67.65652,30.07128,-24.67741,-20.82623,22.63897,-56.96799,-0.4675641,6.957485,-72.28677,-8.594284,-36.90935,0,0,0,29.68235,31.28683,-54.64778,-125.3346,-110.1062,-86.85717,0.001067912,-0.1257102,0.09433498,0,0.3,0,0,0,0
638224246926455633,15.85585,67.21233,29.20743,-23.72522,-22.14464,21.54029,-56.96799,-0.4675641,6.957485,-72.28677,-8.594284,-36.90935,0,0,0,31.89,29.89585,-56.07103,-125.3346,-110.1062,-86.85717,0.001067912,-0.1257102,0.09433498,0,0.3,0,0,0,0
638224246926795524,16.35061,66.67464,28.48367,-22.99277,-22.36438,20.95433,-56.96799,-0.4675641,6.957485,-72.28677,-8.521038,-36.90935,0,0,0,32.76713,28.59306,-56.66149,-125.3346,-110.1062,-86.85717,0.001067912,-0.1257102,0.09433498,0,0.3,0,0,0,0
638224246927125422,17.59929,64.64073,26.19563,-21.0884,-22.14464,19.19645,-56.96799,-0.4675641,6.957485,-72.28677,-8.594284,-36.83611,0,0,0,35.06705,24.1965,-57.79991,-125.3346,-110.1062,-86.85717,0.001067912,-0.1257102,0.09433498,0,0.3,0,0,0,0
638224246927475297,19.43697,61.57819,23.18383,-18.08535,-20.67974,17.95128,-56.96799,-0.4675641,6.957485,-72.28677,-8.594284,-36.90935,0,0,0,38.5902,18.04547,-58.99245,-125.3346,-110.1062,-86.85717,0.001067912,-0.1257102,0.09433498,0,0.3,0,0,0,0
638224246927815210,20.19089,60.15212,21.87639,-16.69369,-19.58106,17.6583,-56.96799,-0.4675641,6.957485,-72.28677,-8.594284,-36.90935,0,0,0,40.05629,15.26365,-59.42673,-125.3346,-110.1062,-86.85717,0.001067912,-0.1257102,0.09433498,0,0.3,0,0,0,0
638224246928155096,21.72228,56.45836,18.79455,-13.10467,-16.50476,17.14558,-56.96799,-0.4675641,6.957485,-72.28677,-8.521038,-36.90935,0,0,0,43.17078,8.255389,-59.98931,-125.3346,-110.1062,-86.85717,0.001067912,-0.1257102,0.09433498,0,0.3,0,0,0,0
638224246928494987,22.99452,52.57758,15.85279,-9.808641,-13.13548,16.92585,-56.96799,-0.4675641,6.957485,-72.28677,-8.594284,-36.90935,0,0,0,45.88564,0.9752272,-60.22145,-125.3346,-110.1062,-86.85717,0.001067912,-0.1257102,0.09433498,0,0.3,0,0,0,0
638224246928834869,23.60708,50.5203,14.45196,-8.343738,-11.15786,16.92585,-56.96799,-0.4675641,6.957485,-72.21353,-8.521038,-36.83611,0,0,0,47.28037,-2.854259,-60.16595,-125.3346,-110.1062,-86.85717,0.001067912,-0.1257102,0.09433498,0,0.3,0,0,0,0
638224246929164767,24.73796,46.24208,11.76702,-5.780157,-6.909645,17.07234,-56.96799,-0.4675641,6.957485,-72.28677,-8.594284,-36.90935,0,0,0,49.97396,-10.88314,-59.88815,-125.3346,-110.1062,-86.85717,0.001067912,-0.1257102,0.09433498,0,0.3,0,0,0,0
638224246929504665,25.51544,41.96388,9.47899,-3.582802,-2.58818,17.21883,-56.96799,-0.4675641,6.957485,-72.28677,-8.594284,-36.90935,0,0,0,52.17101,-19.01318,-59.04701,-125.3346,-110.1062,-86.85717,0.001067912,-0.1257102,0.09433498,0,0.3,0,0,0,0
638224246929854555,26.05732,37.33499,7.214305,-1.824918,2.538982,17.43856,-56.96799,-0.4675641,6.957485,-72.28677,-8.521038,-36.83611,0,0,0,53.93061,-28.071,-58.05604,-125.3346,-110.1062,-86.85717,0.001067912,-0.1257102,0.09433498,0,0.3,0,0,0,0
638224246930194445,26.31648,35.11406,6.280415,-1.238957,4.956073,17.6583,-56.96799,-0.4675641,6.957485,-72.28677,-8.521038,-36.83611,0,0,0,54.82614,-32.49596,-57.498,-125.3346,-110.1062,-86.85717,0.001067912,-0.1257102,0.09433498,0,0.3,0,0,0,0
638224246930534336,26.76412,30.92937,4.78619,-0.0670338,9.570518,18.39075,-56.96799,-0.4675641,6.957485,-72.28677,-8.521038,-36.90935,0,0,0,56.52138,-40.99565,-56.28233,-125.3346,-110.1062,-86.85717,0.001067912,-0.1257102,0.09433498,0,0.3,0,0,0,0
638224246930874227,27.14108,27.07196,3.75891,1.031644,13.96523,19.41618,-56.96799,-0.4675641,6.957485,-72.28677,-8.521038,-36.83611,0,0,0,58.15503,-49.02432,-54.90574,-125.3346,-110.1062,-86.85717,0.001067912,-0.1257102,0.09433498,0,0.3,0,0,0,0
638224246931204152,27.306,25.22508,3.478743,1.617605,15.8696,20.00214,-56.96799,-0.4675641,6.957485,-72.28677,-8.594284,-36.90935,0,0,0,59.05175,-52.92381,-53.96869,-125.3346,-110.1062,-86.85717,0.001067912,-0.1257102,0.09433498,0,0.3,0,0,0,0
638224246931544007,27.80075,21.67159,3.268617,2.496547,19.53186,21.02757,-56.96799,-0.4675641,6.957485,-72.28677,-8.521038,-36.90935,0,0,0,61.3442,-60.53877,-52.00408,-125.3346,-110.1062,-86.85717,0.001067912,-0.1257102,0.09433498,0,0.3,0,0,0,0
638224246931893895,28.48399,18.53891,3.268617,3.595225,22.97438,21.97976,-56.96799,-0.4675641,6.957485,-72.28677,-8.521038,-36.90935,0,0,0,63.92232,-67.38461,-50.54126,-125.3346,-110.1062,-86.85717,0.001067912,-0.1257102,0.09433498,0,0.3,0,0,0,0
638224246932233784,28.86095,17.20636,3.338659,4.181186,24.43929,22.34599,-56.96799,-0.4675641,6.957485,-72.28677,-8.594284,-36.83611,0,0,0,65.23399,-70.32687,-49.98825,-125.3346,-110.1062,-86.85717,0.001067912,-0.1257102,0.09433498,0,0.3,0,0,0,0
638224246932573690,29.42639,15.38286,3.50209,5.426354,27.07611,22.93195,-56.96799,-0.4675641,6.957485,-72.28677,-8.521038,-36.90935,0,0,0,67.17043,-74.37753,-49.26998,-125.3346,-110.1062,-86.85717,0.001067912,-0.1257102,0.09433498,0,0.3,0,0,0,0
638224246932903581,29.61487,15.10232,3.618826,6.232051,28.90724,23.15168,-56.96799,-0.4675641,6.957485,-72.28677,-8.594284,-36.90935,0,0,0,67.78062,-74.99062,-49.10661,-125.3346,-110.1062,-86.85717,0.001067912,-0.1257102,0.09433498,0,0.3,0,0,0,0
638224246933253452,29.54419,16.03745,3.805604,6.598277,29.34671,23.22493,-56.96799,-0.4675641,6.957485,-72.28677,-8.521038,-36.83611,0,0,0,67.55932,-72.86595,-49.15391,-125.3346,-110.1062,-86.85717,0.001067912,-0.1257102,0.09433498,0,0.3,0,0,0,0
638224246933583363,29.44995,16.87906,3.805604,6.744767,29.05373,23.29818,-56.96799,-0.4675641,6.957485,-72.28677,-8.594284,-36.83611,0,0,0,67.09032,-70.98745,-49.52619,-125.3346,-110.1062,-86.85717,0.001067912,-0.1257102,0.09433498,0,0.3,0,0,0,0
638224246933923248,29.12011,19.1935,3.712215,6.818012,27.95506,23.29818,-56.96799,-0.4675641,6.957485,-72.28677,-8.521038,-36.83611,0,0,0,65.48806,-65.88012,-50.7883,-125.3346,-110.1062,-86.85717,0.001067912,-0.1257102,0.09433498,0,0.3,0,0,0,0
638224246934273136,28.79027,21.99889,3.478743,6.305296,26.19717,22.12625,-56.96799,-0.4675641,6.957485,-72.28677,-8.594284,-36.83611,0,0,0,63.44296,-59.80289,-52.90127,-125.3346,-110.1062,-86.85717,0.001067912,-0.1257102,0.09433498,0,0.3,0,0,0,0
638224246934603031,28.64891,23.49509,3.478743,5.79258,25.02525,20.88108,-56.96799,-0.4675641,6.957485,-72.28677,-8.521038,-36.90935,0,0,0,62.5124,-56.59157,-53.92668,-125.3346,-110.1062,-86.85717,0.001067912,-0.1257102,0.09433498,0,0.3,0,0,0,0
638224246934942932,28.43687,26.30048,3.50209,4.547412,22.60816,17.36532,-56.96799,-0.4675641,6.957485,-72.28677,-8.594284,-36.90935,0,0,0,60.80552,-50.66644,-56.06533,-125.3346,-110.1062,-86.85717,0.001067912,-0.1257102,0.09433498,0,0.3,0,0,0,0
638224246935282831,28.17771,29.15262,3.852299,2.789528,19.89809,12.89736,-56.96799,-0.4675641,6.957485,-72.28677,-8.594284,-36.90935,0,0,0,59.2229,-44.7389,-57.79653,-125.3346,-110.1062,-86.85717,0.001067912,-0.1257102,0.09433498,0,0.3,0,0,0,0
638224246935622712,28.03635,30.62544,4.202508,1.837341,18.50643,10.48027,-56.96799,-0.4675641,6.957485,-72.28677,-8.594284,-36.90935,0,0,0,58.52925,-41.70982,-58.44078,-125.3346,-110.1062,-86.85717,0.001067912,-0.1257102,0.09433498,0,0.3,0,0,0,0
638224246935962604,27.70651,33.82826,5.113051,-0.2135241,15.64987,5.93907,-56.96799,-0.4675641,6.957485,-72.28677,-8.594284,-36.83611,0,0,0,57.02963,-35.2327,-59.75455,-125.3346,-110.1062,-86.85717,0.001067912,-0.1257102,0.09433498,0,0.3,0,0,0,0
638224246936302512,26.97615,36.86742,6.257067,-1.898163,12.72006,1.764095,-56.96799,-0.4675641,6.957485,-72.28677,-8.594284,-36.83611,0,0,0,54.9865,-29.20022,-60.32179,-125.3346,-110.1062,-86.85717,0.001067912,-0.1257102,0.09433498,0,0.3,0,0,0,0
638224246936642392,26.31648,38.52728,6.980833,-2.777105,11.03542,-0.2135241,-56.96799,-0.4675641,6.957485,-72.28677,-8.594284,-36.83611,0,0,0,53.43367,-25.94946,-60.31341,-125.3346,-110.1062,-86.85717,0.001067912,-0.1257102,0.09433498,0,0.3,0,0,0,0
638224246936982276,24.4788,41.51969,8.405016,-4.82797,7.88588,-3.363066,-56.96799,-0.4675641,6.957485,-72.28677,-8.521038,-36.83611,0,0,0,49.44707,-20.17306,-59.74184,-125.3346,-110.1062,-86.85717,0.001067912,-0.1257102,0.09433498,0,0.3,0,0,0,0
638224246937322181,22.005,44.11467,9.805852,-7.464796,4.809582,-5.780157,-56.96799,-0.4675641,6.957485,-72.28677,-8.594284,-36.90935,0,0,0,44.38145,-15.22734,-58.52966,-125.3346,-110.1062,-86.85717,0.001067912,-0.1257102,0.09433498,0,0.3,0,0,0,0
638224246937662064,19.01289,46.45249,11.39347,-10.61434,2.026266,-7.24506,-56.96799,-0.4675641,6.957485,-72.28677,-8.521038,-36.90935,0,0,0,38.51217,-10.71964,-56.58422,-125.3346,-110.1062,-86.85717,0.001067912,-0.1257102,0.09433498,0,0.3,0,0,0,0
638224246938011943,17.41081,47.52789,12.25731,-12.44547,0.5613627,-7.611286,-56.96799,-0.4675641,6.957485,-72.28677,-8.594284,-36.90935,0,0,0,35.41357,-8.600386,-55.41984,-125.3346,-110.1062,-86.85717,0.001067912,-0.1257102,0.09433498,0,0.3,0,0,0,0
638224246938351846,14.08886,49.42152,14.10175,-16.91342,-2.075463,-7.977511,-56.96799,-0.4675641,6.957485,-72.28677,-8.594284,-36.83611,0,0,0,29.02439,-4.700024,-52.70388,-125.3346,-110.1062,-86.85717,0.001067912,-0.1257102,0.09433498,0,0.3,0,0,0,0
638224246938691727,11.26166,50.87097,15.85279,-21.23489,-4.199574,-7.977511,-56.96799,-0.4675641,6.957485,-72.28677,-8.594284,-36.90935,0,0,0,23.54803,-1.485096,-50.09187,-125.3346,-110.1062,-86.85717,0.001067912,-0.1257102,0.09433498,0,0.3,0,0,0,0
638224246939021613,9.942304,51.45543,16.71664,-23.43224,-5.298251,-7.831022,-56.96799,-0.4675641,6.957485,-72.28677,-8.594284,-36.83611,0,0,0,20.96914,-0.06830969,-48.72381,-125.3346,-110.1062,-86.85717,0.001067912,-0.1257102,0.09433498,0,0.3,0,0,0,0
638224246939361503,7.680547,52.25029,18.14083,-27.97344,-7.349115,-7.318305,-56.96799,-0.4675641,6.957485,-72.28677,-8.594284,-36.83611,0,0,0,16.45999,2.067138,-46.29723,-125.3346,-110.1062,-86.85717,0.001067912,-0.1257102,0.09433498,0,0.3,0,0,0,0
638224246939691417,5.819311,52.50745,19.12141,-32.00193,-8.740773,-6.659099,-56.96799,-0.4675641,6.957485,-72.28677,-8.594284,-36.83611,0,0,0,12.65835,3.161591,-44.1472,-125.3346,-110.1062,-86.85717,0.001067912,-0.1257102,0.09433498,0,0.3,0,0,0,0
638224246940031310,5.088952,52.50745,19.42492,-33.83306,-9.106999,-6.366118,-56.96799,-0.4675641,6.957485,-72.28677,-8.521038,-36.83611,0,0,0,11.13328,3.394753,-43.33176,-125.3346,-110.1062,-86.85717,0.001067912,-0.1257102,0.09433498,0,0.3,0,0,0,0
638224246940371203,4.287913,52.3438,19.51831,-36.90935,-9.546471,-5.560421,-56.96799,-0.4675641,6.957485,-72.28677,-8.594284,-36.83611,0,0,0,9.422292,3.234954,-42.68296,-125.3346,-110.1062,-86.85717,0.001067912,-0.1257102,0.09433498,0,0.3,0,0,0,0
638224246940701087,4.170113,52.0165,19.1681,-38.96022,-9.692961,-4.754725,-56.96799,-0.4675641,6.957485,-72.28677,-8.594284,-36.83611,0,0,0,9.151733,2.497893,-42.83074,-125.3346,-110.1062,-86.85717,0.001067912,-0.1257102,0.09433498,0,0.3,0,0,0,0
638224246941050979,4.240793,51.64245,18.65447,-39.98565,-9.692961,-4.315253,-56.96799,-0.4675641,6.957485,-72.28677,-8.594284,-36.90935,0,0,0,9.273549,1.572435,-43.2874,-125.3346,-110.1062,-86.85717,0.001067912,-0.1257102,0.09433498,0,0.3,0,0,0,0
638224246941390883,4.358593,51.38529,18.28091,-40.35188,-9.766206,-4.168763,-56.96799,-0.4675641,6.957485,-72.28677,-8.594284,-36.90935,0,0,0,9.503591,0.9245613,-43.66185,-125.3346,-110.1062,-86.85717,0.001067912,-0.1257102,0.09433498,0,0.3,0,0,0,0
638224246941730769,4.782672,50.54368,17.11355,-40.35188,-9.546471,-4.095518,-56.96799,-0.4675641,6.957485,-72.28677,-8.594284,-36.90935,0,0,0,10.33726,-1.13496,-44.79871,-125.3346,-110.1062,-86.85717,0.001067912,-0.1257102,0.09433498,0,0.3,0,0,0,0
638224246942070639,5.560151,49.25787,15.52593,-39.47293,-8.374548,-3.949028,-56.96799,-0.4675641,6.957485,-72.28677,-8.594284,-36.83611,0,0,0,11.89101,-4.100727,-46.2014,-125.3346,-110.1062,-86.85717,0.001067912,-0.1257102,0.09433498,0,0.3,0,0,0,0
638224246942400551,6.172709,48.46302,14.5687,-38.74048,-7.715342,-3.949028,-56.96799,-0.4675641,6.957485,-72.28677,-8.594284,-36.83611,0,0,0,13.11469,-5.896178,-47.08936,-125.3346,-110.1062,-86.85717,0.001067912,-0.1257102,0.09433498,0,0.3,0,0,0,0
638224246942750423,7.774787,46.56938,12.44409,-36.76286,-6.103948,-3.949028,-56.96799,-0.4675641,6.957485,-72.28677,-8.594284,-36.83611,0,0,0,16.28902,-10.02742,-49.04681,-125.3346,-110.1062,-86.85717,0.001067912,-0.1257102,0.09433498,0,0.3,0,0,0,0
638224246943080335,9.942304,44.5121,10.29614,-33.75981,-3.906592,-3.582802,-56.96799,-0.4675641,6.957485,-72.28677,-8.594284,-36.83611,0,0,0,20.53345,-14.36634,-51.20937,-125.3346,-110.1062,-86.85717,0.001067912,-0.1257102,0.09433498,0,0.3,0,0,0,0
638224246943420213,11.16742,43.55359,9.315559,-32.07517,-2.73467,-2.777105,-56.96799,-0.4675641,6.957485,-72.28677,-8.521038,-36.83611,0,0,0,22.89806,-16.35883,-52.36023,-125.3346,-110.1062,-86.85717,0.001067912,-0.1257102,0.09433498,0,0.3,0,0,0,0
638224246943760114,13.80614,42.01063,7.868029,-28.19318,-0.171089,-0.6529952,-56.96799,-0.4675641,6.957485,-72.28677,-8.521038,-36.90935,0,0,0,28.00084,-19.49769,-54.40367,-125.3346,-110.1062,-86.85717,0.001067912,-0.1257102,0.09433498,0,0.3,0,0,0,0
638224246944099997,16.56265,41.02874,7.074222,-23.94496,2.099511,1.178134,-56.96799,-0.4675641,6.957485,-72.28677,-8.521038,-36.90935,0,0,0,33.35796,-21.44891,-56.18596,-125.3346,-110.1062,-86.85717,0.001067912,-0.1257102,0.09433498,0,0.3,0,0,0,0
638224246944449911,19.22493,40.46767,6.653971,-19.62349,4.003886,2.423302,-56.96799,-0.4675641,6.957485,-72.28677,-8.521038,-36.83611,0,0,0,38.49274,-22.5551,-57.96854,-125.3346,-110.1062,-86.85717,0.001067912,-0.1257102,0.09433498,0,0.3,0,0,0,0
638224246944779791,20.56785,40.28064,6.583929,-17.57263,4.663092,2.862773,-56.96799,-0.4675641,6.957485,-72.28677,-8.521038,-36.90935,0,0,0,41.11126,-22.9055,-58.7886,-125.3346,-110.1062,-86.85717,0.001067912,-0.1257102,0.09433498,0,0.3,0,0,0,0
638224246945129675,23.32436,39.97673,6.583929,-13.4709,5.688524,4.254431,-56.96799,-0.4675641,6.957485,-72.28677,-8.594284,-36.83611,0,0,0,46.51319,-23.44632,-60.47386,-125.3346,-110.1062,-86.85717,0.001067912,-0.1257102,0.09433498,0,0.3,0,0,0,0
