zeyangz2/DNN_classification_different_people_hand/data_by_names/Zeyang/zeyang_right_6.csv
Timestamp,Therapist joint angle 0,Therapist joint angle 1,Therapist joint angle 2,Therapist joint angle 3,Therapist joint angle 4,Therapist joint angle 5,Patient joint angle 0,Patient joint angle 1,Patient joint angle 2,Patient joint angle 3,Patient joint angle 4,Patient joint angle 5,Virtual joint angle 0,Virtual joint angle 1,Virtual joint angle 2,Therapist position x,Therapist position y,Therapist position z,Patient position x,Patient position y,Patient position z,Virtual position x,Virtual position y,Virtual position z,Assistive Force, Obstacle Force Magnitude, Therapist Constant Force, Patient Constant Force, Recovery Factor, Assistance Level
638223383782833200,0,0,0,0,0,0,0,0,0,0,0,0,0,0,0,0,0,0,0,0,0,0,0,0,0,0.3,0,0,0,0
638223383782913187,-18.28253,-0.9818845,6.560582,-109.2756,-62.9422,-83.34679,-4.570632,-0.4441859,0.1400836,-35.22471,-8.447793,45.05199,0,0,0,-46.60564,-111.4119,-27.28329,-10.65206,-111.0334,-35.10307,0.001067912,-0.1257102,0.09433498,0,0.3,0,0,0,0
638223383783233094,-18.28253,-0.9818845,6.560582,-109.2023,-62.86895,-83.34679,-4.570632,-0.4441859,0.1400836,-35.22471,-8.447793,45.05199,0,0,0,-46.60564,-111.4119,-27.28329,-10.65206,-111.0334,-35.10307,0.001067912,-0.1257102,0.09433498,0,0.3,0,0,0,0
638223383783592966,-18.28253,-0.9818845,6.560582,-109.2756,-62.9422,-83.34679,-4.570632,-0.4441859,0.1400836,-35.15147,-8.447793,45.05199,0,0,0,-46.60564,-111.4119,-27.28329,-10.65206,-111.0334,-35.10307,0.001067912,-0.1257102,0.09433498,0,0.3,0,0,0,0
638223383783952855,-18.28253,-0.9818845,6.560582,-109.2756,-62.9422,-83.34679,-4.570632,-0.4441859,0.1400836,-35.22471,-8.447793,45.05199,0,0,0,-46.60564,-111.4119,-27.28329,-10.65206,-111.0334,-35.10307,0.001067912,-0.1257102,0.09433498,0,0.3,0,0,0,0
638223383784302746,-18.28253,-0.9818845,6.560582,-109.2023,-62.86895,-83.34679,-4.570632,-0.4441859,0.1400836,-35.22471,-8.447793,45.05199,0,0,0,-46.60564,-111.4119,-27.28329,-10.65206,-111.0334,-35.10307,0.001067912,-0.1257102,0.09433498,0,0.3,0,0,0,0
638223383784652635,-18.28253,-0.9818845,6.560582,-109.2756,-62.9422,-83.34679,-4.570632,-0.4441859,0.1400836,-35.22471,-8.447793,45.05199,0,0,0,-46.60564,-111.4119,-27.28329,-10.65206,-111.0334,-35.10307,0.001067912,-0.1257102,0.09433498,0,0.3,0,0,0,0
638223383785012525,-18.28253,-0.9818845,6.560582,-109.2756,-62.86895,-83.34679,-4.570632,-0.4441859,0.1400836,-35.22471,-8.447793,45.05199,0,0,0,-46.60564,-111.4119,-27.28329,-10.65206,-111.0334,-35.10307,0.001067912,-0.1257102,0.09433498,0,0.3,0,0,0,0
638223383785362397,-18.28253,-0.9818845,6.560582,-109.2023,-62.86895,-83.34679,-4.570632,-0.4441859,0.1400836,-35.22471,-8.447793,45.05199,0,0,0,-46.60564,-111.4119,-27.28329,-10.65206,-111.0334,-35.10307,0.001067912,-0.1257102,0.09433498,0,0.3,0,0,0,0
638223383785732273,-18.28253,-0.9818845,6.560582,-109.2023,-62.86895,-83.34679,-4.570632,-0.4441859,0.1400836,-35.22471,-8.447793,45.05199,0,0,0,-46.60564,-111.4119,-27.28329,-10.65206,-111.0334,-35.10307,0.001067912,-0.1257102,0.09433498,0,0.3,0,0,0,0
638223383786092175,-18.28253,-0.9818845,6.560582,-109.2023,-62.86895,-83.34679,-4.570632,-0.4441859,0.1400836,-35.22471,-8.447793,45.05199,0,0,0,-46.60564,-111.4119,-27.28329,-10.65206,-111.0334,-35.10307,0.001067912,-0.1257102,0.09433498,0,0.3,0,0,0,0
638223383786452046,-18.28253,-0.9818845,6.560582,-109.2756,-62.9422,-83.34679,-4.570632,-0.4441859,0.1400836,-35.22471,-8.447793,45.05199,0,0,0,-46.60564,-111.4119,-27.28329,-10.65206,-111.0334,-35.10307,0.001067912,-0.1257102,0.09433498,0,0.3,0,0,0,0
638223383786818010,-18.28253,-0.9818845,6.560582,-109.2023,-62.86895,-83.34679,-4.570632,-0.4441859,0.1400836,-35.15147,-8.447793,45.05199,0,0,0,-46.60564,-111.4119,-27.28329,-10.65206,-111.0334,-35.10307,0.001067912,-0.1257102,0.09433498,0,0.3,0,0,0,0
638223383787178021,-18.28253,-0.9818845,6.560582,-109.2023,-62.9422,-83.34679,-4.570632,-0.4441859,0.1400836,-35.22471,-8.447793,45.05199,0,0,0,-46.60564,-111.4119,-27.28329,-10.65206,-111.0334,-35.10307,0.001067912,-0.1257102,0.09433498,0,0.3,0,0,0,0
638223383787607760,-18.28253,-0.9818845,6.560582,-109.2756,-62.9422,-83.34679,-4.570632,-0.4441859,0.1400836,-35.22471,-8.447793,45.05199,0,0,0,-46.60564,-111.4119,-27.28329,-10.65206,-111.0334,-35.10307,0.001067912,-0.1257102,0.09433498,0,0.3,0,0,0,0
638223383787977633,-18.28253,-0.9818845,6.560582,-109.2023,-62.9422,-83.34679,-4.570632,-0.4441859,0.1400836,-35.22471,-8.447793,45.05199,0,0,0,-46.60564,-111.4119,-27.28329,-10.65206,-111.0334,-35.10307,0.001067912,-0.1257102,0.09433498,0,0.3,0,0,0,0
638223383788337535,-18.28253,-0.9818845,6.560582,-109.2756,-62.9422,-83.34679,-4.570632,-0.4441859,0.1400836,-35.22471,-8.447793,45.05199,0,0,0,-46.60564,-111.4119,-27.28329,-10.65206,-111.0334,-35.10307,0.001067912,-0.1257102,0.09433498,0,0.3,0,0,0,0
638223383788707399,-18.28253,-0.9818845,6.560582,-109.2023,-62.86895,-83.34679,-4.570632,-0.4441859,0.1400836,-35.22471,-8.447793,45.05199,0,0,0,-46.60564,-111.4119,-27.28329,-10.65206,-111.0334,-35.10307,0.001067912,-0.1257102,0.09433498,0,0.3,0,0,0,0
638223383789140030,-18.28253,-0.9818845,6.560582,-109.2023,-62.9422,-83.34679,-4.570632,-0.4441859,0.1400836,-35.22471,-8.447793,45.05199,0,0,0,-46.60564,-111.4119,-27.28329,-10.65206,-111.0334,-35.10307,0.001067912,-0.1257102,0.09433498,0,0.3,0,0,0,0
638223383789494369,-18.28253,-0.9818845,6.560582,-109.2756,-62.9422,-83.34679,-4.570632,-0.4441859,0.1400836,-35.22471,-8.447793,45.12524,0,0,0,-46.60564,-111.4119,-27.28329,-10.65206,-111.0334,-35.10307,0.001067912,-0.1257102,0.09433498,0,0.3,0,0,0,0
638223383789854966,-18.28253,-0.9818845,6.560582,-109.2023,-62.86895,-83.34679,-4.570632,-0.4441859,0.1400836,-35.22471,-8.447793,45.05199,0,0,0,-46.60564,-111.4119,-27.28329,-10.65206,-111.0334,-35.10307,0.001067912,-0.1257102,0.09433498,0,0.3,0,0,0,0
638223383790185774,-18.28253,-0.9818845,6.537234,-109.2023,-62.9422,-83.34679,-4.570632,-0.4441859,0.1400836,-35.22471,-8.447793,45.05199,0,0,0,-46.5887,-111.4181,-27.33455,-10.65206,-111.0334,-35.10307,0.001067912,-0.1257102,0.09433498,0,0.3,0,0,1.855716E-05,0
638223383790651289,-18.28253,-0.9818845,6.537234,-109.2756,-62.9422,-83.34679,-4.570632,-0.4441859,0.1400836,-35.22471,-8.447793,45.05199,0,0,0,-46.5887,-111.4181,-27.33455,-10.65206,-111.0334,-35.10307,0.001067912,-0.1257102,0.09433498,0,0.3,0,0,5.390907E-05,0
638223383791011163,-18.28253,-0.9818845,6.537234,-109.2023,-62.9422,-83.34679,-4.570632,-0.4441859,0.1400836,-35.22471,-8.447793,45.05199,0,0,0,-46.5887,-111.4181,-27.33455,-10.65206,-111.0334,-35.10307,0.001067912,-0.1257102,0.09433498,0,0.3,0,0,8.583982E-05,0
638223383791381061,-18.28253,-0.9818845,6.537234,-109.2756,-62.9422,-83.34679,-4.570632,-0.4441859,0.1400836,-35.22471,-8.447793,45.12524,0,0,0,-46.5887,-111.4181,-27.33455,-10.65206,-111.0334,-35.10307,0.001067912,-0.1257102,0.09433498,0,0.3,0,0,0.0001149715,0
638223383791750944,-18.28253,-0.9818845,6.537234,-109.2756,-62.9422,-83.34679,-4.570632,-0.4441859,0.1400836,-35.22471,-8.447793,45.12524,0,0,0,-46.5887,-111.4181,-27.33455,-10.65206,-111.0334,-35.10307,0.001067912,-0.1257102,0.09433498,0,0.3,0,0,0.000141615,0
638223383792190800,-18.28253,-0.9818845,6.537234,-109.2023,-62.86895,-83.34679,-4.570632,-0.4441859,0.1400836,-35.22471,-8.447793,45.05199,0,0,0,-46.5887,-111.4181,-27.33455,-10.65206,-111.0334,-35.10307,0.001067912,-0.1257102,0.09433498,0,0.3,0,0,0.0001661851,0
638223383792530679,-18.28253,-0.9818845,6.537234,-109.2756,-62.86895,-83.34679,-4.570632,-0.4441859,0.1400836,-35.22471,-8.447793,45.05199,0,0,0,-46.5887,-111.4181,-27.33455,-10.65206,-111.0334,-35.10307,0.001067912,-0.1257102,0.09433498,0,0.3,0,0,0.0001886817,0
638223383792890586,-18.28253,-0.9818845,6.537234,-109.2023,-62.86895,-83.34679,-4.570632,-0.4441859,0.1400836,-35.22471,-8.447793,45.05199,0,0,0,-46.5887,-111.4181,-27.33455,-10.65206,-111.0334,-35.10307,0.001067912,-0.1257102,0.09433498,0,0.3,0,0,0.0001993599,0
638223383793260454,-18.28253,-0.9818845,6.537234,-109.2756,-62.9422,-83.34679,-4.570632,-0.4441859,0.1400836,-35.22471,-8.447793,45.05199,0,0,0,-46.5887,-111.4181,-27.33455,-10.65206,-111.0334,-35.10307,0.001067912,-0.1257102,0.09433498,0,0.3,0,0,0.0002194721,0
638223383793690336,-18.28253,-0.9818845,6.537234,-109.2023,-62.9422,-83.34679,-4.570632,-0.4441859,0.1400836,-35.22471,-8.447793,45.05199,0,0,0,-46.5887,-111.4181,-27.33455,-10.65206,-111.0334,-35.10307,0.001067912,-0.1257102,0.09433498,0,0.3,0,0,0.0002381329,0
638223383794050214,-18.28253,-0.9818845,6.537234,-109.2023,-62.9422,-83.34679,-4.570632,-0.4441859,0.1400836,-35.22471,-8.447793,45.05199,0,0,0,-46.5887,-111.4181,-27.33455,-10.65206,-111.0334,-35.10307,0.001067912,-0.1257102,0.09433498,0,0.3,0,0,0.000255446,0
638223383794420076,-18.28253,-0.9818845,6.537234,-109.2756,-62.9422,-83.34679,-4.570632,-0.4441859,0.1400836,-35.22471,-8.447793,45.12524,0,0,0,-46.5887,-111.4181,-27.33455,-10.65206,-111.0334,-35.10307,0.001067912,-0.1257102,0.09433498,0,0.3,0,0,0.0002717224,0
638223383794769976,-18.28253,-0.9818845,6.537234,-109.2756,-62.9422,-83.34679,-4.570632,-0.4441859,0.1400836,-35.22471,-8.447793,45.05199,0,0,0,-46.5887,-111.4181,-27.33455,-10.65206,-111.0334,-35.10307,0.001067912,-0.1257102,0.09433498,0,0.3,0,0,0.0002868584,0
638223383795209837,-18.28253,-0.9818845,6.537234,-109.2756,-62.9422,-83.34679,-4.570632,-0.4441859,0.1400836,-35.22471,-8.447793,45.05199,0,0,0,-46.5887,-111.4181,-27.33455,-10.65206,-111.0334,-35.10307,0.001067912,-0.1257102,0.09433498,0,0.3,0,0,0.0003010614,0
638223383795579721,-18.28253,-0.9818845,6.537234,-109.2023,-62.86895,-83.34679,-4.570632,-0.4441859,0.1400836,-35.22471,-8.447793,45.05199,0,0,0,-46.5887,-111.4181,-27.33455,-10.65206,-111.0334,-35.10307,0.001067912,-0.1257102,0.09433498,0,0.3,0,0,0.000314435,0
638223383795939590,-18.28253,-0.9818845,6.537234,-109.2023,-62.9422,-83.34679,-4.570632,-0.4441859,0.1400836,-35.22471,-8.447793,45.05199,0,0,0,-46.5887,-111.4181,-27.33455,-10.65206,-111.0334,-35.10307,0.001067912,-0.1257102,0.09433498,0,0.3,0,0,0.0003269792,0
638223383796309484,-18.42389,-0.9818845,6.700665,-108.9826,-63.01544,-82.61434,-4.570632,-0.4441859,0.1400836,-35.22471,-8.447793,45.05199,0,0,0,-47.05589,-111.3742,-27.09146,-10.65206,-111.0334,-35.10307,0.001067912,-0.1257102,0.09433498,0,0.3,0,0,0.0001330103,0
638223383796739349,-18.96577,-0.350673,7.447778,-100.0467,-62.72246,-82.90732,-4.570632,-0.4441859,0.1400836,-35.15147,-8.447793,45.05199,0,0,0,-48.9561,-109.6911,-25.89475,-10.65206,-111.0334,-35.10307,0.001067912,-0.1257102,0.09433498,0,0.3,0,0,0,0
638223383797099234,-19.15425,-0.04675641,7.354388,-92.94191,-61.84352,-93.82085,-4.570632,-0.4441859,0.1400836,-35.22471,-8.447793,45.05199,0,0,0,-49.35453,-109.0118,-26.25785,-10.65206,-111.0334,-35.10307,0.001067912,-0.1257102,0.09433498,0,0.3,0,0,0,0
638223383797469112,-19.67257,-0.1870256,6.724013,-76.53499,-58.91372,-137.7679,-4.570632,-0.4441859,0.1400836,-35.22471,-8.447793,45.05199,0,0,0,-50.14751,-109.5181,-28.08185,-10.65206,-111.0334,-35.10307,0.001067912,-0.1257102,0.09433498,0,0.3,0,0,0,0
638223383797799013,-20.87413,-0.350673,6.934138,-62.25218,-54.66549,-141.8697,-4.570632,-0.4441859,0.1400836,-35.22471,-8.447793,45.05199,0,0,0,-53.25024,-109.8408,-28.71223,-10.65206,-111.0334,-35.10307,0.001067912,-0.1257102,0.09433498,0,0.3,0,0,0,0
638223383798268864,-23.37148,-0.9117499,7.261,-52.0711,-48.5129,-142.0162,-4.570632,-0.4441859,0.1400836,-35.22471,-8.447793,45.05199,0,0,0,-59.57789,-111.0525,-30.48538,-10.65206,-111.0334,-35.10307,0.001067912,-0.1257102,0.09433498,0,0.3,0,0,0,0
638223383798598754,-24.78508,-1.005263,7.307694,-49.06805,-44.7774,-142.0162,-4.570632,-0.4441859,0.1400836,-35.22471,-8.447793,45.05199,0,0,0,-63.00447,-111.2564,-31.90253,-10.65206,-111.0334,-35.10307,0.001067912,-0.1257102,0.09433498,0,0.3,0,0,0,0
638223383798958642,-26.08088,-0.9585064,7.517819,-46.21149,-39.4305,-142.0162,-4.570632,-0.4441859,0.1400836,-35.22471,-8.447793,45.05199,0,0,0,-66.28801,-111.0845,-32.92495,-10.65206,-111.0334,-35.10307,0.001067912,-0.1257102,0.09433498,0,0.3,0,0,0,0
638223383799328538,-27.49447,-0.9585064,7.354388,-44.38036,-34.37658,-142.0162,-4.570632,-0.4441859,0.1400836,-35.22471,-8.447793,45.05199,0,0,0,-69.43457,-111.1337,-34.93602,-10.65206,-111.0334,-35.10307,0.001067912,-0.1257102,0.09433498,0,0.3,0,0,0,0
638223383799788510,-29.07299,-0.9585064,7.377736,-43.86765,-28.00425,-141.9429,-4.570632,-0.4441859,0.1400836,-35.22471,-8.447793,45.05199,0,0,0,-73.10954,-111.1267,-36.85226,-10.65206,-111.0334,-35.10307,0.001067912,-0.1257102,0.09433498,0,0.3,0,0,0,0
638223383800128263,-29.30859,-0.9585064,7.42443,-43.57467,-23.31656,-141.7964,-4.570632,-0.4441859,0.1400836,-35.22471,-8.447793,45.05199,0,0,0,-73.70239,-111.1127,-37.06002,-10.65206,-111.0334,-35.10307,0.001067912,-0.1257102,0.09433498,0,0.3,0,0,0,0
638223383800489339,-29.21435,-0.9585064,7.471125,-42.84221,-20.24026,-141.6499,-4.570632,-0.4441859,0.1400836,-35.22471,-8.447793,45.05199,0,0,0,-73.53894,-111.0986,-36.84492,-10.65206,-111.0334,-35.10307,0.001067912,-0.1257102,0.09433498,0,0.3,0,0,0,0
638223383800814272,-28.57823,-0.9585064,8.124848,-40.86459,-13.79469,-137.182,-4.570632,-0.4441859,0.1400836,-35.22471,-8.447793,45.05199,0,0,0,-72.79549,-110.8922,-34.71284,-10.65206,-111.0334,-35.10307,0.001067912,-0.1257102,0.09433498,0,0.3,0,0,0,0
638223383801284128,-27.49447,-0.9585064,9.595726,-38.59399,-7.422361,-128.0996,-4.570632,-0.4441859,0.1400836,-35.22471,-8.447793,45.05199,0,0,0,-71.81638,-110.365,-30.35954,-10.65206,-111.0334,-35.10307,0.001067912,-0.1257102,0.09433498,0,0.3,0,0,0,0
638223383801644273,-26.29292,-0.8649935,10.7164,-36.25014,-1.855728,-122.8992,-4.570632,-0.4441859,0.1400836,-35.22471,-8.447793,45.05199,0,0,0,-70.04574,-109.6874,-26.5791,-10.65206,-111.0334,-35.10307,0.001067912,-0.1257102,0.09433498,0,0.3,0,0,0,0
638223383802014152,-25.02068,-0.6545897,10.92652,-33.68657,3.857395,-119.6031,-4.570632,-0.4441859,0.1400836,-35.22471,-8.447793,45.05199,0,0,0,-67.08665,-109.106,-24.61767,-10.65206,-111.0334,-35.10307,0.001067912,-0.1257102,0.09433498,0,0.3,0,0,0,0
638223383802374042,-23.98404,-0.6312115,10.6697,-30.9765,9.057802,-115.5747,-4.570632,-0.4441859,0.1400836,-35.22471,-8.447793,45.05199,0,0,0,-64.23689,-109.1635,-23.96337,-10.65206,-111.0334,-35.10307,0.001067912,-0.1257102,0.09433498,0,0.3,0,0,0,0
638223383802874185,-23.63064,-0.6545897,8.498405,-27.0945,15.28364,-106.9317,-4.570632,-0.4441859,0.1400836,-35.22471,-8.447793,45.05199,0,0,0,-61.34761,-110.0593,-28.1353,-10.65206,-111.0334,-35.10307,0.001067912,-0.1257102,0.09433498,0,0.3,0,0,0,0
638223383803183955,-23.6542,-0.7013461,6.49054,-25.40986,17.62749,-102.83,-4.570632,-0.4441859,0.1400836,-35.22471,-8.447793,45.12524,0,0,0,-59.54594,-110.7776,-32.40541,-10.65206,-111.0334,-35.10307,0.001067912,-0.1257102,0.09433498,0,0.3,0,0,0,0
638223383803543604,-23.6542,-0.9117499,2.918408,-22.91953,20.85028,-97.11688,-4.570632,-0.4441859,0.1400836,-35.22471,-8.447793,45.12524,0,0,0,-56.21934,-111.949,-40.00011,-10.65206,-111.0334,-35.10307,0.001067912,-0.1257102,0.09433498,0,0.3,0,0,0,0
638223383803913495,-23.6542,-0.9818845,-0.9572379,-20.72217,23.92657,-94.5533,-4.570632,-0.4441859,0.1400836,-35.22471,-8.521038,45.05199,0,0,0,-52.60044,-112.2665,-48.26212,-10.65206,-111.0334,-35.10307,0.001067912,-0.1257102,0.09433498,0,0.3,0,0,0,0
638223383804303384,-23.6542,-0.9818845,-2.871714,-19.84323,25.02525,-94.11383,-4.570632,-0.4441859,0.1400836,-35.22471,-8.447793,45.05199,0,0,0,-50.81381,-112.1177,-52.34104,-10.65206,-111.0334,-35.10307,0.001067912,-0.1257102,0.09433498,0,0.3,0,0,0,0
638223383804673282,-23.6542,-0.9818845,-5.953553,-18.45157,26.5634,-93.60111,-4.570632,-0.4441859,0.1400836,-35.22471,-8.447793,45.12524,0,0,0,-47.9449,-111.5659,-58.89082,-10.65206,-111.0334,-35.10307,0.001067912,-0.1257102,0.09433498,0,0.3,0,0,0,0
638223383805033176,-23.6542,-0.9818845,-7.237653,-17.35289,27.44234,-92.94191,-4.570632,-0.4441859,0.1400836,-35.22471,-8.374548,45.05199,0,0,0,-46.75378,-111.2226,-61.61016,-10.65206,-111.0334,-35.10307,0.001067912,-0.1257102,0.09433498,0,0.3,0,0,0,0
638223383805393076,-23.6542,-0.9818845,-7.261,-16.5472,27.80857,-92.72218,-4.570632,-0.4441859,0.1400836,-35.22471,-8.447793,45.05199,0,0,0,-46.73216,-111.2158,-61.65953,-10.65206,-111.0334,-35.10307,0.001067912,-0.1257102,0.09433498,0,0.3,0,0,0,0
638223383805827494,-23.6542,-0.9818845,-7.261,-15.96124,27.2226,-92.64893,-4.570632,-0.4441859,0.1400836,-35.22471,-8.447793,45.05199,0,0,0,-46.73216,-111.2158,-61.65953,-10.65206,-111.0334,-35.10307,0.001067912,-0.1257102,0.09433498,0,0.3,0,0,0,0
638223383806157403,-23.6542,-0.9818845,-7.261,-15.7415,26.63664,-92.50243,-4.570632,-0.4441859,0.1400836,-35.22471,-8.447793,45.05199,0,0,0,-46.73216,-111.2158,-61.65953,-10.65206,-111.0334,-35.10307,0.001067912,-0.1257102,0.09433498,0,0.3,0,0,0,0
638223383806527265,-23.6542,-0.9818845,-7.261,-15.88799,25.68446,-92.57568,-4.570632,-0.4441859,0.1400836,-35.22471,-8.447793,45.05199,0,0,0,-46.73216,-111.2158,-61.65953,-10.65206,-111.0334,-35.10307,0.001067912,-0.1257102,0.09433498,0,0.3,0,0,0,0
638223383806883466,-23.6542,-0.9818845,-7.261,-16.18097,25.31823,-92.57568,-4.570632,-0.4441859,0.1400836,-35.22471,-8.521038,45.05199,0,0,0,-46.73216,-111.2158,-61.65953,-10.65206,-111.0334,-35.10307,0.001067912,-0.1257102,0.09433498,0,0.3,0,0,0,0
638223383807348798,-23.6542,-0.9818845,-7.42443,-18.96429,24.36604,-92.64893,-4.570632,-0.4441859,0.1400836,-35.22471,-8.447793,45.05199,0,0,0,-46.5808,-111.1671,-62.00509,-10.65206,-111.0334,-35.10307,0.001067912,-0.1257102,0.09433498,0,0.3,0,0,0,0
638223383807723404,-23.6542,-0.9818845,-7.751292,-21.38138,23.85333,-92.64893,-4.570632,-0.4441859,0.1400836,-35.22471,-8.447793,45.05199,0,0,0,-46.27826,-111.0667,-62.69581,-10.65206,-111.0334,-35.10307,0.001067912,-0.1257102,0.09433498,0,0.3,0,0,0,0
638223383808083299,-23.6542,-0.9818845,-7.751292,-23.13926,23.41385,-92.79542,-4.570632,-0.4441859,0.1400836,-35.22471,-8.447793,45.05199,0,0,0,-46.27826,-111.0667,-62.69581,-10.65206,-111.0334,-35.10307,0.001067912,-0.1257102,0.09433498,0,0.3,0,0,0,0
638223383808443183,-23.60708,-0.9818845,-7.611208,-26.80152,22.38842,-93.16164,-4.570632,-0.4441859,0.1400836,-35.22471,-8.447793,45.05199,0,0,0,-46.32074,-111.1103,-62.36172,-10.65206,-111.0334,-35.10307,0.001067912,-0.1257102,0.09433498,0,0.3,0,0,0,0
638223383808873036,-23.183,-0.9117499,-6.794055,-30.68352,21.58273,-94.5533,-4.570632,-0.4441859,0.1400836,-35.22471,-8.447793,45.05199,0,0,0,-46.27884,-111.1855,-60.28484,-10.65206,-111.0334,-35.10307,0.001067912,-0.1257102,0.09433498,0,0.3,0,0,0,0
638223383809232922,-22.49976,-0.4208077,-6.187026,-32.00193,21.50948,-95.06602,-4.570632,-0.4441859,0.1400836,-35.22471,-8.447793,45.05199,0,0,0,-45.52919,-110.2027,-58.43151,-10.65206,-111.0334,-35.10307,0.001067912,-0.1257102,0.09433498,0,0.3,0,0,0,0
638223383809602813,-20.49717,1.42607,-5.673386,-32.95412,21.72922,-95.28575,-4.570632,-0.4441859,0.1400836,-35.22471,-8.447793,45.05199,0,0,0,-42.06346,-106.0281,-55.82919,-10.65206,-111.0334,-35.10307,0.001067912,-0.1257102,0.09433498,0,0.3,0,0,0,0
638223383809962707,-17.43437,4.582128,-5.20644,-32.07517,21.87571,-94.84628,-4.570632,-0.4441859,0.1400836,-35.22471,-8.447793,45.05199,0,0,0,-36.20016,-98.79676,-53.07751,-10.65206,-111.0334,-35.10307,0.001067912,-0.1257102,0.09433498,0,0.3,0,0,0,0
638223383810402549,-12.67526,8.533044,-4.669453,-29.07212,21.14326,-93.01515,-4.570632,-0.4441859,0.1400836,-35.22471,-8.447793,45.05199,0,0,0,-26.55442,-89.77096,-50.28106,-10.65206,-111.0334,-35.10307,0.001067912,-0.1257102,0.09433498,0,0.3,0,0,0,0
638223383810762457,-8.481586,11.19816,-4.062424,-25.55635,20.55729,-90.89104,-4.570632,-0.4441859,0.1400836,-35.22471,-8.447793,45.12524,0,0,0,-17.9002,-83.76801,-48.31307,-10.65206,-111.0334,-35.10307,0.001067912,-0.1257102,0.09433498,0,0.3,0,0,0,0
638223383811132328,-2.591596,13.98017,-3.175228,-19.33051,20.04458,-88.47395,-4.570632,-0.4441859,0.1400836,-35.22471,-8.447793,45.05199,0,0,0,-5.517035,-77.57979,-46.46093,-10.65206,-111.0334,-35.10307,0.001067912,-0.1257102,0.09433498,0,0.3,0,0,0,0
638223383811492201,0.4947592,15.05556,-2.591547,-15.59501,19.82484,-87.59501,-4.570632,-0.4441859,0.1400836,-35.22471,-8.447793,45.12524,0,0,0,1.059896,-75.2252,-45.6114,-10.65206,-111.0334,-35.10307,0.001067912,-0.1257102,0.09433498,0,0.3,0,0,0,0
638223383811922064,9.565345,17.53365,-0.3969035,-2.923595,19.82484,-86.64282,-4.570632,-0.4441859,0.1400836,-35.22471,-8.447793,45.05199,0,0,0,20.97607,-69.82299,-43.87418,-10.65206,-111.0334,-35.10307,0.001067912,-0.1257102,0.09433498,0,0.3,0,0,0,0
638223383812281949,12.58102,18.18824,0.2568199,1.471115,19.89809,-86.78931,-4.570632,-0.4441859,0.1400836,-35.22471,-8.447793,45.05199,0,0,0,27.72522,-68.37479,-44.12121,-10.65206,-111.0334,-35.10307,0.001067912,-0.1257102,0.09433498,0,0.3,0,0,0,0
638223383812641835,18.25897,19.21688,1.70435,9.747819,20.04458,-88.18098,-4.570632,-0.4441859,0.1400836,-35.22471,-8.447793,45.05199,0,0,0,40.69484,-66.04953,-45.00396,-10.65206,-111.0334,-35.10307,0.001067912,-0.1257102,0.09433498,0,0.3,0,0,0,0
638223383813011716,23.37148,20.08188,3.128534,17.29207,20.26431,-90.67131,-4.570632,-0.4441859,0.1400836,-35.22471,-8.447793,45.05199,0,0,0,52.56966,-64.01385,-46.70258,-10.65206,-111.0334,-35.10307,0.001067912,-0.1257102,0.09433498,0,0.3,0,0,0,0
638223383813441581,28.79027,21.39106,4.552717,25.42229,20.48405,-94.99277,-4.570632,-0.4441859,0.1400836,-35.22471,-8.447793,45.05199,0,0,0,64.89564,-60.94231,-50.25778,-10.65206,-111.0334,-35.10307,0.001067912,-0.1257102,0.09433498,0,0.3,0,0,0,0
638223383813792934,31.24051,22.18591,5.299829,29.0113,20.63054,-97.04363,-4.570632,-0.4441859,0.1400836,-35.22471,-8.447793,45.05199,0,0,0,70.42729,-59.07521,-52.24605,-10.65206,-111.0334,-35.10307,0.001067912,-0.1257102,0.09433498,0,0.3,0,0,0,0
638223383814122828,34.53891,23.89252,6.770707,33.40601,20.26431,-98.94801,-4.570632,-0.4441859,0.1400836,-35.22471,-8.447793,45.05199,0,0,0,78.03958,-55.06028,-54.9667,-10.65206,-111.0334,-35.10307,0.001067912,-0.1257102,0.09433498,0,0.3,0,0,0,0
638223383814482718,35.97606,25.06143,7.634556,35.31038,19.67835,-99.75371,-4.570632,-0.4441859,0.1400836,-35.22471,-8.447793,45.05199,0,0,0,81.36834,-52.33223,-56.25763,-10.65206,-111.0334,-35.10307,0.001067912,-0.1257102,0.09433498,0,0.3,0,0,0,0
638223383814952561,39.62786,29.31627,10.10937,40.73053,16.45556,-101.4383,-4.570632,-0.4441859,0.1400836,-35.22471,-8.447793,45.05199,0,0,0,89.08675,-42.63751,-60.76915,-10.65206,-111.0334,-35.10307,0.001067912,-0.1257102,0.09433498,0,0.3,0,0,0,0
638223383815312446,40.94721,31.81774,11.74367,43.07437,14.03847,-101.6581,-4.570632,-0.4441859,0.1400836,-35.22471,-8.447793,45.05199,0,0,0,92.04753,-36.90408,-62.26419,-10.65206,-111.0334,-35.10307,0.001067912,-0.1257102,0.09433498,0,0.3,0,0,0,0
638223383815642345,41.51265,33.33732,12.81765,44.24629,12.42708,-101.5848,-4.570632,-0.4441859,0.1400836,-35.22471,-8.447793,45.05199,0,0,0,93.44661,-33.39229,-62.7748,-10.65206,-111.0334,-35.10307,0.001067912,-0.1257102,0.09433498,0,0.3,0,0,0,0
638223383816012234,41.98385,37.03107,15.19907,46.95637,8.325351,-101.0721,-4.570632,-0.4441859,0.1400836,-35.22471,-8.447793,45.05199,0,0,0,94.59571,-25.02574,-63.23125,-10.65206,-111.0334,-35.10307,0.001067912,-0.1257102,0.09433498,0,0.3,0,0,0,0
638223383816512074,41.60689,42.54833,18.3743,49.95942,1.440305,-99.09451,-4.570632,-0.4441859,0.1400836,-35.22471,-8.447793,45.05199,0,0,0,93.14483,-13.02863,-63.46387,-10.65206,-111.0334,-35.10307,0.001067912,-0.1257102,0.09433498,0,0.3,0,0,0,0
638223383816841958,41.11213,44.74588,19.44827,50.83836,-1.709238,-98.94801,-4.570632,-0.4441859,0.1400836,-35.22471,-8.521038,45.05199,0,0,0,91.46941,-8.517824,-63.54145,-10.65206,-111.0334,-35.10307,0.001067912,-0.1257102,0.09433498,0,0.3,0,0,0,0
638223383817201849,39.91058,48.43964,21.3861,51.79055,-6.836399,-98.80152,-4.570632,-0.4441859,0.1400836,-35.22471,-8.447793,45.05199,0,0,0,87.95686,-1.037998,-63.19423,-10.65206,-111.0334,-35.10307,0.001067912,-0.1257102,0.09433498,0,0.3,0,0,0,0
638223383817571728,38.44986,51.94637,23.69748,52.01028,-11.45084,-98.80152,-4.570632,-0.4441859,0.1400836,-35.15147,-8.447793,45.05199,0,0,0,84.43893,6.248369,-62.00481,-10.65206,-111.0334,-35.10307,0.001067912,-0.1257102,0.09433498,0,0.3,0,0,0,0
638223383818001583,36.11742,55.94404,26.8727,52.08353,-16.57801,-98.94801,-4.570632,-0.4441859,0.1400836,-35.22471,-8.447793,45.05199,0,0,0,79.54626,14.87935,-59.33448,-10.65206,-111.0334,-35.10307,0.001067912,-0.1257102,0.09433498,0,0.3,0,0,0,0
638223383818361485,34.13838,58.46889,29.20743,52.08353,-20.02053,-99.75371,-4.570632,-0.4441859,0.1400836,-35.22471,-8.447793,45.05199,0,0,0,75.65344,20.61599,-56.77142,-10.65206,-111.0334,-35.10307,0.001067912,-0.1257102,0.09433498,0,0.3,0,0,0,0
638223383818731356,31.71171,60.97035,31.68224,52.01028,-24.12226,-102.0975,-4.570632,-0.4441859,0.1400836,-35.22471,-8.447793,45.05199,0,0,0,70.82872,26.46969,-53.72093,-10.65206,-111.0334,-35.10307,0.001067912,-0.1257102,0.09433498,0,0.3,0,0,0,0
638223383819091243,30.43947,61.92886,32.61613,51.86379,-26.02663,-103.2695,-4.570632,-0.4441859,0.1400836,-35.22471,-8.447793,45.05199,0,0,0,68.20572,28.69244,-52.27943,-10.65206,-111.0334,-35.10307,0.001067912,-0.1257102,0.09433498,0,0.3,0,0,0,0
638223383819528135,26.3636,63.93939,34.83412,50.17915,-30.93406,-104.4414,-4.570632,-0.4441859,0.1400836,-35.22471,-8.447793,45.12524,0,0,0,59.83941,33.68737,-47.61174,-10.65206,-111.0334,-35.10307,0.001067912,-0.1257102,0.09433498,0,0.3,0,0,0,0
638223383819862371,25.0678,64.3602,35.4178,49.37346,-32.32572,-104.5146,-4.570632,-0.4441859,0.1400836,-35.22471,-8.447793,45.05199,0,0,0,57.19104,34.89602,-46.08137,-10.65206,-111.0334,-35.10307,0.001067912,-0.1257102,0.09433498,0,0.3,0,0,0,0
638223383820222298,22.4762,64.92127,36.04818,47.39584,-34.52307,-103.8554,-4.570632,-0.4441859,0.1400836,-35.22471,-8.447793,45.05199,0,0,0,51.60817,36.31212,-43.61035,-10.65206,-111.0334,-35.10307,0.001067912,-0.1257102,0.09433498,0,0.3,0,0,0,0
638223383820592182,19.69613,65.24857,36.81864,44.17305,-35.98798,-100.4862,-4.570632,-0.4441859,0.1400836,-35.22471,-8.447793,45.05199,0,0,0,45.75064,37.69796,-40.5462,-10.65206,-111.0334,-35.10307,0.001067912,-0.1257102,0.09433498,0,0.3,0,0,0,0
638223383821052156,15.87941,65.646,38.96659,37.65423,-37.74586,-96.97039,-4.570632,-0.4441859,0.1400836,-35.22471,-8.447793,45.05199,0,0,0,37.99109,41.15251,-34.79914,-10.65206,-111.0334,-35.10307,0.001067912,-0.1257102,0.09433498,0,0.3,0,0,0,0
638223383821411920,14.27734,65.92653,40.62424,34.43144,-38.84454,-96.0182,-4.570632,-0.4441859,0.1400836,-35.22471,-8.447793,45.05199,0,0,0,34.82659,43.88954,-31.49369,-10.65206,-111.0334,-35.10307,0.001067912,-0.1257102,0.09433498,0,0.3,0,0,0,0
638223383821781798,11.92134,66.41748,43.82282,30.25646,-41.04189,-95.57873,-4.570632,-0.4441859,0.1400836,-35.22471,-8.447793,45.05199,0,0,0,30.09393,49.35329,-25.80723,-10.65206,-111.0334,-35.10307,0.001067912,-0.1257102,0.09433498,0,0.3,0,0,0,0
638223383822141696,9.329745,66.83829,47.02139,26.22798,-43.82521,-95.359,-4.570632,-0.4441859,0.1400836,-35.22471,-8.447793,45.05199,0,0,0,24.31907,55.04371,-20.32417,-10.65206,-111.0334,-35.10307,0.001067912,-0.1257102,0.09433498,0,0.3,0,0,0,0
638223383822571686,6.667469,67.1422,49.9865,19.34294,-47.19449,-89.86562,-4.570632,-0.4441859,0.1400836,-35.22471,-8.447793,45.05199,0,0,0,17.87244,60.48846,-15.46006,-10.65206,-111.0334,-35.10307,0.001067912,-0.1257102,0.09433498,0,0.3,0,0,0,0
638223383822941460,5.513031,67.4695,51.85428,11.94517,-49.24535,-81.7354,-4.570632,-0.4441859,0.1400836,-35.22471,-8.447793,45.05199,0,0,0,14.98423,64.1567,-13.10294,-10.65206,-111.0334,-35.10307,0.001067912,-0.1257102,0.09433498,0,0.3,0,0,0,0
638223383823301319,5.371671,67.72665,52.85821,7.770199,-50.12429,-77.26745,-4.570632,-0.4441859,0.1400836,-35.22471,-8.447793,45.05199,0,0,0,14.68295,66.2349,-12.1966,-10.65206,-111.0334,-35.10307,0.001067912,-0.1257102,0.09433498,0,0.3,0,0,0,0
638223383823661203,5.91355,68.47475,54.51587,1.251379,-51.66244,-71.0416,-4.570632,-0.4441859,0.1400836,-35.22471,-8.447793,45.05199,0,0,0,16.22804,69.99297,-11.67686,-10.65206,-111.0334,-35.10307,0.001067912,-0.1257102,0.09433498,0,0.3,0,0,0,0
638223383824091074,7.397828,69.43327,55.68323,-2.044653,-52.83437,-68.40478,-4.570632,-0.4441859,0.1400836,-35.22471,-8.447793,45.05199,0,0,0,20.21292,73.02232,-12.67291,-10.65206,-111.0334,-35.10307,0.001067912,-0.1257102,0.09433498,0,0.3,0,0,0,0
638223383824450947,9.895184,70.27488,56.33695,-1.019221,-53.64006,-69.79643,-4.570632,-0.4441859,0.1400836,-35.22471,-8.447793,45.05199,0,0,0,26.80724,74.95844,-14.67515,-10.65206,-111.0334,-35.10307,0.001067912,-0.1257102,0.09433498,0,0.3,0,0,0,0
638223383824820832,13.49986,70.76582,56.78055,5.865825,-54.00629,-81.36917,-4.570632,-0.4441859,0.1400836,-35.22471,-8.447793,45.05199,0,0,0,36.29739,76.20097,-17.15882,-10.65206,-111.0334,-35.10307,0.001067912,-0.1257102,0.09433498,0,0.3,0,0,0,0
638223383825180719,17.66997,70.81258,56.85059,16.70611,-53.12735,-101.6581,-4.570632,-0.4441859,0.1400836,-35.22471,-8.447793,45.05199,0,0,0,47.1915,76.37321,-20.21147,-10.65206,-111.0334,-35.10307,0.001067912,-0.1257102,0.09433498,0,0.3,0,0,0,0
638223383825620586,23.183,70.53204,56.78055,31.13541,-50.05105,-125.536,-4.570632,-0.4441859,0.1400836,-35.22471,-8.447793,45.05199,0,0,0,61.41262,76.02068,-24.94613,-10.65206,-111.0334,-35.10307,0.001067912,-0.1257102,0.09433498,0,0.3,0,0,0,0
638223383825950480,26.76412,69.99434,56.40699,38.97264,-47.34098,-136.2298,-4.570632,-0.4441859,0.1400836,-35.22471,-8.447793,45.05199,0,0,0,70.56481,74.8723,-28.43774,-10.65206,-111.0334,-35.10307,0.001067912,-0.1257102,0.09433498,0,0.3,0,0,0,0
638223383826290364,28.88451,69.52678,55.9167,42.48841,-45.4366,-139.6723,-4.570632,-0.4441859,0.1400836,-35.22471,-8.447793,45.05199,0,0,0,75.87943,73.54803,-30.80678,-10.65206,-111.0334,-35.10307,0.001067912,-0.1257102,0.09433498,0,0.3,0,0,0,0
638223383826660251,32.65411,68.428,54.79603,47.24934,-41.55461,-141.5767,-4.570632,-0.4441859,0.1400836,-35.22471,-8.447793,45.12524,0,0,0,85.24592,70.48488,-35.33159,-10.65206,-111.0334,-35.10307,0.001067912,-0.1257102,0.09433498,0,0.3,0,0,0,0
638223383827120087,38.26138,65.90316,52.46131,51.27783,-35.47526,-142.0162,-4.570632,-0.4441859,0.1400836,-35.22471,-8.447793,45.05199,0,0,0,99.19329,63.82967,-42.57528,-10.65206,-111.0334,-35.10307,0.001067912,-0.1257102,0.09433498,0,0.3,0,0,0,0
638223383827480117,40.05193,64.54722,51.48072,52.15677,-33.35115,-142.0162,-4.570632,-0.4441859,0.1400836,-35.22471,-8.447793,45.05199,0,0,0,104.0139,60.70958,-44.61904,-10.65206,-111.0334,-35.10307,0.001067912,-0.1257102,0.09433498,0,0.3,0,0,0,0
638223383827849918,43.35033,61.27427,49.5429,53.32869,-28.59021,-142.0894,-4.570632,-0.4441859,0.1400836,-35.22471,-8.447793,45.12524,0,0,0,113.6466,53.76072,-47.96317,-10.65206,-111.0334,-35.10307,0.001067912,-0.1257102,0.09433498,0,0.3,0,0,0,0
638223383828179892,46.08328,57.55714,47.60507,54.35413,-23.38981,-142.0894,-4.570632,-0.4441859,0.1400836,-35.15147,-8.447793,45.05199,0,0,0,122.472,45.97814,-50.42368,-10.65206,-111.0334,-35.10307,0.001067912,-0.1257102,0.09433498,0,0.3,0,0,0,0
638223383828619770,48.91048,52.41393,44.94349,55.08658,-16.79774,-142.0162,-4.570632,-0.4441859,0.1400836,-35.22471,-8.447793,45.05199,0,0,0,132.2992,34.63596,-52.98064,-10.65206,-111.0334,-35.10307,0.001067912,-0.1257102,0.09433498,0,0.3,0,0,0,0
638223383828949503,50.34764,48.86045,43.63604,55.30631,-12.69601,-142.0894,-4.570632,-0.4441859,0.1400836,-35.22471,-8.447793,45.05199,0,0,0,138.3964,27.26668,-53.64534,-10.65206,-111.0334,-35.10307,0.001067912,-0.1257102,0.09433498,0,0.3,0,0,0,0
638223383829319386,51.87903,43.60035,42.25855,55.59929,-7.12938,-142.1627,-4.570632,-0.4441859,0.1400836,-35.22471,-8.447793,45.05199,0,0,0,146.5188,16.61665,-53.37801,-10.65206,-111.0334,-35.10307,0.001067912,-0.1257102,0.09433498,0,0.3,0,0,0,0
638223383829679270,52.42091,40.70145,41.60483,55.67254,-4.492554,-142.1627,-4.570632,-0.4441859,0.1400836,-35.22471,-8.447793,45.12524,0,0,0,150.2904,10.59847,-52.69816,-10.65206,-111.0334,-35.10307,0.001067912,-0.1257102,0.09433498,0,0.3,0,0,0,0
638223383830139275,52.72719,31.11639,39.24675,53.9879,4.589847,-142.2359,-4.570632,-0.4441859,0.1400836,-35.22471,-8.447793,45.05199,0,0,0,157.9816,-11.00766,-48.11874,-10.65206,-111.0334,-35.10307,0.001067912,-0.1257102,0.09433498,0,0.3,0,0,0,0
638223383830499152,52.68008,28.12398,38.73312,52.66949,7.446409,-142.1627,-4.570632,-0.4441859,0.1400836,-35.22471,-8.447793,45.05199,0,0,0,159.8808,-17.81353,-46.46553,-10.65206,-111.0334,-35.10307,0.001067912,-0.1257102,0.09433498,0,0.3,0,0,0,0
638223383830868900,52.68008,22.32619,38.49964,49.66644,13.15953,-142.0894,-4.570632,-0.4441859,0.1400836,-35.22471,-8.447793,45.12524,0,0,0,164.1146,-30.35446,-43.23796,-10.65206,-111.0334,-35.10307,0.001067912,-0.1257102,0.09433498,0,0.3,0,0,0,0
638223383831228779,52.68008,17.18298,38.52299,46.3704,18.9459,-142.0162,-4.570632,-0.4441859,0.1400836,-35.22471,-8.447793,45.05199,0,0,0,167.3648,-41.58266,-40.76015,-10.65206,-111.0334,-35.10307,0.001067912,-0.1257102,0.09433498,0,0.3,0,0,0,0
638223383831658774,53.00991,11.89951,38.52299,41.8292,25.61121,-142.0162,-4.570632,-0.4441859,0.1400836,-35.22471,-8.447793,45.05199,0,0,0,170.5617,-53.48128,-39.86877,-10.65206,-111.0334,-35.10307,0.001067912,-0.1257102,0.09433498,0,0.3,0,0,0,0
638223383831991046,53.29263,9.772089,38.52299,39.99807,27.80857,-142.0894,-4.570632,-0.4441859,0.1400836,-35.22471,-8.447793,45.05199,0,0,0,171.9398,-58.34406,-40.15559,-10.65206,-111.0334,-35.10307,0.001067912,-0.1257102,0.09433498,0,0.3,0,0,0,0
638223383832362646,53.52823,6.686166,38.56968,37.14151,30.37215,-142.0894,-4.570632,-0.4441859,0.1400836,-35.22471,-8.447793,45.05199,0,0,0,173.3604,-65.3837,-40.20217,-10.65206,-111.0334,-35.10307,0.001067912,-0.1257102,0.09433498,0,0.3,0,0,0,0
638223383832722479,53.74027,3.950917,38.63972,34.28495,32.20328,-142.0162,-4.570632,-0.4441859,0.1400836,-35.22471,-8.447793,45.12524,0,0,0,174.412,-71.61999,-40.4203,-10.65206,-111.0334,-35.10307,0.001067912,-0.1257102,0.09433498,0,0.3,0,0,0,0
638223383833182455,53.99943,1.122154,38.63972,30.98892,33.44844,-142.0894,-4.570632,-0.4441859,0.1400836,-35.22471,-8.447793,45.05199,0,0,0,175.2245,-78.19652,-41.03926,-10.65206,-111.0334,-35.10307,0.001067912,-0.1257102,0.09433498,0,0.3,0,0,0,0
638223383833522214,54.21147,-0.4441859,38.63972,28.64507,34.0344,-142.0894,-4.570632,-0.4441859,0.1400836,-35.22471,-8.447793,45.05199,0,0,0,175.712,-81.84184,-41.67599,-10.65206,-111.0334,-35.10307,0.001067912,-0.1257102,0.09433498,0,0.3,0,0,0,0
638223383833882105,54.37639,-1.052019,38.63972,27.39991,34.25414,-142.0894,-4.570632,-0.4441859,0.1400836,-35.22471,-8.447793,45.05199,0,0,0,176.0609,-83.25638,-42.19304,-10.65206,-111.0334,-35.10307,0.001067912,-0.1257102,0.09433498,0,0.3,0,0,0,0
638223383834241983,55.01251,-1.005263,37.82257,25.1293,34.10765,-142.1627,-4.570632,-0.4441859,0.1400836,-35.22471,-8.447793,45.05199,0,0,0,176.2283,-84.32449,-45.01096,-10.65206,-111.0334,-35.10307,0.001067912,-0.1257102,0.09433498,0,0.3,0,0,0,0
638223383834701840,55.24811,-1.005263,37.84592,23.88414,33.52169,-142.0894,-4.570632,-0.4441859,0.1400836,-35.22471,-8.447793,45.05199,0,0,0,176.7692,-84.29116,-45.71218,-10.65206,-111.0334,-35.10307,0.001067912,-0.1257102,0.09433498,0,0.3,0,0,0,0
638223383835061865,55.24811,-1.005263,37.91596,22.71221,32.86248,-142.1627,-4.570632,-0.4441859,0.1400836,-35.22471,-8.447793,45.05199,0,0,0,176.8749,-84.19106,-45.63884,-10.65206,-111.0334,-35.10307,0.001067912,-0.1257102,0.09433498,0,0.3,0,0,0,0
638223383835431728,55.31879,-0.9818845,39.52692,21.90652,32.49626,-142.0894,-4.570632,-0.4441859,0.1400836,-35.22471,-8.447793,45.05199,0,0,0,179.4324,-81.7914,-44.19216,-10.65206,-111.0334,-35.10307,0.001067912,-0.1257102,0.09433498,0,0.3,0,0,0,0
638223383835791478,55.36591,-0.6078333,43.02901,22.41923,32.49626,-142.0894,-4.570632,-0.4441859,0.1400836,-35.22471,-8.447793,45.05199,0,0,0,184.5836,-75.5446,-40.85216,-10.65206,-111.0334,-35.10307,0.001067912,-0.1257102,0.09433498,0,0.3,0,0,0,0
638223383836231345,55.38947,1.285801,48.91252,26.15474,32.5695,-142.0894,-4.570632,-0.4441859,0.1400836,-35.22471,-8.447793,45.05199,0,0,0,192.444,-61.29671,-35.53955,-10.65206,-111.0334,-35.10307,0.001067912,-0.1257102,0.09433498,0,0.3,0,0,0,0
638223383836591222,55.38947,3.576865,52.1111,29.96349,32.49626,-142.0894,-4.570632,-0.4441859,0.1400836,-35.22471,-8.447793,45.05199,0,0,0,196.1536,-50.22517,-32.97948,-10.65206,-111.0334,-35.10307,0.001067912,-0.1257102,0.09433498,0,0.3,0,0,0,0
638223383836951260,55.31879,7.574538,55.16959,36.6288,31.69056,-142.0894,-4.570632,-0.4441859,0.1400836,-35.22471,-8.447793,45.05199,0,0,0,198.7131,-35.23512,-30.85089,-10.65206,-111.0334,-35.10307,0.001067912,-0.1257102,0.09433498,0,0.3,0,0,0,0
638223383837291136,55.27167,9.701954,56.12683,40.3643,30.95811,-142.0894,-4.570632,-0.4441859,0.1400836,-35.22471,-8.447793,45.05199,0,0,0,199.022,-28.50094,-30.39499,-10.65206,-111.0334,-35.10307,0.001067912,-0.1257102,0.09433498,0,0.3,0,0,0,0
638223383837730859,55.22455,16.43488,56.29026,50.54538,27.88181,-142.0894,-4.570632,-0.4441859,0.1400836,-35.22471,-8.447793,45.05199,0,0,0,196.1735,-12.92927,-32.13047,-10.65206,-111.0334,-35.10307,0.001067912,-0.1257102,0.09433498,0,0.3,0,0,0,0
638223383838061038,55.22455,18.49216,55.65988,53.10896,26.5634,-142.1627,-4.570632,-0.4441859,0.1400836,-35.22471,-8.447793,45.05199,0,0,0,194.319,-9.578046,-33.41822,-10.65206,-111.0334,-35.10307,0.001067912,-0.1257102,0.09433498,0,0.3,0,0,0,0
638223383838421763,55.22455,21.78849,54.35244,56.99095,23.85333,-142.0894,-4.570632,-0.4441859,0.1400836,-35.22471,-8.447793,45.05199,0,0,0,190.7161,-4.869068,-35.91998,-10.65206,-111.0334,-35.10307,0.001067912,-0.1257102,0.09433498,0,0.3,0,0,0,0
638223383838797586,55.13031,24.71076,52.74147,59.3348,21.28975,-142.1627,-4.570632,-0.4441859,0.1400836,-35.22471,-8.521038,45.05199,0,0,0,186.4679,-1.636423,-38.41477,-10.65206,-111.0334,-35.10307,0.001067912,-0.1257102,0.09433498,0,0.3,0,0,0,0
638223383839257437,55.03607,29.55005,49.5429,61.16593,17.70073,-142.0894,-4.570632,-0.4441859,0.1400836,-35.22471,-8.447793,45.05199,0,0,0,178.2191,2.588084,-43.7268,-10.65206,-111.0334,-35.10307,0.001067912,-0.1257102,0.09433498,0,0.3,0,0,0,0
638223383839617332,54.94183,32.19178,47.65177,61.67865,15.72311,-141.7232,-4.570632,-0.4441859,0.1400836,-35.22471,-8.447793,45.05199,0,0,0,173.049,4.563661,-46.91774,-10.65206,-111.0334,-35.10307,0.001067912,-0.1257102,0.09433498,0,0.3,0,0,0,0
638223383839987208,54.54131,36.37648,44.4065,61.89838,12.1341,-141.064,-4.570632,-0.4441859,0.1400836,-35.22471,-8.447793,45.05199,0,0,0,163.4574,7.174001,-51.93469,-10.65206,-111.0334,-35.10307,0.001067912,-0.1257102,0.09433498,0,0.3,0,0,0,0
638223383840347103,53.64603,39.83646,40.71763,60.94619,8.325351,-136.6693,-4.570632,-0.4441859,0.1400836,-35.22471,-8.374548,45.12524,0,0,0,152.5248,7.703352,-56.08804,-10.65206,-111.0334,-35.10307,0.001067912,-0.1257102,0.09433498,0,0.3,0,0,0,0
638223383840776966,52.32668,42.05739,35.90809,58.67559,4.663092,-129.4913,-4.570632,-0.4441859,0.1400836,-35.15147,-8.447793,45.05199,0,0,0,140.2687,4.669774,-60.04233,-10.65206,-111.0334,-35.10307,0.001067912,-0.1257102,0.09433498,0,0.3,0,0,0,0
638223383841106850,51.76123,42.24441,34.08701,57.65016,3.710905,-126.8544,-4.570632,-0.4441859,0.1400836,-35.22471,-8.447793,45.05199,0,0,0,136.2366,2.561693,-60.99301,-10.65206,-111.0334,-35.10307,0.001067912,-0.1257102,0.09433498,0,0.3,0,0,0,0
638223383841476734,50.46544,41.77685,30.56157,55.01333,2.392492,-120.9948,-4.570632,-0.4441859,0.1400836,-35.22471,-8.447793,45.05199,0,0,0,128.9891,-2.633522,-61.88885,-10.65206,-111.0334,-35.10307,0.001067912,-0.1257102,0.09433498,0,0.3,0,0,0,0
638223383841836620,49.26388,40.51442,27.7132,52.96247,2.319247,-116.0874,-4.570632,-0.4441859,0.1400836,-35.22471,-8.447793,45.12524,0,0,0,123.8061,-8.073526,-61.72412,-10.65206,-111.0334,-35.10307,0.001067912,-0.1257102,0.09433498,0,0.3,0,0,0,0
638223383842296472,47.80316,38.90133,24.65471,51.57081,2.978453,-111.0335,-4.570632,-0.4441859,0.1400836,-35.22471,-8.447793,45.12524,0,0,0,118.0928,-14.10229,-61.28185,-10.65206,-111.0334,-35.10307,0.001067912,-0.1257102,0.09433498,0,0.3,0,0,0,0
638223383842656357,46.24821,37.24148,21.75965,50.10591,4.223621,-106.419,-4.570632,-0.4441859,0.1400836,-35.22471,-8.447793,45.05199,0,0,0,112.3918,-19.79827,-60.75149,-10.65206,-111.0334,-35.10307,0.001067912,-0.1257102,0.09433498,0,0.3,0,0,0,0
638223383843016252,44.97597,35.16082,19.33154,48.49451,5.835015,-102.537,-4.570632,-0.4441859,0.1400836,-35.22471,-8.447793,45.05199,0,0,0,108.2566,-25.68887,-60.00257,-10.65206,-111.0334,-35.10307,0.001067912,-0.1257102,0.09433498,0,0.3,0,0,0,0
638223383843356134,43.77441,32.56584,17.02016,47.39584,8.178861,-98.65503,-4.570632,-0.4441859,0.1400836,-35.22471,-8.447793,45.12524,0,0,0,104.7531,-32.38143,-59.01681,-10.65206,-111.0334,-35.10307,0.001067912,-0.1257102,0.09433498,0,0.3,0,0,0,0
638223383843815988,41.77181,28.59154,13.61146,46.15067,11.40165,-93.52787,-4.570632,-0.4441859,0.1400836,-35.22471,-8.447793,45.05199,0,0,0,98.90598,-42.43845,-57.62008,-10.65206,-111.0334,-35.10307,0.001067912,-0.1257102,0.09433498,0,0.3,0,0,0,0
638223383844145869,40.21685,25.69264,11.48686,45.27173,14.03847,-89.86562,-4.570632,-0.4441859,0.1400836,-35.22471,-8.447793,45.05199,0,0,0,94.73566,-49.51604,-56.31235,-10.65206,-111.0334,-35.10307,0.001067912,-0.1257102,0.09433498,0,0.3,0,0,0,0
638223383844515777,37.97866,22.18591,9.268865,44.02656,18.06696,-84.59196,-4.570632,-0.4441859,0.1400836,-35.22471,-8.447793,45.05199,0,0,0,89.20101,-57.90419,-54.09021,-10.65206,-111.0334,-35.10307,0.001067912,-0.1257102,0.09433498,0,0.3,0,0,0,0
638223383844885644,36.68286,20.78322,8.28828,43.29411,20.11782,-82.54109,-4.570632,-0.4441859,0.1400836,-35.22471,-8.447793,45.05199,0,0,0,85.96121,-61.29019,-52.95215,-10.65206,-111.0334,-35.10307,0.001067912,-0.1257102,0.09433498,0,0.3,0,0,0,0
638223383845335504,31.09915,17.67392,5.323177,39.85158,26.12393,-76.31525,-4.570632,-0.4441859,0.1400836,-35.22471,-8.447793,45.05199,0,0,0,72.01701,-68.93991,-48.96203,-10.65206,-111.0334,-35.10307,0.001067912,-0.1257102,0.09433498,0,0.3,0,0,0,0
638223383845695389,29.14367,17.08947,4.692801,38.38668,27.58883,-74.9236,-4.570632,-0.4441859,0.1400836,-35.22471,-8.447793,45.05199,0,0,0,67.38734,-70.36612,-47.49571,-10.65206,-111.0334,-35.10307,0.001067912,-0.1257102,0.09433498,0,0.3,0,0,0,0
638223383846035267,24.78508,16.31799,3.828952,34.87091,29.63969,-72.57975,-4.570632,-0.4441859,0.1400836,-35.22471,-8.447793,45.05199,0,0,0,57.38356,-72.23526,-44.07562,-10.65206,-111.0334,-35.10307,0.001067912,-0.1257102,0.09433498,0,0.3,0,0,0,0
638223383846375173,20.28513,16.0842,3.291965,30.62269,30.81162,-71.11485,-4.570632,-0.4441859,0.1400836,-35.22471,-8.447793,45.05199,0,0,0,47.07649,-72.83537,-40.9841,-10.65206,-111.0334,-35.10307,0.001067912,-0.1257102,0.09433498,0,0.3,0,0,0,0
638223383846875021,12.74594,16.06083,3.058492,22.78546,30.73837,-70.16266,-4.570632,-0.4441859,0.1400836,-35.22471,-8.447793,45.05199,0,0,0,29.84221,-72.91776,-36.42299,-10.65206,-111.0334,-35.10307,0.001067912,-0.1257102,0.09433498,0,0.3,0,0,0,0
638223383847234885,9.164824,16.13096,3.081839,18.46399,30.15241,-70.01617,-4.570632,-0.4441859,0.1400836,-35.22471,-8.447793,45.05199,0,0,0,21.545,-72.75801,-34.80771,-10.65206,-111.0334,-35.10307,0.001067912,-0.1257102,0.09433498,0,0.3,0,0,0,0
638223383847604789,3.133475,16.71542,3.735562,10.18729,28.834,-70.23591,-4.570632,-0.4441859,0.1400836,-35.22471,-8.447793,45.05199,0,0,0,7.456103,-71.36279,-32.15064,-10.65206,-111.0334,-35.10307,0.001067912,-0.1257102,0.09433498,0,0.3,0,0,0,0
638223383847964651,-2.638716,18.04797,5.229787,-0.2135241,26.70989,-72.28677,-4.570632,-0.4441859,0.1400836,-35.22471,-8.447793,45.05199,0,0,0,-6.396691,-68.13129,-29.55359,-10.65206,-111.0334,-35.10307,0.001067912,-0.1257102,0.09433498,0,0.3,0,0,0,0
638223383848404520,-7.209348,20.54944,7.657903,-12.6652,23.04763,-76.242,-4.570632,-0.4441859,0.1400836,-35.22471,-8.447793,45.05199,0,0,0,-17.89997,-62.00278,-26.84278,-10.65206,-111.0334,-35.10307,0.001067912,-0.1257102,0.09433498,0,0.3,0,0,0,0
638223383848764398,-8.834986,22.72361,9.525684,-20.35595,19.82484,-78.43936,-4.570632,-0.4441859,0.1400836,-35.22471,-8.447793,45.05199,0,0,0,-22.28077,-56.65004,-25.00397,-10.65206,-111.0334,-35.10307,0.001067912,-0.1257102,0.09433498,0,0.3,0,0,0,0
638223383849134294,-9.306185,25.36535,11.34677,-27.24099,15.72311,-80.19725,-4.570632,-0.4441859,0.1400836,-35.22471,-8.447793,45.05199,0,0,0,-23.72784,-50.26795,-23.55074,-10.65206,-111.0334,-35.10307,0.001067912,-0.1257102,0.09433498,0,0.3,0,0,0,0
638223383849494189,-9.235504,26.72129,12.04719,-29.58484,13.74549,-81.44242,-4.570632,-0.4441859,0.1400836,-35.22471,-8.447793,45.12524,0,0,0,-23.58302,-47.10216,-23.31355,-10.65206,-111.0334,-35.10307,0.001067912,-0.1257102,0.09433498,0,0.3,0,0,0,0
638223383849924045,-8.505146,31.23328,13.91497,-33.75981,7.959125,-87.88799,-4.570632,-0.4441859,0.1400836,-35.22471,-8.447793,45.05199,0,0,0,-21.60659,-36.94153,-23.86571,-10.65206,-111.0334,-35.10307,0.001067912,-0.1257102,0.09433498,0,0.3,0,0,0,0
638223383850293923,-7.916147,33.08016,14.40526,-34.712,5.981505,-92.2827,-4.570632,-0.4441859,0.1400836,-35.22471,-8.447793,45.05199,0,0,0,-19.95749,-33.02351,-24.82122,-10.65206,-111.0334,-35.10307,0.001067912,-0.1257102,0.09433498,0,0.3,0,0,0,0
638223383850629245,-6.07847,36.42324,15.05899,-35.59094,2.172756,-107.8107,-4.570632,-0.4441859,0.1400836,-35.22471,-8.447793,45.05199,0,0,0,-15.03078,-26.24467,-27.20146,-10.65206,-111.0334,-35.10307,0.001067912,-0.1257102,0.09433498,0,0.3,0,0,0,0
638223383850990744,-3.486874,39.18187,15.71271,-35.00498,-1.489502,-128.0996,-4.570632,-0.4441859,0.1400836,-35.22471,-8.447793,45.05199,0,0,0,-8.483068,-20.76854,-29.12965,-10.65206,-111.0334,-35.10307,0.001067912,-0.1257102,0.09433498,0,0.3,0,0,0,0
638223383851460612,1.036638,41.63658,16.08627,-32.14842,-5.737722,-141.5767,-4.570632,-0.4441859,0.1400836,-35.22471,-8.447793,45.05199,0,0,0,2.471544,-16.18055,-31.76083,-10.65206,-111.0334,-35.10307,0.001067912,-0.1257102,0.09433498,0,0.3,0,0,0,0
638223383851790508,3.392634,42.26779,16.08627,-30.09755,-7.349115,-141.9429,-4.570632,-0.4441859,0.1400836,-35.22471,-8.447793,45.05199,0,0,0,8.026285,-15.088,-32.95826,-10.65206,-111.0334,-35.10307,0.001067912,-0.1257102,0.09433498,0,0.3,0,0,0,0
638223383852150560,7.091548,42.6886,15.94618,-25.77609,-9.106999,-141.9429,-4.570632,-0.4441859,0.1400836,-35.22471,-8.447793,45.05199,0,0,0,16.62381,-14.45563,-34.72541,-10.65206,-111.0334,-35.10307,0.001067912,-0.1257102,0.09433498,0,0.3,0,0,0,0
638223383852520263,10.46062,42.33792,15.31581,-21.0884,-9.912696,-142.0162,-4.570632,-0.4441859,0.1400836,-35.22471,-8.447793,45.05199,0,0,0,24.29148,-15.45253,-36.78032,-10.65206,-111.0334,-35.10307,0.001067912,-0.1257102,0.09433498,0,0.3,0,0,0,0
638223383852980309,14.1831,40.70145,14.03171,-15.37527,-9.912696,-142.0162,-4.570632,-0.4441859,0.1400836,-35.22471,-8.447793,45.05199,0,0,0,32.69244,-19.06118,-38.99027,-10.65206,-111.0334,-35.10307,0.001067912,-0.1257102,0.09433498,0,0.3,0,0,0,0
638223383853350000,16.65689,39.01822,13.00443,-11.12705,-8.740773,-142.0162,-4.570632,-0.4441859,0.1400836,-35.22471,-8.447793,45.05199,0,0,0,38.2988,-22.6271,-40.34363,-10.65206,-111.0334,-35.10307,0.001067912,-0.1257102,0.09433498,0,0.3,0,0,0,0
638223383853710022,19.48409,36.84405,11.81372,-5.999893,-6.396928,-142.0162,-4.570632,-0.4441859,0.1400836,-35.22471,-8.521038,45.05199,0,0,0,44.70067,-27.21357,-42.00771,-10.65206,-111.0334,-35.10307,0.001067912,-0.1257102,0.09433498,0,0.3,0,0,0,0
638223383854069788,20.94481,35.605,11.1133,-3.143331,-4.712289,-141.9429,-4.570632,-0.4441859,0.1400836,-35.22471,-8.447793,45.05199,0,0,0,47.94488,-29.86385,-43.08879,-10.65206,-111.0334,-35.10307,0.001067912,-0.1257102,0.09433498,0,0.3,0,0,0,0
638223383854519645,24.2432,33.15029,9.595726,2.423302,-0.7570504,-141.7964,-4.570632,-0.4441859,0.1400836,-35.22471,-8.447793,45.05199,0,0,0,54.97035,-35.21351,-46.28167,-10.65206,-111.0334,-35.10307,0.001067912,-0.1257102,0.09433498,0,0.3,0,0,0,0
638223383854849522,25.49188,32.42557,9.128781,4.181186,0.3416272,-139.8921,-4.570632,-0.4441859,0.1400836,-35.22471,-8.447793,45.05199,0,0,0,57.549,-36.80828,-47.65197,-10.65206,-111.0334,-35.10307,0.001067912,-0.1257102,0.09433498,0,0.3,0,0,0,0
638223383855189411,28.31907,30.9995,8.334974,7.843444,2.905208,-130.6632,-4.570632,-0.4441859,0.1400836,-35.22471,-8.447793,45.05199,0,0,0,63.39361,-39.91216,-50.70912,-10.65206,-111.0334,-35.10307,0.001067912,-0.1257102,0.09433498,0,0.3,0,0,0,0
638223383855529300,31.49967,30.08775,8.101501,12.16491,5.249053,-122.8992,-4.570632,-0.4441859,0.1400836,-35.22471,-8.447793,45.12524,0,0,0,70.10551,-41.81738,-53.9467,-10.65206,-111.0334,-35.10307,0.001067912,-0.1257102,0.09433498,0,0.3,0,0,0,0
638223383856019139,35.43418,30.1345,8.895308,19.1232,7.739389,-115.6479,-4.570632,-0.4441859,0.1400836,-35.22471,-8.447793,45.05199,0,0,0,78.81792,-41.45022,-57.58242,-10.65206,-111.0334,-35.10307,0.001067912,-0.1257102,0.09433498,0,0.3,0,0,0,0
638223383856349041,36.98914,30.62544,9.595726,23.73765,8.398596,-112.8646,-4.570632,-0.4441859,0.1400836,-35.22471,-8.447793,45.05199,0,0,0,82.41504,-40.20259,-58.9384,-10.65206,-111.0334,-35.10307,0.001067912,-0.1257102,0.09433498,0,0.3,0,0,0,0
638223383856713956,38.04934,31.958,10.15606,28.71832,8.325351,-110.4475,-4.570632,-0.4441859,0.1400836,-35.22471,-8.447793,45.05199,0,0,0,84.22442,-37.32873,-60.73879,-10.65206,-111.0334,-35.10307,0.001067912,-0.1257102,0.09433498,0,0.3,0,0,0,0
638223383857073882,38.33206,32.79962,10.50627,30.40295,8.178861,-110.008,-4.570632,-0.4441859,0.1400836,-35.22471,-8.447793,45.05199,0,0,0,84.60114,-35.52834,-61.34951,-10.65206,-111.0334,-35.10307,0.001067912,-0.1257102,0.09433498,0,0.3,0,0,0,0
638223383857543509,38.16714,35.1842,11.41681,33.69899,8.105616,-107.1515,-4.570632,-0.4441859,0.1400836,-35.22471,-8.447793,45.05199,0,0,0,83.66122,-30.52423,-61.90999,-10.65206,-111.0334,-35.10307,0.001067912,-0.1257102,0.09433498,0,0.3,0,0,0,0
638223383857873386,37.93154,35.65176,11.53355,34.2117,8.252106,-105.6133,-4.570632,-0.4441859,0.1400836,-35.22471,-8.447793,45.05199,0,0,0,82.99883,-29.58335,-61.85429,-10.65206,-111.0334,-35.10307,0.001067912,-0.1257102,0.09433498,0,0.3,0,0,0,0
638223383858243277,37.0127,36.18946,11.48686,34.87091,9.204292,-100.2664,-4.570632,-0.4441859,0.1400836,-35.22471,-8.447793,45.05199,0,0,0,80.77431,-28.59159,-61.20828,-10.65206,-111.0334,-35.10307,0.001067912,-0.1257102,0.09433498,0,0.3,0,0,0,0
638223383858573182,35.7169,36.37648,11.0666,35.16389,11.03542,-92.50243,-4.570632,-0.4441859,0.1400836,-35.22471,-8.447793,45.05199,0,0,0,77.62041,-28.43197,-60.39698,-10.65206,-111.0334,-35.10307,0.001067912,-0.1257102,0.09433498,0,0.3,0,0,0,0
638223383859073042,33.29023,36.63364,9.22217,34.57793,13.89198,-81.00294,-4.570632,-0.4441859,0.1400836,-35.22471,-8.447793,45.05199,0,0,0,70.46529,-28.70692,-61.03695,-10.65206,-111.0334,-35.10307,0.001067912,-0.1257102,0.09433498,0,0.3,0,0,0,0
638223383859432898,31.66459,36.70378,8.054807,33.40601,15.57662,-75.50956,-4.570632,-0.4441859,0.1400836,-35.22471,-8.447793,45.12524,0,0,0,65.93137,-28.98407,-61.45028,-10.65206,-111.0334,-35.10307,0.001067912,-0.1257102,0.09433498,0,0.3,0,0,0,0
638223383859792788,29.16723,36.6804,7.120916,30.4762,17.33451,-68.69775,-4.570632,-0.4441859,0.1400836,-35.22471,-8.447793,45.05199,0,0,0,60.17662,-29.3147,-60.53186,-10.65206,-111.0334,-35.10307,0.001067912,-0.1257102,0.09433498,0,0.3,0,0,0,0
638223383860132679,26.52852,36.42324,6.280415,26.59421,17.55424,-63.13113,-4.570632,-0.4441859,0.1400836,-35.22471,-8.447793,45.05199,0,0,0,54.44055,-30.02375,-59.2951,-10.65206,-111.0334,-35.10307,0.001067912,-0.1257102,0.09433498,0,0.3,0,0,0,0
638223383860592654,23.70132,35.67514,5.813469,23.51791,16.96828,-53.09653,-4.570632,-0.4441859,0.1400836,-35.22471,-8.447793,45.05199,0,0,0,48.97273,-31.54595,-56.794,-10.65206,-111.0334,-35.10307,0.001067912,-0.1257102,0.09433498,0,0.3,0,0,0,0
638223383860962408,21.91076,35.11406,5.766775,21.76003,16.30907,-40.86459,-4.570632,-0.4441859,0.1400836,-35.22471,-8.447793,45.05199,0,0,0,45.70503,-32.62141,-54.71686,-10.65206,-111.0334,-35.10307,0.001067912,-0.1257102,0.09433498,0,0.3,0,0,0,0
638223383861332283,19.95529,34.62312,5.743428,20.07539,15.13715,-23.50549,-4.570632,-0.4441859,0.1400836,-35.22471,-8.447793,45.05199,0,0,0,42.00541,-33.56433,-52.66026,-10.65206,-111.0334,-35.10307,0.001067912,-0.1257102,0.09433498,0,0.3,0,0,0,0
638223383861692174,19.03645,34.38934,5.743428,19.41618,14.4047,-15.22878,-4.570632,-0.4441859,0.1400836,-35.22471,-8.447793,45.05199,0,0,0,40.24533,-34.01271,-51.71016,-10.65206,-111.0334,-35.10307,0.001067912,-0.1257102,0.09433498,0,0.3,0,0,0,0
638223383862122046,16.51553,33.22043,5.743428,18.02452,11.03542,6.891257,-4.570632,-0.4441859,0.1400836,-35.22471,-8.447793,45.05199,0,0,0,35.50636,-36.27325,-48.60175,-10.65206,-111.0334,-35.10307,0.001067912,-0.1257102,0.09433498,0,0.3,0,0,0,0
638223383862481926,15.83229,32.42557,5.743428,17.43856,10.00999,12.82412,-4.570632,-0.4441859,0.1400836,-35.22471,-8.447793,45.05199,0,0,0,34.34947,-37.82785,-47.22216,-10.65206,-111.0334,-35.10307,0.001067912,-0.1257102,0.09433498,0,0.3,0,0,0,0
638223383862841814,14.86634,30.62544,5.743428,15.60743,8.398596,22.05301,-4.570632,-0.4441859,0.1400836,-35.22471,-8.447793,45.05199,0,0,0,32.8646,-41.39894,-44.54306,-10.65206,-111.0334,-35.10307,0.001067912,-0.1257102,0.09433498,0,0.3,0,0,0,0
638223383863201702,14.60718,29.08249,5.766775,12.53114,6.933692,28.35209,-4.570632,-0.4441859,0.1400836,-35.22471,-8.447793,45.05199,0,0,0,32.7687,-44.50793,-42.61359,-10.65206,-111.0334,-35.10307,0.001067912,-0.1257102,0.09433498,0,0.3,0,0,0,0
638223383863641565,15.12549,28.12398,5.626691,8.942122,5.468789,32.60031,-4.570632,-0.4441859,0.1400836,-35.22471,-8.447793,45.05199,0,0,0,34.09882,-46.49884,-42.19737,-10.65206,-111.0334,-35.10307,0.001067912,-0.1257102,0.09433498,0,0.3,0,0,0,0
638223383863971459,15.52601,27.51615,5.323177,7.477218,4.809582,32.89329,-4.570632,-0.4441859,0.1400836,-35.22471,-8.447793,45.05199,0,0,0,34.96834,-47.81739,-42.4802,-10.65206,-111.0334,-35.10307,0.001067912,-0.1257102,0.09433498,0,0.3,0,0,0,0
638223383864321347,15.76161,26.46413,5.20644,6.305296,4.589847,33.11303,-4.570632,-0.4441859,0.1400836,-35.22471,-8.447793,45.05199,0,0,0,35.71396,-50.02408,-41.81602,-10.65206,-111.0334,-35.10307,0.001067912,-0.1257102,0.09433498,0,0.3,0,0,0,0
638223383864681227,15.83229,26.13683,5.20644,5.93907,4.589847,33.77223,-4.570632,-0.4441859,0.1400836,-35.22471,-8.447793,45.05199,0,0,0,35.96211,-50.70697,-41.53546,-10.65206,-111.0334,-35.10307,0.001067912,-0.1257102,0.09433498,0,0.3,0,0,0,0
638223383865151075,16.27993,25.94981,4.94962,4.913638,4.956073,37.80072,-4.570632,-0.4441859,0.1400836,-35.22471,-8.447793,45.05199,0,0,0,36.83845,-51.15096,-42.20835,-10.65206,-111.0334,-35.10307,0.001067912,-0.1257102,0.09433498,0,0.3,0,0,0,0
638223383865480969,16.30349,25.94981,4.809536,4.840393,5.102563,39.04589,-4.570632,-0.4441859,0.1400836,-35.22471,-8.447793,45.05199,0,0,0,36.79912,-51.17869,-42.53529,-10.65206,-111.0334,-35.10307,0.001067912,-0.1257102,0.09433498,0,0.3,0,0,0,0
638223383865840856,16.30349,25.94981,4.225855,4.547412,5.175808,42.12218,-4.570632,-0.4441859,0.1400836,-35.22471,-8.447793,45.12524,0,0,0,36.41895,-51.28569,-43.83507,-10.65206,-111.0334,-35.10307,0.001067912,-0.1257102,0.09433498,0,0.3,0,0,0,0
638223383866210737,16.25637,25.66927,3.50209,3.96145,5.542034,44.31954,-4.570632,-0.4441859,0.1400836,-35.22471,-8.447793,45.05199,0,0,0,35.92564,-51.987,-45.14571,-10.65206,-111.0334,-35.10307,0.001067912,-0.1257102,0.09433498,0,0.3,0,0,0,0
638223383866670598,16.18569,25.10819,2.311379,2.643037,6.347731,45.5647,-4.570632,-0.4441859,0.1400836,-35.22471,-8.447793,45.05199,0,0,0,35.15822,-53.30725,-47.22173,-10.65206,-111.0334,-35.10307,0.001067912,-0.1257102,0.09433498,0,0.3,0,0,0,0
638223383867030480,16.04433,24.94454,1.751045,1.910586,6.860447,45.85769,-4.570632,-0.4441859,0.1400836,-35.22471,-8.447793,45.05199,0,0,0,34.54359,-53.69859,-48.23304,-10.65206,-111.0334,-35.10307,0.001067912,-0.1257102,0.09433498,0,0.3,0,0,0,0
638223383867400358,15.69093,24.52374,1.144016,0.8851534,7.373164,46.07742,-4.570632,-0.4441859,0.1400836,-35.22471,-8.447793,45.05199,0,0,0,33.53092,-54.62381,-48.98746,-10.65206,-111.0334,-35.10307,0.001067912,-0.1257102,0.09433498,0,0.3,0,0,0,0
638223383867760246,14.8899,23.9159,0.9338906,0.5189275,7.812634,47.32259,-4.570632,-0.4441859,0.1400836,-35.22471,-8.447793,45.05199,0,0,0,31.8824,-55.92282,-48.44203,-10.65206,-111.0334,-35.10307,0.001067912,-0.1257102,0.09433498,0,0.3,0,0,0,0
638223383868160115,13.0051,22.74699,0.8871961,0.4456824,8.105616,50.32565,-4.570632,-0.4441859,0.1400836,-35.22471,-8.447793,45.05199,0,0,0,28.13939,-58.42257,-46.51437,-10.65206,-111.0334,-35.10307,0.001067912,-0.1257102,0.09433498,0,0.3,0,0,0,0
638223383868519998,10.97894,21.39106,0.8638488,-0.2135241,8.252106,53.62167,-4.570632,-0.4441859,0.1400836,-35.22471,-8.447793,45.12524,0,0,0,24.02967,-61.34791,-44.48501,-10.65206,-111.0334,-35.10307,0.001067912,-0.1257102,0.09433498,0,0.3,0,0,0,0
638223383868849907,9.753823,20.40917,0.8638488,-0.7994855,8.398596,55.67254,-4.570632,-0.4441859,0.1400836,-35.22471,-8.447793,45.12524,0,0,0,21.51397,-63.48275,-43.19611,-10.65206,-111.0334,-35.10307,0.001067912,-0.1257102,0.09433498,0,0.3,0,0,0,0
638223383869210011,7.280028,18.07135,0.9572379,-2.044653,8.984557,60.06725,-4.570632,-0.4441859,0.1400836,-35.22471,-8.447793,45.05199,0,0,0,16.3467,-68.61607,-40.39017,-10.65206,-111.0334,-35.10307,0.001067912,-0.1257102,0.09433498,0,0.3,0,0,0,0
638223383869719617,3.109915,13.62949,1.517572,-3.949028,10.6692,67.39177,-4.570632,-0.4441859,0.1400836,-35.22471,-8.447793,45.05199,0,0,0,7.222322,-78.53031,-35.41964,-10.65206,-111.0334,-35.10307,0.001067912,-0.1257102,0.09433498,0,0.3,0,0,0,0
638223383870046237,1.484278,12.25018,1.867781,-5.120951,11.40165,69.80886,-4.570632,-0.4441859,0.1400836,-35.22471,-8.447793,45.05199,0,0,0,3.488048,-81.63485,-33.73521,-10.65206,-111.0334,-35.10307,0.001067912,-0.1257102,0.09433498,0,0.3,0,0,0,0
638223383870385885,-1.884797,10.28641,2.801672,-8.124002,12.57357,74.05708,-4.570632,-0.4441859,0.1400836,-35.22471,-8.447793,45.05199,0,0,0,-4.529763,-86.02846,-30.69979,-10.65206,-111.0334,-35.10307,0.001067912,-0.1257102,0.09433498,0,0.3,0,0,0,0
638223383870745792,-4.900472,9.23439,4.109118,-11.93275,12.9398,76.91364,-4.570632,-0.4441859,0.1400836,-35.22471,-8.447793,45.05199,0,0,0,-12.06008,-88.25805,-27.68891,-10.65206,-111.0334,-35.10307,0.001067912,-0.1257102,0.09433498,0,0.3,0,0,0,0
638223383871245611,-8.976345,8.883718,6.560582,-18.67131,12.35384,78.81802,-4.570632,-0.4441859,0.1400836,-35.22471,-8.447793,45.05199,0,0,0,-22.93374,-88.53358,-23.16412,-10.65206,-111.0334,-35.10307,0.001067912,-0.1257102,0.09433498,0,0.3,0,0,0,0
638223383871575517,-11.1203,8.907095,8.101501,-22.91953,11.54814,79.55046,-4.570632,-0.4441859,0.1400836,-35.22471,-8.447793,45.05199,0,0,0,-29.03354,-88.02222,-20.64185,-10.65206,-111.0334,-35.10307,0.001067912,-0.1257102,0.09433498,0,0.3,0,0,0,0
638223383871945389,-13.31138,9.023986,9.945935,-28.33967,9.8635,81.30835,-4.570632,-0.4441859,0.1400836,-35.22471,-8.447793,45.05199,0,0,0,-35.62585,-87.08023,-17.77559,-10.65206,-111.0334,-35.10307,0.001067912,-0.1257102,0.09433498,0,0.3,0,0,0,0
638223383872305273,-14.23022,9.140878,10.85648,-30.31729,8.984557,82.62676,-4.570632,-0.4441859,0.1400836,-35.22471,-8.447793,45.12524,0,0,0,-38.53771,-86.42899,-16.38749,-10.65206,-111.0334,-35.10307,0.001067912,-0.1257102,0.09433498,0,0.3,0,0,0,0
638223383872775126,-16.39773,9.678576,13.58811,-34.85849,5.615279,88.41313,-4.570632,-0.4441859,0.1400836,-35.22471,-8.447793,45.05199,0,0,0,-45.95372,-83.84859,-12.18985,-10.65206,-111.0334,-35.10307,0.001067912,-0.1257102,0.09433498,0,0.3,0,0,0,0
638223383873105155,-16.82181,9.935737,14.40526,-35.59094,4.663092,90.3175,-4.570632,-0.4441859,0.1400836,-35.22471,-8.447793,45.05199,0,0,0,-47.61282,-82.79884,-10.86545,-10.65206,-111.0334,-35.10307,0.001067912,-0.1257102,0.09433498,0,0.3,0,0,0,0
638223383873444923,-17.81133,10.96438,16.48317,-36.61637,1.953021,95.15169,-4.570632,-0.4441859,0.1400836,-35.22471,-8.447793,45.05199,0,0,0,-51.61837,-79.15674,-7.686784,-10.65206,-111.0334,-35.10307,0.001067912,-0.1257102,0.09433498,0,0.3,0,0,0,0
638223383873814790,-18.89509,11.99302,18.67781,-37.6418,-1.416257,100.6451,-4.570632,-0.4441859,0.1400836,-35.22471,-8.447793,45.05199,0,0,0,-56.07038,-75.26791,-4.536014,-10.65206,-111.0334,-35.10307,0.001067912,-0.1257102,0.09433498,0,0.3,0,0,0,0
638223383874274793,-19.83749,12.88139,20.91915,-38.81373,-4.565799,106.1385,-4.570632,-0.4441859,0.1400836,-35.22471,-8.447793,45.05199,0,0,0,-60.27145,-71.48208,-1.282656,-10.65206,-111.0334,-35.10307,0.001067912,-0.1257102,0.09433498,0,0.3,0,0,0,0
638223383874634668,-20.73277,14.09706,23.34727,-40.27863,-7.935077,112.2178,-4.570632,-0.4441859,0.1400836,-35.22471,-8.447793,45.05199,0,0,0,-64.49389,-66.60185,2.033379,-10.65206,-111.0334,-35.10307,0.001067912,-0.1257102,0.09433498,0,0.3,0,0,0,0
638223383875004431,-21.36888,15.31272,25.54191,-41.37731,-10.93813,117.1985,-4.570632,-0.4441859,0.1400836,-35.22471,-8.447793,45.05199,0,0,0,-67.81405,-61.75169,4.968063,-10.65206,-111.0334,-35.10307,0.001067912,-0.1257102,0.09433498,0,0.3,0,0,0,0
638223383875364312,-22.005,16.85568,27.82994,-42.40274,-14.08767,122.7651,-4.570632,-0.4441859,0.1400836,-35.22471,-8.447793,45.05199,0,0,0,-71.14392,-55.90992,7.693126,-10.65206,-111.0334,-35.10307,0.001067912,-0.1257102,0.09433498,0,0.3,0,0,0,0
638223383875836653,-22.85316,18.74932,30.35144,-44.08738,-18.1894,131.994,-4.570632,-0.4441859,0.1400836,-35.22471,-8.447793,45.05199,0,0,0,-75.21024,-48.86089,10.10439,-10.65206,-111.0334,-35.10307,0.001067912,-0.1257102,0.09433498,0,0.3,0,0,0,0
638223383876166746,-23.44216,19.75458,32.12584,-45.69878,-20.75298,138.5861,-4.570632,-0.4441859,0.1400836,-35.22471,-8.447793,45.05199,0,0,0,-78.13849,-44.51051,11.85347,-10.65206,-111.0334,-35.10307,0.001067912,-0.1257102,0.09433498,0,0.3,0,0,0,0
638223383876536718,-24.1254,20.82998,34.55396,-48.77507,-24.56173,144.6654,-4.570632,-0.4441859,0.1400836,-35.22471,-8.447793,45.05199,0,0,0,-81.85653,-39.05732,14.42514,-10.65206,-111.0334,-35.10307,0.001067912,-0.1257102,0.09433498,0,0.3,0,0,0,0
638223383876896600,-24.43168,21.29754,35.74466,-50.45971,-26.39286,144.8852,-4.570632,-0.4441859,0.1400836,-35.22471,-8.447793,45.05199,0,0,0,-83.60783,-36.44642,15.69187,-10.65206,-111.0334,-35.10307,0.001067912,-0.1257102,0.09433498,0,0.3,0,0,0,0
638223383877326463,-25.1856,22.88726,39.20006,-57.49125,-31.0073,144.8852,-4.570632,-0.4441859,0.1400836,-35.22471,-8.447793,45.05199,0,0,0,-88.14575,-28.1264,19.09154,-10.65206,-111.0334,-35.10307,0.001067912,-0.1257102,0.09433498,0,0.3,0,0,0,0
638223383877686348,-25.25628,23.44834,40.27403,-60.05483,-32.32572,144.8852,-4.570632,-0.4441859,0.1400836,-35.15147,-8.447793,45.05199,0,0,0,-88.97781,-25.328,20.25639,-10.65206,-111.0334,-35.10307,0.001067912,-0.1257102,0.09433498,0,0.3,0,0,0,0
638223383878056235,-25.27984,24.94454,42.32859,-65.18199,-34.59632,144.8852,-4.570632,-0.4441859,0.1400836,-35.22471,-8.447793,45.05199,0,0,0,-89.97985,-18.99587,22.17735,-10.65206,-111.0334,-35.10307,0.001067912,-0.1257102,0.09433498,0,0.3,0,0,0,0
638223383878416116,-25.11492,26.74467,43.86951,-69.72319,-36.20771,144.8119,-4.570632,-0.4441859,0.1400836,-35.22471,-8.447793,45.12524,0,0,0,-89.76733,-12.77514,23.15292,-10.65206,-111.0334,-35.10307,0.001067912,-0.1257102,0.09433498,0,0.3,0,0,0,0
638223383878855972,-24.19608,29.24613,45.62056,-74.70387,-37.59937,144.8852,-4.570632,-0.4441859,0.1400836,-35.22471,-8.447793,45.12524,0,0,0,-86.75116,-4.766129,24.71541,-10.65206,-111.0334,-35.10307,0.001067912,-0.1257102,0.09433498,0,0.3,0,0,0,0
638223383879185874,-23.4186,30.83585,46.36767,-76.46174,-38.25858,144.8119,-4.570632,-0.4441859,0.1400836,-35.22471,-8.447793,45.05199,0,0,0,-83.86742,-0.3126707,25.28366,-10.65206,-111.0334,-35.10307,0.001067912,-0.1257102,0.09433498,0,0.3,0,0,0,0
638223383879545741,-21.81652,33.45421,47.34826,-78.6591,-39.79673,144.8852,-4.570632,-0.4441859,0.1400836,-35.22471,-8.447793,45.05199,0,0,0,-77.79613,6.511879,25.99164,-10.65206,-111.0334,-35.10307,0.001067912,-0.1257102,0.09433498,0,0.3,0,0,0,0
638223383879915649,-19.88461,35.97906,48.14206,-80.124,-41.99408,144.8119,-4.570632,-0.4441859,0.1400836,-35.22471,-8.447793,45.05199,0,0,0,-70.48463,12.70914,26.52519,-10.65206,-111.0334,-35.10307,0.001067912,-0.1257102,0.09433498,0,0.3,0,0,0,0
638223383880375490,-17.38725,38.73769,48.95922,-80.49023,-44.63091,144.8119,-4.570632,-0.4441859,0.1400836,-35.22471,-8.447793,45.05199,0,0,0,-61.13844,19.23745,26.89523,-10.65206,-111.0334,-35.10307,0.001067912,-0.1257102,0.09433498,0,0.3,0,0,0,0
638223383880735380,-15.26685,40.84172,49.47286,-79.68453,-47.048,144.8852,-4.570632,-0.4441859,0.1400836,-35.22471,-8.447793,45.12524,0,0,0,-53.25307,23.90519,26.75381,-10.65206,-111.0334,-35.10307,0.001067912,-0.1257102,0.09433498,0,0.3,0,0,0,0
638223383881095246,-13.99462,42.01063,49.68298,-78.95209,-48.5129,144.8852,-4.570632,-0.4441859,0.1400836,-35.22471,-8.447793,45.05199,0,0,0,-48.54945,26.31733,26.44919,-10.65206,-111.0334,-35.10307,0.001067912,-0.1257102,0.09433498,0,0.3,0,0,0,0
638223383881465150,-11.37946,44.39521,49.89311,-75.72929,-51.73569,144.8852,-4.570632,-0.4441859,0.1400836,-35.22471,-8.447793,45.05199,0,0,0,-38.92346,30.73598,25.04664,-10.65206,-111.0334,-35.10307,0.001067912,-0.1257102,0.09433498,0,0.3,0,0,0,0
638223383881895145,-8.505146,46.8733,49.89311,-68.69775,-54.88523,138.2931,-4.570632,-0.4441859,0.1400836,-35.22471,-8.447793,45.12524,0,0,0,-28.56682,34.76851,22.67769,-10.65206,-111.0334,-35.10307,0.001067912,-0.1257102,0.09433498,0,0.3,0,0,0,0
638223383882234903,-5.489471,49.32801,49.84641,-54.70793,-57.74179,123.4243,-4.570632,-0.4441859,0.1400836,-35.22471,-8.447793,45.05199,0,0,0,-18.06399,38.50046,19.61377,-10.65206,-111.0334,-35.10307,0.001067912,-0.1257102,0.09433498,0,0.3,0,0,0,0
638223383882594768,-2.497356,51.36191,49.28608,-33.10061,-59.27994,104.3806,-4.570632,-0.4441859,0.1400836,-35.22471,-8.447793,45.05199,0,0,0,-8.032285,40.52854,15.81461,-10.65206,-111.0334,-35.10307,0.001067912,-0.1257102,0.09433498,0,0.3,0,0,0,0
638223383882944655,0.9423984,52.83474,48.6557,-9.295925,-58.54749,85.1171,-4.570632,-0.4441859,0.1400836,-35.22471,-8.447793,45.05199,0,0,0,2.971549,41.52748,12.29743,-10.65206,-111.0334,-35.10307,0.001067912,-0.1257102,0.09433498,0,0.3,0,0,0,0
638223383883414515,5.277431,53.95689,47.69846,14.87498,-54.95848,65.92686,-4.570632,-0.4441859,0.1400836,-35.22471,-8.447793,45.05199,0,0,0,16.28842,41.42455,7.989026,-10.65206,-111.0334,-35.10307,0.001067912,-0.1257102,0.09433498,0,0.3,0,0,0,0
638223383883744406,7.939706,54.3777,46.76458,23.81089,-51.95542,58.38261,-4.570632,-0.4441859,0.1400836,-35.15147,-8.447793,45.05199,0,0,0,24.14803,40.40232,4.79397,-10.65206,-111.0334,-35.10307,0.001067912,-0.1257102,0.09433498,0,0.3,0,0,0,0
638223383884104436,9.942304,54.56472,45.78399,28.27885,-49.39184,54.20764,-4.570632,-0.4441859,0.1400836,-35.22471,-8.447793,45.05199,0,0,0,29.85023,39.00603,1.94168,-10.65206,-111.0334,-35.10307,0.001067912,-0.1257102,0.09433498,0,0.3,0,0,0,0
638223383884474188,13.28782,54.5881,43.75277,32.38057,-44.63091,49.00723,-4.570632,-0.4441859,0.1400836,-35.22471,-8.447793,45.05199,0,0,0,38.95552,35.70848,-3.39992,-10.65206,-111.0334,-35.10307,0.001067912,-0.1257102,0.09433498,0,0.3,0,0,0,0
638223383884934161,17.92913,53.98027,39.83044,34.06521,-37.30639,44.83226,-4.570632,-0.4441859,0.1400836,-35.22471,-8.447793,45.05199,0,0,0,50.4339,28.80017,-12.47463,-10.65206,-111.0334,-35.10307,0.001067912,-0.1257102,0.09433498,0,0.3,0,0,0,0
638223383885303904,19.41341,53.60622,38.47629,33.99197,-34.96254,43.88007,-4.570632,-0.4441859,0.1400836,-35.22471,-8.447793,45.05199,0,0,0,53.87574,26.29604,-15.47574,-10.65206,-111.0334,-35.10307,0.001067912,-0.1257102,0.09433498,0,0.3,0,0,0,0
638223383885663805,22.14636,52.48407,35.69797,33.69899,-30.56783,42.26867,-4.570632,-0.4441859,0.1400836,-35.22471,-8.447793,45.05199,0,0,0,59.94606,20.82699,-21.06268,-10.65206,-111.0334,-35.10307,0.001067912,-0.1257102,0.09433498,0,0.3,0,0,0,0
638223383886023806,24.52592,50.96449,32.56944,32.89329,-26.31961,40.80377,-4.570632,-0.4441859,0.1400836,-35.22471,-8.447793,45.05199,0,0,0,64.66057,14.55104,-26.63526,-10.65206,-111.0334,-35.10307,0.001067912,-0.1257102,0.09433498,0,0.3,0,0,0,0
638223383886463552,27.4238,48.01883,28.27354,31.64813,-20.89947,39.77834,-4.570632,-0.4441859,0.1400836,-35.22471,-8.447793,45.05199,0,0,0,70.17287,5.036841,-33.11031,-10.65206,-111.0334,-35.10307,0.001067912,-0.1257102,0.09433498,0,0.3,0,0,0,0
638223383886793428,28.69603,46.05506,25.96216,31.2819,-18.11616,39.5586,-4.570632,-0.4441859,0.1400836,-35.22471,-8.447793,45.05199,0,0,0,72.46525,-0.529831,-35.96775,-10.65206,-111.0334,-35.10307,0.001067912,-0.1257102,0.09433498,0,0.3,0,0,0,0
638223383887163320,30.27455,42.64184,22.57681,30.84243,-13.79469,39.41211,-4.570632,-0.4441859,0.1400836,-35.22471,-8.521038,45.12524,0,0,0,75.26293,-9.447746,-39.42149,-10.65206,-111.0334,-35.10307,0.001067912,-0.1257102,0.09433498,0,0.3,0,0,0,0
638223383887523194,31.45255,38.85457,18.93463,30.40295,-8.960509,39.11913,-4.570632,-0.4441859,0.1400836,-35.22471,-8.447793,45.12524,0,0,0,76.76384,-19.12778,-42.84961,-10.65206,-111.0334,-35.10307,0.001067912,-0.1257102,0.09433498,0,0.3,0,0,0,0
638223383887983064,32.58343,34.17893,14.61539,29.817,-3.320631,38.45993,-4.570632,-0.4441859,0.1400836,-35.22471,-8.447793,45.05199,0,0,0,77.53004,-30.77172,-47.04235,-10.65206,-111.0334,-35.10307,0.001067912,-0.1257102,0.09433498,0,0.3,0,0,0,0
638223383888322953,33.38446,30.85923,11.76702,29.37753,0.9275885,37.14151,-4.570632,-0.4441859,0.1400836,-35.22471,-8.447793,45.12524,0,0,0,77.95237,-38.79836,-50.05924,-10.65206,-111.0334,-35.10307,0.001067912,-0.1257102,0.09433498,0,0.3,0,0,0,0
638223383888655205,33.76143,29.08249,10.20275,29.23104,3.63766,35.74985,-4.570632,-0.4441859,0.1400836,-35.22471,-8.447793,45.05199,0,0,0,77.89079,-43.07415,-51.82849,-10.65206,-111.0334,-35.10307,0.001067912,-0.1257102,0.09433498,0,0.3,0,0,0,0
638223383889015476,34.25618,26.30048,7.541167,28.57183,8.471841,31.06216,-4.570632,-0.4441859,0.1400836,-35.22471,-8.447793,45.05199,0,0,0,77.14274,-49.76209,-55.07699,-10.65206,-111.0334,-35.10307,0.001067912,-0.1257102,0.09433498,0,0.3,0,0,0,0
638223383889505312,34.68026,24.66401,5.906858,27.61964,12.20734,25.56878,-4.570632,-0.4441859,0.1400836,-35.22471,-8.447793,45.05199,0,0,0,76.76204,-53.64553,-57.4099,-10.65206,-111.0334,-35.10307,0.001067912,-0.1257102,0.09433498,0,0.3,0,0,0,0
638223383889875191,35.57554,23.75225,5.486608,26.66745,15.06391,19.85565,-4.570632,-0.4441859,0.1400836,-35.22471,-8.447793,45.05199,0,0,0,78.4261,-55.67799,-58.70673,-10.65206,-111.0334,-35.10307,0.001067912,-0.1257102,0.09433498,0,0.3,0,0,0,0
638223383890235064,36.61218,23.42496,5.72008,26.81394,16.82179,15.75392,-4.570632,-0.4441859,0.1400836,-35.22471,-8.447793,45.05199,0,0,0,80.90122,-56.32303,-59.46477,-10.65206,-111.0334,-35.10307,0.001067912,-0.1257102,0.09433498,0,0.3,0,0,0,0
638223383890594948,37.74306,23.1678,6.653971,27.39991,17.92047,13.1171,-4.570632,-0.4441859,0.1400836,-35.22471,-8.447793,45.05199,0,0,0,84.50204,-56.6385,-59.18677,-10.65206,-111.0334,-35.10307,0.001067912,-0.1257102,0.09433498,0,0.3,0,0,0,0
638223383891034829,39.7221,22.70024,9.292212,29.08454,18.87265,11.87193,-4.570632,-0.4441859,0.1400836,-35.22471,-8.447793,45.05199,0,0,0,92.37819,-56.78906,-57.1672,-10.65206,-111.0334,-35.10307,0.001067912,-0.1257102,0.09433498,0,0.3,0,0,0,0
638223383891374719,41.34773,22.46645,11.97715,30.98892,19.38537,11.79868,-4.570632,-0.4441859,0.1400836,-35.22471,-8.447793,45.05199,0,0,0,99.69011,-56.13834,-55.06561,-10.65206,-111.0334,-35.10307,0.001067912,-0.1257102,0.09433498,0,0.3,0,0,0,0
638223383891734596,43.53881,22.39632,16.2497,34.06521,19.60511,12.23815,-4.570632,-0.4441859,0.1400836,-35.22471,-8.447793,45.05199,0,0,0,110.6328,-53.86503,-51.92543,-10.65206,-111.0334,-35.10307,0.001067912,-0.1257102,0.09433498,0,0.3,0,0,0,0
638223383892074496,44.52832,22.37294,18.51438,35.8231,19.60511,12.38465,-4.570632,-0.4441859,0.1400836,-35.22471,-8.447793,45.05199,0,0,0,116.1686,-52.34083,-50.25283,-10.65206,-111.0334,-35.10307,0.001067912,-0.1257102,0.09433498,0,0.3,0,0,0,0
638223383892534344,46.97857,21.85862,24.67806,41.17,19.09239,12.53114,-4.570632,-0.4441859,0.1400836,-35.22471,-8.447793,45.05199,0,0,0,131.1876,-48.17234,-45.92378,-10.65206,-111.0334,-35.10307,0.001067912,-0.1257102,0.09433498,0,0.3,0,0,0,0
638223383892894224,47.61468,21.46119,26.54584,42.56165,19.01915,12.38465,-4.570632,-0.4441859,0.1400836,-35.22471,-8.447793,45.05199,0,0,0,135.6861,-47.15297,-44.51528,-10.65206,-111.0334,-35.10307,0.001067912,-0.1257102,0.09433498,0,0.3,0,0,0,0
638223383893254252,48.722,20.52606,29.58099,44.83226,19.38537,11.65219,-4.570632,-0.4441859,0.1400836,-35.15147,-8.447793,45.05199,0,0,0,143.3239,-45.86204,-42.53436,-10.65206,-111.0334,-35.10307,0.001067912,-0.1257102,0.09433498,0,0.3,0,0,0,0
638223383893624006,49.9,19.77796,31.72893,46.44365,19.82484,10.18729,-4.570632,-0.4441859,0.1400836,-35.22471,-8.447793,45.05199,0,0,0,149.6284,-44.94783,-42.3512,-10.65206,-111.0334,-35.10307,0.001067912,-0.1257102,0.09433498,0,0.3,0,0,0,0
638223383894053845,51.61988,19.59093,33.24651,47.90855,20.55729,7.110993,-4.570632,-0.4441859,0.1400836,-35.22471,-8.447793,45.05199,0,0,0,155.7929,-43.46063,-44.95803,-10.65206,-111.0334,-35.10307,0.001067912,-0.1257102,0.09433498,0,0.3,0,0,0,0
638223383894383748,52.56227,19.70782,34.08701,48.34802,20.70378,5.353109,-4.570632,-0.4441859,0.1400836,-35.22471,-8.447793,45.05199,0,0,0,159.0214,-42.12,-46.60299,-10.65206,-111.0334,-35.10307,0.001067912,-0.1257102,0.09433498,0,0.3,0,0,0,0
638223383894743641,54.16435,20.22215,35.60458,49.08047,20.26431,2.203566,-4.570632,-0.4441859,0.1400836,-35.22471,-8.447793,45.05199,0,0,0,164.3815,-38.9769,-49.63875,-10.65206,-111.0334,-35.10307,0.001067912,-0.1257102,0.09433498,0,0.3,0,0,0,0
638223383895113515,55.03607,20.73647,36.16492,49.59319,19.89809,0.3724372,-4.570632,-0.4441859,0.1400836,-35.15147,-8.447793,45.05199,0,0,0,166.6912,-37.09111,-51.78786,-10.65206,-111.0334,-35.10307,0.001067912,-0.1257102,0.09433498,0,0.3,0,0,0,0
638223383895543392,55.36591,22.60672,37.56575,50.61862,17.84722,-6.366118,-4.570632,-0.4441859,0.1400836,-35.22471,-8.447793,45.05199,0,0,0,168.1831,-31.09022,-52.18052,-10.65206,-111.0334,-35.10307,0.001067912,-0.1257102,0.09433498,0,0.3,0,0,0,0
638223383895873278,55.36591,23.14442,38.07939,50.76511,17.33451,-7.977511,-4.570632,-0.4441859,0.1400836,-35.22471,-8.447793,45.05199,0,0,0,168.5598,-29.20414,-51.92032,-10.65206,-111.0334,-35.10307,0.001067912,-0.1257102,0.09433498,0,0.3,0,0,0,0
638223383896243157,55.31879,25.34197,38.9199,51.93703,15.72311,-10.90732,-4.570632,-0.4441859,0.1400836,-35.22471,-8.447793,45.05199,0,0,0,167.996,-23.32317,-52.10553,-10.65206,-111.0334,-35.10307,0.001067912,-0.1257102,0.09433498,0,0.3,0,0,0,0
638223383896603046,55.22455,27.79668,39.01328,53.54843,13.67225,-12.37222,-4.570632,-0.4441859,0.1400836,-35.22471,-8.447793,45.05199,0,0,0,165.8446,-18.07713,-53.19034,-10.65206,-111.0334,-35.10307,0.001067912,-0.1257102,0.09433498,0,0.3,0,0,0,0
638223383897082887,55.22455,29.85397,39.01328,55.37956,10.30297,-13.98362,-4.570632,-0.4441859,0.1400836,-35.22471,-8.447793,45.05199,0,0,0,163.9485,-13.88252,-54.50698,-10.65206,-111.0334,-35.10307,0.001067912,-0.1257102,0.09433498,0,0.3,0,0,0,0
638223383897412787,55.22455,30.55531,38.94324,55.81903,9.057802,-14.9358,-4.570632,-0.4441859,0.1400836,-35.22471,-8.447793,45.12524,0,0,0,163.1699,-12.57437,-55.04763,-10.65206,-111.0334,-35.10307,0.001067912,-0.1257102,0.09433498,0,0.3,0,0,0,0
638223383897782665,55.24811,31.958,38.61638,56.11201,7.373164,-16.47395,-4.570632,-0.4441859,0.1400836,-35.22471,-8.447793,45.05199,0,0,0,161.3374,-10.26015,-56.41834,-10.65206,-111.0334,-35.10307,0.001067912,-0.1257102,0.09433498,0,0.3,0,0,0,0
638223383898142555,55.24811,33.66461,38.28952,56.03876,5.90826,-17.49938,-4.570632,-0.4441859,0.1400836,-35.22471,-8.447793,45.05199,0,0,0,159.0797,-7.395081,-57.98475,-10.65206,-111.0334,-35.10307,0.001067912,-0.1257102,0.09433498,0,0.3,0,0,0,0
638223383898582413,55.22455,35.53487,38.10274,55.89228,4.077131,-17.93885,-4.570632,-0.4441859,0.1400836,-35.22471,-8.447793,45.05199,0,0,0,156.7235,-4.081061,-59.5239,-10.65206,-111.0334,-35.10307,0.001067912,-0.1257102,0.09433498,0,0.3,0,0,0,0
638223383898942297,55.22455,36.42324,37.79922,55.74578,2.538982,-18.15859,-4.570632,-0.4441859,0.1400836,-35.22471,-8.447793,45.05199,0,0,0,155.2682,-2.842341,-60.53441,-10.65206,-111.0334,-35.10307,0.001067912,-0.1257102,0.09433498,0,0.3,0,0,0,0
638223383899302180,55.22455,36.79729,37.56575,55.67254,1.66004,-18.37833,-4.570632,-0.4441859,0.1400836,-35.15147,-8.447793,45.05199,0,0,0,154.4885,-2.475692,-61.07581,-10.65206,-111.0334,-35.10307,0.001067912,-0.1257102,0.09433498,0,0.3,0,0,0,0
638223383899632069,55.22455,37.47526,36.84199,54.7936,0.1951368,-19.69674,-4.570632,-0.4441859,0.1400836,-35.22471,-8.447793,45.05199,0,0,0,152.604,-2.236318,-62.38437,-10.65206,-111.0334,-35.10307,0.001067912,-0.1257102,0.09433498,0,0.3,0,0,0,0
638223383900101935,55.22455,38.22336,36.305,53.54843,-1.123276,-21.96734,-4.570632,-0.4441859,0.1400836,-35.22471,-8.521038,45.05199,0,0,0,150.9021,-1.606168,-63.56616,-10.65206,-111.0334,-35.10307,0.001067912,-0.1257102,0.09433498,0,0.3,0,0,0,0
638223383900431967,55.20099,38.90133,36.02483,52.23001,-2.58818,-25.6296,-4.570632,-0.4441859,0.1400836,-35.22471,-8.447793,45.05199,0,0,0,149.619,-0.7571545,-64.36589,-10.65206,-111.0334,-35.10307,0.001067912,-0.1257102,0.09433498,0,0.3,0,0,0,0
638223383900801736,55.03607,39.53254,35.25437,50.98485,-4.053083,-30.24404,-4.570632,-0.4441859,0.1400836,-35.22471,-8.447793,45.05199,0,0,0,147.3636,-0.6638221,-65.30305,-10.65206,-111.0334,-35.10307,0.001067912,-0.1257102,0.09433498,0,0.3,0,0,0,0
638223383901174038,54.94183,39.7897,33.6901,49.22696,-5.371496,-34.49226,-4.570632,-0.4441859,0.1400836,-35.22471,-8.447793,45.12524,0,0,0,144.4245,-2.263647,-67.00419,-10.65206,-111.0334,-35.10307,0.001067912,-0.1257102,0.09433498,0,0.3,0,0,0,0
638223383901635818,54.70623,39.76632,31.26199,46.59014,-6.323683,-38.22777,-4.570632,-0.4441859,0.1400836,-35.22471,-8.447793,45.05199,0,0,0,140.1441,-5.339624,-69.14533,-10.65206,-111.0334,-35.10307,0.001067912,-0.1257102,0.09433498,0,0.3,0,0,0,0
638223383901985848,54.63555,39.67281,30.16467,44.83226,-6.396928,-39.17995,-4.570632,-0.4441859,0.1400836,-35.22471,-8.447793,45.05199,0,0,0,138.3445,-6.811397,-70.16281,-10.65206,-111.0334,-35.10307,0.001067912,-0.1257102,0.09433498,0,0.3,0,0,0,0
638223383902355584,54.63555,39.39227,29.13739,43.00113,-6.396928,-39.32644,-4.570632,-0.4441859,0.1400836,-35.22471,-8.447793,45.05199,0,0,0,136.989,-8.497767,-71.12485,-10.65206,-111.0334,-35.10307,0.001067912,-0.1257102,0.09433498,0,0.3,0,0,0,0
638223383902725467,54.63555,38.80782,28.08676,41.97569,-6.030703,-38.30101,-4.570632,-0.4441859,0.1400836,-35.22471,-8.447793,45.05199,0,0,0,135.9381,-10.72433,-71.87072,-10.65206,-111.0334,-35.10307,0.001067912,-0.1257102,0.09433498,0,0.3,0,0,0,0
638223383903155345,54.63555,37.4285,26.61588,41.09675,-5.15176,-36.61637,-4.570632,-0.4441859,0.1400836,-35.22471,-8.447793,45.05199,0,0,0,135.0745,-14.82265,-72.48362,-10.65206,-111.0334,-35.10307,0.001067912,-0.1257102,0.09433498,0,0.3,0,0,0,0
638223383903515303,54.63555,35.37122,25.14501,40.58403,-3.613612,-33.68657,-4.570632,-0.4441859,0.1400836,-35.22471,-8.447793,45.05199,0,0,0,134.8799,-20.17059,-72.62177,-10.65206,-111.0334,-35.10307,0.001067912,-0.1257102,0.09433498,0,0.3,0,0,0,0
638223383903875111,54.63555,33.96853,24.18777,40.3643,-2.295199,-31.26948,-4.570632,-0.4441859,0.1400836,-35.22471,-8.447793,45.12524,0,0,0,134.7432,-23.78525,-72.71874,-10.65206,-111.0334,-35.10307,0.001067912,-0.1257102,0.09433498,0,0.3,0,0,0,0
638223383904235008,54.63555,31.60733,22.24994,40.07132,0.1218917,-27.02126,-4.570632,-0.4441859,0.1400836,-35.22471,-8.447793,45.12524,0,0,0,133.79,-30.18282,-73.39524,-10.65206,-111.0334,-35.10307,0.001067912,-0.1257102,0.09433498,0,0.3,0,0,0,0
638223383904674858,54.63555,27.60966,19.6117,39.63185,3.857395,-21.38138,-4.570632,-0.4441859,0.1400836,-35.22471,-8.447793,45.05199,0,0,0,132.8616,-40.46378,-74.05421,-10.65206,-111.0334,-35.10307,0.001067912,-0.1257102,0.09433498,0,0.3,0,0,0,0
638223383905034751,54.68267,25.31859,18.49104,39.41211,6.201241,-18.74455,-4.570632,-0.4441859,0.1400836,-35.22471,-8.447793,45.05199,0,0,0,132.8662,-46.08829,-74.21512,-10.65206,-111.0334,-35.10307,0.001067912,-0.1257102,0.09433498,0,0.3,0,0,0,0
638223383905394628,54.70623,21.95213,16.71664,39.26562,9.8635,-15.15554,-4.570632,-0.4441859,0.1400836,-35.22471,-8.447793,45.05199,0,0,0,132.2557,-54.51402,-74.72932,-10.65206,-111.0334,-35.10307,0.001067912,-0.1257102,0.09433498,0,0.3,0,0,0,0
638223383905764523,54.70623,18.49216,15.33915,39.11913,13.52576,-12.15249,-4.570632,-0.4441859,0.1400836,-35.22471,-8.447793,45.05199,0,0,0,132.0123,-62.95439,-74.9016,-10.65206,-111.0334,-35.10307,0.001067912,-0.1257102,0.09433498,0,0.3,0,0,0,0
638223383906194379,54.70623,14.72827,14.522,39.04589,17.55424,-9.808641,-4.570632,-0.4441859,0.1400836,-35.22471,-8.521038,45.05199,0,0,0,132.556,-71.8374,-74.51676,-10.65206,-111.0334,-35.10307,0.001067912,-0.1257102,0.09433498,0,0.3,0,0,0,0
638223383906524392,54.65911,12.67099,13.91497,38.82615,19.97133,-8.929699,-4.570632,-0.4441859,0.1400836,-35.22471,-8.447793,45.05199,0,0,0,132.2866,-76.83605,-74.54405,-10.65206,-111.0334,-35.10307,0.001067912,-0.1257102,0.09433498,0,0.3,0,0,0,0
638223383906894145,54.58843,11.78261,13.56476,38.53317,21.28975,-8.636719,-4.570632,-0.4441859,0.1400836,-35.22471,-8.447793,45.05199,0,0,0,131.8824,-79.05032,-74.58599,-10.65206,-111.0334,-35.10307,0.001067912,-0.1257102,0.09433498,0,0.3,0,0,0,0
638223383907256655,54.09367,11.05789,12.70091,37.80072,23.34061,-8.197248,-4.570632,-0.4441859,0.1400836,-35.22471,-8.447793,45.05199,0,0,0,129.7524,-81.16044,-74.40305,-10.65206,-111.0334,-35.10307,0.001067912,-0.1257102,0.09433498,0,0.3,0,0,0,0
638223383907723115,52.82143,11.40856,11.39347,36.04284,25.02525,-7.977511,-4.570632,-0.4441859,0.1400836,-35.22471,-8.447793,45.05199,0,0,0,125.1368,-80.99503,-73.43973,-10.65206,-111.0334,-35.10307,0.001067912,-0.1257102,0.09433498,0,0.3,0,0,0,0
638223383908053012,52.32668,11.89951,10.78644,35.45687,25.31823,-7.904267,-4.570632,-0.4441859,0.1400836,-35.22471,-8.447793,45.05199,0,0,0,123.0326,-80.14771,-73.35107,-10.65206,-111.0334,-35.10307,0.001067912,-0.1257102,0.09433498,0,0.3,0,0,0,0
638223383908412910,51.24292,13.3022,9.525684,33.99197,25.68446,-7.611286,-4.570632,-0.4441859,0.1400836,-35.22471,-8.447793,45.05199,0,0,0,118.4061,-77.47919,-73.29496,-10.65206,-111.0334,-35.10307,0.001067912,-0.1257102,0.09433498,0,0.3,0,0,0,0
638223383908782779,50.11204,15.14908,8.568447,32.45382,25.24498,-7.24506,-4.570632,-0.4441859,0.1400836,-35.22471,-8.447793,45.05199,0,0,0,114.0084,-73.66309,-73.06487,-10.65206,-111.0334,-35.10307,0.001067912,-0.1257102,0.09433498,0,0.3,0,0,0,0
638223383909252770,48.53352,18.37527,7.914723,30.03673,23.70683,-6.439363,-4.570632,-0.4441859,0.1400836,-35.22471,-8.447793,45.05199,0,0,0,108.5895,-66.69255,-72.39129,-10.65206,-111.0334,-35.10307,0.001067912,-0.1257102,0.09433498,0,0.3,0,0,0,0
638223383909592520,47.82672,20.24553,7.961418,28.86481,22.53491,-5.999893,-4.570632,-0.4441859,0.1400836,-35.22471,-8.447793,45.05199,0,0,0,106.4106,-62.56978,-71.95315,-10.65206,-111.0334,-35.10307,0.001067912,-0.1257102,0.09433498,0,0.3,0,0,0,0
638223383909962391,46.93144,23.1678,8.381668,27.25341,20.33756,-5.633667,-4.570632,-0.4441859,0.1400836,-35.22471,-8.447793,45.12524,0,0,0,103.7612,-56.11243,-71.3587,-10.65206,-111.0334,-35.10307,0.001067912,-0.1257102,0.09433498,0,0.3,0,0,0,0
638223383910322309,46.29532,26.72129,9.152128,25.64202,17.481,-5.487176,-4.570632,-0.4441859,0.1400836,-35.22471,-8.447793,45.05199,0,0,0,101.4381,-48.34145,-71.39781,-10.65206,-111.0334,-35.10307,0.001067912,-0.1257102,0.09433498,0,0.3,0,0,0,0
638223383910752274,46.13041,30.85923,10.69305,24.4701,13.74549,-5.487176,-4.570632,-0.4441859,0.1400836,-35.22471,-8.447793,45.05199,0,0,0,100.3623,-39.28513,-71.87172,-10.65206,-111.0334,-35.10307,0.001067912,-0.1257102,0.09433498,0,0.3,0,0,0,0
638223383911082188,46.13041,32.47232,11.41681,24.25036,11.98761,-5.633667,-4.570632,-0.4441859,0.1400836,-35.22471,-8.447793,45.12524,0,0,0,100.1333,-35.76685,-72.09182,-10.65206,-111.0334,-35.10307,0.001067912,-0.1257102,0.09433498,0,0.3,0,0,0,0
638223383911451938,46.10685,35.58163,12.81765,24.17712,7.739389,-6.512609,-4.570632,-0.4441859,0.1400836,-35.22471,-8.447793,45.05199,0,0,0,99.47301,-29.08574,-72.64787,-10.65206,-111.0334,-35.10307,0.001067912,-0.1257102,0.09433498,0,0.3,0,0,0,0
638223383911811824,45.89481,36.58689,13.26125,24.03063,3.78415,-7.611286,-4.570632,-0.4441859,0.1400836,-35.22471,-8.447793,45.05199,0,0,0,98.85091,-26.96204,-72.53941,-10.65206,-111.0334,-35.10307,0.001067912,-0.1257102,0.09433498,0,0.3,0,0,0,0
638223383912271654,45.94193,35.605,13.2379,23.59116,1.66004,-8.416983,-4.570632,-0.4441859,0.1400836,-35.22471,-8.447793,45.05199,0,0,0,99.85917,-28.82101,-71.72132,-10.65206,-111.0334,-35.10307,0.001067912,-0.1257102,0.09433498,0,0.3,0,0,0,0
638223383912631540,46.6016,32.51908,13.37798,23.44467,1.367059,-8.636719,-4.570632,-0.4441859,0.1400836,-35.22471,-8.447793,45.05199,0,0,0,104.1181,-34.69518,-69.89594,-10.65206,-111.0334,-35.10307,0.001067912,-0.1257102,0.09433498,0,0.3,0,0,0,0
638223383913001421,47.59112,29.40978,13.91497,24.39685,3.051698,-7.684532,-4.570632,-0.4441859,0.1400836,-35.22471,-8.447793,45.05199,0,0,0,109.4483,-40.60482,-68.37889,-10.65206,-111.0334,-35.10307,0.001067912,-0.1257102,0.09433498,0,0.3,0,0,0,0
638223383913361307,48.65132,27.53952,14.9189,26.15474,5.615279,-6.146383,-4.570632,-0.4441859,0.1400836,-35.22471,-8.447793,45.05199,0,0,0,114.5359,-43.84917,-67.55516,-10.65206,-111.0334,-35.10307,0.001067912,-0.1257102,0.09433498,0,0.3,0,0,0,0
638223383913801188,49.75864,27.11872,17.02016,28.35209,7.739389,-5.340686,-4.570632,-0.4441859,0.1400836,-35.22471,-8.447793,45.12524,0,0,0,120.3944,-43.37383,-66.45976,-10.65206,-111.0334,-35.10307,0.001067912,-0.1257102,0.09433498,0,0.3,0,0,0,0
638223383914161064,50.27696,27.5629,19.12141,30.10997,8.03237,-5.047705,-4.570632,-0.4441859,0.1400836,-35.22471,-8.447793,45.05199,0,0,0,124.5217,-40.93863,-64.88544,-10.65206,-111.0334,-35.10307,0.001067912,-0.1257102,0.09433498,0,0.3,0,0,0,0
638223383914500943,50.46544,28.40452,20.68568,31.42839,7.812634,-5.120951,-4.570632,-0.4441859,0.1400836,-35.22471,-8.447793,45.05199,0,0,0,126.7926,-37.96951,-63.70171,-10.65206,-111.0334,-35.10307,0.001067912,-0.1257102,0.09433498,0,0.3,0,0,0,0
638223383914870835,50.46544,30.92937,23.18383,33.5525,6.640712,-5.487176,-4.570632,-0.4441859,0.1400836,-35.22471,-8.447793,45.05199,0,0,0,128.7088,-30.69216,-62.12016,-10.65206,-111.0334,-35.10307,0.001067912,-0.1257102,0.09433498,0,0.3,0,0,0,0
638223383915300688,49.9,34.50623,25.77538,35.74985,4.223621,-6.219628,-4.570632,-0.4441859,0.1400836,-35.22471,-8.447793,45.05199,0,0,0,128.4115,-21.19022,-60.21742,-10.65206,-111.0334,-35.10307,0.001067912,-0.1257102,0.09433498,0,0.3,0,0,0,0
638223383915660573,48.67488,38.36363,27.33965,37.288,0.5613627,-7.09857,-4.570632,-0.4441859,0.1400836,-35.22471,-8.447793,45.05199,0,0,0,124.5123,-12.34105,-58.86647,-10.65206,-111.0334,-35.10307,0.001067912,-0.1257102,0.09433498,0,0.3,0,0,0,0
638223383916020473,47.02568,41.84698,27.52643,37.50774,-3.613612,-7.611286,-4.570632,-0.4441859,0.1400836,-35.22471,-8.447793,45.05199,0,0,0,117.7716,-5.94089,-58.62489,-10.65206,-111.0334,-35.10307,0.001067912,-0.1257102,0.09433498,0,0.3,0,0,0,0
638223383916390340,45.02308,44.23156,26.94275,36.40906,-7.422361,-7.757777,-4.570632,-0.4441859,0.1400836,-35.22471,-8.447793,45.05199,0,0,0,110.3316,-2.506546,-58.10723,-10.65206,-111.0334,-35.10307,0.001067912,-0.1257102,0.09433498,0,0.3,0,0,0,0
638223383916820203,42.21945,44.90953,24.44459,33.40601,-10.5719,-7.09857,-4.570632,-0.4441859,0.1400836,-35.22471,-8.447793,45.12524,0,0,0,100.5428,-3.90308,-57.5424,-10.65206,-111.0334,-35.10307,0.001067912,-0.1257102,0.09433498,0,0.3,0,0,0,0
638223383917180088,40.45245,44.34845,22.24994,30.76918,-11.15786,-5.706912,-4.570632,-0.4441859,0.1400836,-35.22471,-8.447793,45.05199,0,0,0,94.63091,-6.856525,-57.36507,-10.65206,-111.0334,-35.10307,0.001067912,-0.1257102,0.09433498,0,0.3,0,0,0,0
638223383917539986,37.93154,41.89374,18.60777,26.59421,-10.71839,-2.630615,-4.570632,-0.4441859,0.1400836,-35.22471,-8.447793,45.05199,0,0,0,87.17585,-13.98452,-56.49477,-10.65206,-111.0334,-35.10307,0.001067912,-0.1257102,0.09433498,0,0.3,0,0,0,0
638223383917909856,36.04674,39.48579,16.08627,24.10387,-9.326735,-0.7262403,-4.570632,-0.4441859,0.1400836,-35.22471,-8.447793,45.05199,0,0,0,82.30367,-19.98326,-55.26283,-10.65206,-111.0334,-35.10307,0.001067912,-0.1257102,0.09433498,0,0.3,0,0,0,0
638223383918339733,29.73267,33.33732,10.29614,15.31445,-2.441689,5.499599,-4.570632,-0.4441859,0.1400836,-35.22471,-8.447793,45.05199,0,0,0,67.07362,-34.56791,-50.91307,-10.65206,-111.0334,-35.10307,0.001067912,-0.1257102,0.09433498,0,0.3,0,0,0,0
638223383918669629,27.77719,32.58922,9.502337,11.79868,0.1218917,7.037747,-4.570632,-0.4441859,0.1400836,-35.22471,-8.447793,45.05199,0,0,0,62.62059,-36.34635,-49.46479,-10.65206,-111.0334,-35.10307,0.001067912,-0.1257102,0.09433498,0,0.3,0,0,0,0
638223383919039495,25.58612,32.79962,9.689116,4.913638,3.564415,8.942122,-4.570632,-0.4441859,0.1400836,-35.22471,-8.447793,45.05199,0,0,0,58.10045,-35.86178,-47.00957,-10.65206,-111.0334,-35.10307,0.001067912,-0.1257102,0.09433498,0,0.3,0,0,0,0
638223383919399403,25.86884,34.3192,11.30008,0.5189275,4.296866,9.967555,-4.570632,-0.4441859,0.1400836,-35.22471,-8.447793,45.05199,0,0,0,59.45395,-32.23182,-45.73975,-10.65206,-111.0334,-35.10307,0.001067912,-0.1257102,0.09433498,0,0.3,0,0,0,0
638223383919869352,28.22483,37.33499,14.38192,-1.092466,2.538982,10.62676,-4.570632,-0.4441859,0.1400836,-35.22471,-8.447793,45.12524,0,0,0,65.80814,-24.94771,-45.74598,-10.65206,-111.0334,-35.10307,0.001067912,-0.1257102,0.09433498,0,0.3,0,0,0,0
638223383920201801,29.87403,38.64417,16.08627,-0.3600145,0.7810982,10.48027,-4.570632,-0.4441859,0.1400836,-35.22471,-8.447793,45.12524,0,0,0,70.28156,-21.5041,-45.99832,-10.65206,-111.0334,-35.10307,0.001067912,-0.1257102,0.09433498,0,0.3,0,0,0,0
638223383920541707,32.41851,40.44429,18.88794,2.276812,-2.368444,9.674574,-4.570632,-0.4441859,0.1400836,-35.22471,-8.447793,45.05199,0,0,0,77.54793,-16.31431,-46.24122,-10.65206,-111.0334,-35.10307,0.001067912,-0.1257102,0.09433498,0,0.3,0,0,0,0
638223383920902024,33.57294,41.19239,20.21873,4.034696,-4.053083,9.161857,-4.570632,-0.4441859,0.1400836,-35.22471,-8.447793,45.05199,0,0,0,80.97697,-13.96006,-46.34491,-10.65206,-111.0334,-35.10307,0.001067912,-0.1257102,0.09433498,0,0.3,0,0,0,0
638223383921401865,37.50746,42.4782,24.37455,11.28597,-9.033754,6.158805,-4.570632,-0.4441859,0.1400836,-35.22471,-8.447793,45.05199,0,0,0,93.38994,-8.061596,-46.67466,-10.65206,-111.0334,-35.10307,0.001067912,-0.1257102,0.09433498,0,0.3,0,0,0,0
638223383921761747,39.36869,42.26779,26.17229,15.68068,-11.08462,4.034696,-4.570632,-0.4441859,0.1400836,-35.15147,-8.447793,45.05199,0,0,0,99.90174,-6.637109,-46.59205,-10.65206,-111.0334,-35.10307,0.001067912,-0.1257102,0.09433498,0,0.3,0,0,0,0
638223383922121633,40.92365,41.6132,27.33965,20.5881,-12.62277,0.8851534,-4.570632,-0.4441859,0.1400836,-35.22471,-8.447793,45.05199,0,0,0,105.4251,-6.547223,-46.74541,-10.65206,-111.0334,-35.10307,0.001067912,-0.1257102,0.09433498,0,0.3,0,0,0,0
638223383922451527,41.55977,41.05212,27.61982,22.8587,-12.98899,-0.57975,-4.570632,-0.4441859,0.1400836,-35.22471,-8.447793,45.05199,0,0,0,107.7246,-7.226881,-46.84517,-10.65206,-111.0334,-35.10307,0.001067912,-0.1257102,0.09433498,0,0.3,0,0,0,0
638223383922921377,42.50217,38.59741,27.29295,28.42534,-12.47628,-2.99684,-4.570632,-0.4441859,0.1400836,-35.22471,-8.447793,45.12524,0,0,0,111.7242,-11.96499,-46.43373,-10.65206,-111.0334,-35.10307,0.001067912,-0.1257102,0.09433498,0,0.3,0,0,0,0
638223383923281271,42.50217,37.7558,26.80266,29.67051,-11.89032,-3.289821,-4.570632,-0.4441859,0.1400836,-35.22471,-8.521038,45.05199,0,0,0,111.8555,-14.02368,-46.29042,-10.65206,-111.0334,-35.10307,0.001067912,-0.1257102,0.09433498,0,0.3,0,0,0,0
638223383923651150,42.26657,35.83878,24.95823,31.35514,-9.912696,-2.630615,-4.570632,-0.4441859,0.1400836,-35.22471,-8.447793,45.12524,0,0,0,110.5525,-19.4699,-46.71191,-10.65206,-111.0334,-35.10307,0.001067912,-0.1257102,0.09433498,0,0.3,0,0,0,0
638223383924021028,41.22993,33.40745,21.64292,31.57488,-6.909645,-0.0670338,-4.570632,-0.4441859,0.1400836,-35.22471,-8.447793,45.05199,0,0,0,105.7825,-27.1778,-47.64289,-10.65206,-111.0334,-35.10307,0.001067912,-0.1257102,0.09433498,0,0.3,0,0,0,0
638223383924440893,38.40274,29.78383,16.15631,28.86481,-1.782483,5.499599,-4.570632,-0.4441859,0.1400836,-35.22471,-8.447793,45.05199,0,0,0,94.94258,-38.49468,-48.57402,-10.65206,-111.0334,-35.10307,0.001067912,-0.1257102,0.09433498,0,0.3,0,0,0,0
638223383924770791,36.09386,27.8902,13.26125,26.08149,1.367059,8.35616,-4.570632,-0.4441859,0.1400836,-35.15147,-8.447793,45.05199,0,0,0,87.45345,-44.06585,-48.39439,-10.65206,-111.0334,-35.10307,0.001067912,-0.1257102,0.09433498,0,0.3,0,0,0,0
638223383925140669,31.57035,25.48224,9.829199,19.9289,6.787202,12.09166,-4.570632,-0.4441859,0.1400836,-35.22471,-8.447793,45.05199,0,0,0,74.94125,-50.67121,-46.39336,-10.65206,-111.0334,-35.10307,0.001067912,-0.1257102,0.09433498,0,0.3,0,0,0,0
638223383925510559,29.52063,25.10819,8.801919,16.48637,9.057802,13.55657,-4.570632,-0.4441859,0.1400836,-35.22471,-8.447793,45.05199,0,0,0,69.55208,-51.84532,-45.52034,-10.65206,-111.0334,-35.10307,0.001067912,-0.1257102,0.09433498,0,0.3,0,0,0,0
638223383925970404,24.73796,26.67453,8.19489,5.499599,12.9398,15.90041,-4.570632,-0.4441859,0.1400836,-35.22471,-8.447793,45.12524,0,0,0,57.81796,-48.77463,-42.8638,-10.65206,-111.0334,-35.10307,0.001067912,-0.1257102,0.09433498,0,0.3,0,0,0,0
638223383926300301,24.07828,28.03047,8.871961,2.716283,13.01304,16.26664,-4.570632,-0.4441859,0.1400836,-35.22471,-8.447793,45.05199,0,0,0,56.4136,-45.7379,-42.10745,-10.65206,-111.0334,-35.10307,0.001067912,-0.1257102,0.09433498,0,0.3,0,0,0,0
638223383926670184,24.0076,31.46706,11.20669,-0.6529952,11.62138,16.41313,-4.570632,-0.4441859,0.1400836,-35.22471,-8.447793,45.05199,0,0,0,56.82014,-37.84754,-40.77541,-10.65206,-111.0334,-35.10307,0.001067912,-0.1257102,0.09433498,0,0.3,0,0,0,0
638223383927030076,24.97356,36.07257,14.87221,-2.044653,7.666144,15.31445,-4.570632,-0.4441859,0.1400836,-35.22471,-8.447793,45.05199,0,0,0,59.95628,-27.01513,-39.61827,-10.65206,-111.0334,-35.10307,0.001067912,-0.1257102,0.09433498,0,0.3,0,0,0,0
638223383927469942,26.19868,40.5378,19.28484,-0.6529952,-0.09784385,12.97061,-4.570632,-0.4441859,0.1400836,-35.22471,-8.447793,45.05199,0,0,0,64.18477,-15.84673,-37.90171,-10.65206,-111.0334,-35.10307,0.001067912,-0.1257102,0.09433498,0,0.3,0,0,0,0
638223383927829824,26.50496,41.33266,20.03195,0.3724372,-3.540367,12.16491,-4.570632,-0.4441859,0.1400836,-35.22471,-8.447793,45.05199,0,0,0,65.07101,-13.86424,-37.86601,-10.65206,-111.0334,-35.10307,0.001067912,-0.1257102,0.09433498,0,0.3,0,0,0,0
638223383928199707,27.51804,41.28591,19.84518,1.837341,-6.763155,11.43246,-4.570632,-0.4441859,0.1400836,-35.22471,-8.447793,45.05199,0,0,0,67.21226,-14.09422,-39.33562,-10.65206,-111.0334,-35.10307,0.001067912,-0.1257102,0.09433498,0,0.3,0,0,0,0
638223383928559591,29.37927,40.60794,19.30819,3.741715,-8.081567,10.91974,-4.570632,-0.4441859,0.1400836,-35.22471,-8.447793,45.05199,0,0,0,71.29668,-15.70479,-41.71167,-10.65206,-111.0334,-35.10307,0.001067912,-0.1257102,0.09433498,0,0.3,0,0,0,0
638223383928989452,32.51274,38.99485,18.7712,6.891257,-8.008322,9.381593,-4.570632,-0.4441859,0.1400836,-35.22471,-8.447793,45.05199,0,0,0,78.7691,-18.99672,-44.76796,-10.65206,-111.0334,-35.10307,0.001067912,-0.1257102,0.09433498,0,0.3,0,0,0,0
638223383929359335,35.50486,36.91418,18.67781,10.11404,-7.202625,7.477218,-4.570632,-0.4441859,0.1400836,-35.22471,-8.447793,45.05199,0,0,0,86.7226,-22.88461,-46.79123,-10.65206,-111.0334,-35.10307,0.001067912,-0.1257102,0.09433498,0,0.3,0,0,0,0
638223383929719226,39.01529,33.22043,18.67781,15.02147,-5.298251,4.986883,-4.570632,-0.4441859,0.1400836,-35.22471,-8.447793,45.12524,0,0,0,97.11179,-29.91971,-48.49237,-10.65206,-111.0334,-35.10307,0.001067912,-0.1257102,0.09433498,0,0.3,0,0,0,0
638223383930079104,40.52313,31.11639,18.63112,17.43856,-3.979838,3.96145,-4.570632,-0.4441859,0.1400836,-35.22471,-8.447793,45.05199,0,0,0,101.8591,-34.09942,-49.18579,-10.65206,-111.0334,-35.10307,0.001067912,-0.1257102,0.09433498,0,0.3,0,0,0,0
638223383930518973,44.08069,25.36535,18.74786,24.03063,1.000834,0.9583986,-4.570632,-0.4441859,0.1400836,-35.22471,-8.447793,45.05199,0,0,0,113.6403,-45.7991,-51.0032,-10.65206,-111.0334,-35.10307,0.001067912,-0.1257102,0.09433498,0,0.3,0,0,0,0
638223383930848858,45.11733,23.65874,19.02802,25.935,2.831963,-0.140279,-4.570632,-0.4441859,0.1400836,-35.22471,-8.447793,45.05199,0,0,0,117.3494,-49.20186,-51.4802,-10.65206,-111.0334,-35.10307,0.001067912,-0.1257102,0.09433498,0,0.3,0,0,0,0
638223383931208757,46.74296,20.61958,20.40551,29.59726,6.567466,-2.337634,-4.570632,-0.4441859,0.1400836,-35.22471,-8.447793,45.05199,0,0,0,124.7567,-54.67136,-50.96173,-10.65206,-111.0334,-35.10307,0.001067912,-0.1257102,0.09433498,0,0.3,0,0,0,0
638223383931538638,47.33196,19.56756,22.03982,32.16084,9.204292,-3.802537,-4.570632,-0.4441859,0.1400836,-35.22471,-8.447793,45.05199,0,0,0,129.1824,-55.59389,-49.27728,-10.65206,-111.0334,-35.10307,0.001067912,-0.1257102,0.09433498,0,0.3,0,0,0,0
638223383932038478,47.44976,20.50268,23.79086,35.45687,11.10867,-5.047705,-4.570632,-0.4441859,0.1400836,-35.22471,-8.447793,45.05199,0,0,0,131.6429,-51.96244,-47.50901,-10.65206,-111.0334,-35.10307,0.001067912,-0.1257102,0.09433498,0,0.3,0,0,0,0
638223383932398364,47.04924,21.83524,23.97764,36.77529,11.03542,-5.413931,-4.570632,-0.4441859,0.1400836,-35.22471,-8.521038,45.05199,0,0,0,130.2661,-48.89439,-47.08401,-10.65206,-111.0334,-35.10307,0.001067912,-0.1257102,0.09433498,0,0.3,0,0,0,0
638223383932768256,46.41312,23.47172,23.97764,37.80072,10.22972,-5.487176,-4.570632,-0.4441859,0.1400836,-35.22471,-8.447793,45.12524,0,0,0,127.8493,-45.37963,-46.65661,-10.65206,-111.0334,-35.10307,0.001067912,-0.1257102,0.09433498,0,0.3,0,0,0,0
638223383933128145,45.777,24.14968,23.62743,38.31343,9.350782,-5.340686,-4.570632,-0.4441859,0.1400836,-35.22471,-8.447793,45.12524,0,0,0,125.4994,-44.265,-46.20913,-10.65206,-111.0334,-35.10307,0.001067912,-0.1257102,0.09433498,0,0.3,0,0,0,0
638223383933557994,44.45765,24.47698,21.10593,37.87396,9.204292,-4.901215,-4.570632,-0.4441859,0.1400836,-35.22471,-8.447793,45.05199,0,0,0,118.6335,-45.8038,-47.44906,-10.65206,-111.0334,-35.10307,0.001067912,-0.1257102,0.09433498,0,0.3,0,0,0,0
638223383933927883,42.80845,25.41211,18.3743,35.89634,9.643764,-3.729292,-4.570632,-0.4441859,0.1400836,-35.22471,-8.447793,45.05199,0,0,0,110.415,-45.97753,-49.14787,-10.65206,-111.0334,-35.10307,0.001067912,-0.1257102,0.09433498,0,0.3,0,0,0,0
638223383934287771,41.86605,26.18359,17.4871,34.3582,9.717009,-2.85035,-4.570632,-0.4441859,0.1400836,-35.22471,-8.447793,45.05199,0,0,0,106.6069,-44.99665,-49.3929,-10.65206,-111.0334,-35.10307,0.001067912,-0.1257102,0.09433498,0,0.3,0,0,0,0
