zeyangz2/DNN_classification_different_people_hand/data_by_names/Zeyang/zeyang_right_21.csv
Timestamp,Therapist joint angle 0,Therapist joint angle 1,Therapist joint angle 2,Therapist joint angle 3,Therapist joint angle 4,Therapist joint angle 5,Patient joint angle 0,Patient joint angle 1,Patient joint angle 2,Patient joint angle 3,Patient joint angle 4,Patient joint angle 5,Virtual joint angle 0,Virtual joint angle 1,Virtual joint angle 2,Therapist position x,Therapist position y,Therapist position z,Patient position x,Patient position y,Patient position z,Virtual position x,Virtual position y,Virtual position z,Assistive Force, Obstacle Force Magnitude, Therapist Constant Force, Patient Constant Force, Recovery Factor, Assistance Level
638224237186330192,0,0,0,0,0,0,0,0,0,0,0,0,0,0,0,0,0,0,0,0,0,0,0,0,0,0.3,0,0,0,0
638224237186470154,12.20406,-0.9818845,6.420498,103.7946,-60.96458,81.01537,-56.99155,-0.4675641,7.027527,-72.43327,-8.521038,-36.90935,0,0,0,31.33752,-111.4487,-23.45793,-125.5038,-110.0864,-86.82057,0.001067912,-0.1257102,0.09433498,0,0.3,0,0,0,0
638224237186810042,12.20406,-0.9818845,6.420498,103.7946,-61.03782,81.01537,-56.99155,-0.4675641,7.027527,-72.36002,-8.594284,-36.90935,0,0,0,31.33752,-111.4487,-23.45793,-125.5038,-110.0864,-86.82057,0.001067912,-0.1257102,0.09433498,0,0.3,0,0,0,0
638224237187149934,12.20406,-0.9818845,6.420498,103.7946,-61.03782,81.01537,-56.99155,-0.4675641,7.027527,-72.43327,-8.594284,-36.90935,0,0,0,31.33752,-111.4487,-23.45793,-125.5038,-110.0864,-86.82057,0.001067912,-0.1257102,0.09433498,0,0.3,0,0,0,0
638224237187499823,12.20406,-0.9818845,6.420498,103.7214,-61.03782,81.01537,-56.99155,-0.4675641,7.027527,-72.36002,-8.594284,-36.83611,0,0,0,31.33752,-111.4487,-23.45793,-125.5038,-110.0864,-86.82057,0.001067912,-0.1257102,0.09433498,0,0.3,0,0,0,0
638224237187839713,12.20406,-0.9818845,6.420498,103.7214,-61.03782,81.01537,-56.99155,-0.4675641,7.027527,-72.36002,-8.594284,-36.90935,0,0,0,31.33752,-111.4487,-23.45793,-125.5038,-110.0864,-86.82057,0.001067912,-0.1257102,0.09433498,0,0.3,0,0,0,0
638224237188189601,12.20406,-0.9818845,6.420498,103.7214,-60.96458,81.01537,-56.99155,-0.4675641,7.027527,-72.43327,-8.594284,-36.83611,0,0,0,31.33752,-111.4487,-23.45793,-125.5038,-110.0864,-86.82057,0.001067912,-0.1257102,0.09433498,0,0.3,0,0,0,0
638224237188539505,12.20406,-0.9818845,6.420498,103.7946,-60.96458,81.01537,-56.99155,-0.4675641,7.027527,-72.43327,-8.594284,-36.83611,0,0,0,31.33752,-111.4487,-23.45793,-125.5038,-110.0864,-86.82057,0.001067912,-0.1257102,0.09433498,0,0.3,0,0,0,0
638224237188869382,12.20406,-0.9818845,6.420498,103.7946,-61.03782,81.01537,-56.99155,-0.4675641,7.027527,-72.43327,-8.594284,-36.83611,0,0,0,31.33752,-111.4487,-23.45793,-125.5038,-110.0864,-86.82057,0.001067912,-0.1257102,0.09433498,0,0.3,0,0,0,0
638224237189209274,12.20406,-0.9818845,6.420498,103.7946,-61.03782,81.01537,-56.99155,-0.4675641,7.027527,-72.43327,-8.521038,-36.90935,0,0,0,31.33752,-111.4487,-23.45793,-125.5038,-110.0864,-86.82057,0.001067912,-0.1257102,0.09433498,0,0.3,0,0,0,0
638224237189549170,12.20406,-0.9818845,6.420498,103.7946,-61.03782,81.01537,-56.99155,-0.4675641,7.027527,-72.43327,-8.521038,-36.90935,0,0,0,31.33752,-111.4487,-23.45793,-125.5038,-110.0864,-86.82057,0.001067912,-0.1257102,0.09433498,0,0.3,0,0,0,0
638224237189909050,12.20406,-0.9818845,6.420498,103.7946,-61.03782,81.01537,-56.99155,-0.4675641,7.027527,-72.36002,-8.521038,-36.90935,0,0,0,31.33752,-111.4487,-23.45793,-125.5038,-110.0864,-86.82057,0.001067912,-0.1257102,0.09433498,0,0.3,0,0,0,0
638224237190238949,12.20406,-0.9818845,6.420498,103.7214,-60.96458,81.01537,-56.99155,-0.4675641,7.027527,-72.43327,-8.594284,-36.83611,0,0,0,31.33752,-111.4487,-23.45793,-125.5038,-110.0864,-86.82057,0.001067912,-0.1257102,0.09433498,0,0.3,0,0,0,0
638224237190588839,12.20406,-0.9818845,6.420498,103.7214,-61.03782,81.01537,-56.99155,-0.4675641,7.027527,-72.36002,-8.594284,-36.90935,0,0,0,31.33752,-111.4487,-23.45793,-125.5038,-110.0864,-86.82057,0.001067912,-0.1257102,0.09433498,0,0.3,0,0,0,0
638224237190928726,12.20406,-0.9818845,6.420498,103.7214,-61.03782,81.01537,-56.99155,-0.4675641,7.027527,-72.43327,-8.594284,-36.83611,0,0,0,31.33752,-111.4487,-23.45793,-125.5038,-110.0864,-86.82057,0.001067912,-0.1257102,0.09433498,0,0.3,0,0,0,0
638224237191268621,12.20406,-0.9818845,6.420498,103.7214,-60.96458,81.01537,-56.99155,-0.4675641,7.027527,-72.43327,-8.594284,-36.90935,0,0,0,31.33752,-111.4487,-23.45793,-125.5038,-110.0864,-86.82057,0.001067912,-0.1257102,0.09433498,0,0.3,0,0,0,0
638224237191608510,12.20406,-0.9818845,6.420498,103.7214,-61.03782,81.01537,-56.99155,-0.4675641,7.027527,-72.43327,-8.594284,-36.90935,0,0,0,31.33752,-111.4487,-23.45793,-125.5038,-110.0864,-86.82057,0.001067912,-0.1257102,0.09433498,0,0.3,0,0,0,0
638224237191948402,12.20406,-0.9818845,6.420498,103.7214,-60.96458,81.01537,-56.99155,-0.4675641,7.027527,-72.36002,-8.521038,-36.83611,0,0,0,31.33752,-111.4487,-23.45793,-125.5038,-110.0864,-86.82057,0.001067912,-0.1257102,0.09433498,0,0.3,0,0,0,0
638224237192298296,12.20406,-0.9818845,6.420498,103.7946,-60.96458,81.01537,-56.99155,-0.4675641,7.027527,-72.43327,-8.594284,-36.83611,0,0,0,31.33752,-111.4487,-23.45793,-125.5038,-110.0864,-86.82057,0.001067912,-0.1257102,0.09433498,0,0.3,0,0,0,0
638224237192628187,12.20406,-0.9818845,6.420498,103.7946,-61.03782,81.01537,-56.99155,-0.4675641,7.027527,-72.43327,-8.594284,-36.90935,0,0,0,31.33752,-111.4487,-23.45793,-125.5038,-110.0864,-86.82057,0.001067912,-0.1257102,0.09433498,0,0.3,0,0,0,0
638224237192978078,12.20406,-0.9818845,6.420498,103.7214,-61.03782,81.01537,-56.99155,-0.4675641,7.027527,-72.43327,-8.594284,-36.90935,0,0,0,31.33752,-111.4487,-23.45793,-125.5038,-110.0864,-86.82057,0.001067912,-0.1257102,0.09433498,0,0.3,0,0,9.020209E-08,0
638224237193317966,12.20406,-0.9818845,6.420498,103.7214,-61.03782,81.01537,-56.99155,-0.4675641,7.027527,-72.43327,-8.594284,-36.90935,0,0,0,31.33752,-111.4487,-23.45793,-125.5038,-110.0864,-86.82057,0.001067912,-0.1257102,0.09433498,0,0.3,0,0,9.020209E-08,0
638224237193647860,12.20406,-0.9818845,6.420498,103.7946,-61.03782,81.01537,-56.99155,-0.4675641,7.027527,-72.43327,-8.594284,-36.83611,0,0,0,31.33752,-111.4487,-23.45793,-125.5038,-110.0864,-86.82057,0.001067912,-0.1257102,0.09433498,0,0.3,0,0,9.020209E-08,0
638224237193997752,12.20406,-0.9818845,6.420498,103.7214,-61.03782,81.01537,-56.99155,-0.4675641,7.027527,-72.36002,-8.594284,-36.90935,0,0,0,31.33752,-111.4487,-23.45793,-125.5038,-110.0864,-86.82057,0.001067912,-0.1257102,0.09433498,0,0.3,0,0,1.804042E-07,0
638224237194327645,12.20406,-0.9818845,6.420498,103.7946,-61.03782,81.01537,-56.99155,-0.4675641,7.027527,-72.43327,-8.594284,-36.90935,0,0,0,31.33752,-111.4487,-23.45793,-125.5038,-110.0864,-86.82057,0.001067912,-0.1257102,0.09433498,0,0.3,0,0,1.804042E-07,0
638224237194667533,12.20406,-0.9818845,6.420498,103.7214,-61.03782,81.01537,-56.99155,-0.4675641,7.027527,-72.43327,-8.521038,-36.83611,0,0,0,31.33752,-111.4487,-23.45793,-125.5038,-110.0864,-86.82057,0.001067912,-0.1257102,0.09433498,0,0.3,0,0,1.804042E-07,0
638224237194997429,12.20406,-0.9818845,6.420498,103.7214,-61.03782,81.01537,-56.99155,-0.4675641,7.027527,-72.43327,-8.594284,-36.83611,0,0,0,31.33752,-111.4487,-23.45793,-125.5038,-110.0864,-86.82057,0.001067912,-0.1257102,0.09433498,0,0.3,0,0,1.804042E-07,0
638224237195337320,12.20406,-0.9818845,6.420498,103.7946,-61.03782,81.01537,-56.99155,-0.4675641,7.027527,-72.43327,-8.594284,-36.90935,0,0,0,31.33752,-111.4487,-23.45793,-125.5038,-110.0864,-86.82057,0.001067912,-0.1257102,0.09433498,0,0.3,0,0,2.706063E-07,0
638224237195677214,12.20406,-0.9818845,6.420498,103.7946,-61.03782,81.01537,-56.99155,-0.4675641,7.027527,-72.36002,-8.521038,-36.83611,0,0,0,31.33752,-111.4487,-23.45793,-125.5038,-110.0864,-86.82057,0.001067912,-0.1257102,0.09433498,0,0.3,0,0,2.706063E-07,0
638224237196007109,12.20406,-0.9818845,6.420498,103.7946,-61.03782,81.01537,-56.99155,-0.4675641,7.027527,-72.43327,-8.594284,-36.83611,0,0,0,31.33752,-111.4487,-23.45793,-125.5038,-110.0864,-86.82057,0.001067912,-0.1257102,0.09433498,0,0.3,0,0,1.804042E-07,0
638224237196356996,12.20406,-0.9818845,6.420498,103.7214,-61.03782,81.01537,-56.99155,-0.4675641,7.027527,-72.36002,-8.594284,-36.83611,0,0,0,31.33752,-111.4487,-23.45793,-125.5038,-110.0864,-86.82057,0.001067912,-0.1257102,0.09433498,0,0.3,0,0,2.706063E-07,0
638224237196726877,12.20406,-0.9818845,6.420498,103.7214,-61.03782,81.01537,-56.99155,-0.4675641,7.027527,-72.43327,-8.594284,-36.83611,0,0,0,31.33752,-111.4487,-23.45793,-125.5038,-110.0864,-86.82057,0.001067912,-0.1257102,0.09433498,0,0.3,0,0,2.706063E-07,0
638224237197056774,12.20406,-0.9818845,6.420498,103.7214,-60.96458,81.01537,-56.99155,-0.4675641,7.027527,-72.43327,-8.594284,-36.83611,0,0,0,31.33752,-111.4487,-23.45793,-125.5038,-110.0864,-86.82057,0.001067912,-0.1257102,0.09433498,0,0.3,0,0,2.706063E-07,0
638224237197396664,12.20406,-0.9818845,6.420498,103.7214,-61.03782,81.01537,-56.99155,-0.4675641,7.027527,-72.43327,-8.594284,-36.83611,0,0,0,31.33752,-111.4487,-23.45793,-125.5038,-110.0864,-86.82057,0.001067912,-0.1257102,0.09433498,0,0.3,0,0,2.706063E-07,0
638224237197736558,12.20406,-0.9818845,6.420498,103.7214,-61.03782,81.01537,-56.99155,-0.4675641,7.027527,-72.43327,-8.594284,-36.83611,0,0,0,31.33752,-111.4487,-23.45793,-125.5038,-110.0864,-86.82057,0.001067912,-0.1257102,0.09433498,0,0.3,0,0,2.706063E-07,0
638224237198086445,12.20406,-0.9818845,6.420498,103.7946,-60.96458,81.01537,-56.99155,-0.4675641,7.027527,-72.43327,-8.594284,-36.90935,0,0,0,31.33752,-111.4487,-23.45793,-125.5038,-110.0864,-86.82057,0.001067912,-0.1257102,0.09433498,0,0.3,0,0,3.608084E-07,0
638224237198426335,12.20406,-0.9818845,6.420498,103.7214,-60.96458,81.01537,-56.99155,-0.4675641,7.027527,-72.43327,-8.594284,-36.83611,0,0,0,31.33752,-111.4487,-23.45793,-125.5038,-110.0864,-86.82057,0.001067912,-0.1257102,0.09433498,0,0.3,0,0,3.608084E-07,0
638224237198766226,12.20406,-0.9818845,6.420498,103.7946,-61.03782,81.01537,-56.99155,-0.4675641,7.027527,-72.43327,-8.594284,-36.90935,0,0,0,31.33752,-111.4487,-23.45793,-125.5038,-110.0864,-86.82057,0.001067912,-0.1257102,0.09433498,0,0.3,0,0,3.608084E-07,0
638224237199106117,12.20406,-0.9818845,6.420498,103.7946,-61.03782,81.01537,-56.99155,-0.4675641,7.027527,-72.43327,-8.594284,-36.90935,0,0,0,31.33752,-111.4487,-23.45793,-125.5038,-110.0864,-86.82057,0.001067912,-0.1257102,0.09433498,0,0.3,0,0,3.608084E-07,0
638224237199446011,12.20406,-0.9818845,6.420498,103.7946,-61.03782,81.01537,-56.99155,-0.4675641,7.027527,-72.43327,-8.521038,-36.90935,0,0,0,31.33752,-111.4487,-23.45793,-125.5038,-110.0864,-86.82057,0.001067912,-0.1257102,0.09433498,0,0.3,0,0,3.608084E-07,0
638224237199795902,12.20406,-0.9818845,6.420498,103.7214,-61.03782,81.01537,-56.99155,-0.4675641,7.027527,-72.43327,-8.594284,-36.83611,0,0,0,31.33752,-111.4487,-23.45793,-125.5038,-110.0864,-86.82057,0.001067912,-0.1257102,0.09433498,0,0.3,0,0,3.608084E-07,0
638224237200135789,12.20406,-0.9818845,6.420498,103.7214,-61.03782,81.01537,-56.99155,-0.4675641,7.027527,-72.36002,-8.594284,-36.83611,0,0,0,31.33752,-111.4487,-23.45793,-125.5038,-110.0864,-86.82057,0.001067912,-0.1257102,0.09433498,0,0.3,0,0,3.608084E-07,0
638224237200485699,12.20406,-0.9818845,6.420498,103.7214,-60.96458,81.01537,-56.99155,-0.4675641,7.027527,-72.43327,-8.594284,-36.90935,0,0,0,31.33752,-111.4487,-23.45793,-125.5038,-110.0864,-86.82057,0.001067912,-0.1257102,0.09433498,0,0.3,0,0,4.510105E-07,0
638224237200815575,12.20406,-0.9818845,6.420498,103.7214,-60.96458,81.01537,-56.99155,-0.4675641,7.027527,-72.36002,-8.594284,-36.83611,0,0,0,31.33752,-111.4487,-23.45793,-125.5038,-110.0864,-86.82057,0.001067912,-0.1257102,0.09433498,0,0.3,0,0,4.510105E-07,0
638224237201155467,12.20406,-0.9818845,6.420498,103.7214,-61.03782,81.01537,-56.99155,-0.4675641,7.027527,-72.43327,-8.521038,-36.83611,0,0,0,31.33752,-111.4487,-23.45793,-125.5038,-110.0864,-86.82057,0.001067912,-0.1257102,0.09433498,0,0.3,0,0,4.510105E-07,0
638224237201495355,12.20406,-0.9818845,6.420498,103.7214,-61.03782,81.01537,-56.99155,-0.4675641,7.027527,-72.43327,-8.594284,-36.90935,0,0,0,31.33752,-111.4487,-23.45793,-125.5038,-110.0864,-86.82057,0.001067912,-0.1257102,0.09433498,0,0.3,0,0,4.510105E-07,0
638224237201835246,12.20406,-0.9818845,6.420498,103.7946,-61.03782,81.01537,-56.99155,-0.4675641,7.027527,-72.43327,-8.594284,-36.83611,0,0,0,31.33752,-111.4487,-23.45793,-125.5038,-110.0864,-86.82057,0.001067912,-0.1257102,0.09433498,0,0.3,0,0,4.510105E-07,0
638224237202175138,12.20406,-0.9818845,6.420498,103.7946,-61.03782,81.01537,-56.99155,-0.4675641,7.027527,-72.43327,-8.521038,-36.83611,0,0,0,31.33752,-111.4487,-23.45793,-125.5038,-110.0864,-86.82057,0.001067912,-0.1257102,0.09433498,0,0.3,0,0,4.510105E-07,0
638224237202515032,12.20406,-0.9818845,6.420498,103.7946,-60.96458,81.01537,-56.99155,-0.4675641,7.027527,-72.36002,-8.594284,-36.83611,0,0,0,31.33752,-111.4487,-23.45793,-125.5038,-110.0864,-86.82057,0.001067912,-0.1257102,0.09433498,0,0.3,0,0,4.510105E-07,0
638224237202854924,12.20406,-0.9818845,6.420498,103.7946,-61.03782,81.01537,-56.99155,-0.4675641,7.027527,-72.36002,-8.594284,-36.83611,0,0,0,31.33752,-111.4487,-23.45793,-125.5038,-110.0864,-86.82057,0.001067912,-0.1257102,0.09433498,0,0.3,0,0,4.510105E-07,0
638224237203194816,12.20406,-0.9818845,6.420498,103.7214,-61.03782,81.01537,-56.99155,-0.4675641,7.027527,-72.43327,-8.594284,-36.90935,0,0,0,31.33752,-111.4487,-23.45793,-125.5038,-110.0864,-86.82057,0.001067912,-0.1257102,0.09433498,0,0.3,0,0,4.510105E-07,0
638224237203534701,12.20406,-0.9818845,6.420498,103.7214,-61.03782,81.01537,-56.99155,-0.4675641,7.027527,-72.43327,-8.594284,-36.83611,0,0,0,31.33752,-111.4487,-23.45793,-125.5038,-110.0864,-86.82057,0.001067912,-0.1257102,0.09433498,0,0.3,0,0,4.510105E-07,0
638224237203884591,12.20406,-0.9818845,6.420498,103.7214,-61.03782,81.01537,-56.99155,-0.4675641,7.027527,-72.43327,-8.594284,-36.90935,0,0,0,31.33752,-111.4487,-23.45793,-125.5038,-110.0864,-86.82057,0.001067912,-0.1257102,0.09433498,0,0.3,0,0,4.510105E-07,0
638224237204224488,12.20406,-0.9818845,6.420498,103.7214,-60.96458,81.01537,-56.99155,-0.4675641,7.027527,-72.43327,-8.594284,-36.83611,0,0,0,31.33752,-111.4487,-23.45793,-125.5038,-110.0864,-86.82057,0.001067912,-0.1257102,0.09433498,0,0.3,0,0,4.510105E-07,0
638224237204564380,12.20406,-0.9818845,6.420498,103.7214,-60.96458,81.01537,-56.99155,-0.4675641,7.027527,-72.43327,-8.521038,-36.83611,0,0,0,31.33752,-111.4487,-23.45793,-125.5038,-110.0864,-86.82057,0.001067912,-0.1257102,0.09433498,0,0.3,0,0,5.412126E-07,0
638224237204904269,12.20406,-0.9818845,6.397151,103.7946,-60.37862,81.01537,-56.99155,-0.4675641,7.027527,-72.43327,-8.594284,-36.83611,0,0,0,31.32611,-111.4548,-23.51071,-125.5038,-110.0864,-86.82057,0.001067912,-0.1257102,0.09433498,0,0.3,0,0,2.435457E-06,0
638224237205254157,12.15694,-0.9818845,6.420498,103.6481,-60.01239,81.01537,-56.99155,-0.4675641,7.027527,-72.43327,-8.521038,-36.83611,0,0,0,31.21835,-111.4487,-23.43221,-125.5038,-110.0864,-86.82057,0.001067912,-0.1257102,0.09433498,0,0.3,0,0,8.659401E-06,0
638224237205594048,11.92134,-0.9818845,6.420498,100.0591,-59.93914,81.60133,-56.99155,-0.4675641,7.027527,-72.43327,-8.594284,-36.83611,0,0,0,30.62219,-111.4487,-23.30506,-125.5038,-110.0864,-86.82057,0.001067912,-0.1257102,0.09433498,0,0.3,0,0,6.377288E-05,0
638224237205933939,11.45014,-0.9818845,6.724013,92.5881,-61.11107,86.80173,-56.99155,-0.4675641,7.027527,-72.36002,-8.594284,-36.83611,0,0,0,29.56763,-111.3679,-22.37034,-125.5038,-110.0864,-86.82057,0.001067912,-0.1257102,0.09433498,0,0.3,0,0,0.0001948365,0
638224237206273834,11.2381,-0.9818845,7.00418,88.41313,-61.69703,91.48943,-56.99155,-0.4675641,7.027527,-72.43327,-8.594284,-36.90935,0,0,0,29.15335,-111.29,-21.62695,-125.5038,-110.0864,-86.82057,0.001067912,-0.1257102,0.09433498,0,0.3,0,0,0.0002710573,0
638224237206613725,11.14386,-0.9818845,7.704598,78.89126,-62.64922,106.0652,-56.99155,-0.4675641,7.027527,-72.36002,-8.521038,-36.83611,0,0,0,29.22446,-111.0813,-19.99295,-125.5038,-110.0864,-86.82057,0.001067912,-0.1257102,0.09433498,0,0.3,0,0,0.0003618006,0
638224237206953615,11.14386,-0.9818845,8.171543,67.39177,-63.01544,132.5067,-56.99155,-0.4675641,7.027527,-72.36002,-8.521038,-36.83611,0,0,0,29.43249,-110.9312,-18.93689,-125.5038,-110.0864,-86.82057,0.001067912,-0.1257102,0.09433498,0,0.3,0,0,0.0003675735,0
638224237207293505,11.30878,-0.9818845,8.895308,53.25545,-62.86895,144.7387,-56.99155,-0.4675641,7.027527,-72.43327,-8.594284,-36.83611,0,0,0,30.1891,-110.6813,-17.38874,-125.5038,-110.0864,-86.82057,0.001067912,-0.1257102,0.09433498,0,0.3,0,0,0.0002695239,0
638224237207633397,11.33234,-0.9818845,9.245518,49.15372,-62.57597,144.8852,-56.99155,-0.4675641,7.027527,-72.43327,-8.521038,-36.83611,0,0,0,30.40933,-110.5528,-16.61198,-125.5038,-110.0864,-86.82057,0.001067912,-0.1257102,0.09433498,0,0.3,0,0,0.0001658816,0
638224237207973289,11.33234,-0.9818845,9.829199,42.85464,-61.62378,144.8852,-56.99155,-0.4675641,7.027527,-72.43327,-8.594284,-36.83611,0,0,0,30.67257,-110.3277,-15.29842,-125.5038,-110.0864,-86.82057,0.001067912,-0.1257102,0.09433498,0,0.3,0,0,0,0
638224237208323176,11.37946,-0.9585064,9.525684,36.04284,-59.71941,144.9584,-56.99155,-0.4675641,7.027527,-72.36002,-8.594284,-36.83611,0,0,0,30.66122,-110.392,-16.00545,-125.5038,-110.0864,-86.82057,0.001067912,-0.1257102,0.09433498,0,0.3,0,0,0,0
638224237208653074,11.37946,-0.9585064,9.035392,32.16084,-58.32775,144.8119,-56.99155,-0.4675641,7.027527,-72.43327,-8.594284,-36.83611,0,0,0,30.43902,-110.576,-17.10948,-125.5038,-110.0864,-86.82057,0.001067912,-0.1257102,0.09433498,0,0.3,0,0,0,0
638224237209002959,11.30878,-0.9585064,7.657903,25.34904,-54.29927,144.8852,-56.99155,-0.4675641,7.027527,-72.36002,-8.521038,-36.83611,0,0,0,29.63043,-111.0414,-20.18239,-125.5038,-110.0864,-86.82057,0.001067912,-0.1257102,0.09433498,0,0.3,0,0,0,0
638224237209342855,11.2381,-0.9818845,6.210372,20.14863,-48.73264,144.8119,-56.99155,-0.4675641,7.027527,-72.43327,-8.594284,-36.90935,0,0,0,28.7957,-111.5025,-23.42698,-125.5038,-110.0864,-86.82057,0.001067912,-0.1257102,0.09433498,0,0.3,0,0,0,0
638224237209682744,11.2381,-0.9818845,5.113051,16.99909,-42.94627,144.8119,-56.99155,-0.4675641,7.027527,-72.43327,-8.594284,-36.83611,0,0,0,28.30041,-111.7545,-25.91965,-125.5038,-110.0864,-86.82057,0.001067912,-0.1257102,0.09433498,0,0.3,0,0,6.810258E-05,0
638224237210022638,11.2381,-0.9818845,4.482675,15.90041,-39.86997,144.8852,-56.99155,-0.4675641,7.027527,-72.43327,-8.594284,-36.90935,0,0,0,28.01549,-111.8772,-27.35361,-125.5038,-110.0864,-86.82057,0.001067912,-0.1257102,0.09433498,0,0.3,0,0,0.0002919842,0
638224237210372523,11.2381,-0.9818845,3.455395,14.582,-33.86386,144.8852,-56.99155,-0.4675641,7.027527,-72.43327,-8.521038,-36.83611,0,0,0,27.55066,-112.0427,-29.693,-125.5038,-110.0864,-86.82057,0.001067912,-0.1257102,0.09433498,0,0.3,0,0,0.0008227333,0
638224237210712417,11.2381,-0.9818845,2.754977,14.28902,-28.22399,144.9584,-56.99155,-0.4675641,7.027527,-72.43327,-8.594284,-36.83611,0,0,0,27.23343,-112.131,-31.28953,-125.5038,-110.0864,-86.82057,0.001067912,-0.1257102,0.09433498,0,0.3,0,0,0.001425103,0
638224237211052304,11.2381,-0.9585064,2.288032,14.21577,-25.36743,144.8119,-56.99155,-0.4675641,7.027527,-72.43327,-8.594284,-36.83611,0,0,0,27.02202,-112.1244,-32.35352,-125.5038,-110.0864,-86.82057,0.001067912,-0.1257102,0.09433498,0,0.3,0,0,0.001756325,0
638224237211382201,11.2381,-0.9585064,1.073974,13.84955,-19.80079,144.8852,-56.99155,-0.4675641,7.027527,-72.43327,-8.521038,-36.83611,0,0,0,26.4716,-112.2073,-35.12369,-125.5038,-110.0864,-86.82057,0.001067912,-0.1257102,0.09433498,0,0.3,0,0,0.002502747,0
638224237211722093,11.2381,-0.9117499,0.09338906,13.1171,-14.38065,144.8119,-56.99155,-0.4675641,7.027527,-72.43327,-8.594284,-36.83611,0,0,0,26.0272,-112.1217,-37.36026,-125.5038,-110.0864,-86.82057,0.001067912,-0.1257102,0.09433498,0,0.3,0,0,0.003337117,0
638224237212061984,11.30878,-0.7481025,-0.5603344,12.75087,-11.67058,144.8119,-56.99155,-0.4675641,7.027527,-72.43327,-8.594284,-36.90935,0,0,0,25.8915,-111.7347,-38.87897,-125.5038,-110.0864,-86.82057,0.001067912,-0.1257102,0.09433498,0,0.3,0,0,0.003785511,0
638224237212411873,11.63862,-0.3039166,-1.681003,12.01842,-7.056135,144.8852,-56.99155,-0.4675641,7.027527,-72.43327,-8.594284,-36.90935,0,0,0,26.11225,-110.6499,-41.57495,-125.5038,-110.0864,-86.82057,0.001067912,-0.1257102,0.09433498,0,0.3,0,0,0.004704039,0
638224237212751764,11.77998,-0.2805384,-1.96117,11.43246,-2.514934,144.8852,-56.99155,-0.4675641,7.027527,-72.43327,-8.594284,-36.90935,0,0,0,26.29195,-110.5748,-42.2775,-125.5038,-110.0864,-86.82057,0.001067912,-0.1257102,0.09433498,0,0.3,0,0,0.005606872,0
638224237213101653,11.77998,-0.2805384,-2.077907,11.06623,2.099511,144.8119,-56.99155,-0.4675641,7.027527,-72.43327,-8.521038,-36.90935,0,0,0,26.23652,-110.5652,-42.5433,-125.5038,-110.0864,-86.82057,0.001067912,-0.1257102,0.09433498,0,0.3,0,0,0.00649428,0
638224237213441548,11.77998,-0.2805384,-2.031212,11.06623,4.516602,144.9584,-56.99155,-0.4675641,7.027527,-72.43327,-8.594284,-36.90935,0,0,0,26.25869,-110.5691,-42.43698,-125.5038,-110.0864,-86.82057,0.001067912,-0.1257102,0.09433498,0,0.3,0,0,0.006926438,0
638224237213771442,11.77998,-0.2805384,-1.79774,11.57895,8.691576,144.8852,-56.99155,-0.4675641,7.027527,-72.43327,-8.594284,-36.90935,0,0,0,26.36956,-110.5873,-41.90534,-125.5038,-110.0864,-86.82057,0.001067912,-0.1257102,0.09433498,0,0.3,0,0,0.007755576,0
638224237214111332,11.77998,-0.2805384,-1.517572,12.75087,12.06085,143.1273,-56.99155,-0.4675641,7.027527,-72.43327,-8.594284,-36.83611,0,0,0,26.50263,-110.6061,-41.26728,-125.5038,-110.0864,-86.82057,0.001067912,-0.1257102,0.09433498,0,0.3,0,0,0.008536095,0
638224237214451224,11.77998,-0.2805384,-1.494225,13.55657,13.52576,139.3185,-56.99155,-0.4675641,7.027527,-72.43327,-8.594284,-36.83611,0,0,0,26.51372,-110.6076,-41.2141,-125.5038,-110.0864,-86.82057,0.001067912,-0.1257102,0.09433498,0,0.3,0,0,0.008913681,0
638224237214791114,11.77998,-0.2805384,-1.494225,15.3877,15.8696,132.1405,-56.99155,-0.4675641,7.027527,-72.43327,-8.521038,-36.83611,0,0,0,26.51372,-110.6076,-41.2141,-125.5038,-110.0864,-86.82057,0.001067912,-0.1257102,0.09433498,0,0.3,0,0,0.009652887,0
638224237215131003,11.77998,-0.2805384,-1.54092,16.99909,17.26126,125.0357,-56.99155,-0.4675641,7.027527,-72.43327,-8.594284,-36.90935,0,0,0,26.49154,-110.6047,-41.32045,-125.5038,-110.0864,-86.82057,0.001067912,-0.1257102,0.09433498,0,0.3,0,0,0.01037505,0
638224237215470896,11.77998,-0.2805384,-1.610961,17.6583,17.77398,121.6664,-56.99155,-0.4675641,7.027527,-72.36002,-8.521038,-36.83611,0,0,0,26.45827,-110.6002,-41.47998,-125.5038,-110.0864,-86.82057,0.001067912,-0.1257102,0.09433498,0,0.3,0,0,0.01073234,0
638224237215810790,11.77998,-0.350673,-1.774392,18.83022,17.92047,116.2463,-56.99155,-0.4675641,7.027527,-72.43327,-8.594284,-36.90935,0,0,0,26.38046,-110.7522,-41.85305,-125.5038,-110.0864,-86.82057,0.001067912,-0.1257102,0.09433498,0,0.3,0,0,0.01144376,0
638224237216150682,11.77998,-0.5610769,-2.194643,19.70916,17.84722,112.4375,-56.99155,-0.4675641,7.027527,-72.43327,-8.594284,-36.90935,0,0,0,26.18011,-111.208,-42.81378,-125.5038,-110.0864,-86.82057,0.001067912,-0.1257102,0.09433498,0,0.3,0,0,0.01216547,0
638224237216500571,11.77998,-0.8182371,-2.451463,20.14863,17.70073,108.5555,-56.99155,-0.4675641,7.027527,-72.43327,-8.594284,-36.83611,0,0,0,26.05671,-111.7823,-43.40548,-125.5038,-110.0864,-86.82057,0.001067912,-0.1257102,0.09433498,0,0.3,0,0,0.01289574,0
638224237216850461,11.77998,-0.8883717,-2.498158,20.29512,17.40775,106.2117,-56.99155,-0.4675641,7.027527,-72.36002,-8.594284,-36.83611,0,0,0,26.03405,-111.9408,-43.51415,-125.5038,-110.0864,-86.82057,0.001067912,-0.1257102,0.09433498,0,0.3,0,0,0.01325754,0
638224237217190348,11.77998,-0.9585064,-2.591547,20.44161,16.82179,102.7692,-56.99155,-0.4675641,7.027527,-72.43327,-8.594284,-36.83611,0,0,0,25.98918,-112.0943,-43.72929,-125.5038,-110.0864,-86.82057,0.001067912,-0.1257102,0.09433498,0,0.3,0,0,0.01397303,0
638224237217530243,11.77998,-0.9818845,-2.73163,20.51486,16.23583,99.83938,-56.99155,-0.4675641,7.027527,-72.43327,-8.521038,-36.83611,0,0,0,25.92251,-112.1336,-44.04901,-125.5038,-110.0864,-86.82057,0.001067912,-0.1257102,0.09433498,0,0.3,0,0,0.01467967,0
638224237217870130,11.77998,-0.9818845,-2.778325,20.5881,15.94285,98.7407,-56.99155,-0.4675641,7.027527,-72.36002,-8.521038,-36.83611,0,0,0,25.90034,-112.1284,-44.15528,-125.5038,-110.0864,-86.82057,0.001067912,-0.1257102,0.09433498,0,0.3,0,0,0.01503001,0
638224237218220020,11.77998,-0.9818845,-2.778325,20.5881,15.28364,97.27579,-56.99155,-0.4675641,7.027527,-72.43327,-8.521038,-36.83611,0,0,0,25.90034,-112.1284,-44.15528,-125.5038,-110.0864,-86.82057,0.001067912,-0.1257102,0.09433498,0,0.3,0,0,0.01571763,0
638224237218549915,11.77998,-0.9818845,-2.801672,20.5881,14.55119,96.68983,-56.99155,-0.4675641,7.027527,-72.43327,-8.594284,-36.90935,0,0,0,25.88926,-112.1257,-44.20841,-125.5038,-110.0864,-86.82057,0.001067912,-0.1257102,0.09433498,0,0.3,0,0,0.01639008,0
638224237218899801,11.77998,-0.9818845,-2.73163,20.14863,13.74549,96.39685,-56.99155,-0.4675641,7.027527,-72.43327,-8.594284,-36.90935,0,0,0,25.92251,-112.1336,-44.04901,-125.5038,-110.0864,-86.82057,0.001067912,-0.1257102,0.09433498,0,0.3,0,0,0.01704251,0
638224237219239694,11.77998,-0.9818845,-2.638241,19.78241,13.37927,95.88414,-56.99155,-0.4675641,7.027527,-72.36002,-8.521038,-36.83611,0,0,0,25.96683,-112.1438,-43.83647,-125.5038,-110.0864,-86.82057,0.001067912,-0.1257102,0.09433498,0,0.3,0,0,0.01735831,0
638224237219579590,11.77998,-0.9818845,-2.311379,18.97671,13.01304,94.93195,-56.99155,-0.4675641,7.027527,-72.43327,-8.594284,-36.83611,0,0,0,26.12199,-112.1766,-43.09245,-125.5038,-110.0864,-86.82057,0.001067912,-0.1257102,0.09433498,0,0.3,0,0,0.01796158,0
638224237219919481,11.77998,-0.9818845,-2.124601,17.43856,12.86655,94.49248,-56.99155,-0.4675641,7.027527,-72.43327,-8.594284,-36.83611,0,0,0,26.21067,-112.1935,-42.66722,-125.5038,-110.0864,-86.82057,0.001067912,-0.1257102,0.09433498,0,0.3,0,0,0.01852823,0
638224237220259371,11.77998,-0.9818845,-2.124601,16.77936,13.01304,94.27274,-56.99155,-0.4675641,7.027527,-72.43327,-8.594284,-36.83611,0,0,0,26.21067,-112.1935,-42.66722,-125.5038,-110.0864,-86.82057,0.001067912,-0.1257102,0.09433498,0,0.3,0,0,0.0188066,0
638224237220589264,11.77998,-0.9818845,-2.241338,15.75392,13.30602,92.00214,-56.99155,-0.4675641,7.027527,-72.43327,-8.594284,-36.83611,0,0,0,26.15525,-112.1831,-42.93299,-125.5038,-110.0864,-86.82057,0.001067912,-0.1257102,0.09433498,0,0.3,0,0,0.01935972,0
638224237220939152,11.77998,-0.9818845,-2.568199,14.582,13.74549,86.06928,-56.99155,-0.4675641,7.027527,-72.43327,-8.594284,-36.83611,0,0,0,26.00008,-112.1512,-43.67705,-125.5038,-110.0864,-86.82057,0.001067912,-0.1257102,0.09433498,0,0.3,0,0,0.01992005,0
638224237221289039,11.77998,-0.9818845,-2.918408,13.41008,14.11172,77.86582,-56.99155,-0.4675641,7.027527,-72.43327,-8.594284,-36.90935,0,0,0,25.83387,-112.1122,-44.47404,-125.5038,-110.0864,-86.82057,0.001067912,-0.1257102,0.09433498,0,0.3,0,0,0.02049292,0
638224237221618936,11.77998,-0.9818845,-3.151881,12.89736,14.33146,74.05708,-56.99155,-0.4675641,7.027527,-72.43327,-8.521038,-36.83611,0,0,0,25.72309,-112.0834,-45.00524,-125.5038,-110.0864,-86.82057,0.001067912,-0.1257102,0.09433498,0,0.3,0,0,0.02078617,0
638224237221958829,11.77998,-0.9818845,-3.362006,11.94517,14.77092,67.39177,-56.99155,-0.4675641,7.027527,-72.36002,-8.594284,-36.90935,0,0,0,25.62341,-112.0556,-45.48321,-125.5038,-110.0864,-86.82057,0.001067912,-0.1257102,0.09433498,0,0.3,0,0,0.02137519,0
638224237222298716,11.77998,-0.9818845,-3.665521,11.28597,15.28364,62.26461,-56.99155,-0.4675641,7.027527,-72.43327,-8.521038,-36.83611,0,0,0,25.47947,-112.0123,-46.17343,-125.5038,-110.0864,-86.82057,0.001067912,-0.1257102,0.09433498,0,0.3,0,0,0.02196728,0
638224237222648610,11.77998,-0.9818845,-3.969035,10.99299,15.43013,60.14049,-56.99155,-0.4675641,7.027527,-72.43327,-8.594284,-36.83611,0,0,0,25.33557,-111.9653,-46.86341,-125.5038,-110.0864,-86.82057,0.001067912,-0.1257102,0.09433498,0,0.3,0,0,0.02227243,0
638224237222988499,11.77998,-0.9818845,-4.599411,10.48027,15.94285,55.59929,-56.99155,-0.4675641,7.027527,-72.43327,-8.594284,-36.83611,0,0,0,25.03689,-111.8557,-48.29563,-125.5038,-110.0864,-86.82057,0.001067912,-0.1257102,0.09433498,0,0.3,0,0,0.0229052,0
638224237223328391,11.77998,-0.9818845,-5.089704,10.11404,16.30907,50.76511,-56.99155,-0.4675641,7.027527,-72.43327,-8.594284,-36.83611,0,0,0,24.80476,-111.7593,-49.40871,-125.5038,-110.0864,-86.82057,0.001067912,-0.1257102,0.09433498,0,0.3,0,0,0.02355772,0
638224237223658284,11.77998,-0.9818845,-5.393219,9.821064,16.52881,48.42127,-56.99155,-0.4675641,7.027527,-72.43327,-8.594284,-36.83611,0,0,0,24.66115,-111.6948,-50.09734,-125.5038,-110.0864,-86.82057,0.001067912,-0.1257102,0.09433498,0,0.3,0,0,0.02389219,0
638224237223998180,11.77998,-0.9818845,-6.140331,9.161857,17.33451,44.61252,-56.99155,-0.4675641,7.027527,-72.43327,-8.594284,-36.83611,0,0,0,24.30796,-111.5201,-51.79092,-125.5038,-110.0864,-86.82057,0.001067912,-0.1257102,0.09433498,0,0.3,0,0,0.02458368,0
638224237224328074,11.77998,-0.9818845,-6.91079,8.282915,18.21345,41.68271,-56.99155,-0.4675641,7.027527,-72.43327,-8.594284,-36.90935,0,0,0,23.94425,-111.3163,-53.53493,-125.5038,-110.0864,-86.82057,0.001067912,-0.1257102,0.09433498,0,0.3,0,0,0.02530782,0
638224237224677961,11.77998,-0.9818845,-7.447778,7.257483,19.01915,38.60641,-56.99155,-0.4675641,7.027527,-72.36002,-8.521038,-36.83611,0,0,0,23.69111,-111.1601,-54.74879,-125.5038,-110.0864,-86.82057,0.001067912,-0.1257102,0.09433498,0,0.3,0,0,0.02605226,0
638224237225017863,11.77998,-0.9818845,-7.704598,6.744767,19.31213,36.77529,-56.99155,-0.4675641,7.027527,-72.36002,-8.521038,-36.83611,0,0,0,23.57014,-111.0813,-55.32882,-125.5038,-110.0864,-86.82057,0.001067912,-0.1257102,0.09433498,0,0.3,0,0,0.02642976,0
638224237225347747,11.77998,-0.9818845,-8.148195,5.93907,19.89809,33.03978,-56.99155,-0.4675641,7.027527,-72.36002,-8.521038,-36.83611,0,0,0,23.36138,-110.9389,-56.32985,-125.5038,-110.0864,-86.82057,0.001067912,-0.1257102,0.09433498,0,0.3,0,0,0.02719259,0
638224237225697634,11.77998,-0.9818845,-8.28828,5.133373,20.4108,29.23104,-56.99155,-0.4675641,7.027527,-72.36002,-8.594284,-36.90935,0,0,0,23.29551,-110.8923,-56.64573,-125.5038,-110.0864,-86.82057,0.001067912,-0.1257102,0.09433498,0,0.3,0,0,0.02795228,0
638224237226027529,11.77998,-0.9818845,-8.28828,4.840393,20.55729,27.39991,-56.99155,-0.4675641,7.027527,-72.43327,-8.594284,-36.83611,0,0,0,23.29551,-110.8923,-56.64573,-125.5038,-110.0864,-86.82057,0.001067912,-0.1257102,0.09433498,0,0.3,0,0,0.02832662,0
638224237226367422,11.77998,-0.9585064,-8.28828,4.254431,20.85028,22.34599,-56.99155,-0.4675641,7.027527,-72.43327,-8.667529,-36.90935,0,0,0,23.29569,-110.8379,-56.64483,-125.5038,-110.0864,-86.82057,0.001067912,-0.1257102,0.09433498,0,0.3,0,0,0.0290642,0
638224237226707312,11.77998,-0.9585064,-8.28828,3.81496,21.07001,16.19339,-56.99155,-0.4675641,7.027527,-72.43327,-8.594284,-36.83611,0,0,0,23.29569,-110.8379,-56.64483,-125.5038,-110.0864,-86.82057,0.001067912,-0.1257102,0.09433498,0,0.3,0,0,0.02978717,0
638224237227047204,11.77998,-0.9585064,-8.28828,3.595225,21.14326,13.1171,-56.99155,-0.4675641,7.027527,-72.43327,-8.594284,-36.90935,0,0,0,23.29569,-110.8379,-56.64483,-125.5038,-110.0864,-86.82057,0.001067912,-0.1257102,0.09433498,0,0.3,0,0,0.03014337,0
638224237227387096,11.77998,-0.9351282,-8.28828,3.375489,21.43624,7.696954,-56.99155,-0.4675641,7.027527,-72.43327,-8.521038,-36.83611,0,0,0,23.29588,-110.7835,-56.64395,-125.5038,-110.0864,-86.82057,0.001067912,-0.1257102,0.09433498,0,0.3,0,0,0.03084533,0
638224237227716992,11.8271,-0.7247244,-8.078154,3.155754,21.94895,3.81496,-56.99155,-0.4675641,7.027527,-72.36002,-8.521038,-36.90935,0,0,0,23.48841,-110.3635,-56.18241,-125.5038,-110.0864,-86.82057,0.001067912,-0.1257102,0.09433498,0,0.3,0,0,0.0315241,0
638224237228066880,11.9449,-0.4675641,-7.844682,3.082508,22.09544,2.569792,-56.99155,-0.4675641,7.027527,-72.43327,-8.521038,-36.83611,0,0,0,23.83164,-109.8403,-55.69836,-125.5038,-110.0864,-86.82057,0.001067912,-0.1257102,0.09433498,0,0.3,0,0,0.03184341,0
638224237228406772,12.5339,0.3039166,-7.027527,3.521979,22.46167,1.764095,-56.99155,-0.4675641,7.027527,-72.43327,-8.594284,-36.83611,0,0,0,25.39823,-108.2909,-54.1059,-125.5038,-110.0864,-86.82057,0.001067912,-0.1257102,0.09433498,0,0.3,0,0,0.03239743,0
638224237228746664,13.42918,1.215667,-5.790122,4.693902,22.38842,2.862773,-56.99155,-0.4675641,7.027527,-72.36002,-8.594284,-36.90935,0,0,0,27.8383,-106.4905,-51.76043,-125.5038,-110.0864,-86.82057,0.001067912,-0.1257102,0.09433498,0,0.3,0,0,0.03279072,0
638224237229096550,14.3009,2.104038,-4.529369,6.525032,21.87571,5.719335,-56.99155,-0.4675641,7.027527,-72.43327,-8.594284,-36.83611,0,0,0,30.31591,-104.6877,-49.42372,-125.5038,-110.0864,-86.82057,0.001067912,-0.1257102,0.09433498,0,0.3,0,0,0.03301135,0
638224237229436445,14.84277,2.524846,-3.75891,7.477218,21.36299,7.550464,-56.99155,-0.4675641,7.027527,-72.43327,-8.594284,-36.90935,0,0,0,31.88731,-103.8387,-48.0252,-125.5038,-110.0864,-86.82057,0.001067912,-0.1257102,0.09433498,0,0.3,0,0,0.03304842,0
638224237229776331,16.04433,3.296327,-2.21799,9.161857,20.48405,10.91974,-56.99155,-0.4675641,7.027527,-72.43327,-8.594284,-36.83611,0,0,0,35.36808,-102.2325,-45.36609,-125.5038,-110.0864,-86.82057,0.001067912,-0.1257102,0.09433498,0,0.3,0,0,0.03295552,0
638224237230116226,17.64641,4.137942,-0.6537234,11.28597,19.23888,14.50875,-56.99155,-0.4675641,7.027527,-72.43327,-8.521038,-36.90935,0,0,0,39.85738,-100.3691,-43.05584,-125.5038,-110.0864,-86.82057,0.001067912,-0.1257102,0.09433498,0,0.3,0,0,0.03261203,0
638224237230456116,18.51813,4.511993,0.1867781,12.53114,18.43318,16.26664,-56.99155,-0.4675641,7.027527,-72.43327,-8.594284,-36.83611,0,0,0,42.3594,-99.50894,-41.88411,-125.5038,-110.0864,-86.82057,0.001067912,-0.1257102,0.09433498,0,0.3,0,0,0.03233249,0
638224237230796012,20.26157,5.026314,1.844434,15.16796,17.04152,19.56267,-56.99155,-0.4675641,7.027527,-72.43327,-8.594284,-36.90935,0,0,0,47.48872,-98.24769,-39.70616,-125.5038,-110.0864,-86.82057,0.001067912,-0.1257102,0.09433498,0,0.3,0,0,0.03155874,0
638224237231125904,22.07568,5.540634,3.50209,17.43856,15.8696,21.54029,-56.99155,-0.4675641,7.027527,-72.43327,-8.521038,-36.83611,0,0,0,52.94431,-96.87582,-37.80496,-125.5038,-110.0864,-86.82057,0.001067912,-0.1257102,0.09433498,0,0.3,0,0,0.03049769,0
638224237231475795,23.04164,5.891307,4.319244,18.61049,15.35689,22.27274,-56.99155,-0.4675641,7.027527,-72.43327,-8.521038,-36.83611,0,0,0,55.84839,-95.93401,-37.04485,-125.5038,-110.0864,-86.82057,0.001067912,-0.1257102,0.09433498,0,0.3,0,0,0.02985455,0
638224237231815684,24.78508,6.803057,5.813469,20.80784,14.47795,23.15168,-56.99155,-0.4675641,7.027527,-72.36002,-8.521038,-36.90935,0,0,0,61.17117,-93.51794,-35.87285,-125.5038,-110.0864,-86.82057,0.001067912,-0.1257102,0.09433498,0,0.3,0,0,0.02836152,0
638224237232145580,26.19868,8.182371,7.074222,22.78546,13.67225,23.59116,-56.99155,-0.4675641,7.027527,-72.43327,-8.594284,-36.90935,0,0,0,65.52312,-90.00591,-35.18168,-125.5038,-110.0864,-86.82057,0.001067912,-0.1257102,0.09433498,0,0.3,0,0,0.02664344,0
638224237232495468,27.4238,10.12276,8.334974,24.25036,13.01304,23.73765,-56.99155,-0.4675641,7.027527,-72.43327,-8.594284,-36.90935,0,0,0,69.36375,-85.15418,-34.66968,-125.5038,-110.0864,-86.82057,0.001067912,-0.1257102,0.09433498,0,0.3,0,0,0.02472845,0
638224237232835360,28.08347,11.4787,9.058739,25.05606,12.57357,23.6644,-56.99155,-0.4675641,7.027527,-72.43327,-8.594284,-36.90935,0,0,0,71.40372,-81.79966,-34.52982,-125.5038,-110.0864,-86.82057,0.001067912,-0.1257102,0.09433498,0,0.3,0,0,0.02369564,0
638224237233165252,29.16723,14.63475,10.48292,26.44772,11.10867,23.51791,-56.99155,-0.4675641,7.027527,-72.43327,-8.594284,-36.83611,0,0,0,74.70534,-74.08256,-34.50084,-125.5038,-110.0864,-86.82057,0.001067912,-0.1257102,0.09433498,0,0.3,0,0,0.02149128,0
638224237233515142,29.99183,17.79081,11.88376,27.54639,9.424027,22.71221,-56.99155,-0.4675641,7.027527,-72.43327,-8.594284,-36.83611,0,0,0,77.19759,-66.39785,-34.59581,-125.5038,-110.0864,-86.82057,0.001067912,-0.1257102,0.09433498,0,0.3,0,0,0.01912907,0
638224237233855031,30.39235,19.42729,12.60752,27.91262,8.471841,21.90652,-56.99155,-0.4675641,7.027527,-72.43327,-8.594284,-36.83611,0,0,0,78.34864,-62.4311,-34.76712,-125.5038,-110.0864,-86.82057,0.001067912,-0.1257102,0.09433498,0,0.3,0,0,0.01789222,0
638224237234184930,31.12271,22.58335,14.03171,28.57183,6.494221,20.36837,-56.99155,-0.4675641,7.027527,-72.36002,-8.594284,-36.83611,0,0,0,80.35139,-54.81107,-35.26925,-125.5038,-110.0864,-86.82057,0.001067912,-0.1257102,0.09433498,0,0.3,0,0,0.01531731,0
638224237234524818,31.87663,25.62251,15.75941,29.0113,4.663092,18.3175,-56.99155,-0.4675641,7.027527,-72.43327,-8.521038,-36.90935,0,0,0,82.6223,-47.32158,-35.49096,-125.5038,-110.0864,-86.82057,0.001067912,-0.1257102,0.09433498,0,0.3,0,0,0.01259618,0
638224237234864712,32.34783,27.0252,16.73999,29.37753,3.710905,17.29207,-56.99155,-0.4675641,7.027527,-72.36002,-8.521038,-36.90935,0,0,0,84.10986,-43.75696,-35.54691,-125.5038,-110.0864,-86.82057,0.001067912,-0.1257102,0.09433498,0,0.3,0,0,0.01116756,0
638224237235204603,33.29023,29.33965,18.70116,30.25646,1.586795,15.53419,-56.99155,-0.4675641,7.027527,-72.43327,-8.594284,-36.83611,0,0,0,87.2728,-37.62003,-35.44044,-125.5038,-110.0864,-86.82057,0.001067912,-0.1257102,0.09433498,0,0.3,0,0,0.008171137,0
638224237235544497,34.3033,31.18653,20.66233,31.35514,-0.171089,13.70306,-56.99155,-0.4675641,7.027527,-72.36002,-8.594284,-36.83611,0,0,0,90.81027,-32.37035,-35.24361,-125.5038,-110.0864,-86.82057,0.001067912,-0.1257102,0.09433498,0,0.3,0,0,0.004982854,0
638224237235884383,35.4813,33.01003,22.88032,32.67356,-2.002218,11.5057,-56.99155,-0.4675641,7.027527,-72.43327,-8.594284,-36.83611,0,0,0,95.00103,-26.86071,-35.07148,-125.5038,-110.0864,-86.82057,0.001067912,-0.1257102,0.09433498,0,0.3,0,0,0.001587016,0
638224237236224275,36.04674,33.82826,24.00099,33.33276,-2.88116,10.26054,-56.99155,-0.4675641,7.027527,-72.43327,-8.594284,-36.83611,0,0,0,97.10262,-24.23368,-34.92873,-125.5038,-110.0864,-86.82057,0.001067912,-0.1257102,0.09433498,0,0.3,0,0,0,0
638224237236564171,37.08338,35.25433,26.24233,34.65118,-4.346064,7.550464,-56.99155,-0.4675641,7.027527,-72.43327,-8.594284,-36.90935,0,0,0,101.2135,-19.28534,-34.44098,-125.5038,-110.0864,-86.82057,0.001067912,-0.1257102,0.09433498,0,0.3,0,0,0,0
638224237236904058,38.21426,36.42324,28.67044,36.04284,-5.664476,4.986883,-56.99155,-0.4675641,7.027527,-72.43327,-8.594284,-36.83611,0,0,0,105.9532,-14.47452,-33.77641,-125.5038,-110.0864,-86.82057,0.001067912,-0.1257102,0.09433498,0,0.3,0,0,0,0
638224237237243950,38.85038,36.8908,29.95454,36.84853,-6.396928,3.595225,-56.99155,-0.4675641,7.027527,-72.43327,-8.594284,-36.90935,0,0,0,108.6678,-12.13843,-33.43754,-125.5038,-110.0864,-86.82057,0.001067912,-0.1257102,0.09433498,0,0.3,0,0,0,0
638224237237583843,40.05193,37.56877,32.28927,38.45993,-7.788587,0.6654179,-56.99155,-0.4675641,7.027527,-72.43327,-8.521038,-36.83611,0,0,0,113.8518,-8.073747,-32.91619,-125.5038,-110.0864,-86.82057,0.001067912,-0.1257102,0.09433498,0,0.3,0,0,0,0
638224237237933734,41.30061,37.98958,34.74073,40.29105,-9.033754,-2.557369,-56.99155,-0.4675641,7.027527,-72.43327,-8.594284,-36.83611,0,0,0,119.5195,-4.149568,-32.30673,-125.5038,-110.0864,-86.82057,0.001067912,-0.1257102,0.09433498,0,0.3,0,0,0,0
638224237238273624,41.86605,38.12985,35.88475,41.09675,-9.399981,-4.095518,-56.99155,-0.4675641,7.027527,-72.43327,-8.594284,-36.83611,0,0,0,122.1719,-2.353472,-32.02473,-125.5038,-110.0864,-86.82057,0.001067912,-0.1257102,0.09433498,0,0.3,0,0,0,0
638224237238613517,43.06761,38.22336,38.14943,42.92788,-10.05919,-7.391551,-56.99155,-0.4675641,7.027527,-72.43327,-8.594284,-36.90935,0,0,0,127.7855,0.9907246,-31.64055,-125.5038,-110.0864,-86.82057,0.001067912,-0.1257102,0.09433498,0,0.3,0,0,0,0
638224237238953407,44.17493,38.22336,40.41412,44.46603,-10.42541,-11.42003,-56.99155,-0.4675641,7.027527,-72.43327,-8.594284,-36.83611,0,0,0,133.2465,4.327646,-31.20963,-125.5038,-110.0864,-86.82057,0.001067912,-0.1257102,0.09433498,0,0.3,0,0,0,0
638224237239293298,45.14088,38.19999,42.7255,45.93093,-10.79164,-15.37527,-56.99155,-0.4675641,7.027527,-72.43327,-8.594284,-36.83611,0,0,0,138.416,7.85412,-30.61303,-125.5038,-110.0864,-86.82057,0.001067912,-0.1257102,0.09433498,0,0.3,0,0,0,0
638224237239633189,45.56496,38.17661,43.84616,46.59014,-11.01137,-17.35289,-56.99155,-0.4675641,7.027527,-72.43327,-8.594284,-36.83611,0,0,0,140.8114,9.599636,-30.28852,-125.5038,-110.0864,-86.82057,0.001067912,-0.1257102,0.09433498,0,0.3,0,0,0,0
638224237239973080,46.29532,38.03634,46.04081,48.05504,-11.23111,-20.94191,-56.99155,-0.4675641,7.027527,-72.43327,-8.594284,-36.83611,0,0,0,145.3188,12.95073,-29.45761,-125.5038,-110.0864,-86.82057,0.001067912,-0.1257102,0.09433498,0,0.3,0,0,0,0
638224237240322973,46.90788,37.82593,47.88524,49.4467,-11.45084,-24.09145,-56.99155,-0.4675641,7.027527,-72.43327,-8.594284,-36.83611,0,0,0,149.1546,15.70197,-28.81211,-125.5038,-110.0864,-86.82057,0.001067912,-0.1257102,0.09433498,0,0.3,0,0,0,0
638224237240652863,47.16704,37.66228,48.60901,49.95942,-11.52409,-25.40986,-56.99155,-0.4675641,7.027527,-72.43327,-8.594284,-36.83611,0,0,0,150.7778,16.65745,-28.56706,-125.5038,-110.0864,-86.82057,0.001067912,-0.1257102,0.09433498,0,0.3,0,0,0,0
638224237241002751,47.6618,37.14796,49.9865,50.9116,-11.45084,-27.82695,-56.99155,-0.4675641,7.027527,-72.43327,-8.594284,-36.90935,0,0,0,154.062,18.13699,-27.97647,-125.5038,-110.0864,-86.82057,0.001067912,-0.1257102,0.09433498,0,0.3,0,0,0,0
638224237241342643,48.10944,36.47,51.06047,51.79055,-11.3776,-29.95106,-56.99155,-0.4675641,7.027527,-72.43327,-8.521038,-36.83611,0,0,0,157.0408,18.80302,-27.49208,-125.5038,-110.0864,-86.82057,0.001067912,-0.1257102,0.09433498,0,0.3,0,0,0,0
638224237241682540,48.46284,35.67514,51.57411,52.30326,-11.23111,-31.48921,-56.99155,-0.4675641,7.027527,-72.36002,-8.521038,-36.83611,0,0,0,159.2812,18.24095,-27.24564,-125.5038,-110.0864,-86.82057,0.001067912,-0.1257102,0.09433498,0,0.3,0,0,0,0
638224237242022431,48.62776,35.1842,51.7142,52.44975,-11.08462,-32.22166,-56.99155,-0.4675641,7.027527,-72.43327,-8.594284,-36.83611,0,0,0,160.3356,17.56558,-27.13318,-125.5038,-110.0864,-86.82057,0.001067912,-0.1257102,0.09433498,0,0.3,0,0,0,0
638224237242362318,48.91048,34.20231,51.78423,52.66949,-10.71839,-33.17385,-56.99155,-0.4675641,7.027527,-72.36002,-8.594284,-36.90935,0,0,0,162.0868,15.81468,-27.00485,-125.5038,-110.0864,-86.82057,0.001067912,-0.1257102,0.09433498,0,0.3,0,0,0,0
638224237242702209,49.21676,32.93989,51.6208,52.66949,-10.64515,-33.75981,-56.99155,-0.4675641,7.027527,-72.43327,-8.594284,-36.83611,0,0,0,163.8918,13.06814,-26.96605,-125.5038,-110.0864,-86.82057,0.001067912,-0.1257102,0.09433498,0,0.3,0,0,0,0
638224237243042101,49.33456,32.23854,51.38733,52.66949,-10.13243,-33.9063,-56.99155,-0.4675641,7.027527,-72.43327,-8.594284,-36.83611,0,0,0,164.5924,11.26756,-26.95081,-125.5038,-110.0864,-86.82057,0.001067912,-0.1257102,0.09433498,0,0.3,0,0,0,0
638224237243391993,49.57016,30.57869,50.68691,52.44975,-8.521038,-33.83306,-56.99155,-0.4675641,7.027527,-72.43327,-8.594284,-36.83611,0,0,0,165.9246,6.703071,-26.98801,-125.5038,-110.0864,-86.82057,0.001067912,-0.1257102,0.09433498,0,0.3,0,0,0,0
638224237243731886,49.73508,28.87208,49.68298,51.93703,-7.056135,-33.75981,-56.99155,-0.4675641,7.027527,-72.36002,-8.521038,-36.83611,0,0,0,166.692,1.459189,-27.16029,-125.5038,-110.0864,-86.82057,0.001067912,-0.1257102,0.09433498,0,0.3,0,0,0,0
638224237244061778,49.7822,28.00709,49.0993,51.57081,-6.323683,-33.68657,-56.99155,-0.4675641,7.027527,-72.43327,-8.594284,-36.83611,0,0,0,166.8649,-1.342323,-27.24931,-125.5038,-110.0864,-86.82057,0.001067912,-0.1257102,0.09433498,0,0.3,0,0,0,0
638224237244401670,49.80576,26.11345,47.83855,50.76511,-4.639044,-33.10061,-56.99155,-0.4675641,7.027527,-72.36002,-8.594284,-36.83611,0,0,0,166.9683,-7.463455,-27.27958,-125.5038,-110.0864,-86.82057,0.001067912,-0.1257102,0.09433498,0,0.3,0,0,0,0
638224237244741558,49.80576,24.33671,46.15754,49.95942,-3.100896,-31.92868,-56.99155,-0.4675641,7.027527,-72.43327,-8.594284,-36.83611,0,0,0,166.2763,-14.06529,-27.86428,-125.5038,-110.0864,-86.82057,0.001067912,-0.1257102,0.09433498,0,0.3,0,0,0,0
638224237245081450,49.80576,22.91064,44.61663,49.00723,-1.489502,-30.31729,-56.99155,-0.4675641,7.027527,-72.43327,-8.594284,-36.83611,0,0,0,165.3683,-19.65901,-28.63142,-125.5038,-110.0864,-86.82057,0.001067912,-0.1257102,0.09433498,0,0.3,0,0,0,0
638224237245421343,49.7822,22.23267,43.82282,48.56776,-0.4640697,-29.3651,-56.99155,-0.4675641,7.027527,-72.43327,-8.594284,-36.90935,0,0,0,164.7623,-22.4045,-29.02729,-125.5038,-110.0864,-86.82057,0.001067912,-0.1257102,0.09433498,0,0.3,0,0,0,0
638224237245761236,49.73508,21.22741,42.37529,47.8353,1.000834,-27.68046,-56.99155,-0.4675641,7.027527,-72.43327,-8.594284,-36.83611,0,0,0,163.4316,-26.87969,-29.92186,-125.5038,-110.0864,-86.82057,0.001067912,-0.1257102,0.09433498,0,0.3,0,0,0,0
638224237246111124,49.6644,20.73647,40.81102,47.10286,2.026266,-25.99582,-56.99155,-0.4675641,7.027527,-72.43327,-8.594284,-36.83611,0,0,0,161.4972,-30.36328,-31.21784,-125.5038,-110.0864,-86.82057,0.001067912,-0.1257102,0.09433498,0,0.3,0,0,0,0
638224237246441018,49.59372,20.71309,40.06391,46.73663,2.538982,-25.26337,-56.99155,-0.4675641,7.027527,-72.43327,-8.594284,-36.83611,0,0,0,160.3348,-31.54199,-31.86409,-125.5038,-110.0864,-86.82057,0.001067912,-0.1257102,0.09433498,0,0.3,0,0,0,0
638224237246780907,49.4288,20.75984,38.8265,46.00418,3.271434,-23.87171,-56.99155,-0.4675641,7.027527,-72.43327,-8.594284,-36.83611,0,0,0,158.2227,-33.26992,-32.87465,-125.5038,-110.0864,-86.82057,0.001067912,-0.1257102,0.09433498,0,0.3,0,0,0,0
638224237247120801,49.21676,21.11052,37.5891,45.34497,3.93064,-22.77304,-56.99155,-0.4675641,7.027527,-72.43327,-8.594284,-36.90935,0,0,0,155.786,-34.28889,-33.95865,-125.5038,-110.0864,-86.82057,0.001067912,-0.1257102,0.09433498,0,0.3,0,0,0,0
638224237247460691,49.09896,21.50795,36.86533,44.97874,4.370111,-22.26032,-56.99155,-0.4675641,7.027527,-72.36002,-8.521038,-36.83611,0,0,0,154.2415,-34.44623,-34.73692,-125.5038,-110.0864,-86.82057,0.001067912,-0.1257102,0.09433498,0,0.3,0,0,0,0
638224237247800583,48.86336,22.4197,35.48784,44.0998,4.589847,-21.23489,-56.99155,-0.4675641,7.027527,-72.43327,-8.594284,-36.90935,0,0,0,151.144,-34.37062,-36.32833,-125.5038,-110.0864,-86.82057,0.001067912,-0.1257102,0.09433498,0,0.3,0,0,0,0
638224237248140473,48.58064,23.47172,34.29713,43.14762,4.370111,-20.2827,-56.99155,-0.4675641,7.027527,-72.43327,-8.521038,-36.83611,0,0,0,148.0705,-33.70115,-37.71938,-125.5038,-110.0864,-86.82057,0.001067912,-0.1257102,0.09433498,0,0.3,0,0,0,0
638224237248480366,48.29792,24.92117,33.22316,42.12218,3.710905,-19.62349,-56.99155,-0.4675641,7.027527,-72.43327,-8.594284,-36.90935,0,0,0,144.8403,-32.0132,-39.29256,-125.5038,-110.0864,-86.82057,0.001067912,-0.1257102,0.09433498,0,0.3,0,0,0,0
638224237248820260,48.10944,25.7394,32.75621,41.53622,3.417924,-19.40376,-56.99155,-0.4675641,7.027527,-72.43327,-8.594284,-36.83611,0,0,0,143.1299,-30.88367,-39.96946,-125.5038,-110.0864,-86.82057,0.001067912,-0.1257102,0.09433498,0,0.3,0,0,0,0
638224237249160149,47.73248,27.25899,32.10249,40.65728,2.905208,-19.18402,-56.99155,-0.4675641,7.027527,-72.43327,-8.594284,-36.83611,0,0,0,140.1641,-28.53455,-40.95564,-125.5038,-110.0864,-86.82057,0.001067912,-0.1257102,0.09433498,0,0.3,0,0,0,0
638224237249500043,47.16704,28.77857,31.44877,39.85158,2.099511,-18.8178,-56.99155,-0.4675641,7.027527,-72.43327,-8.594284,-36.90935,0,0,0,136.7332,-26.21369,-41.58745,-125.5038,-110.0864,-86.82057,0.001067912,-0.1257102,0.09433498,0,0.3,0,0,0,0
638224237249839934,46.81364,29.66694,30.98182,39.41211,1.733285,-18.59806,-56.99155,-0.4675641,7.027527,-72.43327,-8.594284,-36.83611,0,0,0,134.5351,-24.97248,-42.07339,-125.5038,-110.0864,-86.82057,0.001067912,-0.1257102,0.09433498,0,0.3,0,0,0,0
638224237250179823,45.80056,31.88787,29.95454,38.24019,0.4881175,-17.79236,-56.99155,-0.4675641,7.027527,-72.36002,-8.594284,-36.83611,0,0,0,128.908,-21.74407,-42.99496,-125.5038,-110.0864,-86.82057,0.001067912,-0.1257102,0.09433498,0,0.3,0,0,0,0
638224237250509723,44.74036,34.1088,29.16073,36.84853,-0.9035407,-16.69369,-56.99155,-0.4675641,7.027527,-72.43327,-8.521038,-36.83611,0,0,0,123.4538,-18.32055,-43.7722,-125.5038,-110.0864,-86.82057,0.001067912,-0.1257102,0.09433498,0,0.3,0,0,0,0
638224237250849611,44.19849,35.11406,28.85722,36.11608,-1.782483,-16.10773,-56.99155,-0.4675641,7.027527,-72.43327,-8.521038,-36.83611,0,0,0,120.913,-16.73756,-44.00586,-125.5038,-110.0864,-86.82057,0.001067912,-0.1257102,0.09433498,0,0.3,0,0,0,0
638224237251189507,43.23253,36.84405,28.39028,34.65118,-3.320631,-15.00905,-56.99155,-0.4675641,7.027527,-72.36002,-8.521038,-36.83611,0,0,0,116.526,-14.00004,-44.40351,-125.5038,-110.0864,-86.82057,0.001067912,-0.1257102,0.09433498,0,0.3,0,0,0,0
638224237251529393,42.52573,38.12985,28.2035,33.18628,-4.712289,-14.42309,-56.99155,-0.4675641,7.027527,-72.36002,-8.594284,-36.90935,0,0,0,113.4985,-11.83158,-44.59976,-125.5038,-110.0864,-86.82057,0.001067912,-0.1257102,0.09433498,0,0.3,0,0,0,0
638224237251879281,42.36081,38.66755,28.2035,32.16084,-5.664476,-14.13011,-56.99155,-0.4675641,7.027527,-72.43327,-8.594284,-36.83611,0,0,0,112.6181,-10.85082,-44.84794,-125.5038,-110.0864,-86.82057,0.001067912,-0.1257102,0.09433498,0,0.3,0,0,0,0
638224237252219175,42.38437,38.69093,28.2035,31.86786,-5.810967,-14.05686,-56.99155,-0.4675641,7.027527,-72.43327,-8.594284,-36.90935,0,0,0,112.6459,-10.80834,-44.91938,-125.5038,-110.0864,-86.82057,0.001067912,-0.1257102,0.09433498,0,0.3,0,0,0,0
638224237252559065,42.54929,38.66755,28.25019,31.42839,-5.884212,-13.98362,-56.99155,-0.4675641,7.027527,-72.43327,-8.521038,-36.83611,0,0,0,113.0885,-10.79942,-45.14854,-125.5038,-110.0864,-86.82057,0.001067912,-0.1257102,0.09433498,0,0.3,0,0,0,0
638224237252898963,42.80845,38.43377,28.46032,31.35514,-5.884212,-13.91037,-56.99155,-0.4675641,7.027527,-72.43327,-8.594284,-36.83611,0,0,0,114.1675,-10.99267,-45.09682,-125.5038,-110.0864,-86.82057,0.001067912,-0.1257102,0.09433498,0,0.3,0,0,0,0
638224237253238850,42.97337,38.15323,28.67044,31.42839,-5.957458,-13.98362,-56.99155,-0.4675641,7.027527,-72.36002,-8.521038,-36.83611,0,0,0,115.0903,-11.27128,-44.81564,-125.5038,-110.0864,-86.82057,0.001067912,-0.1257102,0.09433498,0,0.3,0,0,0,0
638224237253578739,43.37389,37.2181,29.25412,32.08759,-5.884212,-13.91037,-56.99155,-0.4675641,7.027527,-72.43327,-8.521038,-36.90935,0,0,0,117.6811,-12.33581,-43.79211,-125.5038,-110.0864,-86.82057,0.001067912,-0.1257102,0.09433498,0,0.3,0,0,0,0
638224237253908634,43.75085,36.11932,29.67438,33.11303,-5.444741,-13.25116,-56.99155,-0.4675641,7.027527,-72.43327,-8.521038,-36.83611,0,0,0,120.1429,-13.90588,-42.85076,-125.5038,-110.0864,-86.82057,0.001067912,-0.1257102,0.09433498,0,0.3,0,0,0,0
638224237254248526,43.89221,35.62838,29.74442,33.62574,-5.15176,-12.88494,-56.99155,-0.4675641,7.027527,-72.43327,-8.594284,-36.90935,0,0,0,121.0146,-14.75096,-42.56299,-125.5038,-110.0864,-86.82057,0.001067912,-0.1257102,0.09433498,0,0.3,0,0,0,0
638224237254598416,44.05713,34.6465,29.74442,34.3582,-4.126328,-12.006,-56.99155,-0.4675641,7.027527,-72.43327,-8.594284,-36.83611,0,0,0,122.2907,-16.61974,-41.96666,-125.5038,-110.0864,-86.82057,0.001067912,-0.1257102,0.09433498,0,0.3,0,0,0,0
638224237254948308,44.12781,33.5711,29.67438,35.0174,-3.027651,-10.68758,-56.99155,-0.4675641,7.027527,-72.43327,-8.594284,-36.83611,0,0,0,123.3252,-18.77282,-41.21182,-125.5038,-110.0864,-86.82057,0.001067912,-0.1257102,0.09433498,0,0.3,0,0,0,0
638224237255288198,44.15137,32.30868,29.27747,35.53012,-2.148709,-9.515661,-56.99155,-0.4675641,7.027527,-72.43327,-8.594284,-36.83611,0,0,0,123.9301,-21.69313,-40.69325,-125.5038,-110.0864,-86.82057,0.001067912,-0.1257102,0.09433498,0,0.3,0,0,0,0
638224237255628089,44.15137,31.56057,28.92726,35.67661,-1.562747,-9.002944,-56.99155,-0.4675641,7.027527,-72.43327,-8.594284,-36.83611,0,0,0,124.0756,-23.56717,-40.54344,-125.5038,-110.0864,-86.82057,0.001067912,-0.1257102,0.09433498,0,0.3,0,0,0,0
638224237255967981,44.12781,30.08775,27.89998,35.89634,-0.09784385,-8.050756,-56.99155,-0.4675641,7.027527,-72.43327,-8.521038,-36.83611,0,0,0,123.7818,-27.64838,-40.7411,-125.5038,-110.0864,-86.82057,0.001067912,-0.1257102,0.09433498,0,0.3,0,0,0,0
638224237256307868,43.93933,28.56816,26.49915,35.89634,1.220569,-7.09857,-56.99155,-0.4675641,7.027527,-72.36002,-8.521038,-36.83611,0,0,0,122.5512,-32.22189,-41.17526,-125.5038,-110.0864,-86.82057,0.001067912,-0.1257102,0.09433498,0,0.3,0,0,0,0
638224237256647773,43.75085,27.91357,25.72869,35.8231,1.879776,-6.732344,-56.99155,-0.4675641,7.027527,-72.43327,-8.594284,-36.83611,0,0,0,121.5173,-34.35329,-41.41515,-125.5038,-110.0864,-86.82057,0.001067912,-0.1257102,0.09433498,0,0.3,0,0,0,0
638224237256977658,42.99693,26.86156,23.72082,35.38363,3.63766,-5.853402,-56.99155,-0.4675641,7.027527,-72.43327,-8.594284,-36.83611,0,0,0,117.7101,-38.48176,-42.10783,-125.5038,-110.0864,-86.82057,0.001067912,-0.1257102,0.09433498,0,0.3,0,0,0,0
638224237257327546,41.67757,26.37061,21.12928,34.43144,5.395544,-4.82797,-56.99155,-0.4675641,7.027527,-72.36002,-8.594284,-36.83611,0,0,0,111.4055,-41.80398,-43.21261,-125.5038,-110.0864,-86.82057,0.001067912,-0.1257102,0.09433498,0,0.3,0,0,0,0
638224237257667444,40.78229,26.32386,19.82183,33.62574,6.05475,-4.315253,-56.99155,-0.4675641,7.027527,-72.43327,-8.594284,-36.83611,0,0,0,107.6062,-42.96592,-43.6091,-125.5038,-110.0864,-86.82057,0.001067912,-0.1257102,0.09433498,0,0.3,0,0,0,0
638224237258007330,38.56766,26.32386,17.13689,31.72137,7.373164,-2.777105,-56.99155,-0.4675641,7.027527,-72.43327,-8.594284,-36.90935,0,0,0,99.01086,-44.94641,-44.17754,-125.5038,-110.0864,-86.82057,0.001067912,-0.1257102,0.09433498,0,0.3,0,0,0,0
638224237258347219,35.92894,26.37061,14.54535,29.23104,8.471841,-0.8727306,-56.99155,-0.4675641,7.027527,-72.43327,-8.594284,-36.83611,0,0,0,89.75638,-46.49519,-44.48819,-125.5038,-110.0864,-86.82057,0.001067912,-0.1257102,0.09433498,0,0.3,0,0,0,0
638224237258687108,32.72478,26.67453,12.14058,26.08149,9.643764,0.8119082,-56.99155,-0.4675641,7.027527,-72.43327,-8.521038,-36.83611,0,0,0,79.5784,-47.15384,-44.51178,-125.5038,-110.0864,-86.82057,0.001067912,-0.1257102,0.09433498,0,0.3,0,0,0,0
638224237259027001,31.14627,26.90831,11.27673,24.61659,10.22972,1.617605,-56.99155,-0.4675641,7.027527,-72.43327,-8.594284,-36.83611,0,0,0,74.99175,-47.07615,-44.26142,-125.5038,-110.0864,-86.82057,0.001067912,-0.1257102,0.09433498,0,0.3,0,0,0,0
638224237259366892,27.49447,27.53952,9.759157,21.54029,11.25516,4.327676,-56.99155,-0.4675641,7.027527,-72.43327,-8.594284,-36.90935,0,0,0,65.02254,-46.41454,-43.41344,-125.5038,-110.0864,-86.82057,0.001067912,-0.1257102,0.09433498,0,0.3,0,0,0,0
638224237259716784,23.46572,28.12398,8.591794,18.17101,11.91436,7.477218,-56.99155,-0.4675641,7.027527,-72.43327,-8.594284,-36.90935,0,0,0,54.76329,-45.64486,-42.19672,-125.5038,-110.0864,-86.82057,0.001067912,-0.1257102,0.09433498,0,0.3,0,0,0,0
638224237260056676,21.58092,28.35776,8.218237,16.41313,12.1341,8.868877,-56.99155,-0.4675641,7.027527,-72.43327,-8.594284,-36.83611,0,0,0,50.17344,-45.29261,-41.503,-125.5038,-110.0864,-86.82057,0.001067912,-0.1257102,0.09433498,0,0.3,0,0,0,0
638224237260396567,17.34013,28.87208,7.657903,12.82412,12.35384,11.65219,-56.99155,-0.4675641,7.027527,-72.43327,-8.594284,-36.83611,0,0,0,40.10013,-44.42189,-39.9202,-125.5038,-110.0864,-86.82057,0.001067912,-0.1257102,0.09433498,0,0.3,0,0,0,0
638224237260736459,13.1229,29.47991,7.447778,9.088613,12.1341,14.21577,-56.99155,-0.4675641,7.027527,-72.43327,-8.594284,-36.90935,0,0,0,30.28042,-43.25099,-38.46281,-125.5038,-110.0864,-86.82057,0.001067912,-0.1257102,0.09433498,0,0.3,0,0,0,0
638224237261076353,8.622946,30.18126,7.494472,4.693902,11.47489,16.12015,-56.99155,-0.4675641,7.027527,-72.43327,-8.594284,-36.83611,0,0,0,19.89077,-41.82084,-37.18371,-125.5038,-110.0864,-86.82057,0.001067912,-0.1257102,0.09433498,0,0.3,0,0,0,0
638224237261416239,6.33763,30.50856,7.704598,2.276812,11.10867,16.77936,-56.99155,-0.4675641,7.027527,-72.43327,-8.594284,-36.83611,0,0,0,14.65563,-41.09878,-36.39557,-125.5038,-110.0864,-86.82057,0.001067912,-0.1257102,0.09433498,0,0.3,0,0,0,0
638224237261756133,2.143956,31.16315,8.475058,-2.777105,10.30297,17.58505,-56.99155,-0.4675641,7.027527,-72.43327,-8.594284,-36.83611,0,0,0,5.004018,-39.53831,-34.68343,-125.5038,-110.0864,-86.82057,0.001067912,-0.1257102,0.09433498,0,0.3,0,0,0,0
638224237262096025,-1.602077,32.14503,9.89924,-7.757777,9.350782,18.02452,-56.99155,-0.4675641,7.027527,-72.43327,-8.594284,-36.83611,0,0,0,-3.797602,-37.06387,-32.57011,-125.5038,-110.0864,-86.82057,0.001067912,-0.1257102,0.09433498,0,0.3,0,0,0,0
638224237262435919,-3.251275,32.84638,10.87983,-10.24811,8.691576,18.39075,-56.99155,-0.4675641,7.027527,-72.43327,-8.594284,-36.83611,0,0,0,-7.781344,-35.27557,-31.37002,-125.5038,-110.0864,-86.82057,0.001067912,-0.1257102,0.09433498,0,0.3,0,0,0,0
638224237262775808,-5.371671,34.41272,12.77096,-14.78931,7.080183,19.41618,-56.99155,-0.4675641,7.027527,-72.43327,-8.594284,-36.83611,0,0,0,-13.05848,-31.33836,-29.47286,-125.5038,-110.0864,-86.82057,0.001067912,-0.1257102,0.09433498,0,0.3,0,0,0,0
638224237263125698,-6.172709,36.28297,14.63874,-18.37833,5.249053,20.95433,-56.99155,-0.4675641,7.027527,-72.43327,-8.521038,-36.83611,0,0,0,-15.18207,-26.75825,-27.97393,-125.5038,-110.0864,-86.82057,0.001067912,-0.1257102,0.09433498,0,0.3,0,0,0,0
638224237263465590,-6.19627,37.40512,15.61932,-19.69674,4.296866,21.68678,-56.99155,-0.4675641,7.027527,-72.36002,-8.521038,-36.83611,0,0,0,-15.30855,-24.07258,-27.34687,-125.5038,-110.0864,-86.82057,0.001067912,-0.1257102,0.09433498,0,0.3,0,0,0,0
638224237263795481,-6.05491,39.85984,17.65053,-21.30813,2.099511,22.63897,-56.99155,-0.4675641,7.027527,-72.43327,-8.521038,-36.90935,0,0,0,-15.06218,-18.25679,-26.35209,-125.5038,-110.0864,-86.82057,0.001067912,-0.1257102,0.09433498,0,0.3,0,0,0,0
638224237264145369,-5.418791,42.52495,19.89187,-22.48005,-0.6838052,23.37142,-56.99155,-0.4675641,7.027527,-72.43327,-8.594284,-36.83611,0,0,0,-13.56542,-11.9111,-25.34345,-125.5038,-110.0864,-86.82057,0.001067912,-0.1257102,0.09433498,0,0.3,0,0,0,0
638224237264485263,-4.146553,45.11993,22.2266,-22.91953,-3.833347,24.68983,-56.99155,-0.4675641,7.027527,-72.43327,-8.594284,-36.90935,0,0,0,-10.45119,-5.601583,-24.19086,-125.5038,-110.0864,-86.82057,0.001067912,-0.1257102,0.09433498,0,0.3,0,0,0,0
638224237264825157,-3.392634,46.26546,23.20718,-22.69979,-5.517986,25.42229,-56.99155,-0.4675641,7.027527,-72.43327,-8.594284,-36.83611,0,0,0,-8.565122,-2.857993,-23.86888,-125.5038,-110.0864,-86.82057,0.001067912,-0.1257102,0.09433498,0,0.3,0,0,0,0
638224237265165043,-1.507838,48.1591,24.77145,-21.67436,-8.374548,26.66745,-56.99155,-0.4675641,7.027527,-72.43327,-8.521038,-36.83611,0,0,0,-3.810924,1.615765,-23.57349,-125.5038,-110.0864,-86.82057,0.001067912,-0.1257102,0.09433498,0,0.3,0,0,0,0
638224237265504933,0.9423984,49.77219,26.0789,-19.477,-11.01137,27.32666,-56.99155,-0.4675641,7.027527,-72.43327,-8.594284,-36.83611,0,0,0,2.380619,5.38684,-23.6266,-125.5038,-110.0864,-86.82057,0.001067912,-0.1257102,0.09433498,0,0.3,0,0,0,0
638224237265844827,2.308876,50.4034,26.61588,-18.08535,-12.25654,27.47315,-56.99155,-0.4675641,7.027527,-72.43327,-8.521038,-36.83611,0,0,0,5.830924,6.884082,-23.7314,-125.5038,-110.0864,-86.82057,0.001067912,-0.1257102,0.09433498,0,0.3,0,0,0,0
638224237266184719,5.230311,51.31516,27.43304,-14.64282,-14.08767,27.61964,-56.99155,-0.4675641,7.027527,-72.43327,-8.594284,-36.83611,0,0,0,13.19847,9.087668,-24.16837,-125.5038,-110.0864,-86.82057,0.001067912,-0.1257102,0.09433498,0,0.3,0,0,0,0
638224237266524613,8.528707,51.78272,28.06341,-10.32136,-15.47933,27.32666,-56.99155,-0.4675641,7.027527,-72.43327,-8.594284,-36.83611,0,0,0,21.53842,10.44744,-24.72534,-125.5038,-110.0864,-86.82057,0.001067912,-0.1257102,0.09433498,0,0.3,0,0,0,0
638224237266874502,10.22502,51.8061,28.32023,-8.050756,-15.99205,26.81394,-56.99155,-0.4675641,7.027527,-72.43327,-8.521038,-36.90935,0,0,0,25.86649,10.76347,-24.94949,-125.5038,-110.0864,-86.82057,0.001067912,-0.1257102,0.09433498,0,0.3,0,0,0,0
638224237267214393,13.45274,51.54894,28.57705,-3.070086,-16.50476,25.56878,-56.99155,-0.4675641,7.027527,-72.43327,-8.594284,-36.83611,0,0,0,34.13104,10.67708,-25.66558,-125.5038,-110.0864,-86.82057,0.001067912,-0.1257102,0.09433498,0,0.3,0,0,0,0
638224237267554284,16.46841,50.68394,28.57705,2.203566,-16.28502,23.88414,-56.99155,-0.4675641,7.027527,-72.36002,-8.594284,-36.83611,0,0,0,42.03453,9.413334,-26.15597,-125.5038,-110.0864,-86.82057,0.001067912,-0.1257102,0.09433498,0,0.3,0,0,0,0
638224237267894178,18.51813,49.58517,28.13346,6.305296,-15.77231,21.68678,-56.99155,-0.4675641,7.027527,-72.43327,-8.594284,-36.83611,0,0,0,47.42829,7.283835,-26.75071,-125.5038,-110.0864,-86.82057,0.001067912,-0.1257102,0.09433498,0,0.3,0,0,0,0
638224237268244061,19.29561,48.9072,27.61982,8.06318,-15.47933,20.51486,-56.99155,-0.4675641,7.027527,-72.43327,-8.594284,-36.83611,0,0,0,49.39109,5.694821,-27.27652,-125.5038,-110.0864,-86.82057,0.001067912,-0.1257102,0.09433498,0,0.3,0,0,0,0
638224237268583955,20.19089,47.34086,26.10224,10.40703,-14.38065,18.68373,-56.99155,-0.4675641,7.027527,-72.43327,-8.594284,-36.83611,0,0,0,51.43867,1.665649,-28.47515,-125.5038,-110.0864,-86.82057,0.001067912,-0.1257102,0.09433498,0,0.3,0,0,0,0
638224237268923846,20.49717,45.49398,24.23446,11.72544,-12.91575,17.58505,-56.99155,-0.4675641,7.027527,-72.36002,-8.521038,-36.83611,0,0,0,51.89829,-3.146185,-29.52079,-125.5038,-110.0864,-86.82057,0.001067912,-0.1257102,0.09433498,0,0.3,0,0,0,0
638224237269263739,20.52073,44.55886,23.27722,11.87193,-12.40303,17.36532,-56.99155,-0.4675641,7.027527,-72.43327,-8.521038,-36.83611,0,0,0,51.7803,-5.581881,-30.00989,-125.5038,-110.0864,-86.82057,0.001067912,-0.1257102,0.09433498,0,0.3,0,0,0,0
638224237269603631,20.52073,42.52495,21.31605,11.94517,-9.839451,17.29207,-56.99155,-0.4675641,7.027527,-72.43327,-8.521038,-36.83611,0,0,0,51.44302,-10.74469,-30.91097,-125.5038,-110.0864,-86.82057,0.001067912,-0.1257102,0.09433498,0,0.3,0,0,0,0
638224237269953517,20.52073,40.23389,19.42492,11.65219,-7.27587,17.21883,-56.99155,-0.4675641,7.027527,-72.43327,-8.594284,-36.83611,0,0,0,51.23221,-16.27745,-31.47419,-125.5038,-110.0864,-86.82057,0.001067912,-0.1257102,0.09433498,0,0.3,0,0,0,0
638224237270303403,20.59141,37.7558,17.58049,11.13948,-4.492554,17.36532,-56.99155,-0.4675641,7.027527,-72.43327,-8.521038,-36.83611,0,0,0,51.24566,-22.12185,-31.95101,-125.5038,-110.0864,-86.82057,0.001067912,-0.1257102,0.09433498,0,0.3,0,0,0,0
638224237270643298,20.68565,36.44662,16.73999,10.91974,-2.88116,17.6583,-56.99155,-0.4675641,7.027527,-72.43327,-8.594284,-36.90935,0,0,0,51.45895,-25.12914,-32.06458,-125.5038,-110.0864,-86.82057,0.001067912,-0.1257102,0.09433498,0,0.3,0,0,0,0
638224237270983190,21.01549,33.8984,15.24576,10.55352,0.1951368,18.24426,-56.99155,-0.4675641,7.027527,-72.43327,-8.594284,-36.83611,0,0,0,52.26888,-30.93477,-32.29485,-125.5038,-110.0864,-86.82057,0.001067912,-0.1257102,0.09433498,0,0.3,0,0,0,0
638224237271333076,21.58092,31.5372,14.10175,10.40703,3.417924,18.75698,-56.99155,-0.4675641,7.027527,-72.43327,-8.594284,-36.83611,0,0,0,53.75407,-36.23246,-32.45055,-125.5038,-110.0864,-86.82057,0.001067912,-0.1257102,0.09433498,0,0.3,0,0,0,0
638224237271662974,22.005,30.50856,13.6815,10.33378,4.809582,18.90347,-56.99155,-0.4675641,7.027527,-72.43327,-8.594284,-36.90935,0,0,0,54.865,-38.51887,-32.58849,-125.5038,-110.0864,-86.82057,0.001067912,-0.1257102,0.09433498,0,0.3,0,0,0,0
638224237272012857,23.37148,28.80194,13.2379,10.8465,7.446409,19.26969,-56.99155,-0.4675641,7.027527,-72.43327,-8.521038,-36.83611,0,0,0,58.4682,-42.21075,-33.05323,-125.5038,-110.0864,-86.82057,0.001067912,-0.1257102,0.09433498,0,0.3,0,0,0,0
638224237272352754,25.4212,27.7733,13.37798,12.45789,9.570518,19.34294,-56.99155,-0.4675641,7.027527,-72.43327,-8.521038,-36.90935,0,0,0,63.89312,-44.24384,-33.91978,-125.5038,-110.0864,-86.82057,0.001067912,-0.1257102,0.09433498,0,0.3,0,0,0,0
638224237272702640,27.96567,27.3525,14.03171,15.09472,11.03542,19.41618,-56.99155,-0.4675641,7.027527,-72.43327,-8.521038,-36.83611,0,0,0,70.70382,-44.7516,-35.18305,-125.5038,-110.0864,-86.82057,0.001067912,-0.1257102,0.09433498,0,0.3,0,0,0,0
638224237273042530,29.35571,27.32912,14.63874,16.55962,11.3284,19.34294,-56.99155,-0.4675641,7.027527,-72.43327,-8.594284,-36.90935,0,0,0,74.5967,-44.45013,-35.72258,-125.5038,-110.0864,-86.82057,0.001067912,-0.1257102,0.09433498,0,0.3,0,0,0,0
638224237273382423,32.39495,27.49277,16.55321,20.36837,11.18191,18.90347,-56.99155,-0.4675641,7.027527,-72.36002,-8.521038,-36.83611,0,0,0,83.7289,-42.91414,-36.38865,-125.5038,-110.0864,-86.82057,0.001067912,-0.1257102,0.09433498,0,0.3,0,0,0,0
638224237273722315,34.96298,28.19411,18.56108,25.05606,10.59595,17.73154,-56.99155,-0.4675641,7.027527,-72.43327,-8.594284,-36.90935,0,0,0,91.67358,-40.06121,-37.24637,-125.5038,-110.0864,-86.82057,0.001067912,-0.1257102,0.09433498,0,0.3,0,0,0,0
638224237274072201,35.88182,28.94222,19.58836,27.32666,10.22972,16.99909,-56.99155,-0.4675641,7.027527,-72.43327,-8.594284,-36.83611,0,0,0,94.60054,-37.75074,-37.57714,-125.5038,-110.0864,-86.82057,0.001067912,-0.1257102,0.09433498,0,0.3,0,0,0,0
638224237274402097,37.03626,31.49044,21.82969,31.57488,8.911312,15.24121,-56.99155,-0.4675641,7.027527,-72.43327,-8.594284,-36.90935,0,0,0,98.35725,-30.78169,-37.99723,-125.5038,-110.0864,-86.82057,0.001067912,-0.1257102,0.09433498,0,0.3,0,0,0,0
638224237274741989,37.2483,34.6465,23.81421,34.87091,6.640712,13.92279,-56.99155,-0.4675641,7.027527,-72.43327,-8.521038,-36.83611,0,0,0,98.99001,-22.8355,-38.1635,-125.5038,-110.0864,-86.82057,0.001067912,-0.1257102,0.09433498,0,0.3,0,0,0,0
638224237275081879,36.8949,37.7558,25.42517,37.288,3.63766,12.82412,-56.99155,-0.4675641,7.027527,-72.43327,-8.594284,-36.83611,0,0,0,97.66575,-15.43478,-38.24732,-125.5038,-110.0864,-86.82057,0.001067912,-0.1257102,0.09433498,0,0.3,0,0,0,0
638224237275411779,36.47082,39.22863,25.98551,38.24019,1.879776,12.3114,-56.99155,-0.4675641,7.027527,-72.43327,-8.594284,-36.83611,0,0,0,96.13042,-12.18624,-38.29872,-125.5038,-110.0864,-86.82057,0.001067912,-0.1257102,0.09433498,0,0.3,0,0,0,0
638224237275751665,35.3635,41.49631,26.35906,39.19238,-1.416257,11.57895,-56.99155,-0.4675641,7.027527,-72.36002,-8.521038,-36.83611,0,0,0,92.07272,-7.781544,-38.61616,-125.5038,-110.0864,-86.82057,0.001067912,-0.1257102,0.09433498,0,0.3,0,0,0,0
638224237276091558,34.16194,42.73536,26.05555,39.11913,-4.126328,11.28597,-56.99155,-0.4675641,7.027527,-72.43327,-8.594284,-36.90935,0,0,0,87.89017,-5.954408,-38.83859,-125.5038,-110.0864,-86.82057,0.001067912,-0.1257102,0.09433498,0,0.3,0,0,0,0
638224237276431451,33.54939,42.94576,25.51856,38.75291,-5.371496,11.28597,-56.99155,-0.4675641,7.027527,-72.43327,-8.594284,-36.90935,0,0,0,85.6946,-6.139029,-39.12172,-125.5038,-110.0864,-86.82057,0.001067912,-0.1257102,0.09433498,0,0.3,0,0,0,0
638224237276771338,32.46563,42.73536,23.86091,37.50774,-6.836399,11.28597,-56.99155,-0.4675641,7.027527,-72.43327,-8.594284,-36.90935,0,0,0,81.53221,-8.109552,-40.20047,-125.5038,-110.0864,-86.82057,0.001067912,-0.1257102,0.09433498,0,0.3,0,0,0,0
638224237277111232,31.33475,41.9405,21.89973,35.8231,-7.202625,12.01842,-56.99155,-0.4675641,7.027527,-72.36002,-8.594284,-36.83611,0,0,0,77.44827,-11.25159,-41.14383,-125.5038,-110.0864,-86.82057,0.001067912,-0.1257102,0.09433498,0,0.3,0,0,0,0
638224237277461121,30.83999,41.30928,21.03589,35.0174,-6.98289,12.67763,-56.99155,-0.4675641,7.027527,-72.43327,-8.594284,-36.83611,0,0,0,75.88804,-13.08554,-41.24841,-125.5038,-110.0864,-86.82057,0.001067912,-0.1257102,0.09433498,0,0.3,0,0,0,0
638224237277801011,29.94471,39.83646,19.37823,33.33276,-6.543418,14.43551,-56.99155,-0.4675641,7.027527,-72.43327,-8.594284,-36.83611,0,0,0,73.1985,-17.02176,-41.28346,-125.5038,-110.0864,-86.82057,0.001067912,-0.1257102,0.09433498,0,0.3,0,0,0,0
638224237278140908,29.04943,38.03634,17.4871,31.86786,-5.737722,16.70611,-56.99155,-0.4675641,7.027527,-72.43327,-8.521038,-36.90935,0,0,0,70.45516,-21.6721,-41.50374,-125.5038,-110.0864,-86.82057,0.001067912,-0.1257102,0.09433498,0,0.3,0,0,0,0
638224237278490791,28.24839,35.95568,15.57263,30.40295,-4.346064,18.97671,-56.99155,-0.4675641,7.027527,-72.43327,-8.594284,-36.83611,0,0,0,68.03242,-26.80716,-41.727,-125.5038,-110.0864,-86.82057,0.001067912,-0.1257102,0.09433498,0,0.3,0,0,0,0
638224237278830685,27.87143,34.8569,14.63874,29.74375,-3.613612,20.07539,-56.99155,-0.4675641,7.027527,-72.43327,-8.594284,-36.83611,0,0,0,66.90952,-29.4579,-41.82741,-125.5038,-110.0864,-86.82057,0.001067912,-0.1257102,0.09433498,0,0.3,0,0,0,0
638224237279160579,27.11752,32.30868,12.65422,28.42534,-1.782483,21.97976,-56.99155,-0.4675641,7.027527,-72.43327,-8.521038,-36.90935,0,0,0,64.68837,-35.48796,-42.03307,-125.5038,-110.0864,-86.82057,0.001067912,-0.1257102,0.09433498,0,0.3,0,0,0,0
638224237279510466,26.52852,29.64356,11.01991,27.32666,0.4148723,23.95738,-56.99155,-0.4675641,7.027527,-72.43327,-8.594284,-36.90935,0,0,0,63.14949,-41.58585,-41.84942,-125.5038,-110.0864,-86.82057,0.001067912,-0.1257102,0.09433498,0,0.3,0,0,0,0
638224237279850362,26.22224,28.35776,10.31949,26.96043,1.733285,25.20255,-56.99155,-0.4675641,7.027527,-72.43327,-8.594284,-36.83611,0,0,0,62.4056,-44.50496,-41.64923,-125.5038,-110.0864,-86.82057,0.001067912,-0.1257102,0.09433498,0,0.3,0,0,0,0
638224237280190250,25.32696,25.78616,9.035392,26.37447,4.370111,27.61964,-56.99155,-0.4675641,7.027527,-72.43327,-8.594284,-36.90935,0,0,0,60.32317,-50.33627,-40.8906,-125.5038,-110.0864,-86.82057,0.001067912,-0.1257102,0.09433498,0,0.3,0,0,0,0
638224237280530143,23.79556,23.68212,7.564514,25.42229,6.640712,29.74375,-56.99155,-0.4675641,7.027527,-72.43327,-8.594284,-36.83611,0,0,0,56.35522,-55.27786,-40.54878,-125.5038,-110.0864,-86.82057,0.001067912,-0.1257102,0.09433498,0,0.3,0,0,0,0
638224237280870037,22.78248,22.81713,6.840749,24.68983,7.812634,30.4762,-56.99155,-0.4675641,7.027527,-72.43327,-8.594284,-36.83611,0,0,0,53.74739,-57.33874,-40.38049,-125.5038,-110.0864,-86.82057,0.001067912,-0.1257102,0.09433498,0,0.3,0,0,0,0
638224237281209924,20.26157,21.57808,5.766775,22.56572,10.00999,31.50163,-56.99155,-0.4675641,7.027527,-72.43327,-8.594284,-36.83611,0,0,0,47.58368,-60.28316,-39.44894,-125.5038,-110.0864,-86.82057,0.001067912,-0.1257102,0.09433498,0,0.3,0,0,0,0
638224237281549818,17.10453,21.15727,5.066357,19.48943,11.62138,32.16084,-56.99155,-0.4675641,7.027527,-72.43327,-8.594284,-36.83611,0,0,0,40.04016,-61.3491,-38.23402,-125.5038,-110.0864,-86.82057,0.001067912,-0.1257102,0.09433498,0,0.3,0,0,0,0
638224237281889711,13.57054,21.18065,4.78619,15.53419,12.57357,32.67356,-56.99155,-0.4675641,7.027527,-72.43327,-8.594284,-36.83611,0,0,0,31.78654,-61.35436,-36.66396,-125.5038,-110.0864,-86.82057,0.001067912,-0.1257102,0.09433498,0,0.3,0,0,0,0
638224237282229600,11.63862,21.25079,4.762842,13.04385,12.79331,32.82005,-56.99155,-0.4675641,7.027527,-72.43327,-8.594284,-36.90935,0,0,0,27.30624,-61.20671,-35.77812,-125.5038,-110.0864,-86.82057,0.001067912,-0.1257102,0.09433498,0,0.3,0,0,0,0
638224237282569491,8.128186,21.95213,4.926273,8.06318,12.64682,33.03978,-56.99155,-0.4675641,7.027527,-72.43327,-8.594284,-36.90935,0,0,0,19.10621,-59.65693,-34.57459,-125.5038,-110.0864,-86.82057,0.001067912,-0.1257102,0.09433498,0,0.3,0,0,0,0
638224237282899385,5.348111,23.51847,5.696733,2.716283,11.84112,33.11303,-56.99155,-0.4675641,7.027527,-72.43327,-8.594284,-36.83611,0,0,0,12.63039,-56.1288,-33.43037,-125.5038,-110.0864,-86.82057,0.001067912,-0.1257102,0.09433498,0,0.3,0,0,0,0
638224237283239280,4.523513,24.57049,6.257067,0.2259469,11.25516,33.11303,-56.99155,-0.4675641,7.027527,-72.43327,-8.521038,-36.90935,0,0,0,10.71101,-53.75703,-32.96408,-125.5038,-110.0864,-86.82057,0.001067912,-0.1257102,0.09433498,0,0.3,0,0,0,0
638224237283579170,4.075873,26.95507,7.564514,-3.729292,9.790254,33.11303,-56.99155,-0.4675641,7.027527,-72.43327,-8.521038,-36.83611,0,0,0,9.696218,-48.39305,-32.27735,-125.5038,-110.0864,-86.82057,0.001067912,-0.1257102,0.09433498,0,0.3,0,0,0,0
638224237283929059,4.452833,29.78383,8.942002,-6.219628,8.03237,32.67356,-56.99155,-0.4675641,7.027527,-72.43327,-8.521038,-36.83611,0,0,0,10.59472,-42.14047,-32.29948,-125.5038,-110.0864,-86.82057,0.001067912,-0.1257102,0.09433498,0,0.3,0,0,0,0
638224237284258954,4.759112,31.06963,9.549031,-6.878834,7.153428,32.30733,-56.99155,-0.4675641,7.027527,-72.43327,-8.594284,-36.83611,0,0,0,11.31179,-39.33311,-32.47871,-125.5038,-110.0864,-86.82057,0.001067912,-0.1257102,0.09433498,0,0.3,0,0,0,0
638224237284608841,5.79575,33.96853,10.94987,-7.611286,5.102563,31.35514,-56.99155,-0.4675641,7.027527,-72.43327,-8.521038,-36.83611,0,0,0,13.72584,-33.06456,-33.12187,-125.5038,-110.0864,-86.82057,0.001067912,-0.1257102,0.09433498,0,0.3,0,0,0,0
638224237284948732,7.209348,36.54013,12.30401,-7.318305,2.978453,30.62269,-56.99155,-0.4675641,7.027527,-72.43327,-8.594284,-36.83611,0,0,0,17.01155,-27.54236,-33.86622,-125.5038,-110.0864,-86.82057,0.001067912,-0.1257102,0.09433498,0,0.3,0,0,0,0
638224237285298624,9.023465,39.0416,13.77489,-6.219628,0.7810982,29.74375,-56.99155,-0.4675641,7.027527,-72.43327,-8.594284,-36.83611,0,0,0,21.22394,-22.16959,-34.7016,-125.5038,-110.0864,-86.82057,0.001067912,-0.1257102,0.09433498,0,0.3,0,0,0,0
638224237285638514,9.942304,40.14038,14.42861,-5.560421,-0.3908245,29.23104,-56.99155,-0.4675641,7.027527,-72.43327,-8.594284,-36.83611,0,0,0,23.33779,-19.82825,-35.21095,-125.5038,-110.0864,-86.82057,0.001067912,-0.1257102,0.09433498,0,0.3,0,0,0,0
638224237285988405,12.13338,42.12752,15.8061,-3.729292,-2.514934,27.98586,-56.99155,-0.4675641,7.027527,-72.43327,-8.521038,-36.83611,0,0,0,28.42201,-15.509,-36.14898,-125.5038,-110.0864,-86.82057,0.001067912,-0.1257102,0.09433498,0,0.3,0,0,0,0
638224237286328296,14.58362,43.64711,17.0902,-1.238957,-4.346064,26.7407,-56.99155,-0.4675641,7.027527,-72.43327,-8.594284,-36.90935,0,0,0,34.16351,-12.07158,-37.04033,-125.5038,-110.0864,-86.82057,0.001067912,-0.1257102,0.09433498,0,0.3,0,0,0,0
638224237286668182,15.90297,44.3017,17.72057,0.299192,-5.15176,26.08149,-56.99155,-0.4675641,7.027527,-72.36002,-8.521038,-36.83611,0,0,0,37.27163,-10.53634,-37.53271,-125.5038,-110.0864,-86.82057,0.001067912,-0.1257102,0.09433498,0,0.3,0,0,0,0
638224237287008074,18.65949,45.35371,18.95798,3.595225,-6.98289,24.83632,-56.99155,-0.4675641,7.027527,-72.43327,-8.594284,-36.90935,0,0,0,43.84208,-7.893706,-38.52197,-125.5038,-110.0864,-86.82057,0.001067912,-0.1257102,0.09433498,0,0.3,0,0,0,0
638224237287357977,21.34533,46.0083,20.14869,6.891257,-8.228058,22.71221,-56.99155,-0.4675641,7.027527,-72.43327,-8.521038,-36.83611,0,0,0,50.43136,-5.901843,-39.30197,-125.5038,-110.0864,-86.82057,0.001067912,-0.1257102,0.09433498,0,0.3,0,0,0,0
638224237287707853,23.93692,46.35898,21.3861,10.11404,-9.106999,20.07539,-56.99155,-0.4675641,7.027527,-72.43327,-8.594284,-36.83611,0,0,0,57.06848,-4.315648,-39.79138,-125.5038,-110.0864,-86.82057,0.001067912,-0.1257102,0.09433498,0,0.3,0,0,0,0
638224237288047747,25.13848,46.38236,21.96978,11.72544,-9.473226,18.68373,-56.99155,-0.4675641,7.027527,-72.43327,-8.521038,-36.83611,0,0,0,60.27129,-3.776307,-39.90919,-125.5038,-110.0864,-86.82057,0.001067912,-0.1257102,0.09433498,0,0.3,0,0,0,0
638224237288377641,27.56516,46.35898,23.13714,15.16796,-9.985942,15.68068,-56.99155,-0.4675641,7.027527,-72.43327,-8.594284,-36.83611,0,0,0,66.83485,-2.771807,-40.31713,-125.5038,-110.0864,-86.82057,0.001067912,-0.1257102,0.09433498,0,0.3,0,0,0,0
638224237288727526,29.56775,46.10182,24.07103,18.02452,-10.35217,12.97061,-56.99155,-0.4675641,7.027527,-72.43327,-8.594284,-36.90935,0,0,0,72.59371,-2.293357,-40.63915,-125.5038,-110.0864,-86.82057,0.001067912,-0.1257102,0.09433498,0,0.3,0,0,0,0
638224237289067420,30.48659,45.7979,24.39789,19.34294,-10.42541,11.79868,-56.99155,-0.4675641,7.027527,-72.43327,-8.594284,-36.90935,0,0,0,75.11296,-2.49507,-40.76522,-125.5038,-110.0864,-86.82057,0.001067912,-0.1257102,0.09433498,0,0.3,0,0,0,0
638224237289417311,32.08867,44.74588,24.67806,21.83327,-10.35217,9.821064,-56.99155,-0.4675641,7.027527,-72.43327,-8.594284,-36.90935,0,0,0,79.88979,-3.94734,-40.93879,-125.5038,-110.0864,-86.82057,0.001067912,-0.1257102,0.09433498,0,0.3,0,0,0,0
638224237289757197,33.45514,43.36657,24.67806,24.32361,-9.985942,8.35616,-56.99155,-0.4675641,7.027527,-72.43327,-8.521038,-36.83611,0,0,0,84.13605,-6.254327,-41.01781,-125.5038,-110.0864,-86.82057,0.001067912,-0.1257102,0.09433498,0,0.3,0,0,0,0
638224237290107087,34.44466,41.6132,24.11773,26.66745,-9.033754,7.550464,-56.99155,-0.4675641,7.027527,-72.43327,-8.594284,-36.90935,0,0,0,87.20971,-9.802052,-41.19617,-125.5038,-110.0864,-86.82057,0.001067912,-0.1257102,0.09433498,0,0.3,0,0,0,0
638224237290446981,34.75095,40.51442,23.41731,27.69288,-8.301303,7.403974,-56.99155,-0.4675641,7.027527,-72.43327,-8.594284,-36.83611,0,0,0,87.99532,-12.38715,-41.50973,-125.5038,-110.0864,-86.82057,0.001067912,-0.1257102,0.09433498,0,0.3,0,0,0,0
638224237290786869,35.08078,38.15323,21.61957,28.86481,-6.763155,7.330729,-56.99155,-0.4675641,7.027527,-72.43327,-8.594284,-36.83611,0,0,0,88.50455,-18.23974,-42.33094,-125.5038,-110.0864,-86.82057,0.001067912,-0.1257102,0.09433498,0,0.3,0,0,0,0
638224237291116763,35.22214,35.37122,19.72844,29.30428,-4.639044,7.403974,-56.99155,-0.4675641,7.027527,-72.43327,-8.594284,-36.83611,0,0,0,88.67503,-24.98023,-42.7482,-125.5038,-110.0864,-86.82057,0.001067912,-0.1257102,0.09433498,0,0.3,0,0,0,0
638224237291456661,35.2457,33.82826,18.72451,29.30428,-3.467122,7.403974,-56.99155,-0.4675641,7.027527,-72.43327,-8.594284,-36.83611,0,0,0,88.63025,-28.70552,-42.92114,-125.5038,-110.0864,-86.82057,0.001067912,-0.1257102,0.09433498,0,0.3,0,0,0,0
638224237291796551,35.2457,30.74234,16.90342,29.23104,-0.8302955,7.550464,-56.99155,-0.4675641,7.027527,-72.43327,-8.521038,-36.90935,0,0,0,88.51527,-36.07317,-43.08384,-125.5038,-110.0864,-86.82057,0.001067912,-0.1257102,0.09433498,0,0.3,0,0,0,0
638224237292126441,35.22214,27.70317,15.50258,29.15779,1.440305,8.35616,-56.99155,-0.4675641,7.027527,-72.36002,-8.521038,-36.83611,0,0,0,88.64954,-43.15529,-42.7843,-125.5038,-110.0864,-86.82057,0.001067912,-0.1257102,0.09433498,0,0.3,0,0,0,0
638224237292466338,35.17502,25.92643,14.82551,29.15779,2.831963,8.868877,-56.99155,-0.4675641,7.027527,-72.43327,-8.521038,-36.83611,0,0,0,88.74465,-47.25788,-42.42992,-125.5038,-110.0864,-86.82057,0.001067912,-0.1257102,0.09433498,0,0.3,0,0,0,0
638224237292806225,35.0101,22.55997,13.70484,29.08454,5.249053,9.747819,-56.99155,-0.4675641,7.027527,-72.36002,-8.594284,-36.90935,0,0,0,88.77709,-55.04366,-41.61073,-125.5038,-110.0864,-86.82057,0.001067912,-0.1257102,0.09433498,0,0.3,0,0,0,0
638224237293156129,34.72738,19.33377,12.74761,28.71832,7.519653,10.40703,-56.99155,-0.4675641,7.027527,-72.43327,-8.594284,-36.90935,0,0,0,88.44416,-62.56485,-40.75075,-125.5038,-110.0864,-86.82057,0.001067912,-0.1257102,0.09433498,0,0.3,0,0,0,0
638224237293496003,34.25618,16.06083,11.97715,28.13236,10.00999,10.8465,-56.99155,-0.4675641,7.027527,-72.43327,-8.521038,-36.83611,0,0,0,87.70912,-70.20473,-39.56178,-125.5038,-110.0864,-86.82057,0.001067912,-0.1257102,0.09433498,0,0.3,0,0,0,0
638224237293835899,33.99702,14.40097,11.69698,27.83937,11.25516,11.06623,-56.99155,-0.4675641,7.027527,-72.43327,-8.594284,-36.83611,0,0,0,87.3363,-74.0658,-38.8541,-125.5038,-110.0864,-86.82057,0.001067912,-0.1257102,0.09433498,0,0.3,0,0,0,0
638224237294185785,33.33735,11.36181,11.30008,26.96043,13.15953,11.5057,-56.99155,-0.4675641,7.027527,-72.43327,-8.594284,-36.83611,0,0,0,86.20861,-81.14447,-37.29616,-125.5038,-110.0864,-86.82057,0.001067912,-0.1257102,0.09433498,0,0.3,0,0,0,0
638224237294525674,32.46563,8.533044,10.90317,25.78851,15.13715,11.87193,-56.99155,-0.4675641,7.027527,-72.43327,-8.594284,-36.83611,0,0,0,84.32866,-87.80635,-35.80511,-125.5038,-110.0864,-86.82057,0.001067912,-0.1257102,0.09433498,0,0.3,0,0,0,0
638224237294865569,31.99443,7.15373,10.80978,25.05606,16.16258,11.94517,-56.99155,-0.4675641,7.027527,-72.43327,-8.594284,-36.83611,0,0,0,83.35477,-91.0274,-34.92559,-125.5038,-110.0864,-86.82057,0.001067912,-0.1257102,0.09433498,0,0.3,0,0,0,0
638224237295205463,30.91067,4.699019,10.73974,23.44467,17.99371,11.94517,-56.99155,-0.4675641,7.027527,-72.43327,-8.521038,-36.90935,0,0,0,81.03701,-96.73999,-33.00423,-125.5038,-110.0864,-86.82057,0.001067912,-0.1257102,0.09433498,0,0.3,0,0,0,0
638224237295545353,29.56775,2.454711,10.7164,21.61354,19.67835,11.94517,-56.99155,-0.4675641,7.027527,-72.43327,-8.594284,-36.83611,0,0,0,77.97721,-101.963,-30.90522,-125.5038,-110.0864,-86.82057,0.001067912,-0.1257102,0.09433498,0,0.3,0,0,0,0
638224237295885247,28.13059,0.6779679,10.7164,19.63592,20.85028,11.94517,-56.99155,-0.4675641,7.027527,-72.43327,-8.521038,-36.90935,0,0,0,74.55878,-106.0965,-28.89307,-125.5038,-110.0864,-86.82057,0.001067912,-0.1257102,0.09433498,0,0.3,0,0,0,0
638224237296225135,27.32955,-0.116891,10.7164,18.39075,21.28975,11.94517,-56.99155,-0.4675641,7.027527,-72.43327,-8.594284,-36.83611,0,0,0,72.60601,-107.9464,-27.8563,-125.5038,-110.0864,-86.82057,0.001067912,-0.1257102,0.09433498,0,0.3,0,0,0,0
638224237296585024,25.49188,-1.052019,10.76309,15.60743,21.94895,11.87193,-56.99155,-0.4675641,7.027527,-72.43327,-8.594284,-36.90935,0,0,0,68.09971,-110.1024,-25.52389,-125.5038,-110.0864,-86.82057,0.001067912,-0.1257102,0.09433498,0,0.3,0,0,0,0
638224237296924914,23.72488,-1.005263,10.76309,12.82412,22.24193,11.65219,-56.99155,-0.4675641,7.027527,-72.43327,-8.594284,-36.90935,0,0,0,63.66407,-109.9936,-23.49016,-125.5038,-110.0864,-86.82057,0.001067912,-0.1257102,0.09433498,0,0.3,0,0,0,0
638224237297254807,22.90028,-1.028641,10.92652,11.65219,22.31518,11.65219,-56.99155,-0.4675641,7.027527,-72.43327,-8.594284,-36.83611,0,0,0,61.71772,-109.9764,-22.2457,-125.5038,-110.0864,-86.82057,0.001067912,-0.1257102,0.09433498,0,0.3,0,0,0,0
638224237297594700,21.41601,-1.028641,11.5569,9.235103,22.31518,11.65219,-56.99155,-0.4675641,7.027527,-72.43327,-8.594284,-36.83611,0,0,0,58.43795,-109.6904,-19.35645,-125.5038,-110.0864,-86.82057,0.001067912,-0.1257102,0.09433498,0,0.3,0,0,0,0
638224237297934589,20.30869,-1.028641,12.18727,7.403974,22.24193,11.65219,-56.99155,-0.4675641,7.027527,-72.43327,-8.594284,-36.83611,0,0,0,56.04603,-109.3886,-16.90845,-125.5038,-110.0864,-86.82057,0.001067912,-0.1257102,0.09433498,0,0.3,0,0,0,0
638224237298274481,19.95529,-1.028641,12.53748,6.598277,22.16869,11.65219,-56.99155,-0.4675641,7.027527,-72.43327,-8.594284,-36.83611,0,0,0,55.38261,-109.2141,-15.81727,-125.5038,-110.0864,-86.82057,0.001067912,-0.1257102,0.09433498,0,0.3,0,0,0,0
638224237298614376,19.76681,-1.028641,13.30794,5.499599,22.0222,11.65219,-56.99155,-0.4675641,7.027527,-72.43327,-8.521038,-36.83611,0,0,0,55.47161,-108.8131,-13.99116,-125.5038,-110.0864,-86.82057,0.001067912,-0.1257102,0.09433498,0,0.3,0,0,0,0
638224237298954266,19.81393,-1.028641,14.14844,4.913638,21.87571,11.65219,-56.99155,-0.4675641,7.027527,-72.43327,-8.594284,-36.90935,0,0,0,56.24266,-108.3488,-12.24905,-125.5038,-110.0864,-86.82057,0.001067912,-0.1257102,0.09433498,0,0.3,0,0,0,0
638224237299304155,20.04953,-1.028641,15.10568,4.547412,21.72922,11.65219,-56.99155,-0.4675641,7.027527,-72.43327,-8.594284,-36.83611,0,0,0,57.6231,-107.7863,-10.45664,-125.5038,-110.0864,-86.82057,0.001067912,-0.1257102,0.09433498,0,0.3,0,0,0,0
638224237299644047,20.26157,-1.028641,15.59597,4.547412,21.72922,11.65219,-56.99155,-0.4675641,7.027527,-72.43327,-8.594284,-36.83611,0,0,0,58.5881,-107.4842,-9.638668,-125.5038,-110.0864,-86.82057,0.001067912,-0.1257102,0.09433498,0,0.3,0,0,0,0
638224237299983940,20.87413,-1.028641,16.6466,4.767147,21.65597,11.65219,-56.99155,-0.4675641,7.027527,-72.43327,-8.594284,-36.83611,0,0,0,61.11853,-106.8052,-8.079244,-125.5038,-110.0864,-86.82057,0.001067912,-0.1257102,0.09433498,0,0.3,0,0,0,0
638224237300323828,21.72228,-1.005263,17.58049,5.279863,21.65597,11.65219,-56.99155,-0.4675641,7.027527,-72.43327,-8.594284,-36.90935,0,0,0,64.25344,-106.1112,-7.070856,-125.5038,-110.0864,-86.82057,0.001067912,-0.1257102,0.09433498,0,0.3,0,0,0,0
638224237300663722,22.2406,-1.005263,18.00074,5.572844,21.58273,11.5057,-56.99155,-0.4675641,7.027527,-72.43327,-8.594284,-36.83611,0,0,0,66.06228,-105.8124,-6.79668,-125.5038,-110.0864,-86.82057,0.001067912,-0.1257102,0.09433498,0,0.3,0,0,0,0
638224237301003615,23.5364,-1.005263,18.88794,6.525032,21.36299,10.91974,-56.99155,-0.4675641,7.027527,-72.43327,-8.594284,-36.83611,0,0,0,70.48095,-105.1591,-6.536116,-125.5038,-110.0864,-86.82057,0.001067912,-0.1257102,0.09433498,0,0.3,0,0,0,0
638224237301343501,24.99712,-1.005263,19.86852,7.696954,20.99677,9.528083,-56.99155,-0.4675641,7.027527,-72.43327,-8.521038,-36.83611,0,0,0,75.49269,-104.4019,-6.434138,-125.5038,-110.0864,-86.82057,0.001067912,-0.1257102,0.09433498,0,0.3,0,0,0,0
638224237301683395,26.55208,-1.005263,20.98919,9.015368,20.70378,7.696954,-56.99155,-0.4675641,7.027527,-72.43327,-8.594284,-36.83611,0,0,0,80.95117,-103.4915,-6.355947,-125.5038,-110.0864,-86.82057,0.001067912,-0.1257102,0.09433498,0,0.3,0,0,0,0
638224237302023284,27.306,-1.005263,21.52618,9.674574,20.48405,6.744767,-56.99155,-0.4675641,7.027527,-72.43327,-8.594284,-36.90935,0,0,0,83.61,-103.0384,-6.400171,-125.5038,-110.0864,-86.82057,0.001067912,-0.1257102,0.09433498,0,0.3,0,0,0,0
638224237302363177,29.00231,-1.005263,22.71689,11.28597,20.19107,5.060128,-56.99155,-0.4675641,7.027527,-72.36002,-8.594284,-36.83611,0,0,0,89.61209,-101.9948,-6.700884,-125.5038,-110.0864,-86.82057,0.001067912,-0.1257102,0.09433498,0,0.3,0,0,0,0
638224237302713078,30.62795,-1.005263,23.97764,13.26359,20.04458,3.66847,-56.99155,-0.4675641,7.027527,-72.43327,-8.594284,-36.90935,0,0,0,95.5343,-100.832,-6.99001,-125.5038,-110.0864,-86.82057,0.001067912,-0.1257102,0.09433498,0,0.3,0,0,0,0
638224237303052957,31.47611,-1.005263,24.65471,14.28902,20.04458,3.082508,-56.99155,-0.4675641,7.027527,-72.43327,-8.594284,-36.90935,0,0,0,98.66219,-100.1831,-7.197135,-125.5038,-110.0864,-86.82057,0.001067912,-0.1257102,0.09433498,0,0.3,0,0,0,0
638224237303382854,33.31378,-0.9818845,26.28902,16.48637,19.89809,2.203566,-56.99155,-0.4675641,7.027527,-72.43327,-8.594284,-36.83611,0,0,0,105.6658,-98.4929,-7.573558,-125.5038,-110.0864,-86.82057,0.001067912,-0.1257102,0.09433498,0,0.3,0,0,0,0
638224237303722742,35.1279,-0.9117499,28.04007,18.83022,19.82484,1.617605,-56.99155,-0.4675641,7.027527,-72.43327,-8.521038,-36.83611,0,0,0,112.7903,-96.46917,-8.031634,-125.5038,-110.0864,-86.82057,0.001067912,-0.1257102,0.09433498,0,0.3,0,0,0,0
638224237304062638,36.09386,-0.7247244,29.02065,20.29512,19.7516,1.324624,-56.99155,-0.4675641,7.027527,-72.43327,-8.594284,-36.83611,0,0,0,116.6618,-94.9439,-8.330672,-125.5038,-110.0864,-86.82057,0.001067912,-0.1257102,0.09433498,0,0.3,0,0,0,0
638224237304402526,37.86086,0.0233782,30.88843,23.51791,19.38537,1.178134,-56.99155,-0.4675641,7.027527,-72.43327,-8.594284,-36.83611,0,0,0,123.8586,-91.03237,-9.022171,-125.5038,-110.0864,-86.82057,0.001067912,-0.1257102,0.09433498,0,0.3,0,0,0,0
638224237304742419,39.53362,1.309179,32.61613,27.39991,18.65292,1.251379,-56.99155,-0.4675641,7.027527,-72.43327,-8.594284,-36.83611,0,0,0,130.611,-85.92408,-10.09549,-125.5038,-110.0864,-86.82057,0.001067912,-0.1257102,0.09433498,0,0.3,0,0,0,0
638224237305082323,40.78229,2.99241,34.20374,31.20865,17.33451,1.324624,-56.99155,-0.4675641,7.027527,-72.43327,-8.594284,-36.83611,0,0,0,135.9472,-79.97494,-10.7552,-125.5038,-110.0864,-86.82057,0.001067912,-0.1257102,0.09433498,0,0.3,0,0,0,0
638224237305422200,41.20637,3.834026,34.88082,33.03978,16.74854,1.397869,-56.99155,-0.4675641,7.027527,-72.36002,-8.594284,-36.90935,0,0,0,137.8882,-77.12615,-10.87693,-125.5038,-110.0864,-86.82057,0.001067912,-0.1257102,0.09433498,0,0.3,0,0,0,0
638224237305762095,41.70113,5.938064,35.97814,36.84853,15.35689,1.69085,-56.99155,-0.4675641,7.027527,-72.43327,-8.594284,-36.90935,0,0,0,140.3497,-70.76682,-10.83117,-125.5038,-110.0864,-86.82057,0.001067912,-0.1257102,0.09433498,0,0.3,0,0,0,0
638224237306111980,41.74825,8.20575,36.09487,40.21781,13.96523,2.716283,-56.99155,-0.4675641,7.027527,-72.43327,-8.594284,-36.83611,0,0,0,140.1929,-65.36967,-11.26749,-125.5038,-110.0864,-86.82057,0.001067912,-0.1257102,0.09433498,0,0.3,0,0,0,0
638224237306441878,41.65401,9.37466,36.07153,41.8292,13.23278,3.741715,-56.99155,-0.4675641,7.027527,-72.43327,-8.594284,-36.90935,0,0,0,139.6288,-62.71315,-11.38055,-125.5038,-110.0864,-86.82057,0.001067912,-0.1257102,0.09433498,0,0.3,0,0,0,0
638224237306781768,41.13569,11.57221,35.4645,44.61252,11.47489,6.598277,-56.99155,-0.4675641,7.027527,-72.43327,-8.521038,-36.90935,0,0,0,136.8374,-58.50989,-11.68739,-125.5038,-110.0864,-86.82057,0.001067912,-0.1257102,0.09433498,0,0.3,0,0,0,0
638224237307121656,40.38177,13.55936,33.99362,46.22392,9.790254,9.454838,-56.99155,-0.4675641,7.027527,-72.43327,-8.594284,-36.83611,0,0,0,132.2897,-55.94621,-12.80996,-125.5038,-110.0864,-86.82057,0.001067912,-0.1257102,0.09433498,0,0.3,0,0,0,0
638224237307471548,39.93414,14.51786,33.01303,46.73663,8.911312,10.91974,-56.99155,-0.4675641,7.027527,-72.43327,-8.594284,-36.83611,0,0,0,129.5015,-55.04177,-13.65529,-125.5038,-110.0864,-86.82057,0.001067912,-0.1257102,0.09433498,0,0.3,0,0,0,0
638224237307811438,38.70901,16.38812,30.84174,46.88312,6.933692,14.36226,-56.99155,-0.4675641,7.027527,-72.43327,-8.594284,-36.90935,0,0,0,122.7571,-53.51882,-15.17343,-125.5038,-110.0864,-86.82057,0.001067912,-0.1257102,0.09433498,0,0.3,0,0,0,0
638224237308151331,37.2483,17.65055,28.88057,46.15067,5.175808,17.95128,-56.99155,-0.4675641,7.027527,-72.43327,-8.594284,-36.90935,0,0,0,115.8962,-52.98191,-15.92932,-125.5038,-110.0864,-86.82057,0.001067912,-0.1257102,0.09433498,0,0.3,0,0,0,0
638224237308501219,35.69334,18.53891,26.68592,44.68576,4.077131,21.17406,-56.99155,-0.4675641,7.027527,-72.43327,-8.521038,-36.90935,0,0,0,108.7064,-53.39734,-17.0319,-125.5038,-110.0864,-86.82057,0.001067912,-0.1257102,0.09433498,0,0.3,0,0,0,0
638224237308841109,34.93942,18.7727,25.61195,43.66033,3.564415,22.71221,-56.99155,-0.4675641,7.027527,-72.43327,-8.594284,-36.90935,0,0,0,105.3213,-53.98338,-17.59661,-125.5038,-110.0864,-86.82057,0.001067912,-0.1257102,0.09433498,0,0.3,0,0,0,0
638224237309181003,33.40803,18.84283,23.37061,41.09675,2.831963,25.78851,-56.99155,-0.4675641,7.027527,-72.36002,-8.594284,-36.83611,0,0,0,98.61227,-55.99124,-18.84221,-125.5038,-110.0864,-86.82057,0.001067912,-0.1257102,0.09433498,0,0.3,0,0,0,0
638224237309530935,31.94731,18.81945,21.12928,38.45993,2.685472,28.27885,-56.99155,-0.4675641,7.027527,-72.43327,-8.594284,-36.90935,0,0,0,92.22377,-58.01782,-20.45864,-125.5038,-110.0864,-86.82057,0.001067912,-0.1257102,0.09433498,0,0.3,0,0,0,0
638224237309880776,30.27455,18.67918,18.70116,35.45687,2.685472,30.18322,-56.99155,-0.4675641,7.027527,-72.43327,-8.594284,-36.83611,0,0,0,85.24184,-60.25177,-22.3272,-125.5038,-110.0864,-86.82057,0.001067912,-0.1257102,0.09433498,0,0.3,0,0,0,0
638224237310220670,29.33215,18.53891,17.5338,33.69899,2.758718,30.84243,-56.99155,-0.4675641,7.027527,-72.43327,-8.594284,-36.83611,0,0,0,81.61475,-61.40602,-23.10527,-125.5038,-110.0864,-86.82057,0.001067912,-0.1257102,0.09433498,0,0.3,0,0,0,0
638224237310550565,27.16464,18.30513,15.3625,29.817,2.905208,31.79461,-56.99155,-0.4675641,7.027527,-72.43327,-8.594284,-36.83611,0,0,0,73.92891,-63.35303,-24.28124,-125.5038,-110.0864,-86.82057,0.001067912,-0.1257102,0.09433498,0,0.3,0,0,0,0
638224237310900454,24.40812,18.235,13.37798,25.78851,3.051698,32.23409,-56.99155,-0.4675641,7.027527,-72.43327,-8.521038,-36.83611,0,0,0,65.08718,-64.6543,-24.92013,-125.5038,-110.0864,-86.82057,0.001067912,-0.1257102,0.09433498,0,0.3,0,0,0,0
638224237311240345,22.9474,18.235,12.53748,23.59116,3.198189,32.30733,-56.99155,-0.4675641,7.027527,-72.43327,-8.521038,-36.90935,0,0,0,60.66652,-65.09293,-25.06306,-125.5038,-110.0864,-86.82057,0.001067912,-0.1257102,0.09433498,0,0.3,0,0,0,0
638224237311580240,20.02597,18.25838,11.41681,18.90347,3.417924,32.30733,-56.99155,-0.4675641,7.027527,-72.43327,-8.594284,-36.90935,0,0,0,52.40527,-65.58251,-24.57047,-125.5038,-110.0864,-86.82057,0.001067912,-0.1257102,0.09433498,0,0.3,0,0,0,0
638224237311920130,16.96317,18.49216,10.85648,14.14253,3.78415,31.86786,-56.99155,-0.4675641,7.027527,-72.43327,-8.594284,-36.90935,0,0,0,44.22486,-65.31804,-23.36376,-125.5038,-110.0864,-86.82057,0.001067912,-0.1257102,0.09433498,0,0.3,0,0,0,0
638224237312260021,15.36109,18.7727,10.7164,11.57895,4.077131,31.64813,-56.99155,-0.4675641,7.027527,-72.43327,-8.594284,-36.83611,0,0,0,40.01396,-64.76035,-22.69399,-125.5038,-110.0864,-86.82057,0.001067912,-0.1257102,0.09433498,0,0.3,0,0,0,0
638224237312599912,12.48678,19.47404,10.6697,6.744767,4.296866,31.13541,-56.99155,-0.4675641,7.027527,-72.43327,-8.594284,-36.83611,0,0,0,32.52096,-63.2383,-21.49709,-125.5038,-110.0864,-86.82057,0.001067912,-0.1257102,0.09433498,0,0.3,0,0,0,0
638224237312939803,9.871624,20.36242,10.76309,2.057076,3.78415,30.32971,-56.99155,-0.4675641,7.027527,-72.36002,-8.594284,-36.83611,0,0,0,25.70245,-61.25399,-20.64973,-125.5038,-110.0864,-86.82057,0.001067912,-0.1257102,0.09433498,0,0.3,0,0,0,0
638224237313289689,7.374268,21.5547,11.30008,-2.70386,3.344679,29.37753,-56.99155,-0.4675641,7.027527,-72.43327,-8.594284,-36.83611,0,0,0,19.2723,-58.42356,-19.43788,-125.5038,-110.0864,-86.82057,0.001067912,-0.1257102,0.09433498,0,0.3,0,0,0,0
638224237313629583,6.36119,22.18591,11.62694,-4.681479,3.198189,29.15779,-56.99155,-0.4675641,7.027527,-72.43327,-8.594284,-36.83611,0,0,0,16.65841,-56.90902,-18.92331,-125.5038,-110.0864,-86.82057,0.001067912,-0.1257102,0.09433498,0,0.3,0,0,0,0
638224237313959478,4.429273,23.77563,12.46744,-8.416983,2.538982,28.93805,-56.99155,-0.4675641,7.027527,-72.43327,-8.594284,-36.83611,0,0,0,11.64767,-53.09458,-17.97946,-125.5038,-110.0864,-86.82057,0.001067912,-0.1257102,0.09433498,0,0.3,0,0,0,0
638224237314309369,2.944995,25.80954,13.44803,-11.63977,1.51355,29.08454,-56.99155,-0.4675641,7.027527,-72.43327,-8.594284,-36.83611,0,0,0,7.761052,-48.28567,-17.48935,-125.5038,-110.0864,-86.82057,0.001067912,-0.1257102,0.09433498,0,0.3,0,0,0,0
638224237314639263,2.450236,26.93169,13.93832,-13.10467,0.8543434,29.15779,-56.99155,-0.4675641,7.027527,-72.43327,-8.521038,-36.83611,0,0,0,6.455875,-45.67566,-17.47928,-125.5038,-110.0864,-86.82057,0.001067912,-0.1257102,0.09433498,0,0.3,0,0,0,0
638224237314979150,2.049716,29.62018,15.29246,-15.59501,-0.61056,29.15779,-56.99155,-0.4675641,7.027527,-72.43327,-8.594284,-36.83611,0,0,0,5.404147,-39.37037,-17.35219,-125.5038,-110.0864,-86.82057,0.001067912,-0.1257102,0.09433498,0,0.3,0,0,0,0
638224237315329044,2.120397,33.0334,17.0902,-17.2064,-2.954405,29.23104,-56.99155,-0.4675641,7.027527,-72.43327,-8.594284,-36.90935,0,0,0,5.586282,-31.41891,-17.47054,-125.5038,-110.0864,-86.82057,0.001067912,-0.1257102,0.09433498,0,0.3,0,0,0,0
638224237315668931,2.285316,34.59974,17.9307,-17.64587,-4.126328,29.23104,-56.99155,-0.4675641,7.027527,-72.36002,-8.521038,-36.83611,0,0,0,6.014039,-27.80167,-17.65038,-125.5038,-110.0864,-86.82057,0.001067912,-0.1257102,0.09433498,0,0.3,0,0,0,0
638224237316008824,3.133475,37.7558,19.72844,-18.08535,-6.98289,29.23104,-56.99155,-0.4675641,7.027527,-72.43327,-8.594284,-36.90935,0,0,0,8.223608,-20.52293,-18.13077,-125.5038,-110.0864,-86.82057,0.001067912,-0.1257102,0.09433498,0,0.3,0,0,0,0
638224237316348714,4.594193,40.58456,21.50283,-17.35289,-9.692961,29.23104,-56.99155,-0.4675641,7.027527,-72.43327,-8.594284,-36.83611,0,0,0,12.0268,-13.96531,-18.68116,-125.5038,-110.0864,-86.82057,0.001067912,-0.1257102,0.09433498,0,0.3,0,0,0,0
638224237316698603,6.596789,42.75873,22.83363,-15.7415,-12.32979,29.30428,-56.99155,-0.4675641,7.027527,-72.43327,-8.521038,-36.90935,0,0,0,17.19264,-9.017098,-19.68539,-125.5038,-110.0864,-86.82057,0.001067912,-0.1257102,0.09433498,0,0.3,0,0,0,0
638224237317048496,7.774787,43.62373,23.39396,-14.71607,-13.35522,29.30428,-56.99155,-0.4675641,7.027527,-72.43327,-8.521038,-36.83611,0,0,0,20.22119,-7.037413,-20.24708,-125.5038,-110.0864,-86.82057,0.001067912,-0.1257102,0.09433498,0,0.3,0,0,0,0
638224237317388383,10.50774,44.88615,24.46794,-11.85951,-15.40608,29.0113,-56.99155,-0.4675641,7.027527,-72.43327,-8.521038,-36.83611,0,0,0,27.30261,-3.919127,-21.14932,-125.5038,-110.0864,-86.82057,0.001067912,-0.1257102,0.09433498,0,0.3,0,0,0,0
638224237317728274,13.4763,45.33034,25.40182,-7.831022,-17.16397,27.69288,-56.99155,-0.4675641,7.027527,-72.43327,-8.594284,-36.90935,0,0,0,35.17781,-2.273181,-21.55637,-125.5038,-110.0864,-86.82057,0.001067912,-0.1257102,0.09433498,0,0.3,0,0,0,0
638224237318078162,16.68045,45.33034,26.56919,-2.557369,-18.48238,25.64202,-56.99155,-0.4675641,7.027527,-72.43327,-8.594284,-36.90935,0,0,0,44.02869,-1.082801,-21.41263,-125.5038,-110.0864,-86.82057,0.001067912,-0.1257102,0.09433498,0,0.3,0,0,0,0
638224237318418055,18.23541,45.2602,27.19957,0.2259469,-18.9951,24.10387,-56.99155,-0.4675641,7.027527,-72.43327,-8.594284,-36.83611,0,0,0,48.44551,-0.5342034,-21.30846,-125.5038,-110.0864,-86.82057,0.001067912,-0.1257102,0.09433498,0,0.3,0,0,0,0
638224237318757951,21.20397,44.86277,28.1568,5.646089,-19.58106,20.73459,-56.99155,-0.4675641,7.027527,-72.43327,-8.594284,-36.83611,0,0,0,56.94588,-0.1527111,-21.56489,-125.5038,-110.0864,-86.82057,0.001067912,-0.1257102,0.09433498,0,0.3,0,0,0,0
638224237319097839,24.14896,43.88089,28.76383,11.06623,-19.80079,16.92585,-56.99155,-0.4675641,7.027527,-72.43327,-8.594284,-36.90935,0,0,0,65.57401,-1.11295,-22.0929,-125.5038,-110.0864,-86.82057,0.001067912,-0.1257102,0.09433498,0,0.3,0,0,0,0
638224237319437732,25.56256,43.15617,28.92726,13.55657,-19.58106,15.31445,-56.99155,-0.4675641,7.027527,-72.43327,-8.594284,-36.83611,0,0,0,69.80705,-2.152561,-22.40676,-125.5038,-110.0864,-86.82057,0.001067912,-0.1257102,0.09433498,0,0.3,0,0,0,0
638224237319777622,28.24839,41.37942,28.9973,18.09777,-18.26265,12.09166,-56.99155,-0.4675641,7.027527,-72.43327,-8.594284,-36.83611,0,0,0,77.95303,-5.133578,-23.26259,-125.5038,-110.0864,-86.82057,0.001067912,-0.1257102,0.09433498,0,0.3,0,0,0,0
638224237320127513,30.43947,39.32214,28.97396,22.1995,-16.65125,9.601329,-56.99155,-0.4675641,7.027527,-72.43327,-8.594284,-36.90935,0,0,0,84.98949,-8.808708,-23.71728,-125.5038,-110.0864,-86.82057,0.001067912,-0.1257102,0.09433498,0,0.3,0,0,0,0
638224237320467403,31.47611,38.10647,28.95061,24.32361,-15.55258,8.429405,-56.99155,-0.4675641,7.027527,-72.43327,-8.594284,-36.90935,0,0,0,88.49138,-11.04264,-23.80994,-125.5038,-110.0864,-86.82057,0.001067912,-0.1257102,0.09433498,0,0.3,0,0,0,0
638224237320807292,33.03107,35.72189,28.76383,27.61964,-13.72145,7.037747,-56.99155,-0.4675641,7.027527,-72.43327,-8.521038,-36.83611,0,0,0,93.99032,-15.68943,-23.78925,-125.5038,-110.0864,-86.82057,0.001067912,-0.1257102,0.09433498,0,0.3,0,0,0,0
638224237321157183,34.16194,33.19705,28.27354,30.25646,-11.67058,6.378541,-56.99155,-0.4675641,7.027527,-72.43327,-8.521038,-36.90935,0,0,0,98.12901,-21.07903,-23.75104,-125.5038,-110.0864,-86.82057,0.001067912,-0.1257102,0.09433498,0,0.3,0,0,0,0
638224237321497074,34.82162,30.50856,27.26961,31.9411,-9.033754,6.012315,-56.99155,-0.4675641,7.027527,-72.43327,-8.594284,-36.90935,0,0,0,100.4922,-27.48214,-23.87699,-125.5038,-110.0864,-86.82057,0.001067912,-0.1257102,0.09433498,0,0.3,0,0,0,0
