zeyangz2/DNN_classification_different_people_hand/data_by_names/Zeyang/zeyang_right_22.csv
Timestamp,Therapist joint angle 0,Therapist joint angle 1,Therapist joint angle 2,Therapist joint angle 3,Therapist joint angle 4,Therapist joint angle 5,Patient joint angle 0,Patient joint angle 1,Patient joint angle 2,Patient joint angle 3,Patient joint angle 4,Patient joint angle 5,Virtual joint angle 0,Virtual joint angle 1,Virtual joint angle 2,Therapist position x,Therapist position y,Therapist position z,Patient position x,Patient position y,Patient position z,Virtual position x,Virtual position y,Virtual position z,Assistive Force, Obstacle Force Magnitude, Therapist Constant Force, Patient Constant Force, Recovery Factor, Assistance Level
638224239687969755,0,0,0,0,0,0,0,0,0,0,0,0,0,0,0,0,0,0,0,0,0,0,0,0,0,0.3,0,0,0,0
638224239688039729,-34.46822,-0.9818845,6.583929,-117.479,-61.55054,-77.1942,-56.99155,-0.4675641,7.027527,-72.43327,-8.594284,-36.83611,0,0,0,-84.11143,-111.4057,-45.82159,-125.5038,-110.0864,-86.82057,0.001067912,-0.1257102,0.09433498,0,0.3,0,0,0,0
638224239688329639,-34.46822,-0.9818845,6.583929,-117.479,-61.55054,-77.1942,-56.99155,-0.4675641,7.027527,-72.43327,-8.521038,-36.83611,0,0,0,-84.11143,-111.4057,-45.82159,-125.5038,-110.0864,-86.82057,0.001067912,-0.1257102,0.09433498,0,0.3,0,0,0,0
638224239688669528,-34.46822,-0.9818845,6.583929,-117.479,-61.62378,-77.1942,-56.99155,-0.4675641,7.027527,-72.43327,-8.594284,-36.83611,0,0,0,-84.11143,-111.4057,-45.82159,-125.5038,-110.0864,-86.82057,0.001067912,-0.1257102,0.09433498,0,0.3,0,0,0,0
638224239689029416,-34.46822,-0.9818845,6.583929,-117.479,-61.55054,-77.1942,-56.99155,-0.4675641,7.027527,-72.43327,-8.594284,-36.83611,0,0,0,-84.11143,-111.4057,-45.82159,-125.5038,-110.0864,-86.82057,0.001067912,-0.1257102,0.09433498,0,0.3,0,0,0,0
638224239689359308,-34.46822,-0.9818845,6.583929,-117.4058,-61.62378,-77.12095,-56.99155,-0.4675641,7.027527,-72.43327,-8.594284,-36.90935,0,0,0,-84.11143,-111.4057,-45.82159,-125.5038,-110.0864,-86.82057,0.001067912,-0.1257102,0.09433498,0,0.3,0,0,0,0
638224239689709200,-34.46822,-0.9818845,6.583929,-117.4058,-61.55054,-77.1942,-56.99155,-0.4675641,7.027527,-72.43327,-8.594284,-36.90935,0,0,0,-84.11143,-111.4057,-45.82159,-125.5038,-110.0864,-86.82057,0.001067912,-0.1257102,0.09433498,0,0.3,0,0,0,0
638224239690039093,-34.46822,-0.9818845,6.583929,-117.479,-61.62378,-77.1942,-56.99155,-0.4675641,7.027527,-72.43327,-8.594284,-36.90935,0,0,0,-84.11143,-111.4057,-45.82159,-125.5038,-110.0864,-86.82057,0.001067912,-0.1257102,0.09433498,0,0.3,0,0,0,0
638224239690388983,-34.46822,-0.9818845,6.583929,-117.479,-61.62378,-77.1942,-56.99155,-0.4675641,7.027527,-72.43327,-8.594284,-36.83611,0,0,0,-84.11143,-111.4057,-45.82159,-125.5038,-110.0864,-86.82057,0.001067912,-0.1257102,0.09433498,0,0.3,0,0,0,0
638224239690728873,-34.46822,-0.9818845,6.583929,-117.479,-61.62378,-77.12095,-56.99155,-0.4675641,7.027527,-72.43327,-8.521038,-36.83611,0,0,0,-84.11143,-111.4057,-45.82159,-125.5038,-110.0864,-86.82057,0.001067912,-0.1257102,0.09433498,0,0.3,0,0,0,0
638224239691068764,-34.46822,-0.9818845,6.583929,-117.479,-61.62378,-77.1942,-56.99155,-0.4675641,7.027527,-72.43327,-8.594284,-36.90935,0,0,0,-84.11143,-111.4057,-45.82159,-125.5038,-110.0864,-86.82057,0.001067912,-0.1257102,0.09433498,0,0.3,0,0,0,0
638224239691418655,-34.46822,-0.9818845,6.583929,-117.479,-61.62378,-77.1942,-56.99155,-0.4675641,7.027527,-72.43327,-8.594284,-36.83611,0,0,0,-84.11143,-111.4057,-45.82159,-125.5038,-110.0864,-86.82057,0.001067912,-0.1257102,0.09433498,0,0.3,0,0,0,0
638224239691758542,-34.46822,-0.9818845,6.583929,-117.479,-61.55054,-77.12095,-56.99155,-0.4675641,7.027527,-72.43327,-8.521038,-36.83611,0,0,0,-84.11143,-111.4057,-45.82159,-125.5038,-110.0864,-86.82057,0.001067912,-0.1257102,0.09433498,0,0.3,0,0,0,0
638224239692098436,-34.46822,-0.9818845,6.583929,-117.479,-61.62378,-77.1942,-56.99155,-0.4675641,7.027527,-72.43327,-8.594284,-36.83611,0,0,0,-84.11143,-111.4057,-45.82159,-125.5038,-110.0864,-86.82057,0.001067912,-0.1257102,0.09433498,0,0.3,0,0,0,0
638224239692438329,-34.46822,-0.9818845,6.583929,-117.479,-61.62378,-77.1942,-56.99155,-0.4675641,7.027527,-72.36002,-8.594284,-36.90935,0,0,0,-84.11143,-111.4057,-45.82159,-125.5038,-110.0864,-86.82057,0.001067912,-0.1257102,0.09433498,0,0.3,0,0,0,0
638224239692788212,-34.46822,-0.9818845,6.583929,-117.4058,-61.62378,-77.1942,-56.99155,-0.4675641,7.027527,-72.43327,-8.594284,-36.90935,0,0,0,-84.11143,-111.4057,-45.82159,-125.5038,-110.0864,-86.82057,0.001067912,-0.1257102,0.09433498,0,0.3,0,0,0,0
638224239693128103,-34.46822,-0.9818845,6.583929,-117.479,-61.62378,-77.12095,-56.99155,-0.4675641,7.027527,-72.36002,-8.521038,-36.90935,0,0,0,-84.11143,-111.4057,-45.82159,-125.5038,-110.0864,-86.82057,0.001067912,-0.1257102,0.09433498,0,0.3,0,0,6.546021E-08,0
638224239693467999,-34.46822,-0.9818845,6.583929,-117.4058,-61.62378,-77.12095,-56.99155,-0.4675641,7.027527,-72.36002,-8.521038,-36.90935,0,0,0,-84.11143,-111.4057,-45.82159,-125.5038,-110.0864,-86.82057,0.001067912,-0.1257102,0.09433498,0,0.3,0,0,6.546021E-08,0
638224239693807888,-34.46822,-0.9818845,6.583929,-117.479,-61.62378,-77.1942,-56.99155,-0.4675641,7.027527,-72.43327,-8.594284,-36.83611,0,0,0,-84.11143,-111.4057,-45.82159,-125.5038,-110.0864,-86.82057,0.001067912,-0.1257102,0.09433498,0,0.3,0,0,1.309204E-07,0
638224239694147782,-34.46822,-0.9818845,6.583929,-117.479,-61.62378,-77.1942,-56.99155,-0.4675641,7.027527,-72.43327,-8.594284,-36.83611,0,0,0,-84.11143,-111.4057,-45.82159,-125.5038,-110.0864,-86.82057,0.001067912,-0.1257102,0.09433498,0,0.3,0,0,1.309204E-07,0
638224239694497669,-34.46822,-0.9818845,6.583929,-117.4058,-61.62378,-77.12095,-56.99155,-0.4675641,7.027527,-72.43327,-8.594284,-36.83611,0,0,0,-84.11143,-111.4057,-45.82159,-125.5038,-110.0864,-86.82057,0.001067912,-0.1257102,0.09433498,0,0.3,0,0,1.309204E-07,0
638224239694827564,-34.46822,-0.9818845,6.583929,-117.4058,-61.55054,-77.12095,-56.99155,-0.4675641,7.027527,-72.36002,-8.594284,-36.83611,0,0,0,-84.11143,-111.4057,-45.82159,-125.5038,-110.0864,-86.82057,0.001067912,-0.1257102,0.09433498,0,0.3,0,0,1.309204E-07,0
638224239695167456,-34.46822,-0.9818845,6.583929,-117.479,-61.55054,-77.1942,-56.99155,-0.4675641,7.027527,-72.43327,-8.521038,-36.83611,0,0,0,-84.11143,-111.4057,-45.82159,-125.5038,-110.0864,-86.82057,0.001067912,-0.1257102,0.09433498,0,0.3,0,0,6.546021E-08,0
638224239695507346,-34.46822,-0.9818845,6.583929,-117.4058,-61.55054,-77.1942,-56.99155,-0.4675641,7.027527,-72.43327,-8.594284,-36.90935,0,0,0,-84.11143,-111.4057,-45.82159,-125.5038,-110.0864,-86.82057,0.001067912,-0.1257102,0.09433498,0,0.3,0,0,0,0
638224239695847238,-34.46822,-0.9818845,6.583929,-117.479,-61.62378,-77.1942,-56.99155,-0.4675641,7.027527,-72.43327,-8.594284,-36.90935,0,0,0,-84.11143,-111.4057,-45.82159,-125.5038,-110.0864,-86.82057,0.001067912,-0.1257102,0.09433498,0,0.3,0,0,0,0
638224239696187128,-34.46822,-0.9818845,6.583929,-117.479,-61.62378,-77.1942,-56.99155,-0.4675641,7.027527,-72.43327,-8.594284,-36.83611,0,0,0,-84.11143,-111.4057,-45.82159,-125.5038,-110.0864,-86.82057,0.001067912,-0.1257102,0.09433498,0,0.3,0,0,0,0
638224239696527024,-34.46822,-0.9818845,6.583929,-117.4058,-61.62378,-77.1942,-56.99155,-0.4675641,7.027527,-72.43327,-8.594284,-36.83611,0,0,0,-84.11143,-111.4057,-45.82159,-125.5038,-110.0864,-86.82057,0.001067912,-0.1257102,0.09433498,0,0.3,0,0,0,0
638224239696866914,-34.46822,-0.9818845,6.583929,-117.4058,-61.62378,-77.1942,-56.99155,-0.4675641,7.027527,-72.36002,-8.521038,-36.83611,0,0,0,-84.11143,-111.4057,-45.82159,-125.5038,-110.0864,-86.82057,0.001067912,-0.1257102,0.09433498,0,0.3,0,0,0,0
638224239697206804,-34.46822,-0.9818845,6.583929,-117.4058,-61.62378,-77.12095,-56.99155,-0.4675641,7.027527,-72.43327,-8.594284,-36.83611,0,0,0,-84.11143,-111.4057,-45.82159,-125.5038,-110.0864,-86.82057,0.001067912,-0.1257102,0.09433498,0,0.3,0,0,0,0
638224239697546697,-34.46822,-0.9818845,6.583929,-117.479,-61.62378,-77.12095,-56.99155,-0.4675641,7.027527,-72.43327,-8.594284,-36.90935,0,0,0,-84.11143,-111.4057,-45.82159,-125.5038,-110.0864,-86.82057,0.001067912,-0.1257102,0.09433498,0,0.3,0,0,0,0
638224239697876594,-34.46822,-0.9818845,6.583929,-117.479,-61.55054,-77.12095,-56.99155,-0.4675641,7.027527,-72.43327,-8.594284,-36.83611,0,0,0,-84.11143,-111.4057,-45.82159,-125.5038,-110.0864,-86.82057,0.001067912,-0.1257102,0.09433498,0,0.3,0,0,0,0
638224239698216482,-34.46822,-0.9818845,6.583929,-117.4058,-61.62378,-77.12095,-56.99155,-0.4675641,7.027527,-72.36002,-8.521038,-36.90935,0,0,0,-84.11143,-111.4057,-45.82159,-125.5038,-110.0864,-86.82057,0.001067912,-0.1257102,0.09433498,0,0.3,0,0,0,0
638224239698556390,-34.46822,-0.9818845,6.583929,-117.479,-61.55054,-77.1942,-56.99155,-0.4675641,7.027527,-72.43327,-8.594284,-36.83611,0,0,0,-84.11143,-111.4057,-45.82159,-125.5038,-110.0864,-86.82057,0.001067912,-0.1257102,0.09433498,0,0.3,0,0,0,0
638224239698896265,-34.46822,-0.9818845,6.583929,-117.479,-61.62378,-77.1942,-56.99155,-0.4675641,7.027527,-72.43327,-8.594284,-36.83611,0,0,0,-84.11143,-111.4057,-45.82159,-125.5038,-110.0864,-86.82057,0.001067912,-0.1257102,0.09433498,0,0.3,0,0,0,0
638224239699246154,-34.46822,-0.9818845,6.583929,-117.4058,-61.55054,-77.1942,-56.99155,-0.4675641,7.027527,-72.36002,-8.594284,-36.83611,0,0,0,-84.11143,-111.4057,-45.82159,-125.5038,-110.0864,-86.82057,0.001067912,-0.1257102,0.09433498,0,0.3,0,0,0,0
638224239699586046,-34.46822,-0.9818845,6.583929,-117.4058,-61.62378,-77.1942,-56.99155,-0.4675641,7.027527,-72.43327,-8.594284,-36.83611,0,0,0,-84.11143,-111.4057,-45.82159,-125.5038,-110.0864,-86.82057,0.001067912,-0.1257102,0.09433498,0,0.3,0,0,0,0
638224239699925939,-34.46822,-0.9818845,6.583929,-117.4058,-61.62378,-77.1942,-56.99155,-0.4675641,7.027527,-72.43327,-8.594284,-36.90935,0,0,0,-84.11143,-111.4057,-45.82159,-125.5038,-110.0864,-86.82057,0.001067912,-0.1257102,0.09433498,0,0.3,0,0,0,0
638224239700265827,-34.46822,-0.9818845,6.583929,-117.479,-61.62378,-77.1942,-56.99155,-0.4675641,7.027527,-72.43327,-8.594284,-36.83611,0,0,0,-84.11143,-111.4057,-45.82159,-125.5038,-110.0864,-86.82057,0.001067912,-0.1257102,0.09433498,0,0.3,0,0,0,0
638224239700605719,-34.46822,-0.9818845,6.583929,-117.479,-61.62378,-77.12095,-56.99155,-0.4675641,7.027527,-72.43327,-8.521038,-36.90935,0,0,0,-84.11143,-111.4057,-45.82159,-125.5038,-110.0864,-86.82057,0.001067912,-0.1257102,0.09433498,0,0.3,0,0,0,0
638224239700955613,-34.46822,-0.9818845,6.583929,-117.479,-61.55054,-77.1942,-56.99155,-0.4675641,7.027527,-72.43327,-8.594284,-36.83611,0,0,0,-84.11143,-111.4057,-45.82159,-125.5038,-110.0864,-86.82057,0.001067912,-0.1257102,0.09433498,0,0.3,0,0,0,0
638224239701295500,-34.46822,-0.9818845,6.583929,-117.479,-61.55054,-77.12095,-56.99155,-0.4675641,7.027527,-72.43327,-8.594284,-36.90935,0,0,0,-84.11143,-111.4057,-45.82159,-125.5038,-110.0864,-86.82057,0.001067912,-0.1257102,0.09433498,0,0.3,0,0,0,0
638224239701635392,-34.46822,-0.9818845,6.583929,-117.4058,-61.55054,-77.1942,-56.99155,-0.4675641,7.027527,-72.43327,-8.594284,-36.90935,0,0,0,-84.11143,-111.4057,-45.82159,-125.5038,-110.0864,-86.82057,0.001067912,-0.1257102,0.09433498,0,0.3,0,0,0,0
638224239701985278,-34.46822,-0.9818845,6.583929,-117.479,-61.4773,-77.1942,-56.99155,-0.4675641,7.027527,-72.43327,-8.521038,-36.83611,0,0,0,-84.11143,-111.4057,-45.82159,-125.5038,-110.0864,-86.82057,0.001067912,-0.1257102,0.09433498,0,0.3,0,0,0,0
638224239702325172,-34.46822,-0.9818845,6.583929,-117.2593,-60.89133,-77.1942,-56.99155,-0.4675641,7.027527,-72.43327,-8.594284,-36.90935,0,0,0,-84.11143,-111.4057,-45.82159,-125.5038,-110.0864,-86.82057,0.001067912,-0.1257102,0.09433498,0,0.3,0,0,0,0
638224239702665066,-34.46822,-0.9818845,6.583929,-115.062,-58.54749,-77.1942,-56.99155,-0.4675641,7.027527,-72.43327,-8.521038,-36.83611,0,0,0,-84.11143,-111.4057,-45.82159,-125.5038,-110.0864,-86.82057,0.001067912,-0.1257102,0.09433498,0,0.3,0,0,0,0
638224239703004954,-34.51534,-0.6545897,6.630623,-112.0589,-55.98391,-77.12095,-56.99155,-0.4675641,7.027527,-72.43327,-8.594284,-36.90935,0,0,0,-84.2795,-110.6315,-45.79289,-125.5038,-110.0864,-86.82057,0.001067912,-0.1257102,0.09433498,0,0.3,0,0,3.619949E-05,0
638224239703344846,-34.60958,-0.1636474,6.630623,-110.4475,-54.95848,-77.41393,-56.99155,-0.4675641,7.027527,-72.43327,-8.594284,-36.83611,0,0,0,-84.4856,-109.4889,-45.92496,-125.5038,-110.0864,-86.82057,0.001067912,-0.1257102,0.09433498,0,0.3,0,0,0.0001127879,0
638224239703684741,-35.10434,1.262423,6.677318,-106.9317,-53.12735,-78.21963,-56.99155,-0.4675641,7.027527,-72.43327,-8.594284,-36.90935,0,0,0,-85.58337,-106.1575,-46.59679,-125.5038,-110.0864,-86.82057,0.001067912,-0.1257102,0.09433498,0,0.3,0,0,0.0006064888,0
638224239704034624,-35.78758,2.431333,6.700665,-103.123,-51.73569,-74.7771,-56.99155,-0.4675641,7.027527,-72.43327,-8.594284,-36.83611,0,0,0,-87.00942,-103.4321,-47.65333,-125.5038,-110.0864,-86.82057,0.001067912,-0.1257102,0.09433498,0,0.3,0,0,0.001645473,0
638224239704374520,-36.61218,3.085923,6.74736,-97.92258,-50.71025,-68.03855,-56.99155,-0.4675641,7.027527,-72.43327,-8.594284,-36.90935,0,0,0,-88.75805,-101.8977,-48.89024,-125.5038,-110.0864,-86.82057,0.001067912,-0.1257102,0.09433498,0,0.3,0,0,0.003368909,0
638224239704714412,-37.1305,3.296327,6.74736,-94.33356,-50.27078,-64.01007,-56.99155,-0.4675641,7.027527,-72.43327,-8.594284,-36.90935,0,0,0,-89.81863,-101.4088,-49.71979,-125.5038,-110.0864,-86.82057,0.001067912,-0.1257102,0.09433498,0,0.3,0,0,0.004554983,0
638224239705054303,-38.44986,3.413218,6.74736,-86.20335,-49.02562,-56.09959,-56.99155,-0.4675641,7.027527,-72.43327,-8.594284,-36.90935,0,0,0,-92.51639,-101.1372,-51.83179,-125.5038,-110.0864,-86.82057,0.001067912,-0.1257102,0.09433498,0,0.3,0,0,0.008037793,0
638224239705394193,-39.67498,3.226192,6.74736,-77.34068,-46.97475,-48.9948,-56.99155,-0.4675641,7.027527,-72.43327,-8.594284,-36.90935,0,0,0,-95.00257,-101.5717,-53.81709,-125.5038,-110.0864,-86.82057,0.001067912,-0.1257102,0.09433498,0,0.3,0,0,0.01240818,0
638224239705734086,-40.19329,3.109301,6.700665,-73.01923,-45.36336,-43.86765,-56.99155,-0.4675641,7.027527,-72.43327,-8.594284,-36.83611,0,0,0,-95.97483,-101.8561,-54.75216,-125.5038,-110.0864,-86.82057,0.001067912,-0.1257102,0.09433498,0,0.3,0,0,0.0149229,0
638224239706073976,-40.87653,2.875519,6.49054,-66.20742,-41.7011,-31.48921,-56.99155,-0.4675641,7.027527,-72.43327,-8.594284,-36.83611,0,0,0,-97.02326,-102.4556,-56.25054,-125.5038,-110.0864,-86.82057,0.001067912,-0.1257102,0.09433498,0,0.3,0,0,0.02033037,0
638224239706413866,-41.13569,2.618359,6.070289,-60.78728,-37.59937,-19.477,-56.99155,-0.4675641,7.027527,-72.36002,-8.521038,-36.90935,0,0,0,-96.90862,-103.1605,-57.40117,-125.5038,-110.0864,-86.82057,0.001067912,-0.1257102,0.09433498,0,0.3,0,0,0.02592132,0
638224239706753762,-41.13569,2.548224,5.790122,-58.51668,-35.40202,-14.78931,-56.99155,-0.4675641,7.027527,-72.43327,-8.594284,-36.83611,0,0,0,-96.48679,-103.3909,-57.88409,-125.5038,-110.0864,-86.82057,0.001067912,-0.1257102,0.09433498,0,0.3,0,0,0.02867451,0
638224239707093647,-41.34773,2.548224,4.109118,-54.92767,-31.08055,-8.050756,-56.99155,-0.4675641,7.027527,-72.36002,-8.521038,-36.83611,0,0,0,-94.32007,-103.7284,-61.16793,-125.5038,-110.0864,-86.82057,0.001067912,-0.1257102,0.09433498,0,0.3,0,0,0.03415177,0
638224239707443537,-41.55977,2.33782,1.424183,-51.99786,-25.95339,-3.509557,-56.99155,-0.4675641,7.027527,-72.43327,-8.521038,-36.83611,0,0,0,-90.5896,-104.5193,-66.17207,-125.5038,-110.0864,-86.82057,0.001067912,-0.1257102,0.09433498,0,0.3,0,0,0.03952592,0
638224239707783428,-41.55977,1.963769,0.04669453,-49.21454,-19.58106,-1.092466,-56.99155,-0.4675641,7.027527,-72.43327,-8.521038,-36.83611,0,0,0,-88.48466,-105.4304,-68.54627,-125.5038,-110.0864,-86.82057,0.001067912,-0.1257102,0.09433498,0,0.3,0,0,0.04446666,0
638224239708133323,-41.55977,1.846878,-0.1167363,-48.26236,-16.21178,-0.3600145,-56.99155,-0.4675641,7.027527,-72.43327,-8.594284,-36.83611,0,0,0,-88.23833,-105.702,-68.82412,-125.5038,-110.0864,-86.82057,0.001067912,-0.1257102,0.09433498,0,0.3,0,0,0.04683357,0
638224239708463216,-41.55977,1.800122,-0.3035145,-47.01719,-10.05919,0.5189275,-56.99155,-0.4675641,7.027527,-72.43327,-8.521038,-36.83611,0,0,0,-87.95224,-105.8092,-69.1468,-125.5038,-110.0864,-86.82057,0.001067912,-0.1257102,0.09433498,0,0.3,0,0,0.05140767,0
638224239708813101,-41.55977,1.729987,-0.9572379,-46.13824,-4.932025,0.006211365,-56.99155,-0.4675641,7.027527,-72.43327,-8.594284,-36.90935,0,0,0,-86.9463,-105.9556,-70.28143,-125.5038,-110.0864,-86.82057,0.001067912,-0.1257102,0.09433498,0,0.3,0,0,0.0556961,0
638224239709152995,-41.55977,1.636474,-1.470878,-45.62553,-2.73467,-0.9459759,-56.99155,-0.4675641,7.027527,-72.36002,-8.594284,-36.83611,0,0,0,-86.15766,-106.1479,-71.17094,-125.5038,-110.0864,-86.82057,0.001067912,-0.1257102,0.09433498,0,0.3,0,0,0.05770114,0
638224239709492886,-41.55977,1.332558,-2.21799,-44.74659,0.7810982,-2.337634,-56.99155,-0.4675641,7.027527,-72.43327,-8.594284,-36.83611,0,0,0,-85.01688,-106.799,-72.45766,-125.5038,-110.0864,-86.82057,0.001067912,-0.1257102,0.09433498,0,0.3,0,0,0.06146412,0
638224239709832776,-41.55977,0.9818845,-2.521505,-43.86765,3.564415,-3.070086,-56.99155,-0.4675641,7.027527,-72.43327,-8.594284,-36.83611,0,0,0,-84.55959,-107.5858,-72.97344,-125.5038,-110.0864,-86.82057,0.001067912,-0.1257102,0.09433498,0,0.3,0,0,0.06499805,0
638224239710172670,-41.55977,0.7948589,-2.638241,-43.50142,4.736337,-3.436311,-56.99155,-0.4675641,7.027527,-72.43327,-8.594284,-36.83611,0,0,0,-84.38401,-108.0088,-73.17148,-125.5038,-110.0864,-86.82057,0.001067912,-0.1257102,0.09433498,0,0.3,0,0,0.0683775,0
638224239710512560,-41.55977,0.7247244,-2.638241,-43.72115,5.175808,-3.582802,-56.99155,-0.4675641,7.027527,-72.43327,-8.594284,-36.83611,0,0,0,-84.38545,-108.172,-73.16986,-125.5038,-110.0864,-86.82057,0.001067912,-0.1257102,0.09433498,0,0.3,0,0,0.07002173,0
638224239710852450,-41.55977,0.6078333,-2.661588,-45.11281,5.981505,-3.875783,-56.99155,-0.4675641,7.027527,-72.43327,-8.594284,-36.83611,0,0,0,-84.35154,-108.4415,-73.20811,-125.5038,-110.0864,-86.82057,0.001067912,-0.1257102,0.09433498,0,0.3,0,0,0.07322169,0
638224239711202343,-41.55977,0.5610769,-2.661588,-47.5299,6.640712,-4.315253,-56.99155,-0.4675641,7.027527,-72.43327,-8.594284,-36.90935,0,0,0,-84.35227,-108.5503,-73.20728,-125.5038,-110.0864,-86.82057,0.001067912,-0.1257102,0.09433498,0,0.3,0,0,0.07631488,0
638224239711532236,-41.55977,0.5376987,-2.661588,-48.84832,7.006938,-4.97446,-56.99155,-0.4675641,7.027527,-72.43327,-8.594284,-36.90935,0,0,0,-84.35262,-108.6047,-73.20689,-125.5038,-110.0864,-86.82057,0.001067912,-0.1257102,0.09433498,0,0.3,0,0,0.07782295,0
638224239711882123,-41.55977,0.5143204,-2.684936,-51.11892,7.88588,-6.439363,-56.99155,-0.4675641,7.027527,-72.43327,-8.594284,-36.83611,0,0,0,-84.31694,-108.6566,-73.24713,-125.5038,-110.0864,-86.82057,0.001067912,-0.1257102,0.09433498,0,0.3,0,0,0.08075878,0
638224239712222016,-41.55977,0.5143204,-2.708283,-53.38951,9.057802,-7.904267,-56.99155,-0.4675641,7.027527,-72.43327,-8.594284,-36.83611,0,0,0,-84.28094,-108.654,-73.28774,-125.5038,-110.0864,-86.82057,0.001067912,-0.1257102,0.09433498,0,0.3,0,0,0.08359301,0
638224239712571919,-41.41841,0.5844551,-2.661588,-56.6123,10.6692,-9.076189,-56.99155,-0.4675641,7.027527,-72.43327,-8.594284,-36.83611,0,0,0,-84.11692,-108.4959,-72.99986,-125.5038,-110.0864,-86.82057,0.001067912,-0.1257102,0.09433498,0,0.3,0,0,0.08630476,0
638224239712911794,-41.06501,0.6078333,-2.638241,-58.37019,11.47489,-9.002944,-56.99155,-0.4675641,7.027527,-72.43327,-8.594284,-36.83611,0,0,0,-83.56249,-108.444,-72.44235,-125.5038,-110.0864,-86.82057,0.001067912,-0.1257102,0.09433498,0,0.3,0,0,0.08751381,0
638224239713241688,-39.81633,0.6545897,-2.591547,-60.93377,12.79331,-7.391551,-56.99155,-0.4675641,7.027527,-72.43327,-8.594284,-36.83611,0,0,0,-81.5214,-108.3402,-70.56168,-125.5038,-110.0864,-86.82057,0.001067912,-0.1257102,0.09433498,0,0.3,0,0,0.08938512,0
638224239713581580,-38.02578,0.7948589,-2.521505,-61.73947,14.11172,-5.780157,-56.99155,-0.4675641,7.027527,-72.43327,-8.594284,-36.83611,0,0,0,-78.52387,-108.021,-67.93718,-125.5038,-110.0864,-86.82057,0.001067912,-0.1257102,0.09433498,0,0.3,0,0,0.09027781,0
638224239713931468,-36.84778,1.028641,-2.451463,-61.29999,15.13715,-5.047705,-56.99155,-0.4675641,7.027527,-72.43327,-8.594284,-36.83611,0,0,0,-76.53542,-107.484,-66.22066,-125.5038,-110.0864,-86.82057,0.001067912,-0.1257102,0.09433498,0,0.3,0,0,0.09025496,0
638224239714271359,-34.0677,2.127417,-2.21799,-58.80966,16.89503,-2.923595,-56.99155,-0.4675641,7.027527,-72.43327,-8.521038,-36.83611,0,0,0,-71.7565,-104.9499,-62.2373,-125.5038,-110.0864,-86.82057,0.001067912,-0.1257102,0.09433498,0,0.3,0,0,0.08906817,0
638224239714611251,-30.43947,4.278211,-1.657656,-54.26846,17.04152,1.324624,-56.99155,-0.4675641,7.027527,-72.43327,-8.521038,-36.83611,0,0,0,-65.41626,-99.99635,-57.02645,-125.5038,-110.0864,-86.82057,0.001067912,-0.1257102,0.09433498,0,0.3,0,0,0.08585721,0
638224239714951143,-28.50755,5.58739,-1.354141,-51.04567,16.45556,4.327676,-56.99155,-0.4675641,7.027527,-72.43327,-8.594284,-36.83611,0,0,0,-61.83813,-96.97929,-54.49412,-125.5038,-110.0864,-86.82057,0.001067912,-0.1257102,0.09433498,0,0.3,0,0,0.08341902,0
638224239715291038,-25.04424,8.252506,-0.5836816,-44.30712,14.84417,10.11404,-56.99155,-0.4675641,7.027527,-72.36002,-8.521038,-36.83611,0,0,0,-55.28986,-90.85257,-50.01912,-125.5038,-110.0864,-86.82057,0.001067912,-0.1257102,0.09433498,0,0.3,0,0,0.07696359,0
638224239715640928,-22.09924,10.941,0.4435981,-37.86154,13.30602,14.80174,-56.99155,-0.4675641,7.027527,-72.43327,-8.594284,-36.90935,0,0,0,-49.64439,-84.68643,-46.08598,-125.5038,-110.0864,-86.82057,0.001067912,-0.1257102,0.09433498,0,0.3,0,0,0.06834137,0
638224239715980818,-19.53121,13.93341,1.470878,-32.51464,11.40165,18.46399,-56.99155,-0.4675641,7.027527,-72.43327,-8.594284,-36.83611,0,0,0,-44.4142,-77.84618,-43.14493,-125.5038,-110.0864,-86.82057,0.001067912,-0.1257102,0.09433498,0,0.3,0,0,0.05834874,0
638224239716320706,-18.32965,15.61664,2.031212,-30.1708,10.37621,19.85565,-56.99155,-0.4675641,7.027527,-72.43327,-8.594284,-36.83611,0,0,0,-41.87469,-74.01846,-41.95209,-125.5038,-110.0864,-86.82057,0.001067912,-0.1257102,0.09433498,0,0.3,0,0,0.05275039,0
638224239716660601,-16.18569,19.14675,3.151881,-25.99582,7.812634,21.76003,-56.99155,-0.4675641,7.027527,-72.43327,-8.594284,-36.90935,0,0,0,-37.15902,-66.06097,-40.32851,-125.5038,-110.0864,-86.82057,0.001067912,-0.1257102,0.09433498,0,0.3,0,0,0.04043078,0
638224239717010484,-13.99462,22.70024,4.179161,-21.82085,4.956073,23.00519,-56.99155,-0.4675641,7.027527,-72.36002,-8.594284,-36.83611,0,0,0,-32.10017,-58.18435,-39.55169,-125.5038,-110.0864,-86.82057,0.001067912,-0.1257102,0.09433498,0,0.3,0,0,0.02663261,0
638224239717350381,-12.86374,24.47698,4.762842,-19.76999,3.271434,23.37142,-56.99155,-0.4675641,7.027527,-72.43327,-8.594284,-36.83611,0,0,0,-29.48505,-54.28895,-39.23608,-125.5038,-110.0864,-86.82057,0.001067912,-0.1257102,0.09433498,0,0.3,0,0,0.01920092,0
638224239717690273,-10.79046,27.67979,5.883511,-16.5472,0.4148723,23.73765,-56.99155,-0.4675641,7.027527,-72.43327,-8.594284,-36.90935,0,0,0,-24.6675,-47.35252,-38.92139,-125.5038,-110.0864,-86.82057,0.001067912,-0.1257102,0.09433498,0,0.3,0,0,0.0033803,0
638224239718040161,-8.528707,30.97612,7.120916,-13.39765,-2.441689,24.17712,-56.99155,-0.4675641,7.027527,-72.43327,-8.594284,-36.83611,0,0,0,-19.40754,-40.33876,-38.93468,-125.5038,-110.0864,-86.82057,0.001067912,-0.1257102,0.09433498,0,0.3,0,0,0,0
638224239718380048,-6.14915,34.36596,8.498405,-10.46785,-5.298251,24.68983,-56.99155,-0.4675641,7.027527,-72.36002,-8.521038,-36.83611,0,0,0,-13.90168,-33.26285,-39.31636,-125.5038,-110.0864,-86.82057,0.001067912,-0.1257102,0.09433498,0,0.3,0,0,0,0
638224239718709945,-4.829792,36.02581,9.315559,-8.929699,-6.763155,24.83632,-56.99155,-0.4675641,7.027527,-72.43327,-8.594284,-36.83611,0,0,0,-10.89771,-29.8116,-39.37689,-125.5038,-110.0864,-86.82057,0.001067912,-0.1257102,0.09433498,0,0.3,0,0,0,0
638224239719049836,-1.931917,38.99485,11.0666,-5.853402,-9.25349,25.05606,-56.99155,-0.4675641,7.027527,-72.43327,-8.594284,-36.90935,0,0,0,-4.356811,-23.60977,-39.18696,-125.5038,-110.0864,-86.82057,0.001067912,-0.1257102,0.09433498,0,0.3,0,0,0,0
638224239719389727,1.460718,41.73009,13.28459,-1.605182,-11.89032,25.05606,-56.99155,-0.4675641,7.027527,-72.43327,-8.594284,-36.90935,0,0,0,3.317978,-17.6709,-38.23246,-125.5038,-110.0864,-86.82057,0.001067912,-0.1257102,0.09433498,0,0.3,0,0,0,0
638224239719729622,3.039235,42.87563,14.47531,0.738663,-12.98899,24.90957,-56.99155,-0.4675641,7.027527,-72.43327,-8.594284,-36.83611,0,0,0,6.948546,-15.03431,-37.4786,-125.5038,-110.0864,-86.82057,0.001067912,-0.1257102,0.09433498,0,0.3,0,0,0,0
638224239720059514,6.05491,45.19007,16.99681,5.865825,-15.33284,24.03063,-56.99155,-0.4675641,7.027527,-72.43327,-8.594284,-36.83611,0,0,0,14.02483,-9.570444,-36.13171,-125.5038,-110.0864,-86.82057,0.001067912,-0.1257102,0.09433498,0,0.3,0,0,0,0
638224239720409406,8.740746,47.34086,19.51831,11.13948,-17.74993,21.76003,-56.99155,-0.4675641,7.027527,-72.43327,-8.521038,-36.83611,0,0,0,20.50234,-4.271678,-35.0009,-125.5038,-110.0864,-86.82057,0.001067912,-0.1257102,0.09433498,0,0.3,0,0,0,0
638224239720739302,9.895184,48.32275,20.80241,13.41008,-18.77536,20.36837,-56.99155,-0.4675641,7.027527,-72.43327,-8.594284,-36.90935,0,0,0,23.37585,-1.707599,-34.34588,-125.5038,-110.0864,-86.82057,0.001067912,-0.1257102,0.09433498,0,0.3,0,0,0,0
638224239721079189,12.22762,50.23976,23.48735,17.51181,-20.60649,17.21883,-56.99155,-0.4675641,7.027527,-72.43327,-8.521038,-36.90935,0,0,0,29.3197,3.558116,-33.05682,-125.5038,-110.0864,-86.82057,0.001067912,-0.1257102,0.09433498,0,0.3,0,0,0,0
638224239721419082,14.81922,51.75934,26.35906,22.05301,-22.29113,13.55657,-56.99155,-0.4675641,7.027527,-72.43327,-8.594284,-36.90935,0,0,0,36.25433,8.599976,-31.31895,-125.5038,-110.0864,-86.82057,0.001067912,-0.1257102,0.09433498,0,0.3,0,0,0,0
638224239721758972,16.18569,52.29704,27.7132,24.68983,-23.02358,11.21272,-56.99155,-0.4675641,7.027527,-72.43327,-8.521038,-36.83611,0,0,0,40.01934,10.80249,-30.47402,-125.5038,-110.0864,-86.82057,0.001067912,-0.1257102,0.09433498,0,0.3,0,0,0,0
638224239722098865,18.98933,52.97501,30.09463,30.03673,-23.97577,6.525032,-56.99155,-0.4675641,7.027527,-72.43327,-8.594284,-36.90935,0,0,0,47.88603,14.43882,-29.19468,-125.5038,-110.0864,-86.82057,0.001067912,-0.1257102,0.09433498,0,0.3,0,0,0,0
638224239722448750,21.84008,53.18541,32.28927,35.53012,-24.342,1.324624,-56.99155,-0.4675641,7.027527,-72.43327,-8.594284,-36.83611,0,0,0,56.22735,17.37818,-28.05633,-125.5038,-110.0864,-86.82057,0.001067912,-0.1257102,0.09433498,0,0.3,0,0,0,0
638224239722788648,24.50236,53.18541,34.20374,40.58403,-23.82928,-3.363066,-56.99155,-0.4675641,7.027527,-72.43327,-8.594284,-36.83611,0,0,0,64.22852,19.82089,-27.42876,-125.5038,-110.0864,-86.82057,0.001067912,-0.1257102,0.09433498,0,0.3,0,0,0,0
638224239723118540,25.8924,53.16203,35.18433,43.14762,-23.46305,-5.926647,-56.99155,-0.4675641,7.027527,-72.43327,-8.594284,-36.83611,0,0,0,68.46655,21.08728,-27.30107,-125.5038,-110.0864,-86.82057,0.001067912,-0.1257102,0.09433498,0,0.3,0,0,0,0
638224239723458434,28.43687,53.04515,36.53847,47.54232,-22.51087,-10.83407,-56.99155,-0.4675641,7.027527,-72.43327,-8.594284,-36.83611,0,0,0,75.98076,22.77021,-28.04243,-125.5038,-110.0864,-86.82057,0.001067912,-0.1257102,0.09433498,0,0.3,0,0,0,0
638224239723798320,30.81643,52.48407,37.21554,50.9116,-21.48543,-15.00905,-56.99155,-0.4675641,7.027527,-72.43327,-8.594284,-36.90935,0,0,0,82.91904,22.9257,-29.34265,-125.5038,-110.0864,-86.82057,0.001067912,-0.1257102,0.09433498,0,0.3,0,0,0,0
638224239724138211,32.06511,51.96975,37.49571,52.30326,-20.53325,-16.98667,-56.99155,-0.4675641,7.027527,-72.43327,-8.521038,-36.90935,0,0,0,86.70605,22.58812,-29.94154,-125.5038,-110.0864,-86.82057,0.001067912,-0.1257102,0.09433498,0,0.3,0,0,0,0
638224239724478118,34.49178,50.56705,37.89261,54.57386,-18.33589,-19.91648,-56.99155,-0.4675641,7.027527,-72.43327,-8.594284,-36.83611,0,0,0,94.34467,21.11041,-31.03547,-125.5038,-110.0864,-86.82057,0.001067912,-0.1257102,0.09433498,0,0.3,0,0,0,0
638224239724817994,36.8949,48.74355,38.00935,56.47824,-15.62582,-22.33356,-56.99155,-0.4675641,7.027527,-72.43327,-8.594284,-36.83611,0,0,0,102.0897,18.53011,-32.35402,-125.5038,-110.0864,-86.82057,0.001067912,-0.1257102,0.09433498,0,0.3,0,0,0,0
638224239725157891,38.04934,47.76167,38.00935,57.28393,-14.30741,-23.28575,-56.99155,-0.4675641,7.027527,-72.43327,-8.594284,-36.83611,0,0,0,105.8598,17.00851,-33.09584,-125.5038,-110.0864,-86.82057,0.001067912,-0.1257102,0.09433498,0,0.3,0,0,0,0
638224239725497777,40.12262,45.63425,38.00935,58.45585,-11.3776,-24.89715,-56.99155,-0.4675641,7.027527,-72.43327,-8.594284,-36.83611,0,0,0,113.0056,13.61285,-34.25894,-125.5038,-110.0864,-86.82057,0.001067912,-0.1257102,0.09433498,0,0.3,0,0,0,0
638224239725837676,41.88961,43.48346,38.00935,59.55453,-8.154812,-26.06907,-56.99155,-0.4675641,7.027527,-72.43327,-8.594284,-36.83611,0,0,0,119.4316,10.04631,-35.19276,-125.5038,-110.0864,-86.82057,0.001067912,-0.1257102,0.09433498,0,0.3,0,0,0,0
638224239726177562,43.44457,41.37942,38.00935,60.36023,-4.785534,-27.02126,-56.99155,-0.4675641,7.027527,-72.43327,-8.594284,-36.90935,0,0,0,125.2728,6.432165,-36.08397,-125.5038,-110.0864,-86.82057,0.001067912,-0.1257102,0.09433498,0,0.3,0,0,0,0
638224239726507456,44.10425,40.37416,38.00935,60.72646,-3.174141,-27.46073,-56.99155,-0.4675641,7.027527,-72.43327,-8.594284,-36.83611,0,0,0,127.8529,4.663138,-36.43558,-125.5038,-110.0864,-86.82057,0.001067912,-0.1257102,0.09433498,0,0.3,0,0,0,0
638224239726857344,45.21157,38.27012,37.986,61.38566,-0.2443342,-28.19318,-56.99155,-0.4675641,7.027527,-72.43327,-8.521038,-36.90935,0,0,0,132.5501,0.841655,-36.77518,-125.5038,-110.0864,-86.82057,0.001067912,-0.1257102,0.09433498,0,0.3,0,0,0,0
638224239727187240,46.03617,35.83878,37.91596,61.97163,2.758718,-28.48616,-56.99155,-0.4675641,7.027527,-72.43327,-8.594284,-36.90935,0,0,0,136.7915,-3.77424,-36.41874,-125.5038,-110.0864,-86.82057,0.001067912,-0.1257102,0.09433498,0,0.3,0,0,0,0
638224239727537131,46.366,34.57636,37.79922,62.19136,4.296866,-28.5594,-56.99155,-0.4675641,7.027527,-72.43327,-8.521038,-36.83611,0,0,0,138.6195,-6.341606,-36.18752,-125.5038,-110.0864,-86.82057,0.001067912,-0.1257102,0.09433498,0,0.3,0,0,0,0
638224239727887015,47.00212,32.14503,37.33228,62.48434,7.153428,-28.5594,-56.99155,-0.4675641,7.027527,-72.36002,-8.521038,-36.83611,0,0,0,141.7239,-11.73009,-36.20014,-125.5038,-110.0864,-86.82057,0.001067912,-0.1257102,0.09433498,0,0.3,0,0,0,0
638224239728226911,47.63824,29.73707,36.49178,62.48434,10.22972,-27.9002,-56.99155,-0.4675641,7.027527,-72.43327,-8.594284,-36.90935,0,0,0,144.1556,-17.71135,-36.89419,-125.5038,-110.0864,-86.82057,0.001067912,-0.1257102,0.09433498,0,0.3,0,0,0,0
638224239728576796,48.2508,27.65641,35.62793,62.19136,12.50033,-27.16775,-56.99155,-0.4675641,7.027527,-72.43327,-8.594284,-36.83611,0,0,0,146.0749,-23.14228,-37.97687,-125.5038,-110.0864,-86.82057,0.001067912,-0.1257102,0.09433498,0,0.3,0,0,0,0
638224239728906693,48.53352,26.53426,35.11428,61.97163,13.89198,-26.58179,-56.99155,-0.4675641,7.027527,-72.43327,-8.594284,-36.83611,0,0,0,146.8773,-26.15931,-38.55704,-125.5038,-110.0864,-86.82057,0.001067912,-0.1257102,0.09433498,0,0.3,0,0,0,0
638224239729256579,49.05184,24.66401,33.94693,61.53215,16.30907,-25.55635,-56.99155,-0.4675641,7.027527,-72.43327,-8.594284,-36.83611,0,0,0,147.7754,-31.62474,-40.12539,-125.5038,-110.0864,-86.82057,0.001067912,-0.1257102,0.09433498,0,0.3,0,0,0,0
638224239729596471,49.52304,23.19118,32.42935,61.16593,18.43318,-24.31118,-56.99155,-0.4675641,7.027527,-72.43327,-8.594284,-36.83611,0,0,0,147.634,-36.69123,-42.36126,-125.5038,-110.0864,-86.82057,0.001067912,-0.1257102,0.09433498,0,0.3,0,0,0,0
638224239729926369,49.71152,22.51321,31.6122,60.94619,19.38537,-23.57873,-56.99155,-0.4675641,7.027527,-72.43327,-8.594284,-36.90935,0,0,0,147.2851,-39.15367,-43.49403,-125.5038,-110.0864,-86.82057,0.001067912,-0.1257102,0.09433498,0,0.3,0,0,0,0
638224239730276257,49.97068,21.1339,30.04793,60.28699,20.92352,-21.96734,-56.99155,-0.4675641,7.027527,-72.43327,-8.521038,-36.83611,0,0,0,146.3684,-43.9995,-45.40461,-125.5038,-110.0864,-86.82057,0.001067912,-0.1257102,0.09433498,0,0.3,0,0,0,0
638224239730616146,50.11204,20.08188,27.94668,59.55453,22.53491,-19.69674,-56.99155,-0.4675641,7.027527,-72.43327,-8.594284,-36.90935,0,0,0,144.0507,-48.66187,-47.95634,-125.5038,-110.0864,-86.82057,0.001067912,-0.1257102,0.09433498,0,0.3,0,0,0,0
638224239730946043,50.15916,19.75458,26.35906,59.04182,23.26737,-18.15859,-56.99155,-0.4675641,7.027527,-72.43327,-8.594284,-36.90935,0,0,0,141.8245,-51.06427,-50.01487,-125.5038,-110.0864,-86.82057,0.001067912,-0.1257102,0.09433498,0,0.3,0,0,0,0
638224239731295931,50.18272,19.66107,22.29664,57.7234,24.80551,-14.56958,-56.99155,-0.4675641,7.027527,-72.43327,-8.594284,-36.90935,0,0,0,135.3136,-55.16335,-55.54179,-125.5038,-110.0864,-86.82057,0.001067912,-0.1257102,0.09433498,0,0.3,0,0,0,0
638224239731635821,50.18272,19.87147,18.39765,55.89228,25.90419,-11.12705,-56.99155,-0.4675641,7.027527,-72.43327,-8.521038,-36.83611,0,0,0,128.6525,-57.85717,-61.09499,-125.5038,-110.0864,-86.82057,0.001067912,-0.1257102,0.09433498,0,0.3,0,0,0,0
638224239731985710,50.18272,20.52606,15.08233,54.20764,26.78313,-8.490229,-56.99155,-0.4675641,7.027527,-72.43327,-8.594284,-36.90935,0,0,0,122.5738,-58.64951,-66.16267,-125.5038,-110.0864,-86.82057,0.001067912,-0.1257102,0.09433498,0,0.3,0,0,0,0
638224239732315606,50.2534,21.017,13.82158,53.32869,26.78313,-7.757777,-56.99155,-0.4675641,7.027527,-72.43327,-8.521038,-36.83611,0,0,0,120.2036,-58.31345,-68.38981,-125.5038,-110.0864,-86.82057,0.001067912,-0.1257102,0.09433498,0,0.3,0,0,0,0
638224239732655498,50.39476,22.37294,12.18727,51.93703,26.12393,-6.732344,-56.99155,-0.4675641,7.027527,-72.43327,-8.521038,-36.83611,0,0,0,116.6957,-56.23716,-71.79291,-125.5038,-110.0864,-86.82057,0.001067912,-0.1257102,0.09433498,0,0.3,0,0,0,0
638224239733005388,50.46544,23.93928,11.20669,50.83836,25.02525,-6.292873,-56.99155,-0.4675641,7.027527,-72.43327,-8.521038,-36.83611,0,0,0,113.9856,-53.34815,-74.27197,-125.5038,-110.0864,-86.82057,0.001067912,-0.1257102,0.09433498,0,0.3,0,0,0,0
638224239733345275,50.489,24.92117,10.85648,50.39889,24.36604,-6.146383,-56.99155,-0.4675641,7.027527,-72.43327,-8.594284,-36.83611,0,0,0,112.6779,-51.42351,-75.42915,-125.5038,-110.0864,-86.82057,0.001067912,-0.1257102,0.09433498,0,0.3,0,0,0,0
638224239733675173,50.53612,27.25899,10.38953,49.59319,22.6814,-6.219628,-56.99155,-0.4675641,7.027527,-72.43327,-8.594284,-36.83611,0,0,0,110.0824,-46.73758,-77.72153,-125.5038,-110.0864,-86.82057,0.001067912,-0.1257102,0.09433498,0,0.3,0,0,0,0
638224239734015060,50.53612,29.78383,10.08602,48.42127,20.48405,-6.80559,-56.99155,-0.4675641,7.027527,-72.43327,-8.594284,-36.90935,0,0,0,107.3797,-41.70038,-79.94661,-125.5038,-110.0864,-86.82057,0.001067912,-0.1257102,0.09433498,0,0.3,0,0,0,0
638224239734364951,50.51255,30.95274,10.01598,47.90855,19.31213,-7.171815,-56.99155,-0.4675641,7.027527,-72.43327,-8.594284,-36.90935,0,0,0,106.158,-39.38163,-80.87913,-125.5038,-110.0864,-86.82057,0.001067912,-0.1257102,0.09433498,0,0.3,0,0,0,0
638224239734704839,50.3712,33.19705,10.01598,46.73663,16.89503,-7.831022,-56.99155,-0.4675641,7.027527,-72.43327,-8.594284,-36.83611,0,0,0,103.8057,-34.95584,-82.38651,-125.5038,-110.0864,-86.82057,0.001067912,-0.1257102,0.09433498,0,0.3,0,0,0,0
638224239735044737,50.1356,35.06731,10.01598,45.5647,14.77092,-8.929699,-56.99155,-0.4675641,7.027527,-72.43327,-8.594284,-36.83611,0,0,0,101.5768,-31.35297,-83.52583,-125.5038,-110.0864,-86.82057,0.001067912,-0.1257102,0.09433498,0,0.3,0,0,0,0
638224239735384625,49.9,36.82067,10.15606,44.39278,12.79331,-10.24811,-56.99155,-0.4675641,7.027527,-72.43327,-8.594284,-36.90935,0,0,0,99.64042,-27.99224,-84.44497,-125.5038,-110.0864,-86.82057,0.001067912,-0.1257102,0.09433498,0,0.3,0,0,0,0
638224239735724516,49.82932,37.73242,10.2728,43.80682,11.76787,-10.90732,-56.99155,-0.4675641,7.027527,-72.43327,-8.594284,-36.90935,0,0,0,98.75909,-26.25556,-84.97868,-125.5038,-110.0864,-86.82057,0.001067912,-0.1257102,0.09433498,0,0.3,0,0,0,0
638224239736054413,49.71152,39.62605,10.6697,42.78139,9.790254,-12.07924,-56.99155,-0.4675641,7.027527,-72.43327,-8.521038,-36.90935,0,0,0,97.17946,-22.64729,-85.96941,-125.5038,-110.0864,-86.82057,0.001067912,-0.1257102,0.09433498,0,0.3,0,0,0,0
638224239736394343,49.68796,41.42618,11.30008,41.90245,7.812634,-13.17792,-56.99155,-0.4675641,7.027527,-72.43327,-8.594284,-36.83611,0,0,0,96.16799,-19.1833,-86.75886,-125.5038,-110.0864,-86.82057,0.001067912,-0.1257102,0.09433498,0,0.3,0,0,0,0
638224239736734197,49.75864,42.1509,11.81372,41.53622,6.713957,-13.69064,-56.99155,-0.4675641,7.027527,-72.43327,-8.594284,-36.90935,0,0,0,96.3046,-17.68618,-86.84705,-125.5038,-110.0864,-86.82057,0.001067912,-0.1257102,0.09433498,0,0.3,0,0,0,0
638224239737084083,50.32408,42.99252,13.02777,41.46298,5.102563,-14.05686,-56.99155,-0.4675641,7.027527,-72.43327,-8.594284,-36.90935,0,0,0,98.20816,-15.63595,-86.8857,-125.5038,-110.0864,-86.82057,0.001067912,-0.1257102,0.09433498,0,0.3,0,0,0,0
638224239737423977,51.12512,43.2263,14.87221,42.34192,3.93064,-14.49633,-56.99155,-0.4675641,7.027527,-72.43327,-8.594284,-36.90935,0,0,0,102.2912,-14.2039,-85.88538,-125.5038,-110.0864,-86.82057,0.001067912,-0.1257102,0.09433498,0,0.3,0,0,0,0
638224239737763866,51.59631,43.2263,15.96953,43.07437,3.491169,-14.78931,-56.99155,-0.4675641,7.027527,-72.43327,-8.594284,-36.83611,0,0,0,104.8953,-13.52481,-85.20006,-125.5038,-110.0864,-86.82057,0.001067912,-0.1257102,0.09433498,0,0.3,0,0,0,0
638224239738093763,52.70363,43.20292,18.14083,44.97874,2.685472,-15.59501,-56.99155,-0.4675641,7.027527,-72.43327,-8.594284,-36.83611,0,0,0,110.3553,-12.08241,-84.29288,-125.5038,-110.0864,-86.82057,0.001067912,-0.1257102,0.09433498,0,0.3,0,0,0,0
638224239738443647,53.74027,43.20292,19.96191,47.24934,2.099511,-16.98667,-56.99155,-0.4675641,7.027527,-72.43327,-8.594284,-36.90935,0,0,0,115.0882,-10.69899,-83.93378,-125.5038,-110.0864,-86.82057,0.001067912,-0.1257102,0.09433498,0,0.3,0,0,0,0
638224239738783539,55.08319,43.20292,21.54953,49.00723,1.733285,-18.67131,-56.99155,-0.4675641,7.027527,-72.43327,-8.594284,-36.90935,0,0,0,119.8681,-9.389582,-84.67655,-125.5038,-110.0864,-86.82057,0.001067912,-0.1257102,0.09433498,0,0.3,0,0,0,0
638224239739123431,55.29523,43.24968,22.06317,49.95942,1.66004,-19.76999,-56.99155,-0.4675641,7.027527,-72.43327,-8.594284,-36.90935,0,0,0,121.0281,-8.866218,-84.53124,-125.5038,-110.0864,-86.82057,0.001067912,-0.1257102,0.09433498,0,0.3,0,0,0,0
638224239739463324,55.31879,43.95102,22.69354,50.98485,1.806531,-21.67436,-56.99155,-0.4675641,7.027527,-72.43327,-8.521038,-36.83611,0,0,0,121.2525,-7.125592,-84.44959,-125.5038,-110.0864,-86.82057,0.001067912,-0.1257102,0.09433498,0,0.3,0,0,0,0
638224239739803218,55.31879,45.96155,24.28116,51.20458,1.147324,-23.359,-56.99155,-0.4675641,7.027527,-72.43327,-8.521038,-36.83611,0,0,0,121.3205,-2.341896,-84.40254,-125.5038,-110.0864,-86.82057,0.001067912,-0.1257102,0.09433498,0,0.3,0,0,0,0
638224239740143108,55.29523,47.10708,25.1917,51.35107,0.4881175,-24.16469,-56.99155,-0.4675641,7.027527,-72.43327,-8.521038,-36.90935,0,0,0,121.2775,0.3788991,-84.35851,-125.5038,-110.0864,-86.82057,0.001067912,-0.1257102,0.09433498,0,0.3,0,0,0,0
638224239740483002,55.27167,49.18774,27.01279,51.79055,-1.489502,-26.4353,-56.99155,-0.4675641,7.027527,-72.43327,-8.521038,-36.90935,0,0,0,121.4067,5.474436,-84.1952,-125.5038,-110.0864,-86.82057,0.001067912,-0.1257102,0.09433498,0,0.3,0,0,0,0
638224239740822890,55.24811,50.91772,28.78718,52.15677,-3.686857,-29.43835,-56.99155,-0.4675641,7.027527,-72.43327,-8.594284,-36.83611,0,0,0,121.8345,9.991934,-83.82441,-125.5038,-110.0864,-86.82057,0.001067912,-0.1257102,0.09433498,0,0.3,0,0,0,0
638224239741152785,55.22455,51.68921,29.58099,52.44975,-4.565799,-30.9765,-56.99155,-0.4675641,7.027527,-72.43327,-8.521038,-36.90935,0,0,0,121.9736,12.01536,-83.65362,-125.5038,-110.0864,-86.82057,0.001067912,-0.1257102,0.09433498,0,0.3,0,0,0,0
638224239741492674,55.22455,53.46595,31.19195,52.88922,-6.689909,-34.19928,-56.99155,-0.4675641,7.027527,-72.43327,-8.594284,-36.83611,0,0,0,121.9327,16.42462,-83.68198,-125.5038,-110.0864,-86.82057,0.001067912,-0.1257102,0.09433498,0,0.3,0,0,0,0
638224239741832566,55.20099,55.24269,32.17253,53.47519,-8.740773,-37.56856,-56.99155,-0.4675641,7.027527,-72.36002,-8.594284,-36.83611,0,0,0,120.7334,20.03301,-84.44122,-125.5038,-110.0864,-86.82057,0.001067912,-0.1257102,0.09433498,0,0.3,0,0,0,0
638224239742172459,55.20099,56.62201,32.31261,53.47519,-10.49866,-41.01108,-56.99155,-0.4675641,7.027527,-72.43327,-8.521038,-36.83611,0,0,0,118.7762,22.00518,-85.80145,-125.5038,-110.0864,-86.82057,0.001067912,-0.1257102,0.09433498,0,0.3,0,0,0,0
638224239742522351,55.20099,57.20647,32.12584,53.1822,-11.30435,-42.62248,-56.99155,-0.4675641,7.027527,-72.43327,-8.594284,-36.83611,0,0,0,117.5383,22.51596,-86.66175,-125.5038,-110.0864,-86.82057,0.001067912,-0.1257102,0.09433498,0,0.3,0,0,0,0
638224239742862237,54.98895,58.37537,31.30868,52.15677,-12.91575,-45.18605,-56.99155,-0.4675641,7.027527,-72.43327,-8.521038,-36.83611,0,0,0,114.0249,22.96616,-88.47614,-125.5038,-110.0864,-86.82057,0.001067912,-0.1257102,0.09433498,0,0.3,0,0,0,0
638224239743202130,54.42351,59.33388,30.30475,50.47213,-14.16092,-46.94394,-56.99155,-0.4675641,7.027527,-72.43327,-8.521038,-36.90935,0,0,0,110.046,22.92332,-89.6331,-125.5038,-110.0864,-86.82057,0.001067912,-0.1257102,0.09433498,0,0.3,0,0,0,0
638224239743542023,53.95231,59.73131,29.65103,49.59319,-14.52714,-47.31017,-56.99155,-0.4675641,7.027527,-72.43327,-8.594284,-36.90935,0,0,0,107.6847,22.6321,-89.97545,-125.5038,-110.0864,-86.82057,0.001067912,-0.1257102,0.09433498,0,0.3,0,0,0,0
638224239743881916,52.77431,60.33914,28.08676,47.39584,-15.03986,-47.89613,-56.99155,-0.4675641,7.027527,-72.43327,-8.521038,-36.90935,0,0,0,102.5362,21.58099,-90.44827,-125.5038,-110.0864,-86.82057,0.001067912,-0.1257102,0.09433498,0,0.3,0,0,0,0
638224239744221808,51.26648,60.61968,26.56919,44.75901,-15.33284,-47.60315,-56.99155,-0.4675641,7.027527,-72.43327,-8.521038,-36.83611,0,0,0,97.56004,20.28128,-90.09589,-125.5038,-110.0864,-86.82057,0.001067912,-0.1257102,0.09433498,0,0.3,0,0,0,0
638224239744571698,49.47592,60.68982,25.23839,41.90245,-15.33284,-46.21149,-56.99155,-0.4675641,7.027527,-72.43327,-8.594284,-36.83611,0,0,0,92.84137,19.00822,-88.98847,-125.5038,-110.0864,-86.82057,0.001067912,-0.1257102,0.09433498,0,0.3,0,0,0,0
638224239744911585,48.43928,60.68982,24.53798,40.58403,-15.25959,-45.03957,-56.99155,-0.4675641,7.027527,-72.43327,-8.594284,-36.83611,0,0,0,90.28391,18.32218,-88.30282,-125.5038,-110.0864,-86.82057,0.001067912,-0.1257102,0.09433498,0,0.3,0,0,0,0
638224239745241481,46.08328,60.78333,23.23053,37.80072,-15.1131,-42.18301,-56.99155,-0.4675641,7.027527,-72.43327,-8.594284,-36.83611,0,0,0,84.77598,17.19654,-86.7206,-125.5038,-110.0864,-86.82057,0.001067912,-0.1257102,0.09433498,0,0.3,0,0,0,0
638224239745581372,43.35033,61.04049,22.1799,34.72442,-15.03986,-39.03346,-56.99155,-0.4675641,7.027527,-72.43327,-8.594284,-36.83611,0,0,0,78.87991,16.54369,-84.79184,-125.5038,-110.0864,-86.82057,0.001067912,-0.1257102,0.09433498,0,0.3,0,0,0,0
638224239745921264,41.77181,61.22752,21.71296,33.03978,-14.89337,-37.34882,-56.99155,-0.4675641,7.027527,-72.43327,-8.594284,-36.83611,0,0,0,75.62277,16.34766,-83.68674,-125.5038,-110.0864,-86.82057,0.001067912,-0.1257102,0.09433498,0,0.3,0,0,0,0
638224239746271152,38.21426,61.76521,21.17597,29.15779,-15.03986,-34.05279,-56.99155,-0.4675641,7.027527,-72.43327,-8.521038,-36.83611,0,0,0,68.82369,16.48794,-80.93546,-125.5038,-110.0864,-86.82057,0.001067912,-0.1257102,0.09433498,0,0.3,0,0,0,0
638224239746611041,34.11483,62.58345,21.17597,24.76308,-15.55258,-30.75676,-56.99155,-0.4675641,7.027527,-72.43327,-8.594284,-36.83611,0,0,0,61.45399,17.37686,-77.6334,-125.5038,-110.0864,-86.82057,0.001067912,-0.1257102,0.09433498,0,0.3,0,0,0,0
638224239746950935,32.20647,62.88737,21.19932,22.78546,-15.9188,-29.3651,-56.99155,-0.4675641,7.027527,-72.43327,-8.594284,-36.83611,0,0,0,58.09085,17.72053,-76.12637,-125.5038,-110.0864,-86.82057,0.001067912,-0.1257102,0.09433498,0,0.3,0,0,0,0
638224239747290827,27.91855,63.56533,21.52618,17.95128,-17.01748,-26.36205,-56.99155,-0.4675641,7.027527,-72.36002,-8.521038,-36.90935,0,0,0,50.70497,18.70843,-72.65992,-125.5038,-110.0864,-86.82057,0.001067912,-0.1257102,0.09433498,0,0.3,0,0,0,0
638224239747630718,22.87672,64.10303,21.94643,12.53114,-18.26265,-23.06602,-56.99155,-0.4675641,7.027527,-72.43327,-8.594284,-36.83611,0,0,0,42.0158,19.62249,-68.77181,-125.5038,-110.0864,-86.82057,0.001067912,-0.1257102,0.09433498,0,0.3,0,0,0,0
638224239747980610,17.83489,64.33681,22.29664,6.305296,-19.36132,-19.62349,-56.99155,-0.4675641,7.027527,-72.36002,-8.594284,-36.83611,0,0,0,33.1832,20.16607,-65.21224,-125.5038,-110.0864,-86.82057,0.001067912,-0.1257102,0.09433498,0,0.3,0,0,0,0
638224239748320499,15.31397,64.33681,22.48342,2.862773,-19.80079,-17.93885,-56.99155,-0.4675641,7.027527,-72.43327,-8.594284,-36.83611,0,0,0,28.72083,20.33165,-63.46486,-125.5038,-110.0864,-86.82057,0.001067912,-0.1257102,0.09433498,0,0.3,0,0,0,0
638224239748660393,10.43706,64.26668,22.95036,-4.315253,-20.60649,-14.78931,-56.99155,-0.4675641,7.027527,-72.43327,-8.594284,-36.83611,0,0,0,19.90824,20.68056,-60.27235,-125.5038,-110.0864,-86.82057,0.001067912,-0.1257102,0.09433498,0,0.3,0,0,0,0
638224239749000280,6.408309,63.93939,23.30057,-11.78626,-21.11921,-12.22573,-56.99155,-0.4675641,7.027527,-72.43327,-8.594284,-36.83611,0,0,0,12.42597,20.66798,-57.71486,-125.5038,-110.0864,-86.82057,0.001067912,-0.1257102,0.09433498,0,0.3,0,0,0,0
638224239749330173,4.735552,63.65885,23.39396,-15.59501,-21.19245,-11.42003,-56.99155,-0.4675641,7.027527,-72.43327,-8.594284,-36.83611,0,0,0,9.255963,20.46584,-56.61656,-125.5038,-110.0864,-86.82057,0.001067912,-0.1257102,0.09433498,0,0.3,0,0,0,0
638224239749680066,2.473796,63.05101,23.44065,-22.26032,-21.04596,-10.24811,-56.99155,-0.4675641,7.027527,-72.43327,-8.594284,-36.90935,0,0,0,4.898091,19.87461,-54.97544,-125.5038,-110.0864,-86.82057,0.001067912,-0.1257102,0.09433498,0,0.3,0,0,0,0
638224239750019956,1.366478,62.65359,23.20718,-27.46073,-20.89947,-9.735395,-56.99155,-0.4675641,7.027527,-72.43327,-8.594284,-36.83611,0,0,0,2.713925,19.23741,-54.57795,-125.5038,-110.0864,-86.82057,0.001067912,-0.1257102,0.09433498,0,0.3,0,0,0,0
638224239750389840,1.225118,62.4198,22.83363,-29.43835,-20.82623,-9.515661,-56.99155,-0.4675641,7.027527,-72.43327,-8.594284,-36.90935,0,0,0,2.426433,18.64649,-54.88892,-125.5038,-110.0864,-86.82057,0.001067912,-0.1257102,0.09433498,0,0.3,0,0,0,0
638224239750689743,1.225118,61.81197,21.80634,-31.78219,-20.53325,-9.36917,-56.99155,-0.4675641,7.027527,-72.43327,-8.594284,-36.90935,0,0,0,2.40588,17.07688,-55.85001,-125.5038,-110.0864,-86.82057,0.001067912,-0.1257102,0.09433498,0,0.3,0,0,0,0
638224239751039633,1.225118,60.83008,20.33547,-32.80762,-19.80079,-9.442415,-56.99155,-0.4675641,7.027527,-72.43327,-8.521038,-36.90935,0,0,0,2.380448,14.74948,-57.03921,-125.5038,-110.0864,-86.82057,0.001067912,-0.1257102,0.09433498,0,0.3,0,0,0,0
638224239751379522,1.319358,58.91307,17.74392,-32.73438,-18.26265,-10.61434,-56.99155,-0.4675641,7.027527,-72.43327,-8.594284,-36.90935,0,0,0,2.521107,10.54264,-58.88518,-125.5038,-110.0864,-86.82057,0.001067912,-0.1257102,0.09433498,0,0.3,0,0,0,0
638224239751709419,1.484278,57.65065,16.29639,-32.36815,-17.38371,-11.27355,-56.99155,-0.4675641,7.027527,-72.43327,-8.594284,-36.83611,0,0,0,2.817476,8.011855,-59.6147,-125.5038,-110.0864,-86.82057,0.001067912,-0.1257102,0.09433498,0,0.3,0,0,0,0
638224239752049308,1.955477,54.3777,13.07447,-30.90325,-14.96661,-12.15249,-56.99155,-0.4675641,7.027527,-72.43327,-8.594284,-36.83611,0,0,0,3.679619,1.853616,-60.57843,-125.5038,-110.0864,-86.82057,0.001067912,-0.1257102,0.09433498,0,0.3,0,0,0,0
638224239752389200,2.285316,50.96449,9.945935,-29.21861,-12.1833,-12.37222,-56.99155,-0.4675641,7.027527,-72.43327,-8.521038,-36.90935,0,0,0,4.267346,-4.415533,-61.41896,-125.5038,-110.0864,-86.82057,0.001067912,-0.1257102,0.09433498,0,0.3,0,0,0,0
638224239752719096,2.426676,49.18774,8.428363,-28.48616,-10.42541,-12.44547,-56.99155,-0.4675641,7.027527,-72.43327,-8.521038,-36.83611,0,0,0,4.517796,-7.633163,-61.74498,-125.5038,-110.0864,-86.82057,0.001067912,-0.1257102,0.09433498,0,0.3,0,0,0,0
638224239753058989,2.897875,45.91479,6.000247,-26.87477,-6.763155,-12.51871,-56.99155,-0.4675641,7.027527,-72.43327,-8.521038,-36.83611,0,0,0,5.395058,-13.48334,-61.77177,-125.5038,-110.0864,-86.82057,0.001067912,-0.1257102,0.09433498,0,0.3,0,0,0,0
638224239753408877,3.746034,43.01589,3.945688,-25.11688,-3.027651,-12.59196,-56.99155,-0.4675641,7.027527,-72.43327,-8.594284,-36.83611,0,0,0,6.969622,-18.71239,-61.90121,-125.5038,-110.0864,-86.82057,0.001067912,-0.1257102,0.09433498,0,0.3,0,0,0,0
638224239753748763,4.358593,41.80023,3.105186,-24.23794,-1.343012,-12.59196,-56.99155,-0.4675641,7.027527,-72.43327,-8.521038,-36.90935,0,0,0,8.103891,-20.92171,-62.02605,-125.5038,-110.0864,-86.82057,0.001067912,-0.1257102,0.09433498,0,0.3,0,0,0,0
638224239754078661,6.05491,39.81308,2.101254,-21.89409,2.465737,-12.59196,-56.99155,-0.4675641,7.027527,-72.43327,-8.594284,-36.83611,0,0,0,11.32033,-24.52832,-61.62824,-125.5038,-110.0864,-86.82057,0.001067912,-0.1257102,0.09433498,0,0.3,0,0,0,0
638224239754418556,8.316667,38.8312,2.007865,-19.11078,5.322299,-12.59196,-56.99155,-0.4675641,7.027527,-72.43327,-8.594284,-36.83611,0,0,0,15.7013,-26.30394,-60.9402,-125.5038,-110.0864,-86.82057,0.001067912,-0.1257102,0.09433498,0,0.3,0,0,0,0
638224239754758447,9.659584,38.57404,2.054559,-17.42614,6.567466,-12.51871,-56.99155,-0.4675641,7.027527,-72.43327,-8.594284,-36.83611,0,0,0,18.29529,-26.76717,-60.86168,-125.5038,-110.0864,-86.82057,0.001067912,-0.1257102,0.09433498,0,0.3,0,0,0,0
638224239755098338,12.7695,38.03634,2.381421,-13.61739,8.252106,-12.37222,-56.99155,-0.4675641,7.027527,-72.43327,-8.594284,-36.83611,0,0,0,24.43923,-27.71975,-60.51465,-125.5038,-110.0864,-86.82057,0.001067912,-0.1257102,0.09433498,0,0.3,0,0,0,0
638224239755448222,16.30349,37.05445,2.871714,-9.22268,9.717009,-11.56653,-56.99155,-0.4675641,7.027527,-72.43327,-8.594284,-36.90935,0,0,0,31.75074,-29.47933,-59.79551,-125.5038,-110.0864,-86.82057,0.001067912,-0.1257102,0.09433498,0,0.3,0,0,0,0
638224239755788117,19.93173,35.79203,3.338659,-4.315253,11.40165,-10.17487,-56.99155,-0.4675641,7.027527,-72.43327,-8.594284,-36.90935,0,0,0,39.52131,-31.78461,-59.3622,-125.5038,-110.0864,-86.82057,0.001067912,-0.1257102,0.09433498,0,0.3,0,0,0,0
638224239756128012,21.84008,35.04393,3.572132,-1.531937,12.20734,-9.515661,-56.99155,-0.4675641,7.027527,-72.43327,-8.594284,-36.83611,0,0,0,43.70594,-33.17078,-59.29866,-125.5038,-110.0864,-86.82057,0.001067912,-0.1257102,0.09433498,0,0.3,0,0,0,0
638224239756467901,25.1856,33.71137,4.039077,3.375489,13.52576,-7.977511,-56.99155,-0.4675641,7.027527,-72.43327,-8.594284,-36.83611,0,0,0,51.20203,-35.65828,-59.4691,-125.5038,-110.0864,-86.82057,0.001067912,-0.1257102,0.09433498,0,0.3,0,0,0,0
638224239756807788,28.17771,32.51908,4.27255,8.209671,14.91741,-6.585854,-56.99155,-0.4675641,7.027527,-72.43327,-8.594284,-36.90935,0,0,0,57.78743,-37.94306,-60.47617,-125.5038,-110.0864,-86.82057,0.001067912,-0.1257102,0.09433498,0,0.3,0,0,0,0
638224239757147685,29.33215,32.19178,4.319244,10.26054,15.64987,-6.219628,-56.99155,-0.4675641,7.027527,-72.36002,-8.521038,-36.83611,0,0,0,60.20187,-38.5784,-61.21245,-125.5038,-110.0864,-86.82057,0.001067912,-0.1257102,0.09433498,0,0.3,0,0,0,0
638224239757487572,31.26407,32.14503,4.389286,13.92279,17.11477,-5.706912,-56.99155,-0.4675641,7.027527,-72.43327,-8.594284,-36.83611,0,0,0,63.89389,-38.65814,-63.11441,-125.5038,-110.0864,-86.82057,0.001067912,-0.1257102,0.09433498,0,0.3,0,0,0,0
638224239757827466,32.55987,32.4957,4.389286,16.33988,17.77398,-6.366118,-56.99155,-0.4675641,7.027527,-72.43327,-8.594284,-36.83611,0,0,0,66.02251,-37.96843,-64.95399,-125.5038,-110.0864,-86.82057,0.001067912,-0.1257102,0.09433498,0,0.3,0,0,0,0
638224239758167356,33.80854,33.33732,4.389286,17.95128,17.33451,-8.050756,-56.99155,-0.4675641,7.027527,-72.43327,-8.521038,-36.83611,0,0,0,67.66775,-36.32413,-67.30172,-125.5038,-110.0864,-86.82057,0.001067912,-0.1257102,0.09433498,0,0.3,0,0,0,0
638224239758507251,34.46822,33.96853,4.389286,18.61049,16.89503,-9.36917,-56.99155,-0.4675641,7.027527,-72.43327,-8.521038,-36.83611,0,0,0,68.36593,-35.10126,-68.75867,-125.5038,-110.0864,-86.82057,0.001067912,-0.1257102,0.09433498,0,0.3,0,0,0,0
638224239758857135,35.85826,35.37122,4.529369,19.78241,15.64987,-12.37222,-56.99155,-0.4675641,7.027527,-72.43327,-8.521038,-36.83611,0,0,0,69.86432,-32.39101,-71.68805,-125.5038,-110.0864,-86.82057,0.001067912,-0.1257102,0.09433498,0,0.3,0,0,0,0
638224239759197033,37.50746,36.28297,5.066357,20.73459,14.18496,-15.15554,-56.99155,-0.4675641,7.027527,-72.43327,-8.521038,-36.90935,0,0,0,72.61932,-30.566,-73.73615,-125.5038,-110.0864,-86.82057,0.001067912,-0.1257102,0.09433498,0,0.3,0,0,0,0
638224239759536919,38.56766,36.47,5.416566,21.46704,13.599,-16.32746,-56.99155,-0.4675641,7.027527,-72.43327,-8.594284,-36.83611,0,0,0,74.7026,-30.14108,-74.66325,-125.5038,-110.0864,-86.82057,0.001067912,-0.1257102,0.09433498,0,0.3,0,0,0,0
638224239759886809,40.99433,36.54013,5.9769,23.51791,12.50033,-18.23184,-56.99155,-0.4675641,7.027527,-72.43327,-8.594284,-36.90935,0,0,0,79.38994,-29.88042,-77.00407,-125.5038,-110.0864,-86.82057,0.001067912,-0.1257102,0.09433498,0,0.3,0,0,0,0
638224239760216705,43.68017,36.51675,6.817402,26.30123,11.47489,-19.98972,-56.99155,-0.4675641,7.027527,-72.36002,-8.594284,-36.83611,0,0,0,84.9481,-29.70619,-79.39527,-125.5038,-110.0864,-86.82057,0.001067912,-0.1257102,0.09433498,0,0.3,0,0,0,0
638224239760576587,46.13041,36.11932,8.054807,29.37753,10.6692,-21.45462,-56.99155,-0.4675641,7.027527,-72.43327,-8.594284,-36.83611,0,0,0,91.12703,-30.07877,-80.74959,-125.5038,-110.0864,-86.82057,0.001067912,-0.1257102,0.09433498,0,0.3,0,0,0,0
638224239760906484,47.26128,35.48811,8.685184,31.06216,10.44946,-22.33356,-56.99155,-0.4675641,7.027527,-72.43327,-8.594284,-36.83611,0,0,0,94.53545,-31.05666,-80.99683,-125.5038,-110.0864,-86.82057,0.001067912,-0.1257102,0.09433498,0,0.3,0,0,0,0
638224239761246374,48.8398,33.50097,9.875894,34.13846,10.37621,-23.57873,-56.99155,-0.4675641,7.027527,-72.43327,-8.594284,-36.83611,0,0,0,100.9368,-34.42129,-80.11031,-125.5038,-110.0864,-86.82057,0.001067912,-0.1257102,0.09433498,0,0.3,0,0,0,0
638224239761586266,49.47592,30.43842,10.80978,36.77529,11.54814,-24.16469,-56.99155,-0.4675641,7.027527,-72.43327,-8.594284,-36.83611,0,0,0,106.4039,-40.07702,-77.39515,-125.5038,-110.0864,-86.82057,0.001067912,-0.1257102,0.09433498,0,0.3,0,0,0,0
638224239761926157,49.5466,28.6383,11.18334,37.94721,12.42708,-24.31118,-56.99155,-0.4675641,7.027527,-72.43327,-8.521038,-36.83611,0,0,0,108.737,-43.55609,-75.63264,-125.5038,-110.0864,-86.82057,0.001067912,-0.1257102,0.09433498,0,0.3,0,0,0,0
638224239762276043,49.38168,24.54711,11.44016,39.92483,15.06391,-23.79847,-56.99155,-0.4675641,7.027527,-72.43327,-8.521038,-36.83611,0,0,0,112.1493,-51.95155,-72.16416,-125.5038,-110.0864,-86.82057,0.001067912,-0.1257102,0.09433498,0,0.3,0,0,0,0
638224239762615940,48.6042,21.017,10.85648,41.02351,18.35994,-21.60111,-56.99155,-0.4675641,7.027527,-72.43327,-8.521038,-36.90935,0,0,0,112.2202,-59.788,-69.42917,-125.5038,-110.0864,-86.82057,0.001067912,-0.1257102,0.09433498,0,0.3,0,0,0,0
638224239762945834,47.94452,19.70782,9.922588,41.09675,20.33756,-20.20946,-56.99155,-0.4675641,7.027527,-72.43327,-8.594284,-36.90935,0,0,0,110.2737,-63.03648,-68.86558,-125.5038,-110.0864,-86.82057,0.001067912,-0.1257102,0.09433498,0,0.3,0,0,0,0
638224239763295720,46.4838,18.81945,7.00418,40.14456,23.78008,-17.49938,-56.99155,-0.4675641,7.027527,-72.43327,-8.594284,-36.90935,0,0,0,103.3251,-65.98785,-70.24264,-125.5038,-110.0864,-86.82057,0.001067912,-0.1257102,0.09433498,0,0.3,0,0,0,0
638224239763635612,44.76393,19.38053,3.875646,38.02045,26.41691,-15.15554,-56.99155,-0.4675641,7.027527,-72.43327,-8.594284,-36.90935,0,0,0,94.92943,-65.4441,-72.63506,-125.5038,-110.0864,-86.82057,0.001067912,-0.1257102,0.09433498,0,0.3,0,0,0,0
638224239763975504,42.80845,20.85336,1.377489,35.23714,28.10155,-13.17792,-56.99155,-0.4675641,7.027527,-72.43327,-8.594284,-36.83611,0,0,0,86.86036,-62.49188,-74.57709,-125.5038,-110.0864,-86.82057,0.001067912,-0.1257102,0.09433498,0,0.3,0,0,0,0
638224239764315393,41.84249,21.92875,0.3969035,33.62574,28.39453,-12.29898,-56.99155,-0.4675641,7.027527,-72.43327,-8.594284,-36.83611,0,0,0,83.13597,-60.19679,-75.50613,-125.5038,-110.0864,-86.82057,0.001067912,-0.1257102,0.09433498,0,0.3,0,0,0,0
638224239764655289,40.05193,24.59387,-0.7704598,30.32971,27.88181,-11.05381,-56.99155,-0.4675641,7.027527,-72.43327,-8.594284,-36.83611,0,0,0,76.86998,-54.48987,-76.90838,-125.5038,-110.0864,-86.82057,0.001067912,-0.1257102,0.09433498,0,0.3,0,0,0,0
638224239765005174,39.29802,27.04858,-0.9572379,27.25341,26.34366,-10.46785,-56.99155,-0.4675641,7.027527,-72.43327,-8.594284,-36.83611,0,0,0,73.80891,-49.34103,-78.16676,-125.5038,-110.0864,-86.82057,0.001067912,-0.1257102,0.09433498,0,0.3,0,0,0,0
638224239765345068,39.29802,27.53952,-0.9105434,26.37447,25.46472,-10.32136,-56.99155,-0.4675641,7.027527,-72.43327,-8.594284,-36.83611,0,0,0,73.54589,-48.3274,-78.48813,-125.5038,-110.0864,-86.82057,0.001067912,-0.1257102,0.09433498,0,0.3,0,0,0,0
638224239765684959,39.43937,27.30574,-0.8638488,25.1293,24.14631,-10.17487,-56.99155,-0.4675641,7.027527,-72.43327,-8.594284,-36.83611,0,0,0,73.99559,-48.81205,-78.39241,-125.5038,-110.0864,-86.82057,0.001067912,-0.1257102,0.09433498,0,0.3,0,0,0,0
638224239766024851,39.86345,26.13683,-0.7704598,24.90957,23.63359,-10.10162,-56.99155,-0.4675641,7.027527,-72.43327,-8.594284,-36.83611,0,0,0,75.58275,-51.24509,-77.83679,-125.5038,-110.0864,-86.82057,0.001067912,-0.1257102,0.09433498,0,0.3,0,0,0,0
638224239766374744,40.5467,23.98604,-0.4669453,25.42229,23.78008,-9.808641,-56.99155,-0.4675641,7.027527,-72.43327,-8.594284,-36.83611,0,0,0,78.49419,-55.78693,-76.59663,-125.5038,-110.0864,-86.82057,0.001067912,-0.1257102,0.09433498,0,0.3,0,0,0,0
638224239766704633,40.85297,22.58335,-0.2801672,26.08149,24.2928,-9.36917,-56.99155,-0.4675641,7.027527,-72.43327,-8.594284,-36.83611,0,0,0,80.11201,-58.78841,-75.71263,-125.5038,-110.0864,-86.82057,0.001067912,-0.1257102,0.09433498,0,0.3,0,0,0,0
638224239767044525,41.25349,19.24026,0.1400836,27.61964,26.12393,-8.563474,-56.99155,-0.4675641,7.027527,-72.43327,-8.594284,-36.90935,0,0,0,83.23354,-66.05676,-73.45201,-125.5038,-110.0864,-86.82057,0.001067912,-0.1257102,0.09433498,0,0.3,0,0,0,0
638224239767384417,41.34773,15.99069,0.4669453,28.93805,28.68751,-8.050756,-56.99155,-0.4675641,7.027527,-72.43327,-8.594284,-36.90935,0,0,0,85.4039,-73.26015,-71.29996,-125.5038,-110.0864,-86.82057,0.001067912,-0.1257102,0.09433498,0,0.3,0,0,0,0
638224239767714313,41.37129,14.44773,0.7237652,29.30428,30.07917,-7.904267,-56.99155,-0.4675641,7.027527,-72.43327,-8.521038,-36.83611,0,0,0,86.46188,-76.71898,-70.17913,-125.5038,-110.0864,-86.82057,0.001067912,-0.1257102,0.09433498,0,0.3,0,0,0,0
638224239768064196,41.55977,11.57221,1.470878,29.89024,33.08222,-7.757777,-56.99155,-0.4675641,7.027527,-72.43327,-8.594284,-36.83611,0,0,0,88.93706,-83.20568,-68.036,-125.5038,-110.0864,-86.82057,0.001067912,-0.1257102,0.09433498,0,0.3,0,0,0,0
638224239768404093,41.96029,9.608441,2.451463,30.10997,35.27958,-7.904267,-56.99155,-0.4675641,7.027527,-72.43327,-8.594284,-36.83611,0,0,0,91.72272,-87.61998,-66.33951,-125.5038,-110.0864,-86.82057,0.001067912,-0.1257102,0.09433498,0,0.3,0,0,0,0
638224239768743983,42.29013,8.766827,3.128534,30.25646,36.305,-8.343738,-56.99155,-0.4675641,7.027527,-72.43327,-8.594284,-36.90935,0,0,0,93.57797,-89.4769,-65.47356,-125.5038,-110.0864,-86.82057,0.001067912,-0.1257102,0.09433498,0,0.3,0,0,0,0
638224239769083876,43.44457,7.55116,4.926273,30.69594,38.06289,-9.955132,-56.99155,-0.4675641,7.027527,-72.43327,-8.594284,-36.90935,0,0,0,98.77773,-91.9837,-64.0581,-125.5038,-110.0864,-86.82057,0.001067912,-0.1257102,0.09433498,0,0.3,0,0,0,0
638224239769423770,44.88173,6.873192,6.980833,32.08759,39.08832,-11.71302,-56.99155,-0.4675641,7.027527,-72.43327,-8.521038,-36.90935,0,0,0,104.858,-93.05315,-63.05819,-125.5038,-110.0864,-86.82057,0.001067912,-0.1257102,0.09433498,0,0.3,0,0,0,0
638224239769763656,45.63565,6.686166,8.03146,32.89329,39.45455,-12.59196,-56.99155,-0.4675641,7.027527,-72.36002,-8.521038,-36.90935,0,0,0,108.0042,-93.16597,-62.71602,-125.5038,-110.0864,-86.82057,0.001067912,-0.1257102,0.09433498,0,0.3,0,0,0,0
638224239770093554,47.23772,6.616032,10.31949,35.16389,39.82077,-14.05686,-56.99155,-0.4675641,7.027527,-72.43327,-8.521038,-36.90935,0,0,0,114.7885,-92.47902,-62.19499,-125.5038,-110.0864,-86.82057,0.001067912,-0.1257102,0.09433498,0,0.3,0,0,0,0
638224239770433440,48.65132,6.803057,12.44409,38.31343,39.60104,-14.56958,-56.99155,-0.4675641,7.027527,-72.43327,-8.594284,-36.90935,0,0,0,120.973,-91.07094,-61.89036,-125.5038,-110.0864,-86.82057,0.001067912,-0.1257102,0.09433498,0,0.3,0,0,0,0
638224239770773336,49.9,7.340756,14.10175,41.8292,39.01508,-14.71607,-56.99155,-0.4675641,7.027527,-72.43327,-8.594284,-36.83611,0,0,0,126.0185,-88.9433,-62.23253,-125.5038,-110.0864,-86.82057,0.001067912,-0.1257102,0.09433498,0,0.3,0,0,0,0
638224239771113228,50.489,7.831698,14.73212,43.51384,38.64885,-14.71607,-56.99155,-0.4675641,7.027527,-72.43327,-8.594284,-36.83611,0,0,0,128.0826,-87.4454,-62.72552,-125.5038,-110.0864,-86.82057,0.001067912,-0.1257102,0.09433498,0,0.3,0,0,0,0
638224239771453118,51.47852,9.23439,15.89949,46.95637,37.40368,-14.56958,-56.99155,-0.4675641,7.027527,-72.43327,-8.521038,-36.83611,0,0,0,131.5587,-83.49937,-63.62288,-125.5038,-110.0864,-86.82057,0.001067912,-0.1257102,0.09433498,0,0.3,0,0,0,0
638224239771793013,52.1382,10.98776,16.95012,50.39889,35.86554,-13.54414,-56.99155,-0.4675641,7.027527,-72.43327,-8.594284,-36.90935,0,0,0,134.0419,-78.79073,-64.14467,-125.5038,-110.0864,-86.82057,0.001067912,-0.1257102,0.09433498,0,0.3,0,0,0,0
638224239772132901,52.35023,11.99302,17.34702,52.01028,34.91335,-12.81169,-56.99155,-0.4675641,7.027527,-72.43327,-8.521038,-36.83611,0,0,0,134.7565,-76.22564,-64.38696,-125.5038,-110.0864,-86.82057,0.001067912,-0.1257102,0.09433498,0,0.3,0,0,0,0
638224239772472795,52.60939,14.33084,17.79062,54.94009,33.00897,-11.05381,-56.99155,-0.4675641,7.027527,-72.43327,-8.594284,-36.83611,0,0,0,135.0231,-70.61626,-65.15215,-125.5038,-110.0864,-86.82057,0.001067912,-0.1257102,0.09433498,0,0.3,0,0,0,0
638224239772812687,52.68008,17.06609,17.9307,57.43042,30.66513,-9.442415,-56.99155,-0.4675641,7.027527,-72.43327,-8.594284,-36.83611,0,0,0,134.0273,-64.3883,-66.17484,-125.5038,-110.0864,-86.82057,0.001067912,-0.1257102,0.09433498,0,0.3,0,0,0,0
638224239773152578,52.68008,18.4454,17.9307,58.5291,29.41996,-8.563474,-56.99155,-0.4675641,7.027527,-72.43327,-8.594284,-36.90935,0,0,0,133.2488,-61.33108,-66.76835,-125.5038,-110.0864,-86.82057,0.001067912,-0.1257102,0.09433498,0,0.3,0,0,0,0
638224239773492470,52.63295,21.29754,17.90735,60.65321,26.27042,-6.80559,-56.99155,-0.4675641,7.027527,-72.43327,-8.594284,-36.83611,0,0,0,131.3311,-55.10563,-68.05946,-125.5038,-110.0864,-86.82057,0.001067912,-0.1257102,0.09433498,0,0.3,0,0,0,0
638224239773832361,52.46804,23.42496,17.90735,62.26461,23.34061,-5.413931,-56.99155,-0.4675641,7.027527,-72.43327,-8.594284,-36.83611,0,0,0,129.5481,-50.52687,-68.82935,-125.5038,-110.0864,-86.82057,0.001067912,-0.1257102,0.09433498,0,0.3,0,0,0,0
638224239774202239,52.256,25.10819,17.90735,63.43653,20.26431,-4.168763,-56.99155,-0.4675641,7.027527,-72.43327,-8.594284,-36.83611,0,0,0,127.9058,-46.9556,-69.33613,-125.5038,-110.0864,-86.82057,0.001067912,-0.1257102,0.09433498,0,0.3,0,0,0,0
638224239774532135,52.18531,25.57575,17.90735,63.80275,19.31213,-3.656047,-56.99155,-0.4675641,7.027527,-72.43327,-8.594284,-36.83611,0,0,0,127.4156,-45.97211,-69.46399,-125.5038,-110.0864,-86.82057,0.001067912,-0.1257102,0.09433498,0,0.3,0,0,0,0
638224239774872027,52.04396,26.55764,17.90735,64.68169,17.26126,-2.337634,-56.99155,-0.4675641,7.027527,-72.43327,-8.594284,-36.83611,0,0,0,126.3795,-43.91935,-69.76755,-125.5038,-110.0864,-86.82057,0.001067912,-0.1257102,0.09433498,0,0.3,0,0,0,0
638224239775211918,51.9026,27.25899,17.90735,65.63388,15.57662,-0.6529952,-56.99155,-0.4675641,7.027527,-72.43327,-8.521038,-36.83611,0,0,0,125.5546,-42.46378,-69.91183,-125.5038,-110.0864,-86.82057,0.001067912,-0.1257102,0.09433498,0,0.3,0,0,0,0
638224239775551812,51.85547,27.60966,17.86066,66.07335,14.84417,0.006211365,-56.99155,-0.4675641,7.027527,-72.43327,-8.594284,-36.83611,0,0,0,125.0965,-41.77278,-70.10475,-125.5038,-110.0864,-86.82057,0.001067912,-0.1257102,0.09433498,0,0.3,0,0,0,0
638224239775881709,51.71412,28.52141,17.58049,66.87905,13.45251,1.178134,-56.99155,-0.4675641,7.027527,-72.36002,-8.521038,-36.90935,0,0,0,123.5825,-40.09879,-70.79981,-125.5038,-110.0864,-86.82057,0.001067912,-0.1257102,0.09433498,0,0.3,0,0,0,0
638224239776221596,51.36071,29.97086,17.25363,67.46501,11.76787,2.276812,-56.99155,-0.4675641,7.027527,-72.43327,-8.594284,-36.90935,0,0,0,121.1242,-37.38316,-71.52175,-125.5038,-110.0864,-86.82057,0.001067912,-0.1257102,0.09433498,0,0.3,0,0,0,0
638224239776561491,51.05444,30.8826,17.0902,67.68475,10.74244,2.862773,-56.99155,-0.4675641,7.027527,-72.43327,-8.521038,-36.83611,0,0,0,119.4865,-35.66572,-71.77959,-125.5038,-110.0864,-86.82057,0.001067912,-0.1257102,0.09433498,0,0.3,0,0,0,0
638224239776901383,50.22984,32.7061,16.66995,67.83124,8.545086,4.474167,-56.99155,-0.4675641,7.027527,-72.43327,-8.594284,-36.90935,0,0,0,115.6463,-32.3427,-72.09911,-125.5038,-110.0864,-86.82057,0.001067912,-0.1257102,0.09433498,0,0.3,0,0,0,0
638224239777251286,49.14608,34.50623,16.203,67.39177,6.347731,6.08556,-56.99155,-0.4675641,7.027527,-72.43327,-8.594284,-36.83611,0,0,0,111.2629,-29.161,-72.1276,-125.5038,-110.0864,-86.82057,0.001067912,-0.1257102,0.09433498,0,0.3,0,0,0,0
638224239777591159,47.73248,36.18946,15.61932,66.80581,4.077131,7.843444,-56.99155,-0.4675641,7.027527,-72.43327,-8.521038,-36.83611,0,0,0,106.2113,-26.33816,-71.81512,-125.5038,-110.0864,-86.82057,0.001067912,-0.1257102,0.09433498,0,0.3,0,0,0,0
638224239777931054,46.97857,36.84405,15.29246,66.29308,2.905208,8.575896,-56.99155,-0.4675641,7.027527,-72.43327,-8.594284,-36.83611,0,0,0,103.7331,-25.3165,-71.54473,-125.5038,-110.0864,-86.82057,0.001067912,-0.1257102,0.09433498,0,0.3,0,0,0,0
638224239778270943,45.23512,37.82593,14.42861,65.12117,0.6346079,10.26054,-56.99155,-0.4675641,7.027527,-72.36002,-8.521038,-36.90935,0,0,0,98.37615,-24.01515,-70.77797,-125.5038,-110.0864,-86.82057,0.001067912,-0.1257102,0.09433498,0,0.3,0,0,0,0
638224239778610835,43.39745,38.41039,13.2379,63.65627,-1.635992,12.16491,-56.99155,-0.4675641,7.027527,-72.43327,-8.594284,-36.90935,0,0,0,92.77097,-23.60757,-70.2387,-125.5038,-110.0864,-86.82057,0.001067912,-0.1257102,0.09433498,0,0.3,0,0,0,0
638224239778950729,42.54929,38.55066,12.63087,62.77732,-2.58818,13.19034,-56.99155,-0.4675641,7.027527,-72.43327,-8.594284,-36.83611,0,0,0,90.24001,-23.66825,-70.04024,-125.5038,-110.0864,-86.82057,0.001067912,-0.1257102,0.09433498,0,0.3,0,0,0,0
638224239779290619,40.75874,38.64417,11.23003,60.87295,-4.199574,15.60743,-56.99155,-0.4675641,7.027527,-72.43327,-8.594284,-36.83611,0,0,0,84.95297,-24.17211,-69.7876,-125.5038,-110.0864,-86.82057,0.001067912,-0.1257102,0.09433498,0,0.3,0,0,0,0
638224239779640509,38.99174,38.64417,10.01598,59.04182,-5.444741,18.02452,-56.99155,-0.4675641,7.027527,-72.43327,-8.594284,-36.83611,0,0,0,80.12602,-24.69299,-69.37341,-125.5038,-110.0864,-86.82057,0.001067912,-0.1257102,0.09433498,0,0.3,0,0,0,0
638224239779980400,37.15406,38.64417,8.685184,57.0642,-6.763155,20.44161,-56.99155,-0.4675641,7.027527,-72.43327,-8.594284,-36.90935,0,0,0,75.06509,-25.19621,-69.29057,-125.5038,-110.0864,-86.82057,0.001067912,-0.1257102,0.09433498,0,0.3,0,0,0,0
638224239780310294,36.32946,38.64417,8.03146,56.03876,-7.495606,21.46704,-56.99155,-0.4675641,7.027527,-72.43327,-8.594284,-36.83611,0,0,0,72.73992,-25.41738,-69.43324,-125.5038,-110.0864,-86.82057,0.001067912,-0.1257102,0.09433498,0,0.3,0,0,0,0
638224239780650184,34.46822,38.64417,6.817402,53.76817,-8.814018,23.73765,-56.99155,-0.4675641,7.027527,-72.43327,-8.594284,-36.90935,0,0,0,67.90312,-25.78249,-69.43286,-125.5038,-110.0864,-86.82057,0.001067912,-0.1257102,0.09433498,0,0.3,0,0,0,0
638224239780990187,32.81903,38.59741,5.930205,51.79055,-9.619716,25.86176,-56.99155,-0.4675641,7.027527,-72.43327,-8.594284,-36.83611,0,0,0,63.95278,-26.09674,-69.18704,-125.5038,-110.0864,-86.82057,0.001067912,-0.1257102,0.09433498,0,0.3,0,0,0,0
638224239781329968,31.99443,38.55066,5.533302,50.76511,-9.985942,26.81394,-56.99155,-0.4675641,7.027527,-72.43327,-8.594284,-36.90935,0,0,0,62.06802,-26.27407,-68.99891,-125.5038,-110.0864,-86.82057,0.001067912,-0.1257102,0.09433498,0,0.3,0,0,0,0
638224239781669857,30.36879,38.5039,4.879579,48.78749,-10.5719,28.49858,-56.99155,-0.4675641,7.027527,-72.43327,-8.594284,-36.83611,0,0,0,58.4928,-26.49726,-68.5269,-125.5038,-110.0864,-86.82057,0.001067912,-0.1257102,0.09433498,0,0.3,0,0,0,0
638224239782009755,28.38975,38.5039,4.389286,46.73663,-11.15786,29.96349,-56.99155,-0.4675641,7.027527,-72.43327,-8.594284,-36.90935,0,0,0,54.46985,-26.58946,-67.56704,-125.5038,-110.0864,-86.82057,0.001067912,-0.1257102,0.09433498,0,0.3,0,0,0,0
638224239782349645,27.44736,38.5039,4.155813,45.85769,-11.52409,30.62269,-56.99155,-0.4675641,7.027527,-72.43327,-8.521038,-36.90935,0,0,0,52.55511,-26.62995,-67.16567,-125.5038,-110.0864,-86.82057,0.001067912,-0.1257102,0.09433498,0,0.3,0,0,0,0
638224239782689534,25.20916,38.45715,3.665521,43.58709,-12.25654,32.08759,-56.99155,-0.4675641,7.027527,-72.43327,-8.594284,-36.83611,0,0,0,48.10732,-26.79296,-66.15913,-125.5038,-110.0864,-86.82057,0.001067912,-0.1257102,0.09433498,0,0.3,0,0,0,0
638224239783029425,22.64112,38.36363,3.198575,40.95026,-12.98899,33.5525,-56.99155,-0.4675641,7.027527,-72.43327,-8.594284,-36.83611,0,0,0,43.11472,-27.02856,-64.9827,-125.5038,-110.0864,-86.82057,0.001067912,-0.1257102,0.09433498,0,0.3,0,0,0,0
638224239783379394,20.07309,38.17661,2.801672,38.24019,-13.72145,35.0174,-56.99155,-0.4675641,7.027527,-72.43327,-8.594284,-36.83611,0,0,0,38.2159,-27.41864,-63.76795,-125.5038,-110.0864,-86.82057,0.001067912,-0.1257102,0.09433498,0,0.3,0,0,0,0
638224239783719204,18.70661,38.01296,2.591547,36.84853,-14.08767,35.8231,-56.99155,-0.4675641,7.027527,-72.43327,-8.594284,-36.90935,0,0,0,35.62973,-27.7414,-63.12647,-125.5038,-110.0864,-86.82057,0.001067912,-0.1257102,0.09433498,0,0.3,0,0,0,0
638224239784069113,16.11501,37.59215,2.124601,33.62574,-14.67363,37.21476,-56.99155,-0.4675641,7.027527,-72.43327,-8.594284,-36.83611,0,0,0,30.70068,-28.55995,-62.0895,-125.5038,-110.0864,-86.82057,0.001067912,-0.1257102,0.09433498,0,0.3,0,0,0,0
638224239784408984,13.54698,36.82067,1.330794,30.18322,-14.67363,38.53317,-56.99155,-0.4675641,7.027527,-72.43327,-8.594284,-36.83611,0,0,0,25.73054,-30.04572,-61.56039,-125.5038,-110.0864,-86.82057,0.001067912,-0.1257102,0.09433498,0,0.3,0,0,0,0
638224239784748881,12.4161,36.30635,0.8405016,28.57183,-14.60039,39.11913,-56.99155,-0.4675641,7.027527,-72.43327,-8.521038,-36.90935,0,0,0,23.52592,-31.02879,-61.49118,-125.5038,-110.0864,-86.82057,0.001067912,-0.1257102,0.09433498,0,0.3,0,0,0,0
638224239785078822,9.918744,35.1842,-0.2101254,25.27579,-14.16092,40.21781,-56.99155,-0.4675641,7.027527,-72.43327,-8.594284,-36.90935,0,0,0,18.689,-33.16191,-61.4733,-125.5038,-110.0864,-86.82057,0.001067912,-0.1257102,0.09433498,0,0.3,0,0,0,0
638224239785428659,7.374268,34.17893,-1.073974,21.97976,-13.35522,41.17,-56.99155,-0.4675641,7.027527,-72.43327,-8.594284,-36.83611,0,0,0,13.83863,-35.06331,-61.42245,-125.5038,-110.0864,-86.82057,0.001067912,-0.1257102,0.09433498,0,0.3,0,0,0,0
638224239785768551,4.853352,33.33732,-1.751045,18.39075,-12.62277,41.90245,-56.99155,-0.4675641,7.027527,-72.43327,-8.521038,-36.83611,0,0,0,9.080939,-36.65296,-61.40238,-125.5038,-110.0864,-86.82057,0.001067912,-0.1257102,0.09433498,0,0.3,0,0,0,0
638224239786098446,3.675354,32.98664,-2.007865,16.55962,-12.32979,42.19543,-56.99155,-0.4675641,7.027527,-72.43327,-8.594284,-36.83611,0,0,0,6.870661,-37.31658,-61.38894,-125.5038,-110.0864,-86.82057,0.001067912,-0.1257102,0.09433498,0,0.3,0,0,0,0
638224239786448333,1.437158,32.44894,-2.334727,12.89736,-11.89032,42.70815,-56.99155,-0.4675641,7.027527,-72.43327,-8.594284,-36.90935,0,0,0,2.686064,-38.34064,-61.28597,-125.5038,-110.0864,-86.82057,0.001067912,-0.1257102,0.09433498,0,0.3,0,0,0,0
638224239786788226,-0.6596789,32.14503,-2.451463,9.308348,-11.52409,43.51384,-56.99155,-0.4675641,7.027527,-72.43327,-8.594284,-36.83611,0,0,0,-1.234276,-38.9272,-61.15291,-125.5038,-110.0864,-86.82057,0.001067912,-0.1257102,0.09433498,0,0.3,0,0,0,0
638224239787138117,-1.578517,32.00476,-2.451463,7.770199,-11.45084,43.80682,-56.99155,-0.4675641,7.027527,-72.43327,-8.594284,-36.83611,0,0,0,-2.957912,-39.20383,-61.01319,-125.5038,-110.0864,-86.82057,0.001067912,-0.1257102,0.09433498,0,0.3,0,0,0,0
638224239787478007,-3.486874,31.65409,-2.451463,4.400921,-11.15786,44.17305,-56.99155,-0.4675641,7.027527,-72.43327,-8.594284,-36.83611,0,0,0,-6.556869,-39.89725,-60.74159,-125.5038,-110.0864,-86.82057,0.001067912,-0.1257102,0.09433498,0,0.3,0,0,0,0
638224239787817899,-5.442351,31.18653,-2.451463,0.8851534,-11.08462,44.31954,-56.99155,-0.4675641,7.027527,-72.43327,-8.594284,-36.83611,0,0,0,-10.27876,-40.82589,-60.46326,-125.5038,-110.0864,-86.82057,0.001067912,-0.1257102,0.09433498,0,0.3,0,0,0,0
638224239788157789,-6.36119,30.95274,-2.451463,-0.57975,-11.01137,44.39278,-56.99155,-0.4675641,7.027527,-72.43327,-8.594284,-36.90935,0,0,0,-12.03863,-41.29193,-60.36289,-125.5038,-110.0864,-86.82057,0.001067912,-0.1257102,0.09433498,0,0.3,0,0,0,0
638224239788507675,-8.222426,30.36828,-2.544852,-4.095518,-10.93813,44.39278,-56.99155,-0.4675641,7.027527,-72.43327,-8.521038,-36.90935,0,0,0,-15.60774,-42.45256,-60.33925,-125.5038,-110.0864,-86.82057,0.001067912,-0.1257102,0.09433498,0,0.3,0,0,0,0
638224239788847570,-10.10722,29.62018,-2.708283,-7.464796,-10.93813,44.31954,-56.99155,-0.4675641,7.027527,-72.43327,-8.594284,-36.90935,0,0,0,-19.23784,-43.94307,-60.4282,-125.5038,-110.0864,-86.82057,0.001067912,-0.1257102,0.09433498,0,0.3,0,0,0,0
638224239789197474,-12.10982,28.77857,-2.778325,-10.68758,-10.71839,44.0998,-56.99155,-0.4675641,7.027527,-72.43327,-8.594284,-36.83611,0,0,0,-23.1637,-45.64511,-60.39126,-125.5038,-110.0864,-86.82057,0.001067912,-0.1257102,0.09433498,0,0.3,0,0,0,0
638224239789537348,-13.09934,28.33438,-2.801672,-12.22573,-10.49866,43.88007,-56.99155,-0.4675641,7.027527,-72.43327,-8.594284,-36.90935,0,0,0,-25.12434,-46.5505,-60.37893,-125.5038,-110.0864,-86.82057,0.001067912,-0.1257102,0.09433498,0,0.3,0,0,0,0
638224239789877240,-15.33753,27.25899,-2.801672,-16.10773,-10.35217,42.70815,-56.99155,-0.4675641,7.027527,-72.43327,-8.594284,-36.83611,0,0,0,-29.63059,-48.76453,-60.31691,-125.5038,-110.0864,-86.82057,0.001067912,-0.1257102,0.09433498,0,0.3,0,0,0,0
638224239790217132,-17.66997,25.80954,-2.801672,-20.13621,-9.766206,41.09675,-56.99155,-0.4675641,7.027527,-72.43327,-8.594284,-36.83611,0,0,0,-34.46014,-51.78256,-60.17641,-125.5038,-110.0864,-86.82057,0.001067912,-0.1257102,0.09433498,0,0.3,0,0,0,0
638224239790557022,-18.82441,25.03806,-2.801672,-21.96734,-9.106999,40.29105,-56.99155,-0.4675641,7.027527,-72.43327,-8.594284,-36.83611,0,0,0,-36.88128,-53.40421,-60.16305,-125.5038,-110.0864,-86.82057,0.001067912,-0.1257102,0.09433498,0,0.3,0,0,0,0
638224239790906913,-21.20397,23.09766,-2.754977,-26.06907,-7.861832,38.24019,-56.99155,-0.4675641,7.027527,-72.43327,-8.594284,-36.83611,0,0,0,-42.04667,-57.53272,-59.96945,-125.5038,-110.0864,-86.82057,0.001067912,-0.1257102,0.09433498,0,0.3,0,0,0,0
638224239791246806,-23.48928,20.82998,-2.684936,-30.46378,-6.543418,36.18932,-56.99155,-0.4675641,7.027527,-72.43327,-8.521038,-36.83611,0,0,0,-47.18663,-62.43488,-59.77264,-125.5038,-110.0864,-86.82057,0.001067912,-0.1257102,0.09433498,0,0.3,0,0,0,0
638224239791586696,-25.39764,18.46878,-2.568199,-34.78524,-4.785534,34.28495,-56.99155,-0.4675641,7.027527,-72.43327,-8.594284,-36.83611,0,0,0,-51.6851,-67.6224,-59.48984,-125.5038,-110.0864,-86.82057,0.001067912,-0.1257102,0.09433498,0,0.3,0,0,0,0
638224239791926589,-26.08088,17.46352,-2.544852,-36.68962,-3.906592,33.33276,-56.99155,-0.4675641,7.027527,-72.43327,-8.594284,-36.90935,0,0,0,-53.32067,-69.85036,-59.41696,-125.5038,-110.0864,-86.82057,0.001067912,-0.1257102,0.09433498,0,0.3,0,0,0,0
638224239792276477,-27.18819,15.71015,-2.544852,-40.20539,-2.441689,30.98892,-56.99155,-0.4675641,7.027527,-72.43327,-8.521038,-36.83611,0,0,0,-55.94811,-73.76117,-59.43156,-125.5038,-110.0864,-86.82057,0.001067912,-0.1257102,0.09433498,0,0.3,0,0,0,0
638224239792616369,-27.98923,14.54124,-2.638241,-43.28168,-0.9035407,27.25341,-56.99155,-0.4675641,7.027527,-72.43327,-8.594284,-36.90935,0,0,0,-57.6966,-76.37756,-59.78926,-125.5038,-110.0864,-86.82057,0.001067912,-0.1257102,0.09433498,0,0.3,0,0,0,0
638224239792956258,-28.34263,14.19057,-2.754977,-44.74659,-0.09784385,24.54334,-56.99155,-0.4675641,7.027527,-72.36002,-8.594284,-36.83611,0,0,0,-58.3324,-77.15542,-60.20783,-125.5038,-110.0864,-86.82057,0.001067912,-0.1257102,0.09433498,0,0.3,0,0,0,0
638224239793296149,-28.86095,13.95679,-3.105186,-46.94394,1.293814,18.17101,-56.99155,-0.4675641,7.027527,-72.43327,-8.521038,-36.83611,0,0,0,-58.97924,-77.64153,-61.33698,-125.5038,-110.0864,-86.82057,0.001067912,-0.1257102,0.09433498,0,0.3,0,0,0,0
638224239793636044,-29.23791,13.95679,-3.478743,-48.62858,2.172756,10.77325,-56.99155,-0.4675641,7.027527,-72.43327,-8.594284,-36.83611,0,0,0,-59.25807,-77.5916,-62.48472,-125.5038,-110.0864,-86.82057,0.001067912,-0.1257102,0.09433498,0,0.3,0,0,0,0
638224239793985934,-29.35571,13.98017,-3.898993,-50.09349,2.831963,2.643037,-56.99155,-0.4675641,7.027527,-72.43327,-8.521038,-36.83611,0,0,0,-58.99067,-77.47587,-63.46895,-125.5038,-110.0864,-86.82057,0.001067912,-0.1257102,0.09433498,0,0.3,0,0,0,0
638224239794325823,-29.35571,14.09706,-4.085772,-50.53296,3.198189,-1.312202,-56.99155,-0.4675641,7.027527,-72.43327,-8.594284,-36.83611,0,0,0,-58.74573,-77.18167,-63.90444,-125.5038,-110.0864,-86.82057,0.001067912,-0.1257102,0.09433498,0,0.3,0,0,0,0
638224239794665714,-29.59131,14.19057,-5.113051,-51.11892,3.710905,-7.318305,-56.99155,-0.4675641,7.027527,-72.43327,-8.521038,-36.83611,0,0,0,-57.97162,-76.77891,-66.26545,-125.5038,-110.0864,-86.82057,0.001067912,-0.1257102,0.09433498,0,0.3,0,0,0,0
638224239795015601,-29.73267,14.44773,-6.257067,-51.19216,4.882828,-11.93275,-56.99155,-0.4675641,7.027527,-72.43327,-8.594284,-36.90935,0,0,0,-56.83589,-75.93524,-68.83796,-125.5038,-110.0864,-86.82057,0.001067912,-0.1257102,0.09433498,0,0.3,0,0,0,0
638224239795345497,-29.73267,14.84516,-6.49054,-50.75269,5.468789,-13.32441,-56.99155,-0.4675641,7.027527,-72.43327,-8.594284,-36.90935,0,0,0,-56.45207,-74.98,-69.50999,-125.5038,-110.0864,-86.82057,0.001067912,-0.1257102,0.09433498,0,0.3,0,0,0,0
638224239795695384,-29.77979,16.10758,-6.537234,-50.09349,5.395544,-14.64282,-56.99155,-0.4675641,7.027527,-72.43327,-8.594284,-36.90935,0,0,0,-56.09032,-72.13611,-70.33063,-125.5038,-110.0864,-86.82057,0.001067912,-0.1257102,0.09433498,0,0.3,0,0,0,0
638224239796025281,-29.87403,17.60379,-6.607276,-49.8005,4.736337,-14.49633,-56.99155,-0.4675641,7.027527,-72.43327,-8.594284,-36.83611,0,0,0,-55.66788,-68.78488,-71.43897,-125.5038,-110.0864,-86.82057,0.001067912,-0.1257102,0.09433498,0,0.3,0,0,0,0
638224239796365171,-29.99183,19.33377,-6.840749,-50.02024,3.93064,-13.98362,-56.99155,-0.4675641,7.027527,-72.43327,-8.594284,-36.90935,0,0,0,-54.95968,-64.90241,-73.12569,-125.5038,-110.0864,-86.82057,0.001067912,-0.1257102,0.09433498,0,0.3,0,0,0,0
638224239796705065,-30.01539,20.31566,-6.980833,-50.16673,3.63766,-13.91037,-56.99155,-0.4675641,7.027527,-72.43327,-8.594284,-36.83611,0,0,0,-54.44924,-62.71341,-74.09962,-125.5038,-110.0864,-86.82057,0.001067912,-0.1257102,0.09433498,0,0.3,0,0,0,0
638224239797054951,-30.01539,22.32619,-7.331042,-50.67944,3.051698,-13.76388,-56.99155,-0.4675641,7.027527,-72.43327,-8.594284,-36.83611,0,0,0,-53.19366,-58.25307,-76.273,-125.5038,-110.0864,-86.82057,0.001067912,-0.1257102,0.09433498,0,0.3,0,0,0,0
638224239797394844,-30.01539,24.43022,-7.77464,-51.04567,2.538982,-13.98362,-56.99155,-0.4675641,7.027527,-72.43327,-8.594284,-36.83611,0,0,0,-51.70974,-53.6227,-78.84163,-125.5038,-110.0864,-86.82057,0.001067912,-0.1257102,0.09433498,0,0.3,0,0,0,0
638224239797734737,-30.01539,25.55238,-8.008113,-51.19216,2.319247,-14.42309,-56.99155,-0.4675641,7.027527,-72.43327,-8.594284,-36.90935,0,0,0,-50.88856,-51.18096,-80.26308,-125.5038,-110.0864,-86.82057,0.001067912,-0.1257102,0.09433498,0,0.3,0,0,0,0
638224239798074626,-30.01539,27.93695,-8.218237,-51.33865,2.026266,-15.7415,-56.99155,-0.4675641,7.027527,-72.43327,-8.594284,-36.90935,0,0,0,-49.39712,-46.15617,-82.84473,-125.5038,-110.0864,-86.82057,0.001067912,-0.1257102,0.09433498,0,0.3,0,0,0,0
638224239798414516,-30.18031,30.4618,-8.148195,-50.89918,1.733285,-16.91342,-56.99155,-0.4675641,7.027527,-72.43327,-8.594284,-36.83611,0,0,0,-48.28308,-41.05019,-85.32575,-125.5038,-110.0864,-86.82057,0.001067912,-0.1257102,0.09433498,0,0.3,0,0,0,0
638224239798754407,-30.29811,31.7476,-7.938071,-50.53296,1.586795,-17.42614,-56.99155,-0.4675641,7.027527,-72.43327,-8.594284,-36.83611,0,0,0,-47.91805,-38.55635,-86.34189,-125.5038,-110.0864,-86.82057,0.001067912,-0.1257102,0.09433498,0,0.3,0,0,0,0
638224239799084304,-30.74575,34.38934,-7.027527,-50.09349,1.147324,-18.15859,-56.99155,-0.4675641,7.027527,-72.43327,-8.594284,-36.83611,0,0,0,-47.91652,-33.68034,-87.79597,-125.5038,-110.0864,-86.82057,0.001067912,-0.1257102,0.09433498,0,0.3,0,0,0,0
638224239799434193,-31.26407,36.82067,-5.930205,-49.94699,0.3416272,-18.30508,-56.99155,-0.4675641,7.027527,-72.43327,-8.594284,-36.83611,0,0,0,-48.25059,-29.36806,-88.87949,-125.5038,-110.0864,-86.82057,0.001067912,-0.1257102,0.09433498,0,0.3,0,0,0,0
638224239799784082,-31.66459,38.55066,-5.04301,-50.09349,-0.4640697,-18.23184,-56.99155,-0.4675641,7.027527,-72.43327,-8.594284,-36.83611,0,0,0,-48.59182,-26.37924,-89.56425,-125.5038,-110.0864,-86.82057,0.001067912,-0.1257102,0.09433498,0,0.3,0,0,0,0
638224239800123972,-31.94731,39.41565,-4.599411,-50.16673,-0.7570504,-18.23184,-56.99155,-0.4675641,7.027527,-72.43327,-8.594284,-36.90935,0,0,0,-48.85422,-24.90112,-90.00668,-125.5038,-110.0864,-86.82057,0.001067912,-0.1257102,0.09433498,0,0.3,0,0,0,0
638224239800463864,-32.96038,41.05212,-3.548784,-50.38646,-1.343012,-17.86561,-56.99155,-0.4675641,7.027527,-72.43327,-8.521038,-36.83611,0,0,0,-50.22032,-22.1673,-90.90031,-125.5038,-110.0864,-86.82057,0.001067912,-0.1257102,0.09433498,0,0.3,0,0,0,0
638224239800803754,-34.82162,42.85225,-1.751045,-51.19216,-2.221954,-16.5472,-56.99155,-0.4675641,7.027527,-72.43327,-8.594284,-36.90935,0,0,0,-53.4966,-19.24505,-91.44043,-125.5038,-110.0864,-86.82057,0.001067912,-0.1257102,0.09433498,0,0.3,0,0,0,0
638224239801143646,-35.76402,43.78737,-0.7704598,-51.85137,-2.73467,-15.7415,-56.99155,-0.4675641,7.027527,-72.43327,-8.521038,-36.83611,0,0,0,-55.21513,-17.71186,-91.69091,-125.5038,-110.0864,-86.82057,0.001067912,-0.1257102,0.09433498,0,0.3,0,0,0,0
638224239801483538,-37.6017,45.77452,1.470878,-53.60925,-3.833347,-13.83713,-56.99155,-0.4675641,7.027527,-72.43327,-8.594284,-36.90935,0,0,0,-58.84003,-14.39738,-91.94935,-125.5038,-110.0864,-86.82057,0.001067912,-0.1257102,0.09433498,0,0.3,0,0,0,0
638224239801823430,-39.39226,47.83181,3.665521,-56.02634,-4.785534,-11.56653,-56.99155,-0.4675641,7.027527,-72.43327,-8.594284,-36.83611,0,0,0,-62.22153,-10.8912,-92.57939,-125.5038,-110.0864,-86.82057,0.001067912,-0.1257102,0.09433498,0,0.3,0,0,0,0
638224239802173316,-41.01789,49.95922,5.813469,-58.73641,-5.444741,-9.735395,-56.99155,-0.4675641,7.027527,-72.43327,-8.594284,-36.90935,0,0,0,-65.16708,-7.223178,-93.43111,-125.5038,-110.0864,-86.82057,0.001067912,-0.1257102,0.09433498,0,0.3,0,0,0,0
638224239802503215,-41.84249,51.10475,6.980833,-59.98158,-5.810967,-8.856454,-56.99155,-0.4675641,7.027527,-72.43327,-8.521038,-36.90935,0,0,0,-66.66666,-5.22579,-93.89859,-125.5038,-110.0864,-86.82057,0.001067912,-0.1257102,0.09433498,0,0.3,0,0,0,0
638224239802843103,-43.39745,53.32568,9.152128,-62.17894,-6.323683,-7.025325,-56.99155,-0.4675641,7.027527,-72.43327,-8.594284,-36.83611,0,0,0,-69.29333,-1.349897,-95.06783,-125.5038,-110.0864,-86.82057,0.001067912,-0.1257102,0.09433498,0,0.3,0,0,0,0
638224239803182994,-44.81104,55.52323,11.32342,-64.66927,-6.763155,-5.194195,-56.99155,-0.4675641,7.027527,-72.43327,-8.594284,-36.90935,0,0,0,-71.65307,2.523573,-96.22276,-125.5038,-110.0864,-86.82057,0.001067912,-0.1257102,0.09433498,0,0.3,0,0,0,0
638224239803522888,-45.56496,56.69214,12.46744,-65.91444,-6.909645,-4.242009,-56.99155,-0.4675641,7.027527,-72.43327,-8.594284,-36.83611,0,0,0,-72.84378,4.589417,-96.92879,-125.5038,-110.0864,-86.82057,0.001067912,-0.1257102,0.09433498,0,0.3,0,0,0,0
638224239803862779,-47.00212,58.74942,14.54535,-67.96531,-7.27587,-2.117898,-56.99155,-0.4675641,7.027527,-72.43327,-8.521038,-36.90935,0,0,0,-75.09061,8.275781,-98.33208,-125.5038,-110.0864,-86.82057,0.001067912,-0.1257102,0.09433498,0,0.3,0,0,0,0
638224239804202669,-48.34504,60.57293,16.45982,-70.01617,-7.495606,-0.3600145,-56.99155,-0.4675641,7.027527,-72.43327,-8.594284,-36.83611,0,0,0,-77.18224,11.61028,-99.6919,-125.5038,-110.0864,-86.82057,0.001067912,-0.1257102,0.09433498,0,0.3,0,0,0,0
638224239804552559,-49.00472,61.36778,17.27698,-70.96836,-7.422361,0.299192,-56.99155,-0.4675641,7.027527,-72.43327,-8.594284,-36.83611,0,0,0,-78.12041,13.05984,-100.4523,-125.5038,-110.0864,-86.82057,0.001067912,-0.1257102,0.09433498,0,0.3,0,0,0,0
638224239804892453,-50.30051,62.77048,18.7712,-72.87273,-7.27587,1.397869,-56.99155,-0.4675641,7.027527,-72.36002,-8.521038,-36.90935,0,0,0,-79.96106,15.66498,-101.9663,-125.5038,-110.0864,-86.82057,0.001067912,-0.1257102,0.09433498,0,0.3,0,0,0,0
638224239805242338,-51.59631,63.89263,20.33547,-74.70387,-6.98289,2.203566,-56.99155,-0.4675641,7.027527,-72.43327,-8.594284,-36.90935,0,0,0,-82.30131,18.0556,-103.1102,-125.5038,-110.0864,-86.82057,0.001067912,-0.1257102,0.09433498,0,0.3,0,0,0,0
638224239805582230,-52.84499,64.54722,21.75965,-76.68148,-6.836399,2.862773,-56.99155,-0.4675641,7.027527,-72.43327,-8.594284,-36.83611,0,0,0,-85.07555,19.90859,-103.8794,-125.5038,-110.0864,-86.82057,0.001067912,-0.1257102,0.09433498,0,0.3,0,0,0,0
638224239805922123,-53.43399,64.68748,22.34333,-77.63367,-6.689909,3.228999,-56.99155,-0.4675641,7.027527,-72.43327,-8.594284,-36.90935,0,0,0,-86.50816,20.55855,-104.183,-125.5038,-110.0864,-86.82057,0.001067912,-0.1257102,0.09433498,0,0.3,0,0,0,0
638224239806262011,-54.65911,64.73425,23.34727,-79.97752,-6.543418,4.034696,-56.99155,-0.4675641,7.027527,-72.43327,-8.594284,-36.83611,0,0,0,-89.53651,21.51218,-104.8586,-125.5038,-110.0864,-86.82057,0.001067912,-0.1257102,0.09433498,0,0.3,0,0,0,0
638224239806601907,-55.78999,64.71087,24.28116,-81.88189,-6.250438,4.767147,-56.99155,-0.4675641,7.027527,-72.43327,-8.521038,-36.90935,0,0,0,-92.45726,22.36654,-105.4925,-125.5038,-110.0864,-86.82057,0.001067912,-0.1257102,0.09433498,0,0.3,0,0,0,0
638224239806931800,-56.26119,64.71087,24.65471,-82.61434,-5.884212,5.133373,-56.99155,-0.4675641,7.027527,-72.43327,-8.594284,-36.83611,0,0,0,-93.62913,22.72664,-105.8155,-125.5038,-110.0864,-86.82057,0.001067912,-0.1257102,0.09433498,0,0.3,0,0,0,0
638224239807271694,-57.13291,64.71087,25.42517,-83.78626,-5.298251,5.79258,-56.99155,-0.4675641,7.027527,-72.43327,-8.521038,-36.83611,0,0,0,-95.93424,23.48559,-106.3655,-125.5038,-110.0864,-86.82057,0.001067912,-0.1257102,0.09433498,0,0.3,0,0,0,0
638224239807611582,-57.39207,64.75762,26.33572,-84.8117,-4.785534,6.818012,-56.99155,-0.4675641,7.027527,-72.43327,-8.521038,-36.90935,0,0,0,-97.73684,24.45705,-105.8256,-125.5038,-110.0864,-86.82057,0.001067912,-0.1257102,0.09433498,0,0.3,0,0,0,0
638224239807951474,-57.39207,64.94465,26.89605,-85.25117,-4.492554,7.770199,-56.99155,-0.4675641,7.027527,-72.43327,-8.594284,-36.90935,0,0,0,-98.38706,25.22628,-105.4096,-125.5038,-110.0864,-86.82057,0.001067912,-0.1257102,0.09433498,0,0.3,0,0,0,0
638224239808291363,-57.41562,65.55248,28.34358,-85.69064,-4.053083,10.18729,-56.99155,-0.4675641,7.027527,-72.43327,-8.594284,-36.83611,0,0,0,-99.84559,27.3804,-104.5344,-125.5038,-110.0864,-86.82057,0.001067912,-0.1257102,0.09433498,0,0.3,0,0,0,0
638224239808631262,-57.41562,66.74477,30.00124,-86.1301,-4.272818,12.82412,-56.99155,-0.4675641,7.027527,-72.43327,-8.594284,-36.83611,0,0,0,-100.5455,30.38295,-104.0871,-125.5038,-110.0864,-86.82057,0.001067912,-0.1257102,0.09433498,0,0.3,0,0,0,0
638224239808971156,-57.41562,68.59165,31.70559,-86.42309,-4.85878,15.68068,-56.99155,-0.4675641,7.027527,-72.43327,-8.594284,-36.83611,0,0,0,-100.0647,34.05037,-104.3944,-125.5038,-110.0864,-86.82057,0.001067912,-0.1257102,0.09433498,0,0.3,0,0,0,0
638224239809311040,-57.41562,69.73718,32.66283,-86.56957,-5.298251,17.14558,-56.99155,-0.4675641,7.027527,-72.43327,-8.594284,-36.83611,0,0,0,-99.55389,36.1853,-104.7209,-125.5038,-110.0864,-86.82057,0.001067912,-0.1257102,0.09433498,0,0.3,0,0,0,0
638224239809650937,-57.41562,72.02824,34.53061,-86.71607,-5.810967,19.78241,-56.99155,-0.4675641,7.027527,-72.43327,-8.594284,-36.90935,0,0,0,-98.35986,40.33682,-105.484,-125.5038,-110.0864,-86.82057,0.001067912,-0.1257102,0.09433498,0,0.3,0,0,0,0
638224239809990823,-57.41562,74.62322,36.58516,-86.86256,-6.396928,21.76003,-56.99155,-0.4675641,7.027527,-72.43327,-8.594284,-36.83611,0,0,0,-96.76297,44.85017,-106.5047,-125.5038,-110.0864,-86.82057,0.001067912,-0.1257102,0.09433498,0,0.3,0,0,0,0
638224239810330718,-57.39207,75.95578,37.49571,-86.93581,-6.689909,22.71221,-56.99155,-0.4675641,7.027527,-72.43327,-8.594284,-36.83611,0,0,0,-95.6356,46.91425,-107.1698,-125.5038,-110.0864,-86.82057,0.001067912,-0.1257102,0.09433498,0,0.3,0,0,0,0
638224239810660610,-57.39207,79.08846,39.78374,-87.15554,-7.349115,24.76308,-56.99155,-0.4675641,7.027527,-72.43327,-8.521038,-36.83611,0,0,0,-93.14323,51.81429,-108.7642,-125.5038,-110.0864,-86.82057,0.001067912,-0.1257102,0.09433498,0,0.3,0,0,0,0
638224239811000504,-57.36851,82.4783,42.07177,-87.37527,-8.374548,26.88719,-56.99155,-0.4675641,7.027527,-72.43327,-8.594284,-36.83611,0,0,0,-89.94933,56.56606,-110.7553,-125.5038,-110.0864,-86.82057,0.001067912,-0.1257102,0.09433498,0,0.3,0,0,0,0
638224239811340394,-57.34494,84.0914,43.09905,-87.44852,-8.887264,27.83937,-56.99155,-0.4675641,7.027527,-72.43327,-8.594284,-36.83611,0,0,0,-88.2686,58.62291,-111.7803,-125.5038,-110.0864,-86.82057,0.001067912,-0.1257102,0.09433498,0,0.3,0,0,0,0
638224239811680286,-56.96799,87.83191,45.55051,-87.66826,-9.766206,29.89024,-56.99155,-0.4675641,7.027527,-72.43327,-8.594284,-36.90935,0,0,0,-84.03708,63.22218,-113.7089,-125.5038,-110.0864,-86.82057,0.001067912,-0.1257102,0.09433498,0,0.3,0,0,0,0
638224239812020175,-55.97847,91.99323,48.35219,-87.88799,-10.64515,32.08759,-56.99155,-0.4675641,7.027527,-72.43327,-8.594284,-36.83611,0,0,0,-78.74429,68.00157,-115.1932,-125.5038,-110.0864,-86.82057,0.001067912,-0.1257102,0.09433498,0,0.3,0,0,0,0
638224239812360071,-55.41303,93.8401,49.61294,-87.96124,-11.15786,33.18628,-56.99155,-0.4675641,7.027527,-72.43327,-8.594284,-36.83611,0,0,0,-76.26722,69.99676,-115.7624,-125.5038,-110.0864,-86.82057,0.001067912,-0.1257102,0.09433498,0,0.3,0,0,0,0
638224239812709956,-53.71671,97.83778,52.48465,-88.03448,-12.69601,35.74985,-56.99155,-0.4675641,7.027527,-72.43327,-8.594284,-36.90935,0,0,0,-70.60407,74.24759,-116.5179,-125.5038,-110.0864,-86.82057,0.001067912,-0.1257102,0.09433498,0,0.3,0,0,0,0
638224239813049848,-51.17223,101.6952,55.56649,-87.96124,-14.60039,38.67966,-56.99155,-0.4675641,7.027527,-72.43327,-8.594284,-36.83611,0,0,0,-64.62408,78.52895,-116.3393,-125.5038,-110.0864,-86.82057,0.001067912,-0.1257102,0.09433498,0,0.3,0,0,0,0
638224239813379741,-48.79268,101.6718,56.40699,-87.66826,-16.7245,42.26867,-56.99155,-0.4675641,7.027527,-72.43327,-8.594284,-36.83611,0,0,0,-63.27224,80.16145,-112.9451,-125.5038,-110.0864,-86.82057,0.001067912,-0.1257102,0.09433498,0,0.3,0,0,0,0
638224239813719635,-47.63824,101.6484,56.94398,-87.59501,-17.5302,44.0998,-56.99155,-0.4675641,7.027527,-72.43327,-8.594284,-36.90935,0,0,0,-62.68984,81.21672,-111.183,-125.5038,-110.0864,-86.82057,0.001067912,-0.1257102,0.09433498,0,0.3,0,0,0,0
638224239814059528,-44.43409,101.6952,57.69109,-87.15554,-19.43457,47.54232,-56.99155,-0.4675641,7.027527,-72.43327,-8.594284,-36.90935,0,0,0,-59.97928,82.65823,-107.174,-125.5038,-110.0864,-86.82057,0.001067912,-0.1257102,0.09433498,0,0.3,0,0,0,0
638224239814399416,-40.42889,101.6718,58.29812,-86.1301,-21.63192,51.79055,-56.99155,-0.4675641,7.027527,-72.43327,-8.521038,-36.83611,0,0,0,-56.07998,83.86729,-102.5235,-125.5038,-110.0864,-86.82057,0.001067912,-0.1257102,0.09433498,0,0.3,0,0,0,0
638224239814739308,-38.30849,101.6718,58.57829,-85.39766,-23.24332,53.84141,-56.99155,-0.4675641,7.027527,-72.43327,-8.594284,-36.90935,0,0,0,-53.81761,84.4229,-100.2259,-125.5038,-110.0864,-86.82057,0.001067912,-0.1257102,0.09433498,0,0.3,0,0,0,0
638224239815069204,-34.51534,101.6718,59.44214,-83.71302,-26.61259,56.99095,-56.99155,-0.4675641,7.027527,-72.43327,-8.594284,-36.83611,0,0,0,-49.77954,86.14642,-95.96185,-125.5038,-110.0864,-86.82057,0.001067912,-0.1257102,0.09433498,0,0.3,0,0,0,0
638224239815409095,-30.81643,101.6718,60.23594,-82.02838,-30.05512,59.48129,-56.99155,-0.4675641,7.027527,-72.43327,-8.594284,-36.83611,0,0,0,-45.48137,87.74378,-92.10402,-125.5038,-110.0864,-86.82057,0.001067912,-0.1257102,0.09433498,0,0.3,0,0,0,0
638224239815748988,-28.86095,101.6718,60.63285,-81.00294,-32.03274,60.57997,-56.99155,-0.4675641,7.027527,-72.43327,-8.594284,-36.83611,0,0,0,-43.07315,88.54726,-90.19728,-125.5038,-110.0864,-86.82057,0.001067912,-0.1257102,0.09433498,0,0.3,0,0,0,0
638224239816098879,-25.23272,101.6718,61.19318,-78.87884,-35.84149,61.97163,-56.99155,-0.4675641,7.027527,-72.43327,-8.594284,-36.90935,0,0,0,-38.31139,89.6869,-87.05467,-125.5038,-110.0864,-86.82057,0.001067912,-0.1257102,0.09433498,0,0.3,0,0,0,0
638224239816438769,-21.58092,101.6718,61.75352,-76.09552,-39.86997,62.77732,-56.99155,-0.4675641,7.027527,-72.43327,-8.594284,-36.83611,0,0,0,-33.28476,90.83269,-84.20044,-125.5038,-110.0864,-86.82057,0.001067912,-0.1257102,0.09433498,0,0.3,0,0,0,0
638224239816778661,-18.68305,101.6718,62.10373,-73.16571,-43.60548,62.99706,-56.99155,-0.4675641,7.027527,-72.43327,-8.594284,-36.90935,0,0,0,-29.11081,91.55188,-82.26196,-125.5038,-110.0864,-86.82057,0.001067912,-0.1257102,0.09433498,0,0.3,0,0,0,0
638224239817118547,-17.69353,101.6718,62.19712,-71.40782,-45.29012,63.0703,-56.99155,-0.4675641,7.027527,-72.43327,-8.594284,-36.90935,0,0,0,-27.65063,91.74406,-81.67534,-125.5038,-110.0864,-86.82057,0.001067912,-0.1257102,0.09433498,0,0.3,0,0,0,0
638224239817458441,-16.96317,101.6484,62.2905,-67.96531,-48.14668,62.41109,-56.99155,-0.4675641,7.027527,-72.43327,-8.594284,-36.83611,0,0,0,-26.58864,91.9474,-81.18214,-125.5038,-110.0864,-86.82057,0.001067912,-0.1257102,0.09433498,0,0.3,0,0,0,0
638224239817788339,-16.96317,101.6484,62.31385,-65.98769,-49.61158,61.45891,-56.99155,-0.4675641,7.027527,-72.36002,-8.594284,-36.90935,0,0,0,-26.596,91.99551,-81.15797,-125.5038,-110.0864,-86.82057,0.001067912,-0.1257102,0.09433498,0,0.3,0,0,0,0
638224239818128232,-16.96317,101.625,62.36055,-65.40173,-50.05105,61.09268,-56.99155,-0.4675641,7.027527,-72.43327,-8.521038,-36.83611,0,0,0,-26.62627,92.10274,-81.05875,-125.5038,-110.0864,-86.82057,0.001067912,-0.1257102,0.09433498,0,0.3,0,0,0,0
638224239818468121,-16.96317,101.5549,62.59402,-64.88901,-50.49052,60.72646,-56.99155,-0.4675641,7.027527,-72.43327,-8.594284,-36.90935,0,0,0,-26.74619,92.61742,-80.66563,-125.5038,-110.0864,-86.82057,0.001067912,-0.1257102,0.09433498,0,0.3,0,0,0,0
638224239818808010,-16.96317,101.3211,63.13101,-65.47498,-50.71025,60.50672,-56.99155,-0.4675641,7.027527,-72.43327,-8.594284,-36.90935,0,0,0,-27.0681,93.83752,-79.61028,-125.5038,-110.0864,-86.82057,0.001067912,-0.1257102,0.09433498,0,0.3,0,0,0,0
638224239819147901,-16.96317,101.0874,63.55126,-66.28067,-50.7835,60.50672,-56.99155,-0.4675641,7.027527,-72.43327,-8.594284,-36.83611,0,0,0,-27.35185,94.81735,-78.68001,-125.5038,-110.0864,-86.82057,0.001067912,-0.1257102,0.09433498,0,0.3,0,0,0,0
638224239819487793,-17.05741,100.4328,64.55519,-69.06399,-50.85675,61.16593,-56.99155,-0.4675641,7.027527,-72.43327,-8.594284,-36.83611,0,0,0,-28.23821,97.20277,-76.31693,-125.5038,-110.0864,-86.82057,0.001067912,-0.1257102,0.09433498,0,0.3,0,0,0,0
638224239819827690,-17.34013,99.47426,65.58247,-73.3122,-50.7835,62.41109,-56.99155,-0.4675641,7.027527,-72.43327,-8.521038,-36.83611,0,0,0,-29.64723,99.75643,-73.398,-125.5038,-110.0864,-86.82057,0.001067912,-0.1257102,0.09433498,0,0.3,0,0,0,0
638224239820167582,-17.76421,98.16508,66.5864,-78.36612,-50.12429,63.29004,-56.99155,-0.4675641,7.027527,-72.43327,-8.594284,-36.90935,0,0,0,-31.55682,102.3595,-69.85067,-125.5038,-110.0864,-86.82057,0.001067912,-0.1257102,0.09433498,0,0.3,0,0,0,0
638224239820507470,-17.83489,97.48711,67.21678,-80.9297,-49.68482,63.80275,-56.99155,-0.4675641,7.027527,-72.43327,-8.594284,-36.90935,0,0,0,-32.33335,103.9239,-67.85369,-125.5038,-110.0864,-86.82057,0.001067912,-0.1257102,0.09433498,0,0.3,0,0,0,0
638224239820837363,-17.83489,96.22469,68.47753,-86.42309,-48.95237,65.78037,-56.99155,-0.4675641,7.027527,-72.43327,-8.594284,-36.90935,0,0,0,-33.56566,106.9922,-64.02353,-125.5038,-110.0864,-86.82057,0.001067912,-0.1257102,0.09433498,0,0.3,0,0,0,0
638224239821187254,-17.83489,94.93889,69.62154,-91.18402,-48.21992,67.97772,-56.99155,-0.4675641,7.027527,-72.43327,-8.594284,-36.90935,0,0,0,-34.76942,109.7698,-60.28208,-125.5038,-110.0864,-86.82057,0.001067912,-0.1257102,0.09433498,0,0.3,0,0,0,0
638224239821517149,-17.83489,94.23753,70.13519,-93.45463,-47.78045,69.22289,-56.99155,-0.4675641,7.027527,-72.36002,-8.521038,-36.83611,0,0,0,-35.39371,111.0229,-58.34172,-125.5038,-110.0864,-86.82057,0.001067912,-0.1257102,0.09433498,0,0.3,0,0,0,0
638224239821857041,-17.83489,92.8816,71.02238,-97.19013,-46.97475,71.42025,-56.99155,-0.4675641,7.027527,-72.43327,-8.594284,-36.83611,0,0,0,-36.56865,113.1661,-54.68985,-125.5038,-110.0864,-86.82057,0.001067912,-0.1257102,0.09433498,0,0.3,0,0,0,0
638224239822196944,-17.83489,91.45553,71.93292,-100.3397,-46.16905,73.10489,-56.99155,-0.4675641,7.027527,-72.43327,-8.594284,-36.90935,0,0,0,-37.79061,115.3011,-50.89182,-125.5038,-110.0864,-86.82057,0.001067912,-0.1257102,0.09433498,0,0.3,0,0,0,0
638224239822536822,-17.83489,90.77757,72.32983,-101.7313,-45.80283,73.61761,-56.99155,-0.4675641,7.027527,-72.43327,-8.521038,-36.83611,0,0,0,-38.3606,116.2111,-49.12022,-125.5038,-110.0864,-86.82057,0.001067912,-0.1257102,0.09433498,0,0.3,0,0,0,0
638224239822876713,-17.83489,89.51514,72.53996,-102.83,-45.21687,73.17814,-56.99155,-0.4675641,7.027527,-72.43327,-8.521038,-36.83611,0,0,0,-39.30567,116.6848,-46.18283,-125.5038,-110.0864,-86.82057,0.001067912,-0.1257102,0.09433498,0,0.3,0,0,0,0
638224239823216604,-17.81133,88.13583,72.44656,-100.7791,-45.07038,69.07641,-56.99155,-0.4675641,7.027527,-72.43327,-8.521038,-36.90935,0,0,0,-40.21715,116.4117,-43.1733,-125.5038,-110.0864,-86.82057,0.001067912,-0.1257102,0.09433498,0,0.3,0,0,0,0
