zeyangz2/DNN_classification_different_people_hand/data_by_names/Zeyang/zeyang_right_17.csv
Timestamp,Therapist joint angle 0,Therapist joint angle 1,Therapist joint angle 2,Therapist joint angle 3,Therapist joint angle 4,Therapist joint angle 5,Patient joint angle 0,Patient joint angle 1,Patient joint angle 2,Patient joint angle 3,Patient joint angle 4,Patient joint angle 5,Virtual joint angle 0,Virtual joint angle 1,Virtual joint angle 2,Therapist position x,Therapist position y,Therapist position z,Patient position x,Patient position y,Patient position z,Virtual position x,Virtual position y,Virtual position z,Assistive Force, Obstacle Force Magnitude, Therapist Constant Force, Patient Constant Force, Recovery Factor, Assistance Level
638224228729019730,0,0,0,0,0,0,0,0,0,0,0,0,0,0,0,0,0,0,0,0,0,0,0,0,0,0.3,0,0,0,0
638224228729159680,-17.50505,-0.9818845,5.299829,-83.49328,-62.9422,4.913638,-57.01511,-0.4675641,7.284348,-72.79948,-8.594284,-36.83611,0,0,0,-43.80934,-111.715,-29.44724,-126.0348,-110.0119,-86.54931,0.001067912,-0.1257102,0.09433498,0,0.3,0,0,0,0
638224228729499572,-17.50505,-0.9818845,5.299829,-83.49328,-62.9422,4.913638,-57.01511,-0.4675641,7.284348,-72.79948,-8.594284,-36.83611,0,0,0,-43.80934,-111.715,-29.44724,-126.0348,-110.0119,-86.54931,0.001067912,-0.1257102,0.09433498,0,0.3,0,0,0,0
638224228729829467,-17.50505,-0.9818845,5.299829,-83.49328,-63.01544,4.986883,-57.01511,-0.4675641,7.284348,-72.79948,-8.594284,-36.83611,0,0,0,-43.80934,-111.715,-29.44724,-126.0348,-110.0119,-86.54931,0.001067912,-0.1257102,0.09433498,0,0.3,0,0,0,0
638224228730169355,-17.50505,-0.9818845,5.299829,-83.49328,-62.9422,4.913638,-57.01511,-0.4675641,7.284348,-72.79948,-8.594284,-36.83611,0,0,0,-43.80934,-111.715,-29.44724,-126.0348,-110.0119,-86.54931,0.001067912,-0.1257102,0.09433498,0,0.3,0,0,0,0
638224228730509251,-17.50505,-0.9818845,5.299829,-83.49328,-62.9422,4.986883,-57.01511,-0.4675641,7.284348,-72.87273,-8.594284,-36.83611,0,0,0,-43.80934,-111.715,-29.44724,-126.0348,-110.0119,-86.54931,0.001067912,-0.1257102,0.09433498,0,0.3,0,0,0,0
638224228730849134,-17.50505,-0.9818845,5.299829,-83.49328,-63.01544,4.986883,-57.01511,-0.4675641,7.284348,-72.79948,-8.594284,-36.83611,0,0,0,-43.80934,-111.715,-29.44724,-126.0348,-110.0119,-86.54931,0.001067912,-0.1257102,0.09433498,0,0.3,0,0,0,0
638224228731199025,-17.50505,-0.9818845,5.299829,-83.56653,-62.9422,4.913638,-57.01511,-0.4675641,7.284348,-72.79948,-8.594284,-36.83611,0,0,0,-43.80934,-111.715,-29.44724,-126.0348,-110.0119,-86.54931,0.001067912,-0.1257102,0.09433498,0,0.3,0,0,0,0
638224228731548919,-17.50505,-0.9818845,5.299829,-83.49328,-62.9422,4.913638,-57.01511,-0.4675641,7.284348,-72.79948,-8.594284,-36.83611,0,0,0,-43.80934,-111.715,-29.44724,-126.0348,-110.0119,-86.54931,0.001067912,-0.1257102,0.09433498,0,0.3,0,0,0,0
638224228731898806,-17.50505,-0.9818845,5.299829,-83.49328,-62.9422,4.913638,-57.01511,-0.4675641,7.284348,-72.79948,-8.594284,-36.83611,0,0,0,-43.80934,-111.715,-29.44724,-126.0348,-110.0119,-86.54931,0.001067912,-0.1257102,0.09433498,0,0.3,0,0,0,0
638224228732228700,-17.50505,-0.9818845,5.299829,-83.49328,-62.9422,4.913638,-57.01511,-0.4675641,7.284348,-72.79948,-8.594284,-36.83611,0,0,0,-43.80934,-111.715,-29.44724,-126.0348,-110.0119,-86.54931,0.001067912,-0.1257102,0.09433498,0,0.3,0,0,0,0
638224228732568591,-17.50505,-0.9818845,5.299829,-83.49328,-63.01544,4.913638,-57.01511,-0.4675641,7.284348,-72.79948,-8.594284,-36.83611,0,0,0,-43.80934,-111.715,-29.44724,-126.0348,-110.0119,-86.54931,0.001067912,-0.1257102,0.09433498,0,0.3,0,0,0,0
638224228732908487,-17.50505,-0.9818845,5.299829,-83.49328,-62.9422,4.913638,-57.01511,-0.4675641,7.284348,-72.79948,-8.594284,-36.83611,0,0,0,-43.80934,-111.715,-29.44724,-126.0348,-110.0119,-86.54931,0.001067912,-0.1257102,0.09433498,0,0.3,0,0,0,0
638224228733248368,-17.50505,-0.9818845,5.299829,-83.49328,-63.01544,4.913638,-57.01511,-0.4675641,7.284348,-72.79948,-8.594284,-36.83611,0,0,0,-43.80934,-111.715,-29.44724,-126.0348,-110.0119,-86.54931,0.001067912,-0.1257102,0.09433498,0,0.3,0,0,0,0
638224228733598265,-17.50505,-0.9818845,5.299829,-83.49328,-62.9422,4.986883,-57.01511,-0.4675641,7.284348,-72.79948,-8.594284,-36.83611,0,0,0,-43.80934,-111.715,-29.44724,-126.0348,-110.0119,-86.54931,0.001067912,-0.1257102,0.09433498,0,0.3,0,0,0,0
638224228733928157,-17.50505,-0.9818845,5.299829,-83.49328,-62.9422,4.986883,-57.01511,-0.4675641,7.284348,-72.79948,-8.521038,-36.83611,0,0,0,-43.80934,-111.715,-29.44724,-126.0348,-110.0119,-86.54931,0.001067912,-0.1257102,0.09433498,0,0.3,0,0,0,0
638224228734278039,-17.50505,-0.9818845,5.299829,-83.49328,-62.9422,4.986883,-57.01511,-0.4675641,7.284348,-72.79948,-8.594284,-36.83611,0,0,0,-43.80934,-111.715,-29.44724,-126.0348,-110.0119,-86.54931,0.001067912,-0.1257102,0.09433498,0,0.3,0,0,0,0
638224228734617949,-17.50505,-0.9818845,5.299829,-83.49328,-62.9422,4.913638,-57.01511,-0.4675641,7.284348,-72.79948,-8.594284,-36.83611,0,0,0,-43.80934,-111.715,-29.44724,-126.0348,-110.0119,-86.54931,0.001067912,-0.1257102,0.09433498,0,0.3,0,0,0,0
638224228734957833,-17.50505,-0.9818845,5.299829,-83.49328,-62.9422,4.913638,-57.01511,-0.4675641,7.284348,-72.79948,-8.594284,-36.83611,0,0,0,-43.80934,-111.715,-29.44724,-126.0348,-110.0119,-86.54931,0.001067912,-0.1257102,0.09433498,0,0.3,0,0,0,0
638224228735297727,-17.50505,-0.9818845,5.299829,-83.49328,-63.01544,4.913638,-57.01511,-0.4675641,7.284348,-72.79948,-8.594284,-36.83611,0,0,0,-43.80934,-111.715,-29.44724,-126.0348,-110.0119,-86.54931,0.001067912,-0.1257102,0.09433498,0,0.3,0,0,0,0
638224228735647602,-17.50505,-0.9818845,5.299829,-83.49328,-62.9422,4.913638,-57.01511,-0.4675641,7.284348,-72.79948,-8.594284,-36.83611,0,0,0,-43.80934,-111.715,-29.44724,-126.0348,-110.0119,-86.54931,0.001067912,-0.1257102,0.09433498,0,0.3,0,0,0,0
638224228735977512,-17.50505,-0.9818845,5.299829,-83.49328,-63.01544,4.913638,-57.01511,-0.4675641,7.284348,-72.87273,-8.594284,-36.83611,0,0,0,-43.80934,-111.715,-29.44724,-126.0348,-110.0119,-86.54931,0.001067912,-0.1257102,0.09433498,0,0.3,0,0,0,0
638224228736317541,-17.50505,-0.9818845,5.299829,-83.49328,-63.01544,4.913638,-57.01511,-0.4675641,7.284348,-72.79948,-8.594284,-36.83611,0,0,0,-43.80934,-111.715,-29.44724,-126.0348,-110.0119,-86.54931,0.001067912,-0.1257102,0.09433498,0,0.3,0,0,0,0
638224228736667287,-17.50505,-0.9818845,5.299829,-83.49328,-63.01544,4.986883,-57.01511,-0.4675641,7.284348,-72.79948,-8.594284,-36.83611,0,0,0,-43.80934,-111.715,-29.44724,-126.0348,-110.0119,-86.54931,0.001067912,-0.1257102,0.09433498,0,0.3,0,0,0,0
638224228737007171,-17.50505,-0.9818845,5.299829,-83.49328,-63.01544,4.986883,-57.01511,-0.4675641,7.284348,-72.79948,-8.594284,-36.83611,0,0,0,-43.80934,-111.715,-29.44724,-126.0348,-110.0119,-86.54931,0.001067912,-0.1257102,0.09433498,0,0.3,0,0,0,0
638224228737347068,-17.50505,-0.9818845,5.299829,-83.49328,-62.9422,4.986883,-57.01511,-0.4675641,7.284348,-72.79948,-8.594284,-36.83611,0,0,0,-43.80934,-111.715,-29.44724,-126.0348,-110.0119,-86.54931,0.001067912,-0.1257102,0.09433498,0,0.3,0,0,0,0
638224228737686959,-17.50505,-0.9818845,5.299829,-83.49328,-62.9422,4.913638,-57.01511,-0.4675641,7.284348,-72.79948,-8.594284,-36.90935,0,0,0,-43.80934,-111.715,-29.44724,-126.0348,-110.0119,-86.54931,0.001067912,-0.1257102,0.09433498,0,0.3,0,0,0,0
638224228738016855,-17.50505,-0.9818845,5.299829,-83.49328,-62.9422,4.986883,-57.01511,-0.4675641,7.284348,-72.79948,-8.594284,-36.90935,0,0,0,-43.80934,-111.715,-29.44724,-126.0348,-110.0119,-86.54931,0.001067912,-0.1257102,0.09433498,0,0.3,0,0,0,0
638224228738356747,-17.50505,-0.9818845,5.299829,-83.49328,-62.9422,4.913638,-57.01511,-0.4675641,7.284348,-72.79948,-8.594284,-36.83611,0,0,0,-43.80934,-111.715,-29.44724,-126.0348,-110.0119,-86.54931,0.001067912,-0.1257102,0.09433498,0,0.3,0,0,0,0
638224228738696639,-17.50505,-0.9818845,5.299829,-83.49328,-63.01544,4.913638,-57.01511,-0.4675641,7.284348,-72.79948,-8.594284,-36.83611,0,0,0,-43.80934,-111.715,-29.44724,-126.0348,-110.0119,-86.54931,0.001067912,-0.1257102,0.09433498,0,0.3,0,0,7.620041E-08,0
638224228739036530,-17.50505,-0.9818845,5.299829,-83.49328,-62.9422,4.913638,-57.01511,-0.4675641,7.284348,-72.79948,-8.594284,-36.83611,0,0,0,-43.80934,-111.715,-29.44724,-126.0348,-110.0119,-86.54931,0.001067912,-0.1257102,0.09433498,0,0.3,0,0,7.620041E-08,0
638224228739376413,-17.50505,-0.9818845,5.299829,-83.49328,-62.9422,4.986883,-57.01511,-0.4675641,7.284348,-72.79948,-8.521038,-36.83611,0,0,0,-43.80934,-111.715,-29.44724,-126.0348,-110.0119,-86.54931,0.001067912,-0.1257102,0.09433498,0,0.3,0,0,1.524008E-07,0
638224228739716313,-17.50505,-0.9818845,5.299829,-83.49328,-63.01544,4.986883,-57.01511,-0.4675641,7.284348,-72.87273,-8.594284,-36.83611,0,0,0,-43.80934,-111.715,-29.44724,-126.0348,-110.0119,-86.54931,0.001067912,-0.1257102,0.09433498,0,0.3,0,0,2.286012E-07,0
638224228740066206,-17.50505,-0.9818845,5.299829,-83.49328,-63.01544,4.986883,-57.01511,-0.4675641,7.284348,-72.79948,-8.594284,-36.83611,0,0,0,-43.80934,-111.715,-29.44724,-126.0348,-110.0119,-86.54931,0.001067912,-0.1257102,0.09433498,0,0.3,0,0,2.286012E-07,0
638224228740406094,-17.50505,-0.9818845,5.299829,-83.49328,-63.01544,4.913638,-57.01511,-0.4675641,7.284348,-72.87273,-8.594284,-36.83611,0,0,0,-43.80934,-111.715,-29.44724,-126.0348,-110.0119,-86.54931,0.001067912,-0.1257102,0.09433498,0,0.3,0,0,3.048016E-07,0
638224228740735986,-17.50505,-0.9818845,5.299829,-83.56653,-62.9422,4.986883,-57.01511,-0.4675641,7.284348,-72.79948,-8.594284,-36.83611,0,0,0,-43.80934,-111.715,-29.44724,-126.0348,-110.0119,-86.54931,0.001067912,-0.1257102,0.09433498,0,0.3,0,0,3.810021E-07,0
638224228741075877,-17.50505,-0.9818845,5.299829,-83.49328,-62.9422,4.913638,-57.01511,-0.4675641,7.284348,-72.79948,-8.594284,-36.83611,0,0,0,-43.80934,-111.715,-29.44724,-126.0348,-110.0119,-86.54931,0.001067912,-0.1257102,0.09433498,0,0.3,0,0,3.810021E-07,0
638224228741415772,-17.50505,-0.9818845,5.299829,-83.49328,-62.9422,4.986883,-57.01511,-0.4675641,7.284348,-72.79948,-8.594284,-36.83611,0,0,0,-43.80934,-111.715,-29.44724,-126.0348,-110.0119,-86.54931,0.001067912,-0.1257102,0.09433498,0,0.3,0,0,4.572024E-07,0
638224228741755662,-17.50505,-0.9818845,5.299829,-83.49328,-62.9422,4.913638,-57.01511,-0.4675641,7.284348,-72.79948,-8.594284,-36.83611,0,0,0,-43.80934,-111.715,-29.44724,-126.0348,-110.0119,-86.54931,0.001067912,-0.1257102,0.09433498,0,0.3,0,0,4.572024E-07,0
638224228742095552,-17.50505,-0.9818845,5.299829,-83.49328,-62.9422,4.913638,-57.01511,-0.4675641,7.284348,-72.79948,-8.594284,-36.83611,0,0,0,-43.80934,-111.715,-29.44724,-126.0348,-110.0119,-86.54931,0.001067912,-0.1257102,0.09433498,0,0.3,0,0,5.334029E-07,0
638224228742425439,-17.50505,-0.9818845,5.299829,-83.49328,-62.9422,4.913638,-57.01511,-0.4675641,7.284348,-72.79948,-8.594284,-36.83611,0,0,0,-43.80934,-111.715,-29.44724,-126.0348,-110.0119,-86.54931,0.001067912,-0.1257102,0.09433498,0,0.3,0,0,5.334029E-07,0
638224228742775347,-17.50505,-0.9818845,5.299829,-83.49328,-63.01544,4.913638,-57.01511,-0.4675641,7.284348,-72.79948,-8.594284,-36.83611,0,0,0,-43.80934,-111.715,-29.44724,-126.0348,-110.0119,-86.54931,0.001067912,-0.1257102,0.09433498,0,0.3,0,0,6.096033E-07,0
638224228743135220,-17.50505,-0.9818845,5.299829,-83.49328,-63.01544,4.986883,-57.01511,-0.4675641,7.284348,-72.79948,-8.594284,-36.83611,0,0,0,-43.80934,-111.715,-29.44724,-126.0348,-110.0119,-86.54931,0.001067912,-0.1257102,0.09433498,0,0.3,0,0,6.096033E-07,0
638224228743455112,-17.50505,-0.9818845,5.299829,-83.49328,-62.9422,4.986883,-57.01511,-0.4675641,7.284348,-72.79948,-8.521038,-36.83611,0,0,0,-43.80934,-111.715,-29.44724,-126.0348,-110.0119,-86.54931,0.001067912,-0.1257102,0.09433498,0,0.3,0,0,6.096033E-07,0
638224228743795012,-17.50505,-0.9818845,5.299829,-83.49328,-62.9422,4.986883,-57.01511,-0.4675641,7.284348,-72.79948,-8.594284,-36.83611,0,0,0,-43.80934,-111.715,-29.44724,-126.0348,-110.0119,-86.54931,0.001067912,-0.1257102,0.09433498,0,0.3,0,0,6.858037E-07,0
638224228744134900,-17.50505,-0.9818845,5.299829,-83.49328,-62.9422,4.913638,-57.01511,-0.4675641,7.261,-72.79948,-8.594284,-36.90935,0,0,0,-43.80934,-111.715,-29.44724,-125.9895,-110.0188,-86.57865,0.001067912,-0.1257102,0.09433498,0,0.3,0,0,3.352818E-06,0
638224228744474795,-17.50505,-1.005263,4.646106,-83.56653,-62.9422,7.623709,-57.01511,-0.4675641,7.261,-72.79948,-8.594284,-36.83611,0,0,0,-43.35313,-111.9013,-30.89368,-125.9895,-110.0188,-86.57865,0.001067912,-0.1257102,0.09433498,0,0.3,0,0,6.774216E-05,0
638224228744814686,-17.50505,-1.005263,4.085772,-83.42004,-62.9422,13.1171,-57.01511,-0.4675641,7.261,-72.79948,-8.594284,-36.83611,0,0,0,-42.96201,-112.0006,-32.1338,-125.9895,-110.0188,-86.57865,0.001067912,-0.1257102,0.09433498,0,0.3,0,0,0.0001688601,0
638224228745154578,-17.48149,-1.005263,2.918408,-83.20029,-62.35624,25.49553,-57.01511,-0.4675641,7.261,-72.79948,-8.594284,-36.83611,0,0,0,-42.09137,-112.1666,-34.70269,-125.9895,-110.0188,-86.57865,0.001067912,-0.1257102,0.09433498,0,0.3,0,0,0.0004768622,0
638224228745504467,-17.48149,-1.005263,2.428116,-83.8595,-60.23213,31.20865,-57.01511,-0.4675641,7.261,-72.79948,-8.594284,-36.83611,0,0,0,-41.74896,-112.2198,-35.78991,-125.9895,-110.0188,-86.57865,0.001067912,-0.1257102,0.09433498,0,0.3,0,0,0.0008695991,0
638224228745844358,-17.48149,-1.005263,2.451463,-84.73845,-58.84047,32.52707,-57.01511,-0.4675641,7.261,-72.79948,-8.594284,-36.83611,0,0,0,-41.76527,-112.2175,-35.73812,-125.9895,-110.0188,-86.57865,0.001067912,-0.1257102,0.09433498,0,0.3,0,0,0.001061319,0
638224228746184239,-17.43437,-1.005263,2.568199,-85.91037,-56.64312,31.35514,-57.01511,-0.4675641,7.261,-72.79948,-8.594284,-36.83611,0,0,0,-41.73752,-112.2056,-35.44486,-125.9895,-110.0188,-86.57865,0.001067912,-0.1257102,0.09433498,0,0.3,0,0,0.001402088,0
638224228746514308,-17.43437,-0.9585064,2.638241,-82.54109,-55.3247,24.17712,-57.01511,-0.4675641,7.261,-72.79948,-8.594284,-36.83611,0,0,0,-41.78687,-112.0894,-35.28771,-125.9895,-110.0188,-86.57865,0.001067912,-0.1257102,0.09433498,0,0.3,0,0,0.00171009,0
638224228746854027,-17.43437,-0.9117499,2.661588,-79.17181,-54.66549,19.56267,-57.01511,-0.4675641,7.261,-72.79948,-8.594284,-36.83611,0,0,0,-41.80367,-111.9781,-35.23423,-125.9895,-110.0188,-86.57865,0.001067912,-0.1257102,0.09433498,0,0.3,0,0,0.00185708,0
638224228747193925,-17.43437,-0.7247244,2.661588,-71.0416,-52.90761,9.821064,-57.01511,-0.4675641,7.261,-72.79948,-8.594284,-36.83611,0,0,0,-41.80553,-111.5428,-35.2283,-125.9895,-110.0188,-86.57865,0.001067912,-0.1257102,0.09433498,0,0.3,0,0,0.002142298,0
638224228747533817,-17.57573,-0.1402692,2.568199,-63.42411,-49.75807,-0.8727306,-57.01511,-0.4675641,7.261,-72.79948,-8.594284,-36.83611,0,0,0,-42.07137,-110.1925,-35.52905,-125.9895,-110.0188,-86.57865,0.001067912,-0.1257102,0.09433498,0,0.3,0,0,0.002471637,0
638224228747883703,-17.95269,0.4208077,2.381421,-57.418,-44.7774,-11.2003,-57.01511,-0.4675641,7.261,-72.79948,-8.594284,-36.83611,0,0,0,-42.80946,-108.9055,-36.22492,-125.9895,-110.0188,-86.57865,0.001067912,-0.1257102,0.09433498,0,0.3,0,0,0.002970139,0
638224228748223599,-18.02337,0.4675641,2.381421,-55.1474,-41.77435,-15.15554,-57.01511,-0.4675641,7.261,-72.79948,-8.594284,-36.83611,0,0,0,-42.97216,-108.7966,-36.27863,-125.9895,-110.0188,-86.57865,0.001067912,-0.1257102,0.09433498,0,0.3,0,0,0.003253453,0
638224228748563486,-17.97625,0.3039166,2.404768,-51.99786,-34.52307,-19.91648,-57.01511,-0.4675641,7.261,-72.79948,-8.594284,-36.83611,0,0,0,-42.88107,-109.1752,-36.18925,-125.9895,-110.0188,-86.57865,0.001067912,-0.1257102,0.09433498,0,0.3,0,0,0.003790818,0
638224228748903380,-17.55217,-0.116891,2.73163,-50.09349,-25.88014,-21.0884,-57.01511,-0.4675641,7.261,-72.79948,-8.594284,-36.83611,0,0,0,-42.13138,-110.1205,-35.14938,-125.9895,-110.0188,-86.57865,0.001067912,-0.1257102,0.09433498,0,0.3,0,0,0.004144845,0
638224228749243273,-17.15165,-0.233782,3.035145,-49.43428,-21.33894,-21.30813,-57.01511,-0.4675641,7.261,-72.79948,-8.594284,-36.83611,0,0,0,-41.40704,-110.357,-34.18478,-125.9895,-110.0188,-86.57865,0.001067912,-0.1257102,0.09433498,0,0.3,0,0,0.004165572,0
638224228749583165,-15.85585,0.5376987,3.081839,-47.96938,-12.47628,-22.91953,-57.01511,-0.4675641,7.261,-72.79948,-8.594284,-36.83611,0,0,0,-38.39079,-108.5557,-33.1829,-125.9895,-110.0188,-86.57865,0.001067912,-0.1257102,0.09433498,0,0.3,0,0,0.003757442,0
638224228749923050,-14.58362,2.314442,2.21799,-45.62553,-5.444741,-30.31729,-57.01511,-0.4675641,7.261,-72.79948,-8.594284,-36.83611,0,0,0,-34.84862,-104.5149,-34.40707,-125.9895,-110.0188,-86.57865,0.001067912,-0.1257102,0.09433498,0,0.3,0,0,0.002858354,0
638224228750262942,-14.01818,2.99241,2.054559,-44.08738,-1.709238,-34.93173,-57.01511,-0.4675641,7.261,-72.79948,-8.594284,-36.83611,0,0,0,-33.41533,-102.9529,-34.50935,-125.9895,-110.0188,-86.57865,0.001067912,-0.1257102,0.09433498,0,0.3,0,0,0.002241283,0
638224228750602830,-13.73546,2.922275,1.891129,-41.23082,5.322299,-41.23082,-57.01511,-0.4675641,7.261,-72.79948,-8.594284,-36.90935,0,0,0,-32.66624,-103.129,-34.70718,-125.9895,-110.0188,-86.57865,0.001067912,-0.1257102,0.09433498,0,0.3,0,0,0.0009388652,0
638224228750952728,-13.73546,2.618359,1.844434,-39.10671,12.20734,-44.30712,-57.01511,-0.4675641,7.261,-72.79948,-8.594284,-36.83611,0,0,0,-32.64857,-103.8391,-34.77948,-125.9895,-110.0188,-86.57865,0.001067912,-0.1257102,0.09433498,0,0.3,0,0,0,0
638224228751292634,-13.78258,2.501468,1.307447,-38.00803,19.01915,-45.84526,-57.01511,-0.4675641,7.261,-72.79948,-8.594284,-36.83611,0,0,0,-32.46367,-104.1452,-36.00791,-125.9895,-110.0188,-86.57865,0.001067912,-0.1257102,0.09433498,0,0.3,0,0,0,0
638224228751632505,-13.8297,2.267686,0.7237652,-37.6418,21.87571,-46.28474,-57.01511,-0.4675641,7.261,-72.79948,-8.594284,-36.83611,0,0,0,-32.25323,-104.7129,-37.33154,-125.9895,-110.0188,-86.57865,0.001067912,-0.1257102,0.09433498,0,0.3,0,0,0,0
638224228751972403,-13.87682,1.472827,-0.1634309,-36.76286,26.70989,-46.72421,-57.01511,-0.4675641,7.261,-72.79948,-8.594284,-36.83611,0,0,0,-31.88024,-106.572,-39.30404,-125.9895,-110.0188,-86.57865,0.001067912,-0.1257102,0.09433498,0,0.3,0,0,0,0
638224228752312287,-13.90038,0.6545897,-1.02728,-35.81068,30.59188,-45.77202,-57.01511,-0.4675641,7.261,-72.79948,-8.521038,-36.83611,0,0,0,-31.45883,-108.4551,-41.23436,-125.9895,-110.0188,-86.57865,0.001067912,-0.1257102,0.09433498,0,0.3,0,0,0,0
638224228752652187,-13.90038,0.116891,-1.610961,-35.15147,32.27652,-44.81983,-57.01511,-0.4675641,7.261,-72.79948,-8.594284,-36.83611,0,0,0,-31.13459,-109.6752,-42.5445,-125.9895,-110.0188,-86.57865,0.001067912,-0.1257102,0.09433498,0,0.3,0,0,0,0
638224228753002076,-13.99462,-1.028641,-2.965103,-33.39359,34.76685,-41.30406,-57.01511,-0.4675641,7.261,-72.79948,-8.594284,-36.83611,0,0,0,-30.57481,-112.2154,-45.67204,-125.9895,-110.0188,-86.57865,0.001067912,-0.1257102,0.09433498,0,0.3,0,0,0,0
638224228753331970,-14.08886,-0.8649935,-5.019662,-31.34272,36.52474,-32.95412,-57.01511,-0.4675641,7.261,-72.79948,-8.521038,-36.83611,0,0,0,-29.61696,-111.5017,-50.34282,-125.9895,-110.0188,-86.57865,0.001067912,-0.1257102,0.09433498,0,0.3,0,0,0,0
638224228753681857,-14.15954,-1.005263,-7.611208,-28.63265,37.40368,-22.5533,-57.01511,-0.4675641,7.261,-72.79948,-8.594284,-36.83611,0,0,0,-28.29483,-111.1647,-56.19693,-125.9895,-110.0188,-86.57865,0.001067912,-0.1257102,0.09433498,0,0.3,0,0,0,0
638224228754021747,-14.15954,-0.9585064,-8.755224,-27.24099,37.62342,-17.27965,-57.01511,-0.4675641,7.261,-72.79948,-8.594284,-36.83611,0,0,0,-27.6506,-110.6769,-58.75048,-125.9895,-110.0188,-86.57865,0.001067912,-0.1257102,0.09433498,0,0.3,0,0,0,0
638224228754361633,-14.15954,-1.005263,-9.922588,-25.99582,37.76991,-7.025325,-57.01511,-0.4675641,7.261,-72.79948,-8.594284,-36.90935,0,0,0,-26.99434,-110.3448,-61.3517,-125.9895,-110.0188,-86.57865,0.001067912,-0.1257102,0.09433498,0,0.3,0,0,0,0
638224228754701532,-14.15954,-0.9818845,-10.01598,-26.94801,37.9164,2.276812,-57.01511,-0.4675641,7.261,-72.79948,-8.594284,-36.83611,0,0,0,-26.94221,-110.2528,-61.55835,-125.9895,-110.0188,-86.57865,0.001067912,-0.1257102,0.09433498,0,0.3,0,0,0,0
638224228755041417,-14.15954,-0.9818845,-10.03932,-27.9002,38.06289,6.305296,-57.01511,-0.4675641,7.261,-72.79948,-8.594284,-36.90935,0,0,0,-26.92912,-110.2433,-61.61024,-125.9895,-110.0188,-86.57865,0.001067912,-0.1257102,0.09433498,0,0.3,0,0,0,0
638224228755391303,-14.15954,-0.9818845,-10.20275,-30.53703,37.69667,13.48332,-57.01511,-0.4675641,7.261,-72.79948,-8.594284,-36.83611,0,0,0,-26.83752,-110.1765,-61.97331,-125.9895,-110.0188,-86.57865,0.001067912,-0.1257102,0.09433498,0,0.3,0,0,0,0
638224228755731210,-14.15954,-1.005263,-10.62301,-32.36815,37.55017,18.17101,-57.01511,-0.4675641,7.261,-72.79948,-8.594284,-36.83611,0,0,0,-26.60197,-110.0541,-62.90697,-125.9895,-110.0188,-86.57865,0.001067912,-0.1257102,0.09433498,0,0.3,0,0,0,0
638224228756071095,-14.25378,-1.005263,-10.85648,-33.46683,37.33044,20.66135,-57.01511,-0.4675641,7.261,-72.79948,-8.521038,-36.83611,0,0,0,-26.64392,-109.9528,-63.4683,-125.9895,-110.0188,-86.57865,0.001067912,-0.1257102,0.09433498,0,0.3,0,0,0,0
638224228756410987,-14.46582,-1.005263,-10.85648,-33.9063,37.18394,21.24731,-57.01511,-0.4675641,7.261,-72.79948,-8.594284,-36.83611,0,0,0,-27.03188,-109.9528,-63.56763,-125.9895,-110.0188,-86.57865,0.001067912,-0.1257102,0.09433498,0,0.3,0,0,0,0
638224228756760889,-15.29041,-0.9818845,-10.7164,-34.85849,36.96421,20.14863,-57.01511,-0.4675641,7.261,-72.79948,-8.594284,-36.83611,0,0,0,-28.62176,-109.9594,-63.65766,-125.9895,-110.0188,-86.57865,0.001067912,-0.1257102,0.09433498,0,0.3,0,0,0,0
638224228757110754,-16.91605,-0.9117499,-9.759157,-36.54313,36.305,16.63286,-57.01511,-0.4675641,7.261,-72.79948,-8.594284,-36.83611,0,0,0,-32.21895,-110.1922,-62.41167,-125.9895,-110.0188,-86.57865,0.001067912,-0.1257102,0.09433498,0,0.3,0,0,0,0
638224228757440651,-17.83489,-0.7714807,-9.105433,-37.71505,35.79229,14.72849,-57.01511,-0.4675641,7.261,-72.79948,-8.594284,-36.83611,0,0,0,-34.37479,-110.1151,-61.50863,-125.9895,-110.0188,-86.57865,0.001067912,-0.1257102,0.09433498,0,0.3,0,0,0,0
638224228757780550,-19.79037,-0.233782,-7.541167,-41.23082,34.32739,10.26054,-57.01511,-0.4675641,7.261,-72.79948,-8.594284,-36.83611,0,0,0,-39.22387,-109.3907,-59.34403,-125.9895,-110.0188,-86.57865,0.001067912,-0.1257102,0.09433498,0,0.3,0,0,0,0
638224228758130440,-21.34533,0.3740513,-5.766775,-44.81983,32.49626,6.744767,-57.01511,-0.4675641,7.261,-72.79948,-8.594284,-36.83611,0,0,0,-43.65974,-108.4546,-56.62978,-125.9895,-110.0188,-86.57865,0.001067912,-0.1257102,0.09433498,0,0.3,0,0,0,0
638224228758470321,-22.594,1.098776,-4.132466,-47.82288,30.59188,4.693902,-57.01511,-0.4675641,7.261,-72.79948,-8.594284,-36.83611,0,0,0,-47.5315,-107.0962,-54.12922,-125.9895,-110.0188,-86.57865,0.001067912,-0.1257102,0.09433498,0,0.3,0,0,0,0
638224228758820214,-23.13588,1.589718,-3.385354,-49.06805,29.63969,4.107941,-57.01511,-0.4675641,7.261,-72.79948,-8.594284,-36.83611,0,0,0,-49.28081,-106.0679,-53.01297,-125.9895,-110.0188,-86.57865,0.001067912,-0.1257102,0.09433498,0,0.3,0,0,0.0001684791,0
638224228759150111,-24.03116,2.875519,-1.937823,-51.26541,27.66208,3.155754,-57.01511,-0.4675641,7.261,-72.79948,-8.594284,-36.83611,0,0,0,-52.39989,-103.2341,-50.82996,-125.9895,-110.0188,-86.57865,0.001067912,-0.1257102,0.09433498,0,0.3,0,0,0.002490077,0
638224228759500002,-24.52592,4.55875,-0.6770707,-52.95005,25.7577,2.569792,-57.01511,-0.4675641,7.261,-72.79948,-8.594284,-36.83611,0,0,0,-54.525,-99.39186,-48.8491,-125.9895,-110.0188,-86.57865,0.001067912,-0.1257102,0.09433498,0,0.3,0,0,0.00486692,0
638224228759829897,-24.5966,5.4705,-0.1167363,-53.6825,24.87876,2.496547,-57.01511,-0.4675641,7.261,-72.72624,-8.594284,-36.83611,0,0,0,-55.13797,-97.28704,-47.89935,-125.9895,-110.0188,-86.57865,0.001067912,-0.1257102,0.09433498,0,0.3,0,0,0.006021356,0
638224228760169780,-24.5966,7.55116,0.8871961,-54.70793,23.12087,2.496547,-57.01511,-0.4675641,7.261,-72.79948,-8.594284,-36.83611,0,0,0,-55.88193,-92.4603,-46.27414,-125.9895,-110.0188,-86.57865,0.001067912,-0.1257102,0.09433498,0,0.3,0,0,0.008191239,0
638224228760509678,-24.62016,9.63182,1.984518,-55.44038,21.58273,2.350057,-57.01511,-0.4675641,7.261,-72.79948,-8.594284,-36.83611,0,0,0,-56.69437,-87.60839,-44.63378,-125.9895,-110.0188,-86.57865,0.001067912,-0.1257102,0.09433498,0,0.3,0,0,0.01015073,0
638224228760849570,-24.62016,10.7306,2.498158,-55.80661,20.85028,2.276812,-57.01511,-0.4675641,7.261,-72.79948,-8.594284,-36.83611,0,0,0,-57.0037,-85.04465,-43.95878,-125.9895,-110.0188,-86.57865,0.001067912,-0.1257102,0.09433498,0,0.3,0,0,0.01104075,0
638224228761189457,-24.62016,13.16193,3.525437,-56.31932,19.23888,2.276812,-57.01511,-0.4675641,7.261,-72.79948,-8.594284,-36.83611,0,0,0,-57.51042,-79.38333,-42.85303,-125.9895,-110.0188,-86.57865,0.001067912,-0.1257102,0.09433498,0,0.3,0,0,0.01260545,0
638224228761539346,-24.62016,15.75691,4.716148,-56.75879,17.70073,2.276812,-57.01511,-0.4675641,7.261,-72.79948,-8.594284,-36.83611,0,0,0,-58.03372,-73.33645,-41.7111,-125.9895,-110.0188,-86.57865,0.001067912,-0.1257102,0.09433498,0,0.3,0,0,0.01384661,0
638224228761889244,-24.62016,18.56229,6.467193,-56.97853,16.08934,2.350057,-57.01511,-0.4675641,7.261,-72.79948,-8.594284,-36.83611,0,0,0,-58.92094,-66.70139,-39.77504,-125.9895,-110.0188,-86.57865,0.001067912,-0.1257102,0.09433498,0,0.3,0,0,0.01469182,0
638224228762229121,-24.64372,19.98837,7.564514,-57.12502,15.2104,2.423302,-57.01511,-0.4675641,7.261,-72.79948,-8.594284,-36.83611,0,0,0,-59.57389,-63.25655,-38.49123,-125.9895,-110.0188,-86.57865,0.001067912,-0.1257102,0.09433498,0,0.3,0,0,0.01494648,0
638224228762569023,-24.76152,22.67686,9.805852,-57.418,13.67225,2.716283,-57.01511,-0.4675641,7.261,-72.79948,-8.594284,-36.90935,0,0,0,-61.04714,-56.64095,-35.99851,-125.9895,-110.0188,-86.57865,0.001067912,-0.1257102,0.09433498,0,0.3,0,0,0.01510909,0
638224228762908912,-24.95,25.55238,12.49079,-57.93071,11.84112,3.81496,-57.01511,-0.4675641,7.261,-72.79948,-8.521038,-36.83611,0,0,0,-62.91489,-49.32506,-33.12059,-125.9895,-110.0188,-86.57865,0.001067912,-0.1257102,0.09433498,0,0.3,0,0,0.01476779,0
638224228763248806,-24.97356,27.16547,13.72819,-58.37019,10.81569,4.913638,-57.01511,-0.4675641,7.261,-72.79948,-8.594284,-36.83611,0,0,0,-63.45095,-45.30799,-32.11488,-125.9895,-110.0188,-86.57865,0.001067912,-0.1257102,0.09433498,0,0.3,0,0,0.01438778,0
638224228763588696,-24.69084,30.1345,15.57263,-58.8829,8.984557,7.257483,-57.01511,-0.4675641,7.261,-72.79948,-8.594284,-36.83611,0,0,0,-63.12893,-38.15893,-31.04003,-125.9895,-110.0188,-86.57865,0.001067912,-0.1257102,0.09433498,0,0.3,0,0,0.01320728,0
638224228763928579,-23.772,33.73475,17.23028,-58.73641,7.006938,9.381593,-57.01511,-0.4675641,7.261,-72.79948,-8.594284,-36.83611,0,0,0,-60.62442,-29.95974,-30.71392,-125.9895,-110.0188,-86.57865,0.001067912,-0.1257102,0.09433498,0,0.3,0,0,0.01129564,0
638224228764268480,-22.19348,37.54539,18.53773,-57.93071,5.175808,11.28597,-57.01511,-0.4675641,7.261,-72.79948,-8.594284,-36.83611,0,0,0,-55.95213,-21.81894,-31.19891,-125.9895,-110.0188,-86.57865,0.001067912,-0.1257102,0.09433498,0,0.3,0,0,0.008554182,0
638224228764618380,-21.20397,39.32214,19.00467,-57.27151,4.296866,12.09166,-57.01511,-0.4675641,7.261,-72.79948,-8.594284,-36.83611,0,0,0,-53.01774,-18.23016,-31.69015,-125.9895,-110.0188,-86.57865,0.001067912,-0.1257102,0.09433498,0,0.3,0,0,0.006868857,0
638224228764958354,-18.80085,42.64184,19.56501,-55.29389,2.538982,13.33683,-57.01511,-0.4675641,7.261,-72.79948,-8.594284,-36.83611,0,0,0,-46.00489,-11.96759,-33.21807,-125.9895,-110.0188,-86.57865,0.001067912,-0.1257102,0.09433498,0,0.3,0,0,0.00289973,0
638224228765298151,-16.02077,45.44723,19.68175,-52.51057,0.7810982,14.36226,-57.01511,-0.4675641,7.261,-72.79948,-8.594284,-36.83611,0,0,0,-38.21451,-7.183594,-35.2623,-125.9895,-110.0188,-86.57865,0.001067912,-0.1257102,0.09433498,0,0.3,0,0,0,0
638224228765628036,-14.15954,46.89668,19.68175,-50.53296,0.1218917,14.87498,-57.01511,-0.4675641,7.261,-72.79948,-8.521038,-36.83611,0,0,0,-33.27648,-4.84756,-36.45102,-125.9895,-110.0188,-86.57865,0.001067912,-0.1257102,0.09433498,0,0.3,0,0,0,0
638224228765967931,-10.74334,49.04747,19.68175,-46.50447,-0.8302955,15.68068,-57.01511,-0.4675641,7.261,-72.79948,-8.594284,-36.83611,0,0,0,-24.66458,-1.496442,-38.35548,-125.9895,-110.0188,-86.57865,0.001067912,-0.1257102,0.09433498,0,0.3,0,0,0,0
638224228766317817,-6.667469,50.82421,19.63505,-41.81678,-1.782483,16.48637,-57.01511,-0.4675641,7.261,-72.79948,-8.594284,-36.83611,0,0,0,-14.98321,1.128483,-40.17604,-125.9895,-110.0188,-86.57865,0.001067912,-0.1257102,0.09433498,0,0.3,0,0,0,0
638224228766657721,-4.641313,51.40867,19.56501,-39.2532,-2.148709,16.99909,-57.01511,-0.4675641,7.261,-72.79948,-8.594284,-36.90935,0,0,0,-10.34405,1.927684,-40.93488,-125.9895,-110.0188,-86.57865,0.001067912,-0.1257102,0.09433498,0,0.3,0,0,0,0
638224228766997606,-0.4947592,52.15677,19.47162,-33.61332,-2.441689,17.87803,-57.01511,-0.4675641,7.261,-72.79948,-8.594284,-36.83611,0,0,0,-1.090277,2.9322,-42.0932,-125.9895,-110.0188,-86.57865,0.001067912,-0.1257102,0.09433498,0,0.3,0,0,0,0
638224228767327495,3.604674,52.3438,19.2148,-27.9002,-2.368444,18.83022,-57.01511,-0.4675641,7.261,-72.79948,-8.594284,-36.83611,0,0,0,7.881208,3.000705,-43.24465,-125.9895,-110.0188,-86.57865,0.001067912,-0.1257102,0.09433498,0,0.3,0,0,0,0
638224228767677382,7.397828,52.11002,18.86459,-22.04058,-2.148709,20.07539,-57.01511,-0.4675641,7.261,-72.79948,-8.594284,-36.83611,0,0,0,16.09642,2.401526,-44.37766,-125.9895,-110.0188,-86.57865,0.001067912,-0.1257102,0.09433498,0,0.3,0,0,0,0
638224228768007286,9.070585,51.92299,18.72451,-19.40376,-2.002218,20.5881,-57.01511,-0.4675641,7.261,-72.79948,-8.594284,-36.83611,0,0,0,19.71386,2.028599,-44.86634,-125.9895,-110.0188,-86.57865,0.001067912,-0.1257102,0.09433498,0,0.3,0,0,0,0
638224228768347172,12.2983,51.22165,18.3743,-14.13011,-1.562747,21.76003,-57.01511,-0.4675641,7.261,-72.79948,-8.594284,-36.83611,0,0,0,26.74305,0.7547883,-45.67782,-125.9895,-110.0188,-86.57865,0.001067912,-0.1257102,0.09433498,0,0.3,0,0,0,0
638224228768697070,14.98414,50.21638,17.81396,-9.66215,-0.8302955,22.49248,-57.01511,-0.4675641,7.261,-72.79948,-8.594284,-36.83611,0,0,0,32.60975,-1.131509,-46.51382,-125.9895,-110.0188,-86.57865,0.001067912,-0.1257102,0.09433498,0,0.3,0,0,0,0
638224228769036958,16.25637,49.53841,17.39371,-7.684532,-0.3908245,22.71221,-57.01511,-0.4675641,7.261,-72.79948,-8.594284,-36.83611,0,0,0,35.38361,-2.444149,-47.00457,-125.9895,-110.0188,-86.57865,0.001067912,-0.1257102,0.09433498,0,0.3,0,0,0,0
638224228769366857,18.23541,48.04221,16.48317,-4.461744,0.9275885,22.93195,-57.01511,-0.4675641,7.261,-72.79948,-8.594284,-36.83611,0,0,0,39.73841,-5.355665,-47.73623,-125.9895,-110.0188,-86.57865,0.001067912,-0.1257102,0.09433498,0,0.3,0,0,0,0
638224228769716741,19.79037,46.1252,15.38585,-1.824918,1.953021,23.07844,-57.01511,-0.4675641,7.261,-72.79948,-8.521038,-36.83611,0,0,0,43.27151,-9.094724,-48.09531,-125.9895,-110.0188,-86.57865,0.001067912,-0.1257102,0.09433498,0,0.3,0,0,0,0
638224228770056634,20.45005,44.95628,14.68543,-0.7262403,2.758718,23.15168,-57.01511,-0.4675641,7.261,-72.79948,-8.594284,-36.83611,0,0,0,44.78154,-11.42304,-48.25724,-125.9895,-110.0188,-86.57865,0.001067912,-0.1257102,0.09433498,0,0.3,0,0,0,0
638224228770396525,21.43956,42.66522,13.33129,0.9583986,4.663092,23.15168,-57.01511,-0.4675641,7.261,-72.79948,-8.594284,-36.83611,0,0,0,47.08029,-16.03354,-48.45902,-125.9895,-110.0188,-86.57865,0.001067912,-0.1257102,0.09433498,0,0.3,0,0,0,0
638224228770746413,22.14636,40.25727,11.86041,2.130321,6.640712,23.15168,-57.01511,-0.4675641,7.261,-72.79948,-8.594284,-36.90935,0,0,0,48.69495,-20.9796,-48.70662,-125.9895,-110.0188,-86.57865,0.001067912,-0.1257102,0.09433498,0,0.3,0,0,0,0
638224228771086305,22.594,37.7558,10.13271,2.716283,8.691576,22.93195,-57.01511,-0.4675641,7.261,-72.79948,-8.594284,-36.83611,0,0,0,49.51948,-26.27028,-49.35197,-125.9895,-110.0188,-86.57865,0.001067912,-0.1257102,0.09433498,0,0.3,0,0,0,0
638224228771426337,22.75892,36.30635,9.152128,2.936018,9.936745,22.41923,-57.01511,-0.4675641,7.261,-72.79948,-8.594284,-36.83611,0,0,0,49.77733,-29.34552,-49.69635,-125.9895,-110.0188,-86.57865,0.001067912,-0.1257102,0.09433498,0,0.3,0,0,0,0
638224228771766090,22.85316,33.19705,7.214305,3.009263,11.98761,21.17406,-57.01511,-0.4675641,7.261,-72.79948,-8.594284,-36.83611,0,0,0,49.84059,-35.93251,-50.09119,-125.9895,-110.0188,-86.57865,0.001067912,-0.1257102,0.09433498,0,0.3,0,0,0,0
638224228772105980,22.85316,29.94748,5.556649,2.716283,14.18496,20.07539,-57.01511,-0.4675641,7.261,-72.79948,-8.594284,-36.83611,0,0,0,49.88926,-42.80427,-49.97571,-125.9895,-110.0188,-86.57865,0.001067912,-0.1257102,0.09433498,0,0.3,0,0,0,0
638224228772455885,22.85316,28.35776,4.692801,2.496547,15.64987,19.48943,-57.01511,-0.4675641,7.261,-72.79948,-8.594284,-36.83611,0,0,0,49.81153,-46.21497,-50.16015,-125.9895,-110.0188,-86.57865,0.001067912,-0.1257102,0.09433498,0,0.3,0,0,0,0
638224228772785755,22.8296,25.27184,3.081839,2.276812,18.28669,18.90347,-57.01511,-0.4675641,7.261,-72.79948,-8.594284,-36.83611,0,0,0,49.56852,-52.87824,-50.60149,-125.9895,-110.0188,-86.57865,0.001067912,-0.1257102,0.09433498,0,0.3,0,0,0,0
638224228773125655,22.8296,22.18591,1.587614,1.983831,20.70378,18.53724,-57.01511,-0.4675641,7.261,-72.79948,-8.594284,-36.83611,0,0,0,49.3416,-59.59409,-51.14052,-125.9895,-110.0188,-86.57865,0.001067912,-0.1257102,0.09433498,0,0.3,0,0,0,0
638224228773465550,22.87672,19.17013,0.1167363,1.617605,23.19412,17.73154,-57.01511,-0.4675641,7.261,-72.79948,-8.594284,-36.83611,0,0,0,49.07076,-66.21102,-52.05146,-125.9895,-110.0188,-86.57865,0.001067912,-0.1257102,0.09433498,0,0.3,0,0,0,0
638224228773805431,22.99452,17.6973,-0.5369871,1.324624,24.51253,16.99909,-57.01511,-0.4675641,7.261,-72.79948,-8.667529,-36.83611,0,0,0,49.13882,-69.45732,-52.5554,-125.9895,-110.0188,-86.57865,0.001067912,-0.1257102,0.09433498,0,0.3,0,0,0,0
638224228774145328,23.91336,15.35948,-1.44753,0.6654179,27.14936,15.31445,-57.01511,-0.4675641,7.261,-72.79948,-8.594284,-36.83611,0,0,0,50.75792,-74.63647,-53.88031,-125.9895,-110.0188,-86.57865,0.001067912,-0.1257102,0.09433498,0,0.3,0,0,0,0
638224228774485221,25.7746,14.16719,-1.657656,1.178134,29.20022,14.28902,-57.01511,-0.4675641,7.261,-72.79948,-8.594284,-36.83611,0,0,0,54.5439,-77.30649,-55.39273,-125.9895,-110.0188,-86.57865,0.001067912,-0.1257102,0.09433498,0,0.3,0,0,0,0
638224228774825102,27.02328,13.8399,-1.657656,1.837341,29.93268,14.06928,-57.01511,-0.4675641,7.261,-72.79948,-8.594284,-36.83611,0,0,0,57.07625,-78.04559,-56.44397,-125.9895,-110.0188,-86.57865,0.001067912,-0.1257102,0.09433498,0,0.3,0,0,0,0
638224228775164995,29.96827,13.60611,-1.470878,3.96145,30.81162,13.7763,-57.01511,-0.4675641,7.261,-72.79948,-8.594284,-36.83611,0,0,0,63.03183,-78.58603,-59.03591,-125.9895,-110.0188,-86.57865,0.001067912,-0.1257102,0.09433498,0,0.3,0,0,0,0
638224228775514893,33.2431,13.60611,-0.9572379,6.744767,30.81162,13.33683,-57.01511,-0.4675641,7.261,-72.79948,-8.594284,-36.83611,0,0,0,69.8287,-78.61136,-61.81556,-125.9895,-110.0188,-86.57865,0.001067912,-0.1257102,0.09433498,0,0.3,0,0,0,0
638224228775864781,36.82422,13.60611,-0.1867781,10.18729,30.37215,12.75087,-57.01511,-0.4675641,7.261,-72.79948,-8.594284,-36.83611,0,0,0,77.42136,-78.62926,-64.94988,-125.9895,-110.0188,-86.57865,0.001067912,-0.1257102,0.09433498,0,0.3,0,0,0,0
638224228776204672,38.59122,13.60611,0.3268617,12.09166,30.07917,12.3114,-57.01511,-0.4675641,7.261,-72.79948,-8.594284,-36.83611,0,0,0,81.31856,-78.6278,-66.45197,-125.9895,-110.0188,-86.57865,0.001067912,-0.1257102,0.09433498,0,0.3,0,0,0,0
638224228776544563,41.84249,13.62949,1.681003,15.97366,29.41996,11.21272,-57.01511,-0.4675641,7.261,-72.79948,-8.594284,-36.83611,0,0,0,89.0603,-78.5197,-68.89002,-125.9895,-110.0188,-86.57865,0.001067912,-0.1257102,0.09433498,0,0.3,0,0,0,0
638224228776884583,44.76393,13.86327,3.128534,19.41618,28.76075,9.528083,-57.01511,-0.4675641,7.261,-72.79948,-8.594284,-36.83611,0,0,0,96.29288,-77.84982,-71.26033,-125.9895,-110.0188,-86.57865,0.001067912,-0.1257102,0.09433498,0,0.3,0,0,0,0
638224228777224347,46.15396,14.12043,3.922341,21.24731,28.39453,8.50265,-57.01511,-0.4675641,7.261,-72.79948,-8.594284,-36.83611,0,0,0,99.84531,-77.15546,-72.44768,-125.9895,-110.0188,-86.57865,0.001067912,-0.1257102,0.09433498,0,0.3,0,0,0,0
638224228777564256,48.55708,14.98543,5.486608,24.32361,27.66208,6.378541,-57.01511,-0.4675641,7.261,-72.79948,-8.594284,-36.83611,0,0,0,106.1193,-74.90831,-74.65187,-125.9895,-110.0188,-86.57865,0.001067912,-0.1257102,0.09433498,0,0.3,0,0,0,0
638224228777904124,50.63036,16.29461,7.307694,27.32666,26.49015,4.547412,-57.01511,-0.4675641,7.261,-72.79948,-8.594284,-36.83611,0,0,0,112.0606,-71.50199,-76.40175,-125.9895,-110.0188,-86.57865,0.001067912,-0.1257102,0.09433498,0,0.3,0,0,0,0
638224228778234099,51.54919,17.08947,8.218237,28.71832,25.7577,3.81496,-57.01511,-0.4675641,7.261,-72.79948,-8.594284,-36.83611,0,0,0,114.749,-69.44376,-77.23529,-125.9895,-110.0188,-86.57865,0.001067912,-0.1257102,0.09433498,0,0.3,0,0,0,0
638224228778573910,53.08059,18.84283,10.03932,31.20865,24.21955,2.350057,-57.01511,-0.4675641,7.261,-72.79948,-8.594284,-36.83611,0,0,0,119.4822,-64.8897,-78.57694,-125.9895,-110.0188,-86.57865,0.001067912,-0.1257102,0.09433498,0,0.3,0,0,0,0
638224228778913807,54.18791,20.75984,11.90711,33.11303,22.60816,0.738663,-57.01511,-0.4675641,7.261,-72.79948,-8.594284,-36.83611,0,0,0,123.4297,-59.86463,-79.29008,-125.9895,-110.0188,-86.57865,0.001067912,-0.1257102,0.09433498,0,0.3,0,0,0,0
638224228779253714,54.68267,21.83524,12.86434,33.99197,21.72922,0.006211365,-57.01511,-0.4675641,7.261,-72.72624,-8.594284,-36.83611,0,0,0,125.2279,-57.05486,-79.6268,-125.9895,-110.0188,-86.57865,0.001067912,-0.1257102,0.09433498,0,0.3,0,0,0,0
638224228779593716,55.24811,24.2432,14.75547,35.53012,19.82484,-1.312202,-57.01511,-0.4675641,7.261,-72.79948,-8.594284,-36.83611,0,0,0,127.8071,-50.84741,-79.68082,-125.9895,-110.0188,-86.57865,0.001067912,-0.1257102,0.09433498,0,0.3,0,0,0,0
638224228779933485,55.24811,27.07196,16.43647,36.4823,17.70073,-2.557369,-57.01511,-0.4675641,7.261,-72.79948,-8.594284,-36.83611,0,0,0,128.5612,-43.86171,-79.15765,-125.9895,-110.0188,-86.57865,0.001067912,-0.1257102,0.09433498,0,0.3,0,0,0,0
638224228780273374,55.24811,30.27477,18.42099,36.99502,15.50338,-3.289821,-57.01511,-0.4675641,7.261,-72.79948,-8.594284,-36.83611,0,0,0,129.2434,-35.93913,-78.68435,-125.9895,-110.0188,-86.57865,0.001067912,-0.1257102,0.09433498,0,0.3,0,0,0,0
638224228780613257,55.22455,31.958,19.56501,37.288,14.18496,-3.509557,-57.01511,-0.4675641,7.261,-72.79948,-8.594284,-36.83611,0,0,0,129.6116,-31.71883,-78.34994,-125.9895,-110.0188,-86.57865,0.001067912,-0.1257102,0.09433498,0,0.3,0,0,0,0
638224228780953157,55.20099,35.1842,21.96978,38.02045,11.18191,-4.242009,-57.01511,-0.4675641,7.261,-72.79948,-8.594284,-36.83611,0,0,0,130.4625,-23.47911,-77.67954,-125.9895,-110.0188,-86.57865,0.001067912,-0.1257102,0.09433498,0,0.3,0,0,0,0
638224228781293047,55.20099,38.08309,24.49128,38.75291,8.03237,-5.340686,-57.01511,-0.4675641,7.261,-72.79948,-8.594284,-36.83611,0,0,0,131.5849,-15.75098,-76.89945,-125.9895,-110.0188,-86.57865,0.001067912,-0.1257102,0.09433498,0,0.3,0,0,0,0
638224228781632938,55.20099,39.48579,25.82208,39.11913,6.640712,-6.073137,-57.01511,-0.4675641,7.261,-72.79948,-8.594284,-36.83611,0,0,0,132.2078,-11.88964,-76.46654,-125.9895,-110.0188,-86.57865,0.001067912,-0.1257102,0.09433498,0,0.3,0,0,0,0
638224228781982825,55.17743,42.01063,28.13346,39.70509,3.857395,-7.464796,-57.01511,-0.4675641,7.261,-72.79948,-8.594284,-36.83611,0,0,0,132.9568,-4.997971,-75.86489,-125.9895,-110.0188,-86.57865,0.001067912,-0.1257102,0.09433498,0,0.3,0,0,0,0
638224228782312714,55.08319,44.62899,30.2814,40.14456,1.220569,-9.442415,-57.01511,-0.4675641,7.261,-72.79948,-8.594284,-36.83611,0,0,0,132.9544,1.874511,-75.54173,-125.9895,-110.0188,-86.57865,0.001067912,-0.1257102,0.09433498,0,0.3,0,0,0,0
638224228782652616,55.01251,45.96155,31.30868,40.29105,-0.02459868,-10.46785,-57.01511,-0.4675641,7.261,-72.79948,-8.594284,-36.83611,0,0,0,132.7165,5.280188,-75.46407,-125.9895,-110.0188,-86.57865,0.001067912,-0.1257102,0.09433498,0,0.3,0,0,0,0
638224228783002497,54.75335,48.57991,33.17647,40.58403,-2.58818,-12.59196,-57.01511,-0.4675641,7.261,-72.79948,-8.594284,-36.83611,0,0,0,131.6421,11.73387,-75.32609,-125.9895,-110.0188,-86.57865,0.001067912,-0.1257102,0.09433498,0,0.3,0,0,0,0
638224228783342395,54.35283,51.40867,35.4178,40.65728,-5.371496,-15.00905,-57.01511,-0.4675641,7.261,-72.79948,-8.594284,-36.83611,0,0,0,130.3928,18.90506,-74.83546,-125.9895,-110.0188,-86.57865,0.001067912,-0.1257102,0.09433498,0,0.3,0,0,0,0
638224228783682287,53.76383,54.35432,37.72918,40.65728,-8.154812,-17.86561,-57.01511,-0.4675641,7.261,-72.79948,-8.594284,-36.83611,0,0,0,128.5002,26.24695,-74.17748,-125.9895,-110.0188,-86.57865,0.001067912,-0.1257102,0.09433498,0,0.3,0,0,0,0
638224228784022178,53.29263,55.94404,38.8732,40.51079,-9.766206,-19.55025,-57.01511,-0.4675641,7.261,-72.79948,-8.594284,-36.83611,0,0,0,126.9623,30.01139,-73.68979,-125.9895,-110.0188,-86.57865,0.001067912,-0.1257102,0.09433498,0,0.3,0,0,0,0
638224228784362061,52.35023,58.60916,40.97445,40.07132,-12.8425,-22.5533,-57.01511,-0.4675641,7.261,-72.79948,-8.594284,-36.83611,0,0,0,124.2263,36.50257,-72.51088,-125.9895,-110.0188,-86.57865,0.001067912,-0.1257102,0.09433498,0,0.3,0,0,0,0
638224228784711953,51.59631,60.50279,42.81889,39.5586,-16.28502,-25.11688,-57.01511,-0.4675641,7.261,-72.79948,-8.521038,-36.83611,0,0,0,122.4809,41.60212,-71.25997,-125.9895,-110.0188,-86.57865,0.001067912,-0.1257102,0.09433498,0,0.3,0,0,0,0
638224228785051855,51.38427,60.99373,43.44926,39.33887,-17.89642,-26.28881,-57.01511,-0.4675641,7.261,-72.79948,-8.594284,-36.90935,0,0,0,122.1784,43.16354,-70.76134,-125.9895,-110.0188,-86.57865,0.001067912,-0.1257102,0.09433498,0,0.3,0,0,0,0
638224228785391738,51.36071,60.9236,44.12633,39.04589,-19.94728,-27.9002,-57.01511,-0.4675641,7.261,-72.79948,-8.594284,-36.83611,0,0,0,123.1383,44.17474,-69.91167,-125.9895,-110.0188,-86.57865,0.001067912,-0.1257102,0.09433498,0,0.3,0,0,0,0
638224228785731631,51.45495,59.96509,44.26641,38.97264,-20.82623,-28.63265,-57.01511,-0.4675641,7.261,-72.79948,-8.594284,-36.83611,0,0,0,125.0006,43.30164,-68.75949,-125.9895,-110.0188,-86.57865,0.001067912,-0.1257102,0.09433498,0,0.3,0,0,0,0
638224228786081517,51.73767,58.14159,44.26641,39.11913,-20.89947,-28.99888,-57.01511,-0.4675641,7.261,-72.79948,-8.594284,-36.83611,0,0,0,128.3483,41.1193,-67.12357,-125.9895,-110.0188,-86.57865,0.001067912,-0.1257102,0.09433498,0,0.3,0,0,0,0
638224228786421403,51.94971,57.04282,44.26641,39.33887,-20.60649,-28.99888,-57.01511,-0.4675641,7.261,-72.79948,-8.594284,-36.90935,0,0,0,130.4222,39.74876,-66.26857,-125.9895,-110.0188,-86.57865,0.001067912,-0.1257102,0.09433498,0,0.3,0,0,0,0
638224228786761304,52.44447,54.1673,44.24307,40.29105,-19.28808,-28.26642,-57.01511,-0.4675641,7.261,-72.79948,-8.594284,-36.83611,0,0,0,135.6454,35.9307,-64.05659,-125.9895,-110.0188,-86.57865,0.001067912,-0.1257102,0.09433498,0,0.3,0,0,0,0
638224228787101196,53.00991,51.08138,44.24307,41.24324,-17.38371,-27.53397,-57.01511,-0.4675641,7.261,-72.79948,-8.667529,-36.83611,0,0,0,141.2263,31.57137,-61.96667,-125.9895,-110.0188,-86.57865,0.001067912,-0.1257102,0.09433498,0,0.3,0,0,0,0
638224228787441089,53.36331,49.25787,44.24307,41.68271,-16.43152,-27.24099,-57.01511,-0.4675641,7.261,-72.79948,-8.594284,-36.83611,0,0,0,144.4949,28.85313,-60.89498,-125.9895,-110.0188,-86.57865,0.001067912,-0.1257102,0.09433498,0,0.3,0,0,0,0
638224228787780986,53.95231,45.70439,44.26641,42.48841,-14.23416,-26.87477,-57.01511,-0.4675641,7.261,-72.79948,-8.594284,-36.83611,0,0,0,150.5511,23.30256,-58.77663,-125.9895,-110.0188,-86.57865,0.001067912,-0.1257102,0.09433498,0,0.3,0,0,0,0
638224228788120862,54.37639,41.87036,44.35981,43.07437,-12.25654,-26.65503,-57.01511,-0.4675641,7.261,-72.79948,-8.594284,-36.83611,0,0,0,156.5027,17.01375,-56.20748,-125.9895,-110.0188,-86.57865,0.001067912,-0.1257102,0.09433498,0,0.3,0,0,0,0
638224228788460764,54.56487,40.04686,44.47654,43.22086,-10.79164,-26.50854,-57.01511,-0.4675641,7.261,-72.79948,-8.594284,-36.90935,0,0,0,159.2955,13.99904,-54.99752,-125.9895,-110.0188,-86.57865,0.001067912,-0.1257102,0.09433498,0,0.3,0,0,0,0
638224228788800652,54.80047,36.63364,44.66332,43.66033,-8.154812,-26.21556,-57.01511,-0.4675641,7.261,-72.79948,-8.594284,-36.83611,0,0,0,164.0395,8.074297,-52.63487,-125.9895,-110.0188,-86.57865,0.001067912,-0.1257102,0.09433498,0,0.3,0,0,0,0
638224228789140547,54.89471,33.59448,44.8501,43.88007,-5.517986,-25.92258,-57.01511,-0.4675641,7.261,-72.79948,-8.594284,-36.83611,0,0,0,167.8103,2.594994,-50.3878,-125.9895,-110.0188,-86.57865,0.001067912,-0.1257102,0.09433498,0,0.3,0,0,0,0
638224228789470433,54.98895,30.50856,45.03687,44.02656,-3.467122,-25.48311,-57.01511,-0.4675641,7.261,-72.79948,-8.594284,-36.83611,0,0,0,171.3774,-3.184587,-48.30095,-125.9895,-110.0188,-86.57865,0.001067912,-0.1257102,0.09433498,0,0.3,0,0,0,0
638224228789810325,55.01251,29.12924,45.08357,44.17305,-2.221954,-25.19013,-57.01511,-0.4675641,7.261,-72.79948,-8.594284,-36.83611,0,0,0,172.7975,-5.892777,-47.41212,-125.9895,-110.0188,-86.57865,0.001067912,-0.1257102,0.09433498,0,0.3,0,0,0,0
638224228790140225,55.03607,26.46413,45.13026,44.24629,-0.02459868,-24.67741,-57.01511,-0.4675641,7.261,-72.79948,-8.594284,-36.83611,0,0,0,175.2803,-11.30232,-45.78175,-125.9895,-110.0188,-86.57865,0.001067912,-0.1257102,0.09433498,0,0.3,0,0,0,0
638224228790478671,55.08319,23.96266,45.13026,44.24629,1.879776,-23.87171,-57.01511,-0.4675641,7.261,-72.79948,-8.594284,-36.83611,0,0,0,177.4146,-16.56914,-44.50649,-125.9895,-110.0188,-86.57865,0.001067912,-0.1257102,0.09433498,0,0.3,0,0,0,0
638224228790828558,55.08319,22.6301,45.13026,44.17305,2.978453,-23.359,-57.01511,-0.4675641,7.261,-72.79948,-8.594284,-36.83611,0,0,0,178.4203,-19.41762,-43.80444,-125.9895,-110.0188,-86.57865,0.001067912,-0.1257102,0.09433498,0,0.3,0,0,0,0
638224228791168450,55.08319,20.12863,45.10692,43.95331,5.102563,-22.5533,-57.01511,-0.4675641,7.261,-72.79948,-8.594284,-36.83611,0,0,0,180.129,-24.87697,-42.61169,-125.9895,-110.0188,-86.57865,0.001067912,-0.1257102,0.09433498,0,0.3,0,0,0,0
638224228791509135,55.08319,17.74406,45.03687,43.51384,7.153428,-21.89409,-57.01511,-0.4675641,7.261,-72.79948,-8.594284,-36.83611,0,0,0,181.5113,-30.2415,-41.64678,-125.9895,-110.0188,-86.57865,0.001067912,-0.1257102,0.09433498,0,0.3,0,0,0,0
638224228791839025,55.08319,16.71542,44.94349,43.29411,8.105616,-21.7476,-57.01511,-0.4675641,7.261,-72.79948,-8.594284,-36.83611,0,0,0,181.9667,-32.68176,-41.32888,-125.9895,-110.0188,-86.57865,0.001067912,-0.1257102,0.09433498,0,0.3,0,0,0,0
638224228792178922,55.08319,14.96205,44.63997,42.78139,10.22972,-21.30813,-57.01511,-0.4675641,7.261,-72.79948,-8.594284,-36.83611,0,0,0,182.4689,-37.10513,-40.97834,-125.9895,-110.0188,-86.57865,0.001067912,-0.1257102,0.09433498,0,0.3,0,0,0,0
638224228792518588,55.03607,13.58274,44.26641,42.19543,11.84112,-20.86866,-57.01511,-0.4675641,7.261,-72.79948,-8.594284,-36.83611,0,0,0,182.504,-40.82505,-40.73045,-125.9895,-110.0188,-86.57865,0.001067912,-0.1257102,0.09433498,0,0.3,0,0,0,0
638224228792858482,54.96539,12.85801,44.07964,41.90245,12.42708,-20.50244,-57.01511,-0.4675641,7.261,-72.79948,-8.594284,-36.83611,0,0,0,182.407,-42.76998,-40.46295,-125.9895,-110.0188,-86.57865,0.001067912,-0.1257102,0.09433498,0,0.3,0,0,0,0
638224228793198389,54.72979,11.29167,43.5193,41.17,13.52576,-19.55025,-57.01511,-0.4675641,7.261,-72.79948,-8.594284,-36.83611,0,0,0,181.7337,-47.23733,-39.81716,-125.9895,-110.0188,-86.57865,0.001067912,-0.1257102,0.09433498,0,0.3,0,0,0,0
638224228793538263,54.44707,10.12276,42.37529,40.21781,14.4047,-18.59806,-57.01511,-0.4675641,7.261,-72.79948,-8.594284,-36.83611,0,0,0,179.9229,-51.72449,-39.76131,-125.9895,-110.0188,-86.57865,0.001067912,-0.1257102,0.09433498,0,0.3,0,0,0,0
638224228793878156,54.04655,8.813582,40.83437,39.11913,15.79636,-17.13316,-57.01511,-0.4675641,7.261,-72.79948,-8.594284,-36.83611,0,0,0,177.2546,-57.11111,-39.78688,-125.9895,-110.0188,-86.57865,0.001067912,-0.1257102,0.09433498,0,0.3,0,0,0,0
638224228794218047,53.83451,8.112236,40.13395,38.53317,16.60205,-16.18097,-57.01511,-0.4675641,7.261,-72.79948,-8.594284,-36.83611,0,0,0,175.9706,-59.78398,-39.72168,-125.9895,-110.0188,-86.57865,0.001067912,-0.1257102,0.09433498,0,0.3,0,0,0,0
638224228794559788,53.29263,6.756301,38.40625,37.06827,18.28669,-13.76388,-57.01511,-0.4675641,7.261,-72.79948,-8.594284,-36.83611,0,0,0,172.578,-65.45831,-39.67978,-125.9895,-110.0188,-86.57865,0.001067912,-0.1257102,0.09433498,0,0.3,0,0,0,0
638224228794899681,52.70363,6.148468,35.88475,35.53012,20.11782,-11.2003,-57.01511,-0.4675641,7.261,-72.79948,-8.594284,-36.83611,0,0,0,167.6517,-70.40739,-40.65044,-125.9895,-110.0188,-86.57865,0.001067912,-0.1257102,0.09433498,0,0.3,0,0,0,0
638224228795239572,52.39735,6.171845,34.29713,34.72442,20.92352,-10.17487,-57.01511,-0.4675641,7.261,-72.79948,-8.594284,-36.83611,0,0,0,164.5668,-72.4774,-41.6044,-125.9895,-110.0188,-86.57865,0.001067912,-0.1257102,0.09433498,0,0.3,0,0,0,0
638224228795589461,51.69056,6.475762,31.1219,32.89329,22.6814,-8.197248,-57.01511,-0.4675641,7.261,-72.79948,-8.594284,-36.90935,0,0,0,158.0511,-75.76727,-43.48647,-125.9895,-110.0188,-86.57865,0.001067912,-0.1257102,0.09433498,0,0.3,0,0,0,0
638224228795929365,51.00732,7.597916,28.01672,30.84243,24.2928,-6.292873,-57.01511,-0.4675641,7.261,-72.79948,-8.594284,-36.83611,0,0,0,151.4174,-76.7412,-45.76663,-125.9895,-110.0188,-86.57865,0.001067912,-0.1257102,0.09433498,0,0.3,0,0,0,0
638224228796259247,50.77172,8.579801,26.33572,29.74375,25.02525,-5.560421,-57.01511,-0.4675641,7.261,-72.79948,-8.594284,-36.90935,0,0,0,147.967,-76.26556,-47.5494,-125.9895,-110.0188,-86.57865,0.001067912,-0.1257102,0.09433498,0,0.3,0,0,0,0
638224228796599138,50.65392,11.03451,23.53404,27.69288,25.53797,-4.754725,-57.01511,-0.4675641,7.261,-72.79948,-8.594284,-36.83611,0,0,0,142.3937,-73.38512,-51.61071,-125.9895,-110.0188,-86.57865,0.001067912,-0.1257102,0.09433498,0,0.3,0,0,0,0
638224228796939030,50.67748,13.72301,21.66626,26.08149,24.87876,-4.315253,-57.01511,-0.4675641,7.261,-72.79948,-8.594284,-36.83611,0,0,0,138.2997,-68.94446,-55.06223,-125.9895,-110.0188,-86.57865,0.001067912,-0.1257102,0.09433498,0,0.3,0,0,0,0
638224228797288921,50.74816,16.50501,20.56894,24.83632,23.63359,-4.315253,-57.01511,-0.4675641,7.261,-72.79948,-8.594284,-36.83611,0,0,0,135.2873,-63.61433,-57.80841,-125.9895,-110.0188,-86.57865,0.001067912,-0.1257102,0.09433498,0,0.3,0,0,0,0
638224228797618813,50.79528,18.00122,20.17204,24.25036,22.82789,-4.681479,-57.01511,-0.4675641,7.261,-72.79948,-8.594284,-36.83611,0,0,0,133.9068,-60.61039,-59.11991,-125.9895,-110.0188,-86.57865,0.001067912,-0.1257102,0.09433498,0,0.3,0,0,0,0
638224228797958704,51.03088,20.71309,19.98526,23.59116,20.77703,-5.999893,-57.01511,-0.4675641,7.261,-72.79948,-8.594284,-36.83611,0,0,0,132.411,-54.80538,-61.24377,-125.9895,-110.0188,-86.57865,0.001067912,-0.1257102,0.09433498,0,0.3,0,0,0,0
638224228798298609,51.33715,23.14442,20.00861,23.22493,18.21345,-7.831022,-57.01511,-0.4675641,7.261,-72.79948,-8.594284,-36.83611,0,0,0,131.3716,-49.53792,-63.24134,-125.9895,-110.0188,-86.57865,0.001067912,-0.1257102,0.09433498,0,0.3,0,0,0,0
638224228798638480,51.57275,24.17306,20.17204,23.07844,16.89503,-9.149435,-57.01511,-0.4675641,7.261,-72.79948,-8.594284,-36.83611,0,0,0,131.3299,-47.21446,-64.15749,-125.9895,-110.0188,-86.57865,0.001067912,-0.1257102,0.09433498,0,0.3,0,0,0,0
638224228798968385,52.16175,25.57575,21.08258,23.22493,14.62444,-12.44547,-57.01511,-0.4675641,7.261,-72.79948,-8.521038,-36.83611,0,0,0,132.8759,-43.5062,-65.13876,-125.9895,-110.0188,-86.57865,0.001067912,-0.1257102,0.09433498,0,0.3,0,0,0,0
638224228799308267,52.91567,26.09007,22.39003,24.03063,12.42708,-15.15554,-57.01511,-0.4675641,7.261,-72.79948,-8.594284,-36.83611,0,0,0,136.0612,-41.30191,-65.50623,-125.9895,-110.0188,-86.57865,0.001067912,-0.1257102,0.09433498,0,0.3,0,0,0,0
638224228799648160,53.26907,26.09007,22.99706,24.54334,11.54814,-16.25422,-57.01511,-0.4675641,7.261,-72.79948,-8.594284,-36.83611,0,0,0,137.7376,-40.75686,-65.56788,-125.9895,-110.0188,-86.57865,0.001067912,-0.1257102,0.09433498,0,0.3,0,0,0,0
638224228799998059,53.81095,26.09007,24.16442,25.64202,10.15648,-18.59806,-57.01511,-0.4675641,7.261,-72.79948,-8.594284,-36.83611,0,0,0,140.7131,-39.67,-65.40489,-125.9895,-110.0188,-86.57865,0.001067912,-0.1257102,0.09433498,0,0.3,0,0,0,0
638224228800338072,54.25859,26.09007,25.68199,26.81394,9.057802,-21.16164,-57.01511,-0.4675641,7.261,-72.79948,-8.594284,-36.90935,0,0,0,144.1128,-38.18165,-64.63644,-125.9895,-110.0188,-86.57865,0.001067912,-0.1257102,0.09433498,0,0.3,0,0,0,0
638224228800687836,54.58843,26.04332,27.38634,27.98586,8.03237,-22.99277,-57.01511,-0.4675641,7.261,-72.79948,-8.594284,-36.83611,0,0,0,147.6387,-36.50742,-63.38376,-125.9895,-110.0188,-86.57865,0.001067912,-0.1257102,0.09433498,0,0.3,0,0,0,0
638224228801017875,54.68267,25.97318,28.27354,28.79156,7.592898,-23.50549,-57.01511,-0.4675641,7.261,-72.79948,-8.594284,-36.90935,0,0,0,149.3595,-35.69015,-62.52974,-125.9895,-110.0188,-86.57865,0.001067912,-0.1257102,0.09433498,0,0.3,0,0,0,0
638224228801367623,54.72979,25.69264,30.2814,30.40295,6.860447,-24.09145,-57.01511,-0.4675641,7.261,-72.79948,-8.594284,-36.83611,0,0,0,153.0065,-33.99261,-60.13472,-125.9895,-110.0188,-86.57865,0.001067912,-0.1257102,0.09433498,0,0.3,0,0,0,0
638224228801697512,54.75335,25.45886,32.31261,32.16084,6.713957,-24.16469,-57.01511,-0.4675641,7.261,-72.79948,-8.594284,-36.83611,0,0,0,156.5417,-32.02775,-57.73101,-125.9895,-110.0188,-86.57865,0.001067912,-0.1257102,0.09433498,0,0.3,0,0,0,0
638224228802037405,54.75335,25.45886,33.24651,33.03978,6.494221,-24.16469,-57.01511,-0.4675641,7.261,-72.79948,-8.594284,-36.83611,0,0,0,158.034,-30.85099,-56.67643,-125.9895,-110.0188,-86.57865,0.001067912,-0.1257102,0.09433498,0,0.3,0,0,0,0
638224228802377293,54.70623,25.45886,35.09094,34.87091,6.05475,-23.79847,-57.01511,-0.4675641,7.261,-72.79948,-8.594284,-36.83611,0,0,0,160.841,-28.44016,-54.4945,-125.9895,-110.0188,-86.57865,0.001067912,-0.1257102,0.09433498,0,0.3,0,0,0,0
638224228802728546,54.63555,25.41211,36.79529,36.33582,5.468789,-23.28575,-57.01511,-0.4675641,7.261,-72.79948,-8.594284,-36.83611,0,0,0,163.3573,-26.21014,-52.41049,-125.9895,-110.0188,-86.57865,0.001067912,-0.1257102,0.09433498,0,0.3,0,0,0,0
638224228803068439,54.63555,25.22508,38.56968,37.43449,4.956073,-22.91953,-57.01511,-0.4675641,7.261,-72.79948,-8.521038,-36.83611,0,0,0,166.1743,-24.07928,-50.41121,-125.9895,-110.0188,-86.57865,0.001067912,-0.1257102,0.09433498,0,0.3,0,0,0,0
638224228803398328,54.63555,25.08481,39.59696,38.02045,4.736337,-22.91953,-57.01511,-0.4675641,7.261,-72.79948,-8.594284,-36.83611,0,0,0,167.8008,-22.86747,-49.25677,-125.9895,-110.0188,-86.57865,0.001067912,-0.1257102,0.09433498,0,0.3,0,0,0,0
638224228803748226,54.63555,24.64063,42.00173,39.41211,4.443357,-22.77304,-57.01511,-0.4675641,7.261,-72.79948,-8.594284,-36.83611,0,0,0,171.6101,-20.14867,-46.55322,-125.9895,-110.0188,-86.57865,0.001067912,-0.1257102,0.09433498,0,0.3,0,0,0,0
638224228804088112,54.65911,24.43022,44.38315,41.09675,4.077131,-22.77304,-57.01511,-0.4675641,7.261,-72.79948,-8.594284,-36.83611,0,0,0,175.122,-16.80084,-44.16896,-125.9895,-110.0188,-86.57865,0.001067912,-0.1257102,0.09433498,0,0.3,0,0,0,0
638224228804428003,54.70623,24.43022,45.73729,42.04893,3.857395,-22.69979,-57.01511,-0.4675641,7.261,-72.79948,-8.594284,-36.83611,0,0,0,177.0411,-14.57001,-43.02683,-125.9895,-110.0188,-86.57865,0.001067912,-0.1257102,0.09433498,0,0.3,0,0,0,0
638224228804757898,54.70623,24.43022,48.37553,43.95331,3.491169,-22.77304,-57.01511,-0.4675641,7.261,-72.79948,-8.521038,-36.83611,0,0,0,180.4551,-10.07561,-40.61012,-125.9895,-110.0188,-86.57865,0.001067912,-0.1257102,0.09433498,0,0.3,0,0,0,0
638224228805107787,54.70623,24.43022,50.7803,46.00418,3.271434,-22.77304,-57.01511,-0.4675641,7.261,-72.79948,-8.594284,-36.83611,0,0,0,183.4169,-5.815104,-38.51351,-125.9895,-110.0188,-86.57865,0.001067912,-0.1257102,0.09433498,0,0.3,0,0,0,0
638224228805447684,54.70623,24.43022,51.90097,46.95637,3.124943,-22.77304,-57.01511,-0.4675641,7.261,-72.79948,-8.594284,-36.83611,0,0,0,184.7468,-3.77843,-37.57214,-125.9895,-110.0188,-86.57865,0.001067912,-0.1257102,0.09433498,0,0.3,0,0,0,0
638224228805787566,54.70623,24.40685,54.04892,48.49451,2.685472,-22.84628,-57.01511,-0.4675641,7.261,-72.79948,-8.594284,-36.83611,0,0,0,187.222,0.1629581,-35.82,-125.9895,-110.0188,-86.57865,0.001067912,-0.1257102,0.09433498,0,0.3,0,0,0,0
638224228806127469,54.65911,24.21982,56.01009,49.81293,2.172756,-23.43224,-57.01511,-0.4675641,7.261,-72.79948,-8.594284,-36.83611,0,0,0,189.3931,3.506402,-34.04921,-125.9895,-110.0188,-86.57865,0.001067912,-0.1257102,0.09433498,0,0.3,0,0,0,0
638224228806467351,54.63555,24.03279,56.87394,50.32565,1.879776,-23.79847,-57.01511,-0.4675641,7.261,-72.79948,-8.594284,-36.83611,0,0,0,190.3892,4.784546,-33.22514,-125.9895,-110.0188,-86.57865,0.001067912,-0.1257102,0.09433498,0,0.3,0,0,0,0
638224228806807247,54.56487,23.68212,58.53159,51.05809,1.733285,-24.60417,-57.01511,-0.4675641,7.261,-72.79948,-8.594284,-36.83611,0,0,0,192.1709,7.299154,-31.60387,-125.9895,-110.0188,-86.57865,0.001067912,-0.1257102,0.09433498,0,0.3,0,0,0,0
638224228807147133,54.51775,23.40158,60.2126,51.57081,1.66004,-25.33662,-57.01511,-0.4675641,7.261,-72.79948,-8.521038,-36.83611,0,0,0,193.8937,10.06702,-30.1376,-125.9895,-110.0188,-86.57865,0.001067912,-0.1257102,0.09433498,0,0.3,0,0,0,0
638224228807488383,54.51775,23.35482,61.56674,52.08353,1.66004,-25.92258,-57.01511,-0.4675641,7.261,-72.79948,-8.594284,-36.83611,0,0,0,195.1773,12.72059,-29.22258,-125.9895,-110.0188,-86.57865,0.001067912,-0.1257102,0.09433498,0,0.3,0,0,0,0
638224228807818262,54.51775,23.33145,62.36055,52.37651,1.733285,-26.28881,-57.01511,-0.4675641,7.261,-72.79948,-8.594284,-36.83611,0,0,0,195.902,14.30132,-28.70601,-125.9895,-110.0188,-86.57865,0.001067912,-0.1257102,0.09433498,0,0.3,0,0,0,0
638224228808158163,54.51775,23.30807,63.94816,53.03571,1.733285,-26.72828,-57.01511,-0.4675641,7.261,-72.79948,-8.521038,-36.83611,0,0,0,197.2782,17.54803,-27.72499,-125.9895,-110.0188,-86.57865,0.001067912,-0.1257102,0.09433498,0,0.3,0,0,0,0
638224228808498053,54.51775,23.28469,65.53577,53.9879,1.879776,-27.16775,-57.01511,-0.4675641,7.261,-72.79948,-8.594284,-36.83611,0,0,0,198.5796,20.8397,-26.79737,-125.9895,-110.0188,-86.57865,0.001067912,-0.1257102,0.09433498,0,0.3,0,0,0,0
638224228808837937,54.51775,23.28469,66.11945,54.42737,1.953021,-27.31424,-57.01511,-0.4675641,7.261,-72.79948,-8.594284,-36.83611,0,0,0,199.0325,22.07904,-26.47448,-125.9895,-110.0188,-86.57865,0.001067912,-0.1257102,0.09433498,0,0.3,0,0,0,0
638224228809177832,54.51775,23.28469,67.19343,55.23307,2.099511,-27.68046,-57.01511,-0.4675641,7.261,-72.79948,-8.594284,-36.83611,0,0,0,199.839,24.37397,-25.89959,-125.9895,-110.0188,-86.57865,0.001067912,-0.1257102,0.09433498,0,0.3,0,0,0,0
638224228809517727,54.51775,23.28469,68.38414,55.96552,2.246002,-28.04669,-57.01511,-0.4675641,7.261,-72.79948,-8.594284,-36.83611,0,0,0,200.6921,26.93954,-25.29152,-125.9895,-110.0188,-86.57865,0.001067912,-0.1257102,0.09433498,0,0.3,0,0,0,0
638224228809857622,54.51775,23.28469,68.94447,56.47824,2.246002,-28.26642,-57.01511,-0.4675641,7.261,-72.79948,-8.594284,-36.83611,0,0,0,201.0784,28.15428,-25.01611,-125.9895,-110.0188,-86.57865,0.001067912,-0.1257102,0.09433498,0,0.3,0,0,0,0
638224228810207500,54.51775,23.28469,69.73828,57.50367,2.246002,-28.33967,-57.01511,-0.4675641,7.261,-72.79948,-8.594284,-36.83611,0,0,0,201.6092,29.88297,-24.63778,-125.9895,-110.0188,-86.57865,0.001067912,-0.1257102,0.09433498,0,0.3,0,0,0,0
638224228810556120,54.51775,23.28469,70.22857,58.30937,2.392492,-28.33967,-57.01511,-0.4675641,7.261,-72.79948,-8.594284,-36.90935,0,0,0,201.9272,30.95514,-24.41106,-125.9895,-110.0188,-86.57865,0.001067912,-0.1257102,0.09433498,0,0.3,0,0,0,0
638224228810906005,54.51775,23.28469,70.25192,58.89533,2.538982,-28.19318,-57.01511,-0.4675641,7.261,-72.79948,-8.594284,-36.83611,0,0,0,201.9422,31.00628,-24.4004,-125.9895,-110.0188,-86.57865,0.001067912,-0.1257102,0.09433498,0,0.3,0,0,0,0
638224228811235910,54.51775,23.28469,70.25192,59.18831,2.685472,-28.19318,-57.01511,-0.4675641,7.261,-72.79948,-8.594284,-36.83611,0,0,0,201.9422,31.00628,-24.4004,-125.9895,-110.0188,-86.57865,0.001067912,-0.1257102,0.09433498,0,0.3,0,0,0,0
638224228811575793,54.51775,23.28469,70.20523,59.48129,2.978453,-28.11993,-57.01511,-0.4675641,7.261,-72.79948,-8.594284,-36.83611,0,0,0,201.9123,30.90401,-24.42174,-125.9895,-110.0188,-86.57865,0.001067912,-0.1257102,0.09433498,0,0.3,0,0,0,0
638224228811925689,54.51775,23.23793,69.87837,59.62778,3.124943,-28.11993,-57.01511,-0.4675641,7.261,-72.79948,-8.594284,-36.83611,0,0,0,201.7358,30.08899,-24.54751,-125.9895,-110.0188,-86.57865,0.001067912,-0.1257102,0.09433498,0,0.3,0,0,0,0
638224228812265573,54.51775,23.19118,69.34138,59.70102,3.344679,-27.97344,-57.01511,-0.4675641,7.261,-72.79948,-8.594284,-36.83611,0,0,0,201.4162,28.81751,-24.77537,-125.9895,-110.0188,-86.57865,0.001067912,-0.1257102,0.09433498,0,0.3,0,0,0,0
638224228812605480,54.51775,23.19118,68.94447,59.55453,3.417924,-27.82695,-57.01511,-0.4675641,7.261,-72.79948,-8.594284,-36.83611,0,0,0,201.1484,27.95429,-24.96627,-125.9895,-110.0188,-86.57865,0.001067912,-0.1257102,0.09433498,0,0.3,0,0,0,0
638224228812945368,54.51775,23.19118,67.96389,58.96857,3.63766,-27.60722,-57.01511,-0.4675641,7.261,-72.79948,-8.594284,-36.83611,0,0,0,200.4659,25.83158,-25.45276,-125.9895,-110.0188,-86.57865,0.001067912,-0.1257102,0.09433498,0,0.3,0,0,0,0
638224228813295273,54.37639,23.33145,66.28289,57.94314,3.93064,-27.16775,-57.01511,-0.4675641,7.261,-72.79948,-8.594284,-36.83611,0,0,0,198.7717,22.527,-25.91954,-125.9895,-110.0188,-86.57865,0.001067912,-0.1257102,0.09433498,0,0.3,0,0,0,0
638224228813625142,54.32927,23.54185,65.04549,57.21069,3.710905,-26.80152,-57.01511,-0.4675641,7.261,-72.79948,-8.594284,-36.83611,0,0,0,197.5321,20.35231,-26.56172,-125.9895,-110.0188,-86.57865,0.001067912,-0.1257102,0.09433498,0,0.3,0,0,0,0
638224228813965031,54.28215,24.07955,62.80414,55.01333,3.124943,-26.14231,-57.01511,-0.4675641,7.261,-72.79948,-8.594284,-36.83611,0,0,0,195.1438,16.81199,-28.03276,-125.9895,-110.0188,-86.57865,0.001067912,-0.1257102,0.09433498,0,0.3,0,0,0,0
638224228814304930,53.97587,24.92117,61.47335,52.96247,2.099511,-25.6296,-57.01511,-0.4675641,7.261,-72.79948,-8.594284,-36.90935,0,0,0,192.5633,15.85618,-28.32062,-125.9895,-110.0188,-86.57865,0.001067912,-0.1257102,0.09433498,0,0.3,0,0,0,0
638224228814644820,53.71671,25.48224,60.88967,52.23001,1.440305,-25.33662,-57.01511,-0.4675641,7.261,-72.79948,-8.594284,-36.83611,0,0,0,190.9519,15.84752,-28.16761,-125.9895,-110.0188,-86.57865,0.001067912,-0.1257102,0.09433498,0,0.3,0,0,0,0
638224228814984712,53.05703,27.30574,58.9285,50.9116,-0.09784385,-23.94496,-57.01511,-0.4675641,7.261,-72.79948,-8.594284,-36.90935,0,0,0,185.9885,15.69987,-28.48763,-125.9895,-110.0188,-86.57865,0.001067912,-0.1257102,0.09433498,0,0.3,0,0,0,0
638224228815334602,52.42091,29.31627,56.71051,49.66644,-1.782483,-21.82085,-57.01511,-0.4675641,7.261,-72.79948,-8.521038,-36.83611,0,0,0,180.4869,15.45041,-29.46126,-125.9895,-110.0188,-86.57865,0.001067912,-0.1257102,0.09433498,0,0.3,0,0,0,0
638224228815664496,51.66699,31.49044,54.37578,48.05504,-3.467122,-19.477,-57.01511,-0.4675641,7.261,-72.79948,-8.594284,-36.83611,0,0,0,174.2237,15.33429,-30.59337,-125.9895,-110.0188,-86.57865,0.001067912,-0.1257102,0.09433498,0,0.3,0,0,0,0
638224228816004389,51.21936,32.4957,53.30181,47.1761,-4.272818,-18.37833,-57.01511,-0.4675641,7.261,-72.79948,-8.594284,-36.83611,0,0,0,171.0261,15.30053,-30.93658,-125.9895,-110.0188,-86.57865,0.001067912,-0.1257102,0.09433498,0,0.3,0,0,0,0
638224228816354276,50.1356,34.57636,51.29394,45.27173,-5.664476,-16.03448,-57.01511,-0.4675641,7.261,-72.79948,-8.521038,-36.83611,0,0,0,164.1496,15.63956,-31.27279,-125.9895,-110.0188,-86.57865,0.001067912,-0.1257102,0.09433498,0,0.3,0,0,0,0
638224228816704161,48.88692,36.72716,49.68298,42.78139,-7.642097,-14.2766,-57.01511,-0.4675641,7.261,-72.79948,-8.594284,-36.90935,0,0,0,157.1283,16.81436,-31.2151,-125.9895,-110.0188,-86.57865,0.001067912,-0.1257102,0.09433498,0,0.3,0,0,0,0
638224228817044058,48.15656,37.80256,49.07595,41.46298,-8.594284,-13.61739,-57.01511,-0.4675641,7.261,-72.79948,-8.594284,-36.83611,0,0,0,153.5533,17.73387,-30.84791,-125.9895,-110.0188,-86.57865,0.001067912,-0.1257102,0.09433498,0,0.3,0,0,0,0
638224228817373949,46.57804,39.71957,48.02533,39.04589,-10.20568,-12.6652,-57.01511,-0.4675641,7.261,-72.79948,-8.594284,-36.83611,0,0,0,146.5029,19.37997,-29.70271,-125.9895,-110.0188,-86.57865,0.001067912,-0.1257102,0.09433498,0,0.3,0,0,0,0
638224228817726509,44.7168,41.77685,46.90466,36.33582,-11.96356,-11.63977,-57.01511,-0.4675641,7.261,-72.79948,-8.594284,-36.83611,0,0,0,138.4829,21.08529,-28.49129,-125.9895,-110.0188,-86.57865,0.001067912,-0.1257102,0.09433498,0,0.3,0,0,0,0
638224228818056411,43.79797,42.73536,46.48441,34.94416,-12.98899,-11.05381,-57.01511,-0.4675641,7.261,-72.79948,-8.594284,-36.83611,0,0,0,134.7198,22.02464,-27.85551,-125.9895,-110.0188,-86.57865,0.001067912,-0.1257102,0.09433498,0,0.3,0,0,0,0
638224228818396302,42.03097,44.62899,45.94742,31.86786,-14.67363,-9.955132,-57.01511,-0.4675641,7.261,-72.79948,-8.594284,-36.90935,0,0,0,127.7067,24.30945,-26.67142,-125.9895,-110.0188,-86.57865,0.001067912,-0.1257102,0.09433498,0,0.3,0,0,0,0
638224228818746176,40.68805,45.70439,45.59721,29.15779,-16.79774,-9.076189,-57.01511,-0.4675641,7.261,-72.79948,-8.594284,-36.83611,0,0,0,122.8234,25.49001,-25.49433,-125.9895,-110.0188,-86.57865,0.001067912,-0.1257102,0.09433498,0,0.3,0,0,0,0
638224228819086081,39.93414,45.72776,45.10692,26.96043,-18.11616,-8.124002,-57.01511,-0.4675641,7.261,-72.79948,-8.594284,-36.83611,0,0,0,120.3934,24.71618,-24.53535,-125.9895,-110.0188,-86.57865,0.001067912,-0.1257102,0.09433498,0,0.3,0,0,0,0
638224228819435970,39.76921,45.54074,44.78006,26.00825,-18.48238,-7.538041,-57.01511,-0.4675641,7.261,-72.79948,-8.594284,-36.83611,0,0,0,119.8335,23.87442,-24.36409,-125.9895,-110.0188,-86.57865,0.001067912,-0.1257102,0.09433498,0,0.3,0,0,0,0
638224228819765853,39.7221,44.93291,43.9629,24.68983,-18.62887,-6.80559,-57.01511,-0.4675641,7.261,-72.79948,-8.594284,-36.83611,0,0,0,119.4882,21.54829,-24.53866,-125.9895,-110.0188,-86.57865,0.001067912,-0.1257102,0.09433498,0,0.3,0,0,0,0
638224228820105747,39.7221,43.83413,42.58541,23.59116,-17.89642,-6.146383,-57.01511,-0.4675641,7.261,-72.79948,-8.521038,-36.83611,0,0,0,119.1396,17.52309,-24.9582,-125.9895,-110.0188,-86.57865,0.001067912,-0.1257102,0.09433498,0,0.3,0,0,0,0
638224228820445782,39.76921,43.13279,41.72157,23.22493,-17.23721,-5.706912,-57.01511,-0.4675641,7.261,-72.79948,-8.521038,-36.83611,0,0,0,119.0226,14.98945,-25.33849,-125.9895,-110.0188,-86.57865,0.001067912,-0.1257102,0.09433498,0,0.3,0,0,0,0
638224228820795529,39.91058,41.30928,39.87713,22.27274,-15.69907,-4.754725,-57.01511,-0.4675641,7.261,-72.79948,-8.594284,-36.83611,0,0,0,119.1199,9.041848,-25.93759,-125.9895,-110.0188,-86.57865,0.001067912,-0.1257102,0.09433498,0,0.3,0,0,0,0
638224228821135419,40.21685,39.15849,38.17278,21.54029,-13.79469,-3.656047,-57.01511,-0.4675641,7.261,-72.79948,-8.594284,-36.83611,0,0,0,119.9774,2.723035,-26.46064,-125.9895,-110.0188,-86.57865,0.001067912,-0.1257102,0.09433498,0,0.3,0,0,0,0
638224228821478504,40.61737,36.79729,36.7486,21.10082,-11.3776,-2.337634,-57.01511,-0.4675641,7.261,-72.79948,-8.594284,-36.83611,0,0,0,121.4548,-3.624401,-26.73316,-125.9895,-110.0188,-86.57865,0.001067912,-0.1257102,0.09433498,0,0.3,0,0,0,0
638224228821818398,40.85297,35.55825,36.14157,20.95433,-9.912696,-1.605182,-57.01511,-0.4675641,7.261,-72.79948,-8.594284,-36.83611,0,0,0,122.4062,-6.791358,-26.80586,-125.9895,-110.0188,-86.57865,0.001067912,-0.1257102,0.09433498,0,0.3,0,0,0,0
638224228822168292,41.37129,33.12691,34.99755,21.02757,-6.836399,-0.4332596,-57.01511,-0.4675641,7.261,-72.79948,-8.594284,-36.83611,0,0,0,124.3599,-13.01203,-27.14878,-125.9895,-110.0188,-86.57865,0.001067912,-0.1257102,0.09433498,0,0.3,0,0,0,0
638224228822507770,41.96029,30.62544,34.25044,21.24731,-3.760103,0.299192,-57.01511,-0.4675641,7.261,-72.79948,-8.594284,-36.83611,0,0,0,126.9036,-18.94353,-27.21263,-125.9895,-110.0188,-86.57865,0.001067912,-0.1257102,0.09433498,0,0.3,0,0,0,0
638224228822847663,42.24301,29.57343,34.01696,21.3938,-2.368444,0.5189275,-57.01511,-0.4675641,7.261,-72.79948,-8.594284,-36.83611,0,0,0,128.1216,-21.36671,-27.26449,-125.9895,-110.0188,-86.57865,0.001067912,-0.1257102,0.09433498,0,0.3,0,0,0,0
638224228823197558,42.83201,27.23561,33.62006,21.76003,0.268382,0.738663,-57.01511,-0.4675641,7.261,-72.79948,-8.594284,-36.83611,0,0,0,130.803,-26.6665,-27.25385,-125.9895,-110.0188,-86.57865,0.001067912,-0.1257102,0.09433498,0,0.3,0,0,0,0
638224228823547436,43.27965,25.06143,33.43328,22.05301,2.831963,0.8119082,-57.01511,-0.4675641,7.261,-72.79948,-8.594284,-36.83611,0,0,0,133.1816,-31.4486,-26.92052,-125.9895,-110.0188,-86.57865,0.001067912,-0.1257102,0.09433498,0,0.3,0,0,0,0
638224228823887327,43.70373,23.07429,33.31655,22.27274,5.175808,0.8119082,-57.01511,-0.4675641,7.261,-72.79948,-8.594284,-36.83611,0,0,0,135.3711,-35.82066,-26.71071,-125.9895,-110.0188,-86.57865,0.001067912,-0.1257102,0.09433498,0,0.3,0,0,0,0
638224228824217217,43.91577,22.0924,33.26986,22.41923,6.201241,0.8119082,-57.01511,-0.4675641,7.261,-72.79948,-8.594284,-36.83611,0,0,0,136.44,-37.9903,-26.64593,-125.9895,-110.0188,-86.57865,0.001067912,-0.1257102,0.09433498,0,0.3,0,0,0,0
638224228824557109,44.26917,20.19877,33.24651,22.63897,7.88588,0.8851534,-57.01511,-0.4675641,7.261,-72.79948,-8.594284,-36.90935,0,0,0,138.3894,-42.13039,-26.38431,-125.9895,-110.0188,-86.57865,0.001067912,-0.1257102,0.09433498,0,0.3,0,0,0,0
638224228824897000,44.59901,18.49216,33.24651,22.63897,9.570518,0.8851534,-57.01511,-0.4675641,7.261,-72.79948,-8.594284,-36.90935,0,0,0,140.1282,-45.87795,-26.2465,-125.9895,-110.0188,-86.57865,0.001067912,-0.1257102,0.09433498,0,0.3,0,0,0,0
638224228825236901,44.76393,17.67392,33.26986,22.71221,10.37621,0.8851534,-57.01511,-0.4675641,7.261,-72.79948,-8.594284,-36.83611,0,0,0,140.9849,-47.65844,-26.19848,-125.9895,-110.0188,-86.57865,0.001067912,-0.1257102,0.09433498,0,0.3,0,0,0,0
638224228825566789,45.02308,16.15434,33.26986,22.8587,11.76787,0.8851534,-57.01511,-0.4675641,7.261,-72.79948,-8.594284,-36.83611,0,0,0,142.3543,-51.04202,-26.11037,-125.9895,-110.0188,-86.57865,0.001067912,-0.1257102,0.09433498,0,0.3,0,0,0,0
638224228825906687,45.28225,14.98543,33.26986,22.8587,12.64682,0.8851534,-57.01511,-0.4675641,7.261,-72.79948,-8.594284,-36.83611,0,0,0,143.5151,-53.66266,-26.24193,-125.9895,-110.0188,-86.57865,0.001067912,-0.1257102,0.09433498,0,0.3,0,0,0,0
638224228826246578,45.40005,14.47111,33.26986,22.8587,13.08629,0.8851534,-57.01511,-0.4675641,7.261,-72.79948,-8.594284,-36.83611,0,0,0,144.0237,-54.82035,-26.32361,-125.9895,-110.0188,-86.57865,0.001067912,-0.1257102,0.09433498,0,0.3,0,0,0,0
638224228826585640,45.58852,13.58274,33.31655,22.8587,13.67225,0.8851534,-57.01511,-0.4675641,7.261,-72.79948,-8.594284,-36.83611,0,0,0,144.9129,-56.76662,-26.38389,-125.9895,-110.0188,-86.57865,0.001067912,-0.1257102,0.09433498,0,0.3,0,0,0,0
638224228826915529,45.72989,12.71774,33.43328,22.8587,14.18496,0.8851534,-57.01511,-0.4675641,7.261,-72.79948,-8.594284,-36.83611,0,0,0,145.7532,-58.57753,-26.26377,-125.9895,-110.0188,-86.57865,0.001067912,-0.1257102,0.09433498,0,0.3,0,0,0,0
638224228827255422,45.80056,12.29694,33.47998,22.8587,14.33146,0.8119082,-57.01511,-0.4675641,7.261,-72.79948,-8.521038,-36.83611,0,0,0,146.1454,-59.47375,-26.2326,-125.9895,-110.0188,-86.57865,0.001067912,-0.1257102,0.09433498,0,0.3,0,0,0,0
638224228827595312,45.91837,11.40856,33.57337,22.8587,14.62444,0.8851534,-57.01511,-0.4675641,7.261,-72.79948,-8.594284,-36.90935,0,0,0,146.8725,-61.37719,-26.11189,-125.9895,-110.0188,-86.57865,0.001067912,-0.1257102,0.09433498,0,0.3,0,0,0,0
638224228827935205,45.98904,10.63708,33.59671,22.8587,14.84417,0.8119082,-57.01511,-0.4675641,7.261,-72.79948,-8.594284,-36.83611,0,0,0,147.3273,-63.10954,-26.0232,-125.9895,-110.0188,-86.57865,0.001067912,-0.1257102,0.09433498,0,0.3,0,0,0,0
638224228828275091,46.15396,9.88898,33.59671,22.78546,15.06391,0.5921727,-57.01511,-0.4675641,7.261,-72.79948,-8.594284,-36.83611,0,0,0,147.9601,-64.8228,-26.23296,-125.9895,-110.0188,-86.57865,0.001067912,-0.1257102,0.09433498,0,0.3,0,0,0,0
638224228828614093,46.27176,9.444795,33.59671,22.71221,15.13715,0.5189275,-57.01511,-0.4675641,7.261,-72.79948,-8.594284,-36.83611,0,0,0,148.3774,-65.84191,-26.41747,-125.9895,-110.0188,-86.57865,0.001067912,-0.1257102,0.09433498,0,0.3,0,0,0,0
638224228828953999,46.50736,8.369397,33.66676,22.71221,15.2104,0.2259469,-57.01511,-0.4675641,7.261,-72.79948,-8.594284,-36.83611,0,0,0,149.3394,-68.22428,-26.66866,-125.9895,-110.0188,-86.57865,0.001067912,-0.1257102,0.09433498,0,0.3,0,0,0,0
638224228829303872,46.69584,7.106974,33.76015,22.71221,15.28364,-0.2867693,-57.01511,-0.4675641,7.261,-72.79948,-8.594284,-36.83611,0,0,0,150.2241,-71.01499,-26.76536,-125.9895,-110.0188,-86.57865,0.001067912,-0.1257102,0.09433498,0,0.3,0,0,0,0
638224228829635746,46.81364,6.429006,33.78349,22.63897,15.35689,-0.6529952,-57.01511,-0.4675641,7.261,-72.79948,-8.594284,-36.83611,0,0,0,150.6834,-72.55168,-26.91634,-125.9895,-110.0188,-86.57865,0.001067912,-0.1257102,0.09433498,0,0.3,0,0,0,0
638224228829975635,47.11992,5.189961,33.78349,22.63897,15.50338,-1.385447,-57.01511,-0.4675641,7.261,-72.79948,-8.594284,-36.83611,0,0,0,151.6512,-75.42056,-27.52523,-125.9895,-110.0188,-86.57865,0.001067912,-0.1257102,0.09433498,0,0.3,0,0,0,0
638224228830325523,47.40264,3.740513,33.78349,22.63897,15.57662,-1.971408,-57.01511,-0.4675641,7.261,-72.79948,-8.594284,-36.83611,0,0,0,152.5376,-78.78368,-28.09749,-125.9895,-110.0188,-86.57865,0.001067912,-0.1257102,0.09433498,0,0.3,0,0,0,0
638224228830654725,47.49688,2.969032,33.80684,22.63897,15.72311,-2.264389,-57.01511,-0.4675641,7.261,-72.79948,-8.594284,-36.83611,0,0,0,152.8788,-80.5459,-28.24707,-125.9895,-110.0188,-86.57865,0.001067912,-0.1257102,0.09433498,0,0.3,0,0,0,0
638224228830994608,47.6618,1.449449,33.83019,22.49248,16.01609,-2.923595,-57.01511,-0.4675641,7.261,-72.79948,-8.594284,-36.83611,0,0,0,153.4156,-84.0496,-28.56547,-125.9895,-110.0188,-86.57865,0.001067912,-0.1257102,0.09433498,0,0.3,0,0,0,0
638224228831334499,47.87384,0.1636474,33.83019,22.27274,16.38232,-3.509557,-57.01511,-0.4675641,7.261,-72.79948,-8.594284,-36.83611,0,0,0,153.9631,-87.04181,-29.10593,-125.9895,-110.0188,-86.57865,0.001067912,-0.1257102,0.09433498,0,0.3,0,0,0,0
638224228831673691,48.06232,-0.7948589,33.83019,22.05301,16.6753,-3.949028,-57.01511,-0.4675641,7.261,-72.79948,-8.594284,-36.83611,0,0,0,154.4112,-89.27257,-29.62137,-125.9895,-110.0188,-86.57865,0.001067912,-0.1257102,0.09433498,0,0.3,0,0,0,0
638224228832013568,48.10944,-1.005263,33.83019,22.05301,16.82179,-4.095518,-57.01511,-0.4675641,7.261,-72.79948,-8.594284,-36.83611,0,0,0,154.5195,-89.76221,-29.75354,-125.9895,-110.0188,-86.57865,0.001067912,-0.1257102,0.09433498,0,0.3,0,0,0,0
638224228832363462,48.29792,-1.005263,33.43328,22.12625,17.04152,-4.242009,-57.01511,-0.4675641,7.261,-72.79948,-8.594284,-36.83611,0,0,0,154.4003,-90.27383,-30.77426,-125.9895,-110.0188,-86.57865,0.001067912,-0.1257102,0.09433498,0,0.3,0,0,0,0
638224228832703346,48.39216,-1.005263,33.2932,22.49248,17.26126,-4.168763,-57.01511,-0.4675641,7.261,-72.79948,-8.594284,-36.83611,0,0,0,154.4228,-90.45313,-31.20922,-125.9895,-110.0188,-86.57865,0.001067912,-0.1257102,0.09433498,0,0.3,0,0,0,0
638224228833043254,48.39216,-1.005263,33.26986,22.63897,17.26126,-4.095518,-57.01511,-0.4675641,7.261,-72.79948,-8.594284,-36.83611,0,0,0,154.3888,-90.48294,-31.23939,-125.9895,-110.0188,-86.57865,0.001067912,-0.1257102,0.09433498,0,0.3,0,0,0,0
638224228833373133,48.39216,-1.005263,33.12977,23.00519,17.40775,-4.022273,-57.01511,-0.4675641,7.261,-72.79948,-8.594284,-36.83611,0,0,0,154.1849,-90.66146,-31.42054,-125.9895,-110.0188,-86.57865,0.001067912,-0.1257102,0.09433498,0,0.3,0,0,0,0
638224228833713022,48.41572,-1.005263,33.05973,23.22493,17.481,-3.949028,-57.01511,-0.4675641,7.261,-72.79948,-8.594284,-36.83611,0,0,0,154.139,-90.75047,-31.5746,-125.9895,-110.0188,-86.57865,0.001067912,-0.1257102,0.09433498,0,0.3,0,0,0,0
638224228834052915,48.43928,-1.005263,33.03638,23.37142,17.481,-3.949028,-57.01511,-0.4675641,7.261,-72.79948,-8.594284,-36.83611,0,0,0,154.1611,-90.78011,-31.66821,-125.9895,-110.0188,-86.57865,0.001067912,-0.1257102,0.09433498,0,0.3,0,0,0,0
638224228834392806,48.4864,-1.028641,32.94299,23.44467,17.55424,-3.949028,-57.01511,-0.4675641,7.261,-72.79948,-8.594284,-36.83611,0,0,0,154.1363,-90.95286,-31.91651,-125.9895,-110.0188,-86.57865,0.001067912,-0.1257102,0.09433498,0,0.3,0,0,0,0
638224228834742696,48.4864,-1.028641,32.94299,23.51791,17.481,-3.949028,-57.01511,-0.4675641,7.261,-72.79948,-8.594284,-36.83611,0,0,0,154.1363,-90.95286,-31.91651,-125.9895,-110.0188,-86.57865,0.001067912,-0.1257102,0.09433498,0,0.3,0,0,0,0
638224228835092583,48.4864,-1.005263,32.96634,23.6644,17.40775,-3.949028,-57.01511,-0.4675641,7.261,-72.79948,-8.594284,-36.83611,0,0,0,154.1711,-90.8689,-31.88565,-125.9895,-110.0188,-86.57865,0.001067912,-0.1257102,0.09433498,0,0.3,0,0,0,0
638224228835432475,48.4864,-0.9818845,33.01303,23.6644,17.33451,-4.022273,-57.01511,-0.4675641,7.261,-72.79948,-8.594284,-36.83611,0,0,0,154.2401,-90.75532,-31.8246,-125.9895,-110.0188,-86.57865,0.001067912,-0.1257102,0.09433498,0,0.3,0,0,0,0
638224228835772360,48.722,-0.9117499,33.52667,23.59116,16.82179,-4.681479,-57.01511,-0.4675641,7.261,-72.79948,-8.594284,-36.83611,0,0,0,155.5534,-89.93631,-31.79883,-125.9895,-110.0188,-86.57865,0.001067912,-0.1257102,0.09433498,0,0.3,0,0,0,0
638224228836112259,49.35812,-0.3039166,34.46056,23.88414,16.16258,-5.926647,-57.01511,-0.4675641,7.261,-72.79948,-8.594284,-36.83611,0,0,0,158.4386,-87.30652,-32.35071,-125.9895,-110.0188,-86.57865,0.001067912,-0.1257102,0.09433498,0,0.3,0,0,0,0
638224228836462151,49.71152,0.1870256,35.0209,24.32361,15.79636,-6.439363,-57.01511,-0.4675641,7.261,-72.79948,-8.594284,-36.83611,0,0,0,160.0927,-85.42074,-32.63682,-125.9895,-110.0188,-86.57865,0.001067912,-0.1257102,0.09433498,0,0.3,0,0,0,0
638224228836792041,50.3712,1.285801,36.18826,25.56878,14.77092,-7.318305,-57.01511,-0.4675641,7.261,-72.79948,-8.594284,-36.83611,0,0,0,163.3206,-81.28197,-33.10107,-125.9895,-110.0188,-86.57865,0.001067912,-0.1257102,0.09433498,0,0.3,0,0,0,0
638224228837141930,50.86596,2.548224,37.37897,26.96043,13.81874,-7.977511,-57.01511,-0.4675641,7.261,-72.79948,-8.594284,-36.90935,0,0,0,166.1278,-76.68613,-33.17765,-125.9895,-110.0188,-86.57865,0.001067912,-0.1257102,0.09433498,0,0.3,0,0,0,0
638224228837491811,51.29004,4.044429,38.63972,28.42534,13.08629,-8.856454,-57.01511,-0.4675641,7.261,-72.79948,-8.594284,-36.90935,0,0,0,168.7715,-71.40287,-33.09035,-125.9895,-110.0188,-86.57865,0.001067912,-0.1257102,0.09433498,0,0.3,0,0,0,0
638224228837821712,51.50208,4.909423,39.24675,29.23104,12.64682,-9.295925,-57.01511,-0.4675641,7.261,-72.79948,-8.594284,-36.90935,0,0,0,170.0079,-68.50784,-33.12968,-125.9895,-110.0188,-86.57865,0.001067912,-0.1257102,0.09433498,0,0.3,0,0,0,0
638224228838171601,51.85547,6.919948,40.36742,30.84243,11.54814,-10.24811,-57.01511,-0.4675641,7.261,-72.79948,-8.594284,-36.83611,0,0,0,172.0352,-62.18392,-33.24112,-125.9895,-110.0188,-86.57865,0.001067912,-0.1257102,0.09433498,0,0.3,0,0,0,0
638224228838521482,52.09107,9.37466,41.20792,32.23409,10.37621,-11.2003,-57.01511,-0.4675641,7.261,-72.79948,-8.594284,-36.83611,0,0,0,173.1191,-55.25105,-33.5371,-125.9895,-110.0188,-86.57865,0.001067912,-0.1257102,0.09433498,0,0.3,0,0,0,0
638224228838861380,52.16175,10.75397,41.55813,32.96654,9.717009,-11.63977,-57.01511,-0.4675641,7.261,-72.79948,-8.594284,-36.83611,0,0,0,173.3253,-51.55148,-33.71974,-125.9895,-110.0188,-86.57865,0.001067912,-0.1257102,0.09433498,0,0.3,0,0,0,0
638224228839201272,52.23243,13.88665,42.00173,34.2117,8.105616,-12.44547,-57.01511,-0.4675641,7.261,-72.79948,-8.594284,-36.83611,0,0,0,172.8701,-43.74141,-34.41483,-125.9895,-110.0188,-86.57865,0.001067912,-0.1257102,0.09433498,0,0.3,0,0,0,0
638224228839551168,52.23243,17.29987,42.32859,35.38363,5.981505,-13.39765,-57.01511,-0.4675641,7.261,-72.79948,-8.594284,-36.90935,0,0,0,171.6281,-35.58036,-35.37712,-125.9895,-110.0188,-86.57865,0.001067912,-0.1257102,0.09433498,0,0.3,0,0,0,0
638224228839891054,52.23243,19.98837,42.65545,36.18932,3.63766,-14.49633,-57.01511,-0.4675641,7.261,-72.79948,-8.521038,-36.83611,0,0,0,170.4904,-29.1382,-36.25859,-125.9895,-110.0188,-86.57865,0.001067912,-0.1257102,0.09433498,0,0.3,0,0,0,0
638224228840220948,52.23243,21.08714,42.79554,36.55555,2.319247,-15.08229,-57.01511,-0.4675641,7.261,-72.79948,-8.594284,-36.90935,0,0,0,169.9706,-26.52229,-36.66137,-125.9895,-110.0188,-86.57865,0.001067912,-0.1257102,0.09433498,0,0.3,0,0,0,0
638224228840570829,52.23243,22.39632,43.02901,36.92178,0.1218917,-16.40071,-57.01511,-0.4675641,7.261,-72.79948,-8.594284,-36.83611,0,0,0,169.3929,-23.32214,-37.10888,-125.9895,-110.0188,-86.57865,0.001067912,-0.1257102,0.09433498,0,0.3,0,0,0,0
638224228840910727,52.39735,22.60672,43.21579,36.99502,-1.416257,-17.42614,-57.01511,-0.4675641,7.261,-72.79948,-8.594284,-36.83611,0,0,0,169.8729,-22.57258,-37.51775,-125.9895,-110.0188,-86.57865,0.001067912,-0.1257102,0.09433498,0,0.3,0,0,0,0
638224228841250612,52.53872,22.58335,43.23914,36.92178,-1.855728,-17.86561,-57.01511,-0.4675641,7.261,-72.79948,-8.594284,-36.83611,0,0,0,170.2432,-22.5856,-37.90046,-125.9895,-110.0188,-86.57865,0.001067912,-0.1257102,0.09433498,0,0.3,0,0,0,0
638224228841590507,52.86855,22.44308,43.23914,36.77529,-2.58818,-18.74455,-57.01511,-0.4675641,7.261,-72.79948,-8.594284,-36.83611,0,0,0,171.091,-22.88718,-38.80721,-125.9895,-110.0188,-86.57865,0.001067912,-0.1257102,0.09433498,0,0.3,0,0,0,0
638224228841930402,53.17484,21.882,43.23914,36.70204,-3.174141,-19.62349,-57.01511,-0.4675641,7.261,-72.79948,-8.594284,-36.83611,0,0,0,172.1754,-24.09655,-39.42838,-125.9895,-110.0188,-86.57865,0.001067912,-0.1257102,0.09433498,0,0.3,0,0,0,0
638224228842270287,53.38687,20.92349,43.35587,36.6288,-3.100896,-20.20946,-57.01511,-0.4675641,7.261,-72.79948,-8.594284,-36.83611,0,0,0,173.4634,-25.98718,-39.463,-125.9895,-110.0188,-86.57865,0.001067912,-0.1257102,0.09433498,0,0.3,0,0,0,0
638224228842600179,53.50467,20.2689,43.47261,36.55555,-2.88116,-20.42919,-57.01511,-0.4675641,7.261,-72.79948,-8.594284,-36.90935,0,0,0,174.3176,-27.22656,-39.38379,-125.9895,-110.0188,-86.57865,0.001067912,-0.1257102,0.09433498,0,0.3,0,0,0,0
638224228842940212,53.66959,18.65581,43.77612,36.40906,-2.368444,-20.72217,-57.01511,-0.4675641,7.261,-72.79948,-8.594284,-36.83611,0,0,0,176.1077,-30.27888,-38.84208,-125.9895,-110.0188,-86.57865,0.001067912,-0.1257102,0.09433498,0,0.3,0,0,0,0
638224228843279962,53.83451,16.66866,44.28976,36.11608,-1.709238,-20.86866,-57.01511,-0.4675641,7.261,-72.79948,-8.594284,-36.83611,0,0,0,178.3064,-33.85461,-38.01432,-125.9895,-110.0188,-86.57865,0.001067912,-0.1257102,0.09433498,0,0.3,0,0,0,0
638224228843629859,53.95231,15.56988,44.61663,35.89634,-1.196521,-20.94191,-57.01511,-0.4675641,7.261,-72.79948,-8.594284,-36.83611,0,0,0,179.5871,-35.77856,-37.64384,-125.9895,-110.0188,-86.57865,0.001067912,-0.1257102,0.09433498,0,0.3,0,0,0,0
638224228843969742,54.21147,13.65287,45.20031,35.60336,-0.02459868,-21.23489,-57.01511,-0.4675641,7.261,-72.79948,-8.594284,-36.83611,0,0,0,181.8698,-39.13668,-37.23669,-125.9895,-110.0188,-86.57865,0.001067912,-0.1257102,0.09433498,0,0.3,0,0,0,0
638224228844309641,54.56487,11.52545,45.90073,35.31038,1.293814,-21.67436,-57.01511,-0.4675641,7.261,-72.79948,-8.594284,-36.83611,0,0,0,184.4844,-42.805,-37.07344,-125.9895,-110.0188,-86.57865,0.001067912,-0.1257102,0.09433498,0,0.3,0,0,0,0
638224228844639527,54.72979,10.52019,46.22758,35.23714,1.806531,-21.89409,-57.01511,-0.4675641,7.261,-72.79948,-8.594284,-36.83611,0,0,0,185.6577,-44.55363,-37.0419,-125.9895,-110.0188,-86.57865,0.001067912,-0.1257102,0.09433498,0,0.3,0,0,0,0
638224228844989426,55.03607,8.626557,46.88131,34.94416,2.685472,-22.5533,-57.01511,-0.4675641,7.261,-72.79948,-8.594284,-36.83611,0,0,0,187.815,-47.79467,-37.01664,-125.9895,-110.0188,-86.57865,0.001067912,-0.1257102,0.09433498,0,0.3,0,0,0,0
638224228845329565,55.27167,7.317377,47.58173,34.72442,3.491169,-23.57873,-57.01511,-0.4675641,7.261,-72.79948,-8.594284,-36.83611,0,0,0,189.6105,-49.61544,-36.9187,-125.9895,-110.0188,-86.57865,0.001067912,-0.1257102,0.09433498,0,0.3,0,0,0,0
638224228845679207,55.27167,6.732923,48.37553,34.57793,4.370111,-24.45767,-57.01511,-0.4675641,7.261,-72.79948,-8.594284,-36.83611,0,0,0,190.7636,-49.59299,-36.11938,-125.9895,-110.0188,-86.57865,0.001067912,-0.1257102,0.09433498,0,0.3,0,0,0,0
638224228846009238,55.27167,6.756301,48.79579,34.57793,4.809582,-24.75066,-57.01511,-0.4675641,7.261,-72.79948,-8.594284,-36.83611,0,0,0,191.2901,-48.80545,-35.75444,-125.9895,-110.0188,-86.57865,0.001067912,-0.1257102,0.09433498,0,0.3,0,0,0,0
638224228846349154,55.27167,6.919948,50.03319,35.23714,5.615279,-24.89715,-57.01511,-0.4675641,7.261,-72.79948,-8.594284,-36.83611,0,0,0,192.7927,-46.2402,-34.71291,-125.9895,-110.0188,-86.57865,0.001067912,-0.1257102,0.09433498,0,0.3,0,0,0,0
638224228846688886,55.27167,7.364134,51.38733,36.4823,6.420976,-24.97039,-57.01511,-0.4675641,7.261,-72.79948,-8.594284,-36.83611,0,0,0,194.3273,-42.77528,-33.64921,-125.9895,-110.0188,-86.57865,0.001067912,-0.1257102,0.09433498,0,0.3,0,0,0,0
638224228847018777,55.27167,7.784942,51.94767,37.21476,6.713957,-24.97039,-57.01511,-0.4675641,7.261,-72.79948,-8.594284,-36.83611,0,0,0,194.8859,-40.78146,-33.26197,-125.9895,-110.0188,-86.57865,0.001067912,-0.1257102,0.09433498,0,0.3,0,0,0,0
638224228847358683,55.27167,8.953853,53.11503,39.11913,7.080183,-24.60417,-57.01511,-0.4675641,7.261,-72.79948,-8.594284,-36.83611,0,0,0,195.9188,-35.93362,-32.54601,-125.9895,-110.0188,-86.57865,0.001067912,-0.1257102,0.09433498,0,0.3,0,0,0,0
638224228847698713,55.27167,10.35654,54.28239,41.68271,7.006938,-23.79847,-57.01511,-0.4675641,7.261,-72.79948,-8.594284,-36.83611,0,0,0,196.7908,-30.52575,-31.9416,-125.9895,-110.0188,-86.57865,0.001067912,-0.1257102,0.09433498,0,0.3,0,0,0,0
638224228848048451,55.27167,11.08127,54.6326,43.00113,6.787202,-23.28575,-57.01511,-0.4675641,7.261,-72.79948,-8.594284,-36.83611,0,0,0,196.9223,-28.20526,-31.85039,-125.9895,-110.0188,-86.57865,0.001067912,-0.1257102,0.09433498,0,0.3,0,0,0,0
638224228848388346,55.22455,12.81126,54.79603,46.00418,6.347731,-21.96734,-57.01511,-0.4675641,7.261,-72.79948,-8.594284,-36.83611,0,0,0,196.3059,-23.95576,-32.03851,-125.9895,-110.0188,-86.57865,0.001067912,-0.1257102,0.09433498,0,0.3,0,0,0,0
638224228848718237,55.20099,14.33084,54.60926,48.42127,5.688524,-20.64893,-57.01511,-0.4675641,7.261,-72.79948,-8.594284,-36.83611,0,0,0,195.3622,-20.87272,-32.57475,-125.9895,-110.0188,-86.57865,0.001067912,-0.1257102,0.09433498,0,0.3,0,0,0,0
638224228849058131,55.20099,14.93867,54.28239,49.51994,5.468789,-20.13621,-57.01511,-0.4675641,7.261,-72.79948,-8.594284,-36.83611,0,0,0,194.7054,-20.12287,-33.03118,-125.9895,-110.0188,-86.57865,0.001067912,-0.1257102,0.09433498,0,0.3,0,0,0,0
638224228849398019,55.17743,16.15434,53.06834,51.05809,4.809582,-19.11078,-57.01511,-0.4675641,7.261,-72.79948,-8.594284,-36.83611,0,0,0,192.6532,-19.67356,-34.33992,-125.9895,-110.0188,-86.57865,0.001067912,-0.1257102,0.09433498,0,0.3,0,0,0,0
638224228849738037,55.10675,17.18298,51.43402,51.79055,4.077131,-18.23184,-57.01511,-0.4675641,7.261,-72.79948,-8.594284,-36.83611,0,0,0,190.0146,-20.38762,-35.82722,-125.9895,-110.0188,-86.57865,0.001067912,-0.1257102,0.09433498,0,0.3,0,0,0,0
638224228850087806,54.98895,18.11811,49.86976,52.15677,3.491169,-17.27965,-57.01511,-0.4675641,7.261,-72.79948,-8.594284,-36.83611,0,0,0,187.3107,-21.12895,-37.13975,-125.9895,-110.0188,-86.57865,0.001067912,-0.1257102,0.09433498,0,0.3,0,0,0,0
638224228850417693,54.89471,18.58567,48.95922,52.15677,3.344679,-16.62044,-57.01511,-0.4675641,7.261,-72.79948,-8.594284,-36.90935,0,0,0,185.6865,-21.70547,-37.82174,-125.9895,-110.0188,-86.57865,0.001067912,-0.1257102,0.09433498,0,0.3,0,0,0,0
638224228850767585,54.58843,19.54418,46.85796,52.08353,3.051698,-15.22878,-57.01511,-0.4675641,7.261,-72.79948,-8.594284,-36.90935,0,0,0,181.7206,-23.22592,-39.15263,-125.9895,-110.0188,-86.57865,0.001067912,-0.1257102,0.09433498,0,0.3,0,0,0,0
638224228851107570,53.83451,20.73647,43.79947,51.57081,2.246002,-13.39765,-57.01511,-0.4675641,7.261,-72.79948,-8.594284,-36.83611,0,0,0,175.1939,-25.68233,-40.28944,-125.9895,-110.0188,-86.57865,0.001067912,-0.1257102,0.09433498,0,0.3,0,0,0,0
638224228851447367,53.38687,21.25079,42.04842,51.20458,1.879776,-12.15249,-57.01511,-0.4675641,7.261,-72.79948,-8.594284,-36.83611,0,0,0,171.4485,-27.34009,-40.96013,-125.9895,-110.0188,-86.57865,0.001067912,-0.1257102,0.09433498,0,0.3,0,0,0,0
638224228851787450,52.39735,21.85862,38.45295,49.88617,1.220569,-9.442415,-57.01511,-0.4675641,7.261,-72.79948,-8.594284,-36.83611,0,0,0,163.7521,-31.43039,-42.23187,-125.9895,-110.0188,-86.57865,0.001067912,-0.1257102,0.09433498,0,0.3,0,0,0,0
638224228852127149,51.33715,21.74173,35.11428,48.12829,0.7810982,-6.292873,-57.01511,-0.4675641,7.261,-72.79948,-8.594284,-36.83611,0,0,0,156.6107,-36.33519,-43.04784,-125.9895,-110.0188,-86.57865,0.001067912,-0.1257102,0.09433498,0,0.3,0,0,0,0
638224228852477037,50.2534,21.22741,32.26592,46.07742,0.6346079,-2.85035,-57.01511,-0.4675641,7.261,-72.79948,-8.594284,-36.83611,0,0,0,150.3092,-41.12592,-43.35426,-125.9895,-110.0188,-86.57865,0.001067912,-0.1257102,0.09433498,0,0.3,0,0,0,0
638224228852806923,49.7822,20.82998,31.30868,45.12524,0.6346079,-1.385447,-57.01511,-0.4675641,7.261,-72.79948,-8.594284,-36.90935,0,0,0,148.0836,-43.16285,-43.13079,-125.9895,-110.0188,-86.57865,0.001067912,-0.1257102,0.09433498,0,0.3,0,0,0,0
638224228853156821,48.9576,19.7312,29.86115,43.4406,0.6346079,1.104889,-57.01511,-0.4675641,7.261,-72.79948,-8.594284,-36.83611,0,0,0,144.7473,-47.27571,-42.33492,-125.9895,-110.0188,-86.57865,0.001067912,-0.1257102,0.09433498,0,0.3,0,0,0,0
638224228853496713,48.29792,18.4454,28.41362,41.97569,1.074079,3.448734,-57.01511,-0.4675641,7.261,-72.79948,-8.594284,-36.83611,0,0,0,141.8205,-51.744,-41.98328,-125.9895,-110.0188,-86.57865,0.001067912,-0.1257102,0.09433498,0,0.3,0,0,0,0
638224228853836743,47.96808,17.72068,27.57312,41.24324,1.51355,4.474167,-57.01511,-0.4675641,7.261,-72.79948,-8.594284,-36.83611,0,0,0,140.1966,-54.26556,-41.97491,-125.9895,-110.0188,-86.57865,0.001067912,-0.1257102,0.09433498,0,0.3,0,0,0,0
638224228854186492,47.33196,16.13096,26.00885,39.99807,2.099511,6.378541,-57.01511,-0.4675641,7.261,-72.79948,-8.594284,-36.83611,0,0,0,137.1874,-59.44602,-41.89872,-125.9895,-110.0188,-86.57865,0.001067912,-0.1257102,0.09433498,0,0.3,0,0,0,0
638224228854536384,46.69584,14.63475,24.72475,38.97264,3.051698,8.136425,-57.01511,-0.4675641,7.261,-72.79948,-8.594284,-36.83611,0,0,0,134.4821,-64.08376,-41.60203,-125.9895,-110.0188,-86.57865,0.001067912,-0.1257102,0.09433498,0,0.3,0,0,0,0
638224228854876273,46.20108,13.13855,23.9076,38.0937,4.296866,9.528083,-57.01511,-0.4675641,7.261,-72.79948,-8.594284,-36.83611,0,0,0,132.7349,-68.24727,-41.0666,-125.9895,-110.0188,-86.57865,0.001067912,-0.1257102,0.09433498,0,0.3,0,0,0,0
638224228855216163,46.05972,12.25018,23.76752,37.72747,4.809582,10.26054,-57.01511,-0.4675641,7.261,-72.79948,-8.594284,-36.83611,0,0,0,132.5329,-70.39606,-40.63116,-125.9895,-110.0188,-86.57865,0.001067912,-0.1257102,0.09433498,0,0.3,0,0,0,0
638224228855556056,45.96548,10.30979,23.76752,37.50774,6.127995,11.65219,-57.01511,-0.4675641,7.261,-72.79948,-8.521038,-36.83611,0,0,0,132.9577,-74.82468,-39.79936,-125.9895,-110.0188,-86.57865,0.001067912,-0.1257102,0.09433498,0,0.3,0,0,0,0
638224228855895945,45.777,8.088859,23.76752,37.58098,7.299919,12.97061,-57.01511,-0.4675641,7.261,-72.79948,-8.594284,-36.83611,0,0,0,133.1263,-79.92686,-38.78637,-125.9895,-110.0188,-86.57865,0.001067912,-0.1257102,0.09433498,0,0.3,0,0,0,0
638224228856245835,45.49429,6.779679,23.79086,37.65423,7.812634,13.62981,-57.01511,-0.4675641,7.261,-72.79948,-8.594284,-36.83611,0,0,0,132.802,-82.92625,-37.81984,-125.9895,-110.0188,-86.57865,0.001067912,-0.1257102,0.09433498,0,0.3,0,0,0,0
638224228856585733,44.74036,4.535372,23.79086,37.72747,9.643764,15.3877,-57.01511,-0.4675641,7.261,-72.79948,-8.594284,-36.83611,0,0,0,131.4354,-88.12386,-35.718,-125.9895,-110.0188,-86.57865,0.001067912,-0.1257102,0.09433498,0,0.3,0,0,0,0
638224228856925638,43.96289,2.969032,23.72082,37.72747,11.47489,17.73154,-57.01511,-0.4675641,7.261,-72.79948,-8.594284,-36.83611,0,0,0,129.6856,-91.8271,-33.88243,-125.9895,-110.0188,-86.57865,0.001067912,-0.1257102,0.09433498,0,0.3,0,0,0,0
638224228857265513,43.49169,2.314442,23.5107,37.72747,12.28059,19.1232,-57.01511,-0.4675641,7.261,-72.79948,-8.594284,-36.83611,0,0,0,128.3153,-93.54487,-33.09459,-125.9895,-110.0188,-86.57865,0.001067912,-0.1257102,0.09433498,0,0.3,0,0,0,0
638224228857595403,42.47861,1.519583,22.64685,37.50774,13.52576,21.32055,-57.01511,-0.4675641,7.261,-72.79948,-8.594284,-36.83611,0,0,0,124.6966,-96.18188,-32.16552,-125.9895,-110.0188,-86.57865,0.001067912,-0.1257102,0.09433498,0,0.3,0,0,0,0
638224228857945286,41.34773,1.215667,21.61957,36.77529,14.47795,23.29818,-57.01511,-0.4675641,7.261,-72.79948,-8.594284,-36.83611,0,0,0,120.5326,-97.78979,-31.38092,-125.9895,-110.0188,-86.57865,0.001067912,-0.1257102,0.09433498,0,0.3,0,0,0,0
638224228858285183,40.00481,1.16891,20.33547,35.53012,15.43013,25.27579,-57.01511,-0.4675641,7.261,-72.79948,-8.594284,-36.83611,0,0,0,115.4971,-98.9685,-30.72945,-125.9895,-110.0188,-86.57865,0.001067912,-0.1257102,0.09433498,0,0.3,0,0,0,0
638224228858635065,39.27446,1.192288,19.56501,34.79766,15.94285,26.15474,-57.01511,-0.4675641,7.261,-72.79948,-8.594284,-36.83611,0,0,0,112.6657,-99.52593,-30.5741,-125.9895,-110.0188,-86.57865,0.001067912,-0.1257102,0.09433498,0,0.3,0,0,0,0
638224228858974959,37.57814,1.285801,17.81396,32.60031,17.04152,27.76613,-57.01511,-0.4675641,7.261,-72.79948,-8.594284,-36.83611,0,0,0,106.1808,-100.6142,-30.36247,-125.9895,-110.0188,-86.57865,0.001067912,-0.1257102,0.09433498,0,0.3,0,0,0,0
638224228859314856,36.02318,1.496205,16.22635,30.10997,17.99371,28.79156,-57.01511,-0.4675641,7.261,-72.79948,-8.594284,-36.90935,0,0,0,100.3125,-101.2062,-30.39906,-125.9895,-110.0188,-86.57865,0.001067912,-0.1257102,0.09433498,0,0.3,0,0,0,0
638224228859654753,35.29282,1.56634,15.45589,28.93805,18.28669,29.08454,-57.01511,-0.4675641,7.261,-72.79948,-8.594284,-36.90935,0,0,0,97.54675,-101.5325,-30.54317,-125.9895,-110.0188,-86.57865,0.001067912,-0.1257102,0.09433498,0,0.3,0,0,0,0
638224228859994778,33.38446,1.706609,13.51807,26.37447,18.72616,29.52402,-57.01511,-0.4675641,7.261,-72.79948,-8.594284,-36.83611,0,0,0,90.49575,-102.3343,-31.02498,-125.9895,-110.0188,-86.57865,0.001067912,-0.1257102,0.09433498,0,0.3,0,0,0,0
638224228860334529,31.14627,1.893635,11.58024,23.51791,19.09239,29.74375,-57.01511,-0.4675641,7.261,-72.79948,-8.594284,-36.83611,0,0,0,82.77967,-102.8792,-31.37479,-125.9895,-110.0188,-86.57865,0.001067912,-0.1257102,0.09433498,0,0.3,0,0,0,0
638224228860684420,28.90807,2.127417,10.06267,20.51486,19.31213,29.817,-57.01511,-0.4675641,7.261,-72.79948,-8.594284,-36.83611,0,0,0,75.68089,-102.9985,-31.29994,-125.9895,-110.0188,-86.57865,0.001067912,-0.1257102,0.09433498,0,0.3,0,0,0,0
638224228861014312,27.68295,2.33782,9.362254,18.75698,19.38537,29.817,-57.01511,-0.4675641,7.261,-72.79948,-8.594284,-36.90935,0,0,0,71.97803,-102.7842,-31.15291,-125.9895,-110.0188,-86.57865,0.001067912,-0.1257102,0.09433498,0,0.3,0,0,0,0
638224228861354370,25.11492,2.969032,8.19489,15.02147,19.31213,29.817,-57.01511,-0.4675641,7.261,-72.79948,-8.594284,-36.83611,0,0,0,64.59003,-101.7313,-30.55844,-125.9895,-110.0188,-86.57865,0.001067912,-0.1257102,0.09433498,0,0.3,0,0,0,0
638224228861704096,22.68824,3.740513,7.354388,11.28597,19.01915,29.45077,-57.01511,-0.4675641,7.261,-72.79948,-8.594284,-36.83611,0,0,0,57.90979,-100.2035,-29.83235,-125.9895,-110.0188,-86.57865,0.001067912,-0.1257102,0.09433498,0,0.3,0,0,0,0
638224228862043977,21.58092,4.16132,7.050874,9.381593,18.79941,28.79156,-57.01511,-0.4675641,7.261,-72.79948,-8.594284,-36.90935,0,0,0,54.93951,-99.31502,-29.45355,-125.9895,-110.0188,-86.57865,0.001067912,-0.1257102,0.09433498,0,0.3,0,0,0,0
638224228862383871,19.29561,5.353609,6.560582,5.279863,18.35994,26.96043,-57.01511,-0.4675641,7.261,-72.79948,-8.594284,-36.83611,0,0,0,48.90676,-96.68492,-28.6599,-125.9895,-110.0188,-86.57865,0.001067912,-0.1257102,0.09433498,0,0.3,0,0,0,0
638224228862713772,17.24589,6.943326,6.280415,1.178134,17.77398,24.98281,-57.01511,-0.4675641,7.261,-72.79948,-8.594284,-36.83611,0,0,0,43.56963,-93.07934,-27.99733,-125.9895,-110.0188,-86.57865,0.001067912,-0.1257102,0.09433498,0,0.3,0,0,0,0
638224228863053664,16.27993,7.925211,6.210372,-0.6529952,17.33451,23.81089,-57.01511,-0.4675641,7.261,-72.79948,-8.594284,-36.83611,0,0,0,41.069,-90.83108,-27.72214,-125.9895,-110.0188,-86.57865,0.001067912,-0.1257102,0.09433498,0,0.3,0,0,0,0
638224228863393722,14.44226,10.21628,6.187026,-4.461744,16.45556,21.24731,-57.01511,-0.4675641,7.261,-72.79948,-8.594284,-36.83611,0,0,0,36.31511,-85.57176,-27.34381,-125.9895,-110.0188,-86.57865,0.001067912,-0.1257102,0.09433498,0,0.3,0,0,0,0
638224228863743447,12.69882,12.74112,6.187026,-7.977511,15.28364,18.39075,-57.01511,-0.4675641,7.261,-72.79948,-8.594284,-36.83611,0,0,0,31.75127,-79.81345,-27.44494,-125.9895,-110.0188,-86.57865,0.001067912,-0.1257102,0.09433498,0,0.3,0,0,0,0
638224228864073338,11.19098,15.40624,6.187026,-11.12705,13.96523,15.60743,-57.01511,-0.4675641,7.261,-72.79948,-8.594284,-36.83611,0,0,0,27.73984,-73.79739,-28.13775,-125.9895,-110.0188,-86.57865,0.001067912,-0.1257102,0.09433498,0,0.3,0,0,0,0
638224228864413219,10.60198,16.73879,6.210372,-12.59196,13.37927,14.43551,-57.01511,-0.4675641,7.261,-72.79948,-8.594284,-36.83611,0,0,0,26.14899,-70.81142,-28.65086,-125.9895,-110.0188,-86.57865,0.001067912,-0.1257102,0.09433498,0,0.3,0,0,0,0
638224228864753120,9.659584,19.56756,6.350456,-15.37527,12.50033,12.09166,-57.01511,-0.4675641,7.261,-72.79948,-8.594284,-36.83611,0,0,0,23.55802,-64.52043,-29.9421,-125.9895,-110.0188,-86.57865,0.001067912,-0.1257102,0.09433498,0,0.3,0,0,0,0
638224228865093007,9.282625,22.25605,6.49054,-17.49938,11.47489,10.11404,-57.01511,-0.4675641,7.261,-72.79948,-8.594284,-36.83611,0,0,0,22.33895,-58.63947,-31.6743,-125.9895,-110.0188,-86.57865,0.001067912,-0.1257102,0.09433498,0,0.3,0,0,0,0
638224228865442901,9.235504,23.7055,6.537234,-18.30508,10.88893,9.161857,-57.01511,-0.4675641,7.261,-72.79948,-8.594284,-36.83611,0,0,0,22.03249,-55.52151,-32.84935,-125.9895,-110.0188,-86.57865,0.001067912,-0.1257102,0.09433498,0,0.3,0,0,0,0
638224228865782786,9.259066,26.20697,6.537234,-19.25727,10.08323,7.696954,-57.01511,-0.4675641,7.261,-72.79948,-8.594284,-36.83611,0,0,0,21.69301,-50.24362,-35.28264,-125.9895,-110.0188,-86.57865,0.001067912,-0.1257102,0.09433498,0,0.3,0,0,0,0
638224228866122685,9.282625,28.42789,6.583929,-19.84323,9.350782,6.305296,-57.01511,-0.4675641,7.261,-72.79948,-8.521038,-36.83611,0,0,0,21.38252,-45.63896,-37.52596,-125.9895,-110.0188,-86.57865,0.001067912,-0.1257102,0.09433498,0,0.3,0,0,0,0
