zeyangz2/DNN_classification_different_people_hand/data_by_names/Zeyang/zeyang_right_3.csv
Timestamp,Therapist joint angle 0,Therapist joint angle 1,Therapist joint angle 2,Therapist joint angle 3,Therapist joint angle 4,Therapist joint angle 5,Patient joint angle 0,Patient joint angle 1,Patient joint angle 2,Patient joint angle 3,Patient joint angle 4,Patient joint angle 5,Virtual joint angle 0,Virtual joint angle 1,Virtual joint angle 2,Therapist position x,Therapist position y,Therapist position z,Patient position x,Patient position y,Patient position z,Virtual position x,Virtual position y,Virtual position z,Assistive Force, Obstacle Force Magnitude, Therapist Constant Force, Patient Constant Force, Recovery Factor, Assistance Level
638223379543067344,0,0,0,0,0,0,0,0,0,0,0,0,0,0,0,0,0,0,0,0,0,0,0,0,0,0.3,0,0,0,0
638223379543137326,-24.19608,-0.9818845,-2.147949,-63.35086,-63.08869,-8.416983,-4.570632,-0.4441859,0.1400836,-35.15147,-8.447793,45.05199,0,0,0,-52.59842,-112.1914,-51.29178,-10.65206,-111.0334,-35.10307,0.001067912,-0.1257102,0.09433498,0,0.3,0,0,0.0145686,0
638223379543447361,-24.19608,-0.9818845,-2.147949,-63.35086,-63.08869,-8.416983,-4.570632,-0.4441859,0.1400836,-35.22471,-8.447793,45.05199,0,0,0,-52.59842,-112.1914,-51.29178,-10.65206,-111.0334,-35.10307,0.001067912,-0.1257102,0.09433498,0,0.3,0,0,0.0145686,0
638223379543807109,-24.19608,-0.9818845,-2.147949,-63.35086,-63.08869,-8.416983,-4.570632,-0.4441859,0.1400836,-35.22471,-8.521038,45.05199,0,0,0,-52.59842,-112.1914,-51.29178,-10.65206,-111.0334,-35.10307,0.001067912,-0.1257102,0.09433498,0,0.3,0,0,0.0145686,0
638223379544167097,-24.19608,-0.9818845,-2.147949,-63.35086,-63.16194,-8.416983,-4.570632,-0.4441859,0.1400836,-35.22471,-8.447793,45.05199,0,0,0,-52.59842,-112.1914,-51.29178,-10.65206,-111.0334,-35.10307,0.001067912,-0.1257102,0.09433498,0,0.3,0,0,0.0145686,0
638223379544516882,-24.19608,-0.9818845,-2.147949,-63.35086,-63.16194,-8.416983,-4.570632,-0.4441859,0.1400836,-35.22471,-8.447793,45.05199,0,0,0,-52.59842,-112.1914,-51.29178,-10.65206,-111.0334,-35.10307,0.001067912,-0.1257102,0.09433498,0,0.3,0,0,0.0145686,0
638223379544856919,-24.19608,-0.9818845,-2.147949,-63.35086,-63.16194,-8.416983,-4.570632,-0.4441859,0.1400836,-35.15147,-8.447793,45.05199,0,0,0,-52.59842,-112.1914,-51.29178,-10.65206,-111.0334,-35.10307,0.001067912,-0.1257102,0.09433498,0,0.3,0,0,0.0145686,0
638223379545206788,-24.19608,-0.9818845,-2.147949,-63.35086,-63.08869,-8.416983,-4.570632,-0.4441859,0.1400836,-35.22471,-8.447793,45.05199,0,0,0,-52.59842,-112.1914,-51.29178,-10.65206,-111.0334,-35.10307,0.001067912,-0.1257102,0.09433498,0,0.3,0,0,0.0145686,0
638223379545566550,-24.19608,-0.9818845,-2.147949,-63.35086,-63.08869,-8.416983,-4.570632,-0.4441859,0.1400836,-35.22471,-8.447793,45.05199,0,0,0,-52.59842,-112.1914,-51.29178,-10.65206,-111.0334,-35.10307,0.001067912,-0.1257102,0.09433498,0,0.3,0,0,0.0145686,0
638223379545926433,-24.19608,-0.9818845,-2.147949,-63.35086,-63.16194,-8.416983,-4.570632,-0.4441859,0.1400836,-35.22471,-8.447793,45.05199,0,0,0,-52.59842,-112.1914,-51.29178,-10.65206,-111.0334,-35.10307,0.001067912,-0.1257102,0.09433498,0,0.3,0,0,0.0145686,0
638223379546286314,-24.19608,-0.9818845,-2.147949,-63.35086,-63.08869,-8.416983,-4.570632,-0.4441859,0.1400836,-35.22471,-8.447793,45.05199,0,0,0,-52.59842,-112.1914,-51.29178,-10.65206,-111.0334,-35.10307,0.001067912,-0.1257102,0.09433498,0,0.3,0,0,0.0145686,0
638223379546645877,-24.19608,-0.9818845,-2.147949,-63.35086,-63.08869,-8.416983,-4.570632,-0.4441859,0.1400836,-35.22471,-8.447793,45.05199,0,0,0,-52.59842,-112.1914,-51.29178,-10.65206,-111.0334,-35.10307,0.001067912,-0.1257102,0.09433498,0,0.3,0,0,0.0145686,0
638223379546975768,-24.19608,-0.9818845,-2.147949,-63.35086,-63.08869,-8.416983,-4.570632,-0.4441859,0.1400836,-35.22471,-8.447793,45.05199,0,0,0,-52.59842,-112.1914,-51.29178,-10.65206,-111.0334,-35.10307,0.001067912,-0.1257102,0.09433498,0,0.3,0,0,0.0145686,0
638223379547345644,-24.19608,-0.9818845,-2.147949,-63.35086,-63.08869,-8.416983,-4.570632,-0.4441859,0.1400836,-35.22471,-8.447793,45.05199,0,0,0,-52.59842,-112.1914,-51.29178,-10.65206,-111.0334,-35.10307,0.001067912,-0.1257102,0.09433498,0,0.3,0,0,0.0145686,0
638223379547805506,-24.19608,-0.9818845,-2.147949,-63.35086,-63.08869,-8.416983,-4.570632,-0.4441859,0.1400836,-35.22471,-8.447793,45.05199,0,0,0,-52.59842,-112.1914,-51.29178,-10.65206,-111.0334,-35.10307,0.001067912,-0.1257102,0.09433498,0,0.3,0,0,0.0145686,0
638223379548165404,-24.19608,-0.9818845,-2.147949,-63.35086,-63.16194,-8.416983,-4.570632,-0.4441859,0.1400836,-35.22471,-8.447793,45.05199,0,0,0,-52.59842,-112.1914,-51.29178,-10.65206,-111.0334,-35.10307,0.001067912,-0.1257102,0.09433498,0,0.3,0,0,0.0145686,0
638223379548535269,-24.19608,-0.9818845,-2.147949,-63.35086,-63.16194,-8.416983,-4.570632,-0.4441859,0.1400836,-35.22471,-8.447793,45.05199,0,0,0,-52.59842,-112.1914,-51.29178,-10.65206,-111.0334,-35.10307,0.001067912,-0.1257102,0.09433498,0,0.3,0,0,0.0145686,0
638223379548905159,-24.19608,-0.9818845,-2.147949,-63.35086,-63.16194,-8.416983,-4.570632,-0.4441859,0.1400836,-35.22471,-8.447793,45.05199,0,0,0,-52.59842,-112.1914,-51.29178,-10.65206,-111.0334,-35.10307,0.001067912,-0.1257102,0.09433498,0,0.3,0,0,0.0145686,0
638223379549325016,-24.19608,-0.9818845,-2.147949,-63.35086,-63.16194,-8.416983,-4.570632,-0.4441859,0.1400836,-35.22471,-8.447793,45.05199,0,0,0,-52.59842,-112.1914,-51.29178,-10.65206,-111.0334,-35.10307,0.001067912,-0.1257102,0.09433498,0,0.3,0,0,0.0145686,0
638223379549684907,-24.19608,-0.9818845,-2.147949,-63.35086,-63.16194,-8.416983,-4.570632,-0.4441859,0.1400836,-35.22471,-8.447793,45.05199,0,0,0,-52.59842,-112.1914,-51.29178,-10.65206,-111.0334,-35.10307,0.001067912,-0.1257102,0.09433498,0,0.3,0,0,0.0145686,0
638223379550044791,-24.19608,-0.9818845,-2.147949,-63.35086,-63.08869,-8.416983,-4.570632,-0.4441859,0.1400836,-35.22471,-8.447793,45.05199,0,0,0,-52.59842,-112.1914,-51.29178,-10.65206,-111.0334,-35.10307,0.001067912,-0.1257102,0.09433498,0,0.3,0,0,0.0145686,0
638223379550404670,-24.19608,-0.9818845,-2.147949,-63.35086,-63.16194,-8.416983,-4.570632,-0.4441859,0.1400836,-35.22471,-8.447793,45.05199,0,0,0,-52.59842,-112.1914,-51.29178,-10.65206,-111.0334,-35.10307,0.001067912,-0.1257102,0.09433498,0,0.3,0,0,0.0145686,0
638223379550834535,-24.19608,-0.9818845,-2.147949,-63.35086,-63.16194,-8.416983,-4.570632,-0.4441859,0.1400836,-35.22471,-8.447793,45.05199,0,0,0,-52.59842,-112.1914,-51.29178,-10.65206,-111.0334,-35.10307,0.001067912,-0.1257102,0.09433498,0,0.3,0,0,0.0145686,0
638223379551184432,-24.19608,-0.9818845,-2.147949,-63.35086,-63.16194,-8.416983,-4.570632,-0.4441859,0.1400836,-35.15147,-8.447793,45.05199,0,0,0,-52.59842,-112.1914,-51.29178,-10.65206,-111.0334,-35.10307,0.001067912,-0.1257102,0.09433498,0,0.3,0,0,0.0145686,0
638223379551544459,-24.19608,-0.9818845,-2.147949,-63.35086,-63.16194,-8.416983,-4.570632,-0.4441859,0.1400836,-35.15147,-8.447793,45.05199,0,0,0,-52.59842,-112.1914,-51.29178,-10.65206,-111.0334,-35.10307,0.001067912,-0.1257102,0.09433498,0,0.3,0,0,0.0145686,0
638223379551904342,-24.19608,-0.9818845,-2.147949,-63.35086,-63.08869,-8.416983,-4.570632,-0.4441859,0.1400836,-35.22471,-8.447793,45.12524,0,0,0,-52.59842,-112.1914,-51.29178,-10.65206,-111.0334,-35.10307,0.001067912,-0.1257102,0.09433498,0,0.3,0,0,0.0145686,0
638223379552384037,-24.19608,-0.9818845,-2.147949,-63.35086,-63.16194,-8.416983,-4.570632,-0.4441859,0.1400836,-35.22471,-8.447793,45.05199,0,0,0,-52.59842,-112.1914,-51.29178,-10.65206,-111.0334,-35.10307,0.001067912,-0.1257102,0.09433498,0,0.3,0,0,0.0145686,0
638223379552713942,-24.19608,-0.9818845,-2.147949,-63.35086,-63.08869,-8.416983,-4.570632,-0.4441859,0.1400836,-35.22471,-8.447793,45.05199,0,0,0,-52.59842,-112.1914,-51.29178,-10.65206,-111.0334,-35.10307,0.001067912,-0.1257102,0.09433498,0,0.3,0,0,0.0145686,0
638223379553073826,-24.19608,-0.9818845,-2.147949,-63.35086,-63.08869,-8.416983,-4.570632,-0.4441859,0.1400836,-35.22471,-8.447793,45.05199,0,0,0,-52.59842,-112.1914,-51.29178,-10.65206,-111.0334,-35.10307,0.001067912,-0.1257102,0.09433498,0,0.3,0,0,0.0145686,0
638223379553433707,-24.19608,-0.9818845,-2.147949,-63.35086,-63.16194,-8.416983,-4.570632,-0.4441859,0.1400836,-35.22471,-8.447793,45.12524,0,0,0,-52.59842,-112.1914,-51.29178,-10.65206,-111.0334,-35.10307,0.001067912,-0.1257102,0.09433498,0,0.3,0,0,0.0145686,0
638223379553853577,-24.19608,-0.9818845,-2.147949,-63.35086,-63.16194,-8.416983,-4.570632,-0.4441859,0.1400836,-35.22471,-8.447793,45.05199,0,0,0,-52.59842,-112.1914,-51.29178,-10.65206,-111.0334,-35.10307,0.001067912,-0.1257102,0.09433498,0,0.3,0,0,0.0145686,0
638223379554213597,-24.19608,-0.9818845,-2.147949,-63.35086,-63.16194,-8.416983,-4.570632,-0.4441859,0.1400836,-35.22471,-8.447793,45.05199,0,0,0,-52.59842,-112.1914,-51.29178,-10.65206,-111.0334,-35.10307,0.001067912,-0.1257102,0.09433498,0,0.3,0,0,0.0145686,0
638223379554573344,-24.19608,-0.9818845,-2.147949,-63.35086,-63.16194,-8.416983,-4.570632,-0.4441859,0.1400836,-35.22471,-8.447793,45.05199,0,0,0,-52.59842,-112.1914,-51.29178,-10.65206,-111.0334,-35.10307,0.001067912,-0.1257102,0.09433498,0,0.3,0,0,0.0145686,0
638223379554933359,-24.19608,-0.9818845,-2.147949,-63.35086,-63.16194,-8.416983,-4.570632,-0.4441859,0.1400836,-35.22471,-8.447793,45.05199,0,0,0,-52.59842,-112.1914,-51.29178,-10.65206,-111.0334,-35.10307,0.001067912,-0.1257102,0.09433498,0,0.3,0,0,0.0145686,0
638223379555373087,-24.19608,-0.9818845,-2.147949,-63.35086,-63.16194,-8.416983,-4.570632,-0.4441859,0.1400836,-35.22471,-8.447793,45.05199,0,0,0,-52.59842,-112.1914,-51.29178,-10.65206,-111.0334,-35.10307,0.001067912,-0.1257102,0.09433498,0,0.3,0,0,0.0145686,0
638223379555732978,-24.17252,-0.9818845,-2.708283,-63.64384,-63.01544,-8.270493,-4.570632,-0.4441859,0.1400836,-35.22471,-8.447793,45.05199,0,0,0,-52.01675,-112.1362,-52.45886,-10.65206,-111.0334,-35.10307,0.001067912,-0.1257102,0.09433498,0,0.3,0,0,0.01460788,0
638223379556092865,-24.17252,-0.9818845,-2.614894,-66.13418,-61.11107,-8.563474,-4.570632,-0.4441859,0.1400836,-35.15147,-8.521038,45.05199,0,0,0,-52.10566,-112.1463,-52.26078,-10.65206,-111.0334,-35.10307,0.001067912,-0.1257102,0.09433498,0,0.3,0,0,0.01467382,0
638223379556452750,-24.17252,-0.9818845,-2.568199,-66.20742,-59.64616,-9.36917,-4.570632,-0.4441859,0.1400836,-35.22471,-8.447793,45.12524,0,0,0,-52.15011,-112.1512,-52.16173,-10.65206,-111.0334,-35.10307,0.001067912,-0.1257102,0.09433498,0,0.3,0,0,0.01470299,0
638223379556881303,-24.26676,-0.3039166,-2.47481,-59.98158,-54.66549,-16.76693,-4.570632,-0.4441859,0.1400836,-35.22471,-8.447793,45.12524,0,0,0,-52.43766,-110.583,-52.03357,-10.65206,-111.0334,-35.10307,0.001067912,-0.1257102,0.09433498,0,0.3,0,0,0.01464524,0
638223379557241185,-24.31388,-0.07013461,-2.358074,-56.83204,-52.61463,-19.69674,-4.570632,-0.4441859,0.1400836,-35.22471,-8.447793,45.05199,0,0,0,-52.6458,-110.0503,-51.82774,-10.65206,-111.0334,-35.10307,0.001067912,-0.1257102,0.09433498,0,0.3,0,0,0.01457244,0
638223379557599512,-24.361,-0.1402692,-2.101254,-50.97242,-48.43966,-23.06602,-4.570632,-0.4441859,0.1400836,-35.22471,-8.447793,45.12524,0,0,0,-52.98785,-110.2368,-51.32726,-10.65206,-111.0334,-35.10307,0.001067912,-0.1257102,0.09433498,0,0.3,0,0,0.01435614,0
638223379557959404,-24.361,-0.5844551,-1.891129,-44.67334,-43.09276,-24.89715,-4.570632,-0.4441859,0.1400836,-35.22471,-8.447793,45.05199,0,0,0,-53.18676,-111.2876,-50.88798,-10.65206,-111.0334,-35.10307,0.001067912,-0.1257102,0.09433498,0,0.3,0,0,0.01414084,0
638223379558389263,-24.361,-0.9818845,-1.354141,-39.10671,-37.37963,-25.84933,-4.570632,-0.4441859,0.1400836,-35.15147,-8.447793,45.05199,0,0,0,-53.69685,-112.2479,-49.76145,-10.65206,-111.0334,-35.10307,0.001067912,-0.1257102,0.09433498,0,0.3,0,0,0.01388809,0
638223379558719175,-24.361,-0.9117499,-0.9105434,-36.39664,-34.01036,-26.14231,-4.570632,-0.4441859,0.1400836,-35.22471,-8.447793,45.05199,0,0,0,-54.12374,-112.1051,-48.81868,-10.65206,-111.0334,-35.10307,0.001067912,-0.1257102,0.09433498,0,0.3,0,0,0.01358144,0
638223379559079035,-24.361,-0.8883717,-1.214058,-33.46683,-29.17617,-26.14231,-4.570632,-0.4441859,0.1400836,-35.15147,-8.447793,45.05199,0,0,0,-53.83276,-112.0376,-49.46129,-10.65206,-111.0334,-35.10307,0.001067912,-0.1257102,0.09433498,0,0.3,0,0,0.01329953,0
638223379559438920,-24.361,-0.8883717,-1.400836,-32.29491,-26.61259,-25.33662,-4.570632,-0.4441859,0.1400836,-35.22471,-8.521038,45.05199,0,0,0,-53.6535,-112.0277,-49.85719,-10.65206,-111.0334,-35.10307,0.001067912,-0.1257102,0.09433498,0,0.3,0,0,0.01318377,0
638223379559898779,-24.361,-0.6779679,-1.214058,-29.29186,-16.65125,-16.91342,-4.570632,-0.4441859,0.1400836,-35.22471,-8.447793,45.12524,0,0,0,-53.83553,-111.5479,-49.45519,-10.65206,-111.0334,-35.10307,0.001067912,-0.1257102,0.09433498,0,0.3,0,0,0.0128416,0
638223379560248665,-24.33744,-0.5376987,-1.003932,-28.77914,-13.42846,-13.32441,-4.570632,-0.4441859,0.1400836,-35.22471,-8.447793,45.12524,0,0,0,-53.98956,-111.2309,-48.98441,-10.65206,-111.0334,-35.10307,0.001067912,-0.1257102,0.09433498,0,0.3,0,0,0.01272793,0
638223379560608555,-24.14896,-0.5143204,0.1634309,-28.04669,-5.884212,-4.242009,-4.570632,-0.4441859,0.1400836,-35.22471,-8.447793,45.05199,0,0,0,-54.70828,-111.1965,-46.32796,-10.65206,-111.0334,-35.10307,0.001067912,-0.1257102,0.09433498,0,0.3,0,0,0.01252484,0
638223379560968433,-23.86624,-0.4909423,1.377489,-27.75371,2.172756,2.130321,-4.570632,-0.4441859,0.1400836,-35.22471,-8.447793,45.05199,0,0,0,-55.24882,-111.1041,-43.47535,-10.65206,-111.0334,-35.10307,0.001067912,-0.1257102,0.09433498,0,0.3,0,0,0.0123769,0
638223379561408342,-23.60708,-0.2104038,2.054559,-28.26642,13.23278,5.719335,-4.570632,-0.4441859,0.1400836,-35.22471,-8.447793,45.05199,0,0,0,-55.3158,-110.404,-41.77979,-10.65206,-111.0334,-35.10307,0.001067912,-0.1257102,0.09433498,0,0.3,0,0,0.0122919,0
638223379561738320,-23.58352,-0.1402692,1.891129,-28.7059,18.21345,6.671522,-4.570632,-0.4441859,0.1400836,-35.15147,-8.447793,45.05199,0,0,0,-55.11185,-110.2538,-42.10499,-10.65206,-111.0334,-35.10307,0.001067912,-0.1257102,0.09433498,0,0.3,0,0,0.01230335,0
638223379562098204,-23.58352,-0.2571602,0.6070289,-29.29186,24.73227,9.235103,-4.570632,-0.4441859,0.1400836,-35.22471,-8.447793,45.05199,0,0,0,-53.91609,-110.591,-44.84414,-10.65206,-111.0334,-35.10307,0.001067912,-0.1257102,0.09433498,0,0.3,0,0,0.01253428,0
638223379562467963,-23.58352,-0.5143204,-2.311379,-29.65808,29.63969,14.36226,-4.570632,-0.4441859,0.1400836,-35.22471,-8.447793,45.05199,0,0,0,-51.19757,-111.0885,-51.07146,-10.65206,-111.0334,-35.10307,0.001067912,-0.1257102,0.09433498,0,0.3,0,0,0.0131292,0
638223379562917818,-23.58352,-0.9818845,-5.696733,-28.85239,33.59494,23.29818,-4.570632,-0.4441859,0.1400836,-35.15147,-8.447793,45.12524,0,0,0,-48.04774,-111.6265,-58.28679,-10.65206,-111.0334,-35.10307,0.001067912,-0.1257102,0.09433498,0,0.3,0,0,0.01366101,0
638223379563277705,-23.60708,-1.005263,-7.704598,-27.16775,35.42606,32.7468,-4.570632,-0.4441859,0.1400836,-35.22471,-8.447793,45.05199,0,0,0,-46.2341,-111.1357,-62.55997,-10.65206,-111.0334,-35.10307,0.001067912,-0.1257102,0.09433498,0,0.3,0,0,0.01381647,0
638223379563637588,-23.60708,-1.005263,-8.498405,-26.06907,36.23176,37.58098,-4.570632,-0.4441859,0.1400836,-35.22471,-8.447793,45.05199,0,0,0,-45.50163,-110.8753,-64.23595,-10.65206,-111.0334,-35.10307,0.001067912,-0.1257102,0.09433498,0,0.3,0,0,0.01372971,0
638223379563997470,-23.60708,-1.005263,-9.058739,-23.79847,37.62342,45.41821,-4.570632,-0.4441859,0.1400836,-35.22471,-8.447793,45.05199,0,0,0,-44.9855,-110.6763,-65.41694,-10.65206,-111.0334,-35.10307,0.001067912,-0.1257102,0.09433498,0,0.3,0,0,0.01342799,0
638223379564427327,-23.60708,-0.9818845,-9.082087,-21.23489,39.16157,54.06115,-4.570632,-0.4441859,0.1400836,-35.22471,-8.447793,45.05199,0,0,0,-44.96439,-110.6133,-65.46524,-10.65206,-111.0334,-35.10307,0.001067912,-0.1257102,0.09433498,0,0.3,0,0,0.01310404,0
638223379564757234,-23.60708,-0.9818845,-9.082087,-20.64893,39.89402,56.11201,-4.570632,-0.4441859,0.1400836,-35.22471,-8.447793,45.05199,0,0,0,-44.96439,-110.6133,-65.46524,-10.65206,-111.0334,-35.10307,0.001067912,-0.1257102,0.09433498,0,0.3,0,0,0.01279521,0
638223379565117123,-23.60708,-0.9818845,-9.105433,-20.86866,40.99269,57.57691,-4.570632,-0.4441859,0.1400836,-35.22471,-8.447793,45.05199,0,0,0,-44.9429,-110.6048,-65.5144,-10.65206,-111.0334,-35.10307,0.001067912,-0.1257102,0.09433498,0,0.3,0,0,0.01249425,0
638223379565487001,-23.60708,-0.9818845,-9.105433,-22.33356,42.01813,56.84446,-4.570632,-0.4441859,0.1400836,-35.22471,-8.447793,45.05199,0,0,0,-44.9429,-110.6048,-65.5144,-10.65206,-111.0334,-35.10307,0.001067912,-0.1257102,0.09433498,0,0.3,0,0,0.01220055,0
638223379565936993,-23.60708,-0.9818845,-8.615141,-24.09145,42.75058,54.13439,-4.570632,-0.4441859,0.1400836,-35.22471,-8.521038,45.05199,0,0,0,-45.39442,-110.7805,-64.48128,-10.65206,-111.0334,-35.10307,0.001067912,-0.1257102,0.09433498,0,0.3,0,0,0.01198374,0
638223379566296740,-23.58352,-0.9818845,-7.42443,-25.40986,42.97031,52.15677,-4.570632,-0.4441859,0.1400836,-35.22471,-8.447793,45.05199,0,0,0,-46.44958,-111.1671,-61.94771,-10.65206,-111.0334,-35.10307,0.001067912,-0.1257102,0.09433498,0,0.3,0,0,0.01201793,0
638223379566656847,-23.51284,-0.9818845,-6.583929,-26.28881,42.89707,50.9116,-4.570632,-0.4441859,0.1400836,-35.22471,-8.447793,45.12524,0,0,0,-47.09288,-111.4057,-60.11013,-10.65206,-111.0334,-35.10307,0.001067912,-0.1257102,0.09433498,0,0.3,0,0,0.01218275,0
638223379567016684,-22.9474,-0.9818845,-5.136398,-28.19318,42.60409,47.02961,-4.570632,-0.4441859,0.1400836,-35.15147,-8.447793,45.05199,0,0,0,-47.32903,-111.7496,-56.56459,-10.65206,-111.0334,-35.10307,0.001067912,-0.1257102,0.09433498,0,0.3,0,0,0.01293688,0
638223379567446373,-21.2982,-0.9585064,-4.179161,-30.09755,42.38435,42.48841,-4.570632,-0.4441859,0.1400836,-35.22471,-8.447793,45.05199,0,0,0,-44.89911,-111.8762,-53.17907,-10.65206,-111.0334,-35.10307,0.001067912,-0.1257102,0.09433498,0,0.3,0,0,0.01478064,0
638223379567806266,-18.11761,-0.9117499,-3.362006,-30.1708,42.23786,39.41211,-4.570632,-0.4441859,0.1400836,-35.22471,-8.447793,45.05199,0,0,0,-39.03056,-111.8924,-49.06002,-10.65206,-111.0334,-35.10307,0.001067912,-0.1257102,0.09433498,0,0.3,0,0,0.0187534,0
638223379568166136,-13.42918,-0.7013461,-2.825019,-27.53397,42.4576,38.38668,-4.570632,-0.4441859,0.1400836,-35.15147,-8.447793,45.05199,0,0,0,-29.44095,-111.4702,-45.04838,-10.65206,-111.0334,-35.10307,0.001067912,-0.1257102,0.09433498,0,0.3,0,0,0.02587226,0
638223379568526021,-8.858545,-0.350673,-2.404768,-22.5533,42.97031,39.63185,-4.570632,-0.4441859,0.1400836,-35.22471,-8.521038,45.05199,0,0,0,-19.67328,-110.6987,-42.12159,-10.65206,-111.0334,-35.10307,0.001067912,-0.1257102,0.09433498,0,0.3,0,0,0.03624401,0
638223379568955883,-3.392634,0.5610769,-1.937823,-15.59501,43.55628,41.02351,-4.570632,-0.4441859,0.1400836,-35.22471,-8.521038,45.05199,0,0,0,-7.624167,-108.6179,-39.74141,-10.65206,-111.0334,-35.10307,0.001067912,-0.1257102,0.09433498,0,0.3,0,0,0.0487533,0
638223379569315777,0.7539188,1.542961,-1.470878,-10.24811,43.84926,41.60947,-4.570632,-0.4441859,0.1400836,-35.22471,-8.447793,45.05199,0,0,0,1.708942,-106.3654,-38.48253,-10.65206,-111.0334,-35.10307,0.001067912,-0.1257102,0.09433498,0,0.3,0,0,0.05942326,0
638223379569675657,5.79575,3.226192,-0.5136398,-3.143331,43.40979,42.34192,-4.570632,-0.4441859,0.1400836,-35.22471,-8.447793,45.05199,0,0,0,13.32396,-102.49,-37.08123,-10.65206,-111.0334,-35.10307,0.001067912,-0.1257102,0.09433498,0,0.3,0,0,0.06606078,0
638223379570035682,8.175306,4.137942,0.04669453,0.3724372,42.97031,42.78139,-4.570632,-0.4441859,0.1400836,-35.15147,-8.447793,45.12524,0,0,0,18.92871,-100.3777,-36.59166,-10.65206,-111.0334,-35.10307,0.001067912,-0.1257102,0.09433498,0,0.3,0,0,0.06785706,0
638223379570475598,14.27734,7.55116,1.96117,10.99299,40.84621,44.0998,-4.570632,-0.4441859,0.1400836,-35.22471,-8.447793,45.05199,0,0,0,33.72645,-92.39818,-35.81686,-10.65206,-111.0334,-35.10307,0.001067912,-0.1257102,0.09433498,0,0.3,0,0,0.06773103,0
638223379570835299,15.95009,8.930473,2.521505,14.06928,39.96726,44.31954,-4.570632,-0.4441859,0.1400836,-35.22471,-8.447793,45.05199,0,0,0,37.8125,-89.17019,-36.04731,-10.65206,-111.0334,-35.10307,0.001067912,-0.1257102,0.09433498,0,0.3,0,0,0.06606805,0
638223379571195185,18.96577,12.46058,3.712215,19.70916,37.69667,44.61252,-4.570632,-0.4441859,0.1400836,-35.22471,-8.447793,45.05199,0,0,0,45.12431,-80.94756,-37.04471,-10.65206,-111.0334,-35.10307,0.001067912,-0.1257102,0.09433498,0,0.3,0,0,0.06048355,0
638223379571555056,20.99193,16.29461,4.94962,23.88414,35.42606,44.68576,-4.570632,-0.4441859,0.1400836,-35.22471,-8.447793,45.05199,0,0,0,49.9736,-72.08787,-38.10946,-10.65206,-111.0334,-35.10307,0.001067912,-0.1257102,0.09433498,0,0.3,0,0,0.05226621,0
638223379571984944,22.85316,21.48457,6.887444,27.91262,32.05679,44.68576,-4.570632,-0.4441859,0.1400836,-35.22471,-8.447793,45.05199,0,0,0,54.40126,-60.19818,-39.26991,-10.65206,-111.0334,-35.10307,0.001067912,-0.1257102,0.09433498,0,0.3,0,0,0.04135763,0
638223379572334815,23.6542,24.71076,8.171543,29.89024,29.56645,44.68576,-4.570632,-0.4441859,0.1400836,-35.22471,-8.447793,45.05199,0,0,0,56.20756,-52.90076,-40.02701,-10.65206,-111.0334,-35.10307,0.001067912,-0.1257102,0.09433498,0,0.3,0,0,0.02862393,0
638223379572694695,24.17252,29.176,9.549031,31.86786,26.12393,44.61252,-4.570632,-0.4441859,0.1400836,-35.22471,-8.521038,45.12524,0,0,0,56.73547,-43.14499,-41.94576,-10.65206,-111.0334,-35.10307,0.001067912,-0.1257102,0.09433498,0,0.3,0,0,0.01404823,0
638223379573054586,24.17252,31.60733,10.20275,32.60031,24.21955,44.31954,-4.570632,-0.4441859,0.1400836,-35.22471,-8.447793,45.05199,0,0,0,56.17707,-38.0033,-43.18982,-10.65206,-111.0334,-35.10307,0.001067912,-0.1257102,0.09433498,0,0.3,0,0,0.006166302,0
638223379573484450,23.98404,38.27012,12.88769,33.33276,18.72616,43.88007,-4.570632,-0.4441859,0.1400836,-35.22471,-8.447793,45.05199,0,0,0,54.64563,-24.04785,-45.52184,-10.65206,-111.0334,-35.10307,0.001067912,-0.1257102,0.09433498,0,0.3,0,0,0,0
638223379573844334,23.6542,40.28064,13.75154,33.5525,16.74854,43.88007,-4.570632,-0.4441859,0.1400836,-35.22471,-8.447793,45.12524,0,0,0,53.53415,-19.96256,-46.13045,-10.65206,-111.0334,-35.10307,0.001067912,-0.1257102,0.09433498,0,0.3,0,0,0,0
638223379574204219,22.52332,43.92765,15.03564,33.47925,13.15953,43.95331,-4.570632,-0.4441859,0.1400836,-35.22471,-8.447793,45.05199,0,0,0,50.04078,-12.92323,-47.67982,-10.65206,-111.0334,-35.10307,0.001067912,-0.1257102,0.09433498,0,0.3,0,0,0,0
638223379574564137,20.49717,47.50451,16.41313,32.38057,9.424027,44.02656,-4.570632,-0.4441859,0.1400836,-35.22471,-8.447793,45.05199,0,0,0,44.73719,-6.242867,-48.6769,-10.65206,-111.0334,-35.10307,0.001067912,-0.1257102,0.09433498,0,0.3,0,0,0,0
638223379574983968,17.01029,50.54368,17.4871,29.89024,5.395544,44.61252,-4.570632,-0.4441859,0.1400836,-35.22471,-8.447793,45.05199,0,0,0,36.51324,-0.8764138,-48.99723,-10.65206,-111.0334,-35.10307,0.001067912,-0.1257102,0.09433498,0,0.3,0,0,0,0
638223379575343857,14.27734,51.47881,17.76727,27.69288,3.198189,45.19848,-4.570632,-0.4441859,0.1400836,-35.22471,-8.521038,45.05199,0,0,0,30.51693,0.690359,-48.42914,-10.65206,-111.0334,-35.10307,0.001067912,-0.1257102,0.09433498,0,0.3,0,0,0,0
638223379575703736,10.4135,51.68921,17.81396,24.17712,0.9275885,46.59014,-4.570632,-0.4441859,0.1400836,-35.22471,-8.447793,45.12524,0,0,0,22.31599,1.027843,-46.92091,-10.65206,-111.0334,-35.10307,0.001067912,-0.1257102,0.09433498,0,0.3,0,0,0,0
638223379576063626,8.528707,51.59569,17.81396,22.1995,-0.09784385,47.46908,-4.570632,-0.4441859,0.1400836,-35.22471,-8.447793,45.05199,0,0,0,18.33543,0.8927817,-46.08385,-10.65206,-111.0334,-35.10307,0.001067912,-0.1257102,0.09433498,0,0.3,0,0,0,0
638223379576483481,2.709396,49.91246,17.67388,14.87498,-2.58818,50.61862,-4.570632,-0.4441859,0.1400836,-35.22471,-8.447793,45.12524,0,0,0,5.972908,-1.684927,-42.13466,-10.65206,-111.0334,-35.10307,0.001067912,-0.1257102,0.09433498,0,0.3,0,0,0,0
638223379576843374,1.177998,48.76693,17.51045,12.53114,-2.954405,51.64405,-4.570632,-0.4441859,0.1400836,-35.22471,-8.447793,45.05199,0,0,0,2.631826,-3.537024,-40.36061,-10.65206,-111.0334,-35.10307,0.001067912,-0.1257102,0.09433498,0,0.3,0,0,0,0
638223379577203258,-0.9895183,45.93817,16.97346,8.575896,-3.100896,53.69492,-4.570632,-0.4441859,0.1400836,-35.22471,-8.447793,45.05199,0,0,0,-2.273786,-8.367342,-36.70478,-10.65206,-111.0334,-35.10307,0.001067912,-0.1257102,0.09433498,0,0.3,0,0,0,0
638223379577563145,-2.308876,42.92238,16.6466,5.865825,-2.221954,55.96552,-4.570632,-0.4441859,0.1400836,-35.22471,-8.447793,45.05199,0,0,0,-5.472917,-13.59901,-32.61069,-10.65206,-111.0334,-35.10307,0.001067912,-0.1257102,0.09433498,0,0.3,0,0,0,0
638223379577993005,-4.240793,38.92471,15.96953,4.034696,-0.3908245,58.89533,-4.570632,-0.4441859,0.1400836,-35.22471,-8.447793,45.05199,0,0,0,-10.3846,-21.07016,-28.30382,-10.65206,-111.0334,-35.10307,0.001067912,-0.1257102,0.09433498,0,0.3,0,0,0,0
638223379578352889,-5.93711,37.07783,15.75941,3.009263,0.8543434,60.43347,-4.570632,-0.4441859,0.1400836,-35.22471,-8.447793,45.12524,0,0,0,-14.75077,-24.59084,-26.50835,-10.65206,-111.0334,-35.10307,0.001067912,-0.1257102,0.09433498,0,0.3,0,0,0,0
638223379578712779,-8.528707,35.13744,15.78275,0.4456824,2.172756,61.6054,-4.570632,-0.4441859,0.1400836,-35.22471,-8.447793,45.05199,0,0,0,-21.55168,-28.22447,-24.63692,-10.65206,-111.0334,-35.10307,0.001067912,-0.1257102,0.09433498,0,0.3,0,0,0,0
638223379579042676,-9.824504,34.20231,15.89949,-1.238957,2.758718,62.04487,-4.570632,-0.4441859,0.1400836,-35.22471,-8.447793,45.05199,0,0,0,-25.05194,-29.94026,-23.68362,-10.65206,-111.0334,-35.10307,0.001067912,-0.1257102,0.09433498,0,0.3,0,0,0,0
638223379579502528,-13.33494,31.958,16.78668,-7.684532,4.223621,62.63083,-4.570632,-0.4441859,0.1400836,-35.22471,-8.521038,45.12524,0,0,0,-34.97742,-33.73568,-20.78707,-10.65206,-111.0334,-35.10307,0.001067912,-0.1257102,0.09433498,0,0.3,0,0,0,0
638223379579862419,-14.1831,31.46706,17.0902,-9.442415,4.443357,62.70407,-4.570632,-0.4441859,0.1400836,-35.22471,-8.521038,45.05199,0,0,0,-37.47065,-34.5019,-20.08353,-10.65206,-111.0334,-35.10307,0.001067912,-0.1257102,0.09433498,0,0.3,0,0,0,0
638223379580222294,-16.37417,30.43842,17.62719,-13.91037,5.029318,62.77732,-4.570632,-0.4441859,0.1400836,-35.22471,-8.447793,45.05199,0,0,0,-43.7952,-36.18212,-19.29866,-10.65206,-111.0334,-35.10307,0.001067912,-0.1257102,0.09433498,0,0.3,0,0,0,0
638223379580582176,-18.73017,29.80721,18.14083,-18.45157,5.615279,62.99706,-4.570632,-0.4441859,0.1400836,-35.22471,-8.447793,45.05199,0,0,0,-50.48749,-37.08569,-19.44935,-10.65206,-111.0334,-35.10307,0.001067912,-0.1257102,0.09433498,0,0.3,0,0,0,0
638223379581012038,-21.98145,29.03573,19.05137,-24.67741,6.274486,63.14355,-4.570632,-0.4441859,0.1400836,-35.15147,-8.447793,45.05199,0,0,0,-59.93307,-37.97385,-19.872,-10.65206,-111.0334,-35.10307,0.001067912,-0.1257102,0.09433498,0,0.3,0,0,0,0
638223379581361927,-23.58352,28.54479,19.70509,-27.75371,6.494221,63.14355,-4.570632,-0.4441859,0.1400836,-35.22471,-8.447793,45.05199,0,0,0,-64.85517,-38.4704,-19.78592,-10.65206,-111.0334,-35.10307,0.001067912,-0.1257102,0.09433498,0,0.3,0,0,0,0
638223379581731821,-26.38716,27.82006,21.31605,-32.95412,6.933692,63.0703,-4.570632,-0.4441859,0.1400836,-35.22471,-8.447793,45.05199,0,0,0,-73.95897,-38.64349,-19.27672,-10.65206,-111.0334,-35.10307,0.001067912,-0.1257102,0.09433498,0,0.3,0,0,0,0
638223379582091716,-28.97875,27.46939,23.41731,-37.93478,7.226673,62.41109,-4.570632,-0.4441859,0.1400836,-35.22471,-8.447793,45.05199,0,0,0,-82.99834,-37.5056,-18.486,-10.65206,-111.0334,-35.10307,0.001067912,-0.1257102,0.09433498,0,0.3,0,0,0,0
638223379582511562,-31.47611,27.42263,26.82601,-43.86765,7.006938,60.7997,-4.570632,-0.4441859,0.1400836,-35.22471,-8.447793,45.05199,0,0,0,-93.22575,-34.23461,-16.07692,-10.65206,-111.0334,-35.10307,0.001067912,-0.1257102,0.09433498,0,0.3,0,0,0,0
638223379582871453,-33.26667,27.51615,30.00124,-48.84832,6.713957,59.11506,-4.570632,-0.4441859,0.1400836,-35.22471,-8.447793,45.12524,0,0,0,-101.448,-30.52554,-13.7142,-10.65206,-111.0334,-35.10307,0.001067912,-0.1257102,0.09433498,0,0.3,0,0,0,0
638223379583231341,-33.99702,27.7733,31.75228,-51.4119,6.640712,58.01638,-4.570632,-0.4441859,0.1400836,-35.15147,-8.447793,45.12524,0,0,0,-105.2113,-27.90398,-12.35036,-10.65206,-111.0334,-35.10307,0.001067912,-0.1257102,0.09433498,0,0.3,0,0,0,0
638223379583591220,-35.08078,29.19938,35.83805,-57.19827,5.90826,55.74578,-4.570632,-0.4441859,0.1400836,-35.22471,-8.447793,45.12524,0,0,0,-111.7741,-19.69871,-9.198098,-10.65206,-111.0334,-35.10307,0.001067912,-0.1257102,0.09433498,0,0.3,0,0,0,0
638223379584021088,-35.62266,31.70084,40.46081,-63.42411,4.589847,53.54843,-4.570632,-0.4441859,0.1400836,-35.22471,-8.521038,45.05199,0,0,0,-116.4826,-8.036032,-5.784725,-10.65206,-111.0334,-35.10307,0.001067912,-0.1257102,0.09433498,0,0.3,0,0,0,0
638223379584380973,-35.66978,33.26719,42.6788,-66.20742,4.003886,52.523,-4.570632,-0.4441859,0.1400836,-35.22471,-8.447793,45.05199,0,0,0,-117.7265,-1.53597,-4.333781,-10.65206,-111.0334,-35.10307,0.001067912,-0.1257102,0.09433498,0,0.3,0,0,0,0
638223379584730995,-35.50486,36.04919,45.94742,-70.08942,2.685472,51.49756,-4.570632,-0.4441859,0.1400836,-35.22471,-8.447793,45.05199,0,0,0,-118.2765,9.103067,-2.562155,-10.65206,-111.0334,-35.10307,0.001067912,-0.1257102,0.09433498,0,0.3,0,0,0,0
638223379585100739,-35.05722,39.0416,49.00591,-73.89817,1.074079,50.69187,-4.570632,-0.4441859,0.1400836,-35.15147,-8.447793,45.05199,0,0,0,-117.3034,19.87,-1.179016,-10.65206,-111.0334,-35.10307,0.001067912,-0.1257102,0.09433498,0,0.3,0,0,0,0
638223379585510601,-34.3033,42.1509,51.94767,-77.34068,-0.7570504,50.17915,-4.570632,-0.4441859,0.1400836,-35.22471,-8.447793,45.05199,0,0,0,-114.8953,30.64485,0.05939035,-10.65206,-111.0334,-35.10307,0.001067912,-0.1257102,0.09433498,0,0.3,0,0,0,0
638223379585870487,-33.52582,44.83939,54.35244,-79.90427,-2.58818,50.03266,-4.570632,-0.4441859,0.1400836,-35.22471,-8.447793,45.05199,0,0,0,-112.0748,39.66192,0.8108941,-10.65206,-111.0334,-35.10307,0.001067912,-0.1257102,0.09433498,0,0.3,0,0,0,0
638223379586230373,-32.96038,46.45249,55.82331,-81.29592,-3.760103,50.2524,-4.570632,-0.4441859,0.1400836,-35.22471,-8.447793,45.05199,0,0,0,-110.0054,45.09359,1.300207,-10.65206,-111.0334,-35.10307,0.001067912,-0.1257102,0.09433498,0,0.3,0,0,0,0
638223379586590288,-31.92375,49.46828,57.80783,-83.05381,-6.103948,51.49756,-4.570632,-0.4441859,0.1400836,-35.22471,-8.447793,45.12524,0,0,0,-105.4987,53.65854,0.9842849,-10.65206,-111.0334,-35.10307,0.001067912,-0.1257102,0.09433498,0,0.3,0,0,0,0
638223379587040119,-30.72219,52.76461,59.02188,-84.07924,-8.521038,53.62167,-4.570632,-0.4441859,0.1400836,-35.15147,-8.447793,45.05199,0,0,0,-99.63019,60.88078,-0.7015727,-10.65206,-111.0334,-35.10307,0.001067912,-0.1257102,0.09433498,0,0.3,0,0,0,0
638223379587400144,-29.26147,56.13107,60.04917,-84.59196,-11.15786,56.11201,-4.570632,-0.4441859,0.1400836,-35.15147,-8.447793,45.05199,0,0,0,-92.8013,67.49657,-2.719147,-10.65206,-111.0334,-35.10307,0.001067912,-0.1257102,0.09433498,0,0.3,0,0,0,0
638223379587760030,-27.47091,59.5209,60.81963,-84.6652,-14.01443,58.23612,-4.570632,-0.4441859,0.1400836,-35.22471,-8.447793,45.05199,0,0,0,-84.90875,73.25673,-5.039447,-10.65206,-111.0334,-35.10307,0.001067912,-0.1257102,0.09433498,0,0.3,0,0,0,0
638223379588109772,-25.3034,62.98088,61.35661,-84.22573,-17.45695,60.28699,-4.570632,-0.4441859,0.1400836,-35.22471,-8.447793,45.05199,0,0,0,-75.91253,78.22331,-7.780454,-10.65206,-111.0334,-35.10307,0.001067912,-0.1257102,0.09433498,0,0.3,0,0,0,0
638223379588559763,-22.09924,66.97855,61.98699,-82.90732,-21.63192,62.19136,-4.570632,-0.4441859,0.1400836,-35.22471,-8.447793,45.05199,0,0,0,-63.90969,83.44904,-10.95345,-10.65206,-111.0334,-35.10307,0.001067912,-0.1257102,0.09433498,0,0.3,0,0,0,0
638223379588919655,-19.69613,69.48002,62.3372,-81.51566,-24.70822,63.0703,-4.570632,-0.4441859,0.1400836,-35.22471,-8.447793,45.05199,0,0,0,-55.56006,86.32893,-13.14372,-10.65206,-111.0334,-35.10307,0.001067912,-0.1257102,0.09433498,0,0.3,0,0,0,0
638223379589279537,-16.56265,72.16852,62.47728,-78.95209,-28.44372,63.72951,-4.570632,-0.4441859,0.1400836,-35.22471,-8.447793,45.05199,0,0,0,-45.35155,88.67297,-15.85827,-10.65206,-111.0334,-35.10307,0.001067912,-0.1257102,0.09433498,0,0.3,0,0,0,0
638223379589638832,-14.7721,73.54783,62.59402,-77.12095,-30.49459,63.94925,-4.570632,-0.4441859,0.1400836,-35.22471,-8.447793,45.05199,0,0,0,-39.81445,89.86018,-17.36065,-10.65206,-111.0334,-35.10307,0.001067912,-0.1257102,0.09433498,0,0.3,0,0,0,0
638223379590058820,-11.37946,75.83889,62.8275,-73.45869,-34.37658,64.16898,-4.570632,-0.4441859,0.1400836,-35.22471,-8.447793,45.05199,0,0,0,-29.84388,91.75062,-20.06652,-10.65206,-111.0334,-35.10307,0.001067912,-0.1257102,0.09433498,0,0.3,0,0,0,0
638223379590418850,-7.091548,77.91955,62.94423,-67.89206,-38.91778,63.29004,-4.570632,-0.4441859,0.1400836,-35.22471,-8.447793,45.05199,0,0,0,-18.10653,93.09167,-22.80709,-10.65206,-111.0334,-35.10307,0.001067912,-0.1257102,0.09433498,0,0.3,0,0,0,0
638223379590779431,-2.874315,79.369,62.94423,-60.12807,-43.01951,59.92076,-4.570632,-0.4441859,0.1400836,-35.15147,-8.447793,45.05199,0,0,0,-7.188697,93.75587,-25.17279,-10.65206,-111.0334,-35.10307,0.001067912,-0.1257102,0.09433498,0,0.3,0,0,0,0
638223379591139131,1.272238,80.51453,62.94423,-49.94699,-46.53528,53.47519,-4.570632,-0.4441859,0.1400836,-35.22471,-8.447793,45.05199,0,0,0,3.124671,94.2215,-27.65222,-10.65206,-111.0334,-35.10307,0.001067912,-0.1257102,0.09433498,0,0.3,0,0,0,0
638223379591600956,7.067988,81.47304,62.71075,-32.51464,-49.46509,40.14456,-4.570632,-0.4441859,0.1400836,-35.22471,-8.447793,45.12524,0,0,0,17.01507,94.0873,-31.11979,-10.65206,-111.0334,-35.10307,0.001067912,-0.1257102,0.09433498,0,0.3,0,0,0,0
638223379591960671,10.46062,81.7302,62.40724,-20.57568,-50.12429,29.89024,-4.570632,-0.4441859,0.1400836,-35.22471,-8.447793,45.12524,0,0,0,24.93966,93.5478,-33.26959,-10.65206,-111.0334,-35.10307,0.001067912,-0.1257102,0.09433498,0,0.3,0,0,0,0
638223379592320555,14.63074,81.75358,61.82356,-5.487176,-49.53833,16.41313,-4.570632,-0.4441859,0.1400836,-35.22471,-8.447793,45.05199,0,0,0,34.52233,92.35489,-36.1076,-10.65206,-111.0334,-35.10307,0.001067912,-0.1257102,0.09433498,0,0.3,0,0,0,0
638223379592680439,18.61237,81.54317,61.0064,7.110993,-47.41422,5.353109,-4.570632,-0.4441859,0.1400836,-35.22471,-8.447793,45.05199,0,0,0,43.48569,90.61375,-39.22711,-10.65206,-111.0334,-35.10307,0.001067912,-0.1257102,0.09433498,0,0.3,0,0,0,0
638223379593110298,22.54688,80.81844,59.74565,17.29207,-43.89846,-2.99684,-4.570632,-0.4441859,0.1400836,-35.22471,-8.447793,45.05199,0,0,0,52.32609,87.80448,-42.31543,-10.65206,-111.0334,-35.10307,0.001067912,-0.1257102,0.09433498,0,0.3,0,0,0,0
638223379593470201,25.51544,80.04697,58.55495,23.15168,-40.52918,-7.391551,-4.570632,-0.4441859,0.1400836,-35.22471,-8.447793,45.05199,0,0,0,58.93349,85.12693,-44.87898,-10.65206,-111.0334,-35.10307,0.001067912,-0.1257102,0.09433498,0,0.3,0,0,0,0
638223379593830079,27.32955,79.43914,57.50431,25.86176,-38.25858,-9.076189,-4.570632,-0.4441859,0.1400836,-35.22471,-8.447793,45.05199,0,0,0,62.85739,82.80072,-46.72002,-10.65206,-111.0334,-35.10307,0.001067912,-0.1257102,0.09433498,0,0.3,0,0,0,0
638223379594189961,30.10963,78.17671,55.35637,29.0113,-34.30334,-10.68758,-4.570632,-0.4441859,0.1400836,-35.22471,-8.447793,45.05199,0,0,0,68.74201,78.06534,-49.80973,-10.65206,-111.0334,-35.10307,0.001067912,-0.1257102,0.09433498,0,0.3,0,0,0,0
638223379594609993,33.2431,76.23632,52.20449,31.20865,-28.51697,-11.42003,-4.570632,-0.4441859,0.1400836,-35.15147,-8.447793,45.05199,0,0,0,75.15715,71.14799,-53.6862,-10.65206,-111.0334,-35.10307,0.001067912,-0.1257102,0.09433498,0,0.3,0,0,0,0
638223379594969711,34.7745,74.88038,50.36005,31.72137,-25.58716,-10.98056,-4.570632,-0.4441859,0.1400836,-35.22471,-8.521038,45.05199,0,0,0,78.40633,67.01176,-55.43089,-10.65206,-111.0334,-35.10307,0.001067912,-0.1257102,0.09433498,0,0.3,0,0,0,0
638223379595329590,36.8949,72.4958,47.25487,32.16084,-20.60649,-9.735395,-4.570632,-0.4441859,0.1400836,-35.22471,-8.447793,45.05199,0,0,0,82.87099,60.01546,-57.95574,-10.65206,-111.0334,-35.10307,0.001067912,-0.1257102,0.09433498,0,0.3,0,0,0,0
638223379595699478,38.6619,70.2515,44.0096,32.38057,-15.62582,-8.416983,-4.570632,-0.4441859,0.1400836,-35.22471,-8.447793,45.05199,0,0,0,86.02859,52.94855,-60.8223,-10.65206,-111.0334,-35.10307,0.001067912,-0.1257102,0.09433498,0,0.3,0,0,0,0
638223379596119510,40.28753,67.49287,40.20399,32.30733,-10.05919,-6.659099,-4.570632,-0.4441859,0.1400836,-35.22471,-8.447793,45.05199,0,0,0,88.66832,44.69678,-63.74978,-10.65206,-111.0334,-35.10307,0.001067912,-0.1257102,0.09433498,0,0.3,0,0,0,0
638223379596487151,41.46553,64.66412,37.07546,32.08759,-5.444741,-5.047705,-4.570632,-0.4441859,0.1400836,-35.22471,-8.447793,45.05199,0,0,0,91.01908,37.48143,-65.34684,-10.65206,-111.0334,-35.10307,0.001067912,-0.1257102,0.09433498,0,0.3,0,0,0,0
638223379596817044,42.17233,62.88737,35.30106,32.01435,-2.88116,-4.022273,-4.570632,-0.4441859,0.1400836,-35.22471,-8.447793,45.05199,0,0,0,92.53555,33.21597,-66.1984,-10.65206,-111.0334,-35.10307,0.001067912,-0.1257102,0.09433498,0,0.3,0,0,0,0
638223379597186927,43.77441,59.38063,31.84567,32.08759,2.465737,-1.898163,-4.570632,-0.4441859,0.1400836,-35.15147,-8.447793,45.05199,0,0,0,95.66451,24.82986,-68.50274,-10.65206,-111.0334,-35.10307,0.001067912,-0.1257102,0.09433498,0,0.3,0,0,0,0
638223379597636783,45.09377,55.85053,28.69379,32.52707,7.519653,-0.3600145,-4.570632,-0.4441859,0.1400836,-35.22471,-8.521038,45.05199,0,0,0,98.36474,16.73287,-70.30669,-10.65206,-111.0334,-35.10307,0.001067912,-0.1257102,0.09433498,0,0.3,0,0,0,0
638223379597996669,46.46024,52.15677,25.51856,32.89329,12.20734,0.8119082,-4.570632,-0.4441859,0.1400836,-35.15147,-8.447793,45.05199,0,0,0,100.9478,8.314333,-72.42086,-10.65206,-111.0334,-35.10307,0.001067912,-0.1257102,0.09433498,0,0.3,0,0,0,0
638223379598356554,47.94452,47.99545,22.50677,33.47925,17.04152,1.69085,-4.570632,-0.4441859,0.1400836,-35.22471,-8.521038,45.05199,0,0,0,104.1588,-0.7520325,-74.38224,-10.65206,-111.0334,-35.10307,0.001067912,-0.1257102,0.09433498,0,0.3,0,0,0,0
638223379598716440,49.0754,44.44196,20.102,34.28495,21.58273,2.350057,-4.570632,-0.4441859,0.1400836,-35.22471,-8.447793,45.05199,0,0,0,106.5644,-8.506761,-75.96093,-10.65206,-111.0334,-35.10307,0.001067912,-0.1257102,0.09433498,0,0.3,0,0,0,0
638223379599146300,50.65392,40.8651,17.27698,35.23714,26.27042,2.862773,-4.570632,-0.4441859,0.1400836,-35.22471,-8.447793,45.05199,0,0,0,108.6143,-16.735,-79.30427,-10.65206,-111.0334,-35.10307,0.001067912,-0.1257102,0.09433498,0,0.3,0,0,0,0
638223379599506191,51.73767,38.52728,15.61932,35.89634,28.68751,3.009263,-4.570632,-0.4441859,0.1400836,-35.22471,-8.447793,45.05199,0,0,0,110.1024,-22.01362,-81.51385,-10.65206,-111.0334,-35.10307,0.001067912,-0.1257102,0.09433498,0,0.3,0,0,0,0
638223379599866069,52.42091,37.05445,14.73212,36.33582,30.07917,3.082508,-4.570632,-0.4441859,0.1400836,-35.22471,-8.447793,45.05199,0,0,0,111.2154,-25.26295,-82.76729,-10.65206,-111.0334,-35.10307,0.001067912,-0.1257102,0.09433498,0,0.3,0,0,0,0
638223379600225954,53.71671,33.59448,13.26125,37.06827,32.71599,3.082508,-4.570632,-0.4441859,0.1400836,-35.22471,-8.447793,45.12524,0,0,0,114.1975,-32.66006,-84.51486,-10.65206,-111.0334,-35.10307,0.001067912,-0.1257102,0.09433498,0,0.3,0,0,0,0
638223379600645817,54.70623,30.39166,12.3974,37.58098,34.98659,3.155754,-4.570632,-0.4441859,0.1400836,-35.22471,-8.447793,45.12524,0,0,0,117.2513,-39.42768,-85.35058,-10.65206,-111.0334,-35.10307,0.001067912,-0.1257102,0.09433498,0,0.3,0,0,0,0
638223379601005720,55.27167,27.46939,11.76702,38.16694,37.25719,3.155754,-4.570632,-0.4441859,0.1400836,-35.22471,-8.447793,45.12524,0,0,0,119.5894,-45.68666,-85.45489,-10.65206,-111.0334,-35.10307,0.001067912,-0.1257102,0.09433498,0,0.3,0,0,0,0
638223379601365594,55.27167,24.31333,11.13665,38.67966,39.82077,2.862773,-4.570632,-0.4441859,0.1400836,-35.22471,-8.447793,45.05199,0,0,0,121.0434,-52.58521,-84.44702,-10.65206,-111.0334,-35.10307,0.001067912,-0.1257102,0.09433498,0,0.3,0,0,0,0
638223379601725483,55.29523,21.27416,10.08602,38.67966,42.75058,2.569792,-4.570632,-0.4441859,0.1400836,-35.22471,-8.447793,45.12524,0,0,0,121.3546,-59.55568,-84.30515,-10.65206,-111.0334,-35.10307,0.001067912,-0.1257102,0.09433498,0,0.3,0,0,0,0
638223379602155334,55.29523,18.93634,9.128781,38.0937,45.31416,2.350057,-4.570632,-0.4441859,0.1400836,-35.22471,-8.447793,45.12524,0,0,0,121.0863,-65.03661,-84.49097,-10.65206,-111.0334,-35.10307,0.001067912,-0.1257102,0.09433498,0,0.3,0,0,0,0
638223379602515219,55.29523,17.72068,8.895308,37.65423,46.41284,2.423302,-4.570632,-0.4441859,0.1400836,-35.22471,-8.447793,45.05199,0,0,0,121.3765,-67.80748,-84.28998,-10.65206,-111.0334,-35.10307,0.001067912,-0.1257102,0.09433498,0,0.3,0,0,0,0
638223379602875114,55.27167,16.48163,8.871961,37.94721,47.14529,2.569792,-4.570632,-0.4441859,0.1400836,-35.22471,-8.447793,45.05199,0,0,0,121.9947,-70.57207,-83.78757,-10.65206,-111.0334,-35.10307,0.001067912,-0.1257102,0.09433498,0,0.3,0,0,0,0
638223379603234999,55.27167,15.99069,8.871961,38.24019,47.36503,2.643037,-4.570632,-0.4441859,0.1400836,-35.22471,-8.447793,45.05199,0,0,0,122.2573,-71.66911,-83.60558,-10.65206,-111.0334,-35.10307,0.001067912,-0.1257102,0.09433498,0,0.3,0,0,0,0
638223379603664861,55.27167,14.84516,8.825266,38.97264,47.73125,2.936018,-4.570632,-0.4441859,0.1400836,-35.15147,-8.447793,45.05199,0,0,0,122.7515,-74.25595,-83.26296,-10.65206,-111.0334,-35.10307,0.001067912,-0.1257102,0.09433498,0,0.3,0,0,0,0
638223379604024746,55.27167,13.67625,8.661836,39.5586,47.87774,3.155754,-4.570632,-0.4441859,0.1400836,-35.22471,-8.447793,45.05199,0,0,0,122.9933,-76.95041,-83.09537,-10.65206,-111.0334,-35.10307,0.001067912,-0.1257102,0.09433498,0,0.3,0,0,0,0
638223379604364643,55.27167,12.32031,8.358321,40.29105,48.02423,3.595225,-4.570632,-0.4441859,0.1400836,-35.22471,-8.447793,45.05199,0,0,0,123.0025,-80.12981,-83.089,-10.65206,-111.0334,-35.10307,0.001067912,-0.1257102,0.09433498,0,0.3,0,0,0,0
638223379604724518,55.27167,10.66046,8.054807,40.95026,48.31721,4.181186,-4.570632,-0.4441859,0.1400836,-35.22471,-8.447793,45.05199,0,0,0,123.0603,-84.01622,-83.04892,-10.65206,-111.0334,-35.10307,0.001067912,-0.1257102,0.09433498,0,0.3,0,0,0,0
638223379605184381,55.27167,8.696692,7.961418,41.31649,48.6102,4.986883,-4.570632,-0.4441859,0.1400836,-35.22471,-8.521038,45.05199,0,0,0,123.5149,-88.5517,-82.73381,-10.65206,-111.0334,-35.10307,0.001067912,-0.1257102,0.09433498,0,0.3,0,0,0,0
638223379605544256,55.27167,7.364134,7.77464,41.68271,48.75668,5.572844,-4.570632,-0.4441859,0.1400836,-35.22471,-8.447793,45.12524,0,0,0,123.5171,-91.68211,-82.73231,-10.65206,-111.0334,-35.10307,0.001067912,-0.1257102,0.09433498,0,0.3,0,0,0,0
638223379605884170,55.24811,5.493878,7.541167,42.12218,48.90318,6.158805,-4.570632,-0.4441859,0.1400836,-35.22471,-8.447793,45.05199,0,0,0,123.4398,-96.07979,-82.71069,-10.65206,-111.0334,-35.10307,0.001067912,-0.1257102,0.09433498,0,0.3,0,0,0,0
638223379606244049,55.24811,4.628884,7.517819,42.34192,48.97642,6.378541,-4.570632,-0.4441859,0.1400836,-35.22471,-8.447793,45.05199,0,0,0,123.5415,-98.09222,-82.64016,-10.65206,-111.0334,-35.10307,0.001067912,-0.1257102,0.09433498,0,0.3,0,0,0,0
638223379606693895,55.20099,2.244308,7.517819,42.78139,49.12291,6.671522,-4.570632,-0.4441859,0.1400836,-35.15147,-8.447793,45.05199,0,0,0,123.7441,-103.6317,-82.34874,-10.65206,-111.0334,-35.10307,0.001067912,-0.1257102,0.09433498,0,0.3,0,0,0,0
638223379607053928,55.15387,1.706609,7.517819,42.92788,49.12291,6.818012,-4.570632,-0.4441859,0.1400836,-35.22471,-8.447793,45.05199,0,0,0,123.7088,-104.8824,-82.22235,-10.65206,-111.0334,-35.10307,0.001067912,-0.1257102,0.09433498,0,0.3,0,0,0,0
638223379607413664,54.84759,0.9585064,7.541167,43.07437,49.19616,7.037747,-4.570632,-0.4441859,0.1400836,-35.15147,-8.447793,45.12524,0,0,0,123.3238,-106.6159,-81.50797,-10.65206,-111.0334,-35.10307,0.001067912,-0.1257102,0.09433498,0,0.3,0,0,0,0
638223379607773694,54.18791,0.6078333,7.587861,42.85464,49.19616,7.330729,-4.570632,-0.4441859,0.1400836,-35.22471,-8.447793,45.05199,0,0,0,122.4122,-107.4177,-80.02429,-10.65206,-111.0334,-35.10307,0.001067912,-0.1257102,0.09433498,0,0.3,0,0,0,0
638223379608203412,52.82143,0.6312115,7.657903,42.34192,49.19616,8.136425,-4.570632,-0.4441859,0.1400836,-35.22471,-8.447793,45.12524,0,0,0,120.3993,-107.3417,-77.03293,-10.65206,-111.0334,-35.10307,0.001067912,-0.1257102,0.09433498,0,0.3,0,0,0,0
638223379608563298,51.92616,0.7247244,7.681251,41.97569,49.2694,8.722386,-4.570632,-0.4441859,0.1400836,-35.22471,-8.447793,45.12524,0,0,0,118.9981,-107.1168,-75.13123,-10.65206,-111.0334,-35.10307,0.001067912,-0.1257102,0.09433498,0,0.3,0,0,0,0
638223379608923182,50.3712,0.8883717,7.751292,41.09675,49.2694,9.454838,-4.570632,-0.4441859,0.1400836,-35.22471,-8.447793,45.05199,0,0,0,116.545,-106.7141,-71.83683,-10.65206,-111.0334,-35.10307,0.001067912,-0.1257102,0.09433498,0,0.3,0,0,0,0
638223379609283070,48.76912,1.145532,7.891376,40.21781,49.2694,9.894309,-4.570632,-0.4441859,0.1400836,-35.22471,-8.447793,45.05199,0,0,0,114.0361,-106.0713,-68.41032,-10.65206,-111.0334,-35.10307,0.001067912,-0.1257102,0.09433498,0,0.3,0,0,0,0
638223379609712924,46.97857,1.636474,8.28828,38.89939,49.2694,10.18729,-4.570632,-0.4441859,0.1400836,-35.22471,-8.447793,45.05199,0,0,0,111.5061,-104.799,-64.29089,-10.65206,-111.0334,-35.10307,0.001067912,-0.1257102,0.09433498,0,0.3,0,0,0,0
638223379610082812,46.27176,1.893635,8.451711,38.31343,49.2694,10.26054,-4.570632,-0.4441859,0.1400836,-35.22471,-8.447793,45.05199,0,0,0,110.4725,-104.1454,-62.67593,-10.65206,-111.0334,-35.10307,0.001067912,-0.1257102,0.09433498,0,0.3,0,0,0,0
638223379610392859,44.62257,2.33782,8.871961,36.92178,49.41589,10.26054,-4.570632,-0.4441859,0.1400836,-35.15147,-8.447793,45.05199,0,0,0,108.0379,-102.965,-58.87926,-10.65206,-111.0334,-35.10307,0.001067912,-0.1257102,0.09433498,0,0.3,0,0,0,0
638223379610752599,42.83201,2.59498,9.292212,35.31038,49.48914,10.26054,-4.570632,-0.4441859,0.1400836,-35.22471,-8.521038,45.05199,0,0,0,105.2037,-102.2127,-54.86755,-10.65206,-111.0334,-35.10307,0.001067912,-0.1257102,0.09433498,0,0.3,0,0,0,0
638223379611212452,40.19329,2.758628,9.805852,32.52707,49.56238,10.18729,-4.570632,-0.4441859,0.1400836,-35.22471,-8.447793,45.05199,0,0,0,100.617,-101.6339,-49.25759,-10.65206,-111.0334,-35.10307,0.001067912,-0.1257102,0.09433498,0,0.3,0,0,0,0
638223379611572429,38.59122,2.758628,10.10937,30.84243,49.56238,9.821064,-4.570632,-0.4441859,0.1400836,-35.22471,-8.447793,45.12524,0,0,0,97.68208,-101.5117,-45.94729,-10.65206,-111.0334,-35.10307,0.001067912,-0.1257102,0.09433498,0,0.3,0,0,0,0
638223379611932222,35.81114,2.758628,10.85648,28.05911,49.56238,8.942122,-4.570632,-0.4441859,0.1400836,-35.22471,-8.447793,45.05199,0,0,0,92.63071,-101.1954,-39.96698,-10.65206,-111.0334,-35.10307,0.001067912,-0.1257102,0.09433498,0,0.3,0,0,0,0
638223379612292098,32.51274,2.73525,12.11723,25.05606,49.56238,7.91669,-4.570632,-0.4441859,0.1400836,-35.15147,-8.447793,45.05199,0,0,0,86.63752,-100.6654,-32.42307,-10.65206,-111.0334,-35.10307,0.001067912,-0.1257102,0.09433498,0,0.3,0,0,0,0
638223379612721973,29.07299,2.711872,13.26125,22.27274,49.41589,7.550464,-4.570632,-0.4441859,0.1400836,-35.22471,-8.447793,45.05199,0,0,0,79.58941,-100.1349,-25.19731,-10.65206,-111.0334,-35.10307,0.001067912,-0.1257102,0.09433498,0,0.3,0,0,0,0
638223379613081846,26.08088,2.688493,14.19514,19.70916,49.04966,7.696954,-4.570632,-0.4441859,0.1400836,-35.22471,-8.447793,45.05199,0,0,0,72.93793,-99.67342,-19.33929,-10.65206,-111.0334,-35.10307,0.001067912,-0.1257102,0.09433498,0,0.3,0,0,0,0
638223379613441732,24.5966,2.618359,14.70878,18.39075,48.68344,7.770199,-4.570632,-0.4441859,0.1400836,-35.22471,-8.447793,45.05199,0,0,0,69.53867,-99.53813,-16.44056,-10.65206,-111.0334,-35.10307,0.001067912,-0.1257102,0.09433498,0,0.3,0,0,0,0
638223379613801618,21.62804,2.501468,15.92284,15.68068,47.87774,8.06318,-4.570632,-0.4441859,0.1400836,-35.15147,-8.447793,45.05199,0,0,0,62.58721,-99.06358,-10.49852,-10.65206,-111.0334,-35.10307,0.001067912,-0.1257102,0.09433498,0,0.3,0,0,0,0
638223379614221493,17.95269,2.33782,17.18359,12.67763,46.26635,9.601329,-4.570632,-0.4441859,0.1400836,-35.22471,-8.521038,45.05199,0,0,0,53.21162,-98.60813,-4.120186,-10.65206,-111.0334,-35.10307,0.001067912,-0.1257102,0.09433498,0,0.3,0,0,0,0
638223379614551386,16.20925,2.174173,17.72057,11.65219,45.38741,10.70001,-4.570632,-0.4441859,0.1400836,-35.22471,-8.447793,45.05199,0,0,0,48.52745,-98.61389,-1.418049,-10.65206,-111.0334,-35.10307,0.001067912,-0.1257102,0.09433498,0,0.3,0,0,0,0
638223379614901279,13.49986,1.800122,18.60777,10.26054,44.06899,12.75087,-4.570632,-0.4441859,0.1400836,-35.22471,-8.447793,45.12524,0,0,0,41.04734,-98.84024,2.626335,-10.65206,-111.0334,-35.10307,0.001067912,-0.1257102,0.09433498,0,0.3,0,0,0,0
638223379615251165,12.03914,1.613096,19.12141,9.528083,43.55628,14.06928,-4.570632,-0.4441859,0.1400836,-35.22471,-8.447793,45.12524,0,0,0,36.9142,-98.8888,4.736159,-10.65206,-111.0334,-35.10307,0.001067912,-0.1257102,0.09433498,0,0.3,0,0,0,0
638223379615751007,7.185789,1.42607,20.8958,6.598277,41.57866,18.17101,-4.570632,-0.4441859,0.1400836,-35.22471,-8.447793,45.05199,0,0,0,22.62458,-97.91096,11.09998,-10.65206,-111.0334,-35.10307,0.001067912,-0.1257102,0.09433498,0,0.3,0,0,0,0
638223379616100890,4.853352,1.42607,21.89973,4.840393,40.47998,20.36837,-4.570632,-0.4441859,0.1400836,-35.22471,-8.447793,45.05199,0,0,0,15.48674,-97.0585,14.03974,-10.65206,-111.0334,-35.10307,0.001067912,-0.1257102,0.09433498,0,0.3,0,0,0,0
638223379616470774,2.026157,1.56634,22.76358,2.496547,39.01508,22.93195,-4.570632,-0.4441859,0.1400836,-35.22471,-8.447793,45.05199,0,0,0,6.537178,-95.96823,16.43163,-10.65206,-111.0334,-35.10307,0.001067912,-0.1257102,0.09433498,0,0.3,0,0,0,0
638223379616830661,0.4240793,1.893635,22.92702,0.9583986,38.20938,24.17712,-4.570632,-0.4441859,0.1400836,-35.22471,-8.447793,45.05199,0,0,0,1.370943,-95.05916,16.8697,-10.65206,-111.0334,-35.10307,0.001067912,-0.1257102,0.09433498,0,0.3,0,0,0,0
638223379617250655,-2.238196,2.898897,22.92702,-2.191144,36.52474,25.64202,-4.570632,-0.4441859,0.1400836,-35.22471,-8.521038,45.05199,0,0,0,-7.22994,-92.72159,16.63572,-10.65206,-111.0334,-35.10307,0.001067912,-0.1257102,0.09433498,0,0.3,0,0,0,0
638223379617620408,-3.863834,4.41848,22.6235,-5.780157,34.98659,26.37447,-4.570632,-0.4441859,0.1400836,-35.22471,-8.447793,45.05199,0,0,0,-12.41578,-89.46569,15.48115,-10.65206,-111.0334,-35.10307,0.001067912,-0.1257102,0.09433498,0,0.3,0,0,0,0
638223379617950473,-4.358593,6.686166,21.7363,-8.709964,33.22871,26.81394,-4.570632,-0.4441859,0.1400836,-35.22471,-8.447793,45.05199,0,0,0,-13.81859,-84.9925,12.95143,-10.65206,-111.0334,-35.10307,0.001067912,-0.1257102,0.09433498,0,0.3,0,0,0,0
638223379618320183,-4.217233,9.117499,20.4522,-10.3946,31.25109,27.03368,-4.570632,-0.4441859,0.1400836,-35.22471,-8.447793,45.05199,0,0,0,-13.109,-80.46355,9.428469,-10.65206,-111.0334,-35.10307,0.001067912,-0.1257102,0.09433498,0,0.3,0,0,0,0
638223379618780403,-3.793154,12.10991,18.42099,-11.27355,28.834,27.10692,-4.570632,-0.4441859,0.1400836,-35.22471,-8.447793,45.05199,0,0,0,-11.41305,-75.192,3.792788,-10.65206,-111.0334,-35.10307,0.001067912,-0.1257102,0.09433498,0,0.3,0,0,0,0
638223379619110139,-3.557554,13.91003,16.95012,-11.34679,27.36909,27.03368,-4.570632,-0.4441859,0.1400836,-35.22471,-8.447793,45.05199,0,0,0,-10.44421,-72.15006,-0.3581949,-10.65206,-111.0334,-35.10307,0.001067912,-0.1257102,0.09433498,0,0.3,0,0,0,0
638223379619479809,-3.251275,16.31799,15.10568,-11.34679,25.61121,26.44772,-4.570632,-0.4441859,0.1400836,-35.22471,-8.521038,45.05199,0,0,0,-9.229193,-67.92525,-5.882606,-10.65206,-111.0334,-35.10307,0.001067912,-0.1257102,0.09433498,0,0.3,0,0,0,0
638223379619829700,-3.015675,17.58041,14.21848,-11.2003,24.73227,26.08149,-4.570632,-0.4441859,0.1400836,-35.22471,-8.447793,45.05199,0,0,0,-8.4109,-65.63742,-8.696198,-10.65206,-111.0334,-35.10307,0.001067912,-0.1257102,0.09433498,0,0.3,0,0,0,0
638223379620289556,-1.837677,21.27416,11.90711,-10.17487,21.87571,25.05606,-4.570632,-0.4441859,0.1400836,-35.22471,-8.447793,45.05199,0,0,0,-4.867167,-58.74724,-16.6517,-10.65206,-111.0334,-35.10307,0.001067912,-0.1257102,0.09433498,0,0.3,0,0,0,0
638223379620655916,-1.507838,22.06903,10.64635,-9.588906,20.99677,24.98281,-4.570632,-0.4441859,0.1400836,-35.15147,-8.447793,45.05199,0,0,0,-3.900101,-57.60184,-20.18568,-10.65206,-111.0334,-35.10307,0.001067912,-0.1257102,0.09433498,0,0.3,0,0,0,0
638223379621015821,-1.295798,22.65348,7.868029,-8.416983,19.97133,24.68983,-4.570632,-0.4441859,0.1400836,-35.22471,-8.447793,45.05199,0,0,0,-3.195738,-57.38398,-27.06942,-10.65206,-111.0334,-35.10307,0.001067912,-0.1257102,0.09433498,0,0.3,0,0,0,0
638223379621375682,-1.295798,22.77037,5.906858,-7.757777,20.11782,24.32361,-4.570632,-0.4441859,0.1400836,-35.22471,-8.447793,45.12524,0,0,0,-3.090893,-57.68036,-31.70453,-10.65206,-111.0334,-35.10307,0.001067912,-0.1257102,0.09433498,0,0.3,0,0,0,0
638223379621805554,-1.272238,22.91064,3.805604,-7.757777,20.77703,24.17712,-4.570632,-0.4441859,0.1400836,-35.22471,-8.447793,45.05199,0,0,0,-2.923704,-57.79347,-36.70139,-10.65206,-111.0334,-35.10307,0.001067912,-0.1257102,0.09433498,0,0.3,0,0,0,0
638223379622165432,-1.272238,22.91064,2.98845,-8.124002,21.14326,24.17712,-4.570632,-0.4441859,0.1400836,-35.22471,-8.447793,45.05199,0,0,0,-2.881552,-57.90617,-38.5994,-10.65206,-111.0334,-35.10307,0.001067912,-0.1257102,0.09433498,0,0.3,0,0,0,0
638223379622525455,-1.319358,22.81713,2.288032,-8.709964,21.58273,24.17712,-4.570632,-0.4441859,0.1400836,-35.22471,-8.447793,45.12524,0,0,0,-2.95271,-58.18174,-40.14526,-10.65206,-111.0334,-35.10307,0.001067912,-0.1257102,0.09433498,0,0.3,0,0,0,0
638223379622875204,-1.531397,22.72361,1.751045,-9.36917,22.0222,24.17712,-4.570632,-0.4441859,0.1400836,-35.22471,-8.447793,45.05199,0,0,0,-3.39602,-58.42646,-41.32141,-10.65206,-111.0334,-35.10307,0.001067912,-0.1257102,0.09433498,0,0.3,0,0,0,0
638223379623375050,-2.544476,22.72361,1.050627,-10.54109,22.6814,24.4701,-4.570632,-0.4441859,0.1400836,-35.15147,-8.447793,45.12524,0,0,0,-5.569086,-58.46632,-43.02936,-10.65206,-111.0334,-35.10307,0.001067912,-0.1257102,0.09433498,0,0.3,0,0,0,0
638223379623714936,-3.675354,22.72361,1.02728,-11.71302,23.04763,24.54334,-4.570632,-0.4441859,0.1400836,-35.22471,-8.447793,45.12524,0,0,0,-8.03788,-58.4673,-43.2179,-10.65206,-111.0334,-35.10307,0.001067912,-0.1257102,0.09433498,0,0.3,0,0,0,0
638223379624054831,-4.641313,22.72361,1.02728,-12.88494,23.26737,24.54334,-4.570632,-0.4441859,0.1400836,-35.22471,-8.447793,45.05199,0,0,0,-10.14626,-58.4673,-43.37119,-10.65206,-111.0334,-35.10307,0.001067912,-0.1257102,0.09433498,0,0.3,0,0,0,0
638223379624404716,-6.714589,22.72361,1.097321,-16.03448,23.70683,24.4701,-4.570632,-0.4441859,0.1400836,-35.22471,-8.447793,45.12524,0,0,0,-14.68011,-58.46428,-43.6582,-10.65206,-111.0334,-35.10307,0.001067912,-0.1257102,0.09433498,0,0.3,0,0,0,0
638223379624824710,-9.047026,22.74699,1.377489,-19.84323,23.63359,24.39685,-4.570632,-0.4441859,0.1400836,-35.22471,-8.447793,45.05199,0,0,0,-19.84179,-58.40001,-43.73592,-10.65206,-111.0334,-35.10307,0.001067912,-0.1257102,0.09433498,0,0.3,0,0,0,0
638223379625184471,-11.49726,22.88726,1.564267,-24.23794,23.26737,23.88414,-4.570632,-0.4441859,0.1400836,-35.22471,-8.447793,45.05199,0,0,0,-25.21249,-58.08794,-44.39633,-10.65206,-111.0334,-35.10307,0.001067912,-0.1257102,0.09433498,0,0.3,0,0,0,0
638223379625534485,-13.61766,23.00415,1.681003,-28.85239,22.6814,21.76003,-4.570632,-0.4441859,0.1400836,-35.22471,-8.447793,45.05199,0,0,0,-29.82041,-57.82972,-45.25319,-10.65206,-111.0334,-35.10307,0.001067912,-0.1257102,0.09433498,0,0.3,0,0,0,0
638223379625904237,-15.43177,23.14442,1.70435,-33.24709,21.58273,18.17101,-4.570632,-0.4441859,0.1400836,-35.15147,-8.447793,45.05199,0,0,0,-33.68275,-57.52777,-46.32989,-10.65206,-111.0334,-35.10307,0.001067912,-0.1257102,0.09433498,0,0.3,0,0,0,0
638223379626354238,-17.10453,23.28469,1.517572,-37.93478,20.4108,14.36226,-4.570632,-0.4441859,0.1400836,-35.22471,-8.447793,45.05199,0,0,0,-37.06463,-57.23996,-47.90342,-10.65206,-111.0334,-35.10307,0.001067912,-0.1257102,0.09433498,0,0.3,0,0,0,0
638223379626714124,-18.02337,23.49509,1.120669,-40.42512,19.82484,12.89736,-4.570632,-0.4441859,0.1400836,-35.22471,-8.447793,45.12524,0,0,0,-38.64547,-56.81178,-49.57633,-10.65206,-111.0334,-35.10307,0.001067912,-0.1257102,0.09433498,0,0.3,0,0,0,0
638223379627083858,-19.01289,23.86915,0.350209,-42.40274,19.09239,11.94517,-4.570632,-0.4441859,0.1400836,-35.22471,-8.447793,45.12524,0,0,0,-39.99283,-56.03754,-52.28722,-10.65206,-111.0334,-35.10307,0.001067912,-0.1257102,0.09433498,0,0.3,0,0,0,0
638223379627433754,-19.50765,24.14968,0,-43.06195,18.72616,11.57895,-4.570632,-0.4441859,0.1400836,-35.22471,-8.447793,45.12524,0,0,0,-40.63265,-55.4436,-53.65558,-10.65206,-111.0334,-35.10307,0.001067912,-0.1257102,0.09433498,0,0.3,0,0,0,0
638223379627873610,-21.25109,25.34197,-0.9805852,-44.6001,17.62749,10.62676,-4.570632,-0.4441859,0.1400836,-35.22471,-8.447793,45.05199,0,0,0,-42.85514,-52.904,-58.15437,-10.65206,-111.0334,-35.10307,0.001067912,-0.1257102,0.09433498,0,0.3,0,0,0,0
638223379628203498,-21.95788,25.83291,-1.400836,-45.11281,17.18801,10.11404,-4.570632,-0.4441859,0.1400836,-35.22471,-8.447793,45.05199,0,0,0,-43.66104,-51.85312,-60.05602,-10.65206,-111.0334,-35.10307,0.001067912,-0.1257102,0.09433498,0,0.3,0,0,0,0
638223379628563393,-23.48928,26.86156,-1.844434,-46.35798,16.16258,8.649141,-4.570632,-0.4441859,0.1400836,-35.22471,-8.447793,45.05199,0,0,0,-45.70475,-49.67855,-63.18247,-10.65206,-111.0334,-35.10307,0.001067912,-0.1257102,0.09433498,0,0.3,0,0,0,0
638223379628923273,-24.90288,27.70317,-2.381421,-47.89613,15.28364,7.550464,-4.570632,-0.4441859,0.1400836,-35.22471,-8.447793,45.05199,0,0,0,-47.38129,-47.89161,-66.28916,-10.65206,-111.0334,-35.10307,0.001067912,-0.1257102,0.09433498,0,0.3,0,0,0,0
638223379629383129,-26.38716,29.05911,-3.011797,-49.65401,14.4047,6.598277,-4.570632,-0.4441859,0.1400836,-35.22471,-8.447793,45.05199,0,0,0,-48.69106,-45.04617,-70.20726,-10.65206,-111.0334,-35.10307,0.001067912,-0.1257102,0.09433498,0,0.3,0,0,0,0
638223379629753017,-27.25887,30.08775,-3.268617,-50.38646,13.81874,5.719335,-4.570632,-0.4441859,0.1400836,-35.15147,-8.447793,45.05199,0,0,0,-49.36403,-42.93128,-72.54027,-10.65206,-111.0334,-35.10307,0.001067912,-0.1257102,0.09433498,0,0.3,0,0,0,0
638223379630082926,-28.46043,31.65409,-3.525437,-51.19216,12.86655,4.620657,-4.570632,-0.4441859,0.1400836,-35.22471,-8.447793,45.12524,0,0,0,-50.18655,-39.76694,-75.76546,-10.65206,-111.0334,-35.10307,0.001067912,-0.1257102,0.09433498,0,0.3,0,0,0,0
638223379630442795,-29.07299,32.54246,-3.642174,-51.63163,12.35384,4.034696,-4.570632,-0.4441859,0.1400836,-35.22471,-8.521038,45.05199,0,0,0,-50.50788,-37.99844,-77.50451,-10.65206,-111.0334,-35.10307,0.001067912,-0.1257102,0.09433498,0,0.3,0,0,0,0
638223379630902646,-31.05203,34.95041,-4.225855,-52.65706,10.88893,2.496547,-4.570632,-0.4441859,0.1400836,-35.22471,-8.447793,45.05199,0,0,0,-51.31018,-33.24561,-83.13091,-10.65206,-111.0334,-35.10307,0.001067912,-0.1257102,0.09433498,0,0.3,0,0,0,0
638223379631262525,-31.90019,35.58163,-4.389286,-52.95005,10.52271,2.057076,-4.570632,-0.4441859,0.1400836,-35.22471,-8.447793,45.05199,0,0,0,-51.91736,-32.01757,-84.94188,-10.65206,-111.0334,-35.10307,0.001067912,-0.1257102,0.09433498,0,0.3,0,0,0,0
638223379631622410,-33.9499,36.44662,-4.692801,-53.82899,9.790254,1.251379,-4.570632,-0.4441859,0.1400836,-35.22471,-8.447793,45.05199,0,0,0,-53.81305,-30.33325,-88.41821,-10.65206,-111.0334,-35.10307,0.001067912,-0.1257102,0.09433498,0,0.3,0,0,0,0
638223379631982293,-36.1881,36.91418,-5.113051,-55.44038,9.424027,0.2259469,-4.570632,-0.4441859,0.1400836,-35.22471,-8.447793,45.05199,0,0,0,-55.93445,-29.37694,-91.89195,-10.65206,-111.0334,-35.10307,0.001067912,-0.1257102,0.09433498,0,0.3,0,0,0,0
638223379632412158,-39.20378,37.33499,-5.346524,-58.37019,9.204292,-1.165711,-4.570632,-0.4441859,0.1400836,-35.15147,-8.447793,45.05199,0,0,0,-59.16373,-28.54652,-95.81786,-10.65206,-111.0334,-35.10307,0.001067912,-0.1257102,0.09433498,0,0.3,0,0,0,0
638223379632752047,-40.94721,37.4285,-5.369871,-60.05483,9.131048,-1.605182,-4.570632,-0.4441859,0.1400836,-35.22471,-8.521038,45.05199,0,0,0,-61.221,-28.36851,-97.79211,-10.65206,-111.0334,-35.10307,0.001067912,-0.1257102,0.09433498,0,0.3,0,0,0,0
638223379633111942,-43.35033,37.4285,-5.346524,-62.47192,8.984557,-2.117898,-4.570632,-0.4441859,0.1400836,-35.22471,-8.447793,45.05199,0,0,0,-64.1628,-28.37358,-100.3818,-10.65206,-111.0334,-35.10307,0.001067912,-0.1257102,0.09433498,0,0.3,0,0,0,0
638223379633471829,-45.5414,37.4285,-5.346524,-65.25523,8.911312,-2.484124,-4.570632,-0.4441859,0.1400836,-35.22471,-8.521038,45.05199,0,0,0,-66.71445,-28.37358,-102.8846,-10.65206,-111.0334,-35.10307,0.001067912,-0.1257102,0.09433498,0,0.3,0,0,0,0
638223379633931675,-48.32148,37.47526,-5.136398,-68.11179,8.984557,-2.99684,-4.570632,-0.4441859,0.1400836,-35.22471,-8.447793,45.05199,0,0,0,-70.12548,-28.33187,-105.9176,-10.65206,-111.0334,-35.10307,0.001067912,-0.1257102,0.09433498,0,0.3,0,0,0,0
638223379634291704,-50.6068,37.52202,-4.716148,-70.82186,8.984557,-3.656047,-4.570632,-0.4441859,0.1400836,-35.22471,-8.447793,45.12524,0,0,0,-73.26113,-28.32953,-108.1872,-10.65206,-111.0334,-35.10307,0.001067912,-0.1257102,0.09433498,0,0.3,0,0,0,0
638223379634651460,-51.64344,37.61553,-4.412633,-72.21353,9.057802,-4.022273,-4.570632,-0.4441859,0.1400836,-35.22471,-8.447793,45.05199,0,0,0,-74.78571,-28.21324,-109.1678,-10.65206,-111.0334,-35.10307,0.001067912,-0.1257102,0.09433498,0,0.3,0,0,0,0
638223379635011339,-53.66959,37.91945,-3.478743,-75.21658,9.057802,-4.754725,-4.570632,-0.4441859,0.1400836,-35.22471,-8.447793,45.05199,0,0,0,-78.22924,-27.80365,-110.821,-10.65206,-111.0334,-35.10307,0.001067912,-0.1257102,0.09433498,0,0.3,0,0,0,0
638223379635411202,-55.50727,38.27012,-2.171296,-78.21963,8.984557,-5.340686,-4.570632,-0.4441859,0.1400836,-35.22471,-8.447793,45.05199,0,0,0,-82.12372,-27.31131,-111.9233,-10.65206,-111.0334,-35.10307,0.001067912,-0.1257102,0.09433498,0,0.3,0,0,0,0
638223379635771093,-57.06223,38.71431,-0.5369871,-81.29592,8.838067,-5.853402,-4.570632,-0.4441859,0.1400836,-35.22471,-8.447793,45.12524,0,0,0,-86.27593,-26.59206,-112.4549,-10.65206,-111.0334,-35.10307,0.001067912,-0.1257102,0.09433498,0,0.3,0,0,0,0
638223379636130978,-57.39207,39.43903,1.44753,-83.63977,8.838067,-6.073137,-4.570632,-0.4441859,0.1400836,-35.22471,-8.447793,45.05199,0,0,0,-89.59106,-25.24596,-111.0366,-10.65206,-111.0334,-35.10307,0.001067912,-0.1257102,0.09433498,0,0.3,0,0,0,0
638223379636500860,-57.41562,40.6547,4.249202,-85.39766,8.984557,-5.633667,-4.570632,-0.4441859,0.1400836,-35.22471,-8.521038,45.12524,0,0,0,-93.56767,-22.75609,-108.5469,-10.65206,-111.0334,-35.10307,0.001067912,-0.1257102,0.09433498,0,0.3,0,0,0,0
638223379637000693,-57.39207,42.57171,8.988697,-86.49634,8.618331,-3.656047,-4.570632,-0.4441859,0.1400836,-35.22471,-8.447793,45.12524,0,0,0,-100.2747,-18.14942,-104.2021,-10.65206,-111.0334,-35.10307,0.001067912,-0.1257102,0.09433498,0,0.3,0,0,0,0
638223379637360728,-57.06223,43.67049,12.04719,-87.0823,8.105616,-1.824918,-4.570632,-0.4441859,0.1400836,-35.22471,-8.447793,45.05199,0,0,0,-104.3098,-14.98361,-100.7714,-10.65206,-111.0334,-35.10307,0.001067912,-0.1257102,0.09433498,0,0.3,0,0,0,0
638223379637720474,-56.23763,44.88615,15.50258,-87.81474,7.519653,0.5189275,-4.570632,-0.4441859,0.1400836,-35.22471,-8.447793,45.05199,0,0,0,-108.1768,-11.04338,-96.03478,-10.65206,-111.0334,-35.10307,0.001067912,-0.1257102,0.09433498,0,0.3,0,0,0,0
638223379638080357,-55.36591,46.10182,18.67781,-88.32746,6.787202,3.521979,-4.570632,-0.4441859,0.1400836,-35.22471,-8.447793,45.05199,0,0,0,-111.2151,-6.888615,-91.53013,-10.65206,-111.0334,-35.10307,0.001067912,-0.1257102,0.09433498,0,0.3,0,0,0,0
638223379638470375,-54.37639,47.64478,21.7363,-88.40071,6.05475,6.744767,-4.570632,-0.4441859,0.1400836,-35.22471,-8.447793,45.05199,0,0,0,-113.1709,-1.975299,-87.25702,-10.65206,-111.0334,-35.10307,0.001067912,-0.1257102,0.09433498,0,0.3,0,0,0,0
638223379638830118,-53.81095,48.57991,23.34727,-88.40071,5.76177,8.282915,-4.570632,-0.4441859,0.1400836,-35.22471,-8.447793,45.05199,0,0,0,-113.8522,0.9151068,-85.05618,-10.65206,-111.0334,-35.10307,0.001067912,-0.1257102,0.09433498,0,0.3,0,0,0,0
638223379639200004,-52.70363,50.68394,26.82601,-88.25421,4.809582,11.5057,-4.570632,-0.4441859,0.1400836,-35.22471,-8.521038,45.05199,0,0,0,-115.0857,7.518906,-80.68968,-10.65206,-111.0334,-35.10307,0.001067912,-0.1257102,0.09433498,0,0.3,0,0,0,0
638223379639559881,-51.61988,52.74123,30.44483,-88.25421,4.077131,14.43551,-4.570632,-0.4441859,0.1400836,-35.15147,-8.447793,45.05199,0,0,0,-116.2551,14.52115,-76.27299,-10.65206,-111.0334,-35.10307,0.001067912,-0.1257102,0.09433498,0,0.3,0,0,0,0
638223379639989749,-50.30051,55.19594,35.83805,-88.5472,2.612227,18.68373,-4.570632,-0.4441859,0.1400836,-35.22471,-8.447793,45.05199,0,0,0,-118.6333,24.74132,-69.86052,-10.65206,-111.0334,-35.10307,0.001067912,-0.1257102,0.09433498,0,0.3,0,0,0,0
638223379640349635,-49.57016,56.17782,39.03663,-89.13316,1.806531,21.17406,-4.570632,-0.4441859,0.1400836,-35.22471,-8.447793,45.05199,0,0,0,-120.4303,30.55431,-65.74755,-10.65206,-111.0334,-35.10307,0.001067912,-0.1257102,0.09433498,0,0.3,0,0,0,0
638223379640717750,-48.67488,57.01944,43.23914,-90.30508,1.000834,24.90957,-4.570632,-0.4441859,0.1400836,-35.22471,-8.447793,45.05199,0,0,0,-123.1151,38.06576,-60.09507,-10.65206,-111.0334,-35.10307,0.001067912,-0.1257102,0.09433498,0,0.3,0,0,0,0
638223379641077755,-47.92096,57.25322,47.23152,-91.76999,0.268382,28.57183,-4.570632,-0.4441859,0.1400836,-35.22471,-8.447793,45.12524,0,0,0,-126.1964,44.95694,-54.40664,-10.65206,-111.0334,-35.10307,0.001067912,-0.1257102,0.09433498,0,0.3,0,0,0,0
638223379641512875,-47.28484,57.01944,50.73361,-92.94191,-0.171089,31.86786,-4.570632,-0.4441859,0.1400836,-35.15147,-8.447793,45.05199,0,0,0,-129.1891,50.81056,-49.07447,-10.65206,-111.0334,-35.10307,0.001067912,-0.1257102,0.09433498,0,0.3,0,0,0,0
638223379641882774,-46.88432,56.34147,53.13838,-93.60111,-0.3908245,34.3582,-4.570632,-0.4441859,0.1400836,-35.22471,-8.447793,45.05199,0,0,0,-131.8333,54.35001,-44.91486,-10.65206,-111.0334,-35.10307,0.001067912,-0.1257102,0.09433498,0,0.3,0,0,0,0
638223379642242646,-46.69584,55.82715,54.28239,-93.96734,-0.3908245,35.53012,-4.570632,-0.4441859,0.1400836,-35.22471,-8.447793,45.05199,0,0,0,-133.2963,55.8282,-42.71969,-10.65206,-111.0334,-35.10307,0.001067912,-0.1257102,0.09433498,0,0.3,0,0,0,0
638223379642602537,-46.38956,54.56472,56.24356,-94.5533,-0.171089,37.36125,-4.570632,-0.4441859,0.1400836,-35.22471,-8.447793,45.05199,0,0,0,-136.2526,57.90197,-38.55106,-10.65206,-111.0334,-35.10307,0.001067912,-0.1257102,0.09433498,0,0.3,0,0,0,0
638223379643022541,-46.22464,53.06852,57.29419,-95.06602,0.1951368,38.45993,-4.570632,-0.4441859,0.1400836,-35.22471,-8.447793,45.05199,0,0,0,-138.8754,57.89152,-35.28791,-10.65206,-111.0334,-35.10307,0.001067912,-0.1257102,0.09433498,0,0.3,0,0,0,0
638223379643382280,-46.22464,50.70732,58.01796,-95.21251,0.4881175,39.04589,-4.570632,-0.4441859,0.1400836,-35.22471,-8.447793,45.12524,0,0,0,-142.6479,55.9231,-31.67326,-10.65206,-111.0334,-35.10307,0.001067912,-0.1257102,0.09433498,0,0.3,0,0,0,0
638223379643742166,-46.22464,48.20586,58.32147,-94.91953,1.220569,39.33887,-4.570632,-0.4441859,0.1400836,-35.22471,-8.447793,45.12524,0,0,0,-146.1112,52.73918,-28.35499,-10.65206,-111.0334,-35.10307,0.001067912,-0.1257102,0.09433498,0,0.3,0,0,0,0
638223379644102058,-46.29532,45.21344,58.34481,-94.40681,2.026266,39.48536,-4.570632,-0.4441859,0.1400836,-35.22471,-8.447793,45.05199,0,0,0,-149.9687,48.01043,-25.01337,-10.65206,-111.0334,-35.10307,0.001067912,-0.1257102,0.09433498,0,0.3,0,0,0,0
638223379644561913,-46.41312,40.70145,58.29812,-93.82085,3.051698,39.5586,-4.570632,-0.4441859,0.1400836,-35.22471,-8.447793,45.05199,0,0,0,-155.4038,40.23452,-20.42884,-10.65206,-111.0334,-35.10307,0.001067912,-0.1257102,0.09433498,0,0.3,0,0,0,0
638223379644921796,-46.53092,37.26486,57.73779,-93.45463,4.077131,39.33887,-4.570632,-0.4441859,0.1400836,-35.15147,-8.447793,45.05199,0,0,0,-158.8575,32.91194,-17.76276,-10.65206,-111.0334,-35.10307,0.001067912,-0.1257102,0.09433498,0,0.3,0,0,0,0
638223379645281674,-46.55449,32.84638,56.3603,-92.13622,5.468789,38.89939,-4.570632,-0.4441859,0.1400836,-35.22471,-8.447793,45.05199,0,0,0,-161.9406,21.80578,-14.96647,-10.65206,-111.0334,-35.10307,0.001067912,-0.1257102,0.09433498,0,0.3,0,0,0,0
638223379645641569,-46.55449,30.81247,55.44976,-91.25727,6.127995,38.67966,-4.570632,-0.4441859,0.1400836,-35.22471,-8.447793,45.05199,0,0,0,-162.8906,16.02923,-14.0667,-10.65206,-111.0334,-35.10307,0.001067912,-0.1257102,0.09433498,0,0.3,0,0,0,0
638223379646061427,-46.38956,27.07196,52.36792,-88.91342,7.446409,38.38668,-4.570632,-0.4441859,0.1400836,-35.22471,-8.447793,45.05199,0,0,0,-162.4368,2.616804,-13.60713,-10.65206,-111.0334,-35.10307,0.001067912,-0.1257102,0.09433498,0,0.3,0,0,0,0
638223379646421412,-45.70633,23.75225,48.39888,-85.91037,8.691576,37.87396,-4.570632,-0.4441859,0.1400836,-35.22471,-8.447793,45.12524,0,0,0,-158.7376,-11.47543,-13.47869,-10.65206,-111.0334,-35.10307,0.001067912,-0.1257102,0.09433498,0,0.3,0,0,0,0
638223379646781197,-44.59901,21.83524,44.68667,-82.61434,9.570518,37.58098,-4.570632,-0.4441859,0.1400836,-35.22471,-8.447793,45.05199,0,0,0,-152.7568,-21.85889,-13.43987,-10.65206,-111.0334,-35.10307,0.001067912,-0.1257102,0.09433498,0,0.3,0,0,0,0
638223379647141082,-43.11473,21.20403,40.1573,-79.02532,10.00999,37.58098,-4.570632,-0.4441859,0.1400836,-35.22471,-8.447793,45.12524,0,0,0,-143.7441,-30.33494,-14.8208,-10.65206,-111.0334,-35.10307,0.001067912,-0.1257102,0.09433498,0,0.3,0,0,0,0
638223379647600943,-40.49957,21.18065,34.25044,-73.60519,9.936745,37.72747,-4.570632,-0.4441859,0.1400836,-35.22471,-8.447793,45.05199,0,0,0,-129.494,-38.69452,-16.72976,-10.65206,-111.0334,-35.10307,0.001067912,-0.1257102,0.09433498,0,0.3,0,0,0,0
638223379647960820,-38.82682,21.22741,31.1686,-70.30915,10.00999,38.16694,-4.570632,-0.4441859,0.1400836,-35.15147,-8.447793,45.12524,0,0,0,-121.2047,-42.46856,-17.74613,-10.65206,-111.0334,-35.10307,0.001067912,-0.1257102,0.09433498,0,0.3,0,0,0,0
638223379648320712,-36.25878,21.5547,27.33965,-65.62146,10.22972,38.97264,-4.570632,-0.4441859,0.1400836,-35.15147,-8.447793,45.12524,0,0,0,-109.5733,-46.11338,-18.95892,-10.65206,-111.0334,-35.10307,0.001067912,-0.1257102,0.09433498,0,0.3,0,0,0,0
638223379648680589,-33.21954,22.53659,23.83756,-60.05483,10.52271,40.07132,-4.570632,-0.4441859,0.1400836,-35.22471,-8.447793,45.05199,0,0,0,-97.00178,-47.51507,-20.22605,-10.65206,-111.0334,-35.10307,0.001067912,-0.1257102,0.09433498,0,0.3,0,0,0,0
638223379649110464,-30.06251,24.38347,21.10593,-53.75574,10.22972,41.31649,-4.570632,-0.4441859,0.1400836,-35.15147,-8.447793,45.12524,0,0,0,-84.89708,-46.00196,-21.67374,-10.65206,-111.0334,-35.10307,0.001067912,-0.1257102,0.09433498,0,0.3,0,0,0,0
638223379649470345,-27.56516,26.62777,19.89187,-48.40885,9.497273,42.19543,-4.570632,-0.4441859,0.1400836,-35.22471,-8.447793,45.05199,0,0,0,-76.15977,-42.2774,-22.45375,-10.65206,-111.0334,-35.10307,0.001067912,-0.1257102,0.09433498,0,0.3,0,0,0,0
638223379649820229,-26.17512,28.24087,19.54166,-45.2593,8.691576,42.6349,-4.570632,-0.4441859,0.1400836,-35.22471,-8.447793,45.12524,0,0,0,-71.4967,-39.22039,-22.89007,-10.65206,-111.0334,-35.10307,0.001067912,-0.1257102,0.09433498,0,0.3,0,0,0,0
638223379650190117,-24.03116,31.2099,19.33154,-40.7181,6.860447,43.36735,-4.570632,-0.4441859,0.1400836,-35.22471,-8.447793,45.12524,0,0,0,-64.42198,-33.38297,-23.86738,-10.65206,-111.0334,-35.10307,0.001067912,-0.1257102,0.09433498,0,0.3,0,0,0,0
638223379650619981,-21.39244,35.74527,19.40158,-35.29796,3.78415,44.24629,-4.570632,-0.4441859,0.1400836,-35.22471,-8.447793,45.12524,0,0,0,-55.63482,-24.52676,-26.33154,-10.65206,-111.0334,-35.10307,0.001067912,-0.1257102,0.09433498,0,0.3,0,0,0,0
638223379651019842,-20.02597,37.94283,19.44827,-32.88087,2.099511,44.46603,-4.570632,-0.4441859,0.1400836,-35.22471,-8.447793,45.05199,0,0,0,-51.21716,-20.39782,-27.83018,-10.65206,-111.0334,-35.10307,0.001067912,-0.1257102,0.09433498,0,0.3,0,0,0,0
638223379651369738,-18.02337,41.0755,19.56501,-29.65808,-0.3908245,44.61252,-4.570632,-0.4441859,0.1400836,-35.15147,-8.447793,45.05199,0,0,0,-44.91968,-14.68264,-30.29308,-10.65206,-111.0334,-35.10307,0.001067912,-0.1257102,0.09433498,0,0.3,0,0,0,0
638223379651729620,-16.09145,44.3017,20.03195,-26.58179,-2.807915,44.61252,-4.570632,-0.4441859,0.1400836,-35.22471,-8.447793,45.05199,0,0,0,-39.11251,-8.796054,-32.76561,-10.65206,-111.0334,-35.10307,0.001067912,-0.1257102,0.09433498,0,0.3,0,0,0,0
638223379652129497,-13.9475,48.01883,21.12928,-22.77304,-5.810967,44.61252,-4.570632,-0.4441859,0.1400836,-35.22471,-8.521038,45.12524,0,0,0,-33.08538,-1.907129,-35.13186,-10.65206,-111.0334,-35.10307,0.001067912,-0.1257102,0.09433498,0,0.3,0,0,0,0
638223379652495036,-12.55746,51.03462,22.48342,-19.91648,-8.154812,44.61252,-4.570632,-0.4441859,0.1400836,-35.22471,-8.447793,45.05199,0,0,0,-29.31942,3.818998,-36.72346,-10.65206,-111.0334,-35.10307,0.001067912,-0.1257102,0.09433498,0,0.3,0,0,0,0
638223379652854915,-11.8271,52.85812,23.464,-18.37833,-9.619716,44.53928,-4.570632,-0.4441859,0.1400836,-35.22471,-8.447793,45.05199,0,0,0,-27.38496,7.325644,-37.57465,-10.65206,-111.0334,-35.10307,0.001067912,-0.1257102,0.09433498,0,0.3,0,0,0,0
638223379653214937,-10.34282,56.27134,25.44852,-15.96124,-12.62277,44.61252,-4.570632,-0.4441859,0.1400836,-35.22471,-8.447793,45.05199,0,0,0,-23.58126,13.84277,-39.13971,-10.65206,-111.0334,-35.10307,0.001067912,-0.1257102,0.09433498,0,0.3,0,0,0,0
638223379653644846,-8.528707,59.38063,27.73655,-13.61739,-15.99205,44.61252,-4.570632,-0.4441859,0.1400836,-35.22471,-8.447793,45.12524,0,0,0,-19.27689,20.07933,-39.80592,-10.65206,-111.0334,-35.10307,0.001067912,-0.1257102,0.09433498,0,0.3,0,0,0,0
638223379653994556,-6.384749,62.34967,30.18801,-10.68758,-19.28808,44.02656,-4.570632,-0.4441859,0.1400836,-35.15147,-8.447793,45.05199,0,0,0,-14.33847,26.20586,-40.21181,-10.65206,-111.0334,-35.10307,0.001067912,-0.1257102,0.09433498,0,0.3,0,0,0,0
638223379654354441,-4.052313,64.96803,32.49939,-7.24506,-22.58411,43.00113,-4.570632,-0.4441859,0.1400836,-35.22471,-8.447793,45.05199,0,0,0,-9.050447,31.70767,-40.59889,-10.65206,-111.0334,-35.10307,0.001067912,-0.1257102,0.09433498,0,0.3,0,0,0,0
638223379654714325,-1.484278,66.88504,34.46056,-3.070086,-25.36743,41.38973,-4.570632,-0.4441859,0.1400836,-35.22471,-8.447793,45.05199,0,0,0,-3.310481,36.04535,-40.58809,-10.65206,-111.0334,-35.10307,0.001067912,-0.1257102,0.09433498,0,0.3,0,0,0,0
638223379655174178,2.214636,68.68517,36.7019,3.082508,-28.00425,37.94721,-4.570632,-0.4441859,0.1400836,-35.22471,-8.447793,45.05199,0,0,0,4.952828,40.66434,-40.27714,-10.65206,-111.0334,-35.10307,0.001067912,-0.1257102,0.09433498,0,0.3,0,0,0,0
638223379655524070,4.617752,69.45664,37.75253,7.550464,-29.17617,35.16389,-4.570632,-0.4441859,0.1400836,-35.22471,-8.447793,45.05199,0,0,0,10.34029,42.78501,-40.32842,-10.65206,-111.0334,-35.10307,0.001067912,-0.1257102,0.09433498,0,0.3,0,0,0,0
638223379655883949,7.609867,70.01772,38.84985,13.04385,-29.90863,30.98892,-4.570632,-0.4441859,0.1400836,-35.22471,-8.521038,45.05199,0,0,0,17.11192,44.82013,-40.27041,-10.65206,-111.0334,-35.10307,0.001067912,-0.1257102,0.09433498,0,0.3,0,0,0,0
638223379656233835,9.188385,70.18137,39.38684,15.90041,-29.98187,28.86481,-4.570632,-0.4441859,0.1400836,-35.22471,-8.447793,45.05199,0,0,0,20.73126,45.73829,-40.18674,-10.65206,-111.0334,-35.10307,0.001067912,-0.1257102,0.09433498,0,0.3,0,0,0,0
638223379656693685,13.85326,70.18137,40.41412,24.90957,-29.17617,21.61354,-4.570632,-0.4441859,0.1400836,-35.22471,-8.521038,45.12524,0,0,0,31.52494,47.27192,-40.51649,-10.65206,-111.0334,-35.10307,0.001067912,-0.1257102,0.09433498,0,0.3,0,0,0,0
638223379657063574,15.2433,70.11123,40.53086,27.54639,-28.66346,19.41618,-4.570632,-0.4441859,0.1400836,-35.22471,-8.447793,45.05199,0,0,0,34.7114,47.39283,-40.97132,-10.65206,-111.0334,-35.10307,0.001067912,-0.1257102,0.09433498,0,0.3,0,0,0,0
638223379657413656,17.74065,69.94759,40.67094,32.01435,-27.2718,15.60743,-4.570632,-0.4441859,0.1400836,-35.22471,-8.447793,45.12524,0,0,0,40.41325,47.47493,-42.02807,-10.65206,-111.0334,-35.10307,0.001067912,-0.1257102,0.09433498,0,0.3,0,0,0,0
638223379657783338,20.16733,69.59691,40.71763,35.67661,-25.58716,12.16491,-4.570632,-0.4441859,0.1400836,-35.22471,-8.447793,45.05199,0,0,0,46.01801,47.2636,-43.05627,-10.65206,-111.0334,-35.10307,0.001067912,-0.1257102,0.09433498,0,0.3,0,0,0,0
638223379658213203,23.04164,68.89557,40.71763,39.92483,-23.31656,8.429405,-4.570632,-0.4441859,0.1400836,-35.22471,-8.447793,45.05199,0,0,0,52.84043,46.68519,-44.11687,-10.65206,-111.0334,-35.10307,0.001067912,-0.1257102,0.09433498,0,0.3,0,0,0,0
638223379658553125,24.4788,68.45138,40.69429,41.90245,-22.07139,6.818012,-4.570632,-0.4441859,0.1400836,-35.22471,-8.447793,45.05199,0,0,0,56.32159,46.27378,-44.64226,-10.65206,-111.0334,-35.10307,0.001067912,-0.1257102,0.09433498,0,0.3,0,0,0,0
638223379658922984,26.34004,67.75003,40.69429,44.17305,-20.24026,5.279863,-4.570632,-0.4441859,0.1400836,-35.22471,-8.447793,45.05199,0,0,0,60.98177,45.66497,-45.17952,-10.65206,-111.0334,-35.10307,0.001067912,-0.1257102,0.09433498,0,0.3,0,0,0,0
638223379659282868,28.15415,66.88504,40.64759,46.5169,-18.1894,4.327676,-4.570632,-0.4441859,0.1400836,-35.22471,-8.447793,45.05199,0,0,0,65.68796,44.81782,-45.60675,-10.65206,-111.0334,-35.10307,0.001067912,-0.1257102,0.09433498,0,0.3,0,0,0,0
638223379659722729,30.01539,65.69276,40.27403,48.56776,-16.21178,3.66847,-4.570632,-0.4441859,0.1400836,-35.22471,-8.447793,45.05199,0,0,0,70.57989,43.13778,-46.17785,-10.65206,-111.0334,-35.10307,0.001067912,-0.1257102,0.09433498,0,0.3,0,0,0,0
638223379660092603,31.52323,64.31344,39.667,49.95942,-14.23416,3.521979,-4.570632,-0.4441859,0.1400836,-35.22471,-8.447793,45.12524,0,0,0,74.72533,40.87371,-46.52023,-10.65206,-111.0334,-35.10307,0.001067912,-0.1257102,0.09433498,0,0.3,0,0,0,0
638223379660452495,32.32427,63.4952,39.24675,50.54538,-13.20873,3.521979,-4.570632,-0.4441859,0.1400836,-35.15147,-8.447793,45.05199,0,0,0,76.93192,39.41447,-46.76978,-10.65206,-111.0334,-35.10307,0.001067912,-0.1257102,0.09433498,0,0.3,0,0,0,0
638223379660782391,34.09126,61.57819,38.12609,51.57081,-10.79164,3.521979,-4.570632,-0.4441859,0.1400836,-35.15147,-8.447793,45.05199,0,0,0,81.72199,35.72667,-47.60747,-10.65206,-111.0334,-35.10307,0.001067912,-0.1257102,0.09433498,0,0.3,0,0,0,0
638223379661242245,35.74046,59.26375,36.88868,52.23001,-7.788587,3.595225,-4.570632,-0.4441859,0.1400836,-35.15147,-8.447793,45.05199,0,0,0,86.56484,31.31443,-48.06161,-10.65206,-111.0334,-35.10307,0.001067912,-0.1257102,0.09433498,0,0.3,0,0,0,0
638223379661602123,37.3661,56.64539,35.69797,52.74273,-4.785534,3.96145,-4.570632,-0.4441859,0.1400836,-35.22471,-8.447793,45.05199,0,0,0,91.72152,26.44098,-48.236,-10.65206,-111.0334,-35.10307,0.001067912,-0.1257102,0.09433498,0,0.3,0,0,0,0
638223379661962014,39.10954,53.18541,34.43722,53.47519,-1.343012,5.133373,-4.570632,-0.4441859,0.1400836,-35.22471,-8.447793,45.05199,0,0,0,97.97459,20.12726,-47.83327,-10.65206,-111.0334,-35.10307,0.001067912,-0.1257102,0.09433498,0,0.3,0,0,0,0
638223379662321900,40.31109,49.51503,33.01303,54.13439,2.026266,6.744767,-4.570632,-0.4441859,0.1400836,-35.22471,-8.447793,45.12524,0,0,0,103.0121,12.95266,-46.93,-10.65206,-111.0334,-35.10307,0.001067912,-0.1257102,0.09433498,0,0.3,0,0,0,0
638223379662741762,41.37129,44.93291,31.14525,54.7936,6.640712,8.868877,-4.570632,-0.4441859,0.1400836,-35.22471,-8.447793,45.05199,0,0,0,107.979,3.403429,-45.74804,-10.65206,-111.0334,-35.10307,0.001067912,-0.1257102,0.09433498,0,0.3,0,0,0,0
638223379663101649,41.96029,41.58982,29.86115,55.15982,10.00999,10.11404,-4.570632,-0.4441859,0.1400836,-35.22471,-8.447793,45.05199,0,0,0,111.0768,-3.778877,-44.81467,-10.65206,-111.0334,-35.10307,0.001067912,-0.1257102,0.09433498,0,0.3,0,0,0,0
638223379663471533,42.54929,37.63891,28.57705,55.81903,14.33146,11.65219,-4.570632,-0.4441859,0.1400836,-35.22471,-8.447793,45.05199,0,0,0,114.541,-12.32,-43.56609,-10.65206,-111.0334,-35.10307,0.001067912,-0.1257102,0.09433498,0,0.3,0,0,0,0
638223379663831466,42.80845,35.58163,27.97002,56.2585,16.38232,12.38465,-4.570632,-0.4441859,0.1400836,-35.22471,-8.447793,45.05199,0,0,0,116.1991,-16.83248,-42.90351,-10.65206,-111.0334,-35.10307,0.001067912,-0.1257102,0.09433498,0,0.3,0,0,0,0
638223379664261274,43.11473,31.5372,26.63923,57.65016,20.70378,13.48332,-4.570632,-0.4441859,0.1400836,-35.22471,-8.447793,45.05199,0,0,0,118.5427,-26.09558,-41.73776,-10.65206,-111.0334,-35.10307,0.001067912,-0.1257102,0.09433498,0,0.3,0,0,0,0
638223379664621157,43.35033,27.7733,25.05162,59.84751,25.09849,13.99604,-4.570632,-0.4441859,0.1400836,-35.22471,-8.521038,45.05199,0,0,0,119.7544,-35.31763,-41.49312,-10.65206,-111.0334,-35.10307,0.001067912,-0.1257102,0.09433498,0,0.3,0,0,0,0
638223379664981195,43.56237,24.52374,22.85697,62.41109,28.46777,14.06928,-4.570632,-0.4441859,0.1400836,-35.22471,-8.447793,45.12524,0,0,0,119.3031,-44.1794,-42.90455,-10.65206,-111.0334,-35.10307,0.001067912,-0.1257102,0.09433498,0,0.3,0,0,0,0
638223379665320942,43.63305,21.81186,19.82183,64.53521,30.73837,12.89736,-4.570632,-0.4441859,0.1400836,-35.22471,-8.447793,45.12524,0,0,0,116.6313,-52.5517,-46.0164,-10.65206,-111.0334,-35.10307,0.001067912,-0.1257102,0.09433498,0,0.3,0,0,0,0
638223379665820784,43.58593,18.46878,14.66208,66.51283,32.64275,6.818012,-4.570632,-0.4441859,0.1400836,-35.22471,-8.447793,45.05199,0,0,0,110.4729,-63.41386,-52.285,-10.65206,-111.0334,-35.10307,0.001067912,-0.1257102,0.09433498,0,0.3,0,0,0,0
638223379666180669,43.46813,16.85568,11.83706,67.09879,33.22871,3.228999,-4.570632,-0.4441859,0.1400836,-35.22471,-8.447793,45.05199,0,0,0,106.6152,-68.49786,-55.87577,-10.65206,-111.0334,-35.10307,0.001067912,-0.1257102,0.09433498,0,0.3,0,0,0,0
638223379666550543,42.97337,14.91529,8.054807,66.73256,33.74142,-0.2135241,-4.570632,-0.4441859,0.1400836,-35.22471,-8.447793,45.05199,0,0,0,100.5733,-74.36138,-60.39775,-10.65206,-111.0334,-35.10307,0.001067912,-0.1257102,0.09433498,0,0.3,0,0,0,0
638223379666910435,42.03097,13.95679,4.972968,65.70713,34.0344,-3.802537,-4.570632,-0.4441859,0.1400836,-35.22471,-8.447793,45.05199,0,0,0,94.38581,-77.33534,-63.63782,-10.65206,-111.0334,-35.10307,0.001067912,-0.1257102,0.09433498,0,0.3,0,0,0,0
638223379667300304,40.92365,13.81652,2.358074,64.68169,34.1809,-6.80559,-4.570632,-0.4441859,0.1400836,-35.22471,-8.447793,45.05199,0,0,0,88.41785,-78.04131,-66.36275,-10.65206,-111.0334,-35.10307,0.001067912,-0.1257102,0.09433498,0,0.3,0,0,0,0
638223379667660186,40.38177,13.81652,1.237405,64.16898,34.0344,-7.611286,-4.570632,-0.4441859,0.1400836,-35.22471,-8.447793,45.05199,0,0,0,85.76039,-78.12313,-67.51691,-10.65206,-111.0334,-35.10307,0.001067912,-0.1257102,0.09433498,0,0.3,0,0,0,0
638223379668020078,38.85038,13.81652,-1.377489,62.70407,33.81467,-11.2003,-4.570632,-0.4441859,0.1400836,-35.22471,-8.447793,45.05199,0,0,0,79.21774,-78.11569,-70.00019,-10.65206,-111.0334,-35.10307,0.001067912,-0.1257102,0.09433498,0,0.3,0,0,0,0
638223379668389962,37.2483,13.81652,-2.591547,62.11811,33.44844,-16.69369,-4.570632,-0.4441859,0.1400836,-35.22471,-8.447793,45.05199,0,0,0,74.72794,-78.01785,-70.07172,-10.65206,-111.0334,-35.10307,0.001067912,-0.1257102,0.09433498,0,0.3,0,0,0,0
638223379668829825,34.09126,13.86327,-2.871714,61.97163,32.93573,-21.67436,-4.570632,-0.4441859,0.1400836,-35.22471,-8.447793,45.05199,0,0,0,68.8224,-77.88111,-66.66634,-10.65206,-111.0334,-35.10307,0.001067912,-0.1257102,0.09433498,0,0.3,0,0,0,0
638223379669189708,32.06511,13.91003,-2.895061,61.75189,32.86248,-22.77304,-4.570632,-0.4441859,0.1400836,-35.15147,-8.447793,45.05199,0,0,0,65.1416,-77.77274,-64.36477,-10.65206,-111.0334,-35.10307,0.001067912,-0.1257102,0.09433498,0,0.3,0,0,0,0
638223379669548600,28.60179,13.91003,-2.848366,60.21374,33.08222,-22.04058,-4.570632,-0.4441859,0.1400836,-35.22471,-8.447793,45.05199,0,0,0,58.7929,-77.77818,-60.52422,-10.65206,-111.0334,-35.10307,0.001067912,-0.1257102,0.09433498,0,0.3,0,0,0,0
638223379669908475,24.1254,13.91003,-2.358074,57.13744,34.1809,-19.33051,-4.570632,-0.4441859,0.1400836,-35.22471,-8.447793,45.05199,0,0,0,50.66386,-77.83001,-55.22409,-10.65206,-111.0334,-35.10307,0.001067912,-0.1257102,0.09433498,0,0.3,0,0,0,0
638223379670338346,18.58881,13.91003,-1.494225,52.23001,36.52474,-15.52176,-4.570632,-0.4441859,0.1400836,-35.22471,-8.447793,45.05199,0,0,0,40.15349,-77.89758,-48.95919,-10.65206,-111.0334,-35.10307,0.001067912,-0.1257102,0.09433498,0,0.3,0,0,0,0
638223379670695740,13.90038,13.91003,-0.8638488,47.10286,38.79534,-13.83713,-4.570632,-0.4441859,0.1400836,-35.22471,-8.447793,45.05199,0,0,0,30.61283,-77.92777,-44.65278,-10.65206,-111.0334,-35.10307,0.001067912,-0.1257102,0.09433498,0,0.3,0,0,0,0
638223379671055808,11.33234,13.91003,-0.6537234,43.66033,40.26024,-13.39765,-4.570632,-0.4441859,0.1400836,-35.22471,-8.447793,45.05199,0,0,0,25.13584,-77.93425,-42.92591,-10.65206,-111.0334,-35.10307,0.001067912,-0.1257102,0.09433498,0,0.3,0,0,0,0
638223379671415509,6.431869,13.91003,-0.1867781,35.67661,43.40979,-15.44852,-4.570632,-0.4441859,0.1400836,-35.22471,-8.521038,45.05199,0,0,0,14.45133,-77.94222,-40.15726,-10.65206,-111.0334,-35.10307,0.001067912,-0.1257102,0.09433498,0,0.3,0,0,0,0
638223379671845381,2.143956,13.95679,0.6537234,26.08149,46.1931,-20.94191,-4.570632,-0.4441859,0.1400836,-35.22471,-8.521038,45.05199,0,0,0,4.898314,-77.82863,-37.50698,-10.65206,-111.0334,-35.10307,0.001067912,-0.1257102,0.09433498,0,0.3,0,0,0,0
638223379672205451,-1.790557,14.30746,1.564267,15.24121,48.17072,-29.07212,-4.570632,-0.4441859,0.1400836,-35.22471,-8.447793,45.05199,0,0,0,-4.151165,-76.99616,-35.5607,-10.65206,-111.0334,-35.10307,0.001067912,-0.1257102,0.09433498,0,0.3,0,0,0,0
638223379672545160,-5.041832,14.51786,1.79774,3.66847,49.2694,-39.69267,-4.570632,-0.4441859,0.1400836,-35.22471,-8.447793,45.05199,0,0,0,-11.71265,-76.50594,-35.59023,-10.65206,-111.0334,-35.10307,0.001067912,-0.1257102,0.09433498,0,0.3,0,0,0,0
638223379672895048,-7.209348,14.33084,1.681003,-7.684532,49.41589,-51.33865,-4.570632,-0.4441859,0.1400836,-35.22471,-8.447793,45.05199,0,0,0,-16.70494,-76.93575,-36.29005,-10.65206,-111.0334,-35.10307,0.001067912,-0.1257102,0.09433498,0,0.3,0,0,0,0
638223379673395065,-8.245987,12.99828,1.214058,-18.23184,49.12291,-65.47498,-4.570632,-0.4441859,0.1400836,-35.22471,-8.447793,45.05199,0,0,0,-19.04067,-79.97674,-36.964,-10.65206,-111.0334,-35.10307,0.001067912,-0.1257102,0.09433498,0,0.3,0,0,0,0
638223379673734776,-8.104627,11.50208,1.003932,-22.18707,48.97642,-71.40782,-4.570632,-0.4441859,0.1400836,-35.22471,-8.447793,45.05199,0,0,0,-18.75168,-83.38908,-36.67002,-10.65206,-111.0334,-35.10307,0.001067912,-0.1257102,0.09433498,0,0.3,0,0,0,0
638223379674104666,-7.656987,9.023986,0.8171543,-25.19013,49.04966,-76.3885,-4.570632,-0.4441859,0.1400836,-35.15147,-8.447793,45.05199,0,0,0,-17.80133,-89.07076,-35.93998,-10.65206,-111.0334,-35.10307,0.001067912,-0.1257102,0.09433498,0,0.3,0,0,0,0
638223379674454738,-7.327148,7.644672,0.8171543,-26.06907,49.34265,-77.8534,-4.570632,-0.4441859,0.1400836,-35.15147,-8.447793,45.12524,0,0,0,-17.09812,-92.24699,-35.37819,-10.65206,-111.0334,-35.10307,0.001067912,-0.1257102,0.09433498,0,0.3,0,0,0,0
638223379674884423,-5.91355,3.927538,0.793807,-26.36205,50.95404,-79.75778,-4.570632,-0.4441859,0.1400836,-35.22471,-8.521038,45.05199,0,0,0,-13.89683,-100.8534,-34.18352,-10.65206,-111.0334,-35.10307,0.001067912,-0.1257102,0.09433498,0,0.3,0,0,0,0
638223379675244298,-5.136071,2.828763,0.793807,-25.70284,51.68649,-79.75778,-4.570632,-0.4441859,0.1400836,-35.22471,-8.447793,45.05199,0,0,0,-12.08851,-103.4062,-33.85722,-10.65206,-111.0334,-35.10307,0.001067912,-0.1257102,0.09433498,0,0.3,0,0,0,0
638223379675604178,-3.486874,1.16891,0.700418,-22.48005,52.93166,-77.1942,-4.570632,-0.4441859,0.1400836,-35.22471,-8.447793,45.05199,0,0,0,-8.207786,-107.2697,-33.64747,-10.65206,-111.0334,-35.10307,0.001067912,-0.1257102,0.09433498,0,0.3,0,0,0,0
638223379675964243,-2.379556,0.350673,0.3969035,-18.15859,53.73735,-74.1179,-4.570632,-0.4441859,0.1400836,-35.22471,-8.447793,45.12524,0,0,0,-5.574828,-109.1806,-34.19453,-10.65206,-111.0334,-35.10307,0.001067912,-0.1257102,0.09433498,0,0.3,0,0,0,0
638223379676394069,0.3769594,-0.6779679,0.6070289,-10.90732,54.17683,-66.72014,-4.570632,-0.4441859,0.1400836,-35.22471,-8.447793,45.05199,0,0,0,0.886561,-111.5704,-33.59948,-10.65206,-111.0334,-35.10307,0.001067912,-0.1257102,0.09433498,0,0.3,0,0,0,0
638223379676754014,2.544476,-0.7481025,0.793807,-4.315253,53.73735,-59.98158,-4.570632,-0.4441859,0.1400836,-35.22471,-8.447793,45.05199,0,0,0,6.00157,-111.7283,-33.29721,-10.65206,-111.0334,-35.10307,0.001067912,-0.1257102,0.09433498,0,0.3,0,0,0,0
638223379677113881,5.088952,-0.6545897,0.8638488,5.499599,51.97947,-50.67944,-4.570632,-0.4441859,0.1400836,-35.22471,-8.447793,45.05199,0,0,0,12.006,-111.5083,-33.53179,-10.65206,-111.0334,-35.10307,0.001067912,-0.1257102,0.09433498,0,0.3,0,0,0,0
638223379677453594,6.314069,-0.6545897,0.8638488,10.33378,50.7343,-46.13824,-4.570632,-0.4441859,0.1400836,-35.15147,-8.447793,45.05199,0,0,0,14.88577,-111.5083,-33.81931,-10.65206,-111.0334,-35.10307,0.001067912,-0.1257102,0.09433498,0,0.3,0,0,0,0
638223379677923447,10.2957,-0.5376987,0.8405016,24.32361,45.46065,-33.68657,-4.570632,-0.4441859,0.1400836,-35.22471,-8.447793,45.05199,0,0,0,24.182,-111.2371,-35.22831,-10.65206,-111.0334,-35.10307,0.001067912,-0.1257102,0.09433498,0,0.3,0,0,0,0
638223379678283329,12.48678,-0.1636474,0.8405016,31.50163,41.6519,-27.46073,-4.570632,-0.4441859,0.1400836,-35.22471,-8.521038,45.05199,0,0,0,29.255,-110.3665,-36.24496,-10.65206,-111.0334,-35.10307,0.001067912,-0.1257102,0.09433498,0,0.3,0,0,0,0
638223379678633394,13.64122,0.1870256,0.8405016,35.09065,39.52779,-24.45767,-4.570632,-0.4441859,0.1400836,-35.22471,-8.447793,45.12524,0,0,0,31.9106,-109.5504,-36.86135,-10.65206,-111.0334,-35.10307,0.001067912,-0.1257102,0.09433498,0,0.3,0,0,0,0
638223379678993281,15.85585,1.542961,0.8405016,41.8292,34.40063,-18.59806,-4.570632,-0.4441859,0.1400836,-35.22471,-8.447793,45.05199,0,0,0,36.95487,-106.395,-38.23851,-10.65206,-111.0334,-35.10307,0.001067912,-0.1257102,0.09433498,0,0.3,0,0,0,0
638223379679423134,17.95269,5.540634,0.9805852,48.78749,26.49015,-12.73845,-4.570632,-0.4441859,0.1400836,-35.22471,-8.447793,45.05199,0,0,0,41.61406,-97.10531,-39.91433,-10.65206,-111.0334,-35.10307,0.001067912,-0.1257102,0.09433498,0,0.3,0,0,0,0
638223379679782877,18.25897,8.042102,1.2841,51.13134,22.31518,-10.98056,-4.570632,-0.4441859,0.1400836,-35.15147,-8.447793,45.05199,0,0,0,42.30562,-91.31075,-40.12166,-10.65206,-111.0334,-35.10307,0.001067912,-0.1257102,0.09433498,0,0.3,0,0,0,0
638223379680142727,17.76421,11.82937,1.914476,53.54843,15.50338,-9.295925,-4.570632,-0.4441859,0.1400836,-35.22471,-8.447793,45.05199,0,0,0,41.18029,-82.5891,-39.8126,-10.65206,-111.0334,-35.10307,0.001067912,-0.1257102,0.09433498,0,0.3,0,0,0,0
638223379680502639,16.44485,14.75165,2.381421,54.50062,9.131048,-8.490229,-4.570632,-0.4441859,0.1400836,-35.22471,-8.447793,45.05199,0,0,0,38.07465,-75.92995,-39.35634,-10.65206,-111.0334,-35.10307,0.001067912,-0.1257102,0.09433498,0,0.3,0,0,0,0
638223379680932651,14.56006,16.9492,2.708283,54.06115,2.172756,-8.124002,-4.570632,-0.4441859,0.1400836,-35.22471,-8.447793,45.12524,0,0,0,33.65135,-70.97637,-38.79026,-10.65206,-111.0334,-35.10307,0.001067912,-0.1257102,0.09433498,0,0.3,0,0,0,0
638223379681272524,13.40562,17.53365,2.73163,53.25545,-2.368444,-7.904267,-4.570632,-0.4441859,0.1400836,-35.22471,-8.447793,45.05199,0,0,0,30.95334,-69.67467,-38.47796,-10.65206,-111.0334,-35.10307,0.001067912,-0.1257102,0.09433498,0,0.3,0,0,0,0
638223379681632490,12.93442,17.58041,2.73163,52.66949,-4.639044,-7.684532,-4.570632,-0.4441859,0.1400836,-35.22471,-8.447793,45.05199,0,0,0,29.87689,-69.57092,-38.25979,-10.65206,-111.0334,-35.10307,0.001067912,-0.1257102,0.09433498,0,0.3,0,0,0,0
638223379682002142,12.2983,17.58041,2.73163,51.57081,-7.935077,-7.318305,-4.570632,-0.4441859,0.1400836,-35.22471,-8.447793,45.05199,0,0,0,28.43077,-69.57092,-37.93611,-10.65206,-111.0334,-35.10307,0.001067912,-0.1257102,0.09433498,0,0.3,0,0,0,0
638223379682461994,11.8271,17.58041,2.73163,50.61862,-10.05919,-7.171815,-4.570632,-0.4441859,0.1400836,-35.22471,-8.447793,45.12524,0,0,0,27.3573,-69.57092,-37.70671,-10.65206,-111.0334,-35.10307,0.001067912,-0.1257102,0.09433498,0,0.3,0,0,0,0
638223379682822005,11.19098,17.55703,2.708283,49.59319,-10.93813,-7.09857,-4.570632,-0.4441859,0.1400836,-35.15147,-8.447793,45.05199,0,0,0,25.89785,-69.62537,-37.44817,-10.65206,-111.0334,-35.10307,0.001067912,-0.1257102,0.09433498,0,0.3,0,0,0,0
638223379683191766,10.08366,17.55703,2.708283,48.27478,-10.79164,-7.171815,-4.570632,-0.4441859,0.1400836,-35.22471,-8.447793,45.12524,0,0,0,23.36332,-69.62537,-36.97213,-10.65206,-111.0334,-35.10307,0.001067912,-0.1257102,0.09433498,0,0.3,0,0,0,0
638223379683551642,8.175306,17.55703,2.708283,46.07742,-9.692961,-7.538041,-4.570632,-0.4441859,0.1400836,-35.22471,-8.447793,45.05199,0,0,0,18.97535,-69.62537,-36.26698,-10.65206,-111.0334,-35.10307,0.001067912,-0.1257102,0.09433498,0,0.3,0,0,0,0
638223379683981513,4.570632,17.55703,2.708283,41.75596,-6.616664,-8.929699,-4.570632,-0.4441859,0.1400836,-35.22471,-8.447793,45.05199,0,0,0,10.63349,-69.62537,-35.33528,-10.65206,-111.0334,-35.10307,0.001067912,-0.1257102,0.09433498,0,0.3,0,0,0,0
638223379684311406,1.790557,17.55703,2.73163,38.02045,-4.126328,-10.68758,-4.570632,-0.4441859,0.1400836,-35.22471,-8.447793,45.05199,0,0,0,4.171137,-69.62279,-34.92183,-10.65206,-111.0334,-35.10307,0.001067912,-0.1257102,0.09433498,0,0.3,0,0,0,0
638223379684681280,-2.238196,17.60379,2.941756,31.79461,-0.5373149,-13.83713,-4.570632,-0.4441859,0.1400836,-35.22471,-8.447793,45.05199,0,0,0,-5.231236,-69.49485,-34.50325,-10.65206,-111.0334,-35.10307,0.001067912,-0.1257102,0.09433498,0,0.3,0,0,0,0
638223379685031172,-4.358593,17.65055,3.198575,28.13236,1.51355,-15.81474,-4.570632,-0.4441859,0.1400836,-35.22471,-8.447793,45.05199,0,0,0,-10.22277,-69.35912,-34.22618,-10.65206,-111.0334,-35.10307,0.001067912,-0.1257102,0.09433498,0,0.3,0,0,0,0
638223379685511021,-10.5313,17.79081,4.762842,14.87498,8.178861,-24.0182,-4.570632,-0.4441859,0.1400836,-35.22471,-8.447793,45.05199,0,0,0,-25.2309,-68.79543,-32.6301,-10.65206,-111.0334,-35.10307,0.001067912,-0.1257102,0.09433498,0,0.3,0,0,0,0
638223379685880899,-13.3585,17.83757,5.790122,6.671522,11.54814,-29.95106,-4.570632,-0.4441859,0.1400836,-35.22471,-8.447793,45.05199,0,0,0,-32.43678,-68.47195,-31.75585,-10.65206,-111.0334,-35.10307,0.001067912,-0.1257102,0.09433498,0,0.3,0,0,0,0
638223379686230793,-14.6543,17.83757,6.257067,2.130321,13.45251,-33.75981,-4.570632,-0.4441859,0.1400836,-35.22471,-8.447793,45.12524,0,0,0,-35.79084,-68.35791,-31.4787,-10.65206,-111.0334,-35.10307,0.001067912,-0.1257102,0.09433498,0,0.3,0,0,0,0
638223379686570686,-16.63333,17.79081,6.887444,-6.512609,16.60205,-42.03651,-4.570632,-0.4441859,0.1400836,-35.22471,-8.447793,45.05199,0,0,0,-40.92291,-68.29359,-31.36794,-10.65206,-111.0334,-35.10307,0.001067912,-0.1257102,0.09433498,0,0.3,0,0,0,0
638223379687030537,-17.88201,17.34663,6.957485,-14.13011,19.31213,-50.6062,-4.570632,-0.4441859,0.1400836,-35.22471,-8.447793,45.05199,0,0,0,-44.04379,-69.25951,-31.84127,-10.65206,-111.0334,-35.10307,0.001067912,-0.1257102,0.09433498,0,0.3,0,0,0,0
638223379687390416,-18.94221,15.17245,6.887444,-20.57568,21.87571,-58.37019,-4.570632,-0.4441859,0.1400836,-35.22471,-8.447793,45.05199,0,0,0,-46.96941,-74.13664,-31.49266,-10.65206,-111.0334,-35.10307,0.001067912,-0.1257102,0.09433498,0,0.3,0,0,0,0
638223379687750315,-19.29561,11.29167,6.770707,-25.6296,25.17174,-64.52278,-4.570632,-0.4441859,0.1400836,-35.22471,-8.447793,45.05199,0,0,0,-48.40653,-82.95959,-30.08867,-10.65206,-111.0334,-35.10307,0.001067912,-0.1257102,0.09433498,0,0.3,0,0,0,0
638223379688110194,-19.24849,6.89657,6.443846,-30.24404,29.34671,-70.45564,-4.570632,-0.4441859,0.1400836,-35.22471,-8.447793,45.12524,0,0,0,-48.57655,-93.14522,-29.23632,-10.65206,-111.0334,-35.10307,0.001067912,-0.1257102,0.09433498,0,0.3,0,0,0,0
638223379688540050,-18.65949,2.641737,5.906858,-35.07822,34.1809,-77.41393,-4.570632,-0.4441859,0.1400836,-35.22471,-8.447793,45.05199,0,0,0,-47.00975,-103.1458,-29.14166,-10.65206,-111.0334,-35.10307,0.001067912,-0.1257102,0.09433498,0,0.3,0,0,0,0
638223379688909929,-17.69353,-0.09351282,5.883511,-37.34882,37.25719,-80.78321,-4.570632,-0.4441859,0.1400836,-35.22471,-8.447793,45.05199,0,0,0,-44.68283,-109.5152,-28.28558,-10.65206,-111.0334,-35.10307,0.001067912,-0.1257102,0.09433498,0,0.3,0,0,0,0
638223379689259817,-17.10453,-1.075397,5.883511,-37.7883,38.7221,-81.51566,-4.570632,-0.4441859,0.1400836,-35.22471,-8.447793,45.05199,0,0,0,-43.23378,-111.8003,-27.85593,-10.65206,-111.0334,-35.10307,0.001067912,-0.1257102,0.09433498,0,0.3,0,0,0,0
638223379689619714,-16.06789,-1.005263,5.416566,-36.9826,40.84621,-80.78321,-4.570632,-0.4441859,0.1400836,-35.22471,-8.447793,45.05199,0,0,0,-40.38641,-111.7441,-28.13314,-10.65206,-111.0334,-35.10307,0.001067912,-0.1257102,0.09433498,0,0.3,0,0,0,0
638223379690049718,-15.07837,-1.052019,5.323177,-35.22471,41.94488,-78.14638,-4.570632,-0.4441859,0.1400836,-35.22471,-8.447793,45.12524,0,0,0,-37.90211,-111.8732,-27.66743,-10.65206,-111.0334,-35.10307,0.001067912,-0.1257102,0.09433498,0,0.3,0,0,0,0
638223379690409624,-13.85326,-1.052019,4.879579,-32.66114,42.60409,-74.63062,-4.570632,-0.4441859,0.1400836,-35.22471,-8.447793,45.05199,0,0,0,-34.63934,-111.965,-27.88764,-10.65206,-111.0334,-35.10307,0.001067912,-0.1257102,0.09433498,0,0.3,0,0,0,0
638223379690771933,-12.39254,-1.028641,3.992383,-28.99888,43.11681,-70.01617,-4.570632,-0.4441859,0.1400836,-35.15147,-8.447793,45.05199,0,0,0,-30.60588,-112.0703,-29.06,-10.65206,-111.0334,-35.10307,0.001067912,-0.1257102,0.09433498,0,0.3,0,0,0,0
638223379691141693,-10.31926,-1.028641,3.198575,-22.99277,43.48303,-62.91139,-4.570632,-0.4441859,0.1400836,-35.15147,-8.447793,45.05199,0,0,0,-25.21637,-112.1862,-29.85796,-10.65206,-111.0334,-35.10307,0.001067912,-0.1257102,0.09433498,0,0.3,0,0,0,0
638223379691571550,-7.303588,-1.005263,2.451463,-13.25116,43.04356,-52.80355,-4.570632,-0.4441859,0.1400836,-35.22471,-8.447793,45.05199,0,0,0,-17.67484,-112.2175,-30.44479,-10.65206,-111.0334,-35.10307,0.001067912,-0.1257102,0.09433498,0,0.3,0,0,0,0
638223379691931441,-5.065392,-1.005263,1.937823,-5.780157,41.94488,-45.69878,-4.570632,-0.4441859,0.1400836,-35.22471,-8.447793,45.05199,0,0,0,-12.17014,-112.2633,-31.04962,-10.65206,-111.0334,-35.10307,0.001067912,-0.1257102,0.09433498,0,0.3,0,0,0,0
638223379692301322,-1.908357,-0.9351282,1.517572,3.302244,39.82077,-37.34882,-4.570632,-0.4441859,0.1400836,-35.22471,-8.447793,45.05199,0,0,0,-4.557695,-112.1295,-31.56209,-10.65206,-111.0334,-35.10307,0.001067912,-0.1257102,0.09433498,0,0.3,0,0,0,0
638223379692661215,-0.2355996,-0.7714807,1.517572,7.91669,38.35587,-33.46683,-4.570632,-0.4441859,0.1400836,-35.22471,-8.447793,45.05199,0,0,0,-0.5628042,-111.7487,-31.48167,-10.65206,-111.0334,-35.10307,0.001067912,-0.1257102,0.09433498,0,0.3,0,0,0,0
