zeyangz2/DNN_classification_different_people_hand/data_by_names/Zeyang/zeyang_right_14.csv
Timestamp,Therapist joint angle 0,Therapist joint angle 1,Therapist joint angle 2,Therapist joint angle 3,Therapist joint angle 4,Therapist joint angle 5,Patient joint angle 0,Patient joint angle 1,Patient joint angle 2,Patient joint angle 3,Patient joint angle 4,Patient joint angle 5,Virtual joint angle 0,Virtual joint angle 1,Virtual joint angle 2,Therapist position x,Therapist position y,Therapist position z,Patient position x,Patient position y,Patient position z,Virtual position x,Virtual position y,Virtual position z,Assistive Force, Obstacle Force Magnitude, Therapist Constant Force, Patient Constant Force, Recovery Factor, Assistance Level
638224222752351278,0,0,0,0,0,0,0,0,0,0,0,0,0,0,0,0,0,0,0,0,0,0,0,0,0,0.3,0,0,0,0
638224222752471104,-14.96058,-0.9818845,-2.054559,-34.93173,-63.01544,-1.898163,49.26388,0.6779679,-12.37405,-96.38443,-11.45084,14.36226,0,0,0,-33.18565,-112.1994,-44.15769,79.38263,-105.3243,-99.98305,0.001067912,-0.1257102,0.09433498,0,0.3,0,0,0,0
638224222752810995,-14.96058,-0.9818845,-2.054559,-34.85849,-63.01544,-1.898163,49.26388,0.6779679,-12.37405,-96.38443,-11.45084,14.36226,0,0,0,-33.18565,-112.1994,-44.15769,79.38263,-105.3243,-99.98305,0.001067912,-0.1257102,0.09433498,0,0.3,0,0,6.062841E-08,0
638224222753151017,-14.96058,-0.9818845,-2.054559,-34.93173,-62.9422,-1.824918,49.26388,0.6779679,-12.37405,-96.38443,-11.45084,14.36226,0,0,0,-33.18565,-112.1994,-44.15769,79.38263,-105.3243,-99.98305,0.001067912,-0.1257102,0.09433498,0,0.3,0,0,0,0
638224222753490782,-14.96058,-0.9818845,-2.054559,-34.93173,-62.9422,-1.898163,49.26388,0.6779679,-12.37405,-96.38443,-11.45084,14.36226,0,0,0,-33.18565,-112.1994,-44.15769,79.38263,-105.3243,-99.98305,0.001067912,-0.1257102,0.09433498,0,0.3,0,0,0,0
638224222753830666,-14.96058,-0.9818845,-2.054559,-34.85849,-62.9422,-1.898163,49.26388,0.6779679,-12.37405,-96.38443,-11.45084,14.36226,0,0,0,-33.18565,-112.1994,-44.15769,79.38263,-105.3243,-99.98305,0.001067912,-0.1257102,0.09433498,0,0.3,0,0,0,0
638224222754170564,-14.96058,-0.9818845,-2.054559,-34.93173,-62.9422,-1.898163,49.26388,0.6779679,-12.37405,-96.38443,-11.45084,14.36226,0,0,0,-33.18565,-112.1994,-44.15769,79.38263,-105.3243,-99.98305,0.001067912,-0.1257102,0.09433498,0,0.3,0,0,0,0
638224222754510522,-14.96058,-0.9818845,-2.054559,-34.85849,-62.9422,-1.898163,49.26388,0.6779679,-12.37405,-96.38443,-11.45084,14.36226,0,0,0,-33.18565,-112.1994,-44.15769,79.38263,-105.3243,-99.98305,0.001067912,-0.1257102,0.09433498,0,0.3,0,0,0,0
638224222754860334,-14.96058,-0.9818845,-2.054559,-34.85849,-63.01544,-1.898163,49.26388,0.6779679,-12.37405,-96.38443,-11.45084,14.36226,0,0,0,-33.18565,-112.1994,-44.15769,79.38263,-105.3243,-99.98305,0.001067912,-0.1257102,0.09433498,0,0.3,0,0,0,0
638224222755190238,-14.96058,-0.9818845,-2.054559,-34.85849,-62.9422,-1.824918,49.26388,0.6779679,-12.37405,-96.38443,-11.45084,14.36226,0,0,0,-33.18565,-112.1994,-44.15769,79.38263,-105.3243,-99.98305,0.001067912,-0.1257102,0.09433498,0,0.3,0,0,0,0
638224222755540125,-14.96058,-0.9818845,-2.054559,-34.93173,-63.01544,-1.898163,49.26388,0.6779679,-12.37405,-96.38443,-11.45084,14.36226,0,0,0,-33.18565,-112.1994,-44.15769,79.38263,-105.3243,-99.98305,0.001067912,-0.1257102,0.09433498,0,0.3,0,0,0,0
638224222755870021,-14.96058,-0.9818845,-2.054559,-34.93173,-63.01544,-1.898163,49.26388,0.6779679,-12.37405,-96.38443,-11.45084,14.36226,0,0,0,-33.18565,-112.1994,-44.15769,79.38263,-105.3243,-99.98305,0.001067912,-0.1257102,0.09433498,0,0.3,0,0,0,0
638224222756219910,-14.96058,-0.9818845,-2.054559,-34.85849,-62.9422,-1.898163,49.26388,0.6779679,-12.37405,-96.38443,-11.45084,14.36226,0,0,0,-33.18565,-112.1994,-44.15769,79.38263,-105.3243,-99.98305,0.001067912,-0.1257102,0.09433498,0,0.3,0,0,0,0
638224222756559801,-14.96058,-0.9818845,-2.054559,-34.93173,-62.9422,-1.824918,49.26388,0.6779679,-12.37405,-96.38443,-11.45084,14.36226,0,0,0,-33.18565,-112.1994,-44.15769,79.38263,-105.3243,-99.98305,0.001067912,-0.1257102,0.09433498,0,0.3,0,0,0,0
638224222756899693,-14.96058,-0.9818845,-2.054559,-34.85849,-62.9422,-1.898163,49.26388,0.6779679,-12.37405,-96.38443,-11.45084,14.36226,0,0,0,-33.18565,-112.1994,-44.15769,79.38263,-105.3243,-99.98305,0.001067912,-0.1257102,0.09433498,0,0.3,0,0,0,0
638224222757239587,-14.96058,-0.9818845,-2.054559,-34.93173,-62.9422,-1.898163,49.26388,0.6779679,-12.37405,-96.38443,-11.45084,14.36226,0,0,0,-33.18565,-112.1994,-44.15769,79.38263,-105.3243,-99.98305,0.001067912,-0.1257102,0.09433498,0,0.3,0,0,0,0
638224222757579480,-14.96058,-0.9818845,-2.054559,-34.85849,-62.9422,-1.898163,49.26388,0.6779679,-12.37405,-96.38443,-11.45084,14.36226,0,0,0,-33.18565,-112.1994,-44.15769,79.38263,-105.3243,-99.98305,0.001067912,-0.1257102,0.09433498,0,0.3,0,0,0,0
638224222757919357,-14.96058,-0.9818845,-2.054559,-34.93173,-63.01544,-1.898163,49.26388,0.6779679,-12.37405,-96.38443,-11.45084,14.36226,0,0,0,-33.18565,-112.1994,-44.15769,79.38263,-105.3243,-99.98305,0.001067912,-0.1257102,0.09433498,0,0.3,0,0,0,0
638224222758259255,-14.96058,-0.9818845,-2.054559,-34.85849,-63.01544,-1.898163,49.26388,0.6779679,-12.37405,-96.38443,-11.45084,14.36226,0,0,0,-33.18565,-112.1994,-44.15769,79.38263,-105.3243,-99.98305,0.001067912,-0.1257102,0.09433498,0,0.3,0,0,0,0
638224222758599142,-14.96058,-0.9818845,-2.054559,-34.93173,-63.01544,-1.898163,49.26388,0.6779679,-12.37405,-96.38443,-11.45084,14.36226,0,0,0,-33.18565,-112.1994,-44.15769,79.38263,-105.3243,-99.98305,0.001067912,-0.1257102,0.09433498,0,0.3,0,0,0,0
638224222758929036,-14.96058,-0.9818845,-2.054559,-34.85849,-63.01544,-1.898163,49.26388,0.6779679,-12.37405,-96.38443,-11.45084,14.36226,0,0,0,-33.18565,-112.1994,-44.15769,79.38263,-105.3243,-99.98305,0.001067912,-0.1257102,0.09433498,0,0.3,0,0,0,0
638224222759268939,-14.96058,-0.9818845,-2.054559,-34.93173,-62.9422,-1.898163,49.26388,0.6779679,-12.37405,-96.38443,-11.45084,14.36226,0,0,0,-33.18565,-112.1994,-44.15769,79.38263,-105.3243,-99.98305,0.001067912,-0.1257102,0.09433498,0,0.3,0,0,1.212568E-07,0
638224222759608820,-14.96058,-0.9818845,-2.054559,-34.93173,-62.9422,-1.898163,49.26388,0.6779679,-12.37405,-96.38443,-11.45084,14.36226,0,0,0,-33.18565,-112.1994,-44.15769,79.38263,-105.3243,-99.98305,0.001067912,-0.1257102,0.09433498,0,0.3,0,0,1.212568E-07,0
638224222759948709,-14.96058,-0.9818845,-2.054559,-34.93173,-63.01544,-1.898163,49.26388,0.6779679,-12.37405,-96.38443,-11.45084,14.36226,0,0,0,-33.18565,-112.1994,-44.15769,79.38263,-105.3243,-99.98305,0.001067912,-0.1257102,0.09433498,0,0.3,0,0,2.425136E-07,0
638224222760288611,-14.96058,-0.9818845,-2.054559,-34.93173,-62.9422,-1.898163,49.26388,0.6779679,-12.37405,-96.38443,-11.45084,14.36226,0,0,0,-33.18565,-112.1994,-44.15769,79.38263,-105.3243,-99.98305,0.001067912,-0.1257102,0.09433498,0,0.3,0,0,3.03142E-07,0
638224222760628502,-14.96058,-0.9818845,-2.054559,-34.85849,-62.9422,-1.898163,49.26388,0.6779679,-12.37405,-96.38443,-11.52409,14.36226,0,0,0,-33.18565,-112.1994,-44.15769,79.38263,-105.3243,-99.98305,0.001067912,-0.1257102,0.09433498,0,0.3,0,0,3.637705E-07,0
638224222760968395,-14.96058,-0.9818845,-2.054559,-34.85849,-62.9422,-1.824918,49.26388,0.6779679,-12.37405,-96.38443,-11.45084,14.36226,0,0,0,-33.18565,-112.1994,-44.15769,79.38263,-105.3243,-99.98305,0.001067912,-0.1257102,0.09433498,0,0.3,0,0,4.243988E-07,0
638224222761308284,-14.96058,-0.9818845,-2.054559,-34.85849,-63.01544,-1.898163,49.26388,0.6779679,-12.37405,-96.38443,-11.45084,14.36226,0,0,0,-33.18565,-112.1994,-44.15769,79.38263,-105.3243,-99.98305,0.001067912,-0.1257102,0.09433498,0,0.3,0,0,4.850273E-07,0
638224222761638179,-14.96058,-0.9818845,-2.054559,-34.85849,-63.01544,-1.824918,49.26388,0.6779679,-12.37405,-96.38443,-11.45084,14.36226,0,0,0,-33.18565,-112.1994,-44.15769,79.38263,-105.3243,-99.98305,0.001067912,-0.1257102,0.09433498,0,0.3,0,0,5.456557E-07,0
638224222761978071,-14.96058,-0.9818845,-2.054559,-34.93173,-63.01544,-1.898163,49.26388,0.6779679,-12.37405,-96.38443,-11.45084,14.36226,0,0,0,-33.18565,-112.1994,-44.15769,79.38263,-105.3243,-99.98305,0.001067912,-0.1257102,0.09433498,0,0.3,0,0,5.456557E-07,0
638224222762317963,-14.96058,-0.9818845,-2.054559,-34.93173,-63.01544,-1.898163,49.26388,0.6779679,-12.37405,-96.38443,-11.45084,14.36226,0,0,0,-33.18565,-112.1994,-44.15769,79.38263,-105.3243,-99.98305,0.001067912,-0.1257102,0.09433498,0,0.3,0,0,6.062841E-07,0
638224222762647857,-14.96058,-0.9818845,-2.054559,-34.85849,-63.01544,-1.824918,49.26388,0.6779679,-12.37405,-96.38443,-11.45084,14.36226,0,0,0,-33.18565,-112.1994,-44.15769,79.38263,-105.3243,-99.98305,0.001067912,-0.1257102,0.09433498,0,0.3,0,0,6.669125E-07,0
638224222762997747,-14.96058,-0.9818845,-2.054559,-34.93173,-62.9422,-1.824918,49.26388,0.6779679,-12.37405,-96.38443,-11.45084,14.36226,0,0,0,-33.18565,-112.1994,-44.15769,79.38263,-105.3243,-99.98305,0.001067912,-0.1257102,0.09433498,0,0.3,0,0,6.669125E-07,0
638224222763327640,-14.96058,-0.9818845,-2.054559,-34.85849,-62.9422,-1.898163,49.26388,0.6779679,-12.37405,-96.38443,-11.45084,14.36226,0,0,0,-33.18565,-112.1994,-44.15769,79.38263,-105.3243,-99.98305,0.001067912,-0.1257102,0.09433498,0,0.3,0,0,7.275409E-07,0
638224222763667533,-14.96058,-0.9818845,-2.054559,-34.93173,-63.01544,-1.898163,49.26388,0.6779679,-12.37405,-96.38443,-11.45084,14.36226,0,0,0,-33.18565,-112.1994,-44.15769,79.38263,-105.3243,-99.98305,0.001067912,-0.1257102,0.09433498,0,0.3,0,0,7.275409E-07,0
638224222764007422,-14.96058,-0.9818845,-2.054559,-34.85849,-63.01544,-1.898163,49.26388,0.6779679,-12.37405,-96.38443,-11.52409,14.36226,0,0,0,-33.18565,-112.1994,-44.15769,79.38263,-105.3243,-99.98305,0.001067912,-0.1257102,0.09433498,0,0.3,0,0,7.881693E-07,0
638224222764347317,-14.96058,-0.9818845,-2.054559,-34.85849,-62.9422,-1.898163,49.26388,0.6779679,-12.37405,-96.38443,-11.45084,14.36226,0,0,0,-33.18565,-112.1994,-44.15769,79.38263,-105.3243,-99.98305,0.001067912,-0.1257102,0.09433498,0,0.3,0,0,7.881693E-07,0
638224222764687207,-14.96058,-0.9818845,-2.054559,-34.85849,-62.9422,-1.824918,49.26388,0.6779679,-12.37405,-96.38443,-11.45084,14.36226,0,0,0,-33.18565,-112.1994,-44.15769,79.38263,-105.3243,-99.98305,0.001067912,-0.1257102,0.09433498,0,0.3,0,0,8.487977E-07,0
638224222765037101,-14.96058,-0.9818845,-2.054559,-34.85849,-62.9422,-1.898163,49.26388,0.6779679,-12.37405,-96.38443,-11.45084,14.36226,0,0,0,-33.18565,-112.1994,-44.15769,79.38263,-105.3243,-99.98305,0.001067912,-0.1257102,0.09433498,0,0.3,0,0,8.487977E-07,0
638224222765376987,-14.96058,-0.9818845,-2.054559,-34.93173,-63.01544,-1.898163,49.26388,0.6779679,-12.37405,-96.38443,-11.45084,14.36226,0,0,0,-33.18565,-112.1994,-44.15769,79.38263,-105.3243,-99.98305,0.001067912,-0.1257102,0.09433498,0,0.3,0,0,8.487977E-07,0
638224222765706875,-14.96058,-0.9818845,-2.054559,-34.93173,-62.9422,-1.898163,49.26388,0.6779679,-12.37405,-96.38443,-11.45084,14.36226,0,0,0,-33.18565,-112.1994,-44.15769,79.38263,-105.3243,-99.98305,0.001067912,-0.1257102,0.09433498,0,0.3,0,0,7.881693E-07,0
638224222766046776,-14.96058,-0.9818845,-2.054559,-34.93173,-63.01544,-1.898163,49.26388,0.6779679,-12.37405,-96.38443,-11.45084,14.36226,0,0,0,-33.18565,-112.1994,-44.15769,79.38263,-105.3243,-99.98305,0.001067912,-0.1257102,0.09433498,0,0.3,0,0,7.275409E-07,0
638224222766376805,-14.96058,-0.9818845,-2.054559,-34.93173,-63.01544,-1.898163,49.26388,0.6779679,-12.37405,-96.38443,-11.52409,14.36226,0,0,0,-33.18565,-112.1994,-44.15769,79.38263,-105.3243,-99.98305,0.001067912,-0.1257102,0.09433498,0,0.3,0,0,6.669125E-07,0
638224222766726556,-14.96058,-0.9818845,-2.054559,-34.93173,-62.9422,-1.898163,49.26388,0.6779679,-12.37405,-96.38443,-11.45084,14.36226,0,0,0,-33.18565,-112.1994,-44.15769,79.38263,-105.3243,-99.98305,0.001067912,-0.1257102,0.09433498,0,0.3,0,0,6.062841E-07,0
638224222767066619,-14.96058,-0.9818845,-2.054559,-34.85849,-62.9422,-1.898163,49.26388,0.6779679,-12.37405,-96.38443,-11.45084,14.36226,0,0,0,-33.18565,-112.1994,-44.15769,79.38263,-105.3243,-99.98305,0.001067912,-0.1257102,0.09433498,0,0.3,0,0,5.456557E-07,0
638224222767406338,-14.96058,-0.9818845,-2.054559,-34.85849,-63.01544,-1.898163,49.26388,0.6779679,-12.37405,-96.38443,-11.45084,14.36226,0,0,0,-33.18565,-112.1994,-44.15769,79.38263,-105.3243,-99.98305,0.001067912,-0.1257102,0.09433498,0,0.3,0,0,4.850273E-07,0
638224222767756223,-14.96058,-0.9818845,-2.054559,-34.85849,-63.01544,-1.898163,49.26388,0.6779679,-12.37405,-96.38443,-11.45084,14.36226,0,0,0,-33.18565,-112.1994,-44.15769,79.38263,-105.3243,-99.98305,0.001067912,-0.1257102,0.09433498,0,0.3,0,0,4.243988E-07,0
638224222768086127,-14.93702,-0.9818845,-2.054559,-34.93173,-62.9422,-1.824918,49.26388,0.6779679,-12.37405,-96.38443,-11.45084,14.36226,0,0,0,-33.13458,-112.1994,-44.14405,79.38263,-105.3243,-99.98305,0.001067912,-0.1257102,0.09433498,0,0.3,0,0,4.365245E-06,0
638224222768446000,-14.93702,-0.9818845,-2.054559,-35.95716,-61.77028,-1.458692,49.26388,0.6779679,-12.37405,-96.38443,-11.45084,14.36226,0,0,0,-33.13458,-112.1994,-44.14405,79.38263,-105.3243,-99.98305,0.001067912,-0.1257102,0.09433498,0,0.3,0,0,1.19438E-05,0
638224222768775896,-14.93702,-0.9818845,-2.054559,-36.54313,-60.81809,-1.678428,49.26388,0.6779679,-12.37405,-96.38443,-11.45084,14.36226,0,0,0,-33.13458,-112.1994,-44.14405,79.38263,-105.3243,-99.98305,0.001067912,-0.1257102,0.09433498,0,0.3,0,0,1.55815E-05,0
638224222769115794,-14.93702,-0.9818845,-2.054559,-35.95716,-58.98696,-4.168763,49.26388,0.6779679,-12.37405,-96.38443,-11.45084,14.36226,0,0,0,-33.13458,-112.1994,-44.14405,79.38263,-105.3243,-99.98305,0.001067912,-0.1257102,0.09433498,0,0.3,0,0,2.267503E-05,0
638224222769455686,-14.93702,-0.8883717,-2.054559,-34.05279,-56.9361,-7.538041,49.26388,0.6779679,-12.37405,-96.38443,-11.45084,14.36226,0,0,0,-33.1355,-111.9818,-44.14062,79.38263,-105.3243,-99.98305,0.001067912,-0.1257102,0.09433498,0,0.3,0,0,3.043546E-05,0
638224222769795576,-14.93702,-0.7714807,-2.077907,-32.88087,-55.61768,-8.929699,49.26388,0.6779679,-12.37405,-96.38443,-11.45084,14.36226,0,0,0,-33.12252,-111.7078,-44.18928,79.38263,-105.3243,-99.98305,0.001067912,-0.1257102,0.09433498,0,0.3,0,0,3.874155E-05,0
638224222770135608,-14.98414,-0.3740513,-2.077907,-30.68352,-52.2484,-10.90732,49.26388,0.6779679,-12.37405,-96.38443,-11.52409,14.36226,0,0,0,-33.22701,-110.7829,-44.20763,79.38263,-105.3243,-99.98305,0.001067912,-0.1257102,0.09433498,0,0.3,0,0,4.935153E-05,0
638224222770485358,-15.05481,-0.1402692,-2.147949,-29.14537,-48.21992,-12.44547,49.26388,0.6779679,-12.37405,-96.38443,-11.45084,14.36226,0,0,0,-33.33844,-110.2328,-44.40367,79.38263,-105.3243,-99.98305,0.001067912,-0.1257102,0.09433498,0,0.3,0,0,5.608128E-05,0
638224222770835247,-15.10193,-0.0233782,-2.918408,-27.82695,-43.38574,-11.85951,49.26388,0.6779679,-12.37405,-96.38443,-11.45084,14.36226,0,0,0,-32.97374,-109.8815,-46.16029,79.38263,-105.3243,-99.98305,0.001067912,-0.1257102,0.09433498,0,0.3,0,0,0.0001869174,0
638224222771175227,-15.10193,-0.0233782,-3.642174,-27.0945,-40.82215,-10.54109,49.26388,0.6779679,-12.37405,-96.38443,-11.45084,14.36226,0,0,0,-32.53559,-109.7851,-47.78392,79.38263,-105.3243,-99.98305,0.001067912,-0.1257102,0.09433498,0,0.3,0,0,0.0003744411,0
638224222771515029,-15.10193,-0.04675641,-5.276482,-25.48311,-34.52307,-7.24506,49.26388,0.6779679,-12.37405,-96.38443,-11.45084,14.36226,0,0,0,-31.54762,-109.5438,-51.44503,79.38263,-105.3243,-99.98305,0.001067912,-0.1257102,0.09433498,0,0.3,0,0,0.00103814,0
638224222771844922,-15.10193,-0.116891,-6.700665,-24.16469,-27.78452,-3.070086,49.26388,0.6779679,-12.37405,-96.38443,-11.45084,14.36226,0,0,0,-30.6887,-109.3612,-54.62788,79.38263,-105.3243,-99.98305,0.001067912,-0.1257102,0.09433498,0,0.3,0,0,0.002021594,0
638224222772184813,-15.10193,-0.2104038,-7.050874,-23.43224,-23.60954,0.5921727,49.26388,0.6779679,-12.37405,-96.38443,-11.45084,14.36226,0,0,0,-30.47771,-109.4812,-55.40974,79.38263,-105.3243,-99.98305,0.001067912,-0.1257102,0.09433498,0,0.3,0,0,0.002574161,0
638224222772534703,-15.10193,-0.350673,-7.167611,-22.33356,-16.21178,6.378541,49.26388,0.6779679,-12.37405,-96.38443,-11.45084,14.36226,0,0,0,-30.40705,-109.7741,-55.67158,79.38263,-105.3243,-99.98305,0.001067912,-0.1257102,0.09433498,0,0.3,0,0,0.003665715,0
638224222772864594,-15.10193,-0.3740513,-7.167611,-21.45462,-9.326735,10.18729,49.26388,0.6779679,-12.37405,-96.38443,-11.45084,14.36226,0,0,0,-30.40696,-109.8285,-55.67191,79.38263,-105.3243,-99.98305,0.001067912,-0.1257102,0.09433498,0,0.3,0,0,0.00471974,0
638224222773214486,-15.10193,-0.3974294,-7.167611,-20.94191,-6.470173,11.35921,49.26388,0.6779679,-12.37405,-96.38443,-11.45084,14.36226,0,0,0,-30.40687,-109.8829,-55.67226,79.38263,-105.3243,-99.98305,0.001067912,-0.1257102,0.09433498,0,0.3,0,0,0.005231565,0
638224222773554376,-15.10193,-0.5143204,-7.307694,-19.62349,-1.269767,11.94517,49.26388,0.6779679,-12.37405,-96.38443,-11.45084,14.36226,0,0,0,-30.32204,-110.1139,-55.98661,79.38263,-105.3243,-99.98305,0.001067912,-0.1257102,0.09433498,0,0.3,0,0,0.006249879,0
638224222773894268,-15.10193,-0.6312115,-7.401083,-18.37833,3.78415,10.70001,49.26388,0.6779679,-12.37405,-96.38443,-11.52409,14.36226,0,0,0,-30.26517,-110.3581,-56.19736,79.38263,-105.3243,-99.98305,0.001067912,-0.1257102,0.09433498,0,0.3,0,0,0.00724849,0
638224222774234161,-15.10193,-0.7481025,-7.517819,-17.49938,8.178861,8.649141,49.26388,0.6779679,-12.37405,-96.38443,-11.45084,14.36226,0,0,0,-30.19413,-110.5948,-56.46061,79.38263,-105.3243,-99.98305,0.001067912,-0.1257102,0.09433498,0,0.3,0,0,0.008232792,0
638224222774574052,-15.10193,-0.8182371,-7.611208,-17.2064,10.59595,7.91669,49.26388,0.6779679,-12.37405,-96.38443,-11.45084,14.36226,0,0,0,-30.13741,-110.7294,-56.67079,79.38263,-105.3243,-99.98305,0.001067912,-0.1257102,0.09433498,0,0.3,0,0,0.00872273,0
638224222774903951,-15.10193,-0.9585064,-7.751292,-16.98667,14.99066,7.477218,49.26388,0.6779679,-12.37405,-96.38443,-11.45084,14.36226,0,0,0,-30.05191,-111.0123,-56.98762,79.38263,-105.3243,-99.98305,0.001067912,-0.1257102,0.09433498,0,0.3,0,0,0.009700485,0
638224222775233845,-15.10193,-0.9585064,-7.77464,-17.42614,18.87265,7.770199,49.26388,0.6779679,-12.37405,-96.38443,-11.45084,14.36226,0,0,0,-30.03788,-111.0049,-57.0396,79.38263,-105.3243,-99.98305,0.001067912,-0.1257102,0.09433498,0,0.3,0,0,0.01065065,0
638224222775583731,-15.10193,-0.9585064,-7.77464,-18.08535,20.55729,7.989935,49.26388,0.6779679,-12.37405,-96.38443,-11.45084,14.36226,0,0,0,-30.03788,-111.0049,-57.0396,79.38263,-105.3243,-99.98305,0.001067912,-0.1257102,0.09433498,0,0.3,0,0,0.01111361,0
638224222775913189,-15.10193,-0.9585064,-7.77464,-19.91648,22.90114,8.136425,49.26388,0.6779679,-12.37405,-96.38443,-11.45084,14.36226,0,0,0,-30.03788,-111.0049,-57.0396,79.38263,-105.3243,-99.98305,0.001067912,-0.1257102,0.09433498,0,0.3,0,0,0.01201613,0
638224222776253084,-15.10193,-0.9585064,-7.77464,-22.33356,23.19412,8.136425,49.26388,0.6779679,-12.37405,-96.38443,-11.45084,14.36226,0,0,0,-30.03788,-111.0049,-57.0396,79.38263,-105.3243,-99.98305,0.001067912,-0.1257102,0.09433498,0,0.3,0,0,0.01288881,0
638224222776592966,-15.10193,-0.9585064,-7.77464,-23.65198,22.82789,8.136425,49.26388,0.6779679,-12.37405,-96.38443,-11.45084,14.36226,0,0,0,-30.03788,-111.0049,-57.0396,79.38263,-105.3243,-99.98305,0.001067912,-0.1257102,0.09433498,0,0.3,0,0,0.01331442,0
638224222776932858,-15.07837,-0.9818845,-7.868029,-25.6296,22.31518,6.598277,49.26388,0.6779679,-12.37405,-96.38443,-11.52409,14.36226,0,0,0,-29.93585,-111.0298,-57.23606,79.38263,-105.3243,-99.98305,0.001067912,-0.1257102,0.09433498,0,0.3,0,0,0.01416377,0
638224222777272762,-15.07837,-0.9818845,-8.124848,-26.87477,22.16869,5.426354,49.26388,0.6779679,-12.37405,-96.38443,-11.45084,14.36226,0,0,0,-29.78188,-110.9466,-57.80759,79.38263,-105.3243,-99.98305,0.001067912,-0.1257102,0.09433498,0,0.3,0,0,0.01502105,0
638224222777602684,-15.07837,-0.9818845,-8.101501,-27.16775,22.24193,5.133373,49.26388,0.6779679,-12.37405,-96.38443,-11.45084,14.36226,0,0,0,-29.79587,-110.9543,-57.75565,79.38263,-105.3243,-99.98305,0.001067912,-0.1257102,0.09433498,0,0.3,0,0,0.01544357,0
638224222777942667,-15.07837,-0.9351282,-8.124848,-27.53397,22.46167,4.913638,49.26388,0.6779679,-12.37405,-96.38443,-11.45084,14.36226,0,0,0,-29.78235,-110.8378,-57.80584,79.38263,-105.3243,-99.98305,0.001067912,-0.1257102,0.09433498,0,0.3,0,0,0.01627127,0
638224222778282425,-15.07837,-0.7948589,-8.124848,-28.11993,23.12087,6.232051,49.26388,0.6779679,-12.37405,-96.38443,-11.45084,14.36226,0,0,0,-29.78363,-110.5114,-57.80108,79.38263,-105.3243,-99.98305,0.001067912,-0.1257102,0.09433498,0,0.3,0,0,0.01707684,0
638224222778632330,-15.07837,-0.350673,-7.891376,-28.92563,23.78008,8.649141,49.26388,0.6779679,-12.37405,-96.38443,-11.45084,14.36226,0,0,0,-29.9263,-109.5533,-57.27154,79.38263,-105.3243,-99.98305,0.001067912,-0.1257102,0.09433498,0,0.3,0,0,0.01784628,0
638224222778961076,-15.03126,-0.07013461,-7.634556,-29.51159,24.07306,10.18729,49.26388,0.6779679,-12.37405,-96.38443,-11.45084,14.36226,0,0,0,-29.98915,-108.9812,-56.67267,79.38263,-105.3243,-99.98305,0.001067912,-0.1257102,0.09433498,0,0.3,0,0,0.01819628,0
638224222779300969,-14.46582,0.5376987,-7.00418,-31.19623,24.43929,12.53114,49.26388,0.6779679,-12.37405,-96.38443,-11.45084,14.36226,0,0,0,-29.24766,-107.7534,-54.97871,79.38263,-105.3243,-99.98305,0.001067912,-0.1257102,0.09433498,0,0.3,0,0,0.01888557,0
638224222779640867,-13.0051,1.683231,-5.743428,-32.66114,24.73227,13.84955,49.26388,0.6779679,-12.37405,-96.38443,-11.45084,14.36226,0,0,0,-26.99274,-105.4136,-51.47905,79.38263,-105.3243,-99.98305,0.001067912,-0.1257102,0.09433498,0,0.3,0,0,0.01961068,0
638224222779979261,-12.1805,2.431333,-5.183093,-32.88087,24.80551,14.21577,49.26388,0.6779679,-12.37405,-96.38443,-11.45084,14.36226,0,0,0,-25.56872,-103.7978,-49.89482,79.38263,-105.3243,-99.98305,0.001067912,-0.1257102,0.09433498,0,0.3,0,0,0.02001489,0
638224222780319138,-10.22502,4.324967,-3.992383,-32.4414,24.36604,14.72849,49.26388,0.6779679,-12.37405,-96.38443,-11.45084,14.36226,0,0,0,-21.95605,-99.62004,-46.62843,79.38263,-105.3243,-99.98305,0.001067912,-0.1257102,0.09433498,0,0.3,0,0,0.02094214,0
638224222780659038,-8.245987,6.616032,-2.871714,-31.56245,23.63359,14.36226,49.26388,0.6779679,-12.37405,-96.38443,-11.45084,14.36226,0,0,0,-18.03995,-94.46861,-43.86925,79.38263,-105.3243,-99.98305,0.001067912,-0.1257102,0.09433498,0,0.3,0,0,0.0220334,0
638224222780998929,-7.303588,7.761563,-2.428116,-31.12299,23.26737,13.55657,49.26388,0.6779679,-12.37405,-96.38443,-11.45084,14.36226,0,0,0,-16.07884,-91.87124,-42.89735,79.38263,-105.3243,-99.98305,0.001067912,-0.1257102,0.09433498,0,0.3,0,0,0.02264192,0
638224222781338822,-5.277431,9.585063,-1.984518,-30.1708,22.38842,10.48027,49.26388,0.6779679,-12.37405,-96.38443,-11.45084,14.36226,0,0,0,-11.66934,-87.71568,-42.01727,79.38263,-105.3243,-99.98305,0.001067912,-0.1257102,0.09433498,0,0.3,0,0,0.02404808,0
638224222781678704,-2.827195,11.50208,-1.821087,-28.63265,21.65597,7.037747,49.26388,0.6779679,-12.37405,-96.38443,-11.45084,14.36226,0,0,0,-6.236227,-83.3422,-42.06957,79.38263,-105.3243,-99.98305,0.001067912,-0.1257102,0.09433498,0,0.3,0,0,0.0257912,0
638224222782028641,-0.2827196,14.07368,-1.564267,-26.65503,20.77703,4.620657,49.26388,0.6779679,-12.37405,-96.38443,-11.52409,14.36226,0,0,0,-0.620285,-77.52366,-42.64441,79.38263,-105.3243,-99.98305,0.001067912,-0.1257102,0.09433498,0,0.3,0,0,0.02785706,0
638224222782368527,0.8481586,15.38286,-1.400836,-25.48311,20.26431,3.302244,49.26388,0.6779679,-12.37405,-96.38443,-11.45084,14.36226,0,0,0,1.957324,-74.42934,-43.09595,79.38263,-105.3243,-99.98305,0.001067912,-0.1257102,0.09433498,0,0.3,0,0,0.0289839,0
638224222782698430,2.897875,18.16486,-0.9105434,-23.13926,18.72616,-0.0670338,49.26388,0.6779679,-12.37405,-96.38443,-11.52409,14.36226,0,0,0,6.298516,-68.411,-43.92413,79.38263,-105.3243,-99.98305,0.001067912,-0.1257102,0.09433498,0,0.3,0,0,0.03133288,0
638224222783038319,4.688432,20.61958,-0.2568199,-21.0884,17.18801,-3.436311,49.26388,0.6779679,-12.37405,-96.38443,-11.45084,14.36226,0,0,0,10.15257,-63.03793,-44.55584,79.38263,-105.3243,-99.98305,0.001067912,-0.1257102,0.09433498,0,0.3,0,0,0.03373456,0
638224222783368208,5.701511,21.95213,0.2101254,-19.91648,16.30907,-4.901215,49.26388,0.6779679,-12.37405,-96.38443,-11.52409,14.36226,0,0,0,12.33586,-60.14862,-44.79358,79.38263,-105.3243,-99.98305,0.001067912,-0.1257102,0.09433498,0,0.3,0,0,0.03494221,0
638224222783708107,7.492068,24.57049,1.354141,-17.64587,14.91741,-7.025325,49.26388,0.6779679,-12.37405,-96.38443,-11.45084,14.36226,0,0,0,16.22384,-54.51417,-44.9857,79.38263,-105.3243,-99.98305,0.001067912,-0.1257102,0.09433498,0,0.3,0,0,0.0373123,0
638224222784047999,8.952785,27.21223,2.451463,-15.7415,13.45251,-9.36917,49.26388,0.6779679,-12.37405,-96.38443,-11.45084,14.36226,0,0,0,19.34276,-48.89864,-45.56984,79.38263,-105.3243,-99.98305,0.001067912,-0.1257102,0.09433498,0,0.3,0,0,0.03955755,0
638224222784387884,9.659584,28.49803,3.105186,-14.86256,12.72006,-10.61434,49.26388,0.6779679,-12.37405,-96.38443,-11.45084,14.36226,0,0,0,20.87625,-46.17912,-45.69805,79.38263,-105.3243,-99.98305,0.001067912,-0.1257102,0.09433498,0,0.3,0,0,0.04061988,0
638224222784727779,10.90826,31.2099,4.576064,-12.88494,10.96218,-13.4709,49.26388,0.6779679,-12.37405,-96.38443,-11.45084,14.36226,0,0,0,23.59594,-40.47631,-45.91309,79.38263,-105.3243,-99.98305,0.001067912,-0.1257102,0.09433498,0,0.3,0,0,0.04257909,0
638224222785057674,11.63862,34.34258,6.443846,-11.34679,8.838067,-16.47395,49.26388,0.6779679,-12.37405,-96.38443,-11.45084,14.36226,0,0,0,25.23142,-33.92949,-45.85139,79.38263,-105.3243,-99.98305,0.001067912,-0.1257102,0.09433498,0,0.3,0,0,0.0441969,0
638224222785407563,11.89778,36.51675,7.77464,-10.54109,7.299919,-17.79236,49.26388,0.6779679,-12.37405,-96.38443,-11.45084,14.36226,0,0,0,25.81414,-29.42326,-45.82959,79.38263,-105.3243,-99.98305,0.001067912,-0.1257102,0.09433498,0,0.3,0,0,0.04480706,0
638224222785747451,12.08626,39.43903,9.455643,-9.881886,5.029318,-19.03753,49.26388,0.6779679,-12.37405,-96.38443,-11.52409,14.36226,0,0,0,26.15073,-23.4767,-46.22485,79.38263,-105.3243,-99.98305,0.001067912,-0.1257102,0.09433498,0,0.3,0,0,0.04573601,0
638224222786087347,12.08626,42.4782,10.83313,-9.588906,2.392492,-20.20946,49.26388,0.6779679,-12.37405,-96.38443,-11.45084,14.36226,0,0,0,25.84077,-17.571,-47.67239,79.38263,-105.3243,-99.98305,0.001067912,-0.1257102,0.09433498,0,0.3,0,0,0.04626548,0
638224222786427229,12.10982,45.2602,12.07054,-9.66215,0.4881175,-21.16164,49.26388,0.6779679,-12.37405,-96.38443,-11.52409,14.36226,0,0,0,25.54127,-12.33182,-49.31017,79.38263,-105.3243,-99.98305,0.001067912,-0.1257102,0.09433498,0,0.3,0,0,0.04645767,0
638224222786756425,12.1805,46.63952,12.70091,-9.881886,-0.5373149,-21.52787,49.26388,0.6779679,-12.37405,-96.38443,-11.45084,14.36226,0,0,0,25.50364,-9.785166,-50.19632,79.38263,-105.3243,-99.98305,0.001067912,-0.1257102,0.09433498,0,0.3,0,0,0.04643645,0
638224222787086318,12.86374,49.07085,14.14844,-10.17487,-2.58818,-22.18707,49.26388,0.6779679,-12.37405,-96.38443,-11.45084,14.36226,0,0,0,26.70626,-5.206296,-51.40427,79.38263,-105.3243,-99.98305,0.001067912,-0.1257102,0.09433498,0,0.3,0,0,0.04620843,0
638224222787446213,14.27734,51.29178,16.31974,-9.808641,-4.419309,-23.13926,49.26388,0.6779679,-12.37405,-96.38443,-11.45084,14.36226,0,0,0,29.80647,-0.5687056,-51.22099,79.38263,-105.3243,-99.98305,0.001067912,-0.1257102,0.09433498,0,0.3,0,0,0.04575571,0
638224222787786107,15.10193,52.22691,17.44041,-9.295925,-5.225006,-23.79847,49.26388,0.6779679,-12.37405,-96.38443,-11.45084,14.36226,0,0,0,31.69394,1.535747,-50.90279,79.38263,-105.3243,-99.98305,0.001067912,-0.1257102,0.09433498,0,0.3,0,0,0.04545154,0
638224222788125994,16.68045,53.76987,19.70509,-7.464796,-7.056135,-26.36205,49.26388,0.6779679,-12.37405,-96.38443,-11.45084,14.36226,0,0,0,35.52808,5.375621,-49.7818,79.38263,-105.3243,-99.98305,0.001067912,-0.1257102,0.09433498,0,0.3,0,0,0.04470157,0
638224222788465891,18.37677,55.17256,22.57681,-5.487176,-8.887264,-29.73133,49.26388,0.6779679,-12.37405,-96.38443,-11.45084,14.36226,0,0,0,40.14986,9.682968,-47.49148,79.38263,-105.3243,-99.98305,0.001067912,-0.1257102,0.09433498,0,0.3,0,0,0.04371108,0
638224222788805782,19.27205,55.75702,23.9076,-4.242009,-9.912696,-31.48921,49.26388,0.6779679,-12.37405,-96.38443,-11.45084,14.36226,0,0,0,42.60281,11.67633,-46.50494,79.38263,-105.3243,-99.98305,0.001067912,-0.1257102,0.09433498,0,0.3,0,0,0.04312668,0
638224222789145675,20.99193,56.5285,25.77538,-1.458692,-12.1833,-33.39359,49.26388,0.6779679,-12.37405,-96.38443,-11.45084,14.36226,0,0,0,47.11953,14.50283,-45.5477,79.38263,-105.3243,-99.98305,0.001067912,-0.1257102,0.09433498,0,0.3,0,0,0.0418601,0
638224222789485564,22.73536,56.97268,27.08283,0.9583986,-13.72145,-34.19928,49.26388,0.6779679,-12.37405,-96.38443,-11.52409,14.36226,0,0,0,51.55282,16.424,-45.32235,79.38263,-105.3243,-99.98305,0.001067912,-0.1257102,0.09433498,0,0.3,0,0,0.04053179,0
638224222789825448,24.80864,56.97268,28.27354,2.789528,-14.30741,-33.97955,49.26388,0.6779679,-12.37405,-96.38443,-11.52409,14.36226,0,0,0,56.99963,17.71124,-45.04033,79.38263,-105.3243,-99.98305,0.001067912,-0.1257102,0.09433498,0,0.3,0,0,0.03920675,0
638224222790155347,26.03376,56.90255,28.95061,3.81496,-14.52714,-33.61332,49.26388,0.6779679,-12.37405,-96.38443,-11.45084,14.36226,0,0,0,60.29026,18.3768,-44.92128,79.38263,-105.3243,-99.98305,0.001067912,-0.1257102,0.09433498,0,0.3,0,0,0.03854433,0
638224222790505244,28.69603,56.66877,29.97789,6.451786,-14.96661,-33.24709,49.26388,0.6779679,-12.37405,-96.38443,-11.45084,14.36226,0,0,0,67.17639,19.25477,-45.62964,79.38263,-105.3243,-99.98305,0.001067912,-0.1257102,0.09433498,0,0.3,0,0,0.03725215,0
638224222790854708,31.26407,56.01418,30.81839,9.894309,-15.1131,-33.24709,49.26388,0.6779679,-12.37405,-96.38443,-11.45084,14.36226,0,0,0,74.14126,19.40022,-46.2366,79.38263,-105.3243,-99.98305,0.001067912,-0.1257102,0.09433498,0,0.3,0,0,0.03603237,0
638224222791194601,32.51274,55.42972,31.19195,11.79868,-15.03986,-33.61332,49.26388,0.6779679,-12.37405,-96.38443,-11.45084,14.36226,0,0,0,77.78939,19.08196,-46.30504,79.38263,-105.3243,-99.98305,0.001067912,-0.1257102,0.09433498,0,0.3,0,0,0.0354538,0
638224222791534493,34.82162,53.93351,31.54216,15.09472,-14.96661,-35.00498,49.26388,0.6779679,-12.37405,-96.38443,-11.45084,14.36226,0,0,0,84.66285,17.49312,-46.63416,79.38263,-105.3243,-99.98305,0.001067912,-0.1257102,0.09433498,0,0.3,0,0,0.0344011,0
638224222791874990,37.05982,51.92299,31.6122,18.3175,-14.38065,-36.68962,49.26388,0.6779679,-12.37405,-96.38443,-11.45084,14.36226,0,0,0,91.68533,14.75788,-46.94339,79.38263,-105.3243,-99.98305,0.001067912,-0.1257102,0.09433498,0,0.3,0,0,0.03353521,0
638224222792224881,38.94461,49.72544,31.58885,21.3938,-13.13548,-37.6418,49.26388,0.6779679,-12.37405,-96.38443,-11.45084,14.36226,0,0,0,98.09174,11.49872,-46.97709,79.38263,-105.3243,-99.98305,0.001067912,-0.1257102,0.09433498,0,0.3,0,0,0.03285775,0
638224222792564769,39.74566,48.60329,31.49546,22.93195,-12.47628,-37.86154,49.26388,0.6779679,-12.37405,-96.38443,-11.45084,14.36226,0,0,0,100.9239,9.677281,-46.98344,79.38263,-105.3243,-99.98305,0.001067912,-0.1257102,0.09433498,0,0.3,0,0,0.03259256,0
638224222792894795,41.01789,46.26546,31.1686,25.71527,-10.71839,-38.08128,49.26388,0.6779679,-12.37405,-96.38443,-11.52409,14.36226,0,0,0,105.7971,5.601454,-46.7211,79.38263,-105.3243,-99.98305,0.001067912,-0.1257102,0.09433498,0,0.3,0,0,0.03222054,0
638224222793244540,41.88961,43.83413,30.91178,27.91262,-8.667529,-37.71505,49.26388,0.6779679,-12.37405,-96.38443,-11.45084,14.36226,0,0,0,109.9671,1.295736,-45.74494,79.38263,-105.3243,-99.98305,0.001067912,-0.1257102,0.09433498,0,0.3,0,0,0.03204788,0
638224222793584440,42.24301,42.6886,30.81839,28.93805,-7.495606,-37.05584,49.26388,0.6779679,-12.37405,-96.38443,-11.45084,14.36226,0,0,0,111.8241,-0.7572904,-45.21104,79.38263,-105.3243,-99.98305,0.001067912,-0.1257102,0.09433498,0,0.3,0,0,0.03202429,0
638224222793924343,42.78489,40.60794,30.60827,30.69594,-5.00527,-35.29796,49.26388,0.6779679,-12.37405,-96.38443,-11.45084,14.36226,0,0,0,114.8839,-4.625386,-44.221,79.38263,-105.3243,-99.98305,0.001067912,-0.1257102,0.09433498,0,0.3,0,0,0.03208807,0
638224222794264352,43.16185,38.57404,30.3281,31.9411,-2.954405,-33.39359,49.26388,0.6779679,-12.37405,-96.38443,-11.45084,14.36226,0,0,0,117.3772,-8.603681,-43.18906,79.38263,-105.3243,-99.98305,0.001067912,-0.1257102,0.09433498,0,0.3,0,0,0.03230767,0
638224222794604245,43.30321,37.52202,30.18801,32.45382,-1.709238,-32.4414,49.26388,0.6779679,-12.37405,-96.38443,-11.45084,14.36226,0,0,0,118.5275,-10.69609,-42.58581,79.38263,-105.3243,-99.98305,0.001067912,-0.1257102,0.09433498,0,0.3,0,0,0.03247179,0
638224222794954004,43.53881,35.34784,30.00124,33.25952,0.268382,-30.83001,49.26388,0.6779679,-12.37405,-96.38443,-11.45084,14.36226,0,0,0,120.8546,-14.98488,-41.16848,79.38263,-105.3243,-99.98305,0.001067912,-0.1257102,0.09433498,0,0.3,0,0,0.03290122,0
638224222795293897,43.70373,33.45421,29.8378,33.84548,2.319247,-29.29186,49.26388,0.6779679,-12.37405,-96.38443,-11.45084,14.36226,0,0,0,122.7127,-18.81087,-39.9552,79.38263,-105.3243,-99.98305,0.001067912,-0.1257102,0.09433498,0,0.3,0,0,0.03344942,0
638224222795643784,43.84509,31.58395,29.65103,34.43144,4.443357,-27.68046,49.26388,0.6779679,-12.37405,-96.38443,-11.45084,14.36226,0,0,0,124.3885,-22.69674,-38.84299,79.38263,-105.3243,-99.98305,0.001067912,-0.1257102,0.09433498,0,0.3,0,0,0.03410439,0
638224222795983677,43.84509,30.6722,29.46425,34.65118,5.322299,-26.94801,49.26388,0.6779679,-12.37405,-96.38443,-11.45084,14.36226,0,0,0,124.8865,-24.72762,-38.32456,79.38263,-105.3243,-99.98305,0.001067912,-0.1257102,0.09433498,0,0.3,0,0,0.03447938,0
638224222796333564,43.82153,29.15262,28.88057,35.0174,7.153428,-25.48311,49.26388,0.6779679,-12.37405,-96.38443,-11.45084,14.36226,0,0,0,125.2328,-28.45524,-37.85658,79.38263,-105.3243,-99.98305,0.001067912,-0.1257102,0.09433498,0,0.3,0,0,0.03534157,0
638224222796673457,43.77441,27.84344,28.13346,35.09065,8.691576,-24.23794,49.26388,0.6779679,-12.37405,-96.38443,-11.45084,14.36226,0,0,0,125.0741,-31.96285,-37.80724,79.38263,-105.3243,-99.98305,0.001067912,-0.1257102,0.09433498,0,0.3,0,0,0.0363611,0
638224222797003352,43.70373,27.16547,27.7599,35.09065,9.424027,-23.57873,49.26388,0.6779679,-12.37405,-96.38443,-11.45084,14.36226,0,0,0,124.8858,-33.76985,-37.68147,79.38263,-105.3243,-99.98305,0.001067912,-0.1257102,0.09433498,0,0.3,0,0,0.03693004,0
638224222797343235,43.51525,25.85629,26.98944,34.87091,11.03542,-21.89409,49.26388,0.6779679,-12.37405,-96.38443,-11.45084,14.36226,0,0,0,124.2953,-37.32088,-37.43983,79.38263,-105.3243,-99.98305,0.001067912,-0.1257102,0.09433498,0,0.3,0,0,0.03818444,0
638224222797693127,43.23253,24.92117,25.96216,34.50468,12.35384,-19.98972,49.26388,0.6779679,-12.37405,-96.38443,-11.45084,14.36226,0,0,0,122.8212,-40.35297,-37.70747,79.38263,-105.3243,-99.98305,0.001067912,-0.1257102,0.09433498,0,0.3,0,0,0.03960618,0
638224222798033022,42.78489,24.21982,24.7948,33.99197,13.37927,-17.79236,49.26388,0.6779679,-12.37405,-96.38443,-11.45084,14.36226,0,0,0,120.5904,-43.0019,-38.05528,79.38263,-105.3243,-99.98305,0.001067912,-0.1257102,0.09433498,0,0.3,0,0,0.04119864,0
638224222798382901,42.47861,23.86915,24.16442,33.62574,13.81874,-16.47395,49.26388,0.6779679,-12.37405,-96.38443,-11.45084,14.28902,0,0,0,119.215,-44.35517,-38.15205,79.38263,-105.3243,-99.98305,0.001067912,-0.1257102,0.09433498,0,0.3,0,0,0.04206278,0
638224222798722802,41.77181,23.30807,22.78693,32.7468,14.62444,-13.76388,49.26388,0.6779679,-12.37405,-96.38443,-11.45084,14.28902,0,0,0,115.9891,-46.82899,-38.49469,79.38263,-105.3243,-99.98305,0.001067912,-0.1257102,0.09433498,0,0.3,0,0,0.0439268,0
638224222799052689,40.92365,23.12104,21.3861,31.50163,15.50338,-11.34679,49.26388,0.6779679,-12.37405,-96.38443,-11.45084,14.36226,0,0,0,112.1877,-48.4549,-38.94493,79.38263,-105.3243,-99.98305,0.001067912,-0.1257102,0.09433498,0,0.3,0,0,0.04595615,0
638224222799392714,40.42889,23.12104,20.68568,30.76918,15.94285,-10.3946,49.26388,0.6779679,-12.37405,-96.38443,-11.45084,14.36226,0,0,0,110.0794,-49.04004,-39.13919,79.38263,-105.3243,-99.98305,0.001067912,-0.1257102,0.09433498,0,0.3,0,0,0.04702248,0
638224222799732480,39.32158,23.12104,19.37823,29.15779,16.60205,-8.929699,49.26388,0.6779679,-12.37405,-96.38443,-11.45084,14.36226,0,0,0,105.7503,-50.08236,-39.24759,79.38263,-105.3243,-99.98305,0.001067912,-0.1257102,0.09433498,0,0.3,0,0,0.0492367,0
638224222800072365,38.21426,23.28469,18.16417,27.32666,17.18801,-7.684532,49.26388,0.6779679,-12.37405,-96.38443,-11.45084,14.36226,0,0,0,101.4879,-50.64153,-39.44792,79.38263,-105.3243,-99.98305,0.001067912,-0.1257102,0.09433498,0,0.3,0,0,0.05153597,0
638224222800412265,37.64882,23.47172,17.5338,26.37447,17.40775,-7.318305,49.26388,0.6779679,-12.37405,-96.38443,-11.45084,14.36226,0,0,0,99.25234,-50.69167,-39.69512,79.38263,-105.3243,-99.98305,0.001067912,-0.1257102,0.09433498,0,0.3,0,0,0.05270997,0
638224222800752145,36.4237,24.00941,16.45982,24.39685,17.62749,-6.732344,49.26388,0.6779679,-12.37405,-96.38443,-11.45084,14.36226,0,0,0,94.7605,-50.27679,-39.93123,79.38263,-105.3243,-99.98305,0.001067912,-0.1257102,0.09433498,0,0.3,0,0,0.05507563,0
638224222801092046,35.19858,24.89779,15.61932,22.56572,17.04152,-6.292873,49.26388,0.6779679,-12.37405,-96.38443,-11.45084,14.36226,0,0,0,90.41615,-48.93518,-40.1702,79.38263,-105.3243,-99.98305,0.001067912,-0.1257102,0.09433498,0,0.3,0,0,0.05741243,0
638224222801431932,33.92635,26.20697,14.9189,20.5881,16.16258,-5.999893,49.26388,0.6779679,-12.37405,-96.38443,-11.45084,14.36226,0,0,0,85.93667,-46.61558,-40.58967,79.38263,-105.3243,-99.98305,0.001067912,-0.1257102,0.09433498,0,0.3,0,0,0.05967048,0
638224222801771836,33.26667,27.04858,14.68543,19.56267,15.50338,-5.926647,49.26388,0.6779679,-12.37405,-96.38443,-11.45084,14.36226,0,0,0,83.6903,-45.0034,-40.78202,79.38263,-105.3243,-99.98305,0.001067912,-0.1257102,0.09433498,0,0.3,0,0,0.06075039,0
638224222802111720,32.23003,28.66168,14.38192,17.87803,14.25821,-5.853402,49.26388,0.6779679,-12.37405,-96.38443,-11.45084,14.36226,0,0,0,80.0685,-41.86147,-41.35104,79.38263,-105.3243,-99.98305,0.001067912,-0.1257102,0.09433498,0,0.3,0,0,0.06280085,0
638224222802441749,31.12271,30.55531,14.14844,16.12015,12.9398,-5.853402,49.26388,0.6779679,-12.37405,-96.38443,-11.45084,14.36226,0,0,0,76.20164,-38.16379,-42.14223,79.38263,-105.3243,-99.98305,0.001067912,-0.1257102,0.09433498,0,0.3,0,0,0.06468293,0
638224222802781505,30.58083,31.56057,14.0784,15.16796,12.1341,-5.853402,49.26388,0.6779679,-12.37405,-96.38443,-11.45084,14.36226,0,0,0,74.31012,-36.19932,-42.60244,79.38263,-105.3243,-99.98305,0.001067912,-0.1257102,0.09433498,0,0.3,0,0,0.06555362,0
638224222803121523,29.33215,33.71137,14.0784,13.19034,10.37621,-5.999893,49.26388,0.6779679,-12.37405,-96.38443,-11.45084,14.36226,0,0,0,70.22983,-31.98415,-43.36631,79.38263,-105.3243,-99.98305,0.001067912,-0.1257102,0.09433498,0,0.3,0,0,0.06712699,0
638224222803461281,28.03635,35.69852,14.10175,11.35921,8.471841,-6.585854,49.26388,0.6779679,-12.37405,-96.38443,-11.45084,14.36226,0,0,0,66.17264,-28.16903,-44.08763,79.38263,-105.3243,-99.98305,0.001067912,-0.1257102,0.09433498,0,0.3,0,0,0.06848561,0
638224222803801172,27.35312,36.56351,14.1251,10.40703,7.519653,-6.952079,49.26388,0.6779679,-12.37405,-96.38443,-11.45084,14.36226,0,0,0,64.16498,-26.5298,-44.31489,79.38263,-105.3243,-99.98305,0.001067912,-0.1257102,0.09433498,0,0.3,0,0,0.06908783,0
638224222804141073,26.03376,37.98958,14.14844,8.429405,5.90826,-7.684532,49.26388,0.6779679,-12.37405,-96.38443,-11.45084,14.36226,0,0,0,60.43291,-23.87557,-44.62923,79.38263,-105.3243,-99.98305,0.001067912,-0.1257102,0.09433498,0,0.3,0,0,0.07015598,0
638224222804480965,24.69084,39.13511,14.17179,6.598277,4.516602,-8.343738,49.26388,0.6779679,-12.37405,-96.38443,-11.45084,14.36226,0,0,0,56.84455,-21.77761,-44.70901,79.38263,-105.3243,-99.98305,0.001067912,-0.1257102,0.09433498,0,0.3,0,0,0.07105922,0
638224222804830873,23.3008,39.85984,14.17179,4.767147,3.78415,-8.856454,49.26388,0.6779679,-12.37405,-96.38443,-11.45084,14.36226,0,0,0,53.40413,-20.47605,-44.35176,79.38263,-105.3243,-99.98305,0.001067912,-0.1257102,0.09433498,0,0.3,0,0,0.07181999,0
638224222805160748,22.594,39.95335,14.17179,3.888205,3.63766,-8.929699,49.26388,0.6779679,-12.37405,-96.38443,-11.45084,14.36226,0,0,0,51.81683,-20.3091,-43.83133,79.38263,-105.3243,-99.98305,0.001067912,-0.1257102,0.09433498,0,0.3,0,0,0.07215744,0
638224222805500640,21.08616,39.95335,14.17179,2.203566,3.417924,-8.856454,49.26388,0.6779679,-12.37405,-96.38443,-11.45084,14.36226,0,0,0,48.52234,-20.3091,-42.51096,79.38263,-105.3243,-99.98305,0.001067912,-0.1257102,0.09433498,0,0.3,0,0,0.07275385,0
638224222805840542,19.36629,40.09362,14.10175,0.4456824,3.271434,-8.709964,49.26388,0.6779679,-12.37405,-96.38443,-11.45084,14.36226,0,0,0,44.60163,-20.09892,-41.45855,79.38263,-105.3243,-99.98305,0.001067912,-0.1257102,0.09433498,0,0.3,0,0,0.07323378,0
638224222806170426,18.35321,40.21051,13.98501,-0.57975,3.344679,-8.490229,49.26388,0.6779679,-12.37405,-96.38443,-11.45084,14.36226,0,0,0,42.21291,-19.95691,-41.10646,79.38263,-105.3243,-99.98305,0.001067912,-0.1257102,0.09433498,0,0.3,0,0,0.07342391,0
638224222806510318,16.37417,40.46767,13.65815,-2.410879,3.78415,-8.124002,49.26388,0.6779679,-12.37405,-96.38443,-11.45084,14.36226,0,0,0,37.47606,-19.68244,-40.80505,79.38263,-105.3243,-99.98305,0.001067912,-0.1257102,0.09433498,0,0.3,0,0,0.07370911,0
638224222806850200,14.23022,40.95861,13.61146,-4.534989,4.516602,-7.318305,49.26388,0.6779679,-12.37405,-96.38443,-11.45084,14.36226,0,0,0,32.46915,-18.84198,-40.31713,79.38263,-105.3243,-99.98305,0.001067912,-0.1257102,0.09433498,0,0.3,0,0,0.07383995,0
638224222807190091,13.17002,41.33266,13.6348,-5.780157,4.809582,-6.878834,49.26388,0.6779679,-12.37405,-96.38443,-11.45084,14.36226,0,0,0,29.97614,-18.17361,-40.2446,79.38263,-105.3243,-99.98305,0.001067912,-0.1257102,0.09433498,0,0.3,0,0,0.07383728,0
638224222807530007,11.02606,42.24441,13.70484,-8.124002,5.249053,-5.853402,49.26388,0.6779679,-12.37405,-96.38443,-11.45084,14.36226,0,0,0,24.92253,-16.55292,-40.44534,79.38263,-105.3243,-99.98305,0.001067912,-0.1257102,0.09433498,0,0.3,0,0,0.07368922,0
638224222807869885,8.882105,43.60035,14.05505,-10.61434,4.809582,-5.267441,49.26388,0.6779679,-12.37405,-96.38443,-11.45084,14.36226,0,0,0,19.91048,-14.04652,-40.94403,79.38263,-105.3243,-99.98305,0.001067912,-0.1257102,0.09433498,0,0.3,0,0,0.0733294,0
638224222808209774,7.821907,44.44196,14.35857,-11.93275,4.296866,-5.047705,49.26388,0.6779679,-12.37405,-96.38443,-11.45084,14.36226,0,0,0,17.45764,-12.46465,-41.26753,79.38263,-105.3243,-99.98305,0.001067912,-0.1257102,0.09433498,0,0.3,0,0,0.07305966,0
638224222808549667,5.98423,46.14857,15.10568,-14.34984,3.564415,-4.754725,49.26388,0.6779679,-12.37405,-96.38443,-11.45084,14.36226,0,0,0,13.25439,-9.228486,-41.90812,79.38263,-105.3243,-99.98305,0.001067912,-0.1257102,0.09433498,0,0.3,0,0,0.07234576,0
638224222808889558,4.382153,48.13572,16.15631,-16.91342,2.538982,-4.534989,49.26388,0.6779679,-12.37405,-96.38443,-11.45084,14.36226,0,0,0,9.635057,-5.42405,-42.61926,79.38263,-105.3243,-99.98305,0.001067912,-0.1257102,0.09433498,0,0.3,0,0,0.07140075,0
638224222809229444,3.392634,50.75408,17.76727,-18.89104,1.000834,-4.095518,49.26388,0.6779679,-12.37405,-96.38443,-11.45084,14.36226,0,0,0,7.40056,-0.3684556,-43.51333,79.38263,-105.3243,-99.98305,0.001067912,-0.1257102,0.09433498,0,0.3,0,0,0.07022225,0
638224222809559343,3.251275,52.22691,18.74786,-19.62349,0.1218917,-3.802537,49.26388,0.6779679,-12.37405,-96.38443,-11.45084,14.36226,0,0,0,7.063336,2.480802,-44.00957,79.38263,-105.3243,-99.98305,0.001067912,-0.1257102,0.09433498,0,0.3,0,0,0.06954758,0
638224222809909226,3.533994,55.59337,21.29271,-20.35595,-2.368444,-3.216576,49.26388,0.6779679,-12.37405,-96.38443,-11.45084,14.36226,0,0,0,7.62957,9.122972,-44.81055,79.38263,-105.3243,-99.98305,0.001067912,-0.1257102,0.09433498,0,0.3,0,0,0.06802616,0
638224222810249133,4.711992,59.12348,24.53798,-20.06297,-5.737722,-2.044653,49.26388,0.6779679,-12.37405,-96.38443,-11.45084,14.36226,0,0,0,10.17093,16.49435,-44.95486,79.38263,-105.3243,-99.98305,0.001067912,-0.1257102,0.09433498,0,0.3,0,0,0.06626752,0
638224222810589017,5.583711,60.61968,26.10224,-19.40376,-7.568851,-1.312202,49.26388,0.6779679,-12.37405,-96.38443,-11.45084,14.28902,0,0,0,12.07421,19.79916,-44.84613,79.38263,-105.3243,-99.98305,0.001067912,-0.1257102,0.09433498,0,0.3,0,0,0.06531765,0
638224222810928908,7.845467,63.2848,28.90392,-17.42614,-11.23111,-0.4332596,49.26388,0.6779679,-12.37405,-96.38443,-11.45084,14.36226,0,0,0,16.98109,25.72638,-45.11244,79.38263,-105.3243,-99.98305,0.001067912,-0.1257102,0.09433498,0,0.3,0,0,0.06332231,0
638224222811268799,10.71978,65.22519,31.28534,-14.64282,-15.03986,-0.0670338,49.26388,0.6779679,-12.37405,-96.38443,-11.45084,14.36226,0,0,0,23.27481,30.46689,-45.40425,79.38263,-105.3243,-99.98305,0.001067912,-0.1257102,0.09433498,0,0.3,0,0,0.06125125,0
638224222811618693,12.15694,65.69276,32.03245,-13.03143,-16.7245,-0.140279,49.26388,0.6779679,-12.37405,-96.38443,-11.45084,14.36226,0,0,0,26.45425,31.83151,-45.5475,79.38263,-105.3243,-99.98305,0.001067912,-0.1257102,0.09433498,0,0.3,0,0,0.06021741,0
638224222811958583,15.50245,66.0668,33.19981,-8.856454,-19.28808,-1.678428,49.26388,0.6779679,-12.37405,-96.38443,-11.45084,14.36226,0,0,0,33.97484,33.65168,-45.86106,79.38263,-105.3243,-99.98305,0.001067912,-0.1257102,0.09433498,0,0.3,0,0,0.05820351,0
638224222812288465,18.84797,65.76289,34.06366,-3.802537,-21.04596,-4.315253,49.26388,0.6779679,-12.37405,-96.38443,-11.45084,14.36226,0,0,0,41.81444,34.47654,-45.85714,79.38263,-105.3243,-99.98305,0.001067912,-0.1257102,0.09433498,0,0.3,0,0,0.05628075,0
638224222812638361,21.86364,64.50047,34.22709,1.54436,-21.63192,-7.025325,49.26388,0.6779679,-12.37405,-96.38443,-11.45084,14.36226,0,0,0,49.3107,33.45447,-45.46051,79.38263,-105.3243,-99.98305,0.001067912,-0.1257102,0.09433498,0,0.3,0,0,0.05449694,0
638224222812978254,23.27724,63.63547,34.20374,4.107941,-21.55868,-8.416983,49.26388,0.6779679,-12.37405,-96.38443,-11.45084,14.36226,0,0,0,53.02501,32.54355,-45.09255,79.38263,-105.3243,-99.98305,0.001067912,-0.1257102,0.09433498,0,0.3,0,0,0.05366736,0
638224222813318140,25.7746,61.60157,34.04031,9.454838,-20.89947,-10.90732,49.26388,0.6779679,-12.37405,-96.38443,-11.45084,14.36226,0,0,0,60.03612,30.1532,-44.01868,79.38263,-105.3243,-99.98305,0.001067912,-0.1257102,0.09433498,0,0.3,0,0,0.05213382,0
638224222813658038,27.25887,59.3105,33.26986,13.84955,-19.36132,-12.6652,49.26388,0.6779679,-12.37405,-96.38443,-11.45084,14.36226,0,0,0,64.67738,26.53036,-42.81886,79.38263,-105.3243,-99.98305,0.001067912,-0.1257102,0.09433498,0,0.3,0,0,0.05078866,0
638224222813997928,27.68295,58.0247,32.66283,15.60743,-18.33589,-13.03143,49.26388,0.6779679,-12.37405,-96.38443,-11.45084,14.36226,0,0,0,66.24157,24.20548,-42.08715,79.38263,-105.3243,-99.98305,0.001067912,-0.1257102,0.09433498,0,0.3,0,0,0.05019614,0
638224222814327823,28.15415,55.40634,31.37873,18.3175,-16.06529,-13.25116,49.26388,0.6779679,-12.37405,-96.38443,-11.45084,14.36226,0,0,0,68.48562,19.27683,-40.37909,79.38263,-105.3243,-99.98305,0.001067912,-0.1257102,0.09433498,0,0.3,0,0,0.04917449,0
638224222814667711,28.15415,52.8815,30.14132,20.14863,-13.86794,-12.15249,49.26388,0.6779679,-12.37405,-96.38443,-11.45084,14.36226,0,0,0,69.565,14.36215,-38.36217,79.38263,-105.3243,-99.98305,0.001067912,-0.1257102,0.09433498,0,0.3,0,0,0.04835116,0
638224222815007605,28.10703,51.66583,29.51094,20.80784,-12.40303,-11.12705,49.26388,0.6779679,-12.37405,-96.38443,-11.45084,14.36226,0,0,0,69.91271,11.90123,-37.45379,79.38263,-105.3243,-99.98305,0.001067912,-0.1257102,0.09433498,0,0.3,0,0,0.04801097,0
638224222815347638,27.75363,49.28125,28.1568,21.68678,-9.326735,-9.002944,49.26388,0.6779679,-12.37405,-96.38443,-11.45084,14.36226,0,0,0,69.81168,6.849463,-35.68025,79.38263,-105.3243,-99.98305,0.001067912,-0.1257102,0.09433498,0,0.3,0,0,0.04747059,0
638224222815687393,27.16464,47.57465,26.89605,21.90652,-6.250438,-6.732344,49.26388,0.6779679,-12.37405,-96.38443,-11.45084,14.36226,0,0,0,68.61279,2.857857,-34.64101,79.38263,-105.3243,-99.98305,0.001067912,-0.1257102,0.09433498,0,0.3,0,0,0.04709008,0
638224222816027274,26.19868,46.47587,25.68199,21.54029,-3.760103,-4.461744,49.26388,0.6779679,-12.37405,-96.38443,-11.45084,14.36226,0,0,0,66.05654,-0.1367878,-34.09755,79.38263,-105.3243,-99.98305,0.001067912,-0.1257102,0.09433498,0,0.3,0,0,0.04682362,0
638224222816357171,25.539,46.07844,25.09831,21.10082,-2.58818,-3.070086,49.26388,0.6779679,-12.37405,-96.38443,-11.45084,14.36226,0,0,0,64.26558,-1.35858,-33.85009,79.38263,-105.3243,-99.98305,0.001067912,-0.1257102,0.09433498,0,0.3,0,0,0.04671983,0
638224222816697068,24.07828,45.77452,24.23446,19.78241,-0.4640697,-0.7994855,49.26388,0.6779679,-12.37405,-96.38443,-11.45084,14.36226,0,0,0,60.278,-2.689638,-33.45967,79.38263,-105.3243,-99.98305,0.001067912,-0.1257102,0.09433498,0,0.3,0,0,0.04653049,0
638224222817036952,22.38196,45.89141,23.62743,18.17101,1.000834,0.6654179,49.26388,0.6779679,-12.37405,-96.38443,-11.45084,14.36226,0,0,0,55.69254,-3.073163,-33.10894,79.38263,-105.3243,-99.98305,0.001067912,-0.1257102,0.09433498,0,0.3,0,0,0.04632138,0
638224222817376841,21.32176,46.07844,23.27722,16.99909,1.51355,1.324624,49.26388,0.6779679,-12.37405,-96.38443,-11.3776,14.36226,0,0,0,52.79495,-3.095095,-33.08979,79.38263,-105.3243,-99.98305,0.001067912,-0.1257102,0.09433498,0,0.3,0,0,0.04619897,0
638224222817716744,18.87153,46.8733,22.74024,14.14253,1.879776,2.496547,49.26388,0.6779679,-12.37405,-96.38443,-11.45084,14.36226,0,0,0,46.15815,-2.30962,-33.31416,79.38263,-105.3243,-99.98305,0.001067912,-0.1257102,0.09433498,0,0.3,0,0,0.04588358,0
638224222818056630,16.20925,48.22923,22.60015,10.70001,1.147324,4.034696,49.26388,0.6779679,-12.37405,-96.38443,-11.45084,14.36226,0,0,0,39.1021,-0.3053851,-33.84079,79.38263,-105.3243,-99.98305,0.001067912,-0.1257102,0.09433498,0,0.3,0,0,0.04542571,0
638224222818396516,14.96058,48.95396,22.6235,8.795631,0.4881175,4.767147,49.26388,0.6779679,-12.37405,-96.38443,-11.45084,14.36226,0,0,0,35.84798,0.8311339,-34.19434,79.38263,-105.3243,-99.98305,0.001067912,-0.1257102,0.09433498,0,0.3,0,0,0.04513433,0
638224222818736415,13.21714,50.00598,22.64685,4.840393,-1.123276,5.499599,49.26388,0.6779679,-12.37405,-96.38443,-11.45084,14.36226,0,0,0,31.33574,2.442827,-34.92892,79.38263,-105.3243,-99.98305,0.001067912,-0.1257102,0.09433498,0,0.3,0,0,0.04446257,0
638224222819076440,13.0051,50.23976,22.64685,1.397869,-2.807915,5.79258,49.26388,0.6779679,-12.37405,-96.38443,-11.45084,14.36226,0,0,0,30.7478,2.791675,-35.22071,79.38263,-105.3243,-99.98305,0.001067912,-0.1257102,0.09433498,0,0.3,0,0,0.0437557,0
638224222819416201,13.28782,50.05273,22.55346,0.3724372,-3.320631,5.865825,49.26388,0.6779679,-12.37405,-96.38443,-11.45084,14.36226,0,0,0,31.43501,2.429204,-35.24413,79.38263,-105.3243,-99.98305,0.001067912,-0.1257102,0.09433498,0,0.3,0,0,0.0434197,0
638224222819746091,13.8297,49.4449,22.20325,-0.4332596,-3.686857,5.79258,49.26388,0.6779679,-12.37405,-96.38443,-11.45084,14.36226,0,0,0,32.77037,1.204818,-35.23082,79.38263,-105.3243,-99.98305,0.001067912,-0.1257102,0.09433498,0,0.3,0,0,0.0428042,0
638224222820095989,14.25378,48.46302,21.64292,-0.5065048,-3.686857,5.279863,49.26388,0.6779679,-12.37405,-96.38443,-11.45084,14.36226,0,0,0,33.88123,-0.7827039,-34.97918,79.38263,-105.3243,-99.98305,0.001067912,-0.1257102,0.09433498,0,0.3,0,0,0.04227843,0
638224222820425872,14.51294,47.06033,20.96585,-0.140279,-3.027651,5.133373,49.26388,0.6779679,-12.37405,-96.38443,-11.45084,14.36226,0,0,0,34.72191,-3.549704,-34.21527,79.38263,-105.3243,-99.98305,0.001067912,-0.1257102,0.09433498,0,0.3,0,0,0.04185203,0
638224222820765770,14.5365,46.21871,20.56894,0.1527017,-2.514934,5.279863,49.26388,0.6779679,-12.37405,-96.38443,-11.45084,14.36226,0,0,0,34.91772,-5.222097,-33.68712,79.38263,-105.3243,-99.98305,0.001067912,-0.1257102,0.09433498,0,0.3,0,0,0.04167918,0
638224222821105654,14.5365,44.48872,19.6584,0.738663,-1.123276,5.426354,49.26388,0.6779679,-12.37405,-96.38443,-11.45084,14.36226,0,0,0,35.13723,-8.780179,-32.84056,79.38263,-105.3243,-99.98305,0.001067912,-0.1257102,0.09433498,0,0.3,0,0,0.04141624,0
638224222821445555,14.5365,42.6886,18.58442,1.251379,0.4881175,5.646089,49.26388,0.6779679,-12.37405,-96.38443,-11.45084,14.36226,0,0,0,35.26947,-12.63339,-32.33054,79.38263,-105.3243,-99.98305,0.001067912,-0.1257102,0.09433498,0,0.3,0,0,0.04127794,0
638224222821785446,14.5365,41.70671,18.00074,1.471115,1.367059,5.865825,49.26388,0.6779679,-12.37405,-96.38443,-11.45084,14.36226,0,0,0,35.33101,-14.75272,-32.09324,79.38263,-105.3243,-99.98305,0.001067912,-0.1257102,0.09433498,0,0.3,0,0,0.04125927,0
638224222822135338,14.51294,39.48579,16.73999,1.837341,3.63766,6.378541,49.26388,0.6779679,-12.37405,-96.38443,-11.45084,14.36226,0,0,0,35.41605,-19.55335,-31.53371,79.38263,-105.3243,-99.98305,0.001067912,-0.1257102,0.09433498,0,0.3,0,0,0.04133184,0
638224222822475225,14.51294,37.17134,15.43254,2.203566,5.981505,6.891257,49.26388,0.6779679,-12.37405,-96.38443,-11.3776,14.36226,0,0,0,35.52047,-24.62183,-31.13035,79.38263,-105.3243,-99.98305,0.001067912,-0.1257102,0.09433498,0,0.3,0,0,0.04155799,0
638224222822815131,14.51294,35.95568,14.77882,2.350057,7.153428,7.257483,49.26388,0.6779679,-12.37405,-96.38443,-11.3776,14.36226,0,0,0,35.57474,-27.2908,-30.92071,79.38263,-105.3243,-99.98305,0.001067912,-0.1257102,0.09433498,0,0.3,0,0,0.04172841,0
638224222823155132,14.51294,33.47759,13.42468,2.569792,9.8635,8.06318,49.26388,0.6779679,-12.37405,-96.38443,-11.45084,14.36226,0,0,0,35.63184,-32.79905,-30.70012,79.38263,-105.3243,-99.98305,0.001067912,-0.1257102,0.09433498,0,0.3,0,0,0.04218949,0
638224222823495029,14.48938,30.8826,12.11723,2.789528,12.20734,8.942122,49.26388,0.6779679,-12.37405,-96.38443,-11.3776,14.36226,0,0,0,35.63745,-38.583,-30.44471,79.38263,-105.3243,-99.98305,0.001067912,-0.1257102,0.09433498,0,0.3,0,0,0.04280572,0
638224222823834931,14.4187,28.35776,10.94987,3.155754,14.4047,9.894309,49.26388,0.6779679,-12.37405,-96.38443,-11.45084,14.36226,0,0,0,35.52759,-44.2342,-30.16637,79.38263,-105.3243,-99.98305,0.001067912,-0.1257102,0.09433498,0,0.3,0,0,0.04357255,0
638224222824184678,14.4187,27.11872,10.43623,3.302244,15.57662,10.26054,49.26388,0.6779679,-12.37405,-96.38443,-11.45084,14.36226,0,0,0,35.5693,-47.00832,-30.00416,79.38263,-105.3243,-99.98305,0.001067912,-0.1257102,0.09433498,0,0.3,0,0,0.04399798,0
638224222824514572,14.39514,24.40685,9.385601,3.595225,17.92047,10.99299,49.26388,0.6779679,-12.37405,-96.38443,-11.45084,14.36226,0,0,0,35.59553,-53.11288,-29.66569,79.38263,-105.3243,-99.98305,0.001067912,-0.1257102,0.09433498,0,0.3,0,0,0.04494766,0
638224222824854455,14.39514,22.02227,8.498405,3.66847,19.89809,11.43246,49.26388,0.6779679,-12.37405,-96.38443,-11.45084,14.36226,0,0,0,35.63226,-58.53398,-29.52261,79.38263,-105.3243,-99.98305,0.001067912,-0.1257102,0.09433498,0,0.3,0,0,0.04600914,0
638224222825194496,14.39514,20.90011,8.171543,3.741715,20.77703,11.5057,49.26388,0.6779679,-12.37405,-96.38443,-11.45084,14.36226,0,0,0,35.68268,-61.07483,-29.32615,79.38263,-105.3243,-99.98305,0.001067912,-0.1257102,0.09433498,0,0.3,0,0,0.04657347,0
638224222825534249,14.39514,18.7727,7.727945,3.741715,22.60816,11.65219,49.26388,0.6779679,-12.37405,-96.38443,-11.45084,14.36226,0,0,0,35.84615,-65.87491,-28.68923,79.38263,-105.3243,-99.98305,0.001067912,-0.1257102,0.09433498,0,0.3,0,0,0.04775039,0
638224222825864142,14.39514,16.76217,7.447778,3.741715,24.21955,11.65219,49.26388,0.6779679,-12.37405,-96.38443,-11.45084,14.36226,0,0,0,36.04044,-70.41689,-27.93228,79.38263,-105.3243,-99.98305,0.001067912,-0.1257102,0.09433498,0,0.3,0,0,0.04897727,0
638224222826204034,14.39514,15.71015,7.377736,3.741715,25.17174,11.72544,49.26388,0.6779679,-12.37405,-96.38443,-11.3776,14.36226,0,0,0,36.17044,-72.7887,-27.42578,79.38263,-105.3243,-99.98305,0.001067912,-0.1257102,0.09433498,0,0.3,0,0,0.04960386,0
638224222826543926,14.39514,14.19057,7.307694,3.741715,26.49015,11.72544,49.26388,0.6779679,-12.37405,-96.38443,-11.45084,14.36226,0,0,0,36.35707,-76.22639,-26.69865,79.38263,-105.3243,-99.98305,0.001067912,-0.1257102,0.09433498,0,0.3,0,0,0.05086911,0
638224222826889611,14.39514,12.78788,7.307694,3.81496,27.51558,11.87193,49.26388,0.6779679,-12.37405,-96.38443,-11.3776,14.36226,0,0,0,36.54638,-79.40087,-25.96106,79.38263,-105.3243,-99.98305,0.001067912,-0.1257102,0.09433498,0,0.3,0,0,0.05214255,0
638224222827239499,14.39514,11.50208,7.307694,3.96145,28.46777,12.09166,49.26388,0.6779679,-12.37405,-96.38443,-11.3776,14.36226,0,0,0,36.7029,-82.3264,-25.35125,79.38263,-105.3243,-99.98305,0.001067912,-0.1257102,0.09433498,0,0.3,0,0,0.05341878,0
638224222827579392,14.39514,10.91762,7.307694,3.96145,28.90724,12.23815,49.26388,0.6779679,-12.37405,-96.38443,-11.45084,14.36226,0,0,0,36.76864,-83.6607,-25.09511,79.38263,-105.3243,-99.98305,0.001067912,-0.1257102,0.09433498,0,0.3,0,0,0.05405689,0
638224222827909426,14.39514,9.865602,7.354388,4.107941,29.78619,12.53114,49.26388,0.6779679,-12.37405,-96.38443,-11.45084,14.36226,0,0,0,36.90523,-86.05511,-24.56294,79.38263,-105.3243,-99.98305,0.001067912,-0.1257102,0.09433498,0,0.3,0,0,0.05532834,0
638224222828249173,14.39514,9.211012,7.377736,4.181186,30.59188,12.75087,49.26388,0.6779679,-12.37405,-96.38443,-11.45084,14.36226,0,0,0,36.98139,-87.55056,-24.26621,79.38263,-105.3243,-99.98305,0.001067912,-0.1257102,0.09433498,0,0.3,0,0,0.05659183,0
638224222828589081,14.32446,9.23439,7.377736,4.254431,31.03135,12.75087,49.26388,0.6779679,-12.37405,-96.38443,-11.45084,14.36226,0,0,0,36.80146,-87.49685,-24.22915,79.38263,-105.3243,-99.98305,0.001067912,-0.1257102,0.09433498,0,0.3,0,0,0.05721606,0
638224222828928960,14.0653,10.05263,7.377736,4.181186,31.47083,12.75087,49.26388,0.6779679,-12.37405,-96.38443,-11.45084,14.36226,0,0,0,36.07167,-85.61942,-24.37362,79.38263,-105.3243,-99.98305,0.001067912,-0.1257102,0.09433498,0,0.3,0,0,0.05843542,0
638224222829268851,13.75902,12.08653,7.354388,3.96145,30.81162,12.75087,49.26388,0.6779679,-12.37405,-96.38443,-11.45084,14.36226,0,0,0,35.07256,-80.981,-25.11794,79.38263,-105.3243,-99.98305,0.001067912,-0.1257102,0.09433498,0,0.3,0,0,0.05960506,0
638224222829608741,13.52342,13.46585,7.354388,3.81496,30.07917,12.75087,49.26388,0.6779679,-12.37405,-96.38443,-11.45084,14.36226,0,0,0,34.31729,-77.85034,-25.66515,79.38263,-105.3243,-99.98305,0.001067912,-0.1257102,0.09433498,0,0.3,0,0,0.06016327,0
638224222829948654,12.7695,16.57515,7.377736,3.155754,28.10155,12.75087,49.26388,0.6779679,-12.37405,-96.38443,-11.45084,14.36226,0,0,0,32.0343,-70.8549,-27.00225,79.38263,-105.3243,-99.98305,0.001067912,-0.1257102,0.09433498,0,0.3,0,0,0.06119874,0
638224222830278668,11.68574,19.84809,7.634556,1.764095,25.31823,12.82412,49.26388,0.6779679,-12.37405,-96.38443,-11.45084,14.36226,0,0,0,28.99302,-63.54193,-28.17233,79.38263,-105.3243,-99.98305,0.001067912,-0.1257102,0.09433498,0,0.3,0,0,0.06209107,0
638224222830628420,10.27214,22.74699,8.19489,-0.140279,22.38842,12.75087,49.26388,0.6779679,-12.37405,-96.38443,-11.45084,14.36226,0,0,0,25.31949,-57.07691,-28.63977,79.38263,-105.3243,-99.98305,0.001067912,-0.1257102,0.09433498,0,0.3,0,0,0.06279787,0
638224222830958439,9.541784,23.96266,8.521752,-1.238957,20.85028,12.75087,49.26388,0.6779679,-12.37405,-96.38443,-11.45084,14.36226,0,0,0,23.47541,-54.36885,-28.69221,79.38263,-105.3243,-99.98305,0.001067912,-0.1257102,0.09433498,0,0.3,0,0,0.0630801,0
638224222831298206,8.057507,26.04332,9.292212,-3.363066,18.1402,12.67763,49.26388,0.6779679,-12.37405,-96.38443,-11.45084,14.36226,0,0,0,19.81147,-49.70275,-28.40341,79.38263,-105.3243,-99.98305,0.001067912,-0.1257102,0.09433498,0,0.3,0,0,0.06350395,0
638224222831648091,6.502549,27.3525,9.969283,-5.633667,16.08934,12.67763,49.26388,0.6779679,-12.37405,-96.38443,-11.45084,14.36226,0,0,0,16.02752,-46.71704,-27.73387,79.38263,-105.3243,-99.98305,0.001067912,-0.1257102,0.09433498,0,0.3,0,0,0.06375429,0
638224222831987984,5.677951,27.67979,10.15606,-6.80559,15.2104,12.60438,49.26388,0.6779679,-12.37405,-96.38443,-11.3776,14.36226,0,0,0,14.00972,-45.96551,-27.44205,79.38263,-105.3243,-99.98305,0.001067912,-0.1257102,0.09433498,0,0.3,0,0,0.06382474,0
638224222832328022,4.052313,27.93695,10.36619,-9.076189,14.03847,12.60438,49.26388,0.6779679,-12.37405,-96.38443,-11.45084,14.36226,0,0,0,10.02095,-45.349,-26.89982,79.38263,-105.3243,-99.98305,0.001067912,-0.1257102,0.09433498,0,0.3,0,0,0.06387512,0
638224222832677764,2.355996,27.98371,10.52962,-11.34679,13.30602,12.67763,49.26388,0.6779679,-12.37405,-96.38443,-11.45084,14.36226,0,0,0,5.84263,-45.18391,-26.3424,79.38263,-105.3243,-99.98305,0.001067912,-0.1257102,0.09433498,0,0.3,0,0,0.0638097,0
638224222833017780,0.4240793,27.98371,10.73974,-13.76388,12.72006,12.60438,49.26388,0.6779679,-12.37405,-96.38443,-11.45084,14.36226,0,0,0,1.055518,-45.09366,-25.74553,79.38263,-105.3243,-99.98305,0.001067912,-0.1257102,0.09433498,0,0.3,0,0,0.063618,0
638224222833357714,-0.6361189,27.98371,10.94987,-15.15554,12.57357,12.67763,49.26388,0.6779679,-12.37405,-96.38443,-11.45084,14.36226,0,0,0,-1.588591,-45.00164,-25.27013,79.38263,-105.3243,-99.98305,0.001067912,-0.1257102,0.09433498,0,0.3,0,0,0.06346588,0
638224222833697522,-2.756516,27.98371,11.53355,-18.37833,11.98761,12.60438,49.26388,0.6779679,-12.37405,-96.38443,-11.45084,14.36226,0,0,0,-6.945457,-44.73682,-24.09603,79.38263,-105.3243,-99.98305,0.001067912,-0.1257102,0.09433498,0,0.3,0,0,0.06303651,0
638224222834047319,-4.759112,27.98371,12.23397,-21.45462,11.47489,12.67763,49.26388,0.6779679,-12.37405,-96.38443,-11.45084,14.36226,0,0,0,-12.11449,-44.40113,-22.83713,79.38263,-105.3243,-99.98305,0.001067912,-0.1257102,0.09433498,0,0.3,0,0,0.06244399,0
638224222834377222,-5.677951,27.98371,12.63087,-22.99277,11.10867,12.60438,49.26388,0.6779679,-12.37405,-96.38443,-11.45084,14.36226,0,0,0,-14.53563,-44.20226,-22.15245,79.38263,-105.3243,-99.98305,0.001067912,-0.1257102,0.09433498,0,0.3,0,0,0.06208719,0
638224222834717114,-7.303588,27.98371,13.49472,-25.70284,10.52271,12.60438,49.26388,0.6779679,-12.37405,-96.38443,-11.45084,14.36226,0,0,0,-18.92623,-43.74784,-20.68107,79.38263,-105.3243,-99.98305,0.001067912,-0.1257102,0.09433498,0,0.3,0,0,0.0612299,0
638224222835066994,-9.188385,27.98371,14.59204,-28.11993,9.936745,12.60438,49.26388,0.6779679,-12.37405,-96.38443,-11.45084,14.36226,0,0,0,-24.16843,-43.12813,-18.9377,79.38263,-105.3243,-99.98305,0.001067912,-0.1257102,0.09433498,0,0.3,0,0,0.06023184,0
638224222835447053,-10.1779,28.03047,15.19907,-29.58484,9.570518,12.67763,49.26388,0.6779679,-12.37405,-96.38443,-11.3776,14.36226,0,0,0,-26.97733,-42.66889,-18.08382,79.38263,-105.3243,-99.98305,0.001067912,-0.1257102,0.09433498,0,0.3,0,0,0.05966102,0
638224222835746786,-12.15694,28.40452,16.62325,-32.51464,8.838067,12.60438,49.26388,0.6779679,-12.37405,-96.38443,-11.45084,14.36226,0,0,0,-32.73509,-40.99311,-16.39139,79.38263,-105.3243,-99.98305,0.001067912,-0.1257102,0.09433498,0,0.3,0,0,0.05835224,0
638224222836076681,-13.99462,29.03573,18.21087,-35.44445,7.666144,12.67763,49.26388,0.6779679,-12.37405,-96.38443,-11.3776,14.36226,0,0,0,-38.27312,-38.59879,-14.78343,79.38263,-105.3243,-99.98305,0.001067912,-0.1257102,0.09433498,0,0.3,0,0,0.05684247,0
638224222836426572,-15.62025,29.64356,19.82183,-38.52075,6.347731,12.60438,49.26388,0.6779679,-12.37405,-96.38443,-11.45084,14.36226,0,0,0,-43.38202,-36.14395,-13.18487,79.38263,-105.3243,-99.98305,0.001067912,-0.1257102,0.09433498,0,0.3,0,0,0.0551302,0
638224222836756464,-16.30349,29.94748,20.56894,-40.13214,5.615279,12.60438,49.26388,0.6779679,-12.37405,-96.38443,-11.45084,14.36226,0,0,0,-45.58865,-34.92984,-12.48427,79.38263,-105.3243,-99.98305,0.001067912,-0.1257102,0.09433498,0,0.3,0,0,0.0542075,0
638224222837096355,-17.43437,30.48518,21.75965,-43.06195,4.443357,12.60438,49.26388,0.6779679,-12.37405,-96.38443,-11.45084,14.36226,0,0,0,-49.24156,-32.84792,-11.54968,79.38263,-105.3243,-99.98305,0.001067912,-0.1257102,0.09433498,0,0.3,0,0,0.05225793,0
638224222837436242,-18.02337,30.74234,22.24994,-45.55228,3.491169,12.60438,49.26388,0.6779679,-12.37405,-96.38443,-11.45084,14.36226,0,0,0,-51.08387,-31.90527,-11.34793,79.38263,-105.3243,-99.98305,0.001067912,-0.1257102,0.09433498,0,0.3,0,0,0.05023421,0
638224222837776138,-18.07049,30.78909,22.24994,-46.43123,3.198189,12.60438,49.26388,0.6779679,-12.37405,-96.38443,-11.45084,14.36226,0,0,0,-51.19571,-31.81176,-11.44292,79.38263,-105.3243,-99.98305,0.001067912,-0.1257102,0.09433498,0,0.3,0,0,0.04922166,0
638224222838116020,-17.99981,30.78909,22.08651,-47.6764,2.831963,12.60438,49.26388,0.6779679,-12.37405,-96.38443,-11.45084,14.36226,0,0,0,-50.89326,-31.95529,-11.71489,79.38263,-105.3243,-99.98305,0.001067912,-0.1257102,0.09433498,0,0.3,0,0,0.04722025,0
638224222838455914,-17.29301,30.78909,21.61957,-48.11587,2.612227,12.67763,49.26388,0.6779679,-12.37405,-96.38443,-11.45084,14.36226,0,0,0,-48.65735,-32.35981,-12.06209,79.38263,-105.3243,-99.98305,0.001067912,-0.1257102,0.09433498,0,0.3,0,0,0.04529336,0
638224222838795813,-16.60977,30.74234,21.19932,-47.6764,2.538982,12.60438,49.26388,0.6779679,-12.37405,-96.38443,-11.45084,14.36226,0,0,0,-46.54586,-32.81035,-12.31224,79.38263,-105.3243,-99.98305,0.001067912,-0.1257102,0.09433498,0,0.3,0,0,0.04438357,0
638224222839135696,-14.96058,30.57869,20.28877,-45.77202,2.465737,12.60438,49.26388,0.6779679,-12.37405,-96.38443,-11.45084,14.36226,0,0,0,-41.57435,-33.88857,-12.76426,79.38263,-105.3243,-99.98305,0.001067912,-0.1257102,0.09433498,0,0.3,0,0,0.04269428,0
638224222839475596,-13.0051,30.18126,19.14476,-42.76897,2.685472,12.60438,49.26388,0.6779679,-12.37405,-96.38443,-11.45084,14.36226,0,0,0,-35.78233,-35.5848,-13.42259,79.38263,-105.3243,-99.98305,0.001067912,-0.1257102,0.09433498,0,0.3,0,0,0.04120543,0
638224222839815485,-11.9449,29.87734,18.53773,-40.93784,2.831963,12.67763,49.26388,0.6779679,-12.37405,-96.38443,-11.45084,14.36226,0,0,0,-32.70613,-36.65345,-13.74886,79.38263,-105.3243,-99.98305,0.001067912,-0.1257102,0.09433498,0,0.3,0,0,0.0405421,0
638224222840145385,-9.730264,29.05911,17.46376,-36.90935,3.124943,12.60438,49.26388,0.6779679,-12.37405,-96.38443,-11.52409,14.36226,0,0,0,-26.464,-39.08385,-14.0201,79.38263,-105.3243,-99.98305,0.001067912,-0.1257102,0.09433498,0,0.3,0,0,0.03937961,0
638224222840495263,-7.609867,28.07722,16.52986,-32.66114,4.150376,12.82412,49.26388,0.6779679,-12.37405,-96.38443,-11.45084,14.36226,0,0,0,-20.60521,-41.72619,-14.12372,79.38263,-105.3243,-99.98305,0.001067912,-0.1257102,0.09433498,0,0.3,0,0,0.03841555,0
638224222840835304,-5.607271,27.00183,15.71271,-28.48616,5.542034,13.62981,49.26388,0.6779679,-12.37405,-96.38443,-11.45084,14.36226,0,0,0,-15.13778,-44.47352,-14.16449,79.38263,-105.3243,-99.98305,0.001067912,-0.1257102,0.09433498,0,0.3,0,0,0.03764194,0
638224222841175049,-4.523513,26.34723,15.31581,-26.21556,6.347731,14.21577,49.26388,0.6779679,-12.37405,-96.38443,-11.45084,14.36226,0,0,0,-12.20254,-46.08194,-14.11128,79.38263,-105.3243,-99.98305,0.001067912,-0.1257102,0.09433498,0,0.3,0,0,0.03732552,0
638224222841514944,-2.568036,24.80427,14.63874,-21.67436,7.959125,15.68068,49.26388,0.6779679,-12.37405,-96.38443,-11.45084,14.36226,0,0,0,-6.933617,-49.7283,-13.75677,79.38263,-105.3243,-99.98305,0.001067912,-0.1257102,0.09433498,0,0.3,0,0,0.03682394,0
638224222841864830,-0.7067988,23.1678,14.05505,-17.64587,10.00999,17.21883,49.26388,0.6779679,-12.37405,-96.38443,-11.45084,14.36226,0,0,0,-1.911789,-53.54462,-13.38099,79.38263,-105.3243,-99.98305,0.001067912,-0.1257102,0.09433498,0,0.3,0,0,0.03648854,0
638224222842204727,0.3062795,22.23267,13.79823,-15.52176,11.10867,18.02452,49.26388,0.6779679,-12.37405,-96.38443,-11.45084,14.36226,0,0,0,0.8298476,-55.69627,-13.11168,79.38263,-105.3243,-99.98305,0.001067912,-0.1257102,0.09433498,0,0.3,0,0,0.03638347,0
638224222842544618,2.120397,20.36242,13.47137,-11.49328,12.9398,19.41618,49.26388,0.6779679,-12.37405,-96.38443,-11.45084,14.36226,0,0,0,5.774955,-59.93098,-12.37471,79.38263,-105.3243,-99.98305,0.001067912,-0.1257102,0.09433498,0,0.3,0,0,0.03628422,0
638224222842884502,3.769594,18.32851,13.16786,-7.831022,15.2104,20.66135,49.26388,0.6779679,-12.37405,-96.38443,-11.45084,14.36226,0,0,0,10.31942,-64.55992,-11.7268,79.38263,-105.3243,-99.98305,0.001067912,-0.1257102,0.09433498,0,0.3,0,0,0.03632145,0
638224222843234388,5.183192,15.92056,12.91104,-4.461744,17.70073,21.83327,49.26388,0.6779679,-12.37405,-96.38443,-11.45084,14.36226,0,0,0,14.27654,-70.05019,-10.96566,79.38263,-105.3243,-99.98305,0.001067912,-0.1257102,0.09433498,0,0.3,0,0,0.03648454,0
638224222843574291,5.748631,14.61138,12.88769,-2.85035,18.87265,22.27274,49.26388,0.6779679,-12.37405,-96.38443,-11.45084,14.36226,0,0,0,15.90407,-73.00172,-10.3687,79.38263,-105.3243,-99.98305,0.001067912,-0.1257102,0.09433498,0,0.3,0,0,0.03660228,0
638224222843914172,6.620349,11.82937,12.841,-0.4332596,21.58273,22.8587,49.26388,0.6779679,-12.37405,-96.38443,-11.45084,14.36226,0,0,0,18.4642,-79.32854,-9.263432,79.38263,-105.3243,-99.98305,0.001067912,-0.1257102,0.09433498,0,0.3,0,0,0.0368933,0
638224222844254062,7.209348,9.211012,12.86434,1.104889,24.43929,23.15168,49.26388,0.6779679,-12.37405,-96.38443,-11.45084,14.36226,0,0,0,20.24487,-85.30745,-8.305332,79.38263,-105.3243,-99.98305,0.001067912,-0.1257102,0.09433498,0,0.3,0,0,0.03723718,0
638224222844603962,7.350708,7.995345,12.86434,1.617605,25.7577,23.22493,49.26388,0.6779679,-12.37405,-96.38443,-11.45084,14.36226,0,0,0,20.69382,-88.1049,-7.936012,79.38263,-105.3243,-99.98305,0.001067912,-0.1257102,0.09433498,0,0.3,0,0,0.03742016,0
638224222844940591,7.327148,5.423743,12.98108,2.350057,28.54102,23.29818,49.26388,0.6779679,-12.37405,-96.38443,-11.45084,14.36226,0,0,0,20.7508,-93.98779,-6.971356,79.38263,-105.3243,-99.98305,0.001067912,-0.1257102,0.09433498,0,0.3,0,0,0.03778587,0
638224222845280480,6.973749,3.296327,13.16786,2.643037,30.51864,23.51791,49.26388,0.6779679,-12.37405,-96.38443,-11.45084,14.36226,0,0,0,19.85215,-98.82618,-6.052519,79.38263,-105.3243,-99.98305,0.001067912,-0.1257102,0.09433498,0,0.3,0,0,0.03812636,0
638224222845620372,5.91355,1.683231,13.21455,2.423302,32.20328,24.54334,49.26388,0.6779679,-12.37405,-96.38443,-11.45084,14.36226,0,0,0,16.87348,-102.552,-5.445516,79.38263,-105.3243,-99.98305,0.001067912,-0.1257102,0.09433498,0,0.3,0,0,0.03840567,0
638224222845960263,5.041832,1.052019,13.12116,1.837341,33.00897,25.27579,49.26388,0.6779679,-12.37405,-96.38443,-11.45084,14.36226,0,0,0,14.37762,-104.0702,-5.383554,79.38263,-105.3243,-99.98305,0.001067912,-0.1257102,0.09433498,0,0.3,0,0,0.03851098,0
638224222846300174,2.921435,0.3974294,12.44409,-0.4332596,34.40063,26.22798,49.26388,0.6779679,-12.37405,-96.38443,-11.45084,14.36226,0,0,0,8.260762,-105.9422,-6.478682,79.38263,-105.3243,-99.98305,0.001067912,-0.1257102,0.09433498,0,0.3,0,0,0.03865279,0
638224222846640228,0.04711992,0.3272949,11.5102,-4.242009,35.42606,26.7407,49.26388,0.6779679,-12.37405,-96.38443,-11.45084,14.36226,0,0,0,0.1315481,-106.5565,-8.393249,79.38263,-105.3243,-99.98305,0.001067912,-0.1257102,0.09433498,0,0.3,0,0,0.03868123,0
638224222846989935,-1.531397,0.3974294,11.15999,-6.439363,35.6458,26.88719,49.26388,0.6779679,-12.37405,-96.38443,-11.45084,14.36226,0,0,0,-4.253419,-106.5535,-9.250249,79.38263,-105.3243,-99.98305,0.001067912,-0.1257102,0.09433498,0,0.3,0,0,0.03864042,0
638224222847329827,-4.900472,0.7247244,10.6697,-12.15249,35.49931,26.52096,49.26388,0.6779679,-12.37405,-96.38443,-11.45084,14.36226,0,0,0,-13.49962,-106.0078,-10.89898,79.38263,-105.3243,-99.98305,0.001067912,-0.1257102,0.09433498,0,0.3,0,0,0.03842732,0
638224222847659754,-7.963267,1.42607,10.52962,-18.37833,34.47387,25.27579,49.26388,0.6779679,-12.37405,-96.38443,-11.45084,14.36226,0,0,0,-21.84437,-104.4358,-12.19289,79.38263,-105.3243,-99.98305,0.001067912,-0.1257102,0.09433498,0,0.3,0,0,0.03803772,0
638224222847999611,-9.282625,1.846878,10.52962,-21.23489,33.74142,24.61659,49.26388,0.6779679,-12.37405,-96.38443,-11.45084,14.36226,0,0,0,-25.4296,-103.4568,-12.76486,79.38263,-105.3243,-99.98305,0.001067912,-0.1257102,0.09433498,0,0.3,0,0,0.03778369,0
638224222848339505,-11.68574,2.828763,10.57631,-26.28881,31.98354,22.56572,49.26388,0.6779679,-12.37405,-96.38443,-11.45084,14.36226,0,0,0,-31.93368,-101.1536,-13.95462,79.38263,-105.3243,-99.98305,0.001067912,-0.1257102,0.09433498,0,0.3,0,0,0.03717006,0
638224222848679541,-13.87682,4.044429,10.78644,-30.75676,29.93268,20.07539,49.26388,0.6779679,-12.37405,-96.38443,-11.45084,14.36226,0,0,0,-37.88778,-98.23874,-14.9865,79.38263,-105.3243,-99.98305,0.001067912,-0.1257102,0.09433498,0,0.3,0,0,0.03642318,0
638224222849029286,-15.78517,5.517256,11.01991,-34.78524,27.66208,16.99909,49.26388,0.6779679,-12.37405,-96.38443,-11.45084,14.36226,0,0,0,-43.04135,-94.72013,-16.09471,79.38263,-105.3243,-99.98305,0.001067912,-0.1257102,0.09433498,0,0.3,0,0,0.03555226,0
638224222849369176,-16.58621,6.288737,11.13665,-36.61637,26.5634,15.31445,49.26388,0.6779679,-12.37405,-96.38443,-11.3776,14.36226,0,0,0,-45.18912,-92.88191,-16.63277,79.38263,-105.3243,-99.98305,0.001067912,-0.1257102,0.09433498,0,0.3,0,0,0.03507753,0
638224222849709069,-17.90557,7.948589,11.46351,-40.35188,24.21955,11.21272,49.26388,0.6779679,-12.37405,-96.38443,-11.45084,14.36226,0,0,0,-48.75262,-88.89963,-17.45915,79.38263,-105.3243,-99.98305,0.001067912,-0.1257102,0.09433498,0,0.3,0,0,0.03406183,0
638224222850048960,-18.54169,9.561686,11.5569,-43.28168,22.24193,7.257483,49.26388,0.6779679,-12.37405,-96.38443,-11.45084,14.36226,0,0,0,-50.31084,-85.14581,-18.34955,79.38263,-105.3243,-99.98305,0.001067912,-0.1257102,0.09433498,0,0.3,0,0,0.03299822,0
638224222850378853,-18.61237,10.45006,11.53355,-44.52685,21.28975,5.572844,49.26388,0.6779679,-12.37405,-96.38443,-11.45084,14.28902,0,0,0,-50.36419,-83.12056,-18.80264,79.38263,-105.3243,-99.98305,0.001067912,-0.1257102,0.09433498,0,0.3,0,0,0.03246463,0
638224222850718746,-18.61237,12.27356,11.41681,-46.13824,19.45862,2.643037,49.26388,0.6779679,-12.37405,-96.38443,-11.45084,14.36226,0,0,0,-50.01237,-79.01395,-19.8473,79.38263,-105.3243,-99.98305,0.001067912,-0.1257102,0.09433498,0,0.3,0,0,0.03140843,0
638224222851058638,-18.54169,14.02692,11.23003,-46.94394,17.92047,0.3724372,49.26388,0.6779679,-12.37405,-96.38443,-11.45084,14.36226,0,0,0,-49.39839,-75.12569,-21.07001,79.38263,-105.3243,-99.98305,0.001067912,-0.1257102,0.09433498,0,0.3,0,0,0.03037144,0
638224222851398529,-18.30609,15.07894,11.0666,-47.31017,17.11477,-0.5065048,49.26388,0.6779679,-12.37405,-96.38443,-11.3776,14.36226,0,0,0,-48.4819,-72.82937,-21.80652,79.38263,-105.3243,-99.98305,0.001067912,-0.1257102,0.09433498,0,0.3,0,0,0.02986943,0
638224222851738422,-17.52861,16.64528,10.69305,-46.72421,15.94285,-1.312202,49.26388,0.6779679,-12.37405,-96.38443,-11.45084,14.36226,0,0,0,-45.93174,-69.48689,-22.9264,79.38263,-105.3243,-99.98305,0.001067912,-0.1257102,0.09433498,0,0.3,0,0,0.02891563,0
638224222852078312,-16.39773,17.86095,10.20275,-45.33255,15.06391,-1.605182,49.26388,0.6779679,-12.37405,-96.38443,-11.45084,14.36226,0,0,0,-42.49898,-66.99184,-23.92976,79.38263,-105.3243,-99.98305,0.001067912,-0.1257102,0.09433498,0,0.3,0,0,0.02804852,0
638224222852418207,-14.96058,18.7727,9.689116,-43.13519,14.77092,-1.605182,49.26388,0.6779679,-12.37405,-96.38443,-11.45084,14.36226,0,0,0,-38.38735,-65.18385,-24.69113,79.38263,-105.3243,-99.98305,0.001067912,-0.1257102,0.09433498,0,0.3,0,0,0.02771034,0
638224222852748099,-14.0653,19.1935,9.408949,-41.74353,14.77092,-1.312202,49.26388,0.6779679,-12.37405,-96.38443,-11.45084,14.36226,0,0,0,-35.90431,-64.36591,-25.04164,79.38263,-105.3243,-99.98305,0.001067912,-0.1257102,0.09433498,0,0.3,0,0,0.02739901,0
638224222853087992,-11.99202,19.82472,8.778571,-38.66724,14.84417,-0.0670338,49.26388,0.6779679,-12.37405,-96.38443,-11.45084,14.36226,0,0,0,-30.29331,-63.21305,-25.73349,79.38263,-105.3243,-99.98305,0.001067912,-0.1257102,0.09433498,0,0.3,0,0,0.02687391,0
638224222853427874,-9.706704,20.17539,8.264932,-34.712,15.06391,1.324624,49.26388,0.6779679,-12.37405,-96.38443,-11.45084,14.36226,0,0,0,-24.33589,-62.62327,-26.07942,79.38263,-105.3243,-99.98305,0.001067912,-0.1257102,0.09433498,0,0.3,0,0,0.02649407,0
638224222853767768,-8.528707,20.29228,8.03146,-32.73438,15.28364,2.057076,49.26388,0.6779679,-12.37405,-96.38443,-11.45084,14.36226,0,0,0,-21.31215,-62.44502,-26.23418,79.38263,-105.3243,-99.98305,0.001067912,-0.1257102,0.09433498,0,0.3,0,0,0.02635923,0
638224222854107656,-6.14915,20.52606,7.611208,-28.85239,15.72311,3.595225,49.26388,0.6779679,-12.37405,-96.38443,-11.45084,14.36226,0,0,0,-15.26912,-62.06817,-26.62392,79.38263,-105.3243,-99.98305,0.001067912,-0.1257102,0.09433498,0,0.3,0,0,0.0261996,0
638224222854447548,-3.463314,20.71309,7.307694,-24.31118,16.23583,5.572844,49.26388,0.6779679,-12.37405,-96.38443,-11.45084,14.36226,0,0,0,-8.559565,-61.75248,-26.91626,79.38263,-105.3243,-99.98305,0.001067912,-0.1257102,0.09433498,0,0.3,0,0,0.02619347,0
638224222854787450,-2.049716,20.78322,7.237653,-21.82085,16.60205,6.818012,49.26388,0.6779679,-12.37405,-96.38443,-11.45084,14.36226,0,0,0,-5.060018,-61.62048,-26.96753,79.38263,-105.3243,-99.98305,0.001067912,-0.1257102,0.09433498,0,0.3,0,0,0.02624889,0
638224222855117342,0.9895183,20.92349,7.190958,-16.5472,17.26126,9.454838,49.26388,0.6779679,-12.37405,-96.38443,-11.45084,14.36226,0,0,0,2.439298,-61.32904,-27.1221,79.38263,-105.3243,-99.98305,0.001067912,-0.1257102,0.09433498,0,0.3,0,0,0.02647873,0
638224222855467234,4.028753,21.22741,7.261,-10.68758,17.92047,12.3114,49.26388,0.6779679,-12.37405,-96.38443,-11.45084,14.36226,0,0,0,9.917232,-60.64852,-27.54248,79.38263,-105.3243,-99.98305,0.001067912,-0.1257102,0.09433498,0,0.3,0,0,0.02686815,0
638224222855807112,5.300992,21.41443,7.354388,-8.124002,18.1402,13.48332,49.26388,0.6779679,-12.37405,-96.38443,-11.45084,14.36226,0,0,0,13.04642,-60.21539,-27.74031,79.38263,-105.3243,-99.98305,0.001067912,-0.1257102,0.09433498,0,0.3,0,0,0.02712218,0
638224222856137173,7.845467,22.13916,7.541167,-2.410879,18.43318,15.82717,49.26388,0.6779679,-12.37405,-96.38443,-11.45084,14.36226,0,0,0,19.24933,-58.5927,-28.65103,79.38263,-105.3243,-99.98305,0.001067912,-0.1257102,0.09433498,0,0.3,0,0,0.02771991,0
638224222856486899,9.848064,23.49509,7.821334,2.350057,18.1402,17.43856,49.26388,0.6779679,-12.37405,-96.38443,-11.45084,14.36226,0,0,0,24.02054,-55.59676,-29.97806,79.38263,-105.3243,-99.98305,0.001067912,-0.1257102,0.09433498,0,0.3,0,0,0.02842229,0
638224222856826798,11.19098,25.43548,8.19489,6.232051,17.18801,18.53724,49.26388,0.6779679,-12.37405,-96.38443,-11.45084,14.36226,0,0,0,27.06098,-51.36526,-31.56909,79.38263,-105.3243,-99.98305,0.001067912,-0.1257102,0.09433498,0,0.3,0,0,0.02918233,0
638224222857166708,11.61506,26.65115,8.521752,7.843444,16.52881,18.97671,49.26388,0.6779679,-12.37405,-96.38443,-11.45084,14.36226,0,0,0,27.97406,-48.71267,-32.25265,79.38263,-105.3243,-99.98305,0.001067912,-0.1257102,0.09433498,0,0.3,0,0,0.02956708,0
638224222857496723,11.96846,29.03573,9.198823,10.18729,15.06391,19.70916,49.26388,0.6779679,-12.37405,-96.38443,-11.45084,14.36226,0,0,0,28.59835,-43.56298,-33.4402,79.38263,-105.3243,-99.98305,0.001067912,-0.1257102,0.09433498,0,0.3,0,0,0.03030748,0
638224222857836476,11.96846,31.58395,10.03932,11.72544,13.37927,20.29512,49.26388,0.6779679,-12.37405,-96.38443,-11.45084,14.36226,0,0,0,28.37767,-38.11648,-34.48125,79.38263,-105.3243,-99.98305,0.001067912,-0.1257102,0.09433498,0,0.3,0,0,0.0309816,0
638224222858176366,11.9449,32.91651,10.57631,12.23815,12.28059,20.51486,49.26388,0.6779679,-12.37405,-96.38443,-11.45084,14.36226,0,0,0,28.23459,-35.26999,-34.8857,79.38263,-105.3243,-99.98305,0.001067912,-0.1257102,0.09433498,0,0.3,0,0,0.0312839,0
638224222858516403,11.75642,35.83878,11.72033,13.04385,9.643764,20.95433,49.26388,0.6779679,-12.37405,-96.38443,-11.45084,14.36226,0,0,0,27.54527,-29.14246,-35.9954,79.38263,-105.3243,-99.98305,0.001067912,-0.1257102,0.09433498,0,0.3,0,0,0.03180591,0
638224222858856149,11.42658,38.41039,12.67757,13.41008,7.226673,21.10082,49.26388,0.6779679,-12.37405,-96.38443,-11.45084,14.36226,0,0,0,26.49869,-23.9,-37.24508,79.38263,-105.3243,-99.98305,0.001067912,-0.1257102,0.09433498,0,0.3,0,0,0.0322123,0
638224222859196035,11.2381,39.71957,13.14451,13.48332,6.127995,21.17406,49.26388,0.6779679,-12.37405,-96.38443,-11.45084,14.36226,0,0,0,25.89949,-21.29145,-38.00299,79.38263,-105.3243,-99.98305,0.001067912,-0.1257102,0.09433498,0,0.3,0,0,0.03237502,0
638224222859526191,10.95538,42.08076,13.96167,13.26359,4.077131,21.17406,49.26388,0.6779679,-12.37405,-96.38443,-11.45084,14.36226,0,0,0,24.92361,-16.69232,-39.59388,79.38263,-105.3243,-99.98305,0.001067912,-0.1257102,0.09433498,0,0.3,0,0,0.03262215,0
638224222859875827,10.69622,44.20818,14.68543,12.97061,2.099511,21.10082,49.26388,0.6779679,-12.37405,-96.38443,-11.45084,14.36226,0,0,0,24.0155,-12.66314,-41.20562,79.38263,-105.3243,-99.98305,0.001067912,-0.1257102,0.09433498,0,0.3,0,0,0.03277833,0
638224222860215716,10.57842,45.23682,15.03564,12.75087,1.147324,21.02757,49.26388,0.6779679,-12.37405,-96.38443,-11.45084,14.36226,0,0,0,23.5894,-10.75309,-42.03807,79.38263,-105.3243,-99.98305,0.001067912,-0.1257102,0.09433498,0,0.3,0,0,0.03282489,0
638224222860555606,10.36638,47.03695,15.64267,12.60438,-0.5373149,20.66135,49.26388,0.6779679,-12.37405,-96.38443,-11.45084,14.36226,0,0,0,22.82343,-7.47635,-43.58267,79.38263,-105.3243,-99.98305,0.001067912,-0.1257102,0.09433498,0,0.3,0,0,0.0328612,0
638224222860895504,10.08366,48.81369,16.38978,12.75087,-2.295199,20.51486,49.26388,0.6779679,-12.37405,-96.38443,-11.45084,14.36226,0,0,0,21.96273,-4.225722,-44.84797,79.38263,-105.3243,-99.98305,0.001067912,-0.1257102,0.09433498,0,0.3,0,0,0.03282774,0
638224222861245387,9.683144,50.89435,17.25363,13.26359,-3.906592,20.36837,49.26388,0.6779679,-12.37405,-96.38443,-11.45084,14.36226,0,0,0,20.79999,-0.5219125,-46.44911,79.38263,-105.3243,-99.98305,0.001067912,-0.1257102,0.09433498,0,0.3,0,0,0.03271515,0
638224222861585281,9.400424,52.0165,17.74392,13.48332,-4.785534,20.36837,49.26388,0.6779679,-12.37405,-96.38443,-11.3776,14.36226,0,0,0,20.04236,1.448583,-47.28949,79.38263,-105.3243,-99.98305,0.001067912,-0.1257102,0.09433498,0,0.3,0,0,0.03262578,0
638224222861925171,8.764306,54.56472,19.05137,13.84955,-6.689909,20.66135,49.26388,0.6779679,-12.37405,-96.38443,-11.45084,14.36226,0,0,0,18.41265,5.953786,-48.91942,79.38263,-105.3243,-99.98305,0.001067912,-0.1257102,0.09433498,0,0.3,0,0,0.0323686,0
638224222862265065,7.869027,57.04282,20.35881,13.99604,-8.740773,20.80784,49.26388,0.6779679,-12.37405,-96.38443,-11.45084,14.36226,0,0,0,16.28345,10.22103,-50.5337,79.38263,-105.3243,-99.98305,0.001067912,-0.1257102,0.09433498,0,0.3,0,0,0.031975,0
638224222862594960,7.350708,58.28186,20.98919,13.99604,-9.766206,20.95433,49.26388,0.6779679,-12.37405,-96.38443,-11.45084,14.36226,0,0,0,15.08088,12.28151,-51.44628,79.38263,-105.3243,-99.98305,0.001067912,-0.1257102,0.09433498,0,0.3,0,0,0.03173988,0
638224222862934842,6.10203,60.75995,22.20325,13.48332,-11.96356,21.3938,49.26388,0.6779679,-12.37405,-96.38443,-11.45084,14.36226,0,0,0,12.28071,16.24667,-53.47506,79.38263,-105.3243,-99.98305,0.001067912,-0.1257102,0.09433498,0,0.3,0,0,0.03117737,0
638224222863264743,4.664873,63.02763,23.25388,12.53114,-13.72145,21.76003,49.26388,0.6779679,-12.37405,-96.38443,-11.45084,14.36226,0,0,0,9.200551,19.67766,-55.59505,79.38263,-105.3243,-99.98305,0.001067912,-0.1257102,0.09433498,0,0.3,0,0,0.03049306,0
638224222863604635,3.910954,64.10303,23.72082,11.87193,-14.4539,21.90652,49.26388,0.6779679,-12.37405,-96.38443,-11.45084,14.36226,0,0,0,7.631249,21.22499,-56.72528,79.38263,-105.3243,-99.98305,0.001067912,-0.1257102,0.09433498,0,0.3,0,0,0.03010795,0
638224222863944525,2.261756,66.04342,24.70141,10.26054,-16.13853,22.05301,49.26388,0.6779679,-12.37405,-96.38443,-11.45084,14.36226,0,0,0,4.336063,24.06416,-58.56406,79.38263,-105.3243,-99.98305,0.001067912,-0.1257102,0.09433498,0,0.3,0,0,0.0292563,0
638224222864284411,0.2827196,67.82017,25.77538,8.209671,-17.74993,22.12625,49.26388,0.6779679,-12.37405,-96.38443,-11.45084,14.36226,0,0,0,0.5345305,26.75014,-60.02324,79.38263,-105.3243,-99.98305,0.001067912,-0.1257102,0.09433498,0,0.3,0,0,0.0282934,0
638224222864624313,-2.096837,69.22286,26.94275,5.646089,-19.43457,22.1995,49.26388,0.6779679,-12.37405,-96.38443,-11.45084,14.36226,0,0,0,-3.941487,29.15173,-60.69749,79.38263,-105.3243,-99.98305,0.001067912,-0.1257102,0.09433498,0,0.3,0,0,0.02721003,0
638224222864964200,-3.392634,69.69042,27.43304,4.034696,-20.09377,22.34599,49.26388,0.6779679,-12.37405,-96.38443,-11.45084,14.36226,0,0,0,-6.374699,30.05498,-60.81812,79.38263,-105.3243,-99.98305,0.001067912,-0.1257102,0.09433498,0,0.3,0,0,0.02661927,0
638224222865304093,-6.384749,70.18137,28.2035,0.07945653,-21.2657,22.93195,49.26388,0.6779679,-12.37405,-96.38443,-11.45084,14.36226,0,0,0,-12.03602,31.28378,-60.78799,79.38263,-105.3243,-99.98305,0.001067912,-0.1257102,0.09433498,0,0.3,0,0,0.02534322,0
638224222865643989,-9.353305,70.20474,28.85722,-4.461744,-21.70517,23.44467,49.26388,0.6779679,-12.37405,-96.38443,-11.45084,14.36226,0,0,0,-17.79921,32.02891,-60.28722,79.38263,-105.3243,-99.98305,0.001067912,-0.1257102,0.09433498,0,0.3,0,0,0.02394179,0
638224222865979027,-10.93182,70.18137,29.20743,-6.878834,-21.85166,23.95738,49.26388,0.6779679,-12.37405,-96.38443,-11.45084,14.36226,0,0,0,-20.91409,32.40603,-60.06856,79.38263,-105.3243,-99.98305,0.001067912,-0.1257102,0.09433498,0,0.3,0,0,0.02319419,0
638224222866318928,-14.34802,69.94759,29.93119,-12.07924,-21.77841,25.27579,49.26388,0.6779679,-12.37405,-96.38443,-11.45084,14.36226,0,0,0,-27.81908,33.05176,-59.59227,79.38263,-105.3243,-99.98305,0.001067912,-0.1257102,0.09433498,0,0.3,0,0,0.02159772,0
638224222866658817,-17.74065,69.7138,30.91178,-18.0121,-21.48543,26.66745,49.26388,0.6779679,-12.37405,-96.38443,-11.45084,14.36226,0,0,0,-34.96169,34.01976,-59.06831,79.38263,-105.3243,-99.98305,0.001067912,-0.1257102,0.09433498,0,0.3,0,0,0.01984695,0
638224222866988712,-19.34273,69.57353,31.51881,-20.94191,-21.33894,27.47315,49.26388,0.6779679,-12.37405,-96.38443,-11.45084,14.36226,0,0,0,-38.50488,34.63838,-58.65963,79.38263,-105.3243,-99.98305,0.001067912,-0.1257102,0.09433498,0,0.3,0,0,0.01890921,0
638224222867318605,-22.3584,69.12935,32.66283,-26.94801,-21.04596,28.64507,49.26388,0.6779679,-12.37405,-96.38443,-11.45084,14.36226,0,0,0,-45.44834,35.68834,-57.85645,79.38263,-105.3243,-99.98305,0.001067912,-0.1257102,0.09433498,0,0.3,0,0,0.01690284,0
638224222867658630,-24.92644,68.75529,33.99362,-32.51464,-20.53325,29.37753,49.26388,0.6779679,-12.37405,-96.38443,-11.45084,14.36226,0,0,0,-51.78649,37.07725,-56.92023,79.38263,-105.3243,-99.98305,0.001067912,-0.1257102,0.09433498,0,0.3,0,0,0.0147247,0
638224222867998391,-25.98664,68.61503,34.74073,-35.29796,-20.24026,29.74375,49.26388,0.6779679,-12.37405,-96.38443,-11.45084,14.36226,0,0,0,-54.60154,37.94014,-56.33395,79.38263,-105.3243,-99.98305,0.001067912,-0.1257102,0.09433498,0,0.3,0,0,0.0135724,0
638224222868328287,-28.10703,68.19422,36.07153,-40.42512,-19.87404,30.4762,49.26388,0.6779679,-12.37405,-96.38443,-11.45084,14.36226,0,0,0,-60.32702,39.3741,-55.40091,79.38263,-105.3243,-99.98305,0.001067912,-0.1257102,0.09433498,0,0.3,0,0,0.01114277,0
638224222868668176,-30.20387,67.44612,37.16885,-45.18605,-19.14159,31.06216,49.26388,0.6779679,-12.37405,-96.38443,-11.45084,14.28902,0,0,0,-66.26155,40.2402,-54.51894,79.38263,-105.3243,-99.98305,0.001067912,-0.1257102,0.09433498,0,0.3,0,0,0.008553092,0
638224222869018077,-32.11223,66.32397,37.93931,-49.28778,-17.89642,31.42839,49.26388,0.6779679,-12.37405,-96.38443,-11.45084,14.36226,0,0,0,-72.04801,40.30787,-53.55006,79.38263,-105.3243,-99.98305,0.001067912,-0.1257102,0.09433498,0,0.3,0,0,0.005815052,0
638224222869357957,-33.10175,65.62261,38.24282,-51.19216,-17.23721,31.50163,49.26388,0.6779679,-12.37405,-96.38443,-11.45084,14.36226,0,0,0,-75.13763,40.07904,-53.09678,79.38263,-105.3243,-99.98305,0.001067912,-0.1257102,0.09433498,0,0.3,0,0,0.004394772,0
638224222869707845,-34.98654,63.91601,38.59303,-55.07415,-15.99205,31.64813,49.26388,0.6779679,-12.37405,-96.38443,-11.45084,14.36226,0,0,0,-81.31393,38.89249,-52.16359,79.38263,-105.3243,-99.98305,0.001067912,-0.1257102,0.09433498,0,0.3,0,0,0.00145199,0
638224222870047727,-36.82422,61.74184,38.59303,-58.8829,-14.16092,31.64813,49.26388,0.6779679,-12.37405,-96.38443,-11.45084,14.36226,0,0,0,-87.69601,36.58191,-51.22758,79.38263,-105.3243,-99.98305,0.001067912,-0.1257102,0.09433498,0,0.3,0,0,0,0
638224222870387737,-37.74306,60.54955,38.59303,-60.4943,-13.28197,31.35514,49.26388,0.6779679,-12.37405,-96.38443,-11.45084,14.36226,0,0,0,-91.0506,35.2428,-50.72709,79.38263,-105.3243,-99.98305,0.001067912,-0.1257102,0.09433498,0,0.3,0,0,0,0
638224222870727521,-39.62786,57.22984,38.52299,-64.30305,-11.23111,30.32971,49.26388,0.6779679,-12.37405,-96.38443,-11.45084,14.36226,0,0,0,-99.00712,31.14968,-48.78935,79.38263,-105.3243,-99.98305,0.001067912,-0.1257102,0.09433498,0,0.3,0,0,0,0
638224222871057413,-41.30061,52.83474,38.0327,-67.52583,-8.740773,29.37753,49.26388,0.6779679,-12.37405,-96.38443,-11.45084,14.36226,0,0,0,-107.395,24.58176,-46.10749,79.38263,-105.3243,-99.98305,0.001067912,-0.1257102,0.09433498,0,0.3,0,0,0,0
638224222871397308,-42.10165,50.23976,37.82257,-69.06399,-7.202625,28.79156,49.26388,0.6779679,-12.37405,-96.38443,-11.45084,14.36226,0,0,0,-112.0052,20.52485,-44.39861,79.38263,-105.3243,-99.98305,0.001067912,-0.1257102,0.09433498,0,0.3,0,0,0,0
638224222871727342,-43.30321,44.97966,37.5424,-72.06703,-3.979838,27.03368,49.26388,0.6779679,-12.37405,-96.38443,-11.45084,14.36226,0,0,0,-120.425,11.87565,-40.57239,79.38263,-105.3243,-99.98305,0.001067912,-0.1257102,0.09433498,0,0.3,0,0,0,0
638224222872077090,-43.93933,40.23389,37.16885,-74.48412,-0.9035407,25.05606,49.26388,0.6779679,-12.37405,-96.38443,-11.45084,14.36226,0,0,0,-126.5436,3.220922,-37.03223,79.38263,-105.3243,-99.98305,0.001067912,-0.1257102,0.09433498,0,0.3,0,0,0,0
638224222872416975,-44.17493,36.75054,36.56182,-76.16876,2.246002,22.56572,49.26388,0.6779679,-12.37405,-96.38443,-11.45084,14.36226,0,0,0,-129.8106,-3.971086,-34.74587,79.38263,-105.3243,-99.98305,0.001067912,-0.1257102,0.09433498,0,0.3,0,0,0,0
638224222872766875,-44.17493,35.46473,36.16492,-76.75472,3.564415,21.3938,49.26388,0.6779679,-12.37405,-96.38443,-11.45084,14.36226,0,0,0,-130.5212,-6.936461,-34.01458,79.38263,-105.3243,-99.98305,0.001067912,-0.1257102,0.09433498,0,0.3,0,0,0,0
638224222873106759,-44.17493,33.61786,35.30106,-77.41393,5.615279,19.1232,49.26388,0.6779679,-12.37405,-96.38443,-11.45084,14.36226,0,0,0,-131.0822,-11.65114,-33.43716,79.38263,-105.3243,-99.98305,0.001067912,-0.1257102,0.09433498,0,0.3,0,0,0,0
638224222873456649,-44.01001,32.30868,34.41387,-77.70691,6.787202,16.8526,49.26388,0.6779679,-12.37405,-96.38443,-11.45084,14.36226,0,0,0,-130.6679,-15.38769,-33.08669,79.38263,-105.3243,-99.98305,0.001067912,-0.1257102,0.09433498,0,0.3,0,0,0,0
638224222873786546,-43.91577,31.72422,33.94693,-77.78016,7.299919,15.68068,49.26388,0.6779679,-12.37405,-96.38443,-11.45084,14.36226,0,0,0,-130.3219,-17.15159,-33.0001,79.38263,-105.3243,-99.98305,0.001067912,-0.1257102,0.09433498,0,0.3,0,0,0,0
638224222874126437,-43.70373,30.62544,32.77956,-77.8534,7.959125,13.33683,49.26388,0.6779679,-12.37405,-96.38443,-11.45084,14.36226,0,0,0,-129.1669,-20.83368,-33.20216,79.38263,-105.3243,-99.98305,0.001067912,-0.1257102,0.09433498,0,0.3,0,0,0,0
638224222874456336,-43.46813,29.50329,31.37873,-77.56042,8.471841,10.62676,49.26388,0.6779679,-12.37405,-96.38443,-11.45084,14.36226,0,0,0,-127.6098,-24.82544,-33.72747,79.38263,-105.3243,-99.98305,0.001067912,-0.1257102,0.09433498,0,0.3,0,0,0,0
638224222874806219,-43.35033,28.87208,30.74835,-77.26745,8.618331,9.235103,49.26388,0.6779679,-12.37405,-96.38443,-11.45084,14.36226,0,0,0,-126.9618,-26.865,-33.85829,79.38263,-105.3243,-99.98305,0.001067912,-0.1257102,0.09433498,0,0.3,0,0,0,0
638224222875136117,-43.06761,27.44601,29.39421,-76.68148,8.984557,6.598277,49.26388,0.6779679,-12.37405,-96.38443,-11.45084,14.36226,0,0,0,-125.5038,-31.37029,-34.08168,79.38263,-105.3243,-99.98305,0.001067912,-0.1257102,0.09433498,0,0.3,0,0,0,0
638224222875476008,-42.78489,25.87967,27.82994,-76.02227,9.350782,4.693902,49.26388,0.6779679,-12.37405,-96.38443,-11.45084,14.36226,0,0,0,-123.78,-36.3714,-34.60904,79.38263,-105.3243,-99.98305,0.001067912,-0.1257102,0.09433498,0,0.3,0,0,0,0
638224222875815897,-42.47861,24.05617,26.0322,-75.21658,9.643764,3.155754,49.26388,0.6779679,-12.37405,-96.38443,-11.45084,14.36226,0,0,0,-121.754,-42.11358,-35.37918,79.38263,-105.3243,-99.98305,0.001067912,-0.1257102,0.09433498,0,0.3,0,0,0,0
638224222876155788,-42.26657,23.14442,25.23839,-74.85035,9.8635,2.276812,49.26388,0.6779679,-12.37405,-96.38443,-11.45084,14.36226,0,0,0,-120.7122,-44.85738,-35.53344,79.38263,-105.3243,-99.98305,0.001067912,-0.1257102,0.09433498,0,0.3,0,0,0,0
638224222876495680,-41.74825,21.32092,23.62743,-74.1179,10.44946,0.1527017,49.26388,0.6779679,-12.37405,-96.38443,-11.45084,14.36226,0,0,0,-118.3021,-50.33648,-35.79559,79.38263,-105.3243,-99.98305,0.001067912,-0.1257102,0.09433498,0,0.3,0,0,0,0
638224222876835565,-41.11213,19.63769,22.24994,-73.23896,11.18191,-1.605182,49.26388,0.6779679,-12.37405,-96.38443,-11.45084,14.36226,0,0,0,-115.7831,-55.25578,-35.68211,79.38263,-105.3243,-99.98305,0.001067912,-0.1257102,0.09433498,0,0.3,0,0,0,0
638224222877175456,-40.80585,18.74932,21.82969,-72.79948,11.47489,-2.264389,49.26388,0.6779679,-12.37405,-96.38443,-11.45084,14.36226,0,0,0,-114.924,-57.57545,-35.23681,79.38263,-105.3243,-99.98305,0.001067912,-0.1257102,0.09433498,0,0.3,0,0,0,0
638224222877515357,-40.16973,16.78555,21.19932,-72.21353,11.98761,-3.436311,49.26388,0.6779679,-12.37405,-96.38443,-11.45084,14.36226,0,0,0,-113.4582,-62.46576,-33.9464,79.38263,-105.3243,-99.98305,0.001067912,-0.1257102,0.09433498,0,0.3,0,0,0,0
638224222877865241,-39.55717,14.86854,20.59229,-71.70081,12.42708,-4.461744,49.26388,0.6779679,-12.37405,-96.38443,-11.45084,14.36226,0,0,0,-111.9492,-67.26196,-32.82058,79.38263,-105.3243,-99.98305,0.001067912,-0.1257102,0.09433498,0,0.3,0,0,0,0
638224222878205134,-39.2509,13.91003,20.35881,-71.33459,12.64682,-4.82797,49.26388,0.6779679,-12.37405,-96.38443,-11.45084,14.36226,0,0,0,-111.2518,-69.61286,-32.18899,79.38263,-105.3243,-99.98305,0.001067912,-0.1257102,0.09433498,0,0.3,0,0,0,0
638224222878555018,-38.6619,11.92288,20.12534,-70.60213,12.9398,-5.267441,49.26388,0.6779679,-12.37405,-96.38443,-11.45084,14.36226,0,0,0,-110.1735,-74.30849,-30.64344,79.38263,-105.3243,-99.98305,0.001067912,-0.1257102,0.09433498,0,0.3,0,0,0,0
638224222878894915,-38.14358,10.23965,20.102,-69.86968,13.30602,-5.560421,49.26388,0.6779679,-12.37405,-96.38443,-11.45084,14.36226,0,0,0,-109.3568,-78.17155,-29.10039,79.38263,-105.3243,-99.98305,0.001067912,-0.1257102,0.09433498,0,0.3,0,0,0,0
638224222879244799,-37.69594,8.72007,20.07865,-69.21047,13.52576,-5.706912,49.26388,0.6779679,-12.37405,-96.38443,-11.45084,14.36226,0,0,0,-108.5905,-81.67848,-27.82975,79.38263,-105.3243,-99.98305,0.001067912,-0.1257102,0.09433498,0,0.3,0,0,0,0
638224222879574697,-37.46034,7.971967,20.07865,-68.99074,13.599,-5.706912,49.26388,0.6779679,-12.37405,-96.38443,-11.45084,14.36226,0,0,0,-108.1655,-83.40117,-27.18382,79.38263,-105.3243,-99.98305,0.001067912,-0.1257102,0.09433498,0,0.3,0,0,0,0
638224222879914581,-37.0127,6.429006,20.07865,-68.47802,13.67225,-5.780157,49.26388,0.6779679,-12.37405,-96.38443,-11.45084,14.36226,0,0,0,-107.3302,-86.96382,-25.98365,79.38263,-105.3243,-99.98305,0.001067912,-0.1257102,0.09433498,0,0.3,0,0,0,0
638224222880254479,-36.63574,5.07307,20.00861,-67.89206,13.81874,-5.780157,49.26388,0.6779679,-12.37405,-96.38443,-11.45084,14.36226,0,0,0,-106.4886,-90.15953,-25.14973,79.38263,-105.3243,-99.98305,0.001067912,-0.1257102,0.09433498,0,0.3,0,0,0,0
638224222880604373,-36.47082,4.41848,19.98526,-67.67233,13.89198,-5.780157,49.26388,0.6779679,-12.37405,-96.38443,-11.45084,14.36226,0,0,0,-106.1205,-91.69637,-24.78351,79.38263,-105.3243,-99.98305,0.001067912,-0.1257102,0.09433498,0,0.3,0,0,0,0
638224222880944260,-36.11742,2.945654,19.91522,-67.23285,13.96523,-5.780157,49.26388,0.6779679,-12.37405,-96.38443,-11.45084,14.36226,0,0,0,-105.2724,-95.17268,-24.07766,79.38263,-105.3243,-99.98305,0.001067912,-0.1257102,0.09433498,0,0.3,0,0,0,0
638224222881274146,-35.76402,1.309179,19.70509,-66.86663,14.03847,-5.780157,49.26388,0.6779679,-12.37405,-96.38443,-11.45084,14.36226,0,0,0,-104.1943,-99.14439,-23.6897,79.38263,-105.3243,-99.98305,0.001067912,-0.1257102,0.09433498,0,0.3,0,0,0,0
638224222881624045,-35.41062,-0.2104038,19.42492,-66.42715,14.03847,-5.780157,49.26388,0.6779679,-12.37405,-96.38443,-11.45084,14.36226,0,0,0,-102.9637,-102.8992,-23.52291,79.38263,-105.3243,-99.98305,0.001067912,-0.1257102,0.09433498,0,0.3,0,0,0,0
638224222881959835,-35.2457,-0.8883717,19.26149,-66.06093,14.18496,-5.853402,49.26388,0.6779679,-12.37405,-96.38443,-11.45084,14.28902,0,0,0,-102.3305,-104.603,-23.53261,79.38263,-105.3243,-99.98305,0.001067912,-0.1257102,0.09433498,0,0.3,0,0,0,0
638224222882299733,-35.03366,-1.005263,18.46769,-65.47498,13.81874,-5.780157,49.26388,0.6779679,-12.37405,-96.38443,-11.45084,14.36226,0,0,0,-100.7877,-105.4723,-24.59007,79.38263,-105.3243,-99.98305,0.001067912,-0.1257102,0.09433498,0,0.3,0,0,0,0
638224222882639622,-34.68026,-1.028641,17.65053,-64.81577,13.23278,-5.560421,49.26388,0.6779679,-12.37405,-96.38443,-11.45084,14.36226,0,0,0,-98.86971,-106.1163,-25.45885,79.38263,-105.3243,-99.98305,0.001067912,-0.1257102,0.09433498,0,0.3,0,0,0,0
638224222882979517,-34.60958,-1.005263,17.27698,-64.52278,13.01304,-5.487176,49.26388,0.6779679,-12.37405,-96.38443,-11.45084,14.36226,0,0,0,-98.22287,-106.3228,-26.01878,79.38263,-105.3243,-99.98305,0.001067912,-0.1257102,0.09433498,0,0.3,0,0,0,0
638224222883319408,-34.60958,-1.005263,17.23028,-63.93682,13.01304,-4.97446,49.26388,0.6545897,-12.37405,-96.38443,-11.45084,14.36226,0,0,0,-98.16393,-106.355,-26.1042,79.38311,-105.3787,-99.98264,0.001067912,-0.1257102,0.09433498,0,0.3,0,0,0,0
638224222883659297,-34.63314,-1.005263,17.23028,-63.57059,13.30602,-4.242009,49.26388,0.6545897,-12.37405,-96.38443,-11.45084,14.36226,0,0,0,-98.2224,-106.355,-26.14458,79.38311,-105.3787,-99.98264,0.001067912,-0.1257102,0.09433498,0,0.3,0,0,0,0
638224222883989193,-34.70382,-0.9818845,17.27698,-63.35086,13.52576,-3.802537,49.26388,0.6545897,-12.37405,-96.38443,-11.45084,14.36226,0,0,0,-98.45738,-106.2684,-26.17975,79.38311,-105.3787,-99.98264,0.001067912,-0.1257102,0.09433498,0,0.3,0,0,0,0
638224222884329083,-35.03366,-0.7714807,17.51045,-62.98463,13.89198,-2.923595,49.26388,0.6545897,-12.37405,-96.38443,-11.45084,14.36226,0,0,0,-99.57616,-105.6163,-26.31818,79.38311,-105.3787,-99.98264,0.001067912,-0.1257102,0.09433498,0,0.3,0,0,0,0
638224222884668978,-35.5991,-0.04675641,17.95405,-62.7649,14.33146,-1.751673,49.26388,0.6545897,-12.37405,-96.38443,-11.3776,14.36226,0,0,0,-101.5524,-103.6152,-26.49839,79.38311,-105.3787,-99.98264,0.001067912,-0.1257102,0.09433498,0,0.3,0,0,0,0
638224222885008865,-35.9525,0.5143204,18.23421,-62.69165,14.55119,-1.092466,49.26388,0.6545897,-12.37405,-96.38443,-11.45084,14.36226,0,0,0,-102.7862,-102.1069,-26.63003,79.38311,-105.3787,-99.98264,0.001067912,-0.1257102,0.09433498,0,0.3,0,0,0,0
638224222885358756,-36.6593,1.776743,18.72451,-62.91139,14.99066,-0.0670338,49.26388,0.6545897,-12.37405,-96.38443,-11.45084,14.36226,0,0,0,-105.1377,-98.80767,-27.08768,79.38311,-105.3787,-99.98264,0.001067912,-0.1257102,0.09433498,0,0.3,0,0,0,0
