zeyangz2/DNN_classification_different_people_hand/data_by_names/Zeyang/zeyang_right_19.csv
Timestamp,Therapist joint angle 0,Therapist joint angle 1,Therapist joint angle 2,Therapist joint angle 3,Therapist joint angle 4,Therapist joint angle 5,Patient joint angle 0,Patient joint angle 1,Patient joint angle 2,Patient joint angle 3,Patient joint angle 4,Patient joint angle 5,Virtual joint angle 0,Virtual joint angle 1,Virtual joint angle 2,Therapist position x,Therapist position y,Therapist position z,Patient position x,Patient position y,Patient position z,Virtual position x,Virtual position y,Virtual position z,Assistive Force, Obstacle Force Magnitude, Therapist Constant Force, Patient Constant Force, Recovery Factor, Assistance Level
638224233113623138,0,0,0,0,0,0,0,0,0,0,0,0,0,0,0,0,0,0,0,0,0,0,0,0,0,0.3,0,0,0,0
638224233113763102,16.98673,-0.9818845,-1.891129,86.21577,-63.23518,139.6848,-57.01511,-0.4675641,7.167611,-72.653,-8.594284,-36.90935,0,0,0,37.66688,-112.2125,-45.04508,-125.8087,-110.0461,-86.69605,0.001067912,-0.1257102,0.09433498,0,0.3,0,0,0,0
638224233114102997,16.98673,-0.9818845,-1.891129,86.21577,-63.30842,139.6848,-57.01511,-0.4675641,7.167611,-72.653,-8.594284,-36.83611,0,0,0,37.66688,-112.2125,-45.04508,-125.8087,-110.0461,-86.69605,0.001067912,-0.1257102,0.09433498,0,0.3,0,0,0,0
638224233114442880,16.98673,-0.9818845,-1.891129,86.21577,-63.30842,139.6115,-57.01511,-0.4675641,7.167611,-72.653,-8.521038,-36.83611,0,0,0,37.66688,-112.2125,-45.04508,-125.8087,-110.0461,-86.69605,0.001067912,-0.1257102,0.09433498,0,0.3,0,0,0,0
638224233114792772,16.98673,-0.9818845,-1.891129,86.21577,-63.30842,139.6848,-57.01511,-0.4675641,7.167611,-72.653,-8.594284,-36.83611,0,0,0,37.66688,-112.2125,-45.04508,-125.8087,-110.0461,-86.69605,0.001067912,-0.1257102,0.09433498,0,0.3,0,0,0,0
638224233115132660,16.98673,-0.9818845,-1.891129,86.21577,-63.23518,139.6848,-57.01511,-0.4675641,7.167611,-72.653,-8.521038,-36.83611,0,0,0,37.66688,-112.2125,-45.04508,-125.8087,-110.0461,-86.69605,0.001067912,-0.1257102,0.09433498,0,0.3,0,0,0,0
638224233115482548,16.98673,-0.9818845,-1.891129,86.21577,-63.30842,139.6848,-57.01511,-0.4675641,7.167611,-72.653,-8.594284,-36.83611,0,0,0,37.66688,-112.2125,-45.04508,-125.8087,-110.0461,-86.69605,0.001067912,-0.1257102,0.09433498,0,0.3,0,0,0,0
638224233115812446,16.98673,-0.9818845,-1.891129,86.21577,-63.30842,139.6115,-57.01511,-0.4675641,7.167611,-72.72624,-8.594284,-36.83611,0,0,0,37.66688,-112.2125,-45.04508,-125.8087,-110.0461,-86.69605,0.001067912,-0.1257102,0.09433498,0,0.3,0,0,0,0
638224233116162334,16.98673,-0.9818845,-1.891129,86.21577,-63.23518,139.6115,-57.01511,-0.4675641,7.167611,-72.653,-8.594284,-36.83611,0,0,0,37.66688,-112.2125,-45.04508,-125.8087,-110.0461,-86.69605,0.001067912,-0.1257102,0.09433498,0,0.3,0,0,9.04428E-08,0
638224233116492230,16.98673,-0.9818845,-1.891129,86.21577,-63.30842,139.6848,-57.01511,-0.4675641,7.167611,-72.653,-8.594284,-36.90935,0,0,0,37.66688,-112.2125,-45.04508,-125.8087,-110.0461,-86.69605,0.001067912,-0.1257102,0.09433498,0,0.3,0,0,1.808856E-07,0
638224233116832117,16.98673,-0.9818845,-1.891129,86.21577,-63.30842,139.6115,-57.01511,-0.4675641,7.167611,-72.653,-8.521038,-36.83611,0,0,0,37.66688,-112.2125,-45.04508,-125.8087,-110.0461,-86.69605,0.001067912,-0.1257102,0.09433498,0,0.3,0,0,1.808856E-07,0
638224233117172009,16.98673,-0.9818845,-1.891129,86.21577,-63.30842,139.6848,-57.01511,-0.4675641,7.167611,-72.653,-8.521038,-36.83611,0,0,0,37.66688,-112.2125,-45.04508,-125.8087,-110.0461,-86.69605,0.001067912,-0.1257102,0.09433498,0,0.3,0,0,2.713284E-07,0
638224233117501904,16.98673,-0.9818845,-1.891129,86.21577,-63.30842,139.6115,-57.01511,-0.4675641,7.167611,-72.653,-8.594284,-36.90935,0,0,0,37.66688,-112.2125,-45.04508,-125.8087,-110.0461,-86.69605,0.001067912,-0.1257102,0.09433498,0,0.3,0,0,2.713284E-07,0
638224233117841795,16.98673,-0.9818845,-1.891129,86.21577,-63.30842,139.6848,-57.01511,-0.4675641,7.167611,-72.653,-8.594284,-36.83611,0,0,0,37.66688,-112.2125,-45.04508,-125.8087,-110.0461,-86.69605,0.001067912,-0.1257102,0.09433498,0,0.3,0,0,3.617712E-07,0
638224233118181690,16.98673,-0.9818845,-1.891129,86.21577,-63.30842,139.6115,-57.01511,-0.4675641,7.167611,-72.653,-8.594284,-36.83611,0,0,0,37.66688,-112.2125,-45.04508,-125.8087,-110.0461,-86.69605,0.001067912,-0.1257102,0.09433498,0,0.3,0,0,3.617712E-07,0
638224233118521578,16.98673,-0.9818845,-1.891129,86.21577,-63.30842,139.6848,-57.01511,-0.4675641,7.167611,-72.653,-8.594284,-36.83611,0,0,0,37.66688,-112.2125,-45.04508,-125.8087,-110.0461,-86.69605,0.001067912,-0.1257102,0.09433498,0,0.3,0,0,3.617712E-07,0
638224233118861470,16.98673,-0.9818845,-1.891129,86.21577,-63.30842,139.6115,-57.01511,-0.4675641,7.167611,-72.72624,-8.594284,-36.83611,0,0,0,37.66688,-112.2125,-45.04508,-125.8087,-110.0461,-86.69605,0.001067912,-0.1257102,0.09433498,0,0.3,0,0,3.617712E-07,0
638224233119211360,16.98673,-0.9818845,-1.891129,86.21577,-63.30842,139.6848,-57.01511,-0.4675641,7.167611,-72.653,-8.594284,-36.90935,0,0,0,37.66688,-112.2125,-45.04508,-125.8087,-110.0461,-86.69605,0.001067912,-0.1257102,0.09433498,0,0.3,0,0,4.52214E-07,0
638224233119551255,16.98673,-0.9818845,-1.891129,86.21577,-63.30842,139.6115,-57.01511,-0.4675641,7.167611,-72.653,-8.594284,-36.83611,0,0,0,37.66688,-112.2125,-45.04508,-125.8087,-110.0461,-86.69605,0.001067912,-0.1257102,0.09433498,0,0.3,0,0,4.52214E-07,0
638224233119891142,16.98673,-0.9818845,-1.891129,86.21577,-63.30842,139.6848,-57.01511,-0.4675641,7.167611,-72.653,-8.521038,-36.83611,0,0,0,37.66688,-112.2125,-45.04508,-125.8087,-110.0461,-86.69605,0.001067912,-0.1257102,0.09433498,0,0.3,0,0,4.52214E-07,0
638224233120221033,16.98673,-0.9818845,-1.891129,86.21577,-63.30842,139.6115,-57.01511,-0.4675641,7.167611,-72.653,-8.594284,-36.90935,0,0,0,37.66688,-112.2125,-45.04508,-125.8087,-110.0461,-86.69605,0.001067912,-0.1257102,0.09433498,0,0.3,0,0,4.52214E-07,0
638224233120570924,16.98673,-0.9818845,-1.891129,86.21577,-63.30842,139.6848,-57.01511,-0.4675641,7.167611,-72.653,-8.594284,-36.90935,0,0,0,37.66688,-112.2125,-45.04508,-125.8087,-110.0461,-86.69605,0.001067912,-0.1257102,0.09433498,0,0.3,0,0,4.52214E-07,0
638224233120910817,16.98673,-0.9818845,-1.891129,86.21577,-63.30842,139.6848,-57.01511,-0.4675641,7.167611,-72.653,-8.594284,-36.83611,0,0,0,37.66688,-112.2125,-45.04508,-125.8087,-110.0461,-86.69605,0.001067912,-0.1257102,0.09433498,0,0.3,0,0,4.52214E-07,0
638224233121250711,16.98673,-0.9818845,-1.891129,86.14253,-63.30842,139.6848,-57.01511,-0.4675641,7.167611,-72.72624,-8.594284,-36.83611,0,0,0,37.66688,-112.2125,-45.04508,-125.8087,-110.0461,-86.69605,0.001067912,-0.1257102,0.09433498,0,0.3,0,0,5.426568E-07,0
638224233121600599,16.98673,-0.9818845,-1.891129,86.21577,-63.30842,139.6848,-57.01511,-0.4675641,7.167611,-72.653,-8.594284,-36.90935,0,0,0,37.66688,-112.2125,-45.04508,-125.8087,-110.0461,-86.69605,0.001067912,-0.1257102,0.09433498,0,0.3,0,0,5.426568E-07,0
638224233121940489,16.98673,-0.9818845,-1.891129,86.21577,-63.30842,139.6848,-57.01511,-0.4675641,7.167611,-72.653,-8.521038,-36.83611,0,0,0,37.66688,-112.2125,-45.04508,-125.8087,-110.0461,-86.69605,0.001067912,-0.1257102,0.09433498,0,0.3,0,0,5.426568E-07,0
638224233122280379,16.98673,-0.9818845,-1.891129,86.21577,-63.23518,139.6848,-57.01511,-0.4675641,7.167611,-72.653,-8.594284,-36.83611,0,0,0,37.66688,-112.2125,-45.04508,-125.8087,-110.0461,-86.69605,0.001067912,-0.1257102,0.09433498,0,0.3,0,0,5.426568E-07,0
638224233122630267,16.98673,-0.9818845,-1.891129,86.21577,-63.30842,139.6848,-57.01511,-0.4675641,7.167611,-72.653,-8.594284,-36.83611,0,0,0,37.66688,-112.2125,-45.04508,-125.8087,-110.0461,-86.69605,0.001067912,-0.1257102,0.09433498,0,0.3,0,0,5.426568E-07,0
638224233122970162,16.98673,-0.9818845,-1.891129,86.21577,-63.30842,139.6115,-57.01511,-0.4675641,7.167611,-72.653,-8.594284,-36.90935,0,0,0,37.66688,-112.2125,-45.04508,-125.8087,-110.0461,-86.69605,0.001067912,-0.1257102,0.09433498,0,0.3,0,0,5.426568E-07,0
638224233123320047,16.98673,-0.9818845,-1.891129,86.21577,-63.30842,139.6115,-57.01511,-0.4675641,7.167611,-72.653,-8.594284,-36.90935,0,0,0,37.66688,-112.2125,-45.04508,-125.8087,-110.0461,-86.69605,0.001067912,-0.1257102,0.09433498,0,0.3,0,0,4.52214E-07,0
638224233123659942,16.98673,-0.9818845,-1.891129,86.21577,-63.30842,139.6848,-57.01511,-0.4675641,7.167611,-72.653,-8.594284,-36.83611,0,0,0,37.66688,-112.2125,-45.04508,-125.8087,-110.0461,-86.69605,0.001067912,-0.1257102,0.09433498,0,0.3,0,0,4.52214E-07,0
638224233123999834,16.98673,-0.9818845,-1.891129,86.21577,-63.30842,139.6848,-57.01511,-0.4675641,7.167611,-72.653,-8.594284,-36.90935,0,0,0,37.66688,-112.2125,-45.04508,-125.8087,-110.0461,-86.69605,0.001067912,-0.1257102,0.09433498,0,0.3,0,0,5.426568E-07,0
638224233124349719,16.98673,-0.9818845,-1.891129,86.21577,-63.30842,139.6848,-57.01511,-0.4675641,7.167611,-72.653,-8.594284,-36.90935,0,0,0,37.66688,-112.2125,-45.04508,-125.8087,-110.0461,-86.69605,0.001067912,-0.1257102,0.09433498,0,0.3,0,0,5.426568E-07,0
638224233124689610,16.98673,-0.9818845,-1.891129,86.21577,-63.30842,139.6848,-57.01511,-0.4675641,7.167611,-72.653,-8.594284,-36.83611,0,0,0,37.66688,-112.2125,-45.04508,-125.8087,-110.0461,-86.69605,0.001067912,-0.1257102,0.09433498,0,0.3,0,0,5.426568E-07,0
638224233125029504,16.98673,-0.9818845,-1.891129,86.14253,-63.30842,139.6848,-57.01511,-0.4675641,7.167611,-72.653,-8.594284,-36.83611,0,0,0,37.66688,-112.2125,-45.04508,-125.8087,-110.0461,-86.69605,0.001067912,-0.1257102,0.09433498,0,0.3,0,0,5.426568E-07,0
638224233125369396,16.98673,-0.9818845,-1.891129,86.21577,-63.23518,139.6848,-57.01511,-0.4675641,7.167611,-72.653,-8.594284,-36.83611,0,0,0,37.66688,-112.2125,-45.04508,-125.8087,-110.0461,-86.69605,0.001067912,-0.1257102,0.09433498,0,0.3,0,0,5.426568E-07,0
638224233125719281,16.98673,-0.9818845,-1.891129,86.21577,-63.30842,139.6115,-57.01511,-0.4675641,7.167611,-72.72624,-8.594284,-36.90935,0,0,0,37.66688,-112.2125,-45.04508,-125.8087,-110.0461,-86.69605,0.001067912,-0.1257102,0.09433498,0,0.3,0,0,5.426568E-07,0
638224233126059175,16.96317,-0.9818845,-1.937823,86.21577,-63.23518,138.7326,-57.01511,-0.4675641,7.167611,-72.653,-8.594284,-36.83611,0,0,0,37.58448,-112.2089,-45.1335,-125.8087,-110.0461,-86.69605,0.001067912,-0.1257102,0.09433498,0,0.3,0,0,1.012959E-05,0
638224233126389070,16.68045,-0.9818845,-1.937823,85.55657,-62.42948,134.5576,-57.01511,-0.4675641,7.167611,-72.653,-8.594284,-36.90935,0,0,0,36.97603,-112.2089,-44.94954,-125.8087,-110.0461,-86.69605,0.001067912,-0.1257102,0.09433498,0,0.3,0,0,9.605025E-05,0
638224233126738955,15.87941,-0.9585064,-1.937823,83.57895,-61.03782,134.1181,-57.01511,-0.4675641,7.167611,-72.653,-8.594284,-36.90935,0,0,0,35.24749,-112.1545,-44.44378,-125.8087,-110.0461,-86.69605,0.001067912,-0.1257102,0.09433498,0,0.3,0,0,0.0004126001,0
638224233127088843,14.91346,-0.6545897,-1.587614,77.86582,-61.55054,134.0449,-57.01511,-0.4675641,7.167611,-72.653,-8.594284,-36.90935,0,0,0,33.36586,-111.4723,-43.0703,-125.8087,-110.0461,-86.69605,0.001067912,-0.1257102,0.09433498,0,0.3,0,0,0.0009827515,0
638224233127418743,14.79566,-0.4675641,-1.354141,74.13033,-62.1365,135.2168,-57.01511,-0.4675641,7.167611,-72.653,-8.594284,-36.83611,0,0,0,33.24802,-111.051,-42.47265,-125.8087,-110.0461,-86.69605,0.001067912,-0.1257102,0.09433498,0,0.3,0,0,0.001275153,0
638224233127768628,14.7721,0.09351282,-0.7471125,65.70713,-62.86895,144.5189,-57.01511,-0.4675641,7.167611,-72.653,-8.594284,-36.90935,0,0,0,33.55751,-109.771,-41.089,-125.8087,-110.0461,-86.69605,0.001067912,-0.1257102,0.09433498,0,0.3,0,0,0.001755495,0
638224233128098524,14.72498,1.239045,0.1634309,58.08963,-63.16194,144.8852,-57.01511,-0.4675641,7.167611,-72.653,-8.521038,-36.83611,0,0,0,33.9836,-107.1159,-39.04189,-125.8087,-110.0461,-86.69605,0.001067912,-0.1257102,0.09433498,0,0.3,0,0,0.002058388,0
638224233128438417,14.6543,1.987147,0.4669453,55.4528,-63.30842,144.8852,-57.01511,-0.4675641,7.167611,-72.653,-8.521038,-36.83611,0,0,0,33.99037,-105.3716,-38.36407,-125.8087,-110.0461,-86.69605,0.001067912,-0.1257102,0.09433498,0,0.3,0,0,0.002165201,0
638224233128778306,14.44226,3.647,1.003932,51.49756,-63.16194,144.8119,-57.01511,-0.4675641,7.167611,-72.653,-8.594284,-36.83611,0,0,0,33.77341,-101.4972,-37.21285,-125.8087,-110.0461,-86.69605,0.001067912,-0.1257102,0.09433498,0,0.3,0,0,0.002334329,0
638224233129118201,14.32446,5.423743,1.517572,49.37346,-62.35624,144.8119,-57.01511,-0.4675641,7.167611,-72.72624,-8.594284,-36.90935,0,0,0,33.71852,-97.34887,-36.3025,-125.8087,-110.0461,-86.69605,0.001067912,-0.1257102,0.09433498,0,0.3,0,0,0.002437705,0
638224233129458088,14.27734,6.312115,1.774392,48.86074,-62.06326,144.8119,-57.01511,-0.4675641,7.167611,-72.653,-8.594284,-36.83611,0,0,0,33.70513,-95.27496,-35.90065,-125.8087,-110.0461,-86.69605,0.001067912,-0.1257102,0.09433498,0,0.3,0,0,0.002455793,0
638224233129797980,14.23022,8.46291,2.451463,48.34802,-61.3308,144.8119,-57.01511,-0.4675641,7.167611,-72.653,-8.521038,-36.83611,0,0,0,33.82508,-90.25295,-34.97041,-125.8087,-110.0461,-86.69605,0.001067912,-0.1257102,0.09433498,0,0.3,0,0,0.002393569,0
638224233130137871,14.20666,10.63708,3.198575,48.34802,-60.45186,144.8852,-57.01511,-0.4675641,7.167611,-72.653,-8.594284,-36.90935,0,0,0,33.99043,-85.17752,-34.08672,-125.8087,-110.0461,-86.69605,0.001067912,-0.1257102,0.09433498,0,0.3,0,0,0.002188263,0
638224233130487762,14.15954,12.48396,4.039077,48.56776,-59.27994,144.9584,-57.01511,-0.4675641,7.167611,-72.653,-8.594284,-36.83611,0,0,0,34.14685,-80.84302,-33.00108,-125.8087,-110.0461,-86.69605,0.001067912,-0.1257102,0.09433498,0,0.3,0,0,0.001831919,0
638224233130827649,14.13598,13.16193,4.482675,48.93398,-58.91372,144.9584,-57.01511,-0.4675641,7.167611,-72.653,-8.594284,-36.83611,0,0,0,34.25712,-79.22777,-32.32824,-125.8087,-110.0461,-86.69605,0.001067912,-0.1257102,0.09433498,0,0.3,0,0,0.001598215,0
638224233131167549,14.04174,14.49449,5.486608,50.17915,-58.18126,144.8119,-57.01511,-0.4675641,7.167611,-72.653,-8.594284,-36.83611,0,0,0,34.41825,-76.01332,-30.73305,-125.8087,-110.0461,-86.69605,0.001067912,-0.1257102,0.09433498,0,0.3,0,0,0.001024536,0
638224233131507439,14.04174,15.59326,6.513887,51.57081,-57.81504,144.8852,-57.01511,-0.4675641,7.167611,-72.72624,-8.594284,-36.83611,0,0,0,34.83412,-73.29379,-29.07026,-125.8087,-110.0461,-86.69605,0.001067912,-0.1257102,0.09433498,0,0.3,0,0,0.0002857088,0
638224233131847332,14.04174,15.94393,6.980833,52.523,-57.74179,144.8852,-57.01511,-0.4675641,7.167611,-72.653,-8.521038,-36.83611,0,0,0,35.04216,-72.38067,-28.23844,-125.8087,-110.0461,-86.69605,0.001067912,-0.1257102,0.09433498,0,0.3,0,0,0,0
638224233132187221,14.08886,16.57515,7.821334,55.15982,-58.03477,144.8119,-57.01511,-0.4675641,7.167611,-72.653,-8.594284,-36.83611,0,0,0,35.52946,-70.71837,-26.78475,-125.8087,-110.0461,-86.69605,0.001067912,-0.1257102,0.09433498,0,0.3,0,0,0,0
638224233132527111,14.08886,17.25311,8.638489,58.30937,-59.27994,144.8119,-57.01511,-0.4675641,7.167611,-72.653,-8.594284,-36.83611,0,0,0,35.8759,-68.9365,-25.40438,-125.8087,-110.0461,-86.69605,0.001067912,-0.1257102,0.09433498,0,0.3,0,0,0,0
638224233132877001,14.1831,18.11811,9.385601,61.89838,-61.18431,144.8852,-57.01511,-0.4675641,7.167611,-72.653,-8.594284,-36.83611,0,0,0,36.3819,-66.74611,-24.39153,-125.8087,-110.0461,-86.69605,0.001067912,-0.1257102,0.09433498,0,0.3,0,0,0,0
638224233133216889,14.5365,18.63243,9.805852,64.24223,-62.06326,144.8852,-57.01511,-0.4675641,7.167611,-72.653,-8.594284,-36.83611,0,0,0,37.41649,-65.44707,-24.05041,-125.8087,-110.0461,-86.69605,0.001067912,-0.1257102,0.09433498,0,0.3,0,0,0,0
638224233133566781,15.29041,19.63769,10.43623,69.22289,-62.79571,144.8119,-57.01511,-0.4675641,7.167611,-72.653,-8.594284,-36.83611,0,0,0,39.49058,-62.97891,-23.90182,-125.8087,-110.0461,-86.69605,0.001067912,-0.1257102,0.09433498,0,0.3,0,0,0,0
638224233133896674,16.46841,20.64295,11.08995,75.37549,-63.16194,144.8852,-57.01511,-0.4675641,7.167611,-72.653,-8.594284,-36.83611,0,0,0,42.64722,-60.49823,-24.08337,-125.8087,-110.0461,-86.69605,0.001067912,-0.1257102,0.09433498,0,0.3,0,0,0,0
638224233134246563,17.17521,21.32092,11.60359,79.11099,-63.23518,144.9584,-57.01511,-0.4675641,7.167611,-72.653,-8.594284,-36.83611,0,0,0,44.60287,-58.78976,-24.04042,-125.8087,-110.0461,-86.69605,0.001067912,-0.1257102,0.09433498,0,0.3,0,0,0,0
638224233134586452,17.90557,22.67686,12.60752,84.75087,-63.38167,144.9584,-57.01511,-0.4675641,7.167611,-72.653,-8.594284,-36.83611,0,0,0,46.77768,-55.3738,-23.57163,-125.8087,-110.0461,-86.69605,0.001067912,-0.1257102,0.09433498,0,0.3,0,0,0,0
638224233134936345,17.90557,24.28995,13.75154,88.19339,-63.38167,144.8119,-57.01511,-0.4675641,7.167611,-72.653,-8.594284,-36.83611,0,0,0,47.11478,-51.32349,-22.52831,-125.8087,-110.0461,-86.69605,0.001067912,-0.1257102,0.09433498,0,0.3,0,0,0,0
638224233135266237,17.83489,25.03806,14.21848,89.29208,-63.45492,144.8119,-57.01511,-0.4675641,7.167611,-72.72624,-8.594284,-36.90935,0,0,0,47.03531,-49.47857,-22.15808,-125.8087,-110.0461,-86.69605,0.001067912,-0.1257102,0.09433498,0,0.3,0,0,0,0
638224233135616128,17.78777,26.46413,14.98894,90.53724,-63.45492,144.8119,-57.01511,-0.4675641,7.167611,-72.653,-8.594284,-36.90935,0,0,0,47.00466,-46.03712,-21.8402,-125.8087,-110.0461,-86.69605,0.001067912,-0.1257102,0.09433498,0,0.3,0,0,0,0
638224233135956018,17.88201,28.00709,15.89949,91.19645,-63.45492,144.8119,-57.01511,-0.4675641,7.167611,-72.653,-8.594284,-36.90935,0,0,0,47.36816,-42.27993,-21.53776,-125.8087,-110.0461,-86.69605,0.001067912,-0.1257102,0.09433498,0,0.3,0,0,0,0
638224233136295907,17.88201,29.85397,17.0435,91.85565,-63.45492,144.8852,-57.01511,-0.4675641,7.167611,-72.653,-8.594284,-36.83611,0,0,0,47.51371,-37.76316,-21.08665,-125.8087,-110.0461,-86.69605,0.001067912,-0.1257102,0.09433498,0,0.3,0,0,0,0
638224233136635800,17.78777,30.71896,17.55714,92.51486,-63.45492,144.8119,-57.01511,-0.4675641,7.167611,-72.653,-8.594284,-36.83611,0,0,0,47.30994,-35.66927,-20.88866,-125.8087,-110.0461,-86.69605,0.001067912,-0.1257102,0.09433498,0,0.3,0,0,0,0
638224233136975688,17.26945,32.44894,18.65447,95.0052,-63.52816,144.8852,-57.01511,-0.4675641,7.167611,-72.653,-8.594284,-36.83611,0,0,0,46.06864,-31.44577,-20.1624,-125.8087,-110.0461,-86.69605,0.001067912,-0.1257102,0.09433498,0,0.3,0,0,0,0
638224233137315586,16.56265,34.24907,19.91522,99.10693,-63.45492,144.8119,-57.01511,-0.4675641,7.167611,-72.653,-8.594284,-36.83611,0,0,0,44.37012,-26.97712,-19.15825,-125.8087,-110.0461,-86.69605,0.001067912,-0.1257102,0.09433498,0,0.3,0,0,0,0
638224233137645481,16.13857,35.06731,20.56894,100.4253,-63.45492,144.9584,-57.01511,-0.4675641,7.167611,-72.653,-8.594284,-36.83611,0,0,0,43.36043,-24.88427,-18.50298,-125.8087,-110.0461,-86.69605,0.001067912,-0.1257102,0.09433498,0,0.3,0,0,0,0
638224233137985367,15.2433,36.37648,21.59622,101.7438,-63.45492,144.8852,-57.01511,-0.4675641,7.167611,-72.653,-8.521038,-36.83611,0,0,0,41.13259,-21.55058,-17.40779,-125.8087,-110.0461,-86.69605,0.001067912,-0.1257102,0.09433498,0,0.3,0,0,0,0
638224233138335260,14.6543,37.40512,22.34333,102.4762,-63.45492,144.8852,-57.01511,-0.4675641,7.167611,-72.653,-8.521038,-36.83611,0,0,0,39.62315,-18.98537,-16.82321,-125.8087,-110.0461,-86.69605,0.001067912,-0.1257102,0.09433498,0,0.3,0,0,0,0
638224233138685151,14.44226,38.43377,22.97371,104.6003,-63.45492,144.8852,-57.01511,-0.4675641,7.167611,-72.653,-8.521038,-36.83611,0,0,0,39.03284,-16.53159,-16.79126,-125.8087,-110.0461,-86.69605,0.001067912,-0.1257102,0.09433498,0,0.3,0,0,0,0
638224233139025034,14.4187,38.97147,23.34727,107.1639,-63.45492,144.8852,-57.01511,-0.4675641,7.167611,-72.653,-8.594284,-36.90935,0,0,0,38.97471,-15.21302,-16.75891,-125.8087,-110.0461,-86.69605,0.001067912,-0.1257102,0.09433498,0,0.3,0,0,0,0
638224233139374924,14.39514,40.14038,24.02434,110.9726,-63.45492,144.8852,-57.01511,-0.4675641,7.167611,-72.653,-8.594284,-36.83611,0,0,0,38.84042,-12.4825,-17.02322,-125.8087,-110.0461,-86.69605,0.001067912,-0.1257102,0.09433498,0,0.3,0,0,0,0
638224233139714817,14.32446,41.35604,24.53798,111.4121,-63.45492,144.8852,-57.01511,-0.4675641,7.167611,-72.653,-8.594284,-36.90935,0,0,0,38.4664,-9.847487,-17.70898,-125.8087,-110.0461,-86.69605,0.001067912,-0.1257102,0.09433498,0,0.3,0,0,0,0
638224233140054713,14.25378,41.89374,24.7481,111.5586,-63.45492,144.8119,-57.01511,-0.4675641,7.167611,-72.653,-8.594284,-36.90935,0,0,0,38.18531,-8.708116,-18.03649,-125.8087,-110.0461,-86.69605,0.001067912,-0.1257102,0.09433498,0,0.3,0,0,0,0
638224233140394602,14.11242,42.6886,24.95823,112.6573,-63.45492,144.8852,-57.01511,-0.4675641,7.167611,-72.653,-8.594284,-36.90935,0,0,0,37.61903,-7.13411,-18.71963,-125.8087,-110.0461,-86.69605,0.001067912,-0.1257102,0.09433498,0,0.3,0,0,0,0
638224233140734493,14.01818,42.94576,24.7948,117.1985,-63.45492,144.8852,-57.01511,-0.4675641,7.167611,-72.653,-8.594284,-36.83611,0,0,0,37.19074,-6.855092,-19.38743,-125.8087,-110.0461,-86.69605,0.001067912,-0.1257102,0.09433498,0,0.3,0,0,0,0
638224233141074386,14.04174,42.57171,24.23446,117.7112,-63.45492,144.8852,-57.01511,-0.4675641,7.167611,-72.653,-8.594284,-36.90935,0,0,0,37.1075,-8.035387,-19.98046,-125.8087,-110.0461,-86.69605,0.001067912,-0.1257102,0.09433498,0,0.3,0,0,0,0
638224233141414276,14.04174,42.10415,23.79086,117.7112,-63.45492,144.8119,-57.01511,-0.4675641,7.167611,-72.653,-8.594284,-36.83611,0,0,0,37.05651,-9.259906,-20.18435,-125.8087,-110.0461,-86.69605,0.001067912,-0.1257102,0.09433498,0,0.3,0,0,0,0
638224233141754167,14.01818,40.72483,22.83363,117.7844,-63.45492,144.8852,-57.01511,-0.4675641,7.167611,-72.653,-8.594284,-36.83611,0,0,0,37.01436,-12.54898,-20.09389,-125.8087,-110.0461,-86.69605,0.001067912,-0.1257102,0.09433498,0,0.3,0,0,0,0
638224233142094062,13.9475,39.01822,21.92308,117.7844,-63.45492,144.8852,-57.01511,-0.4675641,7.167611,-72.653,-8.594284,-36.90935,0,0,0,36.97284,-16.40409,-19.47902,-125.8087,-110.0461,-86.69605,0.001067912,-0.1257102,0.09433498,0,0.3,0,0,0,0
638224233142433951,13.80614,37.87269,21.36275,117.7844,-63.45492,144.8852,-57.01511,-0.4675641,7.167611,-72.653,-8.594284,-36.90935,0,0,0,36.71175,-18.97314,-18.95562,-125.8087,-110.0461,-86.69605,0.001067912,-0.1257102,0.09433498,0,0.3,0,0,0,0
638224233142773841,13.31138,35.51149,20.26543,117.7844,-63.52816,144.8852,-57.01511,-0.4675641,7.167611,-72.653,-8.594284,-36.83611,0,0,0,35.62669,-24.28687,-17.77208,-125.8087,-110.0461,-86.69605,0.001067912,-0.1257102,0.09433498,0,0.3,0,0,0,0
638224233143113737,12.55746,33.12691,19.35488,116.9788,-63.45492,144.8852,-57.01511,-0.4675641,7.167611,-72.653,-8.594284,-36.90935,0,0,0,33.88908,-29.58842,-16.20845,-125.8087,-110.0461,-86.69605,0.001067912,-0.1257102,0.09433498,0,0.3,0,0,0,0
638224233143453626,12.0627,31.91125,18.95798,115.8068,-63.45492,144.8852,-57.01511,-0.4675641,7.167611,-72.653,-8.594284,-36.83611,0,0,0,32.70956,-32.27723,-15.28744,-125.8087,-110.0461,-86.69605,0.001067912,-0.1257102,0.09433498,0,0.3,0,0,0,0
638224233143793516,10.90826,29.31627,18.18752,112.5108,-63.45492,144.8119,-57.01511,-0.4675641,7.167611,-72.653,-8.594284,-36.83611,0,0,0,29.87943,-38.04568,-13.30875,-125.8087,-110.0461,-86.69605,0.001067912,-0.1257102,0.09433498,0,0.3,0,0,0,0
638224233144143405,9.636024,26.79142,17.74392,108.2626,-63.45492,144.9584,-57.01511,-0.4675641,7.167611,-72.653,-8.521038,-36.83611,0,0,0,26.72787,-43.54959,-10.92736,-125.8087,-110.0461,-86.69605,0.001067912,-0.1257102,0.09433498,0,0.3,0,0,0,0
638224233144483299,8.764306,24.59387,17.60384,102.0367,-63.45492,144.8852,-57.01511,-0.4675641,7.167611,-72.653,-8.594284,-36.83611,0,0,0,24.62029,-48.2572,-8.6546,-125.8087,-110.0461,-86.69605,0.001067912,-0.1257102,0.09433498,0,0.3,0,0,0,0
638224233144823187,8.458026,23.63536,17.55714,98.00825,-63.45492,144.8852,-57.01511,-0.4675641,7.167611,-72.653,-8.521038,-36.90935,0,0,0,23.8851,-50.32615,-7.726237,-125.8087,-110.0461,-86.69605,0.001067912,-0.1257102,0.09433498,0,0.3,0,0,0,0
638224233145163081,8.057507,21.71835,17.44041,85.84955,-63.45492,144.8852,-57.01511,-0.4675641,7.167611,-72.653,-8.594284,-36.83611,0,0,0,22.96647,-54.52438,-6.116704,-125.8087,-110.0461,-86.69605,0.001067912,-0.1257102,0.09433498,0,0.3,0,0,0,0
638224233145502974,7.869027,20.47931,17.23028,73.69085,-63.38167,144.7387,-57.01511,-0.4675641,7.167611,-72.653,-8.594284,-36.83611,0,0,0,22.51088,-57.36047,-5.476176,-125.8087,-110.0461,-86.69605,0.001067912,-0.1257102,0.09433498,0,0.3,0,0,0,0
638224233145842861,7.845467,20.03512,17.0435,68.49045,-63.23518,144.8852,-57.01511,-0.4675641,7.167611,-72.653,-8.594284,-36.83611,0,0,0,22.43605,-58.45841,-5.523867,-125.8087,-110.0461,-86.69605,0.001067912,-0.1257102,0.09433498,0,0.3,0,0,0,0
638224233146192750,7.821907,19.33377,16.43647,59.40804,-62.42948,144.9584,-57.01511,-0.4675641,7.167611,-72.653,-8.594284,-36.83611,0,0,0,22.2598,-60.40225,-6.310278,-125.8087,-110.0461,-86.69605,0.001067912,-0.1257102,0.09433498,0,0.3,0,0,0,0
638224233146532641,7.821907,18.4454,15.26911,49.95942,-61.11107,144.8852,-57.01511,-0.4675641,7.167611,-72.653,-8.594284,-36.83611,0,0,0,21.99521,-63.10063,-8.236361,-125.8087,-110.0461,-86.69605,0.001067912,-0.1257102,0.09433498,0,0.3,0,0,0,0
638224233146882552,7.798347,17.65055,14.14844,41.75596,-58.98696,144.8852,-57.01511,-0.4675641,7.167611,-72.653,-8.594284,-36.83611,0,0,0,21.66484,-65.52178,-10.15889,-125.8087,-110.0461,-86.69605,0.001067912,-0.1257102,0.09433498,0,0.3,0,0,0,0
638224233147222423,7.798347,17.27649,13.72819,38.38668,-57.88828,144.8119,-57.01511,-0.4675641,7.167611,-72.653,-8.594284,-36.83611,0,0,0,21.57148,-66.58782,-10.84056,-125.8087,-110.0461,-86.69605,0.001067912,-0.1257102,0.09433498,0,0.3,0,0,0,0
638224233147562313,7.892587,16.6219,12.65422,33.40601,-55.98391,144.8119,-57.01511,-0.4675641,7.167611,-72.653,-8.594284,-36.83611,0,0,0,21.55734,-68.61552,-12.84685,-125.8087,-110.0461,-86.69605,0.001067912,-0.1257102,0.09433498,0,0.3,0,0,0,0
638224233147892208,8.222426,15.8738,11.18334,29.23104,-53.34708,144.8852,-57.01511,-0.4675641,7.167611,-72.72624,-8.594284,-36.83611,0,0,0,22.04282,-70.99408,-15.80638,-125.8087,-110.0461,-86.69605,0.001067912,-0.1257102,0.09433498,0,0.3,0,0,0,0
638224233148222104,8.410906,15.35948,10.2261,27.25341,-51.51595,144.8852,-57.01511,-0.4675641,7.167611,-72.653,-8.521038,-36.83611,0,0,0,22.27144,-72.56074,-17.72647,-125.8087,-110.0461,-86.69605,0.001067912,-0.1257102,0.09433498,0,0.3,0,0,0,0
638224233148572000,8.905665,13.95679,8.264932,24.54334,-47.26773,144.9584,-57.01511,-0.4675641,7.167611,-72.72624,-8.594284,-36.90935,0,0,0,23.00175,-76.45233,-21.55886,-125.8087,-110.0461,-86.69605,0.001067912,-0.1257102,0.09433498,0,0.3,0,0,0,0
638224233148911884,9.636024,11.85275,6.070289,22.78546,-41.99408,144.8852,-57.01511,-0.4675641,7.167611,-72.653,-8.594284,-36.83611,0,0,0,24.2058,-81.86259,-25.78192,-125.8087,-110.0461,-86.69605,0.001067912,-0.1257102,0.09433498,0,0.3,0,0,0,0
638224233149261776,9.918744,10.68384,5.066357,22.27274,-39.13752,144.8852,-57.01511,-0.4675641,7.167611,-72.653,-8.594284,-36.83611,0,0,0,24.59998,-84.75733,-27.67019,-125.8087,-110.0461,-86.69605,0.001067912,-0.1257102,0.09433498,0,0.3,0,0,0,0
638224233149621659,10.08366,8.369397,3.268617,21.24731,-33.13141,144.8119,-57.01511,-0.4675641,7.167611,-72.653,-8.594284,-36.83611,0,0,0,24.43029,-90.37336,-30.97225,-125.8087,-110.0461,-86.69605,0.001067912,-0.1257102,0.09433498,0,0.3,0,0,0,0
638224233149931559,10.0601,6.38225,1.79774,20.14863,-27.41829,144.9584,-57.01511,-0.4675641,7.167611,-72.653,-8.594284,-36.83611,0,0,0,23.88012,-95.11104,-33.74495,-125.8087,-110.0461,-86.69605,0.001067912,-0.1257102,0.09433498,0,0.3,0,0,0,0
638224233150271449,10.0601,5.774416,1.167363,19.63592,-24.78147,144.8119,-57.01511,-0.4675641,7.167611,-72.653,-8.594284,-36.83611,0,0,0,23.65009,-96.55571,-35.04154,-125.8087,-110.0461,-86.69605,0.001067912,-0.1257102,0.09433498,0,0.3,0,0,0,0
638224233150611345,10.0601,5.119827,0.1167363,18.46399,-19.94728,144.9584,-57.01511,-0.4675641,7.167611,-72.653,-8.594284,-36.83611,0,0,0,23.24825,-98.09971,-37.30659,-125.8087,-110.0461,-86.69605,0.001067912,-0.1257102,0.09433498,0,0.3,0,0,0,0
638224233150951233,10.01298,4.979557,-1.144016,16.8526,-16.21178,144.8852,-57.01511,-0.4675641,7.167611,-72.653,-8.521038,-36.90935,0,0,0,22.63532,-98.3986,-40.14862,-125.8087,-110.0461,-86.69605,0.001067912,-0.1257102,0.09433498,0,0.3,0,0,0,0
638224233151301125,9.848064,4.956179,-2.311379,14.43551,-13.28197,144.8119,-57.01511,-0.4675641,7.167611,-72.653,-8.521038,-36.90935,0,0,0,21.80255,-98.3709,-42.75497,-125.8087,-110.0461,-86.69605,0.001067912,-0.1257102,0.09433498,0,0.3,0,0,0,0
638224233151631016,9.753823,4.956179,-2.801672,13.33683,-11.89032,144.8852,-57.01511,-0.4675641,7.167611,-72.653,-8.594284,-36.90935,0,0,0,21.40281,-98.31999,-43.84277,-125.8087,-110.0461,-86.69605,0.001067912,-0.1257102,0.09433498,0,0.3,0,0,0,0
638224233151970909,9.612464,4.956179,-3.618826,11.06623,-8.667529,144.8852,-57.01511,-0.4675641,7.167611,-72.653,-8.521038,-36.83611,0,0,0,20.77849,-98.21349,-45.66253,-125.8087,-110.0461,-86.69605,0.001067912,-0.1257102,0.09433498,0,0.3,0,0,0,0
638224233152310802,9.471104,4.932801,-3.969035,8.942122,-5.957458,144.8119,-57.01511,-0.4675641,7.167611,-72.653,-8.594284,-36.83611,0,0,0,20.34267,-98.21377,-46.40921,-125.8087,-110.0461,-86.69605,0.001067912,-0.1257102,0.09433498,0,0.3,0,0,0,0
638224233152640696,9.447544,4.909423,-3.945688,8.06318,-4.85878,144.9584,-57.01511,-0.4675641,7.167611,-72.653,-8.594284,-36.83611,0,0,0,20.3022,-98.27173,-46.34278,-125.8087,-110.0461,-86.69605,0.001067912,-0.1257102,0.09433498,0,0.3,0,0,0,0
638224233152980585,9.447544,4.839288,-3.618826,7.257483,-3.540367,144.8852,-57.01511,-0.4675641,7.167611,-72.653,-8.594284,-36.90935,0,0,0,20.42907,-98.48455,-45.58031,-125.8087,-110.0461,-86.69605,0.001067912,-0.1257102,0.09433498,0,0.3,0,0,0,0
638224233153330474,9.471104,4.722397,-3.151881,6.744767,-3.467122,144.8852,-57.01511,-0.4675641,7.167611,-72.653,-8.594284,-36.83611,0,0,0,20.6618,-98.81983,-44.49628,-125.8087,-110.0461,-86.69605,0.001067912,-0.1257102,0.09433498,0,0.3,0,0,0,0
638224233153670367,9.565345,4.699019,-3.105186,6.305296,-3.393876,144.9584,-57.01511,-0.4675641,7.167611,-72.72624,-8.594284,-36.83611,0,0,0,20.88426,-98.87999,-44.41902,-125.8087,-110.0461,-86.69605,0.001067912,-0.1257102,0.09433498,0,0.3,0,0,0,0
638224233154010256,9.753823,4.699019,-3.175228,5.499599,-3.174141,144.8852,-57.01511,-0.4675641,7.167611,-72.653,-8.521038,-36.83611,0,0,0,21.26425,-98.87106,-44.64881,-125.8087,-110.0461,-86.69605,0.001067912,-0.1257102,0.09433498,0,0.3,0,0,0,0
638224233154350149,9.753823,4.699019,-3.151881,5.353109,-2.807915,144.7387,-57.01511,-0.4675641,7.167611,-72.653,-8.594284,-36.90935,0,0,0,21.27344,-98.87405,-44.59534,-125.8087,-110.0461,-86.69605,0.001067912,-0.1257102,0.09433498,0,0.3,0,0,0,0
638224233154690044,9.753823,4.699019,-3.128534,5.426354,-2.661425,144.8852,-57.01511,-0.4675641,7.167611,-72.653,-8.594284,-36.90935,0,0,0,21.28263,-98.87703,-44.54187,-125.8087,-110.0461,-86.69605,0.001067912,-0.1257102,0.09433498,0,0.3,0,0,0,0
638224233155029935,9.753823,4.699019,-3.105186,5.426354,-2.661425,144.8852,-57.01511,-0.4675641,7.167611,-72.653,-8.594284,-36.90935,0,0,0,21.29183,-98.87999,-44.48839,-125.8087,-110.0461,-86.69605,0.001067912,-0.1257102,0.09433498,0,0.3,0,0,0,0
638224233155369824,9.753823,4.699019,-3.105186,5.572844,-2.514934,143.933,-57.01511,-0.4675641,7.167611,-72.653,-8.594284,-36.83611,0,0,0,21.29183,-98.87999,-44.48839,-125.8087,-110.0461,-86.69605,0.001067912,-0.1257102,0.09433498,0,0.3,0,0,0,0
638224233155709711,9.659584,4.652263,-3.058492,5.719335,-2.441689,136.6085,-57.01511,-0.4675641,7.167611,-72.653,-8.594284,-36.83611,0,0,0,21.10777,-98.99429,-44.33781,-125.8087,-110.0461,-86.69605,0.001067912,-0.1257102,0.09433498,0,0.3,0,0,0,0
638224233156049605,9.588904,4.582128,-3.058492,5.865825,-2.661425,131.9208,-57.01511,-0.4675641,7.167611,-72.653,-8.594284,-36.90935,0,0,0,20.95696,-99.15699,-44.29891,-125.8087,-110.0461,-86.69605,0.001067912,-0.1257102,0.09433498,0,0.3,0,0,0,0
638224233156399495,9.376864,4.41848,-3.175228,6.08556,-2.88116,122.0327,-57.01511,-0.4675641,7.167611,-72.653,-8.594284,-36.83611,0,0,0,20.4584,-99.52192,-44.46038,-125.8087,-110.0461,-86.69605,0.001067912,-0.1257102,0.09433498,0,0.3,0,0,0,0
638224233156729391,9.047026,4.395102,-3.198575,6.305296,-3.174141,109.874,-57.01511,-0.4675641,7.167611,-72.653,-8.594284,-36.83611,0,0,0,19.73698,-99.57314,-44.39411,-125.8087,-110.0461,-86.69605,0.001067912,-0.1257102,0.09433498,0,0.3,0,0,0,0
638224233157079277,8.198866,4.324967,-2.871714,6.671522,-3.833347,96.17712,-57.01511,-0.4675641,7.167611,-72.653,-8.594284,-36.83611,0,0,0,18.01006,-99.77618,-43.35135,-125.8087,-110.0461,-86.69605,0.001067912,-0.1257102,0.09433498,0,0.3,0,0,0,0
638224233157419171,7.633427,4.278211,-2.754977,6.744767,-4.126328,89.95128,-57.01511,-0.4675641,7.167611,-72.72624,-8.594284,-36.83611,0,0,0,16.81275,-99.89803,-42.90265,-125.8087,-110.0461,-86.69605,0.001067912,-0.1257102,0.09433498,0,0.3,0,0,0,0
638224233157759061,6.314069,4.067808,-2.428116,6.671522,-4.932025,77.27986,-57.01511,-0.4675641,7.167611,-72.653,-8.594284,-36.83611,0,0,0,14.00735,-100.4208,-41.75803,-125.8087,-110.0461,-86.69605,0.001067912,-0.1257102,0.09433498,0,0.3,0,0,0,0
638224233158098953,5.112512,3.530109,-2.054559,6.378541,-5.664476,64.60844,-57.01511,-0.4675641,7.167611,-72.653,-8.594284,-36.83611,0,0,0,11.43449,-101.7035,-40.54426,-125.8087,-110.0461,-86.69605,0.001067912,-0.1257102,0.09433498,0,0.3,0,0,0,0
638224233158428850,4.570632,3.015788,-1.867781,6.232051,-5.810967,58.16287,-57.01511,-0.4675641,7.167611,-72.653,-8.521038,-36.90935,0,0,0,10.26533,-102.9135,-39.94064,-125.8087,-110.0461,-86.69605,0.001067912,-0.1257102,0.09433498,0,0.3,0,0,0,0
638224233158768755,3.769594,1.659852,-1.377489,5.426354,-5.884212,47.61557,-57.01511,-0.4675641,7.167611,-72.653,-8.594284,-36.83611,0,0,0,8.552579,-106.0989,-38.54305,-125.8087,-110.0461,-86.69605,0.001067912,-0.1257102,0.09433498,0,0.3,0,0,0,0
638224233159108632,3.557554,0.3974294,-0.7704598,4.107941,-5.298251,38.16694,-57.01511,-0.4675641,7.167611,-72.653,-8.594284,-36.83611,0,0,0,8.163056,-109.063,-37.04983,-125.8087,-110.0461,-86.69605,0.001067912,-0.1257102,0.09433498,0,0.3,0,0,0,0
638224233159458518,3.581114,-0.07013461,-0.4902926,3.595225,-5.00527,34.72442,-57.01511,-0.4675641,7.167611,-72.653,-8.594284,-36.83611,0,0,0,8.257966,-110.1583,-36.39935,-125.8087,-110.0461,-86.69605,0.001067912,-0.1257102,0.09433498,0,0.3,0,0,0,0
638224233159798410,3.581114,-0.7481025,-0.0700418,2.716283,-4.199574,29.23104,-57.01511,-0.4675641,7.167611,-72.653,-8.594284,-36.90935,0,0,0,8.318355,-111.741,-35.43443,-125.8087,-110.0461,-86.69605,0.001067912,-0.1257102,0.09433498,0,0.3,0,0,0,0
638224233160148303,3.581114,-0.8649935,-0.04669453,2.276812,-2.954405,26.15474,-57.01511,-0.4675641,7.167611,-72.653,-8.594284,-36.83611,0,0,0,8.321509,-112.0131,-35.38401,-125.8087,-110.0461,-86.69605,0.001067912,-0.1257102,0.09433498,0,0.3,0,0,0,0
638224233160488198,3.581114,-0.8649935,0.02334727,2.057076,-1.855728,24.76308,-57.01511,-0.4675641,7.167611,-72.653,-8.594284,-36.90935,0,0,0,8.331692,-112.0131,-35.22132,-125.8087,-110.0461,-86.69605,0.001067912,-0.1257102,0.09433498,0,0.3,0,0,0,0
638224233160828080,3.581114,-0.8649935,0.04669453,2.203566,-1.269767,24.39685,-57.01511,-0.4675641,7.167611,-72.653,-8.594284,-36.90935,0,0,0,8.335086,-112.0131,-35.16708,-125.8087,-110.0461,-86.69605,0.001067912,-0.1257102,0.09433498,0,0.3,0,0,0,0
638224233161177973,3.581114,-0.8649935,0.350209,2.936018,-0.02459868,25.20255,-57.01511,-0.4675641,7.167611,-72.72624,-8.594284,-36.83611,0,0,0,8.379209,-112.0106,-34.46207,-125.8087,-110.0461,-86.69605,0.001067912,-0.1257102,0.09433498,0,0.3,0,0,0,0
638224233161507864,3.581114,-0.8649935,0.3969035,4.181186,1.586795,28.13236,-57.01511,-0.4675641,7.167611,-72.653,-8.594284,-36.83611,0,0,0,8.385996,-112.0099,-34.35361,-125.8087,-110.0461,-86.69605,0.001067912,-0.1257102,0.09433498,0,0.3,0,0,0,0
638224233161857758,3.581114,-0.8649935,0.3969035,4.986883,2.831963,29.30428,-57.01511,-0.4675641,7.167611,-72.653,-8.594284,-36.83611,0,0,0,8.385996,-112.0099,-34.35361,-125.8087,-110.0461,-86.69605,0.001067912,-0.1257102,0.09433498,0,0.3,0,0,0,0
638224233162197642,3.604674,-0.8649935,0.1400836,6.671522,5.688524,29.52402,-57.01511,-0.4675641,7.167611,-72.653,-8.594284,-36.83611,0,0,0,8.403515,-112.0127,-34.9536,-125.8087,-110.0461,-86.69605,0.001067912,-0.1257102,0.09433498,0,0.3,0,0,0,0
638224233162537536,3.628234,-0.8649935,0.0700418,8.282915,9.277537,25.78851,-57.01511,-0.4675641,7.167611,-72.72624,-8.594284,-36.83611,0,0,0,8.448051,-112.013,-35.11975,-125.8087,-110.0461,-86.69605,0.001067912,-0.1257102,0.09433498,0,0.3,0,0,0,0
638224233162887428,3.628234,-0.8182371,0.1634309,10.11404,13.52576,21.61354,-57.01511,-0.4675641,7.167611,-72.653,-8.594284,-36.90935,0,0,0,8.461906,-111.9038,-34.90124,-125.8087,-110.0461,-86.69605,0.001067912,-0.1257102,0.09433498,0,0.3,0,0,0,0
638224233163217321,3.628234,-0.6779679,0.4435981,11.06623,15.8696,18.90347,-57.01511,-0.4675641,7.167611,-72.653,-8.594284,-36.83611,0,0,0,8.50344,-111.5739,-34.24625,-125.8087,-110.0461,-86.69605,0.001067912,-0.1257102,0.09433498,0,0.3,0,0,0,0
638224233163567206,3.628234,-0.116891,1.587614,12.89736,20.85028,13.33683,-57.01511,-0.4675641,7.167611,-72.653,-8.594284,-36.83611,0,0,0,8.672478,-110.2209,-31.58043,-125.8087,-110.0461,-86.69605,0.001067912,-0.1257102,0.09433498,0,0.3,0,0,0,0
638224233163897103,3.628234,0.8182371,3.24527,14.80174,25.97744,8.649141,-57.01511,-0.4675641,7.167611,-72.653,-8.594284,-36.90935,0,0,0,8.915554,-107.8819,-27.74699,-125.8087,-110.0461,-86.69605,0.001067912,-0.1257102,0.09433498,0,0.3,0,0,0,0
638224233164236995,3.628234,1.355936,3.735562,15.53419,28.39453,6.598277,-57.01511,-0.4675641,7.167611,-72.653,-8.594284,-36.83611,0,0,0,8.986129,-106.5612,-26.63398,-125.8087,-110.0461,-86.69605,0.001067912,-0.1257102,0.09433498,0,0.3,0,0,0,0
638224233164576885,3.628234,1.893635,3.688868,16.8526,33.00897,1.397869,-57.01511,-0.4675641,7.167611,-72.653,-8.594284,-36.90935,0,0,0,8.977021,-105.3173,-26.77762,-125.8087,-110.0461,-86.69605,0.001067912,-0.1257102,0.09433498,0,0.3,0,0,0,0
638224233164926777,3.698914,1.519583,2.825019,18.17101,36.08527,-2.191144,-57.01511,-0.4675641,7.167611,-72.653,-8.594284,-36.83611,0,0,0,9.023835,-106.3017,-28.766,-125.8087,-110.0461,-86.69605,0.001067912,-0.1257102,0.09433498,0,0.3,0,0,0,0
638224233165266663,3.769594,1.239045,2.288032,18.90347,37.1107,-3.143331,-57.01511,-0.4675641,7.167611,-72.653,-8.521038,-36.83611,0,0,0,9.114967,-107.0102,-30.00739,-125.8087,-110.0461,-86.69605,0.001067912,-0.1257102,0.09433498,0,0.3,0,0,0,0
638224233165596558,3.863834,0.5844551,1.2841,20.22188,38.42912,-3.729292,-57.01511,-0.4675641,7.167611,-72.653,-8.594284,-36.90935,0,0,0,9.186763,-108.6063,-32.32846,-125.8087,-110.0461,-86.69605,0.001067912,-0.1257102,0.09433498,0,0.3,0,0,0,0
638224233165946449,3.981634,-0.3740513,-0.3969035,21.3938,38.94183,-2.99684,-57.01511,-0.4675641,7.167611,-72.653,-8.594284,-36.83611,0,0,0,9.195044,-110.8674,-36.24621,-125.8087,-110.0461,-86.69605,0.001067912,-0.1257102,0.09433498,0,0.3,0,0,0,0
638224233166286342,4.075873,-1.028641,-2.521505,22.56572,39.16157,-1.238957,-57.01511,-0.4675641,7.167611,-72.653,-8.594284,-36.90935,0,0,0,9.059661,-112.2648,-41.21051,-125.8087,-110.0461,-86.69605,0.001067912,-0.1257102,0.09433498,0,0.3,0,0,0,0
638224233166626234,4.170113,-0.9585064,-3.665521,22.93195,39.23481,-0.7262403,-57.01511,-0.4675641,7.167611,-72.653,-8.521038,-36.83611,0,0,0,9.075641,-111.9579,-43.87438,-125.8087,-110.0461,-86.69605,0.001067912,-0.1257102,0.09433498,0,0.3,0,0,0,0
638224233166976117,4.382153,-1.005263,-5.883511,23.6644,39.45455,0.006211365,-57.01511,-0.4675641,7.167611,-72.653,-8.594284,-36.90935,0,0,0,9.143055,-111.6371,-49.03955,-125.8087,-110.0461,-86.69605,0.001067912,-0.1257102,0.09433498,0,0.3,0,0,0.0006864609,0
638224233167306013,4.735552,-1.005263,-8.19489,24.32361,39.52779,0.5921727,-57.01511,-0.4675641,7.167611,-72.653,-8.594284,-36.90935,0,0,0,9.438045,-110.9779,-54.41858,-125.8087,-110.0461,-86.69605,0.001067912,-0.1257102,0.09433498,0,0.3,0,0,0.001974095,0
638224233167645906,4.924032,-1.005263,-9.175476,24.68983,39.60104,1.104889,-57.01511,-0.4675641,7.167611,-72.653,-8.594284,-36.90935,0,0,0,9.619136,-110.6333,-56.69793,-125.8087,-110.0461,-86.69605,0.001067912,-0.1257102,0.09433498,0,0.3,0,0,0.002623022,0
638224233167985799,5.230311,-0.9818845,-9.922588,25.05606,39.74753,1.983831,-57.01511,-0.4675641,7.167611,-72.653,-8.594284,-36.83611,0,0,0,10.05961,-110.2904,-58.45758,-125.8087,-110.0461,-86.69605,0.001067912,-0.1257102,0.09433498,0,0.3,0,0,0.003906225,0
638224233168325687,5.324551,-0.9818845,-9.922588,24.90957,40.33349,2.423302,-57.01511,-0.4675641,7.167611,-72.653,-8.594284,-36.83611,0,0,0,10.24035,-110.2904,-58.47428,-125.8087,-110.0461,-86.69605,0.001067912,-0.1257102,0.09433498,0,0.3,0,0,0.005161842,0
638224233168665584,5.324551,-0.9818845,-9.922588,24.68983,40.62647,2.569792,-57.01511,-0.4675641,7.167611,-72.653,-8.594284,-36.90935,0,0,0,10.24035,-110.2904,-58.47428,-125.8087,-110.0461,-86.69605,0.001067912,-0.1257102,0.09433498,0,0.3,0,0,0.00578246,0
638224233169005477,5.324551,-0.9818845,-9.922588,23.73765,41.6519,2.716283,-57.01511,-0.4675641,7.167611,-72.653,-8.594284,-36.83611,0,0,0,10.24035,-110.2904,-58.47428,-125.8087,-110.0461,-86.69605,0.001067912,-0.1257102,0.09433498,0,0.3,0,0,0.007010131,0
638224233169345365,5.489471,-0.9818845,-10.36619,22.12625,42.4576,3.009263,-57.01511,-0.4675641,7.167611,-72.72624,-8.594284,-36.83611,0,0,0,10.45935,-110.1086,-59.51583,-125.8087,-110.0461,-86.69605,0.001067912,-0.1257102,0.09433498,0,0.3,0,0,0.008220527,0
638224233169695252,6.24339,-0.9818845,-12.11723,19.56267,42.75058,7.989935,-57.01511,-0.4675641,7.167611,-72.653,-8.521038,-36.83611,0,0,0,11.4558,-109.3141,-63.6362,-125.8087,-110.0461,-86.69605,0.001067912,-0.1257102,0.09433498,0,0.3,0,0,0.009406866,0
638224233170035143,6.526109,-0.9818845,-12.44409,18.39075,42.60409,11.87193,-57.01511,-0.4675641,7.167611,-72.72624,-8.594284,-36.83611,0,0,0,11.88787,-109.1523,-64.43252,-125.8087,-110.0461,-86.69605,0.001067912,-0.1257102,0.09433498,0,0.3,0,0,0.009985699,0
638224233170375038,6.808829,-0.9818845,-12.46744,16.92585,42.09137,17.14558,-57.01511,-0.4675641,7.167611,-72.653,-8.521038,-36.83611,0,0,0,12.39421,-109.1406,-64.54513,-125.8087,-110.0461,-86.69605,0.001067912,-0.1257102,0.09433498,0,0.3,0,0,0.01111379,0
638224233170714927,6.808829,-1.005263,-12.44409,16.19339,41.43217,19.41618,-57.01511,-0.4675641,7.167611,-72.653,-8.594284,-36.90935,0,0,0,12.40038,-109.2067,-64.49338,-125.8087,-110.0461,-86.69605,0.001067912,-0.1257102,0.09433498,0,0.3,0,0,0.01222325,0
638224233171054823,6.808829,-1.005263,-12.37405,15.90041,40.99269,19.41618,-57.01511,-0.4675641,7.167611,-72.653,-8.594284,-36.83611,0,0,0,12.41926,-109.2417,-64.33529,-125.8087,-110.0461,-86.69605,0.001067912,-0.1257102,0.09433498,0,0.3,0,0,0.01277116,0
638224233171394710,6.808829,-0.9818845,-12.11723,14.87498,40.187,16.63286,-57.01511,-0.4675641,7.167611,-72.653,-8.594284,-36.90935,0,0,0,12.48862,-109.3141,-63.75435,-125.8087,-110.0461,-86.69605,0.001067912,-0.1257102,0.09433498,0,0.3,0,0,0.01385086,0
638224233171734600,6.808829,-0.9585064,-11.69698,13.26359,39.52779,10.99299,-57.01511,-0.4675641,7.167611,-72.653,-8.594284,-36.83611,0,0,0,12.6022,-109.4615,-62.80315,-125.8087,-110.0461,-86.69605,0.001067912,-0.1257102,0.09433498,0,0.3,0,0,0.01490606,0
638224233172074509,6.808829,-0.9117499,-11.01991,11.35921,38.86858,4.620657,-57.01511,-0.4675641,7.167611,-72.653,-8.521038,-36.83611,0,0,0,12.78557,-109.663,-61.26734,-125.8087,-110.0461,-86.69605,0.001067912,-0.1257102,0.09433498,0,0.3,0,0,0.01593032,0
638224233172419468,6.808829,-0.9117499,-10.38953,10.26054,38.50236,1.324624,-57.01511,-0.4675641,7.167611,-72.653,-8.594284,-36.90935,0,0,0,12.95648,-109.9356,-59.83591,-125.8087,-110.0461,-86.69605,0.001067912,-0.1257102,0.09433498,0,0.3,0,0,0.01642631,0
638224233172759343,6.808829,-0.9117499,-8.358321,7.843444,37.84315,-4.534989,-57.01511,-0.4675641,7.167611,-72.653,-8.521038,-36.83611,0,0,0,13.50944,-110.7055,-55.20474,-125.8087,-110.0461,-86.69605,0.001067912,-0.1257102,0.09433498,0,0.3,0,0,0.01736502,0
638224233173099235,6.973749,-0.8649935,-6.420498,5.133373,37.18394,-10.32136,-57.01511,-0.4675641,7.167611,-72.653,-8.594284,-36.90935,0,0,0,14.37828,-111.1767,-50.80309,-125.8087,-110.0461,-86.69605,0.001067912,-0.1257102,0.09433498,0,0.3,0,0,0.01822142,0
638224233173439129,7.327148,-0.7013461,-5.46326,3.741715,36.74448,-12.95818,-57.01511,-0.4675641,7.167611,-72.653,-8.594284,-36.90935,0,0,0,15.38629,-111.0265,-48.69107,-125.8087,-110.0461,-86.69605,0.001067912,-0.1257102,0.09433498,0,0.3,0,0,0.01860499,0
638224233173789015,8.858545,-0.116891,-3.688868,1.54436,35.42606,-16.5472,-57.01511,-0.4675641,7.167611,-72.72624,-8.594284,-36.90935,0,0,0,19.21405,-109.9958,-45.06812,-125.8087,-110.0461,-86.69605,0.001067912,-0.1257102,0.09433498,0,0.3,0,0,0.01923122,0
638224233174128910,11.45014,0.116891,-1.751045,1.69085,33.74142,-18.30508,-57.01511,-0.4675641,7.167611,-72.653,-8.594284,-36.90935,0,0,0,25.66304,-109.6657,-41.64787,-125.8087,-110.0461,-86.69605,0.001067912,-0.1257102,0.09433498,0,0.3,0,0,0.0195928,0
638224233174468799,13.0051,0.116891,-0.8638488,2.643037,33.00897,-18.8178,-57.01511,-0.4675641,7.167611,-72.653,-8.594284,-36.83611,0,0,0,29.5563,-109.7128,-40.37957,-125.8087,-110.0461,-86.69605,0.001067912,-0.1257102,0.09433498,0,0.3,0,0,0.01965666,0
638224233174798699,16.35061,0.116891,0.7704598,5.646089,31.54407,-19.40376,-57.01511,-0.4675641,7.167611,-72.653,-8.594284,-36.83611,0,0,0,38.04466,-109.7159,-38.67275,-125.8087,-110.0461,-86.69605,0.001067912,-0.1257102,0.09433498,0,0.3,0,0,0.01953329,0
638224233175138586,19.97885,0.116891,2.47481,9.601329,30.44539,-19.69674,-57.01511,-0.4675641,7.167611,-72.653,-8.594284,-36.90935,0,0,0,47.5294,-109.6036,-37.61387,-125.8087,-110.0461,-86.69605,0.001067912,-0.1257102,0.09433498,0,0.3,0,0,0.01905105,0
638224233175468477,22.19348,0.116891,3.432048,12.3114,29.85943,-19.84323,-57.01511,-0.4675641,7.167611,-72.653,-8.594284,-36.83611,0,0,0,53.38637,-109.4888,-37.48815,-125.8087,-110.0461,-86.69605,0.001067912,-0.1257102,0.09433498,0,0.3,0,0,0.01866233,0
638224233175808374,25.04424,0.233782,4.599411,15.68068,29.41996,-20.13621,-57.01511,-0.4675641,7.167611,-72.653,-8.594284,-36.90935,0,0,0,60.97558,-109.0265,-37.85061,-125.8087,-110.0461,-86.69605,0.001067912,-0.1257102,0.09433498,0,0.3,0,0,0.0176955,0
638224233176148266,28.24839,0.7948589,5.906858,19.26969,29.05373,-21.01515,-57.01511,-0.4675641,7.167611,-72.653,-8.594284,-36.83611,0,0,0,69.60296,-107.4421,-38.80388,-125.8087,-110.0461,-86.69605,0.001067912,-0.1257102,0.09433498,0,0.3,0,0,0.01643418,0
638224233176498151,31.16983,1.893635,7.190958,22.56572,28.76075,-22.04058,-57.01511,-0.4675641,7.167611,-72.653,-8.594284,-36.83611,0,0,0,77.62068,-104.5447,-40.03057,-125.8087,-110.0461,-86.69605,0.001067912,-0.1257102,0.09433498,0,0.3,0,0,0.01490145,0
638224233176838059,32.58343,2.641737,7.797987,24.39685,28.54102,-22.5533,-57.01511,-0.4675641,7.167611,-72.653,-8.594284,-36.83611,0,0,0,81.47985,-102.6207,-40.86227,-125.8087,-110.0461,-86.69605,0.001067912,-0.1257102,0.09433498,0,0.3,0,0,0.01403708,0
638224233177177937,35.26926,4.465237,8.871961,27.76613,28.10155,-23.57873,-57.01511,-0.4675641,7.167611,-72.653,-8.594284,-36.83611,0,0,0,88.64051,-98.02267,-43.016,-125.8087,-110.0461,-86.69605,0.001067912,-0.1257102,0.09433498,0,0.3,0,0,0.01213381,0
638224233177507829,37.57814,6.686166,9.73581,30.76918,27.51558,-24.53092,-57.01511,-0.4675641,7.167611,-72.653,-8.594284,-36.90935,0,0,0,94.52153,-92.55342,-45.51437,-125.8087,-110.0461,-86.69605,0.001067912,-0.1257102,0.09433498,0,0.3,0,0,0.01003354,0
638224233177847723,38.6619,8.158993,10.15606,32.08759,27.14936,-25.11688,-57.01511,-0.4675641,7.167611,-72.653,-8.594284,-36.90935,0,0,0,97.15314,-88.98546,-46.91764,-125.8087,-110.0461,-86.69605,0.001067912,-0.1257102,0.09433498,0,0.3,0,0,0.008920916,0
638224233178187613,40.31109,11.24492,10.76309,34.13846,26.19717,-26.36205,-57.01511,-0.4675641,7.167611,-72.653,-8.594284,-36.90935,0,0,0,100.7236,-81.65038,-49.62743,-125.8087,-110.0461,-86.69605,0.001067912,-0.1257102,0.09433498,0,0.3,0,0,0.006608475,0
638224233178527506,41.41841,14.75165,11.34677,35.96959,24.80551,-27.75371,-57.01511,-0.4675641,7.167611,-72.653,-8.594284,-36.83611,0,0,0,102.6669,-73.43871,-51.97268,-125.8087,-110.0461,-86.69605,0.001067912,-0.1257102,0.09433498,0,0.3,0,0,0.00421581,0
638224233178877403,42.07809,18.37527,12.16393,37.14151,23.19412,-28.77914,-57.01511,-0.4675641,7.167611,-72.653,-8.594284,-36.83611,0,0,0,103.6368,-64.96895,-53.56464,-125.8087,-110.0461,-86.69605,0.001067912,-0.1257102,0.09433498,0,0.3,0,0,0.001769875,0
638224233179207290,42.31369,20.31566,12.65422,37.58098,22.09544,-29.3651,-57.01511,-0.4675641,7.167611,-72.653,-8.594284,-36.83611,0,0,0,103.8511,-60.46287,-54.27386,-125.8087,-110.0461,-86.69605,0.001067912,-0.1257102,0.09433498,0,0.3,0,0,0.0005309897,0
638224233179557175,42.40793,23.89252,13.56476,38.16694,19.7516,-30.39053,-57.01511,-0.4675641,7.167611,-72.72624,-8.594284,-36.83611,0,0,0,103.3183,-52.27054,-55.23346,-125.8087,-110.0461,-86.69605,0.001067912,-0.1257102,0.09433498,0,0.3,0,0,0,0
638224233179897066,42.33725,27.04858,14.59204,38.45993,17.40775,-31.26948,-57.01511,-0.4675641,7.167611,-72.653,-8.594284,-36.90935,0,0,0,102.6133,-45.05833,-55.72659,-125.8087,-110.0461,-86.69605,0.001067912,-0.1257102,0.09433498,0,0.3,0,0,0,0
638224233180236959,42.24301,28.45127,15.22242,38.53317,16.16258,-31.70894,-57.01511,-0.4675641,7.167611,-72.653,-8.594284,-36.83611,0,0,0,102.3592,-41.79183,-55.63367,-125.8087,-110.0461,-86.69605,0.001067912,-0.1257102,0.09433498,0,0.3,0,0,0,0
638224233180576851,41.81893,30.50856,16.13296,38.67966,13.89198,-32.29491,-57.01511,-0.4675641,7.167611,-72.653,-8.594284,-36.90935,0,0,0,101.3115,-37.05121,-55.11454,-125.8087,-110.0461,-86.69605,0.001067912,-0.1257102,0.09433498,0,0.3,0,0,0,0
638224233180916743,41.08857,31.91125,16.6466,38.24019,11.98761,-32.73438,-57.01511,-0.4675641,7.167611,-72.653,-8.594284,-36.83611,0,0,0,99.50188,-33.92181,-54.24291,-125.8087,-110.0461,-86.69605,0.001067912,-0.1257102,0.09433498,0,0.3,0,0,0,0
638224233181256633,40.66449,32.40219,16.78668,37.87396,11.25516,-32.80762,-57.01511,-0.4675641,7.167611,-72.653,-8.594284,-36.83611,0,0,0,98.46178,-32.8607,-53.73401,-125.8087,-110.0461,-86.69605,0.001067912,-0.1257102,0.09433498,0,0.3,0,0,0,0
638224233181596525,39.60429,33.31394,16.85673,36.99502,10.22972,-32.88087,-57.01511,-0.4675641,7.167611,-72.653,-8.521038,-36.83611,0,0,0,95.68974,-31.03103,-52.69862,-125.8087,-110.0461,-86.69605,0.001067912,-0.1257102,0.09433498,0,0.3,0,0,0,0
638224233181936415,38.30849,34.13218,16.85673,35.89634,9.350782,-32.88087,-57.01511,-0.4675641,7.167611,-72.653,-8.594284,-36.83611,0,0,0,92.39455,-29.44712,-51.39388,-125.8087,-110.0461,-86.69605,0.001067912,-0.1257102,0.09433498,0,0.3,0,0,0,0
638224233182276309,36.6593,34.95041,16.85673,34.57793,8.398596,-32.80762,-57.01511,-0.4675641,7.167611,-72.72624,-8.521038,-36.83611,0,0,0,88.3456,-27.87848,-49.6494,-125.8087,-110.0461,-86.69605,0.001067912,-0.1257102,0.09433498,0,0.3,0,0,0,0
638224233182616196,35.7169,35.37122,16.85673,33.69899,7.88588,-32.88087,-57.01511,-0.4675641,7.167611,-72.653,-8.594284,-36.83611,0,0,0,86.0521,-27.0778,-48.67034,-125.8087,-110.0461,-86.69605,0.001067912,-0.1257102,0.09433498,0,0.3,0,0,0,0
638224233182966086,33.31378,36.07257,16.85673,31.64813,6.860447,-32.88087,-57.01511,-0.4675641,7.167611,-72.653,-8.594284,-36.83611,0,0,0,80.43484,-25.7526,-45.96384,-125.8087,-110.0461,-86.69605,0.001067912,-0.1257102,0.09433498,0,0.3,0,0,0,0
638224233183305980,30.55727,36.58689,16.85673,28.79156,5.90826,-32.58789,-57.01511,-0.4675641,7.167611,-72.653,-8.594284,-36.90935,0,0,0,74.09547,-24.78825,-42.84787,-125.8087,-110.0461,-86.69605,0.001067912,-0.1257102,0.09433498,0,0.3,0,0,0,0
638224233183645871,29.07299,36.86742,16.85673,27.18017,5.468789,-32.14842,-57.01511,-0.4675641,7.167611,-72.653,-8.521038,-36.83611,0,0,0,70.63005,-24.26493,-41.31197,-125.8087,-110.0461,-86.69605,0.001067912,-0.1257102,0.09433498,0,0.3,0,0,0,0
638224233183985765,25.93952,37.56877,16.85673,23.95738,4.443357,-30.9765,-57.01511,-0.4675641,7.167611,-72.653,-8.594284,-36.90935,0,0,0,63.1484,-22.96507,-38.52894,-125.8087,-110.0461,-86.69605,0.001067912,-0.1257102,0.09433498,0,0.3,0,0,0,0
638224233184325654,23.04164,38.55066,16.95012,20.36837,3.564415,-29.43835,-57.01511,-0.4675641,7.167611,-72.653,-8.594284,-36.83611,0,0,0,56.03443,-21.10257,-36.60746,-125.8087,-110.0461,-86.69605,0.001067912,-0.1257102,0.09433498,0,0.3,0,0,0,0
638224233184665545,21.79296,39.15849,17.18359,18.3175,2.978453,-28.7059,-57.01511,-0.4675641,7.167611,-72.653,-8.594284,-36.83611,0,0,0,53.01358,-19.84144,-35.75937,-125.8087,-110.0461,-86.69605,0.001067912,-0.1257102,0.09433498,0,0.3,0,0,0,0
638224233185005437,19.64901,40.74821,18.23421,14.582,1.293814,-27.38748,-57.01511,-0.4675641,7.167611,-72.653,-8.521038,-36.83611,0,0,0,48.00056,-16.26153,-33.91277,-125.8087,-110.0461,-86.69605,0.001067912,-0.1257102,0.09433498,0,0.3,0,0,0,0
638224233185345331,18.49457,42.52495,19.75179,11.35921,-0.9035407,-26.65503,-57.01511,-0.4675641,7.167611,-72.653,-8.521038,-36.83611,0,0,0,45.47013,-12.02166,-32.41127,-125.8087,-110.0461,-86.69605,0.001067912,-0.1257102,0.09433498,0,0.3,0,0,0,0
638224233185695219,18.18829,44.27832,21.43279,8.942122,-3.393876,-26.14231,-57.01511,-0.4675641,7.167611,-72.653,-8.521038,-36.83611,0,0,0,45.01077,-7.680873,-31.35461,-125.8087,-110.0461,-86.69605,0.001067912,-0.1257102,0.09433498,0,0.3,0,0,0,0
638224233186035114,18.21185,45.14331,22.2266,8.136425,-4.712289,-25.99582,-57.01511,-0.4675641,7.167611,-72.72624,-8.594284,-36.83611,0,0,0,45.16045,-5.563198,-31.0894,-125.8087,-110.0461,-86.69605,0.001067912,-0.1257102,0.09433498,0,0.3,0,0,0,0
638224233186404990,18.47101,46.77979,23.65078,7.037747,-7.422361,-25.92258,-57.01511,-0.4675641,7.167611,-72.653,-8.521038,-36.90935,0,0,0,45.8805,-1.623854,-30.99673,-125.8087,-110.0461,-86.69605,0.001067912,-0.1257102,0.09433498,0,0.3,0,0,0,0
638224233186744884,19.17781,48.3695,25.09831,6.598277,-9.473226,-25.92258,-57.01511,-0.4675641,7.167611,-72.653,-8.521038,-36.90935,0,0,0,47.68225,2.262468,-31.25429,-125.8087,-110.0461,-86.69605,0.001067912,-0.1257102,0.09433498,0,0.3,0,0,0,0
638224233187094768,20.35581,49.81895,26.54584,7.110993,-11.23111,-25.92258,-57.01511,-0.4675641,7.167611,-72.653,-8.521038,-36.90935,0,0,0,50.65865,5.938809,-31.81073,-125.8087,-110.0461,-86.69605,0.001067912,-0.1257102,0.09433498,0,0.3,0,0,0,0
638224233187424666,21.1804,50.5203,27.26961,7.696954,-12.25654,-25.92258,-57.01511,-0.4675641,7.167611,-72.653,-8.521038,-36.83611,0,0,0,52.70822,7.746644,-32.32212,-125.8087,-110.0461,-86.69605,0.001067912,-0.1257102,0.09433498,0,0.3,0,0,0,0
638224233187764558,23.01808,51.57232,28.48367,9.235103,-13.72145,-26.14231,-57.01511,-0.4675641,7.167611,-72.653,-8.594284,-36.90935,0,0,0,57.27538,10.60709,-33.53597,-125.8087,-110.0461,-86.69605,0.001067912,-0.1257102,0.09433498,0,0.3,0,0,0,0
638224233188109567,25.20916,52.29704,29.53429,11.57895,-14.60039,-27.24099,-57.01511,-0.4675641,7.167611,-72.653,-8.594284,-36.83611,0,0,0,62.73293,12.83283,-35.09102,-125.8087,-110.0461,-86.69605,0.001067912,-0.1257102,0.09433498,0,0.3,0,0,0,0
638224233188449402,26.34004,52.57758,30.04793,13.04385,-14.82012,-28.11993,-57.01511,-0.4675641,7.167611,-72.653,-8.594284,-36.90935,0,0,0,65.58142,13.82482,-35.88918,-125.8087,-110.0461,-86.69605,0.001067912,-0.1257102,0.09433498,0,0.3,0,0,0,0
638224233188789296,28.71959,52.99839,31.07521,15.97366,-15.25959,-30.46378,-57.01511,-0.4675641,7.167611,-72.653,-8.521038,-36.83611,0,0,0,71.639,15.63278,-37.60485,-125.8087,-110.0461,-86.69605,0.001067912,-0.1257102,0.09433498,0,0.3,0,0,0,0
638224233189129185,31.19339,53.16203,32.0091,19.04996,-15.25959,-33.32034,-57.01511,-0.4675641,7.167611,-72.653,-8.594284,-36.90935,0,0,0,78.01721,16.99859,-39.49472,-125.8087,-110.0461,-86.69605,0.001067912,-0.1257102,0.09433498,0,0.3,0,0,0,0
638224233189459080,32.32427,53.16203,32.38266,20.5881,-15.25959,-34.85849,-57.01511,-0.4675641,7.167611,-72.72624,-8.594284,-36.90935,0,0,0,80.93854,17.46182,-40.43787,-125.8087,-110.0461,-86.69605,0.001067912,-0.1257102,0.09433498,0,0.3,0,0,0,0
638224233189808969,34.6567,53.13866,33.19981,24.03063,-15.03986,-38.15452,-57.01511,-0.4675641,7.167611,-72.653,-8.521038,-36.83611,0,0,0,87.01109,18.45918,-42.48691,-125.8087,-110.0461,-86.69605,0.001067912,-0.1257102,0.09433498,0,0.3,0,0,0,0
638224233190148860,36.70642,52.97501,33.80684,27.25341,-14.82012,-41.45055,-57.01511,-0.4675641,7.167611,-72.653,-8.594284,-36.83611,0,0,0,92.34322,19.01011,-44.49104,-125.8087,-110.0461,-86.69605,0.001067912,-0.1257102,0.09433498,0,0.3,0,0,0,0
638224233190488748,38.40274,52.60096,34.27379,30.10997,-14.4539,-44.23387,-57.01511,-0.4675641,7.167611,-72.653,-8.521038,-36.83611,0,0,0,96.9593,19.09196,-46.02981,-125.8087,-110.0461,-86.69605,0.001067912,-0.1257102,0.09433498,0,0.3,0,0,0,0
638224233190828642,39.2509,52.32042,34.53061,31.42839,-14.08767,-45.40579,-57.01511,-0.4675641,7.167611,-72.653,-8.594284,-36.83611,0,0,0,99.39895,19.03185,-46.69564,-125.8087,-110.0461,-86.69605,0.001067912,-0.1257102,0.09433498,0,0.3,0,0,0,0
638224233191178547,40.80585,51.52556,34.90416,33.62574,-13.35522,-47.82288,-57.01511,-0.4675641,7.167611,-72.653,-8.594284,-36.90935,0,0,0,104.0822,18.38611,-47.79451,-125.8087,-110.0461,-86.69605,0.001067912,-0.1257102,0.09433498,0,0.3,0,0,0,0
638224233191518424,42.29013,50.38003,35.0209,35.74985,-12.47628,-49.72726,-57.01511,-0.4675641,7.167611,-72.653,-8.521038,-36.83611,0,0,0,108.713,16.86229,-48.83458,-125.8087,-110.0461,-86.69605,0.001067912,-0.1257102,0.09433498,0,0.3,0,0,0,0
638224233191858315,43.02049,49.6553,35.0209,36.70204,-12.03681,-50.53296,-57.01511,-0.4675641,7.167611,-72.653,-8.594284,-36.83611,0,0,0,111.1094,15.77849,-49.28513,-125.8087,-110.0461,-86.69605,0.001067912,-0.1257102,0.09433498,0,0.3,0,0,0,0
638224233192208200,44.43409,48.13572,35.0209,38.38668,-11.01137,-51.92461,-57.01511,-0.4675641,7.167611,-72.72624,-8.594284,-36.83611,0,0,0,115.8785,13.45343,-50.15952,-125.8087,-110.0461,-86.69605,0.001067912,-0.1257102,0.09433498,0,0.3,0,0,0,0
638224233192548093,45.84768,46.35898,34.95086,39.92483,-8.960509,-53.31627,-57.01511,-0.4675641,7.167611,-72.653,-8.594284,-36.83611,0,0,0,120.8416,10.55296,-51.03218,-125.8087,-110.0461,-86.69605,0.001067912,-0.1257102,0.09433498,0,0.3,0,0,0,0
638224233192888001,47.28484,44.25494,34.92751,41.60947,-6.836399,-54.3417,-57.01511,-0.4675641,7.167611,-72.653,-8.594284,-36.83611,0,0,0,126.2708,7.077982,-51.76875,-125.8087,-110.0461,-86.69605,0.001067912,-0.1257102,0.09433498,0,0.3,0,0,0,0
638224233193217880,47.92096,43.17954,34.92751,42.26867,-5.664476,-54.78117,-57.01511,-0.4675641,7.167611,-72.653,-8.594284,-36.83611,0,0,0,128.8412,5.269032,-52.01863,-125.8087,-110.0461,-86.69605,0.001067912,-0.1257102,0.09433498,0,0.3,0,0,0,0
638224233193567770,49.09896,40.81834,34.92751,43.51384,-3.393876,-55.66012,-57.01511,-0.4675641,7.167611,-72.653,-8.594284,-36.83611,0,0,0,133.9847,1.185341,-52.28458,-125.8087,-110.0461,-86.69605,0.001067912,-0.1257102,0.09433498,0,0.3,0,0,0,0
638224233193907660,50.04136,38.38701,34.92751,44.39278,-0.8302955,-56.24608,-57.01511,-0.4675641,7.167611,-72.653,-8.594284,-36.90935,0,0,0,138.6402,-3.174248,-52.18747,-125.8087,-110.0461,-86.69605,0.001067912,-0.1257102,0.09433498,0,0.3,0,0,0,0
638224233194237556,50.44188,37.2181,34.90416,44.75901,0.4148723,-56.39257,-57.01511,-0.4675641,7.167611,-72.653,-8.594284,-36.83611,0,0,0,140.7001,-5.354869,-52.12587,-125.8087,-110.0461,-86.69605,0.001067912,-0.1257102,0.09433498,0,0.3,0,0,0,0
638224233194587444,51.1958,34.81015,34.67069,45.34497,3.271434,-56.68555,-57.01511,-0.4675641,7.167611,-72.653,-8.594284,-36.83611,0,0,0,144.4372,-10.19769,-52.20208,-125.8087,-110.0461,-86.69605,0.001067912,-0.1257102,0.09433498,0,0.3,0,0,0,0
638224233194917339,51.85547,32.42557,34.41387,45.78444,5.981505,-56.75879,-57.01511,-0.4675641,7.167611,-72.653,-8.594284,-36.83611,0,0,0,147.794,-15.15791,-52.27913,-125.8087,-110.0461,-86.69605,0.001067912,-0.1257102,0.09433498,0,0.3,0,0,0,0
638224233195257230,52.16175,31.2099,34.27379,45.93093,7.373164,-56.83204,-57.01511,-0.4675641,7.167611,-72.653,-8.594284,-36.83611,0,0,0,149.3778,-17.74597,-52.32093,-125.8087,-110.0461,-86.69605,0.001067912,-0.1257102,0.09433498,0,0.3,0,0,0,0
638224233195597119,52.72719,28.75519,34.08701,46.15067,10.22972,-56.75879,-57.01511,-0.4675641,7.167611,-72.653,-8.594284,-36.83611,0,0,0,152.5011,-22.93835,-52.28961,-125.8087,-110.0461,-86.69605,0.001067912,-0.1257102,0.09433498,0,0.3,0,0,0,0
638224233195937017,53.10415,26.62777,33.7368,46.66338,12.64682,-56.83204,-57.01511,-0.4675641,7.167611,-72.72624,-8.594284,-36.90935,0,0,0,154.5605,-27.77707,-52.32023,-125.8087,-110.0461,-86.69605,0.001067912,-0.1257102,0.09433498,0,0.3,0,0,0,0
638224233196276907,53.33975,24.9913,33.15312,47.02961,14.84417,-56.75879,-57.01511,-0.4675641,7.167611,-72.653,-8.594284,-36.83611,0,0,0,155.4572,-31.95444,-52.6435,-125.8087,-110.0461,-86.69605,0.001067912,-0.1257102,0.09433498,0,0.3,0,0,0,0
638224233196616799,53.45755,24.2432,32.87295,47.1761,15.8696,-56.75879,-57.01511,-0.4675641,7.167611,-72.653,-8.594284,-36.90935,0,0,0,155.8381,-33.89257,-52.85708,-125.8087,-110.0461,-86.69605,0.001067912,-0.1257102,0.09433498,0,0.3,0,0,0,0
638224233196946692,53.62247,22.93402,32.38266,47.32259,17.55424,-56.68555,-57.01511,-0.4675641,7.167611,-72.653,-8.594284,-36.83611,0,0,0,156.3778,-37.30015,-53.15296,-125.8087,-110.0461,-86.69605,0.001067912,-0.1257102,0.09433498,0,0.3,0,0,0,0
638224233197286582,53.71671,21.46119,31.77563,47.54232,18.79941,-56.09959,-57.01511,-0.4675641,7.167611,-72.653,-8.594284,-36.83611,0,0,0,156.646,-41.22418,-53.35237,-125.8087,-110.0461,-86.69605,0.001067912,-0.1257102,0.09433498,0,0.3,0,0,0,0
638224233197626475,53.74027,20.73647,31.47211,47.54232,19.31213,-55.80661,-57.01511,-0.4675641,7.167611,-72.653,-8.594284,-36.83611,0,0,0,156.6979,-43.16821,-53.41343,-125.8087,-110.0461,-86.69605,0.001067912,-0.1257102,0.09433498,0,0.3,0,0,0,0
638224233197966365,53.76383,19.12337,30.7717,47.54232,20.55729,-55.22065,-57.01511,-0.4675641,7.167611,-72.653,-8.594284,-36.83611,0,0,0,156.6517,-47.54012,-53.54634,-125.8087,-110.0461,-86.69605,0.001067912,-0.1257102,0.09433498,0,0.3,0,0,0,0
638224233198306259,53.76383,17.55703,29.93119,47.46908,21.50948,-54.78117,-57.01511,-0.4675641,7.167611,-72.653,-8.594284,-36.90935,0,0,0,156.2153,-51.98878,-53.86614,-125.8087,-110.0461,-86.69605,0.001067912,-0.1257102,0.09433498,0,0.3,0,0,0,0
638224233198636155,53.76383,16.9492,29.32417,47.32259,22.09544,-54.48819,-57.01511,-0.4675641,7.167611,-72.653,-8.594284,-36.83611,0,0,0,155.5632,-54.03822,-54.34405,-125.8087,-110.0461,-86.69605,0.001067912,-0.1257102,0.09433498,0,0.3,0,0,0,0
638224233198986041,53.76383,16.06083,27.7132,46.88312,23.26737,-54.04872,-57.01511,-0.4675641,7.167611,-72.653,-8.594284,-36.90935,0,0,0,153.3799,-57.81065,-55.94414,-125.8087,-110.0461,-86.69605,0.001067912,-0.1257102,0.09433498,0,0.3,0,0,0,0
638224233199325929,53.71671,15.14908,26.28902,46.44365,24.14631,-53.31627,-57.01511,-0.4675641,7.167611,-72.653,-8.521038,-36.90935,0,0,0,151.3669,-61.35925,-57.22792,-125.8087,-110.0461,-86.69605,0.001067912,-0.1257102,0.09433498,0,0.3,0,0,0,0
638224233199655827,53.64603,14.51786,25.65865,46.22392,24.51253,-52.65706,-57.01511,-0.4675641,7.167611,-72.653,-8.521038,-36.83611,0,0,0,150.4704,-63.42191,-57.60017,-125.8087,-110.0461,-86.69605,0.001067912,-0.1257102,0.09433498,0,0.3,0,0,0,0
638224233200005717,53.31619,13.27882,24.25781,45.85769,25.39147,-51.19216,-57.01511,-0.4675641,7.167611,-72.653,-8.521038,-36.90935,0,0,0,148.0154,-67.59685,-58.08775,-125.8087,-110.0461,-86.69605,0.001067912,-0.1257102,0.09433498,0,0.3,0,0,0,0
638224233200345605,52.86855,11.89951,22.69354,45.27173,26.49015,-49.50752,-57.01511,-0.4675641,7.167611,-72.653,-8.594284,-36.90935,0,0,0,145.0451,-72.18005,-58.52807,-125.8087,-110.0461,-86.69605,0.001067912,-0.1257102,0.09433498,0,0.3,0,0,0,0
638224233200685497,52.256,10.47344,21.10593,44.68576,27.58883,-47.82288,-57.01511,-0.4675641,7.167611,-72.653,-8.594284,-36.83611,0,0,0,141.6609,-76.81407,-58.68809,-125.8087,-110.0461,-86.69605,0.001067912,-0.1257102,0.09433498,0,0.3,0,0,0,0
638224233201025393,51.92616,9.865602,20.31212,44.39278,28.17479,-46.87069,-57.01511,-0.4675641,7.167611,-72.653,-8.594284,-36.83611,0,0,0,139.8635,-78.85983,-58.78606,-125.8087,-110.0461,-86.69605,0.001067912,-0.1257102,0.09433498,0,0.3,0,0,0,0
638224233201375282,51.12512,8.72007,18.58442,43.88007,29.4932,-44.45361,-57.01511,-0.4675641,7.167611,-72.653,-8.594284,-36.83611,0,0,0,135.7015,-82.82967,-58.95084,-125.8087,-110.0461,-86.69605,0.001067912,-0.1257102,0.09433498,0,0.3,0,0,0,0
638224233201705171,50.27696,7.597916,16.95012,43.4406,30.66513,-41.67029,-57.01511,-0.4675641,7.167611,-72.653,-8.594284,-36.83611,0,0,0,131.5664,-86.57555,-59.03204,-125.8087,-110.0461,-86.69605,0.001067912,-0.1257102,0.09433498,0,0.3,0,0,0,0
638224233202045065,49.82932,6.990083,16.31974,43.22086,31.1046,-40.20539,-57.01511,-0.4675641,7.167611,-72.653,-8.594284,-36.83611,0,0,0,129.7714,-88.39877,-58.79841,-125.8087,-110.0461,-86.69605,0.001067912,-0.1257102,0.09433498,0,0.3,0,0,0,0
638224233202384955,48.88692,5.914686,15.15238,42.78139,31.76381,-37.20233,-57.01511,-0.4675641,7.167611,-72.653,-8.594284,-36.83611,0,0,0,126.1938,-91.62258,-58.21342,-125.8087,-110.0461,-86.69605,0.001067912,-0.1257102,0.09433498,0,0.3,0,0,0,0
638224233202734845,47.8974,5.002935,13.89162,42.26867,32.49626,-34.41902,-57.01511,-0.4675641,7.167611,-72.72624,-8.594284,-36.90935,0,0,0,122.3152,-94.4707,-57.81963,-125.8087,-110.0461,-86.69605,0.001067912,-0.1257102,0.09433498,0,0.3,0,0,0,0
638224233203084733,46.6016,4.231455,12.53748,41.68271,33.22871,-31.92868,-57.01511,-0.4675641,7.167611,-72.653,-8.594284,-36.83611,0,0,0,117.6602,-96.98084,-57.09054,-125.8087,-110.0461,-86.69605,0.001067912,-0.1257102,0.09433498,0,0.3,0,0,0,0
638224233203409688,45.84768,3.90416,11.83706,41.31649,33.52169,-30.75676,-57.01511,-0.4675641,7.167611,-72.653,-8.594284,-36.90935,0,0,0,115.0816,-98.0848,-56.62428,-125.8087,-110.0461,-86.69605,0.001067912,-0.1257102,0.09433498,0,0.3,0,0,0,0
638224233203749581,44.15137,3.38984,10.36619,40.43755,34.1809,-28.33967,-57.01511,-0.4675641,7.167611,-72.653,-8.521038,-36.83611,0,0,0,109.437,-99.93854,-55.62217,-125.8087,-110.0461,-86.69605,0.001067912,-0.1257102,0.09433498,0,0.3,0,0,0,0
638224233204089469,42.03097,3.179435,8.521752,39.41211,34.91335,-25.92258,-57.01511,-0.4675641,7.167611,-72.653,-8.594284,-36.83611,0,0,0,102.3749,-101.1318,-54.77462,-125.8087,-110.0461,-86.69605,0.001067912,-0.1257102,0.09433498,0,0.3,0,0,0,0
638224233204439355,40.71161,3.156058,7.541167,38.60641,35.20633,-24.60417,-57.01511,-0.4675641,7.167611,-72.653,-8.594284,-36.83611,0,0,0,98.26073,-101.505,-54.15819,-125.8087,-110.0461,-86.69605,0.001067912,-0.1257102,0.09433498,0,0.3,0,0,0,0
638224233204779248,37.93154,3.156058,6.046942,36.77529,35.79229,-22.18707,-57.01511,-0.4675641,7.167611,-72.653,-8.594284,-36.83611,0,0,0,90.48379,-101.9163,-52.25035,-125.8087,-110.0461,-86.69605,0.001067912,-0.1257102,0.09433498,0,0.3,0,0,0,0
638224233205119138,34.82162,3.179435,4.692801,34.43144,36.305,-19.69674,-57.01511,-0.4675641,7.167611,-72.653,-8.594284,-36.83611,0,0,0,82.25851,-102.157,-50.09076,-125.8087,-110.0461,-86.69605,0.001067912,-0.1257102,0.09433498,0,0.3,0,0,0,0
638224233205459033,33.03107,3.202814,3.992383,32.96654,36.52474,-18.59806,-57.01511,-0.4675641,7.167611,-72.653,-8.521038,-36.83611,0,0,0,77.63554,-102.2261,-48.94354,-125.8087,-110.0461,-86.69605,0.001067912,-0.1257102,0.09433498,0,0.3,0,0,0,0
638224233205808918,29.80335,3.459974,2.848366,29.59726,36.81772,-16.76693,-57.01511,-0.4675641,7.167611,-72.653,-8.594284,-36.90935,0,0,0,69.45099,-101.7874,-47.09818,-125.8087,-110.0461,-86.69605,0.001067912,-0.1257102,0.09433498,0,0.3,0,0,0,0
638224233206148815,26.64632,3.974295,1.891129,25.71527,37.03746,-15.30203,-57.01511,-0.4675641,7.167611,-72.653,-8.594284,-36.83611,0,0,0,61.63482,-100.685,-45.51623,-125.8087,-110.0461,-86.69605,0.001067912,-0.1257102,0.09433498,0,0.3,0,0,0,0
638224233206498700,23.44216,4.745775,1.073974,21.83327,36.67123,-14.64282,-57.01511,-0.4675641,7.167611,-72.653,-8.594284,-36.90935,0,0,0,53.86216,-98.9439,-44.13274,-125.8087,-110.0461,-86.69605,0.001067912,-0.1257102,0.09433498,0,0.3,0,0,0,0
638224233206838595,21.79296,5.376987,0.7471125,19.56267,36.23176,-14.42309,-57.01511,-0.4675641,7.167611,-72.653,-8.594284,-36.83611,0,0,0,49.93438,-97.49265,-43.46067,-125.8087,-110.0461,-86.69605,0.001067912,-0.1257102,0.09433498,0,0.3,0,0,0,0
638224233207178482,18.77729,7.106974,0.3268617,14.87498,35.05984,-14.34984,-57.01511,-0.4675641,7.167611,-72.653,-8.594284,-36.83611,0,0,0,42.83917,-93.49947,-42.34706,-125.8087,-110.0461,-86.69605,0.001067912,-0.1257102,0.09433498,0,0.3,0,0,0,0
638224233207518375,16.18569,9.37466,0.2801672,10.11404,33.44844,-15.08229,-57.01511,-0.4675641,7.167611,-72.653,-8.521038,-36.83611,0,0,0,36.8568,-88.27708,-41.36973,-125.8087,-110.0461,-86.69605,0.001067912,-0.1257102,0.09433498,0,0.3,0,0,0,0
638224233207858270,15.07837,10.91762,0.350209,7.696954,32.34977,-15.81474,-57.01511,-0.4675641,7.167611,-72.653,-8.594284,-36.90935,0,0,0,34.27385,-84.74136,-41.13459,-125.8087,-110.0461,-86.69605,0.001067912,-0.1257102,0.09433498,0,0.3,0,0,0,0
638224233208208153,13.4763,14.44773,0.8171543,2.862773,29.41996,-18.23184,-57.01511,-0.4675641,7.167611,-72.653,-8.594284,-36.83611,0,0,0,30.53672,-76.71606,-40.92318,-125.8087,-110.0461,-86.69605,0.001067912,-0.1257102,0.09433498,0,0.3,0,0,0,0
638224233208548048,12.8873,18.16486,1.844434,-0.9459759,25.90419,-21.23489,-57.01511,-0.4675641,7.167611,-72.653,-8.594284,-36.90935,0,0,0,29.21663,-68.35874,-40.65343,-125.8087,-110.0461,-86.69605,0.001067912,-0.1257102,0.09433498,0,0.3,0,0,0,0
638224233208887941,13.19358,21.95213,3.291965,-3.509557,22.16869,-23.87171,-57.01511,-0.4675641,7.167611,-72.653,-8.594284,-36.83611,0,0,0,29.97708,-59.92948,-40.47762,-125.8087,-110.0461,-86.69605,0.001067912,-0.1257102,0.09433498,0,0.3,0,0,0,0
638224233209227829,13.52342,23.82239,4.085772,-4.242009,20.33756,-24.8239,-57.01511,-0.4675641,7.167611,-72.653,-8.594284,-36.90935,0,0,0,30.74798,-55.80066,-40.50565,-125.8087,-110.0461,-86.69605,0.001067912,-0.1257102,0.09433498,0,0.3,0,0,0,0
638224233209567722,14.44226,27.32912,5.790122,-4.681479,16.74854,-26.21556,-57.01511,-0.4675641,7.167611,-72.653,-8.594284,-36.83611,0,0,0,32.90115,-48.09853,-40.59972,-125.8087,-110.0461,-86.69605,0.001067912,-0.1257102,0.09433498,0,0.3,0,0,0,0
638224233209897615,15.57313,30.48518,7.634556,-4.242009,13.30602,-26.80152,-57.01511,-0.4675641,7.167611,-72.653,-8.594284,-36.90935,0,0,0,35.60743,-41.16742,-40.58725,-125.8087,-110.0461,-86.69605,0.001067912,-0.1257102,0.09433498,0,0.3,0,0,0,0
638224233210237506,16.11501,32.19178,8.661836,-3.729292,11.62138,-26.94801,-57.01511,-0.4675641,7.167611,-72.653,-8.594284,-36.83611,0,0,0,36.8977,-37.43619,-40.64053,-125.8087,-110.0461,-86.69605,0.001067912,-0.1257102,0.09433498,0,0.3,0,0,0,0
638224233210577402,17.15165,35.67514,11.08995,-2.484124,8.398596,-27.53397,-57.01511,-0.4675641,7.167611,-72.653,-8.594284,-36.83611,0,0,0,39.50946,-29.74165,-40.33324,-125.8087,-110.0461,-86.69605,0.001067912,-0.1257102,0.09433498,0,0.3,0,0,0,0
638224233210917291,18.23541,39.11173,13.6815,-1.019221,5.249053,-28.85239,-57.01511,-0.4675641,7.167611,-72.653,-8.594284,-36.83611,0,0,0,42.24731,-22.09446,-40.12122,-125.8087,-110.0461,-86.69605,0.001067912,-0.1257102,0.09433498,0,0.3,0,0,0,0
638224233211257182,18.75373,40.56118,14.94225,-0.2135241,3.78415,-29.80457,-57.01511,-0.4675641,7.167611,-72.653,-8.594284,-36.83611,0,0,0,43.62489,-18.7788,-39.86268,-125.8087,-110.0461,-86.69605,0.001067912,-0.1257102,0.09433498,0,0.3,0,0,0,0
638224233211587074,19.86105,43.48346,17.79062,1.54436,1.074079,-32.00193,-57.01511,-0.4675641,7.167611,-72.653,-8.594284,-36.83611,0,0,0,46.71389,-11.85898,-39.02968,-125.8087,-110.0461,-86.69605,0.001067912,-0.1257102,0.09433498,0,0.3,0,0,0,0
638224233211926966,20.89769,46.52262,20.68568,3.448734,-1.928973,-33.10061,-57.01511,-0.4675641,7.167611,-72.653,-8.521038,-36.90935,0,0,0,49.53089,-4.63833,-38.62571,-125.8087,-110.0461,-86.69605,0.001067912,-0.1257102,0.09433498,0,0.3,0,0,0,0
638224233212266859,21.39244,48.06559,22.20325,4.327676,-3.686857,-33.39359,-57.01511,-0.4675641,7.167611,-72.653,-8.594284,-36.83611,0,0,0,50.88579,-0.9115485,-38.45435,-125.8087,-110.0461,-86.69605,0.001067912,-0.1257102,0.09433498,0,0.3,0,0,0,0
638224233212616748,22.57044,51.29178,25.30844,6.158805,-7.642097,-33.17385,-57.01511,-0.4675641,7.167611,-72.653,-8.594284,-36.83611,0,0,0,53.88702,6.857413,-38.70627,-125.8087,-110.0461,-86.69605,0.001067912,-0.1257102,0.09433498,0,0.3,0,0,0,0
638224233212956640,24.1254,54.21405,28.29689,7.696954,-11.67058,-32.51464,-57.01511,-0.4675641,7.167611,-72.653,-8.594284,-36.83611,0,0,0,57.70966,14.1094,-39.49173,-125.8087,-110.0461,-86.69605,0.001067912,-0.1257102,0.09433498,0,0.3,0,0,0,0
638224233213296530,26.10444,56.69214,31.19195,9.161857,-15.69907,-32.14842,-57.01511,-0.4675641,7.167611,-72.653,-8.594284,-36.83611,0,0,0,62.60899,20.72234,-40.57419,-125.8087,-110.0461,-86.69605,0.001067912,-0.1257102,0.09433498,0,0.3,0,0,0,0
638224233213636423,27.35312,57.83767,32.68617,10.0408,-17.60344,-32.07517,-57.01511,-0.4675641,7.167611,-72.653,-8.594284,-36.90935,0,0,0,65.70411,24.00371,-41.33966,-125.8087,-110.0461,-86.69605,0.001067912,-0.1257102,0.09433498,0,0.3,0,0,0,0
638224233213976315,29.92115,59.59104,35.4178,12.60438,-20.67974,-32.29491,-57.01511,-0.4675641,7.167611,-72.653,-8.594284,-36.83611,0,0,0,72.21664,29.68236,-42.86864,-125.8087,-110.0461,-86.69605,0.001067912,-0.1257102,0.09433498,0,0.3,0,0,0,0
638224233214316208,32.48919,60.68982,37.79922,16.12015,-23.31656,-34.56551,-57.01511,-0.4675641,7.167611,-72.653,-8.594284,-36.83611,0,0,0,78.96477,34.26056,-44.3485,-125.8087,-110.0461,-86.69605,0.001067912,-0.1257102,0.09433498,0,0.3,0,0,0,0
638224233214656101,33.85566,61.01711,38.8732,18.17101,-24.48849,-36.46988,-57.01511,-0.4675641,7.167611,-72.653,-8.521038,-36.83611,0,0,0,82.62103,36.18195,-45.19118,-125.8087,-110.0461,-86.69605,0.001067912,-0.1257102,0.09433498,0,0.3,0,0,0,0
638224233215005988,36.3059,61.41454,40.74098,22.49248,-26.02663,-40.86459,-57.01511,-0.4675641,7.167611,-72.653,-8.521038,-36.83611,0,0,0,89.30791,39.41023,-46.79825,-125.8087,-110.0461,-86.69605,0.001067912,-0.1257102,0.09433498,0,0.3,0,0,0,0
638224233215335881,38.68546,61.46129,42.30524,27.03368,-26.97882,-45.33255,-57.01511,-0.4675641,7.167611,-72.653,-8.594284,-36.83611,0,0,0,95.92153,41.87566,-48.55805,-125.8087,-110.0461,-86.69605,0.001067912,-0.1257102,0.09433498,0,0.3,0,0,0,0
638224233215675775,40.85297,61.20414,43.61269,31.13541,-27.41829,-50.09349,-57.01511,-0.4675641,7.167611,-72.653,-8.594284,-36.90935,0,0,0,102.1838,43.66219,-50.19001,-125.8087,-110.0461,-86.69605,0.001067912,-0.1257102,0.09433498,0,0.3,0,0,0,0
638224233216015664,42.05453,60.87684,44.26641,33.18628,-27.49154,-52.51057,-57.01511,-0.4675641,7.167611,-72.653,-8.594284,-36.83611,0,0,0,105.8194,44.3491,-51.0504,-125.8087,-110.0461,-86.69605,0.001067912,-0.1257102,0.09433498,0,0.3,0,0,0,0
638224233216355554,44.29272,59.80144,45.22365,36.84853,-27.2718,-57.05178,-57.01511,-0.4675641,7.167611,-72.653,-8.594284,-36.83611,0,0,0,112.9434,44.67883,-52.58321,-125.8087,-110.0461,-86.69605,0.001067912,-0.1257102,0.09433498,0,0.3,0,0,0,0
638224233216695447,46.366,58.28186,45.85403,40.21781,-26.24637,-61.08026,-57.01511,-0.4675641,7.167611,-72.653,-8.594284,-36.83611,0,0,0,119.9964,43.9067,-53.94316,-125.8087,-110.0461,-86.69605,0.001067912,-0.1257102,0.09433498,0,0.3,0,0,0,0
638224233217045337,47.3084,57.487,46.1342,41.53622,-25.51392,-62.98463,-57.01511,-0.4675641,7.167611,-72.653,-8.594284,-36.83611,0,0,0,123.3464,43.39222,-54.56267,-125.8087,-110.0461,-86.69605,0.001067912,-0.1257102,0.09433498,0,0.3,0,0,0,0
638224233217395223,49.05184,55.68688,46.55445,43.80682,-24.04902,-66.20742,-57.01511,-0.4675641,7.167611,-72.653,-8.594284,-36.83611,0,0,0,129.9025,41.79288,-55.63367,-125.8087,-110.0461,-86.69605,0.001067912,-0.1257102,0.09433498,0,0.3,0,0,0,0
638224233217735115,50.65392,53.55946,46.85796,45.63795,-22.51087,-68.55127,-57.01511,-0.4675641,7.167611,-72.653,-8.594284,-36.83611,0,0,0,136.4995,39.44061,-56.44301,-125.8087,-110.0461,-86.69605,0.001067912,-0.1257102,0.09433498,0,0.3,0,0,0,0
638224233218065011,51.36071,52.36718,46.9747,46.3704,-21.70517,-69.50346,-57.01511,-0.4675641,7.167611,-72.653,-8.594284,-36.83611,0,0,0,139.7447,37.96766,-56.63634,-125.8087,-110.0461,-86.69605,0.001067912,-0.1257102,0.09433498,0,0.3,0,0,0,0
638224233218404905,52.60939,49.51503,47.04474,47.54232,-19.36132,-71.11485,-57.01511,-0.4675641,7.167611,-72.653,-8.594284,-36.90935,0,0,0,146.3291,33.90456,-56.51097,-125.8087,-110.0461,-86.69605,0.001067912,-0.1257102,0.09433498,0,0.3,0,0,0,0
638224233218754789,53.57535,46.40574,47.04474,48.12829,-17.16397,-71.8473,-57.01511,-0.4675641,7.167611,-72.653,-8.594284,-36.90935,0,0,0,152.5177,29.05922,-55.80295,-125.8087,-110.0461,-86.69605,0.001067912,-0.1257102,0.09433498,0,0.3,0,0,0,0
638224233219094680,54.18791,43.15617,47.04474,48.27478,-14.60039,-72.14028,-57.01511,-0.4675641,7.167611,-72.653,-8.594284,-36.83611,0,0,0,158.0318,23.69166,-54.32315,-125.8087,-110.0461,-86.69605,0.001067912,-0.1257102,0.09433498,0,0.3,0,0,0,0
638224233219434576,54.37639,41.63658,47.06809,48.12829,-13.57495,-72.14028,-57.01511,-0.4675641,7.167611,-72.653,-8.594284,-36.90935,0,0,0,160.3745,21.11968,-53.43317,-125.8087,-110.0461,-86.69605,0.001067912,-0.1257102,0.09433498,0,0.3,0,0,0,0
638224233219764471,54.65911,38.97147,47.09144,47.76206,-10.71839,-71.99379,-57.01511,-0.4675641,7.167611,-72.653,-8.594284,-36.83611,0,0,0,164.2423,16.42952,-51.88388,-125.8087,-110.0461,-86.69605,0.001067912,-0.1257102,0.09433498,0,0.3,0,0,0,0
638224233220104358,54.91827,36.6804,47.09144,47.24934,-8.228058,-71.11485,-57.01511,-0.4675641,7.167611,-72.653,-8.594284,-36.83611,0,0,0,167.4433,12.21801,-50.74865,-125.8087,-110.0461,-86.69605,0.001067912,-0.1257102,0.09433498,0,0.3,0,0,0,0
638224233220439307,55.08319,35.55825,47.09144,47.02961,-7.12938,-70.67538,-57.01511,-0.4675641,7.167611,-72.653,-8.594284,-36.83611,0,0,0,169.0434,10.10833,-50.34992,-125.8087,-110.0461,-86.69605,0.001067912,-0.1257102,0.09433498,0,0.3,0,0,0,0
638224233220789192,55.24811,33.33732,47.09144,46.59014,-4.85878,-70.16266,-57.01511,-0.4675641,7.167611,-72.653,-8.594284,-36.83611,0,0,0,171.7845,5.84604,-49.17041,-125.8087,-110.0461,-86.69605,0.001067912,-0.1257102,0.09433498,0,0.3,0,0,0,0
638224233221129086,55.24811,30.83585,47.09144,45.85769,-3.100896,-69.5767,-57.01511,-0.4675641,7.167611,-72.653,-8.594284,-36.90935,0,0,0,174.3253,0.9138418,-47.4077,-125.8087,-110.0461,-86.69605,0.001067912,-0.1257102,0.09433498,0,0.3,0,0,0,0
638224233221469008,55.24811,29.52667,47.09144,45.41821,-2.148709,-69.35696,-57.01511,-0.4675641,7.167611,-72.653,-8.594284,-36.83611,0,0,0,175.5839,-1.72003,-46.53454,-125.8087,-110.0461,-86.69605,0.001067912,-0.1257102,0.09433498,0,0.3,0,0,0,0
638224233221808869,55.24811,27.07196,47.06809,44.31954,-0.09784385,-69.28372,-57.01511,-0.4675641,7.167611,-72.653,-8.594284,-36.90935,0,0,0,177.7786,-6.789713,-45.01187,-125.8087,-110.0461,-86.69605,0.001067912,-0.1257102,0.09433498,0,0.3,0,0,0,0
638224233222148760,55.27167,24.36009,47.06809,42.78139,1.879776,-69.28372,-57.01511,-0.4675641,7.167611,-72.653,-8.521038,-36.83611,0,0,0,180.08,-12.47565,-43.52494,-125.8087,-110.0461,-86.69605,0.001067912,-0.1257102,0.09433498,0,0.3,0,0,0,0
638224233222488653,55.27167,21.83524,47.04474,41.09675,4.003886,-69.35696,-57.01511,-0.4675641,7.167611,-72.653,-8.521038,-36.83611,0,0,0,181.944,-17.92025,-42.23286,-125.8087,-110.0461,-86.69605,0.001067912,-0.1257102,0.09433498,0,0.3,0,0,0,0
638224233222828544,55.27167,20.38579,46.99805,40.14456,5.102563,-69.64995,-57.01511,-0.4675641,7.167611,-72.653,-8.594284,-36.90935,0,0,0,182.8816,-21.14672,-41.58291,-125.8087,-110.0461,-86.69605,0.001067912,-0.1257102,0.09433498,0,0.3,0,0,0,0
638224233223168435,55.27167,17.65055,46.83461,38.24019,7.080183,-71.1881,-57.01511,-0.4675641,7.167611,-72.653,-8.594284,-36.90935,0,0,0,184.3729,-27.44247,-40.54924,-125.8087,-110.0461,-86.69605,0.001067912,-0.1257102,0.09433498,0,0.3,0,0,0,0
638224233223508327,55.27167,14.82178,46.15754,36.11608,9.350782,-72.72624,-57.01511,-0.4675641,7.167611,-72.653,-8.521038,-36.83611,0,0,0,184.994,-34.90588,-40.11867,-125.8087,-110.0461,-86.69605,0.001067912,-0.1257102,0.09433498,0,0.3,0,0,0,0
638224233223848222,55.27167,13.65287,45.64391,35.09065,10.44946,-73.60519,-57.01511,-0.4675641,7.167611,-72.653,-8.594284,-36.90935,0,0,0,184.8602,-38.40128,-40.21144,-125.8087,-110.0461,-86.69605,0.001067912,-0.1257102,0.09433498,0,0.3,0,0,0,0
638224233224188110,55.27167,11.24492,44.42985,32.7468,12.42708,-75.21658,-57.01511,-0.4675641,7.167611,-72.653,-8.594284,-36.83611,0,0,0,184.212,-45.87263,-40.66072,-125.8087,-110.0461,-86.69605,0.001067912,-0.1257102,0.09433498,0,0.3,0,0,0,0
638224233224538002,55.24811,9.117499,42.81889,30.32971,14.03847,-76.3885,-57.01511,-0.4675641,7.167611,-72.653,-8.594284,-36.83611,0,0,0,182.6487,-53.33242,-41.63316,-125.8087,-110.0461,-86.69605,0.001067912,-0.1257102,0.09433498,0,0.3,0,0,0,0
638224233224877895,55.24811,6.89657,41.34801,27.98586,15.57662,-77.56042,-57.01511,-0.4675641,7.167611,-72.653,-8.594284,-36.83611,0,0,0,181.1528,-60.74497,-42.67097,-125.8087,-110.0461,-86.69605,0.001067912,-0.1257102,0.09433498,0,0.3,0,0,0,0
638224233225217781,55.24811,5.610769,40.92776,26.81394,16.38232,-78.07314,-57.01511,-0.4675641,7.167611,-72.653,-8.594284,-36.83611,0,0,0,180.8154,-64.36313,-42.90505,-125.8087,-110.0461,-86.69605,0.001067912,-0.1257102,0.09433498,0,0.3,0,0,0,0
638224233225557674,55.22455,2.828763,40.81102,24.83632,17.55424,-78.95209,-57.01511,-0.4675641,7.167611,-72.653,-8.594284,-36.90935,0,0,0,180.9863,-70.99755,-42.67618,-125.8087,-110.0461,-86.69605,0.001067912,-0.1257102,0.09433498,0,0.3,0,0,0,0
638224233225907562,55.22455,0.04675641,40.81102,23.22493,18.57967,-80.27049,-57.01511,-0.4675641,7.167611,-72.653,-8.594284,-36.83611,0,0,0,181.1198,-77.46971,-42.58353,-125.8087,-110.0461,-86.69605,0.001067912,-0.1257102,0.09433498,0,0.3,0,0,0,0
638224233226237459,55.17743,-1.052019,40.76432,22.56572,19.01915,-81.14944,-57.01511,-0.4675641,7.167611,-72.653,-8.594284,-36.83611,0,0,0,180.9303,-80.09785,-42.49442,-125.8087,-110.0461,-86.69605,0.001067912,-0.1257102,0.09433498,0,0.3,0,0,0,0
638224233226577351,55.17743,-1.005263,38.98993,21.32055,19.67835,-82.61434,-57.01511,-0.4675641,7.167611,-72.653,-8.594284,-36.83611,0,0,0,178.3303,-82.63668,-44.30298,-125.8087,-110.0461,-86.69605,0.001067912,-0.1257102,0.09433498,0,0.3,0,0,0,0
638224233226917242,55.17743,-1.028641,38.33621,20.36837,19.97133,-83.12706,-57.01511,-0.4675641,7.167611,-72.653,-8.594284,-36.83611,0,0,0,177.3543,-83.6416,-44.98193,-125.8087,-110.0461,-86.69605,0.001067912,-0.1257102,0.09433498,0,0.3,0,0,0,0
638224233227257134,55.17743,-1.028641,38.10274,20.07539,20.19107,-83.20029,-57.01511,-0.4675641,7.167611,-72.653,-8.521038,-36.83611,0,0,0,177.0038,-83.97778,-45.22571,-125.8087,-110.0461,-86.69605,0.001067912,-0.1257102,0.09433498,0,0.3,0,0,0,0
638224233227597025,55.10675,-1.005263,37.79922,19.85565,20.55729,-83.20029,-57.01511,-0.4675641,7.144264,-72.653,-8.594284,-36.83611,0,0,0,176.3957,-84.3578,-45.32554,-125.7634,-110.0529,-86.7254,0.001067912,-0.1257102,0.09433498,0,0.3,0,0,0,0
638224233227946911,55.03607,-1.005263,37.77588,19.9289,21.07001,-83.20029,-57.01511,-0.4675641,7.144264,-72.72624,-8.594284,-36.83611,0,0,0,176.2086,-84.3911,-45.13264,-125.7634,-110.0529,-86.7254,0.001067912,-0.1257102,0.09433498,0,0.3,0,0,0,0
638224233228286802,55.03607,-0.8182371,37.93931,20.29512,21.58273,-83.20029,-57.01511,-0.4675641,7.144264,-72.653,-8.594284,-36.90935,0,0,0,176.4604,-83.72244,-44.95657,-125.7634,-110.0529,-86.7254,0.001067912,-0.1257102,0.09433498,0,0.3,0,0,0,0
638224233228616697,55.03607,-0.5844551,38.00935,20.5881,21.87571,-83.05381,-57.01511,-0.4675641,7.144264,-72.653,-8.521038,-36.83611,0,0,0,176.5712,-83.07807,-44.87912,-125.7634,-110.0529,-86.7254,0.001067912,-0.1257102,0.09433498,0,0.3,0,0,0,0
638224233228956592,55.03607,0.5376987,38.0327,21.32055,22.24193,-82.17487,-57.01511,-0.4675641,7.144264,-72.653,-8.594284,-36.83611,0,0,0,176.6071,-80.43295,-44.85398,-125.7634,-110.0529,-86.7254,0.001067912,-0.1257102,0.09433498,0,0.3,0,0,0,0
638224233229296482,55.10675,2.875519,37.72918,22.56572,22.60816,-80.70996,-57.01511,-0.4675641,7.144264,-72.653,-8.594284,-36.90935,0,0,0,176.1691,-75.42845,-45.48357,-125.7634,-110.0529,-86.7254,0.001067912,-0.1257102,0.09433498,0,0.3,0,0,0,0
638224233229646369,55.13031,4.371724,37.30893,23.29818,22.6814,-79.75778,-57.01511,-0.4675641,7.144264,-72.653,-8.594284,-36.83611,0,0,0,175.4026,-72.54893,-46.12536,-125.7634,-110.0529,-86.7254,0.001067912,-0.1257102,0.09433498,0,0.3,0,0,0,0
638224233229986263,55.17743,8.229127,36.09487,24.98281,22.09544,-76.60824,-57.01511,-0.4675641,7.144264,-72.653,-8.594284,-36.83611,0,0,0,172.8347,-65.31582,-48.12577,-125.7634,-110.0529,-86.7254,0.001067912,-0.1257102,0.09433498,0,0.3,0,0,0,0
638224233230326151,55.20099,12.34369,35.39445,26.88719,20.70378,-73.45869,-57.01511,-0.4675641,7.144264,-72.653,-8.521038,-36.83611,0,0,0,170.3938,-56.84782,-49.92762,-125.7634,-110.0529,-86.7254,0.001067912,-0.1257102,0.09433498,0,0.3,0,0,0,0
638224233230666045,55.20099,14.35422,35.18433,27.83937,19.82484,-72.06703,-57.01511,-0.4675641,7.144264,-72.653,-8.594284,-36.83611,0,0,0,169.1789,-52.57771,-50.77196,-125.7634,-110.0529,-86.7254,0.001067912,-0.1257102,0.09433498,0,0.3,0,0,0,0
638224233231005937,55.20099,18.67918,34.67069,29.89024,17.481,-68.99074,-57.01511,-0.4675641,7.144264,-72.653,-8.521038,-36.83611,0,0,0,166.0247,-43.61388,-52.96408,-125.7634,-110.0529,-86.7254,0.001067912,-0.1257102,0.09433498,0,0.3,0,0,0,0
638224233231345828,55.17743,22.39632,34.43722,31.64813,15.28364,-66.42715,-57.01511,-0.4675641,7.144264,-72.653,-8.594284,-36.90935,0,0,0,163.1187,-35.82211,-54.88421,-125.7634,-110.0529,-86.7254,0.001067912,-0.1257102,0.09433498,0,0.3,0,0,0,0
638224233231695714,54.98895,25.78616,34.43722,32.96654,13.08629,-64.59603,-57.01511,-0.4675641,7.144264,-72.653,-8.594284,-36.90935,0,0,0,160.1073,-28.62086,-56.19563,-125.7634,-110.0529,-86.7254,0.001067912,-0.1257102,0.09433498,0,0.3,0,0,0,0
638224233232045607,54.89471,27.5629,34.39052,33.5525,11.91436,-63.86357,-57.01511,-0.4675641,7.144264,-72.653,-8.594284,-36.83611,0,0,0,158.3306,-24.98735,-57.05152,-125.7634,-110.0529,-86.7254,0.001067912,-0.1257102,0.09433498,0,0.3,0,0,0,0
638224233232385494,54.68267,30.83585,34.27379,34.28495,9.643764,-62.91139,-57.01511,-0.4675641,7.144264,-72.653,-8.594284,-36.90935,0,0,0,154.7027,-18.49201,-58.74408,-125.7634,-110.0529,-86.7254,0.001067912,-0.1257102,0.09433498,0,0.3,0,0,0,0
638224233232735388,54.35283,33.96853,34.22709,34.65118,7.226673,-62.25218,-57.01511,-0.4675641,7.144264,-72.653,-8.594284,-36.83611,0,0,0,150.8217,-12.3981,-60.18432,-125.7634,-110.0529,-86.7254,0.001067912,-0.1257102,0.09433498,0,0.3,0,0,0,0
638224233233075274,53.78739,37.07783,34.01696,34.79766,4.956073,-61.66622,-57.01511,-0.4675641,7.144264,-72.653,-8.594284,-36.83611,0,0,0,146.0282,-6.783449,-61.42412,-125.7634,-110.0529,-86.7254,0.001067912,-0.1257102,0.09433498,0,0.3,0,0,0,0
638224233233415168,53.38687,38.66755,33.76015,34.72442,3.63766,-61.29999,-57.01511,-0.4675641,7.144264,-72.653,-8.594284,-36.83611,0,0,0,143.0558,-4.196202,-62.05651,-125.7634,-110.0529,-86.7254,0.001067912,-0.1257102,0.09433498,0,0.3,0,0,0,0
638224233233755061,52.11464,41.6132,32.94299,34.13846,1.293814,-59.83509,-57.01511,-0.4675641,7.144264,-72.653,-8.594284,-36.90935,0,0,0,135.919,-0.001393545,-62.59572,-125.7634,-110.0529,-86.7254,0.001067912,-0.1257102,0.09433498,0,0.3,0,0,0,0
638224233234094955,50.18272,44.53548,32.21923,32.38057,-1.416257,-57.71098,-57.01511,-0.4675641,7.144264,-72.653,-8.594284,-36.83611,0,0,0,127.619,4.059117,-61.95665,-125.7634,-110.0529,-86.7254,0.001067912,-0.1257102,0.09433498,0,0.3,0,0,0,0
638224233234424847,49.12252,45.84466,31.86902,31.20865,-2.807915,-56.53906,-57.01511,-0.4675641,7.144264,-72.653,-8.594284,-36.90935,0,0,0,123.4717,5.773996,-61.48036,-125.7634,-110.0529,-86.7254,0.001067912,-0.1257102,0.09433498,0,0.3,0,0,0,0
638224233234764736,46.88432,47.48113,30.79504,28.42534,-4.932025,-54.41495,-57.01511,-0.4675641,7.144264,-72.653,-8.594284,-36.83611,0,0,0,115.6232,7.088049,-60.09235,-125.7634,-110.0529,-86.7254,0.001067912,-0.1257102,0.09433498,0,0.3,0,0,0,0
638224233235109744,44.50476,48.04221,28.76383,25.27579,-6.103948,-51.85137,-57.01511,-0.4675641,7.144264,-72.653,-8.594284,-36.90935,0,0,0,107.475,5.618041,-59.0008,-125.7634,-110.0529,-86.7254,0.001067912,-0.1257102,0.09433498,0,0.3,0,0,0,0
638224233235449581,43.42101,47.94869,27.43304,23.6644,-6.250438,-50.6062,-57.01511,-0.4675641,7.144264,-72.653,-8.521038,-36.83611,0,0,0,103.6208,4.013646,-58.85456,-125.7634,-110.0529,-86.7254,0.001067912,-0.1257102,0.09433498,0,0.3,0,0,0,0
638224233235789475,41.55977,47.10708,24.86484,20.36837,-6.030703,-48.55533,-57.01511,-0.4675641,7.144264,-72.653,-8.594284,-36.83611,0,0,0,97.40912,0.0570581,-58.48018,-125.7634,-110.0529,-86.7254,0.001067912,-0.1257102,0.09433498,0,0.3,0,0,0,0
638224233236139357,40.12262,45.49398,22.57681,17.14558,-4.932025,-46.87069,-57.01511,-0.4675641,7.144264,-72.653,-8.594284,-36.83611,0,0,0,93.23044,-4.678686,-57.72394,-125.7634,-110.0529,-86.7254,0.001067912,-0.1257102,0.09433498,0,0.3,0,0,0,0
638224233236479257,39.27446,43.4367,20.56894,14.582,-3.320631,-45.2593,-57.01511,-0.4675641,7.144264,-72.653,-8.594284,-36.83611,0,0,0,90.95486,-9.81379,-57.12374,-125.7634,-110.0529,-86.7254,0.001067912,-0.1257102,0.09433498,0,0.3,0,0,0,0
638224233236819147,39.06242,42.22104,19.6117,13.62981,-2.295199,-44.52685,-57.01511,-0.4675641,7.144264,-72.653,-8.521038,-36.83611,0,0,0,90.43617,-12.65402,-56.91905,-125.7634,-110.0529,-86.7254,0.001067912,-0.1257102,0.09433498,0,0.3,0,0,0,0
638224233237149041,38.96818,39.62605,17.81396,12.16491,-0.171089,-43.28168,-57.01511,-0.4675641,7.144264,-72.653,-8.594284,-36.90935,0,0,0,90.24847,-18.55931,-56.77576,-125.7634,-110.0529,-86.7254,0.001067912,-0.1257102,0.09433498,0,0.3,0,0,0,0
638224233237498927,39.08598,36.8908,16.203,11.21272,2.246002,-42.62248,-57.01511,-0.4675641,7.144264,-72.653,-8.594284,-36.90935,0,0,0,90.7023,-24.65429,-56.68501,-125.7634,-110.0529,-86.7254,0.001067912,-0.1257102,0.09433498,0,0.3,0,0,0,0
638224233237848816,39.27446,35.51149,15.52593,10.91974,3.63766,-42.47599,-57.01511,-0.4675641,7.144264,-72.653,-8.594284,-36.83611,0,0,0,91.30982,-27.67547,-56.68967,-125.7634,-110.0529,-86.7254,0.001067912,-0.1257102,0.09433498,0,0.3,0,0,0,0
638224233238188706,39.91058,32.84638,14.35857,10.55352,6.201241,-42.3295,-57.01511,-0.4675641,7.144264,-72.653,-8.521038,-36.83611,0,0,0,93.09517,-33.50702,-57.05118,-125.7634,-110.0529,-86.7254,0.001067912,-0.1257102,0.09433498,0,0.3,0,0,0,0
638224233238528599,40.85297,30.78909,13.93832,10.8465,8.764822,-42.25625,-57.01511,-0.4675641,7.144264,-72.653,-8.594284,-36.83611,0,0,0,95.94391,-37.81448,-57.40545,-125.7634,-110.0529,-86.7254,0.001067912,-0.1257102,0.09433498,0,0.3,0,0,0,0
638224233238868487,41.46553,29.99424,13.93832,11.21272,9.936745,-42.25625,-57.01511,-0.4675641,7.144264,-72.653,-8.594284,-36.90935,0,0,0,97.74426,-39.41021,-57.7362,-125.7634,-110.0529,-86.7254,0.001067912,-0.1257102,0.09433498,0,0.3,0,0,0,0
638224233239198387,42.94981,28.6383,13.98501,12.60438,11.69463,-42.25625,-57.01511,-0.4675641,7.144264,-72.653,-8.594284,-36.83611,0,0,0,101.7013,-42.13556,-59.09699,-125.7634,-110.0529,-86.7254,0.001067912,-0.1257102,0.09433498,0,0.3,0,0,0,0
638224233239548270,44.62257,27.37588,14.45196,14.65524,12.9398,-42.25625,-57.01511,-0.4675641,7.144264,-72.653,-8.594284,-36.83611,0,0,0,106.5563,-44.46265,-60.38051,-125.7634,-110.0529,-86.7254,0.001067912,-0.1257102,0.09433498,0,0.3,0,0,0,0
638224233239888164,46.27176,26.25372,15.08233,16.70611,13.74549,-42.47599,-57.01511,-0.4675641,7.144264,-72.653,-8.594284,-36.83611,0,0,0,111.496,-46.41951,-61.69691,-125.7634,-110.0529,-86.7254,0.001067912,-0.1257102,0.09433498,0,0.3,0,0,0,0
638224233240228054,47.11992,25.7394,15.52593,17.80479,14.03847,-42.91546,-57.01511,-0.4675641,7.144264,-72.653,-8.594284,-36.90935,0,0,0,114.1767,-47.22292,-62.32439,-125.7634,-110.0529,-86.7254,0.001067912,-0.1257102,0.09433498,0,0.3,0,0,0,0
638224233240567952,48.79268,25.06143,16.6466,19.70916,14.4047,-44.38036,-57.01511,-0.4675641,7.144264,-72.653,-8.521038,-36.83611,0,0,0,119.6177,-47.92559,-63.60565,-125.7634,-110.0529,-86.7254,0.001067912,-0.1257102,0.09433498,0,0.3,0,0,0,0
638224233240907839,50.58324,24.57049,18.04744,21.83327,14.03847,-45.91851,-57.01511,-0.4675641,7.144264,-72.653,-8.594284,-36.83611,0,0,0,125.6067,-47.99063,-65.11393,-125.7634,-110.0529,-86.7254,0.001067912,-0.1257102,0.09433498,0,0.3,0,0,0,0
638224233241247732,51.47852,24.36009,18.93463,23.22493,13.74549,-46.65096,-57.01511,-0.4675641,7.144264,-72.653,-8.594284,-36.83611,0,0,0,128.8952,-47.78148,-65.74321,-125.7634,-110.0529,-86.7254,0.001067912,-0.1257102,0.09433498,0,0.3,0,0,0,0
638224233241587622,53.00991,23.89252,20.96585,25.86176,13.15953,-48.3356,-57.01511,-0.4675641,7.144264,-72.653,-8.594284,-36.83611,0,0,0,135.4958,-47.16169,-66.28337,-125.7634,-110.0529,-86.7254,0.001067912,-0.1257102,0.09433498,0,0.3,0,0,0,0
638224233241927514,54.49419,23.12104,23.65078,28.71832,12.79331,-50.67944,-57.01511,-0.4675641,7.144264,-72.653,-8.594284,-36.90935,0,0,0,143.3829,-46.43641,-66.05404,-125.7634,-110.0529,-86.7254,0.001067912,-0.1257102,0.09433498,0,0.3,0,0,0,0
638224233242257408,55.05963,22.65348,25.09831,30.18322,12.57357,-51.85137,-57.01511,-0.4675641,7.144264,-72.653,-8.594284,-36.83611,0,0,0,147.2478,-46.0486,-65.47416,-125.7634,-110.0529,-86.7254,0.001067912,-0.1257102,0.09433498,0,0.3,0,0,0,0
638224233242607298,55.27167,21.69497,27.17622,32.52707,12.57357,-53.6825,-57.01511,-0.4675641,7.144264,-72.653,-8.594284,-36.90935,0,0,0,151.8875,-45.98411,-63.06694,-125.7634,-110.0529,-86.7254,0.001067912,-0.1257102,0.09433498,0,0.3,0,0,0,0
638224233242947194,55.24811,21.18065,28.55371,34.06521,13.01304,-54.56144,-57.01511,-0.4675641,7.144264,-72.653,-8.594284,-36.83611,0,0,0,154.5323,-45.59992,-61.13957,-125.7634,-110.0529,-86.7254,0.001067912,-0.1257102,0.09433498,0,0.3,0,0,0,0
638224233243287082,55.15387,21.18065,29.39421,35.60336,13.45251,-54.92767,-57.01511,-0.4675641,7.144264,-72.653,-8.594284,-36.83611,0,0,0,155.7602,-44.65233,-59.90773,-125.7634,-110.0529,-86.7254,0.001067912,-0.1257102,0.09433498,0,0.3,0,0,0,0
638224233243616974,54.89471,21.18065,29.51094,36.40906,13.52576,-54.92767,-57.01511,-0.4675641,7.144264,-72.653,-8.521038,-36.83611,0,0,0,155.4617,-44.51874,-59.06826,-125.7634,-110.0529,-86.7254,0.001067912,-0.1257102,0.09433498,0,0.3,0,0,0,0
638224233243956867,54.04655,21.06376,29.39421,37.50774,13.74549,-53.60925,-57.01511,-0.4675641,7.144264,-72.653,-8.594284,-36.90935,0,0,0,153.7148,-44.9061,-56.86033,-125.7634,-110.0529,-86.7254,0.001067912,-0.1257102,0.09433498,0,0.3,0,0,0,0
638224233244306752,52.89211,20.68971,29.06735,38.02045,13.96523,-51.11892,-57.01511,-0.4675641,7.144264,-72.653,-8.594284,-36.83611,0,0,0,151.1554,-46.091,-53.99936,-125.7634,-110.0529,-86.7254,0.001067912,-0.1257102,0.09433498,0,0.3,0,0,0,0
638224233244646648,52.256,20.50268,28.83387,38.0937,14.18496,-49.72726,-57.01511,-0.4675641,7.144264,-72.653,-8.594284,-36.90935,0,0,0,149.6216,-46.76149,-52.52559,-125.7634,-110.0529,-86.7254,0.001067912,-0.1257102,0.09433498,0,0.3,0,0,0,0
638224233244996550,50.93663,20.24553,28.04007,37.72747,14.62444,-46.65096,-57.01511,-0.4675641,7.144264,-72.653,-8.594284,-36.83611,0,0,0,145.8155,-48.20232,-50.0037,-125.7634,-110.0529,-86.7254,0.001067912,-0.1257102,0.09433498,0,0.3,0,0,0,0
638224233245336426,49.52304,20.12863,26.89605,36.99502,15.43013,-42.91546,-57.01511,-0.4675641,7.144264,-72.653,-8.594284,-36.83611,0,0,0,141.126,-49.68576,-47.91511,-125.7634,-110.0529,-86.7254,0.001067912,-0.1257102,0.09433498,0,0.3,0,0,0,0
638224233245686318,48.03876,20.12863,25.44852,36.11608,16.30907,-39.10671,-57.01511,-0.4675641,7.144264,-72.653,-8.594284,-36.90935,0,0,0,135.7108,-51.17168,-46.32157,-125.7634,-110.0529,-86.7254,0.001067912,-0.1257102,0.09433498,0,0.3,0,0,0,0
638224233246026204,47.26128,20.12863,24.65471,35.53012,16.89503,-37.20233,-57.01511,-0.4675641,7.144264,-72.653,-8.521038,-36.83611,0,0,0,132.8132,-51.95398,-45.62719,-125.7634,-110.0529,-86.7254,0.001067912,-0.1257102,0.09433498,0,0.3,0,0,0,0
638224233246366097,45.40005,20.15201,22.64685,34.06521,17.92047,-33.68657,-57.01511,-0.4675641,7.144264,-72.653,-8.594284,-36.83611,0,0,0,125.6962,-53.77746,-44.39692,-125.7634,-110.0529,-86.7254,0.001067912,-0.1257102,0.09433498,0,0.3,0,0,0,0
638224233246715986,43.32677,20.19877,20.4522,32.08759,18.79941,-30.61027,-57.01511,-0.4675641,7.144264,-72.653,-8.594284,-36.83611,0,0,0,117.8442,-55.55133,-43.41373,-125.7634,-110.0529,-86.7254,0.001067912,-0.1257102,0.09433498,0,0.3,0,0,0,0
638224233247055880,42.29013,20.22215,19.40158,30.91567,19.23888,-29.07212,-57.01511,-0.4675641,7.144264,-72.653,-8.521038,-36.83611,0,0,0,114.0052,-56.33364,-43.01659,-125.7634,-110.0529,-86.7254,0.001067912,-0.1257102,0.09433498,0,0.3,0,0,0,0
638224233247395770,40.00481,20.22215,17.4871,28.35209,20.11782,-25.99582,-57.01511,-0.4675641,7.144264,-72.653,-8.594284,-36.83611,0,0,0,106.1996,-57.7433,-41.80782,-125.7634,-110.0529,-86.7254,0.001067912,-0.1257102,0.09433498,0,0.3,0,0,0,0
638224233247735660,37.46034,20.24553,15.71271,25.78851,20.92352,-22.69979,-57.01511,-0.4675641,7.144264,-72.653,-8.594284,-36.90935,0,0,0,98.05867,-58.872,-40.37412,-125.7634,-110.0529,-86.7254,0.001067912,-0.1257102,0.09433498,0,0.3,0,0,0,0
638224233248075550,34.7745,20.43255,14.10175,23.15168,21.50948,-19.40376,-57.01511,-0.4675641,7.144264,-72.653,-8.594284,-36.90935,0,0,0,89.80138,-59.42836,-39.01997,-125.7634,-110.0529,-86.7254,0.001067912,-0.1257102,0.09433498,0,0.3,0,0,0,0
638224233248415442,33.38446,20.61958,13.28459,21.76003,21.80246,-17.71912,-57.01511,-0.4675641,7.144264,-72.653,-8.594284,-36.83611,0,0,0,85.5369,-59.47092,-38.54992,-125.7634,-110.0529,-86.7254,0.001067912,-0.1257102,0.09433498,0,0.3,0,0,0,0
638224233248765335,30.48659,21.08714,11.79037,18.68373,22.16869,-14.78931,-57.01511,-0.4675641,7.144264,-72.653,-8.594284,-36.83611,0,0,0,76.9466,-59.2089,-37.65065,-125.7634,-110.0529,-86.7254,0.001067912,-0.1257102,0.09433498,0,0.3,0,0,0,0
638224233249095225,27.37668,21.71835,10.76309,15.16796,22.46167,-12.22573,-57.01511,-0.4675641,7.144264,-72.653,-8.594284,-36.90935,0,0,0,68.41794,-58.30867,-36.2268,-125.7634,-110.0529,-86.7254,0.001067912,-0.1257102,0.09433498,0,0.3,0,0,0,0
638224233249435119,25.51544,22.18591,10.41288,13.33683,22.53491,-11.12705,-57.01511,-0.4675641,7.144264,-72.653,-8.594284,-36.83611,0,0,0,63.57026,-57.44912,-35.16455,-125.7634,-110.0529,-86.7254,0.001067912,-0.1257102,0.09433498,0,0.3,0,0,0,0
638224233249785023,21.86364,23.49509,10.15606,9.381593,22.53491,-9.588906,-57.01511,-0.4675641,7.144264,-72.653,-8.594284,-36.83611,0,0,0,54.29879,-54.74784,-33.02947,-125.7634,-110.0529,-86.7254,0.001067912,-0.1257102,0.09433498,0,0.3,0,0,0,0
638224233250124901,18.47101,25.59913,10.15606,4.840393,21.65597,-8.636719,-57.01511,-0.4675641,7.144264,-72.653,-8.594284,-36.83611,0,0,0,45.55111,-50.29374,-31.98281,-125.7634,-110.0529,-86.7254,0.001067912,-0.1257102,0.09433498,0,0.3,0,0,0,0
