zeyangz2/DNN_classification_different_people_hand/data_by_names/Zeyang/zeyang_right_4.csv
Timestamp,Therapist joint angle 0,Therapist joint angle 1,Therapist joint angle 2,Therapist joint angle 3,Therapist joint angle 4,Therapist joint angle 5,Patient joint angle 0,Patient joint angle 1,Patient joint angle 2,Patient joint angle 3,Patient joint angle 4,Patient joint angle 5,Virtual joint angle 0,Virtual joint angle 1,Virtual joint angle 2,Therapist position x,Therapist position y,Therapist position z,Patient position x,Patient position y,Patient position z,Virtual position x,Virtual position y,Virtual position z,Assistive Force, Obstacle Force Magnitude, Therapist Constant Force, Patient Constant Force, Recovery Factor, Assistance Level
638223381590340559,0,0,0,0,0,0,0,0,0,0,0,0,0,0,0,0,0,0,0,0,0,0,0,0,0,0.3,0,0,0,0
638223381590410538,-7.468508,-0.9818845,-6.49054,-47.01719,-62.86895,-77.70691,-4.570632,-0.4441859,0.1400836,-35.22471,-8.447793,45.12524,0,0,0,-15.37114,-111.4304,-51.09659,-10.65206,-111.0334,-35.10307,0.001067912,-0.1257102,0.09433498,0,0.3,0,0,0.001183948,0
638223381590730437,-7.468508,-0.9818845,-6.49054,-47.09043,-62.9422,-77.70691,-4.570632,-0.4441859,0.1400836,-35.22471,-8.447793,45.05199,0,0,0,-15.37114,-111.4304,-51.09659,-10.65206,-111.0334,-35.10307,0.001067912,-0.1257102,0.09433498,0,0.3,0,0,0.001183948,0
638223381591130328,-7.468508,-0.9818845,-6.49054,-47.09043,-62.86895,-77.70691,-4.570632,-0.4441859,0.1400836,-35.22471,-8.447793,45.05199,0,0,0,-15.37114,-111.4304,-51.09659,-10.65206,-111.0334,-35.10307,0.001067912,-0.1257102,0.09433498,0,0.3,0,0,0.001183948,0
638223381591490213,-7.468508,-0.9818845,-6.49054,-47.09043,-62.79571,-77.70691,-4.570632,-0.4441859,0.1400836,-35.22471,-8.447793,45.05199,0,0,0,-15.37114,-111.4304,-51.09659,-10.65206,-111.0334,-35.10307,0.001067912,-0.1257102,0.09433498,0,0.3,0,0,0.001183948,0
638223381591840089,-7.468508,-0.9818845,-6.49054,-47.09043,-62.86895,-77.70691,-4.570632,-0.4441859,0.1400836,-35.22471,-8.447793,45.05199,0,0,0,-15.37114,-111.4304,-51.09659,-10.65206,-111.0334,-35.10307,0.001067912,-0.1257102,0.09433498,0,0.3,0,0,0.001183834,0
638223381592188574,-7.468508,-0.9818845,-6.49054,-47.09043,-62.86895,-77.70691,-4.570632,-0.4441859,0.1400836,-35.22471,-8.447793,45.05199,0,0,0,-15.37114,-111.4304,-51.09659,-10.65206,-111.0334,-35.10307,0.001067912,-0.1257102,0.09433498,0,0.3,0,0,0.001183834,0
638223381592618443,-7.468508,-0.9818845,-6.49054,-47.09043,-62.79571,-77.70691,-4.570632,-0.4441859,0.1400836,-35.22471,-8.447793,45.05199,0,0,0,-15.37114,-111.4304,-51.09659,-10.65206,-111.0334,-35.10307,0.001067912,-0.1257102,0.09433498,0,0.3,0,0,0.001183834,0
638223381592968324,-7.468508,-0.9818845,-6.49054,-47.09043,-62.79571,-77.70691,-4.570632,-0.4441859,0.1400836,-35.22471,-8.447793,45.05199,0,0,0,-15.37114,-111.4304,-51.09659,-10.65206,-111.0334,-35.10307,0.001067912,-0.1257102,0.09433498,0,0.3,0,0,0.001183834,0
638223381593328209,-7.468508,-0.9818845,-6.49054,-47.01719,-62.86895,-77.70691,-4.570632,-0.4441859,0.1400836,-35.22471,-8.521038,45.05199,0,0,0,-15.37114,-111.4304,-51.09659,-10.65206,-111.0334,-35.10307,0.001067912,-0.1257102,0.09433498,0,0.3,0,0,0.001183834,0
638223381593678100,-7.468508,-0.9818845,-6.49054,-47.09043,-62.86895,-77.70691,-4.570632,-0.4441859,0.1400836,-35.22471,-8.447793,45.05199,0,0,0,-15.37114,-111.4304,-51.09659,-10.65206,-111.0334,-35.10307,0.001067912,-0.1257102,0.09433498,0,0.3,0,0,0.001183834,0
638223381594117955,-7.468508,-0.9818845,-6.49054,-47.09043,-62.86895,-77.70691,-4.570632,-0.4441859,0.1400836,-35.22471,-8.447793,45.12524,0,0,0,-15.37114,-111.4304,-51.09659,-10.65206,-111.0334,-35.10307,0.001067912,-0.1257102,0.09433498,0,0.3,0,0,0.001183834,0
638223381594477858,-7.468508,-0.9818845,-6.49054,-47.09043,-62.86895,-77.70691,-4.570632,-0.4441859,0.1400836,-35.22471,-8.447793,45.05199,0,0,0,-15.37114,-111.4304,-51.09659,-10.65206,-111.0334,-35.10307,0.001067912,-0.1257102,0.09433498,0,0.3,0,0,0.00118372,0
638223381594847727,-7.468508,-0.9818845,-6.49054,-47.09043,-62.79571,-77.70691,-4.570632,-0.4441859,0.1400836,-35.22471,-8.447793,45.12524,0,0,0,-15.37114,-111.4304,-51.09659,-10.65206,-111.0334,-35.10307,0.001067912,-0.1257102,0.09433498,0,0.3,0,0,0.00118372,0
638223381595207611,-7.468508,-0.9818845,-6.49054,-47.09043,-62.86895,-77.70691,-4.570632,-0.4441859,0.1400836,-35.22471,-8.447793,45.05199,0,0,0,-15.37114,-111.4304,-51.09659,-10.65206,-111.0334,-35.10307,0.001067912,-0.1257102,0.09433498,0,0.3,0,0,0.00118372,0
638223381595637475,-7.468508,-0.9818845,-6.49054,-47.01719,-62.79571,-77.70691,-4.570632,-0.4441859,0.1400836,-35.22471,-8.521038,45.05199,0,0,0,-15.37114,-111.4304,-51.09659,-10.65206,-111.0334,-35.10307,0.001067912,-0.1257102,0.09433498,0,0.3,0,0,0.00118372,0
638223381595967369,-7.468508,-0.9818845,-6.49054,-47.09043,-62.79571,-77.70691,-4.570632,-0.4441859,0.1400836,-35.22471,-8.447793,45.05199,0,0,0,-15.37114,-111.4304,-51.09659,-10.65206,-111.0334,-35.10307,0.001067912,-0.1257102,0.09433498,0,0.3,0,0,0.00118372,0
638223381596307259,-7.468508,-0.9818845,-6.49054,-47.09043,-62.79571,-77.70691,-4.570632,-0.4441859,0.1400836,-35.22471,-8.447793,45.05199,0,0,0,-15.37114,-111.4304,-51.09659,-10.65206,-111.0334,-35.10307,0.001067912,-0.1257102,0.09433498,0,0.3,0,0,0.00118372,0
638223381596667146,-7.468508,-0.9818845,-6.49054,-47.09043,-62.79571,-77.70691,-4.570632,-0.4441859,0.1400836,-35.22471,-8.521038,45.12524,0,0,0,-15.37114,-111.4304,-51.09659,-10.65206,-111.0334,-35.10307,0.001067912,-0.1257102,0.09433498,0,0.3,0,0,0.00118372,0
638223381597162064,-7.468508,-0.9818845,-6.49054,-47.09043,-62.86895,-77.70691,-4.570632,-0.4441859,0.1400836,-35.22471,-8.447793,45.12524,0,0,0,-15.37114,-111.4304,-51.09659,-10.65206,-111.0334,-35.10307,0.001067912,-0.1257102,0.09433498,0,0.3,0,0,0.00118372,0
638223381597517020,-7.468508,-0.9818845,-6.49054,-47.09043,-62.86895,-77.70691,-4.570632,-0.4441859,0.1400836,-35.22471,-8.447793,45.12524,0,0,0,-15.37114,-111.4304,-51.09659,-10.65206,-111.0334,-35.10307,0.001067912,-0.1257102,0.09433498,0,0.3,0,0,0.00118372,0
638223381597876891,-7.468508,-0.9818845,-6.49054,-47.09043,-62.86895,-77.70691,-4.570632,-0.4441859,0.1400836,-35.15147,-8.447793,45.05199,0,0,0,-15.37114,-111.4304,-51.09659,-10.65206,-111.0334,-35.10307,0.001067912,-0.1257102,0.09433498,0,0.3,0,0,0.00118372,0
638223381598236778,-7.468508,-0.9818845,-6.49054,-47.09043,-62.86895,-77.70691,-4.570632,-0.4441859,0.1400836,-35.22471,-8.447793,45.05199,0,0,0,-15.37114,-111.4304,-51.09659,-10.65206,-111.0334,-35.10307,0.001067912,-0.1257102,0.09433498,0,0.3,0,0,0.00118372,0
638223381598666653,-7.468508,-0.9818845,-6.49054,-47.09043,-62.79571,-77.70691,-4.570632,-0.4441859,0.1400836,-35.22471,-8.447793,45.05199,0,0,0,-15.37114,-111.4304,-51.09659,-10.65206,-111.0334,-35.10307,0.001067912,-0.1257102,0.09433498,0,0.3,0,0,0.00118372,0
638223381599026528,-7.468508,-0.9818845,-6.49054,-47.09043,-62.86895,-77.70691,-4.570632,-0.4441859,0.1400836,-35.22471,-8.447793,45.05199,0,0,0,-15.37114,-111.4304,-51.09659,-10.65206,-111.0334,-35.10307,0.001067912,-0.1257102,0.09433498,0,0.3,0,0,0.00118372,0
638223381599356423,-7.468508,-0.9818845,-6.49054,-47.09043,-62.79571,-77.70691,-4.570632,-0.4441859,0.1400836,-35.15147,-8.447793,45.05199,0,0,0,-15.37114,-111.4304,-51.09659,-10.65206,-111.0334,-35.10307,0.001067912,-0.1257102,0.09433498,0,0.3,0,0,0.00118372,0
638223381599686317,-7.468508,-0.9818845,-6.49054,-47.09043,-62.79571,-77.70691,-4.570632,-0.4441859,0.1400836,-35.22471,-8.447793,45.05199,0,0,0,-15.37114,-111.4304,-51.09659,-10.65206,-111.0334,-35.10307,0.001067912,-0.1257102,0.09433498,0,0.3,0,0,0.00118372,0
638223381600026209,-7.468508,-0.9818845,-6.49054,-47.09043,-62.86895,-77.70691,-4.570632,-0.4441859,0.1400836,-35.22471,-8.447793,45.12524,0,0,0,-15.37114,-111.4304,-51.09659,-10.65206,-111.0334,-35.10307,0.001067912,-0.1257102,0.09433498,0,0.3,0,0,0.00118372,0
638223381600381379,-7.468508,-0.9818845,-6.49054,-47.09043,-62.86895,-77.70691,-4.570632,-0.4441859,0.1400836,-35.22471,-8.447793,45.12524,0,0,0,-15.37114,-111.4304,-51.09659,-10.65206,-111.0334,-35.10307,0.001067912,-0.1257102,0.09433498,0,0.3,0,0,0.00118372,0
638223381600741264,-7.468508,-0.9818845,-6.49054,-47.09043,-62.86895,-77.70691,-4.570632,-0.4441859,0.1400836,-35.22471,-8.447793,45.05199,0,0,0,-15.37114,-111.4304,-51.09659,-10.65206,-111.0334,-35.10307,0.001067912,-0.1257102,0.09433498,0,0.3,0,0,0.00118372,0
638223381601101156,-7.468508,-0.9818845,-6.49054,-47.09043,-62.86895,-77.70691,-4.570632,-0.4441859,0.1400836,-35.22471,-8.447793,45.05199,0,0,0,-15.37114,-111.4304,-51.09659,-10.65206,-111.0334,-35.10307,0.001067912,-0.1257102,0.09433498,0,0.3,0,0,0.00118372,0
638223381601461035,-7.468508,-0.9818845,-6.49054,-47.09043,-62.79571,-77.70691,-4.570632,-0.4441859,0.1400836,-35.22471,-8.447793,45.05199,0,0,0,-15.37114,-111.4304,-51.09659,-10.65206,-111.0334,-35.10307,0.001067912,-0.1257102,0.09433498,0,0.3,0,0,0.00118372,0
638223381601820923,-7.468508,-0.9818845,-6.49054,-47.01719,-62.86895,-77.70691,-4.570632,-0.4441859,0.1400836,-35.22471,-8.447793,45.05199,0,0,0,-15.37114,-111.4304,-51.09659,-10.65206,-111.0334,-35.10307,0.001067912,-0.1257102,0.09433498,0,0.3,0,0,0.00118372,0
638223381602180805,-7.468508,-0.9818845,-6.49054,-47.09043,-62.86895,-77.70691,-4.570632,-0.4441859,0.1400836,-35.22471,-8.447793,45.05199,0,0,0,-15.37114,-111.4304,-51.09659,-10.65206,-111.0334,-35.10307,0.001067912,-0.1257102,0.09433498,0,0.3,0,0,0.00118372,0
638223381602530702,-7.468508,-0.9818845,-6.49054,-47.09043,-62.86895,-77.70691,-4.570632,-0.4441859,0.1400836,-35.22471,-8.447793,45.05199,0,0,0,-15.37114,-111.4304,-51.09659,-10.65206,-111.0334,-35.10307,0.001067912,-0.1257102,0.09433498,0,0.3,0,0,0.00118372,0
638223381602890583,-7.397828,-1.005263,-6.817402,-47.74964,-62.64922,-75.72929,-4.570632,-0.4441859,0.1400836,-35.22471,-8.447793,45.05199,0,0,0,-15.12908,-111.3967,-51.82797,-10.65206,-111.0334,-35.10307,0.001067912,-0.1257102,0.09433498,0,0.3,0,0,0.0004782164,0
638223381603230470,-7.374268,-0.9818845,-6.794055,-53.60925,-60.81809,-67.89206,-4.570632,-0.4441859,0.1400836,-35.22471,-8.447793,45.12524,0,0,0,-15.08821,-111.3487,-51.76732,-10.65206,-111.0334,-35.10307,0.001067912,-0.1257102,0.09433498,0,0.3,0,0,0,0
638223381603570362,-7.374268,-0.9585064,-6.700665,-58.29694,-59.2067,-64.66927,-4.570632,-0.4441859,0.1400836,-35.22471,-8.447793,45.12524,0,0,0,-15.11603,-111.3198,-51.55234,-10.65206,-111.0334,-35.10307,0.001067912,-0.1257102,0.09433498,0,0.3,0,0,0,0
638223381603930250,-7.444948,-0.7714807,-6.607276,-61.81271,-56.56987,-68.40478,-4.570632,-0.4441859,0.1400836,-35.22471,-8.447793,45.05199,0,0,0,-15.28893,-110.9098,-51.35049,-10.65206,-111.0334,-35.10307,0.001067912,-0.1257102,0.09433498,0,0.3,0,0,0,0
638223381604290139,-7.869027,0.07013461,-6.607276,-59.76185,-54.00629,-75.80254,-4.570632,-0.4441859,0.1400836,-35.22471,-8.447793,45.05199,0,0,0,-16.15612,-108.9511,-51.45498,-10.65206,-111.0334,-35.10307,0.001067912,-0.1257102,0.09433498,0,0.3,0,0,0,0
638223381604719992,-8.834986,1.285801,-6.607276,-55.22065,-50.19754,-79.68453,-4.570632,-0.4441859,0.1400836,-35.22471,-8.447793,45.05199,0,0,0,-18.11934,-106.122,-51.77704,-10.65206,-111.0334,-35.10307,0.001067912,-0.1257102,0.09433498,0,0.3,0,0,0,0
638223381605069890,-9.800944,1.683231,-6.677318,-52.14435,-46.82826,-80.56348,-4.570632,-0.4441859,0.1400836,-35.22471,-8.447793,45.05199,0,0,0,-20.05035,-105.1785,-52.28224,-10.65206,-111.0334,-35.10307,0.001067912,-0.1257102,0.09433498,0,0.3,0,0,0,0
638223381605439766,-11.2381,1.800122,-6.840749,-49.1413,-42.06733,-78.36612,-4.570632,-0.4441859,0.1400836,-35.15147,-8.447793,45.05199,0,0,0,-22.87986,-104.8618,-53.20022,-10.65206,-111.0334,-35.10307,0.001067912,-0.1257102,0.09433498,0,0.3,0,0,0,0
638223381605799656,-11.96846,1.753365,-6.864096,-47.82288,-39.50375,-76.242,-4.570632,-0.4441859,0.1400836,-35.22471,-8.447793,45.05199,0,0,0,-24.3353,-104.9641,-53.55069,-10.65206,-111.0334,-35.10307,0.001067912,-0.1257102,0.09433498,0,0.3,0,0,0,0
638223381606219663,-13.02866,1.683231,-6.864096,-45.2593,-34.0836,-72.87273,-4.570632,-0.4441859,0.1400836,-35.22471,-8.447793,45.05199,0,0,0,-26.45636,-105.1272,-54.01585,-10.65206,-111.0334,-35.10307,0.001067912,-0.1257102,0.09433498,0,0.3,0,0,0,0
638223381606579414,-13.38206,1.379314,-6.864096,-41.89003,-27.78452,-69.5767,-4.570632,-0.4441859,0.1400836,-35.22471,-8.447793,45.05199,0,0,0,-27.16544,-105.8343,-54.16282,-10.65206,-111.0334,-35.10307,0.001067912,-0.1257102,0.09433498,0,0.3,0,0,0,0
638223381606939293,-13.28782,0.9117499,-6.724013,-38.22777,-21.9249,-65.25523,-4.570632,-0.4441859,0.1400836,-35.22471,-8.447793,45.05199,0,0,0,-27.057,-106.9609,-53.78205,-10.65206,-111.0334,-35.10307,0.001067912,-0.1257102,0.09433498,0,0.3,0,0,0,0
638223381607299327,-13.14646,0.3740513,-6.397151,-34.41902,-15.84556,-59.17588,-4.570632,-0.4441859,0.1400836,-35.22471,-8.447793,45.12524,0,0,0,-26.94934,-108.2991,-52.96602,-10.65206,-111.0334,-35.10307,0.001067912,-0.1257102,0.09433498,0,0.3,0,0,0,0
638223381607729035,-13.05222,0.07013461,-6.257067,-30.31729,-8.521038,-55.44038,-4.570632,-0.4441859,0.1400836,-35.22471,-8.447793,45.05199,0,0,0,-26.83332,-109.0424,-52.6035,-10.65206,-111.0334,-35.10307,0.001067912,-0.1257102,0.09433498,0,0.3,0,0,0,0
638223381608090802,-13.05222,0.07013461,-6.280415,-28.26642,-4.272818,-56.24608,-4.570632,-0.4441859,0.1400836,-35.22471,-8.447793,45.05199,0,0,0,-26.82112,-109.0365,-52.65612,-10.65206,-111.0334,-35.10307,0.001067912,-0.1257102,0.09433498,0,0.3,0,0,0,0
638223381608430687,-13.05222,0.04675641,-6.327109,-26.65503,-0.3908245,-59.90833,-4.570632,-0.4441859,0.1400836,-35.22471,-8.447793,45.05199,0,0,0,-26.79674,-109.0789,-52.7613,-10.65206,-111.0334,-35.10307,0.001067912,-0.1257102,0.09433498,0,0.3,0,0,0,0
638223381608790577,-13.05222,0.04675641,-6.327109,-25.77609,1.220569,-60.71403,-4.570632,-0.4441859,0.1400836,-35.15147,-8.447793,45.05199,0,0,0,-26.79674,-109.0789,-52.7613,-10.65206,-111.0334,-35.10307,0.001067912,-0.1257102,0.09433498,0,0.3,0,0,0,0
638223381609250610,-13.05222,0,-7.074222,-22.18707,4.370111,-61.00701,-4.570632,-0.4441859,0.1400836,-35.22471,-8.447793,45.05199,0,0,0,-26.40674,-108.9849,-54.44358,-10.65206,-111.0334,-35.10307,0.001067912,-0.1257102,0.09433498,0,0.3,0,0,0,0
638223381609610490,-13.05222,-0.09351282,-7.541167,-21.30813,5.322299,-61.1535,-4.570632,-0.4441859,0.1400836,-35.22471,-8.521038,45.12524,0,0,0,-26.16326,-109.0643,-55.49384,-10.65206,-111.0334,-35.10307,0.001067912,-0.1257102,0.09433498,0,0.3,0,0,0,0
638223381609970390,-13.05222,-0.233782,-8.334974,-20.42919,7.592898,-61.29999,-4.570632,-0.4441859,0.1400836,-35.15147,-8.447793,45.05199,0,0,0,-25.74981,-109.1356,-57.27726,-10.65206,-111.0334,-35.10307,0.001067912,-0.1257102,0.09433498,0,0.3,0,0,0,0
638223381610330263,-13.05222,-0.233782,-8.685184,-20.35595,10.37621,-61.29999,-4.570632,-0.4441859,0.1400836,-35.22471,-8.447793,45.12524,0,0,0,-25.56776,-109.015,-58.06253,-10.65206,-111.0334,-35.10307,0.001067912,-0.1257102,0.09433498,0,0.3,0,0,0,0
638223381610760122,-13.05222,-0.2571602,-8.685184,-20.50244,14.11172,-60.71403,-4.570632,-0.4441859,0.1400836,-35.22471,-8.447793,45.05199,0,0,0,-25.56771,-109.0694,-58.06276,-10.65206,-111.0334,-35.10307,0.001067912,-0.1257102,0.09433498,0,0.3,0,0,0,0
638223381611120009,-13.05222,-0.3740513,-8.825266,-20.86866,16.38232,-60.4943,-4.570632,-0.4441859,0.1400836,-35.15147,-8.447793,45.05199,0,0,0,-25.4946,-109.2918,-58.37812,-10.65206,-111.0334,-35.10307,0.001067912,-0.1257102,0.09433498,0,0.3,0,0,0,0
638223381611479902,-13.05222,-0.7714807,-8.895308,-21.7476,19.45862,-60.42105,-4.570632,-0.4441859,0.1400836,-35.22471,-8.447793,45.05199,0,0,0,-25.45613,-110.1916,-58.54404,-10.65206,-111.0334,-35.10307,0.001067912,-0.1257102,0.09433498,0,0.3,0,0,0,0
638223381611839783,-13.05222,-0.8182371,-8.28828,-23.21251,23.04763,-60.34781,-4.570632,-0.4441859,0.1400836,-35.22471,-8.447793,45.05199,0,0,0,-25.77128,-110.5115,-57.18467,-10.65206,-111.0334,-35.10307,0.001067912,-0.1257102,0.09433498,0,0.3,0,0,0,0
638223381612259645,-13.07578,-0.6312115,-6.583929,-25.11688,26.5634,-60.34781,-4.570632,-0.4441859,0.1400836,-35.22471,-8.447793,45.05199,0,0,0,-26.70807,-110.5896,-53.3587,-10.65206,-111.0334,-35.10307,0.001067912,-0.1257102,0.09433498,0,0.3,0,0,0,0
638223381612619549,-13.14646,-0.350673,-5.790122,-25.99582,27.80857,-60.34781,-4.570632,-0.4441859,0.1400836,-35.22471,-8.447793,45.05199,0,0,0,-27.26893,-110.1358,-51.59769,-10.65206,-111.0334,-35.10307,0.001067912,-0.1257102,0.09433498,0,0.3,0,0,0,0
638223381612979414,-13.61766,0.8182371,-3.455395,-27.60722,29.71294,-59.98158,-4.570632,-0.4441859,0.1400836,-35.22471,-8.447793,45.05199,0,0,0,-29.50065,-107.8533,-46.57315,-10.65206,-111.0334,-35.10307,0.001067912,-0.1257102,0.09433498,0,0.3,0,0,0,0
638223381613339308,-14.60718,2.010525,-0.6770707,-29.07212,29.56645,-58.66317,-4.570632,-0.4441859,0.1400836,-35.22471,-8.447793,45.05199,0,0,0,-33.21151,-105.3124,-40.91447,-10.65206,-111.0334,-35.10307,0.001067912,-0.1257102,0.09433498,0,0.3,0,0,0,0
638223381613769172,-16.42129,3.506731,3.548784,-31.6357,27.88181,-56.68555,-4.570632,-0.4441859,0.1400836,-35.22471,-8.447793,45.05199,0,0,0,-39.96062,-101.5878,-32.76152,-10.65206,-111.0334,-35.10307,0.001067912,-0.1257102,0.09433498,0,0.3,0,0,0,0
638223381614129048,-17.29301,4.371724,5.790122,-33.24709,26.5634,-55.9531,-4.570632,-0.4441859,0.1400836,-35.22471,-8.447793,45.12524,0,0,0,-43.52309,-99.1548,-28.55339,-10.65206,-111.0334,-35.10307,0.001067912,-0.1257102,0.09433498,0,0.3,0,0,0,0
638223381614468944,-18.35321,5.98482,8.988697,-36.10366,24.2928,-55.07415,-4.570632,-0.4441859,0.1400836,-35.22471,-8.447793,45.05199,0,0,0,-48.31986,-94.45862,-22.69813,-10.65206,-111.0334,-35.10307,0.001067912,-0.1257102,0.09433498,0,0.3,0,0,0,0
638223381614828826,-18.68305,7.831698,11.46351,-38.59399,21.80246,-54.56144,-4.570632,-0.4441859,0.1400836,-35.22471,-8.447793,45.05199,0,0,0,-50.80755,-89.16911,-18.0992,-10.65206,-111.0334,-35.10307,0.001067912,-0.1257102,0.09433498,0,0.3,0,0,0,0
638223381615328671,-18.70661,10.47344,14.26518,-40.42512,18.57967,-54.26846,-4.570632,-0.4441859,0.1400836,-35.15147,-8.447793,45.05199,0,0,0,-52.5943,-81.64793,-13.02582,-10.65206,-111.0334,-35.10307,0.001067912,-0.1257102,0.09433498,0,0.3,0,0,0,0
638223381615658567,-18.70661,12.34369,16.13296,-41.08433,16.74854,-54.12197,-4.570632,-0.4441859,0.1400836,-35.22471,-8.447793,45.05199,0,0,0,-53.66355,-76.24166,-9.868081,-10.65206,-111.0334,-35.10307,0.001067912,-0.1257102,0.09433498,0,0.3,0,0,0,0
638223381616018447,-18.70661,13.88665,17.67388,-41.5238,15.35689,-53.82899,-4.570632,-0.4441859,0.1400836,-35.22471,-8.447793,45.05199,0,0,0,-54.5027,-71.70162,-7.389841,-10.65206,-111.0334,-35.10307,0.001067912,-0.1257102,0.09433498,0,0.3,0,0,0,0
638223381616378334,-18.75373,16.71542,20.42886,-42.10976,12.79331,-52.80355,-4.570632,-0.4441859,0.1400836,-35.22471,-8.447793,45.05199,0,0,0,-56.02489,-63.25924,-3.341277,-10.65206,-111.0334,-35.10307,0.001067912,-0.1257102,0.09433498,0,0.3,0,0,0,0
638223381616798200,-18.91865,19.66107,23.37061,-42.69572,9.790254,-51.26541,-4.570632,-0.4441859,0.1400836,-35.22471,-8.447793,45.05199,0,0,0,-57.86531,-54.19339,0.4813996,-10.65206,-111.0334,-35.10307,0.001067912,-0.1257102,0.09433498,0,0.3,0,0,0,0
638223381617158082,-19.06001,22.46645,26.19563,-43.57467,6.933692,-49.8005,-4.570632,-0.4441859,0.1400836,-35.22471,-8.447793,45.05199,0,0,0,-59.46458,-45.3452,3.761903,-10.65206,-111.0334,-35.10307,0.001067912,-0.1257102,0.09433498,0,0.3,0,0,0,0
638223381617497975,-19.13069,25.64589,28.88057,-44.89308,4.150376,-48.55533,-4.570632,-0.4441859,0.1400836,-35.22471,-8.447793,45.05199,0,0,0,-60.50417,-35.70011,6.073414,-10.65206,-111.0334,-35.10307,0.001067912,-0.1257102,0.09433498,0,0.3,0,0,0,0
638223381617857860,-19.10713,29.47991,31.54216,-46.28474,1.000834,-47.23692,-4.570632,-0.4441859,0.1400836,-35.22471,-8.447793,45.05199,0,0,0,-60.83326,-24.67428,7.255296,-10.65206,-111.0334,-35.10307,0.001067912,-0.1257102,0.09433498,0,0.3,0,0,0,0
638223381618318560,-18.75373,34.50623,35.4645,-48.40885,-3.686857,-45.11281,-4.570632,-0.4441859,0.1400836,-35.22471,-8.447793,45.05199,0,0,0,-60.2038,-9.718051,8.966769,-10.65206,-111.0334,-35.10307,0.001067912,-0.1257102,0.09433498,0,0.3,0,0,0,0
638223381618678443,-18.11761,37.82593,37.61245,-50.16673,-6.98289,-43.64791,-4.570632,-0.4441859,0.1400836,-35.22471,-8.447793,45.05199,0,0,0,-58.0628,-0.5053115,9.108631,-10.65206,-111.0334,-35.10307,0.001067912,-0.1257102,0.09433498,0,0.3,0,0,0,0
638223381619048328,-16.82181,41.63658,39.41019,-51.70488,-10.64515,-41.67029,-4.570632,-0.4441859,0.1400836,-35.22471,-8.521038,45.05199,0,0,0,-53.34208,8.919231,8.084712,-10.65206,-111.0334,-35.10307,0.001067912,-0.1257102,0.09433498,0,0.3,0,0,0,0
638223381619398219,-16.02077,43.64711,40.13395,-51.99786,-12.47628,-40.7181,-4.570632,-0.4441859,0.1400836,-35.15147,-8.447793,45.12524,0,0,0,-50.35279,13.43877,7.011059,-10.65206,-111.0334,-35.10307,0.001067912,-0.1257102,0.09433498,0,0.3,0,0,0,0
638223381619828079,-13.02866,49.74882,41.97839,-50.97242,-17.96966,-38.4475,-4.570632,-0.4441859,0.1400836,-35.22471,-8.447793,45.12524,0,0,0,-39.5315,25.99325,2.489847,-10.65206,-111.0334,-35.10307,0.001067912,-0.1257102,0.09433498,0,0.3,0,0,0,0
638223381620164439,-11.87422,51.75934,42.60876,-50.02024,-19.6543,-37.86154,-4.570632,-0.4441859,0.1400836,-35.22471,-8.447793,45.05199,0,0,0,-35.55919,29.94073,0.7675552,-10.65206,-111.0334,-35.10307,0.001067912,-0.1257102,0.09433498,0,0.3,0,0,0,0
638223381620514499,-9.235504,55.56999,43.82282,-47.45666,-23.02358,-37.20233,-4.570632,-0.4441859,0.1400836,-35.22471,-8.447793,45.05199,0,0,0,-26.91972,37.12944,-2.792718,-10.65206,-111.0334,-35.10307,0.001067912,-0.1257102,0.09433498,0,0.3,0,0,0,0
638223381620879155,-5.230311,59.66118,44.99018,-42.62248,-26.90557,-36.90935,-4.570632,-0.4441859,0.1400836,-35.22471,-8.447793,45.12524,0,0,0,-14.7344,44.12933,-7.3897,-10.65206,-111.0334,-35.10307,0.001067912,-0.1257102,0.09433498,0,0.3,0,0,0,0
638223381621344348,-0.1884797,63.37831,46.34432,-34.19928,-31.22704,-39.03346,-4.570632,-0.4441859,0.1400836,-35.15147,-8.447793,45.05199,0,0,0,-0.5139408,50.50829,-12.11813,-10.65206,-111.0334,-35.10307,0.001067912,-0.1257102,0.09433498,0,0.3,0,0,0,0
638223381621694190,2.850755,65.13168,46.9747,-27.82695,-33.4244,-42.40274,-4.570632,-0.4441859,0.1400836,-35.22471,-8.447793,45.05199,0,0,0,7.63744,53.3478,-14.97594,-10.65206,-111.0334,-35.10307,0.001067912,-0.1257102,0.09433498,0,0.3,0,0,0,0
638223381622064079,7.256468,66.69801,47.55838,-17.71912,-35.5485,-49.06805,-4.570632,-0.4441859,0.1400836,-35.22471,-8.521038,45.05199,0,0,0,19.0929,55.83326,-18.40275,-10.65206,-111.0334,-35.10307,0.001067912,-0.1257102,0.09433498,0,0.3,0,0,0,0
638223381622413961,9.447544,67.21233,47.83855,-12.15249,-36.13447,-53.16978,-4.570632,-0.4441859,0.1400836,-35.22471,-8.447793,45.05199,0,0,0,24.70298,56.78411,-19.896,-10.65206,-111.0334,-35.10307,0.001067912,-0.1257102,0.09433498,0,0.3,0,0,0,0
638223381622843866,15.78517,68.28773,48.81913,4.620657,-36.20771,-67.37935,-4.570632,-0.4441859,0.1400836,-35.22471,-8.447793,45.05199,0,0,0,40.72202,59.43654,-24.29916,-10.65206,-111.0334,-35.10307,0.001067912,-0.1257102,0.09433498,0,0.3,0,0,0,0
638223381623203710,17.69353,68.428,49.0993,9.308348,-35.76824,-71.70081,-4.570632,-0.4441859,0.1400836,-35.22471,-8.447793,45.12524,0,0,0,45.53436,60.04875,-25.61635,-10.65206,-111.0334,-35.10307,0.001067912,-0.1257102,0.09433498,0,0.3,0,0,0,0
638223381623573591,21.51024,68.45138,49.63629,18.09777,-34.23009,-80.05076,-4.570632,-0.4441859,0.1400836,-35.22471,-8.447793,45.12524,0,0,0,55.21429,61.01721,-28.25382,-10.65206,-111.0334,-35.10307,0.001067912,-0.1257102,0.09433498,0,0.3,0,0,0,0
638223381623923486,24.87932,68.33449,50.21997,25.42229,-32.10598,-87.00905,-4.570632,-0.4441859,0.1400836,-35.22471,-8.447793,45.05199,0,0,0,63.8263,61.95657,-30.71795,-10.65206,-111.0334,-35.10307,0.001067912,-0.1257102,0.09433498,0,0.3,0,0,0,0
638223381624353531,28.76671,67.91368,50.7803,32.96654,-28.95644,-93.89409,-4.570632,-0.4441859,0.1400836,-35.22471,-8.447793,45.05199,0,0,0,73.8469,62.59794,-33.83792,-10.65206,-111.0334,-35.10307,0.001067912,-0.1257102,0.09433498,0,0.3,0,0,0,0
638223381624713232,30.81643,67.39936,50.96708,36.4823,-26.90557,-96.67741,-4.570632,-0.4441859,0.1400836,-35.22471,-8.521038,45.05199,0,0,0,79.31841,62.48011,-35.37883,-10.65206,-111.0334,-35.10307,0.001067912,-0.1257102,0.09433498,0,0.3,0,0,0,0
638223381625073119,33.29023,66.44086,51.01377,40.21781,-24.26875,-99.9002,-4.570632,-0.4441859,0.1400836,-35.22471,-8.447793,45.05199,0,0,0,86.14784,61.69005,-37.15368,-10.65206,-111.0334,-35.10307,0.001067912,-0.1257102,0.09433498,0,0.3,0,0,0,0
638223381625433009,35.55198,65.27194,50.99043,42.92788,-21.41219,-102.4638,-4.570632,-0.4441859,0.1400836,-35.15147,-8.447793,45.05199,0,0,0,92.68192,60.53508,-38.66378,-10.65206,-111.0334,-35.10307,0.001067912,-0.1257102,0.09433498,0,0.3,0,0,0,0
638223381625863029,37.88441,63.63547,50.68691,45.49146,-18.11616,-104.2949,-4.570632,-0.4441859,0.1400836,-35.22471,-8.447793,45.12524,0,0,0,99.71919,58.34494,-40.18316,-10.65206,-111.0334,-35.10307,0.001067912,-0.1257102,0.09433498,0,0.3,0,0,0,0
638223381626204415,38.70901,62.88737,50.45344,46.29716,-16.7245,-104.8809,-4.570632,-0.4441859,0.1400836,-35.22471,-8.447793,45.12524,0,0,0,102.31,57.14186,-40.68748,-10.65206,-111.0334,-35.10307,0.001067912,-0.1257102,0.09433498,0,0.3,0,0,0,0
638223381626562718,40.47601,60.99373,49.86976,47.68882,-13.42846,-105.7598,-4.570632,-0.4441859,0.1400836,-35.22471,-8.447793,45.05199,0,0,0,108.1574,54.02575,-41.60659,-10.65206,-111.0334,-35.10307,0.001067912,-0.1257102,0.09433498,0,0.3,0,0,0,0
638223381626922604,42.12521,58.79618,49.33278,48.71425,-9.839451,-106.1993,-4.570632,-0.4441859,0.1400836,-35.15147,-8.447793,45.05199,0,0,0,114.1846,50.50874,-42.09113,-10.65206,-111.0334,-35.10307,0.001067912,-0.1257102,0.09433498,0,0.3,0,0,0,0
638223381627382462,43.58593,56.36485,48.72574,49.51994,-6.323683,-106.3458,-4.570632,-0.4441859,0.1400836,-35.22471,-8.447793,45.05199,0,0,0,120.0204,46.40855,-42.25415,-10.65206,-111.0334,-35.10307,0.001067912,-0.1257102,0.09433498,0,0.3,0,0,0,0
638223381627742353,44.90529,53.58284,47.8152,50.2524,-2.58818,-106.4923,-4.570632,-0.4441859,0.1400836,-35.15147,-8.447793,45.05199,0,0,0,125.6388,41.11116,-42.29509,-10.65206,-111.0334,-35.10307,0.001067912,-0.1257102,0.09433498,0,0.3,0,0,0,0
638223381628102226,45.94193,50.82421,46.67118,50.61862,0.8543434,-106.5655,-4.570632,-0.4441859,0.1400836,-35.22471,-8.447793,45.05199,0,0,0,130.2454,35.22178,-42.31809,-10.65206,-111.0334,-35.10307,0.001067912,-0.1257102,0.09433498,0,0.3,0,0,0,0
638223381628462122,46.81364,48.01883,45.22365,50.83836,4.370111,-106.5655,-4.570632,-0.4441859,0.1400836,-35.22471,-8.521038,45.05199,0,0,0,134.0553,28.55378,-42.5238,-10.65206,-111.0334,-35.10307,0.001067912,-0.1257102,0.09433498,0,0.3,0,0,0,0
638223381628891983,47.63824,44.65237,43.5193,50.83836,8.471841,-106.4923,-4.570632,-0.4441859,0.1400836,-35.22471,-8.447793,45.05199,0,0,0,137.9445,20.37111,-42.55806,-10.65206,-111.0334,-35.10307,0.001067912,-0.1257102,0.09433498,0,0.3,0,0,0,0
638223381629251860,48.06232,41.89374,41.8383,50.9116,11.54814,-106.3458,-4.570632,-0.4441859,0.1400836,-35.22471,-8.447793,45.05199,0,0,0,140.0058,13.04484,-42.56366,-10.65206,-111.0334,-35.10307,0.001067912,-0.1257102,0.09433498,0,0.3,0,0,0,0
638223381629611742,48.2508,40.37416,40.88106,50.83836,13.37927,-105.8331,-4.570632,-0.4441859,0.1400836,-35.22471,-8.447793,45.12524,0,0,0,140.907,8.909062,-42.58924,-10.65206,-111.0334,-35.10307,0.001067912,-0.1257102,0.09433498,0,0.3,0,0,0,0
638223381629961634,48.67488,37.24148,38.98993,50.69187,16.74854,-104.3682,-4.570632,-0.4441859,0.1400836,-35.22471,-8.447793,45.05199,0,0,0,142.7307,0.4030073,-42.84714,-10.65206,-111.0334,-35.10307,0.001067912,-0.1257102,0.09433498,0,0.3,0,0,0,0
638223381630391498,48.86336,34.01529,36.77194,50.69187,19.89809,-102.6835,-4.570632,-0.4441859,0.1400836,-35.22471,-8.447793,45.05199,0,0,0,143.3681,-8.868767,-43.12049,-10.65206,-111.0334,-35.10307,0.001067912,-0.1257102,0.09433498,0,0.3,0,0,0,0
638223381630751379,48.98116,30.57869,34.36718,50.61862,23.34061,-100.1199,-4.570632,-0.4441859,0.1400836,-35.22471,-8.447793,45.05199,0,0,0,143.4146,-18.88405,-43.59881,-10.65206,-111.0334,-35.10307,0.001067912,-0.1257102,0.09433498,0,0.3,0,0,0,0
638223381631111270,49.02828,27.60966,32.26592,50.61862,26.34366,-97.77609,-4.570632,-0.4441859,0.1400836,-35.22471,-8.447793,45.05199,0,0,0,142.9683,-27.60758,-44.19337,-10.65206,-111.0334,-35.10307,0.001067912,-0.1257102,0.09433498,0,0.3,0,0,0,0
638223381631471149,48.98116,24.73414,30.14132,50.54538,28.98049,-95.43224,-4.570632,-0.4441859,0.1400836,-35.22471,-8.447793,45.05199,0,0,0,141.9022,-36.17493,-44.91438,-10.65206,-111.0334,-35.10307,0.001067912,-0.1257102,0.09433498,0,0.3,0,0,0,0
638223381631941006,48.69844,21.85862,27.47973,50.2524,31.39758,-92.35595,-4.570632,-0.4441859,0.1400836,-35.22471,-8.447793,45.05199,0,0,0,139.2023,-45.30612,-46.05107,-10.65206,-111.0334,-35.10307,0.001067912,-0.1257102,0.09433498,0,0.3,0,0,0,0
638223381632270896,48.29792,20.50268,25.89212,49.95942,32.49626,-90.45158,-4.570632,-0.4441859,0.1400836,-35.22471,-8.521038,45.05199,0,0,0,136.7305,-49.90804,-46.5187,-10.65206,-111.0334,-35.10307,0.001067912,-0.1257102,0.09433498,0,0.3,0,0,0,0
638223381632630783,47.33196,19.17013,23.13714,49.37346,33.44844,-87.30203,-4.570632,-0.4441859,0.1400836,-35.22471,-8.447793,45.05199,0,0,0,131.1417,-55.48556,-47.47126,-10.65206,-111.0334,-35.10307,0.001067912,-0.1257102,0.09433498,0,0.3,0,0,0,0
638223381632970676,46.62516,18.74932,21.12928,49.00723,33.81467,-85.10468,-4.570632,-0.4441859,0.1400836,-35.22471,-8.447793,45.05199,0,0,0,126.7256,-58.17236,-48.6169,-10.65206,-111.0334,-35.10307,0.001067912,-0.1257102,0.09433498,0,0.3,0,0,0,0
638223381633430525,43.32677,18.35189,15.17572,45.93093,34.32739,-78.87884,-4.570632,-0.4441859,0.1400836,-35.22471,-8.447793,45.05199,0,0,0,110.7983,-63.36422,-50.88369,-10.65206,-111.0334,-35.10307,0.001067912,-0.1257102,0.09433498,0,0.3,0,0,0,0
638223381633780417,41.84249,18.35189,13.61146,44.17305,34.25414,-76.46174,-4.570632,-0.4441859,0.1400836,-35.22471,-8.447793,45.05199,0,0,0,105.3661,-64.26919,-50.68015,-10.65206,-111.0334,-35.10307,0.001067912,-0.1257102,0.09433498,0,0.3,0,0,0,0
638223381634150294,38.8975,18.49216,11.0666,41.09675,33.66818,-72.87273,-4.570632,-0.4441859,0.1400836,-35.22471,-8.447793,45.05199,0,0,0,95.48369,-65.22505,-50.00518,-10.65206,-111.0334,-35.10307,0.001067912,-0.1257102,0.09433498,0,0.3,0,0,0,0
638223381634510186,35.43418,19.00648,8.241585,37.288,32.86248,-69.86968,-4.570632,-0.4441859,0.1400836,-35.15147,-8.447793,45.05199,0,0,0,84.17953,-65.19405,-50.04743,-10.65206,-111.0334,-35.10307,0.001067912,-0.1257102,0.09433498,0,0.3,0,0,0,0
638223381634940048,31.19339,20.15201,5.860164,31.06216,31.69056,-68.25829,-4.570632,-0.4441859,0.1400836,-35.22471,-8.447793,45.05199,0,0,0,71.88934,-63.36244,-49.61567,-10.65206,-111.0334,-35.10307,0.001067912,-0.1257102,0.09433498,0,0.3,0,0,0,0
638223381635269939,28.83739,21.11052,5.113051,27.03368,30.59188,-67.96531,-4.570632,-0.4441859,0.1400836,-35.22471,-8.447793,45.12524,0,0,0,65.73365,-61.44096,-48.96555,-10.65206,-111.0334,-35.10307,0.001067912,-0.1257102,0.09433498,0,0.3,0,0,0,0
638223381635629825,25.86884,22.86388,4.506022,22.05301,28.90724,-67.81882,-4.570632,-0.4441859,0.1400836,-35.22471,-8.447793,45.05199,0,0,0,58.18194,-57.77559,-48.36298,-10.65206,-111.0334,-35.10307,0.001067912,-0.1257102,0.09433498,0,0.3,0,0,0,0
638223381635989907,24.50236,23.84577,4.389286,19.78241,27.88181,-67.89206,-4.570632,-0.4441859,0.1400836,-35.22471,-8.447793,45.05199,0,0,0,54.81598,-55.69869,-48.08043,-10.65206,-111.0334,-35.10307,0.001067912,-0.1257102,0.09433498,0,0.3,0,0,0,0
638223381636449564,20.26157,26.97845,4.482675,12.82412,24.14631,-68.771,-4.570632,-0.4441859,0.1400836,-35.22471,-8.447793,45.05199,0,0,0,44.76385,-49.09715,-47.08767,-10.65206,-111.0334,-35.10307,0.001067912,-0.1257102,0.09433498,0,0.3,0,0,0,0
638223381636809453,18.87153,27.96033,4.646106,10.77325,22.97438,-69.21047,-4.570632,-0.4441859,0.1400836,-35.22471,-8.447793,45.12524,0,0,0,41.59074,-47.03931,-46.67612,-10.65206,-111.0334,-35.10307,0.001067912,-0.1257102,0.09433498,0,0.3,0,0,0,0
638223381637169333,16.16213,29.9241,4.996315,6.598277,20.48405,-70.52889,-4.570632,-0.4441859,0.1400836,-35.22471,-8.447793,45.12524,0,0,0,35.40314,-42.97135,-46.19029,-10.65206,-111.0334,-35.10307,0.001067912,-0.1257102,0.09433498,0,0.3,0,0,0,0
638223381637529363,13.38206,32.05152,5.72008,1.983831,17.99371,-72.28677,-4.570632,-0.4441859,0.1400836,-35.22471,-8.447793,45.05199,0,0,0,29.23462,-38.56963,-45.46522,-10.65206,-111.0334,-35.10307,0.001067912,-0.1257102,0.09433498,0,0.3,0,0,0,0
638223381637959081,9.659584,34.88028,7.284348,-4.681479,14.99066,-76.242,-4.570632,-0.4441859,0.1400836,-35.15147,-8.447793,45.05199,0,0,0,21.19263,-32.66574,-43.83926,-10.65206,-111.0334,-35.10307,0.001067912,-0.1257102,0.09433498,0,0.3,0,0,0,0
638223381638318970,7.185789,36.6804,8.405016,-9.149435,13.30602,-78.87884,-4.570632,-0.4441859,0.1400836,-35.15147,-8.447793,45.05199,0,0,0,15.81549,-28.91102,-42.9073,-10.65206,-111.0334,-35.10307,0.001067912,-0.1257102,0.09433498,0,0.3,0,0,0,0
638223381638678851,3.981634,39.29876,10.59966,-15.81474,10.74244,-82.90732,-4.570632,-0.4441859,0.1400836,-35.22471,-8.447793,45.05199,0,0,0,8.868631,-23.26547,-40.93572,-10.65206,-111.0334,-35.10307,0.001067912,-0.1257102,0.09433498,0,0.3,0,0,0,0
638223381639041924,1.107318,42.05739,13.42468,-22.91953,7.812634,-86.86256,-4.570632,-0.4441859,0.1400836,-35.22471,-8.447793,45.12524,0,0,0,2.511658,-17.02856,-38.40588,-10.65206,-111.0334,-35.10307,0.001067912,-0.1257102,0.09433498,0,0.3,0,0,0,0
638223381639467798,-1.908357,44.93291,16.92677,-30.61027,4.370111,-91.25727,-4.570632,-0.4441859,0.1400836,-35.22471,-8.447793,45.05199,0,0,0,-4.436612,-10.04076,-35.19611,-10.65206,-111.0334,-35.10307,0.001067912,-0.1257102,0.09433498,0,0.3,0,0,0,0
638223381639837678,-4.240793,47.27073,19.89187,-37.12909,1.586795,-94.5533,-4.570632,-0.4441859,0.1400836,-35.15147,-8.447793,45.05199,0,0,0,-10.0462,-4.089216,-32.86749,-10.65206,-111.0334,-35.10307,0.001067912,-0.1257102,0.09433498,0,0.3,0,0,0,0
638223381640187567,-5.348111,48.39288,21.36275,-40.20539,0.1951368,-95.79847,-4.570632,-0.4441859,0.1400836,-35.15147,-8.447793,45.05199,0,0,0,-12.78073,-1.130028,-31.82439,-10.65206,-111.0334,-35.10307,0.001067912,-0.1257102,0.09433498,0,0.3,0,0,0,0
638223381640547458,-7.986827,50.82421,24.77145,-46.50447,-2.368444,-97.92258,-4.570632,-0.4441859,0.1400836,-35.22471,-8.447793,45.05199,0,0,0,-19.46779,5.644472,-29.59804,-10.65206,-111.0334,-35.10307,0.001067912,-0.1257102,0.09433498,0,0.3,0,0,0,0
638223381640977313,-11.68574,53.6296,29.62768,-54.04872,-4.492554,-101.5848,-4.570632,-0.4441859,0.1400836,-35.22471,-8.521038,45.05199,0,0,0,-29.36884,14.80814,-26.35527,-10.65206,-111.0334,-35.10307,0.001067912,-0.1257102,0.09433498,0,0.3,0,0,0,0
638223381641337202,-13.3585,54.63486,31.6122,-57.63773,-5.078516,-103.3427,-4.570632,-0.4441859,0.1400836,-35.22471,-8.447793,45.05199,0,0,0,-33.98153,18.53136,-25.25074,-10.65206,-111.0334,-35.10307,0.001067912,-0.1257102,0.09433498,0,0.3,0,0,0,0
638223381641697087,-16.20925,55.33621,34.29713,-62.91139,-5.517986,-105.2471,-4.570632,-0.4441859,0.1400836,-35.22471,-8.447793,45.05199,0,0,0,-42.14684,22.86689,-23.36704,-10.65206,-111.0334,-35.10307,0.001067912,-0.1257102,0.09433498,0,0.3,0,0,0,0
638223381642056971,-19.29561,55.24269,36.7019,-67.52583,-5.225006,-107.005,-4.570632,-0.4441859,0.1400836,-35.22471,-8.447793,45.05199,0,0,0,-51.4564,25.99279,-21.37746,-10.65206,-111.0334,-35.10307,0.001067912,-0.1257102,0.09433498,0,0.3,0,0,0,0
638223381642486830,-22.57044,54.72837,39.50357,-72.57975,-4.199574,-109.0558,-4.570632,-0.4441859,0.1400836,-35.22471,-8.447793,45.05199,0,0,0,-62.11376,29.32925,-18.91404,-10.65206,-111.0334,-35.10307,0.001067912,-0.1257102,0.09433498,0,0.3,0,0,0,0
638223381642846716,-25.0678,53.76987,41.4414,-76.242,-3.027651,-110.8137,-4.570632,-0.4441859,0.1400836,-35.22471,-8.447793,45.05199,0,0,0,-70.78682,30.95315,-17.01497,-10.65206,-111.0334,-35.10307,0.001067912,-0.1257102,0.09433498,0,0.3,0,0,0,0
638223381643206609,-26.26936,53.06852,42.30524,-78.21963,-2.148709,-112.5716,-4.570632,-0.4441859,0.1400836,-35.22471,-8.447793,45.05199,0,0,0,-75.18741,31.32235,-16.01478,-10.65206,-111.0334,-35.10307,0.001067912,-0.1257102,0.09433498,0,0.3,0,0,0,0
638223381643566494,-28.31907,51.50218,43.89286,-81.22268,-0.3908245,-115.2084,-4.570632,-0.4441859,0.1400836,-35.22471,-8.447793,45.12524,0,0,0,-83.23566,31.61695,-13.88781,-10.65206,-111.0334,-35.10307,0.001067912,-0.1257102,0.09433498,0,0.3,0,0,0,0
638223381643996352,-30.20387,49.6553,45.71395,-83.78626,1.440305,-117.9185,-4.570632,-0.4441859,0.1400836,-35.15147,-8.447793,45.05199,0,0,0,-91.45412,31.87406,-11.24051,-10.65206,-111.0334,-35.10307,0.001067912,-0.1257102,0.09433498,0,0.3,0,0,0,0
638223381644356238,-31.78239,47.6214,47.18483,-86.56957,3.417924,-123.4119,-4.570632,-0.4441859,0.1400836,-35.22471,-8.447793,45.05199,0,0,0,-98.86073,31.22719,-8.794478,-10.65206,-111.0334,-35.10307,0.001067912,-0.1257102,0.09433498,0,0.3,0,0,0,0
638223381644726116,-33.26667,45.16669,48.32884,-89.3529,5.688524,-131.1759,-4.570632,-0.4441859,0.1400836,-35.22471,-8.447793,45.12524,0,0,0,-106.2114,29.25827,-6.453466,-10.65206,-111.0334,-35.10307,0.001067912,-0.1257102,0.09433498,0,0.3,0,0,0,0
638223381645086003,-34.75095,41.87036,49.19269,-92.2827,8.471841,-141.4302,-4.570632,-0.4441859,0.1400836,-35.22471,-8.447793,45.05199,0,0,0,-114.1355,25.2076,-3.830085,-10.65206,-111.0334,-35.10307,0.001067912,-0.1257102,0.09433498,0,0.3,0,0,0,0
638223381645515870,-35.64622,38.48052,49.19269,-94.77303,11.40165,-142.1627,-4.570632,-0.4441859,0.1400836,-35.22471,-8.447793,45.05199,0,0,0,-119.658,19.18033,-1.498039,-10.65206,-111.0334,-35.10307,0.001067912,-0.1257102,0.09433498,0,0.3,0,0,0,0
638223381645875752,-36.04674,35.81541,49.19269,-95.72523,13.30602,-142.1627,-4.570632,-0.4441859,0.1400836,-35.22471,-8.447793,45.12524,0,0,0,-123.0254,14.23667,0.689707,-10.65206,-111.0334,-35.10307,0.001067912,-0.1257102,0.09433498,0,0.3,0,0,0,0
638223381646235643,-36.3059,32.19178,48.93587,-96.0182,15.8696,-142.1627,-4.570632,-0.4441859,0.1400836,-35.15147,-8.447793,45.05199,0,0,0,-126.3489,6.794809,3.616108,-10.65206,-111.0334,-35.10307,0.001067912,-0.1257102,0.09433498,0,0.3,0,0,0,0
638223381646595522,-36.35302,30.32153,48.58566,-95.65198,17.04152,-142.2359,-4.570632,-0.4441859,0.1400836,-35.22471,-8.447793,45.12524,0,0,0,-127.5105,2.461047,4.89833,-10.65206,-111.0334,-35.10307,0.001067912,-0.1257102,0.09433498,0,0.3,0,0,0,0
638223381647025386,-36.40014,24.75752,47.09144,-93.96734,20.26431,-142.2359,-4.570632,-0.4441859,0.1400836,-35.22471,-8.447793,45.05199,0,0,0,-129.8195,-11.59457,7.731946,-10.65206,-111.0334,-35.10307,0.001067912,-0.1257102,0.09433498,0,0.3,0,0,0,0
638223381647355282,-36.40014,22.70024,46.46106,-93.45463,21.28975,-142.2359,-4.570632,-0.4441859,0.1400836,-35.22471,-8.447793,45.05199,0,0,0,-130.3665,-17.04673,8.473989,-10.65206,-111.0334,-35.10307,0.001067912,-0.1257102,0.09433498,0,0.3,0,0,0,0
638223381647725172,-36.3059,18.58567,45.03687,-91.91647,23.26737,-142.2359,-4.570632,-0.4441859,0.1400836,-35.22471,-8.447793,45.12524,0,0,0,-130.7046,-28.38037,9.544329,-10.65206,-111.0334,-35.10307,0.001067912,-0.1257102,0.09433498,0,0.3,0,0,0,0
638223381648085046,-35.99962,14.40097,43.75277,-89.64587,25.46472,-142.2359,-4.570632,-0.4441859,0.1400836,-35.22471,-8.447793,45.05199,0,0,0,-130.1215,-39.80778,10.74937,-10.65206,-111.0334,-35.10307,0.001067912,-0.1257102,0.09433498,0,0.3,0,0,0,0
638223381648544900,-35.4813,10.98776,40.74098,-86.78931,27.51558,-142.2359,-4.570632,-0.4441859,0.1400836,-35.22471,-8.447793,45.12524,0,0,0,-126.4976,-52.26859,9.115579,-10.65206,-111.0334,-35.10307,0.001067912,-0.1257102,0.09433498,0,0.3,0,0,0,0
638223381648874797,-34.96298,9.468172,38.49964,-85.10468,28.46777,-142.2359,-4.570632,-0.4441859,0.1400836,-35.22471,-8.447793,45.05199,0,0,0,-122.9444,-59.07528,7.474497,-10.65206,-111.0334,-35.10307,0.001067912,-0.1257102,0.09433498,0,0.3,0,0,0,0
638223381649214686,-34.44466,8.556422,37.00542,-83.78626,29.20022,-142.2359,-4.570632,-0.4441859,0.1400836,-35.22471,-8.447793,45.05199,0,0,0,-119.9817,-63.30021,6.586112,-10.65206,-111.0334,-35.10307,0.001067912,-0.1257102,0.09433498,0,0.3,0,0,0,0
638223381649574575,-33.03107,6.849813,34.34383,-80.63672,30.51864,-142.2359,-4.570632,-0.4441859,0.1400836,-35.15147,-8.447793,45.05199,0,0,0,-113.177,-70.84841,5.720671,-10.65206,-111.0334,-35.10307,0.001067912,-0.1257102,0.09433498,0,0.3,0,0,0,0
638223381649904468,-31.00491,6.101711,31.70559,-76.75472,31.69056,-142.2359,-4.570632,-0.4441859,0.1400836,-35.22471,-8.447793,45.05199,0,0,0,-104.4014,-75.92455,5.369367,-10.65206,-111.0334,-35.10307,0.001067912,-0.1257102,0.09433498,0,0.3,0,0,0,0
638223381650264497,-28.46043,6.148468,29.11404,-72.14028,32.93573,-142.2359,-4.570632,-0.4441859,0.1400836,-35.15147,-8.447793,45.12524,0,0,0,-94.10196,-78.86916,5.250036,-10.65206,-111.0334,-35.10307,0.001067912,-0.1257102,0.09433498,0,0.3,0,0,0,0
638223381650634231,-26.41072,6.171845,27.17622,-66.42715,34.40063,-142.2359,-4.570632,-0.4441859,0.1400836,-35.22471,-8.521038,45.05199,0,0,0,-86.06126,-80.9424,4.937888,-10.65206,-111.0334,-35.10307,0.001067912,-0.1257102,0.09433498,0,0.3,0,0,0,0
638223381650999185,-25.60968,6.288737,26.59254,-63.27761,35.13308,-142.0162,-4.570632,-0.4441859,0.1400836,-35.22471,-8.447793,45.12524,0,0,0,-83.09375,-81.28623,5.00489,-10.65206,-111.0334,-35.10307,0.001067912,-0.1257102,0.09433498,0,0.3,0,0,0,0
638223381651354746,-24.26676,6.779679,25.56526,-57.71098,36.305,-138.2807,-4.570632,-0.4441859,0.1400836,-35.22471,-8.447793,45.12524,0,0,0,-78.07214,-81.20208,4.828443,-10.65206,-111.0334,-35.10307,0.001067912,-0.1257102,0.09433498,0,0.3,0,0,0,0
638223381651704633,-22.92384,7.761563,23.464,-52.43733,37.1107,-124.5106,-4.570632,-0.4441859,0.1400836,-35.22471,-8.447793,45.12524,0,0,0,-72.14635,-80.96431,2.246266,-10.65206,-111.0334,-35.10307,0.001067912,-0.1257102,0.09433498,0,0.3,0,0,0,0
638223381652074526,-21.58092,8.860339,21.31605,-47.5299,36.89096,-112.7181,-4.570632,-0.4441859,0.1400836,-35.22471,-8.447793,45.05199,0,0,0,-66.29242,-80.33802,-0.7514606,-10.65206,-111.0334,-35.10307,0.001067912,-0.1257102,0.09433498,0,0.3,0,0,0,0
638223381652434399,-19.83749,9.701954,19.33154,-42.84221,36.08527,-101.7313,-4.570632,-0.4441859,0.1400836,-35.22471,-8.447793,45.05199,0,0,0,-59.58577,-80.00904,-3.183318,-10.65206,-111.0334,-35.10307,0.001067912,-0.1257102,0.09433498,0,0.3,0,0,0,0
638223381652764292,-18.68305,9.88898,18.28091,-40.42512,35.57256,-97.40987,-4.570632,-0.4441859,0.1400836,-35.15147,-8.447793,45.12524,0,0,0,-55.48081,-80.36835,-4.279181,-10.65206,-111.0334,-35.10307,0.001067912,-0.1257102,0.09433498,0,0.3,0,0,0,0
638223381653114183,-14.84277,9.982493,16.48317,-33.46683,34.91335,-87.66826,-4.570632,-0.4441859,0.1400836,-35.22471,-8.447793,45.05199,0,0,0,-43.3351,-81.40388,-4.827628,-10.65206,-111.0334,-35.10307,0.001067912,-0.1257102,0.09433498,0,0.3,0,0,0,0
638223381653454073,-11.37946,9.982493,15.87614,-27.46073,34.62037,-81.22268,-4.570632,-0.4441859,0.1400836,-35.22471,-8.447793,45.05199,0,0,0,-33.10995,-81.79755,-3.838583,-10.65206,-111.0334,-35.10307,0.001067912,-0.1257102,0.09433498,0,0.3,0,0,0,0
638223381653813962,-9.141265,9.982493,15.52593,-23.359,34.54712,-77.56042,-4.570632,-0.4441859,0.1400836,-35.22471,-8.447793,45.05199,0,0,0,-26.53521,-82.01812,-3.445709,-10.65206,-111.0334,-35.10307,0.001067912,-0.1257102,0.09433498,0,0.3,0,0,0,0
638223381654183842,-4.193673,10.05263,14.70878,-13.91037,34.40063,-70.60213,-4.570632,-0.4441859,0.1400836,-35.15147,-8.447793,45.12524,0,0,0,-12.07792,-82.35337,-3.631039,-10.65206,-111.0334,-35.10307,0.001067912,-0.1257102,0.09433498,0,0.3,0,0,0,0
638223381654603711,0.7303588,10.12276,14.17179,-4.681479,34.40063,-66.13418,-4.570632,-0.4441859,0.1400836,-35.22471,-8.521038,45.05199,0,0,0,2.089488,-82.50432,-4.441032,-10.65206,-111.0334,-35.10307,0.001067912,-0.1257102,0.09433498,0,0.3,0,0,0,0
638223381654963593,5.98423,10.14614,14.17179,4.986883,34.40063,-63.64384,-4.570632,-0.4441859,0.1400836,-35.22471,-8.447793,45.05199,0,0,0,17.08867,-82.45076,-5.33051,-10.65206,-111.0334,-35.10307,0.001067912,-0.1257102,0.09433498,0,0.3,0,0,0,0
638223381655323477,11.07318,10.45006,14.522,15.16796,34.25414,-62.25218,-4.570632,-0.4441859,0.1400836,-35.22471,-8.447793,45.05199,0,0,0,31.60888,-81.55285,-6.838048,-10.65206,-111.0334,-35.10307,0.001067912,-0.1257102,0.09433498,0,0.3,0,0,0,0
638223381655693358,15.36109,10.941,14.84886,24.54334,34.0344,-61.66622,-4.570632,-0.4441859,0.1400836,-35.22471,-8.447793,45.05199,0,0,0,43.73515,-80.23724,-9.148363,-10.65206,-111.0334,-35.10307,0.001067912,-0.1257102,0.09433498,0,0.3,0,0,0,0
638223381656123220,20.59141,12.60085,16.10961,35.45687,32.86248,-61.44649,-4.570632,-0.4441859,0.1400836,-35.15147,-8.447793,45.12524,0,0,0,58.78316,-75.67236,-11.88868,-10.65206,-111.0334,-35.10307,0.001067912,-0.1257102,0.09433498,0,0.3,0,0,0,0
638223381656483121,23.60708,14.56462,17.5338,42.6349,31.25109,-61.66622,-4.570632,-0.4441859,0.1400836,-35.22471,-8.447793,45.05199,0,0,0,67.77379,-70.27072,-13.27417,-10.65206,-111.0334,-35.10307,0.001067912,-0.1257102,0.09433498,0,0.3,0,0,0,0
638223381656852987,25.8924,17.46352,19.00467,49.66644,28.54102,-62.91139,-4.570632,-0.4441859,0.1400836,-35.22471,-8.521038,45.05199,0,0,0,74.51045,-62.71323,-14.84995,-10.65206,-111.0334,-35.10307,0.001067912,-0.1257102,0.09433498,0,0.3,0,0,0,0
638223381657185187,26.57564,19.1935,19.6584,52.44975,26.92962,-64.15656,-4.570632,-0.4441859,0.1400836,-35.22471,-8.447793,45.05199,0,0,0,76.41143,-58.38761,-15.5977,-10.65206,-111.0334,-35.10307,0.001067912,-0.1257102,0.09433498,0,0.3,0,0,0,0
638223381657657933,27.14108,25.50562,21.64292,57.7234,21.07001,-68.47802,-4.570632,-0.4441859,0.1400836,-35.22471,-8.447793,45.12524,0,0,0,77.33961,-43.17843,-17.48195,-10.65206,-111.0334,-35.10307,0.001067912,-0.1257102,0.09433498,0,0.3,0,0,0,0
638223381657987831,26.99972,27.70317,22.36668,58.60235,19.01915,-69.94292,-4.570632,-0.4441859,0.1400836,-35.22471,-8.447793,45.12524,0,0,0,76.63641,-37.97452,-17.94073,-10.65206,-111.0334,-35.10307,0.001067912,-0.1257102,0.09433498,0,0.3,0,0,0,0
638223381658354800,26.2458,32.4957,24.16442,59.77427,13.52576,-73.01923,-4.570632,-0.4441859,0.1400836,-35.22471,-8.447793,45.05199,0,0,0,73.87746,-26.67467,-18.51363,-10.65206,-111.0334,-35.10307,0.001067912,-0.1257102,0.09433498,0,0.3,0,0,0,0
638223381658714677,24.87932,37.40512,26.19563,60.50672,6.274486,-76.90121,-4.570632,-0.4441859,0.1400836,-35.22471,-8.447793,45.05199,0,0,0,69.33006,-15.30085,-18.84989,-10.65206,-111.0334,-35.10307,0.001067912,-0.1257102,0.09433498,0,0.3,0,0,0,0
638223381659174536,23.32436,41.58982,27.87663,60.94619,-3.833347,-81.36917,-4.570632,-0.4441859,0.1400836,-35.22471,-8.447793,45.05199,0,0,0,64.17527,-6.008735,-19.51091,-10.65206,-111.0334,-35.10307,0.001067912,-0.1257102,0.09433498,0,0.3,0,0,0,0
638223381659534417,22.90028,42.85225,28.41362,60.87295,-8.594284,-83.20029,-4.570632,-0.4441859,0.1400836,-35.22471,-8.521038,45.05199,0,0,0,62.73241,-3.243374,-19.84362,-10.65206,-111.0334,-35.10307,0.001067912,-0.1257102,0.09433498,0,0.3,0,0,0,0
638223381659894304,22.594,44.13805,28.97396,60.43347,-14.16092,-85.10468,-4.570632,-0.4441859,0.1400836,-35.22471,-8.447793,45.05199,0,0,0,61.58583,-0.4463696,-20.35587,-10.65206,-111.0334,-35.10307,0.001067912,-0.1257102,0.09433498,0,0.3,0,0,0,0
638223381660254183,22.28772,45.5875,29.62768,59.77427,-18.55563,-86.71607,-4.570632,-0.4441859,0.1400836,-35.15147,-8.447793,45.05199,0,0,0,60.39457,2.689254,-21.00291,-10.65206,-111.0334,-35.10307,0.001067912,-0.1257102,0.09433498,0,0.3,0,0,0,0
638223381660684046,21.76941,47.43437,30.35144,58.38261,-21.77841,-88.03448,-4.570632,-0.4441859,0.1400836,-35.22471,-8.521038,45.12524,0,0,0,58.44371,6.489339,-22.00369,-10.65206,-111.0334,-35.10307,0.001067912,-0.1257102,0.09433498,0,0.3,0,0,0,0
638223381661043935,20.77989,49.49166,31.05186,56.33175,-24.19551,-88.84018,-4.570632,-0.4441859,0.1400836,-35.22471,-8.447793,45.05199,0,0,0,55.13348,10.49648,-23.05646,-10.65206,-111.0334,-35.10307,0.001067912,-0.1257102,0.09433498,0,0.3,0,0,0,0
638223381661393830,19.88461,50.98786,31.42542,54.72035,-25.36743,-89.05991,-4.570632,-0.4441859,0.1400836,-35.22471,-8.447793,45.12524,0,0,0,52.19892,13.17447,-24.03094,-10.65206,-111.0334,-35.10307,0.001067912,-0.1257102,0.09433498,0,0.3,0,0,0,0
638223381661763705,17.36369,54.56472,32.07914,50.10591,-27.85776,-88.84018,-4.570632,-0.4441859,0.1400836,-35.15147,-8.447793,45.05199,0,0,0,44.2088,19.01022,-26.96564,-10.65206,-111.0334,-35.10307,0.001067912,-0.1257102,0.09433498,0,0.3,0,0,0,0
638223381662193710,14.08886,58.7728,33.66676,42.34192,-30.42134,-84.6652,-4.570632,-0.4441859,0.1400836,-35.22471,-8.447793,45.05199,0,0,0,34.82389,26.39603,-29.59609,-10.65206,-111.0334,-35.10307,0.001067912,-0.1257102,0.09433498,0,0.3,0,0,0,0
638223381662553456,10.7669,62.93412,36.11822,32.52707,-33.20466,-81.14944,-4.570632,-0.4441859,0.1400836,-35.22471,-8.447793,45.05199,0,0,0,26.0194,34.37557,-31.52218,-10.65206,-111.0334,-35.10307,0.001067912,-0.1257102,0.09433498,0,0.3,0,0,0,0
638223381662913338,7.821907,65.99667,38.12609,22.56572,-35.25552,-79.24506,-4.570632,-0.4441859,0.1400836,-35.22471,-8.447793,45.05199,0,0,0,18.58708,40.26782,-33.04579,-10.65206,-111.0334,-35.10307,0.001067912,-0.1257102,0.09433498,0,0.3,0,0,0,0
638223381663273238,5.348111,68.70854,40.04056,11.87193,-36.3542,-75.87578,-4.570632,-0.4441859,0.1400836,-35.22471,-8.521038,45.05199,0,0,0,12.50918,45.50692,-34.72519,-10.65206,-111.0334,-35.10307,0.001067912,-0.1257102,0.09433498,0,0.3,0,0,0,0
638223381663703084,3.204155,72.19189,42.32859,-0.5065048,-36.42745,-72.653,-4.570632,-0.4441859,0.1400836,-35.22471,-8.447793,45.05199,0,0,0,7.298507,51.72568,-37.97626,-10.65206,-111.0334,-35.10307,0.001067912,-0.1257102,0.09433498,0,0.3,0,0,0,0
638223381664052977,2.120397,75.32457,44.8501,-8.856454,-36.20771,-69.72319,-4.570632,-0.4441859,0.1400836,-35.22471,-8.447793,45.05199,0,0,0,4.729602,57.81059,-40.60855,-10.65206,-111.0334,-35.10307,0.001067912,-0.1257102,0.09433498,0,0.3,0,0,0,0
638223381664402868,1.696317,77.10131,46.18089,-12.88494,-36.20771,-67.96531,-4.570632,-0.4441859,0.1400836,-35.22471,-8.447793,45.05199,0,0,0,3.729359,61.0057,-42.42185,-10.65206,-111.0334,-35.10307,0.001067912,-0.1257102,0.09433498,0,0.3,0,0,0,0
638223381664762754,1.272238,81.02885,48.39888,-19.33051,-36.42745,-65.54821,-4.570632,-0.4441859,0.1400836,-35.22471,-8.447793,45.05199,0,0,0,2.675704,66.53222,-47.86835,-10.65206,-111.0334,-35.10307,0.001067912,-0.1257102,0.09433498,0,0.3,0,0,0,0
638223381665222603,1.130878,85.12004,50.3367,-23.13926,-36.50069,-65.40173,-4.570632,-0.4441859,0.1400836,-35.22471,-8.447793,45.05199,0,0,0,2.249892,71.10268,-54.37435,-10.65206,-111.0334,-35.10307,0.001067912,-0.1257102,0.09433498,0,0.3,0,0,0,0
638223381665572492,0.8952785,89.6554,51.45737,-25.48311,-36.3542,-67.67233,-4.570632,-0.4441859,0.1400836,-35.15147,-8.447793,45.05199,0,0,0,1.642195,73.60764,-63.26183,-10.65206,-111.0334,-35.10307,0.001067912,-0.1257102,0.09433498,0,0.3,0,0,0,0
638223381665932373,0.09423985,93.8401,51.97101,-26.87477,-35.40202,-70.16266,-4.570632,-0.4441859,0.1400836,-35.15147,-8.447793,45.05199,0,0,0,0.1580795,74.249,-72.2412,-10.65206,-111.0334,-35.10307,0.001067912,-0.1257102,0.09433498,0,0.3,0,0,0,0
638223381666292259,-1.154438,98.0248,53.13838,-29.14537,-33.71738,-72.43327,-4.570632,-0.4441859,0.1400836,-35.22471,-8.447793,45.05199,0,0,0,-1.774494,75.3996,-80.29223,-10.65206,-111.0334,-35.10307,0.001067912,-0.1257102,0.09433498,0,0.3,0,0,0,0
638223381666752113,-4.122993,101.7653,54.88942,-34.27253,-31.22704,-73.89817,-4.570632,-0.4441859,0.1400836,-35.22471,-8.447793,45.05199,0,0,0,-5.888105,77.20135,-86.66637,-10.65206,-111.0334,-35.10307,0.001067912,-0.1257102,0.09433498,0,0.3,0,0,0,0
638223381667112000,-7.656987,101.6484,54.46917,-38.59399,-28.88319,-73.16571,-4.570632,-0.4441859,0.1400836,-35.22471,-8.521038,45.05199,0,0,0,-10.8721,76.4585,-87.48107,-10.65206,-111.0334,-35.10307,0.001067912,-0.1257102,0.09433498,0,0.3,0,0,0,0
638223381667471884,-13.02866,101.6718,54.91277,-45.33255,-24.92796,-70.96836,-4.570632,-0.4441859,0.1400836,-35.22471,-8.447793,45.12524,0,0,0,-18.51749,77.29002,-88.32457,-10.65206,-111.0334,-35.10307,0.001067912,-0.1257102,0.09433498,0,0.3,0,0,0,0
638223381667841766,-18.98933,101.6484,55.26298,-52.65706,-20.24026,-70.08942,-4.570632,-0.4441859,0.1400836,-35.22471,-8.447793,45.12524,0,0,0,-26.89681,77.9694,-90.18871,-10.65206,-111.0334,-35.10307,0.001067912,-0.1257102,0.09433498,0,0.3,0,0,0,0
638223381668261639,-24.14896,101.4146,55.77662,-60.20132,-15.62582,-72.79948,-4.570632,-0.4441859,0.1400836,-35.15147,-8.447793,45.05199,0,0,0,-34.31191,79.0636,-91.82027,-10.65206,-111.0334,-35.10307,0.001067912,-0.1257102,0.09433498,0,0.3,0,0,0,0
638223381668631512,-27.47091,100.8536,55.75327,-65.98769,-11.89032,-78.36612,-4.570632,-0.4441859,0.1400836,-35.22471,-8.447793,45.05199,0,0,0,-39.26583,79.27084,-92.82745,-10.65206,-111.0334,-35.10307,0.001067912,-0.1257102,0.09433498,0,0.3,0,0,0,0
638223381668991399,-29.00231,100.5029,55.68323,-68.91749,-9.839451,-82.32136,-4.570632,-0.4441859,0.1400836,-35.22471,-8.447793,45.05199,0,0,0,-41.61447,79.28737,-93.28265,-10.65206,-111.0334,-35.10307,0.001067912,-0.1257102,0.09433498,0,0.3,0,0,0,0
638223381669351288,-31.66459,99.77817,55.63654,-74.63062,-5.737722,-91.55025,-4.570632,-0.4441859,0.1400836,-35.15147,-8.447793,45.12524,0,0,0,-45.89576,79.49461,-93.9356,-10.65206,-111.0334,-35.10307,0.001067912,-0.1257102,0.09433498,0,0.3,0,0,0,0
638223381669787112,-34.75095,98.11832,54.98281,-80.70996,-1.489502,-103.5625,-4.570632,-0.4441859,0.1400836,-35.22471,-8.521038,45.05199,0,0,0,-51.51729,78.84445,-94.09074,-10.65206,-111.0334,-35.10307,0.001067912,-0.1257102,0.09433498,0,0.3,0,0,0,0
638223381670150039,-36.23522,96.71563,54.25905,-83.12706,0.3416272,-110.2278,-4.570632,-0.4441859,0.1400836,-35.15147,-8.447793,45.12524,0,0,0,-54.76056,77.89245,-93.62561,-10.65206,-111.0334,-35.10307,0.001067912,-0.1257102,0.09433498,0,0.3,0,0,0,0
638223381670509924,-38.40274,94.09727,53.13838,-86.86256,3.417924,-120.9216,-4.570632,-0.4441859,0.1400836,-35.15147,-8.447793,45.05199,0,0,0,-60.35666,76.36459,-92.20631,-10.65206,-111.0334,-35.10307,0.001067912,-0.1257102,0.09433498,0,0.3,0,0,0,0
638223381670849816,-40.59381,90.89445,51.80758,-90.96429,6.567466,-136.889,-4.570632,-0.4441859,0.1400836,-35.22471,-8.447793,45.05199,0,0,0,-66.84123,74.23286,-90.34795,-10.65206,-111.0334,-35.10307,0.001067912,-0.1257102,0.09433498,0,0.3,0,0,0,0
638223381671349657,-43.09117,85.89153,49.61294,-95.65198,10.37621,-141.9429,-4.570632,-0.4441859,0.1400836,-35.15147,-8.447793,45.05199,0,0,0,-75.91596,69.95346,-87.19936,-10.65206,-111.0334,-35.10307,0.001067912,-0.1257102,0.09433498,0,0.3,0,0,0,0
638223381671709545,-44.26917,82.59519,47.90859,-97.70284,12.35384,-142.0894,-4.570632,-0.4441859,0.1400836,-35.15147,-8.447793,45.05199,0,0,0,-81.07051,66.20135,-85.18447,-10.65206,-111.0334,-35.10307,0.001067912,-0.1257102,0.09433498,0,0.3,0,0,0,0
638223381672079439,-46.13041,77.5455,45.20031,-99.75371,15.2104,-142.1627,-4.570632,-0.4441859,0.1400836,-35.22471,-8.447793,45.05199,0,0,0,-88.9474,59.59949,-82.84486,-10.65206,-111.0334,-35.10307,0.001067912,-0.1257102,0.09433498,0,0.3,0,0,0,0
638223381672439311,-47.92096,72.8231,43.00566,-101.3651,18.06696,-142.1627,-4.570632,-0.4441859,0.1400836,-35.15147,-8.447793,45.05199,0,0,0,-96.73769,53.23523,-81.00505,-10.65206,-111.0334,-35.10307,0.001067912,-0.1257102,0.09433498,0,0.3,0,0,0,0
638223381672829183,-49.49948,68.61503,41.16123,-102.83,20.77703,-142.0894,-4.570632,-0.4441859,0.1400836,-35.22471,-8.447793,45.05199,0,0,0,-103.7125,47.12511,-79.76949,-10.65206,-111.0334,-35.10307,0.001067912,-0.1257102,0.09433498,0,0.3,0,0,0,0
638223381673189070,-50.20628,66.74477,40.29738,-103.4892,22.09544,-142.1627,-4.570632,-0.4441859,0.1400836,-35.22471,-8.521038,45.05199,0,0,0,-106.7205,44.16024,-79.45363,-10.65206,-111.0334,-35.10307,0.001067912,-0.1257102,0.09433498,0,0.3,0,0,0,0
638223381673548951,-51.57275,63.21466,38.63972,-104.6611,24.80551,-142.1627,-4.570632,-0.4441859,0.1400836,-35.22471,-8.447793,45.05199,0,0,0,-112.3084,38.23365,-79.24844,-10.65206,-111.0334,-35.10307,0.001067912,-0.1257102,0.09433498,0,0.3,0,0,0,0
638223381673908843,-52.49159,60.26901,37.05211,-105.9795,26.70989,-142.1627,-4.570632,-0.4441859,0.1400836,-35.22471,-8.447793,45.12524,0,0,0,-116.198,32.72124,-79.16102,-10.65206,-111.0334,-35.10307,0.001067912,-0.1257102,0.09433498,0,0.3,0,0,0,0
638223381674338701,-53.41043,56.90255,35.20768,-107.6642,28.54102,-142.1627,-4.570632,-0.4441859,0.1400836,-35.22471,-8.447793,45.05199,0,0,0,-120.1977,26.10706,-79.11727,-10.65206,-111.0334,-35.10307,0.001067912,-0.1257102,0.09433498,0,0.3,0,0,0,0
638223381674688590,-53.88163,54.79851,34.39052,-108.7629,29.41996,-142.1627,-4.570632,-0.4441859,0.1400836,-35.22471,-8.447793,45.05199,0,0,0,-122.9394,22.27292,-78.64065,-10.65206,-111.0334,-35.10307,0.001067912,-0.1257102,0.09433498,0,0.3,0,0,0,0
638223381675058473,-54.23503,51.31516,33.19981,-110.2278,30.44539,-142.0894,-4.570632,-0.4441859,0.1400836,-35.22471,-8.447793,45.05199,0,0,0,-126.8785,15.85968,-76.9602,-10.65206,-111.0334,-35.10307,0.001067912,-0.1257102,0.09433498,0,0.3,0,0,0,0
638223381675418356,-54.35283,48.93058,32.35931,-110.9602,30.95811,-142.0894,-4.570632,-0.4441859,0.1400836,-35.22471,-8.447793,45.05199,0,0,0,-129.1904,11.24261,-75.69778,-10.65206,-111.0334,-35.10307,0.001067912,-0.1257102,0.09433498,0,0.3,0,0,0,0
638223381675838227,-54.32927,42.50157,30.81839,-112.7181,32.05679,-142.0894,-4.570632,-0.4441859,0.1400836,-35.15147,-8.521038,45.05199,0,0,0,-135.3681,-1.077726,-71.18301,-10.65206,-111.0334,-35.10307,0.001067912,-0.1257102,0.09433498,0,0.3,0,0,0,0
638223381676208106,-54.23503,40.37416,30.53822,-113.1576,32.49626,-142.0894,-4.570632,-0.4441859,0.1400836,-35.22471,-8.447793,45.05199,0,0,0,-137.4117,-5.122097,-69.37318,-10.65206,-111.0334,-35.10307,0.001067912,-0.1257102,0.09433498,0,0.3,0,0,0,0
638223381676567994,-53.71671,36.04919,30.2814,-113.9633,33.22871,-142.0894,-4.570632,-0.4441859,0.1400836,-35.15147,-8.447793,45.05199,0,0,0,-141.1132,-13.33187,-64.75542,-10.65206,-111.0334,-35.10307,0.001067912,-0.1257102,0.09433498,0,0.3,0,0,0,0
638223381676937875,-53.03347,31.65409,29.97789,-114.6225,33.96116,-142.1627,-4.570632,-0.4441859,0.1400836,-35.22471,-8.447793,45.12524,0,0,0,-143.9313,-22.1795,-60.02178,-10.65206,-111.0334,-35.10307,0.001067912,-0.1257102,0.09433498,0,0.3,0,0,0,0
638223381677367735,-51.83192,26.01994,29.67438,-113.7435,35.20633,-142.1627,-4.570632,-0.4441859,0.1400836,-35.15147,-8.447793,45.05199,0,0,0,-146.1166,-34.01305,-53.49928,-10.65206,-111.0334,-35.10307,0.001067912,-0.1257102,0.09433498,0,0.3,0,0,0,0
638223381677727622,-51.12512,23.35482,29.65103,-112.9378,35.86554,-142.1627,-4.570632,-0.4441859,0.1400836,-35.22471,-8.447793,45.05199,0,0,0,-146.6687,-39.67528,-50.10938,-10.65206,-111.0334,-35.10307,0.001067912,-0.1257102,0.09433498,0,0.3,0,0,0,0
638223381678067517,-50.04136,19.94161,29.65103,-111.5462,36.59798,-142.1627,-4.570632,-0.4441859,0.1400836,-35.22471,-8.447793,45.05199,0,0,0,-146.652,-47.05779,-45.47461,-10.65206,-111.0334,-35.10307,0.001067912,-0.1257102,0.09433498,0,0.3,0,0,0,0
638223381678417401,-49.52304,18.4454,29.67438,-110.9602,36.96421,-142.1627,-4.570632,-0.4441859,0.1400836,-35.22471,-8.447793,45.05199,0,0,0,-146.4412,-50.3195,-43.3792,-10.65206,-111.0334,-35.10307,0.001067912,-0.1257102,0.09433498,0,0.3,0,0,0,0
638223381678887252,-47.92096,14.63475,30.60827,-108.6164,37.62342,-142.1627,-4.570632,-0.4441859,0.1400836,-35.15147,-8.447793,45.05199,0,0,0,-146.1588,-57.72844,-36.38249,-10.65206,-111.0334,-35.10307,0.001067912,-0.1257102,0.09433498,0,0.3,0,0,0,0
638223381679247137,-47.16704,13.18531,32.12584,-107.3712,37.76991,-142.1627,-4.570632,-0.4441859,0.1400836,-35.15147,-8.447793,45.05199,0,0,0,-147.2159,-59.16445,-31.86916,-10.65206,-111.0334,-35.10307,0.001067912,-0.1257102,0.09433498,0,0.3,0,0,0,0
638223381679607021,-46.7194,12.46058,33.26986,-106.7852,37.69667,-142.1627,-4.570632,-0.4441859,0.1400836,-35.22471,-8.447793,45.05199,0,0,0,-148.0489,-59.37077,-28.93044,-10.65206,-111.0334,-35.10307,0.001067912,-0.1257102,0.09433498,0,0.3,0,0,0,0
638223381679946913,-45.80056,11.01113,36.32835,-105.3936,37.62342,-142.1627,-4.570632,-0.4441859,0.1400836,-35.22471,-8.447793,45.05199,0,0,0,-150.4761,-58.61165,-22.0213,-10.65206,-111.0334,-35.10307,0.001067912,-0.1257102,0.09433498,0,0.3,0,0,0,0
638223381680406952,-45.02308,9.63182,40.01722,-103.8554,37.62342,-142.2359,-4.570632,-0.4441859,0.1400836,-35.22471,-8.447793,45.05199,0,0,0,-153.6572,-56.46464,-14.81656,-10.65206,-111.0334,-35.10307,0.001067912,-0.1257102,0.09433498,0,0.3,0,0,0,0
638223381680766823,-44.29272,8.20575,44.26641,-101.8046,37.55017,-142.2359,-4.570632,-0.4441859,0.1400836,-35.22471,-8.447793,45.12524,0,0,0,-157.1666,-53.10939,-7.254471,-10.65206,-111.0334,-35.10307,0.001067912,-0.1257102,0.09433498,0,0.3,0,0,0,0
638223381681126712,-43.58593,6.662788,49.146,-99.60722,37.62342,-142.1627,-4.570632,-0.4441859,0.1400836,-35.22471,-8.447793,45.12524,0,0,0,-160.8554,-48.40672,0.6478584,-10.65206,-111.0334,-35.10307,0.001067912,-0.1257102,0.09433498,0,0.3,0,0,0,0
638223381681486820,-42.94981,5.564013,53.16172,-97.40987,37.62342,-142.1627,-4.570632,-0.4441859,0.1400836,-35.15147,-8.447793,45.05199,0,0,0,-163.1482,-43.67179,6.912603,-10.65206,-111.0334,-35.10307,0.001067912,-0.1257102,0.09433498,0,0.3,0,0,0,0
638223381681918647,-42.31369,5.026314,56.29026,-95.28575,37.55017,-142.1627,-4.570632,-0.4441859,0.1400836,-35.22471,-8.447793,45.05199,0,0,0,-164.1004,-38.97414,11.9075,-10.65206,-111.0334,-35.10307,0.001067912,-0.1257102,0.09433498,0,0.3,0,0,0,0
638223381682271784,-41.70113,4.932801,56.94398,-94.11383,37.55017,-142.1627,-4.570632,-0.4441859,0.1400836,-35.15147,-8.447793,45.05199,0,0,0,-162.7334,-37.92052,14.29073,-10.65206,-111.0334,-35.10307,0.001067912,-0.1257102,0.09433498,0,0.3,0,0,0,0
638223381682641668,-40.87653,4.769154,56.87394,-92.35595,37.55017,-142.1627,-4.570632,-0.4441859,0.1400836,-35.22471,-8.447793,45.05199,0,0,0,-160.0509,-38.4366,16.57085,-10.65206,-111.0334,-35.10307,0.001067912,-0.1257102,0.09433498,0,0.3,0,0,0,0
638223381683001552,-40.49957,4.488615,56.78055,-91.47701,37.62342,-142.1627,-4.570632,-0.4441859,0.1400836,-35.15147,-8.447793,45.05199,0,0,0,-158.7878,-39.26933,17.56948,-10.65206,-111.0334,-35.10307,0.001067912,-0.1257102,0.09433498,0,0.3,0,0,0,0
638223381683421418,-39.7221,3.576865,56.61712,-89.3529,38.06289,-142.2359,-4.570632,-0.4441859,0.1400836,-35.22471,-8.521038,45.12524,0,0,0,-156.2124,-41.70396,19.66113,-10.65206,-111.0334,-35.10307,0.001067912,-0.1257102,0.09433498,0,0.3,0,0,0,0
638223381683781308,-38.85038,2.104038,55.94005,-86.86256,39.08832,-142.2359,-4.570632,-0.4441859,0.1400836,-35.22471,-8.447793,45.12524,0,0,0,-152.8917,-46.43818,21.46694,-10.65206,-111.0334,-35.10307,0.001067912,-0.1257102,0.09433498,0,0.3,0,0,0,0
638223381684141191,-37.74306,0.3039166,54.98281,-84.15249,40.40673,-142.1627,-4.570632,-0.4441859,0.1400836,-35.22471,-8.447793,45.12524,0,0,0,-148.4756,-52.46185,23.45694,-10.65206,-111.0334,-35.10307,0.001067912,-0.1257102,0.09433498,0,0.3,0,0,0,0
638223381684501074,-36.44726,-1.075397,53.55863,-81.00294,42.01813,-142.1627,-4.570632,-0.4441859,0.1400836,-35.22471,-8.447793,45.05199,0,0,0,-142.9374,-58.36262,25.19117,-10.65206,-111.0334,-35.10307,0.001067912,-0.1257102,0.09433498,0,0.3,0,0,0,0
638223381684930940,-34.68026,-1.028641,48.86583,-77.8534,44.21548,-142.1627,-4.570632,-0.4441859,0.1400836,-35.15147,-8.447793,45.05199,0,0,0,-133.0108,-66.76483,23.88342,-10.65206,-111.0334,-35.10307,0.001067912,-0.1257102,0.09433498,0,0.3,0,0,0,0
638223381685260831,-33.14886,-1.052019,46.25093,-76.16876,45.75363,-142.2359,-4.570632,-0.4441859,0.1400836,-35.15147,-8.447793,45.05199,0,0,0,-125.5798,-71.31003,23.93032,-10.65206,-111.0334,-35.10307,0.001067912,-0.1257102,0.09433498,0,0.3,0,0,0,0
638223381685630713,-31.09915,-1.052019,44.17303,-74.1179,47.87774,-141.9429,-4.570632,-0.4441859,0.1400836,-35.22471,-8.447793,45.05199,0,0,0,-116.8625,-74.74211,25.38171,-10.65206,-111.0334,-35.10307,0.001067912,-0.1257102,0.09433498,0,0.3,0,0,0,0
638223381685990600,-30.20387,-1.028641,43.28583,-73.16571,48.97642,-141.7232,-4.570632,-0.4441859,0.1400836,-35.22471,-8.521038,45.05199,0,0,0,-113.0711,-76.11504,25.89537,-10.65206,-111.0334,-35.10307,0.001067912,-0.1257102,0.09433498,0,0.3,0,0,0,0
638223381686460462,-27.98923,-1.005263,40.46081,-70.89511,51.24702,-142.0894,-4.570632,-0.4441859,0.1400836,-35.22471,-8.447793,45.05199,0,0,0,-103.1834,-80.44887,25.79778,-10.65206,-111.0334,-35.10307,0.001067912,-0.1257102,0.09433498,0,0.3,0,0,0,0
638223381686820338,-27.09396,-1.005263,39.48022,-70.23591,51.61324,-141.9429,-4.570632,-0.4441859,0.1400836,-35.22471,-8.521038,45.05199,0,0,0,-99.34069,-81.91493,25.82924,-10.65206,-111.0334,-35.10307,0.001067912,-0.1257102,0.09433498,0,0.3,0,0,0,0
638223381687180221,-25.16204,-0.9818845,37.89261,-67.52583,52.27245,-139.1596,-4.570632,-0.4441859,0.1400836,-35.22471,-8.447793,45.05199,0,0,0,-91.51218,-84.17004,26.45821,-10.65206,-111.0334,-35.10307,0.001067912,-0.1257102,0.09433498,0,0.3,0,0,0,0
638223381687550104,-22.92384,-0.9818845,36.53847,-62.98463,52.78517,-128.5391,-4.570632,-0.4441859,0.1400836,-35.22471,-8.447793,45.05199,0,0,0,-82.85676,-86.07615,27.57194,-10.65206,-111.0334,-35.10307,0.001067912,-0.1257102,0.09433498,0,0.3,0,0,0,0
638223381687979964,-18.98933,-0.9818845,33.71345,-53.90223,53.22464,-116.8931,-4.570632,-0.4441859,0.1400836,-35.15147,-8.447793,45.05199,0,0,0,-67.4684,-89.85883,27.71109,-10.65206,-111.0334,-35.10307,0.001067912,-0.1257102,0.09433498,0,0.3,0,0,0,0
638223381688310234,-16.63333,-0.9818845,32.33596,-47.82288,53.37113,-110.887,-4.570632,-0.4441859,0.1400836,-35.15147,-8.447793,45.05199,0,0,0,-58.58223,-91.60604,27.74341,-10.65206,-111.0334,-35.10307,0.001067912,-0.1257102,0.09433498,0,0.3,0,0,0,0
638223381688653813,-12.81662,-0.9818845,30.70166,-37.93478,53.44437,-103.2695,-4.570632,-0.4441859,0.1400836,-35.22471,-8.447793,45.05199,0,0,0,-44.68008,-93.59446,28.04639,-10.65206,-111.0334,-35.10307,0.001067912,-0.1257102,0.09433498,0,0.3,0,0,0,0
638223381689013697,-10.79046,-0.9585064,29.95454,-32.80762,53.22464,-100.4862,-4.570632,-0.4441859,0.1400836,-35.22471,-8.447793,45.12524,0,0,0,-37.42759,-94.41807,28.02989,-10.65206,-111.0334,-35.10307,0.001067912,-0.1257102,0.09433498,0,0.3,0,0,0,0
638223381689513548,-2.685836,-0.5844551,28.78718,-15.30203,51.39351,-94.04059,-4.570632,-0.4441859,0.1400836,-35.22471,-8.447793,45.12524,0,0,0,-9.257506,-94.8801,28.99174,-10.65206,-111.0334,-35.10307,0.001067912,-0.1257102,0.09433498,0,0.3,0,0,0,0
638223381689873422,1.743437,-0.07013461,28.78718,-5.194195,50.0751,-89.93885,-4.570632,-0.4441859,0.1400836,-35.15147,-8.447793,45.05199,0,0,0,6.01074,-93.6831,29.12415,-10.65206,-111.0334,-35.10307,0.001067912,-0.1257102,0.09433498,0,0.3,0,0,0,0
638223381690233307,6.14915,1.16891,28.67044,6.891257,48.02423,-84.88493,-4.570632,-0.4441859,0.1400836,-35.22471,-8.447793,45.05199,0,0,0,21.13415,-90.93013,27.81452,-10.65206,-111.0334,-35.10307,0.001067912,-0.1257102,0.09433498,0,0.3,0,0,0,0
638223381690593195,8.104627,2.150795,28.43697,12.82412,46.55933,-82.83408,-4.570632,-0.4441859,0.1400836,-35.22471,-8.447793,45.12524,0,0,0,27.73892,-88.90561,26.44107,-10.65206,-111.0334,-35.10307,0.001067912,-0.1257102,0.09433498,0,0.3,0,0,0,0
638223381691013058,10.93182,4.979557,27.12952,23.88414,43.04356,-79.4648,-4.570632,-0.4441859,0.1400836,-35.22471,-8.447793,45.05199,0,0,0,36.72485,-83.75374,21.79062,-10.65206,-111.0334,-35.10307,0.001067912,-0.1257102,0.09433498,0,0.3,0,0,0,0
638223381691372943,11.89778,8.20575,24.84149,30.76918,39.3813,-77.1942,-4.570632,-0.4441859,0.1400836,-35.15147,-8.447793,45.05199,0,0,0,38.76057,-78.62878,15.61739,-10.65206,-111.0334,-35.10307,0.001067912,-0.1257102,0.09433498,0,0.3,0,0,0,0
638223381691732828,11.89778,11.71248,22.48342,34.57793,35.42606,-75.14333,-4.570632,-0.4441859,0.1400836,-35.15147,-8.447793,45.05199,0,0,0,37.43333,-72.79398,9.318001,-10.65206,-111.0334,-35.10307,0.001067912,-0.1257102,0.09433498,0,0.3,0,0,0,0
638223381692092712,11.14386,15.31272,20.70902,36.04284,30.88486,-73.3122,-4.570632,-0.4441859,0.1400836,-35.22471,-8.521038,45.05199,0,0,0,33.97189,-66.16801,4.107262,-10.65206,-111.0334,-35.10307,0.001067912,-0.1257102,0.09433498,0,0.3,0,0,0,0
638223381692522578,9.094145,19.14675,18.46769,35.23714,25.31823,-71.55432,-4.570632,-0.4441859,0.1400836,-35.22471,-8.447793,45.05199,0,0,0,26.58751,-59.3955,-2.249919,-10.65206,-111.0334,-35.10307,0.001067912,-0.1257102,0.09433498,0,0.3,0,0,0,0
638223381692882461,7.327148,21.41443,17.62719,33.11303,21.65597,-70.67538,-4.570632,-0.4441859,0.1400836,-35.22471,-8.521038,45.05199,0,0,0,20.98267,-55.05124,-5.168132,-10.65206,-111.0334,-35.10307,0.001067912,-0.1257102,0.09433498,0,0.3,0,0,0,0
638223381693242346,5.230311,23.47172,17.34702,29.45077,17.62749,-68.84425,-4.570632,-0.4441859,0.1400836,-35.22471,-8.447793,45.05199,0,0,0,14.77472,-50.82195,-6.949232,-10.65206,-111.0334,-35.10307,0.001067912,-0.1257102,0.09433498,0,0.3,0,0,0,0
638223381693602233,4.099433,24.36009,17.30033,27.47315,15.8696,-67.89206,-4.570632,-0.4441859,0.1400836,-35.22471,-8.521038,45.05199,0,0,0,11.51906,-48.96426,-7.628592,-10.65206,-111.0334,-35.10307,0.001067912,-0.1257102,0.09433498,0,0.3,0,0,0,0
638223381694032096,0.7067988,27.28236,17.46376,20.88108,11.40165,-65.62146,-4.570632,-0.4441859,0.1400836,-35.22471,-8.447793,45.05199,0,0,0,1.955628,-42.72906,-9.827476,-10.65206,-111.0334,-35.10307,0.001067912,-0.1257102,0.09433498,0,0.3,0,0,0,0
638223381694391980,-0.4476392,28.28763,17.69723,18.3175,10.08323,-65.10874,-4.570632,-0.4441859,0.1400836,-35.15147,-8.447793,45.05199,0,0,0,-1.234109,-40.49507,-10.39285,-10.65206,-111.0334,-35.10307,0.001067912,-0.1257102,0.09433498,0,0.3,0,0,0,0
638223381694761862,-2.992115,30.36828,18.51438,13.04385,7.592898,-64.01007,-4.570632,-0.4441859,0.1400836,-35.22471,-8.447793,45.05199,0,0,0,-8.215936,-35.68241,-11.16673,-10.65206,-111.0334,-35.10307,0.001067912,-0.1257102,0.09433498,0,0.3,0,0,0,0
638223381695111751,-5.701511,33.15029,19.82183,6.525032,5.175808,-62.83814,-4.570632,-0.4441859,0.1400836,-35.22471,-8.447793,45.12524,0,0,0,-15.58384,-29.17851,-12.26169,-10.65206,-111.0334,-35.10307,0.001067912,-0.1257102,0.09433498,0,0.3,0,0,0,0
638223381695541613,-8.033947,37.0077,22.15656,-1.458692,1.806531,-61.73947,-4.570632,-0.4441859,0.1400836,-35.15147,-8.521038,45.05199,0,0,0,-21.91136,-19.88667,-13.11001,-10.65206,-111.0334,-35.10307,0.001067912,-0.1257102,0.09433498,0,0.3,0,0,0,0
638223381695871508,-9.188385,39.20525,23.9076,-5.999893,-0.7570504,-60.56754,-4.570632,-0.4441859,0.1400836,-35.22471,-8.447793,45.05199,0,0,0,-25.12948,-14.26803,-12.99638,-10.65206,-111.0334,-35.10307,0.001067912,-0.1257102,0.09433498,0,0.3,0,0,0,0
638223381696231393,-10.08366,42.31455,26.31237,-11.78626,-4.565799,-58.80966,-4.570632,-0.4441859,0.1400836,-35.22471,-8.447793,45.12524,0,0,0,-27.61393,-6.41245,-13.06986,-10.65206,-111.0334,-35.10307,0.001067912,-0.1257102,0.09433498,0,0.3,0,0,0,0
638223381696591285,-10.1779,43.99778,27.50308,-14.49633,-6.543418,-57.85748,-4.570632,-0.4441859,0.1400836,-35.22471,-8.447793,45.05199,0,0,0,-27.83249,-2.300611,-13.32049,-10.65206,-111.0334,-35.10307,0.001067912,-0.1257102,0.09433498,0,0.3,0,0,0,0
638223381697061132,-10.15434,49.21112,32.14919,-21.23489,-13.57495,-54.63469,-4.570632,-0.4441859,0.1400836,-35.22471,-8.447793,45.05199,0,0,0,-27.86834,11.40936,-12.753,-10.65206,-111.0334,-35.10307,0.001067912,-0.1257102,0.09433498,0,0.3,0,0,0,0
638223381697411018,-10.0601,50.91772,33.83019,-23.28575,-16.06529,-53.24303,-4.570632,-0.4441859,0.1400836,-35.22471,-8.447793,45.05199,0,0,0,-27.6536,16.08912,-12.475,-10.65206,-111.0334,-35.10307,0.001067912,-0.1257102,0.09433498,0,0.3,0,0,0,0
638223381697750909,-9.423985,53.86338,36.72525,-27.31424,-20.89947,-49.72726,-4.570632,-0.4441859,0.1400836,-35.22471,-8.521038,45.05199,0,0,0,-25.93274,24.16356,-12.10892,-10.65206,-111.0334,-35.10307,0.001067912,-0.1257102,0.09433498,0,0.3,0,0,0,0
638223381698120793,-7.562747,56.64539,38.98993,-31.19623,-26.61259,-44.45361,-4.570632,-0.4441859,0.1400836,-35.22471,-8.447793,45.05199,0,0,0,-20.69203,31.08792,-12.49754,-10.65206,-111.0334,-35.10307,0.001067912,-0.1257102,0.09433498,0,0.3,0,0,0,0
638223381698580645,-4.782672,59.91833,40.90441,-32.80762,-33.13141,-39.54618,-4.570632,-0.4441859,0.1400836,-35.22471,-8.521038,45.05199,0,0,0,-12.85306,37.953,-14.72978,-10.65206,-111.0334,-35.10307,0.001067912,-0.1257102,0.09433498,0,0.3,0,0,0,0
638223381698940531,-3.392634,61.41454,41.62818,-32.4414,-36.13447,-38.00803,-4.570632,-0.4441859,0.1400836,-35.15147,-8.447793,45.12524,0,0,0,-9.01799,40.7699,-16.22964,-10.65206,-111.0334,-35.10307,0.001067912,-0.1257102,0.09433498,0,0.3,0,0,0,0
638223381699300415,-1.013078,63.61209,42.7255,-30.61027,-40.16295,-36.76286,-4.570632,-0.4441859,0.1400836,-35.22471,-8.447793,45.05199,0,0,0,-2.647552,44.84506,-18.63032,-10.65206,-111.0334,-35.10307,0.001067912,-0.1257102,0.09433498,0,0.3,0,0,0,0
638223381699660301,1.649197,65.57586,43.9629,-27.0945,-43.89846,-36.90935,-4.570632,-0.4441859,0.1400836,-35.22471,-8.447793,45.05199,0,0,0,4.251063,48.78252,-20.70198,-10.65206,-111.0334,-35.10307,0.001067912,-0.1257102,0.09433498,0,0.3,0,0,0,0
638223381700090165,5.183192,67.65652,45.27035,-19.33051,-47.85369,-41.81678,-4.570632,-0.4441859,0.1400836,-35.22471,-8.447793,45.12524,0,0,0,13.13827,52.84156,-23.51403,-10.65206,-111.0334,-35.10307,0.001067912,-0.1257102,0.09433498,0,0.3,0,0,0,0
638223381700420065,6.526109,68.28773,45.6906,-15.44852,-49.02562,-45.11281,-4.570632,-0.4441859,0.1400836,-35.15147,-8.447793,45.12524,0,0,0,16.45222,54.08993,-24.53338,-10.65206,-111.0334,-35.10307,0.001067912,-0.1257102,0.09433498,0,0.3,0,0,0,0
638223381700786279,10.22502,69.52678,46.5778,-2.923595,-51.07648,-57.85748,-4.570632,-0.4441859,0.1400836,-35.22471,-8.447793,45.05199,0,0,0,25.47245,56.61639,-27.13397,-10.65206,-111.0334,-35.10307,0.001067912,-0.1257102,0.09433498,0,0.3,0,0,0,0
638223381701141255,13.97106,70.29826,47.11478,11.94517,-51.5892,-75.94903,-4.570632,-0.4441859,0.1400836,-35.22471,-8.447793,45.05199,0,0,0,34.44349,58.14481,-29.90681,-10.65206,-111.0334,-35.10307,0.001067912,-0.1257102,0.09433498,0,0.3,0,0,0,0
638223381701598420,17.48149,70.67231,47.48834,25.34904,-50.34403,-91.76999,-4.570632,-0.4441859,0.1400836,-35.22471,-8.447793,45.05199,0,0,0,42.7864,59.07458,-32.49587,-10.65206,-111.0334,-35.10307,0.001067912,-0.1257102,0.09433498,0,0.3,0,0,0,0
638223381701958307,20.85056,70.74244,47.62842,35.67661,-48.00018,-102.244,-4.570632,-0.4441859,0.1400836,-35.15147,-8.447793,45.05199,0,0,0,50.71974,59.36911,-35.18349,-10.65206,-111.0334,-35.10307,0.001067912,-0.1257102,0.09433498,0,0.3,0,0,0,0
638223381702318190,24.73796,70.41515,47.65177,43.95331,-44.55766,-109.8615,-4.570632,-0.4441859,0.1400836,-35.22471,-8.447793,45.12524,0,0,0,59.94712,59.15597,-38.24273,-10.65206,-111.0334,-35.10307,0.001067912,-0.1257102,0.09433498,0,0.3,0,0,0,0
638223381702678075,28.36619,69.38651,47.62842,49.37346,-40.82215,-114.476,-4.570632,-0.4441859,0.1400836,-35.22471,-8.447793,45.12524,0,0,0,69.11121,58.29312,-40.35104,-10.65206,-111.0334,-35.10307,0.001067912,-0.1257102,0.09433498,0,0.3,0,0,0,0
638223381703107938,32.46563,67.18896,47.27821,54.28088,-35.695,-117.4058,-4.570632,-0.4441859,0.1400836,-35.22471,-8.447793,45.05199,0,0,0,80.3394,55.80064,-42.07529,-10.65206,-111.0334,-35.10307,0.001067912,-0.1257102,0.09433498,0,0.3,0,0,0,0
638223381703477829,35.2457,65.3187,46.78792,56.47824,-31.73976,-118.1382,-4.570632,-0.4441859,0.1400836,-35.22471,-8.447793,45.05199,0,0,0,88.21983,53.21289,-43.50196,-10.65206,-111.0334,-35.10307,0.001067912,-0.1257102,0.09433498,0,0.3,0,0,0,0
638223381703837706,38.14358,62.79386,46.15754,58.38261,-26.68584,-118.5045,-4.570632,-0.4441859,0.1400836,-35.22471,-8.447793,45.05199,0,0,0,97.05815,49.57855,-44.76085,-10.65206,-111.0334,-35.10307,0.001067912,-0.1257102,0.09433498,0,0.3,0,0,0,0
638223381704206026,39.39226,61.50805,45.80734,59.04182,-24.12226,-118.651,-4.570632,-0.4441859,0.1400836,-35.22471,-8.447793,45.05199,0,0,0,101.0481,47.59447,-45.29816,-10.65206,-111.0334,-35.10307,0.001067912,-0.1257102,0.09433498,0,0.3,0,0,0,0
638223381704635897,42.50217,57.90781,44.28976,60.28699,-17.01748,-118.7242,-4.570632,-0.4441859,0.1400836,-35.22471,-8.447793,45.05199,0,0,0,110.7765,40.8691,-47.46782,-10.65206,-111.0334,-35.10307,0.001067912,-0.1257102,0.09433498,0,0.3,0,0,0,0
638223381704995778,43.30321,56.76228,43.86951,60.50672,-14.67363,-118.651,-4.570632,-0.4441859,0.1400836,-35.22471,-8.447793,45.05199,0,0,0,113.5131,38.74974,-47.90633,-10.65206,-111.0334,-35.10307,0.001067912,-0.1257102,0.09433498,0,0.3,0,0,0,0
638223381705356122,44.74036,54.47121,42.88893,60.87295,-10.35217,-118.651,-4.570632,-0.4441859,0.1400836,-35.22471,-8.447793,45.05199,0,0,0,118.4279,34.17125,-48.84386,-10.65206,-111.0334,-35.10307,0.001067912,-0.1257102,0.09433498,0,0.3,0,0,0,0
638223381705726000,46.13041,52.20353,41.3947,61.16593,-6.470173,-118.5777,-4.570632,-0.4441859,0.1400836,-35.15147,-8.447793,45.12524,0,0,0,122.4851,28.68674,-50.60507,-10.65206,-111.0334,-35.10307,0.001067912,-0.1257102,0.09433498,0,0.3,0,0,0,0
638223381706151328,47.7796,48.6968,39.2701,61.23917,-1.855728,-118.065,-4.570632,-0.4441859,0.1400836,-35.22471,-8.447793,45.12524,0,0,0,127.6915,20.2905,-52.48358,-10.65206,-111.0334,-35.10307,0.001067912,-0.1257102,0.09433498,0,0.3,0,0,0,0
638223381706491210,48.50996,46.73303,37.96265,61.23917,0.4881175,-117.4058,-4.570632,-0.4441859,0.1400836,-35.22471,-8.447793,45.12524,0,0,0,129.9098,15.31647,-53.4558,-10.65206,-111.0334,-35.10307,0.001067912,-0.1257102,0.09433498,0,0.3,0,0,0,0
638223381706831100,49.47592,43.81075,35.69797,60.94619,4.150376,-116.1606,-4.570632,-0.4441859,0.1400836,-35.15147,-8.447793,45.05199,0,0,0,132.2941,7.371257,-55.26394,-10.65206,-111.0334,-35.10307,0.001067912,-0.1257102,0.09433498,0,0.3,0,0,0,0
638223381707191165,49.92356,42.29117,34.50726,60.65321,6.05475,-115.5747,-4.570632,-0.4441859,0.1400836,-35.22471,-8.447793,45.05199,0,0,0,133.2861,3.193359,-56.2063,-10.65206,-111.0334,-35.10307,0.001067912,-0.1257102,0.09433498,0,0.3,0,0,0,0
638223381707681125,51.00732,37.45188,31.28534,59.62778,11.69463,-113.0843,-4.570632,-0.4441859,0.1400836,-35.15147,-8.521038,45.05199,0,0,0,136.1005,-9.520352,-58.16676,-10.65206,-111.0334,-35.10307,0.001067912,-0.1257102,0.09433498,0,0.3,0,0,0,0
638223381708050873,51.59631,34.66988,29.23078,58.96857,14.91741,-111.6194,-4.570632,-0.4441859,0.1400836,-35.22471,-8.447793,45.05199,0,0,0,136.9759,-17.16343,-59.76989,-10.65206,-111.0334,-35.10307,0.001067912,-0.1257102,0.09433498,0,0.3,0,0,0,0
638223381708400765,51.92616,33.22043,28.08676,58.60235,16.45556,-110.887,-4.570632,-0.4441859,0.1400836,-35.15147,-8.447793,45.05199,0,0,0,137.2423,-21.2388,-60.83938,-10.65206,-111.0334,-35.10307,0.001067912,-0.1257102,0.09433498,0,0.3,0,0,0,0
638223381708760780,52.60939,30.04099,25.82208,57.79665,19.67835,-109.3488,-4.570632,-0.4441859,0.1400836,-35.22471,-8.521038,45.05199,0,0,0,137.865,-29.92753,-62.98009,-10.65206,-111.0334,-35.10307,0.001067912,-0.1257102,0.09433498,0,0.3,0,0,0,0
638223381709190511,53.24551,26.97845,24.18777,56.91771,23.04763,-108.0304,-4.570632,-0.4441859,0.1400836,-35.22471,-8.447793,45.05199,0,0,0,138.99,-37.79795,-64.5443,-10.65206,-111.0334,-35.10307,0.001067912,-0.1257102,0.09433498,0,0.3,0,0,0,0
638223381709540402,53.85807,23.96266,22.97371,56.11201,26.78313,-107.3712,-4.570632,-0.4441859,0.1400836,-35.22471,-8.447793,45.12524,0,0,0,140.4379,-45.26429,-65.78343,-10.65206,-111.0334,-35.10307,0.001067912,-0.1257102,0.09433498,0,0.3,0,0,0,0
638223381709900288,54.47063,21.78849,21.99312,55.59929,29.56645,-106.712,-4.570632,-0.4441859,0.1400836,-35.22471,-8.447793,45.05199,0,0,0,141.411,-50.79894,-67.37311,-10.65206,-111.0334,-35.10307,0.001067912,-0.1257102,0.09433498,0,0.3,0,0,0,0
638223381710260174,54.98895,19.87147,20.9425,55.08658,31.9103,-106.419,-4.570632,-0.4441859,0.1400836,-35.22471,-8.447793,45.05199,0,0,0,141.7543,-55.86367,-69.05183,-10.65206,-111.0334,-35.10307,0.001067912,-0.1257102,0.09433498,0,0.3,0,0,0,0
638223381710690033,55.24811,17.81419,19.98526,54.35413,34.40063,-106.2725,-4.570632,-0.4441859,0.1400836,-35.15147,-8.447793,45.05199,0,0,0,141.7576,-61.17383,-70.00235,-10.65206,-111.0334,-35.10307,0.001067912,-0.1257102,0.09433498,0,0.3,0,0,0,0
638223381711049923,55.24811,15.8738,19.30819,53.69492,36.305,-106.2725,-4.570632,-0.4441859,0.1400836,-35.22471,-8.447793,45.05199,0,0,0,141.6133,-66.02574,-70.10241,-10.65206,-111.0334,-35.10307,0.001067912,-0.1257102,0.09433498,0,0.3,0,0,0,0
638223381711409805,55.24811,14.89192,19.05137,53.25545,37.47693,-106.3458,-4.570632,-0.4441859,0.1400836,-35.22471,-8.447793,45.05199,0,0,0,141.6476,-68.42545,-70.07867,-10.65206,-111.0334,-35.10307,0.001067912,-0.1257102,0.09433498,0,0.3,0,0,0,0
638223381711769692,55.27167,13.04504,18.95798,52.523,39.52779,-106.419,-4.570632,-0.4441859,0.1400836,-35.22471,-8.447793,45.05199,0,0,0,142.3718,-72.66736,-69.66292,-10.65206,-111.0334,-35.10307,0.001067912,-0.1257102,0.09433498,0,0.3,0,0,0,0
638223381712199695,55.27167,11.36181,18.98133,51.79055,41.50541,-106.419,-4.570632,-0.4441859,0.1400836,-35.22471,-8.447793,45.12524,0,0,0,143.0946,-76.47858,-69.1619,-10.65206,-111.0334,-35.10307,0.001067912,-0.1257102,0.09433498,0,0.3,0,0,0,0
638223381712559438,55.27167,10.14614,19.02802,51.20458,43.2633,-106.4923,-4.570632,-0.4441859,0.1400836,-35.22471,-8.447793,45.05199,0,0,0,143.6129,-79.22279,-68.80262,-10.65206,-111.0334,-35.10307,0.001067912,-0.1257102,0.09433498,0,0.3,0,0,0,0
638223381712929321,55.27167,8.836961,19.56501,50.61862,44.65495,-106.9317,-4.570632,-0.4441859,0.1400836,-35.22471,-8.447793,45.05199,0,0,0,144.9953,-81.81499,-67.8444,-10.65206,-111.0334,-35.10307,0.001067912,-0.1257102,0.09433498,0,0.3,0,0,0,0
638223381713289204,55.27167,7.364134,20.40551,50.32565,45.97337,-107.7374,-4.570632,-0.4441859,0.1400836,-35.22471,-8.447793,45.05199,0,0,0,146.9031,-84.53997,-66.52195,-10.65206,-111.0334,-35.10307,0.001067912,-0.1257102,0.09433498,0,0.3,0,0,0,0
638223381713779051,55.27167,5.260096,22.13321,50.17915,47.51152,-109.3488,-4.570632,-0.4441859,0.1400836,-35.22471,-8.447793,45.05199,0,0,0,150.4251,-87.94836,-64.08064,-10.65206,-111.0334,-35.10307,0.001067912,-0.1257102,0.09433498,0,0.3,0,0,0,0
638223381714088949,55.27167,4.137942,23.11379,50.10591,48.17072,-110.2278,-4.570632,-0.4441859,0.1400836,-35.15147,-8.521038,45.05199,0,0,0,152.3323,-89.67334,-62.75866,-10.65206,-111.0334,-35.10307,0.001067912,-0.1257102,0.09433498,0,0.3,0,0,0,0
638223381714458838,55.24811,2.361199,24.53798,50.03266,49.12291,-111.8392,-4.570632,-0.4441859,0.1400836,-35.15147,-8.447793,45.05199,0,0,0,154.9727,-92.46277,-60.83407,-10.65206,-111.0334,-35.10307,0.001067912,-0.1257102,0.09433498,0,0.3,0,0,0,0
638223381714788726,55.24811,1.636474,25.14501,49.95942,49.63563,-112.7181,-4.570632,-0.4441859,0.1400836,-35.22471,-8.447793,45.05199,0,0,0,156.0744,-93.55492,-60.06972,-10.65206,-111.0334,-35.10307,0.001067912,-0.1257102,0.09433498,0,0.3,0,0,0,0
638223381715248578,55.24811,-0.350673,26.94275,49.30021,50.88079,-116.0141,-4.570632,-0.4441859,0.1400836,-35.22471,-8.447793,45.05199,0,0,0,159.2056,-96.34231,-57.8974,-10.65206,-111.0334,-35.10307,0.001067912,-0.1257102,0.09433498,0,0.3,0,0,0,0
638223381715578475,55.24811,-0.9585064,27.52643,48.93398,51.24702,-117.1861,-4.570632,-0.4441859,0.1400836,-35.22471,-8.447793,45.12524,0,0,0,160.1847,-97.1352,-57.21811,-10.65206,-111.0334,-35.10307,0.001067912,-0.1257102,0.09433498,0,0.3,0,0,0,0
638223381715918373,55.27167,-1.005263,28.1568,48.12829,51.75974,-119.1637,-4.570632,-0.4441859,0.1400836,-35.22471,-8.447793,45.05199,0,0,0,161.295,-96.55882,-56.54599,-10.65206,-111.0334,-35.10307,0.001067912,-0.1257102,0.09433498,0,0.3,0,0,0,0
638223381716278250,55.27167,-1.005263,29.34751,47.54232,52.12596,-120.5553,-4.570632,-0.4441859,0.1400836,-35.22471,-8.447793,45.05199,0,0,0,163.2918,-95.22581,-55.16192,-10.65206,-111.0334,-35.10307,0.001067912,-0.1257102,0.09433498,0,0.3,0,0,0,0
638223381716768097,55.27167,-1.005263,31.77563,47.10286,52.3457,-123.5584,-4.570632,-0.4441859,0.1400836,-35.22471,-8.447793,45.05199,0,0,0,167.2908,-92.35259,-52.38995,-10.65206,-111.0334,-35.10307,0.001067912,-0.1257102,0.09433498,0,0.3,0,0,0,0
638223381717127979,55.27167,-1.005263,33.24651,47.02961,52.41894,-124.6571,-4.570632,-0.4441859,0.1400836,-35.15147,-8.447793,45.05199,0,0,0,169.6633,-90.51274,-50.7454,-10.65206,-111.0334,-35.10307,0.001067912,-0.1257102,0.09433498,0,0.3,0,0,0,0
638223381717487866,55.27167,-1.005263,35.79136,47.39584,52.41894,-127.2206,-4.570632,-0.4441859,0.1400836,-35.22471,-8.447793,45.05199,0,0,0,173.6737,-87.15665,-47.96552,-10.65206,-111.0334,-35.10307,0.001067912,-0.1257102,0.09433498,0,0.3,0,0,0,0
638223381717857746,55.24811,-1.005263,37.5424,48.20153,52.3457,-128.0996,-4.570632,-0.4441859,0.1400836,-35.15147,-8.447793,45.05199,0,0,0,176.31,-84.72308,-46.0308,-10.65206,-111.0334,-35.10307,0.001067912,-0.1257102,0.09433498,0,0.3,0,0,0,0
638223381718273338,55.05963,-1.005263,37.79922,49.00723,52.12596,-128.3193,-4.570632,-0.4441859,0.1400836,-35.22471,-8.447793,45.05199,0,0,0,176.2945,-84.3578,-45.18052,-10.65206,-111.0334,-35.10307,0.001067912,-0.1257102,0.09433498,0,0.3,0,0,0,0
638223381718643219,54.51775,-1.005263,37.77588,49.22696,51.97947,-128.3193,-4.570632,-0.4441859,0.1400836,-35.22471,-8.447793,45.05199,0,0,0,175.0867,-84.3911,-43.54366,-10.65206,-111.0334,-35.10307,0.001067912,-0.1257102,0.09433498,0,0.3,0,0,0,0
638223381718993111,54.18791,-1.005263,37.77588,49.30021,51.97947,-128.3193,-4.570632,-0.4441859,0.1400836,-35.22471,-8.447793,45.05199,0,0,0,174.3654,-84.3911,-42.53779,-10.65206,-111.0334,-35.10307,0.001067912,-0.1257102,0.09433498,0,0.3,0,0,0,0
638223381719352995,53.33975,-1.028641,37.70583,48.93398,51.97947,-128.3193,-4.570632,-0.4441859,0.1400836,-35.22471,-8.521038,45.05199,0,0,0,172.3797,-84.54528,-40.04806,-10.65206,-111.0334,-35.10307,0.001067912,-0.1257102,0.09433498,0,0.3,0,0,0,0
638223381719786832,51.99683,-1.028641,36.91203,47.76206,52.41894,-128.3193,-4.570632,-0.4441859,0.1400836,-35.22471,-8.447793,45.05199,0,0,0,168.1676,-85.66507,-36.94812,-10.65206,-111.0334,-35.10307,0.001067912,-0.1257102,0.09433498,0,0.3,0,0,0,0
638223381720116727,51.26648,-1.005263,36.305,46.88312,52.63868,-128.3193,-4.570632,-0.4441859,0.1400836,-35.22471,-8.447793,45.05199,0,0,0,165.595,-86.45317,-35.52419,-10.65206,-111.0334,-35.10307,0.001067912,-0.1257102,0.09433498,0,0.3,0,0,0,0
638223381720476614,50.08848,-1.005263,35.30106,45.41821,52.93166,-127.8066,-4.570632,-0.4441859,0.1400836,-35.22471,-8.447793,45.05199,0,0,0,161.3758,-87.82004,-33.36372,-10.65206,-111.0334,-35.10307,0.001067912,-0.1257102,0.09433498,0,0.3,0,0,0,0
638223381720846499,48.81624,-0.9818845,34.36718,43.95331,53.15139,-125.536,-4.570632,-0.4441859,0.1400836,-35.22471,-8.447793,45.12524,0,0,0,156.997,-89.00715,-30.9881,-10.65206,-111.0334,-35.10307,0.001067912,-0.1257102,0.09433498,0,0.3,0,0,0,0
638223381721306352,47.28484,-0.9818845,33.10642,42.6349,53.44437,-122.4597,-4.570632,-0.4441859,0.1400836,-35.22471,-8.447793,45.05199,0,0,0,151.4771,-90.63675,-28.4967,-10.65206,-111.0334,-35.10307,0.001067912,-0.1257102,0.09433498,0,0.3,0,0,0,0
638223381721656240,46.03617,-0.9818845,31.77563,42.04893,53.59086,-119.1637,-4.570632,-0.4441859,0.1400836,-35.22471,-8.521038,45.12524,0,0,0,146.5121,-92.29819,-27.04351,-10.65206,-111.0334,-35.10307,0.001067912,-0.1257102,0.09433498,0,0.3,0,0,0,0
638223381722016121,45.21157,-0.9818845,30.95848,41.75596,53.59086,-117.5523,-4.570632,-0.4441859,0.1400836,-35.22471,-8.447793,45.05199,0,0,0,143.3108,-93.28813,-26.09363,-10.65206,-111.0334,-35.10307,0.001067912,-0.1257102,0.09433498,0,0.3,0,0,0,0
638223381722376005,43.42101,-0.9818845,29.41755,41.46298,53.73735,-113.2308,-4.570632,-0.4441859,0.1400836,-35.15147,-8.447793,45.12524,0,0,0,136.6652,-95.09142,-23.93669,-10.65206,-111.0334,-35.10307,0.001067912,-0.1257102,0.09433498,0,0.3,0,0,0,0
638223381722835863,40.5467,-0.9818845,26.66258,42.19543,53.95709,-105.0274,-4.570632,-0.4441859,0.1400836,-35.22471,-8.447793,45.05199,0,0,0,125.5731,-98.10531,-21.56521,-10.65206,-111.0334,-35.10307,0.001067912,-0.1257102,0.09433498,0,0.3,0,0,0,0
638223381723175752,39.55717,-1.005263,25.51856,42.56165,53.95709,-102.3173,-4.570632,-0.4441859,0.1400836,-35.22471,-8.447793,45.05199,0,0,0,121.496,-99.33067,-21.26285,-10.65206,-111.0334,-35.10307,0.001067912,-0.1257102,0.09433498,0,0.3,0,0,0,0
638223381723535659,37.50746,-1.005263,23.27722,43.29411,53.59086,-97.04363,-4.570632,-0.4441859,0.1400836,-35.22471,-8.447793,45.05199,0,0,0,113.2651,-101.4853,-20.77978,-10.65206,-111.0334,-35.10307,0.001067912,-0.1257102,0.09433498,0,0.3,0,0,0,0
638223381723895523,35.19858,-0.9818845,21.22267,43.66033,52.41894,-92.57568,-4.570632,-0.4441859,0.1400836,-35.15147,-8.447793,45.05199,0,0,0,104.6777,-103.2414,-19.95207,-10.65206,-111.0334,-35.10307,0.001067912,-0.1257102,0.09433498,0,0.3,0,0,0,0
638223381724355376,31.71171,-0.9818845,17.55714,42.70815,50.66106,-87.7415,-4.570632,-0.4441859,0.1400836,-35.15147,-8.521038,45.05199,0,0,0,91.22912,-106.0732,-20.70496,-10.65206,-111.0334,-35.10307,0.001067912,-0.1257102,0.09433498,0,0.3,0,0,0,0
638223381724685272,29.75623,-0.9585064,15.66602,41.24324,49.56238,-85.54414,-4.570632,-0.4441859,0.1400836,-35.22471,-8.447793,45.12524,0,0,0,84.04517,-107.277,-21.33856,-10.65206,-111.0334,-35.10307,0.001067912,-0.1257102,0.09433498,0,0.3,0,0,0,0
638223381725025161,26.83479,-0.7481025,13.40133,38.31343,48.24397,-82.98056,-4.570632,-0.4441859,0.1400836,-35.22471,-8.447793,45.12524,0,0,0,74.1435,-108.11,-21.79204,-10.65206,-111.0334,-35.10307,0.001067912,-0.1257102,0.09433498,0,0.3,0,0,0,0
638223381725385048,25.3034,-0.1636474,12.16393,36.33582,47.36503,-82.10162,-4.570632,-0.4441859,0.1400836,-35.22471,-8.447793,45.05199,0,0,0,69.00454,-107.387,-22.39218,-10.65206,-111.0334,-35.10307,0.001067912,-0.1257102,0.09433498,0,0.3,0,0,0,0
638223381725884889,22.7118,3.763891,9.432296,30.69594,43.77601,-79.61128,-4.570632,-0.4441859,0.1400836,-35.22471,-8.447793,45.12524,0,0,0,59.81247,-99.44334,-25.44637,-10.65206,-111.0334,-35.10307,0.001067912,-0.1257102,0.09433498,0,0.3,0,0,0,0
638223381726244783,22.16992,7.55116,8.311626,28.2056,40.62647,-77.70691,-4.570632,-0.4441859,0.1400836,-35.22471,-8.447793,45.05199,0,0,0,57.15801,-91.07565,-28.07813,-10.65206,-111.0334,-35.10307,0.001067912,-0.1257102,0.09433498,0,0.3,0,0,0,0
638223381726594661,21.86364,9.748712,7.868029,27.03368,38.7221,-76.82797,-4.570632,-0.4441859,0.1400836,-35.22471,-8.447793,45.05199,0,0,0,55.74028,-86.16485,-29.43706,-10.65206,-111.0334,-35.10307,0.001067912,-0.1257102,0.09433498,0,0.3,0,0,0,0
638223381726954549,21.43956,13.79314,7.331042,24.90957,34.8401,-75.72929,-4.570632,-0.4441859,0.1400836,-35.22471,-8.447793,45.05199,0,0,0,53.55604,-77.117,-31.96838,-10.65206,-111.0334,-35.10307,0.001067912,-0.1257102,0.09433498,0,0.3,0,0,0,0
638223381727384410,21.36888,17.58041,6.957485,23.00519,30.44539,-75.28983,-4.570632,-0.4441859,0.1400836,-35.22471,-8.521038,45.05199,0,0,0,52.2052,-68.74049,-34.92478,-10.65206,-111.0334,-35.10307,0.001067912,-0.1257102,0.09433498,0,0.3,0,0,0,0
638223381727744295,21.46313,21.04038,6.467193,21.32055,26.34366,-75.21658,-4.570632,-0.4441859,0.1400836,-35.22471,-8.447793,45.05199,0,0,0,51.0357,-61.27533,-38.5434,-10.65206,-111.0334,-35.10307,0.001067912,-0.1257102,0.09433498,0,0.3,0,0,0,0
638223381728114179,21.84008,23.86915,6.093637,19.85565,22.90114,-75.58281,-4.570632,-0.4441859,0.1400836,-35.22471,-8.447793,45.12524,0,0,0,50.63171,-55.28657,-42.01807,-10.65206,-111.0334,-35.10307,0.001067912,-0.1257102,0.09433498,0,0.3,0,0,0,0
638223381728474066,22.4762,26.41737,5.906858,18.97671,19.97133,-76.82797,-4.570632,-0.4441859,0.1400836,-35.15147,-8.447793,45.12524,0,0,0,50.90261,-49.96367,-45.31572,-10.65206,-111.0334,-35.10307,0.001067912,-0.1257102,0.09433498,0,0.3,0,0,0,0
638223381728903923,23.11232,29.29289,5.743428,18.39075,17.04152,-79.02532,-4.570632,-0.4441859,0.1400836,-35.22471,-8.447793,45.05199,0,0,0,50.88956,-44.08587,-49.11216,-10.65206,-111.0334,-35.10307,0.001067912,-0.1257102,0.09433498,0,0.3,0,0,0,0
638223381729263809,23.4186,31.56057,5.766775,18.09777,15.06391,-80.27049,-4.570632,-0.4441859,0.1400836,-35.22471,-8.447793,45.05199,0,0,0,50.48546,-39.52979,-51.78882,-10.65206,-111.0334,-35.10307,0.001067912,-0.1257102,0.09433498,0,0.3,0,0,0,0
638223381729623694,23.55996,32.98664,5.813469,17.95128,13.89198,-81.00294,-4.570632,-0.4441859,0.1400836,-35.22471,-8.447793,45.05199,0,0,0,50.10774,-36.71263,-53.43909,-10.65206,-111.0334,-35.10307,0.001067912,-0.1257102,0.09433498,0,0.3,0,0,0,0
638223381729983577,23.84268,36.11932,6.303762,17.51181,11.40165,-82.46785,-4.570632,-0.4441859,0.1400836,-35.15147,-8.447793,45.05199,0,0,0,49.46148,-30.58806,-56.43169,-10.65206,-111.0334,-35.10307,0.001067912,-0.1257102,0.09433498,0,0.3,0,0,0,0
638223381730403447,24.33744,39.01822,7.120916,17.07234,8.911312,-83.8595,-4.570632,-0.4441859,0.1400836,-35.22471,-8.447793,45.05199,0,0,0,49.50934,-25.01861,-58.88972,-10.65206,-111.0334,-35.10307,0.001067912,-0.1257102,0.09433498,0,0.3,0,0,0,0
638223381730753336,25.13848,41.42618,7.984766,16.92585,6.494221,-84.6652,-4.570632,-0.4441859,0.1400836,-35.22471,-8.521038,45.05199,0,0,0,50.3442,-20.47555,-61.06425,-10.65206,-111.0334,-35.10307,0.001067912,-0.1257102,0.09433498,0,0.3,0,0,0,0
638223381731123216,26.22224,43.31981,8.428363,17.07234,4.223621,-85.4709,-4.570632,-0.4441859,0.1400836,-35.22471,-8.447793,45.05199,0,0,0,51.50354,-17.07238,-63.78344,-10.65206,-111.0334,-35.10307,0.001067912,-0.1257102,0.09433498,0,0.3,0,0,0,0
638223381731483111,28.05991,44.62899,8.498405,17.43856,2.612227,-86.64282,-4.570632,-0.4441859,0.1400836,-35.22471,-8.447793,45.05199,0,0,0,53.91098,-14.85568,-67.21346,-10.65206,-111.0334,-35.10307,0.001067912,-0.1257102,0.09433498,0,0.3,0,0,0,0
638223381731942332,31.94731,45.40047,8.498405,18.75698,1.66004,-88.18098,-4.570632,-0.4441859,0.1400836,-35.15147,-8.447793,45.05199,0,0,0,59.97159,-13.58637,-72.1787,-10.65206,-111.0334,-35.10307,0.001067912,-0.1257102,0.09433498,0,0.3,0,0,0,0
638223381732277567,35.22214,45.49398,8.498405,20.51486,1.51355,-89.57263,-4.570632,-0.4441859,0.1400836,-35.22471,-8.447793,45.05199,0,0,0,65.27805,-13.43368,-75.88835,-10.65206,-111.0334,-35.10307,0.001067912,-0.1257102,0.09433498,0,0.3,0,0,0,0
638223381732647446,39.65141,45.4706,8.498405,23.81089,1.953021,-91.69674,-4.570632,-0.4441859,0.1400836,-35.22471,-8.447793,45.05199,0,0,0,72.24851,-13.47183,-81.17594,-10.65206,-111.0334,-35.10307,0.001067912,-0.1257102,0.09433498,0,0.3,0,0,0,0
638223381732997332,41.72469,45.4706,8.498405,25.78851,2.246002,-93.01515,-4.570632,-0.4441859,0.1400836,-35.22471,-8.447793,45.05199,0,0,0,75.35497,-13.47183,-83.84679,-10.65206,-111.0334,-35.10307,0.001067912,-0.1257102,0.09433498,0,0.3,0,0,0,0
638223381733467185,47.21416,45.4706,8.381668,31.64813,3.124943,-96.31119,-4.570632,-0.4441859,0.1400836,-35.22471,-8.447793,45.05199,0,0,0,82.89595,-13.51171,-91.62556,-10.65206,-111.0334,-35.10307,0.001067912,-0.1257102,0.09433498,0,0.3,0,0,0,0
638223381733807076,48.53352,45.4706,8.241585,33.18628,3.271434,-96.97039,-4.570632,-0.4441859,0.1400836,-35.22471,-8.447793,45.05199,0,0,0,84.39883,-13.55884,-93.7682,-10.65206,-111.0334,-35.10307,0.001067912,-0.1257102,0.09433498,0,0.3,0,0,0,0
638223381734166960,50.86596,45.44723,7.77464,35.8231,3.710905,-98.21556,-4.570632,-0.4441859,0.1400836,-35.15147,-8.447793,45.05199,0,0,0,86.55952,-13.7484,-97.91955,-10.65206,-111.0334,-35.10307,0.001067912,-0.1257102,0.09433498,0,0.3,0,0,0,0
638223381734526845,52.42091,45.44723,7.00418,37.72747,4.223621,-98.87477,-4.570632,-0.4441859,0.1400836,-35.22471,-8.447793,45.05199,0,0,0,87.02954,-13.97902,-101.3788,-10.65206,-111.0334,-35.10307,0.001067912,-0.1257102,0.09433498,0,0.3,0,0,0,0
638223381734996694,53.38687,45.49398,5.860164,38.89939,4.736337,-99.16775,-4.570632,-0.4441859,0.1400836,-35.22471,-8.447793,45.12524,0,0,0,85.96021,-14.20099,-104.4798,-10.65206,-111.0334,-35.10307,0.001067912,-0.1257102,0.09433498,0,0.3,0,0,0,0
638223381735346584,53.92875,45.70439,4.692801,39.33887,5.468789,-99.16775,-4.570632,-0.4441859,0.1400836,-35.22471,-8.447793,45.05199,0,0,0,84.09092,-14.10821,-107.0945,-10.65206,-111.0334,-35.10307,0.001067912,-0.1257102,0.09433498,0,0.3,0,0,0,0
638223381735716469,54.02299,46.03168,3.618826,38.97264,5.90826,-99.24099,-4.570632,-0.4441859,0.1400836,-35.22471,-8.447793,45.05199,0,0,0,81.73168,-13.75894,-109.0185,-10.65206,-111.0334,-35.10307,0.001067912,-0.1257102,0.09433498,0,0.3,0,0,0,0
638223381736076352,54.02299,46.40574,3.105186,38.60641,6.274486,-99.24099,-4.570632,-0.4441859,0.1400836,-35.15147,-8.447793,45.05199,0,0,0,80.25729,-13.22669,-110.0889,-10.65206,-111.0334,-35.10307,0.001067912,-0.1257102,0.09433498,0,0.3,0,0,0,0
638223381736496216,54.02299,46.99019,2.871714,38.0937,6.274486,-99.16775,-4.570632,-0.4441859,0.1400836,-35.22471,-8.447793,45.05199,0,0,0,79.01706,-12.3221,-110.9892,-10.65206,-111.0334,-35.10307,0.001067912,-0.1257102,0.09433498,0,0.3,0,0,0,0
638223381736856102,53.97587,47.48113,2.871714,37.87396,6.127995,-99.75371,-4.570632,-0.4441859,0.1400836,-35.22471,-8.447793,45.05199,0,0,0,78.29142,-11.54628,-111.4176,-10.65206,-111.0334,-35.10307,0.001067912,-0.1257102,0.09433498,0,0.3,0,0,0,0
638223381737215984,53.88163,47.78505,2.871714,37.72747,5.981505,-100.4862,-4.570632,-0.4441859,0.1400836,-35.15147,-8.447793,45.05199,0,0,0,77.77551,-11.06963,-111.5969,-10.65206,-111.0334,-35.10307,0.001067912,-0.1257102,0.09433498,0,0.3,0,0,0,0
638223381737575873,52.9628,48.3695,2.918408,37.43449,6.05475,-102.537,-4.570632,-0.4441859,0.1400836,-35.22471,-8.447793,45.05199,0,0,0,76.13416,-10.15532,-110.9012,-10.65206,-111.0334,-35.10307,0.001067912,-0.1257102,0.09433498,0,0.3,0,0,0,0
638223381738006847,51.33715,49.18774,3.221923,36.70204,6.347731,-103.6357,-4.570632,-0.4441859,0.1400836,-35.22471,-8.447793,45.12524,0,0,0,73.90608,-8.862576,-109.2187,-10.65206,-111.0334,-35.10307,0.001067912,-0.1257102,0.09433498,0,0.3,0,0,0,0
638223381738368557,48.9576,50.09949,3.478743,35.38363,6.640712,-104.0019,-4.570632,-0.4441859,0.1400836,-35.22471,-8.447793,45.12524,0,0,0,70.61772,-7.453576,-106.8711,-10.65206,-111.0334,-35.10307,0.001067912,-0.1257102,0.09433498,0,0.3,0,0,0,0
638223381738740661,45.777,50.68394,3.642174,32.96654,6.787202,-104.0019,-4.570632,-0.4441859,0.1400836,-35.22471,-8.447793,45.05199,0,0,0,66.61894,-6.562745,-103.5139,-10.65206,-111.0334,-35.10307,0.001067912,-0.1257102,0.09433498,0,0.3,0,0,0,0
638223381739100552,42.31369,51.10475,3.969035,30.03673,6.933692,-103.8554,-4.570632,-0.4441859,0.1400836,-35.22471,-8.447793,45.05199,0,0,0,62.57994,-5.894505,-99.60855,-10.65206,-111.0334,-35.10307,0.001067912,-0.1257102,0.09433498,0,0.3,0,0,0,0
638223381739526843,37.46034,51.22165,4.389286,25.49553,6.933692,-103.4892,-4.570632,-0.4441859,0.1400836,-35.22471,-8.447793,45.05199,0,0,0,57.00406,-5.652622,-93.95429,-10.65206,-111.0334,-35.10307,0.001067912,-0.1257102,0.09433498,0,0.3,0,0,0,0
638223381739856741,34.39754,51.17488,5.04301,22.49248,6.713957,-102.4638,-4.570632,-0.4441859,0.1400836,-35.22471,-8.447793,45.05199,0,0,0,53.85216,-5.595718,-89.69366,-10.65206,-111.0334,-35.10307,0.001067912,-0.1257102,0.09433498,0,0.3,0,0,0,0
