zeyangz2/DNN_classification_different_people_hand/data_by_names/Frank/frank_right_13.csv
Timestamp,Therapist joint angle 0,Therapist joint angle 1,Therapist joint angle 2,Therapist joint angle 3,Therapist joint angle 4,Therapist joint angle 5,Patient joint angle 0,Patient joint angle 1,Patient joint angle 2,Patient joint angle 3,Patient joint angle 4,Patient joint angle 5,Virtual joint angle 0,Virtual joint angle 1,Virtual joint angle 2,Therapist position x,Therapist position y,Therapist position z,Patient position x,Patient position y,Patient position z,Virtual position x,Virtual position y,Virtual position z,Assistive Force, Obstacle Force Magnitude, Therapist Constant Force, Patient Constant Force, Recovery Factor, Assistance Level,label
6.38224E+17,0,0,0,0,0,0,0,0,0,0,0,0,0,0,0,0,0,0,0,0,0,0,0,0,0,0.3,0,0,0,0,1
6.38224E+17,51.59631,-0.9818845,-7.681251,-117.479,-9.839451,25.71527,-17.01029,-0.4441859,-4.27255,-61.51973,-6.98289,34.57793,0,0,0,90.51716,-111.0886,-96.5975,-36.10317,-110.6632,-50.33768,0.001067912,-0.1257102,0.09433498,0,0.3,0,0,0,0,
6.38224E+17,51.59631,-0.9818845,-7.681251,-117.479,-9.839451,25.71527,-17.01029,-0.4441859,-4.27255,-61.51973,-6.98289,34.57793,0,0,0,90.51716,-111.0886,-96.5975,-36.10317,-110.6632,-50.33768,0.001067912,-0.1257102,0.09433498,0,0.3,0,0,0,0,
6.38224E+17,51.59631,-0.9818845,-7.681251,-117.479,-9.839451,25.71527,-17.01029,-0.4441859,-4.27255,-61.51973,-6.98289,34.57793,0,0,0,90.51716,-111.0886,-96.5975,-36.10317,-110.6632,-50.33768,0.001067912,-0.1257102,0.09433498,0,0.3,0,0,0,0,
6.38224E+17,51.59631,-0.9818845,-7.681251,-117.479,-9.839451,25.78851,-17.01029,-0.4441859,-4.27255,-61.51973,-6.98289,34.57793,0,0,0,90.51716,-111.0886,-96.5975,-36.10317,-110.6632,-50.33768,0.001067912,-0.1257102,0.09433498,0,0.3,0,0,0,0,
6.38224E+17,51.59631,-0.9818845,-7.681251,-117.479,-9.839451,25.71527,-17.01029,-0.4441859,-4.27255,-61.51973,-6.98289,34.57793,0,0,0,90.51716,-111.0886,-96.5975,-36.10317,-110.6632,-50.33768,0.001067912,-0.1257102,0.09433498,0,0.3,0,0,0,0,
6.38224E+17,51.59631,-0.9818845,-7.681251,-117.479,-9.766206,25.71527,-17.01029,-0.4441859,-4.27255,-61.51973,-6.98289,34.57793,0,0,0,90.51716,-111.0886,-96.5975,-36.10317,-110.6632,-50.33768,0.001067912,-0.1257102,0.09433498,0,0.3,0,0,0,0,
6.38224E+17,51.59631,-0.9818845,-7.681251,-117.479,-9.839451,25.71527,-17.01029,-0.4441859,-4.27255,-61.51973,-6.98289,34.57793,0,0,0,90.51716,-111.0886,-96.5975,-36.10317,-110.6632,-50.33768,0.001067912,-0.1257102,0.09433498,0,0.3,0,0,0,0,
6.38224E+17,51.59631,-0.9818845,-7.681251,-117.479,-9.839451,25.71527,-17.01029,-0.4441859,-4.27255,-61.51973,-6.98289,34.57793,0,0,0,90.51716,-111.0886,-96.5975,-36.10317,-110.6632,-50.33768,0.001067912,-0.1257102,0.09433498,0,0.3,0,0,0,0,
6.38224E+17,51.59631,-0.9818845,-7.681251,-117.479,-9.839451,25.71527,-17.01029,-0.4441859,-4.27255,-61.51973,-6.98289,34.57793,0,0,0,90.51716,-111.0886,-96.5975,-36.10317,-110.6632,-50.33768,0.001067912,-0.1257102,0.09433498,0,0.3,0,0,0,0,
6.38224E+17,51.59631,-0.9818845,-7.681251,-117.479,-9.839451,25.71527,-17.01029,-0.4441859,-4.27255,-61.51973,-6.98289,34.57793,0,0,0,90.51716,-111.0886,-96.5975,-36.10317,-110.6632,-50.33768,0.001067912,-0.1257102,0.09433498,0,0.3,0,0,1.13E-07,0,
6.38224E+17,51.59631,-0.9818845,-7.681251,-117.479,-9.839451,25.71527,-17.01029,-0.4441859,-4.27255,-61.51973,-6.98289,34.57793,0,0,0,90.51716,-111.0886,-96.5975,-36.10317,-110.6632,-50.33768,0.001067912,-0.1257102,0.09433498,0,0.3,0,0,1.13E-07,0,
6.38224E+17,51.59631,-0.9818845,-7.681251,-117.479,-9.839451,25.71527,-17.01029,-0.4441859,-4.27255,-61.51973,-6.98289,34.57793,0,0,0,90.51716,-111.0886,-96.5975,-36.10317,-110.6632,-50.33768,0.001067912,-0.1257102,0.09433498,0,0.3,0,0,2.26E-07,0,
6.38224E+17,51.59631,-0.9818845,-7.681251,-117.479,-9.839451,25.71527,-17.01029,-0.4441859,-4.27255,-61.51973,-6.98289,34.57793,0,0,0,90.51716,-111.0886,-96.5975,-36.10317,-110.6632,-50.33768,0.001067912,-0.1257102,0.09433498,0,0.3,0,0,2.26E-07,0,
6.38224E+17,51.59631,-0.9818845,-7.681251,-117.479,-9.839451,25.71527,-17.01029,-0.4441859,-4.27255,-61.51973,-6.98289,34.57793,0,0,0,90.51716,-111.0886,-96.5975,-36.10317,-110.6632,-50.33768,0.001067912,-0.1257102,0.09433498,0,0.3,0,0,3.40E-07,0,
6.38224E+17,51.59631,-0.9818845,-7.681251,-117.479,-9.766206,25.71527,-17.01029,-0.4441859,-4.27255,-61.51973,-6.98289,34.57793,0,0,0,90.51716,-111.0886,-96.5975,-36.10317,-110.6632,-50.33768,0.001067912,-0.1257102,0.09433498,0,0.3,0,0,3.40E-07,0,
6.38224E+17,51.59631,-0.9818845,-7.681251,-117.479,-9.766206,25.71527,-17.01029,-0.4441859,-4.27255,-61.51973,-6.98289,34.57793,0,0,0,90.51716,-111.0886,-96.5975,-36.10317,-110.6632,-50.33768,0.001067912,-0.1257102,0.09433498,0,0.3,0,0,3.40E-07,0,
6.38224E+17,51.59631,-0.9818845,-7.681251,-117.479,-9.839451,25.71527,-17.01029,-0.4441859,-4.27255,-61.51973,-6.98289,34.57793,0,0,0,90.51716,-111.0886,-96.5975,-36.10317,-110.6632,-50.33768,0.001067912,-0.1257102,0.09433498,0,0.3,0,0,3.40E-07,0,
6.38224E+17,51.59631,-0.9818845,-7.681251,-117.479,-9.766206,25.71527,-17.01029,-0.4441859,-4.27255,-61.51973,-6.98289,34.57793,0,0,0,90.51716,-111.0886,-96.5975,-36.10317,-110.6632,-50.33768,0.001067912,-0.1257102,0.09433498,0,0.3,0,0,3.40E-07,0,
6.38224E+17,51.59631,-0.9818845,-7.681251,-117.479,-9.839451,25.71527,-17.01029,-0.4441859,-4.27255,-61.51973,-6.98289,34.57793,0,0,0,90.51716,-111.0886,-96.5975,-36.10317,-110.6632,-50.33768,0.001067912,-0.1257102,0.09433498,0,0.3,0,0,3.40E-07,0,
6.38224E+17,51.59631,-0.9818845,-7.681251,-117.479,-9.839451,25.71527,-17.01029,-0.4441859,-4.27255,-61.51973,-6.98289,34.57793,0,0,0,90.51716,-111.0886,-96.5975,-36.10317,-110.6632,-50.33768,0.001067912,-0.1257102,0.09433498,0,0.3,0,0,3.40E-07,0,
6.38224E+17,51.59631,-0.9818845,-7.681251,-117.479,-9.839451,25.71527,-17.01029,-0.4441859,-4.27255,-61.51973,-6.98289,34.57793,0,0,0,90.51716,-111.0886,-96.5975,-36.10317,-110.6632,-50.33768,0.001067912,-0.1257102,0.09433498,0,0.3,0,0,4.53E-07,0,
6.38224E+17,51.59631,-0.9818845,-7.681251,-117.479,-9.766206,25.78851,-17.01029,-0.4441859,-4.27255,-61.51973,-6.98289,34.57793,0,0,0,90.51716,-111.0886,-96.5975,-36.10317,-110.6632,-50.33768,0.001067912,-0.1257102,0.09433498,0,0.3,0,0,4.53E-07,0,
6.38224E+17,51.59631,-0.9818845,-7.681251,-117.479,-9.766206,25.71527,-17.01029,-0.4441859,-4.27255,-61.51973,-6.98289,34.57793,0,0,0,90.51716,-111.0886,-96.5975,-36.10317,-110.6632,-50.33768,0.001067912,-0.1257102,0.09433498,0,0.3,0,0,4.53E-07,0,
6.38224E+17,51.59631,-0.9818845,-7.681251,-117.479,-9.766206,25.71527,-17.01029,-0.4441859,-4.27255,-61.51973,-6.98289,34.57793,0,0,0,90.51716,-111.0886,-96.5975,-36.10317,-110.6632,-50.33768,0.001067912,-0.1257102,0.09433498,0,0.3,0,0,4.53E-07,0,
6.38224E+17,51.59631,-0.9818845,-7.681251,-117.479,-9.766206,25.71527,-17.01029,-0.4441859,-4.27255,-61.51973,-6.98289,34.57793,0,0,0,90.51716,-111.0886,-96.5975,-36.10317,-110.6632,-50.33768,0.001067912,-0.1257102,0.09433498,0,0.3,0,0,4.53E-07,0,
6.38224E+17,51.59631,-0.9818845,-7.681251,-117.479,-9.766206,25.71527,-17.01029,-0.4441859,-4.27255,-61.51973,-6.98289,34.57793,0,0,0,90.51716,-111.0886,-96.5975,-36.10317,-110.6632,-50.33768,0.001067912,-0.1257102,0.09433498,0,0.3,0,0,4.53E-07,0,
6.38224E+17,51.59631,-0.9818845,-7.681251,-117.479,-9.839451,25.71527,-17.01029,-0.4441859,-4.27255,-61.51973,-6.98289,34.57793,0,0,0,90.51716,-111.0886,-96.5975,-36.10317,-110.6632,-50.33768,0.001067912,-0.1257102,0.09433498,0,0.3,0,0,4.53E-07,0,
6.38224E+17,51.59631,-0.9818845,-7.681251,-117.479,-9.839451,25.71527,-17.01029,-0.4441859,-4.27255,-61.51973,-6.98289,34.57793,0,0,0,90.51716,-111.0886,-96.5975,-36.10317,-110.6632,-50.33768,0.001067912,-0.1257102,0.09433498,0,0.3,0,0,4.53E-07,0,
6.38224E+17,51.59631,-0.9818845,-7.681251,-117.479,-9.839451,25.78851,-17.01029,-0.4441859,-4.27255,-61.51973,-6.98289,34.57793,0,0,0,90.51716,-111.0886,-96.5975,-36.10317,-110.6632,-50.33768,0.001067912,-0.1257102,0.09433498,0,0.3,0,0,4.53E-07,0,
6.38224E+17,51.59631,-0.9818845,-7.681251,-117.479,-9.839451,25.71527,-17.01029,-0.4441859,-4.27255,-61.51973,-6.98289,34.57793,0,0,0,90.51716,-111.0886,-96.5975,-36.10317,-110.6632,-50.33768,0.001067912,-0.1257102,0.09433498,0,0.3,0,0,5.66E-07,0,
6.38224E+17,51.59631,-0.9818845,-7.681251,-117.479,-9.839451,25.71527,-17.01029,-0.4441859,-4.27255,-61.51973,-6.98289,34.57793,0,0,0,90.51716,-111.0886,-96.5975,-36.10317,-110.6632,-50.33768,0.001067912,-0.1257102,0.09433498,0,0.3,0,0,5.66E-07,0,
6.38224E+17,51.59631,-0.9818845,-7.681251,-117.479,-9.839451,25.71527,-17.01029,-0.4441859,-4.27255,-61.51973,-6.98289,34.57793,0,0,0,90.51716,-111.0886,-96.5975,-36.10317,-110.6632,-50.33768,0.001067912,-0.1257102,0.09433498,0,0.3,0,0,5.66E-07,0,
6.38224E+17,51.59631,-0.9818845,-7.681251,-117.479,-9.839451,25.71527,-17.01029,-0.4441859,-4.27255,-61.51973,-6.98289,34.57793,0,0,0,90.51716,-111.0886,-96.5975,-36.10317,-110.6632,-50.33768,0.001067912,-0.1257102,0.09433498,0,0.3,0,0,5.66E-07,0,
6.38224E+17,51.59631,-0.9818845,-7.681251,-117.479,-9.839451,25.71527,-17.01029,-0.4441859,-4.27255,-61.51973,-6.98289,34.57793,0,0,0,90.51716,-111.0886,-96.5975,-36.10317,-110.6632,-50.33768,0.001067912,-0.1257102,0.09433498,0,0.3,0,0,5.66E-07,0,
6.38224E+17,51.59631,-0.9818845,-7.681251,-117.479,-9.839451,25.71527,-17.01029,-0.4441859,-4.27255,-61.51973,-6.98289,34.57793,0,0,0,90.51716,-111.0886,-96.5975,-36.10317,-110.6632,-50.33768,0.001067912,-0.1257102,0.09433498,0,0.3,0,0,5.66E-07,0,
6.38224E+17,51.59631,-0.9818845,-7.681251,-117.479,-9.839451,25.71527,-17.01029,-0.4441859,-4.27255,-61.51973,-7.056135,34.57793,0,0,0,90.51716,-111.0886,-96.5975,-36.10317,-110.6632,-50.33768,0.001067912,-0.1257102,0.09433498,0,0.3,0,0,5.66E-07,0,
6.38224E+17,51.59631,-0.9818845,-7.681251,-117.479,-9.839451,25.71527,-17.01029,-0.4441859,-4.27255,-61.51973,-6.98289,34.57793,0,0,0,90.51716,-111.0886,-96.5975,-36.10317,-110.6632,-50.33768,0.001067912,-0.1257102,0.09433498,0,0.3,0,0,5.66E-07,0,
6.38224E+17,51.59631,-0.9818845,-7.681251,-117.479,-9.839451,25.71527,-17.01029,-0.4441859,-4.27255,-61.51973,-6.98289,34.57793,0,0,0,90.51716,-111.0886,-96.5975,-36.10317,-110.6632,-50.33768,0.001067912,-0.1257102,0.09433498,0,0.3,0,0,5.66E-07,0,
6.38224E+17,51.59631,-0.9818845,-7.681251,-117.479,-9.839451,25.78851,-17.01029,-0.4441859,-4.27255,-61.51973,-6.98289,34.57793,0,0,0,90.51716,-111.0886,-96.5975,-36.10317,-110.6632,-50.33768,0.001067912,-0.1257102,0.09433498,0,0.3,0,0,5.66E-07,0,
6.38224E+17,51.59631,-0.9818845,-7.681251,-117.479,-9.839451,25.71527,-17.01029,-0.4441859,-4.27255,-61.51973,-6.98289,34.57793,0,0,0,90.51716,-111.0886,-96.5975,-36.10317,-110.6632,-50.33768,0.001067912,-0.1257102,0.09433498,0,0.3,0,0,5.66E-07,0,
6.38224E+17,51.59631,-0.9818845,-7.681251,-117.479,-9.839451,25.71527,-17.01029,-0.4441859,-4.27255,-61.51973,-6.98289,34.57793,0,0,0,90.51716,-111.0886,-96.5975,-36.10317,-110.6632,-50.33768,0.001067912,-0.1257102,0.09433498,0,0.3,0,0,5.66E-07,0,
6.38224E+17,51.59631,-0.9818845,-7.681251,-117.479,-9.766206,25.71527,-17.01029,-0.4441859,-4.27255,-61.51973,-6.98289,34.57793,0,0,0,90.51716,-111.0886,-96.5975,-36.10317,-110.6632,-50.33768,0.001067912,-0.1257102,0.09433498,0,0.3,0,0,5.66E-07,0,
6.38224E+17,51.59631,-0.9818845,-7.681251,-117.479,-9.766206,25.71527,-17.01029,-0.4441859,-4.27255,-61.51973,-6.98289,34.57793,0,0,0,90.51716,-111.0886,-96.5975,-36.10317,-110.6632,-50.33768,0.001067912,-0.1257102,0.09433498,0,0.3,0,0,5.66E-07,0,
6.38224E+17,51.59631,-0.9818845,-7.681251,-117.479,-9.766206,25.71527,-17.01029,-0.4441859,-4.27255,-61.51973,-6.98289,34.57793,0,0,0,90.51716,-111.0886,-96.5975,-36.10317,-110.6632,-50.33768,0.001067912,-0.1257102,0.09433498,0,0.3,0,0,5.66E-07,0,
6.38224E+17,51.66699,-1.005263,-8.661836,-117.479,-10.13243,25.64202,-17.01029,-0.4441859,-4.27255,-61.51973,-6.98289,34.57793,0,0,0,88.83285,-110.8186,-98.11092,-36.10317,-110.6632,-50.33768,0.001067912,-0.1257102,0.09433498,0,0.3,0,0,0.000132319,0,
6.38224E+17,51.69056,-1.005263,-9.245518,-117.2593,-10.71839,25.42229,-17.01029,-0.4441859,-4.27255,-61.51973,-6.98289,34.57793,0,0,0,87.80877,-110.6072,-98.9793,-36.10317,-110.6632,-50.33768,0.001067912,-0.1257102,0.09433498,0,0.3,0,0,0.000440989,0,
6.38224E+17,52.63295,-0.9818845,-9.22217,-116.4536,-11.01137,25.935,-17.01029,-0.4441859,-4.27255,-61.51973,-6.98289,34.57793,0,0,0,88.98122,-110.5615,-100.3998,-36.10317,-110.6632,-50.33768,0.001067912,-0.1257102,0.09433498,0,0.3,0,0,0.0005372,0,
6.38224E+17,53.57535,-0.9818845,-9.408949,-115.1352,-11.08462,26.88719,-17.01029,-0.4441859,-4.27255,-61.51973,-6.98289,34.57793,0,0,0,89.74161,-110.4911,-102.1272,-36.10317,-110.6632,-50.33768,0.001067912,-0.1257102,0.09433498,0,0.3,0,0,0.000340929,0,
6.38224E+17,53.57535,-0.8883717,-9.292212,-114.9155,-11.01137,27.18017,-17.01029,-0.4441859,-4.27255,-61.51973,-6.98289,34.57793,0,0,0,89.96017,-110.3176,-101.9659,-36.10317,-110.6632,-50.33768,0.001067912,-0.1257102,0.09433498,0,0.3,0,0,9.79E-05,0,
6.38224E+17,53.50467,-0.6779679,-8.988697,-114.6957,-11.01137,27.54639,-17.01029,-0.4441859,-4.27255,-61.51973,-6.98289,34.57793,0,0,0,90.44427,-109.9402,-101.4362,-36.10317,-110.6632,-50.33768,0.001067912,-0.1257102,0.09433498,0,0.3,0,0,0,0,
6.38224E+17,53.05703,-0.07013461,-7.681251,-113.0843,-10.93813,29.45077,-17.01029,-0.4441859,-4.27255,-61.51973,-6.98289,34.57793,0,0,0,92.3324,-108.9667,-98.91653,-36.10317,-110.6632,-50.33768,0.001067912,-0.1257102,0.09433498,0,0.3,0,0,0,0,
6.38224E+17,51.78479,0.7948589,-5.813469,-111.3264,-11.01137,31.72137,-17.01029,-0.4441859,-4.27255,-61.51973,-6.98289,34.57793,0,0,0,94.14966,-107.4643,-94.22105,-36.10317,-110.6632,-50.33768,0.001067912,-0.1257102,0.09433498,0,0.3,0,0,0,0,
6.38224E+17,50.18272,2.174173,-3.548784,-111.0335,-11.30435,33.25952,-17.01029,-0.4441859,-4.27255,-61.51973,-6.98289,34.57793,0,0,0,96.01119,-104.6853,-88.30741,-36.10317,-110.6632,-50.33768,0.001067912,-0.1257102,0.09433498,0,0.3,0,0,0,0,
6.38224E+17,48.4864,2.945654,-1.02728,-110.887,-11.67058,34.13846,-17.01029,-0.4441859,-4.27255,-61.51973,-6.98289,34.57793,0,0,0,97.93014,-103.1259,-81.66728,-36.10317,-110.6632,-50.33768,0.001067912,-0.1257102,0.09433498,0,0.3,0,0,0,0,
6.38224E+17,47.47332,3.156058,0.0700418,-110.2278,-11.74383,34.43144,-17.01029,-0.4441859,-4.27255,-61.51973,-6.98289,34.57793,0,0,0,98.24506,-102.6582,-78.2408,-36.10317,-110.6632,-50.33768,0.001067912,-0.1257102,0.09433498,0,0.3,0,0,0,0,
6.38224E+17,45.21157,3.810647,2.241338,-109.3488,-11.96356,34.72442,-17.01029,-0.4441859,-4.27255,-61.51973,-6.98289,34.57793,0,0,0,98.13225,-101.0356,-70.9398,-36.10317,-110.6632,-50.33768,0.001067912,-0.1257102,0.09433498,0,0.3,0,0,0,0,
6.38224E+17,43.23253,4.652263,4.552717,-109.4953,-12.25654,33.91872,-17.01029,-0.4441859,-4.27255,-61.51973,-6.98289,34.57793,0,0,0,98.28879,-98.76348,-63.80208,-36.10317,-110.6632,-50.33768,0.001067912,-0.1257102,0.09433498,0,0.3,0,0,0,0,
6.38224E+17,41.34773,5.680903,7.261,-110.1545,-12.40303,19.9289,-17.01029,-0.4441859,-4.27255,-61.59297,-6.98289,34.57793,0,0,0,98.79621,-95.73057,-56.08139,-36.10317,-110.6632,-50.33768,0.001067912,-0.1257102,0.09433498,0,0.3,0,0,0,0,
6.38224E+17,40.21685,6.195224,8.70853,-110.6672,-12.32979,4.840393,-17.01029,-0.4441859,-4.27255,-61.51973,-6.98289,34.57793,0,0,0,98.63539,-94.07199,-51.70039,-36.10317,-110.6632,-50.33768,0.001067912,-0.1257102,0.09433498,0,0.3,0,0,0,0,
6.38224E+17,37.88441,7.15373,11.08995,-112.3519,-12.40303,-19.62349,-17.01029,-0.4441859,-4.27255,-61.51973,-7.056135,34.57793,0,0,0,96.99969,-90.90353,-43.67847,-36.10317,-110.6632,-50.33768,0.001067912,-0.1257102,0.09433498,0,0.3,0,0,0,0,
6.38224E+17,35.50486,8.158993,12.88769,-114.769,-12.8425,-24.89715,-17.01029,-0.4441859,-4.27255,-61.51973,-6.98289,34.65118,0,0,0,93.93565,-87.7157,-36.68071,-36.10317,-110.6632,-50.33768,0.001067912,-0.1257102,0.09433498,0,0.3,0,0,0,0,
6.38224E+17,34.3033,8.743448,13.70484,-115.7212,-13.20873,-23.13926,-17.01029,-0.4441859,-4.27255,-61.51973,-6.98289,34.57793,0,0,0,92.08436,-85.93282,-33.37609,-36.10317,-110.6632,-50.33768,0.001067912,-0.1257102,0.09433498,0,0.3,0,0,0,0,
6.38224E+17,31.87663,9.514929,15.4092,-116.8931,-14.23416,-16.69369,-17.01029,-0.4441859,-4.27255,-61.51973,-6.98289,34.57793,0,0,0,88.16389,-83.16307,-26.57991,-36.10317,-110.6632,-50.33768,0.001067912,-0.1257102,0.09433498,0,0.3,0,0,0,0,
6.38224E+17,29.49707,10.12276,17.58049,-118.5045,-14.89337,-10.10162,-17.01029,-0.4441859,-4.27255,-61.51973,-7.056135,34.57793,0,0,0,84.46858,-80.33439,-19.03447,-36.10317,-110.6632,-50.33768,0.001067912,-0.1257102,0.09433498,0,0.3,0,0,0,0,
6.38224E+17,26.74056,11.31505,20.47555,-120.2624,-15.47933,-5.706912,-17.01029,-0.4441859,-4.27255,-61.51973,-6.98289,34.57793,0,0,0,79.82358,-75.41138,-9.917955,-36.10317,-110.6632,-50.33768,0.001067912,-0.1257102,0.09433498,0,0.3,0,0,0.000606812,0,
6.38224E+17,25.04424,11.78261,22.20325,-120.6286,-16.28502,-4.168763,-17.01029,-0.4441859,-4.27255,-61.51973,-6.98289,34.57793,0,0,0,76.59188,-72.88204,-4.42873,-36.10317,-110.6632,-50.33768,0.001067912,-0.1257102,0.09433498,0,0.3,0,0,0.00152784,0,
6.38224E+17,24.14896,12.06315,23.20718,-120.9216,-16.87099,-3.436311,-17.01029,-0.4441859,-4.27255,-61.51973,-6.98289,34.57793,0,0,0,74.84791,-71.34133,-1.408273,-36.10317,-110.6632,-50.33768,0.001067912,-0.1257102,0.09433498,0,0.3,0,0,0.001979468,0,
6.38224E+17,22.78248,12.74112,25.05162,-121.7273,-17.96966,-2.70386,-17.01029,-0.4441859,-4.27255,-61.51973,-6.98289,34.57793,0,0,0,72.23127,-68.04548,3.628568,-36.10317,-110.6632,-50.33768,0.001067912,-0.1257102,0.09433498,0,0.3,0,0,0.002784476,0,
6.38224E+17,21.10972,13.65287,27.17622,-122.24,-19.94728,-2.337634,-17.01029,-0.4441859,-4.27255,-61.51973,-6.98289,34.57793,0,0,0,68.6048,-63.80318,9.353675,-36.10317,-110.6632,-50.33768,0.001067912,-0.1257102,0.09433498,0,0.3,0,0,0.003440073,0,
6.38224E+17,20.26157,13.98017,28.22684,-122.533,-21.63192,-2.264389,-17.01029,-0.4441859,-4.27255,-61.51973,-6.98289,34.57793,0,0,0,66.65353,-61.92679,12.21004,-36.10317,-110.6632,-50.33768,0.001067912,-0.1257102,0.09433498,0,0.3,0,0,0.00371671,0,
6.38224E+17,18.40033,14.37759,30.35144,-122.7527,-27.2718,-2.117898,-17.01029,-0.4441859,-4.27255,-61.51973,-6.98289,34.57793,0,0,0,62.04367,-58.61105,18.15657,-36.10317,-110.6632,-50.33768,0.001067912,-0.1257102,0.09433498,0,0.3,0,0,0.004191882,0,
6.38224E+17,16.49197,14.37759,32.21923,-122.0202,-35.91473,-2.117898,-17.01029,-0.4441859,-4.27255,-61.51973,-6.98289,34.57793,0,0,0,56.85297,-56.35372,23.68121,-36.10317,-110.6632,-50.33768,0.001067912,-0.1257102,0.09433498,0,0.3,0,0,0.004615553,0,
6.38224E+17,14.34802,14.35422,34.08701,-121.8737,-46.82826,-2.044653,-17.01029,-0.4441859,-4.27255,-61.51973,-6.98289,34.57793,0,0,0,50.53441,-54.02922,29.2125,-36.10317,-110.6632,-50.33768,0.001067912,-0.1257102,0.09433498,0,0.3,0,0,0.005037412,0,
6.38224E+17,12.55746,14.588,35.4645,-122.0935,-54.29927,-2.117898,-17.01029,-0.4441859,-4.27255,-61.51973,-7.056135,34.57793,0,0,0,44.87965,-51.67385,33.13261,-36.10317,-110.6632,-50.33768,0.001067912,-0.1257102,0.09433498,0,0.3,0,0,0.005251568,0,
6.38224E+17,10.95538,15.05556,36.44508,-122.6062,-58.03477,-2.264389,-17.01029,-0.4441859,-4.27255,-61.51973,-6.98289,34.57793,0,0,0,39.52727,-49.28188,35.849,-36.10317,-110.6632,-50.33768,0.001067912,-0.1257102,0.09433498,0,0.3,0,0,0.005690406,0,
6.38224E+17,8.858545,15.35948,37.93931,-123.9246,-58.76722,-2.191144,-17.01029,-0.4441859,-4.27255,-61.51973,-6.98289,34.57793,0,0,0,32.42749,-46.49716,39.71241,-36.10317,-110.6632,-50.33768,0.001067912,-0.1257102,0.09433498,0,0.3,0,0,0.006141016,0,
6.38224E+17,8.010387,15.35948,38.73312,-125.0233,-58.10802,-2.191144,-17.01029,-0.4441859,-4.27255,-61.51973,-6.98289,34.57793,0,0,0,29.54601,-45.35121,41.60463,-36.10317,-110.6632,-50.33768,0.001067912,-0.1257102,0.09433498,0,0.3,0,0,0.006333892,0,
6.38224E+17,5.819311,15.28934,42.04842,-128.1728,-54.29927,-3.729292,-17.01029,-0.4441859,-4.27255,-61.51973,-6.98289,34.57793,0,0,0,22.09754,-40.50936,48.46942,-36.10317,-110.6632,-50.33768,0.001067912,-0.1257102,0.09433498,0,0.3,0,0,0.00651907,0,
6.38224E+17,5.253871,15.21921,43.16909,-127.9531,-53.0541,-5.633667,-17.01029,-0.4441859,-4.27255,-61.51973,-6.98289,34.57793,0,0,0,20.13647,-38.90112,50.63125,-36.10317,-110.6632,-50.33768,0.001067912,-0.1257102,0.09433498,0,0.3,0,0,0.006405428,0,
6.38224E+17,4.264353,14.56462,45.31704,-126.8544,-51.07648,-9.076189,-17.01029,-0.4441859,-4.27255,-61.51973,-6.98289,34.57793,0,0,0,16.64717,-36.88573,54.90797,-36.10317,-110.6632,-50.33768,0.001067912,-0.1257102,0.09433498,0,0.3,0,0,0.005944291,0,
6.38224E+17,3.698914,13.16193,46.62449,-125.9022,-51.73569,-6.659099,-17.01029,-0.4441859,-4.27255,-61.51973,-7.056135,34.57793,0,0,0,14.63001,-37.86738,57.95243,-36.10317,-110.6632,-50.33768,0.001067912,-0.1257102,0.09433498,0,0.3,0,0,0.005331027,0,
6.38224E+17,3.628234,12.2268,46.90466,-125.0233,-53.27384,-0.9459759,-17.01029,-0.4441859,-4.27255,-61.51973,-6.98289,34.57793,0,0,0,14.40937,-39.51552,58.89337,-36.10317,-110.6632,-50.33768,0.001067912,-0.1257102,0.09433498,0,0.3,0,0,0.005034582,0,
6.38224E+17,4.028753,10.56695,46.90466,-120.1159,-57.88828,14.72849,-17.01029,-0.4441859,-4.27255,-61.51973,-6.98289,34.57793,0,0,0,16.05115,-43.30235,59.54855,-36.10317,-110.6632,-50.33768,0.001067912,-0.1257102,0.09433498,0,0.3,0,0,0.004513229,0,
6.38224E+17,4.547072,8.299262,48.67905,-116.6733,-60.96458,22.34599,-17.01029,-0.4441859,-4.27255,-61.51973,-6.98289,34.57793,0,0,0,18.40064,-45.44965,63.02186,-36.10317,-110.6632,-50.33768,0.001067912,-0.1257102,0.09433498,0,0.3,0,0,0.003858877,0,
6.38224E+17,4.664873,6.990083,50.00984,-112.9378,-61.77028,23.6644,-17.01029,-0.4441859,-4.27255,-61.51973,-6.98289,34.57793,0,0,0,19.07337,-46.11981,65.39871,-36.10317,-110.6632,-50.33768,0.001067912,-0.1257102,0.09433498,0,0.3,0,0,0.003394911,0,
6.38224E+17,4.711992,5.096448,51.15386,-95.28575,-62.64922,19.56267,-17.01029,-0.4441859,-4.27255,-61.51973,-6.98289,34.57793,0,0,0,19.44259,-48.44546,67.53027,-36.10317,-110.6632,-50.33768,0.001067912,-0.1257102,0.09433498,0,0.3,0,0,0.002392499,0,
6.38224E+17,4.641313,4.652263,48.77244,-64.2298,-60.96458,-5.853402,-17.01029,-0.4441859,-4.27255,-61.51973,-6.98289,34.57793,0,0,0,18.87022,-53.71873,64.0882,-36.10317,-110.6632,-50.33768,0.001067912,-0.1257102,0.09433498,0,0.3,0,0,0.001749919,0,
6.38224E+17,4.711992,4.441859,46.11085,-42.76897,-56.49662,-22.84628,-17.01029,-0.4441859,-4.27255,-61.51973,-6.98289,34.57793,0,0,0,18.816,-58.76932,59.92833,-36.10317,-110.6632,-50.33768,0.001067912,-0.1257102,0.09433498,0,0.3,0,0,0.001679401,0,
6.38224E+17,4.711992,4.278211,44.63997,-33.75981,-53.27384,-28.63265,-17.01029,-0.4441859,-4.27255,-61.51973,-7.056135,34.57793,0,0,0,18.62084,-61.58548,57.56064,-36.10317,-110.6632,-50.33768,0.001067912,-0.1257102,0.09433498,0,0.3,0,0,0.001871825,0,
6.38224E+17,4.688432,3.600243,41.95504,-20.35595,-45.65634,-36.1769,-17.01029,-0.4441859,-4.27255,-61.51973,-6.98289,34.57793,0,0,0,18.1651,-67.44467,53.14397,-36.10317,-110.6632,-50.33768,0.001067912,-0.1257102,0.09433498,0,0.3,0,0,0.002690302,0,
6.38224E+17,4.688432,2.524846,41.53479,-11.2003,-39.4305,-39.83916,-17.01029,-0.4441859,-4.27255,-61.51973,-7.056135,34.57793,0,0,0,18.11638,-70.59517,52.54992,-36.10317,-110.6632,-50.33768,0.001067912,-0.1257102,0.09433498,0,0.3,0,0,0.003741385,0,
6.38224E+17,4.688432,2.174173,41.81495,-3.729292,-34.0836,-43.57467,-17.01029,-0.4441859,-4.27255,-61.51973,-7.056135,34.65118,0,0,0,18.15892,-70.97707,53.06868,-36.10317,-110.6632,-50.33768,0.001067912,-0.1257102,0.09433498,0,0.3,0,0,0.004757493,0,
6.38224E+17,4.594193,2.174173,42.04842,1.983831,-29.98187,-48.9948,-17.01029,-0.4441859,-4.27255,-61.51973,-6.98289,34.57793,0,0,0,17.82709,-70.61397,53.50119,-36.10317,-110.6632,-50.33768,0.001067912,-0.1257102,0.09433498,0,0.3,0,0,0.005728777,0,
6.38224E+17,4.499953,2.174173,42.77219,3.81496,-28.00425,-52.43733,-17.01029,-0.4441859,-4.27255,-61.51973,-6.98289,34.57793,0,0,0,17.55975,-69.47789,54.77008,-36.10317,-110.6632,-50.33768,0.001067912,-0.1257102,0.09433498,0,0.3,0,0,0.00613762,0,
6.38224E+17,4.287913,2.361199,45.22365,6.525032,-24.41524,-57.5645,-17.01029,-0.4441859,-4.27255,-61.51973,-6.98289,34.57793,0,0,0,17.03947,-65.08001,58.90892,-36.10317,-110.6632,-50.33768,0.001067912,-0.1257102,0.09433498,0,0.3,0,0,0.006625469,0,
6.38224E+17,4.193673,2.875519,46.15754,8.282915,-21.85166,-59.6886,-17.01029,-0.4441859,-4.27255,-61.51973,-6.98289,34.57793,0,0,0,16.77268,-62.32892,60.39631,-36.10317,-110.6632,-50.33768,0.001067912,-0.1257102,0.09433498,0,0.3,0,0,0.006830796,0,
6.38224E+17,4.193673,3.38984,46.67118,8.942122,-18.92185,-62.98463,-17.01029,-0.4441859,-4.27255,-61.51973,-6.98289,34.57793,0,0,0,16.82817,-60.26778,61.15304,-36.10317,-110.6632,-50.33768,0.001067912,-0.1257102,0.09433498,0,0.3,0,0,0.006911274,0,
6.38224E+17,4.193673,3.670378,46.99805,9.088613,-17.09072,-66.5004,-17.01029,-0.4441859,-4.27255,-61.51973,-6.98289,34.57793,0,0,0,16.86329,-59.06123,61.63198,-36.10317,-110.6632,-50.33768,0.001067912,-0.1257102,0.09433498,0,0.3,0,0,0.006897918,0,
6.38224E+17,4.193673,4.511993,48.04868,8.868877,-13.20873,-71.11485,-17.01029,-0.4441859,-4.27255,-61.51973,-6.98289,34.57793,0,0,0,16.97382,-55.304,63.1394,-36.10317,-110.6632,-50.33768,0.001067912,-0.1257102,0.09433498,0,0.3,0,0,0.006694289,0,
6.38224E+17,4.217233,5.680903,48.95922,8.35616,-9.25349,-73.53194,-17.01029,-0.4441859,-4.27255,-61.51973,-7.056135,34.57793,0,0,0,17.15449,-51.00702,64.29168,-36.10317,-110.6632,-50.33768,0.001067912,-0.1257102,0.09433498,0,0.3,0,0,0.006260771,0,
6.38224E+17,4.240793,6.24198,49.40281,8.282915,-7.349115,-74.55737,-17.01029,-0.4441859,-4.27255,-61.51973,-6.98289,34.57793,0,0,0,17.29003,-48.92693,64.82237,-36.10317,-110.6632,-50.33768,0.001067912,-0.1257102,0.09433498,0,0.3,0,0,0.005957761,0,
6.38224E+17,4.264353,7.200486,50.36005,8.136425,-3.540367,-76.68148,-17.01029,-0.4441859,-4.27255,-61.51973,-6.98289,34.57793,0,0,0,17.47324,-45.0078,65.98647,-36.10317,-110.6632,-50.33768,0.001067912,-0.1257102,0.09433498,0,0.3,0,0,0.005186257,0,
6.38224E+17,4.264353,8.06548,51.2239,8.209671,-0.4640697,-78.29288,-17.01029,-0.4441859,-4.27255,-61.51973,-6.98289,34.57793,0,0,0,17.54786,-41.45462,66.9872,-36.10317,-110.6632,-50.33768,0.001067912,-0.1257102,0.09433498,0,0.3,0,0,0.004222896,0,
6.38224E+17,4.264353,9.351281,52.74147,7.770199,3.051698,-79.68453,-17.01029,-0.4441859,-4.27255,-61.51973,-6.98289,34.57793,0,0,0,17.67591,-35.71411,68.70464,-36.10317,-110.6632,-50.33768,0.001067912,-0.1257102,0.09433498,0,0.3,0,0,0.002995689,0,
6.38224E+17,4.264353,10.7306,54.11897,6.818012,5.175808,-81.00294,-17.01029,-0.4441859,-4.27255,-61.51973,-6.98289,34.57793,0,0,0,17.77633,-29.97839,70.05128,-36.10317,-110.6632,-50.33768,0.001067912,-0.1257102,0.09433498,0,0.3,0,0,0.001462869,0,
6.38224E+17,4.287913,11.52545,54.93612,5.93907,6.274486,-81.7354,-17.01029,-0.4441859,-4.27255,-61.51973,-6.98289,34.57793,0,0,0,17.93018,-26.6144,70.78847,-36.10317,-110.6632,-50.33768,0.001067912,-0.1257102,0.09433498,0,0.3,0,0,0.000564253,0,
6.38224E+17,4.335033,13.06842,56.47704,3.741715,7.812634,-82.46785,-17.01029,-0.4441859,-4.27255,-61.51973,-6.98289,34.57793,0,0,0,18.22176,-20.14301,72.02584,-36.10317,-110.6632,-50.33768,0.001067912,-0.1257102,0.09433498,0,0.3,0,0,0,0,
6.38224E+17,4.499953,14.35422,57.71444,1.031644,8.764822,-83.20029,-17.01029,-0.4441859,-4.27255,-61.51973,-6.98289,34.57793,0,0,0,18.98067,-14.8179,72.8249,-36.10317,-110.6632,-50.33768,0.001067912,-0.1257102,0.09433498,0,0.3,0,0,0,0,
6.38224E+17,4.594193,14.89192,58.25143,-0.3600145,9.131048,-83.42004,-17.01029,-0.4441859,-4.27255,-61.51973,-6.98289,34.57793,0,0,0,19.4051,-12.54733,73.1389,-36.10317,-110.6632,-50.33768,0.001067912,-0.1257102,0.09433498,0,0.3,0,0,0,0,
6.38224E+17,4.711992,16.06083,59.44214,-2.484124,9.790254,-83.63977,-17.01029,-0.4441859,-4.27255,-61.51973,-6.98289,34.57793,0,0,0,19.95969,-7.553937,73.80379,-36.10317,-110.6632,-50.33768,0.001067912,-0.1257102,0.09433498,0,0.3,0,0,0,0,
6.38224E+17,4.759112,17.27649,60.67955,-4.388499,9.790254,-83.71302,-17.01029,-0.4441859,-4.27255,-61.51973,-6.98289,34.57793,0,0,0,20.21075,-2.347966,74.41088,-36.10317,-110.6632,-50.33768,0.001067912,-0.1257102,0.09433498,0,0.3,0,0,0,0,
6.38224E+17,4.782672,17.67392,61.07645,-5.267441,9.790254,-84.07924,-17.01029,-0.4441859,-4.27255,-61.51973,-6.98289,34.57793,0,0,0,20.32489,-0.6587083,74.57375,-36.10317,-110.6632,-50.33768,0.001067912,-0.1257102,0.09433498,0,0.3,0,0,0,0,
6.38224E+17,5.088952,18.56229,61.9403,-7.391551,10.00999,-86.78931,-17.01029,-0.4441859,-4.27255,-61.51973,-6.98289,34.57793,0,0,0,21.65121,3.073351,74.77649,-36.10317,-110.6632,-50.33768,0.001067912,-0.1257102,0.09433498,0,0.3,0,0,0,0,
6.38224E+17,5.465911,19.1935,62.57067,-8.563474,10.44946,-89.42614,-17.01029,-0.4441859,-4.27255,-61.51973,-6.98289,34.57793,0,0,0,23.27008,5.761857,74.83551,-36.10317,-110.6632,-50.33768,0.001067912,-0.1257102,0.09433498,0,0.3,0,0,0,0,
6.38224E+17,6.596789,20.10526,62.7808,-10.24811,11.10867,-91.25727,-17.01029,-0.4441859,-4.27255,-61.51973,-6.98289,34.57793,0,0,0,28.00894,8.19475,73.84306,-36.10317,-110.6632,-50.33768,0.001067912,-0.1257102,0.09433498,0,0.3,0,0,0,0,
6.38224E+17,7.680547,20.71309,62.8275,-10.83407,11.54814,-91.62349,-17.01029,-0.4441859,-4.27255,-61.51973,-6.98289,34.57793,0,0,0,32.52548,9.61727,72.83029,-36.10317,-110.6632,-50.33768,0.001067912,-0.1257102,0.09433498,0,0.3,0,0,0,0,
6.38224E+17,10.71978,21.99889,62.94423,-10.83407,11.76787,-93.67436,-17.01029,-0.4441859,-4.27255,-61.51973,-6.98289,34.57793,0,0,0,45.08739,12.64613,69.8175,-36.10317,-110.6632,-50.33768,0.001067912,-0.1257102,0.09433498,0,0.3,0,0,0,0,
6.38224E+17,13.97106,22.79375,63.5746,-8.709964,11.03542,-98.06907,-17.01029,-0.4441859,-4.27255,-61.51973,-6.98289,34.57793,0,0,0,58.51169,15.66675,66.83363,-36.10317,-110.6632,-50.33768,0.001067912,-0.1257102,0.09433498,0,0.3,0,0,0,0,
6.38224E+17,17.17521,23.28469,64.27502,-5.706912,10.15648,-104.2217,-17.01029,-0.4441859,-4.27255,-61.51973,-7.056135,34.65118,0,0,0,71.64509,18.18245,63.45287,-36.10317,-110.6632,-50.33768,0.001067912,-0.1257102,0.09433498,0,0.3,0,0,0,0,
6.38224E+17,19.88461,23.65874,64.97544,-2.777105,9.204292,-111.7659,-17.01029,-0.4441859,-4.27255,-61.51973,-6.98289,34.57793,0,0,0,82.64205,20.45385,60.13792,-36.10317,-110.6632,-50.33768,0.001067912,-0.1257102,0.09433498,0,0.3,0,0,0,0,
6.38224E+17,21.15685,23.89252,65.27895,-1.385447,8.618331,-115.1352,-17.01029,-0.4441859,-4.27255,-61.51973,-6.98289,34.57793,0,0,0,87.72284,21.59265,58.31921,-36.10317,-110.6632,-50.33768,0.001067912,-0.1257102,0.09433498,0,0.3,0,0,0,0,
6.38224E+17,23.5364,24.17306,65.53577,1.178134,7.446409,-121.7273,-17.01029,-0.4441859,-4.27255,-61.51973,-6.98289,34.57793,0,0,0,97.05145,22.73248,54.46585,-36.10317,-110.6632,-50.33768,0.001067912,-0.1257102,0.09433498,0,0.3,0,0,0,0,
6.38224E+17,25.51544,24.19644,65.53577,3.155754,6.933692,-125.3163,-17.01029,-0.4441859,-4.27255,-61.51973,-6.98289,34.57793,0,0,0,104.6786,22.78211,50.96127,-36.10317,-110.6632,-50.33768,0.001067912,-0.1257102,0.09433498,0,0.3,0,0,0,0,
6.38224E+17,26.5992,24.19644,65.53577,4.034696,6.787202,-126.3417,-17.01029,-0.4441859,-4.27255,-61.51973,-6.98289,34.57793,0,0,0,108.808,22.78211,48.94214,-36.10317,-110.6632,-50.33768,0.001067912,-0.1257102,0.09433498,0,0.3,0,0,0,0,
6.38224E+17,28.76671,24.19644,65.48908,5.93907,6.860447,-127.6601,-17.01029,-0.4441859,-4.27255,-61.51973,-6.98289,34.57793,0,0,0,116.9267,22.68321,44.63193,-36.10317,-110.6632,-50.33768,0.001067912,-0.1257102,0.09433498,0,0.3,0,0,0,0,
6.38224E+17,31.19339,24.36009,65.58247,8.136425,7.153428,-127.8799,-17.01029,-0.4441859,-4.27255,-61.51973,-6.98289,34.57793,0,0,0,125.8052,23.22824,39.4332,-36.10317,-110.6632,-50.33768,0.001067912,-0.1257102,0.09433498,0,0.3,0,0,0,0,
6.38224E+17,32.37139,24.43022,65.58247,9.528083,7.373164,-127.8799,-17.01029,-0.4441859,-4.27255,-61.51973,-6.98289,34.57793,0,0,0,130.0142,23.37689,36.74597,-36.10317,-110.6632,-50.33768,0.001067912,-0.1257102,0.09433498,0,0.3,0,0,0,0,
6.38224E+17,34.49178,24.47698,65.58247,12.45789,7.812634,-127.8799,-17.01029,-0.4441859,-4.27255,-61.51973,-6.98289,34.57793,0,0,0,137.4881,23.47595,31.75796,-36.10317,-110.6632,-50.33768,0.001067912,-0.1257102,0.09433498,0,0.3,0,0,0,0,
6.38224E+17,36.23522,24.52374,65.51243,15.31445,8.545086,-127.8066,-17.01029,-0.4441859,-4.27255,-61.51973,-6.98289,34.57793,0,0,0,143.446,23.42658,27.39155,-36.10317,-110.6632,-50.33768,0.001067912,-0.1257102,0.09433498,0,0.3,0,0,0,0,
6.38224E+17,37.90798,24.52374,65.27895,18.02452,9.277537,-127.2206,-17.01029,-0.4441859,-4.27255,-61.51973,-6.98289,34.57793,0,0,0,148.9598,22.93254,22.94231,-36.10317,-110.6632,-50.33768,0.001067912,-0.1257102,0.09433498,0,0.3,0,0,0,0,
6.38224E+17,38.70901,24.54711,65.27895,19.34294,9.8635,-123.9246,-17.01029,-0.4441859,-4.27255,-61.51973,-6.98289,34.57793,0,0,0,151.6054,22.98203,20.82348,-36.10317,-110.6632,-50.33768,0.001067912,-0.1257102,0.09433498,0,0.3,0,0,0,0,
6.38224E+17,39.06242,24.57049,65.27895,20.00214,10.37621,-120.9216,-17.01029,-0.4441859,-4.27255,-61.51973,-6.98289,34.57793,0,0,0,152.7551,23.03152,19.86723,-36.10317,-110.6632,-50.33768,0.001067912,-0.1257102,0.09433498,0,0.3,0,0,0,0,
6.38224E+17,39.41582,24.54711,64.812,20.73459,11.10867,-116.8931,-17.01029,-0.4441859,-4.27255,-61.51973,-6.98289,34.57793,0,0,0,153.6363,21.99673,18.58471,-36.10317,-110.6632,-50.33768,0.001067912,-0.1257102,0.09433498,0,0.3,0,0,0,0,
6.38224E+17,39.60429,24.54711,63.48121,20.80784,11.18191,-115.4282,-17.01029,-0.4441859,-4.27255,-61.51973,-6.98289,34.57793,0,0,0,153.3895,19.2095,17.03771,-36.10317,-110.6632,-50.33768,0.001067912,-0.1257102,0.09433498,0,0.3,0,0,0,0,
6.38224E+17,39.62786,24.52374,61.70683,20.00214,11.10867,-115.2817,-17.01029,-0.4441859,-4.27255,-61.51973,-6.98289,34.57793,0,0,0,152.2678,15.49393,15.52802,-36.10317,-110.6632,-50.33768,0.001067912,-0.1257102,0.09433498,0,0.3,0,0,0,0,
6.38224E+17,39.62786,24.4536,60.72623,19.34294,10.74244,-115.2817,-17.01029,-0.4441859,-4.27255,-61.51973,-6.98289,34.57793,0,0,0,151.61,13.34517,14.73378,-36.10317,-110.6632,-50.33768,0.001067912,-0.1257102,0.09433498,0,0.3,0,0,0,0,
6.38224E+17,39.58073,24.2432,59.46548,18.09777,9.497273,-115.4282,-17.01029,-0.4441859,-4.27255,-61.51973,-6.98289,34.57793,0,0,0,150.656,10.35548,13.88654,-36.10317,-110.6632,-50.33768,0.001067912,-0.1257102,0.09433498,0,0.3,0,0,0,0,
6.38224E+17,39.51006,23.79901,58.57829,17.43856,6.787202,-115.4282,-17.01029,-0.4441859,-4.27255,-61.51973,-6.98289,34.57793,0,0,0,150.0226,7.6409,13.57697,-36.10317,-110.6632,-50.33768,0.001067912,-0.1257102,0.09433498,0,0.3,0,0,0,0,
6.38224E+17,39.36869,23.40158,58.20473,17.51181,4.223621,-115.5014,-17.01029,-0.4441859,-4.27255,-61.51973,-6.98289,34.57793,0,0,0,149.5192,6.052856,13.88057,-36.10317,-110.6632,-50.33768,0.001067912,-0.1257102,0.09433498,0,0.3,0,0,0,0,
6.38224E+17,39.15665,22.9574,57.71444,18.3175,1.293814,-115.2084,-17.01029,-0.4441859,-4.27255,-61.51973,-6.98289,34.57793,0,0,0,148.7185,4.135231,14.27877,-36.10317,-110.6632,-50.33768,0.001067912,-0.1257102,0.09433498,0,0.3,0,0,0,0,
6.38224E+17,38.40274,21.48457,56.08013,18.83022,-0.9767859,-114.0365,-17.01029,-0.4441859,-4.27255,-61.51973,-6.98289,34.57793,0,0,0,145.8174,-2.224165,15.60777,-36.10317,-110.6632,-50.33768,0.001067912,-0.1257102,0.09433498,0,0.3,0,0,0,0,
6.38224E+17,37.9551,20.47931,55.19294,18.3175,-1.269767,-113.7435,-17.01029,-0.4441859,-4.27255,-61.51973,-6.98289,34.57793,0,0,0,144.1742,-6.113116,16.48298,-36.10317,-110.6632,-50.33768,0.001067912,-0.1257102,0.09433498,0,0.3,0,0,0,0,
6.38224E+17,37.46034,17.95446,52.48465,15.53419,-0.4640697,-113.7435,-17.01029,-0.4441859,-4.27255,-61.51973,-6.98289,34.57793,0,0,0,141.4872,-16.75007,16.3042,-36.10317,-110.6632,-50.33768,0.001067912,-0.1257102,0.09433498,0,0.3,0,0,0,0,
6.38224E+17,37.46034,17.51027,51.73754,15.09472,0.1951368,-113.4506,-17.01029,-0.4441859,-4.27255,-61.51973,-6.98289,34.57793,0,0,0,141.0292,-19.10703,15.70649,-36.10317,-110.6632,-50.33768,0.001067912,-0.1257102,0.09433498,0,0.3,0,0,0,0,
6.38224E+17,37.3661,16.66866,49.65963,14.582,1.440305,-110.9602,-17.01029,-0.4441859,-4.27255,-61.51973,-6.98289,34.57793,0,0,0,139.2166,-24.72139,13.96127,-36.10317,-110.6632,-50.33768,0.001067912,-0.1257102,0.09433498,0,0.3,0,0,0,0,
6.38224E+17,36.94202,16.06083,47.74516,14.50875,2.538982,-109.715,-17.01029,-0.4441859,-4.27255,-61.51973,-6.98289,34.57793,0,0,0,136.3357,-29.42615,12.95506,-36.10317,-110.6632,-50.33768,0.001067912,-0.1257102,0.09433498,0,0.3,0,0,0,0,
6.38224E+17,35.45774,15.56988,45.59721,13.84955,3.857395,-109.7883,-17.01029,-0.4441859,-4.27255,-61.51973,-6.98289,34.57793,0,0,0,129.7845,-34.1618,13.88535,-36.10317,-110.6632,-50.33768,0.001067912,-0.1257102,0.09433498,0,0.3,0,0,0,0,
6.38224E+17,34.46822,15.47637,44.47654,12.97061,4.370111,-110.1545,-17.01029,-0.4441859,-4.27255,-61.51973,-7.056135,34.57793,0,0,0,125.6079,-36.21697,14.628,-36.10317,-110.6632,-50.33768,0.001067912,-0.1257102,0.09433498,0,0.3,0,0,0,0,
6.38224E+17,33.69075,15.45299,43.65939,12.23815,4.663092,-110.5207,-17.01029,-0.4441859,-4.27255,-61.51973,-6.98289,34.57793,0,0,0,122.3636,-37.59215,15.19063,-36.10317,-110.6632,-50.33768,0.001067912,-0.1257102,0.09433498,0,0.3,0,0,0,0,
6.38224E+17,32.11223,15.35948,41.67487,10.48027,5.102563,-112.1321,-17.01029,-0.4441859,-4.27255,-61.51973,-6.98289,34.57793,0,0,0,115.4866,-40.93212,15.66423,-36.10317,-110.6632,-50.33768,0.001067912,-0.1257102,0.09433498,0,0.3,0,0,0,0,
6.38224E+17,30.36879,15.03218,39.52692,8.209671,5.249053,-115.6479,-17.01029,-0.4441859,-4.27255,-61.51973,-6.98289,34.57793,0,0,0,108.0168,-44.92041,15.99023,-36.10317,-110.6632,-50.33768,0.001067912,-0.1257102,0.09433498,0,0.3,0,0,0,0,
6.38224E+17,28.36619,14.49449,38.21947,6.08556,5.542034,-117.479,-17.01029,-0.4441859,-4.27255,-61.51973,-6.98289,34.57793,0,0,0,100.5351,-48.04023,17.84833,-36.10317,-110.6632,-50.33768,0.001067912,-0.1257102,0.09433498,0,0.3,0,0,0,0,
6.38224E+17,27.23532,14.14381,37.61245,4.986883,5.76177,-117.6988,-17.01029,-0.4441859,-4.27255,-61.51973,-6.98289,34.57793,0,0,0,96.42298,-49.6992,18.98473,-36.10317,-110.6632,-50.33768,0.001067912,-0.1257102,0.09433498,0,0.3,0,0,0,0,
6.38224E+17,25.04424,12.95152,36.51513,2.643037,6.127995,-117.6988,-17.01029,-0.4441859,-4.27255,-61.51973,-6.98289,34.57793,0,0,0,88.60276,-53.93609,21.27684,-36.10317,-110.6632,-50.33768,0.001067912,-0.1257102,0.09433498,0,0.3,0,0,0,0,
6.38224E+17,23.11232,11.4787,36.14157,0.5921727,6.640712,-117.6988,-17.01029,-0.4441859,-4.27255,-61.51973,-7.056135,34.57793,0,0,0,82.16946,-57.80129,24.17886,-36.10317,-110.6632,-50.33768,0.001067912,-0.1257102,0.09433498,0,0.3,0,0,0,0,
6.38224E+17,22.21704,10.91762,36.04818,-0.140279,6.933692,-117.6255,-17.01029,-0.4441859,-4.27255,-61.51973,-6.98289,34.57793,0,0,0,79.18066,-59.21032,25.51143,-36.10317,-110.6632,-50.33768,0.001067912,-0.1257102,0.09433498,0,0.3,0,0,0,0,
6.38224E+17,19.93173,10.1929,35.39445,-1.605182,7.519653,-117.4058,-17.01029,-0.4441859,-4.27255,-61.51973,-6.98289,34.57793,0,0,0,71.07156,-61.75679,27.64386,-36.10317,-110.6632,-50.33768,0.001067912,-0.1257102,0.09433498,0,0.3,0,0,0,0,
6.38224E+17,17.43437,9.514929,34.88082,-3.289821,7.959125,-117.8453,-17.01029,-0.4441859,-4.27255,-61.51973,-6.98289,34.57793,0,0,0,62.25197,-63.99943,29.87947,-36.10317,-110.6632,-50.33768,0.001067912,-0.1257102,0.09433498,0,0.3,0,0,0,0,
6.38224E+17,15.05481,9.187634,34.88082,-5.487176,8.178861,-121.8737,-17.01029,-0.4441859,-4.27255,-61.51973,-6.98289,34.57793,0,0,0,54.00012,-64.75105,32.41272,-36.10317,-110.6632,-50.33768,0.001067912,-0.1257102,0.09433498,0,0.3,0,0,0,0,
6.38224E+17,12.6517,9.187634,35.39445,-8.416983,7.446409,-128.6123,-17.01029,-0.4441859,-4.27255,-61.51973,-6.98289,34.57793,0,0,0,45.74877,-64.06302,35.45424,-36.10317,-110.6632,-50.33768,0.001067912,-0.1257102,0.09433498,0,0.3,0,0,0,0,
6.38224E+17,11.33234,9.187634,36.32835,-9.955132,6.860447,-129.418,-17.01029,-0.4441859,-4.27255,-61.51973,-6.98289,34.57793,0,0,0,41.39016,-62.78972,38.18073,-36.10317,-110.6632,-50.33768,0.001067912,-0.1257102,0.09433498,0,0.3,0,0,0,0,
6.38224E+17,10.57842,9.187634,36.95872,-10.68758,6.567466,-129.4913,-17.01029,-0.4441859,-4.27255,-61.51973,-6.98289,34.57793,0,0,0,38.88515,-61.91409,39.86462,-36.10317,-110.6632,-50.33768,0.001067912,-0.1257102,0.09433498,0,0.3,0,0,0,0,
6.38224E+17,9.023465,9.211012,38.17278,-11.56653,5.835015,-128.6123,-17.01029,-0.4441859,-4.27255,-61.51973,-6.98289,34.57793,0,0,0,33.57067,-60.13773,43.0465,-36.10317,-110.6632,-50.33768,0.001067912,-0.1257102,0.09433498,0,0.3,0,0,0,0,
6.38224E+17,7.209348,9.444795,39.48022,-12.59196,5.249053,-126.9277,-17.01029,-0.4441859,-4.27255,-61.51973,-6.98289,34.57793,0,0,0,27.14808,-57.69304,46.26761,-36.10317,-110.6632,-50.33768,0.001067912,-0.1257102,0.09433498,0,0.3,0,0,0,0,
6.38224E+17,5.159632,10.00587,40.97445,-14.05686,4.370111,-124.2176,-17.01029,-0.4441859,-4.27255,-61.51973,-6.98289,34.57793,0,0,0,19.67349,-54.16008,49.5259,-36.10317,-110.6632,-50.33768,0.001067912,-0.1257102,0.09433498,0,0.3,0,0,0,0,
6.38224E+17,3.321954,10.91762,42.44533,-16.18097,3.63766,-122.0935,-17.01029,-0.4441859,-4.27255,-61.51973,-6.98289,34.57793,0,0,0,12.80228,-49.7957,52.2113,-36.10317,-110.6632,-50.33768,0.001067912,-0.1257102,0.09433498,0,0.3,0,0,0,0,
6.38224E+17,2.497356,11.45532,43.23914,-17.42614,3.271434,-120.9216,-17.01029,-0.4441859,-4.27255,-61.51973,-6.98289,34.57793,0,0,0,9.675202,-47.31179,53.48349,-36.10317,-110.6632,-50.33768,0.001067912,-0.1257102,0.09433498,0,0.3,0,0,0,0,
6.38224E+17,0.9423984,12.64761,45.06022,-19.55025,2.246002,-118.2847,-17.01029,-0.4441859,-4.27255,-61.51973,-6.98289,34.57793,0,0,0,3.692499,-41.646,56.12566,-36.10317,-110.6632,-50.33768,0.001067912,-0.1257102,0.09433498,0,0.3,0,0,0,0,
6.38224E+17,-0.5418791,14.14381,46.85796,-21.67436,0.8543434,-115.6479,-17.01029,-0.4441859,-4.27255,-61.51973,-6.98289,34.57793,0,0,0,-2.143128,-35.25102,58.24768,-36.10317,-110.6632,-50.33768,0.001067912,-0.1257102,0.09433498,0,0.3,0,0,0,0,
6.38224E+17,-1.225118,15.10232,47.74516,-22.84628,0.1951368,-114.3295,-17.01029,-0.4441859,-4.27255,-61.51973,-6.98289,34.57793,0,0,0,-4.862934,-31.57497,59.04289,-36.10317,-110.6632,-50.33768,0.001067912,-0.1257102,0.09433498,0,0.3,0,0,0,0,
6.38224E+17,-2.167516,17.18298,49.61294,-24.89715,-1.416257,-111.9856,-17.01029,-0.4441859,-4.27255,-61.51973,-6.98289,34.57793,0,0,0,-8.659889,-23.65903,60.4549,-36.10317,-110.6632,-50.33768,0.001067912,-0.1257102,0.09433498,0,0.3,0,0,0,0,
6.38224E+17,-2.544476,19.59093,51.36399,-26.80152,-3.393876,-109.715,-17.01029,-0.4441859,-4.27255,-61.51973,-6.98289,34.57793,0,0,0,-10.20167,-15.19725,61.21732,-36.10317,-110.6632,-50.33768,0.001067912,-0.1257102,0.09433498,0,0.3,0,0,0,0,
6.38224E+17,-2.450236,22.13916,52.83487,-28.04669,-5.664476,-108.1769,-17.01029,-0.4441859,-4.27255,-61.51973,-6.98289,34.57793,0,0,0,-9.82367,-6.954713,61.22449,-36.10317,-110.6632,-50.33768,0.001067912,-0.1257102,0.09433498,0,0.3,0,0,0,0,
6.38224E+17,-2.332436,23.54185,53.81545,-28.63265,-6.98289,-107.7374,-17.01029,-0.4441859,-4.27255,-61.51973,-7.056135,34.57793,0,0,0,-9.355549,-2.115753,61.34002,-36.10317,-110.6632,-50.33768,0.001067912,-0.1257102,0.09433498,0,0.3,0,0,0,0,
6.38224E+17,-2.167516,26.39399,56.29026,-29.58484,-9.839451,-105.5401,-17.01029,-0.4441859,-4.27255,-61.51973,-6.98289,34.57793,0,0,0,-8.713185,8.622207,61.86305,-36.10317,-110.6632,-50.33768,0.001067912,-0.1257102,0.09433498,0,0.3,0,0,0,0,
6.38224E+17,-1.696317,28.73181,58.57829,-31.04974,-12.91575,-103.6357,-17.01029,-0.4441859,-4.27255,-61.51973,-6.98289,34.57793,0,0,0,-6.829966,17.93298,62.27542,-36.10317,-110.6632,-50.33768,0.001067912,-0.1257102,0.09433498,0,0.3,0,0,0,0,
6.38224E+17,-1.201558,29.83059,59.74565,-31.78219,-14.67363,-102.9765,-17.01029,-0.4441859,-4.27255,-61.51973,-6.98289,34.57793,0,0,0,-4.841221,22.49624,62.46773,-36.10317,-110.6632,-50.33768,0.001067912,-0.1257102,0.09433498,0,0.3,0,0,0,0,
6.38224E+17,0.2591596,32.05152,61.91695,-32.66114,-18.26265,-102.4638,-17.01029,-0.4441859,-4.27255,-61.51973,-6.98289,34.57793,0,0,0,1.043378,31.34175,62.32146,-36.10317,-110.6632,-50.33768,0.001067912,-0.1257102,0.09433498,0,0.3,0,0,0,0,
6.38224E+17,2.143956,34.01529,63.73803,-32.36815,-22.14464,-102.244,-17.01029,-0.4441859,-4.27255,-61.51973,-6.98289,34.57793,0,0,0,8.608796,38.9437,61.60684,-36.10317,-110.6632,-50.33768,0.001067912,-0.1257102,0.09433498,0,0.3,0,0,0,0,
6.38224E+17,3.180595,34.8569,64.57854,-31.85544,-24.12226,-102.244,-17.01029,-0.4441859,-4.27255,-61.51973,-6.98289,34.57793,0,0,0,12.75356,42.31974,61.15886,-36.10317,-110.6632,-50.33768,0.001067912,-0.1257102,0.09433498,0,0.3,0,0,0,0,
6.38224E+17,5.442351,36.21284,66.02607,-30.02431,-28.0775,-102.3905,-17.01029,-0.4441859,-4.27255,-61.51973,-6.98289,34.57793,0,0,0,21.76071,47.94847,60.05219,-36.10317,-110.6632,-50.33768,0.001067912,-0.1257102,0.09433498,0,0.3,0,0,0,0,
6.38224E+17,7.845467,36.98432,67.07669,-27.53397,-31.52002,-105.3936,-17.01029,-0.4441859,-4.27255,-61.51973,-6.98289,34.57793,0,0,0,31.30517,51.63324,58.84231,-36.10317,-110.6632,-50.33768,0.001067912,-0.1257102,0.09433498,0,0.3,0,0,0,0,
6.38224E+17,9.117705,37.28823,67.70707,-25.84933,-32.98492,-108.4699,-17.01029,-0.4441859,-4.27255,-61.51973,-6.98289,34.65118,0,0,0,36.36349,53.55151,58.22649,-36.10317,-110.6632,-50.33768,0.001067912,-0.1257102,0.09433498,0,0.3,0,0,0,0,
6.38224E+17,11.7093,37.7558,68.96782,-21.52787,-35.84149,-115.7212,-17.01029,-0.4441859,-4.27255,-61.51973,-6.98289,34.57793,0,0,0,46.65659,57.14157,56.76212,-36.10317,-110.6632,-50.33768,0.001067912,-0.1257102,0.09433498,0,0.3,0,0,0,0,
6.38224E+17,14.39514,37.9662,69.80833,-16.10773,-38.6248,-125.6825,-17.01029,-0.4441859,-4.27255,-61.51973,-6.98289,34.57793,0,0,0,57.25046,59.35912,54.70443,-36.10317,-110.6632,-50.33768,0.001067912,-0.1257102,0.09433498,0,0.3,0,0,0,0,
6.38224E+17,17.29301,37.9662,69.9484,-8.343738,-40.60242,-140.478,-17.01029,-0.4441859,-4.27255,-61.51973,-6.98289,34.57793,0,0,0,68.48731,59.66526,51.63194,-36.10317,-110.6632,-50.33768,0.001067912,-0.1257102,0.09433498,0,0.3,0,0,0,0,
6.38224E+17,19.08357,37.9662,69.97176,-3.363066,-41.18839,-141.7232,-17.01029,-0.4441859,-4.27255,-61.51973,-6.98289,34.57793,0,0,0,75.33352,59.7163,49.40216,-36.10317,-110.6632,-50.33768,0.001067912,-0.1257102,0.09433498,0,0.3,0,0,0,0,
6.38224E+17,20.12021,37.94283,69.9951,-0.140279,-41.40812,-141.8697,-17.01029,-0.4441859,-4.27255,-61.51973,-6.98289,34.57793,0,0,0,79.27862,59.72446,48.0525,-36.10317,-110.6632,-50.33768,0.001067912,-0.1257102,0.09433498,0,0.3,0,0,0,0,
6.38224E+17,21.84008,37.73242,69.97176,5.572844,-41.55461,-141.9429,-17.01029,-0.4441859,-4.27255,-61.51973,-6.98289,34.57793,0,0,0,85.84263,59.28667,45.83718,-36.10317,-110.6632,-50.33768,0.001067912,-0.1257102,0.09433498,0,0.3,0,0,0,0,
6.38224E+17,23.183,37.47526,69.83167,10.70001,-41.26163,-142.0162,-17.01029,-0.4441859,-4.27255,-61.51973,-6.98289,34.57793,0,0,0,90.93845,58.50632,43.99926,-36.10317,-110.6632,-50.33768,0.001067912,-0.1257102,0.09433498,0,0.3,0,0,0,0,
6.38224E+17,24.14896,37.28823,69.50481,14.43551,-40.67567,-142.0162,-17.01029,-0.4441859,-4.27255,-61.51973,-6.98289,34.57793,0,0,0,94.50536,57.4471,42.43597,-36.10317,-110.6632,-50.33768,0.001067912,-0.1257102,0.09433498,0,0.3,0,0,0,0,
6.38224E+17,24.45524,37.26486,69.13126,15.90041,-40.16295,-142.0162,-17.01029,-0.4441859,-4.27255,-61.51973,-7.056135,34.57793,0,0,0,95.5173,56.59042,41.67826,-36.10317,-110.6632,-50.33768,0.001067912,-0.1257102,0.09433498,0,0.3,0,0,0,0,
6.38224E+17,24.97356,37.24148,67.89385,17.87803,-38.91778,-142.0894,-17.01029,-0.4441859,-4.27255,-61.51973,-7.056135,34.57793,0,0,0,96.9819,53.86739,39.87918,-36.10317,-110.6632,-50.33768,0.001067912,-0.1257102,0.09433498,0,0.3,0,0,0,0,
6.38224E+17,25.32696,37.03107,66.28289,18.75698,-37.37963,-142.0894,-17.01029,-0.4441859,-4.27255,-61.51973,-6.98289,34.57793,0,0,0,97.76647,50.02357,38.22495,-36.10317,-110.6632,-50.33768,0.001067912,-0.1257102,0.09433498,0,0.3,0,0,0,0,
6.38224E+17,25.49188,36.65702,64.78866,18.75698,-35.91473,-142.0894,-17.01029,-0.4441859,-4.27255,-61.51973,-6.98289,34.57793,0,0,0,97.96552,46.16155,37.11395,-36.10317,-110.6632,-50.33768,0.001067912,-0.1257102,0.09433498,0,0.3,0,0,0,0,
6.38224E+17,25.58612,36.11932,63.24775,18.24426,-34.52307,-142.0894,-17.01029,-0.4441859,-4.27255,-61.51973,-6.98289,34.57793,0,0,0,97.94547,41.93035,36.20514,-36.10317,-110.6632,-50.33768,0.001067912,-0.1257102,0.09433498,0,0.3,0,0,0,0,
6.38224E+17,25.6568,35.09068,61.02975,16.8526,-32.47221,-142.0894,-17.01029,-0.4441859,-4.27255,-61.51973,-6.98289,34.57793,0,0,0,97.75674,35.42042,35.16608,-36.10317,-110.6632,-50.33768,0.001067912,-0.1257102,0.09433498,0,0.3,0,0,0,0,
6.38224E+17,25.68036,34.38934,59.769,15.90041,-31.30029,-142.0894,-17.01029,-0.4441859,-4.27255,-61.51973,-6.98289,34.57793,0,0,0,97.61543,31.52781,34.65796,-36.10317,-110.6632,-50.33768,0.001067912,-0.1257102,0.09433498,0,0.3,0,0,0,0,
6.38224E+17,25.68036,31.67747,56.45369,12.97061,-27.56478,-142.0894,-17.01029,-0.4441859,-4.27255,-61.51973,-6.98289,34.57793,0,0,0,97.34013,19.68636,34.08543,-36.10317,-110.6632,-50.33768,0.001067912,-0.1257102,0.09433498,0,0.3,0,0,0,0,
6.38224E+17,25.6568,30.62544,55.37971,12.16491,-26.24637,-142.0894,-17.01029,-0.4441859,-4.27255,-61.51973,-7.056135,34.57793,0,0,0,97.1988,15.52082,34.00451,-36.10317,-110.6632,-50.33768,0.001067912,-0.1257102,0.09433498,0,0.3,0,0,0,0,
6.38224E+17,25.49188,28.56816,53.25511,10.99299,-23.5363,-142.0894,-17.01029,-0.4441859,-4.27255,-61.51973,-6.98289,34.57793,0,0,0,96.3924,7.341445,33.81461,-36.10317,-110.6632,-50.33768,0.001067912,-0.1257102,0.09433498,0,0.3,0,0,0,0,
6.38224E+17,25.1856,26.20697,51.2239,9.894309,-20.67974,-142.1627,-17.01029,-0.4441859,-4.27255,-61.51973,-6.98289,34.57793,0,0,0,95.15416,-1.274908,33.99489,-36.10317,-110.6632,-50.33768,0.001067912,-0.1257102,0.09433498,0,0.3,0,0,0,0,
6.38224E+17,24.92644,24.9913,50.29001,9.381593,-19.14159,-142.1627,-17.01029,-0.4441859,-4.27255,-61.51973,-6.98289,34.57793,0,0,0,94.17366,-5.509784,34.2849,-36.10317,-110.6632,-50.33768,0.001067912,-0.1257102,0.09433498,0,0.3,0,0,0,0,
6.38224E+17,24.17252,22.60672,48.53897,8.06318,-16.50476,-142.1627,-17.01029,-0.4441859,-4.27255,-61.51973,-6.98289,34.57793,0,0,0,91.33058,-13.68222,35.13071,-36.10317,-110.6632,-50.33768,0.001067912,-0.1257102,0.09433498,0,0.3,0,0,0,0,
6.38224E+17,23.4186,20.24553,47.16148,6.451786,-14.01443,-142.1627,-17.01029,-0.4441859,-4.27255,-61.51973,-6.98289,34.57793,0,0,0,88.58804,-21.17433,36.18266,-36.10317,-110.6632,-50.33768,0.001067912,-0.1257102,0.09433498,0,0.3,0,0,0,0,
6.38224E+17,23.0652,19.12337,46.55445,5.719335,-12.76926,-142.1627,-17.01029,-0.4441859,-4.27255,-61.51973,-6.98289,34.57793,0,0,0,87.29096,-24.66422,36.64571,-36.10317,-110.6632,-50.33768,0.001067912,-0.1257102,0.09433498,0,0.3,0,0,0,0,
6.38224E+17,22.28772,17.01933,45.48048,4.474167,-10.27892,-142.1627,-17.01029,-0.4441859,-4.27255,-61.51973,-6.98289,34.57793,0,0,0,84.41908,-31.11787,37.61068,-36.10317,-110.6632,-50.33768,0.001067912,-0.1257102,0.09433498,0,0.3,0,0,0,0,
6.38224E+17,21.43956,14.75165,44.89679,3.155754,-7.715342,-142.1627,-17.01029,-0.4441859,-4.27255,-61.51973,-6.98289,34.57793,0,0,0,81.53912,-37.15751,39.29115,-36.10317,-110.6632,-50.33768,0.001067912,-0.1257102,0.09433498,0,0.3,0,0,0,0,
6.38224E+17,20.80345,13.37233,44.61663,2.276812,-5.884212,-142.1627,-17.01029,-0.4441859,-4.27255,-61.51973,-6.98289,34.57793,0,0,0,79.3414,-40.73056,40.47989,-36.10317,-110.6632,-50.33768,0.001067912,-0.1257102,0.09433498,0,0.3,0,0,0,0,
6.38224E+17,20.49717,12.71774,44.56993,1.983831,-5.00527,-142.1627,-17.01029,-0.4441859,-4.27255,-61.51973,-6.98289,34.57793,0,0,0,78.31727,-42.29103,41.15064,-36.10317,-110.6632,-50.33768,0.001067912,-0.1257102,0.09433498,0,0.3,0,0,0,0,
6.38224E+17,19.81393,11.4787,44.54658,1.54436,-3.540367,-142.0894,-17.01029,-0.4441859,-4.27255,-61.51973,-6.98289,34.57793,0,0,0,76.00526,-45.1488,42.60182,-36.10317,-110.6632,-50.33768,0.001067912,-0.1257102,0.09433498,0,0.3,0,0,0,0,
6.38224E+17,18.89509,10.54357,44.56993,1.397869,-2.441689,-142.0162,-17.01029,-0.4441859,-4.27255,-61.51973,-6.98289,34.57793,0,0,0,72.7598,-47.24699,44.22344,-36.10317,-110.6632,-50.33768,0.001067912,-0.1257102,0.09433498,0,0.3,0,0,0,0,
6.38224E+17,17.71709,9.912358,44.56993,1.178134,-1.562747,-141.8697,-17.01029,-0.4441859,-4.27255,-61.51973,-6.98289,34.57793,0,0,0,68.45361,-48.69272,45.92283,-36.10317,-110.6632,-50.33768,0.001067912,-0.1257102,0.09433498,0,0.3,0,0,0,0,
6.38224E+17,16.32705,9.444795,44.56993,0.4456824,-0.9035407,-141.7232,-17.01029,-0.4441859,-4.27255,-61.51973,-6.98289,34.57793,0,0,0,63.28699,-49.76543,47.69592,-36.10317,-110.6632,-50.33768,0.001067912,-0.1257102,0.09433498,0,0.3,0,0,0,0,
6.38224E+17,15.59669,9.281147,44.54658,-0.140279,-0.6838052,-141.8697,-17.01029,-0.4441859,-4.27255,-61.51973,-6.98289,34.57793,0,0,0,60.53421,-50.17936,48.50747,-36.10317,-110.6632,-50.33768,0.001067912,-0.1257102,0.09433498,0,0.3,0,0,0,0,
6.38224E+17,14.08886,8.953853,44.45319,-1.531937,-0.3908245,-140.1118,-17.01029,-0.4441859,-4.27255,-61.51973,-6.98289,34.57793,0,0,0,54.79857,-51.08382,49.99197,-36.10317,-110.6632,-50.33768,0.001067912,-0.1257102,0.09433498,0,0.3,0,0,0,0,
6.38224E+17,12.48678,8.696692,44.31311,-2.99684,-0.2443342,-137.6215,-17.01029,-0.4441859,-4.27255,-61.51973,-6.98289,34.57793,0,0,0,48.64224,-51.90329,51.30082,-36.10317,-110.6632,-50.33768,0.001067912,-0.1257102,0.09433498,0,0.3,0,0,0,0,
6.38224E+17,11.66218,8.626557,44.24307,-3.802537,-0.171089,-135.4241,-17.01029,-0.4441859,-4.27255,-61.51973,-6.98289,34.57793,0,0,0,45.45749,-52.17847,51.88788,-36.10317,-110.6632,-50.33768,0.001067912,-0.1257102,0.09433498,0,0.3,0,0,0,0,
6.38224E+17,9.895184,8.579801,44.19638,-5.780157,-0.09784385,-131.7619,-17.01029,-0.4441859,-4.27255,-61.51973,-6.98289,34.57793,0,0,0,38.63424,-52.36186,53.12415,-36.10317,-110.6632,-50.33768,0.001067912,-0.1257102,0.09433498,0,0.3,0,0,0,0,
6.38224E+17,8.033947,8.579801,44.19638,-8.050756,-0.09784385,-129.0518,-17.01029,-0.4441859,-4.27255,-61.51973,-6.98289,34.57793,0,0,0,31.4206,-52.36186,54.2621,-36.10317,-110.6632,-50.33768,0.001067912,-0.1257102,0.09433498,0,0.3,0,0,0,0,
6.38224E+17,6.05491,8.579801,44.31311,-10.68758,-0.2443342,-127.3671,-17.01029,-0.4441859,-4.27255,-61.51973,-6.98289,34.57793,0,0,0,23.73474,-52.17226,55.40791,-36.10317,-110.6632,-50.33768,0.001067912,-0.1257102,0.09433498,0,0.3,0,0,0,0,
6.38224E+17,5.159632,8.603179,44.45319,-12.006,-0.3908245,-126.6347,-17.01029,-0.4441859,-4.27255,-61.51973,-6.98289,34.57793,0,0,0,20.25586,-51.89042,55.97541,-36.10317,-110.6632,-50.33768,0.001067912,-0.1257102,0.09433498,0,0.3,0,0,0,0,
6.38224E+17,3.557554,8.649935,44.96684,-14.86256,-0.9767859,-124.3641,-17.01029,-0.4441859,-4.27255,-61.51973,-6.98289,34.57793,0,0,0,14.02798,-50.94181,57.28568,-36.10317,-110.6632,-50.33768,0.001067912,-0.1257102,0.09433498,0,0.3,0,0,0,0,
6.38224E+17,1.979037,8.72007,45.76064,-17.64587,-1.709238,-122.533,-17.01029,-0.4441859,-4.27255,-61.51973,-6.98289,34.57793,0,0,0,7.851086,-49.46582,58.85912,-36.10317,-110.6632,-50.33768,0.001067912,-0.1257102,0.09433498,0,0.3,0,0,0,0,
6.38224E+17,0.04711992,8.836961,46.81127,-21.38138,-3.027651,-121.0681,-17.01029,-0.4441859,-4.27255,-61.51973,-6.98289,34.57793,0,0,0,0.1883233,-47.42957,60.64291,-36.10317,-110.6632,-50.33768,0.001067912,-0.1257102,0.09433498,0,0.3,0,0,0,0,
6.38224E+17,-1.154438,9.070744,47.88524,-24.31118,-4.199574,-120.3356,-17.01029,-0.4441859,-4.27255,-61.51973,-6.98289,34.57793,0,0,0,-4.646023,-45.05373,62.20502,-36.10317,-110.6632,-50.33768,0.001067912,-0.1257102,0.09433498,0,0.3,0,0,0,0,
6.38224E+17,-1.696317,9.327903,48.74909,-26.28881,-5.078516,-119.9694,-17.01029,-0.4441859,-4.27255,-61.51973,-6.98289,34.57793,0,0,0,-6.863019,-42.9614,63.39154,-36.10317,-110.6632,-50.33768,0.001067912,-0.1257102,0.09433498,0,0.3,0,0,0,0,
6.38224E+17,-2.261756,9.865602,50.29001,-28.92563,-6.763155,-118.7242,-17.01029,-0.4441859,-4.27255,-61.51973,-6.98289,34.57793,0,0,0,-9.233299,-38.9997,65.43038,-36.10317,-110.6632,-50.33768,0.001067912,-0.1257102,0.09433498,0,0.3,0,0,0,0,
6.38224E+17,-2.732955,10.70722,52.36792,-31.41597,-8.594284,-117.1128,-17.01029,-0.4441859,-4.27255,-61.51973,-6.98289,34.57793,0,0,0,-11.28297,-33.29686,68.0154,-36.10317,-110.6632,-50.33768,0.001067912,-0.1257102,0.09433498,0,0.3,0,0,0,0,
6.38224E+17,-2.944995,11.29167,53.55863,-32.36815,-9.473226,-116.1606,-17.01029,-0.4441859,-4.27255,-61.51973,-6.98289,34.65118,0,0,0,-12.23005,-29.74948,69.3798,-36.10317,-110.6632,-50.33768,0.001067912,-0.1257102,0.09433498,0,0.3,0,0,0,0,
6.38224E+17,-3.345515,12.71774,56.59377,-34.49226,-11.59733,-113.1576,-17.01029,-0.4441859,-4.27255,-61.51973,-6.98289,34.57793,0,0,0,-14.08725,-20.71194,72.63603,-36.10317,-110.6632,-50.33768,0.001067912,-0.1257102,0.09433498,0,0.3,0,0,0,0,
6.38224E+17,-3.533994,14.14381,59.69896,-36.83611,-13.94118,-109.2756,-17.01029,-0.4441859,-4.27255,-61.51973,-7.056135,34.57793,0,0,0,-15.06747,-11.3459,75.6253,-36.10317,-110.6632,-50.33768,0.001067912,-0.1257102,0.09433498,0,0.3,0,0,0,0,
6.38224E+17,-3.533994,14.84516,61.28657,-38.15452,-15.40608,-107.298,-17.01029,-0.4441859,-4.27255,-61.51973,-6.98289,34.57793,0,0,0,-15.15446,-6.549917,77.03393,-36.10317,-110.6632,-50.33768,0.001067912,-0.1257102,0.09433498,0,0.3,0,0,0,0,
6.38224E+17,-3.251275,16.52839,65.04549,-41.08433,-18.92185,-103.7089,-17.01029,-0.4441859,-4.27255,-61.51973,-6.98289,34.57793,0,0,0,-14.10733,5.026604,79.9903,-36.10317,-110.6632,-50.33768,0.001067912,-0.1257102,0.09433498,0,0.3,0,0,0,0,
6.38224E+17,-2.780076,17.53365,68.15067,-43.50142,-21.48543,-100.8524,-17.01029,-0.4441859,-4.27255,-61.51973,-6.98289,34.57793,0,0,0,-12.1705,13.89532,82.28016,-36.10317,-110.6632,-50.33768,0.001067912,-0.1257102,0.09433498,0,0.3,0,0,0,0,
6.38224E+17,-2.403116,17.90771,70.06515,-44.96632,-23.17007,-98.87477,-17.01029,-0.4441859,-4.27255,-61.51973,-6.98289,34.57793,0,0,0,-10.57681,18.88718,83.67754,-36.10317,-110.6632,-50.33768,0.001067912,-0.1257102,0.09433498,0,0.3,0,0,0,0,
6.38224E+17,-1.460718,18.28176,73.59058,-48.04262,-26.4661,-94.77303,-17.01029,-0.4441859,-4.27255,-61.51973,-6.98289,34.57793,0,0,0,-6.488562,27.50931,86.10483,-36.10317,-110.6632,-50.33768,0.001067912,-0.1257102,0.09433498,0,0.3,0,0,0,0,
6.38224E+17,-0.1177998,18.60905,76.81251,-50.82594,-29.98187,-90.67131,-17.01029,-0.4441859,-4.27255,-61.51973,-6.98289,34.57793,0,0,0,-0.5267692,35.48093,87.86105,-36.10317,-110.6632,-50.33768,0.001067912,-0.1257102,0.09433498,0,0.3,0,0,0,0,
6.38224E+17,1.437158,19.12337,79.19392,-52.80355,-33.4244,-87.00905,-17.01029,-0.4441859,-4.27255,-61.51973,-6.98289,34.57793,0,0,0,6.445099,42.03471,88.54565,-36.10317,-110.6632,-50.33768,0.001067912,-0.1257102,0.09433498,0,0.3,0,0,0,0,
6.38224E+17,3.062795,20.01174,80.94497,-54.48819,-36.86692,-84.6652,-17.01029,-0.4441859,-4.27255,-61.51973,-6.98289,34.57793,0,0,0,13.73091,47.99704,88.26972,-36.10317,-110.6632,-50.33768,0.001067912,-0.1257102,0.09433498,0,0.3,0,0,0,0,
6.38224E+17,3.910954,20.61958,81.59869,-55.1474,-38.55156,-83.8595,-17.01029,-0.4441859,-4.27255,-61.51973,-6.98289,34.57793,0,0,0,17.51029,50.82755,87.77867,-36.10317,-110.6632,-50.33768,0.001067912,-0.1257102,0.09433498,0,0.3,0,0,0,0,
6.38224E+17,5.677951,21.62484,82.60263,-55.87985,-41.7011,-82.98056,-17.01029,-0.4441859,-4.27255,-61.51973,-6.98289,34.57793,0,0,0,25.34806,55.32432,86.59753,-36.10317,-110.6632,-50.33768,0.001067912,-0.1257102,0.09433498,0,0.3,0,0,0,0,
6.38224E+17,7.609867,22.46645,83.46648,-55.07415,-44.41117,-82.83408,-17.01029,-0.4441859,-4.27255,-61.51973,-6.98289,34.57793,0,0,0,33.86335,59.13552,85.11102,-36.10317,-110.6632,-50.33768,0.001067912,-0.1257102,0.09433498,0,0.3,0,0,0,0,
6.38224E+17,9.612464,23.30807,84.26028,-52.95005,-47.12124,-84.6652,-17.01029,-0.4441859,-4.27255,-61.51973,-6.98289,34.57793,0,0,0,42.60558,62.77697,83.21648,-36.10317,-110.6632,-50.33768,0.001067912,-0.1257102,0.09433498,0,0.3,0,0,0,0,
6.38224E+17,10.60198,23.72888,84.68053,-51.33865,-48.43966,-86.42309,-17.01029,-0.4441859,-4.27255,-61.51973,-6.98289,34.57793,0,0,0,46.88909,64.64854,82.15169,-36.10317,-110.6632,-50.33768,0.001067912,-0.1257102,0.09433498,0,0.3,0,0,0,0,
6.38224E+17,12.74594,24.47698,85.42764,-47.23692,-51.22297,-91.91647,-17.01029,-0.4441859,-4.27255,-61.51973,-6.98289,34.57793,0,0,0,56.10382,67.97019,79.6749,-36.10317,-110.6632,-50.33768,0.001067912,-0.1257102,0.09433498,0,0.3,0,0,0,0,
6.38224E+17,15.05481,24.9913,85.94128,-41.08433,-53.78655,-102.9033,-17.01029,-0.4441859,-4.27255,-61.51973,-6.98289,34.57793,0,0,0,65.94363,70.24945,76.81653,-36.10317,-110.6632,-50.33768,0.001067912,-0.1257102,0.09433498,0,0.3,0,0,0,0,
6.38224E+17,16.13857,25.13157,86.08137,-37.12909,-54.88523,-111.6194,-17.01029,-0.4441859,-4.27255,-61.51973,-6.98289,34.57793,0,0,0,70.53678,70.87041,75.41436,-36.10317,-110.6632,-50.33768,0.001067912,-0.1257102,0.09433498,0,0.3,0,0,0,0,
6.38224E+17,18.30609,25.31859,86.26814,-26.58179,-56.56987,-136.889,-17.01029,-0.4441859,-4.27255,-61.51973,-6.98289,34.57793,0,0,0,79.65664,71.69793,72.42358,-36.10317,-110.6632,-50.33768,0.001067912,-0.1257102,0.09433498,0,0.3,0,0,0,0,
6.38224E+17,19.97885,25.41211,86.36153,-15.52176,-57.44881,-141.7964,-17.01029,-0.4441859,-4.27255,-61.51973,-6.98289,34.57793,0,0,0,86.62402,72.1115,69.92122,-36.10317,-110.6632,-50.33768,0.001067912,-0.1257102,0.09433498,0,0.3,0,0,0,0,
6.38224E+17,21.2982,25.529,86.43158,-7.025325,-57.81504,-142.0162,-17.01029,-0.4441859,-4.27255,-61.51973,-6.98289,34.57793,0,0,0,92.04851,72.5198,67.76407,-36.10317,-110.6632,-50.33768,0.001067912,-0.1257102,0.09433498,0,0.3,0,0,0,0,
6.38224E+17,22.07568,25.7394,86.47828,-3.729292,-57.88828,-142.0162,-17.01029,-0.4441859,-4.27255,-61.51973,-6.98289,34.57793,0,0,0,95.1668,73.06976,66.30322,-36.10317,-110.6632,-50.33768,0.001067912,-0.1257102,0.09433498,0,0.3,0,0,0,0,
6.38224E+17,22.52332,25.76278,86.47828,-1.678428,-57.88828,-142.0162,-17.01029,-0.4441859,-4.27255,-61.51973,-6.98289,34.57793,0,0,0,96.98811,73.11877,65.53071,-36.10317,-110.6632,-50.33768,0.001067912,-0.1257102,0.09433498,0,0.3,0,0,0,0,
6.38224E+17,23.4186,25.76278,86.45493,2.130321,-57.30232,-142.0162,-17.01029,-0.4441859,-4.27255,-61.51973,-6.98289,34.57793,0,0,0,100.6293,73.06453,63.98365,-36.10317,-110.6632,-50.33768,0.001067912,-0.1257102,0.09433498,0,0.3,0,0,0,0,
6.38224E+17,24.21964,25.76278,86.43158,5.499599,-56.42338,-142.0162,-17.01029,-0.4441859,-4.27255,-61.51973,-6.98289,34.65118,0,0,0,103.8662,73.0103,62.55104,-36.10317,-110.6632,-50.33768,0.001067912,-0.1257102,0.09433498,0,0.3,0,0,0,0,
6.38224E+17,24.50236,25.76278,86.43158,6.671522,-55.98391,-142.0162,-17.01029,-0.4441859,-4.27255,-61.51973,-6.98289,34.57793,0,0,0,105.0043,73.0103,62.03572,-36.10317,-110.6632,-50.33768,0.001067912,-0.1257102,0.09433498,0,0.3,0,0,0,0,
6.38224E+17,25.11492,25.76278,86.43158,8.575896,-55.25146,-142.0162,-17.01029,-0.4441859,-4.27255,-61.51973,-6.98289,34.57793,0,0,0,107.4613,73.0103,60.89995,-36.10317,-110.6632,-50.33768,0.001067912,-0.1257102,0.09433498,0,0.3,0,0,0,0,
6.38224E+17,26.0102,25.76278,86.26814,10.55352,-54.66549,-142.0162,-17.01029,-0.4441859,-4.27255,-61.51973,-6.98289,34.57793,0,0,0,111.0196,72.6307,59.17113,-36.10317,-110.6632,-50.33768,0.001067912,-0.1257102,0.09433498,0,0.3,0,0,0,0,
6.38224E+17,26.97615,25.7394,85.8479,13.1171,-53.71331,-142.0162,-17.01029,-0.4441859,-4.27255,-61.51973,-6.98289,34.57793,0,0,0,114.8197,71.60592,57.22833,-36.10317,-110.6632,-50.33768,0.001067912,-0.1257102,0.09433498,0,0.3,0,0,0,0,
6.38224E+17,27.77719,25.7394,85.33425,15.09472,-52.68787,-142.0162,-17.01029,-0.4441859,-4.27255,-61.51973,-6.98289,34.57793,0,0,0,117.9193,70.41402,55.51976,-36.10317,-110.6632,-50.33768,0.001067912,-0.1257102,0.09433498,0,0.3,0,0,0,0,
6.38224E+17,28.62535,25.7394,84.51711,16.77936,-51.5892,-142.0162,-17.01029,-0.4441859,-4.27255,-61.51973,-6.98289,34.57793,0,0,0,121.1396,68.51965,53.60207,-36.10317,-110.6632,-50.33768,0.001067912,-0.1257102,0.09433498,0,0.3,0,0,0,0,
6.38224E+17,29.99183,25.71602,83.2797,18.68373,-49.68482,-142.0894,-17.01029,-0.4441859,-4.27255,-61.51973,-6.98289,34.57793,0,0,0,126.2569,65.60706,50.40543,-36.10317,-110.6632,-50.33768,0.001067912,-0.1257102,0.09433498,0,0.3,0,0,0,0,
6.38224E+17,30.74575,25.66927,82.57928,19.70916,-48.5129,-142.0162,-17.01029,-0.4441859,-4.27255,-61.51973,-6.98289,34.57793,0,0,0,129.0459,63.89126,48.59331,-36.10317,-110.6632,-50.33768,0.001067912,-0.1257102,0.09433498,0,0.3,0,0,0,0,
6.38224E+17,33.31378,25.50562,79.94104,22.78546,-44.11819,-142.0894,-17.01029,-0.4441859,-4.27255,-61.51973,-6.98289,34.57793,0,0,0,138.2146,57.47934,41.95129,-36.10317,-110.6632,-50.33768,0.001067912,-0.1257102,0.09433498,0,0.3,0,0,0,0,
6.38224E+17,34.13838,25.38873,79.33401,23.59116,-42.65329,-142.0894,-17.01029,-0.4441859,-4.27255,-61.51973,-6.98289,34.57793,0,0,0,141.1498,55.84394,39.82682,-36.10317,-110.6632,-50.33768,0.001067912,-0.1257102,0.09433498,0,0.3,0,0,0,0,
6.38224E+17,35.76402,24.85103,78.51686,25.56878,-39.79673,-142.0894,-17.01029,-0.4441859,-4.27255,-61.51973,-6.98289,34.57793,0,0,0,147.0957,52.84445,35.87341,-36.10317,-110.6632,-50.33768,0.001067912,-0.1257102,0.09433498,0,0.3,0,0,0,0,
6.38224E+17,37.2483,23.96266,77.67635,27.32666,-37.59937,-142.0894,-17.01029,-0.4441859,-4.27255,-61.51973,-6.98289,34.57793,0,0,0,152.6092,49.04755,32.35362,-36.10317,-110.6632,-50.33768,0.001067912,-0.1257102,0.09433498,0,0.3,0,0,0,0,
6.38224E+17,38.00222,23.42496,77.20941,28.05911,-36.50069,-142.0894,-17.01029,-0.4441859,-4.27255,-61.51973,-6.98289,34.57793,0,0,0,155.401,46.84084,30.53831,-36.10317,-110.6632,-50.33768,0.001067912,-0.1257102,0.09433498,0,0.3,0,0,0,0,
6.38224E+17,39.34513,22.53659,76.4156,29.30428,-34.59632,-142.0894,-17.01029,-0.4441859,-4.27255,-61.51973,-6.98289,34.57793,0,0,0,160.264,43.13859,27.13998,-36.10317,-110.6632,-50.33768,0.001067912,-0.1257102,0.09433498,0,0.3,0,0,0,0,
6.38224E+17,40.49957,21.74173,75.6218,30.18322,-32.98492,-142.0894,-17.01029,-0.4441859,-4.27255,-61.51973,-6.98289,34.57793,0,0,0,164.333,39.63229,24.06211,-36.10317,-110.6632,-50.33768,0.001067912,-0.1257102,0.09433498,0,0.3,0,0,0,0,
6.38224E+17,41.65401,21.11052,74.99142,30.76918,-31.1538,-142.0894,-17.01029,-0.4441859,-4.27255,-61.51973,-6.98289,34.57793,0,0,0,168.2856,36.8456,20.8351,-36.10317,-110.6632,-50.33768,0.001067912,-0.1257102,0.09433498,0,0.3,0,0,0,0,
6.38224E+17,42.21945,20.90011,74.75794,31.13541,-30.42134,-142.0894,-17.01029,-0.4441859,-4.27255,-61.51973,-6.98289,34.57793,0,0,0,170.1671,35.86389,19.19014,-36.10317,-110.6632,-50.33768,0.001067912,-0.1257102,0.09433498,0,0.3,0,0,0,0,
6.38224E+17,43.53881,20.31566,74.10422,32.01435,-28.88319,-142.0894,-17.01029,-0.4441859,-4.27255,-61.51973,-7.056135,34.57793,0,0,0,174.4886,33.12503,15.27335,-36.10317,-110.6632,-50.33768,0.001067912,-0.1257102,0.09433498,0,0.3,0,0,0,0,
6.38224E+17,44.66969,19.70782,73.49719,32.7468,-27.34505,-142.0894,-17.01029,-0.4441859,-4.27255,-61.51973,-6.98289,34.57793,0,0,0,178.1419,30.43909,11.85782,-36.10317,-110.6632,-50.33768,0.001067912,-0.1257102,0.09433498,0,0.3,0,0,0,0,
6.38224E+17,45.25869,19.38053,73.14698,33.03978,-26.4661,-142.0894,-17.01029,-0.4441859,-4.27255,-61.51973,-6.98289,34.57793,0,0,0,179.9998,28.94044,10.03175,-36.10317,-110.6632,-50.33768,0.001067912,-0.1257102,0.09433498,0,0.3,0,0,0,0,
6.38224E+17,46.57804,18.65581,72.37653,33.62574,-24.56173,-142.0894,-17.01029,-0.4441859,-4.27255,-61.51973,-7.056135,34.57793,0,0,0,184.0726,25.6332,5.852491,-36.10317,-110.6632,-50.33768,0.001067912,-0.1257102,0.09433498,0,0.3,0,0,0,0,
6.38224E+17,48.06232,17.95446,71.65276,34.3582,-22.36438,-142.0894,-17.01029,-0.4441859,-4.27255,-61.51973,-6.98289,34.57793,0,0,0,188.5176,22.48133,1.021094,-36.10317,-110.6632,-50.33768,0.001067912,-0.1257102,0.09433498,0,0.3,0,0,0,0,
6.38224E+17,49.6644,17.39338,70.71887,35.23714,-19.58106,-142.0894,-17.01029,-0.4441859,-4.27255,-61.51973,-6.98289,34.57793,0,0,0,192.9471,19.17975,-4.51276,-36.10317,-110.6632,-50.33768,0.001067912,-0.1257102,0.09433498,0,0.3,0,0,0,0,
6.38224E+17,51.36071,16.80893,69.87837,36.11608,-16.28502,-142.0894,-17.01029,-0.4441859,-4.27255,-61.51973,-6.98289,34.57793,0,0,0,197.5098,16.03798,-10.45819,-36.10317,-110.6632,-50.33768,0.001067912,-0.1257102,0.09433498,0,0.3,0,0,0,0,
6.38224E+17,52.30311,16.55177,69.5982,36.6288,-14.52714,-142.0894,-17.01029,-0.4441859,-4.27255,-61.51973,-6.98289,34.57793,0,0,0,200.0372,14.85294,-13.76107,-36.10317,-110.6632,-50.33768,0.001067912,-0.1257102,0.09433498,0,0.3,0,0,0,0,
6.38224E+17,55.36591,16.15434,69.17795,38.24019,-8.374548,-142.0162,-17.01029,-0.4441859,-4.27255,-61.51973,-6.98289,34.57793,0,0,0,207.9422,13.04991,-24.71763,-36.10317,-110.6632,-50.33768,0.001067912,-0.1257102,0.09433498,0,0.3,0,0,0,0,
6.38224E+17,55.41303,16.15434,69.13126,38.89939,-6.98289,-141.8697,-17.01029,-0.4441859,-4.27255,-61.51973,-6.98289,34.57793,0,0,0,208.0284,12.94835,-24.91064,-36.10317,-110.6632,-50.33768,0.001067912,-0.1257102,0.09433498,0,0.3,0,0,0,0,
6.38224E+17,55.34235,15.6634,68.05728,39.11913,-3.247386,-127.2939,-17.01029,-0.4441859,-4.27255,-61.51973,-6.98289,34.57793,0,0,0,207.3585,9.522388,-24.99479,-36.10317,-110.6632,-50.33768,0.001067912,-0.1257102,0.09433498,0,0.3,0,0,0,0,
6.38224E+17,55.38947,15.35948,67.82381,37.80072,0.7810982,-113.3773,-17.01029,-0.4441859,-4.27255,-61.51973,-7.056135,34.57793,0,0,0,207.4641,8.337214,-25.17384,-36.10317,-110.6632,-50.33768,0.001067912,-0.1257102,0.09433498,0,0.3,0,0,0,0,
6.38224E+17,55.36591,15.59326,68.19736,36.4823,4.882828,-106.5655,-17.01029,-0.4441859,-4.27255,-61.51973,-6.98289,34.65118,0,0,0,207.5536,9.667753,-24.98605,-36.10317,-110.6632,-50.33768,0.001067912,-0.1257102,0.09433498,0,0.3,0,0,0,0,
6.38224E+17,55.36591,15.71015,68.26741,36.11608,6.640712,-105.1739,-17.01029,-0.4441859,-4.27255,-61.51973,-6.98289,34.57793,0,0,0,207.5429,10.08111,-24.9934,-36.10317,-110.6632,-50.33768,0.001067912,-0.1257102,0.09433498,0,0.3,0,0,0,0,
6.38224E+17,55.34235,15.6634,67.89385,35.09065,9.790254,-104.2949,-17.01029,-0.4441859,-4.27255,-61.51973,-6.98289,34.65118,0,0,0,207.2412,9.169778,-25.07591,-36.10317,-110.6632,-50.33768,0.001067912,-0.1257102,0.09433498,0,0.3,0,0,0,0,
6.38224E+17,55.34235,15.49975,66.42297,33.84548,12.35384,-104.4414,-17.01029,-0.4441859,-4.27255,-61.51973,-6.98289,34.57793,0,0,0,206.2323,5.648125,-25.7734,-36.10317,-110.6632,-50.33768,0.001067912,-0.1257102,0.09433498,0,0.3,0,0,0,0,
6.38224E+17,55.34235,15.31272,65.67587,32.89329,13.81874,-104.8076,-17.01029,-0.4441859,-4.27255,-61.51973,-6.98289,34.57793,0,0,0,205.7468,3.639388,-26.10905,-36.10317,-110.6632,-50.33768,0.001067912,-0.1257102,0.09433498,0,0.3,0,0,0,0,
6.38224E+17,55.36591,14.42435,64.78866,30.32971,16.82179,-105.3936,-17.01029,-0.4441859,-4.27255,-61.51973,-6.98289,34.57793,0,0,0,205.53,-0.2338557,-26.38377,-36.10317,-110.6632,-50.33768,0.001067912,-0.1257102,0.09433498,0,0.3,0,0,0,0,
6.38224E+17,55.36591,13.48922,64.0649,27.69288,18.87265,-107.5909,-17.01029,-0.4441859,-4.27255,-61.51973,-6.98289,34.57793,0,0,0,205.3636,-3.865451,-26.49869,-36.10317,-110.6632,-50.33768,0.001067912,-0.1257102,0.09433498,0,0.3,0,0,0,0,
6.38224E+17,55.36591,12.62423,63.85477,24.83632,20.77703,-111.18,-17.01029,-0.4441859,-4.27255,-61.51973,-6.98289,34.57793,0,0,0,205.5612,-6.265968,-26.36223,-36.10317,-110.6632,-50.33768,0.001067912,-0.1257102,0.09433498,0,0.3,0,0,0,0,
6.38224E+17,55.36591,12.50734,63.85477,23.51791,21.65597,-112.9378,-17.01029,-0.4441859,-4.27255,-61.51973,-7.056135,34.57793,0,0,0,205.6099,-6.531503,-26.32859,-36.10317,-110.6632,-50.33768,0.001067912,-0.1257102,0.09433498,0,0.3,0,0,0,0,
6.38224E+17,55.36591,12.50734,63.90147,21.32055,23.34061,-114.8422,-17.01029,-0.4441859,-4.27255,-61.51973,-6.98289,34.57793,0,0,0,205.6493,-6.433927,-26.3014,-36.10317,-110.6632,-50.33768,0.001067912,-0.1257102,0.09433498,0,0.3,0,0,0,0,
6.38224E+17,55.34235,12.67099,64.76532,19.9289,25.09849,-115.4282,-17.01029,-0.4441859,-4.27255,-61.51973,-6.98289,34.57793,0,0,0,206.2389,-4.250089,-25.76884,-36.10317,-110.6632,-50.33768,0.001067912,-0.1257102,0.09433498,0,0.3,0,0,0,0,
6.38224E+17,55.34235,13.39571,66.09611,19.63592,26.41691,-116.2339,-17.01029,-0.4441859,-4.27255,-61.51973,-6.98289,34.57793,0,0,0,206.9853,0.2099611,-25.25282,-36.10317,-110.6632,-50.33768,0.001067912,-0.1257102,0.09433498,0,0.3,0,0,0,0,
6.38224E+17,55.34235,13.95679,66.67979,19.85565,26.85638,-116.3071,-17.01029,-0.4441859,-4.27255,-61.51973,-6.98289,34.57793,0,0,0,207.1789,2.723501,-25.11897,-36.10317,-110.6632,-50.33768,0.001067912,-0.1257102,0.09433498,0,0.3,0,0,0,0,
6.38224E+17,55.31879,15.56988,68.29076,20.95433,27.58883,-116.3804,-17.01029,-0.4441859,-4.27255,-61.51973,-6.98289,34.57793,0,0,0,207.5139,9.817214,-24.76125,-36.10317,-110.6632,-50.33768,0.001067912,-0.1257102,0.09433498,0,0.3,0,0,0,0,
6.38224E+17,55.29523,17.97784,70.71887,23.51791,28.17479,-116.1606,-17.01029,-0.4441859,-4.27255,-61.51973,-6.98289,34.57793,0,0,0,207.7518,20.47571,-24.47025,-36.10317,-110.6632,-50.33768,0.001067912,-0.1257102,0.09433498,0,0.3,0,0,0,0,
6.38224E+17,55.29523,20.73647,73.45049,27.18017,27.88181,-116.1606,-17.01029,-0.4441859,-4.27255,-61.51973,-6.98289,34.57793,0,0,0,207.61,32.58135,-24.56841,-36.10317,-110.6632,-50.33768,0.001067912,-0.1257102,0.09433498,0,0.3,0,0,0,0,
6.38224E+17,55.27167,22.25605,74.89803,29.30428,27.36909,-116.1606,-17.01029,-0.4441859,-4.27255,-61.51973,-6.98289,34.57793,0,0,0,207.2409,39.11312,-24.69794,-36.10317,-110.6632,-50.33768,0.001067912,-0.1257102,0.09433498,0,0.3,0,0,0,0,
6.38224E+17,55.27167,25.31859,77.76974,33.62574,25.90419,-116.1606,-17.01029,-0.4441859,-4.27255,-61.51973,-7.056135,34.57793,0,0,0,206.176,52.1283,-25.43606,-36.10317,-110.6632,-50.33768,0.001067912,-0.1257102,0.09433498,0,0.3,0,0,0,0,
6.38224E+17,55.27167,28.47465,80.78154,38.60641,24.21955,-116.1606,-17.01029,-0.4441859,-4.27255,-61.51973,-6.98289,34.57793,0,0,0,204.5173,65.5647,-26.58584,-36.10317,-110.6632,-50.33768,0.001067912,-0.1257102,0.09433498,0,0.3,0,0,0,0,
6.38224E+17,55.24811,29.73707,81.92556,40.87702,23.19412,-116.1606,-17.01029,-0.4441859,-4.27255,-61.51973,-6.98289,34.57793,0,0,0,203.6136,70.76405,-27.08824,-36.10317,-110.6632,-50.33768,0.001067912,-0.1257102,0.09433498,0,0.3,0,0,0,0,
6.38224E+17,55.15387,32.72948,84.14355,45.5647,20.77703,-117.1861,-17.01029,-0.4441859,-4.27255,-61.51973,-6.98289,34.57793,0,0,0,200.9314,81.84222,-28.45902,-36.10317,-110.6632,-50.33768,0.001067912,-0.1257102,0.09433498,0,0.3,0,0,0,0,
6.38224E+17,54.80047,36.21284,85.52103,50.03266,17.99371,-119.3834,-17.01029,-0.4441859,-4.27255,-61.59297,-6.98289,34.57793,0,0,0,196.5517,91.71766,-29.70046,-36.10317,-110.6632,-50.33768,0.001067912,-0.1257102,0.09433498,0,0.3,0,0,0,0,
6.38224E+17,54.56487,38.03634,85.89459,52.30326,16.38232,-121.5808,-17.01029,-0.4441859,-4.27255,-61.51973,-6.98289,34.57793,0,0,0,193.946,95.96834,-30.34072,-36.10317,-110.6632,-50.33768,0.001067912,-0.1257102,0.09433498,0,0.3,0,0,0,0,
6.38224E+17,53.59891,41.28591,86.31484,56.11201,13.08629,-126.4882,-17.01029,-0.4441859,-4.27255,-61.51973,-6.98289,34.57793,0,0,0,187.7606,102.7657,-29.91546,-36.10317,-110.6632,-50.33768,0.001067912,-0.1257102,0.09433498,0,0.3,0,0,0,0,
6.38224E+17,51.92616,44.18481,86.47828,59.3348,9.570518,-129.1983,-17.01029,-0.4441859,-4.27255,-61.51973,-6.98289,34.57793,0,0,0,180.0544,108.1003,-27.30196,-36.10317,-110.6632,-50.33768,0.001067912,-0.1257102,0.09433498,0,0.3,0,0,0,0,
6.38224E+17,50.88952,45.49398,86.47828,60.7997,7.812634,-129.7842,-17.01029,-0.4441859,-4.27255,-61.51973,-6.98289,34.57793,0,0,0,175.8061,110.2608,-25.42282,-36.10317,-110.6632,-50.33768,0.001067912,-0.1257102,0.09433498,0,0.3,0,0,0,0,
6.38224E+17,48.46284,47.6214,86.47828,62.70407,4.003886,-130.6632,-17.01029,-0.4441859,-4.27255,-61.51973,-6.98289,34.57793,0,0,0,166.906,113.6653,-20.49096,-36.10317,-110.6632,-50.33768,0.001067912,-0.1257102,0.09433498,0,0.3,0,0,0,0,
6.38224E+17,45.44716,49.60855,86.47828,63.876,-0.3175794,-131.2491,-17.01029,-0.4441859,-4.27255,-61.51973,-6.98289,34.57793,0,0,0,156.4235,116.7227,-14.34922,-36.10317,-110.6632,-50.33768,0.001067912,-0.1257102,0.09433498,0,0.3,0,0,0,0,
6.38224E+17,44.05713,50.49692,86.47828,64.16898,-2.441689,-131.4689,-17.01029,-0.4441859,-4.27255,-61.51973,-6.98289,34.57793,0,0,0,151.5395,118.0503,-11.73907,-36.10317,-110.6632,-50.33768,0.001067912,-0.1257102,0.09433498,0,0.3,0,0,0,0,
6.38224E+17,40.92365,52.36718,86.47828,64.82819,-7.422361,-131.9816,-17.01029,-0.4441859,-4.27255,-61.51973,-6.98289,34.57793,0,0,0,140.5229,120.7639,-6.261137,-36.10317,-110.6632,-50.33768,0.001067912,-0.1257102,0.09433498,0,0.3,0,0,0,0,
6.38224E+17,38.12002,53.88676,86.47828,65.12117,-12.47628,-132.2013,-17.01029,-0.4441859,-4.27255,-61.51973,-6.98289,34.57793,0,0,0,130.68,122.886,-1.807471,-36.10317,-110.6632,-50.33768,0.001067912,-0.1257102,0.09433498,0,0.3,0,0,0,0,
6.38224E+17,35.3635,55.10242,86.47828,64.97468,-17.60344,-132.6408,-17.01029,-0.4441859,-4.27255,-61.51973,-6.98289,34.57793,0,0,0,121.1865,124.5292,2.406192,-36.10317,-110.6632,-50.33768,0.001067912,-0.1257102,0.09433498,0,0.3,0,0,0,0,
6.38224E+17,32.63055,55.47648,86.45493,64.53521,-22.65736,-134.3254,-17.01029,-0.4441859,-4.27255,-61.51973,-7.056135,34.57793,0,0,0,112.5191,124.9707,7.384761,-36.10317,-110.6632,-50.33768,0.001067912,-0.1257102,0.09433498,0,0.3,0,0,0,0,
6.38224E+17,30.25099,55.17256,85.89459,63.65627,-27.56478,-136.596,-17.01029,-0.4441859,-4.27255,-61.51973,-6.98289,34.57793,0,0,0,105.375,123.267,12.33226,-36.10317,-110.6632,-50.33768,0.001067912,-0.1257102,0.09433498,0,0.3,0,0,0,0,
6.38224E+17,29.26147,54.84526,85.24087,62.77732,-29.83538,-136.889,-17.01029,-0.4441859,-4.27255,-61.51973,-7.056135,34.50468,0,0,0,102.4865,121.3133,14.56693,-36.10317,-110.6632,-50.33768,0.001067912,-0.1257102,0.09433498,0,0.3,0,0,0,0,
6.38224E+17,27.47091,53.98027,83.65325,59.84751,-33.71738,-136.596,-17.01029,-0.4441859,-4.27255,-61.51973,-6.98289,34.57793,0,0,0,97.31134,116.4642,18.81526,-36.10317,-110.6632,-50.33768,0.001067912,-0.1257102,0.09433498,0,0.3,0,0,0,0,
6.38224E+17,25.84528,52.83474,81.9956,55.89228,-36.57394,-132.2746,-17.01029,-0.4441859,-4.27255,-61.51973,-6.98289,34.57793,0,0,0,92.68559,111.0472,22.99332,-36.10317,-110.6632,-50.33768,0.001067912,-0.1257102,0.09433498,0,0.3,0,0,0,0,
6.38224E+17,24.97356,52.20353,80.68816,53.40194,-37.81911,-129.3448,-17.01029,-0.4441859,-4.27255,-61.51973,-6.98289,34.65118,0,0,0,90.06261,107.1451,25.02282,-36.10317,-110.6632,-50.33768,0.001067912,-0.1257102,0.09433498,0,0.3,0,0,0,0,
6.38224E+17,23.58352,50.89435,77.79309,47.10286,-39.50375,-122.0935,-17.01029,-0.4441859,-4.27255,-61.51973,-6.98289,34.57793,0,0,0,85.79666,98.63161,28.18486,-36.10317,-110.6632,-50.33768,0.001067912,-0.1257102,0.09433498,0,0.3,0,0,0,0,
6.38224E+17,22.90028,49.25787,75.34162,40.3643,-39.94322,-117.0396,-17.01029,-0.4441859,-4.27255,-61.51973,-6.98289,34.57793,0,0,0,84.06784,90.63835,30.66371,-36.10317,-110.6632,-50.33768,0.001067912,-0.1257102,0.09433498,0,0.3,0,0,0,0,
6.38224E+17,22.78248,48.27599,74.45443,37.58098,-39.65023,-116.0141,-17.01029,-0.4441859,-4.27255,-61.51973,-6.98289,34.57793,0,0,0,84.11565,87.13859,31.92461,-36.10317,-110.6632,-50.33768,0.001067912,-0.1257102,0.09433498,0,0.3,0,0,0,0,
6.38224E+17,22.75892,46.07844,73.17033,33.91872,-38.69805,-115.5014,-17.01029,-0.4441859,-4.27255,-61.51973,-6.98289,34.57793,0,0,0,85.16211,80.7922,34.64994,-36.10317,-110.6632,-50.33768,0.001067912,-0.1257102,0.09433498,0,0.3,0,0,0,0,
6.38224E+17,22.80604,43.71724,71.86288,31.79461,-37.59937,-115.3549,-17.01029,-0.4441859,-4.27255,-61.51973,-6.98289,34.57793,0,0,0,86.4781,73.99737,37.31256,-36.10317,-110.6632,-50.33768,0.001067912,-0.1257102,0.09433498,0,0.3,0,0,0,0,
6.38224E+17,22.8296,41.23915,70.78891,30.40295,-36.50069,-115.062,-17.01029,-0.4441859,-4.27255,-61.51973,-7.056135,34.57793,0,0,0,87.7632,67.37604,40.12882,-36.10317,-110.6632,-50.33768,0.001067912,-0.1257102,0.09433498,0,0.3,0,0,0,0,
6.38224E+17,22.8296,38.38701,69.73828,29.74375,-35.18228,-114.3295,-17.01029,-0.4441859,-4.27255,-61.51973,-6.98289,34.57793,0,0,0,89.09172,59.97607,43.28468,-36.10317,-110.6632,-50.33768,0.001067912,-0.1257102,0.09433498,0,0.3,0,0,0,0,
6.38224E+17,22.8296,36.32973,68.89778,29.59726,-34.30334,-114.1098,-17.01029,-0.4441859,-4.27255,-61.51973,-6.98289,34.57793,0,0,0,89.95088,54.34031,45.3256,-36.10317,-110.6632,-50.33768,0.001067912,-0.1257102,0.09433498,0,0.3,0,0,0,0,
6.38224E+17,22.80604,35.1842,68.40749,29.52402,-33.79062,-114.1098,-17.01029,-0.4441859,-4.27255,-61.51973,-6.98289,34.57793,0,0,0,90.30587,51.11399,46.41577,-36.10317,-110.6632,-50.33768,0.001067912,-0.1257102,0.09433498,0,0.3,0,0,0,0,
6.38224E+17,22.75892,32.91651,67.56699,29.37753,-33.13141,-114.1098,-17.01029,-0.4441859,-4.27255,-61.51973,-6.98289,34.57793,0,0,0,90.98872,44.92781,48.53874,-36.10317,-110.6632,-50.33768,0.001067912,-0.1257102,0.09433498,0,0.3,0,0,0,0,
6.38224E+17,22.66468,30.43842,66.88992,29.08454,-32.69194,-113.89,-17.01029,-0.4441859,-4.27255,-61.51973,-6.98289,34.57793,0,0,0,91.56382,38.56697,50.9199,-36.10317,-110.6632,-50.33768,0.001067912,-0.1257102,0.09433498,0,0.3,0,0,0,0,
6.38224E+17,22.61756,29.12924,66.37627,29.0113,-32.6187,-113.89,-17.01029,-0.4441859,-4.27255,-61.51973,-6.98289,34.57793,0,0,0,91.78317,34.82515,51.95455,-36.10317,-110.6632,-50.33768,0.001067912,-0.1257102,0.09433498,0,0.3,0,0,0,0,
6.38224E+17,22.26416,26.0667,65.20892,28.35209,-32.32572,-113.9633,-17.01029,-0.4441859,-4.27255,-61.59297,-6.98289,34.57793,0,0,0,91.25144,26.03117,54.541,-36.10317,-110.6632,-50.33768,0.001067912,-0.1257102,0.09433498,0,0.3,0,0,0,0,
6.38224E+17,21.76941,22.88726,64.41511,27.18017,-31.59327,-113.5238,-17.01029,-0.4441859,-4.27255,-61.51973,-6.98289,34.57793,0,0,0,90.16868,17.62544,57.43738,-36.10317,-110.6632,-50.33768,0.001067912,-0.1257102,0.09433498,0,0.3,0,0,0,0,
6.38224E+17,21.46313,21.43781,63.94816,26.59421,-30.93406,-112.6449,-17.01029,-0.4441859,-4.27255,-61.51973,-6.98289,34.57793,0,0,0,89.25288,13.52304,58.65997,-36.10317,-110.6632,-50.33768,0.001067912,-0.1257102,0.09433498,0,0.3,0,0,0,0,
6.38224E+17,20.61497,18.86621,62.08038,25.27579,-29.24942,-110.9602,-17.01029,-0.4441859,-4.27255,-61.51973,-6.98289,34.57793,0,0,0,85.91419,4.031183,60.03986,-36.10317,-110.6632,-50.33768,0.001067912,-0.1257102,0.09433498,0,0.3,0,0,0,0,
6.38224E+17,19.60189,17.32325,60.44607,23.95738,-27.78452,-109.6418,-17.01029,-0.4441859,-4.27255,-61.51973,-6.98289,34.57793,0,0,0,81.62336,-2.717298,60.85114,-36.10317,-110.6632,-50.33768,0.001067912,-0.1257102,0.09433498,0,0.3,0,0,0,0,
6.38224E+17,17.99981,15.64002,58.27478,21.54029,-25.8069,-106.3458,-17.01029,-0.4441859,-4.27255,-61.51973,-6.98289,34.57793,0,0,0,74.73112,-10.82143,61.65133,-36.10317,-110.6632,-50.33768,0.001067912,-0.1257102,0.09433498,0,0.3,0,0,0,0,
6.38224E+17,17.22233,14.96205,57.06072,20.07539,-24.92796,-104.7344,-17.01029,-0.4441859,-4.27255,-61.51973,-6.98289,34.57793,0,0,0,71.27917,-14.73086,61.59849,-36.10317,-110.6632,-50.33768,0.001067912,-0.1257102,0.09433498,0,0.3,0,0,0,0,
6.38224E+17,15.59669,13.53598,54.09562,16.48637,-22.95034,-101.9511,-17.01029,-0.4441859,-4.27255,-61.51973,-6.98289,34.57793,0,0,0,63.89801,-23.63966,60.55796,-36.10317,-110.6632,-50.33768,0.001067912,-0.1257102,0.09433498,0,0.3,0,0,0,0,
6.38224E+17,13.85326,11.87613,51.41068,13.04385,-20.53325,-99.60722,-17.01029,-0.4441859,-4.27255,-61.51973,-6.98289,34.57793,0,0,0,56.20207,-32.38196,59.54918,-36.10317,-110.6632,-50.33768,0.001067912,-0.1257102,0.09433498,0,0.3,0,0,0,0,
6.38224E+17,11.92134,10.35654,49.79972,9.747819,-17.67669,-96.0182,-17.01029,-0.4441859,-4.27255,-61.51973,-6.98289,34.57793,0,0,0,48.13653,-38.74954,59.65331,-36.10317,-110.6632,-50.33768,0.001067912,-0.1257102,0.09433498,0,0.3,0,0,0,0,
6.38224E+17,9.942304,9.748712,48.72574,7.110993,-15.03986,-91.55025,-17.01029,-0.4441859,-4.27255,-61.51973,-6.98289,34.57793,0,0,0,39.99499,-42.0364,59.8162,-36.10317,-110.6632,-50.33768,0.001067912,-0.1257102,0.09433498,0,0.3,0,0,0,0,
6.38224E+17,8.787866,9.748712,48.11871,5.79258,-13.79469,-89.3529,-17.01029,-0.4441859,-4.27255,-61.51973,-6.98289,34.57793,0,0,0,35.24669,-43.09325,59.64911,-36.10317,-110.6632,-50.33768,0.001067912,-0.1257102,0.09433498,0,0.3,0,0,0,0,
6.38224E+17,6.24339,9.772089,47.27821,3.302244,-11.67058,-85.17792,-17.01029,-0.4441859,-4.27255,-61.51973,-6.98289,34.57793,0,0,0,24.94576,-44.48643,59.67117,-36.10317,-110.6632,-50.33768,0.001067912,-0.1257102,0.09433498,0,0.3,0,0,0,0,
6.38224E+17,3.439754,9.818846,46.5311,0.3724372,-9.473226,-81.29592,-17.01029,-0.4441859,-4.27255,-61.51973,-6.98289,34.57793,0,0,0,13.69028,-45.64891,59.41408,-36.10317,-110.6632,-50.33768,0.001067912,-0.1257102,0.09433498,0,0.3,0,0,0,0,
6.38224E+17,2.073277,9.865602,46.32097,-1.092466,-8.594284,-79.53804,-17.01029,-0.4441859,-4.27255,-61.51973,-6.98289,34.57793,0,0,0,8.241962,-45.896,59.32032,-36.10317,-110.6632,-50.33768,0.001067912,-0.1257102,0.09433498,0,0.3,0,0,0,0,
6.38224E+17,-0.8481586,10.076,46.15754,-4.901215,-7.056135,-75.65604,-17.01029,-0.4441859,-4.27255,-61.51973,-6.98289,34.57793,0,0,0,-3.367175,-45.68841,59.09666,-36.10317,-110.6632,-50.33768,0.001067912,-0.1257102,0.09433498,0,0.3,0,0,0,0,
6.38224E+17,-3.651794,10.49681,46.22758,-8.563474,-5.884212,-71.99379,-17.01029,-0.4441859,-4.27255,-61.51973,-6.98289,34.57793,0,0,0,-14.48432,-44.60713,58.59781,-36.10317,-110.6632,-50.33768,0.001067912,-0.1257102,0.09433498,0,0.3,0,0,0,0,
6.38224E+17,-4.924032,10.89424,46.46106,-10.3946,-5.371496,-70.52889,-17.01029,-0.4441859,-4.27255,-61.51973,-6.98289,34.57793,0,0,0,-19.53712,-43.30508,58.42296,-36.10317,-110.6632,-50.33768,0.001067912,-0.1257102,0.09433498,0,0.3,0,0,0,0,
6.38224E+17,-7.515628,12.27356,47.32491,-15.00905,-4.785534,-67.52583,-17.01029,-0.4441859,-4.27255,-61.51973,-6.98289,34.57793,0,0,0,-29.8664,-38.69251,58.03065,-36.10317,-110.6632,-50.33768,0.001067912,-0.1257102,0.09433498,0,0.3,0,0,0,0,
6.38224E+17,-9.518225,14.33084,48.2588,-20.13621,-4.565799,-65.54821,-17.01029,-0.4441859,-4.27255,-61.51973,-6.98289,34.57793,0,0,0,-37.81828,-32.42318,57.20237,-36.10317,-110.6632,-50.33768,0.001067912,-0.1257102,0.09433498,0,0.3,0,0,0,0,
6.38224E+17,-10.8847,18.37527,49.26273,-26.21556,-5.298251,-64.52278,-17.01029,-0.4441859,-4.27255,-61.51973,-6.98289,34.57793,0,0,0,-42.97683,-21.63589,55.14684,-36.10317,-110.6632,-50.33768,0.001067912,-0.1257102,0.09433498,0,0.3,0,0,0,0,
6.38224E+17,-11.16742,20.73647,49.79972,-28.77914,-6.030703,-64.30305,-17.01029,-0.4441859,-4.27255,-61.51973,-6.98289,34.57793,0,0,0,-43.87998,-15.50703,53.92334,-36.10317,-110.6632,-50.33768,0.001067912,-0.1257102,0.09433498,0,0.3,0,0,0,0,
6.38224E+17,-11.30878,24.14968,50.92039,-31.70894,-7.861832,-64.08331,-17.01029,-0.4441859,-4.27255,-61.51973,-6.98289,34.57793,0,0,0,-44.15991,-6.157392,52.47264,-36.10317,-110.6632,-50.33768,0.001067912,-0.1257102,0.09433498,0,0.3,0,0,0,0,
6.38224E+17,-11.30878,25.7394,51.73754,-32.88087,-8.960509,-63.86357,-17.01029,-0.4441859,-4.27255,-61.51973,-6.98289,34.57793,0,0,0,-44.08696,-1.317892,52.10786,-36.10317,-110.6632,-50.33768,0.001067912,-0.1257102,0.09433498,0,0.3,0,0,0,0,
6.38224E+17,-11.07318,29.97086,55.21629,-36.54313,-12.62277,-62.47192,-17.01029,-0.4441859,-4.27255,-61.51973,-6.98289,34.57793,0,0,0,-43.22182,13.89272,52.50061,-36.10317,-110.6632,-50.33768,0.001067912,-0.1257102,0.09433498,0,0.3,0,0,0,0,
6.38224E+17,-10.86114,31.39693,56.50039,-38.00803,-14.08767,-61.88596,-17.01029,-0.4441859,-4.27255,-61.51973,-6.98289,34.57793,0,0,0,-42.40112,19.22048,52.64298,-36.10317,-110.6632,-50.33768,0.001067912,-0.1257102,0.09433498,0,0.3,0,0,0,0,
6.38224E+17,-10.01298,34.29583,59.32541,-40.86459,-17.60344,-59.83509,-17.01029,-0.4441859,-4.27255,-61.51973,-6.98289,34.57793,0,0,0,-39.09621,30.45811,53.08222,-36.10317,-110.6632,-50.33768,0.001067912,-0.1257102,0.09433498,0,0.3,0,0,0,0,
6.38224E+17,-8.575826,36.70378,61.96364,-43.7944,-21.48543,-56.83204,-17.01029,-0.4441859,-4.27255,-61.51973,-6.98289,34.57793,0,0,0,-33.49385,40.37163,53.75153,-36.10317,-110.6632,-50.33768,0.001067912,-0.1257102,0.09433498,0,0.3,0,0,0,0,
6.38224E+17,-7.727668,37.61553,62.92088,-44.81983,-23.46305,-55.51363,-17.01029,-0.4441859,-4.27255,-61.51973,-6.98289,34.57793,0,0,0,-30.16874,44.03784,53.97421,-36.10317,-110.6632,-50.33768,0.001067912,-0.1257102,0.09433498,0,0.3,0,0,0,0,
6.38224E+17,-5.677951,39.29876,64.50849,-45.91851,-27.34505,-53.02329,-17.01029,-0.4441859,-4.27255,-61.51973,-6.98289,34.57793,0,0,0,-22.11848,50.4183,54.11482,-36.10317,-110.6632,-50.33768,0.001067912,-0.1257102,0.09433498,0,0.3,0,0,0,0,
6.38224E+17,-2.992115,40.98199,65.95602,-44.89308,-31.52002,-51.26541,-17.01029,-0.4441859,-4.27255,-61.51973,-6.98289,34.57793,0,0,0,-11.61144,56.47202,53.79438,-36.10317,-110.6632,-50.33768,0.001067912,-0.1257102,0.09433498,0,0.3,0,0,0,0,
6.38224E+17,-1.484278,41.65996,66.5864,-43.42817,-33.71738,-50.82594,-17.01029,-0.4441859,-4.27255,-61.51973,-6.98289,34.57793,0,0,0,-5.750286,59.00015,53.57169,-36.10317,-110.6632,-50.33768,0.001067912,-0.1257102,0.09433498,0,0.3,0,0,0,0,
6.38224E+17,1.083758,42.43144,67.61369,-39.10671,-37.74586,-51.19216,-17.01029,-0.4441859,-4.27255,-61.51973,-6.98289,34.57793,0,0,0,4.193693,62.53595,53.33435,-36.10317,-110.6632,-50.33768,0.001067912,-0.1257102,0.09433498,0,0.3,0,0,0,0,
6.38224E+17,3.486874,42.75873,68.80439,-33.46683,-41.48137,-53.97548,-17.01029,-0.4441859,-4.27255,-61.51973,-6.98289,34.57793,0,0,0,13.51644,65.6699,53.47577,-36.10317,-110.6632,-50.33768,0.001067912,-0.1257102,0.09433498,0,0.3,0,0,0,0,
6.38224E+17,5.583711,42.94576,69.13126,-28.04669,-43.82521,-58.15046,-17.01029,-0.4441859,-4.27255,-61.51973,-6.98289,34.57793,0,0,0,21.62143,66.69907,52.80978,-36.10317,-110.6632,-50.33768,0.001067912,-0.1257102,0.09433498,0,0.3,0,0,0,0,
6.38224E+17,6.643909,42.96914,69.10791,-25.33662,-44.55766,-60.93377,-17.01029,-0.4441859,-4.27255,-61.51973,-6.98289,34.57793,0,0,0,25.70329,66.68811,52.3158,-36.10317,-110.6632,-50.33768,0.001067912,-0.1257102,0.09433498,0,0.3,0,0,0,0,
6.38224E+17,9.070585,42.94576,69.24799,-19.11078,-45.50985,-68.33153,-17.01029,-0.4441859,-4.27255,-61.51973,-6.98289,34.57793,0,0,0,35.04753,66.95303,51.18067,-36.10317,-110.6632,-50.33768,0.001067912,-0.1257102,0.09433498,0,0.3,0,0,0,0,
6.38224E+17,12.25118,42.92238,69.27133,-10.10162,-46.02256,-79.68453,-17.01029,-0.4441859,-4.27255,-61.51973,-6.98289,34.57793,0,0,0,47.18579,66.96401,48.95297,-36.10317,-110.6632,-50.33768,0.001067912,-0.1257102,0.09433498,0,0.3,0,0,0,0,
6.38224E+17,14.34802,42.80549,69.27133,-4.534989,-46.09581,-87.15554,-17.01029,-0.4441859,-4.27255,-61.51973,-6.98289,34.57793,0,0,0,55.15085,66.7646,47.26031,-36.10317,-110.6632,-50.33768,0.001067912,-0.1257102,0.09433498,0,0.3,0,0,0,0,
6.38224E+17,16.04433,42.57171,69.27133,-0.0670338,-46.09581,-93.67436,-17.01029,-0.4441859,-4.27255,-61.51973,-6.98289,34.57793,0,0,0,61.61113,66.36466,45.88778,-36.10317,-110.6632,-50.33768,0.001067912,-0.1257102,0.09433498,0,0.3,0,0,0,0,
6.38224E+17,19.10713,41.54307,69.27133,9.088613,-45.29012,-108.2501,-17.01029,-0.4441859,-4.27255,-61.51973,-6.98289,34.57793,0,0,0,73.49489,64.58716,43.80519,-36.10317,-110.6632,-50.33768,0.001067912,-0.1257102,0.09433498,0,0.3,0,0,0,0,
6.38224E+17,21.69872,40.18713,69.27133,17.29207,-43.60548,-118.7242,-17.01029,-0.4441859,-4.27255,-61.51973,-6.98289,34.57793,0,0,0,83.77601,62.20064,42.18345,-36.10317,-110.6632,-50.33768,0.001067912,-0.1257102,0.09433498,0,0.3,0,0,0,0,
6.38224E+17,23.79556,38.90133,69.27133,23.73765,-41.40812,-125.0965,-17.01029,-0.4441859,-4.27255,-61.51973,-6.98289,34.57793,0,0,0,92.19174,59.89301,40.72053,-36.10317,-110.6632,-50.33768,0.001067912,-0.1257102,0.09433498,0,0.3,0,0,0,0,
6.38224E+17,24.62016,38.38701,69.27133,26.22798,-40.38269,-127.0009,-17.01029,-0.4441859,-4.27255,-61.51973,-7.056135,34.57793,0,0,0,95.50244,58.95809,40.05167,-36.10317,-110.6632,-50.33768,0.001067912,-0.1257102,0.09433498,0,0.3,0,0,0,0,
6.38224E+17,26.19868,37.4285,69.31803,29.96349,-38.40507,-129.7842,-17.01029,-0.4441859,-4.27255,-61.51973,-6.98289,34.57793,0,0,0,101.8291,57.29965,38.60605,-36.10317,-110.6632,-50.33768,0.001067912,-0.1257102,0.09433498,0,0.3,0,0,0,0,
6.38224E+17,27.56516,36.72716,69.41142,32.23409,-36.94016,-132.4943,-17.01029,-0.4441859,-4.27255,-61.51973,-6.98289,34.57793,0,0,0,107.2263,56.20078,37.05915,-36.10317,-110.6632,-50.33768,0.001067912,-0.1257102,0.09433498,0,0.3,0,0,0,0,
6.38224E+17,28.43687,36.32973,69.34138,33.25952,-36.13447,-136.0101,-17.01029,-0.4441859,-4.27255,-61.51973,-6.98289,34.57793,0,0,0,110.5738,55.30494,35.83771,-36.10317,-110.6632,-50.33768,0.001067912,-0.1257102,0.09433498,0,0.3,0,0,0,0,
6.38224E+17,29.12011,35.9323,69.24799,33.84548,-35.47526,-139.0131,-17.01029,-0.4441859,-4.27255,-61.51973,-6.98289,34.57793,0,0,0,113.2288,54.35455,34.91398,-36.10317,-110.6632,-50.33768,0.001067912,-0.1257102,0.09433498,0,0.3,0,0,0,0,
6.38224E+17,29.92115,35.11406,69.22465,34.28495,-34.66956,-141.5034,-17.01029,-0.4441859,-4.27255,-61.51973,-6.98289,34.57793,0,0,0,116.6017,52.75383,34.25345,-36.10317,-110.6632,-50.33768,0.001067912,-0.1257102,0.09433498,0,0.3,0,0,0,0,
6.38224E+17,30.18031,34.62312,69.01452,34.43144,-34.15685,-141.6499,-17.01029,-0.4441859,-4.27255,-61.51973,-6.98289,34.57793,0,0,0,117.7577,51.35942,34.13797,-36.10317,-110.6632,-50.33768,0.001067912,-0.1257102,0.09433498,0,0.3,0,0,0,0,
6.38224E+17,30.62795,33.17367,67.56699,34.3582,-32.47221,-141.9429,-17.01029,-0.4441859,-4.27255,-61.51973,-6.98289,34.57793,0,0,0,119.6597,45.42951,33.75842,-36.10317,-110.6632,-50.33768,0.001067912,-0.1257102,0.09433498,0,0.3,0,0,0,0,
6.38224E+17,30.72219,32.77624,67.03,34.13846,-31.73976,-141.9429,-17.01029,-0.4441859,-4.27255,-61.51973,-7.056135,34.57793,0,0,0,120.0027,43.50058,33.57948,-36.10317,-110.6632,-50.33768,0.001067912,-0.1257102,0.09433498,0,0.3,0,0,0,0,
6.38224E+17,30.88711,31.77098,65.27895,33.33276,-29.98187,-142.0162,-17.01029,-0.4441859,-4.27255,-61.51973,-6.98289,34.57793,0,0,0,120.3791,37.79507,32.89147,-36.10317,-110.6632,-50.33768,0.001067912,-0.1257102,0.09433498,0,0.3,0,0,0,0,
6.38224E+17,30.95779,30.43842,62.8275,31.9411,-28.00425,-142.0162,-17.01029,-0.4441859,-4.27255,-61.51973,-6.98289,34.57793,0,0,0,120.1673,30.00962,31.97615,-36.10317,-110.6632,-50.33768,0.001067912,-0.1257102,0.09433498,0,0.3,0,0,0,0,
6.38224E+17,30.95779,29.55005,61.4967,30.84243,-26.61259,-141.8697,-17.01029,-0.4441859,-4.27255,-61.51973,-6.98289,34.57793,0,0,0,119.955,25.48016,31.62223,-36.10317,-110.6632,-50.33768,0.001067912,-0.1257102,0.09433498,0,0.3,0,0,0,0,
6.38224E+17,30.95779,27.58628,58.9285,28.27885,-23.82928,-141.7232,-17.01029,-0.4441859,-4.27255,-61.51973,-6.98289,34.57793,0,0,0,119.5519,16.27931,30.95024,-36.10317,-110.6632,-50.33768,0.001067912,-0.1257102,0.09433498,0,0.3,0,0,0,0,
6.38224E+17,30.93423,25.38873,56.59377,25.86176,-20.75298,-141.5034,-17.01029,-0.4441859,-4.27255,-61.51973,-6.98289,34.57793,0,0,0,119.1525,7.106094,30.46971,-36.10317,-110.6632,-50.33768,0.001067912,-0.1257102,0.09433498,0,0.3,0,0,0,0,
6.38224E+17,30.76931,22.9574,54.49252,23.73765,-17.67669,-141.7232,-17.01029,-0.4441859,-4.27255,-61.51973,-6.98289,34.57793,0,0,0,118.3497,-2.088209,30.4254,-36.10317,-110.6632,-50.33768,0.001067912,-0.1257102,0.09433498,0,0.3,0,0,0,0,
6.38224E+17,30.53371,21.76511,53.46524,22.71221,-16.21178,-141.7232,-17.01029,-0.4441859,-4.27255,-61.51973,-6.98289,34.57793,0,0,0,117.3533,-6.58815,30.60862,-36.10317,-110.6632,-50.33768,0.001067912,-0.1257102,0.09433498,0,0.3,0,0,0,0,
6.38224E+17,29.42639,19.33377,51.13051,20.29512,-12.98899,-141.1372,-17.01029,-0.4441859,-4.27255,-61.51973,-6.98289,34.57793,0,0,0,112.8297,-16.18532,31.67505,-36.10317,-110.6632,-50.33768,0.001067912,-0.1257102,0.09433498,0,0.3,0,0,0,0,
6.38224E+17,27.75363,17.51027,49.30943,18.02452,-10.20568,-139.1596,-17.01029,-0.4441859,-4.27255,-61.51973,-6.98289,34.57793,0,0,0,106.3045,-23.46877,33.67043,-36.10317,-110.6632,-50.33768,0.001067912,-0.1257102,0.09433498,0,0.3,0,0,0,0,
6.38224E+17,26.45784,16.57515,48.37553,16.55962,-8.740773,-137.9877,-17.01029,-0.4441859,-4.27255,-61.51973,-6.98289,34.57793,0,0,0,101.3556,-27.18603,35.31316,-36.10317,-110.6632,-50.33768,0.001067912,-0.1257102,0.09433498,0,0.3,0,0,0,0,
6.38224E+17,23.37148,14.98543,47.16148,13.1171,-5.957458,-134.4719,-17.01029,-0.4441859,-4.27255,-61.51973,-6.98289,34.57793,0,0,0,89.88897,-32.8385,39.65514,-36.10317,-110.6632,-50.33768,0.001067912,-0.1257102,0.09433498,0,0.3,0,0,0,0,
6.38224E+17,20.07309,14.35422,46.69453,9.308348,-3.833347,-129.711,-17.01029,-0.4441859,-4.27255,-61.51973,-6.98289,34.57793,0,0,0,77.64523,-35.05356,44.13477,-36.10317,-110.6632,-50.33768,0.001067912,-0.1257102,0.09433498,0,0.3,0,0,0,0,
6.38224E+17,16.65689,14.21395,46.62449,5.279863,-2.58818,-126.9277,-17.01029,-0.4441859,-4.27255,-61.51973,-6.98289,34.57793,0,0,0,64.83662,-35.48849,48.35394,-36.10317,-110.6632,-50.33768,0.001067912,-0.1257102,0.09433498,0,0.3,0,0,0,0,
6.38224E+17,13.05222,14.14381,46.9747,0.9583986,-2.295199,-124.6571,-17.01029,-0.4441859,-4.27255,-61.51973,-6.98289,34.57793,0,0,0,51.21879,-35.05259,52.58411,-36.10317,-110.6632,-50.33768,0.001067912,-0.1257102,0.09433498,0,0.3,0,0,0,0,
6.38224E+17,11.30878,14.14381,47.53503,-1.385447,-2.441689,-123.7049,-17.01029,-0.4441859,-4.27255,-61.51973,-6.98289,34.57793,0,0,0,44.64695,-34.09487,54.90808,-36.10317,-110.6632,-50.33768,0.001067912,-0.1257102,0.09433498,0,0.3,0,0,0,0,
6.38224E+17,8.104627,14.19057,49.26273,-5.999893,-2.88116,-118.4312,-17.01029,-0.4441859,-4.27255,-61.51973,-6.98289,34.57793,0,0,0,32.471,-30.9826,59.67116,-36.10317,-110.6632,-50.33768,0.001067912,-0.1257102,0.09433498,0,0.3,0,0,0,0,
6.38224E+17,5.348111,14.63475,50.827,-9.881886,-3.540367,-112.0589,-17.01029,-0.4441859,-4.27255,-61.51973,-6.98289,34.57793,0,0,0,21.66143,-27.19069,63.04045,-36.10317,-110.6632,-50.33768,0.001067912,-0.1257102,0.09433498,0,0.3,0,0,0,0,
6.38224E+17,2.968555,15.78029,52.46131,-13.39765,-4.272818,-106.7852,-17.01029,-0.4441859,-4.27255,-61.51973,-7.056135,34.57793,0,0,0,12.12163,-21.63534,65.39899,-36.10317,-110.6632,-50.33768,0.001067912,-0.1257102,0.09433498,0,0.3,0,0,0,0,
6.38224E+17,1.861237,16.48163,53.3952,-15.15554,-4.85878,-104.3682,-17.01029,-0.4441859,-4.27255,-61.51973,-7.056135,34.57793,0,0,0,7.62996,-18.33311,66.44585,-36.10317,-110.6632,-50.33768,0.001067912,-0.1257102,0.09433498,0,0.3,0,0,0,0,
6.38224E+17,-0.04711992,17.51027,55.42641,-18.59806,-6.470173,-100.3397,-17.01029,-0.4441859,-4.27255,-61.59297,-6.98289,34.57793,0,0,0,-0.1948845,-12.19944,68.62101,-36.10317,-110.6632,-50.33768,0.001067912,-0.1257102,0.09433498,0,0.3,0,0,0,0,
6.38224E+17,-1.319358,17.88433,57.50431,-21.82085,-8.228058,-96.82391,-17.01029,-0.4441859,-4.27255,-61.51973,-6.98289,34.57793,0,0,0,-5.511703,-7.339144,70.96451,-36.10317,-110.6632,-50.33768,0.001067912,-0.1257102,0.09433498,0,0.3,0,0,0,0,
6.38224E+17,-1.696317,18.09473,58.55495,-23.21251,-9.106999,-94.91953,-17.01029,-0.4441859,-4.27255,-61.51973,-6.98289,34.57793,0,0,0,-7.119914,-4.799081,72.066,-36.10317,-110.6632,-50.33768,0.001067912,-0.1257102,0.09433498,0,0.3,0,0,0,0,
6.38224E+17,-2.285316,18.95972,60.1659,-25.11688,-10.64515,-91.25727,-17.01029,-0.4441859,-4.27255,-61.51973,-6.98289,34.57793,0,0,0,-9.641647,0.3355403,73.25014,-36.10317,-110.6632,-50.33768,0.001067912,-0.1257102,0.09433498,0,0.3,0,0,0,0,
6.38224E+17,-2.732955,20.38579,61.28657,-26.58179,-12.32979,-88.40071,-17.01029,-0.4441859,-4.27255,-61.51973,-6.98289,34.57793,0,0,0,-11.53644,5.735876,73.32532,-36.10317,-110.6632,-50.33768,0.001067912,-0.1257102,0.09433498,0,0.3,0,0,0,0,
6.38224E+17,-3.133475,21.90538,62.66406,-28.33967,-14.23416,-85.69064,-17.01029,-0.4441859,-4.27255,-61.51973,-6.98289,34.57793,0,0,0,-13.23815,11.8643,73.46893,-36.10317,-110.6632,-50.33768,0.001067912,-0.1257102,0.09433498,0,0.3,0,0,0,0,
6.38224E+17,-3.251275,22.70024,63.66799,-29.80457,-15.9188,-83.49328,-17.01029,-0.4441859,-4.27255,-61.51973,-6.98289,34.57793,0,0,0,-13.7553,15.66076,73.7933,-36.10317,-110.6632,-50.33768,0.001067912,-0.1257102,0.09433498,0,0.3,0,0,0,0,
