zeyangz2/DNN_classification_different_people_hand/data_by_names/Frank/frank_right_12.csv
Timestamp,Therapist joint angle 0,Therapist joint angle 1,Therapist joint angle 2,Therapist joint angle 3,Therapist joint angle 4,Therapist joint angle 5,Patient joint angle 0,Patient joint angle 1,Patient joint angle 2,Patient joint angle 3,Patient joint angle 4,Patient joint angle 5,Virtual joint angle 0,Virtual joint angle 1,Virtual joint angle 2,Therapist position x,Therapist position y,Therapist position z,Patient position x,Patient position y,Patient position z,Virtual position x,Virtual position y,Virtual position z,Assistive Force, Obstacle Force Magnitude, Therapist Constant Force, Patient Constant Force, Recovery Factor, Assistance Level,label
6.38224E+17,0,0,0,0,0,0,0,0,0,0,0,0,0,0,0,0,0,0,0,0,0,0,0,0,0,0.3,0,0,0,0,1
6.38224E+17,45.56496,-0.9818845,-10.29614,-44.45361,-3.686857,5.499599,-17.05741,-0.4441859,-4.249202,-61.66622,-6.98289,34.57793,0,0,0,78.18502,-110.1378,-91.69186,-36.2161,-110.6672,-50.31561,0.001067912,-0.1257102,0.09433498,0,0.3,0,0,0,0,
6.38224E+17,45.56496,-0.9818845,-10.29614,-44.45361,-3.760103,5.499599,-17.05741,-0.4441859,-4.249202,-61.66622,-6.98289,34.57793,0,0,0,78.18502,-110.1378,-91.69186,-36.2161,-110.6672,-50.31561,0.001067912,-0.1257102,0.09433498,0,0.3,0,0,0,0,
6.38224E+17,45.56496,-0.9818845,-10.29614,-44.45361,-3.760103,5.499599,-17.05741,-0.4441859,-4.249202,-61.73947,-7.056135,34.57793,0,0,0,78.18502,-110.1378,-91.69186,-36.2161,-110.6672,-50.31561,0.001067912,-0.1257102,0.09433498,0,0.3,0,0,0,0,
6.38224E+17,45.56496,-0.9818845,-10.29614,-44.45361,-3.686857,5.499599,-17.05741,-0.4441859,-4.249202,-61.73947,-6.98289,34.65118,0,0,0,78.18502,-110.1378,-91.69186,-36.2161,-110.6672,-50.31561,0.001067912,-0.1257102,0.09433498,0,0.3,0,0,6.27E-08,0,
6.38224E+17,45.56496,-0.9818845,-10.29614,-44.52685,-3.760103,5.499599,-17.05741,-0.4441859,-4.249202,-61.73947,-6.98289,34.57793,0,0,0,78.18502,-110.1378,-91.69186,-36.2161,-110.6672,-50.31561,0.001067912,-0.1257102,0.09433498,0,0.3,0,0,0,0,
6.38224E+17,45.56496,-0.9818845,-10.29614,-44.45361,-3.686857,5.499599,-17.05741,-0.4441859,-4.249202,-61.73947,-6.98289,34.57793,0,0,0,78.18502,-110.1378,-91.69186,-36.2161,-110.6672,-50.31561,0.001067912,-0.1257102,0.09433498,0,0.3,0,0,0,0,
6.38224E+17,45.56496,-0.9818845,-10.29614,-44.52685,-3.686857,5.499599,-17.05741,-0.4441859,-4.249202,-61.73947,-6.98289,34.57793,0,0,0,78.18502,-110.1378,-91.69186,-36.2161,-110.6672,-50.31561,0.001067912,-0.1257102,0.09433498,0,0.3,0,0,6.27E-08,0,
6.38224E+17,45.56496,-0.9818845,-10.29614,-44.45361,-3.686857,5.499599,-17.05741,-0.4441859,-4.249202,-61.73947,-6.98289,34.57793,0,0,0,78.18502,-110.1378,-91.69186,-36.2161,-110.6672,-50.31561,0.001067912,-0.1257102,0.09433498,0,0.3,0,0,6.27E-08,0,
6.38224E+17,45.56496,-0.9818845,-10.29614,-44.52685,-3.686857,5.499599,-17.05741,-0.4441859,-4.249202,-61.73947,-6.98289,34.57793,0,0,0,78.18502,-110.1378,-91.69186,-36.2161,-110.6672,-50.31561,0.001067912,-0.1257102,0.09433498,0,0.3,0,0,6.27E-08,0,
6.38224E+17,45.56496,-0.9818845,-10.29614,-44.45361,-3.686857,5.499599,-17.05741,-0.4441859,-4.249202,-61.66622,-6.98289,34.57793,0,0,0,78.18502,-110.1378,-91.69186,-36.2161,-110.6672,-50.31561,0.001067912,-0.1257102,0.09433498,0,0.3,0,0,0,0,
6.38224E+17,45.56496,-0.9818845,-10.29614,-44.45361,-3.686857,5.499599,-17.05741,-0.4441859,-4.249202,-61.66622,-7.056135,34.50468,0,0,0,78.18502,-110.1378,-91.69186,-36.2161,-110.6672,-50.31561,0.001067912,-0.1257102,0.09433498,0,0.3,0,0,0,0,
6.38224E+17,45.56496,-0.9818845,-10.29614,-44.45361,-3.760103,5.499599,-17.05741,-0.4441859,-4.249202,-61.73947,-7.056135,34.57793,0,0,0,78.18502,-110.1378,-91.69186,-36.2161,-110.6672,-50.31561,0.001067912,-0.1257102,0.09433498,0,0.3,0,0,0,0,
6.38224E+17,45.56496,-0.9818845,-10.29614,-44.45361,-3.686857,5.499599,-17.05741,-0.4441859,-4.249202,-61.73947,-6.98289,34.57793,0,0,0,78.18502,-110.1378,-91.69186,-36.2161,-110.6672,-50.31561,0.001067912,-0.1257102,0.09433498,0,0.3,0,0,6.27E-08,0,
6.38224E+17,45.56496,-0.9818845,-10.29614,-44.45361,-3.686857,5.499599,-17.05741,-0.4441859,-4.249202,-61.73947,-7.056135,34.57793,0,0,0,78.18502,-110.1378,-91.69186,-36.2161,-110.6672,-50.31561,0.001067912,-0.1257102,0.09433498,0,0.3,0,0,6.27E-08,0,
6.38224E+17,45.42361,-0.9818845,-10.34284,-44.52685,-3.686857,5.060128,-17.05741,-0.4441859,-4.249202,-61.73947,-6.98289,34.57793,0,0,0,77.91949,-110.1183,-91.57423,-36.2161,-110.6672,-50.31561,0.001067912,-0.1257102,0.09433498,0,0.3,0,0,0.00013013,0,
6.38224E+17,44.81104,-0.9818845,-10.34284,-44.74659,-3.613612,1.764095,-17.05741,-0.4441859,-4.249202,-61.73947,-6.98289,34.57793,0,0,0,77.09423,-110.1183,-90.74559,-36.2161,-110.6672,-50.31561,0.001067912,-0.1257102,0.09433498,0,0.3,0,0,0.000720264,0,
6.38224E+17,44.24561,-0.9818845,-10.34284,-45.18605,-3.613612,-1.019221,-17.05741,-0.4441859,-4.249202,-61.73947,-6.98289,34.57793,0,0,0,76.32463,-110.1183,-89.98856,-36.2161,-110.6672,-50.31561,0.001067912,-0.1257102,0.09433498,0,0.3,0,0,0.00135436,0,
6.38224E+17,43.06761,-0.9818845,-10.34284,-46.35798,-4.053083,-5.047705,-17.05741,-0.4441859,-4.249202,-61.73947,-7.056135,34.57793,0,0,0,74.6975,-110.1183,-88.436,-36.2161,-110.6672,-50.31561,0.001067912,-0.1257102,0.09433498,0,0.3,0,0,0.003346265,0,
6.38224E+17,42.36081,-0.9818845,-10.34284,-47.74964,-4.272818,-8.856454,-17.05741,-0.4441859,-4.249202,-61.73947,-6.98289,34.57793,0,0,0,73.70603,-110.1183,-87.52064,-36.2161,-110.6672,-50.31561,0.001067912,-0.1257102,0.09433498,0,0.3,0,0,0.005813037,0,
6.38224E+17,42.26657,-0.9818845,-10.34284,-48.48209,-4.346064,-12.44547,-17.05741,-0.4441859,-4.249202,-61.66622,-6.98289,34.57793,0,0,0,73.57298,-110.1183,-87.39951,-36.2161,-110.6672,-50.31561,0.001067912,-0.1257102,0.09433498,0,0.3,0,0,0.007037267,0,
6.38224E+17,42.26657,-0.9818845,-10.34284,-49.65401,-4.346064,-23.50549,-17.05741,-0.4441859,-4.249202,-61.73947,-6.98289,34.57793,0,0,0,73.57298,-110.1183,-87.39951,-36.2161,-110.6672,-50.31561,0.001067912,-0.1257102,0.09433498,0,0.3,0,0,0.009281468,0,
6.38224E+17,42.26657,-0.9818845,-10.34284,-50.6062,-4.272818,-34.63876,-17.05741,-0.4441859,-4.249202,-61.66622,-7.056135,34.57793,0,0,0,73.57298,-110.1183,-87.39951,-36.2161,-110.6672,-50.31561,0.001067912,-0.1257102,0.09433498,0,0.3,0,0,0.01128949,0,
6.38224E+17,42.26657,-0.9818845,-10.34284,-51.26541,-4.199574,-41.08433,-17.05741,-0.4441859,-4.249202,-61.73947,-7.056135,34.57793,0,0,0,73.57298,-110.1183,-87.39951,-36.2161,-110.6672,-50.31561,0.001067912,-0.1257102,0.09433498,0,0.3,0,0,0.0130967,0,
6.38224E+17,42.26657,-0.9818845,-10.34284,-51.4119,-4.126328,-42.9887,-17.05741,-0.4441859,-4.249202,-61.73947,-7.056135,34.57793,0,0,0,73.57298,-110.1183,-87.39951,-36.2161,-110.6672,-50.31561,0.001067912,-0.1257102,0.09433498,0,0.3,0,0,0.01473177,0,
6.38224E+17,42.17233,-1.005263,-10.45957,-51.55839,-4.126328,-44.45361,-17.05741,-0.4441859,-4.249202,-61.73947,-6.98289,34.57793,0,0,0,73.2597,-110.1237,-87.47736,-36.2161,-110.6672,-50.31561,0.001067912,-0.1257102,0.09433498,0,0.3,0,0,0.01554429,0,
6.38224E+17,41.79537,-1.005263,-10.52962,-51.70488,-3.906592,-48.04262,-17.05741,-0.4441859,-4.249202,-61.73947,-6.98289,34.57793,0,0,0,72.61921,-110.094,-87.11662,-36.2161,-110.6672,-50.31561,0.001067912,-0.1257102,0.09433498,0,0.3,0,0,0.01727593,0,
6.38224E+17,41.70113,-1.005263,-10.34284,-52.14435,-3.833347,-50.02024,-17.05741,-0.4441859,-4.249202,-61.73947,-6.98289,34.57793,0,0,0,72.76991,-110.1727,-86.67809,-36.2161,-110.6672,-50.31561,0.001067912,-0.1257102,0.09433498,0,0.3,0,0,0.01891344,0,
6.38224E+17,41.65401,-1.005263,-9.852547,-52.36408,-4.199574,-49.94699,-17.05741,-0.4441859,-4.249202,-61.73947,-6.98289,34.57793,0,0,0,73.44938,-110.3728,-85.77888,-36.2161,-110.6672,-50.31561,0.001067912,-0.1257102,0.09433498,0,0.3,0,0,0.02032054,0,
6.38224E+17,41.51265,-1.005263,-9.47899,-52.51057,-4.492554,-49.1413,-17.05741,-0.4441859,-4.249202,-61.73947,-7.056135,34.57793,0,0,0,73.81348,-110.5188,-84.95614,-36.2161,-110.6672,-50.31561,0.001067912,-0.1257102,0.09433498,0,0.3,0,0,0.02095,0,
6.38224E+17,40.97078,-0.9818845,-8.451711,-52.65706,-4.785534,-44.89308,-17.05741,-0.4441859,-4.249202,-61.73947,-6.98289,34.57793,0,0,0,74.57058,-110.837,-82.47793,-36.2161,-110.6672,-50.31561,0.001067912,-0.1257102,0.09433498,0,0.3,0,0,0.02212537,0,
6.38224E+17,39.65141,-0.9818845,-7.190958,-53.09653,-5.298251,-39.10671,-17.05741,-0.4441859,-4.249202,-61.66622,-6.98289,34.57793,0,0,0,74.42854,-111.2363,-78.54554,-36.2161,-110.6672,-50.31561,0.001067912,-0.1257102,0.09433498,0,0.3,0,0,0.02345321,0,
6.38224E+17,38.0729,-0.9818845,-6.187026,-53.75574,-5.810967,-35.00498,-17.05741,-0.4441859,-4.249202,-61.73947,-7.056135,34.57793,0,0,0,73.35751,-111.5084,-74.7025,-36.2161,-110.6672,-50.31561,0.001067912,-0.1257102,0.09433498,0,0.3,0,0,0.02443122,0,
6.38224E+17,36.51794,-0.9818845,-5.113051,-54.92767,-6.250438,-31.6357,-17.05741,-0.4441859,-4.249202,-61.73947,-7.056135,34.57793,0,0,0,72.26948,-111.7545,-70.74734,-36.2161,-110.6672,-50.31561,0.001067912,-0.1257102,0.09433498,0,0.3,0,0,0.02663936,0,
6.38224E+17,34.44466,-0.9818845,-3.572132,-57.34475,-6.763155,-27.38748,-17.05741,-0.4441859,-4.249202,-61.73947,-6.98289,34.57793,0,0,0,70.71371,-112.026,-65.24772,-36.2161,-110.6672,-50.31561,0.001067912,-0.1257102,0.09433498,0,0.3,0,0,0.02941525,0,
6.38224E+17,33.3609,-0.9818845,-2.638241,-58.80966,-7.056135,-25.48311,-17.05741,-0.4441859,-4.249202,-61.73947,-6.98289,34.57793,0,0,0,69.94447,-112.1438,-62.11598,-36.2161,-110.6672,-50.31561,0.001067912,-0.1257102,0.09433498,0,0.3,0,0,0.03095669,0,
6.38224E+17,30.91067,-0.9117499,0.04669453,-62.39867,-8.228058,-18.67131,-17.05741,-0.4441859,-4.249202,-61.73947,-6.98289,34.57793,0,0,0,68.54919,-112.1219,-53.86104,-36.2161,-110.6672,-50.31561,0.001067912,-0.1257102,0.09433498,0,0.3,0,0,0.03583385,0,
6.38224E+17,30.39235,-0.8649935,0.700418,-63.27761,-8.667529,-16.62044,-17.05741,-0.4441859,-4.249202,-61.66622,-6.98289,34.57793,0,0,0,68.28126,-112.0031,-51.9318,-36.2161,-110.6672,-50.31561,0.001067912,-0.1257102,0.09433498,0,0.3,0,0,0.03747487,0,
6.38224E+17,29.44995,-0.8182371,2.194643,-64.15656,-9.692961,-13.25116,-17.05741,-0.4441859,-4.249202,-61.73947,-7.056135,34.57793,0,0,0,68.06729,-111.8065,-47.79588,-36.2161,-110.6672,-50.31561,0.001067912,-0.1257102,0.09433498,0,0.3,0,0,0.0406557,0,
6.38224E+17,28.64891,-0.7247244,3.805604,-63.79033,-11.30435,-11.05381,-17.05741,-0.4441859,-4.249202,-61.66622,-6.98289,34.57793,0,0,0,68.17173,-111.3926,-43.56778,-36.2161,-110.6672,-50.31561,0.001067912,-0.1257102,0.09433498,0,0.3,0,0,0.04360813,0,
6.38224E+17,28.41331,-0.6312115,4.576064,-63.57059,-12.32979,-10.3946,-17.05741,-0.4441859,-4.249202,-61.73947,-7.056135,34.57793,0,0,0,68.51023,-111.044,-41.71332,-36.2161,-110.6672,-50.31561,0.001067912,-0.1257102,0.09433498,0,0.3,0,0,0.04495076,0,
6.38224E+17,28.24839,-0.4441859,6.303762,-62.98463,-14.16092,-8.709964,-17.05741,-0.4441859,-4.249202,-61.73947,-7.056135,34.57793,0,0,0,70.04186,-110.2275,-37.98698,-36.2161,-110.6672,-50.31561,0.001067912,-0.1257102,0.09433498,0,0.3,0,0,0.04720267,0,
6.38224E+17,28.24839,-0.4208077,8.218237,-62.83814,-15.55258,-7.24506,-17.05741,-0.4441859,-4.249202,-61.73947,-6.98289,34.57793,0,0,0,72.13393,-109.61,-34.0932,-36.2161,-110.6672,-50.31561,0.001067912,-0.1257102,0.09433498,0,0.3,0,0,0.04878719,0,
6.38224E+17,28.08347,-0.4208077,10.01598,-63.27761,-16.79774,-6.219628,-17.05741,-0.4441859,-4.249202,-61.73947,-6.98289,34.57793,0,0,0,73.6919,-108.947,-30.24147,-36.2161,-110.6672,-50.31561,0.001067912,-0.1257102,0.09433498,0,0.3,0,0,0.04976646,0,
6.38224E+17,27.94211,-0.4208077,10.94987,-63.57059,-17.45695,-5.853402,-17.05741,-0.4441859,-4.249202,-61.73947,-6.98289,34.57793,0,0,0,74.35239,-108.5516,-28.17201,-36.2161,-110.6672,-50.31561,0.001067912,-0.1257102,0.09433498,0,0.3,0,0,0.05007106,0,
6.38224E+17,27.6594,-0.3974294,13.14451,-64.30305,-18.62887,-4.97446,-17.05741,-0.4441859,-4.249202,-61.73947,-6.98289,34.57793,0,0,0,75.97874,-107.4311,-23.3823,-36.2161,-110.6672,-50.31561,0.001067912,-0.1257102,0.09433498,0,0.3,0,0,0.05026579,0,
6.38224E+17,27.68295,-0.233782,15.19907,-65.25523,-19.14159,-2.85035,-17.05741,-0.4441859,-4.249202,-61.66622,-6.98289,34.57793,0,0,0,78.1931,-105.8796,-19.30637,-36.2161,-110.6672,-50.31561,0.001067912,-0.1257102,0.09433498,0,0.3,0,0,0.04982422,0,
6.38224E+17,27.70651,-0.116891,16.45982,-65.91444,-19.14159,-1.458692,-17.05741,-0.4441859,-4.249202,-61.66622,-6.98289,34.57793,0,0,0,79.56728,-104.8072,-16.83854,-36.2161,-110.6672,-50.31561,0.001067912,-0.1257102,0.09433498,0,0.3,0,0,0.04930928,0,
6.38224E+17,27.91855,0.3039166,18.95798,-67.01311,-18.26265,2.057076,-17.05741,-0.4441859,-4.249202,-61.73947,-6.98289,34.57793,0,0,0,82.71979,-102.0594,-12.24177,-36.2161,-110.6672,-50.31561,0.001067912,-0.1257102,0.09433498,0,0.3,0,0,0.04765421,0,
6.38224E+17,28.24839,0.9351282,22.01647,-67.67233,-16.21178,6.305296,-17.05741,-0.4441859,-4.249202,-61.73947,-7.056135,34.50468,0,0,0,86.76517,-98.09928,-6.861292,-36.2161,-110.6672,-50.31561,0.001067912,-0.1257102,0.09433498,0,0.3,0,0,0.04500174,0,
6.38224E+17,28.71959,1.472827,25.6353,-67.3061,-13.35522,11.65219,-17.05741,-0.4441859,-4.249202,-61.73947,-6.98289,34.57793,0,0,0,91.77933,-93.44637,-0.8476363,-36.2161,-110.6672,-50.31561,0.001067912,-0.1257102,0.09433498,0,0.3,0,0,0.04118864,0,
6.38224E+17,29.26147,1.940391,28.95061,-65.76794,-9.985942,18.97671,-17.05741,-0.4441859,-4.249202,-61.73947,-6.98289,34.57793,0,0,0,96.69475,-88.82103,4.229842,-36.2161,-110.6672,-50.31561,0.001067912,-0.1257102,0.09433498,0,0.3,0,0,0.0362006,0,
6.38224E+17,29.44995,2.267686,30.39814,-64.59603,-8.447793,23.22493,-17.05741,-0.4441859,-4.249202,-61.73947,-6.98289,34.57793,0,0,0,98.68732,-86.39196,6.435318,-36.2161,-110.6672,-50.31561,0.001067912,-0.1257102,0.09433498,0,0.3,0,0,0.03335993,0,
6.38224E+17,29.63843,3.202814,32.87295,-60.86052,-5.737722,30.76918,-17.05741,-0.4441859,-4.249202,-61.73947,-6.98289,34.57793,0,0,0,101.6353,-81.19716,10.28147,-36.2161,-110.6672,-50.31561,0.001067912,-0.1257102,0.09433498,0,0.3,0,0,0.02717349,0,
6.38224E+17,29.92115,4.535372,34.83412,-55.80661,-3.760103,37.21476,-17.05741,-0.4441859,-4.249202,-61.73947,-7.056135,34.57793,0,0,0,104.3018,-75.56032,12.88161,-36.2161,-110.6672,-50.31561,0.001067912,-0.1257102,0.09433498,0,0.3,0,0,0.02037912,0,
6.38224E+17,30.13319,5.33023,35.8147,-52.43733,-2.88116,40.3643,-17.05741,-0.4441859,-4.249202,-61.73947,-6.98289,34.57793,0,0,0,105.8267,-72.39766,13.96717,-36.2161,-110.6672,-50.31561,0.001067912,-0.1257102,0.09433498,0,0.3,0,0,0.0168,0,
6.38224E+17,30.67507,6.89657,37.61245,-45.40579,-1.635992,45.93093,-17.05741,-0.4441859,-4.249202,-61.73947,-7.056135,34.57793,0,0,0,109.0593,-66.27183,15.50891,-36.2161,-110.6672,-50.31561,0.001067912,-0.1257102,0.09433498,0,0.3,0,0,0.009230983,0,
6.38224E+17,31.61747,8.486288,39.50357,-37.34882,-1.123276,52.30326,-17.05741,-0.4441859,-4.249202,-61.66622,-6.98289,34.57793,0,0,0,113.6131,-59.86203,16.19944,-36.2161,-110.6672,-50.31561,0.001067912,-0.1257102,0.09433498,0,0.3,0,0,0.001008182,0,
6.38224E+17,32.60699,9.655198,41.18458,-29.07212,-1.123276,58.89533,-17.05741,-0.4441859,-4.249202,-61.73947,-7.056135,34.57793,0,0,0,118.159,-54.6429,16.3604,-36.2161,-110.6672,-50.31561,0.001067912,-0.1257102,0.09433498,0,0.3,0,0,0,0,
6.38224E+17,33.07819,10.16952,41.93169,-24.97039,-1.269767,62.70407,-17.05741,-0.4441859,-4.249202,-61.73947,-6.98289,34.57793,0,0,0,120.2717,-52.31025,16.30001,-36.2161,-110.6672,-50.31561,0.001067912,-0.1257102,0.09433498,0,0.3,0,0,0,0,
6.38224E+17,33.78498,11.24492,43.91621,-18.23184,-1.782483,70.02859,-17.05741,-0.4441859,-4.249202,-61.73947,-6.98289,34.57793,0,0,0,124.1624,-46.70564,17.2267,-36.2161,-110.6672,-50.31561,0.001067912,-0.1257102,0.09433498,0,0.3,0,0,0,0,
6.38224E+17,34.27974,12.48396,45.83068,-13.4709,-2.002218,75.30224,-17.05741,-0.4441859,-4.249202,-61.73947,-7.056135,34.57793,0,0,0,127.2047,-40.73998,18.26676,-36.2161,-110.6672,-50.31561,0.001067912,-0.1257102,0.09433498,0,0.3,0,0,0,0,
6.38224E+17,34.63314,14.14381,47.09144,-9.076189,-1.635992,80.86888,-17.05741,-0.4441859,-4.249202,-61.73947,-6.98289,34.57793,0,0,0,128.9964,-34.85378,18.40974,-36.2161,-110.6672,-50.31561,0.001067912,-0.1257102,0.09433498,0,0.3,0,0,0,0,
6.38224E+17,34.63314,15.35948,47.4183,-6.659099,-1.123276,84.3114,-17.05741,-0.4441859,-4.249202,-61.73947,-6.98289,34.57793,0,0,0,128.8804,-31.55908,18.24182,-36.2161,-110.6672,-50.31561,0.001067912,-0.1257102,0.09433498,0,0.3,0,0,0,0,
6.38224E+17,34.58602,16.10758,47.65177,-5.487176,-0.61056,86.21577,-17.05741,-0.4441859,-4.249202,-61.73947,-7.056135,34.57793,0,0,0,128.6672,-29.48235,18.26108,-36.2161,-110.6672,-50.31561,0.001067912,-0.1257102,0.09433498,0,0.3,0,0,0,0,
6.38224E+17,34.51534,17.60379,48.28215,-3.363066,0.8543434,89.65829,-17.05741,-0.4441859,-4.249202,-61.73947,-7.056135,34.57793,0,0,0,128.4214,-25.06006,18.39711,-36.2161,-110.6672,-50.31561,0.001067912,-0.1257102,0.09433498,0,0.3,0,0,0,0,
6.38224E+17,34.37398,19.66107,49.02925,-0.9459759,2.172756,93.83327,-17.05741,-0.4441859,-4.249202,-61.73947,-6.98289,34.57793,0,0,0,127.7451,-19.21773,18.39886,-36.2161,-110.6672,-50.31561,0.001067912,-0.1257102,0.09433498,0,0.3,0,0,0,0,
6.38224E+17,34.20906,22.20929,49.61294,1.324624,3.417924,97.42229,-17.05741,-0.4441859,-4.249202,-61.66622,-6.98289,34.57793,0,0,0,126.5136,-12.64876,17.74571,-36.2161,-110.6672,-50.31561,0.001067912,-0.1257102,0.09433498,0,0.3,0,0,0,0,
6.38224E+17,34.09126,23.75225,49.72968,2.716283,3.78415,99.10693,-17.05741,-0.4441859,-4.249202,-61.73947,-6.98289,34.57793,0,0,0,125.4434,-9.135656,16.98999,-36.2161,-110.6672,-50.31561,0.001067912,-0.1257102,0.09433498,0,0.3,0,0,0,0,
6.38224E+17,33.9499,26.60439,50.05654,5.279863,3.63766,101.0113,-17.05741,-0.4441859,-4.249202,-61.73947,-6.98289,34.57793,0,0,0,123.6824,-2.547065,15.36304,-36.2161,-110.6672,-50.31561,0.001067912,-0.1257102,0.09433498,0,0.3,0,0,0,0,
6.38224E+17,33.71431,29.36302,50.40675,8.136425,3.124943,102.1832,-17.05741,-0.4441859,-4.249202,-61.73947,-6.98289,34.57793,0,0,0,121.5434,3.748635,13.79809,-36.2161,-110.6672,-50.31561,0.001067912,-0.1257102,0.09433498,0,0.3,0,0,0,0,
6.38224E+17,33.45514,30.6722,50.40675,9.674574,2.612227,102.5494,-17.05741,-0.4441859,-4.249202,-61.73947,-6.98289,34.57793,0,0,0,119.878,6.386871,13.07427,-36.2161,-110.6672,-50.31561,0.001067912,-0.1257102,0.09433498,0,0.3,0,0,0,0,
6.38224E+17,32.79546,32.98664,50.64022,12.23815,1.51355,102.9889,-17.05741,-0.4441859,-4.249202,-61.73947,-7.056135,34.57793,0,0,0,116.4297,11.38258,12.34494,-36.2161,-110.6672,-50.31561,0.001067912,-0.1257102,0.09433498,0,0.3,0,0,0,0,
6.38224E+17,31.78239,35.20757,50.80365,14.582,0.268382,103.8679,-17.05741,-0.4441859,-4.249202,-61.66622,-6.98289,34.57793,0,0,0,111.8174,15.95713,12.11688,-36.2161,-110.6672,-50.31561,0.001067912,-0.1257102,0.09433498,0,0.3,0,0,0,0,
6.38224E+17,31.07559,36.23622,50.80365,15.46094,-0.3175794,104.6003,-17.05741,-0.4441859,-4.249202,-61.66622,-6.98289,34.57793,0,0,0,108.8613,17.90074,12.28533,-36.2161,-110.6672,-50.31561,0.001067912,-0.1257102,0.09433498,0,0.3,0,0,0,0,
6.38224E+17,29.19079,38.43377,50.80365,16.8526,-1.928973,106.9442,-17.05741,-0.4441859,-4.249202,-61.66622,-6.98289,34.57793,0,0,0,101.3485,21.96711,13.06029,-36.2161,-110.6672,-50.31561,0.001067912,-0.1257102,0.09433498,0,0.3,0,0,0,0,
6.38224E+17,27.11752,40.44429,50.71026,17.58505,-3.906592,110.0937,-17.05741,-0.4441859,-4.249202,-61.73947,-7.056135,34.57793,0,0,0,93.30164,25.41241,13.84004,-36.2161,-110.6672,-50.31561,0.001067912,-0.1257102,0.09433498,0,0.3,0,0,0,0,
6.38224E+17,24.54948,42.05739,50.59352,17.87803,-6.103948,113.5362,-17.05741,-0.4441859,-4.249202,-61.66622,-7.056135,34.57793,0,0,0,83.94477,28.02482,15.42924,-36.2161,-110.6672,-50.31561,0.001067912,-0.1257102,0.09433498,0,0.3,0,0,0,0,
6.38224E+17,23.13588,42.6886,50.4301,17.87803,-7.27587,115.6603,-17.05741,-0.4441859,-4.249202,-61.66622,-7.056135,34.57793,0,0,0,78.90144,28.81658,16.31129,-36.2161,-110.6672,-50.31561,0.001067912,-0.1257102,0.09433498,0,0.3,0,0,0,0,
6.38224E+17,20.21445,43.62373,50.10323,17.07234,-9.326735,119.9818,-17.05741,-0.4441859,-4.249202,-61.73947,-7.056135,34.57793,0,0,0,68.70494,29.81921,18.23937,-36.2161,-110.6672,-50.31561,0.001067912,-0.1257102,0.09433498,0,0.3,0,0,0,0,
6.38224E+17,16.53909,44.16143,50.00984,14.94823,-12.03681,125.6949,-17.05741,-0.4441859,-4.249202,-61.66622,-6.98289,34.57793,0,0,0,56.31598,30.55441,21.2943,-36.2161,-110.6672,-50.31561,0.001067912,-0.1257102,0.09433498,0,0.3,0,0,0,0,
6.38224E+17,14.20666,44.20818,49.77637,13.55657,-13.57495,129.8699,-17.05741,-0.4441859,-4.249202,-61.73947,-7.056135,34.57793,0,0,0,48.44675,30.21684,23.01623,-36.2161,-110.6672,-50.31561,0.001067912,-0.1257102,0.09433498,0,0.3,0,0,0,0,
6.38224E+17,12.5339,44.16143,49.40281,12.67763,-14.74688,132.7997,-17.05741,-0.4441859,-4.249202,-61.73947,-6.98289,34.57793,0,0,0,42.73409,29.47681,23.87275,-36.2161,-110.6672,-50.31561,0.001067912,-0.1257102,0.09433498,0,0.3,0,0,0,0,
6.38224E+17,8.999906,43.71724,48.35219,10.33378,-17.09072,138.8791,-17.05741,-0.4441859,-4.249202,-61.73947,-6.98289,34.57793,0,0,0,30.66473,26.89043,25.26156,-36.2161,-110.6672,-50.31561,0.001067912,-0.1257102,0.09433498,0,0.3,0,0,0,0,
6.38224E+17,5.418791,42.75873,47.32491,6.744767,-19.21483,144.1527,-17.05741,-0.4441859,-4.249202,-61.66622,-6.98289,34.57793,0,0,0,18.50434,23.49302,26.72259,-36.2161,-110.6672,-50.31561,0.001067912,-0.1257102,0.09433498,0,0.3,0,0,0,0,
6.38224E+17,2.568036,41.37942,46.34432,2.203566,-20.82623,144.8852,-17.05741,-0.4441859,-4.249202,-61.73947,-7.056135,34.57793,0,0,0,8.806012,19.44544,27.99051,-36.2161,-110.6672,-50.31561,0.001067912,-0.1257102,0.09433498,0,0.3,0,0,0,0,
6.38224E+17,1.413598,40.63132,45.78399,0.006211365,-21.2657,144.8852,-17.05741,-0.4441859,-4.249202,-61.73947,-6.98289,34.57793,0,0,0,4.854338,17.19239,28.36554,-36.2161,-110.6672,-50.31561,0.001067912,-0.1257102,0.09433498,0,0.3,0,0,0,0,
6.38224E+17,-0.6596789,39.15849,44.71001,-4.461744,-21.55868,144.9584,-17.05741,-0.4441859,-4.249202,-61.73947,-6.98289,34.57793,0,0,0,-2.270588,12.7875,28.85106,-36.2161,-110.6672,-50.31561,0.001067912,-0.1257102,0.09433498,0,0.3,0,0,0,0,
6.38224E+17,-2.120397,37.7558,43.37922,-8.343738,-21.48543,144.8852,-17.05741,-0.4441859,-4.249202,-61.73947,-6.98289,34.57793,0,0,0,-7.289565,8.077888,28.53326,-36.2161,-110.6672,-50.31561,0.001067912,-0.1257102,0.09433498,0,0.3,0,0,0,0,
6.38224E+17,-2.615156,36.96094,42.53872,-9.735395,-21.2657,144.9584,-17.05741,-0.4441859,-4.249202,-61.73947,-6.98289,34.57793,0,0,0,-8.975291,5.274379,28.15424,-36.2161,-110.6672,-50.31561,0.001067912,-0.1257102,0.09433498,0,0.3,0,0,0,0,
6.38224E+17,-3.533994,34.92704,40.50751,-11.85951,-19.94728,144.9584,-17.05741,-0.4441859,-4.249202,-61.73947,-6.98289,34.57793,0,0,0,-12.0784,-1.69154,27.22581,-36.2161,-110.6672,-50.31561,0.001067912,-0.1257102,0.09433498,0,0.3,0,0,0,0,
6.38224E+17,-4.264353,32.84638,38.35956,-13.4709,-17.5302,144.8852,-17.05741,-0.4441859,-4.249202,-61.73947,-6.98289,34.57793,0,0,0,-14.48405,-8.886471,25.89807,-36.2161,-110.6672,-50.31561,0.001067912,-0.1257102,0.09433498,0,0.3,0,0,0,0,
6.38224E+17,-4.711992,30.71896,36.2583,-14.56958,-14.96661,144.8852,-17.05741,-0.4441859,-4.249202,-61.73947,-6.98289,34.57793,0,0,0,-15.89592,-16.05912,24.50149,-36.2161,-110.6672,-50.31561,0.001067912,-0.1257102,0.09433498,0,0.3,0,0,0,0,
6.38224E+17,-4.994712,28.52141,34.06366,-15.15554,-12.62277,144.8119,-17.05741,-0.4441859,-4.249202,-61.73947,-6.98289,34.57793,0,0,0,-16.70385,-23.44634,22.77911,-36.2161,-110.6672,-50.31561,0.001067912,-0.1257102,0.09433498,0,0.3,0,0,0,0,
6.38224E+17,-5.136071,27.44601,33.17647,-15.37527,-11.30435,144.8852,-17.05741,-0.4441859,-4.249202,-61.73947,-7.056135,34.57793,0,0,0,-17.12656,-26.79981,22.19444,-36.2161,-110.6672,-50.31561,0.001067912,-0.1257102,0.09433498,0,0.3,0,0,0,0,
6.38224E+17,-5.371671,24.96792,31.58885,-15.88799,-8.228058,144.9584,-17.05741,-0.4441859,-4.249202,-61.73947,-6.98289,34.57793,0,0,0,-17.85624,-33.95291,21.55144,-36.2161,-110.6672,-50.31561,0.001067912,-0.1257102,0.09433498,0,0.3,0,0,0,0,
6.38224E+17,-5.536591,22.74699,30.00124,-16.62044,-5.225006,144.8852,-17.05741,-0.4441859,-4.249202,-61.73947,-6.98289,34.57793,0,0,0,-18.29825,-40.5716,20.42091,-36.2161,-110.6672,-50.31561,0.001067912,-0.1257102,0.09433498,0,0.3,0,0,0,0,
6.38224E+17,-5.536591,21.43781,28.90392,-16.91342,-3.833347,144.8852,-17.05741,-0.4441859,-4.249202,-61.66622,-6.98289,34.57793,0,0,0,-18.19426,-44.65055,19.34808,-36.2161,-110.6672,-50.31561,0.001067912,-0.1257102,0.09433498,0,0.3,0,0,0,0,
6.38224E+17,-5.465911,18.88959,27.12952,-17.64587,-0.9767859,142.9075,-17.05741,-0.4441859,-4.249202,-61.73947,-6.98289,34.57793,0,0,0,-17.81016,-52.1571,17.77623,-36.2161,-110.6672,-50.31561,0.001067912,-0.1257102,0.09433498,0,0.3,0,0,0,0,
6.38224E+17,-5.159632,16.59852,25.51856,-18.67131,1.733285,138.2198,-17.05741,-0.4441859,-4.249202,-61.73947,-6.98289,34.57793,0,0,0,-16.65888,-58.89789,16.14034,-36.2161,-110.6672,-50.31561,0.001067912,-0.1257102,0.09433498,0,0.3,0,0,0,0,
6.38224E+17,-4.711992,15.10232,24.7948,-19.477,4.150376,134.3379,-17.05741,-0.4441859,-4.249202,-61.73947,-7.056135,34.57793,0,0,0,-15.16988,-62.96372,15.69317,-36.2161,-110.6672,-50.31561,0.001067912,-0.1257102,0.09433498,0,0.3,0,0,0,0,
6.38224E+17,-4.570632,14.61138,24.84149,-19.76999,5.029318,132.9462,-17.05741,-0.4441859,-4.249202,-61.73947,-6.98289,34.57793,0,0,0,-14.74698,-64.02252,16.12041,-36.2161,-110.6672,-50.31561,0.001067912,-0.1257102,0.09433498,0,0.3,0,0,0,0,
6.38224E+17,-4.382153,14.12043,24.93488,-20.57568,6.347731,129.7234,-17.05741,-0.4441859,-4.249202,-61.73947,-6.98289,34.57793,0,0,0,-14.17679,-65.03793,16.64718,-36.2161,-110.6672,-50.31561,0.001067912,-0.1257102,0.09433498,0,0.3,0,0,0,0,
6.38224E+17,-4.264353,13.95679,24.91153,-21.45462,6.713957,127.1598,-17.05741,-0.4441859,-4.249202,-61.73947,-7.056135,34.57793,0,0,0,-13.79961,-65.43033,16.71893,-36.2161,-110.6672,-50.31561,0.001067912,-0.1257102,0.09433498,0,0.3,0,0,0,0,
6.38224E+17,-4.170113,13.88665,24.91153,-22.04058,6.640712,125.6217,-17.05741,-0.4441859,-4.249202,-61.66622,-6.98289,34.57793,0,0,0,-13.49805,-65.58876,16.78055,-36.2161,-110.6672,-50.31561,0.001067912,-0.1257102,0.09433498,0,0.3,0,0,0,0,
6.38224E+17,-3.698914,13.76976,24.93488,-23.13926,6.201241,123.4243,-17.05741,-0.4441859,-4.249202,-61.66622,-7.056135,34.57793,0,0,0,-11.98248,-65.83003,16.99936,-36.2161,-110.6672,-50.31561,0.001067912,-0.1257102,0.09433498,0,0.3,0,0,0,0,
6.38224E+17,-2.568036,13.44247,24.7948,-23.65198,5.835015,122.9116,-17.05741,-0.4441859,-4.249202,-61.66622,-6.98289,34.57793,0,0,0,-8.316814,-66.70749,17.08325,-36.2161,-110.6672,-50.31561,0.001067912,-0.1257102,0.09433498,0,0.3,0,0,0,0,
6.38224E+17,-0.8952785,12.95152,24.7948,-22.77304,5.981505,122.7651,-17.05741,-0.4441859,-4.249202,-61.73947,-7.056135,34.57793,0,0,0,-2.904369,-67.81992,17.50783,-36.2161,-110.6672,-50.31561,0.001067912,-0.1257102,0.09433498,0,0.3,0,0,0,0,
6.38224E+17,1.060198,12.67099,24.88819,-20.13621,6.274486,122.9116,-17.05741,-0.4441859,-4.249202,-61.73947,-6.98289,34.57793,0,0,0,3.445656,-68.36528,17.84066,-36.2161,-110.6672,-50.31561,0.001067912,-0.1257102,0.09433498,0,0.3,0,0,0,0,
6.38224E+17,2.026157,12.48396,24.88819,-18.37833,6.347731,123.3511,-17.05741,-0.4441859,-4.249202,-61.73947,-6.98289,34.57793,0,0,0,6.587386,-68.79012,17.85084,-36.2161,-110.6672,-50.31561,0.001067912,-0.1257102,0.09433498,0,0.3,0,0,0,0,
6.38224E+17,3.722474,11.94626,24.91153,-15.37527,6.567466,123.7905,-17.05741,-0.4441859,-4.249202,-61.73947,-6.98289,34.57793,0,0,0,12.11681,-69.99034,17.88765,-36.2161,-110.6672,-50.31561,0.001067912,-0.1257102,0.09433498,0,0.3,0,0,0,0,
6.38224E+17,5.79575,11.75924,25.1917,-12.95818,7.153428,123.6441,-17.05741,-0.4441859,-4.249202,-61.73947,-6.98289,34.57793,0,0,0,18.91519,-70.14024,18.00402,-36.2161,-110.6672,-50.31561,0.001067912,-0.1257102,0.09433498,0,0.3,0,0,0,0,
6.38224E+17,8.151747,11.71248,25.51856,-10.98056,7.592898,121.5932,-17.05741,-0.4441859,-4.249202,-61.73947,-7.056135,34.57793,0,0,0,26.66051,-69.92101,17.77135,-36.2161,-110.6672,-50.31561,0.001067912,-0.1257102,0.09433498,0,0.3,0,0,0,0,
6.38224E+17,9.329745,11.61897,25.5886,-10.02838,7.666144,120.055,-17.05741,-0.4441859,-4.249202,-61.73947,-7.056135,34.57793,0,0,0,30.51223,-70.06384,17.37246,-36.2161,-110.6672,-50.31561,0.001067912,-0.1257102,0.09433498,0,0.3,0,0,0,0,
6.38224E+17,11.61506,11.31505,25.61195,-8.563474,7.88588,116.173,-17.05741,-0.4441859,-4.249202,-61.73947,-6.98289,34.57793,0,0,0,37.93195,-70.73358,16.19379,-36.2161,-110.6672,-50.31561,0.001067912,-0.1257102,0.09433498,0,0.3,0,0,0,0,
6.38224E+17,14.20666,11.12803,25.89212,-7.391551,7.959125,111.9248,-17.05741,-0.4441859,-4.249202,-61.73947,-6.98289,34.57793,0,0,0,46.4025,-70.87724,14.94135,-36.2161,-110.6672,-50.31561,0.001067912,-0.1257102,0.09433498,0,0.3,0,0,0,0,
6.38224E+17,15.50245,11.10465,26.12559,-6.732344,7.812634,110.0937,-17.05741,-0.4441859,-4.249202,-61.73947,-6.98289,34.57793,0,0,0,50.66891,-70.69234,14.32582,-36.2161,-110.6672,-50.31561,0.001067912,-0.1257102,0.09433498,0,0.3,0,0,0,0,
6.38224E+17,18.25897,11.08127,27.08283,-5.340686,7.226673,106.3582,-17.05741,-0.4441859,-4.249202,-61.73947,-6.98289,34.57793,0,0,0,60.02287,-69.74805,13.57931,-36.2161,-110.6672,-50.31561,0.001067912,-0.1257102,0.09433498,0,0.3,0,0,0,0,
6.38224E+17,20.96836,11.08127,28.53036,-3.656047,6.494221,103.5749,-17.05741,-0.4441859,-4.249202,-61.73947,-6.98289,34.57793,0,0,0,69.62197,-68.17651,13.32118,-36.2161,-110.6672,-50.31561,0.001067912,-0.1257102,0.09433498,0,0.3,0,0,0,0,
6.38224E+17,24.05472,11.08127,30.35144,-1.092466,5.542034,100.7183,-17.05741,-0.4441859,-4.249202,-61.73947,-6.98289,34.57793,0,0,0,80.80679,-66.09332,12.67952,-36.2161,-110.6672,-50.31561,0.001067912,-0.1257102,0.09433498,0,0.3,0,0,0,0,
6.38224E+17,26.128,11.08127,31.86902,0.5921727,4.589847,98.30123,-17.05741,-0.4441859,-4.249202,-61.66622,-6.98289,34.57793,0,0,0,88.63477,-64.26844,12.35253,-36.2161,-110.6672,-50.31561,0.001067912,-0.1257102,0.09433498,0,0.3,0,0,0,0,
6.38224E+17,27.306,11.08127,32.82626,1.471115,4.077131,96.76308,-17.05741,-0.4441859,-4.249202,-61.73947,-6.98289,34.57793,0,0,0,93.19442,-63.07642,12.16454,-36.2161,-110.6672,-50.31561,0.001067912,-0.1257102,0.09433498,0,0.3,0,0,0,0,
6.38224E+17,29.80335,11.08127,35.44115,3.375489,2.538982,93.46705,-17.05741,-0.4441859,-4.249202,-61.66622,-6.98289,34.57793,0,0,0,103.4751,-59.66176,12.30313,-36.2161,-110.6672,-50.31561,0.001067912,-0.1257102,0.09433498,0,0.3,0,0,0,0,
6.38224E+17,31.99443,11.08127,38.14943,5.426354,0.7810982,90.75697,-17.05741,-0.4441859,-4.249202,-61.73947,-6.98289,34.57793,0,0,0,112.9803,-55.88673,12.49538,-36.2161,-110.6672,-50.31561,0.001067912,-0.1257102,0.09433498,0,0.3,0,0,0,0,
6.38224E+17,33.0075,11.08127,39.59696,6.525032,-0.2443342,89.29208,-17.05741,-0.4441859,-4.249202,-61.73947,-7.056135,34.57793,0,0,0,117.5888,-53.77243,12.66902,-36.2161,-110.6672,-50.31561,0.001067912,-0.1257102,0.09433498,0,0.3,0,0,0,0,
6.38224E+17,34.4211,11.08127,42.09512,8.209671,-2.221954,86.65524,-17.05741,-0.4441859,-4.249202,-61.66622,-6.98289,34.57793,0,0,0,124.5047,-49.97007,13.34095,-36.2161,-110.6672,-50.31561,0.001067912,-0.1257102,0.09433498,0,0.3,0,0,0,0,
6.38224E+17,35.52842,11.08127,44.49989,9.528083,-4.419309,83.79868,-17.05741,-0.4441859,-4.249202,-61.73947,-6.98289,34.57793,0,0,0,130.3596,-46.13211,14.21575,-36.2161,-110.6672,-50.31561,0.001067912,-0.1257102,0.09433498,0,0.3,0,0,0,0,
6.38224E+17,36.4237,11.05789,47.13813,10.33378,-6.98289,81.30835,-17.05741,-0.4441859,-4.249202,-61.73947,-6.98289,34.57793,0,0,0,135.7431,-41.78247,15.60804,-36.2161,-110.6672,-50.31561,0.001067912,-0.1257102,0.09433498,0,0.3,0,0,0,0,
6.38224E+17,37.08338,11.05789,49.37947,11.06623,-8.667529,79.7702,-17.05741,-0.4441859,-4.249202,-61.73947,-6.98289,34.57793,0,0,0,139.946,-37.8904,16.8034,-36.2161,-110.6672,-50.31561,0.001067912,-0.1257102,0.09433498,0,0.3,0,0,0,0,
6.38224E+17,37.55458,11.05789,51.55077,12.16491,-10.42541,78.52503,-17.05741,-0.4441859,-4.249202,-61.73947,-6.98289,34.57793,0,0,0,143.4245,-33.99321,18.19626,-36.2161,-110.6672,-50.31561,0.001067912,-0.1257102,0.09433498,0,0.3,0,0,0,0,
6.38224E+17,37.69594,11.05789,54.14231,13.33683,-12.69601,77.13338,-17.05741,-0.4441859,-4.249202,-61.73947,-6.98289,34.57793,0,0,0,146.1116,-29.18634,20.72399,-36.2161,-110.6672,-50.31561,0.001067912,-0.1257102,0.09433498,0,0.3,0,0,0,0,
6.38224E+17,37.69594,11.05789,55.35637,13.70306,-13.72145,76.47417,-17.05741,-0.4441859,-4.249202,-61.73947,-6.98289,34.57793,0,0,0,147.1087,-26.87891,22.01437,-36.2161,-110.6672,-50.31561,0.001067912,-0.1257102,0.09433498,0,0.3,0,0,0,0,
6.38224E+17,37.76662,11.05789,59.83904,14.43551,-17.74993,74.13033,-17.05741,-0.4441859,-4.249202,-61.66622,-6.98289,34.57793,0,0,0,150.7665,-18.07254,26.25107,-36.2161,-110.6672,-50.31561,0.001067912,-0.1257102,0.09433498,0,0.3,0,0,0,0,
6.38224E+17,37.79018,11.05789,61.0064,14.72849,-18.84861,73.39787,-17.05741,-0.4441859,-4.249202,-61.73947,-6.98289,34.57793,0,0,0,151.6683,-15.7097,27.24883,-36.2161,-110.6672,-50.31561,0.001067912,-0.1257102,0.09433498,0,0.3,0,0,0,0,
6.38224E+17,37.6017,11.05789,63.87812,15.53419,-21.48543,71.78648,-17.05741,-0.4441859,-4.249202,-61.73947,-7.056135,34.57793,0,0,0,152.9106,-9.784993,30.19624,-36.2161,-110.6672,-50.31561,0.001067912,-0.1257102,0.09433498,0,0.3,0,0,0,0,
6.38224E+17,37.2483,11.10465,66.37627,16.12015,-24.26875,70.6878,-17.05741,-0.4441859,-4.249202,-61.73947,-6.98289,34.57793,0,0,0,153.1504,-4.403719,33.06546,-36.2161,-110.6672,-50.31561,0.001067912,-0.1257102,0.09433498,0,0.3,0,0,0,0,
6.38224E+17,36.58862,11.17478,68.73435,16.48637,-27.56478,69.80886,-17.05741,-0.4441859,-4.249202,-61.73947,-6.98289,34.57793,0,0,0,152.0514,0.8285138,36.47236,-36.2161,-110.6672,-50.31561,0.001067912,-0.1257102,0.09433498,0,0.3,0,0,0,0,
6.38224E+17,36.28234,11.17478,70.13519,16.48637,-29.32266,69.29614,-17.05741,-0.4441859,-4.249202,-61.73947,-6.98289,34.57793,0,0,0,151.632,3.880969,38.20542,-36.2161,-110.6672,-50.31561,0.001067912,-0.1257102,0.09433498,0,0.3,0,0,0,0,
6.38224E+17,36.0703,11.24492,70.90565,16.55962,-30.3481,68.85667,-17.05741,-0.4441859,-4.249202,-61.73947,-7.056135,34.57793,0,0,0,151.2,5.731598,39.22284,-36.2161,-110.6672,-50.31561,0.001067912,-0.1257102,0.09433498,0,0.3,0,0,0,0,
6.38224E+17,35.3635,11.4787,71.83953,16.55962,-32.32572,68.12422,-17.05741,-0.4441859,-4.249202,-61.73947,-7.056135,34.57793,0,0,0,148.9677,8.324691,41.55094,-36.2161,-110.6672,-50.31561,0.001067912,-0.1257102,0.09433498,0,0.3,0,0,0,0,
6.38224E+17,34.4211,11.66572,72.00297,16.12015,-33.64413,67.83124,-17.05741,-0.4441859,-4.249202,-61.66622,-6.98289,34.57793,0,0,0,145.5126,9.112715,43.99799,-36.2161,-110.6672,-50.31561,0.001067912,-0.1257102,0.09433498,0,0.3,0,0,0,0,
6.38224E+17,33.33735,11.66572,72.00297,14.80174,-34.52307,68.12422,-17.05741,-0.4441859,-4.249202,-61.73947,-6.98289,34.57793,0,0,0,141.4702,9.112715,46.71223,-36.2161,-110.6672,-50.31561,0.001067912,-0.1257102,0.09433498,0,0.3,0,0,0,0,
6.38224E+17,32.77191,11.66572,72.00297,13.7763,-34.81605,68.71018,-17.05741,-0.4441859,-4.249202,-61.73947,-6.98289,34.57793,0,0,0,139.341,9.112715,48.09788,-36.2161,-110.6672,-50.31561,0.001067912,-0.1257102,0.09433498,0,0.3,0,0,0,0,
6.38224E+17,31.68815,11.66572,72.00297,11.87193,-35.25552,70.24833,-17.05741,-0.4441859,-4.249202,-61.66622,-6.98289,34.57793,0,0,0,135.2222,9.112715,50.69466,-36.2161,-110.6672,-50.31561,0.001067912,-0.1257102,0.09433498,0,0.3,0,0,0,0,
6.38224E+17,30.53371,11.66572,71.97962,9.894309,-35.40202,72.44569,-17.05741,-0.4441859,-4.249202,-61.73947,-6.98289,34.57793,0,0,0,130.773,9.061039,53.3601,-36.2161,-110.6672,-50.31561,0.001067912,-0.1257102,0.09433498,0,0.3,0,0,0,0,
6.38224E+17,29.94471,11.66572,71.97962,8.942122,-35.47526,73.61761,-17.05741,-0.4441859,-4.249202,-61.73947,-7.056135,34.57793,0,0,0,128.4869,9.061039,54.6927,-36.2161,-110.6672,-50.31561,0.001067912,-0.1257102,0.09433498,0,0.3,0,0,0,0,
6.38224E+17,28.64891,11.66572,71.79285,6.891257,-35.40202,76.54742,-17.05741,-0.4441859,-4.249202,-61.73947,-6.98289,34.57793,0,0,0,123.3454,8.647876,57.42266,-36.2161,-110.6672,-50.31561,0.001067912,-0.1257102,0.09433498,0,0.3,0,0,0,0,
6.38224E+17,27.306,11.6891,71.46598,4.693902,-35.03579,79.91669,-17.05741,-0.4441859,-4.249202,-61.73947,-6.98289,34.57793,0,0,0,117.9052,7.979193,60.02857,-36.2161,-110.6672,-50.31561,0.001067912,-0.1257102,0.09433498,0,0.3,0,0,0,0,
6.38224E+17,25.96308,11.87613,70.88229,2.350057,-34.30334,83.35921,-17.05741,-0.4441859,-4.249202,-61.73947,-6.98289,34.57793,0,0,0,112.2897,7.119523,62.25506,-36.2161,-110.6672,-50.31561,0.001067912,-0.1257102,0.09433498,0,0.3,0,0,0,0,
6.38224E+17,24.33744,12.7645,69.55151,-0.7994855,-33.2779,87.82717,-17.05741,-0.4441859,-4.249202,-61.66622,-6.98289,34.57793,0,0,0,105.0887,6.225059,63.99068,-36.2161,-110.6672,-50.31561,0.001067912,-0.1257102,0.09433498,0,0.3,0,0,0,0,
6.38224E+17,23.48928,13.81652,68.43084,-2.557369,-32.47221,90.46399,-17.05741,-0.4441859,-4.249202,-61.66622,-7.056135,34.57793,0,0,0,101.0409,6.173094,64.147,-36.2161,-110.6672,-50.31561,0.001067912,-0.1257102,0.09433498,0,0.3,0,0,0,0,
6.38224E+17,22.97096,14.56462,67.68372,-3.656047,-31.88625,91.78241,-17.05741,-0.4441859,-4.249202,-61.66622,-6.98289,34.57793,0,0,0,98.51334,6.248233,64.06032,-36.2161,-110.6672,-50.31561,0.001067912,-0.1257102,0.09433498,0,0.3,0,0,0,0,
6.38224E+17,21.93432,16.15434,66.07276,-5.926647,-30.78757,93.90652,-17.05741,-0.4441859,-4.249202,-61.73947,-6.98289,34.57793,0,0,0,93.37649,6.367816,63.52982,-36.2161,-110.6672,-50.31561,0.001067912,-0.1257102,0.09433498,0,0.3,0,0,0,0,
6.38224E+17,20.92125,17.60379,64.62523,-7.904267,-29.83538,95.44467,-17.05741,-0.4441859,-4.249202,-61.73947,-6.98289,34.57793,0,0,0,88.41061,6.533978,62.91715,-36.2161,-110.6672,-50.31561,0.001067912,-0.1257102,0.09433498,0,0.3,0,0,0,0,
6.38224E+17,19.90817,19.24026,62.85084,-9.808641,-28.80995,97.12931,-17.05741,-0.4441859,-4.249202,-61.66622,-6.98289,34.57793,0,0,0,83.27582,6.444102,61.59448,-36.2161,-110.6672,-50.31561,0.001067912,-0.1257102,0.09433498,0,0.3,0,0,0,0,
6.38224E+17,18.75373,21.18065,60.58615,-11.42003,-27.63803,98.37447,-17.05741,-0.4441859,-4.249202,-61.73947,-7.056135,34.57793,0,0,0,77.32172,6.040563,59.38374,-36.2161,-110.6672,-50.31561,0.001067912,-0.1257102,0.09433498,0,0.3,0,0,0,0,
6.38224E+17,18.11761,22.20929,59.51218,-12.15249,-26.90557,98.88718,-17.05741,-0.4441859,-4.249202,-61.66622,-6.98289,34.57793,0,0,0,74.12536,6.099279,58.201,-36.2161,-110.6672,-50.31561,0.001067912,-0.1257102,0.09433498,0,0.3,0,0,0,0,
6.38224E+17,16.79825,24.38347,57.38758,-14.05686,-25.51392,99.47314,-17.05741,-0.4441859,-4.249202,-61.66622,-6.98289,34.57793,0,0,0,67.56332,6.532992,55.45518,-36.2161,-110.6672,-50.31561,0.001067912,-0.1257102,0.09433498,0,0.3,0,0,0,0,
6.38224E+17,15.52601,26.55764,55.28632,-16.25422,-24.19551,99.91262,-17.05741,-0.4441859,-4.249202,-61.73947,-7.056135,34.57793,0,0,0,61.2695,7.030913,52.19179,-36.2161,-110.6672,-50.31561,0.001067912,-0.1257102,0.09433498,0,0.3,0,0,0,0,
6.38224E+17,14.04174,28.6383,53.02164,-18.37833,-22.87709,100.8648,-17.05741,-0.4441859,-4.249202,-61.73947,-6.98289,34.57793,0,0,0,54.24319,7.050001,48.5344,-36.2161,-110.6672,-50.31561,0.001067912,-0.1257102,0.09433498,0,0.3,0,0,0,0,
6.38224E+17,13.19358,29.57343,51.78423,-19.33051,-22.21789,101.3043,-17.05741,-0.4441859,-4.249202,-61.73947,-6.98289,34.57793,0,0,0,50.38414,6.669775,46.57222,-36.2161,-110.6672,-50.31561,0.001067912,-0.1257102,0.09433498,0,0.3,0,0,0,0,
6.38224E+17,11.42658,31.70084,49.37947,-21.30813,-20.67974,101.9635,-17.05741,-0.4441859,-4.249202,-61.73947,-6.98289,34.57793,0,0,0,42.52919,6.606294,42.06741,-36.2161,-110.6672,-50.31561,0.001067912,-0.1257102,0.09433498,0,0.3,0,0,0,0,
6.38224E+17,9.800944,34.1088,47.06809,-23.50549,-18.70212,102.3297,-17.05741,-0.4441859,-4.249202,-61.73947,-6.98289,34.57793,0,0,0,35.41451,7.299644,36.658,-36.2161,-110.6672,-50.31561,0.001067912,-0.1257102,0.09433498,0,0.3,0,0,0,0,
6.38224E+17,9.094145,35.32447,45.90073,-24.45767,-17.82317,102.403,-17.05741,-0.4441859,-4.249202,-61.73947,-6.98289,34.57793,0,0,0,32.33255,7.655017,33.641,-36.2161,-110.6672,-50.31561,0.001067912,-0.1257102,0.09433498,0,0.3,0,0,0,0,
6.38224E+17,7.774787,37.84931,43.35587,-26.36205,-16.28502,102.4762,-17.05741,-0.4441859,-4.249202,-61.66622,-6.98289,34.57793,0,0,0,26.62914,8.212539,26.68575,-36.2161,-110.6672,-50.31561,0.001067912,-0.1257102,0.09433498,0,0.3,0,0,0,0,
6.38224E+17,6.903069,40.09362,40.71763,-27.97344,-14.67363,102.2565,-17.05741,-0.4441859,-4.249202,-61.66622,-6.98289,34.57793,0,0,0,22.71594,8.162074,19.28018,-36.2161,-110.6672,-50.31561,0.001067912,-0.1257102,0.09433498,0,0.3,0,0,0,0,
6.38224E+17,6.314069,42.40806,37.5424,-29.14537,-12.8425,101.3043,-17.05741,-0.4441859,-4.249202,-61.73947,-7.056135,34.57793,0,0,0,19.76498,7.548515,10.27681,-36.2161,-110.6672,-50.31561,0.001067912,-0.1257102,0.09433498,0,0.3,0,0,0,0,
6.38224E+17,6.314069,43.88089,35.18433,-29.43835,-11.45084,100.2788,-17.05741,-0.4441859,-4.249202,-61.73947,-7.056135,34.57793,0,0,0,19.02118,6.795785,3.554632,-36.2161,-110.6672,-50.31561,0.001067912,-0.1257102,0.09433498,0,0.3,0,0,0,0,
6.38224E+17,6.431869,44.7225,33.76015,-29.43835,-10.42541,99.61964,-17.05741,-0.4441859,-4.249202,-61.73947,-6.98289,34.57793,0,0,0,18.91522,6.321551,-0.5596141,-36.2161,-110.6672,-50.31561,0.001067912,-0.1257102,0.09433498,0,0.3,0,0,0,0,
6.38224E+17,6.761709,46.28884,30.86509,-29.07212,-8.447793,98.08149,-17.05741,-0.4441859,-4.249202,-61.73947,-7.056135,34.57793,0,0,0,18.90426,5.275061,-8.907852,-36.2161,-110.6672,-50.31561,0.001067912,-0.1257102,0.09433498,0,0.3,0,0,0,0,
6.38224E+17,7.256468,47.22397,27.59647,-28.7059,-6.323683,96.32361,-17.05741,-0.4441859,-4.249202,-61.73947,-7.056135,34.57793,0,0,0,19.24168,3.051718,-17.23431,-36.2161,-110.6672,-50.31561,0.001067912,-0.1257102,0.09433498,0,0.3,0,0,0,0,
6.38224E+17,7.586308,47.31749,25.96216,-28.41291,-5.225006,95.29817,-17.05741,-0.4441859,-4.249202,-61.66622,-6.98289,34.57793,0,0,0,19.6419,1.485684,-20.87195,-36.2161,-110.6672,-50.31561,0.001067912,-0.1257102,0.09433498,0,0.3,0,0,0,0,
6.38224E+17,8.458026,47.20059,22.50677,-27.97344,-2.954405,92.95433,-17.05741,-0.4441859,-4.249202,-61.73947,-6.98289,34.57793,0,0,0,20.83425,-1.999497,-28.24271,-36.2161,-110.6672,-50.31561,0.001067912,-0.1257102,0.09433498,0,0.3,0,0,0,0,
6.38224E+17,9.659584,46.96681,19.2148,-26.94801,-0.5373149,90.75697,-17.05741,-0.4441859,-4.249202,-61.73947,-6.98289,34.57793,0,0,0,22.63338,-5.097939,-35.37458,-36.2161,-110.6672,-50.31561,0.001067912,-0.1257102,0.09433498,0,0.3,0,0,0,0,
6.38224E+17,10.74334,46.49924,16.10961,-25.6296,1.440305,88.70612,-17.05741,-0.4441859,-4.249202,-61.66622,-6.98289,34.57793,0,0,0,24.00862,-8.036229,-41.81274,-36.2161,-110.6672,-50.31561,0.001067912,-0.1257102,0.09433498,0,0.3,0,0,0,0,
6.38224E+17,11.5915,45.7979,14.14844,-24.8239,3.124943,86.94823,-17.05741,-0.4441859,-4.249202,-61.73947,-6.98289,34.57793,0,0,0,25.23028,-10.3583,-45.34504,-36.2161,-110.6672,-50.31561,0.001067912,-0.1257102,0.09433498,0,0.3,0,0,0,0,
6.38224E+17,13.14646,44.74588,12.51413,-24.16469,4.956073,85.04385,-17.05741,-0.4441859,-4.249202,-61.66622,-6.98289,34.57793,0,0,0,28.11268,-12.95839,-47.98513,-36.2161,-110.6672,-50.31561,0.001067912,-0.1257102,0.09433498,0,0.3,0,0,0,0,
6.38224E+17,15.83229,43.2263,10.78644,-22.84628,7.226673,83.6522,-17.05741,-0.4441859,-4.249202,-61.73947,-6.98289,34.57793,0,0,0,33.31773,-16.31495,-50.86044,-36.2161,-110.6672,-50.31561,0.001067912,-0.1257102,0.09433498,0,0.3,0,0,0,0,
6.38224E+17,17.31657,42.38468,9.922588,-21.67436,8.618331,83.21272,-17.05741,-0.4441859,-4.249202,-61.66622,-6.98289,34.57793,0,0,0,36.15733,-18.11339,-52.38033,-36.2161,-110.6672,-50.31561,0.001067912,-0.1257102,0.09433498,0,0.3,0,0,0,0,
6.38224E+17,21.93432,40.00011,8.124848,-17.49938,12.06085,81.74782,-17.05741,-0.4441859,-4.249202,-61.66622,-6.98289,34.57793,0,0,0,45.19814,-22.94558,-56.11045,-36.2161,-110.6672,-50.31561,0.001067912,-0.1257102,0.09433498,0,0.3,0,0,0,0,
6.38224E+17,23.5364,39.22863,7.984766,-16.03448,12.9398,81.16187,-17.05741,-0.4441859,-4.249202,-61.73947,-6.98289,34.57793,0,0,0,48.64672,-24.37445,-56.66431,-36.2161,-110.6672,-50.31561,0.001067912,-0.1257102,0.09433498,0,0.3,0,0,0,0,
6.38224E+17,26.85836,37.47526,8.148195,-12.95818,14.25821,80.20967,-17.05741,-0.4441859,-4.249202,-61.73947,-6.98289,34.57793,0,0,0,56.35084,-27.52116,-57.07606,-36.2161,-110.6672,-50.31561,0.001067912,-0.1257102,0.09433498,0,0.3,0,0,0,0,
6.38224E+17,30.25099,35.37122,8.825266,-9.442415,15.50338,79.40398,-17.05741,-0.4441859,-4.249202,-61.73947,-7.056135,34.57793,0,0,0,65.08693,-31.22871,-56.74803,-36.2161,-110.6672,-50.31561,0.001067912,-0.1257102,0.09433498,0,0.3,0,0,0,0,
6.38224E+17,31.68815,34.43609,9.22217,-7.831022,16.08934,79.11099,-17.05741,-0.4441859,-4.249202,-61.66622,-6.98289,34.57793,0,0,0,68.99889,-32.86871,-56.57956,-36.2161,-110.6672,-50.31561,0.001067912,-0.1257102,0.09433498,0,0.3,0,0,0,0,
6.38224E+17,34.49178,32.63597,10.43623,-4.168763,17.11477,78.15881,-17.05741,-0.4441859,-4.249202,-61.73947,-6.98289,34.57793,0,0,0,77.2706,-35.87841,-55.88603,-36.2161,-110.6672,-50.31561,0.001067912,-0.1257102,0.09433498,0,0.3,0,0,0,0,
6.38224E+17,36.49438,30.85923,12.04719,-0.8727306,17.55424,77.35311,-17.05741,-0.4441859,-4.249202,-61.66622,-6.98289,34.57793,0,0,0,84.6345,-38.66382,-53.94957,-36.2161,-110.6672,-50.31561,0.001067912,-0.1257102,0.09433498,0,0.3,0,0,0,0,
6.38224E+17,37.27186,30.04099,12.93439,0.5921727,17.62749,76.98688,-17.05741,-0.4441859,-4.249202,-61.73947,-6.98289,34.57793,0,0,0,87.98434,-39.85891,-52.73628,-36.2161,-110.6672,-50.31561,0.001067912,-0.1257102,0.09433498,0,0.3,0,0,0,0,
6.38224E+17,38.87394,28.89546,15.03564,2.716283,17.18801,76.25443,-17.05741,-0.4441859,-4.249202,-61.66622,-6.98289,34.57793,0,0,0,94.98355,-40.99826,-50.52596,-36.2161,-110.6672,-50.31561,0.001067912,-0.1257102,0.09433498,0,0.3,0,0,0,0,
6.38224E+17,41.15925,27.65641,18.23421,5.279863,16.08934,75.52198,-17.05741,-0.4441859,-4.249202,-61.73947,-7.056135,34.57793,0,0,0,105.1993,-41.40702,-48.00926,-36.2161,-110.6672,-50.31561,0.001067912,-0.1257102,0.09433498,0,0.3,0,0,0,0,
6.38224E+17,42.90269,26.46413,21.22267,7.403974,15.06391,74.64304,-17.05741,-0.4441859,-4.249202,-61.73947,-7.056135,34.57793,0,0,0,114.1276,-41.53055,-45.54561,-36.2161,-110.6672,-50.31561,0.001067912,-0.1257102,0.09433498,0,0.3,0,0,0,0,
6.38224E+17,43.79797,25.55238,23.09044,8.868877,14.4047,74.05708,-17.05741,-0.4441859,-4.249202,-61.73947,-6.98289,34.57793,0,0,0,119.4629,-41.79826,-43.7664,-36.2161,-110.6672,-50.31561,0.001067912,-0.1257102,0.09433498,0,0.3,0,0,0,0,
6.38224E+17,45.09377,23.35482,26.82601,11.65219,13.30602,72.66542,-17.05741,-0.4441859,-4.249202,-61.66622,-6.98289,34.57793,0,0,0,129.3308,-42.78585,-39.44177,-36.2161,-110.6672,-50.31561,0.001067912,-0.1257102,0.09433498,0,0.3,0,0,0,0,
6.38224E+17,45.87124,20.73647,30.39814,13.7763,11.91436,70.54131,-17.05741,-0.4441859,-4.249202,-61.66622,-6.98289,34.57793,0,0,0,137.9476,-44.45314,-34.53514,-36.2161,-110.6672,-50.31561,0.001067912,-0.1257102,0.09433498,0,0.3,0,0,0,0,
6.38224E+17,46.13041,19.35715,32.12584,14.65524,11.3284,69.29614,-17.05741,-0.4441859,-4.249202,-61.66622,-6.98289,34.57793,0,0,0,141.8226,-45.38213,-32.01593,-36.2161,-110.6672,-50.31561,0.001067912,-0.1257102,0.09433498,0,0.3,0,0,0,0,
6.38224E+17,46.22464,16.66866,35.37111,15.90041,10.00999,66.87905,-17.05741,-0.4441859,-4.249202,-61.66622,-6.98289,34.57793,0,0,0,147.9777,-47.13658,-26.56658,-36.2161,-110.6672,-50.31561,0.001067912,-0.1257102,0.09433498,0,0.3,0,0,0,0,
6.38224E+17,46.08328,14.49449,38.14943,16.48637,8.691576,64.97468,-17.05741,-0.4441859,-4.249202,-61.73947,-7.056135,34.57793,0,0,0,152.3379,-48.14101,-21.66636,-36.2161,-110.6672,-50.31561,0.001067912,-0.1257102,0.09433498,0,0.3,0,0,0,0,
6.38224E+17,45.96548,13.5126,39.45688,16.70611,7.959125,64.02249,-17.05741,-0.4441859,-4.249202,-61.73947,-7.056135,34.57793,0,0,0,154.1383,-48.45149,-19.3208,-36.2161,-110.6672,-50.31561,0.001067912,-0.1257102,0.09433498,0,0.3,0,0,0,0,
6.38224E+17,45.23512,11.03451,42.53872,16.99909,5.981505,61.75189,-17.05741,-0.4441859,-4.249202,-61.73947,-6.98289,34.57793,0,0,0,156.9397,-49.38181,-12.69313,-36.2161,-110.6672,-50.31561,0.001067912,-0.1257102,0.09433498,0,0.3,0,0,0,0,
6.38224E+17,44.50476,9.912358,43.75277,16.99909,5.029318,60.87295,-17.05741,-0.4441859,-4.249202,-61.66622,-6.98289,34.57793,0,0,0,156.7207,-50.01769,-8.896418,-36.2161,-110.6672,-50.31561,0.001067912,-0.1257102,0.09433498,0,0.3,0,0,0,0,
6.38224E+17,43.13829,8.883718,44.47654,16.55962,4.150376,60.06725,-17.05741,-0.4441859,-4.249202,-61.73947,-7.056135,34.57793,0,0,0,153.9678,-51.20702,-4.03666,-36.2161,-110.6672,-50.31561,0.001067912,-0.1257102,0.09433498,0,0.3,0,0,0,0,
6.38224E+17,42.38437,8.579801,44.47654,16.12015,3.93064,59.77427,-17.05741,-0.4441859,-4.249202,-61.73947,-6.98289,34.57793,0,0,0,151.8648,-51.90615,-1.945664,-36.2161,-110.6672,-50.31561,0.001067912,-0.1257102,0.09433498,0,0.3,0,0,0,0,
6.38224E+17,40.49957,7.621294,44.17303,14.87498,3.78415,59.48129,-17.05741,-0.4441859,-4.249202,-61.66622,-6.98289,34.57793,0,0,0,146.1856,-54.60827,2.813894,-36.2161,-110.6672,-50.31561,0.001067912,-0.1257102,0.09433498,0,0.3,0,0,0,0,
6.38224E+17,38.14358,6.218602,43.63604,13.04385,3.564415,59.40804,-17.05741,-0.4441859,-4.249202,-61.66622,-6.98289,34.57793,0,0,0,138.7125,-58.7157,8.2798,-36.2161,-110.6672,-50.31561,0.001067912,-0.1257102,0.09433498,0,0.3,0,0,0,0,
6.38224E+17,35.50486,4.956179,42.46867,10.8465,4.150376,59.70102,-17.05741,-0.4441859,-4.249202,-61.66622,-6.98289,34.57793,0,0,0,129.4469,-63.49456,13.09527,-36.2161,-110.6672,-50.31561,0.001067912,-0.1257102,0.09433498,0,0.3,0,0,0,0,
6.38224E+17,32.39495,3.506731,40.9978,7.91669,5.468789,60.72646,-17.05741,-0.4441859,-4.249202,-61.73947,-7.056135,34.57793,0,0,0,118.1773,-69.13743,17.9039,-36.2161,-110.6672,-50.31561,0.001067912,-0.1257102,0.09433498,0,0.3,0,0,0,0,
6.38224E+17,30.81643,2.782006,40.41412,6.378541,6.274486,61.45891,-17.05741,-0.4441859,-4.249202,-61.73947,-6.98289,34.57793,0,0,0,112.5216,-71.70755,20.28368,-36.2161,-110.6672,-50.31561,0.001067912,-0.1257102,0.09433498,0,0.3,0,0,0,0,
6.38224E+17,27.80075,1.636474,39.41019,2.789528,7.88588,62.92381,-17.05741,-0.4441859,-4.249202,-61.66622,-6.98289,34.57793,0,0,0,101.6539,-75.87077,24.44772,-36.2161,-110.6672,-50.31561,0.001067912,-0.1257102,0.09433498,0,0.3,0,0,0,0,
6.38224E+17,24.8322,0.9351282,38.26617,-0.57975,9.8635,65.04792,-17.05741,-0.4441859,-4.249202,-61.73947,-7.056135,34.57793,0,0,0,90.67738,-79.17239,27.60454,-36.2161,-110.6672,-50.31561,0.001067912,-0.1257102,0.09433498,0,0.3,0,0,0,0,
6.38224E+17,23.60708,0.7481025,37.5891,-1.751673,10.88893,66.29308,-17.05741,-0.4441859,-4.249202,-61.73947,-7.056135,34.57793,0,0,0,85.97179,-80.57623,28.3654,-36.2161,-110.6672,-50.31561,0.001067912,-0.1257102,0.09433498,0,0.3,0,0,0,0,
6.38224E+17,21.10972,0.5844551,35.48784,-3.509557,12.86655,69.66236,-17.05741,-0.4441859,-4.249202,-61.73947,-7.056135,34.57793,0,0,0,75.90514,-83.8685,28.26339,-36.2161,-110.6672,-50.31561,0.001067912,-0.1257102,0.09433498,0,0.3,0,0,0,0,
6.38224E+17,18.40033,0.233782,33.24651,-4.608234,15.06391,72.88515,-17.05741,-0.4441859,-4.249202,-61.73947,-6.98289,34.57793,0,0,0,65.16908,-87.62911,27.55171,-36.2161,-110.6672,-50.31561,0.001067912,-0.1257102,0.09433498,0,0.3,0,0,0,0,
6.38224E+17,16.89249,0.0233782,32.26592,-5.267441,16.16258,74.05708,-17.05741,-0.4441859,-4.249202,-61.73947,-6.98289,34.57793,0,0,0,59.43424,-89.35361,27.36331,-36.2161,-110.6672,-50.31561,0.001067912,-0.1257102,0.09433498,0,0.3,0,0,0,0,
6.38224E+17,13.4763,-0.3974294,30.79504,-7.391551,17.70073,75.37549,-17.05741,-0.4441859,-4.249202,-61.66622,-6.98289,34.57793,0,0,0,46.98563,-92.12318,27.71654,-36.2161,-110.6672,-50.31561,0.001067912,-0.1257102,0.09433498,0,0.3,0,0,0,0,
6.38224E+17,9.636024,-0.6779679,29.8845,-10.46785,19.31213,76.40092,-17.05741,-0.4441859,-4.249202,-61.66622,-6.98289,34.57793,0,0,0,33.44136,-93.84653,28.61399,-36.2161,-110.6672,-50.31561,0.001067912,-0.1257102,0.09433498,0,0.3,0,0,0,0,
6.38224E+17,7.939706,-0.7013461,29.41755,-12.22573,19.89809,76.84039,-17.05741,-0.4441859,-4.249202,-61.73947,-6.98289,34.57793,0,0,0,27.46563,-94.43857,28.58155,-36.2161,-110.6672,-50.31561,0.001067912,-0.1257102,0.09433498,0,0.3,0,0,0,0,
6.38224E+17,4.264353,-0.7013461,28.55371,-16.18097,20.92352,78.37854,-17.05741,-0.4441859,-4.249202,-61.73947,-6.98289,34.57793,0,0,0,14.65446,-95.41283,28.18336,-36.2161,-110.6672,-50.31561,0.001067912,-0.1257102,0.09433498,0,0.3,0,0,0,0,
6.38224E+17,0.3533994,-0.7481025,27.89998,-20.13621,21.80246,79.98994,-17.05741,-0.4441859,-4.249202,-61.66622,-6.98289,34.57793,0,0,0,1.207295,-96.24125,27.38331,-36.2161,-110.6672,-50.31561,0.001067912,-0.1257102,0.09433498,0,0.3,0,0,0,0,
6.38224E+17,-3.486874,-0.9351282,27.68986,-24.0182,22.24193,81.01537,-17.05741,-0.4441859,-4.249202,-61.73947,-6.98289,34.57793,0,0,0,-11.878,-96.90453,26.58648,-36.2161,-110.6672,-50.31561,0.001067912,-0.1257102,0.09433498,0,0.3,0,0,0,0,
6.38224E+17,-5.583711,-0.9585064,27.68986,-26.28881,22.31518,81.45483,-17.05741,-0.4441859,-4.249202,-61.73947,-6.98289,34.57793,0,0,0,-19.0024,-96.95893,26.02046,-36.2161,-110.6672,-50.31561,0.001067912,-0.1257102,0.09433498,0,0.3,0,0,0,0,
6.38224E+17,-8.999906,-0.9585064,27.7599,-30.31729,22.0222,82.18729,-17.05741,-0.4441859,-4.249202,-61.73947,-7.056135,34.57793,0,0,0,-30.57346,-96.88309,24.68527,-36.2161,-110.6672,-50.31561,0.001067912,-0.1257102,0.09433498,0,0.3,0,0,0,0,
6.38224E+17,-11.92134,-0.8649935,28.22684,-33.83306,21.58273,83.57895,-17.05741,-0.4441859,-4.249202,-61.73947,-6.98289,34.57793,0,0,0,-40.57101,-96.15539,23.81847,-36.2161,-110.6672,-50.31561,0.001067912,-0.1257102,0.09433498,0,0.3,0,0,0,0,
6.38224E+17,-13.2407,-0.7948589,28.48367,-35.44445,21.2165,84.45789,-17.05741,-0.4441859,-4.249202,-61.73947,-6.98289,34.57793,0,0,0,-45.10597,-95.70829,23.3477,-36.2161,-110.6672,-50.31561,0.001067912,-0.1257102,0.09433498,0,0.3,0,0,0,0,
6.38224E+17,-15.66737,-0.6779679,28.97396,-38.88697,20.4108,86.43551,-17.05741,-0.4441859,-4.249202,-61.66622,-6.98289,34.57793,0,0,0,-53.45333,-94.88777,22.23279,-36.2161,-110.6672,-50.31561,0.001067912,-0.1257102,0.09433498,0,0.3,0,0,0,0,
6.38224E+17,-17.64641,-0.6779679,29.32417,-41.89003,19.82484,88.48637,-17.05741,-0.4441859,-4.249202,-61.66622,-6.98289,34.57793,0,0,0,-60.21879,-94.49077,20.95152,-36.2161,-110.6672,-50.31561,0.001067912,-0.1257102,0.09433498,0,0.3,0,0,0,0,
6.38224E+17,-19.36629,-0.6545897,29.76777,-44.45361,19.31213,90.68373,-17.05741,-0.4441859,-4.249202,-61.73947,-7.056135,34.50468,0,0,0,-66.17122,-93.92725,19.90684,-36.2161,-110.6672,-50.31561,0.001067912,-0.1257102,0.09433498,0,0.3,0,0,0,0,
6.38224E+17,-21.15685,-0.6545897,30.23471,-46.57772,18.87265,92.66135,-17.05741,-0.4441859,-4.249202,-61.73947,-6.98289,34.57793,0,0,0,-72.36087,-93.38384,18.62505,-36.2161,-110.6672,-50.31561,0.001067912,-0.1257102,0.09433498,0,0.3,0,0,0,0,
6.38224E+17,-22.21704,-0.6545897,30.46818,-47.74964,18.72616,93.54029,-17.05741,-0.4441859,-4.249202,-61.73947,-7.056135,34.57793,0,0,0,-75.98537,-93.10928,17.68825,-36.2161,-110.6672,-50.31561,0.001067912,-0.1257102,0.09433498,0,0.3,0,0,0,0,
6.38224E+17,-24.2432,-0.6312115,30.84174,-50.09349,18.50643,95.15169,-17.05741,-0.4441859,-4.249202,-61.73947,-6.98289,34.57793,0,0,0,-82.82273,-92.61158,15.56793,-36.2161,-110.6672,-50.31561,0.001067912,-0.1257102,0.09433498,0,0.3,0,0,0,0,
6.38224E+17,-26.2458,-0.6078333,31.37873,-51.99786,18.43318,97.27579,-17.05741,-0.4441859,-4.249202,-61.73947,-6.98289,34.57793,0,0,0,-89.67257,-91.91143,13.52162,-36.2161,-110.6672,-50.31561,0.001067912,-0.1257102,0.09433498,0,0.3,0,0,0,0,
6.38224E+17,-27.32955,-0.6078333,31.89237,-52.80355,18.35994,98.7407,-17.05741,-0.4441859,-4.249202,-61.73947,-6.98289,34.57793,0,0,0,-93.56373,-91.28441,12.69721,-36.2161,-110.6672,-50.31561,0.001067912,-0.1257102,0.09433498,0,0.3,0,0,0,0,
6.38224E+17,-29.75623,-0.6078333,33.40994,-54.85442,18.06696,101.6705,-17.05741,-0.4441859,-4.249202,-61.73947,-7.056135,34.57793,0,0,0,-102.6214,-89.37888,11.15493,-36.2161,-110.6672,-50.31561,0.001067912,-0.1257102,0.09433498,0,0.3,0,0,0,0,
6.38224E+17,-31.59391,-0.6078333,34.67069,-57.19827,17.55424,103.8679,-17.05741,-0.4441859,-4.249202,-61.73947,-6.98289,34.57793,0,0,0,-109.5988,-87.73637,9.842781,-36.2161,-110.6672,-50.31561,0.001067912,-0.1257102,0.09433498,0,0.3,0,0,0,0,
6.38224E+17,-33.10175,-0.3039166,35.4178,-59.17588,17.62749,107.3104,-17.05741,-0.4441859,-4.249202,-61.66622,-6.98289,34.57793,0,0,0,-115.0303,-86.03062,8.094383,-36.2161,-110.6672,-50.31561,0.001067912,-0.1257102,0.09433498,0,0.3,0,0,0,0,
6.38224E+17,-33.92635,0,35.72132,-59.98158,17.70073,109.6542,-17.05741,-0.4441859,-4.249202,-61.66622,-7.056135,34.57793,0,0,0,-117.8794,-84.91238,6.898983,-36.2161,-110.6672,-50.31561,0.001067912,-0.1257102,0.09433498,0,0.3,0,0,0,0,
6.38224E+17,-35.33994,0.3974294,36.07153,-61.29999,17.84722,113.5362,-17.05741,-0.4441859,-4.249202,-61.73947,-7.056135,34.57793,0,0,0,-122.5469,-83.50951,4.47362,-36.2161,-110.6672,-50.31561,0.001067912,-0.1257102,0.09433498,0,0.3,0,0,0,0,
6.38224E+17,-36.23522,0.5610769,36.09487,-62.10569,18.06696,116.9788,-17.05741,-0.4441859,-4.249202,-61.73947,-6.98289,34.57793,0,0,0,-125.2564,-83.09666,2.570588,-36.2161,-110.6672,-50.31561,0.001067912,-0.1257102,0.09433498,0,0.3,0,0,0,0,
6.38224E+17,-37.10694,0.7714807,36.07153,-62.61841,18.57967,120.8607,-17.05741,-0.4441859,-4.249202,-61.73947,-6.98289,34.57793,0,0,0,-127.8123,-82.639,0.6056213,-36.2161,-110.6672,-50.31561,0.001067912,-0.1257102,0.09433498,0,0.3,0,0,0,0,
6.38224E+17,-37.50746,0.9117499,36.09487,-62.69165,18.72616,122.2524,-17.05741,-0.4441859,-4.249202,-61.66622,-6.98289,34.57793,0,0,0,-129.0141,-82.28057,-0.2609241,-36.2161,-110.6672,-50.31561,0.001067912,-0.1257102,0.09433498,0,0.3,0,0,0,0,
6.38224E+17,-38.4263,1.239045,36.18826,-62.69165,18.9459,125.0357,-17.05741,-0.4441859,-4.249202,-61.73947,-7.056135,34.57793,0,0,0,-131.7932,-81.39077,-2.225107,-36.2161,-110.6672,-50.31561,0.001067912,-0.1257102,0.09433498,0,0.3,0,0,0,0,
6.38224E+17,-39.15665,1.706609,36.305,-62.69165,19.01915,127.3063,-17.05741,-0.4441859,-4.249202,-61.73947,-6.98289,34.57793,0,0,0,-134.0207,-80.14228,-3.77033,-36.2161,-110.6672,-50.31561,0.001067912,-0.1257102,0.09433498,0,0.3,0,0,0,0,
6.38224E+17,-39.76921,2.688493,36.32835,-62.69165,18.87265,130.2361,-17.05741,-0.4441859,-4.249202,-61.66622,-6.98289,34.57793,0,0,0,-135.7445,-77.82658,-5.246246,-36.2161,-110.6672,-50.31561,0.001067912,-0.1257102,0.09433498,0,0.3,0,0,0,0,
6.38224E+17,-40.00481,3.24957,36.32835,-62.69165,18.65292,131.4081,-17.05741,-0.4441859,-4.249202,-61.73947,-7.056135,34.57793,0,0,0,-136.3706,-76.52248,-5.857614,-36.2161,-110.6672,-50.31561,0.001067912,-0.1257102,0.09433498,0,0.3,0,0,0,0,
6.38224E+17,-40.28753,5.002935,36.49178,-62.7649,18.35994,133.3857,-17.05741,-0.4441859,-4.249202,-61.73947,-6.98289,34.57793,0,0,0,-137.1788,-72.22667,-6.522961,-36.2161,-110.6672,-50.31561,0.001067912,-0.1257102,0.09433498,0,0.3,0,0,0,0,
6.38224E+17,-40.42889,7.971967,36.60851,-62.91139,17.62749,135.2168,-17.05741,-0.4441859,-4.249202,-61.66622,-6.98289,34.57793,0,0,0,-137.2129,-65.19978,-7.290002,-36.2161,-110.6672,-50.31561,0.001067912,-0.1257102,0.09433498,0,0.3,0,0,0,0,
6.38224E+17,-40.42889,9.561686,36.60851,-62.98463,17.04152,136.0225,-17.05741,-0.4441859,-4.249202,-61.73947,-6.98289,34.57793,0,0,0,-136.8472,-61.54321,-7.719247,-36.2161,-110.6672,-50.31561,0.001067912,-0.1257102,0.09433498,0,0.3,0,0,0,0,
6.38224E+17,-40.33466,13.39571,36.60851,-63.42411,15.57662,137.1212,-17.05741,-0.4441859,-4.249202,-61.73947,-7.056135,34.57793,0,0,0,-135.4337,-52.80003,-8.847754,-36.2161,-110.6672,-50.31561,0.001067912,-0.1257102,0.09433498,0,0.3,0,0,0,0,
6.38224E+17,-39.86345,16.4115,36.58516,-64.01007,14.4047,137.6339,-17.05741,-0.4441859,-4.249202,-61.73947,-6.98289,34.57793,0,0,0,-132.9325,-46.05039,-9.158326,-36.2161,-110.6672,-50.31561,0.001067912,-0.1257102,0.09433498,0,0.3,0,0,0,0,
6.38224E+17,-38.87394,19.75458,36.3517,-64.52278,12.9398,138.2198,-17.05741,-0.4441859,-4.249202,-61.73947,-7.056135,34.57793,0,0,0,-128.3737,-38.97804,-9.106538,-36.2161,-110.6672,-50.31561,0.001067912,-0.1257102,0.09433498,0,0.3,0,0,0,0,
6.38224E+17,-38.23782,21.29754,35.97814,-64.74252,12.1341,138.2198,-17.05741,-0.4441859,-4.249202,-61.73947,-6.98289,34.57793,0,0,0,-125.3841,-36.12809,-9.231402,-36.2161,-110.6672,-50.31561,0.001067912,-0.1257102,0.09433498,0,0.3,0,0,0,0,
6.38224E+17,-36.70642,24.21982,34.95086,-64.59603,10.74244,138.0733,-17.05741,-0.4441859,-4.249202,-61.73947,-6.98289,34.57793,0,0,0,-118.3506,-31.24418,-9.607672,-36.2161,-110.6672,-50.31561,0.001067912,-0.1257102,0.09433498,0,0.3,0,0,0,0,
6.38224E+17,-34.70382,26.67453,33.7368,-63.79033,9.277537,136.8282,-17.05741,-0.4441859,-4.249202,-61.66622,-6.98289,34.57793,0,0,0,-110.0053,-27.67982,-9.504771,-36.2161,-110.6672,-50.31561,0.001067912,-0.1257102,0.09433498,0,0.3,0,0,0,0,
6.38224E+17,-32.18291,28.66168,31.84567,-62.25218,8.03237,135.2168,-17.05741,-0.4441859,-4.249202,-61.73947,-6.98289,34.57793,0,0,0,-99.79778,-25.96759,-9.768907,-36.2161,-110.6672,-50.31561,0.001067912,-0.1257102,0.09433498,0,0.3,0,0,0,0,
6.38224E+17,-29.28503,29.9241,29.67438,-59.46887,7.006938,133.4589,-17.05741,-0.4441859,-4.249202,-61.73947,-6.98289,34.57793,0,0,0,-88.82574,-25.98959,-9.967458,-36.2161,-110.6672,-50.31561,0.001067912,-0.1257102,0.09433498,0,0.3,0,0,0,0,
6.38224E+17,-27.70651,30.2514,28.57705,-57.71098,6.640712,132.287,-17.05741,-0.4441859,-4.249202,-61.73947,-6.98289,34.57793,0,0,0,-83.21428,-26.57352,-9.893928,-36.2161,-110.6672,-50.31561,0.001067912,-0.1257102,0.09433498,0,0.3,0,0,0,0,
6.38224E+17,-24.69084,30.22802,26.35906,-54.26846,6.420976,129.2107,-17.05741,-0.4441859,-4.249202,-61.73947,-6.98289,34.57793,0,0,0,-72.86111,-29.00144,-9.871831,-36.2161,-110.6672,-50.31561,0.001067912,-0.1257102,0.09433498,0,0.3,0,0,0,0,
6.38224E+17,-21.39244,29.94748,24.23446,-50.89918,6.860447,125.9879,-17.05741,-0.4441859,-4.249202,-61.73947,-6.98289,34.57793,0,0,0,-62.11102,-31.67921,-9.799815,-36.2161,-110.6672,-50.31561,0.001067912,-0.1257102,0.09433498,0,0.3,0,0,0,0,
6.38224E+17,-19.46053,29.80721,23.30057,-49.06805,7.153428,124.4498,-17.05741,-0.4441859,-4.249202,-61.73947,-6.98289,34.57793,0,0,0,-56.12216,-32.83826,-9.518251,-36.2161,-110.6672,-50.31561,0.001067912,-0.1257102,0.09433498,0,0.3,0,0,0,0,
6.38224E+17,-15.40822,29.64356,21.783,-45.03957,8.03237,122.0327,-17.05741,-0.4441859,-4.249202,-61.73947,-6.98289,34.57793,0,0,0,-43.94111,-34.52299,-8.912082,-36.2161,-110.6672,-50.31561,0.001067912,-0.1257102,0.09433498,0,0.3,0,0,0,0,
6.38224E+17,-11.3559,29.3864,20.84911,-40.93784,8.984557,119.6156,-17.05741,-0.4441859,-4.249202,-61.66622,-6.98289,34.57793,0,0,0,-32.22358,-35.83393,-7.901581,-36.2161,-110.6672,-50.31561,0.001067912,-0.1257102,0.09433498,0,0.3,0,0,0,0,
6.38224E+17,-9.447544,29.29289,20.61563,-39.10671,9.350782,117.9309,-17.05741,-0.4441859,-4.249202,-61.73947,-6.98289,34.57793,0,0,0,-26.79671,-36.21601,-7.313602,-36.2161,-110.6672,-50.31561,0.001067912,-0.1257102,0.09433498,0,0.3,0,0,0,0,
6.38224E+17,-5.630831,29.19938,20.35881,-35.59094,10.44946,114.2687,-17.05741,-0.4441859,-4.249202,-61.66622,-6.98289,34.57793,0,0,0,-15.97339,-36.61512,-6.338439,-36.2161,-110.6672,-50.31561,0.001067912,-0.1257102,0.09433498,0,0.3,0,0,0,0,
6.38224E+17,-1.295798,29.01235,20.14869,-32.14842,11.18191,110.3867,-17.05741,-0.4441859,-4.249202,-61.73947,-7.056135,34.57793,0,0,0,-3.675908,-37.16473,-5.841546,-36.2161,-110.6672,-50.31561,0.001067912,-0.1257102,0.09433498,0,0.3,0,0,0,0,
6.38224E+17,4.217233,28.84871,20.14869,-27.68046,12.06085,106.5047,-17.05741,-0.4441859,-4.249202,-61.73947,-6.98289,34.57793,0,0,0,11.96718,-37.49807,-6.056349,-36.2161,-110.6672,-50.31561,0.001067912,-0.1257102,0.09433498,0,0.3,0,0,0,0,
6.38224E+17,8.081067,28.80194,20.42886,-24.0182,12.42708,104.2341,-17.05741,-0.4441859,-4.249202,-61.73947,-6.98289,34.57793,0,0,0,22.96957,-37.36731,-6.574178,-36.2161,-110.6672,-50.31561,0.001067912,-0.1257102,0.09433498,0,0.3,0,0,0,0,
6.38224E+17,10.34282,28.80194,20.80241,-21.7476,12.57357,102.6959,-17.05741,-0.4441859,-4.249202,-61.73947,-6.98289,34.57793,0,0,0,29.48223,-37.06119,-6.806183,-36.2161,-110.6672,-50.31561,0.001067912,-0.1257102,0.09433498,0,0.3,0,0,0,0,
6.38224E+17,15.14906,28.80194,21.92308,-17.05991,12.20734,99.32666,-17.05741,-0.4441859,-4.249202,-61.73947,-6.98289,34.57793,0,0,0,43.54848,-36.1111,-7.499828,-36.2161,-110.6672,-50.31561,0.001067912,-0.1257102,0.09433498,0,0.3,0,0,0,0,
6.38224E+17,20.07309,28.80194,23.48735,-12.37222,11.40165,96.10387,-17.05741,-0.4441859,-4.249202,-61.73947,-6.98289,34.57793,0,0,0,58.34698,-34.70588,-8.677023,-36.2161,-110.6672,-50.31561,0.001067912,-0.1257102,0.09433498,0,0.3,0,0,0,0,
6.38224E+17,23.4186,28.80194,24.88819,-8.929699,10.6692,94.27274,-17.05741,-0.4441859,-4.249202,-61.73947,-6.98289,34.57793,0,0,0,68.7476,-33.37007,-9.625084,-36.2161,-110.6672,-50.31561,0.001067912,-0.1257102,0.09433498,0,0.3,0,0,0,0,
6.38224E+17,27.58871,28.82533,26.89605,-4.095518,9.717009,91.92889,-17.05741,-0.4441859,-4.249202,-61.73947,-6.98289,34.57793,0,0,0,82.04246,-31.28186,-11.34193,-36.2161,-110.6672,-50.31561,0.001067912,-0.1257102,0.09433498,0,0.3,0,0,0,0,
6.38224E+17,31.68815,28.98897,29.27747,1.251379,8.471841,88.92585,-17.05741,-0.4441859,-4.249202,-61.66622,-6.98289,34.57793,0,0,0,95.52837,-28.33918,-13.60479,-36.2161,-110.6672,-50.31561,0.001067912,-0.1257102,0.09433498,0,0.3,0,0,0,0,
6.38224E+17,35.43418,29.29289,32.03245,5.93907,6.860447,85.55657,-17.05741,-0.4441859,-4.249202,-61.66622,-6.98289,34.57793,0,0,0,108.4323,-24.45246,-15.96351,-36.2161,-110.6672,-50.31561,0.001067912,-0.1257102,0.09433498,0,0.3,0,0,0,0,
6.38224E+17,37.15406,29.55005,33.59671,8.35616,5.835015,83.79868,-17.05741,-0.4441859,-4.249202,-61.73947,-7.056135,34.57793,0,0,0,114.6274,-21.95824,-17.0823,-36.2161,-110.6672,-50.31561,0.001067912,-0.1257102,0.09433498,0,0.3,0,0,0,0,
6.38224E+17,39.9577,30.34491,36.79529,12.53114,4.150376,80.79563,-17.05741,-0.4441859,-4.249202,-61.73947,-6.98289,34.57793,0,0,0,125.2025,-16.06511,-18.91558,-36.2161,-110.6672,-50.31561,0.001067912,-0.1257102,0.09433498,0,0.3,0,0,0,0,
6.38224E+17,42.29013,31.72422,40.06391,16.55962,2.026266,77.79259,-17.05741,-0.4441859,-4.249202,-61.66622,-6.98289,34.57793,0,0,0,134.0762,-8.586754,-20.95123,-36.2161,-110.6672,-50.31561,0.001067912,-0.1257102,0.09433498,0,0.3,0,0,0,0,
6.38224E+17,43.06761,32.54246,41.4414,18.24426,0.9275885,76.32768,-17.05741,-0.4441859,-4.249202,-61.73947,-6.98289,34.57793,0,0,0,137.0306,-4.881345,-21.74989,-36.2161,-110.6672,-50.31561,0.001067912,-0.1257102,0.09433498,0,0.3,0,0,0,0,
6.38224E+17,44.24561,34.78677,44.47654,21.76003,-1.562747,73.69085,-17.05741,-0.4441859,-4.249202,-61.73947,-6.98289,34.57793,0,0,0,141.602,4.279153,-22.96916,-36.2161,-110.6672,-50.31561,0.001067912,-0.1257102,0.09433498,0,0.3,0,0,0,0,
6.38224E+17,44.74036,37.45188,47.16148,24.83632,-4.565799,71.71323,-17.05741,-0.4441859,-4.249202,-61.73947,-6.98289,34.57793,0,0,0,143.3439,13.7702,-23.70109,-36.2161,-110.6672,-50.31561,0.001067912,-0.1257102,0.09433498,0,0.3,0,0,0,0,
6.38224E+17,44.74036,38.94809,48.53897,26.22798,-6.250438,70.76105,-17.05741,-0.4441859,-4.249202,-61.73947,-6.98289,34.57793,0,0,0,143.3425,18.8835,-23.70252,-36.2161,-110.6672,-50.31561,0.001067912,-0.1257102,0.09433498,0,0.3,0,0,0,0,
6.38224E+17,44.43409,41.91712,51.20055,28.49858,-9.546471,69.66236,-17.05741,-0.4441859,-4.249202,-61.66622,-6.98289,34.57793,0,0,0,142.2249,28.87851,-23.28742,-36.2161,-110.6672,-50.31561,0.001067912,-0.1257102,0.09433498,0,0.3,0,0,0,0,
6.38224E+17,43.49169,44.76926,52.81152,30.62269,-13.13548,69.00316,-17.05741,-0.4441859,-4.249202,-61.73947,-7.056135,34.57793,0,0,0,138.2728,36.66025,-22.59851,-36.2161,-110.6672,-50.31561,0.001067912,-0.1257102,0.09433498,0,0.3,0,0,0,0,
6.38224E+17,41.32417,47.87856,53.09168,31.86786,-17.16397,68.78342,-17.05741,-0.4441859,-4.249202,-61.73947,-6.98289,34.57793,0,0,0,129.4652,42.1775,-21.1082,-36.2161,-110.6672,-50.31561,0.001067912,-0.1257102,0.09433498,0,0.3,0,0,0,0,
6.38224E+17,39.55717,49.72544,52.69478,31.57488,-19.43457,69.80886,-17.05741,-0.4441859,-4.249202,-61.73947,-6.98289,34.57793,0,0,0,122.4488,44.27188,-20.10933,-36.2161,-110.6672,-50.31561,0.001067912,-0.1257102,0.09433498,0,0.3,0,0,0,0,
6.38224E+17,38.30849,50.70732,52.22783,30.98892,-20.75298,71.12727,-17.05741,-0.4441859,-4.249202,-61.66622,-7.056135,34.57793,0,0,0,117.6902,44.87243,-19.37372,-36.2161,-110.6672,-50.31561,0.001067912,-0.1257102,0.09433498,0,0.3,0,0,0,0,
6.38224E+17,35.55198,52.20353,50.92039,29.0113,-22.87709,74.71628,-17.05741,-0.4441859,-4.249202,-61.73947,-6.98289,34.57793,0,0,0,107.7064,44.65841,-17.64059,-36.2161,-110.6672,-50.31561,0.001067912,-0.1257102,0.09433498,0,0.3,0,0,0,0,
6.38224E+17,32.34783,53.18541,48.88918,25.86176,-24.48849,79.55046,-17.05741,-0.4441859,-4.249202,-61.73947,-6.98289,34.57793,0,0,0,96.5127,42.42721,-15.96379,-36.2161,-110.6672,-50.31561,0.001067912,-0.1257102,0.09433498,0,0.3,0,0,0,0,
6.38224E+17,30.36879,53.46595,47.44164,23.6644,-25.07445,82.62676,-17.05741,-0.4441859,-4.249202,-61.73947,-6.98289,34.57793,0,0,0,89.7919,40.30711,-15.11223,-36.2161,-110.6672,-50.31561,0.001067912,-0.1257102,0.09433498,0,0.3,0,0,0,0,
6.38224E+17,26.83479,53.51271,45.27035,19.34294,-25.44067,87.90041,-17.05741,-0.4441859,-4.249202,-61.73947,-6.98289,34.57793,0,0,0,78.56162,36.71518,-13.05883,-36.2161,-110.6672,-50.31561,0.001067912,-0.1257102,0.09433498,0,0.3,0,0,0,0,
6.38224E+17,22.99452,53.39582,43.5193,13.92279,-25.14769,93.97977,-17.05741,-0.4441859,-4.249202,-61.66622,-6.98289,34.57793,0,0,0,66.93243,33.70216,-10.62515,-36.2161,-110.6672,-50.31561,0.001067912,-0.1257102,0.09433498,0,0.3,0,0,0,0,
6.38224E+17,19.53121,52.90487,41.53479,8.209671,-24.70822,99.69289,-17.05741,-0.4441859,-4.249202,-61.73947,-7.056135,34.57793,0,0,0,56.44989,29.89508,-9.215952,-36.2161,-110.6672,-50.31561,0.001067912,-0.1257102,0.09433498,0,0.3,0,0,0,0,
6.38224E+17,17.43437,52.06326,39.73705,3.888205,-24.04902,103.1354,-17.05741,-0.4441859,-4.249202,-61.73947,-7.056135,34.57793,0,0,0,50.10383,25.97748,-8.803945,-36.2161,-110.6672,-50.31561,0.001067912,-0.1257102,0.09433498,0,0.3,0,0,0,0,
6.38224E+17,15.97365,50.87097,37.68249,0.006211365,-23.02358,105.6257,-17.05741,-0.4441859,-4.249202,-61.73947,-6.98289,34.57793,0,0,0,45.59103,21.25858,-9.078795,-36.2161,-110.6672,-50.31561,0.001067912,-0.1257102,0.09433498,0,0.3,0,0,0,0,
6.38224E+17,15.03126,48.74355,33.90023,-4.095518,-21.19245,107.6034,-17.05741,-0.4441859,-4.249202,-61.73947,-6.98289,34.57793,0,0,0,42.09464,12.91611,-11.59275,-36.2161,-110.6672,-50.31561,0.001067912,-0.1257102,0.09433498,0,0.3,0,0,0,0,
6.38224E+17,14.96058,47.34086,31.75228,-5.487176,-19.80079,108.0428,-17.05741,-0.4441859,-4.249202,-61.73947,-6.98289,34.65118,0,0,0,41.44353,8.023654,-13.25382,-36.2161,-110.6672,-50.31561,0.001067912,-0.1257102,0.09433498,0,0.3,0,0,0,0,
6.38224E+17,15.2433,42.19766,26.54584,-7.464796,-14.82012,108.1161,-17.05741,-0.4441859,-4.249202,-61.73947,-6.98289,34.57793,0,0,0,41.64255,-6.371954,-15.53642,-36.2161,-110.6672,-50.31561,0.001067912,-0.1257102,0.09433498,0,0.3,0,0,0,0,
6.38224E+17,15.43177,40.70145,25.28509,-7.684532,-12.91575,107.6034,-17.05741,-0.4441859,-4.249202,-61.73947,-7.056135,34.57793,0,0,0,42.05612,-10.26435,-15.99628,-36.2161,-110.6672,-50.31561,0.001067912,-0.1257102,0.09433498,0,0.3,0,0,0,0,
6.38224E+17,15.85585,38.10647,23.39396,-7.831022,-9.619716,106.3582,-17.05741,-0.4441859,-4.249202,-61.73947,-7.056135,34.57793,0,0,0,43.13438,-16.74458,-16.48156,-36.2161,-110.6672,-50.31561,0.001067912,-0.1257102,0.09433498,0,0.3,0,0,0,0,
6.38224E+17,16.63333,35.37122,22.13321,-7.464796,-6.396928,104.9665,-17.05741,-0.4441859,-4.249202,-61.66622,-6.98289,34.57793,0,0,0,45.50656,-22.98096,-16.02502,-36.2161,-110.6672,-50.31561,0.001067912,-0.1257102,0.09433498,0,0.3,0,0,0,0,
6.38224E+17,17.15165,34.34258,21.80634,-7.24506,-5.298251,104.6003,-17.05741,-0.4441859,-4.249202,-61.66622,-6.98289,34.57793,0,0,0,47.07811,-25.23005,-15.80963,-36.2161,-110.6672,-50.31561,0.001067912,-0.1257102,0.09433498,0,0.3,0,0,0,0,
6.38224E+17,18.70661,32.19178,21.50283,-6.219628,-3.100896,103.7214,-17.05741,-0.4441859,-4.249202,-61.73947,-6.98289,34.57793,0,0,0,51.87012,-29.67589,-15.1645,-36.2161,-110.6672,-50.31561,0.001067912,-0.1257102,0.09433498,0,0.3,0,0,0,0,
6.38224E+17,20.82701,30.04099,21.57287,-4.534989,-1.416257,102.9889,-17.05741,-0.4441859,-4.249202,-61.73947,-7.056135,34.57793,0,0,0,58.476,-33.90132,-14.62914,-36.2161,-110.6672,-50.31561,0.001067912,-0.1257102,0.09433498,0,0.3,0,0,0,0,
6.38224E+17,23.23012,27.70317,21.96978,-1.751673,0.3416272,101.7438,-17.05741,-0.4441859,-4.249202,-61.73947,-6.98289,34.57793,0,0,0,66.24462,-38.32308,-14.01384,-36.2161,-110.6672,-50.31561,0.001067912,-0.1257102,0.09433498,0,0.3,0,0,0,0,
6.38224E+17,24.40812,26.58102,22.39003,-0.5065048,1.000834,100.8648,-17.05741,-0.4441859,-4.249202,-61.73947,-7.056135,34.50468,0,0,0,70.27016,-40.27789,-13.49864,-36.2161,-110.6672,-50.31561,0.001067912,-0.1257102,0.09433498,0,0.3,0,0,0,0,
6.38224E+17,27.23532,24.36009,24.14107,2.789528,2.099511,99.10693,-17.05741,-0.4441859,-4.249202,-61.66622,-6.98289,34.57793,0,0,0,80.55309,-43.33451,-11.848,-36.2161,-110.6672,-50.31561,0.001067912,-0.1257102,0.09433498,0,0.3,0,0,0,0,
6.38224E+17,29.75623,22.81713,26.35906,6.012315,2.685472,97.42229,-17.05741,-0.4441859,-4.249202,-61.73947,-6.98289,34.57793,0,0,0,90.38901,-44.42355,-10.24195,-36.2161,-110.6672,-50.31561,0.001067912,-0.1257102,0.09433498,0,0.3,0,0,0,0,
6.38224E+17,31.05203,22.02227,27.7599,7.696954,2.612227,96.32361,-17.05741,-0.4441859,-4.249202,-61.66622,-6.98289,34.57793,0,0,0,95.80287,-44.65054,-9.234709,-36.2161,-110.6672,-50.31561,0.001067912,-0.1257102,0.09433498,0,0.3,0,0,0,0,
6.38224E+17,33.45514,20.5962,30.79504,11.35921,2.099511,93.61353,-17.05741,-0.4441859,-4.249202,-61.73947,-7.056135,34.57793,0,0,0,106.4516,-44.28841,-7.245212,-36.2161,-110.6672,-50.31561,0.001067912,-0.1257102,0.09433498,0,0.3,0,0,0,0,
6.38224E+17,35.38706,19.42729,33.66676,14.87498,1.074079,90.3175,-17.05741,-0.4441859,-4.249202,-61.73947,-7.056135,34.57793,0,0,0,115.6351,-43.28041,-5.557733,-36.2161,-110.6672,-50.31561,0.001067912,-0.1257102,0.09433498,0,0.3,0,0,0,0,
6.38224E+17,36.8949,18.32851,36.72525,17.95128,-0.171089,86.36227,-17.05741,-0.4441859,-4.249202,-61.66622,-7.056135,34.57793,0,0,0,123.8673,-41.59776,-3.343668,-36.2161,-110.6672,-50.31561,0.001067912,-0.1257102,0.09433498,0,0.3,0,0,0,0,
6.38224E+17,37.69594,17.13622,39.55027,20.80784,-1.562747,82.77325,-17.05741,-0.4441859,-4.249202,-61.73947,-7.056135,34.57793,0,0,0,129.8406,-40.18084,-0.3312355,-36.2161,-110.6672,-50.31561,0.001067912,-0.1257102,0.09433498,0,0.3,0,0,0,0,
6.38224E+17,37.79018,16.57515,40.57755,21.97976,-2.148709,81.3816,-17.05741,-0.4441859,-4.249202,-61.73947,-6.98289,34.57793,0,0,0,131.4701,-39.89172,1.200211,-36.2161,-110.6672,-50.31561,0.001067912,-0.1257102,0.09433498,0,0.3,0,0,0,0,
6.38224E+17,37.69594,15.85042,41.74491,23.37142,-3.027651,79.11099,-17.05741,-0.4441859,-4.249202,-61.73947,-7.056135,34.57793,0,0,0,132.7297,-39.72316,3.407337,-36.2161,-110.6672,-50.31561,0.001067912,-0.1257102,0.09433498,0,0.3,0,0,0,0,
6.38224E+17,37.3661,15.52313,42.21186,24.17712,-3.613612,77.20662,-17.05741,-0.4441859,-4.249202,-61.73947,-6.98289,34.57793,0,0,0,132.354,-39.72965,4.97437,-36.2161,-110.6672,-50.31561,0.001067912,-0.1257102,0.09433498,0,0.3,0,0,0,0,
6.38224E+17,37.05982,15.40624,42.2352,24.39685,-3.833347,76.47417,-17.05741,-0.4441859,-4.249202,-61.73947,-7.056135,34.57793,0,0,0,131.4936,-39.95534,5.769399,-36.2161,-110.6672,-50.31561,0.001067912,-0.1257102,0.09433498,0,0.3,0,0,0,0,
6.38224E+17,36.04674,14.93867,42.09512,24.39685,-3.906592,75.59522,-17.05741,-0.4441859,-4.249202,-61.66622,-6.98289,34.57793,0,0,0,128.4199,-41.22446,8.101962,-36.2161,-110.6672,-50.31561,0.001067912,-0.1257102,0.09433498,0,0.3,0,0,0,0,
6.38224E+17,34.84518,13.76976,41.76826,23.59116,-3.540367,75.229,-17.05741,-0.4441859,-4.249202,-61.73947,-7.056135,34.57793,0,0,0,124.7535,-44.36836,10.84513,-36.2161,-110.6672,-50.31561,0.001067912,-0.1257102,0.09433498,0,0.3,0,0,0,0,
6.38224E+17,33.50227,11.87613,41.46474,22.34599,-2.514934,75.08251,-17.05741,-0.4441859,-4.249202,-61.73947,-7.056135,34.57793,0,0,0,120.768,-49.13464,14.09488,-36.2161,-110.6672,-50.31561,0.001067912,-0.1257102,0.09433498,0,0.3,0,0,0,0,
6.38224E+17,32.79546,10.941,41.37135,21.54029,-2.002218,75.00926,-17.05741,-0.4441859,-4.249202,-61.73947,-6.98289,34.57793,0,0,0,118.6531,-51.41182,15.79562,-36.2161,-110.6672,-50.31561,0.001067912,-0.1257102,0.09433498,0,0.3,0,0,0,0,
6.38224E+17,31.40543,9.514929,40.92776,19.70916,-0.61056,74.93602,-17.05741,-0.4441859,-4.249202,-61.73947,-7.056135,34.57793,0,0,0,114.0531,-55.35739,18.45923,-36.2161,-110.6672,-50.31561,0.001067912,-0.1257102,0.09433498,0,0.3,0,0,0,0,
6.38224E+17,29.85047,8.32264,40.13395,17.6583,1.000834,74.93602,-17.05741,-0.4441859,-4.249202,-61.73947,-6.98289,34.57793,0,0,0,108.4571,-59.29932,20.64059,-36.2161,-110.6672,-50.31561,0.001067912,-0.1257102,0.09433498,0,0.3,0,0,0,0,
6.38224E+17,28.03635,7.083596,39.80709,15.09472,2.172756,74.93602,-17.05741,-0.4441859,-4.249202,-61.73947,-6.98289,34.57793,0,0,0,102.3275,-62.64568,23.80588,-36.2161,-110.6672,-50.31561,0.001067912,-0.1257102,0.09433498,0,0.3,0,0,0,0,
6.38224E+17,27.40023,6.779679,39.69035,14.21577,2.612227,74.86278,-17.05741,-0.4441859,-4.249202,-61.73947,-6.98289,34.57793,0,0,0,100.131,-63.52157,24.82042,-36.2161,-110.6672,-50.31561,0.001067912,-0.1257102,0.09433498,0,0.3,0,0,0,0,
6.38224E+17,25.63324,6.335493,39.15337,12.23815,4.003886,75.08251,-17.05741,-0.4441859,-4.249202,-61.73947,-6.98289,34.57793,0,0,0,93.76042,-65.34224,27.05212,-36.2161,-110.6672,-50.31561,0.001067912,-0.1257102,0.09433498,0,0.3,0,0,0,0,
6.38224E+17,23.6542,6.031577,38.49964,10.48027,5.542034,76.0347,-17.05741,-0.4441859,-4.249202,-61.73947,-6.98289,34.57793,0,0,0,86.51152,-66.99936,29.15756,-36.2161,-110.6672,-50.31561,0.001067912,-0.1257102,0.09433498,0,0.3,0,0,0,0,
6.38224E+17,21.5338,5.797795,37.84592,8.795631,6.787202,77.57285,-17.05741,-0.4441859,-4.249202,-61.73947,-6.98289,34.57793,0,0,0,78.72617,-68.48089,31.16274,-36.2161,-110.6672,-50.31561,0.001067912,-0.1257102,0.09433498,0,0.3,0,0,0,0,
6.38224E+17,20.42649,5.751038,37.51905,7.91669,7.373164,78.59828,-17.05741,-0.4441859,-4.249202,-61.73947,-6.98289,34.57793,0,0,0,74.64955,-69.05418,32.09294,-36.2161,-110.6672,-50.31561,0.001067912,-0.1257102,0.09433498,0,0.3,0,0,0,0,
6.38224E+17,17.90557,5.704282,36.7019,5.93907,8.398596,80.79563,-17.05741,-0.4441859,-4.249202,-61.66622,-6.98289,34.57793,0,0,0,65.29806,-70.30994,33.74949,-36.2161,-110.6672,-50.31561,0.001067912,-0.1257102,0.09433498,0,0.3,0,0,0,0,
6.38224E+17,14.98414,5.493878,36.09487,3.521979,9.131048,83.06623,-17.05741,-0.4441859,-4.249202,-61.73947,-6.98289,34.57793,0,0,0,54.63121,-71.63564,35.7625,-36.2161,-110.6672,-50.31561,0.001067912,-0.1257102,0.09433498,0,0.3,0,0,0,0,
6.38224E+17,13.40562,5.33023,35.90809,2.130321,9.424027,84.3114,-17.05741,-0.4441859,-4.249202,-61.73947,-6.98289,34.57793,0,0,0,48.91462,-72.27033,36.8828,-36.2161,-110.6672,-50.31561,0.001067912,-0.1257102,0.09433498,0,0.3,0,0,0,0,
6.38224E+17,9.683144,4.956179,35.65128,-1.165711,10.08323,87.16796,-17.05741,-0.4441859,-4.249202,-61.73947,-6.98289,34.57793,0,0,0,35.4185,-73.48686,39.22446,-36.2161,-110.6672,-50.31561,0.001067912,-0.1257102,0.09433498,0,0.3,0,0,0,0,
6.38224E+17,6.314069,4.745775,35.62793,-4.315253,10.52271,89.87803,-17.05741,-0.4441859,-4.249202,-61.73947,-6.98289,34.57793,0,0,0,23.15834,-74.00646,40.94443,-36.2161,-110.6672,-50.31561,0.001067912,-0.1257102,0.09433498,0,0.3,0,0,0,0,
6.38224E+17,3.251275,4.722397,35.55789,-7.171815,10.81569,92.66135,-17.05741,-0.4441859,-4.249202,-61.73947,-7.056135,34.57793,0,0,0,11.93531,-74.15556,41.75497,-36.2161,-110.6672,-50.31561,0.001067912,-0.1257102,0.09433498,0,0.3,0,0,0,0,
6.38224E+17,1.531397,4.722397,35.55789,-8.709964,10.81569,94.41924,-17.05741,-0.4441859,-4.249202,-61.66622,-6.98289,34.57793,0,0,0,5.624054,-74.15556,42.01853,-36.2161,-110.6672,-50.31561,0.001067912,-0.1257102,0.09433498,0,0.3,0,0,0,0,
6.38224E+17,-2.285316,4.722397,35.55789,-11.93275,10.30297,97.71527,-17.05741,-0.4441859,-4.249202,-61.73947,-6.98289,34.57793,0,0,0,-8.391593,-74.15556,41.92632,-36.2161,-110.6672,-50.31561,0.001067912,-0.1257102,0.09433498,0,0.3,0,0,0,0,
6.38224E+17,-5.98423,4.722397,35.62793,-16.10773,9.790254,99.39991,-17.05741,-0.4441859,-4.249202,-61.66622,-6.98289,34.57793,0,0,0,-21.95357,-74.06068,41.07874,-36.2161,-110.6672,-50.31561,0.001067912,-0.1257102,0.09433498,0,0.3,0,0,0,0,
6.38224E+17,-9.353305,4.769154,35.90809,-20.86866,9.350782,100.0591,-17.05741,-0.4441859,-4.249202,-61.66622,-6.98289,34.57793,0,0,0,-34.30777,-73.57111,39.93979,-36.2161,-110.6672,-50.31561,0.001067912,-0.1257102,0.09433498,0,0.3,0,0,0,0,
6.38224E+17,-10.90826,4.886045,36.04818,-23.21251,9.204292,100.2788,-17.05741,-0.4441859,-4.249202,-61.73947,-7.056135,34.57793,0,0,0,-39.99284,-73.10848,39.1687,-36.2161,-110.6672,-50.31561,0.001067912,-0.1257102,0.09433498,0,0.3,0,0,0,0,
6.38224E+17,-13.54698,5.07307,36.23495,-27.46073,9.131048,101.7438,-17.05741,-0.4441859,-4.249202,-61.73947,-6.98289,34.57793,0,0,0,-49.57756,-72.41846,37.41203,-36.2161,-110.6672,-50.31561,0.001067912,-0.1257102,0.09433498,0,0.3,0,0,0,0,
6.38224E+17,-16.02077,5.306852,36.37504,-31.04974,9.277537,104.0876,-17.05741,-0.4441859,-4.249202,-61.73947,-7.056135,34.57793,0,0,0,-58.47149,-71.68356,35.28562,-36.2161,-110.6672,-50.31561,0.001067912,-0.1257102,0.09433498,0,0.3,0,0,0,0,
6.38224E+17,-18.54169,5.634147,36.58516,-34.05279,9.570518,107.6766,-17.05741,-0.4441859,-4.249202,-61.73947,-7.056135,34.57793,0,0,0,-67.47357,-70.63452,32.82069,-36.2161,-110.6672,-50.31561,0.001067912,-0.1257102,0.09433498,0,0.3,0,0,0,0,
6.38224E+17,-19.76681,5.774416,36.7019,-35.51769,9.717009,109.288,-17.05741,-0.4441859,-4.249202,-61.73947,-7.056135,34.57793,0,0,0,-71.82207,-70.14752,31.50669,-36.2161,-110.6672,-50.31561,0.001067912,-0.1257102,0.09433498,0,0.3,0,0,0,0,
6.38224E+17,-22.31128,6.171845,37.02876,-38.66724,10.00999,112.3643,-17.05741,-0.4441859,-4.249202,-61.73947,-6.98289,34.57793,0,0,0,-80.81839,-68.77117,28.59512,-36.2161,-110.6672,-50.31561,0.001067912,-0.1257102,0.09433498,0,0.3,0,0,0,0,
6.38224E+17,-24.87932,6.569275,37.37897,-41.74353,10.37621,115.8801,-17.05741,-0.4441859,-4.249202,-61.73947,-7.056135,34.57793,0,0,0,-89.79143,-67.35908,25.27205,-36.2161,-110.6672,-50.31561,0.001067912,-0.1257102,0.09433498,0,0.3,0,0,0,0,
6.38224E+17,-26.0102,6.686166,37.61245,-43.13519,10.52271,117.7112,-17.05741,-0.4441859,-4.249202,-61.66622,-6.98289,34.57793,0,0,0,-93.77061,-66.75809,23.82142,-36.2161,-110.6672,-50.31561,0.001067912,-0.1257102,0.09433498,0,0.3,0,0,0,0,
6.38224E+17,-28.22483,7.013461,38.26617,-45.77202,10.81569,122.3256,-17.05741,-0.4441859,-4.249202,-61.73947,-6.98289,34.57793,0,0,0,-101.6512,-65.06634,21.0315,-36.2161,-110.6672,-50.31561,0.001067912,-0.1257102,0.09433498,0,0.3,0,0,0,0,
6.38224E+17,-30.20387,7.55116,38.94324,-47.74964,10.96218,127.8923,-17.05741,-0.4441859,-4.249202,-61.73947,-7.056135,34.57793,0,0,0,-108.6703,-62.84179,18.3353,-36.2161,-110.6672,-50.31561,0.001067912,-0.1257102,0.09433498,0,0.3,0,0,0,0,
6.38224E+17,-32.41851,8.556422,40.13395,-49.94699,10.59595,135.3633,-17.05741,-0.4441859,-4.249202,-61.66622,-6.98289,34.57793,0,0,0,-116.7732,-58.7611,15.52389,-36.2161,-110.6672,-50.31561,0.001067912,-0.1257102,0.09433498,0,0.3,0,0,0,0,
6.38224E+17,-33.62006,9.655198,41.04449,-51.4119,10.15648,139.8312,-17.05741,-0.4441859,-4.249202,-61.73947,-7.056135,34.57793,0,0,0,-121.2703,-54.85728,14.03786,-36.2161,-110.6672,-50.31561,0.001067912,-0.1257102,0.09433498,0,0.3,0,0,0,0,
6.38224E+17,-34.20906,10.52019,41.62818,-52.29084,9.936745,142.0286,-17.05741,-0.4441859,-4.249202,-61.73947,-6.98289,34.57793,0,0,0,-123.514,-51.97802,13.3335,-36.2161,-110.6672,-50.31561,0.001067912,-0.1257102,0.09433498,0,0.3,0,0,0,0,
6.38224E+17,-34.86874,12.71774,42.86558,-53.97548,9.497273,144.7387,-17.05741,-0.4441859,-4.249202,-61.73947,-7.056135,34.57793,0,0,0,-126.2275,-45.03234,12.8034,-36.2161,-110.6672,-50.31561,0.001067912,-0.1257102,0.09433498,0,0.3,0,0,0,0,
6.38224E+17,-35.22214,15.78029,44.10299,-55.66012,8.764822,144.8852,-17.05741,-0.4441859,-4.249202,-61.73947,-6.98289,34.57793,0,0,0,-127.5358,-36.14288,12.29534,-36.2161,-110.6672,-50.31561,0.001067912,-0.1257102,0.09433498,0,0.3,0,0,0,0,
6.38224E+17,-35.31638,17.81419,44.82675,-56.53906,8.178861,144.8852,-17.05741,-0.4441859,-4.249202,-61.73947,-6.98289,34.57793,0,0,0,-127.737,-30.43147,11.9501,-36.2161,-110.6672,-50.31561,0.001067912,-0.1257102,0.09433498,0,0.3,0,0,0,0,
6.38224E+17,-35.29282,21.017,46.06416,-57.93071,7.299919,144.8852,-17.05741,-0.4441859,-4.249202,-61.73947,-6.98289,34.57793,0,0,0,-127.3988,-21.34992,11.62951,-36.2161,-110.6672,-50.31561,0.001067912,-0.1257102,0.09433498,0,0.3,0,0,0,0,
6.38224E+17,-34.96298,24.92117,47.3716,-59.6886,6.05475,144.8852,-17.05741,-0.4441859,-4.249202,-61.73947,-6.98289,34.57793,0,0,0,-125.5245,-10.77025,11.16424,-36.2161,-110.6672,-50.31561,0.001067912,-0.1257102,0.09433498,0,0.3,0,0,0,0,
6.38224E+17,-34.13838,29.19938,48.09537,-61.1535,4.589847,144.8852,-17.05741,-0.4441859,-4.249202,-61.73947,-7.056135,34.57793,0,0,0,-121.0223,-0.6586792,10.14151,-36.2161,-110.6672,-50.31561,0.001067912,-0.1257102,0.09433498,0,0.3,0,0,0,0,
6.38224E+17,-33.52582,31.49044,48.37553,-61.73947,3.78415,144.8852,-17.05741,-0.4441859,-4.249202,-61.73947,-6.98289,34.57793,0,0,0,-117.8593,4.429078,9.54167,-36.2161,-110.6672,-50.31561,0.001067912,-0.1257102,0.09433498,0,0.3,0,0,0,0,
6.38224E+17,-32.25359,35.88554,49.02925,-62.25218,1.953021,144.8852,-17.05741,-0.4441859,-4.249202,-61.73947,-6.98289,34.65118,0,0,0,-111.3892,14.08142,8.166691,-36.2161,-110.6672,-50.31561,0.001067912,-0.1257102,0.09433498,0,0.3,0,0,0,0,
6.38224E+17,-30.60439,40.14038,49.42616,-62.39867,-0.2443342,144.9584,-17.05741,-0.4441859,-4.249202,-61.73947,-7.056135,34.57793,0,0,0,-103.466,22.58124,6.570813,-36.2161,-110.6672,-50.31561,0.001067912,-0.1257102,0.09433498,0,0.3,0,0,0,0,
6.38224E+17,-29.61487,42.22104,49.63629,-62.10569,-1.343012,144.9584,-17.05741,-0.4441859,-4.249202,-61.73947,-6.98289,34.57793,0,0,0,-99.01103,26.59774,5.83566,-36.2161,-110.6672,-50.31561,0.001067912,-0.1257102,0.09433498,0,0.3,0,0,0,0,
6.38224E+17,-27.44736,46.26546,50.14993,-60.93377,-3.833347,144.8852,-17.05741,-0.4441859,-4.249202,-61.73947,-6.98289,34.57793,0,0,0,-89.68069,34.25399,4.312171,-36.2161,-110.6672,-50.31561,0.001067912,-0.1257102,0.09433498,0,0.3,0,0,0,0,
6.38224E+17,-24.97356,50.02935,50.31336,-59.39562,-6.616664,144.8119,-17.05741,-0.4441859,-4.249202,-61.73947,-6.98289,34.57793,0,0,0,-79.49294,40.39016,2.32875,-36.2161,-110.6672,-50.31561,0.001067912,-0.1257102,0.09433498,0,0.3,0,0,0,0,
6.38224E+17,-23.60708,51.78272,50.31336,-58.44344,-7.788587,144.8852,-17.05741,-0.4441859,-4.249202,-61.66622,-6.98289,34.57793,0,0,0,-74.13184,42.96338,1.273919,-36.2161,-110.6672,-50.31561,0.001067912,-0.1257102,0.09433498,0,0.3,0,0,0,0,
6.38224E+17,-20.40293,55.42972,50.3834,-56.02634,-10.42541,144.9584,-17.05741,-0.4441859,-4.249202,-61.73947,-6.98289,34.57793,0,0,0,-62.18972,48.12424,-1.153011,-36.2161,-110.6672,-50.31561,0.001067912,-0.1257102,0.09433498,0,0.3,0,0,0,0,
6.38224E+17,-17.08097,58.46889,50.36005,-53.24303,-12.91575,142.6146,-17.05741,-0.4441859,-4.249202,-61.73947,-6.98289,34.57793,0,0,0,-50.64534,51.93961,-3.530017,-36.2161,-110.6672,-50.31561,0.001067912,-0.1257102,0.09433498,0,0.3,0,0,0,0,
6.38224E+17,-12.84018,61.46129,50.29001,-49.43428,-15.99205,137.3409,-17.05741,-0.4441859,-4.249202,-61.73947,-7.056135,34.57793,0,0,0,-36.95564,55.29968,-6.215513,-36.2161,-110.6672,-50.31561,0.001067912,-0.1257102,0.09433498,0,0.3,0,0,0,0,
6.38224E+17,-9.989424,62.9575,50.07989,-46.65096,-17.74993,133.8984,-17.05741,-0.4441859,-4.249202,-61.73947,-7.056135,34.57793,0,0,0,-28.25753,56.54756,-7.920402,-36.2161,-110.6672,-50.31561,0.001067912,-0.1257102,0.09433498,0,0.3,0,0,0,0,
6.38224E+17,-8.151747,63.7056,49.91645,-44.89308,-18.77536,131.5545,-17.05741,-0.4441859,-4.249202,-61.73947,-6.98289,34.57793,0,0,0,-22.84305,57.03765,-8.87896,-36.2161,-110.6672,-50.31561,0.001067912,-0.1257102,0.09433498,0,0.3,0,0,0,0,
6.38224E+17,-4.052313,64.73425,49.42616,-40.49837,-20.67974,126.4274,-17.05741,-0.4441859,-4.249202,-61.73947,-6.98289,34.57793,0,0,0,-11.17988,57.20895,-10.54097,-36.2161,-110.6672,-50.31561,0.001067912,-0.1257102,0.09433498,0,0.3,0,0,0,0,
6.38224E+17,0.09423985,64.94465,48.72574,-35.59094,-22.07139,121.3002,-17.05741,-0.4441859,-4.249202,-61.73947,-6.98289,34.57793,0,0,0,0.2577286,56.18544,-11.65673,-36.2161,-110.6672,-50.31561,0.001067912,-0.1257102,0.09433498,0,0.3,0,0,0,0,
6.38224E+17,3.981634,64.68748,48.04868,-30.24404,-23.09683,116.6125,-17.05741,-0.4441859,-4.249202,-61.73947,-6.98289,34.57793,0,0,0,10.84522,54.75261,-12.53836,-36.2161,-110.6672,-50.31561,0.001067912,-0.1257102,0.09433498,0,0.3,0,0,0,0,
6.38224E+17,5.86643,64.3602,47.62842,-27.38748,-23.5363,114.1222,-17.05741,-0.4441859,-4.249202,-61.73947,-6.98289,34.57793,0,0,0,15.96718,53.69994,-12.94836,-36.2161,-110.6672,-50.31561,0.001067912,-0.1257102,0.09433498,0,0.3,0,0,0,0,
6.38224E+17,9.329745,63.35493,46.71788,-21.7476,-24.04902,109.0683,-17.05741,-0.4441859,-4.249202,-61.73947,-7.056135,34.57793,0,0,0,25.43269,51.11487,-13.54577,-36.2161,-110.6672,-50.31561,0.001067912,-0.1257102,0.09433498,0,0.3,0,0,0,0,
6.38224E+17,12.25118,62.06913,45.83068,-16.76693,-24.04902,104.1608,-17.05741,-0.4441859,-4.249202,-61.66622,-6.98289,34.57793,0,0,0,33.55096,48.25075,-13.83899,-36.2161,-110.6672,-50.31561,0.001067912,-0.1257102,0.09433498,0,0.3,0,0,0,0,
6.38224E+17,14.15954,61.18076,45.50382,-13.83713,-23.82928,100.938,-17.05741,-0.4441859,-4.249202,-61.73947,-7.056135,34.57793,0,0,0,38.99268,46.72401,-13.79354,-36.2161,-110.6672,-50.31561,0.001067912,-0.1257102,0.09433498,0,0.3,0,0,0,0,
6.38224E+17,16.06789,60.1755,45.34039,-10.76083,-23.68279,97.86176,-17.05741,-0.4441859,-4.249202,-61.73947,-6.98289,34.57793,0,0,0,44.60862,45.30733,-13.47412,-36.2161,-110.6672,-50.31561,0.001067912,-0.1257102,0.09433498,0,0.3,0,0,0,0,
6.38224E+17,18.18829,58.81956,45.06022,-7.24506,-23.46305,94.49248,-17.05741,-0.4441859,-4.249202,-61.73947,-6.98289,34.57793,0,0,0,51.01369,43.24287,-13.08402,-36.2161,-110.6672,-50.31561,0.001067912,-0.1257102,0.09433498,0,0.3,0,0,0,0,
6.38224E+17,19.10713,58.09484,44.8034,-5.487176,-23.24332,93.24731,-17.05741,-0.4441859,-4.249202,-61.73947,-6.98289,34.57793,0,0,0,53.82902,41.93834,-12.96358,-36.2161,-110.6672,-50.31561,0.001067912,-0.1257102,0.09433498,0,0.3,0,0,0,0,
6.38224E+17,21.6516,55.47648,43.5193,-0.8727306,-22.29113,90.09777,-17.05741,-0.4441859,-4.249202,-61.73947,-6.98289,34.57793,0,0,0,61.76423,36.51847,-12.76093,-36.2161,-110.6672,-50.31561,0.001067912,-0.1257102,0.09433498,0,0.3,0,0,0,0,
6.38224E+17,22.57044,54.40108,43.00566,0.4456824,-21.85166,89.14558,-17.05741,-0.4441859,-4.249202,-61.73947,-6.98289,34.57793,0,0,0,64.70351,34.26142,-12.68351,-36.2161,-110.6672,-50.31561,0.001067912,-0.1257102,0.09433498,0,0.3,0,0,0,0,
6.38224E+17,24.45524,52.11002,42.09512,3.082508,-20.67974,87.24121,-17.05741,-0.4441859,-4.249202,-61.66622,-6.98289,34.57793,0,0,0,70.91081,29.63859,-12.42774,-36.2161,-110.6672,-50.31561,0.001067912,-0.1257102,0.09433498,0,0.3,0,0,0,0,
6.38224E+17,26.4814,49.46828,41.20792,5.79258,-18.77536,85.33684,-17.05741,-0.4441859,-4.249202,-61.73947,-7.056135,34.57793,0,0,0,77.81533,24.37979,-12.1496,-36.2161,-110.6672,-50.31561,0.001067912,-0.1257102,0.09433498,0,0.3,0,0,0,0,
6.38224E+17,27.4238,48.18248,40.81102,7.110993,-17.82317,84.45789,-17.05741,-0.4441859,-4.249202,-61.66622,-6.98289,34.57793,0,0,0,81.09024,21.80351,-12.06995,-36.2161,-110.6672,-50.31561,0.001067912,-0.1257102,0.09433498,0,0.3,0,0,0,0,
6.38224E+17,29.00231,45.65763,40.04056,9.308348,-16.28502,82.7,-17.05741,-0.4441859,-4.249202,-61.73947,-7.056135,34.57793,0,0,0,86.78348,16.62741,-11.80335,-36.2161,-110.6672,-50.31561,0.001067912,-0.1257102,0.09433498,0,0.3,0,0,0,0,
6.38224E+17,30.13319,43.03927,39.05998,11.43246,-14.4539,80.86888,-17.05741,-0.4441859,-4.249202,-61.73947,-6.98289,34.57793,0,0,0,91.11111,10.81679,-11.38472,-36.2161,-110.6672,-50.31561,0.001067912,-0.1257102,0.09433498,0,0.3,0,0,0,0,
6.38224E+17,30.36879,41.70671,38.45295,12.16491,-13.72145,80.06318,-17.05741,-0.4441859,-4.249202,-61.73947,-7.056135,34.57793,0,0,0,92.25549,7.6412,-10.90788,-36.2161,-110.6672,-50.31561,0.001067912,-0.1257102,0.09433498,0,0.3,0,0,0,0,
6.38224E+17,30.39235,39.06498,37.23889,13.04385,-12.25654,78.89126,-17.05741,-0.4441859,-4.249202,-61.73947,-6.98289,34.57793,0,0,0,93.20667,1.224828,-9.434466,-36.2161,-110.6672,-50.31561,0.001067912,-0.1257102,0.09433498,0,0.3,0,0,0,0,
6.38224E+17,30.27455,36.61026,36.2583,13.19034,-10.79164,78.15881,-17.05741,-0.4441859,-4.249202,-61.73947,-7.056135,34.57793,0,0,0,93.72451,-4.652192,-7.79605,-36.2161,-110.6672,-50.31561,0.001067912,-0.1257102,0.09433498,0,0.3,0,0,0,0,
6.38224E+17,30.01539,34.45947,35.44115,13.19034,-9.180244,77.93907,-17.05741,-0.4441859,-4.249202,-61.73947,-6.98289,34.57793,0,0,0,93.68147,-9.83927,-6.189544,-36.2161,-110.6672,-50.31561,0.001067912,-0.1257102,0.09433498,0,0.3,0,0,0,0,
6.38224E+17,29.82691,33.40745,35.04425,13.26359,-8.447793,77.86582,-17.05741,-0.4441859,-4.249202,-61.73947,-6.98289,34.57793,0,0,0,93.4521,-12.40374,-5.351017,-36.2161,-110.6672,-50.31561,0.001067912,-0.1257102,0.09433498,0,0.3,0,0,0,0,
6.38224E+17,29.12011,31.2099,34.29713,13.1171,-7.202625,77.79259,-17.05741,-0.4441859,-4.249202,-61.73947,-6.98289,34.57793,0,0,0,92.06857,-17.71535,-3.071967,-36.2161,-110.6672,-50.31561,0.001067912,-0.1257102,0.09433498,0,0.3,0,0,0,0,
6.38224E+17,28.05991,29.40978,33.47998,12.82412,-6.030703,78.23206,-17.05741,-0.4441859,-4.249202,-61.73947,-6.98289,34.57793,0,0,0,89.24661,-22.39254,-0.9241264,-36.2161,-110.6672,-50.31561,0.001067912,-0.1257102,0.09433498,0,0.3,0,0,0,0,
6.38224E+17,26.5992,27.70317,32.56944,12.01842,-5.00527,79.11099,-17.05741,-0.4441859,-4.249202,-61.73947,-6.98289,34.57793,0,0,0,85.00421,-27.03612,1.405441,-36.2161,-110.6672,-50.31561,0.001067912,-0.1257102,0.09433498,0,0.3,0,0,0,0,
6.38224E+17,25.11492,25.69264,31.79898,10.62676,-3.906592,79.91669,-17.05741,-0.4441859,-4.249202,-61.73947,-6.98289,34.57793,0,0,0,80.82671,-32.17143,4.079662,-36.2161,-110.6672,-50.31561,0.001067912,-0.1257102,0.09433498,0,0.3,0,0,0,0,
6.38224E+17,24.50236,24.71076,31.5655,9.967555,-3.393876,80.35616,-17.05741,-0.4441859,-4.249202,-61.73947,-7.056135,34.57793,0,0,0,79.19044,-34.52451,5.398587,-36.2161,-110.6672,-50.31561,0.001067912,-0.1257102,0.09433498,0,0.3,0,0,0,0,
6.38224E+17,23.39504,22.55997,31.21529,8.575896,-2.441689,81.30835,-17.05741,-0.4441859,-4.249202,-61.73947,-6.98289,34.57793,0,0,0,76.33848,-39.53463,8.099711,-36.2161,-110.6672,-50.31561,0.001067912,-0.1257102,0.09433498,0,0.3,0,0,0,0,
6.38224E+17,22.2406,20.19877,30.84174,7.403974,-1.635992,82.40703,-17.05741,-0.4441859,-4.249202,-61.73947,-6.98289,34.57793,0,0,0,73.24419,-45.09971,10.76648,-36.2161,-110.6672,-50.31561,0.001067912,-0.1257102,0.09433498,0,0.3,0,0,0,0,
6.38224E+17,21.5338,18.93634,30.60827,6.964502,-1.123276,83.13947,-17.05741,-0.4441859,-4.249202,-61.66622,-6.98289,34.57793,0,0,0,71.21883,-48.14575,12.1372,-36.2161,-110.6672,-50.31561,0.001067912,-0.1257102,0.09433498,0,0.3,0,0,0,0,
6.38224E+17,19.83749,16.64528,29.81446,5.865825,0.04864649,84.75087,-17.05741,-0.4441859,-4.249202,-61.73947,-6.98289,34.57793,0,0,0,65.8559,-54.15227,14.19695,-36.2161,-110.6672,-50.31561,0.001067912,-0.1257102,0.09433498,0,0.3,0,0,0,0,
6.38224E+17,17.78777,14.28408,28.97396,4.327676,1.367059,86.28902,-17.05741,-0.4441859,-4.249202,-61.73947,-6.98289,34.57793,0,0,0,59.21161,-60.40849,16.20792,-36.2161,-110.6672,-50.31561,0.001067912,-0.1257102,0.09433498,0,0.3,0,0,0,0,
6.38224E+17,15.83229,12.10991,28.50701,1.983831,2.319247,87.16796,-17.05741,-0.4441859,-4.249202,-61.73947,-7.056135,34.57793,0,0,0,52.93467,-65.85729,18.31552,-36.2161,-110.6672,-50.31561,0.001067912,-0.1257102,0.09433498,0,0.3,0,0,0,0,
6.38224E+17,14.84277,11.1514,28.34358,0.8119082,2.905208,87.82717,-17.05741,-0.4441859,-4.249202,-61.73947,-6.98289,34.57793,0,0,0,49.73267,-68.22334,19.31322,-36.2161,-110.6672,-50.31561,0.001067912,-0.1257102,0.09433498,0,0.3,0,0,0,0,
6.38224E+17,12.60458,9.561686,28.08676,-1.312202,4.077131,89.51181,-17.05741,-0.4441859,-4.249202,-61.73947,-6.98289,34.57793,0,0,0,42.39595,-72.14545,21.24739,-36.2161,-110.6672,-50.31561,0.001067912,-0.1257102,0.09433498,0,0.3,0,0,0,0,
6.38224E+17,9.965863,8.369397,28.01672,-3.436311,5.175808,91.41618,-17.05741,-0.4441859,-4.249202,-61.73947,-6.98289,34.57793,0,0,0,33.67225,-74.96308,23.28241,-36.2161,-110.6672,-50.31561,0.001067912,-0.1257102,0.09433498,0,0.3,0,0,0,0,
6.38224E+17,6.832388,7.317377,27.92333,-6.585854,6.05475,93.61353,-17.05741,-0.4441859,-4.249202,-61.73947,-7.056135,34.57793,0,0,0,23.16377,-77.49055,24.97765,-36.2161,-110.6672,-50.31561,0.001067912,-0.1257102,0.09433498,0,0.3,0,0,0,0,
6.38224E+17,5.93711,7.083596,27.92333,-7.611286,6.274486,94.34599,-17.05741,-0.4441859,-4.249202,-61.73947,-6.98289,34.57793,0,0,0,20.14727,-78.03036,25.38381,-36.2161,-110.6672,-50.31561,0.001067912,-0.1257102,0.09433498,0,0.3,0,0,0,0,
6.38224E+17,3.722474,6.662788,27.92333,-10.24811,6.933692,96.17712,-17.05741,-0.4441859,-4.249202,-61.73947,-6.98289,34.57793,0,0,0,12.65336,-79.00271,26.13462,-36.2161,-110.6672,-50.31561,0.001067912,-0.1257102,0.09433498,0,0.3,0,0,0,0,
6.38224E+17,1.554958,6.452384,27.92333,-12.51871,7.299919,98.22798,-17.05741,-0.4441859,-4.249202,-61.66622,-6.98289,34.57793,0,0,0,5.29017,-79.4892,26.52994,-36.2161,-110.6672,-50.31561,0.001067912,-0.1257102,0.09433498,0,0.3,0,0,0,0,
6.38224E+17,-1.130878,6.429006,28.13346,-14.78931,7.446409,101.1578,-17.05741,-0.4441859,-4.249202,-61.73947,-7.056135,34.57793,0,0,0,-3.856259,-79.31345,27.00146,-36.2161,-110.6672,-50.31561,0.001067912,-0.1257102,0.09433498,0,0.3,0,0,0,0,
6.38224E+17,-2.497356,6.429006,28.34358,-16.25422,7.373164,102.6227,-17.05741,-0.4441859,-4.249202,-61.66622,-6.98289,34.57793,0,0,0,-8.532536,-79.08207,27.28438,-36.2161,-110.6672,-50.31561,0.001067912,-0.1257102,0.09433498,0,0.3,0,0,0,0,
6.38224E+17,-5.018272,6.429006,28.6471,-19.477,7.006938,104.7468,-17.05741,-0.4441859,-4.249202,-61.73947,-7.056135,34.57793,0,0,0,-17.18338,-78.74506,27.33819,-36.2161,-110.6672,-50.31561,0.001067912,-0.1257102,0.09433498,0,0.3,0,0,0,0,
6.38224E+17,-7.421387,6.429006,29.13739,-22.84628,6.933692,106.7977,-17.05741,-0.4441859,-4.249202,-61.66622,-7.056135,34.57793,0,0,0,-25.50252,-78.19372,27.4363,-36.2161,-110.6672,-50.31561,0.001067912,-0.1257102,0.09433498,0,0.3,0,0,0,0,
6.38224E+17,-8.622946,6.405628,29.39421,-24.38443,6.933692,107.6766,-17.05741,-0.4441859,-4.249202,-61.73947,-6.98289,34.57793,0,0,0,-29.68156,-77.95558,27.38002,-36.2161,-110.6672,-50.31561,0.001067912,-0.1257102,0.09433498,0,0.3,0,0,0,0,
6.38224E+17,-11.4737,6.312115,30.07128,-28.33967,6.567466,108.8485,-17.05741,-0.4441859,-4.249202,-61.66622,-6.98289,34.57793,0,0,0,-39.65636,-77.39036,27.02622,-36.2161,-110.6672,-50.31561,0.001067912,-0.1257102,0.09433498,0,0.3,0,0,0,0,
6.38224E+17,-13.14646,6.125089,30.725,-31.41597,6.127995,109.1415,-17.05741,-0.4441859,-4.249202,-61.73947,-7.056135,34.65118,0,0,0,-45.65188,-77.05321,27.10918,-36.2161,-110.6672,-50.31561,0.001067912,-0.1257102,0.09433498,0,0.3,0,0,0,0,
6.38224E+17,-13.87682,5.938064,31.09856,-33.17385,5.835015,109.288,-17.05741,-0.4441859,-4.249202,-61.73947,-6.98289,34.57793,0,0,0,-48.32952,-77.03945,27.27994,-36.2161,-110.6672,-50.31561,0.001067912,-0.1257102,0.09433498,0,0.3,0,0,0,0,
