zeyangz2/DNN_classification_different_people_hand/data_by_names/Frank/frank_right_29.csv
Timestamp,Therapist joint angle 0,Therapist joint angle 1,Therapist joint angle 2,Therapist joint angle 3,Therapist joint angle 4,Therapist joint angle 5,Patient joint angle 0,Patient joint angle 1,Patient joint angle 2,Patient joint angle 3,Patient joint angle 4,Patient joint angle 5,Virtual joint angle 0,Virtual joint angle 1,Virtual joint angle 2,Therapist position x,Therapist position y,Therapist position z,Patient position x,Patient position y,Patient position z,Virtual position x,Virtual position y,Virtual position z,Assistive Force, Obstacle Force Magnitude, Therapist Constant Force, Patient Constant Force, Recovery Factor, Assistance Level,label
6.38224E+17,0,0,0,0,0,0,0,0,0,0,0,0,0,0,0,0,0,0,0,0,0,0,0,0,0,0.3,0,0,0,0,1
6.38224E+17,38.09645,-0.9818845,3.151881,-69.64995,-9.106999,-49.50752,-16.98673,-0.4441859,-4.295897,-61.44649,-6.98289,34.57793,0,0,0,86.7869,-112.0834,-57.65247,-36.03881,-110.6591,-50.37467,0.001067912,-0.1257102,0.09433498,0,0.3,0,0,0,0,
6.38224E+17,38.09645,-0.9818845,3.151881,-69.64995,-9.106999,-49.50752,-16.98673,-0.4441859,-4.295897,-61.44649,-6.98289,34.57793,0,0,0,86.7869,-112.0834,-57.65247,-36.03881,-110.6591,-50.37467,0.001067912,-0.1257102,0.09433498,0,0.3,0,0,0,0,
6.38224E+17,38.09645,-0.9818845,3.151881,-69.64995,-9.106999,-49.50752,-16.98673,-0.4441859,-4.295897,-61.44649,-6.98289,34.57793,0,0,0,86.7869,-112.0834,-57.65247,-36.03881,-110.6591,-50.37467,0.001067912,-0.1257102,0.09433498,0,0.3,0,0,0,0,
6.38224E+17,38.09645,-0.9818845,3.151881,-69.64995,-9.106999,-49.50752,-16.98673,-0.4441859,-4.295897,-61.44649,-6.98289,34.57793,0,0,0,86.7869,-112.0834,-57.65247,-36.03881,-110.6591,-50.37467,0.001067912,-0.1257102,0.09433498,0,0.3,0,0,0,0,
6.38224E+17,38.09645,-0.9818845,3.151881,-69.64995,-9.106999,-49.50752,-16.98673,-0.4441859,-4.295897,-61.44649,-6.98289,34.57793,0,0,0,86.7869,-112.0834,-57.65247,-36.03881,-110.6591,-50.37467,0.001067912,-0.1257102,0.09433498,0,0.3,0,0,0,0,
6.38224E+17,38.09645,-0.9818845,3.151881,-69.64995,-9.106999,-49.50752,-16.98673,-0.4441859,-4.295897,-61.44649,-6.98289,34.57793,0,0,0,86.7869,-112.0834,-57.65247,-36.03881,-110.6591,-50.37467,0.001067912,-0.1257102,0.09433498,0,0.3,0,0,0,0,
6.38224E+17,38.09645,-0.9818845,3.151881,-69.72319,-9.106999,-49.50752,-16.98673,-0.4441859,-4.295897,-61.44649,-7.056135,34.57793,0,0,0,86.7869,-112.0834,-57.65247,-36.03881,-110.6591,-50.37467,0.001067912,-0.1257102,0.09433498,0,0.3,0,0,0,0,
6.38224E+17,38.09645,-0.9818845,3.151881,-69.72319,-9.106999,-49.50752,-16.98673,-0.4441859,-4.295897,-61.44649,-6.98289,34.57793,0,0,0,86.7869,-112.0834,-57.65247,-36.03881,-110.6591,-50.37467,0.001067912,-0.1257102,0.09433498,0,0.3,0,0,0,0,
6.38224E+17,38.09645,-0.9818845,3.151881,-69.64995,-9.106999,-49.50752,-16.98673,-0.4441859,-4.295897,-61.44649,-6.98289,34.57793,0,0,0,86.7869,-112.0834,-57.65247,-36.03881,-110.6591,-50.37467,0.001067912,-0.1257102,0.09433498,0,0.3,0,0,0,0,
6.38224E+17,38.09645,-0.9818845,3.151881,-69.64995,-9.106999,-49.50752,-16.98673,-0.4441859,-4.295897,-61.44649,-6.98289,34.57793,0,0,0,86.7869,-112.0834,-57.65247,-36.03881,-110.6591,-50.37467,0.001067912,-0.1257102,0.09433498,0,0.3,0,0,0,0,
6.38224E+17,38.09645,-0.9818845,3.151881,-69.64995,-9.106999,-49.50752,-16.98673,-0.4441859,-4.295897,-61.44649,-6.98289,34.57793,0,0,0,86.7869,-112.0834,-57.65247,-36.03881,-110.6591,-50.37467,0.001067912,-0.1257102,0.09433498,0,0.3,0,0,0,0,
6.38224E+17,38.09645,-0.9818845,3.151881,-69.64995,-9.106999,-49.50752,-16.98673,-0.4441859,-4.295897,-61.44649,-6.98289,34.57793,0,0,0,86.7869,-112.0834,-57.65247,-36.03881,-110.6591,-50.37467,0.001067912,-0.1257102,0.09433498,0,0.3,0,0,0,0,
6.38224E+17,38.09645,-0.9818845,3.151881,-69.64995,-9.106999,-49.50752,-16.98673,-0.4441859,-4.295897,-61.44649,-6.98289,34.57793,0,0,0,86.7869,-112.0834,-57.65247,-36.03881,-110.6591,-50.37467,0.001067912,-0.1257102,0.09433498,0,0.3,0,0,6.20E-08,0,
6.38224E+17,38.09645,-0.9818845,3.151881,-69.72319,-9.106999,-49.50752,-16.98673,-0.4441859,-4.295897,-61.44649,-6.98289,34.57793,0,0,0,86.7869,-112.0834,-57.65247,-36.03881,-110.6591,-50.37467,0.001067912,-0.1257102,0.09433498,0,0.3,0,0,6.20E-08,0,
6.38224E+17,38.09645,-0.9818845,3.151881,-69.72319,-9.106999,-49.50752,-16.98673,-0.4441859,-4.295897,-61.44649,-6.98289,34.57793,0,0,0,86.7869,-112.0834,-57.65247,-36.03881,-110.6591,-50.37467,0.001067912,-0.1257102,0.09433498,0,0.3,0,0,1.24E-07,0,
6.38224E+17,38.09645,-0.9818845,3.151881,-69.64995,-9.106999,-49.50752,-16.98673,-0.4441859,-4.295897,-61.44649,-6.98289,34.57793,0,0,0,86.7869,-112.0834,-57.65247,-36.03881,-110.6591,-50.37467,0.001067912,-0.1257102,0.09433498,0,0.3,0,0,1.24E-07,0,
6.38224E+17,38.09645,-0.9818845,3.151881,-69.64995,-9.106999,-49.50752,-16.98673,-0.4441859,-4.295897,-61.51973,-7.056135,34.57793,0,0,0,86.7869,-112.0834,-57.65247,-36.03881,-110.6591,-50.37467,0.001067912,-0.1257102,0.09433498,0,0.3,0,0,1.86E-07,0,
6.38224E+17,38.09645,-0.9818845,3.151881,-69.64995,-9.106999,-49.06805,-16.98673,-0.4441859,-4.295897,-61.44649,-6.98289,34.57793,0,0,0,86.7869,-112.0834,-57.65247,-36.03881,-110.6591,-50.37467,0.001067912,-0.1257102,0.09433498,0,0.3,0,0,1.86E-07,0,
6.38224E+17,38.09645,-0.9818845,3.151881,-69.35696,-9.473226,-46.28474,-16.98673,-0.4441859,-4.295897,-61.44649,-6.98289,34.57793,0,0,0,86.7869,-112.0834,-57.65247,-36.03881,-110.6591,-50.37467,0.001067912,-0.1257102,0.09433498,0,0.3,0,0,1.86E-07,0,
6.38224E+17,38.09645,-0.9818845,3.151881,-69.21047,-9.546471,-45.33255,-16.98673,-0.4441859,-4.295897,-61.44649,-6.98289,34.57793,0,0,0,86.7869,-112.0834,-57.65247,-36.03881,-110.6591,-50.37467,0.001067912,-0.1257102,0.09433498,0,0.3,0,0,2.48E-07,0,
6.38224E+17,37.46034,-0.9818845,3.151881,-68.91749,-9.692961,-43.94089,-16.98673,-0.4441859,-4.295897,-61.44649,-6.98289,34.57793,0,0,0,85.55257,-112.0834,-56.69577,-36.03881,-110.6591,-50.37467,0.001067912,-0.1257102,0.09433498,0,0.3,0,0,0.000437987,0,
6.38224E+17,37.17762,-0.9818845,3.151881,-68.771,-9.766206,-43.72115,-16.98673,-0.4441859,-4.295897,-61.44649,-6.98289,34.57793,0,0,0,85.00059,-112.0834,-56.27498,-36.03881,-110.6591,-50.37467,0.001067912,-0.1257102,0.09433498,0,0.3,0,0,0.00081391,0,
6.38224E+17,36.7771,-0.9818845,3.151881,-68.25829,-9.985942,-42.62248,-16.98673,-0.4441859,-4.295897,-61.44649,-6.98289,34.57793,0,0,0,84.21507,-112.0834,-55.68354,-36.03881,-110.6591,-50.37467,0.001067912,-0.1257102,0.09433498,0,0.3,0,0,0.001775881,0,
6.38224E+17,36.7771,-0.9818845,2.614894,-67.96531,-9.912696,-41.96327,-16.98673,-0.4441859,-4.295897,-61.44649,-6.98289,34.57793,0,0,0,83.46777,-112.1463,-56.6833,-36.03881,-110.6591,-50.37467,0.001067912,-0.1257102,0.09433498,0,0.3,0,0,0.002895092,0,
6.38224E+17,36.51794,-0.9818845,2.521505,-67.52583,-9.692961,-41.59705,-16.98673,-0.4441859,-4.295897,-61.44649,-6.98289,34.57793,0,0,0,82.83262,-112.156,-56.48141,-36.03881,-110.6591,-50.37467,0.001067912,-0.1257102,0.09433498,0,0.3,0,0,0.00411853,0,
6.38224E+17,35.78758,-0.9818845,2.47481,-67.23285,-9.546471,-40.49837,-16.98673,-0.4441859,-4.295897,-61.44649,-6.98289,34.57793,0,0,0,81.33643,-112.1608,-55.52272,-36.03881,-110.6591,-50.37467,0.001067912,-0.1257102,0.09433498,0,0.3,0,0,0.005662955,0,
6.38224E+17,35.08078,-0.9818845,2.428116,-67.08636,-9.546471,-39.03346,-16.98673,-0.4441859,-4.295897,-61.44649,-6.98289,34.57793,0,0,0,79.87604,-112.1654,-54.61682,-36.03881,-110.6591,-50.37467,0.001067912,-0.1257102,0.09433498,0,0.3,0,0,0.006738082,0,
6.38224E+17,33.71431,-0.9818845,2.428116,-67.37935,-9.473226,-35.51769,-16.98673,-0.4441859,-4.295897,-61.44649,-6.98289,34.57793,0,0,0,77.1411,-112.1654,-52.74434,-36.03881,-110.6591,-50.37467,0.001067912,-0.1257102,0.09433498,0,0.3,0,0,0.009435696,0,
6.38224E+17,32.04155,-0.9818845,2.428116,-68.11179,-9.619716,-31.70894,-16.98673,-0.4441859,-4.295897,-61.44649,-6.98289,34.57793,0,0,0,73.73358,-112.1654,-50.54178,-36.03881,-110.6591,-50.37467,0.001067912,-0.1257102,0.09433498,0,0.3,0,0,0.01292453,0,
6.38224E+17,30.39235,-0.9818845,2.428116,-68.84425,-9.766206,-29.07212,-16.98673,-0.4441859,-4.295897,-61.44649,-6.98289,34.57793,0,0,0,70.31252,-112.1654,-48.46853,-36.03881,-110.6591,-50.37467,0.001067912,-0.1257102,0.09433498,0,0.3,0,0,0.01523685,0,
6.38224E+17,27.56516,-0.9351282,2.404768,-70.16266,-9.985942,-26.21556,-16.98673,-0.4441859,-4.295897,-61.44649,-6.98289,34.57793,0,0,0,64.28965,-112.0589,-45.19288,-36.03881,-110.6591,-50.37467,0.001067912,-0.1257102,0.09433498,0,0.3,0,0,0.02081821,0,
6.38224E+17,23.11232,-0.6312115,2.544852,-73.75167,-10.05919,-23.87171,-16.98673,-0.4441859,-4.295897,-61.44649,-6.98289,34.50468,0,0,0,54.66553,-111.3375,-40.2648,-36.03881,-110.6591,-50.37467,0.001067912,-0.1257102,0.09433498,0,0.3,0,0,0.02844969,0,
6.38224E+17,18.30609,-0.2104038,2.918408,-78.73235,-8.887264,-22.18707,-16.98673,-0.4441859,-4.295897,-61.44649,-6.98289,34.57793,0,0,0,44.01656,-110.3167,-35.30366,-36.03881,-110.6591,-50.37467,0.001067912,-0.1257102,0.09433498,0,0.3,0,0,0.03824457,0,
6.38224E+17,14.1831,0.3272949,3.642174,-83.12706,-7.495606,-20.42919,-16.98673,-0.4441859,-4.295897,-61.44649,-6.98289,34.57793,0,0,0,34.74866,-108.9689,-30.85407,-36.03881,-110.6591,-50.37467,0.001067912,-0.1257102,0.09433498,0,0.3,0,0,0.04432536,0,
6.38224E+17,10.1779,1.098776,4.762842,-87.37527,-5.737722,-18.37833,-16.98673,-0.4441859,-4.295897,-61.44649,-6.98289,34.57793,0,0,0,25.51583,-106.9824,-26.22453,-36.03881,-110.6591,-50.37467,0.001067912,-0.1257102,0.09433498,0,0.3,0,0,0.05721207,0,
6.38224E+17,4.853352,2.47809,7.167611,-91.91647,-2.514934,-14.42309,-16.98673,-0.4441859,-4.295897,-61.44649,-6.98289,34.57793,0,0,0,12.67932,-103.1922,-19.02365,-36.03881,-110.6591,-50.37467,0.001067912,-0.1257102,0.09433498,0,0.3,0,0,0.07139462,0,
6.38224E+17,2.685836,3.226192,8.70853,-93.60111,-0.9035407,-12.44547,-16.98673,-0.4441859,-4.295897,-61.44649,-6.98289,34.57793,0,0,0,7.184917,-100.958,-15.18952,-36.03881,-110.6591,-50.37467,0.001067912,-0.1257102,0.09433498,0,0.3,0,0,0.07860777,0,
6.38224E+17,-2.874315,5.821173,13.54141,-96.1647,4.736337,-8.270493,-16.98673,-0.4441859,-4.295897,-61.44649,-6.98289,34.57793,0,0,0,-8.218101,-92.76811,-4.67017,-36.03881,-110.6591,-50.37467,0.001067912,-0.1257102,0.09433498,0,0.3,0,0,0.09918889,0,
6.38224E+17,-4.429273,6.779679,15.12903,-96.23794,6.347731,-7.391551,-16.98673,-0.4441859,-4.295897,-61.44649,-6.98289,34.57793,0,0,0,-12.91422,-89.63596,-1.628377,-36.03881,-110.6591,-50.37467,0.001067912,-0.1257102,0.09433498,0,0.3,0,0,0.1054242,0,
6.38224E+17,-7.350708,8.673313,18.3276,-94.33356,9.131048,-6.292873,-16.98673,-0.4441859,-4.295897,-61.44649,-6.98289,34.57793,0,0,0,-22.23088,-83.12646,3.978921,-36.03881,-110.6591,-50.37467,0.001067912,-0.1257102,0.09433498,0,0.3,0,0,0.1165687,0,
6.38224E+17,-9.753823,10.23965,21.17597,-89.49938,9.277537,-7.831022,-16.98673,-0.4441859,-4.295897,-61.44649,-6.98289,34.57793,0,0,0,-30.39252,-77.29052,8.453378,-36.03881,-110.6591,-50.37467,0.001067912,-0.1257102,0.09433498,0,0.3,0,0,0.1260183,0,
6.38224E+17,-10.74334,10.82411,23.44065,-87.88799,9.204292,-9.735395,-16.98673,-0.4441859,-4.295897,-61.44649,-6.98289,34.57793,0,0,0,-34.30389,-73.95256,12.44841,-36.03881,-110.6591,-50.37467,0.001067912,-0.1257102,0.09433498,0,0.3,0,0,0.1298358,0,
6.38224E+17,-12.5339,12.2268,27.73655,-87.52177,9.497273,-10.17487,-16.98673,-0.4441859,-4.295897,-61.44649,-6.98289,34.57793,0,0,0,-41.75134,-66.43655,19.45219,-36.03881,-110.6591,-50.37467,0.001067912,-0.1257102,0.09433498,0,0.3,0,0,0.1355467,0,
6.38224E+17,-13.78258,13.8399,31.05186,-88.10773,9.936745,-8.563474,-16.98673,-0.4441859,-4.295897,-61.44649,-6.98289,34.57793,0,0,0,-47.23365,-58.99244,24.20373,-36.03881,-110.6591,-50.37467,0.001067912,-0.1257102,0.09433498,0,0.3,0,0,0.1391156,0,
6.38224E+17,-14.79566,15.80367,34.22709,-88.40071,10.81569,-5.853402,-16.98673,-0.4441859,-4.295897,-61.44649,-6.98289,34.57793,0,0,0,-51.92115,-50.58896,28.22403,-36.03881,-110.6591,-50.37467,0.001067912,-0.1257102,0.09433498,0,0.3,0,0,0.140725,0,
6.38224E+17,-15.19618,16.97258,35.65128,-88.32746,11.25516,-4.388499,-16.98673,-0.4441859,-4.295897,-61.44649,-6.98289,34.57793,0,0,0,-53.80503,-46.08075,29.73769,-36.03881,-110.6591,-50.37467,0.001067912,-0.1257102,0.09433498,0,0.3,0,0,0.1408566,0,
6.38224E+17,-15.78517,19.77796,38.0327,-87.59501,12.06085,-0.6529952,-16.98673,-0.4441859,-4.295897,-61.44649,-6.98289,34.57793,0,0,0,-56.48517,-36.56193,31.46171,-36.03881,-110.6591,-50.37467,0.001067912,-0.1257102,0.09433498,0,0.3,0,0,0.1399475,0,
6.38224E+17,-16.06789,22.46645,39.7137,-86.34984,12.57357,4.400921,-16.98673,-0.4441859,-4.295897,-61.44649,-6.98289,34.57793,0,0,0,-57.68941,-28.27037,31.94083,-36.03881,-110.6591,-50.37467,0.001067912,-0.1257102,0.09433498,0,0.3,0,0,0.1378247,0,
6.38224E+17,-16.18569,24.12631,40.46081,-85.4709,12.79331,7.843444,-16.98673,-0.4441859,-4.295897,-61.44649,-6.98289,34.57793,0,0,0,-58.04604,-23.6026,31.63217,-36.03881,-110.6591,-50.37467,0.001067912,-0.1257102,0.09433498,0,0.3,0,0,0.1363583,0,
6.38224E+17,-16.27993,27.96033,42.02508,-83.42004,12.57357,15.16796,-16.98673,-0.4441859,-4.295897,-61.44649,-6.98289,34.57793,0,0,0,-58.0442,-13.1868,30.40408,-36.03881,-110.6591,-50.37467,0.001067912,-0.1257102,0.09433498,0,0.3,0,0,0.1325764,0,
6.38224E+17,-16.13857,32.77624,43.5193,-81.29592,11.76787,21.61354,-16.98673,-0.4441859,-4.295897,-61.44649,-6.98289,34.57793,0,0,0,-56.68861,-1.157439,27.55718,-36.03881,-110.6591,-50.37467,0.001067912,-0.1257102,0.09433498,0,0.3,0,0,0.1276444,0,
6.38224E+17,-15.50245,38.43377,45.03687,-79.61128,10.15648,26.52096,-16.98673,-0.4441859,-4.295897,-61.44649,-6.98289,34.57793,0,0,0,-53.13788,12.00965,23.22714,-36.03881,-110.6591,-50.37467,0.001067912,-0.1257102,0.09433498,0,0.3,0,0,0.1215133,0,
6.38224E+17,-14.20666,44.95628,47.02139,-78.29288,7.812634,29.817,-16.98673,-0.4441859,-4.295897,-61.44649,-6.98289,34.57793,0,0,0,-47.10213,26.66266,17.70491,-36.03881,-110.6591,-50.37467,0.001067912,-0.1257102,0.09433498,0,0.3,0,0,0.1140726,0,
6.38224E+17,-13.3585,48.20586,48.11871,-77.63367,6.274486,31.42839,-16.98673,-0.4441859,-4.295897,-61.44649,-6.98289,34.57793,0,0,0,-43.47193,33.74526,14.71416,-36.03881,-110.6591,-50.37467,0.001067912,-0.1257102,0.09433498,0,0.3,0,0,0.1098332,0,
6.38224E+17,-11.33234,54.49459,50.61687,-76.53499,2.831963,34.65118,-16.98673,-0.4441859,-4.295897,-61.44649,-6.98289,34.57793,0,0,0,-35.47131,47.29403,8.646572,-36.03881,-110.6591,-50.37467,0.001067912,-0.1257102,0.09433498,0,0.3,0,0,0.1003411,0,
6.38224E+17,-8.646505,60.61968,52.9516,-75.94903,-1.343012,37.50774,-16.98673,-0.4441859,-4.295897,-61.44649,-6.98289,34.57793,0,0,0,-25.83591,59.20687,1.549163,-36.03881,-110.6591,-50.37467,0.001067912,-0.1257102,0.09433498,0,0.3,0,0,0.08957667,0,
6.38224E+17,-7.044428,63.56533,53.97888,-75.65604,-3.613612,38.67966,-16.98673,-0.4441859,-4.295897,-61.44649,-6.98289,34.57793,0,0,0,-20.50742,64.33634,-2.394398,-36.03881,-110.6591,-50.37467,0.001067912,-0.1257102,0.09433498,0,0.3,0,0,0.0838806,0,
6.38224E+17,-3.369075,68.80206,55.44976,-74.55737,-8.447793,40.87702,-16.98673,-0.4441859,-4.295897,-61.44649,-6.98289,34.57793,0,0,0,-9.288162,72.05049,-10.57402,-36.03881,-110.6591,-50.37467,0.001067912,-0.1257102,0.09433498,0,0.3,0,0,0.07199016,0,
6.38224E+17,0.588999,72.93999,55.9167,-72.57975,-13.42846,42.6349,-16.98673,-0.4441859,-4.295897,-61.44649,-6.98289,34.57793,0,0,0,1.537496,76.10332,-18.79297,-36.03881,-110.6591,-50.37467,0.001067912,-0.1257102,0.09433498,0,0.3,0,0,0.05979987,0,
6.38224E+17,5.159632,76.39997,55.9167,-69.28372,-17.89642,43.58709,-16.98673,-0.4441859,-4.295897,-61.44649,-6.98289,34.57793,0,0,0,12.75219,78.23196,-27.12467,-36.03881,-110.6591,-50.37467,0.001067912,-0.1257102,0.09433498,0,0.3,0,0,0.04755297,0,
6.38224E+17,7.845467,77.8728,55.9167,-66.86663,-20.24026,43.80682,-16.98673,-0.4441859,-4.295897,-61.44649,-6.98289,34.57793,0,0,0,18.89978,78.99509,-31.18781,-36.03881,-110.6591,-50.37467,0.001067912,-0.1257102,0.09433498,0,0.3,0,0,0.04138699,0,
6.38224E+17,12.8873,80.04697,55.84666,-61.08026,-24.78147,43.58709,-16.98673,-0.4441859,-4.295897,-61.44649,-6.98289,34.57793,0,0,0,29.75286,79.82907,-38.30975,-36.03881,-110.6591,-50.37467,0.001067912,-0.1257102,0.09433498,0,0.3,0,0,0.02899885,0,
6.38224E+17,17.95269,81.28601,55.30967,-54.26846,-28.88319,41.17,-16.98673,-0.4441859,-4.295897,-61.44649,-6.98289,34.57793,0,0,0,40.02342,79.26582,-44.82362,-36.03881,-110.6591,-50.37467,0.001067912,-0.1257102,0.09433498,0,0.3,0,0,0.01661945,0,
6.38224E+17,23.20656,81.58993,54.56256,-45.55228,-32.39896,35.31038,-16.98673,-0.4441859,-4.295897,-61.44649,-7.056135,34.57793,0,0,0,50.4972,77.94788,-50.56845,-36.03881,-110.6591,-50.37467,0.001067912,-0.1257102,0.09433498,0,0.3,0,0,0.004292943,0,
6.38224E+17,24.73796,81.47304,54.35244,-42.47599,-33.35115,32.96654,-16.98673,-0.4441859,-4.295897,-61.51973,-6.98289,34.57793,0,0,0,53.62049,77.50989,-51.97385,-36.03881,-110.6591,-50.37467,0.001067912,-0.1257102,0.09433498,0,0.3,0,0,0,0,
6.38224E+17,27.94211,80.74831,53.37185,-34.56551,-35.18228,26.08149,-16.98673,-0.4441859,-4.295897,-61.44649,-6.98289,34.57793,0,0,0,60.1916,75.40616,-54.86963,-36.03881,-110.6591,-50.37467,0.001067912,-0.1257102,0.09433498,0,0.3,0,0,0,0,
6.38224E+17,29.92115,79.67291,51.78423,-27.68046,-35.91473,19.04996,-16.98673,-0.4441859,-4.295897,-61.44649,-6.98289,34.57793,0,0,0,64.18489,72.0462,-56.82435,-36.03881,-110.6591,-50.37467,0.001067912,-0.1257102,0.09433498,0,0.3,0,0,0,0,
6.38224E+17,30.48659,78.24685,50.29001,-22.11383,-35.40202,12.53114,-16.98673,-0.4441859,-4.295897,-61.44649,-6.98289,34.57793,0,0,0,65.82561,68.70664,-56.54045,-36.03881,-110.6591,-50.37467,0.001067912,-0.1257102,0.09433498,0,0.3,0,0,0,0,
6.38224E+17,30.46303,77.5455,49.58959,-20.06297,-34.96254,10.18729,-16.98673,-0.4441859,-4.295897,-61.44649,-6.98289,34.57793,0,0,0,66.05688,67.11671,-56.04202,-36.03881,-110.6591,-50.37467,0.001067912,-0.1257102,0.09433498,0,0.3,0,0,0,0,
6.38224E+17,29.94471,75.62849,47.04474,-16.84018,-33.57088,7.184238,-16.98673,-0.4441859,-4.295897,-61.44649,-7.056135,34.50468,0,0,0,65.23853,61.65874,-55.1013,-36.03881,-110.6591,-50.37467,0.001067912,-0.1257102,0.09433498,0,0.3,0,0,0,0,
6.38224E+17,29.02587,72.54256,42.84223,-14.78931,-31.08055,5.93907,-16.98673,-0.4441859,-4.295897,-61.44649,-7.056135,34.57793,0,0,0,63.40663,52.78184,-54.08312,-36.03881,-110.6591,-50.37467,0.001067912,-0.1257102,0.09433498,0,0.3,0,0,0,0,
6.38224E+17,28.67247,70.55542,40.53086,-14.20335,-29.02968,5.572844,-16.98673,-0.4441859,-4.295897,-61.44649,-6.98289,34.57793,0,0,0,62.87807,47.74075,-53.36974,-36.03881,-110.6591,-50.37467,0.001067912,-0.1257102,0.09433498,0,0.3,0,0,0,0,
6.38224E+17,28.27195,66.02005,35.93144,-13.17792,-24.04902,5.133373,-16.98673,-0.4441859,-4.295897,-61.44649,-6.98289,34.57793,0,0,0,62.73481,37.21413,-51.70205,-36.03881,-110.6591,-50.37467,0.001067912,-0.1257102,0.09433498,0,0.3,0,0,0,0,
6.38224E+17,28.27195,62.63021,32.59278,-12.81169,-20.38675,4.840393,-16.98673,-0.4441859,-4.295897,-61.44649,-6.98289,34.57793,0,0,0,63.06089,29.42244,-51.09575,-36.03881,-110.6591,-50.37467,0.001067912,-0.1257102,0.09433498,0,0.3,0,0,0,0,
6.38224E+17,28.27195,58.14159,28.76383,-12.44547,-15.9188,4.474167,-16.98673,-0.4441859,-4.295897,-61.44649,-6.98289,34.57793,0,0,0,63.73205,19.71547,-49.84781,-36.03881,-110.6591,-50.37467,0.001067912,-0.1257102,0.09433498,0,0.3,0,0,0,0,
6.38224E+17,28.34263,55.80377,26.96609,-12.29898,-13.35522,4.327676,-16.98673,-0.4441859,-4.295897,-61.44649,-6.98289,34.57793,0,0,0,64.28777,14.7946,-49.1672,-36.03881,-110.6591,-50.37467,0.001067912,-0.1257102,0.09433498,0,0.3,0,0,0,0,
6.38224E+17,28.79027,51.15151,23.83756,-12.006,-8.008322,4.400921,-16.98673,-0.4441859,-4.295897,-61.44649,-6.98289,34.57793,0,0,0,66.23911,5.229392,-47.81304,-36.03881,-110.6591,-50.37467,0.001067912,-0.1257102,0.09433498,0,0.3,0,0,0,0,
6.38224E+17,29.63843,46.99019,21.57287,-11.71302,-3.247386,4.327676,-16.98673,-0.4441859,-4.295897,-61.44649,-6.98289,34.50468,0,0,0,69.22948,-3.148481,-46.67418,-36.03881,-110.6591,-50.37467,0.001067912,-0.1257102,0.09433498,0,0.3,0,0,0,0,
6.38224E+17,31.09915,43.55359,20.40551,-11.12705,1.147324,4.107941,-16.98673,-0.4441859,-4.295897,-61.44649,-6.98289,34.57793,0,0,0,73.93314,-9.749563,-45.78551,-36.03881,-110.6591,-50.37467,0.001067912,-0.1257102,0.09433498,0,0.3,0,0,0,0,
6.38224E+17,31.99443,42.22104,20.26543,-10.46785,3.051698,4.181186,-16.98673,-0.4441859,-4.295897,-61.44649,-6.98289,34.57793,0,0,0,76.79549,-12.13518,-45.42492,-36.03881,-110.6591,-50.37467,0.001067912,-0.1257102,0.09433498,0,0.3,0,0,0,0,
6.38224E+17,34.39754,39.88321,20.52225,-8.197248,6.494221,4.400921,-16.98673,-0.4441859,-4.295897,-61.44649,-6.98289,34.57793,0,0,0,84.21728,-16.02976,-45.34245,-36.03881,-110.6591,-50.37467,0.001067912,-0.1257102,0.09433498,0,0.3,0,0,0,0,
6.38224E+17,37.22474,37.98958,21.783,-4.608234,9.131048,4.474167,-16.98673,-0.4441859,-4.295897,-61.44649,-6.98289,34.65118,0,0,0,93.51289,-18.39893,-45.26171,-36.03881,-110.6591,-50.37467,0.001067912,-0.1257102,0.09433498,0,0.3,0,0,0,0,
6.38224E+17,40.28753,36.39986,23.81421,0.006211365,10.96218,4.474167,-16.98673,-0.4441859,-4.295897,-61.44649,-6.98289,34.57793,0,0,0,104.2201,-19.51437,-45.40364,-36.03881,-110.6591,-50.37467,0.001067912,-0.1257102,0.09433498,0,0.3,0,0,0,0,
6.38224E+17,41.93673,35.67514,25.26174,2.716283,11.69463,4.254431,-16.98673,-0.4441859,-4.295897,-61.44649,-6.98289,34.57793,0,0,0,110.4266,-19.47921,-45.43612,-36.03881,-110.6591,-50.37467,0.001067912,-0.1257102,0.09433498,0,0.3,0,0,0,0,
6.38224E+17,44.90529,34.78677,28.41362,8.35616,12.06085,3.81496,-16.98673,-0.4441859,-4.295897,-61.51973,-6.98289,34.57793,0,0,0,122.106,-17.85669,-45.83958,-36.03881,-110.6591,-50.37467,0.001067912,-0.1257102,0.09433498,0,0.3,0,0,0,0,
6.38224E+17,47.61468,34.57636,32.26592,14.14253,11.54814,2.862773,-16.98673,-0.4441859,-4.295897,-61.44649,-6.98289,34.57793,0,0,0,133.6808,-13.73135,-46.34543,-36.03881,-110.6591,-50.37467,0.001067912,-0.1257102,0.09433498,0,0.3,0,0,0,0,
6.38224E+17,48.722,34.57636,34.43722,17.07234,10.96218,2.423302,-16.98673,-0.4441859,-4.295897,-61.51973,-6.98289,34.57793,0,0,0,139.1857,-10.95325,-46.16698,-36.03881,-110.6591,-50.37467,0.001067912,-0.1257102,0.09433498,0,0.3,0,0,0,0,
6.38224E+17,50.15916,34.59974,38.77981,23.00519,9.570518,1.178134,-16.98673,-0.4441859,-4.295897,-61.44649,-6.98289,34.57793,0,0,0,148.4106,-4.882691,-44.51957,-36.03881,-110.6591,-50.37467,0.001067912,-0.1257102,0.09433498,0,0.3,0,0,0,0,
6.38224E+17,50.88952,34.99717,43.26248,28.79156,8.03237,-0.5065048,-16.98673,-0.4441859,-4.295897,-61.44649,-6.98289,34.57793,0,0,0,155.6735,2.722663,-41.79028,-36.03881,-110.6591,-50.37467,0.001067912,-0.1257102,0.09433498,0,0.3,0,0,0,0,
6.38224E+17,51.078,36.56351,47.72181,35.09065,5.981505,-1.898163,-16.98673,-0.4441859,-4.295897,-61.44649,-6.98289,34.57793,0,0,0,160.0897,13.07972,-39.07237,-36.03881,-110.6591,-50.37467,0.001067912,-0.1257102,0.09433498,0,0.3,0,0,0,0,
6.38224E+17,50.98376,37.91945,49.65963,38.45993,4.663092,-2.557369,-16.98673,-0.4441859,-4.295897,-61.44649,-6.98289,34.57793,0,0,0,160.7061,18.97959,-38.13732,-36.03881,-110.6591,-50.37467,0.001067912,-0.1257102,0.09433498,0,0.3,0,0,0,0,
6.38224E+17,50.86596,38.94809,51.06047,40.43755,3.564415,-3.070086,-16.98673,-0.4441859,-4.295897,-61.51973,-7.056135,34.57793,0,0,0,160.897,23.36549,-37.43371,-36.03881,-110.6591,-50.37467,0.001067912,-0.1257102,0.09433498,0,0.3,0,0,0,0,
6.38224E+17,50.30051,41.33266,54.189,43.95331,1.147324,-4.168763,-16.98673,-0.4441859,-4.295897,-61.44649,-6.98289,34.57793,0,0,0,160.245,33.39346,-35.31446,-36.03881,-110.6591,-50.37467,0.001067912,-0.1257102,0.09433498,0,0.3,0,0,0,0,
6.38224E+17,49.24032,44.18481,57.36423,47.39584,-2.075463,-5.120951,-16.98673,-0.4441859,-4.295897,-61.44649,-6.98289,34.57793,0,0,0,157.4906,44.37641,-32.60103,-36.03881,-110.6591,-50.37467,0.001067912,-0.1257102,0.09433498,0,0.3,0,0,0,0,
6.38224E+17,47.63824,47.10708,60.04917,50.47213,-5.957458,-5.853402,-16.98673,-0.4441859,-4.295897,-61.44649,-6.98289,34.57793,0,0,0,152.4389,54.46994,-29.34062,-36.03881,-110.6591,-50.37467,0.001067912,-0.1257102,0.09433498,0,0.3,0,0,0,0,
6.38224E+17,46.7194,48.39288,61.02975,51.79055,-7.861832,-6.219628,-16.98673,-0.4441859,-4.295897,-61.44649,-6.98289,34.57793,0,0,0,149.3947,58.46908,-27.66308,-36.03881,-110.6591,-50.37467,0.001067912,-0.1257102,0.09433498,0,0.3,0,0,0,0,
6.38224E+17,44.17493,50.9411,62.54733,53.91465,-12.1833,-6.659099,-16.98673,-0.4441859,-4.295897,-61.44649,-6.98289,34.57793,0,0,0,141.0149,65.41964,-23.2142,-36.03881,-110.6591,-50.37467,0.001067912,-0.1257102,0.09433498,0,0.3,0,0,0,0,
6.38224E+17,40.90009,53.41919,63.08431,54.7936,-17.23721,-6.732344,-16.98673,-0.4441859,-4.295897,-61.44649,-6.98289,34.57793,0,0,0,129.8847,70.06761,-18.40748,-36.03881,-110.6591,-50.37467,0.001067912,-0.1257102,0.09433498,0,0.3,0,0,0,0,
6.38224E+17,39.2509,54.44784,63.06097,54.57386,-19.72755,-6.585854,-16.98673,-0.4441859,-4.295897,-61.44649,-6.98289,34.57793,0,0,0,124.2756,71.42858,-16.24913,-36.03881,-110.6591,-50.37467,0.001067912,-0.1257102,0.09433498,0,0.3,0,0,0,0,
6.38224E+17,35.50486,55.94404,63.06097,52.81598,-25.29418,-5.999893,-16.98673,-0.4441859,-4.295897,-61.44649,-6.98289,34.57793,0,0,0,112.4121,73.4161,-10.78228,-36.03881,-110.6591,-50.37467,0.001067912,-0.1257102,0.09433498,0,0.3,0,0,0,0,
6.38224E+17,31.78239,56.59863,62.96758,50.03266,-30.56783,-2.99684,-16.98673,-0.4441859,-4.295897,-61.44649,-6.98289,34.57793,0,0,0,101.2258,74.06834,-4.977396,-36.03881,-110.6591,-50.37467,0.001067912,-0.1257102,0.09433498,0,0.3,0,0,0,0,
6.38224E+17,30.10963,56.64539,62.87419,48.27478,-32.98492,-0.7994855,-16.98673,-0.4441859,-4.295897,-61.44649,-6.98289,34.57793,0,0,0,96.31843,73.93468,-2.25634,-36.03881,-110.6591,-50.37467,0.001067912,-0.1257102,0.09433498,0,0.3,0,0,0,0,
6.38224E+17,26.3636,56.29471,62.24381,41.53622,-39.28401,7.623709,-16.98673,-0.4441859,-4.295897,-61.44649,-6.98289,34.57793,0,0,0,85.26295,72.18181,3.685464,-36.03881,-110.6591,-50.37467,0.001067912,-0.1257102,0.09433498,0,0.3,0,0,0,0,
6.38224E+17,25.91596,56.01418,62.01034,39.85158,-40.30944,9.894309,-16.98673,-0.4441859,-4.295897,-61.44649,-6.98289,34.57793,0,0,0,84.04226,71.33781,4.605603,-36.03881,-110.6591,-50.37467,0.001067912,-0.1257102,0.09433498,0,0.3,0,0,0,0,
6.38224E+17,25.75104,55.10242,61.33327,37.06827,-41.7011,14.14253,-16.98673,-0.4441859,-4.295897,-61.44649,-6.98289,34.57793,0,0,0,83.97952,68.7506,5.74951,-36.03881,-110.6591,-50.37467,0.001067912,-0.1257102,0.09433498,0,0.3,0,0,0,0,
6.38224E+17,26.3636,53.93351,60.11921,35.74985,-41.40812,16.92585,-16.98673,-0.4441859,-4.295897,-61.44649,-6.98289,34.57793,0,0,0,86.2062,64.70681,5.588666,-36.03881,-110.6591,-50.37467,0.001067912,-0.1257102,0.09433498,0,0.3,0,0,0,0,
6.38224E+17,26.83479,53.25555,59.48883,35.38363,-40.67567,17.73154,-16.98673,-0.4441859,-4.295897,-61.44649,-6.98289,34.57793,0,0,0,87.87391,62.50229,5.348579,-36.03881,-110.6591,-50.37467,0.001067912,-0.1257102,0.09433498,0,0.3,0,0,0,0,
6.38224E+17,28.13059,51.45543,58.15804,34.72442,-38.47831,18.83022,-16.98673,-0.4441859,-4.295897,-61.44649,-6.98289,34.57793,0,0,0,92.58753,57.29365,4.828418,-36.03881,-110.6591,-50.37467,0.001067912,-0.1257102,0.09433498,0,0.3,0,0,0,0,
6.38224E+17,29.80335,49.25787,56.99068,34.65118,-35.62175,19.34294,-16.98673,-0.4441859,-4.295897,-61.44649,-6.98289,34.57793,0,0,0,98.83661,51.73744,4.205046,-36.03881,-110.6591,-50.37467,0.001067912,-0.1257102,0.09433498,0,0.3,0,0,0,0,
6.38224E+17,31.61747,46.70965,55.61319,34.87091,-32.47221,19.41618,-16.98673,-0.4441859,-4.295897,-61.44649,-6.98289,34.57793,0,0,0,105.627,45.10088,3.226944,-36.03881,-110.6591,-50.37467,0.001067912,-0.1257102,0.09433498,0,0.3,0,0,0,0,
6.38224E+17,32.60699,45.14331,54.91277,34.94416,-30.64108,19.19645,-16.98673,-0.4441859,-4.295897,-61.51973,-6.98289,34.57793,0,0,0,109.485,41.22561,2.800988,-36.03881,-110.6591,-50.37467,0.001067912,-0.1257102,0.09433498,0,0.3,0,0,0,0,
6.38224E+17,34.72738,41.26253,54.16566,35.16389,-26.31961,17.6583,-16.98673,-0.4441859,-4.295897,-61.44649,-6.98289,34.57793,0,0,0,118.6896,33.22676,2.884701,-36.03881,-110.6591,-50.37467,0.001067912,-0.1257102,0.09433498,0,0.3,0,0,0,0,
6.38224E+17,36.0703,37.94283,53.95553,35.74985,-23.02358,15.75392,-16.98673,-0.4441859,-4.295897,-61.44649,-6.98289,34.57793,0,0,0,125.4006,26.87868,3.804475,-36.03881,-110.6591,-50.37467,0.001067912,-0.1257102,0.09433498,0,0.3,0,0,0,0,
6.38224E+17,36.75354,35.97906,53.93219,36.18932,-21.04596,14.582,-16.98673,-0.4441859,-4.295897,-61.44649,-6.98289,34.57793,0,0,0,129.0697,23.18292,4.47298,-36.03881,-110.6591,-50.37467,0.001067912,-0.1257102,0.09433498,0,0.3,0,0,0,0,
6.38224E+17,37.8373,32.00476,53.88549,37.14151,-17.38371,12.45789,-16.98673,-0.4441859,-4.295897,-61.44649,-6.98289,34.57793,0,0,0,135.4476,15.42751,6.033538,-36.03881,-110.6591,-50.37467,0.001067912,-0.1257102,0.09433498,0,0.3,0,0,0,0,
6.38224E+17,38.59122,28.03047,53.90884,37.87396,-13.72145,10.0408,-16.98673,-0.4441859,-4.295897,-61.44649,-6.98289,34.57793,0,0,0,140.6362,7.463913,7.877329,-36.03881,-110.6591,-50.37467,0.001067912,-0.1257102,0.09433498,0,0.3,0,0,0,0,
6.38224E+17,39.03886,24.47698,54.14231,38.24019,-10.35217,7.477218,-16.98673,-0.4441859,-4.295897,-61.44649,-6.98289,34.57793,0,0,0,144.5136,0.4876161,9.862202,-36.03881,-110.6591,-50.37467,0.001067912,-0.1257102,0.09433498,0,0.3,0,0,0,0,
6.38224E+17,39.34513,21.60146,54.46917,38.31343,-7.568851,5.499599,-16.98673,-0.4441859,-4.295897,-61.44649,-6.98289,34.57793,0,0,0,147.4059,-5.052575,11.45571,-36.03881,-110.6591,-50.37467,0.001067912,-0.1257102,0.09433498,0,0.3,0,0,0,0,
6.38224E+17,39.43937,20.36242,54.88942,38.24019,-6.470173,4.767147,-16.98673,-0.4441859,-4.295897,-61.44649,-6.98289,34.57793,0,0,0,148.7167,-6.947009,12.44719,-36.03881,-110.6591,-50.37467,0.001067912,-0.1257102,0.09433498,0,0.3,0,0,0,0,
6.38224E+17,39.46294,18.32851,55.96339,38.16694,-4.639044,3.741715,-16.98673,-0.4441859,-4.295897,-61.44649,-6.98289,34.57793,0,0,0,150.6891,-9.355097,14.69163,-36.03881,-110.6591,-50.37467,0.001067912,-0.1257102,0.09433498,0,0.3,0,0,0,0,
6.38224E+17,39.36869,17.11284,56.99068,38.16694,-3.320631,2.789528,-16.98673,-0.4441859,-4.295897,-61.44649,-6.98289,34.57793,0,0,0,151.7716,-10.05697,16.62577,-36.03881,-110.6591,-50.37467,0.001067912,-0.1257102,0.09433498,0,0.3,0,0,0,0,
6.38224E+17,39.13309,16.71542,57.66774,37.94721,-2.88116,2.057076,-16.98673,-0.4441859,-4.295897,-61.44649,-6.98289,34.57793,0,0,0,151.7164,-9.615438,18.11685,-36.03881,-110.6591,-50.37467,0.001067912,-0.1257102,0.09433498,0,0.3,0,0,0,0,
6.38224E+17,38.87394,16.69204,57.85452,37.87396,-3.027651,1.54436,-16.98673,-0.4441859,-4.295897,-61.44649,-6.98289,34.57793,0,0,0,151.0268,-9.299864,18.9939,-36.03881,-110.6591,-50.37467,0.001067912,-0.1257102,0.09433498,0,0.3,0,0,0,0,
6.38224E+17,38.04934,16.69204,57.92457,37.43449,-3.467122,0.8119082,-16.98673,-0.4441859,-4.295897,-61.44649,-6.98289,34.57793,0,0,0,148.3684,-9.161786,21.21623,-36.03881,-110.6591,-50.37467,0.001067912,-0.1257102,0.09433498,0,0.3,0,0,0,0,
6.38224E+17,37.0127,16.6219,57.85452,36.84853,-3.760103,0.5921727,-16.98673,-0.4441859,-4.295897,-61.44649,-6.98289,34.57793,0,0,0,144.8905,-9.456245,23.83762,-36.03881,-110.6591,-50.37467,0.001067912,-0.1257102,0.09433498,0,0.3,0,0,0,0,
6.38224E+17,36.35302,16.59852,57.71444,36.55555,-3.906592,0.5921727,-16.98673,-0.4441859,-4.295897,-61.44649,-6.98289,34.57793,0,0,0,142.5744,-9.784223,25.36559,-36.03881,-110.6591,-50.37467,0.001067912,-0.1257102,0.09433498,0,0.3,0,0,0,0,
6.38224E+17,34.82162,16.57515,56.99068,36.04284,-3.906592,0.6654179,-16.98673,-0.4441859,-4.295897,-61.44649,-6.98289,34.57793,0,0,0,136.8365,-11.25471,28.37342,-36.03881,-110.6591,-50.37467,0.001067912,-0.1257102,0.09433498,0,0.3,0,0,0,0,
6.38224E+17,32.72478,16.48163,55.33302,35.09065,-3.906592,0.738663,-16.98673,-0.4441859,-4.295897,-61.44649,-6.98289,34.57793,0,0,0,128.4191,-14.66777,31.49315,-36.03881,-110.6591,-50.37467,0.001067912,-0.1257102,0.09433498,0,0.3,0,0,0,0,
6.38224E+17,29.37927,16.03745,52.9516,32.45382,-3.833347,1.251379,-16.98673,-0.4441859,-4.295897,-61.44649,-6.98289,34.57793,0,0,0,115.0874,-20.15196,36.07006,-36.03881,-110.6591,-50.37467,0.001067912,-0.1257102,0.09433498,0,0.3,0,0,0,0,
6.38224E+17,26.64632,15.68677,51.55077,29.817,-3.760103,1.983831,-16.98673,-0.4441859,-4.295897,-61.44649,-6.98289,34.57793,0,0,0,104.4144,-23.5149,39.74048,-36.03881,-110.6591,-50.37467,0.001067912,-0.1257102,0.09433498,0,0.3,0,0,0,0,
6.38224E+17,24.62016,15.5465,50.64022,27.76613,-3.686857,2.643037,-16.98673,-0.4441859,-4.295897,-61.44649,-6.98289,34.57793,0,0,0,96.47412,-25.47844,42.17202,-36.03881,-110.6591,-50.37467,0.001067912,-0.1257102,0.09433498,0,0.3,0,0,0,0,
6.38224E+17,20.37937,15.42961,48.95922,23.6644,-3.540367,5.133373,-16.98673,-0.4441859,-4.295897,-61.44649,-6.98289,34.57793,0,0,0,79.78819,-28.72873,46.43069,-36.03881,-110.6591,-50.37467,0.001067912,-0.1257102,0.09433498,0,0.3,0,0,0,0,
6.38224E+17,15.31397,15.40624,47.67512,18.24426,-2.88116,9.088613,-16.98673,-0.4441859,-4.295897,-61.44649,-6.98289,34.57793,0,0,0,59.99196,-31.01315,50.73371,-36.03881,-110.6591,-50.37467,0.001067912,-0.1257102,0.09433498,0,0.3,0,0,0,0,
6.38224E+17,12.39254,15.40624,47.39495,14.72849,-2.514934,11.79868,-16.98673,-0.4441859,-4.295897,-61.44649,-6.98289,34.57793,0,0,0,48.65357,-31.49416,53.07659,-36.03881,-110.6591,-50.37467,0.001067912,-0.1257102,0.09433498,0,0.3,0,0,0,0,
6.38224E+17,7.115108,15.40624,47.3716,7.550464,-1.928973,16.92585,-16.98673,-0.4441859,-4.295897,-61.44649,-6.98289,34.57793,0,0,0,28.07631,-31.53415,56.57653,-36.03881,-110.6591,-50.37467,0.001067912,-0.1257102,0.09433498,0,0.3,0,0,0,0,
6.38224E+17,1.366478,15.40624,48.16541,-1.751673,-1.562747,22.34599,-16.98673,-0.4441859,-4.295897,-61.44649,-6.98289,34.57793,0,0,0,5.435123,-30.1662,59.499,-36.03881,-110.6591,-50.37467,0.001067912,-0.1257102,0.09433498,0,0.3,0,0,0,0,
6.38224E+17,-3.910954,15.56988,50.71026,-12.88494,-1.343012,26.96043,-16.98673,-0.4441859,-4.295897,-61.44649,-6.98289,34.57793,0,0,0,-15.80083,-25.29992,62.77379,-36.03881,-110.6591,-50.37467,0.001067912,-0.1257102,0.09433498,0,0.3,0,0,0,0,
6.38224E+17,-7.044428,15.96731,53.51193,-22.26032,-1.416257,30.32971,-16.98673,-0.4441859,-4.295897,-61.44649,-6.98289,34.57793,0,0,0,-28.87117,-19.26418,65.28896,-36.03881,-110.6591,-50.37467,0.001067912,-0.1257102,0.09433498,0,0.3,0,0,0,0,
6.38224E+17,-8.976345,16.66866,56.19687,-31.04974,-1.635992,33.18628,-16.98673,-0.4441859,-4.295897,-61.44649,-6.98289,34.57793,0,0,0,-37.22083,-12.58842,67.28268,-36.03881,-110.6591,-50.37467,0.001067912,-0.1257102,0.09433498,0,0.3,0,0,0,0,
6.38224E+17,-10.10722,19.05324,59.55888,-42.54923,-2.221954,37.21476,-16.98673,-0.4441859,-4.295897,-61.44649,-6.98289,34.57793,0,0,0,-42.29544,-0.680496,68.92199,-36.03881,-110.6591,-50.37467,0.001067912,-0.1257102,0.09433498,0,0.3,0,0,0,0,
6.38224E+17,-9.989424,21.1339,60.98306,-47.23692,-2.73467,39.70509,-16.98673,-0.4441859,-4.295897,-61.44649,-6.98289,34.57793,0,0,0,-41.80407,6.745318,68.98885,-36.03881,-110.6591,-50.37467,0.001067912,-0.1257102,0.09433498,0,0.3,0,0,0,0,
6.38224E+17,-8.104627,29.45654,65.97938,-56.31932,-6.250438,48.64101,-16.98673,-0.4441859,-4.295897,-61.44649,-6.98289,34.57793,0,0,0,-33.54132,34.64444,67.18725,-36.03881,-110.6591,-50.37467,0.001067912,-0.1257102,0.09433498,0,0.3,0,0,0,0,
6.38224E+17,-7.209348,32.12165,67.80046,-58.22369,-8.081567,51.64405,-16.98673,-0.4441859,-4.295897,-61.44649,-6.98289,34.57793,0,0,0,-29.66731,43.8706,66.18323,-36.03881,-110.6591,-50.37467,0.001067912,-0.1257102,0.09433498,0,0.3,0,0,0,0,
6.38224E+17,-5.088952,36.91418,71.86288,-61.81271,-12.98899,58.23612,-16.98673,-0.4441859,-4.295897,-61.44649,-6.98289,34.57793,0,0,0,-20.698,61.93163,64.07275,-36.03881,-110.6591,-50.37467,0.001067912,-0.1257102,0.09433498,0,0.3,0,0,0,0,
6.38224E+17,-2.568036,40.46767,74.78129,-64.74252,-18.26265,64.38871,-16.98673,-0.4441859,-4.295897,-61.44649,-6.98289,34.57793,0,0,0,-10.31079,74.89172,61.54141,-36.03881,-110.6591,-50.37467,0.001067912,-0.1257102,0.09433498,0,0.3,0,0,0,0,
6.38224E+17,-1.083758,42.10415,75.83192,-65.62146,-21.11921,67.09879,-16.98673,-0.4441859,-4.295897,-61.44649,-6.98289,34.57793,0,0,0,-4.316742,80.11883,59.83892,-36.03881,-110.6591,-50.37467,0.001067912,-0.1257102,0.09433498,0,0.3,0,0,0,0,
6.38224E+17,2.143956,45.2602,76.74246,-65.0355,-27.19856,71.347,-16.98673,-0.4441859,-4.295897,-61.44649,-6.98289,34.57793,0,0,0,8.367188,87.48898,55.15304,-36.03881,-110.6591,-50.37467,0.001067912,-0.1257102,0.09433498,0,0.3,0,0,0,0,
6.38224E+17,5.183192,47.80843,75.92531,-61.44649,-33.13141,73.17814,-16.98673,-0.4441859,-4.295897,-61.44649,-6.98289,34.57793,0,0,0,19.77608,89.72054,49.66106,-36.03881,-110.6591,-50.37467,0.001067912,-0.1257102,0.09433498,0,0.3,0,0,0,0,
6.38224E+17,7.586308,49.84233,73.38046,-55.22065,-37.30639,71.05402,-16.98673,-0.4441859,-4.295897,-61.44649,-6.98289,34.57793,0,0,0,28.22258,87.12563,43.55467,-36.03881,-110.6591,-50.37467,0.001067912,-0.1257102,0.09433498,0,0.3,0,0,0,0,
6.38224E+17,8.717185,50.75408,71.34924,-50.82594,-38.6248,68.12422,-16.98673,-0.4441859,-4.295897,-61.44649,-6.98289,34.57793,0,0,0,31.9348,83.9761,39.92706,-36.03881,-110.6591,-50.37467,0.001067912,-0.1257102,0.09433498,0,0.3,0,0,0,0,
6.38224E+17,10.55486,51.75934,65.83929,-41.45055,-39.06427,59.55453,-16.98673,-0.4441859,-4.295897,-61.44649,-6.98289,34.57793,0,0,0,37.40615,73.50565,32.40257,-36.03881,-110.6591,-50.37467,0.001067912,-0.1257102,0.09433498,0,0.3,0,0,0,0,
6.38224E+17,11.16742,51.12813,59.58222,-33.75981,-36.57394,50.32565,-16.98673,-0.4441859,-4.295897,-61.44649,-6.98289,34.57793,0,0,0,38.48027,59.65454,26.57119,-36.03881,-110.6591,-50.37467,0.001067912,-0.1257102,0.09433498,0,0.3,0,0,0,0,
6.38224E+17,11.09674,50.09949,56.31361,-30.75676,-34.30334,45.7112,-16.98673,-0.4441859,-4.295897,-61.44649,-6.98289,34.57793,0,0,0,37.819,51.68855,24.47309,-36.03881,-110.6591,-50.37467,0.001067912,-0.1257102,0.09433498,0,0.3,0,0,0,0,
6.38224E+17,10.46062,46.96681,49.68298,-27.24099,-28.44372,37.288,-16.98673,-0.4441859,-4.295897,-61.44649,-6.98289,34.57793,0,0,0,34.98241,34.5437,21.12485,-36.03881,-110.6591,-50.37467,0.001067912,-0.1257102,0.09433498,0,0.3,0,0,0,0,
6.38224E+17,9.235504,42.33792,43.82282,-25.99582,-21.19245,29.817,-16.98673,-0.4441859,-4.295897,-61.44649,-6.98289,34.57793,0,0,0,30.63905,16.95152,20.08128,-36.03881,-110.6591,-50.37467,0.001067912,-0.1257102,0.09433498,0,0.3,0,0,0,0,
6.38224E+17,8.622946,36.91418,40.22734,-26.36205,-13.20873,23.29818,-16.98673,-0.4441859,-4.295897,-61.44649,-6.98289,34.57793,0,0,0,28.89754,1.631312,22.20986,-36.03881,-110.6591,-50.37467,0.001067912,-0.1257102,0.09433498,0,0.3,0,0,0,0,
6.38224E+17,8.811425,32.42557,37.72918,-26.80152,-5.810967,18.97671,-16.98673,-0.4441859,-4.295897,-61.44649,-6.98289,34.57793,0,0,0,29.742,-10.61537,23.51859,-36.03881,-110.6591,-50.37467,0.001067912,-0.1257102,0.09433498,0,0.3,0,0,0,0,
6.38224E+17,9.094145,30.60207,36.51513,-26.94801,-2.441689,17.07234,-16.98673,-0.4441859,-4.295897,-61.44649,-6.98289,34.57793,0,0,0,30.68291,-15.93856,23.33525,-36.03881,-110.6591,-50.37467,0.001067912,-0.1257102,0.09433498,0,0.3,0,0,0,0,
6.38224E+17,10.60198,27.70317,34.50726,-27.0945,3.417924,12.45789,-16.98673,-0.4441859,-4.295897,-61.44649,-6.98289,34.57793,0,0,0,35.62104,-24.54444,21.95292,-36.03881,-110.6591,-50.37467,0.001067912,-0.1257102,0.09433498,0,0.3,0,0,0,0,
6.38224E+17,13.49986,25.55238,33.40994,-26.14231,7.959125,7.696954,-16.98673,-0.4441859,-4.295897,-61.44649,-6.98289,34.57793,0,0,0,45.22563,-30.44557,20.03038,-36.03881,-110.6591,-50.37467,0.001067912,-0.1257102,0.09433498,0,0.3,0,0,0,0,
6.38224E+17,15.52601,24.94454,33.24651,-24.89715,9.643764,5.865825,-16.98673,-0.4441859,-4.295897,-61.44649,-6.98289,34.57793,0,0,0,51.93414,-31.93408,18.5888,-36.03881,-110.6591,-50.37467,0.001067912,-0.1257102,0.09433498,0,0.3,0,0,0,0,
6.38224E+17,20.49717,24.64063,33.71345,-20.06297,12.1341,3.009263,-16.98673,-0.4441859,-4.295897,-61.44649,-6.98289,34.57793,0,0,0,68.35907,-31.97671,14.51221,-36.03881,-110.6591,-50.37467,0.001067912,-0.1257102,0.09433498,0,0.3,0,0,0,0,
6.38224E+17,25.91596,24.92117,36.11822,-12.6652,12.64682,0.3724372,-16.98673,-0.4441859,-4.295897,-61.44649,-6.98289,34.57793,0,0,0,87.20818,-28.18066,11.12093,-36.03881,-110.6591,-50.37467,0.001067912,-0.1257102,0.09433498,0,0.3,0,0,0,0,
6.38224E+17,28.41331,25.10819,37.89261,-8.197248,12.50033,-0.7262403,-16.98673,-0.4441859,-4.295897,-61.44649,-7.056135,34.57793,0,0,0,96.42708,-25.30067,9.889153,-36.03881,-110.6591,-50.37467,0.001067912,-0.1257102,0.09433498,0,0.3,0,0,0,0,
6.38224E+17,32.74835,25.7394,42.42198,0.9583986,11.3284,-2.99684,-16.98673,-0.4441859,-4.295897,-61.44649,-7.056135,34.57793,0,0,0,113.64,-17.17746,8.334401,-36.03881,-110.6591,-50.37467,0.001067912,-0.1257102,0.09433498,0,0.3,0,0,0,0,
6.38224E+17,36.14098,26.32386,48.02533,9.454838,9.131048,-5.487176,-16.98673,-0.4441859,-4.295897,-61.44649,-6.98289,34.57793,0,0,0,128.9598,-6.70144,8.232591,-36.03881,-110.6591,-50.37467,0.001067912,-0.1257102,0.09433498,0,0.3,0,0,0,0,
6.38224E+17,38.5441,26.74467,55.33302,18.09777,6.347731,-8.929699,-16.98673,-0.4441859,-4.295897,-61.44649,-6.98289,34.57793,0,0,0,142.5448,7.509307,10.57055,-36.03881,-110.6591,-50.37467,0.001067912,-0.1257102,0.09433498,0,0.3,0,0,0,0,
6.38224E+17,39.7221,27.44601,64.36842,27.54639,2.905208,-13.17792,-16.98673,-0.4441859,-4.295897,-61.44649,-6.98289,34.57793,0,0,0,152.4606,27.12777,15.14568,-36.03881,-110.6591,-50.37467,0.001067912,-0.1257102,0.09433498,0,0.3,0,0,0,0,
6.38224E+17,39.76921,27.79668,67.73042,31.06216,1.51355,-14.78931,-16.98673,-0.4441859,-4.295897,-61.44649,-6.98289,34.57793,0,0,0,154.4011,35.00086,17.17054,-36.03881,-110.6591,-50.37467,0.001067912,-0.1257102,0.09433498,0,0.3,0,0,0,0,
6.38224E+17,39.13309,28.89546,75.69183,39.70509,-1.928973,-18.96429,-16.98673,-0.4441859,-4.295897,-61.44649,-6.98289,34.50468,0,0,0,155.2324,54.83072,22.43818,-36.03881,-110.6591,-50.37467,0.001067912,-0.1257102,0.09433498,0,0.3,0,0,0,0,
6.38224E+17,37.41322,30.71896,81.43526,47.90855,-5.298251,-22.91953,-16.98673,-0.4441859,-4.295897,-61.44649,-6.98289,34.57793,0,0,0,149.7643,71.60945,27.43999,-36.03881,-110.6591,-50.37467,0.001067912,-0.1257102,0.09433498,0,0.3,0,0,0,0,
6.38224E+17,34.82162,33.54772,84.86732,55.52605,-8.594284,-26.06907,-16.98673,-0.4441859,-4.295897,-61.44649,-6.98289,34.57793,0,0,0,139.3027,85.11356,31.91895,-36.03881,-110.6591,-50.37467,0.001067912,-0.1257102,0.09433498,0,0.3,0,0,0,0,
6.38224E+17,33.19599,35.16082,85.89459,59.04182,-10.35217,-27.16775,-16.98673,-0.4441859,-4.295897,-61.44649,-7.056135,34.57793,0,0,0,132.5107,90.59597,34.17854,-36.03881,-110.6591,-50.37467,0.001067912,-0.1257102,0.09433498,0,0.3,0,0,0,0,
6.38224E+17,29.85047,37.91945,87.0386,64.97468,-13.79469,-28.41291,-16.98673,-0.4441859,-4.295897,-61.44649,-6.98289,34.57793,0,0,0,118.6451,98.41137,38.3935,-36.03881,-110.6591,-50.37467,0.001067912,-0.1257102,0.09433498,0,0.3,0,0,0,0,
6.38224E+17,26.34004,40.28064,87.29543,70.02859,-17.45695,-28.92563,-16.98673,-0.4441859,-4.295897,-61.44649,-6.98289,34.57793,0,0,0,104.2389,103.2728,42.19094,-36.03881,-110.6591,-50.37467,0.001067912,-0.1257102,0.09433498,0,0.3,0,0,0,0,
6.38224E+17,24.38456,41.35604,87.29543,72.29919,-19.43457,-29.07212,-16.98673,-0.4441859,-4.295897,-61.51973,-6.98289,34.57793,0,0,0,96.31852,105.1669,44.13519,-36.03881,-110.6591,-50.37467,0.001067912,-0.1257102,0.09433498,0,0.3,0,0,0,0,
6.38224E+17,20.26157,42.85225,87.29543,77.06013,-24.04902,-29.29186,-16.98673,-0.4441859,-4.295897,-61.44649,-6.98289,34.57793,0,0,0,79.98352,107.7504,48.32011,-36.03881,-110.6591,-50.37467,0.001067912,-0.1257102,0.09433498,0,0.3,0,0,0,0,
6.38224E+17,17.19877,43.31981,87.24873,80.50266,-27.71127,-29.3651,-16.98673,-0.4441859,-4.295897,-61.44649,-6.98289,34.57793,0,0,0,68.07117,108.4366,51.56911,-36.03881,-110.6591,-50.37467,0.001067912,-0.1257102,0.09433498,0,0.3,0,0,0,0,
6.38224E+17,15.45534,43.48346,86.96857,82.18729,-29.76214,-29.43835,-16.98673,-0.4441859,-4.295897,-61.44649,-6.98289,34.57793,0,0,0,61.27033,108.0621,53.25437,-36.03881,-110.6591,-50.37467,0.001067912,-0.1257102,0.09433498,0,0.3,0,0,0,0,
6.38224E+17,12.15694,43.99778,85.63777,84.53114,-34.52307,-29.58484,-16.98673,-0.4441859,-4.295897,-61.44649,-6.98289,34.57793,0,0,0,48.20225,105.8361,55.40824,-36.03881,-110.6591,-50.37467,0.001067912,-0.1257102,0.09433498,0,0.3,0,0,0,0,
6.38224E+17,8.764306,44.65237,84.54045,84.9706,-40.30944,-29.51159,-16.98673,-0.4441859,-4.295897,-61.44649,-6.98289,34.50468,0,0,0,34.68069,104.3815,56.60046,-36.03881,-110.6591,-50.37467,0.001067912,-0.1257102,0.09433498,0,0.3,0,0,0,0,
6.38224E+17,5.536591,44.97966,84.23694,87.97366,-46.82826,-31.41597,-16.98673,-0.4441859,-4.295897,-61.44649,-6.98289,34.57793,0,0,0,21.90149,104.2189,57.59314,-36.03881,-110.6591,-50.37467,0.001067912,-0.1257102,0.09433498,0,0.3,0,0,0,0,
6.38224E+17,2.096837,45.00304,83.06957,116.6125,-58.32775,-57.05178,-16.98673,-0.4441859,-4.295897,-61.44649,-6.98289,34.57793,0,0,0,8.29328,101.5571,58.16158,-36.03881,-110.6591,-50.37467,0.001067912,-0.1257102,0.09433498,0,0.3,0,0,0,0,
6.38224E+17,1.979037,45.00304,82.95284,117.5647,-60.01239,-61.66622,-16.98673,-0.4441859,-4.295897,-61.44649,-6.98289,34.57793,0,0,0,7.826414,101.2875,58.14511,-36.03881,-110.6591,-50.37467,0.001067912,-0.1257102,0.09433498,0,0.3,0,0,0,0,
6.38224E+17,1.931917,44.97966,82.81275,117.7112,-61.84352,-66.64689,-16.98673,-0.4441859,-4.295897,-61.44649,-6.98289,34.57793,0,0,0,7.640077,100.9255,58.14955,-36.03881,-110.6591,-50.37467,0.001067912,-0.1257102,0.09433498,0,0.3,0,0,0,0,
6.38224E+17,1.908357,45.00304,82.76605,117.4915,-62.64922,-68.62451,-16.98673,-0.4441859,-4.295897,-61.44649,-6.98289,34.57793,0,0,0,7.545205,100.8561,58.10059,-36.03881,-110.6591,-50.37467,0.001067912,-0.1257102,0.09433498,0,0.3,0,0,0,0,
6.38224E+17,1.908357,45.09655,82.74271,117.052,-62.9422,-68.91749,-16.98673,-0.4441859,-4.295897,-61.44649,-6.98289,34.57793,0,0,0,7.539847,100.956,57.9398,-36.03881,-110.6591,-50.37467,0.001067912,-0.1257102,0.09433498,0,0.3,0,0,0,0,
6.38224E+17,1.908357,45.44723,82.46254,114.3419,-63.08869,-67.74557,-16.98673,-0.4441859,-4.295897,-61.44649,-6.98289,34.57793,0,0,0,7.517743,100.8837,57.27637,-36.03881,-110.6591,-50.37467,0.001067912,-0.1257102,0.09433498,0,0.3,0,0,0,0,
6.38224E+17,2.096837,45.65763,82.01895,107.5301,-63.23518,-62.47192,-16.98673,-0.4441859,-4.295897,-61.44649,-6.98289,34.57793,0,0,0,8.242028,100.2037,56.76177,-36.03881,-110.6591,-50.37467,0.001067912,-0.1257102,0.09433498,0,0.3,0,0,0,0,
6.38224E+17,2.261756,45.72776,81.71543,102.7692,-63.23518,-58.22369,-16.98673,-0.4441859,-4.295897,-61.44649,-6.98289,34.57793,0,0,0,8.881399,99.61839,56.52054,-36.03881,-110.6591,-50.37467,0.001067912,-0.1257102,0.09433498,0,0.3,0,0,0,0,
6.38224E+17,2.803635,45.89141,80.99167,91.63592,-63.23518,-46.28474,-16.98673,-0.4441859,-4.295897,-61.44649,-6.98289,34.57793,0,0,0,10.98196,98.21854,55.90078,-36.03881,-110.6591,-50.37467,0.001067912,-0.1257102,0.09433498,0,0.3,0,0,0,0,
6.38224E+17,3.887394,46.24208,79.91769,80.50266,-62.20975,-31.34272,-16.98673,-0.4441859,-4.295897,-61.44649,-6.98289,34.57793,0,0,0,15.15353,96.31988,54.65302,-36.03881,-110.6591,-50.37467,0.001067912,-0.1257102,0.09433498,0,0.3,0,0,0,0,
6.38224E+17,5.513031,47.0837,78.84372,72.07946,-59.13345,-17.27965,-16.98673,-0.4441859,-4.295897,-61.44649,-6.98289,34.57793,0,0,0,21.29266,95.20744,52.25682,-36.03881,-110.6591,-50.37467,0.001067912,-0.1257102,0.09433498,0,0.3,0,0,0,0,
6.38224E+17,6.785269,47.73829,78.47016,70.54131,-56.71636,-12.15249,-16.98673,-0.4441859,-4.295897,-61.44649,-6.98289,34.57793,0,0,0,26.0328,95.38599,50.44611,-36.03881,-110.6591,-50.37467,0.001067912,-0.1257102,0.09433498,0,0.3,0,0,0,0,
6.38224E+17,7.751227,48.18248,78.1433,70.61456,-55.03172,-10.17487,-16.98673,-0.4441859,-4.295897,-61.44649,-6.98289,34.57793,0,0,0,29.5933,95.33332,49.0626,-36.03881,-110.6591,-50.37467,0.001067912,-0.1257102,0.09433498,0,0.3,0,0,0,0,
6.38224E+17,9.965863,49.04747,77.23276,70.61456,-51.44271,-7.318305,-16.98673,-0.4441859,-4.295897,-61.44649,-6.98289,34.57793,0,0,0,37.63308,94.59382,45.82392,-36.03881,-110.6591,-50.37467,0.001067912,-0.1257102,0.09433498,0,0.3,0,0,0,0,
6.38224E+17,12.55746,49.70206,76.27552,70.17509,-47.26773,-4.534989,-16.98673,-0.4441859,-4.295897,-61.44649,-6.98289,34.57793,0,0,0,46.91639,93.4172,42.27634,-36.03881,-110.6591,-50.37467,0.001067912,-0.1257102,0.09433498,0,0.3,0,0,0,0,
6.38224E+17,14.23022,49.91246,75.76188,69.8821,-44.7774,-2.99684,-16.98673,-0.4441859,-4.295897,-61.44649,-6.98289,34.57793,0,0,0,52.88184,92.5732,40.1745,-36.03881,-110.6591,-50.37467,0.001067912,-0.1257102,0.09433498,0,0.3,0,0,0,0,
6.38224E+17,17.22233,49.95922,74.96807,69.36938,-40.30944,-1.092466,-16.98673,-0.4441859,-4.295897,-61.44649,-6.98289,34.57793,0,0,0,63.53155,90.8557,36.60446,-36.03881,-110.6591,-50.37467,0.001067912,-0.1257102,0.09433498,0,0.3,0,0,0,0,
6.38224E+17,20.45005,49.79557,73.96414,69.07641,-35.5485,0.3724372,-16.98673,-0.4441859,-4.295897,-61.44649,-6.98289,34.57793,0,0,0,74.85374,88.35909,32.3888,-36.03881,-110.6591,-50.37467,0.001067912,-0.1257102,0.09433498,0,0.3,0,0,0,0,
6.38224E+17,23.70132,49.21112,72.82012,68.63693,-30.49459,1.54436,-16.98673,-0.4441859,-4.295897,-61.44649,-7.056135,34.57793,0,0,0,86.22806,84.92426,28.07069,-36.03881,-110.6591,-50.37467,0.001067912,-0.1257102,0.09433498,0,0.3,0,0,0,0,
6.38224E+17,26.05732,48.48639,71.90958,68.12422,-26.83233,2.203566,-16.98673,-0.4441859,-4.295897,-61.44649,-6.98289,34.57793,0,0,0,94.50557,81.79475,24.92417,-36.03881,-110.6591,-50.37467,0.001067912,-0.1257102,0.09433498,0,0.3,0,0,0,0,
6.38224E+17,28.31907,47.43437,70.99904,67.39177,-23.02358,2.789528,-16.98673,-0.4441859,-4.295897,-61.44649,-6.98289,34.57793,0,0,0,102.6023,78.14604,22.05137,-36.03881,-110.6591,-50.37467,0.001067912,-0.1257102,0.09433498,0,0.3,0,0,0,0,
6.38224E+17,30.72219,45.7979,69.85503,66.21985,-18.40914,3.375489,-16.98673,-0.4441859,-4.295897,-61.44649,-6.98289,34.57793,0,0,0,111.454,73.0213,19.19452,-36.03881,-110.6591,-50.37467,0.001067912,-0.1257102,0.09433498,0,0.3,0,0,0,0,
6.38224E+17,31.80595,44.81602,69.01452,65.56064,-16.06529,3.595225,-16.98673,-0.4441859,-4.295897,-61.44649,-6.98289,34.57793,0,0,0,115.4754,69.5826,17.84954,-36.03881,-110.6591,-50.37467,0.001067912,-0.1257102,0.09433498,0,0.3,0,0,0,0,
6.38224E+17,34.32687,40.98199,65.18556,62.63083,-8.594284,5.060128,-16.98673,-0.4441859,-4.295897,-61.44649,-6.98289,34.57793,0,0,0,125.023,54.8394,14.74239,-36.03881,-110.6591,-50.37467,0.001067912,-0.1257102,0.09433498,0,0.3,0,0,0,0,
6.38224E+17,34.72738,39.53254,63.71469,61.38566,-6.323683,5.79258,-16.98673,-0.4441859,-4.295897,-61.44649,-6.98289,34.57793,0,0,0,126.7006,49.17656,14.44216,-36.03881,-110.6591,-50.37467,0.001067912,-0.1257102,0.09433498,0,0.3,0,0,0,0,
6.38224E+17,35.19858,36.16608,60.2126,58.60235,-1.635992,8.06318,-16.98673,-0.4441859,-4.295897,-61.44649,-6.98289,34.57793,0,0,0,128.7623,35.79752,14.1918,-36.03881,-110.6591,-50.37467,0.001067912,-0.1257102,0.09433498,0,0.3,0,0,0,0,
6.38224E+17,35.19858,32.77624,56.64047,55.08658,3.344679,10.11404,-16.98673,-0.4441859,-4.295897,-61.44649,-6.98289,34.57793,0,0,0,128.8271,22.21234,14.28367,-36.03881,-110.6591,-50.37467,0.001067912,-0.1257102,0.09433498,0,0.3,0,0,0,0,
6.38224E+17,34.8923,31.13977,54.74934,53.25545,5.615279,10.91974,-16.98673,-0.4441859,-4.295897,-61.44649,-6.98289,34.57793,0,0,0,127.5832,15.34538,14.5886,-36.03881,-110.6591,-50.37467,0.001067912,-0.1257102,0.09433498,0,0.3,0,0,0,0,
6.38224E+17,33.43158,27.74993,51.36399,48.42127,9.717009,12.01842,-16.98673,-0.4441859,-4.295897,-61.44649,-7.056135,34.57793,0,0,0,122.4062,2.179709,17.06623,-36.03881,-110.6591,-50.37467,0.001067912,-0.1257102,0.09433498,0,0.3,0,0,0,0,
6.38224E+17,31.26407,25.64589,49.23938,43.00113,13.52576,12.53114,-16.98673,-0.4441859,-4.295897,-61.44649,-6.98289,34.57793,0,0,0,114.8086,-5.999297,20.744,-36.03881,-110.6591,-50.37467,0.001067912,-0.1257102,0.09433498,0,0.3,0,0,0,0,
6.38224E+17,29.89759,25.2017,48.28215,40.58403,14.99066,12.67763,-16.98673,-0.4441859,-4.295897,-61.44649,-6.98289,34.57793,0,0,0,109.7558,-8.608235,22.53969,-36.03881,-110.6591,-50.37467,0.001067912,-0.1257102,0.09433498,0,0.3,0,0,0,0,
6.38224E+17,26.74056,25.13157,46.25093,35.38363,17.70073,13.62981,-16.98673,-0.4441859,-4.295897,-61.44649,-6.98289,34.57793,0,0,0,97.66424,-12.22818,25.49178,-36.03881,-110.6591,-50.37467,0.001067912,-0.1257102,0.09433498,0,0.3,0,0,0,0,
6.38224E+17,22.64112,25.2017,44.0096,29.59726,19.82484,16.70611,-16.98673,-0.4441859,-4.295897,-61.44649,-6.98289,34.57793,0,0,0,82.11372,-15.77719,28.51717,-36.03881,-110.6591,-50.37467,0.001067912,-0.1257102,0.09433498,0,0.3,0,0,0,0,
6.38224E+17,18.80085,25.17833,41.86165,24.90957,21.36299,20.07539,-16.98673,-0.4441859,-4.295897,-61.44649,-6.98289,34.57793,0,0,0,67.57212,-19.23152,30.13216,-36.03881,-110.6591,-50.37467,0.001067912,-0.1257102,0.09433498,0,0.3,0,0,0,0,
6.38224E+17,16.27993,25.17833,40.64759,21.83327,22.31518,22.49248,-16.98673,-0.4441859,-4.295897,-61.44649,-7.056135,34.57793,0,0,0,58.18119,-21.0947,30.87315,-36.03881,-110.6591,-50.37467,0.001067912,-0.1257102,0.09433498,0,0.3,0,0,0,0,
6.38224E+17,11.2381,25.17833,38.68642,15.60743,24.21955,27.47315,-16.98673,-0.4441859,-4.295897,-61.44649,-6.98289,34.50468,0,0,0,39.76303,-24.00814,31.76945,-36.03881,-110.6591,-50.37467,0.001067912,-0.1257102,0.09433498,0,0.3,0,0,0,0,
6.38224E+17,5.88999,25.17833,37.30893,8.209671,26.12393,32.45382,-16.98673,-0.4441859,-4.295897,-61.44649,-6.98289,34.57793,0,0,0,20.67822,-25.98177,32.09145,-36.03881,-110.6591,-50.37467,0.001067912,-0.1257102,0.09433498,0,0.3,0,0,0,0,
6.38224E+17,3.416194,25.27184,36.98207,4.034696,26.85638,34.57793,-16.98673,-0.4441859,-4.295897,-61.44649,-6.98289,34.57793,0,0,0,11.96574,-26.24425,32.09928,-36.03881,-110.6591,-50.37467,0.001067912,-0.1257102,0.09433498,0,0.3,0,0,0,0,
6.38224E+17,-1.130878,25.7394,36.95872,-4.168763,28.10155,38.89939,-16.98673,-0.4441859,-4.295897,-61.44649,-6.98289,34.57793,0,0,0,-3.953058,-25.29478,31.9051,-36.03881,-110.6591,-50.37467,0.001067912,-0.1257102,0.09433498,0,0.3,0,0,0,0,
6.38224E+17,-4.594193,26.62777,37.79922,-11.78626,28.10155,42.6349,-16.98673,-0.4441859,-4.295897,-61.44649,-6.98289,34.57793,0,0,0,-16.09457,-22.25181,31.94063,-36.03881,-110.6591,-50.37467,0.001067912,-0.1257102,0.09433498,0,0.3,0,0,0,0,
6.38224E+17,-6.07847,27.42263,38.47629,-15.81474,27.58883,44.46603,-16.98673,-0.4441859,-4.295897,-61.44649,-6.98289,34.57793,0,0,0,-21.31946,-19.63073,31.85313,-36.03881,-110.6591,-50.37467,0.001067912,-0.1257102,0.09433498,0,0.3,0,0,0,0,
6.38224E+17,-7.515628,29.55005,40.1106,-21.82085,25.83095,47.02961,-16.98673,-0.4441859,-4.295897,-61.44649,-6.98289,34.57793,0,0,0,-26.4101,-12.87033,31.83266,-36.03881,-110.6591,-50.37467,0.001067912,-0.1257102,0.09433498,0,0.3,0,0,0,0,
6.38224E+17,-7.821907,32.09827,41.8383,-25.11688,23.41385,49.30021,-16.98673,-0.4441859,-4.295897,-61.44649,-6.98289,34.57793,0,0,0,-27.47941,-5.141193,31.68574,-36.03881,-110.6591,-50.37467,0.001067912,-0.1257102,0.09433498,0,0.3,0,0,0,0,
6.38224E+17,-7.916147,34.06204,43.16909,-26.36205,21.58273,50.83836,-16.98673,-0.4441859,-4.295897,-61.44649,-6.98289,34.57793,0,0,0,-27.77932,0.7808479,31.43117,-36.03881,-110.6591,-50.37467,0.001067912,-0.1257102,0.09433498,0,0.3,0,0,0,0,
6.38224E+17,-8.151747,38.15323,47.02139,-27.9002,16.74854,54.57386,-16.98673,-0.4441859,-4.295897,-61.44649,-6.98289,34.57793,0,0,0,-28.70239,14.82112,32.026,-36.03881,-110.6591,-50.37467,0.001067912,-0.1257102,0.09433498,0,0.3,0,0,0,0,
6.38224E+17,-8.481586,41.00537,51.36399,-29.43835,10.81569,58.16287,-16.98673,-0.4441859,-4.295897,-61.44649,-6.98289,34.57793,0,0,0,-30.20564,27.58506,34.20598,-36.03881,-110.6591,-50.37467,0.001067912,-0.1257102,0.09433498,0,0.3,0,0,0,0,
6.38224E+17,-9.141265,43.08603,56.59377,-32.07517,4.150376,61.89838,-16.98673,-0.4441859,-4.295897,-61.44649,-6.98289,34.57793,0,0,0,-33.15732,41.02211,37.70767,-36.03881,-110.6591,-50.37467,0.001067912,-0.1257102,0.09433498,0,0.3,0,0,0,0,
6.38224E+17,-9.895184,44.20818,61.40331,-36.25014,-2.221954,65.56064,-16.98673,-0.4441859,-4.295897,-61.44649,-6.98289,34.57793,0,0,0,-36.54646,52.50382,41.15575,-36.03881,-110.6591,-50.37467,0.001067912,-0.1257102,0.09433498,0,0.3,0,0,0,0,
6.38224E+17,-10.08366,44.53548,63.5746,-39.10671,-5.15176,67.24528,-16.98673,-0.4441859,-4.295897,-61.44649,-6.98289,34.57793,0,0,0,-37.55086,57.53009,42.80803,-36.03881,-110.6591,-50.37467,0.001067912,-0.1257102,0.09433498,0,0.3,0,0,0,0,
6.38224E+17,-10.03654,44.95628,67.05334,-45.2593,-10.13243,70.32157,-16.98673,-0.4441859,-4.295897,-61.44649,-6.98289,34.57793,0,0,0,-37.84625,65.58103,45.48911,-36.03881,-110.6591,-50.37467,0.001067912,-0.1257102,0.09433498,0,0.3,0,0,0,0,
6.38224E+17,-9.730264,45.14331,69.55151,-50.6062,-14.4539,72.9584,-16.98673,-0.4441859,-4.295897,-61.44649,-6.98289,34.57793,0,0,0,-37.01382,71.29039,47.5032,-36.03881,-110.6591,-50.37467,0.001067912,-0.1257102,0.09433498,0,0.3,0,0,0,0,
6.38224E+17,-9.282625,45.14331,71.16247,-55.07415,-17.67669,74.93602,-16.98673,-0.4441859,-4.295897,-61.44649,-6.98289,34.57793,0,0,0,-35.52959,74.82143,49.02962,-36.03881,-110.6591,-50.37467,0.001067912,-0.1257102,0.09433498,0,0.3,0,0,0,0,
6.38224E+17,-8.952785,45.14331,71.67611,-56.75879,-18.9951,75.66847,-16.98673,-0.4441859,-4.295897,-61.44649,-6.98289,34.57793,0,0,0,-34.33688,75.95455,49.60682,-36.03881,-110.6591,-50.37467,0.001067912,-0.1257102,0.09433498,0,0.3,0,0,0,0,
6.38224E+17,-8.198866,45.14331,72.37653,-58.8829,-20.97272,76.54742,-16.98673,-0.4441859,-4.295897,-61.44649,-6.98289,34.57793,0,0,0,-31.53777,77.50514,50.53765,-36.03881,-110.6591,-50.37467,0.001067912,-0.1257102,0.09433498,0,0.3,0,0,0,0,
6.38224E+17,-7.444948,45.14331,72.65669,-59.32237,-22.80385,76.98688,-16.98673,-0.4441859,-4.295897,-61.44649,-6.98289,34.57793,0,0,0,-28.6803,78.12708,51.12792,-36.03881,-110.6591,-50.37467,0.001067912,-0.1257102,0.09433498,0,0.3,0,0,0,0,
6.38224E+17,-7.020868,45.14331,72.63335,-59.02939,-23.60954,77.06013,-16.98673,-0.4441859,-4.295897,-61.44649,-6.98289,34.57793,0,0,0,-27.05307,78.07521,51.3181,-36.03881,-110.6591,-50.37467,0.001067912,-0.1257102,0.09433498,0,0.3,0,0,0,0,
6.38224E+17,-6.07847,45.14331,72.25979,-57.78423,-24.85471,77.13338,-16.98673,-0.4441859,-4.295897,-61.44649,-6.98289,34.57793,0,0,0,-23.40872,77.24628,51.4726,-36.03881,-110.6591,-50.37467,0.001067912,-0.1257102,0.09433498,0,0.3,0,0,0,0,
6.38224E+17,-4.876912,45.14331,71.13912,-55.51363,-25.66041,76.10795,-16.98673,-0.4441859,-4.295897,-61.51973,-6.98289,34.57793,0,0,0,-18.72435,74.77,51.09912,-36.03881,-110.6591,-50.37467,0.001067912,-0.1257102,0.09433498,0,0.3,0,0,0,0,
6.38224E+17,-3.486874,45.14331,70.53209,-51.70488,-26.17312,72.59217,-16.98673,-0.4441859,-4.295897,-61.51973,-6.98289,34.57793,0,0,0,-13.36716,73.43551,51.02583,-36.03881,-110.6591,-50.37467,0.001067912,-0.1257102,0.09433498,0,0.3,0,0,0,0,
6.38224E+17,-2.685836,45.11993,70.13519,-49.1413,-26.61259,69.95535,-16.98673,-0.4441859,-4.295897,-61.44649,-6.98289,34.50468,0,0,0,-10.28615,72.52725,50.91925,-36.03881,-110.6591,-50.37467,0.001067912,-0.1257102,0.09433498,0,0.3,0,0,0,0,
6.38224E+17,-2.355996,45.07318,69.55151,-47.82288,-26.75908,68.49045,-16.98673,-0.4441859,-4.295897,-61.44649,-6.98289,34.57793,0,0,0,-9.007625,71.17519,50.58413,-36.03881,-110.6591,-50.37467,0.001067912,-0.1257102,0.09433498,0,0.3,0,0,0,0,
6.38224E+17,-2.214636,44.93291,67.61369,-45.55228,-26.4661,65.48739,-16.98673,-0.4441859,-4.295897,-61.44649,-6.98289,34.57793,0,0,0,-8.412727,66.74591,49.19078,-36.03881,-110.6591,-50.37467,0.001067912,-0.1257102,0.09433498,0,0.3,0,0,0,0,
6.38224E+17,-2.379556,44.53548,64.69527,-43.50142,-24.92796,62.41109,-16.98673,-0.4441859,-4.295897,-61.44649,-6.98289,34.57793,0,0,0,-8.951893,59.87701,47.07285,-36.03881,-110.6591,-50.37467,0.001067912,-0.1257102,0.09433498,0,0.3,0,0,0,0,
6.38224E+17,-2.615156,44.06791,63.1777,-42.47599,-23.97577,61.01944,-16.98673,-0.4441859,-4.295897,-61.44649,-6.98289,34.57793,0,0,0,-9.801505,55.92549,46.24328,-36.03881,-110.6591,-50.37467,0.001067912,-0.1257102,0.09433498,0,0.3,0,0,0,0,
6.38224E+17,-3.321954,42.54833,59.55888,-40.13214,-20.97272,58.82208,-16.98673,-0.4441859,-4.295897,-61.44649,-7.056135,34.57793,0,0,0,-12.35465,45.96071,44.49938,-36.03881,-110.6591,-50.37467,0.001067912,-0.1257102,0.09433498,0,0.3,0,0,0,0,
6.38224E+17,-4.005194,40.6547,55.77662,-38.15452,-17.09072,56.91771,-16.98673,-0.4441859,-4.295897,-61.44649,-6.98289,34.57793,0,0,0,-14.76749,35.22853,42.56018,-36.03881,-110.6591,-50.37467,0.001067912,-0.1257102,0.09433498,0,0.3,0,0,0,0,
6.38224E+17,-4.170113,39.69619,54.25905,-37.56856,-15.1131,55.67254,-16.98673,-0.4441859,-4.295897,-61.44649,-6.98289,34.57793,0,0,0,-15.33191,30.63026,41.93259,-36.03881,-110.6591,-50.37467,0.001067912,-0.1257102,0.09433498,0,0.3,0,0,0,0,
6.38224E+17,-4.146553,37.61553,51.36399,-36.54313,-9.473226,52.08353,-16.98673,-0.4441859,-4.295897,-61.44649,-6.98289,34.57793,0,0,0,-15.16969,21.48165,40.89404,-36.03881,-110.6591,-50.37467,0.001067912,-0.1257102,0.09433498,0,0.3,0,0,0,0,
6.38224E+17,-3.863834,36.8908,50.52348,-36.25014,-6.396928,49.73968,-16.98673,-0.4441859,-4.295897,-61.44649,-6.98289,34.57793,0,0,0,-14.12277,18.62007,40.75531,-36.03881,-110.6591,-50.37467,0.001067912,-0.1257102,0.09433498,0,0.3,0,0,0,0,
6.38224E+17,-3.039235,36.79729,50.24332,-35.66418,-3.686857,47.24934,-16.98673,-0.4441859,-4.295897,-61.44649,-6.98289,34.57793,0,0,0,-11.09685,17.9436,40.65203,-36.03881,-110.6591,-50.37467,0.001067912,-0.1257102,0.09433498,0,0.3,0,0,0,0,
6.38224E+17,-2.403116,36.82067,50.24332,-35.07822,-2.954405,46.22392,-16.98673,-0.4441859,-4.295897,-61.44649,-6.98289,34.57793,0,0,0,-8.774429,17.98716,40.72978,-36.03881,-110.6591,-50.37467,0.001067912,-0.1257102,0.09433498,0,0.3,0,0,0,0,
6.38224E+17,-1.013078,36.8908,50.26667,-33.24709,-2.368444,44.68576,-16.98673,-0.4441859,-4.295897,-61.44649,-6.98289,34.57793,0,0,0,-3.698799,18.15955,40.81795,-36.03881,-110.6591,-50.37467,0.001067912,-0.1257102,0.09433498,0,0.3,0,0,0,0,
6.38224E+17,0.7539188,37.28823,50.26667,-30.53703,-2.295199,43.58709,-16.98673,-0.4441859,-4.295897,-61.44649,-6.98289,34.57793,0,0,0,2.745319,18.8974,40.27477,-36.03881,-110.6591,-50.37467,0.001067912,-0.1257102,0.09433498,0,0.3,0,0,0,0,
6.38224E+17,1.672757,37.56877,50.29001,-28.92563,-2.58818,43.07437,-16.98673,-0.4441859,-4.295897,-61.44649,-6.98289,34.57793,0,0,0,6.079917,19.45769,39.84197,-36.03881,-110.6591,-50.37467,0.001067912,-0.1257102,0.09433498,0,0.3,0,0,0,0,
6.38224E+17,3.392634,38.01296,50.29001,-25.48311,-3.393876,42.12218,-16.98673,-0.4441859,-4.295897,-61.44649,-6.98289,34.57793,0,0,0,12.28816,20.27464,38.93333,-36.03881,-110.6591,-50.37467,0.001067912,-0.1257102,0.09433498,0,0.3,0,0,0,0,
6.38224E+17,5.395231,38.34025,50.29001,-21.45462,-4.272818,40.80377,-16.98673,-0.4441859,-4.295897,-61.44649,-6.98289,34.57793,0,0,0,19.47985,20.87346,37.90858,-36.03881,-110.6591,-50.37467,0.001067912,-0.1257102,0.09433498,0,0.3,0,0,0,0,
6.38224E+17,7.468508,38.38701,50.26667,-18.0121,-5.00527,39.33887,-16.98673,-0.4441859,-4.295897,-61.44649,-6.98289,34.57793,0,0,0,26.91575,20.91699,36.96743,-36.03881,-110.6591,-50.37467,0.001067912,-0.1257102,0.09433498,0,0.3,0,0,0,0,
6.38224E+17,9.541784,38.38701,50.26667,-14.86256,-5.664476,37.58098,-16.98673,-0.4441859,-4.295897,-61.44649,-6.98289,34.57793,0,0,0,34.32603,20.91699,35.85928,-36.03881,-110.6591,-50.37467,0.001067912,-0.1257102,0.09433498,0,0.3,0,0,0,0,
6.38224E+17,13.2407,38.43377,50.54683,-9.149435,-6.323683,34.2117,-16.98673,-0.4441859,-4.295897,-61.44649,-6.98289,34.57793,0,0,0,47.50845,21.50473,33.55811,-36.03881,-110.6591,-50.37467,0.001067912,-0.1257102,0.09433498,0,0.3,0,0,0,0,
6.38224E+17,15.2433,38.45715,50.89704,-5.926647,-6.689909,32.01435,-16.98673,-0.4441859,-4.295897,-61.44649,-6.98289,34.50468,0,0,0,54.66185,22.17828,32.23983,-36.03881,-110.6591,-50.37467,0.001067912,-0.1257102,0.09433498,0,0.3,0,0,0,0,
6.38224E+17,22.28772,38.55066,53.76875,6.451786,-8.301303,23.00519,-16.98673,-0.4441859,-4.295897,-61.44649,-6.98289,34.57793,0,0,0,80.34676,27.63862,27.67526,-36.03881,-110.6591,-50.37467,0.001067912,-0.1257102,0.09433498,0,0.3,0,0,0,0,
6.38224E+17,24.361,38.55066,55.44976,10.77325,-8.814018,19.56267,-16.98673,-0.4441859,-4.295897,-61.44649,-6.98289,34.57793,0,0,0,88.32047,30.82795,26.70421,-36.03881,-110.6591,-50.37467,0.001067912,-0.1257102,0.09433498,0,0.3,0,0,0,0,
6.38224E+17,27.82431,38.62079,59.39544,20.66135,-9.619716,12.38465,-16.98673,-0.4441859,-4.295897,-61.44649,-7.056135,34.57793,0,0,0,102.2023,38.69236,25.29459,-36.03881,-110.6591,-50.37467,0.001067912,-0.1257102,0.09433498,0,0.3,0,0,0,0,
6.38224E+17,29.87403,39.08836,62.73411,29.96349,-10.05919,6.232051,-16.98673,-0.4441859,-4.295897,-61.44649,-6.98289,34.57793,0,0,0,110.5952,46.33921,24.18275,-36.03881,-110.6591,-50.37467,0.001067912,-0.1257102,0.09433498,0,0.3,0,0,0,0,
6.38224E+17,30.46303,39.64943,64.25168,34.28495,-10.35217,3.375489,-16.98673,-0.4441859,-4.295897,-61.44649,-6.98289,34.57793,0,0,0,112.9477,50.50934,23.68043,-36.03881,-110.6591,-50.37467,0.001067912,-0.1257102,0.09433498,0,0.3,0,0,0,0,
6.38224E+17,30.76931,41.37942,66.91327,41.17,-11.08462,-0.9459759,-16.98673,-0.4441859,-4.295897,-61.44649,-6.98289,34.57793,0,0,0,113.9444,59.21024,23.02659,-36.03881,-110.6591,-50.37467,0.001067912,-0.1257102,0.09433498,0,0.3,0,0,0,0,
6.38224E+17,30.27455,43.62373,69.9484,46.80988,-12.54952,-4.242009,-16.98673,-0.4441859,-4.295897,-61.44649,-6.98289,34.57793,0,0,0,111.8177,69.62955,23.19833,-36.03881,-110.6591,-50.37467,0.001067912,-0.1257102,0.09433498,0,0.3,0,0,0,0,
6.38224E+17,29.63843,44.86277,71.60606,49.73968,-13.57495,-5.706912,-16.98673,-0.4441859,-4.295897,-61.44649,-6.98289,34.57793,0,0,0,109.3174,75.33817,23.78321,-36.03881,-110.6591,-50.37467,0.001067912,-0.1257102,0.09433498,0,0.3,0,0,0,0,
6.38224E+17,27.75363,47.06033,74.38438,55.30631,-16.50476,-8.636719,-16.98673,-0.4441859,-4.295897,-61.44649,-6.98289,34.57793,0,0,0,102.1075,85.07626,25.6945,-36.03881,-110.6591,-50.37467,0.001067912,-0.1257102,0.09433498,0,0.3,0,0,0,0,
6.38224E+17,24.69084,49.6553,76.20547,61.53215,-20.31351,-11.42003,-16.98673,-0.4441859,-4.295897,-61.44649,-6.98289,34.57793,0,0,0,90.15795,93.18845,27.75003,-36.03881,-110.6591,-50.37467,0.001067912,-0.1257102,0.09433498,0,0.3,0,0,0,0,
6.38224E+17,23.13588,50.70732,76.67242,64.02249,-22.14464,-12.44547,-16.98673,-0.4441859,-4.295897,-61.44649,-6.98289,34.57793,0,0,0,84.16464,95.81279,28.62932,-36.03881,-110.6591,-50.37467,0.001067912,-0.1257102,0.09433498,0,0.3,0,0,0,0,
6.38224E+17,18.87153,52.92825,76.95258,69.29614,-26.90557,-14.20335,-16.98673,-0.4441859,-4.295897,-61.44649,-6.98289,34.57793,0,0,0,68.0186,99.64274,30.63868,-36.03881,-110.6591,-50.37467,0.001067912,-0.1257102,0.09433498,0,0.3,0,0,0,0,
6.38224E+17,13.8297,54.63486,75.76188,72.9584,-32.98492,-14.86256,-16.98673,-0.4441859,-4.295897,-61.44649,-6.98289,34.57793,0,0,0,49.34549,99.29652,32.1003,-36.03881,-110.6591,-50.37467,0.001067912,-0.1257102,0.09433498,0,0.3,0,0,0,0,
6.38224E+17,8.622946,55.38297,73.14698,72.59217,-41.11514,-12.73845,-16.98673,-0.4441859,-4.295897,-61.44649,-6.98289,34.57793,0,0,0,30.49265,94.43221,32.72854,-36.03881,-110.6591,-50.37467,0.001067912,-0.1257102,0.09433498,0,0.3,0,0,0,0,
6.38224E+17,6.19627,55.33621,71.95628,69.14965,-45.80283,-8.709964,-16.98673,-0.4441859,-4.295897,-61.44649,-6.98289,34.57793,0,0,0,21.87144,91.72666,33.10223,-36.03881,-110.6591,-50.37467,0.001067912,-0.1257102,0.09433498,0,0.3,0,0,0,0,
6.38224E+17,3.416194,54.65824,70.27527,54.57386,-53.20059,9.528083,-16.98673,-0.4441859,-4.295897,-61.44649,-6.98289,34.57793,0,0,0,12.07635,87.11992,33.95218,-36.03881,-110.6591,-50.37467,0.001067912,-0.1257102,0.09433498,0,0.3,0,0,0,0,
6.38224E+17,2.049716,53.88676,68.68765,30.32971,-56.42338,40.21781,-16.98673,-0.4441859,-4.295897,-61.44649,-6.98289,34.57793,0,0,0,7.254369,82.61097,34.34505,-36.03881,-110.6591,-50.37467,0.001067912,-0.1257102,0.09433498,0,0.3,0,0,0,0,
6.38224E+17,1.837677,53.51271,68.38414,19.1232,-56.64312,53.10896,-16.98673,-0.4441859,-4.295897,-61.44649,-6.98289,34.57793,0,0,0,6.518399,81.43818,34.8134,-36.03881,-110.6591,-50.37467,0.001067912,-0.1257102,0.09433498,0,0.3,0,0,0,0,
6.38224E+17,2.026157,53.11528,68.31409,2.643037,-56.1304,69.73561,-16.98673,-0.4441859,-4.295897,-61.44649,-6.98289,34.57793,0,0,0,7.210786,80.73405,35.47205,-36.03881,-110.6591,-50.37467,0.001067912,-0.1257102,0.09433498,0,0.3,0,0,0,0,
6.38224E+17,2.308876,53.11528,68.31409,-4.315253,-55.54444,75.81496,-16.98673,-0.4441859,-4.295897,-61.44649,-6.98289,34.57793,0,0,0,8.216432,80.73405,35.43398,-36.03881,-110.6591,-50.37467,0.001067912,-0.1257102,0.09433498,0,0.3,0,0,0,0,
6.38224E+17,2.403116,53.13866,68.31409,-6.512609,-55.3247,77.42635,-16.98673,-0.4441859,-4.295897,-61.44649,-6.98289,34.57793,0,0,0,8.549778,80.7667,35.37671,-36.03881,-110.6591,-50.37467,0.001067912,-0.1257102,0.09433498,0,0.3,0,0,0,0,
6.38224E+17,2.473796,53.11528,68.08063,-9.515661,-54.73874,79.03775,-16.98673,-0.4441859,-4.295897,-61.44649,-6.98289,34.57793,0,0,0,8.794256,80.22954,35.20786,-36.03881,-110.6591,-50.37467,0.001067912,-0.1257102,0.09433498,0,0.3,0,0,0,0,
6.38224E+17,2.473796,53.11528,66.79652,-11.42003,-53.49357,79.18424,-16.98673,-0.4441859,-4.295897,-61.44649,-6.98289,34.57793,0,0,0,8.744764,77.46971,34.0623,-36.03881,-110.6591,-50.37467,0.001067912,-0.1257102,0.09433498,0,0.3,0,0,0,0,
6.38224E+17,2.450236,52.97501,65.02214,-13.25116,-50.85675,77.64609,-16.98673,-0.4441859,-4.295897,-61.44649,-6.98289,34.57793,0,0,0,8.600622,73.50358,32.64246,-36.03881,-110.6591,-50.37467,0.001067912,-0.1257102,0.09433498,0,0.3,0,0,0,0,
6.38224E+17,2.355996,52.64771,63.27109,-15.66825,-47.19449,75.30224,-16.98673,-0.4441859,-4.295897,-61.44649,-6.98289,34.57793,0,0,0,8.221913,69.37581,31.48708,-36.03881,-110.6591,-50.37467,0.001067912,-0.1257102,0.09433498,0,0.3,0,0,0,0,
6.38224E+17,2.261756,52.41393,62.19712,-17.27965,-45.07038,73.91058,-16.98673,-0.4441859,-4.295897,-61.44649,-6.98289,34.57793,0,0,0,7.865063,66.82301,30.78765,-36.03881,-110.6591,-50.37467,0.001067912,-0.1257102,0.09433498,0,0.3,0,0,0,0,
6.38224E+17,1.955477,51.87623,60.2126,-20.35595,-40.60242,70.98078,-16.98673,-0.4441859,-4.295897,-61.44649,-6.98289,34.57793,0,0,0,6.758254,62.00761,29.59101,-36.03881,-110.6591,-50.37467,0.001067912,-0.1257102,0.09433498,0,0.3,0,0,0,0,
6.38224E+17,1.766997,51.2684,58.29812,-23.87171,-36.13447,67.6115,-16.98673,-0.4441859,-4.295897,-61.44649,-6.98289,34.50468,0,0,0,6.071012,57.29903,28.44324,-36.03881,-110.6591,-50.37467,0.001067912,-0.1257102,0.09433498,0,0.3,0,0,0,0,
6.38224E+17,1.766997,50.45016,55.49645,-26.87477,-31.66651,64.24223,-16.98673,-0.4441859,-4.295897,-61.44649,-6.98289,34.57793,0,0,0,6.006758,50.63524,26.36042,-36.03881,-110.6591,-50.37467,0.001067912,-0.1257102,0.09433498,0,0.3,0,0,0,0,
6.38224E+17,1.790557,49.95922,53.83879,-28.11993,-29.24942,62.19136,-16.98673,-0.4441859,-4.295897,-61.44649,-6.98289,34.57793,0,0,0,6.04454,46.75661,25.00541,-36.03881,-110.6591,-50.37467,0.001067912,-0.1257102,0.09433498,0,0.3,0,0,0,0,
6.38224E+17,2.002597,49.04747,50.50013,-29.73133,-24.56173,57.79665,-16.98673,-0.4441859,-4.295897,-61.44649,-6.98289,34.57793,0,0,0,6.649938,39.24218,21.83217,-36.03881,-110.6591,-50.37467,0.001067912,-0.1257102,0.09433498,0,0.3,0,0,0,0,
6.38224E+17,2.403116,47.99545,46.81127,-29.87782,-19.87404,53.76817,-16.98673,-0.4441859,-4.295897,-61.44649,-6.98289,34.57793,0,0,0,7.818365,31.17604,17.94837,-36.03881,-110.6591,-50.37467,0.001067912,-0.1257102,0.09433498,0,0.3,0,0,0,0,
6.38224E+17,2.732955,47.24735,44.8034,-29.51159,-17.67669,51.93703,-16.98673,-0.4441859,-4.295897,-61.44649,-6.98289,34.57793,0,0,0,8.796722,26.65204,15.93136,-36.03881,-110.6591,-50.37467,0.001067912,-0.1257102,0.09433498,0,0.3,0,0,0,0,
6.38224E+17,3.769594,45.09655,41.13788,-28.26642,-12.98899,48.27478,-16.98673,-0.4441859,-4.295897,-61.44649,-6.98289,34.57793,0,0,0,11.95634,17.37176,13.11761,-36.03881,-110.6591,-50.37467,0.001067912,-0.1257102,0.09433498,0,0.3,0,0,0,0,
6.38224E+17,5.041832,42.26779,37.91596,-26.28881,-7.861832,44.75901,-16.98673,-0.4441859,-4.295897,-61.44649,-6.98289,34.57793,0,0,0,15.87383,7.839218,11.57561,-36.03881,-110.6591,-50.37467,0.001067912,-0.1257102,0.09433498,0,0.3,0,0,0,0,
6.38224E+17,6.408309,38.92471,35.13763,-24.45767,-2.368444,40.65728,-16.98673,-0.4441859,-4.295897,-61.51973,-6.98289,34.57793,0,0,0,20.14517,-1.916257,11.01344,-36.03881,-110.6591,-50.37467,0.001067912,-0.1257102,0.09433498,0,0.3,0,0,0,0,
6.38224E+17,7.468508,37.03107,33.38659,-23.79847,1.440305,37.06827,-16.98673,-0.4441859,-4.295897,-61.44649,-6.98289,34.57793,0,0,0,23.37518,-7.684361,9.959415,-36.03881,-110.6591,-50.37467,0.001067912,-0.1257102,0.09433498,0,0.3,0,0,0,0,
6.38224E+17,8.245987,35.95568,32.21923,-23.72522,3.491169,34.06521,-16.98673,-0.4441859,-4.295897,-61.44649,-6.98289,34.57793,0,0,0,25.6785,-11.16832,8.838916,-36.03881,-110.6591,-50.37467,0.001067912,-0.1257102,0.09433498,0,0.3,0,0,0,0,
6.38224E+17,10.46062,33.85164,30.21136,-23.87171,6.713957,26.15474,-16.98673,-0.4441859,-4.295897,-61.44649,-6.98289,34.57793,0,0,0,32.28957,-17.60588,6.539634,-36.03881,-110.6591,-50.37467,0.001067912,-0.1257102,0.09433498,0,0.3,0,0,0,0,
6.38224E+17,13.61766,31.79436,28.9973,-22.62654,9.424027,18.09777,-16.98673,-0.4441859,-4.295897,-61.44649,-6.98289,34.57793,0,0,0,41.90484,-23.02519,4.630588,-36.03881,-110.6591,-50.37467,0.001067912,-0.1257102,0.09433498,0,0.3,0,0,0,0,
6.38224E+17,15.31397,30.92937,28.90392,-21.30813,10.37621,14.72849,-16.98673,-0.4441859,-4.295897,-61.44649,-6.98289,34.57793,0,0,0,47.23353,-24.84944,4.141407,-36.03881,-110.6591,-50.37467,0.001067912,-0.1257102,0.09433498,0,0.3,0,0,0,0,
6.38224E+17,19.27205,29.76045,29.13739,-17.42614,12.06085,9.454838,-16.98673,-0.4441859,-4.295897,-61.44649,-6.98289,34.57793,0,0,0,59.6378,-26.93359,2.215527,-36.03881,-110.6591,-50.37467,0.001067912,-0.1257102,0.09433498,0,0.3,0,0,0,0,
6.38224E+17,23.08876,29.45654,29.8378,-12.07924,12.79331,5.79258,-16.98673,-0.4441859,-4.295897,-61.44649,-6.98289,34.57793,0,0,0,71.55273,-26.74615,-0.505766,-36.03881,-110.6591,-50.37467,0.001067912,-0.1257102,0.09433498,0,0.3,0,0,0,0,
6.38224E+17,24.69084,29.43316,30.35144,-9.36917,12.72006,4.474167,-16.98673,-0.4441859,-4.295897,-61.51973,-6.98289,34.57793,0,0,0,76.66055,-26.1941,-1.607804,-36.03881,-110.6591,-50.37467,0.001067912,-0.1257102,0.09433498,0,0.3,0,0,0,0,
6.38224E+17,28.31907,29.43316,32.21923,-2.557369,12.35384,1.178134,-16.98673,-0.4441859,-4.295897,-61.44649,-6.98289,34.50468,0,0,0,88.82095,-23.93677,-3.523054,-36.03881,-110.6591,-50.37467,0.001067912,-0.1257102,0.09433498,0,0.3,0,0,0,0,
6.38224E+17,30.15675,29.43316,33.47998,1.251379,12.06085,-0.5065048,-16.98673,-0.4441859,-4.295897,-61.44649,-6.98289,34.57793,0,0,0,95.29929,-22.34515,-4.324745,-36.03881,-110.6591,-50.37467,0.001067912,-0.1257102,0.09433498,0,0.3,0,0,0,0,
6.38224E+17,32.25359,29.43316,35.09094,5.646089,11.40165,-2.191144,-16.98673,-0.4441859,-4.295897,-61.44649,-6.98289,34.57793,0,0,0,102.8901,-20.23315,-5.301675,-36.03881,-110.6591,-50.37467,0.001067912,-0.1257102,0.09433498,0,0.3,0,0,0,0,
6.38224E+17,33.3609,29.43316,36.11822,7.696954,10.96218,-3.070086,-16.98673,-0.4441859,-4.295897,-61.44649,-6.98289,34.50468,0,0,0,107.0908,-18.84122,-5.696904,-36.03881,-110.6591,-50.37467,0.001067912,-0.1257102,0.09433498,0,0.3,0,0,0,0,
6.38224E+17,36.25878,29.45654,39.50357,13.7763,9.643764,-5.120951,-16.98673,-0.4441859,-4.295897,-61.44649,-6.98289,34.57793,0,0,0,118.8421,-13.96423,-6.321908,-36.03881,-110.6591,-50.37467,0.001067912,-0.1257102,0.09433498,0,0.3,0,0,0,0,
6.38224E+17,37.15406,29.45654,40.88106,15.68068,9.131048,-5.780157,-16.98673,-0.4441859,-4.295897,-61.44649,-6.98289,34.57793,0,0,0,122.8383,-11.89529,-6.246762,-36.03881,-110.6591,-50.37467,0.001067912,-0.1257102,0.09433498,0,0.3,0,0,0,0,
6.38224E+17,38.49697,29.47991,43.68274,19.70916,7.88588,-7.025325,-16.98673,-0.4441859,-4.295897,-61.44649,-6.98289,34.57793,0,0,0,129.5896,-7.461437,-5.415836,-36.03881,-110.6591,-50.37467,0.001067912,-0.1257102,0.09433498,0,0.3,0,0,0,0,
6.38224E+17,38.94461,29.47991,45.66725,23.15168,6.567466,-7.977511,-16.98673,-0.4441859,-4.295897,-61.44649,-6.98289,34.57793,0,0,0,132.923,-4.214221,-3.878904,-36.03881,-110.6591,-50.37467,0.001067912,-0.1257102,0.09433498,0,0.3,0,0,0,0,
6.38224E+17,38.8975,29.50329,46.08751,24.4701,6.05475,-8.416983,-16.98673,-0.4441859,-4.295897,-61.44649,-6.98289,34.57793,0,0,0,133.1985,-3.46474,-3.260534,-36.03881,-110.6591,-50.37467,0.001067912,-0.1257102,0.09433498,0,0.3,0,0,0,0,
6.38224E+17,38.40274,29.55005,46.06416,26.08149,5.395544,-8.929699,-16.98673,-0.4441859,-4.295897,-61.44649,-6.98289,34.57793,0,0,0,131.7112,-3.409189,-2.188079,-36.03881,-110.6591,-50.37467,0.001067912,-0.1257102,0.09433498,0,0.3,0,0,0,0,
6.38224E+17,37.8373,29.55005,45.59721,26.66745,5.175808,-8.929699,-16.98673,-0.4441859,-4.295897,-61.44649,-6.98289,34.57793,0,0,0,129.6005,-4.188707,-1.494395,-36.03881,-110.6591,-50.37467,0.001067912,-0.1257102,0.09433498,0,0.3,0,0,0,0,
6.38224E+17,37.43678,29.55005,45.20031,26.7407,5.322299,-8.929699,-16.98673,-0.4441859,-4.295897,-61.44649,-6.98289,34.57793,0,0,0,128.0367,-4.846427,-1.107549,-36.03881,-110.6591,-50.37467,0.001067912,-0.1257102,0.09433498,0,0.3,0,0,0,0,
6.38224E+17,37.34254,29.55005,45.17696,26.66745,5.468789,-8.929699,-16.98673,-0.4441859,-4.295897,-61.44649,-7.056135,34.57793,0,0,0,127.7382,-4.884977,-0.9276272,-36.03881,-110.6591,-50.37467,0.001067912,-0.1257102,0.09433498,0,0.3,0,0,0,0,
6.38224E+17,37.43678,29.57343,45.85403,26.52096,5.835015,-9.002944,-16.98673,-0.4441859,-4.295897,-61.44649,-6.98289,34.57793,0,0,0,128.6683,-3.713409,-0.2825169,-36.03881,-110.6591,-50.37467,0.001067912,-0.1257102,0.09433498,0,0.3,0,0,0,0,
6.38224E+17,37.90798,29.7137,47.4183,27.03368,5.395544,-9.002944,-16.98673,-0.4441859,-4.295897,-61.44649,-6.98289,34.57793,0,0,0,131.4827,-0.7829602,0.4985153,-36.03881,-110.6591,-50.37467,0.001067912,-0.1257102,0.09433498,0,0.3,0,0,0,0,
6.38224E+17,38.21426,29.80721,48.63235,27.61964,5.102563,-9.149435,-16.98673,-0.4441859,-4.295897,-61.44649,-6.98289,34.57793,0,0,0,133.4856,1.506598,1.193138,-36.03881,-110.6591,-50.37467,0.001067912,-0.1257102,0.09433498,0,0.3,0,0,0,0,
6.38224E+17,38.68546,29.94748,51.34064,29.74375,4.223621,-9.735395,-16.98673,-0.4441859,-4.295897,-61.44649,-6.98289,34.57793,0,0,0,137.3067,6.616835,3.125958,-36.03881,-110.6591,-50.37467,0.001067912,-0.1257102,0.09433498,0,0.3,0,0,0,0,
6.38224E+17,38.63834,30.22802,53.04499,32.23409,3.63766,-9.881886,-16.98673,-0.4441859,-4.295897,-61.44649,-6.98289,34.57793,0,0,0,138.4795,10.31567,4.882412,-36.03881,-110.6591,-50.37467,0.001067912,-0.1257102,0.09433498,0,0.3,0,0,0,0,
6.38224E+17,38.44986,30.64882,53.90884,34.43144,3.198189,-9.808641,-16.98673,-0.4441859,-4.295897,-61.44649,-6.98289,34.57793,0,0,0,138.3444,12.77574,5.885516,-36.03881,-110.6591,-50.37467,0.001067912,-0.1257102,0.09433498,0,0.3,0,0,0,0,
6.38224E+17,38.4263,30.78909,54.37578,35.23714,2.905208,-9.808641,-16.98673,-0.4441859,-4.295897,-61.44649,-6.98289,34.50468,0,0,0,138.5647,13.93719,6.310459,-36.03881,-110.6591,-50.37467,0.001067912,-0.1257102,0.09433498,0,0.3,0,0,0,0,
6.38224E+17,38.47342,30.92937,55.49645,36.70204,2.319247,-9.955132,-16.98673,-0.4441859,-4.295897,-61.44649,-6.98289,34.57793,0,0,0,139.5364,16.35228,7.238425,-36.03881,-110.6591,-50.37467,0.001067912,-0.1257102,0.09433498,0,0.3,0,0,0,0,
6.38224E+17,38.49697,30.92937,55.98674,37.94721,1.879776,-10.02838,-16.98673,-0.4441859,-4.295897,-61.44649,-6.98289,34.57793,0,0,0,140.0084,17.2954,7.683767,-36.03881,-110.6591,-50.37467,0.001067912,-0.1257102,0.09433498,0,0.3,0,0,0,0,
6.38224E+17,38.40274,30.92937,55.68323,38.75291,1.953021,-9.955132,-16.98673,-0.4441859,-4.295897,-61.44649,-6.98289,34.57793,0,0,0,139.4723,16.71091,7.602937,-36.03881,-110.6591,-50.37467,0.001067912,-0.1257102,0.09433498,0,0.3,0,0,0,0,
6.38224E+17,38.30849,30.92937,55.35637,38.97264,2.099511,-9.881886,-16.98673,-0.4441859,-4.295897,-61.44649,-6.98289,34.57793,0,0,0,138.9157,16.08382,7.494163,-36.03881,-110.6591,-50.37467,0.001067912,-0.1257102,0.09433498,0,0.3,0,0,0,0,
6.38224E+17,38.09645,30.92937,54.25905,39.19238,2.465737,-9.735395,-16.98673,-0.4441859,-4.295897,-61.44649,-6.98289,34.57793,0,0,0,137.3559,13.99675,6.84875,-36.03881,-110.6591,-50.37467,0.001067912,-0.1257102,0.09433498,0,0.3,0,0,0,0,
6.38224E+17,37.74306,30.92937,52.46131,38.89939,2.758718,-9.36917,-16.98673,-0.4441859,-4.295897,-61.44649,-6.98289,34.57793,0,0,0,134.7443,10.63959,5.718188,-36.03881,-110.6591,-50.37467,0.001067912,-0.1257102,0.09433498,0,0.3,0,0,0,0,
6.38224E+17,37.55458,30.92937,51.57411,38.53317,3.051698,-9.002944,-16.98673,-0.4441859,-4.295897,-61.44649,-6.98289,34.57793,0,0,0,133.3964,9.012085,5.153093,-36.03881,-110.6591,-50.37467,0.001067912,-0.1257102,0.09433498,0,0.3,0,0,0,0,
6.38224E+17,36.98914,30.92937,49.9865,37.58098,3.63766,-8.124002,-16.98673,-0.4441859,-4.295897,-61.44649,-6.98289,34.57793,0,0,0,130.272,6.149554,4.594992,-36.03881,-110.6591,-50.37467,0.001067912,-0.1257102,0.09433498,0,0.3,0,0,0,0,
6.38224E+17,36.35302,30.92937,48.95922,36.6288,4.589847,-6.659099,-16.98673,-0.4441859,-4.295897,-61.44649,-6.98289,34.57793,0,0,0,127.423,4.332269,4.779396,-36.03881,-110.6591,-50.37467,0.001067912,-0.1257102,0.09433498,0,0.3,0,0,0,0,
6.38224E+17,36.04674,30.92937,48.77244,36.26257,5.102563,-5.780157,-16.98673,-0.4441859,-4.295897,-61.44649,-6.98289,34.57793,0,0,0,126.3274,4.004861,5.22686,-36.03881,-110.6591,-50.37467,0.001067912,-0.1257102,0.09433498,0,0.3,0,0,0,0,
6.38224E+17,35.66978,30.95274,48.81913,35.67661,5.90826,-4.168763,-16.98673,-0.4441859,-4.295897,-61.44649,-7.056135,34.57793,0,0,0,125.2082,4.133293,6.08966,-36.03881,-110.6591,-50.37467,0.001067912,-0.1257102,0.09433498,0,0.3,0,0,0,0,
6.38224E+17,35.4813,31.04625,48.95922,35.45687,6.494221,-3.070086,-16.98673,-0.4441859,-4.295897,-61.44649,-6.98289,34.57793,0,0,0,124.693,4.565493,6.583885,-36.03881,-110.6591,-50.37467,0.001067912,-0.1257102,0.09433498,0,0.3,0,0,0,0,
6.38224E+17,35.29282,31.09301,48.95922,35.31038,6.713957,-2.484124,-16.98673,-0.4441859,-4.295897,-61.44649,-6.98289,34.57793,0,0,0,124.0844,4.658702,6.947289,-36.03881,-110.6591,-50.37467,0.001067912,-0.1257102,0.09433498,0,0.3,0,0,0,0,
6.38224E+17,35.15146,31.09301,48.84248,35.38363,6.787202,-1.971408,-16.98673,-0.4441859,-4.295897,-61.44649,-6.98289,34.57793,0,0,0,123.5487,4.453963,7.106865,-36.03881,-110.6591,-50.37467,0.001067912,-0.1257102,0.09433498,0,0.3,0,0,0,0,
6.38224E+17,34.53891,31.06963,47.65177,35.53012,7.080183,-0.3600145,-16.98673,-0.4441859,-4.295897,-61.44649,-6.98289,34.57793,0,0,0,120.6355,2.339978,6.920701,-36.03881,-110.6591,-50.37467,0.001067912,-0.1257102,0.09433498,0,0.3,0,0,0,0,
6.38224E+17,32.63055,30.78909,44.96684,34.72442,7.446409,1.617605,-16.98673,-0.4441859,-4.295897,-61.44649,-6.98289,34.57793,0,0,0,112.5855,-2.738145,7.488493,-36.03881,-110.6591,-50.37467,0.001067912,-0.1257102,0.09433498,0,0.3,0,0,0,0,
6.38224E+17,31.24051,30.4618,43.61269,33.5525,7.812634,2.862773,-16.98673,-0.4441859,-4.295897,-61.44649,-6.98289,34.57793,0,0,0,107.3181,-5.594326,8.57085,-36.03881,-110.6591,-50.37467,0.001067912,-0.1257102,0.09433498,0,0.3,0,0,0,0,
6.38224E+17,28.43687,29.80721,41.90834,29.89024,8.764822,5.353109,-16.98673,-0.4441859,-4.295897,-61.51973,-6.98289,34.57793,0,0,0,97.51333,-9.604941,11.72005,-36.03881,-110.6591,-50.37467,0.001067912,-0.1257102,0.09433498,0,0.3,0,0,0,0,
6.38224E+17,25.86884,29.50329,41.4414,26.00825,9.790254,7.696954,-16.98673,-0.4441859,-4.295897,-61.44649,-6.98289,34.57793,0,0,0,89.14577,-10.94222,15.49287,-36.03881,-110.6591,-50.37467,0.001067912,-0.1257102,0.09433498,0,0.3,0,0,0,0,
6.38224E+17,23.01808,29.47991,41.37135,22.41923,10.30297,10.48027,-16.98673,-0.4441859,-4.295897,-61.44649,-6.98289,34.57793,0,0,0,79.85477,-11.0974,19.6111,-36.03881,-110.6591,-50.37467,0.001067912,-0.1257102,0.09433498,0,0.3,0,0,0,0,
6.38224E+17,21.93432,29.45654,41.30132,21.32055,10.22972,11.5057,-16.98673,-0.4441859,-4.295897,-61.44649,-6.98289,34.57793,0,0,0,76.24966,-11.25244,20.99914,-36.03881,-110.6591,-50.37467,0.001067912,-0.1257102,0.09433498,0,0.3,0,0,0,0,
6.38224E+17,18.35321,29.3864,40.76432,17.73154,10.37621,14.87498,-16.98673,-0.4441859,-4.295897,-61.44649,-7.056135,34.57793,0,0,0,64.00214,-12.21508,24.5734,-36.03881,-110.6591,-50.37467,0.001067912,-0.1257102,0.09433498,0,0.3,0,0,0,0,
6.38224E+17,13.92394,29.36302,40.18064,12.97061,10.59595,18.46399,-16.98673,-0.4441859,-4.295897,-61.44649,-6.98289,34.57793,0,0,0,48.66957,-13.14425,27.96287,-36.03881,-110.6591,-50.37467,0.001067912,-0.1257102,0.09433498,0,0.3,0,0,0,0,
6.38224E+17,9.329745,29.45654,40.22734,6.451786,10.74244,21.54029,-16.98673,-0.4441859,-4.295897,-61.44649,-6.98289,34.57793,0,0,0,32.78508,-12.8845,31.20689,-36.03881,-110.6591,-50.37467,0.001067912,-0.1257102,0.09433498,0,0.3,0,0,0,0,
6.38224E+17,7.232908,29.73707,40.46081,3.082508,10.6692,23.00519,-16.98673,-0.4441859,-4.295897,-61.44649,-6.98289,34.57793,0,0,0,25.47318,-11.965,32.36378,-36.03881,-110.6591,-50.37467,0.001067912,-0.1257102,0.09433498,0,0.3,0,0,0,0,
6.38224E+17,3.604674,31.2099,41.55813,-4.168763,9.8635,26.15474,-16.98673,-0.4441859,-4.295897,-61.44649,-6.98289,34.57793,0,0,0,12.73236,-7.334931,33.76191,-36.03881,-110.6591,-50.37467,0.001067912,-0.1257102,0.09433498,0,0.3,0,0,0,0,
6.38224E+17,1.107318,33.61786,43.23914,-10.98056,8.178861,29.67051,-16.98673,-0.4441859,-4.295897,-61.44649,-6.98289,34.57793,0,0,0,3.911366,0.0337823,34.00998,-36.03881,-110.6591,-50.37467,0.001067912,-0.1257102,0.09433498,0,0.3,0,0,0,0,
6.38224E+17,0.2591596,35.13744,44.33646,-14.20335,6.933692,31.50163,-16.98673,-0.4441859,-4.295897,-61.44649,-6.98289,34.57793,0,0,0,0.9147868,4.719879,33.89246,-36.03881,-110.6591,-50.37467,0.001067912,-0.1257102,0.09433498,0,0.3,0,0,0,0,
6.38224E+17,-0.7067988,38.57404,47.4183,-19.91648,3.271434,35.60336,-16.98673,-0.4441859,-4.295897,-61.44649,-7.056135,34.57793,0,0,0,-2.49724,16.26705,34.07541,-36.03881,-110.6591,-50.37467,0.001067912,-0.1257102,0.09433498,0,0.3,0,0,0,0,
6.38224E+17,-0.9659585,40.93523,49.96315,-22.91953,-0.02459868,38.60641,-16.98673,-0.4441859,-4.295897,-61.44649,-6.98289,34.57793,0,0,0,-3.419485,24.94024,34.4574,-36.03881,-110.6591,-50.37467,0.001067912,-0.1257102,0.09433498,0,0.3,0,0,0,0,
6.38224E+17,-0.8717186,43.64711,53.20842,-25.77609,-4.565799,42.19543,-16.98673,-0.4441859,-4.295897,-61.44649,-7.056135,34.57793,0,0,0,-3.092685,35.52602,34.90842,-36.03881,-110.6591,-50.37467,0.001067912,-0.1257102,0.09433498,0,0.3,0,0,0,0,
6.38224E+17,-0.6832389,44.97966,55.02951,-27.0945,-7.202625,43.95331,-16.98673,-0.4441859,-4.295897,-61.44649,-6.98289,34.57793,0,0,0,-2.427819,41.17906,35.23497,-36.03881,-110.6591,-50.37467,0.001067912,-0.1257102,0.09433498,0,0.3,0,0,0,0,
6.38224E+17,0.1177998,46.96681,58.18139,-29.21861,-12.62277,47.1761,-16.98673,-0.4441859,-4.295897,-61.44649,-7.056135,34.57793,0,0,0,0.4200626,50.51695,35.96088,-36.03881,-110.6591,-50.37467,0.001067912,-0.1257102,0.09433498,0,0.3,0,0,0,0,
6.38224E+17,1.554958,48.27599,61.12315,-30.1708,-18.11616,50.2524,-16.98673,-0.4441859,-4.295897,-61.44649,-6.98289,34.57793,0,0,0,5.576932,58.47847,37.09372,-36.03881,-110.6591,-50.37467,0.001067912,-0.1257102,0.09433498,0,0.3,0,0,0,0,
6.38224E+17,3.369075,49.00071,62.92088,-29.14537,-23.60954,52.59624,-16.98673,-0.4441859,-4.295897,-61.44649,-6.98289,34.57793,0,0,0,12.11882,63.28796,37.50982,-36.03881,-110.6591,-50.37467,0.001067912,-0.1257102,0.09433498,0,0.3,0,0,0,0,
6.38224E+17,5.583711,49.35139,63.5746,-25.92258,-28.0775,53.69492,-16.98673,-0.4441859,-4.295897,-61.44649,-6.98289,34.57793,0,0,0,20.07137,65.18012,36.95469,-36.03881,-110.6591,-50.37467,0.001067912,-0.1257102,0.09433498,0,0.3,0,0,0,0,
6.38224E+17,6.667469,49.51503,63.71469,-23.43224,-29.68889,53.32869,-16.98673,-0.4441859,-4.295897,-61.44649,-6.98289,34.57793,0,0,0,23.93413,65.71996,36.39472,-36.03881,-110.6591,-50.37467,0.001067912,-0.1257102,0.09433498,0,0.3,0,0,0,0,
6.38224E+17,8.976345,50.09949,63.76138,-17.57263,-32.39896,50.9116,-16.98673,-0.4441859,-4.295897,-61.44649,-6.98289,34.57793,0,0,0,32.00855,66.69527,34.28543,-36.03881,-110.6591,-50.37467,0.001067912,-0.1257102,0.09433498,0,0.3,0,0,0,0,
6.38224E+17,11.42658,50.77746,63.55126,-11.27355,-34.01036,47.02961,-16.98673,-0.4441859,-4.295897,-61.44649,-6.98289,34.57793,0,0,0,40.3583,67.26199,31.32669,-36.03881,-110.6591,-50.37467,0.001067912,-0.1257102,0.09433498,0,0.3,0,0,0,0,
6.38224E+17,12.7695,50.91772,63.29443,-7.977511,-34.52307,44.68576,-16.98673,-0.4441859,-4.295897,-61.44649,-7.056135,34.57793,0,0,0,44.9118,66.93355,29.81829,-36.03881,-110.6591,-50.37467,0.001067912,-0.1257102,0.09433498,0,0.3,0,0,0,0,
6.38224E+17,15.66737,50.80084,62.66406,-1.312202,-34.66956,39.19238,-16.98673,-0.4441859,-4.295897,-61.44649,-6.98289,34.57793,0,0,0,54.74993,65.45484,26.85572,-36.03881,-110.6591,-50.37467,0.001067912,-0.1257102,0.09433498,0,0.3,0,0,0,0,
6.38224E+17,18.63593,50.30989,61.8936,5.060128,-33.71738,32.82005,-16.98673,-0.4441859,-4.295897,-61.44649,-6.98289,34.57793,0,0,0,64.80118,63.14157,23.80411,-36.03881,-110.6591,-50.37467,0.001067912,-0.1257102,0.09433498,0,0.3,0,0,0,0,
6.38224E+17,21.41601,49.39814,60.88967,10.77325,-32.03274,26.15474,-16.98673,-0.4441859,-4.295897,-61.51973,-6.98289,34.57793,0,0,0,74.22861,59.72218,20.90347,-36.03881,-110.6591,-50.37467,0.001067912,-0.1257102,0.09433498,0,0.3,0,0,0,0,
6.38224E+17,22.7118,48.74355,60.18925,13.33683,-30.93406,22.78546,-16.98673,-0.4441859,-4.295897,-61.44649,-6.98289,34.57793,0,0,0,78.62427,57.30476,19.49866,-36.03881,-110.6591,-50.37467,0.001067912,-0.1257102,0.09433498,0,0.3,0,0,0,0,
6.38224E+17,25.0678,47.10708,58.57829,17.43856,-28.00425,16.77936,-16.98673,-0.4441859,-4.295897,-61.44649,-6.98289,34.57793,0,0,0,86.66872,51.52605,16.93892,-36.03881,-110.6591,-50.37467,0.001067912,-0.1257102,0.09433498,0,0.3,0,0,0,0,
6.38224E+17,27.23532,44.81602,56.24356,20.51486,-24.12226,10.8465,-16.98673,-0.4441859,-4.295897,-61.44649,-6.98289,34.57793,0,0,0,94.02939,43.24167,14.33436,-36.03881,-110.6591,-50.37467,0.001067912,-0.1257102,0.09433498,0,0.3,0,0,0,0,
6.38224E+17,28.13059,43.41333,54.70264,21.54029,-21.41219,8.06318,-16.98673,-0.4441859,-4.295897,-61.44649,-6.98289,34.57793,0,0,0,96.9854,37.94336,13.05432,-36.03881,-110.6591,-50.37467,0.001067912,-0.1257102,0.09433498,0,0.3,0,0,0,0,
6.38224E+17,28.67247,42.4782,53.67536,21.90652,-19.6543,6.744767,-16.98673,-0.4441859,-4.295897,-61.44649,-6.98289,34.57793,0,0,0,98.73692,34.41137,12.20255,-36.03881,-110.6591,-50.37467,0.001067912,-0.1257102,0.09433498,0,0.3,0,0,0,0,
6.38224E+17,29.44995,40.42091,51.6208,22.1995,-15.99205,4.474167,-16.98673,-0.4441859,-4.295897,-61.44649,-7.056135,34.57793,0,0,0,101.3097,27.02175,11.07986,-36.03881,-110.6591,-50.37467,0.001067912,-0.1257102,0.09433498,0,0.3,0,0,0,0,
6.38224E+17,29.77979,38.36363,49.37947,22.12625,-12.47628,3.228999,-16.98673,-0.4441859,-4.295897,-61.44649,-6.98289,34.57793,0,0,0,102.2022,19.29668,10.25119,-36.03881,-110.6591,-50.37467,0.001067912,-0.1257102,0.09433498,0,0.3,0,0,0,0,
6.38224E+17,29.75623,37.19472,48.04868,21.90652,-10.49866,2.789528,-16.98673,-0.4441859,-4.295897,-61.44649,-6.98289,34.57793,0,0,0,101.9417,14.81915,9.965926,-36.03881,-110.6591,-50.37467,0.001067912,-0.1257102,0.09433498,0,0.3,0,0,0,0,
6.38224E+17,29.42639,34.92704,45.34039,21.17406,-6.616664,2.276812,-16.98673,-0.4441859,-4.295897,-61.44649,-6.98289,34.57793,0,0,0,100.3159,5.966407,9.49038,-36.03881,-110.6591,-50.37467,0.001067912,-0.1257102,0.09433498,0,0.3,0,0,0,0,
6.38224E+17,28.67247,32.72948,42.37529,19.85565,-2.807915,2.057076,-16.98673,-0.4441859,-4.295897,-61.44649,-6.98289,34.57793,0,0,0,96.84349,-3.264374,8.913299,-36.03881,-110.6591,-50.37467,0.001067912,-0.1257102,0.09433498,0,0.3,0,0,0,0,
6.38224E+17,27.73007,30.53193,39.78374,17.73154,0.6346079,1.910586,-16.98673,-0.4441859,-4.295897,-61.44649,-6.98289,34.57793,0,0,0,93.14978,-11.38056,8.848135,-36.03881,-110.6591,-50.37467,0.001067912,-0.1257102,0.09433498,0,0.3,0,0,0,0,
6.38224E+17,27.21176,29.47991,38.68642,16.55962,2.319247,1.764095,-16.98673,-0.4441859,-4.295897,-61.44649,-6.98289,34.57793,0,0,0,91.19835,-15.11616,9.013277,-36.03881,-110.6591,-50.37467,0.001067912,-0.1257102,0.09433498,0,0.3,0,0,0,0,
6.38224E+17,26.08088,27.60966,36.88868,14.14253,5.835015,1.69085,-16.98673,-0.4441859,-4.295897,-61.44649,-6.98289,34.57793,0,0,0,87.14084,-21.50332,9.676959,-36.03881,-110.6591,-50.37467,0.001067912,-0.1257102,0.09433498,0,0.3,0,0,0,0,
6.38224E+17,24.85576,26.30048,35.53454,12.01842,8.984557,1.69085,-16.98673,-0.4441859,-4.295897,-61.44649,-6.98289,34.57793,0,0,0,82.82629,-26.08106,10.44534,-36.03881,-110.6591,-50.37467,0.001067912,-0.1257102,0.09433498,0,0.3,0,0,0,0,
6.38224E+17,24.17252,25.87967,34.95086,11.06623,10.44946,1.764095,-16.98673,-0.4441859,-4.295897,-61.44649,-6.98289,34.57793,0,0,0,80.41042,-27.74454,10.80105,-36.03881,-110.6591,-50.37467,0.001067912,-0.1257102,0.09433498,0,0.3,0,0,0,0,
6.38224E+17,22.80604,25.80954,34.48391,9.015368,12.72006,2.496547,-16.98673,-0.4441859,-4.295897,-61.44649,-6.98289,34.57793,0,0,0,75.79662,-28.51038,11.90982,-36.03881,-110.6591,-50.37467,0.001067912,-0.1257102,0.09433498,0,0.3,0,0,0,0,
6.38224E+17,21.5338,26.30048,34.64734,7.330729,14.62444,6.232051,-16.98673,-0.4441859,-4.295897,-61.44649,-6.98289,34.57793,0,0,0,71.7064,-27.26809,13.3728,-36.03881,-110.6591,-50.37467,0.001067912,-0.1257102,0.09433498,0,0.3,0,0,0,0,
6.38224E+17,20.87413,26.72129,34.81077,6.671522,15.50338,8.575896,-16.98673,-0.4441859,-4.295897,-61.44649,-6.98289,34.57793,0,0,0,69.56503,-26.17499,14.06996,-36.03881,-110.6591,-50.37467,0.001067912,-0.1257102,0.09433498,0,0.3,0,0,0,0,
6.38224E+17,19.46053,27.82006,35.39445,5.572844,16.6753,13.62981,-16.98673,-0.4441859,-4.295897,-61.44649,-7.056135,34.57793,0,0,0,65.02356,-23.12081,15.67368,-36.03881,-110.6591,-50.37467,0.001067912,-0.1257102,0.09433498,0,0.3,0,0,0,0,
6.38224E+17,17.88201,29.40978,35.83805,4.254431,16.89503,18.3175,-16.98673,-0.4441859,-4.295897,-61.44649,-6.98289,34.57793,0,0,0,59.64325,-19.27169,16.50749,-36.03881,-110.6591,-50.37467,0.001067912,-0.1257102,0.09433498,0,0.3,0,0,0,0,
6.38224E+17,16.49197,31.11639,35.88475,2.496547,16.01609,22.05301,-16.98673,-0.4441859,-4.295897,-61.44649,-6.98289,34.57793,0,0,0,54.59813,-15.77749,16.06506,-36.03881,-110.6591,-50.37467,0.001067912,-0.1257102,0.09433498,0,0.3,0,0,0,0,
6.38224E+17,15.85585,31.77098,35.90809,1.617605,15.50338,23.6644,-16.98673,-0.4441859,-4.295897,-61.44649,-6.98289,34.57793,0,0,0,52.34225,-14.44586,15.93769,-36.03881,-110.6591,-50.37467,0.001067912,-0.1257102,0.09433498,0,0.3,0,0,0,0,
6.38224E+17,14.48938,32.42557,35.88475,-0.0670338,14.47795,26.37447,-16.98673,-0.4441859,-4.295897,-61.44649,-6.98289,34.57793,0,0,0,47.71904,-13.18713,16.30709,-36.03881,-110.6591,-50.37467,0.001067912,-0.1257102,0.09433498,0,0.3,0,0,0,0,
6.38224E+17,13.1229,32.44894,35.74466,-1.678428,14.18496,28.71832,-16.98673,-0.4441859,-4.295897,-61.44649,-6.98289,34.57793,0,0,0,43.23525,-13.33199,17.10665,-36.03881,-110.6591,-50.37467,0.001067912,-0.1257102,0.09433498,0,0.3,0,0,0,0,
6.38224E+17,11.26166,32.44894,35.34776,-3.216576,14.18496,31.2819,-16.98673,-0.4441859,-4.295897,-61.44649,-6.98289,34.57793,0,0,0,37.04221,-13.86902,17.67591,-36.03881,-110.6591,-50.37467,0.001067912,-0.1257102,0.09433498,0,0.3,0,0,0,0,
6.38224E+17,10.43706,32.44894,35.09094,-3.875783,14.18496,32.30733,-16.98673,-0.4441859,-4.295897,-61.44649,-6.98289,34.57793,0,0,0,34.27274,-14.21373,17.70951,-36.03881,-110.6591,-50.37467,0.001067912,-0.1257102,0.09433498,0,0.3,0,0,0,0,
6.38224E+17,8.363786,32.44894,34.29713,-5.780157,14.18496,34.79766,-16.98673,-0.4441859,-4.295897,-61.44649,-6.98289,34.57793,0,0,0,27.06261,-15.29592,17.31386,-36.03881,-110.6591,-50.37467,0.001067912,-0.1257102,0.09433498,0,0.3,0,0,0,0,
6.38224E+17,5.88999,32.47232,33.17647,-7.611286,14.4047,37.58098,-16.98673,-0.4441859,-4.295897,-61.44649,-6.98289,34.57793,0,0,0,19.03296,-16.66794,16.14341,-36.03881,-110.6591,-50.37467,0.001067912,-0.1257102,0.09433498,0,0.3,0,0,0,0,
6.38224E+17,4.499953,32.47232,32.63948,-8.197248,14.4047,39.04589,-16.98673,-0.4441859,-4.295897,-61.44649,-6.98289,34.57793,0,0,0,14.46953,-17.34693,15.50481,-36.03881,-110.6591,-50.37467,0.001067912,-0.1257102,0.09433498,0,0.3,0,0,0,0,
6.38224E+17,0.8717186,32.47232,31.82232,-10.02838,13.89198,42.78139,-16.98673,-0.4441859,-4.295897,-61.44649,-6.98289,34.57793,0,0,0,2.781299,-18.36123,14.44339,-36.03881,-110.6591,-50.37467,0.001067912,-0.1257102,0.09433498,0,0.3,0,0,0,0,
6.38224E+17,-3.251275,32.40219,31.65889,-12.95818,13.01304,45.93093,-16.98673,-0.4441859,-4.295897,-61.44649,-6.98289,34.57793,0,0,0,-10.35495,-18.6991,13.93475,-36.03881,-110.6591,-50.37467,0.001067912,-0.1257102,0.09433498,0,0.3,0,0,0,0,
6.38224E+17,-7.397828,32.30868,32.12584,-17.64587,11.62138,48.20153,-16.98673,-0.4441859,-4.295897,-61.44649,-6.98289,34.57793,0,0,0,-23.64226,-18.30879,13.73938,-36.03881,-110.6591,-50.37467,0.001067912,-0.1257102,0.09433498,0,0.3,0,0,0,0,
6.38224E+17,-9.494664,32.26192,32.66283,-20.64893,10.6692,48.93398,-16.98673,-0.4441859,-4.295897,-61.44649,-6.98289,34.57793,0,0,0,-30.47248,-17.73122,13.85058,-36.03881,-110.6591,-50.37467,0.001067912,-0.1257102,0.09433498,0,0.3,0,0,0,0,
6.38224E+17,-12.95798,32.19178,33.97027,-27.31424,8.545086,49.73968,-16.98673,-0.4441859,-4.295897,-61.44649,-6.98289,34.57793,0,0,0,-42.01316,-16.19796,14.23986,-36.03881,-110.6591,-50.37467,0.001067912,-0.1257102,0.09433498,0,0.3,0,0,0,0,
6.38224E+17,-14.67786,32.14503,34.99755,-32.14842,6.933692,49.59319,-16.98673,-0.4441859,-4.295897,-61.44649,-7.056135,34.57793,0,0,0,-47.98834,-14.93644,14.85914,-36.03881,-110.6591,-50.37467,0.001067912,-0.1257102,0.09433498,0,0.3,0,0,0,0,
6.38224E+17,-15.29041,32.14503,35.44115,-34.63876,6.127995,49.30021,-16.98673,-0.4441859,-4.295897,-61.44649,-6.98289,34.57793,0,0,0,-50.16671,-14.34103,15.14921,-36.03881,-110.6591,-50.37467,0.001067912,-0.1257102,0.09433498,0,0.3,0,0,0,0,
6.38224E+17,-15.83229,32.14503,36.305,-38.88697,4.736337,48.78749,-16.98673,-0.4441859,-4.295897,-61.44649,-6.98289,34.57793,0,0,0,-52.34436,-13.16289,16.2339,-36.03881,-110.6591,-50.37467,0.001067912,-0.1257102,0.09433498,0,0.3,0,0,0,0,
6.38224E+17,-16.06789,32.23854,37.79922,-41.5238,3.564415,48.64101,-16.98673,-0.4441859,-4.295897,-61.44649,-6.98289,34.57793,0,0,0,-53.839,-10.88334,18.57265,-36.03881,-110.6591,-50.37467,0.001067912,-0.1257102,0.09433498,0,0.3,0,0,0,0,
6.38224E+17,-16.58621,32.4957,39.85378,-43.50142,2.319247,49.66644,-16.98673,-0.4441859,-4.295897,-61.44649,-6.98289,34.57793,0,0,0,-56.49962,-7.379972,21.34092,-36.03881,-110.6591,-50.37467,0.001067912,-0.1257102,0.09433498,0,0.3,0,0,0,0,
6.38224E+17,-17.15165,33.17367,42.6788,-45.77202,0.6346079,51.86379,-16.98673,-0.4441859,-4.295897,-61.44649,-6.98289,34.57793,0,0,0,-59.57383,-1.718042,24.67841,-36.03881,-110.6591,-50.37467,0.001067912,-0.1257102,0.09433498,0,0.3,0,0,0,0,
6.38224E+17,-17.38725,33.59448,44.14968,-47.09043,-0.3908245,53.10896,-16.98673,-0.4441859,-4.295897,-61.44649,-6.98289,34.57793,0,0,0,-60.94909,1.452416,26.29055,-36.03881,-110.6591,-50.37467,0.001067912,-0.1257102,0.09433498,0,0.3,0,0,0,0,
6.38224E+17,-17.66997,34.52961,47.23152,-49.94699,-2.807915,55.67254,-16.98673,-0.4441859,-4.295897,-61.44649,-6.98289,34.57793,0,0,0,-63.0594,8.387387,29.59935,-36.03881,-110.6591,-50.37467,0.001067912,-0.1257102,0.09433498,0,0.3,0,0,0,0,
6.38224E+17,-17.69353,35.51149,50.05654,-52.51057,-5.591231,58.08963,-16.98673,-0.4441859,-4.295897,-61.44649,-6.98289,34.57793,0,0,0,-64.06243,15.19362,32.46239,-36.03881,-110.6591,-50.37467,0.001067912,-0.1257102,0.09433498,0,0.3,0,0,0,0,
6.38224E+17,-17.69353,36.07257,52.92825,-54.92767,-8.521038,60.94619,-16.98673,-0.4441859,-4.295897,-61.44649,-7.056135,34.57793,0,0,0,-65.09492,21.4824,35.69889,-36.03881,-110.6591,-50.37467,0.001067912,-0.1257102,0.09433498,0,0.3,0,0,0,0,
