zeyangz2/DNN_classification_different_people_hand/data_by_names/Frank/frank_right_27.csv
Timestamp,Therapist joint angle 0,Therapist joint angle 1,Therapist joint angle 2,Therapist joint angle 3,Therapist joint angle 4,Therapist joint angle 5,Patient joint angle 0,Patient joint angle 1,Patient joint angle 2,Patient joint angle 3,Patient joint angle 4,Patient joint angle 5,Virtual joint angle 0,Virtual joint angle 1,Virtual joint angle 2,Therapist position x,Therapist position y,Therapist position z,Patient position x,Patient position y,Patient position z,Virtual position x,Virtual position y,Virtual position z,Assistive Force, Obstacle Force Magnitude, Therapist Constant Force, Patient Constant Force, Recovery Factor, Assistance Level,label
6.38224E+17,0,0,0,0,0,0,0,0,0,0,0,0,0,0,0,0,0,0,0,0,0,0,0,0,0,0.3,0,0,0,0,1
6.38224E+17,23.183,-0.9818845,2.171296,58.30937,-63.01544,15.31445,-16.98673,-0.4441859,-4.27255,-61.44649,-6.909645,34.57793,0,0,0,54.477,-112.1894,-41.14143,-36.05464,-110.6632,-50.32285,0.001067912,-0.1257102,0.09433498,0,0.3,0,0,0,0,
6.38224E+17,23.183,-0.9818845,2.171296,58.30937,-63.08869,15.31445,-16.98673,-0.4441859,-4.27255,-61.51973,-6.909645,34.57793,0,0,0,54.477,-112.1894,-41.14143,-36.05464,-110.6632,-50.32285,0.001067912,-0.1257102,0.09433498,0,0.3,0,0,0,0,
6.38224E+17,23.183,-0.9818845,2.171296,58.38261,-63.01544,15.31445,-16.98673,-0.4441859,-4.27255,-61.51973,-6.98289,34.57793,0,0,0,54.477,-112.1894,-41.14143,-36.05464,-110.6632,-50.32285,0.001067912,-0.1257102,0.09433498,0,0.3,0,0,0,0,
6.38224E+17,23.183,-0.9818845,2.171296,58.30937,-63.01544,15.31445,-16.98673,-0.4441859,-4.27255,-61.51973,-6.909645,34.57793,0,0,0,54.477,-112.1894,-41.14143,-36.05464,-110.6632,-50.32285,0.001067912,-0.1257102,0.09433498,0,0.3,0,0,0,0,
6.38224E+17,23.183,-0.9818845,2.171296,58.30937,-63.01544,15.31445,-16.98673,-0.4441859,-4.27255,-61.51973,-6.98289,34.57793,0,0,0,54.477,-112.1894,-41.14143,-36.05464,-110.6632,-50.32285,0.001067912,-0.1257102,0.09433498,0,0.3,0,0,0,0,
6.38224E+17,23.183,-0.9818845,2.171296,58.30937,-63.08869,15.31445,-16.98673,-0.4441859,-4.27255,-61.44649,-6.909645,34.57793,0,0,0,54.477,-112.1894,-41.14143,-36.05464,-110.6632,-50.32285,0.001067912,-0.1257102,0.09433498,0,0.3,0,0,0,0,
6.38224E+17,23.183,-0.9818845,2.171296,58.30937,-63.08869,15.31445,-16.98673,-0.4441859,-4.27255,-61.44649,-6.98289,34.57793,0,0,0,54.477,-112.1894,-41.14143,-36.05464,-110.6632,-50.32285,0.001067912,-0.1257102,0.09433498,0,0.3,0,0,8.38E-08,0,
6.38224E+17,23.183,-0.9818845,2.171296,58.23612,-63.08869,15.31445,-16.98673,-0.4441859,-4.27255,-61.51973,-6.909645,34.57793,0,0,0,54.477,-112.1894,-41.14143,-36.05464,-110.6632,-50.32285,0.001067912,-0.1257102,0.09433498,0,0.3,0,0,8.38E-08,0,
6.38224E+17,23.183,-0.9818845,2.171296,58.30937,-63.01544,15.31445,-16.98673,-0.4441859,-4.27255,-61.44649,-6.909645,34.57793,0,0,0,54.477,-112.1894,-41.14143,-36.05464,-110.6632,-50.32285,0.001067912,-0.1257102,0.09433498,0,0.3,0,0,8.38E-08,0,
6.38224E+17,23.183,-0.9818845,2.171296,58.30937,-63.01544,15.31445,-16.98673,-0.4441859,-4.27255,-61.44649,-6.98289,34.57793,0,0,0,54.477,-112.1894,-41.14143,-36.05464,-110.6632,-50.32285,0.001067912,-0.1257102,0.09433498,0,0.3,0,0,8.38E-08,0,
6.38224E+17,23.183,-0.9818845,2.171296,58.23612,-63.01544,15.31445,-16.98673,-0.4441859,-4.27255,-61.51973,-6.98289,34.57793,0,0,0,54.477,-112.1894,-41.14143,-36.05464,-110.6632,-50.32285,0.001067912,-0.1257102,0.09433498,0,0.3,0,0,8.38E-08,0,
6.38224E+17,23.183,-0.9818845,2.171296,58.23612,-63.01544,15.31445,-16.98673,-0.4441859,-4.27255,-61.51973,-6.98289,34.57793,0,0,0,54.477,-112.1894,-41.14143,-36.05464,-110.6632,-50.32285,0.001067912,-0.1257102,0.09433498,0,0.3,0,0,8.38E-08,0,
6.38224E+17,23.183,-0.9818845,2.171296,58.30937,-63.08869,15.31445,-16.98673,-0.4441859,-4.27255,-61.51973,-6.98289,34.50468,0,0,0,54.477,-112.1894,-41.14143,-36.05464,-110.6632,-50.32285,0.001067912,-0.1257102,0.09433498,0,0.3,0,0,8.38E-08,0,
6.38224E+17,23.183,-0.9818845,2.171296,58.30937,-63.01544,15.31445,-16.98673,-0.4441859,-4.27255,-61.51973,-6.98289,34.57793,0,0,0,54.477,-112.1894,-41.14143,-36.05464,-110.6632,-50.32285,0.001067912,-0.1257102,0.09433498,0,0.3,0,0,8.38E-08,0,
6.38224E+17,23.183,-0.9818845,2.171296,58.30937,-63.01544,15.31445,-16.98673,-0.4441859,-4.27255,-61.51973,-6.98289,34.57793,0,0,0,54.477,-112.1894,-41.14143,-36.05464,-110.6632,-50.32285,0.001067912,-0.1257102,0.09433498,0,0.3,0,0,8.38E-08,0,
6.38224E+17,23.183,-0.9818845,2.171296,58.23612,-63.01544,15.31445,-16.98673,-0.4441859,-4.27255,-61.44649,-6.98289,34.57793,0,0,0,54.477,-112.1894,-41.14143,-36.05464,-110.6632,-50.32285,0.001067912,-0.1257102,0.09433498,0,0.3,0,0,8.38E-08,0,
6.38224E+17,23.183,-0.9818845,2.171296,58.30937,-63.01544,15.31445,-16.98673,-0.4441859,-4.27255,-61.44649,-6.98289,34.57793,0,0,0,54.477,-112.1894,-41.14143,-36.05464,-110.6632,-50.32285,0.001067912,-0.1257102,0.09433498,0,0.3,0,0,8.38E-08,0,
6.38224E+17,23.183,-0.9818845,2.171296,58.23612,-63.01544,15.31445,-16.98673,-0.4441859,-4.27255,-61.44649,-6.909645,34.57793,0,0,0,54.477,-112.1894,-41.14143,-36.05464,-110.6632,-50.32285,0.001067912,-0.1257102,0.09433498,0,0.3,0,0,8.38E-08,0,
6.38224E+17,23.183,-0.9818845,2.171296,58.30937,-63.01544,15.31445,-16.98673,-0.4441859,-4.27255,-61.51973,-6.98289,34.57793,0,0,0,54.477,-112.1894,-41.14143,-36.05464,-110.6632,-50.32285,0.001067912,-0.1257102,0.09433498,0,0.3,0,0,8.38E-08,0,
6.38224E+17,23.183,-0.9818845,2.171296,58.30937,-63.08869,15.31445,-16.98673,-0.4441859,-4.27255,-61.51973,-6.98289,34.57793,0,0,0,54.477,-112.1894,-41.14143,-36.05464,-110.6632,-50.32285,0.001067912,-0.1257102,0.09433498,0,0.3,0,0,8.38E-08,0,
6.38224E+17,23.183,-0.9818845,2.171296,58.30937,-63.01544,15.31445,-16.98673,-0.4441859,-4.27255,-61.51973,-6.909645,34.57793,0,0,0,54.477,-112.1894,-41.14143,-36.05464,-110.6632,-50.32285,0.001067912,-0.1257102,0.09433498,0,0.3,0,0,8.38E-08,0,
6.38224E+17,23.183,-0.9818845,2.171296,58.30937,-63.01544,15.31445,-16.98673,-0.4441859,-4.27255,-61.51973,-6.98289,34.57793,0,0,0,54.477,-112.1894,-41.14143,-36.05464,-110.6632,-50.32285,0.001067912,-0.1257102,0.09433498,0,0.3,0,0,8.38E-08,0,
6.38224E+17,23.183,-0.9818845,2.171296,58.23612,-63.08869,15.31445,-16.98673,-0.4441859,-4.27255,-61.51973,-6.98289,34.50468,0,0,0,54.477,-112.1894,-41.14143,-36.05464,-110.6632,-50.32285,0.001067912,-0.1257102,0.09433498,0,0.3,0,0,8.38E-08,0,
6.38224E+17,23.183,-0.9818845,2.171296,58.30937,-63.08869,15.31445,-16.98673,-0.4441859,-4.27255,-61.44649,-6.909645,34.57793,0,0,0,54.477,-112.1894,-41.14143,-36.05464,-110.6632,-50.32285,0.001067912,-0.1257102,0.09433498,0,0.3,0,0,8.38E-08,0,
6.38224E+17,23.183,-0.9818845,2.171296,58.30937,-63.08869,15.31445,-16.98673,-0.4441859,-4.27255,-61.51973,-6.98289,34.50468,0,0,0,54.477,-112.1894,-41.14143,-36.05464,-110.6632,-50.32285,0.001067912,-0.1257102,0.09433498,0,0.3,0,0,8.38E-08,0,
6.38224E+17,23.183,-0.9818845,2.171296,58.30937,-63.01544,15.31445,-16.98673,-0.4441859,-4.27255,-61.44649,-6.98289,34.57793,0,0,0,54.477,-112.1894,-41.14143,-36.05464,-110.6632,-50.32285,0.001067912,-0.1257102,0.09433498,0,0.3,0,0,8.38E-08,0,
6.38224E+17,23.183,-0.9818845,2.171296,58.23612,-63.01544,15.31445,-16.98673,-0.4441859,-4.27255,-61.44649,-6.98289,34.57793,0,0,0,54.477,-112.1894,-41.14143,-36.05464,-110.6632,-50.32285,0.001067912,-0.1257102,0.09433498,0,0.3,0,0,8.38E-08,0,
6.38224E+17,23.183,-0.9818845,2.171296,58.30937,-63.01544,15.31445,-16.98673,-0.4441859,-4.27255,-61.44649,-6.98289,34.57793,0,0,0,54.477,-112.1894,-41.14143,-36.05464,-110.6632,-50.32285,0.001067912,-0.1257102,0.09433498,0,0.3,0,0,8.38E-08,0,
6.38224E+17,23.183,-0.9818845,2.171296,58.30937,-63.01544,15.31445,-16.98673,-0.4441859,-4.27255,-61.44649,-6.909645,34.57793,0,0,0,54.477,-112.1894,-41.14143,-36.05464,-110.6632,-50.32285,0.001067912,-0.1257102,0.09433498,0,0.3,0,0,8.38E-08,0,
6.38224E+17,23.183,-0.9818845,2.171296,58.30937,-63.01544,15.31445,-16.98673,-0.4441859,-4.27255,-61.51973,-6.98289,34.57793,0,0,0,54.477,-112.1894,-41.14143,-36.05464,-110.6632,-50.32285,0.001067912,-0.1257102,0.09433498,0,0.3,0,0,8.38E-08,0,
6.38224E+17,23.183,-0.9818845,2.171296,58.23612,-63.08869,15.31445,-16.98673,-0.4441859,-4.27255,-61.51973,-6.909645,34.57793,0,0,0,54.477,-112.1894,-41.14143,-36.05464,-110.6632,-50.32285,0.001067912,-0.1257102,0.09433498,0,0.3,0,0,8.38E-08,0,
6.38224E+17,23.183,-0.9818845,2.171296,58.30937,-63.01544,15.31445,-16.98673,-0.4441859,-4.27255,-61.44649,-6.909645,34.57793,0,0,0,54.477,-112.1894,-41.14143,-36.05464,-110.6632,-50.32285,0.001067912,-0.1257102,0.09433498,0,0.3,0,0,8.38E-08,0,
6.38224E+17,23.183,-0.9818845,2.171296,58.30937,-63.01544,15.31445,-16.98673,-0.4441859,-4.27255,-61.51973,-6.909645,34.57793,0,0,0,54.477,-112.1894,-41.14143,-36.05464,-110.6632,-50.32285,0.001067912,-0.1257102,0.09433498,0,0.3,0,0,8.38E-08,0,
6.38224E+17,23.183,-0.9818845,2.171296,58.23612,-63.08869,15.3877,-16.98673,-0.4441859,-4.27255,-61.44649,-6.98289,34.57793,0,0,0,54.477,-112.1894,-41.14143,-36.05464,-110.6632,-50.32285,0.001067912,-0.1257102,0.09433498,0,0.3,0,0,8.38E-08,0,
6.38224E+17,23.183,-0.9818845,2.171296,58.23612,-63.01544,15.31445,-16.98673,-0.4441859,-4.27255,-61.51973,-6.98289,34.57793,0,0,0,54.477,-112.1894,-41.14143,-36.05464,-110.6632,-50.32285,0.001067912,-0.1257102,0.09433498,0,0.3,0,0,8.38E-08,0,
6.38224E+17,23.183,-0.9818845,2.171296,58.30937,-63.01544,15.31445,-16.98673,-0.4441859,-4.27255,-61.51973,-6.98289,34.57793,0,0,0,54.477,-112.1894,-41.14143,-36.05464,-110.6632,-50.32285,0.001067912,-0.1257102,0.09433498,0,0.3,0,0,8.38E-08,0,
6.38224E+17,23.13588,-0.9818845,2.171296,58.74884,-63.01544,15.31445,-16.98673,-0.4441859,-4.27255,-61.51973,-6.98289,34.57793,0,0,0,54.37236,-112.1894,-41.09666,-36.05464,-110.6632,-50.32285,0.001067912,-0.1257102,0.09433498,0,0.3,0,0,1.72E-05,0,
6.38224E+17,23.13588,-0.9818845,2.147949,59.77427,-63.01544,15.31445,-16.98673,-0.4441859,-4.27255,-61.51973,-6.909645,34.57793,0,0,0,54.35103,-112.1914,-41.1466,-36.05464,-110.6632,-50.32285,0.001067912,-0.1257102,0.09433498,0,0.3,0,0,5.86E-05,0,
6.38224E+17,23.13588,-0.9818845,2.147949,59.99401,-63.01544,15.31445,-16.98673,-0.4441859,-4.27255,-61.51973,-6.909645,34.57793,0,0,0,54.35103,-112.1914,-41.1466,-36.05464,-110.6632,-50.32285,0.001067912,-0.1257102,0.09433498,0,0.3,0,0,7.84E-05,0,
6.38224E+17,23.13588,-0.9818845,1.844434,59.48129,-63.01544,15.3877,-16.98673,-0.4441859,-4.27255,-61.51973,-6.909645,34.57793,0,0,0,54.07364,-112.216,-41.79579,-36.05464,-110.6632,-50.32285,0.001067912,-0.1257102,0.09433498,0,0.3,0,0,0.00019516,0,
6.38224E+17,22.31128,-0.9818845,2.568199,57.0642,-63.08869,15.46094,-16.98673,-0.4441859,-4.27255,-61.44649,-6.909645,34.57793,0,0,0,52.88576,-112.1512,-39.47348,-36.05464,-110.6632,-50.32285,0.001067912,-0.1257102,0.09433498,0,0.3,0,0,0.000503156,0,
6.38224E+17,21.34533,-1.005263,3.291965,55.52605,-63.08869,15.46094,-16.98673,-0.4441859,-4.27255,-61.51973,-6.909645,34.57793,0,0,0,51.31758,-112.1195,-37.03423,-36.05464,-110.6632,-50.32285,0.001067912,-0.1257102,0.09433498,0,0.3,0,0,0.000895906,0,
6.38224E+17,19.20137,-1.005263,5.346524,50.61862,-63.16194,18.68373,-16.98673,-0.4441859,-4.27255,-61.44649,-6.98289,34.57793,0,0,0,47.93721,-111.7594,-30.70366,-36.05464,-110.6632,-50.32285,0.001067912,-0.1257102,0.09433498,0,0.3,0,0,0.002167209,0,
6.38224E+17,18.18829,-1.005263,6.583929,43.66033,-63.16194,25.86176,-16.98673,-0.4441859,-4.27255,-61.51973,-6.98289,34.57793,0,0,0,46.39011,-111.4601,-27.15644,-36.05464,-110.6632,-50.32285,0.001067912,-0.1257102,0.09433498,0,0.3,0,0,0.003570295,0,
6.38224E+17,16.53909,-1.005263,8.428363,30.91567,-63.16194,39.70509,-16.98673,-0.4441859,-4.27255,-61.51973,-6.98289,34.57793,0,0,0,43.51883,-110.8993,-21.80014,-36.05464,-110.6632,-50.32285,0.001067912,-0.1257102,0.09433498,0,0.3,0,0,0.005267462,0,
6.38224E+17,15.83229,-1.005263,9.502337,25.05606,-63.16194,45.93093,-16.98673,-0.4441859,-4.27255,-61.51973,-6.909645,34.57793,0,0,0,42.38133,-110.5098,-18.89913,-36.05464,-110.6632,-50.32285,0.001067912,-0.1257102,0.09433498,0,0.3,0,0,0.006106614,0,
6.38224E+17,14.51294,-1.005263,11.69698,15.97366,-63.16194,54.72035,-16.98673,-0.4441859,-4.27255,-61.51973,-6.98289,34.57793,0,0,0,40.18706,-109.5703,-13.10277,-36.05464,-110.6632,-50.32285,0.001067912,-0.1257102,0.09433498,0,0.3,0,0,0.007670404,0,
6.38224E+17,12.93442,-1.005263,13.42468,2.130321,-62.86895,68.4172,-16.98673,-0.4441859,-4.27255,-61.51973,-6.98289,34.57793,0,0,0,36.77372,-108.6959,-8.22959,-36.05464,-110.6632,-50.32285,0.001067912,-0.1257102,0.09433498,0,0.3,0,0,0.009195465,0,
6.38224E+17,10.5313,-1.005263,14.89556,-16.40071,-60.45186,92.14863,-16.98673,-0.4441859,-4.27255,-61.51973,-6.909645,34.57793,0,0,0,30.63419,-107.8584,-3.565188,-36.05464,-110.6632,-50.32285,0.001067912,-0.1257102,0.09433498,0,0.3,0,0,0.01124531,0,
6.38224E+17,8.033947,-0.9818845,16.50652,-31.41597,-55.76417,110.1669,-16.98673,-0.4441859,-4.27255,-61.51973,-6.98289,34.57793,0,0,0,23.92945,-106.7894,1.187974,-36.05464,-110.6632,-50.32285,0.001067912,-0.1257102,0.09433498,0,0.3,0,0,0.01384651,0,
6.38224E+17,6.855949,-0.9818845,17.34702,-36.25014,-52.90761,115.8801,-16.98673,-0.4441859,-4.27255,-61.44649,-6.909645,34.50468,0,0,0,20.66234,-106.2199,3.502132,-36.05464,-110.6632,-50.32285,0.001067912,-0.1257102,0.09433498,0,0.3,0,0,0.01527374,0,
6.38224E+17,5.112512,-0.9818845,19.82183,-43.64791,-47.7072,127.9655,-16.98673,-0.4441859,-4.27255,-61.44649,-6.909645,34.57793,0,0,0,15.91082,-104.3844,9.488585,-36.05464,-110.6632,-50.32285,0.001067912,-0.1257102,0.09433498,0,0.3,0,0,0.01785139,0,
6.38224E+17,4.193673,-0.9585064,24.02434,-51.26541,-44.41117,142.4681,-16.98673,-0.4441859,-4.27255,-61.44649,-6.98289,34.50468,0,0,0,13.72039,-100.679,18.76907,-36.05464,-110.6632,-50.32285,0.001067912,-0.1257102,0.09433498,0,0.3,0,0,0.01915246,0,
6.38224E+17,3.816714,-0.9585064,26.26567,-56.31932,-43.38574,144.5922,-16.98673,-0.4441859,-4.27255,-61.44649,-6.98289,34.57793,0,0,0,12.80332,-98.46256,23.56665,-36.05464,-110.6632,-50.32285,0.001067912,-0.1257102,0.09433498,0,0.3,0,0,0.01913443,0,
6.38224E+17,3.533994,-0.6779679,29.16073,-65.40173,-42.06733,144.8119,-16.98673,-0.4441859,-4.27255,-61.51973,-6.98289,34.57793,0,0,0,12.2244,-94.67657,29.58984,-36.05464,-110.6632,-50.32285,0.001067912,-0.1257102,0.09433498,0,0.3,0,0,0.01814296,0,
6.38224E+17,3.298395,0.0233782,30.67831,-72.79948,-41.11514,144.7387,-16.98673,-0.4441859,-4.27255,-61.51973,-6.98289,34.57793,0,0,0,11.58704,-91.28266,32.70386,-36.05464,-110.6632,-50.32285,0.001067912,-0.1257102,0.09433498,0,0.3,0,0,0.016382,0,
6.38224E+17,2.874315,0.8416153,30.95848,-77.41393,-39.94322,144.7387,-16.98673,-0.4441859,-4.27255,-61.51973,-6.909645,34.57793,0,0,0,10.12598,-89.0443,33.32904,-36.05464,-110.6632,-50.32285,0.001067912,-0.1257102,0.09433498,0,0.3,0,0,0.01449931,0,
6.38224E+17,2.544476,1.192288,31.02851,-78.51261,-38.99103,144.8119,-16.98673,-0.4441859,-4.27255,-61.51973,-6.909645,34.57793,0,0,0,8.970356,-88.14433,33.50912,-36.05464,-110.6632,-50.32285,0.001067912,-0.1257102,0.09433498,0,0.3,0,0,0.01360969,0,
6.38224E+17,1.696317,2.010525,31.6122,-78.73235,-36.06122,144.8119,-16.98673,-0.4441859,-4.27255,-61.51973,-6.98289,34.57793,0,0,0,6.014107,-85.53458,34.72657,-36.05464,-110.6632,-50.32285,0.001067912,-0.1257102,0.09433498,0,0.3,0,0,0.01184538,0,
6.38224E+17,0.6361189,3.413218,33.05973,-77.12095,-30.05512,144.7387,-16.98673,-0.4441859,-4.27255,-61.44649,-6.98289,34.57793,0,0,0,2.28546,-80.47173,37.49493,-36.05464,-110.6632,-50.32285,0.001067912,-0.1257102,0.09433498,0,0.3,0,0,0.00977541,0,
6.38224E+17,0.09423985,4.41848,34.06366,-75.65604,-26.24637,144.8852,-16.98673,-0.4441859,-4.27255,-61.44649,-6.98289,34.50468,0,0,0,0.3415332,-76.84587,39.29456,-36.05464,-110.6632,-50.32285,0.001067912,-0.1257102,0.09433498,0,0.3,0,0,0.007367605,0,
6.38224E+17,-0.2355996,5.166583,34.81077,-74.7771,-23.68279,144.8119,-16.98673,-0.4441859,-4.27255,-61.44649,-6.98289,34.57793,0,0,0,-0.8591296,-74.12754,40.58169,-36.05464,-110.6632,-50.32285,0.001067912,-0.1257102,0.09433498,0,0.3,0,0,0.005954208,0,
6.38224E+17,-0.588999,6.873192,36.07153,-72.653,-18.48238,144.8852,-16.98673,-0.4441859,-4.27255,-61.51973,-6.98289,34.57793,0,0,0,-2.168085,-68.47618,42.54631,-36.05464,-110.6632,-50.32285,0.001067912,-0.1257102,0.09433498,0,0.3,0,0,0.002691239,0,
6.38224E+17,-0.3769594,9.187634,36.3517,-69.79643,-13.50171,144.8119,-16.98673,-0.4441859,-4.27255,-61.44649,-6.98289,34.57793,0,0,0,-1.386099,-62.75752,42.32655,-36.05464,-110.6632,-50.32285,0.001067912,-0.1257102,0.09433498,0,0.3,0,0,0,0,
6.38224E+17,-0.1884797,12.99828,36.88868,-67.96531,-8.887264,144.8852,-16.98673,-0.4441859,-4.27255,-61.51973,-6.98289,34.57793,0,0,0,-0.6907409,-53.31044,41.62698,-36.05464,-110.6632,-50.32285,0.001067912,-0.1257102,0.09433498,0,0.3,0,0,0,0,
6.38224E+17,0.1413598,15.45299,37.07546,-67.52583,-7.056135,144.8119,-16.98673,-0.4441859,-4.27255,-61.44649,-6.98289,34.57793,0,0,0,0.5154493,-47.51146,40.5709,-36.05464,-110.6632,-50.32285,0.001067912,-0.1257102,0.09433498,0,0.3,0,0,0,0,
6.38224E+17,1.177998,20.71309,37.33228,-66.93987,-5.591231,144.8119,-16.98673,-0.4441859,-4.27255,-61.51973,-6.98289,34.57793,0,0,0,4.226806,-35.51648,37.20554,-36.05464,-110.6632,-50.32285,0.001067912,-0.1257102,0.09433498,0,0.3,0,0,0,0,
6.38224E+17,2.308876,26.30048,38.77981,-66.06093,-6.103948,144.7387,-16.98673,-0.4441859,-4.27255,-61.51973,-6.909645,34.57793,0,0,0,8.180875,-21.51962,34.5521,-36.05464,-110.6632,-50.32285,0.001067912,-0.1257102,0.09433498,0,0.3,0,0,0,0,
6.38224E+17,2.780076,29.176,40.25069,-65.91444,-7.056135,144.8119,-16.98673,-0.4441859,-4.27255,-61.44649,-6.909645,34.57793,0,0,0,9.826265,-13.4187,34.00481,-36.05464,-110.6632,-50.32285,0.001067912,-0.1257102,0.09433498,0,0.3,0,0,0,0,
6.38224E+17,3.274835,34.03867,43.75277,-67.08636,-9.473226,144.8119,-16.98673,-0.4441859,-4.27255,-61.44649,-6.98289,34.57793,0,0,0,11.58047,1.670192,34.03871,-36.05464,-110.6632,-50.32285,0.001067912,-0.1257102,0.09433498,0,0.3,0,0,0,0,
6.38224E+17,4.028753,38.55066,47.23152,-70.16266,-11.89032,144.8119,-16.98673,-0.4441859,-4.27255,-61.51973,-6.98289,34.57793,0,0,0,14.20458,15.9049,33.33046,-36.05464,-110.6632,-50.32285,0.001067912,-0.1257102,0.09433498,0,0.3,0,0,0,0,
6.38224E+17,5.371671,43.36657,49.84641,-73.60519,-14.38065,144.8852,-16.98673,-0.4441859,-4.27255,-61.44649,-6.98289,34.50468,0,0,0,18.61687,28.92732,29.64073,-36.05464,-110.6632,-50.32285,0.001067912,-0.1257102,0.09433498,0,0.3,0,0,0,0,
6.38224E+17,7.515628,48.81369,52.48465,-77.34068,-17.89642,144.8852,-16.98673,-0.4441859,-4.27255,-61.44649,-6.909645,34.57793,0,0,0,25.32015,42.49884,23.57115,-36.05464,-110.6632,-50.32285,0.001067912,-0.1257102,0.09433498,0,0.3,0,0,0,0,
6.38224E+17,8.552266,50.89435,53.41854,-79.02532,-19.43457,144.8119,-16.98673,-0.4441859,-4.27255,-61.51973,-6.98289,34.57793,0,0,0,28.4325,47.35556,20.71632,-36.05464,-110.6632,-50.32285,0.001067912,-0.1257102,0.09433498,0,0.3,0,0,0,0,
6.38224E+17,11.3559,54.68162,55.05285,-82.32136,-22.58411,144.8119,-16.98673,-0.4441859,-4.27255,-61.51973,-6.909645,34.57793,0,0,0,36.70202,55.7716,14.39758,-36.05464,-110.6632,-50.32285,0.001067912,-0.1257102,0.09433498,0,0.3,0,0,0,0,
6.38224E+17,15.17262,57.72078,55.65988,-84.15249,-25.51392,144.8852,-16.98673,-0.4441859,-4.27255,-61.51973,-6.98289,34.57793,0,0,0,47.45717,60.86819,6.651961,-36.05464,-110.6632,-50.32285,0.001067912,-0.1257102,0.09433498,0,0.3,0,0,0,0,
6.38224E+17,17.31657,58.9832,55.68323,-84.006,-26.90557,144.8852,-16.98673,-0.4441859,-4.27255,-61.44649,-6.98289,34.57793,0,0,0,53.23549,62.45468,2.39552,-36.05464,-110.6632,-50.32285,0.001067912,-0.1257102,0.09433498,0,0.3,0,0,0,0,
6.38224E+17,22.05212,60.87684,55.68323,-82.17487,-30.20161,144.8852,-16.98673,-0.4441859,-4.27255,-61.51973,-6.909645,34.57793,0,0,0,65.71805,64.66286,-6.117199,-36.05464,-110.6632,-50.32285,0.001067912,-0.1257102,0.09433498,0,0.3,0,0,0,0,
6.38224E+17,27.09396,62.23278,55.65988,-79.4648,-34.59632,144.8119,-16.98673,-0.4441859,-4.27255,-61.51973,-6.98289,34.57793,0,0,0,78.44357,66.12112,-15.01794,-36.05464,-110.6632,-50.32285,0.001067912,-0.1257102,0.09433498,0,0.3,0,0,0,0,
6.38224E+17,32.39495,62.51331,55.40306,-76.75472,-40.16295,144.8119,-16.98673,-0.4441859,-4.27255,-61.51973,-6.98289,34.57793,0,0,0,91.78293,65.9311,-23.69505,-36.05464,-110.6632,-50.32285,0.001067912,-0.1257102,0.09433498,0,0.3,0,0,0,0,
6.38224E+17,35.17502,62.30291,55.21629,-75.14333,-43.23925,144.8119,-16.98673,-0.4441859,-4.27255,-61.51973,-6.909645,34.57793,0,0,0,98.79852,65.34686,-28.16447,-36.05464,-110.6632,-50.32285,0.001067912,-0.1257102,0.09433498,0,0.3,0,0,0,0,
6.38224E+17,40.94721,60.90022,54.72599,-70.23591,-50.56377,144.8119,-16.98673,-0.4441859,-4.27255,-61.44649,-6.98289,34.57793,0,0,0,113.8493,62.85984,-37.13745,-36.05464,-110.6632,-50.32285,0.001067912,-0.1257102,0.09433498,0,0.3,0,0,0,0,
6.38224E+17,44.69325,58.65591,53.3952,-64.52278,-56.49662,143.347,-16.98673,-0.4441859,-4.27255,-61.51973,-6.98289,34.57793,0,0,0,124.0743,57.72318,-42.93999,-36.05464,-110.6632,-50.32285,0.001067912,-0.1257102,0.09433498,0,0.3,0,0,0,0,
6.38224E+17,46.05972,57.08957,52.32122,-61.29999,-58.69398,141.0032,-16.98673,-0.4441859,-4.27255,-61.44649,-6.909645,34.57793,0,0,0,128.1659,53.79208,-44.83952,-36.05464,-110.6632,-50.32285,0.001067912,-0.1257102,0.09433498,0,0.3,0,0,0,0,
6.38224E+17,48.133,53.6296,50.29001,-54.85442,-60.37862,139.8312,-16.98673,-0.4441859,-4.27255,-61.51973,-6.98289,34.57793,0,0,0,135.2826,45.52588,-47.10841,-36.05464,-110.6632,-50.32285,0.001067912,-0.1257102,0.09433498,0,0.3,0,0,0,0,
6.38224E+17,49.311,50.193,49.0993,-49.50752,-58.54749,139.6848,-16.98673,-0.4441859,-4.27255,-61.44649,-6.909645,34.57793,0,0,0,141.16,38.47926,-46.98041,-36.05464,-110.6632,-50.32285,0.001067912,-0.1257102,0.09433498,0,0.3,0,0,0,0,
6.38224E+17,49.9,47.24735,48.60901,-46.72421,-55.25146,139.6848,-16.98673,-0.4441859,-4.27255,-61.44649,-6.909645,34.50468,0,0,0,145.7663,33.09751,-45.60336,-36.05464,-110.6632,-50.32285,0.001067912,-0.1257102,0.09433498,0,0.3,0,0,0,0,
6.38224E+17,49.94712,44.41859,48.14206,-46.21149,-49.61158,140.051,-16.98673,-0.4441859,-4.27255,-61.51973,-6.98289,34.57793,0,0,0,148.9291,27.69842,-43.14919,-36.05464,-110.6632,-50.32285,0.001067912,-0.1257102,0.09433498,0,0.3,0,0,0,0,
6.38224E+17,49.92356,43.50684,48.00198,-46.21149,-46.46204,140.5637,-16.98673,-0.4441859,-4.27255,-61.44649,-6.98289,34.57793,0,0,0,149.8381,25.92848,-42.27985,-36.05464,-110.6632,-50.32285,0.001067912,-0.1257102,0.09433498,0,0.3,0,0,0,0,
6.38224E+17,49.92356,42.57171,47.95528,-44.89308,-41.18839,141.0032,-16.98673,-0.4441859,-4.27255,-61.44649,-6.98289,34.57793,0,0,0,150.919,24.25705,-41.37038,-36.05464,-110.6632,-50.32285,0.001067912,-0.1257102,0.09433498,0,0.3,0,0,0,0,
6.38224E+17,49.9,42.33792,47.97863,-42.69572,-38.18533,141.0032,-16.98673,-0.4441859,-4.27255,-61.44649,-6.98289,34.57793,0,0,0,151.1756,23.89597,-41.04832,-36.05464,-110.6632,-50.32285,0.001067912,-0.1257102,0.09433498,0,0.3,0,0,0,0,
6.38224E+17,49.80576,42.33792,47.97863,-41.15757,-37.74586,140.5637,-16.98673,-0.4441859,-4.27255,-61.51973,-6.98289,34.57793,0,0,0,150.966,23.89597,-40.79985,-36.05464,-110.6632,-50.32285,0.001067912,-0.1257102,0.09433498,0,0.3,0,0,0,0,
6.38224E+17,49.5466,42.33792,47.88524,-38.22777,-39.06427,137.9269,-16.98673,-0.4441859,-4.27255,-61.44649,-6.98289,34.57793,0,0,0,150.2767,23.73461,-40.21279,-36.05464,-110.6632,-50.32285,0.001067912,-0.1257102,0.09433498,0,0.3,0,0,0,0,
6.38224E+17,48.98116,42.24441,47.48834,-37.12909,-42.21382,136.6817,-16.98673,-0.4441859,-4.27255,-61.51973,-6.98289,34.57793,0,0,0,148.6462,22.89053,-39.04802,-36.05464,-110.6632,-50.32285,0.001067912,-0.1257102,0.09433498,0,0.3,0,0,0,0,
6.38224E+17,47.70892,41.35604,45.92407,-41.08433,-45.07038,141.4426,-16.98673,-0.4441859,-4.27255,-61.51973,-6.909645,34.57793,0,0,0,144.9113,18.69944,-36.53206,-36.05464,-110.6632,-50.32285,0.001067912,-0.1257102,0.09433498,0,0.3,0,0,0,0,
6.38224E+17,46.97857,40.63132,44.94349,-44.30712,-45.72958,143.933,-16.98673,-0.4441859,-4.27255,-61.44649,-6.909645,34.50468,0,0,0,142.8574,15.80042,-35.03336,-36.05464,-110.6632,-50.32285,0.001067912,-0.1257102,0.09433498,0,0.3,0,0,0,0,
6.38224E+17,45.25869,38.64417,42.84223,-50.45971,-44.99713,144.8852,-16.98673,-0.4441859,-4.27255,-61.44649,-6.909645,34.57793,0,0,0,138.3842,8.848593,-31.20977,-36.05464,-110.6632,-50.32285,0.001067912,-0.1257102,0.09433498,0,0.3,0,0,0,0,
6.38224E+17,43.35033,36.56351,40.48416,-52.80355,-41.40812,142.6146,-16.98673,-0.4441859,-4.27255,-61.44649,-6.98289,34.57793,0,0,0,132.9546,1.364313,-27.51011,-36.05464,-110.6632,-50.32285,0.001067912,-0.1257102,0.09433498,0,0.3,0,0,0,0,
6.38224E+17,41.46553,34.3192,37.6358,-51.11892,-34.81605,134.7041,-16.98673,-0.4441859,-4.27255,-61.51973,-6.98289,34.57793,0,0,0,126.8477,-7.067863,-24.80082,-36.05464,-110.6632,-50.32285,0.001067912,-0.1257102,0.09433498,0,0.3,0,0,0,0,
6.38224E+17,40.38177,32.89313,35.55789,-47.96938,-29.39591,130.7488,-16.98673,-0.4441859,-4.27255,-61.44649,-6.909645,34.57793,0,0,0,122.7847,-12.71512,-23.98543,-36.05464,-110.6632,-50.32285,0.001067912,-0.1257102,0.09433498,0,0.3,0,0,0,0,
6.38224E+17,39.81633,32.09827,34.34383,-45.77202,-26.31961,130.0164,-16.98673,-0.4441859,-4.27255,-61.44649,-6.98289,34.50468,0,0,0,120.5075,-15.8941,-23.79624,-36.05464,-110.6632,-50.32285,0.001067912,-0.1257102,0.09433498,0,0.3,0,0,0,0,
6.38224E+17,38.70901,30.36828,31.68224,-40.57161,-19.94728,129.5769,-16.98673,-0.4441859,-4.27255,-61.51973,-6.98289,34.57793,0,0,0,115.7489,-22.71145,-23.91834,-36.05464,-110.6632,-50.32285,0.001067912,-0.1257102,0.09433498,0,0.3,0,0,0,0,
6.38224E+17,37.67238,28.68506,29.11404,-34.85849,-13.94118,129.5769,-16.98673,-0.4441859,-4.27255,-61.51973,-6.98289,34.57793,0,0,0,111.1463,-29.14434,-24.40013,-36.05464,-110.6632,-50.32285,0.001067912,-0.1257102,0.09433498,0,0.3,0,0,0,0,
6.38224E+17,37.27186,27.79668,27.89998,-31.70894,-11.3776,129.1375,-16.98673,-0.4441859,-4.27255,-61.51973,-6.909645,34.57793,0,0,0,109.2261,-32.31433,-24.82404,-36.05464,-110.6632,-50.32285,0.001067912,-0.1257102,0.09433498,0,0.3,0,0,0,0,
6.38224E+17,36.7771,25.97318,25.75204,-25.04364,-7.495606,122.7651,-16.98673,-0.4441859,-4.27255,-61.51973,-6.98289,34.57793,0,0,0,106.4609,-38.35536,-25.92213,-36.05464,-110.6632,-50.32285,0.001067912,-0.1257102,0.09433498,0,0.3,0,0,0,0,
6.38224E+17,36.04674,24.17306,23.65078,-18.23184,-5.517986,112.4375,-16.98673,-0.4441859,-4.27255,-61.51973,-6.98289,34.57793,0,0,0,103.0672,-44.19356,-26.73331,-36.05464,-110.6632,-50.32285,0.001067912,-0.1257102,0.09433498,0,0.3,0,0,0,0,
6.38224E+17,35.4813,23.30807,22.81028,-15.30203,-5.225006,108.0428,-16.98673,-0.4441859,-4.27255,-61.44649,-6.909645,34.57793,0,0,0,101.0917,-46.80794,-26.52686,-36.05464,-110.6632,-50.32285,0.001067912,-0.1257102,0.09433498,0,0.3,0,0,0,0,
6.38224E+17,33.3609,20.75984,21.31605,-10.46785,-5.00527,99.69289,-16.98673,-0.4441859,-4.27255,-61.44649,-6.98289,34.57793,0,0,0,95.22617,-53.61131,-23.71729,-36.05464,-110.6632,-50.32285,0.001067912,-0.1257102,0.09433498,0,0.3,0,0,0,0,
6.38224E+17,31.80595,18.86621,20.66233,-9.881886,-4.126328,97.05606,-16.98673,-0.4441859,-4.27255,-61.44649,-6.98289,34.57793,0,0,0,91.30499,-58.30245,-21.12425,-36.05464,-110.6632,-50.32285,0.001067912,-0.1257102,0.09433498,0,0.3,0,0,0,0,
6.38224E+17,30.01539,16.48163,20.00861,-10.46785,-2.441689,95.66441,-16.98673,-0.4441859,-4.27255,-61.51973,-6.98289,34.57793,0,0,0,86.78934,-64.1187,-18.11967,-36.05464,-110.6632,-50.32285,0.001067912,-0.1257102,0.09433498,0,0.3,0,0,0,0,
6.38224E+17,29.14367,15.38286,19.70509,-11.12705,-1.343012,95.29817,-16.98673,-0.4441859,-4.27255,-61.44649,-6.98289,34.57793,0,0,0,84.51202,-66.81766,-16.78385,-36.05464,-110.6632,-50.32285,0.001067912,-0.1257102,0.09433498,0,0.3,0,0,0,0,
6.38224E+17,27.56516,13.79314,19.44827,-12.22573,0.8543434,95.15169,-16.98673,-0.4441859,-4.27255,-61.44649,-6.98289,34.57793,0,0,0,80.47539,-70.59845,-14.1865,-36.05464,-110.6632,-50.32285,0.001067912,-0.1257102,0.09433498,0,0.3,0,0,0,0,
6.38224E+17,25.75104,12.99828,19.35488,-13.25116,2.319247,95.44467,-16.98673,-0.4441859,-4.27255,-61.44649,-6.98289,34.57793,0,0,0,75.65182,-72.47025,-11.51479,-36.05464,-110.6632,-50.32285,0.001067912,-0.1257102,0.09433498,0,0.3,0,0,0,0,
6.38224E+17,24.5966,12.7645,19.33154,-13.83713,2.978453,95.51791,-16.98673,-0.4441859,-4.27255,-61.51973,-6.909645,34.57793,0,0,0,72.5058,-73.01866,-9.95876,-36.05464,-110.6632,-50.32285,0.001067912,-0.1257102,0.09433498,0,0.3,0,0,0,0,
6.38224E+17,22.14636,12.50734,19.30819,-15.7415,3.857395,95.51791,-16.98673,-0.4441859,-4.27255,-61.51973,-6.909645,34.57793,0,0,0,65.69805,-73.62066,-6.930057,-36.05464,-110.6632,-50.32285,0.001067912,-0.1257102,0.09433498,0,0.3,0,0,0,0,
6.38224E+17,19.36629,12.50734,19.33154,-18.59806,4.296866,95.51791,-16.98673,-0.4441859,-4.27255,-61.51973,-6.98289,34.57793,0,0,0,57.80847,-73.60268,-3.885146,-36.05464,-110.6632,-50.32285,0.001067912,-0.1257102,0.09433498,0,0.3,0,0,0,0,
6.38224E+17,17.01029,12.36707,19.42492,-20.86866,4.296866,95.51791,-16.98673,-0.4441859,-4.27255,-61.51973,-6.98289,34.57793,0,0,0,51.07928,-73.84937,-1.384456,-36.05464,-110.6632,-50.32285,0.001067912,-0.1257102,0.09433498,0,0.3,0,0,0,0,
6.38224E+17,14.51294,11.99302,19.84518,-23.359,4.077131,95.51791,-16.98673,-0.4441859,-4.27255,-61.44649,-6.98289,34.50468,0,0,0,44.03242,-74.37167,1.752291,-36.05464,-110.6632,-50.32285,0.001067912,-0.1257102,0.09433498,0,0.3,0,0,0,0,
6.38224E+17,10.86114,11.19816,21.52618,-27.38748,3.857395,95.59116,-16.98673,-0.4441859,-4.27255,-61.44649,-6.909645,34.57793,0,0,0,33.86846,-74.80189,8.171079,-36.05464,-110.6632,-50.32285,0.001067912,-0.1257102,0.09433498,0,0.3,0,0,0,0,
6.38224E+17,7.280028,10.70722,24.25781,-31.70894,3.710905,97.78851,-16.98673,-0.4441859,-4.27255,-61.51973,-6.98289,34.57793,0,0,0,23.54617,-73.45085,15.96632,-36.05464,-110.6632,-50.32285,0.001067912,-0.1257102,0.09433498,0,0.3,0,0,0,0,
6.38224E+17,3.628234,10.80073,27.94668,-36.61637,3.491169,101.9635,-16.98673,-0.4441859,-4.27255,-61.44649,-6.98289,34.57793,0,0,0,12.244,-69.4603,24.74431,-36.05464,-110.6632,-50.32285,0.001067912,-0.1257102,0.09433498,0,0.3,0,0,0,0,
6.38224E+17,2.355996,11.01113,29.72107,-39.03346,3.344679,103.5749,-16.98673,-0.4441859,-4.27255,-61.51973,-6.909645,34.57793,0,0,0,8.098625,-66.98789,28.49051,-36.05464,-110.6632,-50.32285,0.001067912,-0.1257102,0.09433498,0,0.3,0,0,0,0,
6.38224E+17,0.2120396,12.15667,33.92358,-44.16063,2.758718,107.6034,-16.98673,-0.4441859,-4.27255,-61.44649,-6.98289,34.57793,0,0,0,0.757848,-59.21995,36.42913,-36.05464,-110.6632,-50.32285,0.001067912,-0.1257102,0.09433498,0,0.3,0,0,0,0,
6.38224E+17,-1.201558,14.02692,37.82257,-48.11587,1.806531,112.877,-16.98673,-0.4441859,-4.27255,-61.44649,-6.98289,34.57793,0,0,0,-4.427657,-49.66389,42.74999,-36.05464,-110.6632,-50.32285,0.001067912,-0.1257102,0.09433498,0,0.3,0,0,0,0,
6.38224E+17,-1.696317,15.1257,39.43353,-49.65401,1.220569,115.8068,-16.98673,-0.4441859,-4.27255,-61.51973,-6.98289,34.57793,0,0,0,-6.318007,-44.84845,44.98825,-36.05464,-110.6632,-50.32285,0.001067912,-0.1257102,0.09433498,0,0.3,0,0,0,0,
6.38224E+17,-2.403116,17.46352,42.37529,-51.99786,0.1218917,120.4945,-16.98673,-0.4441859,-4.27255,-61.44649,-6.909645,34.57793,0,0,0,-9.102138,-35.14366,48.53849,-36.05464,-110.6632,-50.32285,0.001067912,-0.1257102,0.09433498,0,0.3,0,0,0,0,
6.38224E+17,-2.850755,20.24553,45.2937,-53.60925,-0.6838052,124.1568,-16.98673,-0.4441859,-4.27255,-61.51973,-6.98289,34.57793,0,0,0,-10.93594,-24.31318,51.26409,-36.05464,-110.6632,-50.32285,0.001067912,-0.1257102,0.09433498,0,0.3,0,0,0,0,
6.38224E+17,-3.227715,23.63536,48.04868,-55.1474,-1.562747,127.3063,-16.98673,-0.4441859,-4.27255,-61.44649,-6.98289,34.57793,0,0,0,-12.46232,-12.3324,52.637,-36.05464,-110.6632,-50.32285,0.001067912,-0.1257102,0.09433498,0,0.3,0,0,0,0,
6.38224E+17,-3.274835,25.43548,49.19269,-55.87985,-2.148709,128.9177,-16.98673,-0.4441859,-4.27255,-61.51973,-6.98289,34.57793,0,0,0,-12.64522,-6.523425,52.64701,-36.05464,-110.6632,-50.32285,0.001067912,-0.1257102,0.09433498,0,0.3,0,0,0,0,
6.38224E+17,-3.062795,29.40978,50.99043,-57.49125,-3.393876,131.2616,-16.98673,-0.4441859,-4.27255,-61.51973,-6.98289,34.57793,0,0,0,-11.74312,4.894658,51.11964,-36.05464,-110.6632,-50.32285,0.001067912,-0.1257102,0.09433498,0,0.3,0,0,0,0,
6.38224E+17,-2.191077,33.38407,52.39126,-58.66317,-4.712289,132.58,-16.98673,-0.4441859,-4.27255,-61.51973,-6.98289,34.57793,0,0,0,-8.295877,15.34669,48.47814,-36.05464,-110.6632,-50.32285,0.001067912,-0.1257102,0.09433498,0,0.3,0,0,0,0,
6.38224E+17,-1.484278,35.58163,52.88156,-59.10264,-5.591231,133.3857,-16.98673,-0.4441859,-4.27255,-61.44649,-6.98289,34.57793,0,0,0,-5.563466,20.4693,46.36173,-36.05464,-110.6632,-50.32285,0.001067912,-0.1257102,0.09433498,0,0.3,0,0,0,0,
6.38224E+17,0.4005193,40.04686,53.65202,-59.02939,-7.861832,134.1181,-16.98673,-0.4441859,-4.27255,-61.44649,-6.909645,34.57793,0,0,0,1.464377,30.11432,41.13115,-36.05464,-110.6632,-50.32285,0.001067912,-0.1257102,0.09433498,0,0.3,0,0,0,0,
6.38224E+17,3.133475,45.0498,54.49252,-57.78423,-10.64515,135.29,-16.98673,-0.4441859,-4.27255,-61.51973,-6.909645,34.57793,0,0,0,11.08346,40.27369,34.10974,-36.05464,-110.6632,-50.32285,0.001067912,-0.1257102,0.09433498,0,0.3,0,0,0,0,
6.38224E+17,6.855949,50.14624,55.54315,-55.58687,-14.4539,135.6563,-16.98673,-0.4441859,-4.27255,-61.44649,-6.909645,34.57793,0,0,0,23.32664,50.27298,25.66149,-36.05464,-110.6632,-50.32285,0.001067912,-0.1257102,0.09433498,0,0.3,0,0,0,0,
6.38224E+17,11.87422,55.21932,57.01402,-51.48514,-18.9951,135.876,-16.98673,-0.4441859,-4.27255,-61.44649,-6.98289,34.57793,0,0,0,38.66761,60.27565,15.551,-36.05464,-110.6632,-50.32285,0.001067912,-0.1257102,0.09433498,0,0.3,0,0,0,0,
6.38224E+17,14.74854,57.60389,57.97126,-48.40885,-21.77841,135.6563,-16.98673,-0.4441859,-4.27255,-61.44649,-6.909645,34.57793,0,0,0,46.96864,65.22453,10.0679,-36.05464,-110.6632,-50.32285,0.001067912,-0.1257102,0.09433498,0,0.3,0,0,0,0,
6.38224E+17,20.04953,61.32103,59.97913,-41.67029,-27.19856,132.58,-16.98673,-0.4441859,-4.27255,-61.51973,-6.909645,34.57793,0,0,0,61.52299,73.62386,0.2294795,-36.05464,-110.6632,-50.32285,0.001067912,-0.1257102,0.09433498,0,0.3,0,0,0,0,
6.38224E+17,25.1856,64.17316,61.4967,-34.12604,-32.54545,125.8414,-16.98673,-0.4441859,-4.27255,-61.44649,-6.98289,34.57793,0,0,0,74.5911,79.74444,-9.732364,-36.05464,-110.6632,-50.32285,0.001067912,-0.1257102,0.09433498,0,0.3,0,0,0,0,
6.38224E+17,27.4238,65.15505,61.9403,-30.68352,-34.66956,122.1791,-16.98673,-0.4441859,-4.27255,-61.51973,-6.98289,34.57793,0,0,0,80.00288,81.63152,-14.16556,-36.05464,-110.6632,-50.32285,0.001067912,-0.1257102,0.09433498,0,0.3,0,0,0,0,
6.38224E+17,32.01799,66.53437,62.17377,-22.69979,-38.18533,113.8292,-16.98673,-0.4441859,-4.27255,-61.51973,-6.909645,34.57793,0,0,0,90.67773,83.42518,-23.33661,-36.05464,-110.6632,-50.32285,0.001067912,-0.1257102,0.09433498,0,0.3,0,0,0,0,
6.38224E+17,36.7771,67.09544,62.12708,-13.54414,-40.08971,104.1608,-16.98673,-0.4441859,-4.27255,-61.44649,-6.909645,34.57793,0,0,0,101.6473,83.8432,-32.36193,-36.05464,-110.6632,-50.32285,0.001067912,-0.1257102,0.09433498,0,0.3,0,0,0,0,
6.38224E+17,38.87394,67.11882,62.12708,-8.856454,-40.52918,99.54639,-16.98673,-0.4441859,-4.27255,-61.44649,-6.98289,34.57793,0,0,0,106.5234,83.86436,-36.21114,-36.05464,-110.6632,-50.32285,0.001067912,-0.1257102,0.09433498,0,0.3,0,0,0,0,
6.38224E+17,42.94981,66.74477,61.91695,1.324624,-40.74891,90.02452,-16.98673,-0.4441859,-4.27255,-61.44649,-6.909645,34.57793,0,0,0,116.0355,83.09137,-43.69843,-36.05464,-110.6632,-50.32285,0.001067912,-0.1257102,0.09433498,0,0.3,0,0,0,0,
6.38224E+17,46.31889,65.62261,61.37996,9.821064,-39.57699,81.96756,-16.98673,-0.4441859,-4.27255,-61.51973,-6.909645,34.57793,0,0,0,124.4591,80.9369,-49.49275,-36.05464,-110.6632,-50.32285,0.001067912,-0.1257102,0.09433498,0,0.3,0,0,0,0,
6.38224E+17,49.311,63.86925,60.56281,16.77936,-37.59937,74.56979,-16.98673,-0.4441859,-4.27255,-61.44649,-6.909645,34.57793,0,0,0,132.5923,77.53306,-54.34692,-36.05464,-110.6632,-50.32285,0.001067912,-0.1257102,0.09433498,0,0.3,0,0,0,0,
6.38224E+17,51.94971,61.41454,59.769,23.00519,-34.81605,68.05097,-16.98673,-0.4441859,-4.27255,-61.51973,-6.98289,34.57793,0,0,0,140.9718,73.30517,-58.01139,-36.05464,-110.6632,-50.32285,0.001067912,-0.1257102,0.09433498,0,0.3,0,0,0,0,
6.38224E+17,52.72719,60.47941,59.41879,24.83632,-33.71738,66.21985,-16.98673,-0.4441859,-4.27255,-61.44649,-6.98289,34.57793,0,0,0,143.6417,71.5453,-59.03205,-36.05464,-110.6632,-50.32285,0.001067912,-0.1257102,0.09433498,0,0.3,0,0,0,0,
6.38224E+17,54.18791,58.04808,58.01796,28.57183,-30.78757,62.48434,-16.98673,-0.4441859,-4.27255,-61.51973,-6.98289,34.57793,0,0,0,148.9529,65.86718,-60.87403,-36.05464,-110.6632,-50.32285,0.001067912,-0.1257102,0.09433498,0,0.3,0,0,0,0,
6.38224E+17,54.65911,55.47648,55.87001,30.40295,-27.49154,59.92076,-16.98673,-0.4441859,-4.27255,-61.51973,-6.98289,34.57793,0,0,0,151.6907,58.39721,-60.78442,-36.05464,-110.6632,-50.32285,0.001067912,-0.1257102,0.09433498,0,0.3,0,0,0,0,
6.38224E+17,54.68267,54.23743,54.74934,30.18322,-25.8069,59.04182,-16.98673,-0.4441859,-4.27255,-61.44649,-6.98289,34.57793,0,0,0,152.4477,54.59273,-60.34177,-36.05464,-110.6632,-50.32285,0.001067912,-0.1257102,0.09433498,0,0.3,0,0,0,0,
6.38224E+17,54.96539,51.92299,53.7921,28.57183,-23.38981,57.86989,-16.98673,-0.4441859,-4.27255,-61.44649,-6.98289,34.57793,0,0,0,155.4395,49.54869,-59.3701,-36.05464,-110.6632,-50.32285,0.001067912,-0.1257102,0.09433498,0,0.3,0,0,0,0,
6.38224E+17,55.15387,48.93058,54.81938,27.18017,-21.63192,55.67254,-16.98673,-0.4441859,-4.27255,-61.44649,-6.909645,34.57793,0,0,0,161.3472,47.05406,-56.01799,-36.05464,-110.6632,-50.32285,0.001067912,-0.1257102,0.09433498,0,0.3,0,0,0,0,
6.38224E+17,55.15387,46.14857,57.52766,27.25341,-19.94728,53.91465,-16.98673,-0.4441859,-4.27255,-61.44649,-6.909645,34.57793,0,0,0,168.1465,47.91925,-51.28423,-36.05464,-110.6632,-50.32285,0.001067912,-0.1257102,0.09433498,0,0.3,0,0,0,0,
6.38224E+17,55.13031,45.21344,58.95185,27.69288,-19.43457,53.32869,-16.98673,-0.4441859,-4.27255,-61.44649,-6.909645,34.50468,0,0,0,170.8073,49.21693,-49.32743,-36.05464,-110.6632,-50.32285,0.001067912,-0.1257102,0.09433498,0,0.3,0,0,0,0,
6.38224E+17,54.70623,43.85751,62.24381,29.817,-19.14159,51.64405,-16.98673,-0.4441859,-4.27255,-61.51973,-6.98289,34.57793,0,0,0,174.7978,53.64141,-44.61477,-36.05464,-110.6632,-50.32285,0.001067912,-0.1257102,0.09433498,0,0.3,0,0,0,0,
6.38224E+17,53.92875,43.36657,64.50849,31.35514,-19.6543,50.17915,-16.98673,-0.4441859,-4.27255,-61.44649,-6.909645,34.57793,0,0,0,175.6489,57.52576,-40.3996,-36.05464,-110.6632,-50.32285,0.001067912,-0.1257102,0.09433498,0,0.3,0,0,0,0,
6.38224E+17,53.48111,43.10941,65.79259,32.16084,-20.09377,49.4467,-16.98673,-0.4441859,-4.27255,-61.51973,-6.98289,34.57793,0,0,0,175.9827,59.80159,-38.03987,-36.05464,-110.6632,-50.32285,0.001067912,-0.1257102,0.09433498,0,0.3,0,0,0,0,
6.38224E+17,52.49159,42.08076,68.33745,33.62574,-21.2657,48.27478,-16.98673,-0.4441859,-4.27255,-61.44649,-6.909645,34.57793,0,0,0,176.8221,63.49343,-32.62838,-36.05464,-110.6632,-50.32285,0.001067912,-0.1257102,0.09433498,0,0.3,0,0,0,0,
6.38224E+17,51.1958,40.3274,69.78498,34.57793,-21.85166,47.61557,-16.98673,-0.4441859,-4.27255,-61.44649,-6.98289,34.57793,0,0,0,176.7407,63.56972,-26.22546,-36.05464,-110.6632,-50.32285,0.001067912,-0.1257102,0.09433498,0,0.3,0,0,0,0,
6.38224E+17,50.41832,39.32214,69.85503,34.57793,-21.9249,47.54232,-16.98673,-0.4441859,-4.27255,-61.44649,-6.98289,34.50468,0,0,0,175.9941,61.92588,-22.84975,-36.05464,-110.6632,-50.32285,0.001067912,-0.1257102,0.09433498,0,0.3,0,0,0,0,
6.38224E+17,48.79268,37.19472,68.96782,33.25952,-21.48543,48.93398,-16.98673,-0.4441859,-4.27255,-61.51973,-6.98289,34.50468,0,0,0,173.5558,56.10523,-16.37424,-36.05464,-110.6632,-50.32285,0.001067912,-0.1257102,0.09433498,0,0.3,0,0,0,0,
6.38224E+17,47.0728,35.04393,66.81988,30.32971,-19.94728,52.88922,-16.98673,-0.4441859,-4.27255,-61.44649,-6.909645,34.57793,0,0,0,169.6994,47.4305,-10.50545,-36.05464,-110.6632,-50.32285,0.001067912,-0.1257102,0.09433498,0,0.3,0,0,0,0,
6.38224E+17,45.35292,32.98664,64.13494,26.66745,-17.5302,57.43042,-16.98673,-0.4441859,-4.27255,-61.44649,-6.909645,34.57793,0,0,0,164.946,37.77719,-5.423626,-36.05464,-110.6632,-50.32285,0.001067912,-0.1257102,0.09433498,0,0.3,0,0,0,0,
6.38224E+17,43.98645,31.11639,62.08038,23.51791,-15.18635,60.94619,-16.98673,-0.4441859,-4.27255,-61.44649,-6.909645,34.57793,0,0,0,161.1159,29.82358,-1.430603,-36.05464,-110.6632,-50.32285,0.001067912,-0.1257102,0.09433498,0,0.3,0,0,0,0,
6.38224E+17,42.87913,29.52667,60.44607,20.80784,-12.8425,64.16898,-16.98673,-0.4441859,-4.27255,-61.44649,-6.909645,34.57793,0,0,0,157.8867,23.29481,1.680499,-36.05464,-110.6632,-50.32285,0.001067912,-0.1257102,0.09433498,0,0.3,0,0,0,0,
6.38224E+17,41.44197,27.30574,58.11135,17.21883,-9.25349,68.49045,-16.98673,-0.4441859,-4.27255,-61.51973,-6.98289,34.50468,0,0,0,153.3634,14.07796,5.349916,-36.05464,-110.6632,-50.32285,0.001067912,-0.1257102,0.09433498,0,0.3,0,0,0,0,
6.38224E+17,40.71161,26.16021,56.96733,15.68068,-7.422361,70.54131,-16.98673,-0.4441859,-4.27255,-61.51973,-6.98289,34.57793,0,0,0,150.9869,9.450321,7.116546,-36.05464,-110.6632,-50.32285,0.001067912,-0.1257102,0.09433498,0,0.3,0,0,0,0,
6.38224E+17,38.85038,23.72888,54.21235,12.75087,-3.467122,74.20357,-16.98673,-0.4441859,-4.27255,-61.51973,-6.98289,34.57793,0,0,0,144.4325,-0.9695225,10.96467,-36.05464,-110.6632,-50.32285,0.001067912,-0.1257102,0.09433498,0,0.3,0,0,0,0,
6.38224E+17,36.61218,21.50795,51.6208,9.601329,0.268382,76.98688,-16.98673,-0.4441859,-4.27255,-61.44649,-6.98289,34.57793,0,0,0,136.336,-10.55196,15.14509,-36.05464,-110.6632,-50.32285,0.001067912,-0.1257102,0.09433498,0,0.3,0,0,0,0,
6.38224E+17,34.35042,19.80134,49.12265,6.451786,4.077131,79.40398,-16.98673,-0.4441859,-4.27255,-61.51973,-6.909645,34.57793,0,0,0,127.6864,-18.74621,18.47793,-36.05464,-110.6632,-50.32285,0.001067912,-0.1257102,0.09433498,0,0.3,0,0,0,0,
6.38224E+17,31.64103,18.0246,46.64783,3.009263,8.105616,81.74782,-16.98673,-0.4441859,-4.27255,-61.51973,-6.98289,34.57793,0,0,0,117.3892,-26.93034,22.15768,-36.05464,-110.6632,-50.32285,0.001067912,-0.1257102,0.09433498,0,0.3,0,0,0,0,
6.38224E+17,30.03895,17.04271,45.66725,1.251379,9.8635,82.77325,-16.98673,-0.4441859,-4.27255,-61.51973,-6.98289,34.57793,0,0,0,111.5704,-30.7554,24.59266,-36.05464,-110.6632,-50.32285,0.001067912,-0.1257102,0.09433498,0,0.3,0,0,0,0,
6.38224E+17,26.05732,14.86854,44.03294,-2.99684,13.89198,84.38464,-16.98673,-0.4441859,-4.27255,-61.44649,-6.98289,34.57793,0,0,0,97.33034,-38.3028,30.70113,-36.05464,-110.6632,-50.32285,0.001067912,-0.1257102,0.09433498,0,0.3,0,0,0,0,
6.38224E+17,22.02856,13.39571,42.86558,-7.831022,17.55424,86.28902,-16.98673,-0.4441859,-4.27255,-61.44649,-6.909645,34.57793,0,0,0,82.67918,-43.49524,35.99481,-36.05464,-110.6632,-50.32285,0.001067912,-0.1257102,0.09433498,0,0.3,0,0,0,0,
6.38224E+17,19.88461,12.90477,42.2819,-10.32136,19.45862,87.90041,-16.98673,-0.4441859,-4.27255,-61.51973,-6.98289,34.57793,0,0,0,74.72486,-45.52694,38.24855,-36.05464,-110.6632,-50.32285,0.001067912,-0.1257102,0.09433498,0,0.3,0,0,0,0,
6.38224E+17,15.85585,12.4372,41.37135,-15.44852,22.75465,90.75697,-16.98673,-0.4441859,-4.27255,-61.44649,-6.98289,34.57793,0,0,0,59.65896,-48.00187,41.69854,-36.05464,-110.6632,-50.32285,0.001067912,-0.1257102,0.09433498,0,0.3,0,0,0,0,
6.38224E+17,11.54438,12.48396,40.29738,-20.72217,25.68446,93.68678,-16.98673,-0.4441859,-4.27255,-61.51973,-6.98289,34.50468,0,0,0,43.31585,-49.52999,43.71329,-36.05464,-110.6632,-50.32285,0.001067912,-0.1257102,0.09433498,0,0.3,0,0,0,0,
6.38224E+17,9.376864,12.50734,40.04056,-23.06602,26.92962,94.63897,-16.98673,-0.4441859,-4.27255,-61.44649,-6.909645,34.57793,0,0,0,35.18802,-49.86242,44.73757,-36.05464,-110.6632,-50.32285,0.001067912,-0.1257102,0.09433498,0,0.3,0,0,0,0,
6.38224E+17,4.429273,12.7645,39.85378,-28.5594,29.05373,96.03063,-16.98673,-0.4441859,-4.27255,-61.51973,-6.98289,34.57793,0,0,0,16.64343,-49.55752,46.51557,-36.05464,-110.6632,-50.32285,0.001067912,-0.1257102,0.09433498,0,0.3,0,0,0,0,
6.38224E+17,-0.2591596,13.48922,39.87713,-34.27253,30.37215,97.42229,-16.98673,-0.4441859,-4.27255,-61.44649,-6.98289,34.57793,0,0,0,-0.9732413,-47.88006,46.81565,-36.05464,-110.6632,-50.32285,0.001067912,-0.1257102,0.09433498,0,0.3,0,0,0,0,
6.38224E+17,-5.701511,15.17245,40.1573,-41.59705,30.88486,98.52097,-16.98673,-0.4441859,-4.27255,-61.51973,-6.909645,34.57793,0,0,0,-21.32934,-43.66527,45.28547,-36.05464,-110.6632,-50.32285,0.001067912,-0.1257102,0.09433498,0,0.3,0,0,0,0,
6.38224E+17,-8.363786,16.64528,40.50751,-45.62553,30.44539,98.81395,-16.98673,-0.4441859,-4.27255,-61.44649,-6.98289,34.57793,0,0,0,-31.18313,-39.84126,43.74931,-36.05464,-110.6632,-50.32285,0.001067912,-0.1257102,0.09433498,0,0.3,0,0,0,0,
6.38224E+17,-9.848064,17.74406,40.90441,-47.96938,29.93268,99.25342,-16.98673,-0.4441859,-4.27255,-61.51973,-6.98289,34.57793,0,0,0,-36.65707,-36.79586,42.81553,-36.05464,-110.6632,-50.32285,0.001067912,-0.1257102,0.09433498,0,0.3,0,0,0,0,
6.38224E+17,-12.25118,20.66633,41.90834,-52.8768,28.46777,100.3521,-16.98673,-0.4441859,-4.27255,-61.51973,-6.98289,34.57793,0,0,0,-45.37617,-28.82842,40.61925,-36.05464,-110.6632,-50.32285,0.001067912,-0.1257102,0.09433498,0,0.3,0,0,0,0,
6.38224E+17,-12.79306,23.79901,42.04842,-56.17283,26.92962,100.7183,-16.98673,-0.4441859,-4.27255,-61.51973,-6.98289,34.57793,0,0,0,-46.79335,-21.86225,37.72725,-36.05464,-110.6632,-50.32285,0.001067912,-0.1257102,0.09433498,0,0.3,0,0,0,0,
6.38224E+17,-12.39254,28.49803,41.46474,-58.37019,24.87876,101.9635,-16.98673,-0.4441859,-4.27255,-61.51973,-6.909645,34.57793,0,0,0,-44.10012,-12.95251,32.35346,-36.05464,-110.6632,-50.32285,0.001067912,-0.1257102,0.09433498,0,0.3,0,0,0,0,
6.38224E+17,-11.92134,30.90598,41.09119,-58.95615,23.70683,102.403,-16.98673,-0.4441859,-4.27255,-61.51973,-6.98289,34.57793,0,0,0,-41.73953,-8.658483,29.3533,-36.05464,-110.6632,-50.32285,0.001067912,-0.1257102,0.09433498,0,0.3,0,0,0,0,
6.38224E+17,-10.48418,36.84405,40.27403,-58.80966,20.92352,103.0622,-16.98673,-0.4441859,-4.27255,-61.51973,-6.98289,34.50468,0,0,0,-35.1044,1.570962,21.34865,-36.05464,-110.6632,-50.32285,0.001067912,-0.1257102,0.09433498,0,0.3,0,0,0,0,
6.38224E+17,-8.316667,43.31981,39.62031,-57.49125,17.33451,103.5016,-16.98673,-0.4441859,-4.27255,-61.44649,-6.98289,34.57793,0,0,0,-26.33299,12.11962,11.78925,-36.05464,-110.6632,-50.32285,0.001067912,-0.1257102,0.09433498,0,0.3,0,0,0,0,
6.38224E+17,-6.879509,46.38236,39.3168,-56.53906,15.2104,103.5749,-16.98673,-0.4441859,-4.27255,-61.44649,-6.98289,34.57793,0,0,0,-21.13934,16.72316,6.861458,-36.05464,-110.6632,-50.32285,0.001067912,-0.1257102,0.09433498,0,0.3,0,0,0,0,
6.38224E+17,-2.568036,52.50745,38.66307,-53.16978,10.15648,103.0622,-16.98673,-0.4441859,-4.27255,-61.44649,-6.98289,34.57793,0,0,0,-7.369351,25.0301,-4.041571,-36.05464,-110.6632,-50.32285,0.001067912,-0.1257102,0.09433498,0,0.3,0,0,0,0,
6.38224E+17,2.638716,56.59863,38.17278,-47.5299,5.102563,101.4508,-16.98673,-0.4441859,-4.27255,-61.44649,-6.98289,34.57793,0,0,0,7.173836,29.84202,-12.69099,-36.05464,-110.6632,-50.32285,0.001067912,-0.1257102,0.09433498,0,0.3,0,0,0,0,
6.38224E+17,5.489471,57.74416,37.82257,-43.7944,2.538982,100.4253,-16.98673,-0.4441859,-4.27255,-61.44649,-6.98289,34.57793,0,0,0,14.63083,30.78559,-16.10978,-36.05464,-110.6632,-50.32285,0.001067912,-0.1257102,0.09433498,0,0.3,0,0,0,0,
6.38224E+17,13.05222,57.13633,35.39445,-30.46378,-2.148709,96.90957,-16.98673,-0.4441859,-4.27255,-61.51973,-6.98289,34.57793,0,0,0,33.78505,26.65445,-22.61698,-36.05464,-110.6632,-50.32285,0.001067912,-0.1257102,0.09433498,0,0.3,0,0,0,0,
6.38224E+17,15.52601,55.52323,33.50333,-23.94496,-2.295199,95.15169,-16.98673,-0.4441859,-4.27255,-61.44649,-6.909645,34.57793,0,0,0,39.90859,22.08344,-24.69759,-36.05464,-110.6632,-50.32285,0.001067912,-0.1257102,0.09433498,0,0.3,0,0,0,0,
6.38224E+17,16.51553,54.30756,32.31261,-20.72217,-1.855728,94.34599,-16.98673,-0.4441859,-4.27255,-61.51973,-6.909645,34.57793,0,0,0,42.38022,18.95164,-25.41908,-36.05464,-110.6632,-50.32285,0.001067912,-0.1257102,0.09433498,0,0.3,0,0,0,0,
6.38224E+17,17.29301,51.43205,29.81446,-15.88799,0.04864649,93.10082,-16.98673,-0.4441859,-4.27255,-61.44649,-6.98289,34.57793,0,0,0,44.42132,11.91247,-25.66826,-36.05464,-110.6632,-50.32285,0.001067912,-0.1257102,0.09433498,0,0.3,0,0,0,0,
6.38224E+17,17.22233,47.92532,27.50308,-13.32441,2.831963,91.70916,-16.98673,-0.4441859,-4.27255,-61.44649,-6.909645,34.57793,0,0,0,44.68983,4.052385,-24.17941,-36.05464,-110.6632,-50.32285,0.001067912,-0.1257102,0.09433498,0,0.3,0,0,0,0,
6.38224E+17,17.17521,44.20818,25.68199,-12.44547,6.567466,90.61049,-16.98673,-0.4441859,-4.27255,-61.44649,-6.98289,34.57793,0,0,0,45.29155,-3.846172,-21.81226,-36.05464,-110.6632,-50.32285,0.001067912,-0.1257102,0.09433498,0,0.3,0,0,0,0,
6.38224E+17,17.22233,40.58456,24.09438,-12.29898,10.37621,89.73154,-16.98673,-0.4441859,-4.27255,-61.44649,-6.98289,34.50468,0,0,0,46.10301,-11.62832,-19.62048,-36.05464,-110.6632,-50.32285,0.001067912,-0.1257102,0.09433498,0,0.3,0,0,0,0,
6.38224E+17,17.26945,38.59741,23.39396,-12.44547,12.42708,89.21883,-16.98673,-0.4441859,-4.27255,-61.44649,-6.909645,34.57793,0,0,0,46.65729,-15.84852,-18.2689,-36.05464,-110.6632,-50.32285,0.001067912,-0.1257102,0.09433498,0,0.3,0,0,0,0,
6.38224E+17,17.43437,34.62312,22.41338,-12.6652,16.38232,88.12015,-16.98673,-0.4441859,-4.27255,-61.44649,-6.98289,34.57793,0,0,0,48.11164,-24.1601,-15.1477,-36.05464,-110.6632,-50.32285,0.001067912,-0.1257102,0.09433498,0,0.3,0,0,0,0,
6.38224E+17,17.85845,30.55531,22.06317,-12.95818,20.19107,87.16796,-16.98673,-0.4441859,-4.27255,-61.44649,-6.98289,34.57793,0,0,0,50.57633,-32.44369,-11.37355,-36.05464,-110.6632,-50.32285,0.001067912,-0.1257102,0.09433498,0,0.3,0,0,0,0,
6.38224E+17,18.65949,26.90831,22.08651,-13.17792,24.07306,86.14253,-16.98673,-0.4441859,-4.27255,-61.44649,-6.909645,34.57793,0,0,0,54.08731,-39.86498,-8.183104,-36.05464,-110.6632,-50.32285,0.001067912,-0.1257102,0.09433498,0,0.3,0,0,0,0,
6.38224E+17,19.31917,25.29522,22.08651,-13.17792,25.97744,85.62981,-16.98673,-0.4441859,-4.27255,-61.44649,-6.909645,34.57793,0,0,0,56.47422,-43.23629,-7.257732,-36.05464,-110.6632,-50.32285,0.001067912,-0.1257102,0.09433498,0,0.3,0,0,0,0,
6.38224E+17,21.0626,22.9574,22.15656,-12.59196,28.834,84.38464,-16.98673,-0.4441859,-4.27255,-61.44649,-6.98289,34.57793,0,0,0,62.20266,-48.1403,-6.834266,-36.05464,-110.6632,-50.32285,0.001067912,-0.1257102,0.09433498,0,0.3,0,0,0,0,
6.38224E+17,23.5364,21.43781,22.67019,-10.90732,30.59188,83.13947,-16.98673,-0.4441859,-4.27255,-61.51973,-6.909645,34.57793,0,0,0,70.09097,-50.95896,-7.431449,-36.05464,-110.6632,-50.32285,0.001067912,-0.1257102,0.09433498,0,0.3,0,0,0,0,
6.38224E+17,25.02068,20.92349,23.16049,-9.588906,31.25109,82.62676,-16.98673,-0.4441859,-4.27255,-61.44649,-6.909645,34.57793,0,0,0,74.86313,-51.63081,-7.956662,-36.05464,-110.6632,-50.32285,0.001067912,-0.1257102,0.09433498,0,0.3,0,0,0,0,
6.38224E+17,28.31907,20.61958,24.32785,-6.292873,32.13003,81.60133,-16.98673,-0.4441859,-4.27255,-61.44649,-6.98289,34.57793,0,0,0,85.26624,-51.19821,-10.1196,-36.05464,-110.6632,-50.32285,0.001067912,-0.1257102,0.09433498,0,0.3,0,0,0,0,
6.38224E+17,31.75883,20.87674,25.89212,-2.044653,32.27652,80.5759,-16.98673,-0.4441859,-4.27255,-61.44649,-6.98289,34.57793,0,0,0,96.2298,-49.09362,-12.89791,-36.05464,-110.6632,-50.32285,0.001067912,-0.1257102,0.09433498,0,0.3,0,0,0,0,
6.38224E+17,35.64622,21.85862,27.66651,3.302244,31.69056,79.7702,-16.98673,-0.4441859,-4.27255,-61.51973,-6.909645,34.57793,0,0,0,108.2107,-45.1049,-17.46027,-36.05464,-110.6632,-50.32285,0.001067912,-0.1257102,0.09433498,0,0.3,0,0,0,0,
6.38224E+17,36.84778,22.39632,28.1568,5.133373,31.32433,79.47723,-16.98673,-0.4441859,-4.27255,-61.44649,-6.98289,34.57793,0,0,0,111.673,-43.41148,-19.33288,-36.05464,-110.6632,-50.32285,0.001067912,-0.1257102,0.09433498,0,0.3,0,0,0,0,
6.38224E+17,40.19329,24.68738,29.93119,10.77325,29.56645,78.52503,-16.98673,-0.4441859,-4.27255,-61.51973,-6.98289,34.57793,0,0,0,121.1344,-36.51858,-24.97276,-36.05464,-110.6632,-50.32285,0.001067912,-0.1257102,0.09433498,0,0.3,0,0,0,0,
6.38224E+17,42.92625,27.84344,31.93906,16.33988,27.29585,77.71934,-16.98673,-0.4441859,-4.27255,-61.44649,-6.909645,34.57793,0,0,0,128.3492,-27.53024,-30.35661,-36.05464,-110.6632,-50.32285,0.001067912,-0.1257102,0.09433498,0,0.3,0,0,0,0,
6.38224E+17,45.07021,32.12165,33.71345,21.54029,24.58578,77.27986,-16.98673,-0.4441859,-4.27255,-61.51973,-6.909645,34.57793,0,0,0,132.3565,-16.66903,-36.31742,-36.05464,-110.6632,-50.32285,0.001067912,-0.1257102,0.09433498,0,0.3,0,0,0,0,
6.38224E+17,45.96548,34.57636,34.46056,23.73765,23.04763,77.13338,-16.98673,-0.4441859,-4.27255,-61.44649,-6.909645,34.57793,0,0,0,133.1809,-10.92251,-39.58353,-36.05464,-110.6632,-50.32285,0.001067912,-0.1257102,0.09433498,0,0.3,0,0,0,0,
6.38224E+17,47.35552,39.46241,35.67462,27.54639,19.82484,76.98688,-16.98673,-0.4441859,-4.27255,-61.51973,-6.98289,34.50468,0,0,0,132.9317,-0.2222947,-45.92241,-36.05464,-110.6632,-50.32285,0.001067912,-0.1257102,0.09433498,0,0.3,0,0,0,0,
6.38224E+17,48.133,44.46534,36.28165,30.84243,16.30907,76.91364,-16.98673,-0.4441859,-4.27255,-61.44649,-6.98289,34.57793,0,0,0,129.636,9.262888,-52.16902,-36.05464,-110.6632,-50.32285,0.001067912,-0.1257102,0.09433498,0,0.3,0,0,0,0,
6.38224E+17,48.18012,46.82654,36.21161,32.16084,14.33146,76.84039,-16.98673,-0.4441859,-4.27255,-61.44649,-6.98289,34.57793,0,0,0,126.7053,13.00804,-54.98326,-36.05464,-110.6632,-50.32285,0.001067912,-0.1257102,0.09433498,0,0.3,0,0,0,0,
6.38224E+17,47.85028,51.058,35.51119,33.77223,10.52271,76.91364,-16.98673,-0.4441859,-4.27255,-61.44649,-6.909645,34.57793,0,0,0,119.5667,18.52013,-60.12458,-36.05464,-110.6632,-50.32285,0.001067912,-0.1257102,0.09433498,0,0.3,0,0,0,0,
6.38224E+17,47.14348,53.76987,34.15705,34.2117,7.226673,76.91364,-16.98673,-0.4441859,-4.27255,-61.44649,-6.98289,34.57793,0,0,0,112.6602,20.56937,-63.8189,-36.05464,-110.6632,-50.32285,0.001067912,-0.1257102,0.09433498,0,0.3,0,0,0,0,
6.38224E+17,46.29532,54.61148,32.10249,33.84548,5.102563,76.98688,-16.98673,-0.4441859,-4.27255,-61.44649,-6.98289,34.57793,0,0,0,107.0575,19.10214,-66.02692,-36.05464,-110.6632,-50.32285,0.001067912,-0.1257102,0.09433498,0,0.3,0,0,0,0,
6.38224E+17,45.84768,54.40108,30.67831,33.33276,4.516602,77.42635,-16.98673,-0.4441859,-4.27255,-61.44649,-6.909645,34.57793,0,0,0,104.5108,17.09138,-66.8868,-36.05464,-110.6632,-50.32285,0.001067912,-0.1257102,0.09433498,0,0.3,0,0,0,0,
6.38224E+17,45.21157,53.06852,27.61982,32.08759,4.223621,78.74477,-16.98673,-0.4441859,-4.27255,-61.44649,-6.909645,34.57793,0,0,0,100.7409,11.79007,-68.35032,-36.05464,-110.6632,-50.32285,0.001067912,-0.1257102,0.09433498,0,0.3,0,0,0,0,
6.38224E+17,44.9524,50.63719,24.16442,30.62269,5.249053,80.28292,-16.98673,-0.4441859,-4.27255,-61.44649,-6.909645,34.57793,0,0,0,98.32069,4.783798,-69.86582,-36.05464,-110.6632,-50.32285,0.001067912,-0.1257102,0.09433498,0,0.3,0,0,0,0,
6.38224E+17,44.97597,49.25787,22.57681,30.03673,6.201241,81.01537,-16.98673,-0.4441859,-4.27255,-61.51973,-6.98289,34.57793,0,0,0,97.70065,1.252435,-70.56735,-36.05464,-110.6632,-50.32285,0.001067912,-0.1257102,0.09433498,0,0.3,0,0,0,0,
6.38224E+17,45.16444,45.98492,19.2148,28.93805,8.764822,82.26054,-16.98673,-0.4441859,-4.27255,-61.44649,-6.909645,34.57793,0,0,0,96.82848,-6.671669,-72.07574,-36.05464,-110.6632,-50.32285,0.001067912,-0.1257102,0.09433498,0,0.3,0,0,0,0,
6.38224E+17,45.42361,42.52495,16.01623,27.98586,11.76787,82.99299,-16.98673,-0.4441859,-4.27255,-61.44649,-6.98289,34.57793,0,0,0,96.21187,-14.69107,-73.55036,-36.05464,-110.6632,-50.32285,0.001067912,-0.1257102,0.09433498,0,0.3,0,0,0,0,
6.38224E+17,45.6592,39.34552,13.6815,26.96043,15.13715,83.28596,-16.98673,-0.4441859,-4.27255,-61.44649,-6.98289,34.57793,0,0,0,96.31177,-21.67298,-74.22931,-36.05464,-110.6632,-50.32285,0.001067912,-0.1257102,0.09433498,0,0.3,0,0,0,0,
6.38224E+17,45.80056,38.01296,12.81765,26.52096,16.6753,83.35921,-16.98673,-0.4441859,-4.27255,-61.51973,-6.98289,34.57793,0,0,0,96.53022,-24.55484,-74.48031,-36.05464,-110.6632,-50.32285,0.001067912,-0.1257102,0.09433498,0,0.3,0,0,0,0,
6.38224E+17,45.96548,35.23095,11.44016,25.86176,19.7516,83.43246,-16.98673,-0.4441859,-4.27255,-61.51973,-6.98289,34.57793,0,0,0,97.3232,-30.42455,-74.2527,-36.05464,-110.6632,-50.32285,0.001067912,-0.1257102,0.09433498,0,0.3,0,0,0,0,
6.38224E+17,46.0126,33.12691,10.69305,25.42229,22.60816,83.5057,-16.98673,-0.4441859,-4.27255,-61.44649,-6.909645,34.57793,0,0,0,98.15197,-34.80926,-73.60747,-36.05464,-110.6632,-50.32285,0.001067912,-0.1257102,0.09433498,0,0.3,0,0,0,0,
6.38224E+17,46.20108,32.16841,9.385601,25.05606,25.31823,83.5057,-16.98673,-0.4441859,-4.27255,-61.44649,-6.909645,34.57793,0,0,0,97.16908,-37.21804,-75.17173,-36.05464,-110.6632,-50.32285,0.001067912,-0.1257102,0.09433498,0,0.3,0,0,0,0,
6.38224E+17,46.366,32.02814,8.778571,24.90957,25.97744,83.5057,-16.98673,-0.4441859,-4.27255,-61.44649,-6.909645,34.57793,0,0,0,96.55273,-37.71761,-76.29478,-36.05464,-110.6632,-50.32285,0.001067912,-0.1257102,0.09433498,0,0.3,0,0,0,0,
6.38224E+17,47.00212,31.67747,7.167611,24.68983,27.2226,83.28596,-16.98673,-0.4441859,-4.27255,-61.44649,-6.98289,34.57793,0,0,0,95.16821,-38.9309,-79.6108,-36.05464,-110.6632,-50.32285,0.001067912,-0.1257102,0.09433498,0,0.3,0,0,0,0,
6.38224E+17,47.99164,31.09301,5.626691,24.54334,27.95506,82.91974,-16.98673,-0.4441859,-4.27255,-61.51973,-6.909645,34.57793,0,0,0,94.56474,-40.49171,-83.17854,-36.05464,-110.6632,-50.32285,0.001067912,-0.1257102,0.09433498,0,0.3,0,0,0,0,
6.38224E+17,49.05184,30.08775,4.529369,24.76308,28.46777,82.26054,-16.98673,-0.4441859,-4.27255,-61.44649,-6.98289,34.57793,0,0,0,95.10237,-42.73176,-85.82971,-36.05464,-110.6632,-50.32285,0.001067912,-0.1257102,0.09433498,0,0.3,0,0,0,0,
6.38224E+17,49.61728,29.47991,3.992383,24.98281,28.76075,82.04079,-16.98673,-0.4441859,-4.27255,-61.44649,-6.98289,34.57793,0,0,0,95.49801,-44.05241,-87.12447,-36.05464,-110.6632,-50.32285,0.001067912,-0.1257102,0.09433498,0,0.3,0,0,0,0,
6.38224E+17,50.55968,27.98371,2.73163,25.56878,29.4932,81.60133,-16.98673,-0.4441859,-4.27255,-61.44649,-6.98289,34.57793,0,0,0,95.85162,-47.27792,-89.50356,-36.05464,-110.6632,-50.32285,0.001067912,-0.1257102,0.09433498,0,0.3,0,0,0,0,
6.38224E+17,51.1958,25.94981,1.564267,25.935,30.44539,81.08862,-16.98673,-0.4441859,-4.27255,-61.44649,-6.98289,34.57793,0,0,0,96.27807,-51.59853,-90.92881,-36.05464,-110.6632,-50.32285,0.001067912,-0.1257102,0.09433498,0,0.3,0,0,0,0,
6.38224E+17,51.50208,24.68738,1.097321,26.08149,31.03135,80.72239,-16.98673,-0.4441859,-4.27255,-61.51973,-6.98289,34.57793,0,0,0,96.82361,-54.27965,-91.33875,-36.05464,-110.6632,-50.32285,0.001067912,-0.1257102,0.09433498,0,0.3,0,0,0,0,
6.38224E+17,52.37379,21.76511,0.4202508,26.30123,32.13003,79.98994,-16.98673,-0.4441859,-4.27255,-61.44649,-6.909645,34.57793,0,0,0,98.86018,-60.54992,-92.14536,-36.05464,-110.6632,-50.32285,0.001067912,-0.1257102,0.09433498,0,0.3,0,0,0,0,
6.38224E+17,52.9628,20.10526,0.2801672,26.66745,32.93573,79.84344,-16.98673,-0.4441859,-4.27255,-61.44649,-6.98289,34.57793,0,0,0,100.4799,-64.1599,-92.53062,-36.05464,-110.6632,-50.32285,0.001067912,-0.1257102,0.09433498,0,0.3,0,0,0,0,
6.38224E+17,53.31619,19.09999,0.2568199,27.03368,33.44844,79.7702,-16.98673,-0.4441859,-4.27255,-61.51973,-6.98289,34.57793,0,0,0,101.5315,-66.36417,-92.71536,-36.05464,-110.6632,-50.32285,0.001067912,-0.1257102,0.09433498,0,0.3,0,0,0,0,
6.38224E+17,53.95231,17.27649,0.1167363,27.76613,34.69361,79.62371,-16.98673,-0.4441859,-4.27255,-61.44649,-6.98289,34.57793,0,0,0,103.1724,-70.39703,-93.25958,-36.05464,-110.6632,-50.32285,0.001067912,-0.1257102,0.09433498,0,0.3,0,0,0,0,
6.38224E+17,54.70623,15.73353,-0.2101254,28.35209,35.79229,79.69696,-16.98673,-0.4441859,-4.27255,-61.51973,-6.98289,34.50468,0,0,0,104.3633,-73.83941,-94.47372,-36.05464,-110.6632,-50.32285,0.001067912,-0.1257102,0.09433498,0,0.3,0,0,0,0,
6.38224E+17,55.29523,14.51786,-0.5369871,28.93805,36.52474,79.62371,-16.98673,-0.4441859,-4.27255,-61.44649,-6.98289,34.57793,0,0,0,105.0987,-76.56572,-95.56324,-36.05464,-110.6632,-50.32285,0.001067912,-0.1257102,0.09433498,0,0.3,0,0,0,0,
6.38224E+17,55.27167,13.72301,-0.8405016,29.15779,36.89096,79.47723,-16.98673,-0.4441859,-4.27255,-61.51973,-6.98289,34.50468,0,0,0,104.8592,-78.35127,-95.66532,-36.05464,-110.6632,-50.32285,0.001067912,-0.1257102,0.09433498,0,0.3,0,0,0,0,
6.38224E+17,55.27167,12.5541,-1.354141,29.0113,37.55017,78.9645,-16.98673,-0.4441859,-4.27255,-61.51973,-6.98289,34.57793,0,0,0,104.3851,-80.97763,-95.99393,-36.05464,-110.6632,-50.32285,0.001067912,-0.1257102,0.09433498,0,0.3,0,0,0,0,
6.38224E+17,55.27167,11.61897,-1.610961,28.64507,38.28262,78.37854,-16.98673,-0.4441859,-4.27255,-61.44649,-6.909645,34.57793,0,0,0,104.2686,-83.09031,-96.07472,-36.05464,-110.6632,-50.32285,0.001067912,-0.1257102,0.09433498,0,0.3,0,0,0,0,
6.38224E+17,55.27167,11.17478,-1.307447,28.2056,38.7221,77.4996,-16.98673,-0.4441859,-4.27255,-61.51973,-6.98289,34.57793,0,0,0,105.0168,-84.12171,-95.55605,-36.05464,-110.6632,-50.32285,0.001067912,-0.1257102,0.09433498,0,0.3,0,0,0,0,
6.38224E+17,55.27167,10.96438,-0.5603344,27.54639,39.01508,76.47417,-16.98673,-0.4441859,-4.27255,-61.44649,-6.909645,34.57793,0,0,0,106.523,-84.63063,-94.51204,-36.05464,-110.6632,-50.32285,0.001067912,-0.1257102,0.09433498,0,0.3,0,0,0,0,
6.38224E+17,55.27167,10.68384,0.4902926,26.7407,39.23481,75.66847,-16.98673,-0.4441859,-4.27255,-61.51973,-6.98289,34.57793,0,0,0,108.6334,-85.27344,-93.0492,-36.05464,-110.6632,-50.32285,0.001067912,-0.1257102,0.09433498,0,0.3,0,0,0,0,
6.38224E+17,55.27167,10.45006,1.02728,26.52096,39.23481,75.37549,-16.98673,-0.4441859,-4.27255,-61.44649,-6.98289,34.57793,0,0,0,109.7424,-85.79176,-92.28043,-36.05464,-110.6632,-50.32285,0.001067912,-0.1257102,0.09433498,0,0.3,0,0,0,0,
6.38224E+17,55.22455,9.211012,3.035145,26.59421,39.52779,75.00926,-16.98673,-0.4441859,-4.27255,-61.51973,-6.98289,34.57793,0,0,0,113.9201,-88.46748,-89.24585,-36.05464,-110.6632,-50.32285,0.001067912,-0.1257102,0.09433498,0,0.3,0,0,0,0,
6.38224E+17,55.22455,8.626557,3.75891,26.81394,39.67428,75.08251,-16.98673,-0.4441859,-4.27255,-61.44649,-6.909645,34.57793,0,0,0,115.4745,-89.71148,-88.1665,-36.05464,-110.6632,-50.32285,0.001067912,-0.1257102,0.09433498,0,0.3,0,0,0,0,
6.38224E+17,55.20099,7.130352,5.253135,27.18017,40.04051,75.30224,-16.98673,-0.4441859,-4.27255,-61.44649,-6.98289,34.50468,0,0,0,118.6802,-92.88757,-85.86812,-36.05464,-110.6632,-50.32285,0.001067912,-0.1257102,0.09433498,0,0.3,0,0,0,0,
6.38224E+17,54.91827,5.189961,7.190958,27.54639,40.47998,75.37549,-16.98673,-0.4441859,-4.27255,-61.51973,-6.98289,34.57793,0,0,0,122.3372,-96.88854,-82.42825,-36.05464,-110.6632,-50.32285,0.001067912,-0.1257102,0.09433498,0,0.3,0,0,0,0,
6.38224E+17,54.72979,4.137942,8.218237,27.47315,40.69971,75.37549,-16.98673,-0.4441859,-4.27255,-61.51973,-6.909645,34.57793,0,0,0,124.1508,-99.00834,-80.54321,-36.05464,-110.6632,-50.32285,0.001067912,-0.1257102,0.09433498,0,0.3,0,0,0,0,
6.38224E+17,54.21147,2.220929,9.89924,27.10692,41.13919,75.30224,-16.98673,-0.4441859,-4.27255,-61.44649,-6.909645,34.57793,0,0,0,126.686,-102.8469,-77.01969,-36.05464,-110.6632,-50.32285,0.001067912,-0.1257102,0.09433498,0,0.3,0,0,0,0,
6.38224E+17,53.29263,0.6312115,11.1133,26.30123,41.6519,75.08251,-16.98673,-0.4441859,-4.27255,-61.44649,-6.909645,34.50468,0,0,0,127.5062,-106.0304,-73.28426,-36.05464,-110.6632,-50.32285,0.001067912,-0.1257102,0.09433498,0,0.3,0,0,0,0,
6.38224E+17,52.65651,0,11.5569,25.86176,42.01813,74.93602,-16.98673,-0.4441859,-4.27255,-61.51973,-6.98289,34.50468,0,0,0,127.2542,-107.2965,-71.25557,-36.05464,-110.6632,-50.32285,0.001067912,-0.1257102,0.09433498,0,0.3,0,0,0,0,
6.38224E+17,51.26648,-0.7247244,11.9538,24.4701,42.75058,74.71628,-16.98673,-0.4441859,-4.27255,-61.51973,-6.98289,34.57793,0,0,0,125.5585,-108.795,-67.63798,-36.05464,-110.6632,-50.32285,0.001067912,-0.1257102,0.09433498,0,0.3,0,0,0,0,
6.38224E+17,49.68796,-0.9585064,12.18727,23.00519,43.62952,74.35006,-16.98673,-0.4441859,-4.27255,-61.51973,-6.909645,34.57793,0,0,0,123.1357,-109.2254,-63.87886,-36.05464,-110.6632,-50.32285,0.001067912,-0.1257102,0.09433498,0,0.3,0,0,0,0,
6.38224E+17,48.08588,-0.9818845,12.3507,21.83327,44.50846,74.05708,-16.98673,-0.4441859,-4.27255,-61.44649,-6.98289,34.57793,0,0,0,120.4426,-109.199,-60.22941,-36.05464,-110.6632,-50.32285,0.001067912,-0.1257102,0.09433498,0,0.3,0,0,0,0,
6.38224E+17,47.11992,-0.9818845,12.3974,21.10082,44.87469,73.98383,-16.98673,-0.4441859,-4.27255,-61.44649,-6.98289,34.57793,0,0,0,118.6806,-109.1757,-58.14207,-36.05464,-110.6632,-50.32285,0.001067912,-0.1257102,0.09433498,0,0.3,0,0,0,0,
6.38224E+17,45.09377,-0.9818845,12.42074,19.78241,45.68039,73.83734,-16.98673,-0.4441859,-4.27255,-61.44649,-6.98289,34.57793,0,0,0,114.7475,-109.164,-53.97747,-36.05464,-110.6632,-50.32285,0.001067912,-0.1257102,0.09433498,0,0.3,0,0,0,0,
6.38224E+17,43.18541,-0.9818845,12.25731,18.61049,46.63258,73.83734,-16.98673,-0.4441859,-4.27255,-61.51973,-6.98289,34.57793,0,0,0,110.6208,-109.2453,-50.49064,-36.05464,-110.6632,-50.32285,0.001067912,-0.1257102,0.09433498,0,0.3,0,0,0,0,
6.38224E+17,41.32417,-1.005263,12.04719,17.73154,47.51152,73.98383,-16.98673,-0.4441859,-4.27255,-61.44649,-6.909645,34.57793,0,0,0,106.4182,-109.4026,-47.31971,-36.05464,-110.6632,-50.32285,0.001067912,-0.1257102,0.09433498,0,0.3,0,0,0,0,
6.38224E+17,39.27446,-1.005263,11.18334,16.63286,48.09748,73.98383,-16.98673,-0.4441859,-4.27255,-61.44649,-6.909645,34.50468,0,0,0,100.7746,-109.8074,-45.11543,-36.05464,-110.6632,-50.32285,0.001067912,-0.1257102,0.09433498,0,0.3,0,0,0,0,
6.38224E+17,38.0729,-1.005263,10.7164,15.68068,48.39046,74.05708,-16.98673,-0.4441859,-4.27255,-61.51973,-6.98289,34.57793,0,0,0,97.5103,-110.0139,-43.86928,-36.05464,-110.6632,-50.32285,0.001067912,-0.1257102,0.09433498,0,0.3,0,0,0,0,
6.38224E+17,35.88182,-1.005263,9.99263,13.04385,48.82993,73.91058,-16.98673,-0.4441859,-4.27255,-61.44649,-6.909645,34.57793,0,0,0,91.70863,-110.3166,-41.57484,-36.05464,-110.6632,-50.32285,0.001067912,-0.1257102,0.09433498,0,0.3,0,0,0,0,
6.38224E+17,34.02058,-1.005263,9.455643,10.0408,49.19616,73.32462,-16.98673,-0.4441859,-4.27255,-61.44649,-6.98289,34.50468,0,0,0,86.85352,-110.5277,-39.6841,-36.05464,-110.6632,-50.32285,0.001067912,-0.1257102,0.09433498,0,0.3,0,0,0,0,
6.38224E+17,32.51274,-0.9818845,8.895308,7.257483,49.48914,72.66542,-16.98673,-0.4441859,-4.27255,-61.51973,-6.98289,34.57793,0,0,0,82.7463,-110.6813,-38.52807,-36.05464,-110.6632,-50.32285,0.001067912,-0.1257102,0.09433498,0,0.3,0,0,0,0,
6.38224E+17,31.80595,-0.9818845,8.498405,6.012315,49.56238,72.22594,-16.98673,-0.4441859,-4.27255,-61.44649,-6.98289,34.50468,0,0,0,80.6573,-110.8209,-38.29323,-36.05464,-110.6632,-50.32285,0.001067912,-0.1257102,0.09433498,0,0.3,0,0,0,0,
6.38224E+17,30.46303,-0.9818845,7.634556,3.81496,49.78212,71.347,-16.98673,-0.4441859,-4.27255,-61.44649,-6.98289,34.57793,0,0,0,76.57791,-111.1031,-38.15447,-36.05464,-110.6632,-50.32285,0.001067912,-0.1257102,0.09433498,0,0.3,0,0,0,0,
6.38224E+17,28.97875,-0.9818845,6.560582,1.178134,49.9286,70.32157,-16.98673,-0.4441859,-4.27255,-61.44649,-6.909645,34.57793,0,0,0,71.9781,-111.4119,-38.38441,-36.05464,-110.6632,-50.32285,0.001067912,-0.1257102,0.09433498,0,0.3,0,0,0,0,
6.38224E+17,28.15415,-0.9818845,5.790122,-0.2867693,50.0751,69.80886,-16.98673,-0.4441859,-4.27255,-61.44649,-6.909645,34.57793,0,0,0,69.25908,-111.6048,-38.93382,-36.05464,-110.6632,-50.32285,0.001067912,-0.1257102,0.09433498,0,0.3,0,0,0,0,
6.38224E+17,26.4814,-0.9818845,4.225855,-3.289821,50.36808,68.56369,-16.98673,-0.4441859,-4.27255,-61.44649,-6.98289,34.57793,0,0,0,63.83463,-111.9226,-40.21338,-36.05464,-110.6632,-50.32285,0.001067912,-0.1257102,0.09433498,0,0.3,0,0,0,0,
6.38224E+17,24.64372,-0.9818845,3.058492,-6.878834,50.66106,67.17203,-16.98673,-0.4441859,-4.27255,-61.51973,-6.98289,34.57793,0,0,0,58.56213,-112.0952,-40.69665,-36.05464,-110.6632,-50.32285,0.001067912,-0.1257102,0.09433498,0,0.3,0,0,0,0,
6.38224E+17,22.14636,-0.9818845,1.984518,-11.49328,50.88079,65.41415,-16.98673,-0.4441859,-4.27255,-61.44649,-6.909645,34.57793,0,0,0,52.00289,-112.2051,-40.57903,-36.05464,-110.6632,-50.32285,0.001067912,-0.1257102,0.09433498,0,0.3,0,0,0,0,
6.38224E+17,20.28513,-0.9818845,1.330794,-15.37527,51.02729,64.38871,-16.98673,-0.4441859,-4.27255,-61.44649,-6.909645,34.50468,0,0,0,47.29832,-112.2492,-40.38395,-36.05464,-110.6632,-50.32285,0.001067912,-0.1257102,0.09433498,0,0.3,0,0,0,0,
6.38224E+17,18.98933,-0.9818845,0.9105434,-18.0121,51.10053,63.876,-16.98673,-0.4441859,-4.27255,-61.44649,-6.98289,34.57793,0,0,0,44.0742,-112.2683,-40.27175,-36.05464,-110.6632,-50.32285,0.001067912,-0.1257102,0.09433498,0,0.3,0,0,0,0,
6.38224E+17,16.20925,-0.9818845,0.4435981,-22.91953,51.24702,62.77732,-16.98673,-0.4441859,-4.27255,-61.44649,-6.98289,34.57793,0,0,0,37.50687,-112.2811,-39.32827,-36.05464,-110.6632,-50.32285,0.001067912,-0.1257102,0.09433498,0,0.3,0,0,0,0,
6.38224E+17,12.74594,-0.9818845,0.1867781,-28.63265,51.17377,61.38566,-16.98673,-0.4441859,-4.27255,-61.44649,-6.98289,34.57793,0,0,0,29.51237,-112.2844,-37.88112,-36.05464,-110.6632,-50.32285,0.001067912,-0.1257102,0.09433498,0,0.3,0,0,0,0,
6.38224E+17,10.71978,-0.9818845,0.1867781,-31.85544,50.88079,60.50672,-16.98673,-0.4441859,-4.27255,-61.51973,-6.98289,34.57793,0,0,0,24.8811,-112.2844,-36.91926,-36.05464,-110.6632,-50.32285,0.001067912,-0.1257102,0.09433498,0,0.3,0,0,0,0,
6.38224E+17,6.549669,-0.9818845,0.350209,-39.10671,49.70887,57.86989,-16.98673,-0.4441859,-4.27255,-61.51973,-6.98289,34.57793,0,0,0,15.30124,-112.2826,-35.08003,-36.05464,-110.6632,-50.32285,0.001067912,-0.1257102,0.09433498,0,0.3,0,0,0,0,
6.38224E+17,2.850755,-1.005263,1.237405,-46.21149,47.8045,54.7936,-16.98673,-0.4441859,-4.27255,-61.51973,-6.909645,34.57793,0,0,0,6.774301,-112.3084,-32.30938,-36.05464,-110.6632,-50.32285,0.001067912,-0.1257102,0.09433498,0,0.3,0,0,0,0,
6.38224E+17,-0.07067989,-1.028641,2.544852,-52.43733,45.75363,52.74273,-16.98673,-0.4441859,-4.27255,-61.44649,-6.909645,34.57793,0,0,0,-0.1717776,-112.2624,-29.10066,-36.05464,-110.6632,-50.32285,0.001067912,-0.1257102,0.09433498,0,0.3,0,0,0,0,
6.38224E+17,-1.649197,-1.028641,3.385354,-56.24608,44.36197,51.93703,-16.98673,-0.4441859,-4.27255,-61.51973,-6.98289,34.57793,0,0,0,-4.063815,-112.1612,-27.2055,-36.05464,-110.6632,-50.32285,0.001067912,-0.1257102,0.09433498,0,0.3,0,0,0,0,
6.38224E+17,-2.921435,-1.028641,4.01573,-59.32237,43.2633,51.42432,-16.98673,-0.4441859,-4.27255,-61.51973,-6.98289,34.57793,0,0,0,-7.271251,-112.0665,-25.86836,-36.05464,-110.6632,-50.32285,0.001067912,-0.1257102,0.09433498,0,0.3,0,0,0,0,
6.38224E+17,-4.287913,-1.028641,4.43598,-61.66622,42.31111,51.05809,-16.98673,-0.4441859,-4.27255,-61.44649,-6.909645,34.57793,0,0,0,-10.73991,-111.9945,-25.10958,-36.05464,-110.6632,-50.32285,0.001067912,-0.1257102,0.09433498,0,0.3,0,0,0,0,
6.38224E+17,-4.971152,-1.028641,4.739495,-62.47192,42.01813,50.9116,-16.98673,-0.4441859,-4.27255,-61.51973,-6.98289,34.57793,0,0,0,-12.50823,-111.938,-24.54635,-36.05464,-110.6632,-50.32285,0.001067912,-0.1257102,0.09433498,0,0.3,0,0,0,0,
6.38224E+17,-6.549669,-1.028641,5.509954,-64.2298,41.50541,50.9116,-16.98673,-0.4441859,-4.27255,-61.44649,-6.98289,34.57793,0,0,0,-16.66854,-111.7778,-23.17115,-36.05464,-110.6632,-50.32285,0.001067912,-0.1257102,0.09433498,0,0.3,0,0,0,0,
6.38224E+17,-8.552266,-1.028641,6.74736,-65.98769,40.99269,51.42432,-16.98673,-0.4441859,-4.27255,-61.44649,-6.98289,34.57793,0,0,0,-22.15743,-111.4703,-21.01072,-36.05464,-110.6632,-50.32285,0.001067912,-0.1257102,0.09433498,0,0.3,0,0,0,0,
6.38224E+17,-10.67266,-1.028641,8.405016,-67.81882,40.33349,52.15677,-16.98673,-0.4441859,-4.27255,-61.44649,-6.909645,34.57793,0,0,0,-28.30196,-110.9617,-18.17336,-36.05464,-110.6632,-50.32285,0.001067912,-0.1257102,0.09433498,0,0.3,0,0,0,0,
6.38224E+17,-12.72238,-1.028641,10.15606,-69.94292,39.30806,52.74273,-16.98673,-0.4441859,-4.27255,-61.44649,-6.98289,34.57793,0,0,0,-34.5409,-110.3045,-15.35859,-36.05464,-110.6632,-50.32285,0.001067912,-0.1257102,0.09433498,0,0.3,0,0,0,0,
6.38224E+17,-13.5941,-1.005263,10.99656,-70.74863,38.86858,52.96247,-16.98673,-0.4441859,-4.27255,-61.51973,-6.98289,34.57793,0,0,0,-37.31668,-109.891,-14.03179,-36.05464,-110.6632,-50.32285,0.001067912,-0.1257102,0.09433498,0,0.3,0,0,0,0,
6.38224E+17,-15.40822,-1.005263,12.3507,-72.57975,38.06289,54.06115,-16.98673,-0.4441859,-4.27255,-61.51973,-6.909645,34.50468,0,0,0,-43.00326,-109.2534,-12.31504,-36.05464,-110.6632,-50.32285,0.001067912,-0.1257102,0.09433498,0,0.3,0,0,0,0,
6.38224E+17,-17.17521,-1.005263,12.86434,-73.75167,37.47693,55.74578,-16.98673,-0.4441859,-4.27255,-61.51973,-6.909645,34.57793,0,0,0,-48.13865,-108.9924,-12.60065,-36.05464,-110.6632,-50.32285,0.001067912,-0.1257102,0.09433498,0,0.3,0,0,0,0,
6.38224E+17,-18.14117,-1.005263,12.91104,-74.26439,37.25719,56.69797,-16.98673,-0.4441859,-4.27255,-61.44649,-6.98289,34.57793,0,0,0,-50.79047,-108.9682,-13.33365,-36.05464,-110.6632,-50.32285,0.001067912,-0.1257102,0.09433498,0,0.3,0,0,0,0,
6.38224E+17,-20.37937,-1.005263,12.88769,-75.28983,36.59798,58.60235,-16.98673,-0.4441859,-4.27255,-61.44649,-6.98289,34.57793,0,0,0,-56.78728,-108.9803,-15.48514,-36.05464,-110.6632,-50.32285,0.001067912,-0.1257102,0.09433498,0,0.3,0,0,0,0,
6.38224E+17,-23.0652,-1.005263,12.7943,-77.12095,35.6458,60.57997,-16.98673,-0.4441859,-4.27255,-61.44649,-6.909645,34.57793,0,0,0,-63.80504,-109.0286,-18.50906,-36.05464,-110.6632,-50.32285,0.001067912,-0.1257102,0.09433498,0,0.3,0,0,0,0,
6.38224E+17,-24.40812,-1.005263,12.63087,-78.36612,35.05984,61.38566,-16.98673,-0.4441859,-4.27255,-61.44649,-6.98289,34.57793,0,0,0,-67.14589,-109.1123,-20.38345,-36.05464,-110.6632,-50.32285,0.001067912,-0.1257102,0.09433498,0,0.3,0,0,0,0,
6.38224E+17,-27.4238,-1.005263,12.30401,-81.14944,33.59494,62.85057,-16.98673,-0.4441859,-4.27255,-61.44649,-6.909645,34.57793,0,0,0,-74.49519,-109.2766,-24.78016,-36.05464,-110.6632,-50.32285,0.001067912,-0.1257102,0.09433498,0,0.3,0,0,0,0,
6.38224E+17,-30.72219,-1.005263,12.37405,-83.56653,31.1046,64.24223,-16.98673,-0.4441859,-4.27255,-61.51973,-6.909645,34.50468,0,0,0,-82.71358,-109.2417,-29.16726,-36.05464,-110.6632,-50.32285,0.001067912,-0.1257102,0.09433498,0,0.3,0,0,0,0,
6.38224E+17,-31.99443,-1.005263,12.70091,-84.6652,29.4932,64.68169,-16.98673,-0.4441859,-4.27255,-61.51973,-6.909645,34.57793,0,0,0,-86.17691,-109.0766,-30.40826,-36.05464,-110.6632,-50.32285,0.001067912,-0.1257102,0.09433498,0,0.3,0,0,0,0,
6.38224E+17,-33.54939,-1.005263,13.98501,-86.78931,26.41691,65.19441,-16.98673,-0.4441859,-4.27255,-61.51973,-6.98289,34.57793,0,0,0,-91.49539,-108.3869,-30.37408,-36.05464,-110.6632,-50.32285,0.001067912,-0.1257102,0.09433498,0,0.3,0,0,0,0,
6.38224E+17,-34.25618,-1.005263,14.89556,-88.47395,24.14631,65.63388,-16.98673,-0.4441859,-4.27255,-61.51973,-6.98289,34.57793,0,0,0,-94.34563,-107.8584,-29.81701,-36.05464,-110.6632,-50.32285,0.001067912,-0.1257102,0.09433498,0,0.3,0,0,0,0,
6.38224E+17,-34.82162,-1.005263,15.17572,-88.76694,23.19412,68.4172,-16.98673,-0.4441859,-4.27255,-61.44649,-6.98289,34.57793,0,0,0,-96.06776,-107.6893,-30.23785,-36.05464,-110.6632,-50.32285,0.001067912,-0.1257102,0.09433498,0,0.3,0,0,0,0,
6.38224E+17,-35.17502,-1.005263,15.22242,-88.47395,22.97438,70.32157,-16.98673,-0.4441859,-4.27255,-61.44649,-6.98289,34.57793,0,0,0,-96.97822,-107.6608,-30.74729,-36.05464,-110.6632,-50.32285,0.001067912,-0.1257102,0.09433498,0,0.3,0,0,0,0,
6.38224E+17,-36.28234,-1.005263,15.71271,-87.66826,23.04763,75.30224,-16.98673,-0.4441859,-4.27255,-61.44649,-6.98289,34.57793,0,0,0,-100.2701,-107.3565,-31.76057,-36.05464,-110.6632,-50.32285,0.001067912,-0.1257102,0.09433498,0,0.3,0,0,0,0,
6.38224E+17,-38.14358,-1.005263,17.4871,-87.81474,23.19412,78.9645,-16.98673,-0.4441859,-4.27255,-61.51973,-6.98289,34.57793,0,0,0,-107.0977,-106.1767,-31.97691,-36.05464,-110.6632,-50.32285,0.001067912,-0.1257102,0.09433498,0,0.3,0,0,0,0,
6.38224E+17,-39.32158,-1.005263,18.42099,-88.69369,23.19412,80.06318,-16.98673,-0.4441859,-4.27255,-61.51973,-6.98289,34.57793,0,0,0,-111.189,-105.5067,-32.60795,-36.05464,-110.6632,-50.32285,0.001067912,-0.1257102,0.09433498,0,0.3,0,0,0,0,
6.38224E+17,-41.18281,-1.005263,19.63505,-91.11078,23.04763,81.2351,-16.98673,-0.4441859,-4.27255,-61.44649,-6.909645,34.57793,0,0,0,-117.2979,-104.5855,-34.28053,-36.05464,-110.6632,-50.32285,0.001067912,-0.1257102,0.09433498,0,0.3,0,0,0,0,
6.38224E+17,-42.76133,-1.005263,20.52225,-93.16164,22.90114,81.67458,-16.98673,-0.4441859,-4.27255,-61.51973,-6.909645,34.57793,0,0,0,-122.2633,-103.8766,-36.13875,-36.05464,-110.6632,-50.32285,0.001067912,-0.1257102,0.09433498,0,0.3,0,0,0,0,
6.38224E+17,-43.98645,-1.005263,20.70902,-95.06602,22.97438,81.96756,-16.98673,-0.4441859,-4.27255,-61.51973,-6.909645,34.50468,0,0,0,-125.3447,-103.7236,-38.49031,-36.05464,-110.6632,-50.32285,0.001067912,-0.1257102,0.09433498,0,0.3,0,0,0,0,
6.38224E+17,-45.04665,-1.005263,20.70902,-96.60417,23.12087,82.04079,-16.98673,-0.4441859,-4.27255,-61.51973,-6.98289,34.57793,0,0,0,-127.726,-103.7236,-40.83178,-36.05464,-110.6632,-50.32285,0.001067912,-0.1257102,0.09433498,0,0.3,0,0,0,0,
6.38224E+17,-45.56496,-1.005263,20.68568,-97.40987,23.19412,82.11404,-16.98673,-0.4441859,-4.27255,-61.44649,-6.98289,34.57793,0,0,0,-128.8381,-103.7428,-42.02803,-36.05464,-110.6632,-50.32285,0.001067912,-0.1257102,0.09433498,0,0.3,0,0,0,0,
6.38224E+17,-46.46024,-0.9818845,20.8958,-98.87477,23.41385,82.11404,-16.98673,-0.4441859,-4.27255,-61.44649,-6.98289,34.57793,0,0,0,-131.1282,-103.5148,-43.74094,-36.05464,-110.6632,-50.32285,0.001067912,-0.1257102,0.09433498,0,0.3,0,0,0,0,
6.38224E+17,-47.61468,-0.9818845,21.45614,-100.7059,23.4871,82.11404,-16.98673,-0.4441859,-4.27255,-61.44649,-6.98289,34.57793,0,0,0,-134.5103,-103.0437,-45.58836,-36.05464,-110.6632,-50.32285,0.001067912,-0.1257102,0.09433498,0,0.3,0,0,0,0,
6.38224E+17,-48.22724,-1.005263,21.45614,-101.9511,23.34061,82.11404,-16.98673,-0.4441859,-4.27255,-61.44649,-6.98289,34.57793,0,0,0,-135.8144,-103.0981,-47.03405,-36.05464,-110.6632,-50.32285,0.001067912,-0.1257102,0.09433498,0,0.3,0,0,0,0,
6.38224E+17,-49.4288,-1.005263,21.40944,-104.8809,22.6814,80.86888,-16.98673,-0.4441859,-4.27255,-61.44649,-6.98289,34.57793,0,0,0,-138.2516,-103.1378,-49.97449,-36.05464,-110.6632,-50.32285,0.001067912,-0.1257102,0.09433498,0,0.3,0,0,0,0,
6.38224E+17,-50.41832,-1.005263,21.3394,-108.0304,21.72922,78.81802,-16.98673,-0.4441859,-4.27255,-61.51973,-6.98289,34.57793,0,0,0,-140.1583,-103.1972,-52.47641,-36.05464,-110.6632,-50.32285,0.001067912,-0.1257102,0.09433498,0,0.3,0,0,0,0,
6.38224E+17,-51.36071,-1.005263,21.10593,-110.4475,20.77703,77.06013,-16.98673,-0.4441859,-4.27255,-61.51973,-6.98289,34.57793,0,0,0,-141.6495,-103.3939,-55.11358,-36.05464,-110.6632,-50.32285,0.001067912,-0.1257102,0.09433498,0,0.3,0,0,0,0,
6.38224E+17,-51.78479,-1.005263,21.08258,-111.7659,20.26431,75.88821,-16.98673,-0.4441859,-4.27255,-61.51973,-6.98289,34.57793,0,0,0,-142.4439,-103.4135,-56.19647,-36.05464,-110.6632,-50.32285,0.001067912,-0.1257102,0.09433498,0,0.3,0,0,0,0,
6.38224E+17,-52.68008,-1.005263,20.38216,-114.8422,19.23888,73.98383,-16.98673,-0.4441859,-4.27255,-61.44649,-6.909645,34.57793,0,0,0,-142.9665,-103.9905,-59.36013,-36.05464,-110.6632,-50.32285,0.001067912,-0.1257102,0.09433498,0,0.3,0,0,0,0,
6.38224E+17,-54.04655,-1.005263,18.51438,-116.8931,18.1402,72.9584,-16.98673,-0.4441859,-4.27255,-61.44649,-6.98289,34.50468,0,0,0,-142.2069,-105.4379,-65.20704,-36.05464,-110.6632,-50.32285,0.001067912,-0.1257102,0.09433498,0,0.3,0,0,0,0,
6.38224E+17,-55.48371,-1.005263,16.59991,-118.4312,16.96828,72.44569,-16.98673,-0.4441859,-4.27255,-61.44649,-6.98289,34.57793,0,0,0,-141.2489,-106.7819,-71.21318,-36.05464,-110.6632,-50.32285,0.001067912,-0.1257102,0.09433498,0,0.3,0,0,0,0,
6.38224E+17,-56.63815,-1.005263,15.03564,-120.2624,16.08934,72.29919,-16.98673,-0.4441859,-4.27255,-61.44649,-6.98289,34.57793,0,0,0,-140.2518,-107.7742,-76.00492,-36.05464,-110.6632,-50.32285,0.001067912,-0.1257102,0.09433498,0,0.3,0,0,0,0,
6.38224E+17,-57.29782,-1.028641,14.1251,-120.9216,15.64987,72.22594,-16.98673,-0.4441859,-4.27255,-61.44649,-6.909645,34.57793,0,0,0,-139.579,-108.3621,-78.73438,-36.05464,-110.6632,-50.32285,0.001067912,-0.1257102,0.09433498,0,0.3,0,0,0,0,
6.38224E+17,-57.41562,-1.028641,13.21455,-121.1413,15.28364,72.22594,-16.98673,-0.4441859,-4.27255,-61.51973,-6.98289,34.57793,0,0,0,-138.0279,-108.8629,-80.13048,-36.05464,-110.6632,-50.32285,0.001067912,-0.1257102,0.09433498,0,0.3,0,0,0,0,
6.38224E+17,-57.41562,-1.028641,12.91104,-121.5075,15.50338,72.51893,-16.98673,-0.4441859,-4.27255,-61.51973,-6.98289,34.57793,0,0,0,-137.4481,-109.0226,-80.50106,-36.05464,-110.6632,-50.32285,0.001067912,-0.1257102,0.09433498,0,0.3,0,0,0,0,
6.38224E+17,-57.41562,-1.028641,12.67757,-121.7273,15.72311,73.17814,-16.98673,-0.4441859,-4.27255,-61.44649,-6.909645,34.57793,0,0,0,-137.0016,-109.1429,-80.78643,-36.05464,-110.6632,-50.32285,0.001067912,-0.1257102,0.09433498,0,0.3,0,0,0,0,
6.38224E+17,-57.41562,-1.028641,12.23397,-121.8005,16.38232,74.56979,-16.98673,-0.4441859,-4.27255,-61.51973,-6.98289,34.57793,0,0,0,-136.1522,-109.3656,-81.32935,-36.05464,-110.6632,-50.32285,0.001067912,-0.1257102,0.09433498,0,0.3,0,0,0,0,
6.38224E+17,-57.39207,-1.028641,11.0666,-121.0681,16.96828,75.44874,-16.98673,-0.4441859,-4.27255,-61.44649,-6.909645,34.50468,0,0,0,-133.8749,-109.9142,-82.70729,-36.05464,-110.6632,-50.32285,0.001067912,-0.1257102,0.09433498,0,0.3,0,0,0,0,
6.38224E+17,-57.39207,-1.028641,10.20275,-120.3356,17.18801,75.81496,-16.98673,-0.4441859,-4.27255,-61.44649,-6.909645,34.57793,0,0,0,-132.2104,-110.2853,-83.77212,-36.05464,-110.6632,-50.32285,0.001067912,-0.1257102,0.09433498,0,0.3,0,0,0,0,
6.38224E+17,-57.34494,-1.028641,7.611208,-118.358,17.481,76.18118,-16.98673,-0.4441859,-4.27255,-61.44649,-6.98289,34.57793,0,0,0,-127.1243,-111.2191,-86.8784,-36.05464,-110.6632,-50.32285,0.001067912,-0.1257102,0.09433498,0,0.3,0,0,0,0,
6.38224E+17,-57.18003,-1.028641,5.113051,-117.2593,17.481,76.32768,-16.98673,-0.4441859,-4.27255,-61.44649,-6.98289,34.57793,0,0,0,-122.0336,-111.8633,-89.64448,-36.05464,-110.6632,-50.32285,0.001067912,-0.1257102,0.09433498,0,0.3,0,0,0,0,
6.38224E+17,-56.96799,-1.028641,3.525437,-116.2339,17.481,76.32768,-16.98673,-0.4441859,-4.27255,-61.44649,-6.98289,34.57793,0,0,0,-118.6526,-112.1416,-91.20178,-36.05464,-110.6632,-50.32285,0.001067912,-0.1257102,0.09433498,0,0.3,0,0,0,0,
6.38224E+17,-56.30831,-1.028641,0.3735563,-114.2563,17.55424,76.10795,-16.98673,-0.4441859,-4.27255,-61.44649,-6.98289,34.57793,0,0,0,-111.6573,-112.3911,-93.90722,-36.05464,-110.6632,-50.32285,0.001067912,-0.1257102,0.09433498,0,0.3,0,0,0,0,
6.38224E+17,-55.41303,-1.028641,-2.684936,-112.4984,17.77398,75.229,-16.98673,-0.4441859,-4.27255,-61.44649,-6.98289,34.57793,0,0,0,-104.6221,-112.2475,-96.21114,-36.05464,-110.6632,-50.32285,0.001067912,-0.1257102,0.09433498,0,0.3,0,0,0,0,
6.38224E+17,-54.32927,-1.052019,-4.926273,-111.1067,18.21345,74.13033,-16.98673,-0.4441859,-4.27255,-61.51973,-6.98289,34.57793,0,0,0,-99.01002,-111.9557,-97.28075,-36.05464,-110.6632,-50.32285,0.001067912,-0.1257102,0.09433498,0,0.3,0,0,0,0,
6.38224E+17,-53.66959,-1.052019,-6.093637,-110.594,18.50643,73.54436,-16.98673,-0.4441859,-4.27255,-61.44649,-6.909645,34.57793,0,0,0,-96.00658,-111.6949,-97.74768,-36.05464,-110.6632,-50.32285,0.001067912,-0.1257102,0.09433498,0,0.3,0,0,0,0,
6.38224E+17,-52.39735,-1.052019,-8.28828,-109.3488,19.09239,72.66542,-16.98673,-0.4441859,-4.27255,-61.44649,-6.909645,34.57793,0,0,0,-90.40069,-111.0555,-98.72544,-36.05464,-110.6632,-50.32285,0.001067912,-0.1257102,0.09433498,0,0.3,0,0,0,0,
6.38224E+17,-51.50208,-1.052019,-10.2261,-108.3966,19.67835,71.42025,-16.98673,-0.4441859,-4.27255,-61.51973,-6.98289,34.57793,0,0,0,-85.81818,-110.33,-100.0922,-36.05464,-110.6632,-50.32285,0.001067912,-0.1257102,0.09433498,0,0.3,0,0,0,0,
6.38224E+17,-50.72459,-1.052019,-11.67363,-107.6642,19.97133,70.39482,-16.98673,-0.4441859,-4.27255,-61.44649,-6.909645,34.57793,0,0,0,-82.32366,-109.6901,-101.0279,-36.05464,-110.6632,-50.32285,0.001067912,-0.1257102,0.09433498,0,0.3,0,0,0,0,
6.38224E+17,-49.85288,-1.052019,-12.95773,-106.8585,20.26431,69.36938,-16.98673,-0.4441859,-4.27255,-61.44649,-6.909645,34.57793,0,0,0,-79.05807,-109.0527,-101.6657,-36.05464,-110.6632,-50.32285,0.001067912,-0.1257102,0.09433498,0,0.3,0,0,0,0,
6.38224E+17,-48.65132,-1.052019,-14.35857,-105.5401,20.92352,68.34396,-16.98673,-0.4441859,-4.27255,-61.44649,-6.909645,34.57793,0,0,0,-75.26409,-108.2828,-102.1155,-36.05464,-110.6632,-50.32285,0.001067912,-0.1257102,0.09433498,0,0.3,0,0,0,0,
6.38224E+17,-47.99164,-1.052019,-14.89556,-104.8809,21.28975,68.12422,-16.98673,-0.4441859,-4.27255,-61.44649,-6.98289,34.57793,0,0,0,-73.59798,-107.9672,-102.0626,-36.05464,-110.6632,-50.32285,0.001067912,-0.1257102,0.09433498,0,0.3,0,0,0,0,
6.38224E+17,-46.50736,-1.052019,-14.89556,-103.9287,22.31518,67.46501,-16.98673,-0.4441859,-4.27255,-61.44649,-6.98289,34.57793,0,0,0,-71.85627,-107.9672,-100.1785,-36.05464,-110.6632,-50.32285,0.001067912,-0.1257102,0.09433498,0,0.3,0,0,0,0,
6.38224E+17,-46.17752,-1.052019,-14.87221,-103.7822,22.6814,67.24528,-16.98673,-0.4441859,-4.27255,-61.51973,-6.98289,34.57793,0,0,0,-71.50052,-107.9812,-99.72961,-36.05464,-110.6632,-50.32285,0.001067912,-0.1257102,0.09433498,0,0.3,0,0,0,0,
6.38224E+17,-45.42361,-1.028641,-14.82551,-103.0497,23.4871,66.95229,-16.98673,-0.4441859,-4.27255,-61.51973,-6.909645,34.57793,0,0,0,-70.66695,-107.9546,-98.72032,-36.05464,-110.6632,-50.32285,0.001067912,-0.1257102,0.09433498,0,0.3,0,0,0,0,
6.38224E+17,-44.43409,-1.028641,-14.75547,-102.0975,24.51253,66.87905,-16.98673,-0.4441859,-4.27255,-61.51973,-6.98289,34.57793,0,0,0,-69.56429,-107.9963,-97.39777,-36.05464,-110.6632,-50.32285,0.001067912,-0.1257102,0.09433498,0,0.3,0,0,0,0,
6.38224E+17,-43.77441,-1.028641,-14.70878,-101.6581,25.02525,66.87905,-16.98673,-0.4441859,-4.27255,-61.51973,-6.909645,34.57793,0,0,0,-68.8155,-108.0239,-96.52567,-36.05464,-110.6632,-50.32285,0.001067912,-0.1257102,0.09433498,0,0.3,0,0,0,0,
6.38224E+17,-41.98385,-1.028641,-14.5687,-100.7059,26.27042,66.87905,-16.98673,-0.4441859,-4.27255,-61.44649,-6.909645,34.50468,0,0,0,-66.74868,-108.1063,-94.17605,-36.05464,-110.6632,-50.32285,0.001067912,-0.1257102,0.09433498,0,0.3,0,0,0,0,
6.38224E+17,-39.93414,-1.028641,-14.42861,-99.68047,27.73532,66.87905,-16.98673,-0.4441859,-4.27255,-61.44649,-6.98289,34.57793,0,0,0,-64.25563,-108.1879,-91.59409,-36.05464,-110.6632,-50.32285,0.001067912,-0.1257102,0.09433498,0,0.3,0,0,0,0,
6.38224E+17,-38.99174,-1.028641,-14.35857,-99.16775,28.68751,66.87905,-16.98673,-0.4441859,-4.27255,-61.44649,-6.98289,34.57793,0,0,0,-63.08387,-108.2284,-90.42493,-36.05464,-110.6632,-50.32285,0.001067912,-0.1257102,0.09433498,0,0.3,0,0,0,0,
6.38224E+17,-37.20118,-1.028641,-14.21848,-98.21556,30.2989,66.87905,-16.98673,-0.4441859,-4.27255,-61.44649,-6.98289,34.57793,0,0,0,-60.80924,-108.3089,-88.2402,-36.05464,-110.6632,-50.32285,0.001067912,-0.1257102,0.09433498,0,0.3,0,0,0,0,
6.38224E+17,-35.31638,-1.028641,-14.0784,-97.33662,31.47083,66.58607,-16.98673,-0.4441859,-4.27255,-61.44649,-6.909645,34.57793,0,0,0,-58.32429,-108.3886,-86.02557,-36.05464,-110.6632,-50.32285,0.001067912,-0.1257102,0.09433498,0,0.3,0,0,0,0,
6.38224E+17,-33.38446,-1.005263,-13.93832,-96.60417,32.5695,65.63388,-16.98673,-0.4441859,-4.27255,-61.44649,-6.909645,34.57793,0,0,0,-55.69042,-108.4131,-83.84119,-36.05464,-110.6632,-50.32285,0.001067912,-0.1257102,0.09433498,0,0.3,0,0,0,0,
6.38224E+17,-32.25359,-1.005263,-13.89162,-96.31119,33.08222,65.04792,-16.98673,-0.4441859,-4.27255,-61.44649,-6.98289,34.57793,0,0,0,-54.06798,-108.4392,-82.66932,-36.05464,-110.6632,-50.32285,0.001067912,-0.1257102,0.09433498,0,0.3,0,0,0,0,
6.38224E+17,-29.94471,-1.005263,-13.72819,-95.65198,34.32739,64.24223,-16.98673,-0.4441859,-4.27255,-61.51973,-6.98289,34.57793,0,0,0,-50.75668,-108.53,-80.2406,-36.05464,-110.6632,-50.32285,0.001067912,-0.1257102,0.09433498,0,0.3,0,0,0,0,
6.38224E+17,-26.5992,-1.005263,-13.70484,-94.48006,36.23176,63.72951,-16.98673,-0.4441859,-4.27255,-61.51973,-6.98289,34.57793,0,0,0,-45.55201,-108.5429,-77.38155,-36.05464,-110.6632,-50.32285,0.001067912,-0.1257102,0.09433498,0,0.3,0,0,0,0,
6.38224E+17,-24.29032,-1.005263,-14.00836,-93.60111,37.47693,63.50977,-16.98673,-0.4441859,-4.27255,-61.44649,-6.909645,34.57793,0,0,0,-41.5681,-108.3737,-76.24539,-36.05464,-110.6632,-50.32285,0.001067912,-0.1257102,0.09433498,0,0.3,0,0,0,0,
6.38224E+17,-22.45264,-1.005263,-14.17179,-92.50243,38.5756,63.50977,-16.98673,-0.4441859,-4.27255,-61.44649,-6.98289,34.57793,0,0,0,-38.45221,-108.2812,-75.30071,-36.05464,-110.6632,-50.32285,0.001067912,-0.1257102,0.09433498,0,0.3,0,0,0,0,
6.38224E+17,-18.54169,-1.005263,-14.19514,-90.15859,41.43217,63.36329,-16.98673,-0.4441859,-4.27255,-61.44649,-6.98289,34.57793,0,0,0,-31.99938,-108.2678,-72.94467,-36.05464,-110.6632,-50.32285,0.001067912,-0.1257102,0.09433498,0,0.3,0,0,0,0,
6.38224E+17,-14.37158,-1.005263,-14.19514,-87.66826,45.31416,63.36329,-16.98673,-0.4441859,-4.27255,-61.44649,-6.98289,34.57793,0,0,0,-24.97699,-108.2678,-70.87032,-36.05464,-110.6632,-50.32285,0.001067912,-0.1257102,0.09433498,0,0.3,0,0,0,0,
6.38224E+17,-11.16742,-0.9818845,-14.59204,-85.76388,48.6102,62.85057,-16.98673,-0.4441859,-4.27255,-61.44649,-6.98289,34.57793,0,0,0,-19.31631,-107.9838,-70.50354,-36.05464,-110.6632,-50.32285,0.001067912,-0.1257102,0.09433498,0,0.3,0,0,0,0,
6.38224E+17,-9.848064,-0.9818845,-14.9189,-85.03143,49.85536,62.11811,-16.98673,-0.4441859,-4.27255,-61.44649,-6.98289,34.57793,0,0,0,-16.93244,-107.7901,-70.80953,-36.05464,-110.6632,-50.32285,0.001067912,-0.1257102,0.09433498,0,0.3,0,0,0,0,
6.38224E+17,-7.256468,-0.9818845,-15.24576,-83.71302,51.32027,60.50672,-16.98673,-0.4441859,-4.27255,-61.44649,-6.98289,34.57793,0,0,0,-12.41191,-107.5921,-70.87231,-36.05464,-110.6632,-50.32285,0.001067912,-0.1257102,0.09433498,0,0.3,0,0,0,0,
6.38224E+17,-4.523513,-0.9818845,-15.3625,-82.3946,52.41894,58.38261,-16.98673,-0.4441859,-4.27255,-61.51973,-6.909645,34.57793,0,0,0,-7.729293,-107.5204,-70.65261,-36.05464,-110.6632,-50.32285,0.001067912,-0.1257102,0.09433498,0,0.3,0,0,0,0,
6.38224E+17,-3.180595,-0.9351282,-15.50258,-81.58891,52.85841,57.50367,-16.98673,-0.4441859,-4.27255,-61.44649,-6.98289,34.57793,0,0,0,-5.420179,-107.3248,-70.81027,-36.05464,-110.6632,-50.32285,0.001067912,-0.1257102,0.09433498,0,0.3,0,0,0,0,
6.38224E+17,-0.3533994,-0.5844551,-15.66602,-78.87884,53.66411,56.33175,-16.98673,-0.4441859,-4.27255,-61.44649,-6.98289,34.50468,0,0,0,-0.6003547,-106.4066,-71.0172,-36.05464,-110.6632,-50.32285,0.001067912,-0.1257102,0.09433498,0,0.3,0,0,0,0,
6.38224E+17,2.049716,0.233782,-15.66602,-75.87578,54.32331,55.81903,-16.98673,-0.4441859,-4.27255,-61.44649,-6.98289,34.50468,0,0,0,3.481545,-104.5022,-71.07181,-36.05464,-110.6632,-50.32285,0.001067912,-0.1257102,0.09433498,0,0.3,0,0,0,0,
6.38224E+17,3.274835,0.9585064,-15.66602,-74.26439,54.68954,55.59929,-16.98673,-0.4441859,-4.27255,-61.51973,-6.98289,34.57793,0,0,0,5.559624,-102.8156,-71.186,-36.05464,-110.6632,-50.32285,0.001067912,-0.1257102,0.09433498,0,0.3,0,0,0,0,
6.38224E+17,6.12559,4.254833,-15.66602,-69.43021,55.56849,55.30631,-16.98673,-0.4441859,-4.27255,-61.51973,-6.98289,34.57793,0,0,0,10.34792,-95.15274,-71.92963,-36.05464,-110.6632,-50.32285,0.001067912,-0.1257102,0.09433498,0,0.3,0,0,0,0,
6.38224E+17,6.832388,5.4705,-15.66602,-68.03855,55.71497,55.30631,-16.98673,-0.4441859,-4.27255,-61.44649,-6.98289,34.57793,0,0,0,11.50801,-92.33364,-72.30273,-36.05464,-110.6632,-50.32285,0.001067912,-0.1257102,0.09433498,0,0.3,0,0,0,0,
6.38224E+17,8.552266,8.626557,-15.66602,-64.44954,56.00795,55.4528,-16.98673,-0.4441859,-4.27255,-61.51973,-6.98289,34.57793,0,0,0,14.25147,-85.04468,-73.58262,-36.05464,-110.6632,-50.32285,0.001067912,-0.1257102,0.09433498,0,0.3,0,0,0,0,
6.38224E+17,10.6491,11.94626,-15.43254,-60.05483,56.22769,56.77122,-16.98673,-0.4441859,-4.27255,-61.51973,-6.98289,34.57793,0,0,0,17.55115,-77.58932,-75.00875,-36.05464,-110.6632,-50.32285,0.001067912,-0.1257102,0.09433498,0,0.3,0,0,0,0,
6.38224E+17,11.92134,13.67625,-15.10568,-57.63773,56.30094,57.79665,-16.98673,-0.4441859,-4.27255,-61.51973,-6.98289,34.57793,0,0,0,19.58645,-73.86367,-75.57691,-36.05464,-110.6632,-50.32285,0.001067912,-0.1257102,0.09433498,0,0.3,0,0,0,0,
6.38224E+17,14.8899,17.04271,-13.98501,-51.85137,56.37418,60.65321,-16.98673,-0.4441859,-4.27255,-61.44649,-6.909645,34.57793,0,0,0,24.48021,-66.96455,-76.28125,-36.05464,-110.6632,-50.32285,0.001067912,-0.1257102,0.09433498,0,0.3,0,0,0,0,
6.38224E+17,17.90557,20.10526,-12.04719,-44.96632,56.30094,64.46196,-16.98673,-0.4441859,-4.27255,-61.51973,-6.909645,34.57793,0,0,0,29.94296,-61.2246,-75.67564,-36.05464,-110.6632,-50.32285,0.001067912,-0.1257102,0.09433498,0,0.3,0,0,0,0,
6.38224E+17,20.56785,22.60672,-9.73581,-38.59399,55.93471,68.4172,-16.98673,-0.4441859,-4.27255,-61.51973,-6.98289,34.57793,0,0,0,35.32621,-56.81926,-74.20576,-36.05464,-110.6632,-50.32285,0.001067912,-0.1257102,0.09433498,0,0.3,0,0,0,0,
6.38224E+17,21.91076,23.82239,-8.638489,-35.59094,55.56849,70.39482,-16.98673,-0.4441859,-4.27255,-61.51973,-6.98289,34.57793,0,0,0,38.0475,-54.6268,-73.75521,-36.05464,-110.6632,-50.32285,0.001067912,-0.1257102,0.09433498,0,0.3,0,0,0,0,
6.38224E+17,24.92644,26.69791,-6.397151,-28.99888,54.39656,75.08251,-16.98673,-0.4441859,-4.27255,-61.44649,-6.98289,34.57793,0,0,0,43.94735,-49.25735,-73.78783,-36.05464,-110.6632,-50.32285,0.001067912,-0.1257102,0.09433498,0,0.3,0,0,0,0,
6.38224E+17,27.23532,28.75519,-4.669453,-24.0182,53.15139,78.45178,-16.98673,-0.4441859,-4.27255,-61.44649,-6.98289,34.57793,0,0,0,48.53339,-45.40696,-74.05724,-36.05464,-110.6632,-50.32285,0.001067912,-0.1257102,0.09433498,0,0.3,0,0,0,0,
6.38224E+17,28.57823,29.90072,-3.618826,-21.23489,52.3457,80.28292,-16.98673,-0.4441859,-4.27255,-61.51973,-6.98289,34.57793,0,0,0,51.27187,-43.25931,-74.22566,-36.05464,-110.6632,-50.32285,0.001067912,-0.1257102,0.09433498,0,0.3,0,0,0,0,
6.38224E+17,31.14627,32.19178,-1.751045,-15.88799,50.58781,83.6522,-16.98673,-0.4441859,-4.27255,-61.44649,-6.98289,34.57793,0,0,0,56.26126,-38.89486,-75.25469,-36.05464,-110.6632,-50.32285,0.001067912,-0.1257102,0.09433498,0,0.3,0,0,0,0,
6.38224E+17,33.54939,34.36596,-0.2334726,-10.98056,48.68344,85.84955,-16.98673,-0.4441859,-4.27255,-61.51973,-6.98289,34.57793,0,0,0,60.53249,-34.72593,-77.06642,-36.05464,-110.6632,-50.32285,0.001067912,-0.1257102,0.09433498,0,0.3,0,0,0,0,
6.38224E+17,34.82162,35.55825,0.4902926,-8.490229,47.36503,86.582,-16.98673,-0.4441859,-4.27255,-61.51973,-6.98289,34.57793,0,0,0,62.59822,-32.44806,-78.35545,-36.05464,-110.6632,-50.32285,0.001067912,-0.1257102,0.09433498,0,0.3,0,0,0,0,
6.38224E+17,36.98914,37.73242,1.844434,-4.022273,44.80145,87.53419,-16.98673,-0.4441859,-4.27255,-61.51973,-6.98289,34.57793,0,0,0,66.03588,-28.32409,-80.68285,-36.05464,-110.6632,-50.32285,0.001067912,-0.1257102,0.09433498,0,0.3,0,0,0,0,
6.38224E+17,38.99174,39.7897,3.151881,0.006211365,42.31111,88.19339,-16.98673,-0.4441859,-4.27255,-61.44649,-6.98289,34.50468,0,0,0,69.08576,-24.45807,-83.01102,-36.05464,-110.6632,-50.32285,0.001067912,-0.1257102,0.09433498,0,0.3,0,0,0,0,
6.38224E+17,40.85297,41.58982,4.179161,3.448734,39.96726,88.63287,-16.98673,-0.4441859,-4.27255,-61.44649,-6.98289,34.50468,0,0,0,71.59512,-21.12858,-85.56113,-36.05464,-110.6632,-50.32285,0.001067912,-0.1257102,0.09433498,0,0.3,0,0,0,0,
6.38224E+17,42.17233,42.57171,4.832884,5.499599,38.35587,88.77935,-16.98673,-0.4441859,-4.27255,-61.51973,-6.98289,34.57793,0,0,0,73.47247,-19.31297,-87.24248,-36.05464,-110.6632,-50.32285,0.001067912,-0.1257102,0.09433498,0,0.3,0,0,0,0,
6.38224E+17,44.12781,43.62373,5.836816,8.06318,36.52474,88.92585,-16.98673,-0.4441859,-4.27255,-61.51973,-6.98289,34.57793,0,0,0,76.65233,-17.30791,-89.32771,-36.05464,-110.6632,-50.32285,0.001067912,-0.1257102,0.09433498,0,0.3,0,0,0,0,
6.38224E+17,46.93144,44.7225,7.401083,11.65219,34.54712,88.92585,-16.98673,-0.4441859,-4.27255,-61.44649,-6.909645,34.57793,0,0,0,81.76585,-15.05412,-91.91899,-36.05464,-110.6632,-50.32285,0.001067912,-0.1257102,0.09433498,0,0.3,0,0,0,0,
6.38224E+17,48.3686,45.23682,8.334974,13.55657,33.44844,88.92585,-16.98673,-0.4441859,-4.27255,-61.44649,-6.98289,34.57793,0,0,0,84.6339,-13.90986,-93.12553,-36.05464,-110.6632,-50.32285,0.001067912,-0.1257102,0.09433498,0,0.3,0,0,0,0,
6.38224E+17,50.93663,46.31222,10.45957,17.29207,31.25109,88.92585,-16.98673,-0.4441859,-4.27255,-61.51973,-6.909645,34.57793,0,0,0,90.31443,-11.35684,-95.04929,-36.05464,-110.6632,-50.32285,0.001067912,-0.1257102,0.09433498,0,0.3,0,0,0,0,
6.38224E+17,53.03347,47.73829,12.60752,20.73459,28.98049,88.8526,-16.98673,-0.4441859,-4.27255,-61.44649,-6.909645,34.57793,0,0,0,94.90908,-8.094917,-96.91777,-36.05464,-110.6632,-50.32285,0.001067912,-0.1257102,0.09433498,0,0.3,0,0,0,0,
6.38224E+17,54.72979,49.84233,14.77882,23.73765,26.41691,88.12015,-16.98673,-0.4441859,-4.27255,-61.44649,-6.98289,34.57793,0,0,0,97.98279,-3.672722,-99.05077,-36.05464,-110.6632,-50.32285,0.001067912,-0.1257102,0.09433498,0,0.3,0,0,0,0,
6.38224E+17,55.27167,52.32042,17.06685,26.37447,23.85333,86.94823,-16.98673,-0.4441859,-4.27255,-61.44649,-6.909645,34.57793,0,0,0,99.15446,1.41105,-99.61963,-36.05464,-110.6632,-50.32285,0.001067912,-0.1257102,0.09433498,0,0.3,0,0,0,0,
6.38224E+17,55.27167,53.48933,18.09413,27.47315,22.60816,86.36227,-16.98673,-0.4441859,-4.27255,-61.51973,-6.98289,34.57793,0,0,0,99.24425,3.774021,-99.5574,-36.05464,-110.6632,-50.32285,0.001067912,-0.1257102,0.09433498,0,0.3,0,0,0,0,
6.38224E+17,55.27167,56.45836,20.75572,28.93805,20.11782,85.62981,-16.98673,-0.4441859,-4.27255,-61.44649,-6.909645,34.57793,0,0,0,99.39501,9.799592,-99.45289,-36.05464,-110.6632,-50.32285,0.001067912,-0.1257102,0.09433498,0,0.3,0,0,0,0,
6.38224E+17,55.24811,60.10536,24.23446,30.32971,17.18801,85.26359,-16.98673,-0.4441859,-4.27255,-61.44649,-6.98289,34.57793,0,0,0,99.58043,17.35858,-99.26373,-36.05464,-110.6632,-50.32285,0.001067912,-0.1257102,0.09433498,0,0.3,0,0,0,0,
6.38224E+17,55.24811,61.90548,26.05555,31.06216,15.57662,85.19034,-16.98673,-0.4441859,-4.27255,-61.51973,-6.98289,34.57793,0,0,0,99.72195,21.19017,-99.16555,-36.05464,-110.6632,-50.32285,0.001067912,-0.1257102,0.09433498,0,0.3,0,0,0,0,
6.38224E+17,55.20099,65.66937,29.95454,32.67356,11.91436,85.1171,-16.98673,-0.4441859,-4.27255,-61.51973,-6.98289,34.57793,0,0,0,99.79033,29.31893,-98.99647,-36.05464,-110.6632,-50.32285,0.001067912,-0.1257102,0.09433498,0,0.3,0,0,0,0,
6.38224E+17,55.08319,68.89557,33.36324,34.2117,7.959125,85.04385,-16.98673,-0.4441859,-4.27255,-61.51973,-6.909645,34.57793,0,0,0,99.50536,36.3816,-98.89069,-36.05464,-110.6632,-50.32285,0.001067912,-0.1257102,0.09433498,0,0.3,0,0,0,0,
6.38224E+17,54.96539,70.18137,34.71738,35.0174,6.05475,85.04385,-16.98673,-0.4441859,-4.27255,-61.51973,-6.98289,34.57793,0,0,0,99.20498,39.19188,-98.79658,-36.05464,-110.6632,-50.32285,0.001067912,-0.1257102,0.09433498,0,0.3,0,0,0,0,
6.38224E+17,54.84759,71.95811,36.65521,36.40906,2.465737,85.04385,-16.98673,-0.4441859,-4.27255,-61.51973,-6.98289,34.57793,0,0,0,98.85871,43.16417,-98.73575,-36.05464,-110.6632,-50.32285,0.001067912,-0.1257102,0.09433498,0,0.3,0,0,0,0,
6.38224E+17,54.84759,72.91661,37.56575,37.36125,-0.4640697,84.75087,-16.98673,-0.4441859,-4.27255,-61.44649,-6.98289,34.50468,0,0,0,98.50154,45.11592,-98.98726,-36.05464,-110.6632,-50.32285,0.001067912,-0.1257102,0.09433498,0,0.3,0,0,0,0,
6.38224E+17,54.84759,73.73485,38.84985,38.16694,-2.954405,84.09167,-16.98673,-0.4441859,-4.27255,-61.44649,-6.909645,34.50468,0,0,0,98.93002,47.5108,-98.68554,-36.05464,-110.6632,-50.32285,0.001067912,-0.1257102,0.09433498,0,0.3,0,0,0,0,
