zeyangz2/DNN_classification_different_people_hand/data_by_names/Frank/frank_right_18.csv
Timestamp,Therapist joint angle 0,Therapist joint angle 1,Therapist joint angle 2,Therapist joint angle 3,Therapist joint angle 4,Therapist joint angle 5,Patient joint angle 0,Patient joint angle 1,Patient joint angle 2,Patient joint angle 3,Patient joint angle 4,Patient joint angle 5,Virtual joint angle 0,Virtual joint angle 1,Virtual joint angle 2,Therapist position x,Therapist position y,Therapist position z,Patient position x,Patient position y,Patient position z,Virtual position x,Virtual position y,Virtual position z,Assistive Force, Obstacle Force Magnitude, Therapist Constant Force, Patient Constant Force, Recovery Factor, Assistance Level,label
6.38224E+17,0,0,0,0,0,0,0,0,0,0,0,0,0,0,0,0,0,0,0,0,0,0,0,0,0,0.3,0,0,0,0,1
6.38224E+17,41.74825,1.636474,-2.848366,-77.41393,-10.35217,50.47213,-17.01029,-0.4441859,-4.27255,-61.51973,-6.98289,34.57793,0,0,0,84.34372,-106.027,-73.84504,-36.10317,-110.6632,-50.33768,0.001067912,-0.1257102,0.09433498,0,0.3,0,0,6.21E-08,0,
6.38224E+17,41.74825,1.636474,-2.848366,-77.41393,-10.35217,50.47213,-17.01029,-0.4441859,-4.27255,-61.44649,-6.98289,34.57793,0,0,0,84.34372,-106.027,-73.84504,-36.10317,-110.6632,-50.33768,0.001067912,-0.1257102,0.09433498,0,0.3,0,0,6.21E-08,0,
6.38224E+17,41.74825,1.636474,-2.848366,-77.41393,-10.35217,50.47213,-17.01029,-0.4441859,-4.27255,-61.51973,-6.98289,34.57793,0,0,0,84.34372,-106.027,-73.84504,-36.10317,-110.6632,-50.33768,0.001067912,-0.1257102,0.09433498,0,0.3,0,0,0,0,
6.38224E+17,41.74825,1.636474,-2.848366,-77.41393,-10.35217,50.47213,-17.01029,-0.4441859,-4.27255,-61.44649,-6.98289,34.57793,0,0,0,84.34372,-106.027,-73.84504,-36.10317,-110.6632,-50.33768,0.001067912,-0.1257102,0.09433498,0,0.3,0,0,0,0,
6.38224E+17,41.74825,1.636474,-2.848366,-77.41393,-10.35217,50.47213,-17.01029,-0.4441859,-4.27255,-61.51973,-6.98289,34.57793,0,0,0,84.34372,-106.027,-73.84504,-36.10317,-110.6632,-50.33768,0.001067912,-0.1257102,0.09433498,0,0.3,0,0,0,0,
6.38224E+17,41.74825,1.636474,-2.848366,-77.41393,-10.35217,50.47213,-17.01029,-0.4441859,-4.27255,-61.44649,-6.98289,34.57793,0,0,0,84.34372,-106.027,-73.84504,-36.10317,-110.6632,-50.33768,0.001067912,-0.1257102,0.09433498,0,0.3,0,0,6.21E-08,0,
6.38224E+17,41.74825,1.636474,-2.848366,-77.41393,-10.35217,50.47213,-17.01029,-0.4441859,-4.27255,-61.44649,-6.98289,34.57793,0,0,0,84.34372,-106.027,-73.84504,-36.10317,-110.6632,-50.33768,0.001067912,-0.1257102,0.09433498,0,0.3,0,0,1.24E-07,0,
6.38224E+17,41.74825,1.636474,-2.848366,-77.41393,-10.35217,50.47213,-17.01029,-0.4441859,-4.27255,-61.44649,-6.98289,34.57793,0,0,0,84.34372,-106.027,-73.84504,-36.10317,-110.6632,-50.33768,0.001067912,-0.1257102,0.09433498,0,0.3,0,0,1.86E-07,0,
6.38224E+17,41.74825,1.636474,-2.848366,-77.41393,-10.35217,50.47213,-17.01029,-0.4441859,-4.27255,-61.44649,-6.98289,34.57793,0,0,0,84.34372,-106.027,-73.84504,-36.10317,-110.6632,-50.33768,0.001067912,-0.1257102,0.09433498,0,0.3,0,0,1.86E-07,0,
6.38224E+17,41.74825,1.636474,-2.848366,-77.41393,-10.35217,50.47213,-17.01029,-0.4441859,-4.27255,-61.51973,-6.98289,34.57793,0,0,0,84.34372,-106.027,-73.84504,-36.10317,-110.6632,-50.33768,0.001067912,-0.1257102,0.09433498,0,0.3,0,0,1.86E-07,0,
6.38224E+17,41.74825,1.636474,-2.848366,-77.41393,-10.35217,50.47213,-17.01029,-0.4441859,-4.27255,-61.44649,-6.98289,34.57793,0,0,0,84.34372,-106.027,-73.84504,-36.10317,-110.6632,-50.33768,0.001067912,-0.1257102,0.09433498,0,0.3,0,0,2.49E-07,0,
6.38224E+17,41.74825,1.636474,-2.848366,-77.41393,-10.35217,50.47213,-17.01029,-0.4441859,-4.27255,-61.44649,-6.98289,34.57793,0,0,0,84.34372,-106.027,-73.84504,-36.10317,-110.6632,-50.33768,0.001067912,-0.1257102,0.09433498,0,0.3,0,0,2.49E-07,0,
6.38224E+17,41.74825,1.636474,-2.848366,-77.41393,-10.35217,50.47213,-17.01029,-0.4441859,-4.27255,-61.44649,-6.98289,34.57793,0,0,0,84.34372,-106.027,-73.84504,-36.10317,-110.6632,-50.33768,0.001067912,-0.1257102,0.09433498,0,0.3,0,0,2.49E-07,0,
6.38224E+17,41.74825,1.636474,-2.848366,-77.41393,-10.35217,50.47213,-17.01029,-0.4441859,-4.27255,-61.44649,-6.98289,34.57793,0,0,0,84.34372,-106.027,-73.84504,-36.10317,-110.6632,-50.33768,0.001067912,-0.1257102,0.09433498,0,0.3,0,0,2.49E-07,0,
6.38224E+17,41.74825,1.636474,-2.848366,-77.41393,-10.35217,50.47213,-17.01029,-0.4441859,-4.27255,-61.44649,-6.98289,34.57793,0,0,0,84.34372,-106.027,-73.84504,-36.10317,-110.6632,-50.33768,0.001067912,-0.1257102,0.09433498,0,0.3,0,0,3.11E-07,0,
6.38224E+17,41.74825,1.636474,-2.848366,-77.41393,-10.35217,50.47213,-17.01029,-0.4441859,-4.27255,-61.44649,-6.98289,34.57793,0,0,0,84.34372,-106.027,-73.84504,-36.10317,-110.6632,-50.33768,0.001067912,-0.1257102,0.09433498,0,0.3,0,0,3.11E-07,0,
6.38224E+17,41.74825,1.636474,-2.848366,-77.41393,-10.35217,50.47213,-17.01029,-0.4441859,-4.27255,-61.51973,-6.98289,34.57793,0,0,0,84.34372,-106.027,-73.84504,-36.10317,-110.6632,-50.33768,0.001067912,-0.1257102,0.09433498,0,0.3,0,0,3.11E-07,0,
6.38224E+17,41.74825,1.636474,-2.848366,-77.41393,-10.35217,50.47213,-17.01029,-0.4441859,-4.27255,-61.44649,-6.98289,34.57793,0,0,0,84.34372,-106.027,-73.84504,-36.10317,-110.6632,-50.33768,0.001067912,-0.1257102,0.09433498,0,0.3,0,0,3.11E-07,0,
6.38224E+17,41.74825,1.636474,-2.848366,-77.41393,-10.27892,50.47213,-17.01029,-0.4441859,-4.27255,-61.44649,-6.98289,34.57793,0,0,0,84.34372,-106.027,-73.84504,-36.10317,-110.6632,-50.33768,0.001067912,-0.1257102,0.09433498,0,0.3,0,0,3.11E-07,0,
6.38224E+17,41.74825,1.636474,-2.848366,-77.41393,-10.35217,50.47213,-17.01029,-0.4441859,-4.27255,-61.44649,-6.98289,34.57793,0,0,0,84.34372,-106.027,-73.84504,-36.10317,-110.6632,-50.33768,0.001067912,-0.1257102,0.09433498,0,0.3,0,0,1.86E-07,0,
6.38224E+17,41.74825,1.636474,-2.848366,-77.48718,-10.35217,50.47213,-17.01029,-0.4441859,-4.27255,-61.51973,-6.98289,34.57793,0,0,0,84.34372,-106.027,-73.84504,-36.10317,-110.6632,-50.33768,0.001067912,-0.1257102,0.09433498,0,0.3,0,0,1.86E-07,0,
6.38224E+17,41.74825,1.636474,-2.848366,-77.41393,-10.35217,50.47213,-17.01029,-0.4441859,-4.27255,-61.44649,-6.98289,34.57793,0,0,0,84.34372,-106.027,-73.84504,-36.10317,-110.6632,-50.33768,0.001067912,-0.1257102,0.09433498,0,0.3,0,0,6.21E-08,0,
6.38224E+17,41.74825,1.636474,-2.848366,-77.41393,-10.35217,50.39889,-17.01029,-0.4441859,-4.27255,-61.44649,-6.98289,34.57793,0,0,0,84.34372,-106.027,-73.84504,-36.10317,-110.6632,-50.33768,0.001067912,-0.1257102,0.09433498,0,0.3,0,0,0,0,
6.38224E+17,41.74825,1.636474,-2.848366,-77.41393,-10.35217,50.47213,-17.01029,-0.4441859,-4.27255,-61.44649,-6.98289,34.57793,0,0,0,84.34372,-106.027,-73.84504,-36.10317,-110.6632,-50.33768,0.001067912,-0.1257102,0.09433498,0,0.3,0,0,0,0,
6.38224E+17,41.74825,1.636474,-2.848366,-77.41393,-10.35217,50.47213,-17.01029,-0.4441859,-4.27255,-61.51973,-6.98289,34.57793,0,0,0,84.34372,-106.027,-73.84504,-36.10317,-110.6632,-50.33768,0.001067912,-0.1257102,0.09433498,0,0.3,0,0,0,0,
6.38224E+17,41.74825,1.613096,-2.871714,-77.41393,-10.35217,50.47213,-17.01029,-0.4441859,-4.27255,-61.51973,-6.98289,34.57793,0,0,0,84.30861,-106.0787,-73.88438,-36.10317,-110.6632,-50.33768,0.001067912,-0.1257102,0.09433498,0,0.3,0,0,1.00E-05,0,
6.38224E+17,41.74825,1.613096,-2.871714,-77.41393,-10.35217,50.47213,-17.01029,-0.4441859,-4.27255,-61.44649,-6.98289,34.57793,0,0,0,84.30861,-106.0787,-73.88438,-36.10317,-110.6632,-50.33768,0.001067912,-0.1257102,0.09433498,0,0.3,0,0,1.93E-05,0,
6.38224E+17,41.74825,1.56634,-2.871714,-77.41393,-10.27892,50.47213,-17.01029,-0.4441859,-4.27255,-61.44649,-6.98289,34.57793,0,0,0,84.31062,-106.1875,-73.88213,-36.10317,-110.6632,-50.33768,0.001067912,-0.1257102,0.09433498,0,0.3,0,0,2.42E-05,0,
6.38224E+17,41.74825,1.496205,-2.871714,-77.41393,-10.27892,50.17915,-17.01029,-0.4441859,-4.27255,-61.51973,-6.98289,34.57793,0,0,0,84.31353,-106.3507,-73.87887,-36.10317,-110.6632,-50.33768,0.001067912,-0.1257102,0.09433498,0,0.3,0,0,3.39E-05,0,
6.38224E+17,41.51265,1.122154,-2.871714,-77.41393,-10.27892,48.42127,-17.01029,-0.4441859,-4.27255,-61.51973,-6.98289,34.57793,0,0,0,83.93753,-107.221,-73.51807,-36.10317,-110.6632,-50.33768,0.001067912,-0.1257102,0.09433498,0,0.3,0,0,0.000136489,0,
6.38224E+17,40.75874,0.4909423,-2.825019,-77.48718,-10.05919,47.10286,-17.01029,-0.4441859,-4.27255,-61.44649,-6.98289,34.57793,0,0,0,82.76684,-108.6953,-72.32396,-36.10317,-110.6632,-50.33768,0.001067912,-0.1257102,0.09433498,0,0.3,0,0,0.000571551,0,
6.38224E+17,39.62786,0.116891,-2.684936,-76.90121,-9.692961,48.86074,-17.01029,-0.4441859,-4.27255,-61.44649,-6.98289,34.57793,0,0,0,81.06617,-109.5816,-70.45478,-36.10317,-110.6632,-50.33768,0.001067912,-0.1257102,0.09433498,0,0.3,0,0,0.001516847,0,
6.38224E+17,39.01529,0.116891,-2.661588,-76.09552,-9.473226,51.93703,-17.01029,-0.4441859,-4.27255,-61.44649,-6.98289,34.57793,0,0,0,80.04911,-109.5841,-69.55152,-36.10317,-110.6632,-50.33768,0.001067912,-0.1257102,0.09433498,0,0.3,0,0,0.002202646,0,
6.38224E+17,37.50746,0.116891,-2.591547,-73.82492,-9.180244,61.23917,-17.01029,-0.4441859,-4.27255,-61.44649,-6.98289,34.57793,0,0,0,77.52079,-109.5916,-67.35017,-36.10317,-110.6632,-50.33768,0.001067912,-0.1257102,0.09433498,0,0.3,0,0,0.004060559,0,
6.38224E+17,35.19858,0.116891,-2.311379,-71.8473,-8.960509,69.22289,-17.01029,-0.4441859,-4.27255,-61.51973,-6.98289,34.57793,0,0,0,73.76443,-109.6195,-63.77676,-36.10317,-110.6632,-50.33768,0.001067912,-0.1257102,0.09433498,0,0.3,0,0,0.006820095,0,
6.38224E+17,33.90279,0.116891,-1.984518,-71.26134,-8.887264,71.4935,-17.01029,-0.4441859,-4.27255,-61.51973,-6.98289,34.57793,0,0,0,71.80477,-109.648,-61.50444,-36.10317,-110.6632,-50.33768,0.001067912,-0.1257102,0.09433498,0,0.3,0,0,0.008562517,0,
6.38224E+17,31.52323,0.07013461,-0.8638488,-70.38239,-8.887264,76.10795,-17.01029,-0.4441859,-4.27255,-61.51973,-6.98289,34.57793,0,0,0,68.67007,-109.8216,-56.39253,-36.10317,-110.6632,-50.33768,0.001067912,-0.1257102,0.09433498,0,0.3,0,0,0.01266849,0,
6.38224E+17,29.47351,0.09351282,0.04669453,-69.28372,-9.033754,79.40398,-17.01029,-0.4441859,-4.27255,-61.51973,-6.98289,34.57793,0,0,0,65.6644,-109.7823,-52.16327,-36.10317,-110.6632,-50.33768,0.001067912,-0.1257102,0.09433498,0,0.3,0,0,0.01720785,0,
6.38224E+17,28.62535,0.1402692,0.4669453,-68.62451,-9.033754,81.30835,-17.01029,-0.4441859,-4.27255,-61.51973,-6.98289,34.57793,0,0,0,64.40581,-109.6691,-50.34566,-36.10317,-110.6632,-50.33768,0.001067912,-0.1257102,0.09433498,0,0.3,0,0,0.01962439,0,
6.38224E+17,26.9526,0.2571602,2.264685,-67.45258,-7.495606,88.26664,-17.01029,-0.4441859,-4.27255,-61.44649,-6.98289,34.57793,0,0,0,62.82909,-109.2973,-44.78834,-36.10317,-110.6632,-50.33768,0.001067912,-0.1257102,0.09433498,0,0.3,0,0,0.02451879,0,
6.38224E+17,25.23272,0.2571602,5.766775,-67.81882,-3.467122,101.6705,-17.01029,-0.4441859,-4.27255,-61.44649,-6.98289,34.57793,0,0,0,62.55789,-108.7266,-35.60452,-36.10317,-110.6632,-50.33768,0.001067912,-0.1257102,0.09433498,0,0.3,0,0,0.02912854,0,
6.38224E+17,24.4788,0.2571602,8.264932,-68.771,0.4881175,110.2402,-17.01029,-0.4441859,-4.27255,-61.44649,-6.98289,34.57793,0,0,0,63.19674,-108.0165,-29.54132,-36.10317,-110.6632,-50.33768,0.001067912,-0.1257102,0.09433498,0,0.3,0,0,0.03313983,0,
6.38224E+17,24.1254,0.2571602,9.268865,-68.99074,3.051698,113.9757,-17.01029,-0.4441859,-4.27255,-61.51973,-6.98289,34.57793,0,0,0,63.28323,-107.6604,-27.04665,-36.10317,-110.6632,-50.33768,0.001067912,-0.1257102,0.09433498,0,0.3,0,0,0.0349437,0,
6.38224E+17,23.81912,0.2571602,10.52962,-67.23285,8.252106,120.5678,-17.01029,-0.4441859,-4.27255,-61.44649,-6.98289,34.57793,0,0,0,63.69432,-107.156,-24.06606,-36.10317,-110.6632,-50.33768,0.001067912,-0.1257102,0.09433498,0,0.3,0,0,0.03823099,0,
6.38224E+17,23.98404,0.2571602,11.30008,-62.03245,13.15953,124.7427,-17.01029,-0.4441859,-4.27255,-61.44649,-7.056135,34.57793,0,0,0,64.82507,-106.8164,-22.64131,-36.10317,-110.6632,-50.33768,0.001067912,-0.1257102,0.09433498,0,0.3,0,0,0.04107178,0,
6.38224E+17,24.19608,0.2571602,11.81372,-57.78423,15.50338,125.109,-17.01029,-0.4441859,-4.27255,-61.44649,-6.98289,34.57793,0,0,0,65.84389,-106.5769,-21.8139,-36.10317,-110.6632,-50.33768,0.001067912,-0.1257102,0.09433498,0,0.3,0,0,0.04227502,0,
6.38224E+17,24.31388,0.6312115,14.21848,-50.09349,18.65292,122.6919,-17.01029,-0.4441859,-4.27255,-61.44649,-6.98289,34.57793,0,0,0,68.38729,-104.4459,-16.98671,-36.10317,-110.6632,-50.33768,0.001067912,-0.1257102,0.09433498,0,0.3,0,0,0.04402247,0,
6.38224E+17,24.10184,0.8883717,16.85673,-45.33255,20.19107,122.0327,-17.01029,-0.4441859,-4.27255,-61.51973,-6.98289,34.57793,0,0,0,70.239,-102.2028,-11.34228,-36.10317,-110.6632,-50.33768,0.001067912,-0.1257102,0.09433498,0,0.3,0,0,0.04493801,0,
6.38224E+17,24.07828,0.8883717,17.97739,-43.94089,20.26431,121.8862,-17.01029,-0.4441859,-4.27255,-61.44649,-6.98289,34.57793,0,0,0,71.18974,-101.4221,-9.041336,-36.10317,-110.6632,-50.33768,0.001067912,-0.1257102,0.09433498,0,0.3,0,0,0.04512495,0,
6.38224E+17,24.21964,0.8883717,19.44827,-41.89003,19.23888,121.7397,-17.01029,-0.4441859,-4.27255,-61.51973,-6.98289,34.57793,0,0,0,72.91267,-100.3239,-6.260581,-36.10317,-110.6632,-50.33768,0.001067912,-0.1257102,0.09433498,0,0.3,0,0,0.04509513,0,
6.38224E+17,24.66728,0.8883717,20.52225,-41.08433,17.481,121.227,-17.01029,-0.4441859,-4.27255,-61.44649,-6.98289,34.57793,0,0,0,75.15715,-99.46958,-4.70052,-36.10317,-110.6632,-50.33768,0.001067912,-0.1257102,0.09433498,0,0.3,0,0,0.04452351,0,
6.38224E+17,25.75104,0.9117499,22.41338,-40.27863,15.57662,120.7875,-17.01029,-0.4441859,-4.27255,-61.44649,-6.98289,34.57793,0,0,0,80.0181,-97.80444,-2.462981,-36.10317,-110.6632,-50.33768,0.001067912,-0.1257102,0.09433498,0,0.3,0,0,0.04320186,0,
6.38224E+17,26.4814,0.9117499,23.44065,-39.91241,14.91741,120.7875,-17.01029,-0.4441859,-4.27255,-61.44649,-6.98289,34.57793,0,0,0,83.10801,-96.87305,-1.525487,-36.10317,-110.6632,-50.33768,0.001067912,-0.1257102,0.09433498,0,0.3,0,0,0.04213511,0,
6.38224E+17,28.29551,0.9351282,24.95823,-38.52075,14.4047,120.641,-17.01029,-0.4441859,-4.27255,-61.44649,-6.98289,34.57793,0,0,0,89.87418,-95.37088,-1.404229,-36.10317,-110.6632,-50.33768,0.001067912,-0.1257102,0.09433498,0,0.3,0,0,0.03924487,0,
6.38224E+17,30.60439,1.075397,26.61588,-35.88392,14.18496,120.641,-17.01029,-0.4441859,-4.27255,-61.51973,-6.98289,34.57793,0,0,0,98.29246,-93.36618,-2.175584,-36.10317,-110.6632,-50.33768,0.001067912,-0.1257102,0.09433498,0,0.3,0,0,0.03519425,0,
6.38224E+17,33.40803,1.42607,28.50701,-32.07517,13.74549,120.055,-17.01029,-0.4441859,-4.27255,-61.44649,-6.98289,34.57793,0,0,0,108.4414,-90.51379,-3.940098,-36.10317,-110.6632,-50.33768,0.001067912,-0.1257102,0.09433498,0,0.3,0,0,0.02984689,0,
6.38224E+17,34.72738,1.683231,29.4876,-30.02431,13.37927,119.9085,-17.01029,-0.4441859,-4.27255,-61.44649,-6.98289,34.57793,0,0,0,113.3261,-88.80917,-4.853371,-36.10317,-110.6632,-50.33768,0.001067912,-0.1257102,0.09433498,0,0.3,0,0,0.02667379,0,
6.38224E+17,37.41322,2.244308,31.82232,-25.70284,12.57357,119.7621,-17.01029,-0.4441859,-4.27255,-61.44649,-6.98289,34.57793,0,0,0,123.6756,-84.73375,-6.666361,-36.10317,-110.6632,-50.33768,0.001067912,-0.1257102,0.09433498,0,0.3,0,0,0.01931383,0,
6.38224E+17,40.16973,3.039166,34.20374,-21.30813,11.40165,119.7621,-17.01029,-0.4441859,-4.27255,-61.44649,-6.98289,34.57793,0,0,0,134.2509,-79.86626,-9.315178,-36.10317,-110.6632,-50.33768,0.001067912,-0.1257102,0.09433498,0,0.3,0,0,0.01049753,0,
6.38224E+17,43.30321,4.348346,36.7019,-16.69369,10.08323,119.7621,-17.01029,-0.4441859,-4.27255,-61.44649,-6.98289,34.57793,0,0,0,145.8569,-73.45352,-13.58782,-36.10317,-110.6632,-50.33768,0.001067912,-0.1257102,0.09433498,0,0.3,0,0,0.000414685,0,
6.38224E+17,44.81104,5.283474,37.75253,-14.13011,9.350782,119.8353,-17.01029,-0.4441859,-4.27255,-61.44649,-6.98289,34.57793,0,0,0,151.1221,-69.80553,-16.22782,-36.10317,-110.6632,-50.33768,0.001067912,-0.1257102,0.09433498,0,0.3,0,0,0,0,
6.38224E+17,47.59112,7.527781,40.01722,-8.929699,7.592898,119.7621,-17.01029,-0.4441859,-4.27255,-61.44649,-6.98289,34.57793,0,0,0,160.9214,-61.3065,-21.36279,-36.10317,-110.6632,-50.33768,0.001067912,-0.1257102,0.09433498,0,0.3,0,0,0,0,
6.38224E+17,49.9,9.982493,42.56207,-3.582802,5.688524,119.6156,-17.01029,-0.4441859,-4.27255,-61.51973,-6.98289,34.57793,0,0,0,169.4512,-51.75243,-25.65884,-36.10317,-110.6632,-50.33768,0.001067912,-0.1257102,0.09433498,0,0.3,0,0,0,0,
6.38224E+17,50.88952,11.22154,43.93955,-1.165711,4.589847,119.5423,-17.01029,-0.4441859,-4.27255,-61.51973,-6.98289,34.57793,0,0,0,173.2903,-46.72131,-27.46815,-36.10317,-110.6632,-50.33768,0.001067912,-0.1257102,0.09433498,0,0.3,0,0,0,0,
6.38224E+17,52.93923,13.93341,47.30156,3.741715,2.172756,119.3958,-17.01029,-0.4441859,-4.27255,-61.51973,-6.98289,34.57793,0,0,0,181.4881,-34.97004,-31.28685,-36.10317,-110.6632,-50.33768,0.001067912,-0.1257102,0.09433498,0,0.3,0,0,0,0,
6.38224E+17,54.44707,17.18298,50.52348,9.015368,-0.6838052,119.3226,-17.01029,-0.4441859,-4.27255,-61.44649,-6.98289,34.57793,0,0,0,187.3907,-22.03403,-34.42411,-36.10317,-110.6632,-50.33768,0.001067912,-0.1257102,0.09433498,0,0.3,0,0,0,0,
6.38224E+17,55.08319,20.85336,53.72206,14.14253,-4.272818,119.3226,-17.01029,-0.4441859,-4.27255,-61.44649,-6.98289,34.57793,0,0,0,190.3312,-8.083994,-35.49007,-36.10317,-110.6632,-50.33768,0.001067912,-0.1257102,0.09433498,0,0.3,0,0,0,0,
6.38224E+17,55.22455,23.63536,55.87001,17.07234,-6.98289,119.3958,-17.01029,-0.4441859,-4.27255,-61.51973,-6.98289,34.57793,0,0,0,191.0124,1.992951,-35.71428,-36.10317,-110.6632,-50.33768,0.001067912,-0.1257102,0.09433498,0,0.3,0,0,0,0,
6.38224E+17,55.22455,25.41211,56.99068,18.61049,-8.594284,119.4691,-17.01029,-0.4441859,-4.27255,-61.44649,-6.98289,34.57793,0,0,0,190.7872,7.928137,-35.87062,-36.10317,-110.6632,-50.33768,0.001067912,-0.1257102,0.09433498,0,0.3,0,0,0,0,
6.38224E+17,55.10675,29.31627,59.16197,21.61354,-11.89032,120.055,-17.01029,-0.4441859,-4.27255,-61.44649,-6.98289,34.57793,0,0,0,189.2811,20.28524,-36.33884,-36.10317,-110.6632,-50.33768,0.001067912,-0.1257102,0.09433498,0,0.3,0,0,0,0,
6.38224E+17,54.68267,33.26719,60.95971,24.76308,-15.47933,120.2748,-17.01029,-0.4441859,-4.27255,-61.44649,-6.98289,34.57793,0,0,0,186.1063,31.76698,-36.49485,-36.10317,-110.6632,-50.33768,0.001067912,-0.1257102,0.09433498,0,0.3,0,0,0,0,
6.38224E+17,54.18791,35.37122,61.59008,26.22798,-17.38371,120.2748,-17.01029,-0.4441859,-4.27255,-61.44649,-6.98289,34.57793,0,0,0,183.2938,37.09776,-36.09554,-36.10317,-110.6632,-50.33768,0.001067912,-0.1257102,0.09433498,0,0.3,0,0,0,0,
6.38224E+17,52.82143,38.87795,62.3372,28.35209,-20.82623,120.2748,-17.01029,-0.4441859,-4.27255,-61.44649,-6.98289,34.57793,0,0,0,176.8148,45.13891,-34.24446,-36.10317,-110.6632,-50.33768,0.001067912,-0.1257102,0.09433498,0,0.3,0,0,0,0,
6.38224E+17,51.10155,41.8236,62.8275,29.08454,-24.56173,120.641,-17.01029,-0.4441859,-4.27255,-61.51973,-6.98289,34.57793,0,0,0,169.665,51.37596,-31.4552,-36.10317,-110.6632,-50.33768,0.001067912,-0.1257102,0.09433498,0,0.3,0,0,0,0,
6.38224E+17,50.1356,42.94576,63.06097,28.93805,-26.17312,121.4467,-17.01029,-0.4441859,-4.27255,-61.44649,-6.98289,34.57793,0,0,0,166.1715,53.78894,-29.58441,-36.10317,-110.6632,-50.33768,0.001067912,-0.1257102,0.09433498,0,0.3,0,0,0,0,
6.38224E+17,47.23772,45.44723,63.20105,27.25341,-29.76214,125.6949,-17.01029,-0.4441859,-4.27255,-61.44649,-6.98289,34.57793,0,0,0,156.0723,58.25348,-24.01625,-36.10317,-110.6632,-50.33768,0.001067912,-0.1257102,0.09433498,0,0.3,0,0,0,0,
6.38224E+17,45.18801,46.8733,62.66406,25.27579,-31.52002,130.3094,-17.01029,-0.4441859,-4.27255,-61.51973,-6.98289,34.57793,0,0,0,148.7083,59.43943,-20.6144,-36.10317,-110.6632,-50.33768,0.001067912,-0.1257102,0.09433498,0,0.3,0,0,0,0,
6.38224E+17,43.86865,47.6214,61.91695,23.73765,-32.32572,133.3857,-17.01029,-0.4441859,-4.27255,-61.44649,-6.98289,34.57793,0,0,0,143.821,59.08196,-18.73413,-36.10317,-110.6632,-50.33768,0.001067912,-0.1257102,0.09433498,0,0.3,0,0,0,0,
6.38224E+17,41.06501,48.55653,59.55888,19.78241,-33.05817,140.3439,-17.01029,-0.4441859,-4.27255,-61.44649,-6.909645,34.57793,0,0,0,133.5045,55.74823,-15.12211,-36.10317,-110.6632,-50.33768,0.001067912,-0.1257102,0.09433498,0,0.3,0,0,0,0,
6.38224E+17,38.47342,48.50977,56.59377,14.94823,-32.32572,144.8119,-17.01029,-0.4441859,-4.27255,-61.44649,-6.98289,34.57793,0,0,0,124.2202,49.81961,-12.03498,-36.10317,-110.6632,-50.33768,0.001067912,-0.1257102,0.09433498,0,0.3,0,0,0,0,
6.38224E+17,36.1881,47.90194,53.72206,10.33378,-30.27485,144.8852,-17.01029,-0.4441859,-4.27255,-61.44649,-6.98289,34.57793,0,0,0,116.2566,43.39193,-9.436201,-36.10317,-110.6632,-50.33768,0.001067912,-0.1257102,0.09433498,0,0.3,0,0,0,0,
6.38224E+17,34.86874,47.34086,51.97101,7.770199,-28.66346,144.8119,-17.01029,-0.4441859,-4.27255,-61.44649,-6.98289,34.57793,0,0,0,111.7112,39.26372,-8.029416,-36.10317,-110.6632,-50.33768,0.001067912,-0.1257102,0.09433498,0,0.3,0,0,0,0,
6.38224E+17,33.14886,46.24208,49.56625,4.840393,-26.24637,144.9584,-17.01029,-0.4441859,-4.27255,-61.44649,-6.98289,34.57793,0,0,0,105.9329,33.17789,-6.151746,-36.10317,-110.6632,-50.33768,0.001067912,-0.1257102,0.09433498,0,0.3,0,0,0,0,
6.38224E+17,31.19339,44.27832,46.83461,1.983831,-23.46305,144.9584,-17.01029,-0.4441859,-4.27255,-61.51973,-6.98289,34.57793,0,0,0,99.82341,25.22194,-3.479026,-36.10317,-110.6632,-50.33768,0.001067912,-0.1257102,0.09433498,0,0.3,0,0,0,0,
6.38224E+17,29.82691,42.29117,44.66332,0.3724372,-20.82623,144.8852,-17.01029,-0.4441859,-4.27255,-61.51973,-6.98289,34.57793,0,0,0,95.68655,18.23588,-1.453668,-36.10317,-110.6632,-50.33768,0.001067912,-0.1257102,0.09433498,0,0.3,0,0,0,0,
6.38224E+17,28.57823,39.53254,42.35194,-0.8727306,-18.1894,144.8119,-17.01029,-0.4441859,-4.27255,-61.44649,-6.98289,34.57793,0,0,0,92.17176,9.681048,0.8578961,-36.10317,-110.6632,-50.33768,0.001067912,-0.1257102,0.09433498,0,0.3,0,0,0,0,
6.38224E+17,27.32955,35.46473,40.08725,-1.971408,-14.23416,145.0316,-17.01029,-0.4441859,-4.27255,-61.51973,-6.98289,34.57793,0,0,0,89.28782,-1.301469,4.423259,-36.10317,-110.6632,-50.33768,0.001067912,-0.1257102,0.09433498,0,0.3,0,0,0,0,
6.38224E+17,26.78768,33.17367,39.24675,-2.337634,-11.89032,144.8852,-17.01029,-0.4441859,-4.27255,-61.51973,-6.98289,34.57793,0,0,0,88.32601,-6.953768,6.599282,-36.10317,-110.6632,-50.33768,0.001067912,-0.1257102,0.09433498,0,0.3,0,0,0,0,
6.38224E+17,25.49188,26.30048,37.91596,-2.337634,-5.664476,144.8852,-17.01029,-0.4441859,-4.27255,-61.44649,-6.98289,34.57793,0,0,0,86.71799,-22.767,13.52439,-36.10317,-110.6632,-50.33768,0.001067912,-0.1257102,0.09433498,0,0.3,0,0,0,0,
6.38224E+17,25.09136,23.68212,37.72918,-2.117898,-3.613612,144.8852,-17.01029,-0.4441859,-4.27255,-61.44649,-6.909645,34.57793,0,0,0,86.39059,-28.55648,16.14658,-36.10317,-110.6632,-50.33768,0.001067912,-0.1257102,0.09433498,0,0.3,0,0,0,0,
6.38224E+17,24.14896,18.46878,37.75253,-1.531937,-0.171089,144.9584,-17.01029,-0.4441859,-4.27255,-61.44649,-6.98289,34.57793,0,0,0,85.14642,-39.84119,21.56168,-36.10317,-110.6632,-50.33768,0.001067912,-0.1257102,0.09433498,0,0.3,0,0,0,0,
6.38224E+17,22.90028,13.55936,37.75253,-1.312202,3.124943,144.8852,-17.01029,-0.4441859,-4.27255,-61.51973,-6.98289,34.57793,0,0,0,82.21391,-50.8206,26.27492,-36.10317,-110.6632,-50.33768,0.001067912,-0.1257102,0.09433498,0,0.3,0,0,0,0,
6.38224E+17,22.1228,11.38519,37.75253,-1.312202,4.589847,144.8852,-17.01029,-0.4441859,-4.27255,-61.44649,-6.98289,34.57793,0,0,0,79.97697,-55.76105,28.38488,-36.10317,-110.6632,-50.33768,0.001067912,-0.1257102,0.09433498,0,0.3,0,0,0,0,
6.38224E+17,19.79037,7.293999,37.82257,-2.264389,7.299919,144.9584,-17.01029,-0.4441859,-4.27255,-61.51973,-6.98289,34.57793,0,0,0,72.47081,-65.05476,33.05165,-36.10317,-110.6632,-50.33768,0.001067912,-0.1257102,0.09433498,0,0.3,0,0,0,0,
6.38224E+17,16.30349,4.792531,37.93931,-4.315253,9.497273,144.8119,-17.01029,-0.4441859,-4.27255,-61.44649,-6.98289,34.57793,0,0,0,60.31968,-70.67702,37.88053,-36.10317,-110.6632,-50.33768,0.001067912,-0.1257102,0.09433498,0,0.3,0,0,0,0,
6.38224E+17,14.11242,4.254833,37.96265,-6.146383,10.44946,144.8852,-17.01029,-0.4441859,-4.27255,-61.44649,-6.98289,34.57793,0,0,0,52.42545,-71.89114,40.17318,-36.10317,-110.6632,-50.33768,0.001067912,-0.1257102,0.09433498,0,0.3,0,0,0,0,
6.38224E+17,9.329745,4.208076,38.28952,-11.12705,11.62138,144.8852,-17.01029,-0.4441859,-4.27255,-61.44649,-6.98289,34.57793,0,0,0,34.9553,-71.52999,44.41662,-36.10317,-110.6632,-50.33768,0.001067912,-0.1257102,0.09433498,0,0.3,0,0,0,0,
6.38224E+17,4.122993,4.301589,40.27403,-18.15859,11.76787,145.0316,-17.01029,-0.4441859,-4.27255,-61.44649,-6.98289,34.57793,0,0,0,15.75838,-68.3888,50.26045,-36.10317,-110.6632,-50.33768,0.001067912,-0.1257102,0.09433498,0,0.3,0,0,0,0,
6.38224E+17,0.2120396,4.675641,43.26248,-25.11688,11.3284,144.8852,-17.01029,-0.4441859,-4.27255,-61.44649,-6.98289,34.57793,0,0,0,0.8300725,-62.88836,55.945,-36.10317,-110.6632,-50.33768,0.001067912,-0.1257102,0.09433498,0,0.3,0,0,0,0,
6.38224E+17,-1.625637,5.166583,45.01353,-28.99888,10.88893,144.9584,-17.01029,-0.4441859,-4.27255,-61.44649,-6.98289,34.57793,0,0,0,-6.443238,-58.91203,58.68175,-36.10317,-110.6632,-50.33768,0.001067912,-0.1257102,0.09433498,0,0.3,0,0,0,0,
6.38224E+17,-4.264353,6.849813,47.79185,-35.81068,10.00999,144.7387,-17.01029,-0.4441859,-4.27255,-61.51973,-6.98289,34.57793,0,0,0,-17.18954,-50.3337,62.18175,-36.10317,-110.6632,-50.33768,0.001067912,-0.1257102,0.09433498,0,0.3,0,0,0,0,
6.38224E+17,-6.05491,9.421416,50.40675,-41.96327,8.764822,144.8852,-17.01029,-0.4441859,-4.27255,-61.51973,-6.98289,34.57793,0,0,0,-24.71529,-39.8097,64.65205,-36.10317,-110.6632,-50.33768,0.001067912,-0.1257102,0.09433498,0,0.3,0,0,0,0,
6.38224E+17,-7.091548,12.0164,52.41461,-46.57772,7.446409,144.8852,-17.01029,-0.4441859,-4.27255,-61.51973,-6.98289,34.57793,0,0,0,-29.14782,-30.22356,65.94448,-36.10317,-110.6632,-50.33768,0.001067912,-0.1257102,0.09433498,0,0.3,0,0,0,0,
6.38224E+17,-7.539187,14.70489,54.00222,-50.09349,6.05475,144.8119,-17.01029,-0.4441859,-4.27255,-61.44649,-6.98289,34.57793,0,0,0,-31.07805,-21.17734,66.47009,-36.10317,-110.6632,-50.33768,0.001067912,-0.1257102,0.09433498,0,0.3,0,0,0,0,
6.38224E+17,-7.562747,16.24785,54.58591,-51.48514,5.395544,144.8119,-17.01029,-0.4441859,-4.27255,-61.51973,-6.98289,34.57793,0,0,0,-31.15284,-16.61348,66.29333,-36.10317,-110.6632,-50.33768,0.001067912,-0.1257102,0.09433498,0,0.3,0,0,0,0,
6.38224E+17,-7.397828,19.98837,55.21629,-53.6825,4.077131,144.8119,-17.01029,-0.4441859,-4.27255,-61.44649,-6.98289,34.57793,0,0,0,-30.23742,-7.140595,64.53436,-36.10317,-110.6632,-50.33768,0.001067912,-0.1257102,0.09433498,0,0.3,0,0,0,0,
6.38224E+17,-6.573229,24.80427,55.4731,-55.58687,2.319247,144.9584,-17.01029,-0.4441859,-4.27255,-61.44649,-6.98289,34.57793,0,0,0,-26.43293,3.711111,61.04179,-36.10317,-110.6632,-50.33768,0.001067912,-0.1257102,0.09433498,0,0.3,0,0,0,0,
6.38224E+17,-5.88999,27.65641,55.54315,-56.24608,1.147324,145.0316,-17.01029,-0.4441859,-4.27255,-61.44649,-6.98289,34.57793,0,0,0,-23.4041,9.799358,58.5144,-36.10317,-110.6632,-50.33768,0.001067912,-0.1257102,0.09433498,0,0.3,0,0,0,0,
6.38224E+17,-4.146553,33.31394,55.72992,-57.34475,-1.782483,144.8119,-17.01029,-0.4441859,-4.27255,-61.51973,-6.98289,34.57793,0,0,0,-16.02606,21.50065,52.70637,-36.10317,-110.6632,-50.33768,0.001067912,-0.1257102,0.09433498,0,0.3,0,0,0,0,
6.38224E+17,-1.814117,38.41039,55.82331,-57.85748,-5.371496,144.8119,-17.01029,-0.4441859,-4.27255,-61.44649,-6.98289,34.57793,0,0,0,-6.800314,31.29006,46.35452,-36.10317,-110.6632,-50.33768,0.001067912,-0.1257102,0.09433498,0,0.3,0,0,0,0,
6.38224E+17,-0.4711992,40.58456,55.79996,-57.63773,-7.202625,144.8119,-17.01029,-0.4441859,-4.27255,-61.44649,-6.98289,34.57793,0,0,0,-1.739873,35.14957,43.2062,-36.10317,-110.6632,-50.33768,0.001067912,-0.1257102,0.09433498,0,0.3,0,0,0,0,
6.38224E+17,2.308876,44.3017,55.72992,-56.39257,-10.71839,145.0316,-17.01029,-0.4441859,-4.27255,-61.51973,-6.98289,34.57793,0,0,0,8.284305,41.39785,37.11737,-36.10317,-110.6632,-50.33768,0.001067912,-0.1257102,0.09433498,0,0.3,0,0,0,0,
6.38224E+17,4.947592,47.13046,55.40306,-54.85442,-13.94118,144.8119,-17.01029,-0.4441859,-4.27255,-61.44649,-6.98289,34.57793,0,0,0,17.29128,45.36674,31.39444,-36.10317,-110.6632,-50.33768,0.001067912,-0.1257102,0.09433498,0,0.3,0,0,0,0,
6.38224E+17,7.562747,49.14098,54.81938,-52.8768,-16.7245,144.6654,-17.01029,-0.4441859,-4.27255,-61.51973,-6.98289,34.57793,0,0,0,25.82618,47.3751,26.17289,-36.10317,-110.6632,-50.33768,0.001067912,-0.1257102,0.09433498,0,0.3,0,0,0,0,
6.38224E+17,10.55486,50.75408,53.60532,-50.16673,-19.06834,140.1975,-17.01029,-0.4441859,-4.27255,-61.44649,-6.98289,34.57793,0,0,0,35.11572,47.49883,20.1102,-36.10317,-110.6632,-50.33768,0.001067912,-0.1257102,0.09433498,0,0.3,0,0,0,0,
6.38224E+17,11.54438,51.08138,52.9516,-48.9948,-19.72755,138.3663,-17.01029,-0.4441859,-4.27255,-61.44649,-6.98289,34.57793,0,0,0,38.0647,46.75953,18.00501,-36.10317,-110.6632,-50.33768,0.001067912,-0.1257102,0.09433498,0,0.3,0,0,0,0,
6.38224E+17,14.04174,51.38529,50.68691,-45.47904,-20.67974,134.1181,-17.01029,-0.4441859,-4.27255,-61.44649,-6.98289,34.57793,0,0,0,45.22438,43.05949,12.47382,-36.10317,-110.6632,-50.33768,0.001067912,-0.1257102,0.09433498,0,0.3,0,0,0,0,
6.38224E+17,16.11501,51.29178,48.04868,-41.45055,-20.67974,128.8445,-17.01029,-0.4441859,-4.27255,-61.44649,-6.98289,34.57793,0,0,0,50.67396,38.26408,7.041536,-36.10317,-110.6632,-50.33768,0.001067912,-0.1257102,0.09433498,0,0.3,0,0,0,0,
6.38224E+17,17.76421,50.68394,45.36374,-38.22777,-20.16702,123.7905,-17.01029,-0.4441859,-4.27255,-61.51973,-6.98289,34.57793,0,0,0,54.72882,32.82574,2.476853,-36.10317,-110.6632,-50.33768,0.001067912,-0.1257102,0.09433498,0,0.3,0,0,0,0,
6.38224E+17,18.54169,50.00598,43.79947,-36.83611,-19.58106,121.3735,-17.01029,-0.4441859,-4.27255,-61.44649,-6.98289,34.57793,0,0,0,56.6035,29.26339,0.4118679,-36.10317,-110.6632,-50.33768,0.001067912,-0.1257102,0.09433498,0,0.3,0,0,0,0,
6.38224E+17,20.07309,47.85518,40.18064,-33.83306,-17.60344,116.2463,-17.01029,-0.4441859,-4.27255,-61.51973,-6.98289,34.57793,0,0,0,60.24039,20.34124,-3.495499,-36.10317,-110.6632,-50.33768,0.001067912,-0.1257102,0.09433498,0,0.3,0,0,0,0,
6.38224E+17,21.43956,44.83939,37.05211,-31.19623,-15.18635,113.2432,-17.01029,-0.4441859,-4.27255,-61.44649,-6.98289,34.57793,0,0,0,63.93139,10.95299,-5.547333,-36.10317,-110.6632,-50.33768,0.001067912,-0.1257102,0.09433498,0,0.3,0,0,0,0,
6.38224E+17,22.09924,43.17954,35.60458,-30.02431,-13.72145,112.584,-17.01029,-0.4441859,-4.27255,-61.44649,-6.98289,34.57793,0,0,0,65.7902,6.178859,-6.32214,-36.10317,-110.6632,-50.33768,0.001067912,-0.1257102,0.09433498,0,0.3,0,0,0,0,
6.38224E+17,23.37148,39.06498,32.33596,-27.24099,-9.326735,111.9981,-17.01029,-0.4441859,-4.27255,-61.44649,-6.98289,34.57793,0,0,0,69.3669,-5.283571,-7.833395,-36.10317,-110.6632,-50.33768,0.001067912,-0.1257102,0.09433498,0,0.3,0,0,0,0,
6.38224E+17,24.03116,35.605,30.14132,-25.55635,-5.884212,111.8516,-17.01029,-0.4441859,-4.27255,-61.44649,-6.98289,34.57793,0,0,0,71.42053,-14.33412,-8.171356,-36.10317,-110.6632,-50.33768,0.001067912,-0.1257102,0.09433498,0,0.3,0,0,0,0,
6.38224E+17,24.57304,31.35017,28.11011,-24.45767,-2.075463,111.1191,-17.01029,-0.4441859,-4.27255,-61.44649,-6.98289,34.57793,0,0,0,73.48602,-24.89292,-7.642868,-36.10317,-110.6632,-50.33768,0.001067912,-0.1257102,0.09433498,0,0.3,0,0,0,0,
6.38224E+17,24.87932,29.15262,27.17622,-24.23794,-0.02459868,110.5332,-17.01029,-0.4441859,-4.27255,-61.51973,-6.98289,34.57793,0,0,0,74.61797,-30.31916,-7.44729,-36.10317,-110.6632,-50.33768,0.001067912,-0.1257102,0.09433498,0,0.3,0,0,0,0,
6.38224E+17,25.60968,24.54711,25.65865,-24.09145,3.857395,109.288,-17.01029,-0.4441859,-4.27255,-61.44649,-6.98289,34.57793,0,0,0,77.3877,-41.45123,-6.899408,-36.10317,-110.6632,-50.33768,0.001067912,-0.1257102,0.09433498,0,0.3,0,0,0,0,
6.38224E+17,26.5992,19.87147,24.7481,-24.23794,7.446409,107.0174,-17.01029,-0.4441859,-4.27255,-61.51973,-6.98289,34.57793,0,0,0,81.14702,-52.42556,-6.297472,-36.10317,-110.6632,-50.33768,0.001067912,-0.1257102,0.09433498,0,0.3,0,0,0,0,
6.38224E+17,27.98923,15.31272,24.58467,-24.23794,10.52271,105.113,-17.01029,-0.4441859,-4.27255,-61.44649,-6.98289,34.57793,0,0,0,86.3966,-62.69545,-5.787951,-36.10317,-110.6632,-50.33768,0.001067912,-0.1257102,0.09433498,0,0.3,0,0,0,0,
6.38224E+17,28.83739,13.18531,24.56132,-23.87171,11.69463,104.5271,-17.01029,-0.4441859,-4.27255,-61.44649,-6.98289,34.57793,0,0,0,89.35741,-67.51678,-6.060431,-36.10317,-110.6632,-50.33768,0.001067912,-0.1257102,0.09433498,0,0.3,0,0,0,0,
6.38224E+17,31.05203,9.608441,24.77145,-22.62654,13.74549,103.7946,-17.01029,-0.4441859,-4.27255,-61.51973,-6.98289,34.57793,0,0,0,96.63966,-75.472,-7.84491,-36.10317,-110.6632,-50.33768,0.001067912,-0.1257102,0.09433498,0,0.3,0,0,0,0,
6.38224E+17,33.87922,7.644672,24.95823,-20.20946,15.06391,102.4762,-17.01029,-0.4441859,-4.27255,-61.44649,-6.909645,34.57793,0,0,0,105.0408,-79.80775,-11.91035,-36.10317,-110.6632,-50.33768,0.001067912,-0.1257102,0.09433498,0,0.3,0,0,0,0,
6.38224E+17,37.03626,7.106974,25.21505,-17.05991,15.35689,100.6451,-17.01029,-0.4441859,-4.27255,-61.44649,-6.98289,34.57793,0,0,0,113.9197,-80.79541,-17.37229,-36.10317,-110.6632,-50.33768,0.001067912,-0.1257102,0.09433498,0,0.3,0,0,0,0,
6.38224E+17,38.99174,7.15373,25.70534,-14.9358,15.13715,99.69289,-17.01029,-0.4441859,-4.27255,-61.44649,-6.98289,34.50468,0,0,0,119.645,-80.19689,-20.5572,-36.10317,-110.6632,-50.33768,0.001067912,-0.1257102,0.09433498,0,0.3,0,0,0,0,
6.38224E+17,42.36081,7.340756,27.47973,-10.90732,14.4047,98.7407,-17.01029,-0.4441859,-4.27255,-61.44649,-6.98289,34.57793,0,0,0,130.5747,-77.91652,-25.15586,-36.10317,-110.6632,-50.33768,0.001067912,-0.1257102,0.09433498,0,0.3,0,0,0,0,
6.38224E+17,45.87124,7.925211,30.07128,-5.853402,13.45251,98.44772,-17.01029,-0.4441859,-4.27255,-61.51973,-6.98289,34.57793,0,0,0,142.7622,-73.66511,-29.86477,-36.10317,-110.6632,-50.33768,0.001067912,-0.1257102,0.09433498,0,0.3,0,0,0,0,
6.38224E+17,47.44976,8.533044,31.35538,-3.289821,12.9398,98.37447,-17.01029,-0.4441859,-4.27255,-61.51973,-6.98289,34.57793,0,0,0,148.2665,-70.73863,-32.24941,-36.10317,-110.6632,-50.33768,0.001067912,-0.1257102,0.09433498,0,0.3,0,0,0,0,
6.38224E+17,50.27696,11.01113,33.83019,2.423302,11.3284,98.52097,-17.01029,-0.4441859,-4.27255,-61.44649,-6.98289,34.57793,0,0,0,157.7784,-61.95286,-37.25262,-36.10317,-110.6632,-50.33768,0.001067912,-0.1257102,0.09433498,0,0.3,0,0,0,0,
6.38224E+17,52.23243,14.63475,35.8614,7.770199,9.350782,99.61964,-17.01029,-0.4441859,-4.27255,-61.51973,-6.98289,34.57793,0,0,0,163.7474,-51.02999,-41.48292,-36.10317,-110.6632,-50.33768,0.001067912,-0.1257102,0.09433498,0,0.3,0,0,0,0,
6.38224E+17,53.62247,19.96499,37.79922,13.41008,6.347731,101.9635,-17.01029,-0.4441859,-4.27255,-61.44649,-6.909645,34.57793,0,0,0,166.714,-36.48648,-45.53875,-36.10317,-110.6632,-50.33768,0.001067912,-0.1257102,0.09433498,0,0.3,0,0,0,0,
6.38224E+17,53.99943,23.30807,38.98993,16.12015,4.077131,103.2819,-17.01029,-0.4441859,-4.27255,-61.44649,-6.98289,34.57793,0,0,0,166.9549,-27.53392,-47.04765,-36.10317,-110.6632,-50.33768,0.001067912,-0.1257102,0.09433498,0,0.3,0,0,0,0,
6.38224E+17,54.09367,25.48224,39.90048,17.58505,2.465737,104.0876,-17.01029,-0.4441859,-4.27255,-61.51973,-6.98289,34.57793,0,0,0,166.7869,-21.57941,-47.5883,-36.10317,-110.6632,-50.33768,0.001067912,-0.1257102,0.09433498,0,0.3,0,0,0,0,
6.38224E+17,54.04655,29.78383,42.18851,20.14863,-0.9035407,106.0652,-17.01029,-0.4441859,-4.27255,-61.44649,-6.98289,34.57793,0,0,0,166.1806,-9.215436,-47.81892,-36.10317,-110.6632,-50.33768,0.001067912,-0.1257102,0.09433498,0,0.3,0,0,0,0,
6.38224E+17,53.62247,34.43609,44.42985,22.71221,-4.712289,108.1893,-17.01029,-0.4441859,-4.27255,-61.44649,-6.98289,34.57793,0,0,0,163.7073,3.53133,-47.75366,-36.10317,-110.6632,-50.33768,0.001067912,-0.1257102,0.09433498,0,0.3,0,0,0,0,
6.38224E+17,52.23243,38.85457,45.64391,24.83632,-8.740773,110.0205,-17.01029,-0.4441859,-4.27255,-61.44649,-6.98289,34.57793,0,0,0,157.4612,13.7795,-46.35325,-36.10317,-110.6632,-50.33768,0.001067912,-0.1257102,0.09433498,0,0.3,0,0,0,0,
6.38224E+17,51.05444,40.91186,45.73729,25.27579,-10.79164,111.0459,-17.01029,-0.4441859,-4.27255,-61.44649,-6.98289,34.57793,0,0,0,152.6502,17.609,-44.97623,-36.10317,-110.6632,-50.33768,0.001067912,-0.1257102,0.09433498,0,0.3,0,0,0,0,
6.38224E+17,48.29792,43.9744,45.27035,24.4701,-14.67363,113.6827,-17.01029,-0.4441859,-4.27255,-61.44649,-6.98289,34.57793,0,0,0,142.3807,22.0931,-41.48414,-36.10317,-110.6632,-50.33768,0.001067912,-0.1257102,0.09433498,0,0.3,0,0,0,0,
6.38224E+17,45.47073,45.70439,44.0096,21.97976,-17.38371,117.5647,-17.01029,-0.4441859,-4.27255,-61.44649,-6.98289,34.57793,0,0,0,132.4376,22.88631,-38.0708,-36.10317,-110.6632,-50.33768,0.001067912,-0.1257102,0.09433498,0,0.3,0,0,0,0,
6.38224E+17,43.65661,45.7979,42.46867,19.70916,-18.40914,121.1537,-17.01029,-0.4441859,-4.27255,-61.44649,-6.98289,34.57793,0,0,0,126.3358,20.58145,-35.94648,-36.10317,-110.6632,-50.33768,0.001067912,-0.1257102,0.09433498,0,0.3,0,0,0,0,
6.38224E+17,42.10165,45.09655,40.36742,17.29207,-18.11616,124.523,-17.01029,-0.4441859,-4.27255,-61.44649,-6.98289,34.57793,0,0,0,121.0177,16.2012,-34.42485,-36.10317,-110.6632,-50.33768,0.001067912,-0.1257102,0.09433498,0,0.3,0,0,0,0,
6.38224E+17,40.19329,43.27305,37.12215,14.06928,-16.50476,127.8923,-17.01029,-0.4441859,-4.27255,-61.51973,-6.98289,34.57793,0,0,0,114.5983,8.431517,-32.70902,-36.10317,-110.6632,-50.33768,0.001067912,-0.1257102,0.09433498,0,0.3,0,0,0,0,
6.38224E+17,39.10954,41.91712,35.20768,12.45789,-15.18635,129.2839,-17.01029,-0.4441859,-4.27255,-61.44649,-6.98289,34.57793,0,0,0,111.0905,3.479149,-31.69959,-36.10317,-110.6632,-50.33768,0.001067912,-0.1257102,0.09433498,0,0.3,0,0,0,0,
6.38224E+17,36.4237,36.54013,29.32417,7.477218,-9.619716,131.2616,-17.01029,-0.4441859,-4.27255,-61.44649,-6.98289,34.57793,0,0,0,102.3907,-13.51822,-29.59088,-36.10317,-110.6632,-50.33768,0.001067912,-0.1257102,0.09433498,0,0.3,0,0,0,0,
6.38224E+17,35.81114,34.48285,27.47973,6.158805,-7.568851,131.3348,-17.01029,-0.4441859,-4.27255,-61.44649,-6.98289,34.57793,0,0,0,100.3193,-19.4573,-29.31086,-36.10317,-110.6632,-50.33768,0.001067912,-0.1257102,0.09433498,0,0.3,0,0,0,0,
6.38224E+17,34.7745,29.76045,23.86091,3.375489,-3.027651,130.6023,-17.01029,-0.4441859,-4.27255,-61.51973,-6.98289,34.57793,0,0,0,96.79073,-32.41101,-28.95406,-36.10317,-110.6632,-50.33768,0.001067912,-0.1257102,0.09433498,0,0.3,0,0,0,0,
6.38224E+17,34.13838,24.57049,21.57287,0.8119082,1.733285,127.3063,-17.01029,-0.4441859,-4.27255,-61.51973,-6.98289,34.57793,0,0,0,95.57458,-45.21033,-27.39042,-36.10317,-110.6632,-50.33768,0.001067912,-0.1257102,0.09433498,0,0.3,0,0,0,0,
6.38224E+17,33.90279,21.53132,20.91915,-0.3600145,4.150376,125.6217,-17.01029,-0.4441859,-4.27255,-61.51973,-6.98289,34.57793,0,0,0,95.74783,-52.2695,-25.87716,-36.10317,-110.6632,-50.33768,0.001067912,-0.1257102,0.09433498,0,0.3,0,0,0,0,
6.38224E+17,33.57294,15.68677,20.59229,-2.044653,8.545086,122.2524,-17.01029,-0.4441859,-4.27255,-61.44649,-6.98289,34.57793,0,0,0,96.93204,-65.42492,-22.30598,-36.10317,-110.6632,-50.33768,0.001067912,-0.1257102,0.09433498,0,0.3,0,0,0,0,
6.38224E+17,33.2431,9.88898,21.08258,-3.070086,12.72006,119.6156,-17.01029,-0.4441859,-4.27255,-61.44649,-6.98289,34.57793,0,0,0,98.31093,-78.17246,-18.36155,-36.10317,-110.6632,-50.33768,0.001067912,-0.1257102,0.09433498,0,0.3,0,0,0,0,
6.38224E+17,32.86615,7.457647,21.57287,-3.363066,14.55119,119.0296,-17.01029,-0.4441859,-4.27255,-61.51973,-6.98289,34.57793,0,0,0,98.3619,-83.35099,-16.10848,-36.10317,-110.6632,-50.33768,0.001067912,-0.1257102,0.09433498,0,0.3,0,0,0,0,
6.38224E+17,31.33475,3.717134,22.78693,-4.022273,17.77398,118.3704,-17.01029,-0.4441859,-4.27255,-61.44649,-6.98289,34.57793,0,0,0,96.05952,-90.94706,-10.57547,-36.10317,-110.6632,-50.33768,0.001067912,-0.1257102,0.09433498,0,0.3,0,0,0,0,
6.38224E+17,28.38975,2.08066,24.04768,-5.999893,20.04458,118.2972,-17.01029,-0.4441859,-4.27255,-61.44649,-6.909645,34.57793,0,0,0,89.19843,-93.58465,-3.310407,-36.10317,-110.6632,-50.33768,0.001067912,-0.1257102,0.09433498,0,0.3,0,0,0,0,
6.38224E+17,24.78508,2.501468,24.58467,-9.149435,21.65597,119.6156,-17.01029,-0.4441859,-4.27255,-61.44649,-6.98289,34.57793,0,0,0,79.10664,-92.09142,2.969609,-36.10317,-110.6632,-50.33768,0.001067912,-0.1257102,0.09433498,0,0.3,0,0,0,0,
6.38224E+17,22.66468,2.969032,24.95823,-11.56653,22.38842,120.7875,-17.01029,-0.4441859,-4.27255,-61.51973,-6.98289,34.57793,0,0,0,72.99792,-90.64017,6.459739,-36.10317,-110.6632,-50.33768,0.001067912,-0.1257102,0.09433498,0,0.3,0,0,0,0,
6.38224E+17,18.04693,4.231455,26.14894,-17.57263,23.4871,124.3765,-17.01029,-0.4441859,-4.27255,-61.44649,-6.98289,34.57793,0,0,0,59.4048,-86.5125,13.97092,-36.10317,-110.6632,-50.33768,0.001067912,-0.1257102,0.09433498,0,0.3,0,0,0,0,
6.38224E+17,13.19358,6.24198,27.66651,-24.38443,24.14631,129.2839,-17.01029,-0.4441859,-4.27255,-61.51973,-6.98289,34.57793,0,0,0,44.38779,-80.25461,20.99379,-36.10317,-110.6632,-50.33768,0.001067912,-0.1257102,0.09433498,0,0.3,0,0,0,0,
6.38224E+17,8.481586,9.327903,29.69772,-32.00193,24.07306,136.6085,-17.01029,-0.4441859,-4.27255,-61.44649,-6.98289,34.57793,0,0,0,29.15193,-70.87068,27.13985,-36.10317,-110.6632,-50.33768,0.001067912,-0.1257102,0.09433498,0,0.3,0,0,0,0,
6.38224E+17,4.924032,12.85801,31.89237,-40.27863,22.97438,142.6878,-17.01029,-0.4441859,-4.27255,-61.44649,-6.909645,34.57793,0,0,0,17.20631,-60.19463,31.36854,-36.10317,-110.6632,-50.33768,0.001067912,-0.1257102,0.09433498,0,0.3,0,0,0,0,
6.38224E+17,4.028753,14.72827,32.61613,-43.94089,22.16869,144.5189,-17.01029,-0.4441859,-4.27255,-61.51973,-6.98289,34.57793,0,0,0,14.11079,-55.06854,31.99885,-36.10317,-110.6632,-50.33768,0.001067912,-0.1257102,0.09433498,0,0.3,0,0,0,0,
6.38224E+17,3.369075,18.46878,33.12977,-49.06805,20.11782,144.9584,-17.01029,-0.4441859,-4.27255,-61.44649,-6.98289,34.57793,0,0,0,11.71606,-46.07827,30.66817,-36.10317,-110.6632,-50.33768,0.001067912,-0.1257102,0.09433498,0,0.3,0,0,0,0,
6.38224E+17,3.510434,22.04565,33.43328,-51.85137,17.92047,144.8119,-17.01029,-0.4441859,-4.27255,-61.44649,-6.98289,34.57793,0,0,0,12.06674,-37.88203,28.35163,-36.10317,-110.6632,-50.33768,0.001067912,-0.1257102,0.09433498,0,0.3,0,0,0,0,
6.38224E+17,3.816714,24.14968,33.6901,-52.73031,16.74854,144.8119,-17.01029,-0.4441859,-4.27255,-61.44649,-6.98289,34.57793,0,0,0,13.02334,-33.04746,26.86459,-36.10317,-110.6632,-50.33768,0.001067912,-0.1257102,0.09433498,0,0.3,0,0,0,0,
6.38224E+17,4.994712,28.35776,33.87688,-53.6825,14.25821,144.9584,-17.01029,-0.4441859,-4.27255,-61.44649,-6.98289,34.57793,0,0,0,16.68826,-24.02414,22.60066,-36.10317,-110.6632,-50.33768,0.001067912,-0.1257102,0.09433498,0,0.3,0,0,0,0,
6.38224E+17,7.020868,32.72948,33.99362,-53.31627,11.18191,144.8119,-17.01029,-0.4441859,-4.27255,-61.44649,-6.98289,34.57793,0,0,0,22.82471,-15.11168,16.98425,-36.10317,-110.6632,-50.33768,0.001067912,-0.1257102,0.09433498,0,0.3,0,0,0,0,
6.38224E+17,8.410906,34.8569,34.06366,-52.51057,9.497273,144.9584,-17.01029,-0.4441859,-4.27255,-61.44649,-6.98289,34.57793,0,0,0,26.93086,-10.90588,13.78552,-36.10317,-110.6632,-50.33768,0.001067912,-0.1257102,0.09433498,0,0.3,0,0,0,0,
6.38224E+17,11.87422,38.52728,34.06366,-49.72726,5.90826,144.8119,-17.01029,-0.4441859,-4.27255,-61.44649,-6.98289,34.57793,0,0,0,36.83429,-4.057236,6.831856,-36.10317,-110.6632,-50.33768,0.001067912,-0.1257102,0.09433498,0,0.3,0,0,0,0,
6.38224E+17,15.90297,40.88848,34.06366,-45.40579,2.538982,144.8852,-17.01029,-0.4441859,-4.27255,-61.44649,-6.98289,34.57793,0,0,0,48.08909,0.1701751,0.4348137,-36.10317,-110.6632,-50.33768,0.001067912,-0.1257102,0.09433498,0,0.3,0,0,0,0,
6.38224E+17,19.64901,41.73009,34.01696,-40.20539,-0.2443342,144.8852,-17.01029,-0.4441859,-4.27255,-61.44649,-6.98289,34.57793,0,0,0,58.54867,1.580673,-4.370197,-36.10317,-110.6632,-50.33768,0.001067912,-0.1257102,0.09433498,0,0.3,0,0,0,0,
6.38224E+17,21.25109,41.65996,33.90023,-37.42207,-1.196521,144.8852,-17.01029,-0.4441859,-4.27255,-61.44649,-6.98289,34.50468,0,0,0,63.06799,1.307024,-6.180029,-36.10317,-110.6632,-50.33768,0.001067912,-0.1257102,0.09433498,0,0.3,0,0,0,0,
6.38224E+17,23.96048,41.00537,33.24651,-32.4414,-2.221954,144.8852,-17.01029,-0.4441859,-4.27255,-61.44649,-6.98289,34.57793,0,0,0,70.55711,-0.6783165,-9.581517,-36.10317,-110.6632,-50.33768,0.001067912,-0.1257102,0.09433498,0,0.3,0,0,0,0,
6.38224E+17,25.86884,40.02348,32.38266,-28.41291,-2.075463,144.8119,-17.01029,-0.4441859,-4.27255,-61.44649,-6.98289,34.57793,0,0,0,75.71561,-3.505162,-12.20376,-36.10317,-110.6632,-50.33768,0.001067912,-0.1257102,0.09433498,0,0.3,0,0,0,0,
6.38224E+17,26.4814,39.48579,31.91571,-26.87477,-1.855728,144.8119,-17.01029,-0.4441859,-4.27255,-61.44649,-6.98289,34.57793,0,0,0,77.32721,-5.045547,-13.12942,-36.10317,-110.6632,-50.33768,0.001067912,-0.1257102,0.09433498,0,0.3,0,0,0,0,
6.38224E+17,27.37668,38.08309,30.49153,-24.45767,-1.050031,144.9584,-17.01029,-0.4441859,-4.27255,-61.44649,-6.98289,34.57793,0,0,0,79.37973,-9.307488,-15.05826,-36.10317,-110.6632,-50.33768,0.001067912,-0.1257102,0.09433498,0,0.3,0,0,0,0,
6.38224E+17,27.75363,35.9323,28.69379,-22.91953,0.4881175,144.7387,-17.01029,-0.4441859,-4.27255,-61.51973,-6.98289,34.57793,0,0,0,80.09539,-15.37075,-16.13713,-36.10317,-110.6632,-50.33768,0.001067912,-0.1257102,0.09433498,0,0.3,0,0,0,0,
6.38224E+17,27.82431,34.69325,27.7599,-22.33356,1.440305,144.8852,-17.01029,-0.4441859,-4.27255,-61.44649,-6.98289,34.57793,0,0,0,80.16727,-18.75186,-16.45552,-36.10317,-110.6632,-50.33768,0.001067912,-0.1257102,0.09433498,0,0.3,0,0,0,0,
6.38224E+17,27.84787,32.00476,25.61195,-21.67436,3.857395,144.8119,-17.01029,-0.4441859,-4.27255,-61.51973,-6.98289,34.57793,0,0,0,79.75005,-26.22322,-17.39644,-36.10317,-110.6632,-50.33768,0.001067912,-0.1257102,0.09433498,0,0.3,0,0,0,0,
6.38224E+17,27.87143,28.68506,23.60409,-21.23489,6.640712,144.9584,-17.01029,-0.4441859,-4.27255,-61.44649,-6.98289,34.57793,0,0,0,79.65052,-34.83587,-17.73481,-36.10317,-110.6632,-50.33768,0.001067912,-0.1257102,0.09433498,0,0.3,0,0,0,0,
6.38224E+17,28.20127,24.26657,22.34333,-21.16164,10.22972,144.8852,-17.01029,-0.4441859,-4.27255,-61.44649,-6.98289,34.57793,0,0,0,81.40562,-45.18388,-16.53725,-36.10317,-110.6632,-50.33768,0.001067912,-0.1257102,0.09433498,0,0.3,0,0,0,0,
6.38224E+17,28.97875,21.29754,22.06317,-21.38138,12.35384,144.8852,-17.01029,-0.4441859,-4.27255,-61.44649,-6.98289,34.57793,0,0,0,84.46185,-51.80059,-15.84344,-36.10317,-110.6632,-50.33768,0.001067912,-0.1257102,0.09433498,0,0.3,0,0,0,0,
6.38224E+17,29.70911,19.38053,21.94643,-21.38138,13.74549,144.8119,-17.01029,-0.4441859,-4.27255,-61.44649,-6.98289,34.57793,0,0,0,87.04263,-56.08567,-15.80439,-36.10317,-110.6632,-50.33768,0.001067912,-0.1257102,0.09433498,0,0.3,0,0,0,0,
6.38224E+17,31.38187,15.85042,21.82969,-20.72217,16.38232,144.8852,-17.01029,-0.4441859,-4.27255,-61.44649,-6.98289,34.57793,0,0,0,92.62176,-64.01643,-16.50316,-36.10317,-110.6632,-50.33768,0.001067912,-0.1257102,0.09433498,0,0.3,0,0,0,0,
6.38224E+17,33.26667,12.81126,21.96978,-18.96429,18.72616,144.8852,-17.01029,-0.4441859,-4.27255,-61.44649,-6.98289,34.57793,0,0,0,98.69209,-70.74726,-17.91499,-36.10317,-110.6632,-50.33768,0.001067912,-0.1257102,0.09433498,0,0.3,0,0,0,0,
6.38224E+17,34.20906,11.54883,22.03982,-17.86561,19.67835,144.8119,-17.01029,-0.4441859,-4.27255,-61.51973,-6.98289,34.57793,0,0,0,101.5865,-73.55814,-18.92092,-36.10317,-110.6632,-50.33768,0.001067912,-0.1257102,0.09433498,0,0.3,0,0,0,0,
6.38224E+17,35.9525,9.281147,22.31999,-15.52176,21.2165,144.9584,-17.01029,-0.4441859,-4.27255,-61.44649,-6.98289,34.57793,0,0,0,107.0003,-78.50249,-20.81967,-36.10317,-110.6632,-50.33768,0.001067912,-0.1257102,0.09433498,0,0.3,0,0,0,0,
6.38224E+17,37.81374,7.340756,23.04375,-12.95818,22.82789,144.8119,-17.01029,-0.4441859,-4.27255,-61.51973,-6.98289,34.57793,0,0,0,113.0886,-82.32135,-22.62926,-36.10317,-110.6632,-50.33768,0.001067912,-0.1257102,0.09433498,0,0.3,0,0,0,0,
6.38224E+17,40.35821,6.195224,23.9076,-9.588906,24.2928,144.8119,-17.01029,-0.4441859,-4.27255,-61.44649,-6.98289,34.57793,0,0,0,120.8439,-84.16794,-26.14886,-36.10317,-110.6632,-50.33768,0.001067912,-0.1257102,0.09433498,0,0.3,0,0,0,0,
6.38224E+17,42.54929,6.125089,24.39789,-7.09857,24.95201,144.8852,-17.01029,-0.4441859,-4.27255,-61.51973,-6.98289,34.57793,0,0,0,126.9082,-83.86332,-30.09299,-36.10317,-110.6632,-50.33768,0.001067912,-0.1257102,0.09433498,0,0.3,0,0,0,0,
6.38224E+17,45.6592,6.38225,25.44852,-2.923595,25.31823,144.8852,-17.01029,-0.4441859,-4.27255,-61.44649,-6.98289,34.57793,0,0,0,135.7613,-82.23795,-35.67729,-36.10317,-110.6632,-50.33768,0.001067912,-0.1257102,0.09433498,0,0.3,0,0,0,0,
6.38224E+17,49.33456,7.083596,27.33965,3.009263,24.95201,144.9584,-17.01029,-0.4441859,-4.27255,-61.44649,-6.98289,34.57793,0,0,0,146.832,-78.66039,-42.20854,-36.10317,-110.6632,-50.33768,0.001067912,-0.1257102,0.09433498,0,0.3,0,0,0,0,
6.38224E+17,51.10155,7.714807,28.50701,6.598277,24.36604,144.9584,-17.01029,-0.4441859,-4.27255,-61.44649,-6.98289,34.57793,0,0,0,152.3728,-75.93127,-45.40748,-36.10317,-110.6632,-50.33768,0.001067912,-0.1257102,0.09433498,0,0.3,0,0,0,0,
6.38224E+17,53.76383,9.585063,30.81839,13.26359,22.97438,144.7387,-17.01029,-0.4441859,-4.27255,-61.51973,-6.98289,34.57793,0,0,0,161.161,-68.96604,-50.24166,-36.10317,-110.6632,-50.33768,0.001067912,-0.1257102,0.09433498,0,0.3,0,0,0,0,
6.38224E+17,55.22455,12.32031,32.63948,19.48943,21.2165,144.8119,-17.01029,-0.4441859,-4.27255,-61.51973,-6.98289,34.57793,0,0,0,166.087,-60.48771,-53.02206,-36.10317,-110.6632,-50.33768,0.001067912,-0.1257102,0.09433498,0,0.3,0,0,0,0,
6.38224E+17,55.13031,15.35948,33.05973,24.4701,19.23888,144.8119,-17.01029,-0.4441859,-4.27255,-61.44649,-6.98289,34.57793,0,0,0,165.1832,-53.08997,-53.24649,-36.10317,-110.6632,-50.33768,0.001067912,-0.1257102,0.09433498,0,0.3,0,0,0,0,
6.38224E+17,54.94183,17.1596,33.12977,26.37447,18.1402,144.8119,-17.01029,-0.4441859,-4.27255,-61.51973,-6.98289,34.57793,0,0,0,163.9552,-48.9791,-53.29906,-36.10317,-110.6632,-50.33768,0.001067912,-0.1257102,0.09433498,0,0.3,0,0,0,0,
6.38224E+17,54.42351,20.87674,33.50333,29.45077,16.01609,144.7387,-17.01029,-0.4441859,-4.27255,-61.51973,-6.98289,34.57793,0,0,0,161.2061,-40.32398,-53.03778,-36.10317,-110.6632,-50.33768,0.001067912,-0.1257102,0.09433498,0,0.3,0,0,0,0,
6.38224E+17,53.69315,24.50036,33.97027,31.72137,13.45251,144.8852,-17.01029,-0.4441859,-4.27255,-61.51973,-6.98289,34.57793,0,0,0,157.8304,-31.94074,-52.38299,-36.10317,-110.6632,-50.33768,0.001067912,-0.1257102,0.09433498,0,0.3,0,0,0,0,
6.38224E+17,52.75076,27.32912,34.29713,33.11303,10.59595,144.8119,-17.01029,-0.4441859,-4.27255,-61.44649,-6.98289,34.57793,0,0,0,154.1129,-25.59283,-51.16306,-36.10317,-110.6632,-50.33768,0.001067912,-0.1257102,0.09433498,0,0.3,0,0,0,0,
6.38224E+17,52.11464,28.35776,34.29713,33.47925,9.057802,144.9584,-17.01029,-0.4441859,-4.27255,-61.44649,-6.98289,34.57793,0,0,0,151.9198,-23.47597,-50.14593,-36.10317,-110.6632,-50.33768,0.001067912,-0.1257102,0.09433498,0,0.3,0,0,0,0,
6.38224E+17,50.70104,29.64356,34.29713,33.40601,6.640712,144.8852,-17.01029,-0.4441859,-4.27255,-61.44649,-6.98289,34.57793,0,0,0,147.8349,-20.85868,-47.35303,-36.10317,-110.6632,-50.33768,0.001067912,-0.1257102,0.09433498,0,0.3,0,0,0,0,
6.38224E+17,49.33456,30.36828,34.29713,32.30733,4.809582,144.9584,-17.01029,-0.4441859,-4.27255,-61.44649,-6.98289,34.57793,0,0,0,144.2675,-19.39804,-44.41165,-36.10317,-110.6632,-50.33768,0.001067912,-0.1257102,0.09433498,0,0.3,0,0,0,0,
6.38224E+17,48.67488,30.60207,34.29713,31.64813,4.003886,144.8119,-17.01029,-0.4441859,-4.27255,-61.44649,-6.98289,34.57793,0,0,0,142.6237,-18.92915,-42.94114,-36.10317,-110.6632,-50.33768,0.001067912,-0.1257102,0.09433498,0,0.3,0,0,0,0,
6.38224E+17,47.47332,30.92937,34.29713,30.10997,2.612227,144.8119,-17.01029,-0.4441859,-4.27255,-61.51973,-6.98289,34.57793,0,0,0,139.6755,-18.27461,-40.24133,-36.10317,-110.6632,-50.33768,0.001067912,-0.1257102,0.09433498,0,0.3,0,0,0,0,
6.38224E+17,46.4838,30.95274,33.99362,28.57183,1.733285,144.9584,-17.01029,-0.4441859,-4.27255,-61.51973,-6.98289,34.57793,0,0,0,136.998,-18.62444,-38.27012,-36.10317,-110.6632,-50.33768,0.001067912,-0.1257102,0.09433498,0,0.3,0,0,0,0,
6.38224E+17,45.23512,30.71896,32.38266,26.30123,1.147324,144.9584,-17.01029,-0.4441859,-4.27255,-61.44649,-6.98289,34.57793,0,0,0,132.1011,-21.14392,-37.3287,-36.10317,-110.6632,-50.33768,0.001067912,-0.1257102,0.09433498,0,0.3,0,0,0,0,
6.38224E+17,44.74036,30.32153,31.58885,25.05606,1.000834,144.8119,-17.01029,-0.4441859,-4.27255,-61.44649,-6.98289,34.57793,0,0,0,130.1924,-22.91936,-36.97227,-36.10317,-110.6632,-50.33768,0.001067912,-0.1257102,0.09433498,0,0.3,0,0,0,0,
6.38224E+17,44.05713,29.43316,30.84174,23.37142,1.586795,144.9584,-17.01029,-0.4441859,-4.27255,-61.44649,-6.98289,34.57793,0,0,0,128.2987,-25.61329,-35.75765,-36.10317,-110.6632,-50.33768,0.001067912,-0.1257102,0.09433498,0,0.3,0,0,0,0,
6.38224E+17,43.77441,29.05911,30.56157,22.71221,1.953021,144.8852,-17.01029,-0.4441859,-4.27255,-61.44649,-6.98289,34.57793,0,0,0,127.5492,-26.70581,-35.22392,-36.10317,-110.6632,-50.33768,0.001067912,-0.1257102,0.09433498,0,0.3,0,0,0,0,
6.38224E+17,42.83201,27.72655,28.90392,20.36837,2.905208,144.9584,-17.01029,-0.4441859,-4.27255,-61.44649,-6.98289,34.57793,0,0,0,124.0675,-31.3474,-34.51932,-36.10317,-110.6632,-50.33768,0.001067912,-0.1257102,0.09433498,0,0.3,0,0,0,0,
6.38224E+17,42.57285,27.00183,28.22684,19.56267,3.417924,144.8852,-17.01029,-0.4441859,-4.27255,-61.44649,-6.98289,34.57793,0,0,0,123.0491,-33.59886,-34.40777,-36.10317,-110.6632,-50.33768,0.001067912,-0.1257102,0.09433498,0,0.3,0,0,0,0,
6.38224E+17,41.98385,25.06143,26.63923,17.80479,5.102563,144.8852,-17.01029,-0.4441859,-4.27255,-61.44649,-6.98289,34.57793,0,0,0,120.7978,-39.35886,-34.11443,-36.10317,-110.6632,-50.33768,0.001067912,-0.1257102,0.09433498,0,0.3,0,0,0,0,
6.38224E+17,41.37129,23.00415,24.81814,16.12015,7.226673,144.8119,-17.01029,-0.4441859,-4.27255,-61.44649,-6.98289,34.57793,0,0,0,118.121,-45.57152,-34.23259,-36.10317,-110.6632,-50.33768,0.001067912,-0.1257102,0.09433498,0,0.3,0,0,0,0,
6.38224E+17,40.99433,21.95213,24.00099,15.24121,8.471841,144.9584,-17.01029,-0.4441859,-4.27255,-61.51973,-6.98289,34.57793,0,0,0,116.7141,-48.61987,-34.05894,-36.10317,-110.6632,-50.33768,0.001067912,-0.1257102,0.09433498,0,0.3,0,0,0,0,
6.38224E+17,39.88701,19.49742,22.31999,13.04385,11.03542,144.8119,-17.01029,-0.4441859,-4.27255,-61.44649,-6.98289,34.57793,0,0,0,113.0869,-55.50157,-33.03728,-36.10317,-110.6632,-50.33768,0.001067912,-0.1257102,0.09433498,0,0.3,0,0,0,0,
6.38224E+17,38.40274,16.90244,21.03589,10.55352,13.30602,144.9584,-17.01029,-0.4441859,-4.27255,-61.51973,-6.98289,34.57793,0,0,0,108.9905,-62.34242,-30.85167,-36.10317,-110.6632,-50.33768,0.001067912,-0.1257102,0.09433498,0,0.3,0,0,0,0,
6.38224E+17,37.50746,15.45299,20.52225,9.015368,14.62444,144.8852,-17.01029,-0.4441859,-4.27255,-61.51973,-6.98289,34.57793,0,0,0,106.7206,-66.00629,-29.30653,-36.10317,-110.6632,-50.33768,0.001067912,-0.1257102,0.09433498,0,0.3,0,0,0,0,
6.38224E+17,35.52842,12.92815,19.44827,5.572844,17.11477,144.9584,-17.01029,-0.4441859,-4.27255,-61.44649,-6.98289,34.57793,0,0,0,101.3272,-72.55713,-26.44341,-36.10317,-110.6632,-50.33768,0.001067912,-0.1257102,0.09433498,0,0.3,0,0,0,0,
6.38224E+17,33.03107,10.80073,18.58442,1.617605,19.45862,144.8852,-17.01029,-0.4441859,-4.27255,-61.44649,-6.98289,34.57793,0,0,0,94.56642,-78.05751,-22.90319,-36.10317,-110.6632,-50.33768,0.001067912,-0.1257102,0.09433498,0,0.3,0,0,0,0,
6.38224E+17,30.20387,9.164255,17.76727,-2.044653,21.58273,144.8852,-17.01029,-0.4441859,-4.27255,-61.44649,-6.98289,34.57793,0,0,0,86.70043,-82.40169,-19.40689,-36.10317,-110.6632,-50.33768,0.001067912,-0.1257102,0.09433498,0,0.3,0,0,0,0,
6.38224E+17,28.55467,8.46291,17.5338,-3.949028,22.60816,144.8119,-17.01029,-0.4441859,-4.27255,-61.44649,-6.98289,34.57793,0,0,0,82.24998,-84.17947,-17.20849,-36.10317,-110.6632,-50.33768,0.001067912,-0.1257102,0.09433498,0,0.3,0,0,0,0,
6.38224E+17,24.85576,7.481025,17.51045,-7.757777,24.58578,144.8852,-17.01029,-0.4441859,-4.27255,-61.51973,-6.98289,34.57793,0,0,0,72.43943,-86.45896,-11.97656,-36.10317,-110.6632,-50.33768,0.001067912,-0.1257102,0.09433498,0,0.3,0,0,0,0,
6.38224E+17,20.12021,7.481025,17.81396,-12.22573,26.27042,144.8119,-17.01029,-0.4441859,-4.27255,-61.44649,-6.98289,34.57793,0,0,0,59.51398,-86.24464,-5.897963,-36.10317,-110.6632,-50.33768,0.001067912,-0.1257102,0.09433498,0,0.3,0,0,0,0,
6.38224E+17,14.84277,8.135615,19.26149,-17.71912,27.2226,144.8852,-17.01029,-0.4441859,-4.27255,-61.44649,-6.98289,34.57793,0,0,0,45.08483,-83.66421,1.774842,-36.10317,-110.6632,-50.33768,0.001067912,-0.1257102,0.09433498,0,0.3,0,0,0,0,
6.38224E+17,9.541784,9.818846,21.96978,-24.45767,26.85638,144.8119,-17.01029,-0.4441859,-4.27255,-61.44649,-6.98289,34.57793,0,0,0,30.05108,-77.57565,10.42715,-36.10317,-110.6632,-50.33768,0.001067912,-0.1257102,0.09433498,0,0.3,0,0,0,0,
6.38224E+17,7.138669,11.12803,23.5107,-28.04669,26.27042,144.8852,-17.01029,-0.4441859,-4.27255,-61.44649,-6.98289,34.57793,0,0,0,22.87072,-73.19323,14.26221,-36.10317,-110.6632,-50.33768,0.001067912,-0.1257102,0.09433498,0,0.3,0,0,0,0,
6.38224E+17,3.298395,14.89192,26.82601,-35.29796,24.21955,144.8119,-17.01029,-0.4441859,-4.27255,-61.44649,-6.98289,34.57793,0,0,0,10.87717,-61.37854,20.38646,-36.10317,-110.6632,-50.33768,0.001067912,-0.1257102,0.09433498,0,0.3,0,0,0,0,
6.38224E+17,1.060198,19.33377,29.97789,-41.45055,21.36299,144.8852,-17.01029,-0.4441859,-4.27255,-61.44649,-6.98289,34.57793,0,0,0,3.561072,-48.01194,24.07734,-36.10317,-110.6632,-50.33768,0.001067912,-0.1257102,0.09433498,0,0.3,0,0,0,0,
6.38224E+17,0.3769594,22.02227,31.75228,-44.45361,19.31213,145.0316,-17.01029,-0.4441859,-4.27255,-61.44649,-6.98289,34.57793,0,0,0,1.275008,-40.03984,25.44149,-36.10317,-110.6632,-50.33768,0.001067912,-0.1257102,0.09433498,0,0.3,0,0,0,0,
6.38224E+17,0.3769594,26.60439,34.20374,-48.26236,15.94285,144.8852,-17.01029,-0.4441859,-4.27255,-61.51973,-6.98289,34.57793,0,0,0,1.277615,-27.21848,25.83771,-36.10317,-110.6632,-50.33768,0.001067912,-0.1257102,0.09433498,0,0.3,0,0,0,0,
6.38224E+17,1.390038,31.7476,36.21161,-50.6062,11.76787,144.9584,-17.01029,-0.4441859,-4.27255,-61.44649,-6.98289,34.57793,0,0,0,4.661885,-14.07632,23.76992,-36.10317,-110.6632,-50.33768,0.001067912,-0.1257102,0.09433498,0,0.3,0,0,0,0,
6.38224E+17,3.345515,36.86742,37.82257,-51.26541,7.080183,144.7387,-17.01029,-0.4441859,-4.27255,-61.44649,-6.98289,34.57793,0,0,0,10.99775,-1.979568,19.78493,-36.10317,-110.6632,-50.33768,0.001067912,-0.1257102,0.09433498,0,0.3,0,0,0,0,
6.38224E+17,4.617752,39.0416,38.49964,-50.89918,4.882828,144.9584,-17.01029,-0.4441859,-4.27255,-61.44649,-6.98289,34.57793,0,0,0,15.02139,2.983776,17.62748,-36.10317,-110.6632,-50.33768,0.001067912,-0.1257102,0.09433498,0,0.3,0,0,0,0,
6.38224E+17,7.986827,42.80549,39.57362,-48.9948,-0.02459868,144.8852,-17.01029,-0.4441859,-4.27255,-61.44649,-6.98289,34.57793,0,0,0,25.39747,11.1758,12.66433,-36.10317,-110.6632,-50.33768,0.001067912,-0.1257102,0.09433498,0,0.3,0,0,0,0,
6.38224E+17,12.1805,45.23682,40.08725,-45.40579,-4.712289,144.9584,-17.01029,-0.4441859,-4.27255,-61.44649,-6.98289,34.57793,0,0,0,37.93076,16.01025,7.376235,-36.10317,-110.6632,-50.33768,0.001067912,-0.1257102,0.09433498,0,0.3,0,0,0,0,
6.38224E+17,17.38725,46.10182,39.90048,-39.69267,-8.740773,144.8119,-17.01029,-0.4441859,-4.27255,-61.44649,-6.98289,34.57793,0,0,0,53.19154,17.13766,1.516854,-36.10317,-110.6632,-50.33768,0.001067912,-0.1257102,0.09433498,0,0.3,0,0,0,0,
6.38224E+17,19.34273,46.07844,39.667,-37.20233,-9.692961,144.7387,-17.01029,-0.4441859,-4.27255,-61.44649,-6.98289,34.57793,0,0,0,58.83158,16.75222,-0.7541317,-36.10317,-110.6632,-50.33768,0.001067912,-0.1257102,0.09433498,0,0.3,0,0,0,0,
6.38224E+17,24.1254,45.86803,39.2701,-30.31729,-11.30435,144.5189,-17.01029,-0.4441859,-4.27255,-61.44649,-6.98289,34.57793,0,0,0,72.45274,15.8247,-6.572331,-36.10317,-110.6632,-50.33768,0.001067912,-0.1257102,0.09433498,0,0.3,0,0,0,0,
6.38224E+17,28.60179,45.56412,39.10667,-22.40681,-12.03681,139.9777,-17.01029,-0.4441859,-4.27255,-61.44649,-6.98289,34.57793,0,0,0,84.95948,15.09049,-12.53489,-36.10317,-110.6632,-50.33768,0.001067912,-0.1257102,0.09433498,0,0.3,0,0,0,0,
6.38224E+17,32.3007,45.0498,38.77981,-15.15554,-12.62277,135.29,-17.01029,-0.4441859,-4.27255,-61.44649,-6.98289,34.57793,0,0,0,94.9732,13.77045,-18.12136,-36.10317,-110.6632,-50.33768,0.001067912,-0.1257102,0.09433498,0,0.3,0,0,0,0,
6.38224E+17,33.90279,44.7225,38.56968,-11.93275,-12.76926,132.5067,-17.01029,-0.4441859,-4.27255,-61.51973,-6.98289,34.57793,0,0,0,99.22303,12.92514,-20.70605,-36.10317,-110.6632,-50.33768,0.001067912,-0.1257102,0.09433498,0,0.3,0,0,0,0,
6.38224E+17,36.1881,43.78737,37.5424,-6.878834,-12.91575,127.8923,-17.01029,-0.4441859,-4.27255,-61.44649,-6.98289,34.57793,0,0,0,104.8167,9.89252,-25.07367,-36.10317,-110.6632,-50.33768,0.001067912,-0.1257102,0.09433498,0,0.3,0,0,0,0,
6.38224E+17,37.4839,41.84698,35.67462,-3.875783,-12.47628,123.8638,-17.01029,-0.4441859,-4.27255,-61.44649,-6.98289,34.57793,0,0,0,107.7743,3.987798,-27.81401,-36.10317,-110.6632,-50.33768,0.001067912,-0.1257102,0.09433498,0,0.3,0,0,0,0,
6.38224E+17,37.86086,40.44429,34.50726,-2.85035,-11.96356,122.2524,-17.01029,-0.4441859,-4.27255,-61.44649,-6.98289,34.57793,0,0,0,108.6505,-0.03239258,-28.58538,-36.10317,-110.6632,-50.33768,0.001067912,-0.1257102,0.09433498,0,0.3,0,0,0,0,
6.38224E+17,38.21426,36.25959,31.47211,-2.264389,-9.326735,119.9085,-17.01029,-0.4441859,-4.27255,-61.44649,-6.98289,34.57793,0,0,0,109.5832,-11.51432,-29.16584,-36.10317,-110.6632,-50.33768,0.001067912,-0.1257102,0.09433498,0,0.3,0,0,0,0,
6.38224E+17,38.21426,32.7061,29.37086,-2.777105,-6.470173,118.8831,-17.01029,-0.4441859,-4.27255,-61.44649,-6.98289,34.57793,0,0,0,109.8707,-20.80663,-28.80074,-36.10317,-110.6632,-50.33768,0.001067912,-0.1257102,0.09433498,0,0.3,0,0,0,0,
6.38224E+17,38.23782,30.32153,28.06341,-3.216576,-4.419309,118.2239,-17.01029,-0.4441859,-4.27255,-61.51973,-6.98289,34.57793,0,0,0,110.0717,-26.99969,-28.66362,-36.10317,-110.6632,-50.33768,0.001067912,-0.1257102,0.09433498,0,0.3,0,0,0,0,
6.38224E+17,38.30849,24.92117,25.68199,-4.388499,-0.09784385,115.8068,-17.01029,-0.4441859,-4.27255,-61.44649,-6.98289,34.57793,0,0,0,110.7903,-40.63699,-28.10787,-36.10317,-110.6632,-50.33768,0.001067912,-0.1257102,0.09433498,0,0.3,0,0,0,0,
6.38224E+17,38.44986,19.02986,24.70141,-6.073137,4.223621,112.5108,-17.01029,-0.4441859,-4.27255,-61.44649,-6.98289,34.57793,0,0,0,113.041,-54.31799,-25.98239,-36.10317,-110.6632,-50.33768,0.001067912,-0.1257102,0.09433498,0,0.3,0,0,0,0,
6.38224E+17,38.70901,12.67099,25.16835,-7.757777,8.398596,108.9218,-17.01029,-0.4441859,-4.27255,-61.51973,-6.98289,34.57793,0,0,0,116.8266,-68.08942,-22.57354,-36.10317,-110.6632,-50.33768,0.001067912,-0.1257102,0.09433498,0,0.3,0,0,0,0,
6.38224E+17,39.20378,7.41089,26.61588,-9.149435,11.76787,105.9187,-17.01029,-0.4441859,-4.27255,-61.44649,-6.98289,34.57793,0,0,0,121.3454,-78.66888,-19.58585,-36.10317,-110.6632,-50.33768,0.001067912,-0.1257102,0.09433498,0,0.3,0,0,0,0,
6.38224E+17,40.14618,3.857404,28.04007,-9.808641,14.11172,103.9411,-17.01029,-0.4441859,-4.27255,-61.51973,-6.909645,34.57793,0,0,0,126.1977,-85.37633,-18.73033,-36.10317,-110.6632,-50.33768,0.001067912,-0.1257102,0.09433498,0,0.3,0,0,0,0,
6.38224E+17,40.75874,2.875519,28.69379,-9.66215,14.99066,103.2087,-17.01029,-0.4441859,-4.27255,-61.44649,-6.98289,34.57793,0,0,0,128.7517,-86.93472,-18.97234,-36.10317,-110.6632,-50.33768,0.001067912,-0.1257102,0.09433498,0,0.3,0,0,0,0,
6.38224E+17,42.19589,2.291064,29.86115,-8.783209,15.72311,102.1832,-17.01029,-0.4441859,-4.27255,-61.44649,-6.98289,34.57793,0,0,0,134.0906,-86.96493,-20.44737,-36.10317,-110.6632,-50.33768,0.001067912,-0.1257102,0.09433498,0,0.3,0,0,0,0,
6.38224E+17,43.98645,2.454711,31.37873,-6.878834,15.64987,101.7438,-17.01029,-0.4441859,-4.27255,-61.44649,-6.98289,34.57793,0,0,0,140.7464,-84.78545,-22.53386,-36.10317,-110.6632,-50.33768,0.001067912,-0.1257102,0.09433498,0,0.3,0,0,0,0,
6.38224E+17,45.02308,2.501468,32.59278,-5.706912,15.50338,101.5973,-17.01029,-0.4441859,-4.27255,-61.44649,-6.98289,34.57793,0,0,0,145.0534,-83.18002,-23.41345,-36.10317,-110.6632,-50.33768,0.001067912,-0.1257102,0.09433498,0,0.3,0,0,0,0,
6.38224E+17,47.40264,2.571602,35.76801,-2.410879,14.69768,101.524,-17.01029,-0.4441859,-4.27255,-61.44649,-6.98289,34.57793,0,0,0,155.4404,-78.86577,-25.42843,-36.10317,-110.6632,-50.33768,0.001067912,-0.1257102,0.09433498,0,0.3,0,0,0,0,
6.38224E+17,49.6644,3.062545,38.77981,1.617605,13.81874,101.4508,-17.01029,-0.4441859,-4.27255,-61.44649,-6.98289,34.57793,0,0,0,165.1683,-73.4798,-28.10058,-36.10317,-110.6632,-50.33768,0.001067912,-0.1257102,0.09433498,0,0.3,0,0,0,0,
6.38224E+17,51.64344,4.41848,41.53479,6.08556,12.72006,101.4508,-17.01029,-0.4441859,-4.27255,-61.51973,-6.98289,34.57793,0,0,0,173.5941,-66.19621,-30.97517,-36.10317,-110.6632,-50.33768,0.001067912,-0.1257102,0.09433498,0,0.3,0,0,0,0,
6.38224E+17,52.46804,5.376987,42.60876,8.429405,11.98761,101.4508,-17.01029,-0.4441859,-4.27255,-61.51973,-6.98289,34.57793,0,0,0,176.8735,-62.29873,-32.47337,-36.10317,-110.6632,-50.33768,0.001067912,-0.1257102,0.09433498,0,0.3,0,0,0,0,
6.38224E+17,53.66959,7.41089,44.52324,12.82412,10.59595,101.4508,-17.01029,-0.4441859,-4.27255,-61.44649,-6.98289,34.57793,0,0,0,181.86,-54.52401,-34.61187,-36.10317,-110.6632,-50.33768,0.001067912,-0.1257102,0.09433498,0,0.3,0,0,0,0,
6.38224E+17,54.47063,9.842223,46.83461,17.29207,8.764822,101.6705,-17.01029,-0.4441859,-4.27255,-61.44649,-6.98289,34.57793,0,0,0,186.0798,-45.08134,-35.47659,-36.10317,-110.6632,-50.33768,0.001067912,-0.1257102,0.09433498,0,0.3,0,0,0,0,
6.38224E+17,54.72979,11.40856,48.00198,19.48943,7.666144,102.9157,-17.01029,-0.4441859,-4.27255,-61.44649,-6.98289,34.57793,0,0,0,187.631,-39.498,-35.64622,-36.10317,-110.6632,-50.33768,0.001067912,-0.1257102,0.09433498,0,0.3,0,0,0,0,
6.38224E+17,54.91827,13.02166,49.23938,21.54029,6.494221,104.8933,-17.01029,-0.4441859,-4.27255,-61.44649,-6.98289,34.57793,0,0,0,188.9744,-33.66789,-35.62655,-36.10317,-110.6632,-50.33768,0.001067912,-0.1257102,0.09433498,0,0.3,0,0,0,0,
6.38224E+17,55.01251,13.91003,49.84641,22.71221,5.76177,105.8455,-17.01029,-0.4441859,-4.27255,-61.44649,-6.98289,34.57793,0,0,0,189.5491,-30.58218,-35.68798,-36.10317,-110.6632,-50.33768,0.001067912,-0.1257102,0.09433498,0,0.3,0,0,0,0,
6.38224E+17,55.10675,15.71015,50.57018,24.83632,4.663092,107.5301,-17.01029,-0.4441859,-4.27255,-61.44649,-6.98289,34.57793,0,0,0,189.7729,-25.23762,-35.99582,-36.10317,-110.6632,-50.33768,0.001067912,-0.1257102,0.09433498,0,0.3,0,0,0,0,
6.38224E+17,55.10675,17.60379,50.827,26.52096,3.491169,108.5555,-17.01029,-0.4441859,-4.27255,-61.51973,-6.98289,34.57793,0,0,0,189.0473,-20.55298,-36.50188,-36.10317,-110.6632,-50.33768,0.001067912,-0.1257102,0.09433498,0,0.3,0,0,0,0,
6.38224E+17,55.10675,18.56229,50.85035,27.25341,2.831963,108.995,-17.01029,-0.4441859,-4.27255,-61.51973,-6.98289,34.57793,0,0,0,188.5075,-18.39023,-36.87835,-36.10317,-110.6632,-50.33768,0.001067912,-0.1257102,0.09433498,0,0.3,0,0,0,0,
6.38224E+17,55.08319,20.45593,50.827,28.64507,1.66004,110.0205,-17.01029,-0.4441859,-4.27255,-61.51973,-6.98289,34.57793,0,0,0,187.2185,-14.27834,-37.66291,-36.10317,-110.6632,-50.33768,0.001067912,-0.1257102,0.09433498,0,0.3,0,0,0,0,
6.38224E+17,55.03607,22.30281,50.68691,29.89024,0.4881175,111.1924,-17.01029,-0.4441859,-4.27255,-61.44649,-6.98289,34.57793,0,0,0,185.6578,-10.52839,-38.52509,-36.10317,-110.6632,-50.33768,0.001067912,-0.1257102,0.09433498,0,0.3,0,0,0,0,
6.38224E+17,54.98895,23.07429,50.50013,30.40295,-0.02459868,111.7051,-17.01029,-0.4441859,-4.27255,-61.51973,-6.98289,34.57793,0,0,0,184.7577,-9.207685,-38.92813,-36.10317,-110.6632,-50.33768,0.001067912,-0.1257102,0.09433498,0,0.3,0,0,0,0,
6.38224E+17,54.75335,24.50036,49.89311,31.13541,-0.9035407,112.584,-17.01029,-0.4441859,-4.27255,-61.44649,-6.98289,34.57793,0,0,0,182.3921,-7.256058,-39.46399,-36.10317,-110.6632,-50.33768,0.001067912,-0.1257102,0.09433498,0,0.3,0,0,0,0,
6.38224E+17,54.47063,25.94981,48.88918,31.57488,-1.416257,113.9025,-17.01029,-0.4441859,-4.27255,-61.44649,-6.98289,34.57793,0,0,0,179.3463,-5.978204,-40.28478,-36.10317,-110.6632,-50.33768,0.001067912,-0.1257102,0.09433498,0,0.3,0,0,0,0,
6.38224E+17,54.35283,26.55764,48.35219,31.64813,-1.709238,114.5617,-17.01029,-0.4441859,-4.27255,-61.44649,-6.98289,34.57793,0,0,0,177.9027,-5.647242,-40.76249,-36.10317,-110.6632,-50.33768,0.001067912,-0.1257102,0.09433498,0,0.3,0,0,0,0,
6.38224E+17,53.90519,28.40452,45.76064,31.20865,-1.928973,116.9055,-17.01029,-0.4441859,-4.27255,-61.44649,-6.909645,34.57793,0,0,0,171.9777,-6.248882,-42.96558,-36.10317,-110.6632,-50.33768,0.001067912,-0.1257102,0.09433498,0,0.3,0,0,0,0,
6.38224E+17,53.78739,28.84871,45.10692,30.91567,-1.928973,117.4915,-17.01029,-0.4441859,-4.27255,-61.44649,-6.98289,34.57793,0,0,0,170.4585,-6.425411,-43.53562,-36.10317,-110.6632,-50.33768,0.001067912,-0.1257102,0.09433498,0,0.3,0,0,0,0,
6.38224E+17,53.62247,29.73707,43.89286,30.25646,-1.928973,118.3704,-17.01029,-0.4441859,-4.27255,-61.51973,-6.98289,34.57793,0,0,0,167.6615,-6.602663,-44.84077,-36.10317,-110.6632,-50.33768,0.001067912,-0.1257102,0.09433498,0,0.3,0,0,0,0,
6.38224E+17,53.52823,30.50856,42.39864,29.74375,-2.002218,118.7366,-17.01029,-0.4441859,-4.27255,-61.51973,-6.98289,34.57793,0,0,0,164.6931,-7.427767,-46.60904,-36.10317,-110.6632,-50.33768,0.001067912,-0.1257102,0.09433498,0,0.3,0,0,0,0,
6.38224E+17,53.43399,30.81247,41.27797,29.59726,-1.855728,118.8099,-17.01029,-0.4441859,-4.27255,-61.44649,-6.98289,34.57793,0,0,0,162.6422,-8.559064,-47.71086,-36.10317,-110.6632,-50.33768,0.001067912,-0.1257102,0.09433498,0,0.3,0,0,0,0,
6.38224E+17,53.10415,31.30341,37.91596,28.93805,-1.489502,118.8831,-17.01029,-0.4441859,-4.27255,-61.44649,-6.98289,34.57793,0,0,0,156.6525,-12.56688,-50.74972,-36.10317,-110.6632,-50.33768,0.001067912,-0.1257102,0.09433498,0,0.3,0,0,0,0,
6.38224E+17,52.51515,31.37355,33.38659,27.83937,-0.5373149,119.0296,-17.01029,-0.4441859,-4.27255,-61.44649,-6.98289,34.57793,0,0,0,148.5726,-18.57006,-54.40869,-36.10317,-110.6632,-50.33768,0.001067912,-0.1257102,0.09433498,0,0.3,0,0,0,0,
6.38224E+17,51.66699,31.35017,28.62375,26.08149,1.074079,119.0296,-17.01029,-0.4441859,-4.27255,-61.44649,-6.98289,34.57793,0,0,0,139.4411,-24.32494,-58.09559,-36.10317,-110.6632,-50.33768,0.001067912,-0.1257102,0.09433498,0,0.3,0,0,0,0,
6.38224E+17,51.078,31.28004,26.38241,25.05606,1.806531,118.8831,-17.01029,-0.4441859,-4.27255,-61.51973,-6.98289,34.57793,0,0,0,134.7668,-26.87319,-59.52144,-36.10317,-110.6632,-50.33768,0.001067912,-0.1257102,0.09433498,0,0.3,0,0,0,0,
6.38224E+17,49.57016,30.83585,21.87639,22.63897,3.491169,117.8577,-17.01029,-0.4441859,-4.27255,-61.44649,-6.98289,34.57793,0,0,0,124.9789,-32.04488,-61.87236,-36.10317,-110.6632,-50.33768,0.001067912,-0.1257102,0.09433498,0,0.3,0,0,0,0,
6.38224E+17,48.46284,30.1345,19.14476,20.73459,4.956073,116.3928,-17.01029,-0.4441859,-4.27255,-61.44649,-6.98289,34.57793,0,0,0,119.0609,-35.67889,-62.87603,-36.10317,-110.6632,-50.33768,0.001067912,-0.1257102,0.09433498,0,0.3,0,0,0,0,
6.38224E+17,47.85028,29.62018,17.83731,19.63592,5.835015,115.6603,-17.01029,-0.4441859,-4.27255,-61.51973,-6.98289,34.57793,0,0,0,116.2291,-37.68189,-63.1456,-36.10317,-110.6632,-50.33768,0.001067912,-0.1257102,0.09433498,0,0.3,0,0,0,0,
6.38224E+17,46.79008,28.35776,16.13296,17.73154,7.519653,114.9279,-17.01029,-0.4441859,-4.27255,-61.51973,-6.98289,34.57793,0,0,0,112.5355,-41.41061,-62.63544,-36.10317,-110.6632,-50.33768,0.001067912,-0.1257102,0.09433498,0,0.3,0,0,0,0,
6.38224E+17,45.82413,26.72129,14.89556,15.97366,9.350782,114.7814,-17.01029,-0.4441859,-4.27255,-61.51973,-6.98289,34.57793,0,0,0,110.0101,-45.55797,-61.45992,-36.10317,-110.6632,-50.33768,0.001067912,-0.1257102,0.09433498,0,0.3,0,0,0,0,
6.38224E+17,45.28225,25.85629,14.49865,15.24121,10.30297,114.7082,-17.01029,-0.4441859,-4.27255,-61.51973,-6.98289,34.57793,0,0,0,108.9929,-47.59728,-60.42562,-36.10317,-110.6632,-50.33768,0.001067912,-0.1257102,0.09433498,0,0.3,0,0,0,0,
6.38224E+17,43.96289,23.82239,14.05505,13.48332,12.28059,114.5617,-17.01029,-0.4441859,-4.27255,-61.51973,-6.98289,34.57793,0,0,0,107.1648,-52.14744,-57.23361,-36.10317,-110.6632,-50.33768,0.001067912,-0.1257102,0.09433498,0,0.3,0,0,0,0,
6.38224E+17,42.59641,21.48457,13.77489,11.72544,14.18496,114.5617,-17.01029,-0.4441859,-4.27255,-61.44649,-6.98289,34.57793,0,0,0,105.4745,-57.32516,-53.63295,-36.10317,-110.6632,-50.33768,0.001067912,-0.1257102,0.09433498,0,0.3,0,0,0,0,
6.38224E+17,40.94721,18.86621,13.58811,9.747819,16.52881,114.5617,-17.01029,-0.4441859,-4.27255,-61.44649,-6.98289,34.57793,0,0,0,103.2297,-63.14753,-49.37659,-36.10317,-110.6632,-50.33768,0.001067912,-0.1257102,0.09433498,0,0.3,0,0,0,0,
6.38224E+17,39.65141,17.22974,13.51807,8.209671,18.1402,114.5617,-17.01029,-0.4441859,-4.27255,-61.44649,-6.98289,34.57793,0,0,0,101.1647,-66.80693,-46.28609,-36.10317,-110.6632,-50.33768,0.001067912,-0.1257102,0.09433498,0,0.3,0,0,0,0,
6.38224E+17,38.02578,15.47637,13.44803,6.08556,19.7516,114.1954,-17.01029,-0.4441859,-4.27255,-61.51973,-6.98289,34.57793,0,0,0,98.27124,-70.76048,-42.68512,-36.10317,-110.6632,-50.33768,0.001067912,-0.1257102,0.09433498,0,0.3,0,0,0,0,
6.38224E+17,35.57554,13.62949,13.19121,2.789528,21.87571,113.2432,-17.01029,-0.4441859,-4.27255,-61.44649,-6.98289,34.57793,0,0,0,93.09897,-75.05851,-38.19339,-36.10317,-110.6632,-50.33768,0.001067912,-0.1257102,0.09433498,0,0.3,0,0,0,0,
6.38224E+17,34.13838,12.95152,12.93439,1.031644,22.82789,112.9503,-17.01029,-0.4441859,-4.27255,-61.44649,-6.98289,34.57793,0,0,0,89.6821,-76.72923,-36.08105,-36.10317,-110.6632,-50.33768,0.001067912,-0.1257102,0.09433498,0,0.3,0,0,0,0,
6.38224E+17,30.53371,12.0164,12.30401,-2.923595,24.73227,112.4375,-17.01029,-0.4441859,-4.27255,-61.44649,-6.98289,34.57793,0,0,0,80.70032,-79.17469,-31.53218,-36.10317,-110.6632,-50.33768,0.001067912,-0.1257102,0.09433498,0,0.3,0,0,0,0,
6.38224E+17,26.05732,11.80599,11.88376,-7.977511,26.19717,110.9726,-17.01029,-0.4441859,-4.27255,-61.51973,-6.98289,34.57793,0,0,0,69.40003,-79.85876,-26.41938,-36.10317,-110.6632,-50.33768,0.001067912,-0.1257102,0.09433498,0,0.3,0,0,0,0,
6.38224E+17,21.13329,11.80599,11.83706,-14.2766,27.07611,109.5077,-17.01029,-0.4441859,-4.27255,-61.51973,-6.98289,34.57793,0,0,0,56.92297,-79.8811,-21.08545,-36.10317,-110.6632,-50.33768,0.001067912,-0.1257102,0.09433498,0,0.3,0,0,0,0,
6.38224E+17,15.64381,11.80599,11.97715,-21.89409,27.36909,106.5047,-17.01029,-0.4441859,-4.27255,-61.44649,-6.98289,34.57793,0,0,0,42.66019,-79.81383,-16.00823,-36.10317,-110.6632,-50.33768,0.001067912,-0.1257102,0.09433498,0,0.3,0,0,0,0,
6.38224E+17,13.21714,11.85275,12.28066,-25.40986,27.29585,104.8933,-17.01029,-0.4441859,-4.27255,-61.51973,-6.98289,34.57793,0,0,0,36.32446,-79.5589,-13.68796,-36.10317,-110.6632,-50.33768,0.001067912,-0.1257102,0.09433498,0,0.3,0,0,0,0,
6.38224E+17,8.599386,12.08653,13.61146,-33.02736,26.78313,102.3297,-17.01029,-0.4441859,-4.27255,-61.44649,-6.98289,34.57793,0,0,0,24.18953,-78.33274,-8.392612,-36.10317,-110.6632,-50.33768,0.001067912,-0.1257102,0.09433498,0,0.3,0,0,0,0,
6.38224E+17,5.159632,12.7645,15.38585,-40.42512,26.05068,100.8648,-17.01029,-0.4441859,-4.27255,-61.51973,-6.98289,34.57793,0,0,0,14.87768,-75.75795,-3.58574,-36.10317,-110.6632,-50.33768,0.001067912,-0.1257102,0.09433498,0,0.3,0,0,0,0,
6.38224E+17,3.227715,14.07368,16.71664,-46.13824,25.17174,100.6451,-17.01029,-0.4441859,-4.27255,-61.44649,-6.98289,34.57793,0,0,0,9.442481,-71.93785,-0.9120712,-36.10317,-110.6632,-50.33768,0.001067912,-0.1257102,0.09433498,0,0.3,0,0,0,0,
6.38224E+17,2.591596,14.91529,17.23028,-48.48209,24.73227,101.3775,-17.01029,-0.4441859,-4.27255,-61.44649,-6.98289,34.57793,0,0,0,7.612511,-69.69246,-0.1651109,-36.10317,-110.6632,-50.33768,0.001067912,-0.1257102,0.09433498,0,0.3,0,0,0,0,
6.38224E+17,2.049716,16.71542,17.79062,-51.4119,23.92657,103.7946,-17.01029,-0.4441859,-4.27255,-61.44649,-6.98289,34.57793,0,0,0,6.025218,-65.26924,0.001204339,-36.10317,-110.6632,-50.33768,0.001067912,-0.1257102,0.09433498,0,0.3,0,0,0,0,
6.38224E+17,2.073277,18.49216,17.9307,-52.65706,23.26737,107.0906,-17.01029,-0.4441859,-4.27255,-61.44649,-6.98289,34.57793,0,0,0,6.060427,-61.22787,-0.9409212,-36.10317,-110.6632,-50.33768,0.001067912,-0.1257102,0.09433498,0,0.3,0,0,0,0,
6.38224E+17,2.073277,19.26364,17.95405,-52.8768,22.97438,108.4823,-17.01029,-0.4441859,-4.27255,-61.51973,-6.98289,34.57793,0,0,0,6.04128,-59.51218,-1.469827,-36.10317,-110.6632,-50.33768,0.001067912,-0.1257102,0.09433498,0,0.3,0,0,0,0,
6.38224E+17,2.120397,20.87674,18.02409,-53.24303,22.09544,109.8007,-17.01029,-0.4441859,-4.27255,-61.44649,-6.98289,34.50468,0,0,0,6.136589,-55.93563,-2.607358,-36.10317,-110.6632,-50.33768,0.001067912,-0.1257102,0.09433498,0,0.3,0,0,0,0,
6.38224E+17,2.120397,22.34956,18.04744,-53.46276,20.99677,110.1669,-17.01029,-0.4441859,-4.27255,-61.44649,-6.98289,34.57793,0,0,0,6.091786,-52.73204,-3.817434,-36.10317,-110.6632,-50.33768,0.001067912,-0.1257102,0.09433498,0,0.3,0,0,0,0,
6.38224E+17,2.191077,23.19118,18.00074,-53.60925,19.82484,110.2402,-17.01029,-0.4441859,-4.27255,-61.44649,-6.98289,34.57793,0,0,0,6.261813,-50.95957,-4.685902,-36.10317,-110.6632,-50.33768,0.001067912,-0.1257102,0.09433498,0,0.3,0,0,0,0,
6.38224E+17,2.285316,23.3782,17.55714,-53.82899,18.79941,109.1415,-17.01029,-0.4441859,-4.27255,-61.44649,-6.98289,34.57793,0,0,0,6.484934,-50.87499,-5.85069,-36.10317,-110.6632,-50.33768,0.001067912,-0.1257102,0.09433498,0,0.3,0,0,0,0,
6.38224E+17,2.379556,23.3782,17.11355,-53.97548,18.57967,106.9442,-17.01029,-0.4441859,-4.27255,-61.44649,-6.98289,34.57793,0,0,0,6.711285,-51.18261,-6.846257,-36.10317,-110.6632,-50.33768,0.001067912,-0.1257102,0.09433498,0,0.3,0,0,0,0,
6.38224E+17,2.497356,23.3782,16.15631,-54.12197,18.21345,99.83938,-17.01029,-0.4441859,-4.27255,-61.51973,-6.98289,34.57793,0,0,0,6.95031,-51.82038,-8.992976,-36.10317,-110.6632,-50.33768,0.001067912,-0.1257102,0.09433498,0,0.3,0,0,0,0,
6.38224E+17,2.544476,23.30807,15.4092,-54.19521,17.99371,92.00214,-17.01029,-0.4441859,-4.27255,-61.44649,-6.909645,34.57793,0,0,0,7.009949,-52.4432,-10.60574,-36.10317,-110.6632,-50.33768,0.001067912,-0.1257102,0.09433498,0,0.3,0,0,0,0,
6.38224E+17,2.591596,23.1678,15.03564,-54.26846,17.62749,88.8526,-17.01029,-0.4441859,-4.27255,-61.51973,-6.98289,34.57793,0,0,0,7.107567,-52.97145,-11.32094,-36.10317,-110.6632,-50.33768,0.001067912,-0.1257102,0.09433498,0,0.3,0,0,0,0,
6.38224E+17,2.874315,22.58335,14.19514,-54.41495,17.11477,84.16491,-17.01029,-0.4441859,-4.27255,-61.44649,-6.98289,34.57793,0,0,0,7.813917,-54.71832,-12.7203,-36.10317,-110.6632,-50.33768,0.001067912,-0.1257102,0.09433498,0,0.3,0,0,0,0,
6.38224E+17,3.345515,21.3443,13.12116,-54.56144,16.96828,81.16187,-17.01029,-0.4441859,-4.27255,-61.44649,-6.98289,34.57793,0,0,0,9.014735,-57.98293,-14.1378,-36.10317,-110.6632,-50.33768,0.001067912,-0.1257102,0.09433498,0,0.3,0,0,0,0,
6.38224E+17,4.005194,19.75458,12.00049,-54.26846,17.18801,79.47723,-17.01029,-0.4441859,-4.27255,-61.44649,-6.98289,34.57793,0,0,0,10.70253,-62.01451,-15.49586,-36.10317,-110.6632,-50.33768,0.001067912,-0.1257102,0.09433498,0,0.3,0,0,0,0,
6.38224E+17,4.382153,18.93634,11.67363,-54.04872,17.481,78.9645,-17.01029,-0.4441859,-4.27255,-61.44649,-6.98289,34.57793,0,0,0,11.69925,-63.96738,-15.68297,-36.10317,-110.6632,-50.33768,0.001067912,-0.1257102,0.09433498,0,0.3,0,0,0,0,
6.38224E+17,5.230311,16.99595,11.27673,-53.90223,17.84722,78.37854,-17.01029,-0.4441859,-4.27255,-61.44649,-6.98289,34.57793,0,0,0,14.0023,-68.44681,-15.38725,-36.10317,-110.6632,-50.33768,0.001067912,-0.1257102,0.09433498,0,0.3,0,0,0,0,
6.38224E+17,6.10203,14.89192,11.13665,-53.75574,18.35994,78.3053,-17.01029,-0.4441859,-4.27255,-61.44649,-6.98289,34.57793,0,0,0,16.4368,-73.21845,-14.59851,-36.10317,-110.6632,-50.33768,0.001067912,-0.1257102,0.09433498,0,0.3,0,0,0,0,
6.38224E+17,7.327148,12.20342,11.08995,-53.09653,19.23888,79.11099,-17.01029,-0.4441859,-4.27255,-61.44649,-6.98289,34.57793,0,0,0,19.89368,-79.32193,-13.63719,-36.10317,-110.6632,-50.33768,0.001067912,-0.1257102,0.09433498,0,0.3,0,0,0,0,
6.38224E+17,7.798347,11.33843,11.08995,-52.73031,19.67835,79.33073,-17.01029,-0.4441859,-4.27255,-61.51973,-6.98289,34.57793,0,0,0,21.22107,-81.29276,-13.39914,-36.10317,-110.6632,-50.33768,0.001067912,-0.1257102,0.09433498,0,0.3,0,0,0,0,
6.38224E+17,9.329745,8.97723,11.08995,-51.19216,20.77703,79.55046,-17.01029,-0.4441859,-4.27255,-61.51973,-6.98289,34.57793,0,0,0,25.51163,-86.70168,-13.06532,-36.10317,-110.6632,-50.33768,0.001067912,-0.1257102,0.09433498,0,0.3,0,0,0,0,
6.38224E+17,11.30878,6.873192,11.27673,-49.06805,21.80246,79.69696,-17.01029,-0.4441859,-4.27255,-61.44649,-6.98289,34.57793,0,0,0,31.075,-91.46726,-12.95874,-36.10317,-110.6632,-50.33768,0.001067912,-0.1257102,0.09433498,0,0.3,0,0,0,0,
6.38224E+17,13.61766,5.07307,11.83706,-46.28474,22.6814,79.62371,-17.01029,-0.4441859,-4.27255,-61.44649,-6.98289,34.57793,0,0,0,37.71342,-95.37267,-12.67133,-36.10317,-110.6632,-50.33768,0.001067912,-0.1257102,0.09433498,0,0.3,0,0,0,0,
6.38224E+17,14.91346,4.395102,12.30401,-44.74659,23.12087,79.25748,-17.01029,-0.4441859,-4.27255,-61.51973,-6.98289,34.57793,0,0,0,41.53132,-96.71793,-12.41122,-36.10317,-110.6632,-50.33768,0.001067912,-0.1257102,0.09433498,0,0.3,0,0,0,0,
6.38224E+17,17.81133,3.670378,13.37798,-41.37731,23.78008,78.37854,-17.01029,-0.4441859,-4.27255,-61.44649,-6.98289,34.57793,0,0,0,50.14356,-97.84495,-12.27714,-36.10317,-110.6632,-50.33768,0.001067912,-0.1257102,0.09433498,0,0.3,0,0,0,0,
6.38224E+17,20.80345,3.600243,14.49865,-37.86154,24.2928,77.57285,-17.01029,-0.4441859,-4.27255,-61.44649,-6.98289,34.57793,0,0,0,59.12471,-97.37959,-12.73129,-36.10317,-110.6632,-50.33768,0.001067912,-0.1257102,0.09433498,0,0.3,0,0,0,0,
6.38224E+17,22.33484,3.600243,15.3625,-35.95716,24.36604,76.91364,-17.01029,-0.4441859,-4.27255,-61.44649,-6.98289,34.57793,0,0,0,64.00069,-96.86159,-12.57008,-36.10317,-110.6632,-50.33768,0.001067912,-0.1257102,0.09433498,0,0.3,0,0,0,0,
6.38224E+17,25.98664,3.600243,18.02409,-31.70894,24.07306,75.66847,-17.01029,-0.4441859,-4.27255,-61.51973,-6.98289,34.57793,0,0,0,76.39239,-95.08237,-11.62963,-36.10317,-110.6632,-50.33768,0.001067912,-0.1257102,0.09433498,0,0.3,0,0,0,0,
6.38224E+17,28.83739,3.670378,20.4989,-28.33967,23.70683,75.229,-17.01029,-0.4441859,-4.27255,-61.44649,-6.98289,34.57793,0,0,0,86.70969,-93.01955,-10.86919,-36.10317,-110.6632,-50.33768,0.001067912,-0.1257102,0.09433498,0,0.3,0,0,0,0,
6.38224E+17,30.53371,3.787269,21.89973,-26.21556,23.63359,75.00926,-17.01029,-0.4441859,-4.27255,-61.51973,-6.98289,34.57793,0,0,0,92.8687,-91.56914,-10.90213,-36.10317,-110.6632,-50.33768,0.001067912,-0.1257102,0.09433498,0,0.3,0,0,0,0,
6.38224E+17,33.80854,4.55875,24.7481,-21.23489,23.41385,73.83734,-17.01029,-0.4441859,-4.27255,-61.44649,-6.98289,34.57793,0,0,0,105.0255,-87.15392,-11.51535,-36.10317,-110.6632,-50.33768,0.001067912,-0.1257102,0.09433498,0,0.3,0,0,0,0,
6.38224E+17,36.63574,5.914686,27.61982,-16.32746,22.90114,71.12727,-17.01029,-0.4441859,-4.27255,-61.51973,-6.98289,34.57793,0,0,0,116.0401,-81.06249,-12.30526,-36.10317,-110.6632,-50.33768,0.001067912,-0.1257102,0.09433498,0,0.3,0,0,0,0,
6.38224E+17,39.01529,7.80832,30.18801,-11.34679,21.65597,68.4172,-17.01029,-0.4441859,-4.27255,-61.44649,-6.98289,34.57793,0,0,0,125.3813,-73.79822,-13.60148,-36.10317,-110.6632,-50.33768,0.001067912,-0.1257102,0.09433498,0,0.3,0,0,0,0,
6.38224E+17,40.66449,9.865602,32.38266,-7.538041,20.19107,66.65932,-17.01029,-0.4441859,-4.27255,-61.44649,-6.98289,34.57793,0,0,0,132.148,-66.41488,-14.52109,-36.10317,-110.6632,-50.33768,0.001067912,-0.1257102,0.09433498,0,0.3,0,0,0,0,
6.38224E+17,41.32417,11.08127,33.50333,-5.706912,19.23888,65.92686,-17.01029,-0.4441859,-4.27255,-61.44649,-6.98289,34.57793,0,0,0,135.016,-62.21438,-14.79521,-36.10317,-110.6632,-50.33768,0.001067912,-0.1257102,0.09433498,0,0.3,0,0,0,0,
6.38224E+17,42.24301,13.23206,35.67462,-2.777105,17.33451,65.12117,-17.01029,-0.4441859,-4.27255,-61.44649,-6.98289,34.57793,0,0,0,139.5491,-54.45256,-14.68077,-36.10317,-110.6632,-50.33768,0.001067912,-0.1257102,0.09433498,0,0.3,0,0,0,0,
6.38224E+17,42.85557,15.3361,37.70583,-0.4332596,15.64987,64.68169,-17.01029,-0.4441859,-4.27255,-61.51973,-6.98289,34.57793,0,0,0,142.9405,-46.88285,-14.28833,-36.10317,-110.6632,-50.33768,0.001067912,-0.1257102,0.09433498,0,0.3,0,0,0,0,
6.38224E+17,43.23253,17.32325,39.52692,1.397869,14.18496,64.46196,-17.01029,-0.4441859,-4.27255,-61.44649,-6.98289,34.57793,0,0,0,145.3286,-39.79967,-13.76676,-36.10317,-110.6632,-50.33768,0.001067912,-0.1257102,0.09433498,0,0.3,0,0,0,0,
6.38224E+17,43.30321,18.16486,40.43747,2.130321,13.52576,64.09573,-17.01029,-0.4441859,-4.27255,-61.51973,-6.98289,34.57793,0,0,0,146.2234,-36.57243,-13.19888,-36.10317,-110.6632,-50.33768,0.001067912,-0.1257102,0.09433498,0,0.3,0,0,0,0,
6.38224E+17,43.30321,19.80134,42.18851,3.448734,12.28059,63.43653,-17.01029,-0.4441859,-4.27255,-61.51973,-6.98289,34.57793,0,0,0,147.4731,-30.28062,-11.87291,-36.10317,-110.6632,-50.33768,0.001067912,-0.1257102,0.09433498,0,0.3,0,0,0,0,
6.38224E+17,43.27965,21.39106,43.5193,5.060128,11.25516,63.14355,-17.01029,-0.4441859,-4.27255,-61.51973,-6.98289,34.57793,0,0,0,148.0731,-24.7108,-11.10681,-36.10317,-110.6632,-50.33768,0.001067912,-0.1257102,0.09433498,0,0.3,0,0,0,0,
6.38224E+17,43.20897,22.04565,44.17303,6.012315,10.96218,63.14355,-17.01029,-0.4441859,-4.27255,-61.44649,-6.909645,34.57793,0,0,0,148.2443,-22.24151,-10.5354,-36.10317,-110.6632,-50.33768,0.001067912,-0.1257102,0.09433498,0,0.3,0,0,0,0,
6.38224E+17,43.11473,23.07429,45.17696,7.770199,10.6692,63.43653,-17.01029,-0.4441859,-4.27255,-61.44649,-6.98289,34.57793,0,0,0,148.4923,-18.38791,-9.749366,-36.10317,-110.6632,-50.33768,0.001067912,-0.1257102,0.09433498,0,0.3,0,0,0,0,
6.38224E+17,43.11473,24.05617,46.15754,9.821064,10.74244,63.94925,-17.01029,-0.4441859,-4.27255,-61.44649,-6.98289,34.57793,0,0,0,148.9579,-14.66085,-9.252073,-36.10317,-110.6632,-50.33768,0.001067912,-0.1257102,0.09433498,0,0.3,0,0,0,0,
6.38224E+17,42.54929,26.39399,48.04868,12.67763,10.37621,66.65932,-17.01029,-0.4441859,-4.27255,-61.44649,-6.98289,34.57793,0,0,0,147.8385,-6.514776,-7.290964,-36.10317,-110.6632,-50.33768,0.001067912,-0.1257102,0.09433498,0,0.3,0,0,0,0,
6.38224E+17,41.81893,28.17073,48.6557,14.06928,9.497273,69.51588,-17.01029,-0.4441859,-4.27255,-61.51973,-6.98289,34.57793,0,0,0,145.1357,-1.784042,-6.132433,-36.10317,-110.6632,-50.33768,0.001067912,-0.1257102,0.09433498,0,0.3,0,0,0,0,
6.38224E+17,41.20637,29.29289,48.77244,14.80174,8.838067,71.20052,-17.01029,-0.4441859,-4.27255,-61.44649,-6.98289,34.57793,0,0,0,142.6842,0.7102204,-5.39972,-36.10317,-110.6632,-50.33768,0.001067912,-0.1257102,0.09433498,0,0.3,0,0,0,0,
6.38224E+17,39.55717,31.63071,48.79579,15.46094,7.080183,74.27681,-17.01029,-0.4441859,-4.27255,-61.51973,-6.98289,34.57793,0,0,0,136.2016,5.440764,-3.459726,-36.10317,-110.6632,-50.33768,0.001067912,-0.1257102,0.09433498,0,0.3,0,0,0,0,
6.38224E+17,37.90798,33.54772,48.84248,15.09472,5.395544,76.47417,-17.01029,-0.4441859,-4.27255,-61.44649,-6.98289,34.57793,0,0,0,129.9673,9.281562,-1.447647,-36.10317,-110.6632,-50.33768,0.001067912,-0.1257102,0.09433498,0,0.3,0,0,0,0,
6.38224E+17,36.1881,35.3946,48.84248,13.84955,3.710905,78.45178,-17.01029,-0.4441859,-4.27255,-61.44649,-6.98289,34.57793,0,0,0,123.4631,12.82507,0.4144329,-36.10317,-110.6632,-50.33768,0.001067912,-0.1257102,0.09433498,0,0.3,0,0,0,0,
6.38224E+17,35.38706,36.16608,48.79579,13.19034,2.905208,79.47723,-17.01029,-0.4441859,-4.27255,-61.51973,-6.98289,34.57793,0,0,0,120.4423,14.19993,1.209789,-36.10317,-110.6632,-50.33768,0.001067912,-0.1257102,0.09433498,0,0.3,0,0,0,0,
6.38224E+17,33.43158,37.4285,48.37553,11.94517,1.440305,81.30835,-17.01029,-0.4441859,-4.27255,-61.44649,-6.98289,34.57793,0,0,0,113.2602,15.81913,3.21223,-36.10317,-110.6632,-50.33768,0.001067912,-0.1257102,0.09433498,0,0.3,0,0,0,0,
6.38224E+17,30.86355,38.38701,47.18483,10.11404,0.5613627,82.99299,-17.01029,-0.4441859,-4.27255,-61.44649,-6.98289,34.57793,0,0,0,103.8011,15.52695,5.33965,-36.10317,-110.6632,-50.33768,0.001067912,-0.1257102,0.09433498,0,0.3,0,0,0,0,
6.38224E+17,28.20127,38.97147,45.73729,7.623709,0.3416272,84.45789,-17.01029,-0.4441859,-4.27255,-61.44649,-6.98289,34.57793,0,0,0,94.12298,14.14671,7.179252,-36.10317,-110.6632,-50.33768,0.001067912,-0.1257102,0.09433498,0,0.3,0,0,0,0,
6.38224E+17,25.72748,39.25201,44.63997,4.400921,0.4148723,85.62981,-17.01029,-0.4441859,-4.27255,-61.44649,-6.98289,34.57793,0,0,0,85.49887,12.84154,9.085721,-36.10317,-110.6632,-50.33768,0.001067912,-0.1257102,0.09433498,0,0.3,0,0,0,0,
6.38224E+17,22.3584,39.60268,44.26641,-1.385447,0.7810982,87.02148,-17.01029,-0.4441859,-4.27255,-61.51973,-6.98289,34.57793,0,0,0,74.49039,12.86309,12.7503,-36.10317,-110.6632,-50.33768,0.001067912,-0.1257102,0.09433498,0,0.3,0,0,0,0,
6.38224E+17,20.82701,39.85984,44.45319,-4.315253,1.000834,87.90041,-17.01029,-0.4441859,-4.27255,-61.51973,-6.98289,34.57793,0,0,0,69.5984,13.62731,14.60928,-36.10317,-110.6632,-50.33768,0.001067912,-0.1257102,0.09433498,0,0.3,0,0,0,0,
6.38224E+17,15.99721,41.16902,45.64391,-13.32441,1.074079,90.39075,-17.01029,-0.4441859,-4.27255,-61.44649,-6.909645,34.57793,0,0,0,53.94091,17.9049,19.79885,-36.10317,-110.6632,-50.33768,0.001067912,-0.1257102,0.09433498,0,0.3,0,0,0,0,
6.38224E+17,14.70142,41.65996,45.97077,-15.7415,0.9275885,90.83022,-17.01029,-0.4441859,-4.27255,-61.51973,-6.98289,34.57793,0,0,0,49.61507,19.30724,20.75238,-36.10317,-110.6632,-50.33768,0.001067912,-0.1257102,0.09433498,0,0.3,0,0,0,0,
6.38224E+17,11.96846,43.01589,46.92801,-21.38138,0.6346079,91.34293,-17.01029,-0.4441859,-4.27255,-61.44649,-6.98289,34.57793,0,0,0,40.41962,23.25457,22.32542,-36.10317,-110.6632,-50.33768,0.001067912,-0.1257102,0.09433498,0,0.3,0,0,0,0,
6.38224E+17,9.989424,44.83939,48.35219,-26.72828,-0.02459868,91.19645,-17.01029,-0.4441859,-4.27255,-61.44649,-6.98289,34.57793,0,0,0,33.68745,28.76026,22.90745,-36.10317,-110.6632,-50.33768,0.001067912,-0.1257102,0.09433498,0,0.3,0,0,0,0,
6.38224E+17,9.259066,45.89141,49.16934,-29.29186,-0.4640697,90.53724,-17.01029,-0.4441859,-4.27255,-61.51973,-6.98289,34.57793,0,0,0,31.16817,31.91059,22.83907,-36.10317,-110.6632,-50.33768,0.001067912,-0.1257102,0.09433498,0,0.3,0,0,0,0,
6.38224E+17,8.505146,48.06559,50.827,-34.49226,-2.002218,88.41313,-17.01029,-0.4441859,-4.27255,-61.44649,-6.98289,34.57793,0,0,0,28.46947,38.31803,22.02669,-36.10317,-110.6632,-50.33768,0.001067912,-0.1257102,0.09433498,0,0.3,0,0,0,0,
6.38224E+17,8.575826,50.23976,52.01771,-38.81373,-3.833347,85.77631,-17.01029,-0.4441859,-4.27255,-61.44649,-6.98289,34.57793,0,0,0,28.39122,43.79384,19.91539,-36.10317,-110.6632,-50.33768,0.001067912,-0.1257102,0.09433498,0,0.3,0,0,0,0,
6.38224E+17,8.858545,52.46069,53.25511,-42.03651,-6.030703,82.99299,-17.01029,-0.4441859,-4.27255,-61.51973,-6.98289,34.57793,0,0,0,28.96737,49.31089,17.51142,-36.10317,-110.6632,-50.33768,0.001067912,-0.1257102,0.09433498,0,0.3,0,0,0,0,
6.38224E+17,8.976345,53.51271,53.97888,-43.50142,-7.12938,81.45483,-17.01029,-0.4441859,-4.27255,-61.44649,-6.98289,34.57793,0,0,0,29.20029,52.14097,16.50731,-36.10317,-110.6632,-50.33768,0.001067912,-0.1257102,0.09433498,0,0.3,0,0,0,0,
6.38224E+17,9.612464,55.96742,55.89336,-47.09043,-9.912696,77.4996,-17.01029,-0.4441859,-4.27255,-61.51973,-6.98289,34.57793,0,0,0,30.89931,59.08572,14.09633,-36.10317,-110.6632,-50.33768,0.001067912,-0.1257102,0.09433498,0,0.3,0,0,0,0,
6.38224E+17,10.8847,57.60389,56.73386,-49.65401,-12.32979,74.05708,-17.01029,-0.4441859,-4.27255,-61.44649,-6.98289,34.50468,0,0,0,34.54572,62.79966,11.30171,-36.10317,-110.6632,-50.33768,0.001067912,-0.1257102,0.09433498,0,0.3,0,0,0,0,
6.38224E+17,13.02866,59.02996,56.73386,-51.19216,-15.18635,69.07641,-17.01029,-0.4441859,-4.27255,-61.44649,-6.98289,34.57793,0,0,0,40.60567,64.54284,7.131977,-36.10317,-110.6632,-50.33768,0.001067912,-0.1257102,0.09433498,0,0.3,0,0,0,0,
6.38224E+17,14.32446,59.6378,56.61712,-50.97242,-16.57801,66.36633,-17.01029,-0.4441859,-4.27255,-61.44649,-6.98289,34.57793,0,0,0,44.22565,65.03735,4.845225,-36.10317,-110.6632,-50.33768,0.001067912,-0.1257102,0.09433498,0,0.3,0,0,0,0,
6.38224E+17,17.24589,60.52617,56.31361,-48.9948,-19.14159,60.50672,-17.01029,-0.4441859,-4.27255,-61.44649,-6.98289,34.57793,0,0,0,52.34835,65.47975,0.2819266,-36.10317,-110.6632,-50.33768,0.001067912,-0.1257102,0.09433498,0,0.3,0,0,0,0,
6.38224E+17,20.28513,60.68982,55.82331,-45.11281,-21.19245,54.57386,-17.01029,-0.4441859,-4.27255,-61.44649,-6.98289,34.57793,0,0,0,60.87967,64.71989,-3.639484,-36.10317,-110.6632,-50.33768,0.001067912,-0.1257102,0.09433498,0,0.3,0,0,0,0,
6.38224E+17,23.183,60.31576,55.12289,-40.13214,-22.58411,49.37346,-17.01029,-0.4441859,-4.27255,-61.51973,-6.98289,34.57793,0,0,0,69.06346,62.94824,-7.080745,-36.10317,-110.6632,-50.33768,0.001067912,-0.1257102,0.09433498,0,0.3,0,0,0,0,
6.38224E+17,25.98664,59.70793,54.32909,-34.41902,-23.38981,44.68576,-17.01029,-0.4441859,-4.27255,-61.44649,-6.98289,34.57793,0,0,0,76.93838,60.73287,-10.50952,-36.10317,-110.6632,-50.33768,0.001067912,-0.1257102,0.09433498,0,0.3,0,0,0,0,
6.38224E+17,28.69603,58.84294,53.53528,-28.33967,-23.60954,38.89939,-17.01029,-0.4441859,-4.27255,-61.44649,-6.98289,34.57793,0,0,0,84.62222,58.21096,-13.75894,-36.10317,-110.6632,-50.33768,0.001067912,-0.1257102,0.09433498,0,0.3,0,0,0,0,
6.38224E+17,29.63843,58.51564,53.23177,-26.21556,-23.46305,36.55555,-17.01029,-0.4441859,-4.27255,-61.44649,-6.98289,34.57793,0,0,0,87.26682,57.248,-14.97226,-36.10317,-110.6632,-50.33768,0.001067912,-0.1257102,0.09433498,0,0.3,0,0,0,0,
6.38224E+17,31.80595,57.62727,52.46131,-21.01515,-22.80385,29.74375,-17.01029,-0.4441859,-4.27255,-61.44649,-6.98289,34.57793,0,0,0,93.35938,54.72536,-17.81163,-36.10317,-110.6632,-50.33768,0.001067912,-0.1257102,0.09433498,0,0.3,0,0,0,0,
6.38224E+17,33.69075,56.43498,51.80758,-16.47395,-21.70517,21.17406,-17.01029,-0.4441859,-4.27255,-61.44649,-6.98289,34.57793,0,0,0,99.03342,52.01419,-19.80368,-36.10317,-110.6632,-50.33768,0.001067912,-0.1257102,0.09433498,0,0.3,0,0,0,0,
6.38224E+17,35.19858,54.72837,51.41068,-11.93275,-19.72755,11.87193,-17.01029,-0.4441859,-4.27255,-61.44649,-6.98289,34.57793,0,0,0,104.4659,49.04517,-20.25243,-36.10317,-110.6632,-50.33768,0.001067912,-0.1257102,0.09433498,0,0.3,0,0,0,0,
6.38224E+17,35.69334,53.81662,51.31729,-10.10162,-18.48238,7.403974,-17.01029,-0.4441859,-4.27255,-61.44649,-6.98289,34.57793,0,0,0,106.6667,47.6363,-19.8712,-36.10317,-110.6632,-50.33768,0.001067912,-0.1257102,0.09433498,0,0.3,0,0,0,0,
6.38224E+17,36.37658,51.8061,51.24725,-7.24506,-15.77231,-3.729292,-17.01029,-0.4441859,-4.27255,-61.44649,-6.909645,34.57793,0,0,0,110.5799,44.6809,-18.2346,-36.10317,-110.6632,-50.33768,0.001067912,-0.1257102,0.09433498,0,0.3,0,0,0,0,
6.38224E+17,36.70642,49.58517,51.24725,-5.560421,-12.54952,-15.81474,-17.01029,-0.4441859,-4.27255,-61.44649,-6.98289,34.57793,0,0,0,113.8328,41.40687,-15.66726,-36.10317,-110.6632,-50.33768,0.001067912,-0.1257102,0.09433498,0,0.3,0,0,0,0,
6.38224E+17,36.7771,48.3695,51.24725,-5.047705,-10.71839,-21.7476,-17.01029,-0.4441859,-4.27255,-61.44649,-6.98289,34.57793,0,0,0,115.299,39.54985,-14.09808,-36.10317,-110.6632,-50.33768,0.001067912,-0.1257102,0.09433498,0,0.3,0,0,0,0,
6.38224E+17,36.80066,45.5875,51.24725,-4.315253,-6.323683,-34.93173,-17.01029,-0.4441859,-4.27255,-61.44649,-6.98289,34.57793,0,0,0,118.1978,35.13268,-10.35546,-36.10317,-110.6632,-50.33768,0.001067912,-0.1257102,0.09433498,0,0.3,0,0,0,0,
6.38224E+17,36.80066,43.71724,51.48072,-3.582802,-3.100896,-41.23082,-17.01029,-0.4441859,-4.27255,-61.44649,-6.98289,34.57793,0,0,0,120.2336,32.46074,-7.634345,-36.10317,-110.6632,-50.33768,0.001067912,-0.1257102,0.09433498,0,0.3,0,0,0,0,
6.38224E+17,36.80066,42.89901,51.94767,-3.070086,-1.635992,-43.86765,-17.01029,-0.4441859,-4.27255,-61.51973,-6.98289,34.57793,0,0,0,121.4194,31.92802,-6.049252,-36.10317,-110.6632,-50.33768,0.001067912,-0.1257102,0.09433498,0,0.3,0,0,0,0,
6.38224E+17,36.82422,41.87036,52.78817,-1.898163,1.440305,-48.55533,-17.01029,-0.4441859,-4.27255,-61.44649,-6.98289,34.57793,0,0,0,123.1693,31.70889,-3.851263,-36.10317,-110.6632,-50.33768,0.001067912,-0.1257102,0.09433498,0,0.3,0,0,0,0,
6.38224E+17,36.80066,41.77685,53.32516,-0.8727306,3.710905,-51.63163,-17.01029,-0.4441859,-4.27255,-61.44649,-6.98289,34.57793,0,0,0,123.6385,32.54556,-3.082957,-36.10317,-110.6632,-50.33768,0.001067912,-0.1257102,0.09433498,0,0.3,0,0,0,0,
6.38224E+17,36.56506,41.80023,53.95553,-0.140279,5.102563,-53.46276,-17.01029,-0.4441859,-4.27255,-61.44649,-6.98289,34.57793,0,0,0,123.4545,33.76763,-1.906479,-36.10317,-110.6632,-50.33768,0.001067912,-0.1257102,0.09433498,0,0.3,0,0,0,0,
6.38224E+17,35.81114,41.80023,54.84273,-0.140279,6.05475,-54.3417,-17.01029,-0.4441859,-4.27255,-61.44649,-6.98289,34.57793,0,0,0,121.957,35.44653,0.6782973,-36.10317,-110.6632,-50.33768,0.001067912,-0.1257102,0.09433498,0,0.3,0,0,0,0,
6.38224E+17,35.19858,41.80023,55.33302,-0.6529952,6.347731,-54.63469,-17.01029,-0.4441859,-4.27255,-61.51973,-6.98289,34.57793,0,0,0,120.5194,36.38227,2.506142,-36.10317,-110.6632,-50.33768,0.001067912,-0.1257102,0.09433498,0,0.3,0,0,0,0,
6.38224E+17,33.52582,41.89374,55.84666,-2.777105,6.933692,-53.90223,-17.01029,-0.4441859,-4.27255,-61.44649,-6.98289,34.57793,0,0,0,115.7735,37.53065,6.393539,-36.10317,-110.6632,-50.33768,0.001067912,-0.1257102,0.09433498,0,0.3,0,0,0,0,
6.38224E+17,31.61747,42.22104,56.17352,-6.366118,7.88588,-50.82594,-17.01029,-0.4441859,-4.27255,-61.44649,-6.98289,34.57793,0,0,0,109.8456,38.72698,10.07962,-36.10317,-110.6632,-50.33768,0.001067912,-0.1257102,0.09433498,0,0.3,0,0,0,0,
6.38224E+17,30.53371,42.57171,56.52373,-8.783209,8.398596,-48.77507,-17.01029,-0.4441859,-4.27255,-61.44649,-6.98289,34.57793,0,0,0,106.4011,40.00819,12.04037,-36.10317,-110.6632,-50.33768,0.001067912,-0.1257102,0.09433498,0,0.3,0,0,0,0,
6.38224E+17,28.62535,43.67049,57.5977,-14.34984,9.643764,-44.67334,-17.01029,-0.4441859,-4.27255,-61.51973,-6.98289,34.57793,0,0,0,100.1486,43.97248,15.14224,-36.10317,-110.6632,-50.33768,0.001067912,-0.1257102,0.09433498,0,0.3,0,0,0,0,
6.38224E+17,27.18819,45.23682,59.04524,-20.64893,10.52271,-40.79135,-17.01029,-0.4441859,-4.27255,-61.44649,-6.909645,34.57793,0,0,0,95.15686,49.44156,16.8991,-36.10317,-110.6632,-50.33768,0.001067912,-0.1257102,0.09433498,0,0.3,0,0,0,0,
6.38224E+17,26.66988,46.8733,60.6562,-27.0945,10.22972,-36.39664,-17.01029,-0.4441859,-4.27255,-61.44649,-6.98289,34.57793,0,0,0,93.09153,55.32663,16.98459,-36.10317,-110.6632,-50.33768,0.001067912,-0.1257102,0.09433498,0,0.3,0,0,0,0,
6.38224E+17,26.78768,47.76167,61.47335,-30.1708,9.790254,-34.05279,-17.01029,-0.4441859,-4.27255,-61.44649,-6.909645,34.57793,0,0,0,93.20206,58.39272,16.25739,-36.10317,-110.6632,-50.33768,0.001067912,-0.1257102,0.09433498,0,0.3,0,0,0,0,
6.38224E+17,27.40023,49.35139,62.87419,-35.15147,8.398596,-29.65808,-17.01029,-0.4441859,-4.27255,-61.44649,-6.98289,34.57793,0,0,0,94.59441,63.72477,14.13928,-36.10317,-110.6632,-50.33768,0.001067912,-0.1257102,0.09433498,0,0.3,0,0,0,0,
6.38224E+17,28.38975,50.66056,64.13494,-38.4475,6.494221,-25.6296,-17.01029,-0.4441859,-4.27255,-61.51973,-6.98289,34.57793,0,0,0,97.24432,68.30907,11.57652,-36.10317,-110.6632,-50.33768,0.001067912,-0.1257102,0.09433498,0,0.3,0,0,0,0,
6.38224E+17,30.08607,52.08664,65.32565,-40.49837,3.271434,-18.59806,-17.01029,-0.4441859,-4.27255,-61.44649,-6.98289,34.57793,0,0,0,101.8211,72.88692,7.399099,-36.10317,-110.6632,-50.33768,0.001067912,-0.1257102,0.09433498,0,0.3,0,0,0,0,
