zeyangz2/DNN_classification_different_people_hand/data_by_names/Frank/frank_right_26.csv
Timestamp,Therapist joint angle 0,Therapist joint angle 1,Therapist joint angle 2,Therapist joint angle 3,Therapist joint angle 4,Therapist joint angle 5,Patient joint angle 0,Patient joint angle 1,Patient joint angle 2,Patient joint angle 3,Patient joint angle 4,Patient joint angle 5,Virtual joint angle 0,Virtual joint angle 1,Virtual joint angle 2,Therapist position x,Therapist position y,Therapist position z,Patient position x,Patient position y,Patient position z,Virtual position x,Virtual position y,Virtual position z,Assistive Force, Obstacle Force Magnitude, Therapist Constant Force, Patient Constant Force, Recovery Factor, Assistance Level,label
6.38224E+17,0,0,0,0,0,0,0,0,0,0,0,0,0,0,0,0,0,0,0,0,0,0,0,0,0,0.3,0,0,0,0,1
6.38224E+17,23.46572,5.914686,-7.541167,-86.05686,-10.20568,-97.40987,-16.98673,-0.4441859,-4.27255,-61.51973,-6.98289,34.57793,0,0,0,45.84857,-95.10525,-62.73276,-36.05464,-110.6632,-50.32285,0.001067912,-0.1257102,0.09433498,0,0.3,0,0,0.003190129,0,
6.38224E+17,23.46572,5.914686,-7.541167,-86.05686,-10.27892,-97.40987,-16.98673,-0.4441859,-4.27255,-61.44649,-6.98289,34.57793,0,0,0,45.84857,-95.10525,-62.73276,-36.05464,-110.6632,-50.32285,0.001067912,-0.1257102,0.09433498,0,0.3,0,0,0.003190129,0,
6.38224E+17,23.46572,5.914686,-7.541167,-86.1301,-10.20568,-97.40987,-16.98673,-0.4441859,-4.27255,-61.51973,-6.98289,34.57793,0,0,0,45.84857,-95.10525,-62.73276,-36.05464,-110.6632,-50.32285,0.001067912,-0.1257102,0.09433498,0,0.3,0,0,0.003190038,0,
6.38224E+17,23.46572,5.914686,-7.541167,-86.20335,-10.20568,-97.40987,-16.98673,-0.4441859,-4.27255,-61.44649,-6.909645,34.57793,0,0,0,45.84857,-95.10525,-62.73276,-36.05464,-110.6632,-50.32285,0.001067912,-0.1257102,0.09433498,0,0.3,0,0,0.003190038,0,
6.38224E+17,23.46572,5.914686,-7.541167,-86.20335,-10.13243,-97.40987,-16.98673,-0.4441859,-4.27255,-61.51973,-6.909645,34.57793,0,0,0,45.84857,-95.10525,-62.73276,-36.05464,-110.6632,-50.32285,0.001067912,-0.1257102,0.09433498,0,0.3,0,0,0.003190038,0,
6.38224E+17,23.46572,5.914686,-7.541167,-86.20335,-10.20568,-97.26337,-16.98673,-0.4441859,-4.27255,-61.51973,-6.909645,34.57793,0,0,0,45.84857,-95.10525,-62.73276,-36.05464,-110.6632,-50.32285,0.001067912,-0.1257102,0.09433498,0,0.3,0,0,0.003190038,0,
6.38224E+17,23.46572,5.914686,-7.541167,-86.20335,-10.13243,-97.19013,-16.98673,-0.4441859,-4.27255,-61.51973,-6.98289,34.57793,0,0,0,45.84857,-95.10525,-62.73276,-36.05464,-110.6632,-50.32285,0.001067912,-0.1257102,0.09433498,0,0.3,0,0,0.003190038,0,
6.38224E+17,23.46572,5.914686,-7.517819,-85.10468,-9.473226,-96.23794,-16.98673,-0.4441859,-4.27255,-61.44649,-6.98289,34.57793,0,0,0,45.87002,-95.11237,-62.68335,-36.05464,-110.6632,-50.32285,0.001067912,-0.1257102,0.09433498,0,0.3,0,0,0.003161075,0,
6.38224E+17,23.51284,5.914686,-7.447778,-84.44547,-8.594284,-94.99277,-16.98673,-0.4441859,-4.27255,-61.44649,-6.98289,34.57793,0,0,0,46.02139,-95.1336,-62.5729,-36.05464,-110.6632,-50.32285,0.001067912,-0.1257102,0.09433498,0,0.3,0,0,0.003059838,0,
6.38224E+17,23.84268,5.914686,-7.377736,-82.10162,-6.396928,-92.42919,-16.98673,-0.4441859,-4.27255,-61.44649,-6.98289,34.50468,0,0,0,46.6949,-95.15463,-62.69173,-36.05464,-110.6632,-50.32285,0.001067912,-0.1257102,0.09433498,0,0.3,0,0,0.002249765,0,
6.38224E+17,24.14896,6.125089,-7.587861,-77.12095,-3.247386,-90.96429,-16.98673,-0.4441859,-4.27255,-61.51973,-6.98289,34.57793,0,0,0,47.03965,-94.60395,-63.43216,-36.05464,-110.6632,-50.32285,0.001067912,-0.1257102,0.09433498,0,0.3,0,0,0.000886317,0,
6.38224E+17,24.26676,6.499141,-7.727945,-74.55737,-1.928973,-91.55025,-16.98673,-0.4441859,-4.27255,-61.44649,-6.98289,34.50468,0,0,0,47.08313,-93.69522,-63.91092,-36.05464,-110.6632,-50.32285,0.001067912,-0.1257102,0.09433498,0,0.3,0,0,6.88E-05,0,
6.38224E+17,24.87932,7.948589,-7.564514,-67.96531,0.707853,-94.99277,-16.98673,-0.4441859,-4.27255,-61.44649,-6.98289,34.57793,0,0,0,48.17714,-90.39925,-64.46307,-36.05464,-110.6632,-50.32285,0.001067912,-0.1257102,0.09433498,0,0.3,0,0,0,0,
6.38224E+17,26.55208,9.37466,-6.560582,-61.22675,2.246002,-98.87477,-16.98673,-0.4441859,-4.27255,-61.44649,-6.909645,34.57793,0,0,0,52.00226,-87.40544,-64.28657,-36.05464,-110.6632,-50.32285,0.001067912,-0.1257102,0.09433498,0,0.3,0,0,0,0,
6.38224E+17,27.80075,10.16952,-5.883511,-57.71098,2.831963,-101.6581,-16.98673,-0.4441859,-4.27255,-61.44649,-6.909645,34.57793,0,0,0,54.84182,-85.75314,-64.33655,-36.05464,-110.6632,-50.32285,0.001067912,-0.1257102,0.09433498,0,0.3,0,0,0,0,
6.38224E+17,30.93423,11.71248,-4.132466,-50.38646,3.344679,-108.1769,-16.98673,-0.4441859,-4.27255,-61.51973,-6.98289,34.57793,0,0,0,62.18196,-82.58318,-64.59224,-36.05464,-110.6632,-50.32285,0.001067912,-0.1257102,0.09433498,0,0.3,0,0,0,0,
6.38224E+17,35.05722,13.11517,-0.9572379,-41.81678,2.905208,-114.476,-16.98673,-0.4441859,-4.27255,-61.44649,-6.909645,34.57793,0,0,0,73.31793,-79.72305,-63.8634,-36.05464,-110.6632,-50.32285,0.001067912,-0.1257102,0.09433498,0,0.3,0,0,0,0,
6.38224E+17,38.92105,13.98017,2.544852,-34.05279,1.367059,-119.1637,-16.98673,-0.4441859,-4.27255,-61.44649,-6.909645,34.50468,0,0,0,85.0153,-77.65299,-63.06857,-36.05464,-110.6632,-50.32285,0.001067912,-0.1257102,0.09433498,0,0.3,0,0,0,0,
6.38224E+17,40.85297,14.0503,4.669453,-30.02431,0.1218917,-121.8005,-16.98673,-0.4441859,-4.27255,-61.44649,-6.98289,34.57793,0,0,0,91.71825,-77.18354,-62.29177,-36.05464,-110.6632,-50.32285,0.001067912,-0.1257102,0.09433498,0,0.3,0,0,0,0,
6.38224E+17,44.33985,13.74638,9.408949,-21.82085,-2.807915,-126.1952,-16.98673,-0.4441859,-4.27255,-61.44649,-6.98289,34.57793,0,0,0,105.7669,-76.51876,-60.11737,-36.05464,-110.6632,-50.32285,0.001067912,-0.1257102,0.09433498,0,0.3,0,0,0,0,
6.38224E+17,46.8372,13.06842,14.00836,-14.13011,-6.323683,-128.832,-16.98673,-0.4441859,-4.27255,-61.51973,-6.98289,34.57793,0,0,0,118.2929,-75.88187,-57.41002,-36.05464,-110.6632,-50.32285,0.001067912,-0.1257102,0.09433498,0,0.3,0,0,0,0,
6.38224E+17,48.20368,12.06315,18.74786,-7.171815,-9.839451,-130.8096,-16.98673,-0.4441859,-4.27255,-61.51973,-6.98289,34.57793,0,0,0,129.172,-75.05596,-52.87184,-36.05464,-110.6632,-50.32285,0.001067912,-0.1257102,0.09433498,0,0.3,0,0,0,0,
6.38224E+17,48.53352,10.96438,23.72082,-1.385447,-13.57495,-134.9114,-16.98673,-0.4441859,-4.27255,-61.51973,-6.909645,34.57793,0,0,0,138.2987,-73.37113,-46.13781,-36.05464,-110.6632,-50.32285,0.001067912,-0.1257102,0.09433498,0,0.3,0,0,0,0,
6.38224E+17,48.53352,10.49681,26.21898,1.031644,-15.77231,-137.8412,-16.98673,-0.4441859,-4.27255,-61.44649,-6.909645,34.57793,0,0,0,142.3998,-71.98608,-42.51372,-36.05464,-110.6632,-50.32285,0.001067912,-0.1257102,0.09433498,0,0.3,0,0,0,0,
6.38224E+17,48.53352,9.514929,30.37479,4.913638,-19.6543,-141.5767,-16.98673,-0.4441859,-4.27255,-61.44649,-6.98289,34.57793,0,0,0,149.0777,-69.65251,-36.61262,-36.05464,-110.6632,-50.32285,0.001067912,-0.1257102,0.09433498,0,0.3,0,0,0,0,
6.38224E+17,48.43928,8.06548,34.39052,8.575896,-23.38981,-141.8697,-16.98673,-0.4441859,-4.27255,-61.44649,-6.98289,34.50468,0,0,0,155.1511,-67.98171,-30.7905,-36.05464,-110.6632,-50.32285,0.001067912,-0.1257102,0.09433498,0,0.3,0,0,0,0,
6.38224E+17,48.20368,7.013461,36.67855,10.55352,-25.14769,-141.9429,-16.98673,-0.4441859,-4.27255,-61.44649,-6.98289,34.50468,0,0,0,158.0541,-67.31423,-27.0516,-36.05464,-110.6632,-50.32285,0.001067912,-0.1257102,0.09433498,0,0.3,0,0,0,0,
6.38224E+17,47.544,5.166583,40.1573,13.55657,-28.15074,-142.0894,-16.98673,-0.4441859,-4.27255,-61.44649,-6.98289,34.57793,0,0,0,161.4328,-66.55792,-20.65205,-36.05464,-110.6632,-50.32285,0.001067912,-0.1257102,0.09433498,0,0.3,0,0,0,0,
6.38224E+17,46.93144,3.576865,43.02901,15.46094,-30.49459,-141.9429,-16.98673,-0.4441859,-4.27255,-61.44649,-6.98289,34.57793,0,0,0,163.7017,-65.81058,-15.32903,-36.05464,-110.6632,-50.32285,0.001067912,-0.1257102,0.09433498,0,0.3,0,0,0,0,
6.38224E+17,46.24821,2.033904,45.76064,17.21883,-32.83843,-142.0162,-16.98673,-0.4441859,-4.27255,-61.44649,-6.98289,34.57793,0,0,0,165.2735,-64.94991,-10.12516,-36.05464,-110.6632,-50.32285,0.001067912,-0.1257102,0.09433498,0,0.3,0,0,0,0,
6.38224E+17,45.75344,1.285801,46.9747,18.02452,-33.79062,-142.0894,-16.98673,-0.4441859,-4.27255,-61.44649,-6.98289,34.57793,0,0,0,165.3338,-64.64522,-7.308317,-36.05464,-110.6632,-50.32285,0.001067912,-0.1257102,0.09433498,0,0.3,0,0,0,0,
6.38224E+17,44.08069,-0.04675641,48.86583,19.26969,-35.91473,-142.0894,-16.98673,-0.4441859,-4.27255,-61.44649,-6.909645,34.57793,0,0,0,162.6376,-64.47973,-0.4077739,-36.05464,-110.6632,-50.32285,0.001067912,-0.1257102,0.09433498,0,0.3,0,0,0,0,
6.38224E+17,42.64353,-0.6312115,49.68298,19.04996,-37.23314,-142.1627,-16.98673,-0.4441859,-4.27255,-61.51973,-6.909645,34.57793,0,0,0,159.2095,-64.39867,4.525237,-36.05464,-110.6632,-50.32285,0.001067912,-0.1257102,0.09433498,0,0.3,0,0,0,0,
6.38224E+17,40.59381,-0.7948589,49.89311,17.95128,-38.11209,-142.1627,-16.98673,-0.4441859,-4.27255,-61.44649,-6.909645,34.57793,0,0,0,153.1268,-64.40605,10.34517,-36.05464,-110.6632,-50.32285,0.001067912,-0.1257102,0.09433498,0,0.3,0,0,0,0,
6.38224E+17,38.82682,-0.9818845,49.70633,16.19339,-38.47831,-142.1627,-16.98673,-0.4441859,-4.27255,-61.44649,-6.98289,34.57793,0,0,0,147.3638,-65.17331,14.75802,-36.05464,-110.6632,-50.32285,0.001067912,-0.1257102,0.09433498,0,0.3,0,0,0,0,
6.38224E+17,37.69594,-0.9818845,49.65963,14.80174,-38.55156,-142.0894,-16.98673,-0.4441859,-4.27255,-61.44649,-6.909645,34.50468,0,0,0,143.6782,-65.25617,17.57513,-36.05464,-110.6632,-50.32285,0.001067912,-0.1257102,0.09433498,0,0.3,0,0,0,0,
6.38224E+17,35.08078,-0.9818845,49.0993,11.43246,-38.6248,-142.0162,-16.98673,-0.4441859,-4.27255,-61.51973,-6.98289,34.57793,0,0,0,134.5574,-66.24604,23.24233,-36.05464,-110.6632,-50.32285,0.001067912,-0.1257102,0.09433498,0,0.3,0,0,0,0,
6.38224E+17,32.15935,-0.9818845,48.28215,7.330729,-38.40507,-141.6499,-16.98673,-0.4441859,-4.27255,-61.44649,-6.98289,34.57793,0,0,0,123.9494,-67.67461,28.78844,-36.05464,-110.6632,-50.32285,0.001067912,-0.1257102,0.09433498,0,0.3,0,0,0,0,
6.38224E+17,30.60439,-0.9818845,48.02533,4.767147,-38.18533,-141.7232,-16.98673,-0.4441859,-4.27255,-61.44649,-6.98289,34.57793,0,0,0,118.3513,-68.11988,31.73609,-36.05464,-110.6632,-50.32285,0.001067912,-0.1257102,0.09433498,0,0.3,0,0,0,0,
6.38224E+17,26.69344,-0.9818845,47.72181,-1.605182,-37.37963,-137.0355,-16.98673,-0.4441859,-4.27255,-61.51973,-6.98289,34.57793,0,0,0,104.2157,-68.64379,38.91909,-36.05464,-110.6632,-50.32285,0.001067912,-0.1257102,0.09433498,0,0.3,0,0,0,0,
6.38224E+17,22.73536,-0.9818845,47.74516,-8.636719,-36.28096,-129.5645,-16.98673,-0.4441859,-4.27255,-61.51973,-6.98289,34.57793,0,0,0,89.67423,-68.60358,45.65207,-36.05464,-110.6632,-50.32285,0.001067912,-0.1257102,0.09433498,0,0.3,0,0,0,0,
6.38224E+17,18.96577,-0.9818845,47.8619,-15.96124,-34.81605,-124.5838,-16.98673,-0.4441859,-4.27255,-61.44649,-6.909645,34.57793,0,0,0,75.4701,-68.4023,51.25723,-36.05464,-110.6632,-50.32285,0.001067912,-0.1257102,0.09433498,0,0.3,0,0,0,0,
6.38224E+17,16.49197,-0.9818845,48.2588,-20.42919,-34.01036,-121.654,-16.98673,-0.4441859,-4.27255,-61.44649,-6.98289,34.57793,0,0,0,66.09624,-67.71516,54.90203,-36.05464,-110.6632,-50.32285,0.001067912,-0.1257102,0.09433498,0,0.3,0,0,0,0,
6.38224E+17,13.33494,-0.9818845,48.53897,-25.70284,-32.98492,-118.7242,-16.98673,-0.4441859,-4.27255,-61.51973,-6.98289,34.57793,0,0,0,53.80067,-67.22756,58.62457,-36.05464,-110.6632,-50.32285,0.001067912,-0.1257102,0.09433498,0,0.3,0,0,0,0,
6.38224E+17,9.753823,-0.9818845,48.79579,-31.78219,-31.37353,-116.5269,-16.98673,-0.4441859,-4.27255,-61.44649,-6.909645,34.57793,0,0,0,39.58532,-66.77874,61.9309,-36.05464,-110.6632,-50.32285,0.001067912,-0.1257102,0.09433498,0,0.3,0,0,0,0,
6.38224E+17,8.081067,-0.9818845,49.23938,-34.63876,-30.64108,-115.4282,-16.98673,-0.4441859,-4.27255,-61.44649,-6.98289,34.57793,0,0,0,32.94151,-65.99935,63.65866,-36.05464,-110.6632,-50.32285,0.001067912,-0.1257102,0.09433498,0,0.3,0,0,0,0,
6.38224E+17,4.664873,-0.9818845,50.17327,-40.13214,-29.46916,-112.4251,-16.98673,-0.4441859,-4.27255,-61.51973,-6.98289,34.57793,0,0,0,19.17223,-64.34153,66.61029,-36.05464,-110.6632,-50.32285,0.001067912,-0.1257102,0.09433498,0,0.3,0,0,0,0,
6.38224E+17,1.390038,-0.9818845,50.31336,-45.99176,-28.00425,-111.3264,-16.98673,-0.4441859,-4.27255,-61.51973,-6.98289,34.50468,0,0,0,5.723752,-64.09089,67.53027,-36.05464,-110.6632,-50.32285,0.001067912,-0.1257102,0.09433498,0,0.3,0,0,0,0,
6.38224E+17,-1.083758,-0.9818845,50.64022,-50.23997,-25.95339,-110.7405,-16.98673,-0.4441859,-4.27255,-61.44649,-6.98289,34.57793,0,0,0,-4.471914,-63.50408,68.04153,-36.05464,-110.6632,-50.32285,0.001067912,-0.1257102,0.09433498,0,0.3,0,0,0,0,
6.38224E+17,-2.426676,-0.9818845,50.96708,-51.92461,-24.92796,-109.7883,-16.98673,-0.4441859,-4.27255,-61.51973,-6.98289,34.57793,0,0,0,-10.03116,-62.91452,68.35214,-36.05464,-110.6632,-50.32285,0.001067912,-0.1257102,0.09433498,0,0.3,0,0,0,0,
6.38224E+17,-5.536591,-0.9818845,51.80758,-55.51363,-22.87709,-107.9572,-16.98673,-0.4441859,-4.27255,-61.44649,-6.909645,34.57793,0,0,0,-22.97564,-61.38601,68.67439,-36.05464,-110.6632,-50.32285,0.001067912,-0.1257102,0.09433498,0,0.3,0,0,0,0,
6.38224E+17,-8.717185,-0.9585064,53.53528,-59.90833,-19.80079,-105.3203,-16.98673,-0.4441859,-4.27255,-61.51973,-6.98289,34.57793,0,0,0,-36.46082,-58.13432,69.44547,-36.05464,-110.6632,-50.32285,0.001067912,-0.1257102,0.09433498,0,0.3,0,0,0,0,
6.38224E+17,-10.6491,-0.8416153,55.37971,-62.47192,-17.82317,-101.5848,-16.98673,-0.4441859,-4.27255,-61.51973,-6.98289,34.57793,0,0,0,-44.91854,-54.36952,70.53765,-36.05464,-110.6632,-50.32285,0.001067912,-0.1257102,0.09433498,0,0.3,0,0,0,0,
6.38224E+17,-12.01558,-0.6779679,56.59377,-64.37629,-16.65125,-98.80152,-16.98673,-0.4441859,-4.27255,-61.51973,-6.98289,34.57793,0,0,0,-50.93267,-51.64657,70.94941,-36.05464,-110.6632,-50.32285,0.001067912,-0.1257102,0.09433498,0,0.3,0,0,0,0,
6.38224E+17,-14.72498,-0.04675641,57.90122,-68.11179,-14.30741,-94.91953,-16.98673,-0.4441859,-4.27255,-61.44649,-6.98289,34.57793,0,0,0,-62.60828,-47.61842,69.87545,-36.05464,-110.6632,-50.32285,0.001067912,-0.1257102,0.09433498,0,0.3,0,0,0,0,
6.38224E+17,-17.26945,0.6312115,58.57829,-71.48107,-11.89032,-92.94191,-16.98673,-0.4441859,-4.27255,-61.44649,-6.98289,34.57793,0,0,0,-73.36639,-44.70071,67.64546,-36.05464,-110.6632,-50.32285,0.001067912,-0.1257102,0.09433498,0,0.3,0,0,0,0,
6.38224E+17,-19.83749,1.42607,59.39544,-74.19114,-9.25349,-90.96429,-16.98673,-0.4441859,-4.27255,-61.44649,-6.98289,34.57793,0,0,0,-84.1879,-41.22111,65.01173,-36.05464,-110.6632,-50.32285,0.001067912,-0.1257102,0.09433498,0,0.3,0,0,0,0,
6.38224E+17,-21.34533,1.893635,59.83904,-75.65604,-7.861832,-90.15859,-16.98673,-0.4441859,-4.27255,-61.51973,-6.98289,34.57793,0,0,0,-90.47795,-39.24273,63.17262,-36.05464,-110.6632,-50.32285,0.001067912,-0.1257102,0.09433498,0,0.3,0,0,0,0,
6.38224E+17,-24.62016,2.898897,60.81963,-78.80559,-5.00527,-89.05991,-16.98673,-0.4441859,-4.27255,-61.51973,-6.98289,34.57793,0,0,0,-103.9859,-34.9222,58.56403,-36.05464,-110.6632,-50.32285,0.001067912,-0.1257102,0.09433498,0,0.3,0,0,0,0,
6.38224E+17,-27.75363,3.623622,61.52005,-81.44242,-2.295199,-88.18098,-16.98673,-0.4441859,-4.27255,-61.44649,-6.909645,34.57793,0,0,0,-116.5555,-31.81013,53.1514,-36.05464,-110.6632,-50.32285,0.001067912,-0.1257102,0.09433498,0,0.3,0,0,0,0,
6.38224E+17,-29.87403,4.021051,61.91695,-82.76083,-0.3908245,-87.37527,-16.98673,-0.4441859,-4.27255,-61.51973,-6.909645,34.57793,0,0,0,-124.8584,-30.07374,49.0133,-36.05464,-110.6632,-50.32285,0.001067912,-0.1257102,0.09433498,0,0.3,0,0,0,0,
6.38224E+17,-32.32427,4.41848,62.2905,-83.71302,1.51355,-85.39766,-16.98673,-0.4441859,-4.27255,-61.44649,-6.909645,34.57793,0,0,0,-134.218,-28.38289,43.76289,-36.05464,-110.6632,-50.32285,0.001067912,-0.1257102,0.09433498,0,0.3,0,0,0,0,
6.38224E+17,-35.76402,4.699019,62.57067,-84.44547,4.296866,-82.17487,-16.98673,-0.4441859,-4.27255,-61.51973,-6.98289,34.50468,0,0,0,-146.8488,-27.15401,35.53059,-36.05464,-110.6632,-50.32285,0.001067912,-0.1257102,0.09433498,0,0.3,0,0,0,0,
6.38224E+17,-37.31898,4.699019,62.57067,-84.59196,5.688524,-80.56348,-16.98673,-0.4441859,-4.27255,-61.44649,-6.909645,34.57793,0,0,0,-152.3272,-27.15401,31.47065,-36.05464,-110.6632,-50.32285,0.001067912,-0.1257102,0.09433498,0,0.3,0,0,0,0,
6.38224E+17,-40.38177,4.675641,62.3839,-84.8117,8.471841,-76.3885,-16.98673,-0.4441859,-4.27255,-61.44649,-6.98289,34.57793,0,0,0,-162.6588,-27.59375,22.89669,-36.05464,-110.6632,-50.32285,0.001067912,-0.1257102,0.09433498,0,0.3,0,0,0,0,
6.38224E+17,-43.02049,4.605506,62.24381,-84.59196,10.81569,-72.36002,-16.98673,-0.4441859,-4.27255,-61.44649,-6.98289,34.57793,0,0,0,-171.1966,-28.04515,15.10433,-36.05464,-110.6632,-50.32285,0.001067912,-0.1257102,0.09433498,0,0.3,0,0,0,0,
6.38224E+17,-44.97597,4.535372,61.9403,-84.22573,12.72006,-67.81882,-16.98673,-0.4441859,-4.27255,-61.44649,-6.98289,34.57793,0,0,0,-177.1324,-28.8321,8.93108,-36.05464,-110.6632,-50.32285,0.001067912,-0.1257102,0.09433498,0,0.3,0,0,0,0,
6.38224E+17,-46.38956,4.535372,61.54339,-83.71302,14.84417,-63.05788,-16.98673,-0.4441859,-4.27255,-61.51973,-6.98289,34.57793,0,0,0,-181.1353,-29.64576,4.205712,-36.05464,-110.6632,-50.32285,0.001067912,-0.1257102,0.09433498,0,0.3,0,0,0,0,
6.38224E+17,-47.0728,4.535372,61.40331,-83.34679,16.01609,-60.42105,-16.98673,-0.4441859,-4.27255,-61.51973,-6.98289,34.57793,0,0,0,-183.066,-29.93221,1.927455,-36.05464,-110.6632,-50.32285,0.001067912,-0.1257102,0.09433498,0,0.3,0,0,0,0,
6.38224E+17,-48.6042,4.582128,61.40331,-82.54109,18.21345,-55.36714,-16.98673,-0.4441859,-4.27255,-61.51973,-6.98289,34.57793,0,0,0,-187.5448,-29.82373,-3.031475,-36.05464,-110.6632,-50.32285,0.001067912,-0.1257102,0.09433498,0,0.3,0,0,0,0,
6.38224E+17,-50.27696,4.582128,61.21653,-81.80864,20.04458,-50.53296,-16.98673,-0.4441859,-4.27255,-61.44649,-6.98289,34.57793,0,0,0,-192.1301,-30.20507,-8.709908,-36.05464,-110.6632,-50.32285,0.001067912,-0.1257102,0.09433498,0,0.3,0,0,0,0,
6.38224E+17,-51.17223,4.582128,60.81963,-81.44242,20.70378,-47.96938,-16.98673,-0.4441859,-4.27255,-61.44649,-6.98289,34.57793,0,0,0,-194.2524,-31.01314,-12.01204,-36.05464,-110.6632,-50.32285,0.001067912,-0.1257102,0.09433498,0,0.3,0,0,0,0,
6.38224E+17,-52.91567,4.582128,59.60557,-80.49023,22.09544,-43.13519,-16.98673,-0.4441859,-4.27255,-61.44649,-6.98289,34.57793,0,0,0,-197.7991,-33.46536,-18.84076,-36.05464,-110.6632,-50.32285,0.001067912,-0.1257102,0.09433498,0,0.3,0,0,0,0,
6.38224E+17,-54.18791,4.675641,58.88181,-79.75778,23.78008,-38.66724,-16.98673,-0.4441859,-4.27255,-61.44649,-6.98289,34.57793,0,0,0,-200.3571,-34.69598,-23.78365,-36.05464,-110.6632,-50.32285,0.001067912,-0.1257102,0.09433498,0,0.3,0,0,0,0,
6.38224E+17,-54.56487,4.932801,58.60164,-79.53804,24.80551,-36.68962,-16.98673,-0.4441859,-4.27255,-61.44649,-6.98289,34.57793,0,0,0,-200.9873,-34.65697,-25.33019,-36.05464,-110.6632,-50.32285,0.001067912,-0.1257102,0.09433498,0,0.3,0,0,0,0,
6.38224E+17,-54.89471,6.265358,57.31754,-79.39155,26.85638,-33.54007,-16.98673,-0.4441859,-4.27255,-61.44649,-6.98289,34.57793,0,0,0,-200.2627,-34.10377,-27.57538,-36.05464,-110.6632,-50.32285,0.001067912,-0.1257102,0.09433498,0,0.3,0,0,0,0,
6.38224E+17,-54.54131,9.281147,54.30574,-79.4648,28.39453,-32.07517,-16.98673,-0.4441859,-4.27255,-61.51973,-6.98289,34.57793,0,0,0,-195.4095,-32.94781,-29.17822,-36.05464,-110.6632,-50.32285,0.001067912,-0.1257102,0.09433498,0,0.3,0,0,0,0,
6.38224E+17,-53.66959,13.79314,49.37947,-79.83102,28.61426,-31.26948,-16.98673,-0.4441859,-4.27255,-61.51973,-6.909645,34.57793,0,0,0,-185.8731,-31.67409,-31.6607,-36.05464,-110.6632,-50.32285,0.001067912,-0.1257102,0.09433498,0,0.3,0,0,0,0,
6.38224E+17,-52.32668,18.95972,42.46867,-80.63672,27.44234,-32.95412,-16.98673,-0.4441859,-4.27255,-61.51973,-6.909645,34.57793,0,0,0,-171.0857,-31.6893,-36.2471,-36.05464,-110.6632,-50.32285,0.001067912,-0.1257102,0.09433498,0,0.3,0,0,0,0,
6.38224E+17,-49.9,23.63536,34.50726,-80.85645,25.61121,-38.66724,-16.98673,-0.4441859,-4.27255,-61.51973,-6.98289,34.50468,0,0,0,-151.2312,-33.0757,-41.00148,-36.05464,-110.6632,-50.32285,0.001067912,-0.1257102,0.09433498,0,0.3,0,0,0,0,
6.38224E+17,-48.10944,25.80954,30.35144,-80.27049,24.65902,-42.69572,-16.98673,-0.4441859,-4.27255,-61.51973,-6.98289,34.57793,0,0,0,-139.5269,-33.66529,-43.20116,-36.05464,-110.6632,-50.32285,0.001067912,-0.1257102,0.09433498,0,0.3,0,0,0,0,
6.38224E+17,-43.25609,29.29289,23.13714,-77.1942,22.46167,-51.33865,-16.98673,-0.4441859,-4.27255,-61.44649,-6.98289,34.57793,0,0,0,-115.6008,-34.02954,-45.48888,-36.05464,-110.6632,-50.32285,0.001067912,-0.1257102,0.09433498,0,0.3,0,0,0,0,
6.38224E+17,-36.7771,31.2099,18.21087,-72.5065,20.77703,-60.71403,-16.98673,-0.4441859,-4.27255,-61.44649,-6.98289,34.57793,0,0,0,-93.23296,-34.22226,-43.61901,-36.05464,-110.6632,-50.32285,0.001067912,-0.1257102,0.09433498,0,0.3,0,0,0,0,
6.38224E+17,-33.50227,31.56057,17.0902,-69.94292,20.26431,-65.10874,-16.98673,-0.4441859,-4.27255,-61.44649,-6.98289,34.57793,0,0,0,-84.34891,-34.31635,-40.92365,-36.05464,-110.6632,-50.32285,0.001067912,-0.1257102,0.09433498,0,0.3,0,0,0,0,
6.38224E+17,-26.45784,31.44369,16.48317,-64.66927,19.89809,-74.04465,-16.98673,-0.4441859,-4.27255,-61.44649,-6.98289,34.57793,0,0,0,-67.54546,-34.95634,-32.62473,-36.05464,-110.6632,-50.32285,0.001067912,-0.1257102,0.09433498,0,0.3,0,0,0,0,
6.38224E+17,-19.95529,30.74234,16.90342,-59.76185,19.97133,-81.95513,-16.98673,-0.4441859,-4.27255,-61.44649,-6.98289,34.57793,0,0,0,-52.34782,-36.07317,-24.17556,-36.05464,-110.6632,-50.32285,0.001067912,-0.1257102,0.09433498,0,0.3,0,0,0,0,
6.38224E+17,-16.49197,30.2514,17.39371,-57.12502,20.04458,-85.98362,-16.98673,-0.4441859,-4.27255,-61.51973,-6.98289,34.57793,0,0,0,-44.01687,-36.72126,-19.67504,-36.05464,-110.6632,-50.32285,0.001067912,-0.1257102,0.09433498,0,0.3,0,0,0,0,
6.38224E+17,-10.13078,29.12924,18.39765,-51.63163,20.55729,-91.76999,-16.98673,-0.4441859,-4.27255,-61.44649,-6.98289,34.57793,0,0,0,-27.89195,-38.27207,-12.2513,-36.05464,-110.6632,-50.32285,0.001067912,-0.1257102,0.09433498,0,0.3,0,0,0,0,
6.38224E+17,-4.311473,28.40452,18.84124,-45.55228,21.50948,-94.5533,-16.98673,-0.4441859,-4.27255,-61.44649,-6.909645,34.57793,0,0,0,-12.05569,-39.42098,-8.442681,-36.05464,-110.6632,-50.32285,0.001067912,-0.1257102,0.09433498,0,0.3,0,0,0,0,
6.38224E+17,-1.460718,28.311,18.84124,-42.62248,21.94895,-95.94496,-16.98673,-0.4441859,-4.27255,-61.44649,-6.909645,34.57793,0,0,0,-4.090492,-39.6125,-7.937646,-36.05464,-110.6632,-50.32285,0.001067912,-0.1257102,0.09433498,0,0.3,0,0,0,0,
6.38224E+17,7.939706,28.38114,19.12141,-33.54007,23.26737,-104.0019,-16.98673,-0.4441859,-4.27255,-61.44649,-6.98289,34.57793,0,0,0,22.23958,-39.25675,-8.889784,-36.05464,-110.6632,-50.32285,0.001067912,-0.1257102,0.09433498,0,0.3,0,0,0,0,
6.38224E+17,11.09674,28.40452,19.35488,-30.75676,23.56034,-107.2247,-16.98673,-0.4441859,-4.27255,-61.51973,-6.98289,34.57793,0,0,0,31.08151,-39.02985,-9.878527,-36.05464,-110.6632,-50.32285,0.001067912,-0.1257102,0.09433498,0,0.3,0,0,0,0,
6.38224E+17,18.58881,28.47465,20.47555,-23.65198,24.07306,-114.2563,-16.98673,-0.4441859,-4.27255,-61.51973,-6.98289,34.57793,0,0,0,52.23601,-37.99788,-13.03348,-36.05464,-110.6632,-50.32285,0.001067912,-0.1257102,0.09433498,0,0.3,0,0,0,0,
6.38224E+17,27.04683,28.61492,23.0204,-14.86256,23.78008,-120.4821,-16.98673,-0.4441859,-4.27255,-61.44649,-6.98289,34.57793,0,0,0,76.943,-35.51671,-17.64553,-36.05464,-110.6632,-50.32285,0.001067912,-0.1257102,0.09433498,0,0.3,0,0,0,0,
6.38224E+17,31.42899,28.61492,25.02827,-9.735395,23.26737,-124.2908,-16.98673,-0.4441859,-4.27255,-61.44649,-6.98289,34.57793,0,0,0,90.4587,-33.61428,-20.32332,-36.05464,-110.6632,-50.32285,0.001067912,-0.1257102,0.09433498,0,0.3,0,0,0,0,
6.38224E+17,38.73257,28.61492,30.07128,0.1527017,21.58273,-132.2746,-16.98673,-0.4441859,-4.27255,-61.44649,-6.98289,34.57793,0,0,0,115.0518,-28.18741,-24.90905,-36.05464,-110.6632,-50.32285,0.001067912,-0.1257102,0.09433498,0,0.3,0,0,0,0,
6.38224E+17,44.69325,28.68506,36.3517,10.11404,19.16564,-140.8443,-16.98673,-0.4441859,-4.27255,-61.51973,-6.98289,34.57793,0,0,0,137.8672,-20.04198,-28.99855,-36.05464,-110.6632,-50.32285,0.001067912,-0.1257102,0.09433498,0,0.3,0,0,0,0,
6.38224E+17,49.28744,29.10587,41.93169,18.90347,16.74854,-142.0162,-16.98673,-0.4441859,-4.27255,-61.51973,-6.909645,34.50468,0,0,0,155.8591,-10.98993,-34.23054,-36.05464,-110.6632,-50.32285,0.001067912,-0.1257102,0.09433498,0,0.3,0,0,0,0,
6.38224E+17,51.05444,29.69032,44.4065,22.93195,15.57662,-142.0894,-16.98673,-0.4441859,-4.27255,-61.44649,-6.909645,34.57793,0,0,0,162.6682,-5.864509,-36.87955,-36.05464,-110.6632,-50.32285,0.001067912,-0.1257102,0.09433498,0,0.3,0,0,0,0,
6.38224E+17,54.14079,32.30868,48.51562,31.35514,13.23278,-142.0894,-16.98673,-0.4441859,-4.27255,-61.44649,-6.909645,34.57793,0,0,0,172.3053,6.289798,-43.80858,-36.05464,-110.6632,-50.32285,0.001067912,-0.1257102,0.09433498,0,0.3,0,0,0,0,
6.38224E+17,55.29523,34.90366,49.68298,36.26257,11.76787,-142.0894,-16.98673,-0.4441859,-4.27255,-61.44649,-6.98289,34.50468,0,0,0,173.4941,13.37301,-48.19561,-36.05464,-110.6632,-50.32285,0.001067912,-0.1257102,0.09433498,0,0.3,0,0,0,0,
6.38224E+17,55.29523,36.82067,49.70633,38.89939,11.03542,-142.0894,-16.98673,-0.4441859,-4.27255,-61.44649,-6.98289,34.57793,0,0,0,171.3743,17.03013,-49.66369,-36.05464,-110.6632,-50.32285,0.001067912,-0.1257102,0.09433498,0,0.3,0,0,0,0,
6.38224E+17,55.20099,40.98199,49.44951,42.41516,9.936745,-142.1627,-16.98673,-0.4441859,-4.27255,-61.51973,-6.98289,34.57793,0,0,0,165.8674,24.11061,-53.0734,-36.05464,-110.6632,-50.32285,0.001067912,-0.1257102,0.09433498,0,0.3,0,0,0,0,
6.38224E+17,54.68267,46.92005,49.35612,45.27173,8.471841,-142.0162,-16.98673,-0.4441859,-4.27255,-61.51973,-6.98289,34.57793,0,0,0,156.8793,33.89077,-57.20201,-36.05464,-110.6632,-50.32285,0.001067912,-0.1257102,0.09433498,0,0.3,0,0,0,0,
6.38224E+17,53.48111,53.44257,48.93587,47.1761,5.90826,-141.9429,-16.98673,-0.4441859,-4.27255,-61.51973,-6.98289,34.57793,0,0,0,144.6345,42.86669,-61.25232,-36.05464,-110.6632,-50.32285,0.001067912,-0.1257102,0.09433498,0,0.3,0,0,0,0,
6.38224E+17,52.51515,56.85579,48.35219,47.68882,4.003886,-141.7964,-16.98673,-0.4441859,-4.27255,-61.44649,-6.909645,34.57793,0,0,0,136.9239,46.38582,-63.34209,-36.05464,-110.6632,-50.32285,0.001067912,-0.1257102,0.09433498,0,0.3,0,0,0,0,
6.38224E+17,49.97068,62.34967,46.67118,47.24934,-0.171089,-141.7232,-16.98673,-0.4441859,-4.27255,-61.44649,-6.98289,34.57793,0,0,0,121.6621,49.96825,-66.15725,-36.05464,-110.6632,-50.32285,0.001067912,-0.1257102,0.09433498,0,0.3,0,0,0,0,
6.38224E+17,46.17752,66.90842,44.71001,44.68576,-4.932025,-138.5004,-16.98673,-0.4441859,-4.27255,-61.44649,-6.909645,34.50468,0,0,0,105.4199,51.24717,-67.17657,-36.05464,-110.6632,-50.32285,0.001067912,-0.1257102,0.09433498,0,0.3,0,0,0,0,
6.38224E+17,43.18541,69.24624,43.37922,42.12218,-7.642097,-132.714,-16.98673,-0.4441859,-4.27255,-61.44649,-6.98289,34.57793,0,0,0,95.01734,51.12522,-67.11516,-36.05464,-110.6632,-50.32285,0.001067912,-0.1257102,0.09433498,0,0.3,0,0,0,0,
6.38224E+17,39.36869,71.37366,41.48809,38.75291,-10.35217,-126.0487,-16.98673,-0.4441859,-4.27255,-61.44649,-6.909645,34.57793,0,0,0,83.05058,49.82374,-67.12986,-36.05464,-110.6632,-50.32285,0.001067912,-0.1257102,0.09433498,0,0.3,0,0,0,0,
6.38224E+17,33.69075,72.96337,38.19613,33.40601,-12.76926,-117.8453,-16.98673,-0.4441859,-4.27255,-61.44649,-6.909645,34.57793,0,0,0,67.41222,46.0487,-67.23425,-36.05464,-110.6632,-50.32285,0.001067912,-0.1257102,0.09433498,0,0.3,0,0,0,0,
6.38224E+17,30.43947,73.1504,36.07153,29.96349,-13.57495,-113.3773,-16.98673,-0.4441859,-4.27255,-61.44649,-6.98289,34.57793,0,0,0,59.36091,43.19065,-67.33129,-36.05464,-110.6632,-50.32285,0.001067912,-0.1257102,0.09433498,0,0.3,0,0,0,0,
6.38224E+17,20.61497,71.42041,29.34751,17.87803,-14.16092,-100.9989,-16.98673,-0.4441859,-4.27255,-61.51973,-6.98289,34.57793,0,0,0,37.97029,33.51378,-67.41174,-36.05464,-110.6632,-50.32285,0.001067912,-0.1257102,0.09433498,0,0.3,0,0,0,0,
6.38224E+17,17.99981,69.94759,27.363,13.48332,-13.72145,-97.84933,-16.98673,-0.4441859,-4.27255,-61.51973,-6.98289,34.57793,0,0,0,33.06886,30.18644,-66.57336,-36.05464,-110.6632,-50.32285,0.001067912,-0.1257102,0.09433498,0,0.3,0,0,0,0,
6.38224E+17,15.31397,65.69276,23.25388,5.353109,-12.1833,-92.42919,-16.98673,-0.4441859,-4.27255,-61.51973,-6.98289,34.57793,0,0,0,28.40173,22.36144,-64.63016,-36.05464,-110.6632,-50.32285,0.001067912,-0.1257102,0.09433498,0,0.3,0,0,0,0,
6.38224E+17,16.11501,61.41454,20.0553,1.104889,-9.180244,-89.71912,-16.98673,-0.4441859,-4.27255,-61.51973,-6.98289,34.57793,0,0,0,30.40272,15.18129,-63.12079,-36.05464,-110.6632,-50.32285,0.001067912,-0.1257102,0.09433498,0,0.3,0,0,0,0,
6.38224E+17,17.05741,59.21699,18.91129,0.2259469,-7.27587,-89.13316,-16.98673,-0.4441859,-4.27255,-61.44649,-6.909645,34.57793,0,0,0,32.69635,11.76057,-61.78706,-36.05464,-110.6632,-50.32285,0.001067912,-0.1257102,0.09433498,0,0.3,0,0,0,0,
6.38224E+17,19.31917,54.96216,17.41706,0.4456824,-3.467122,-88.62045,-16.98673,-0.4441859,-4.27255,-61.44649,-6.98289,34.57793,0,0,0,38.53295,5.297313,-58.43506,-36.05464,-110.6632,-50.32285,0.001067912,-0.1257102,0.09433498,0,0.3,0,0,0,0,
6.38224E+17,22.40552,51.08138,17.06685,2.423302,-0.09784385,-88.76694,-16.98673,-0.4441859,-4.27255,-61.44649,-6.98289,34.57793,0,0,0,46.84798,-0.3761667,-54.71936,-36.05464,-110.6632,-50.32285,0.001067912,-0.1257102,0.09433498,0,0.3,0,0,0,0,
6.38224E+17,24.07828,49.37476,17.0902,3.96145,1.440305,-89.20641,-16.98673,-0.4441859,-4.27255,-61.44649,-6.98289,34.57793,0,0,0,51.41166,-2.901107,-53.3008,-36.05464,-110.6632,-50.32285,0.001067912,-0.1257102,0.09433498,0,0.3,0,0,0,0,
6.38224E+17,27.84787,45.68101,17.60384,8.209671,4.077131,-91.33051,-16.98673,-0.4441859,-4.27255,-61.44649,-6.98289,34.57793,0,0,0,62.35886,-8.348523,-50.31506,-36.05464,-110.6632,-50.32285,0.001067912,-0.1257102,0.09433498,0,0.3,0,0,0,0,
6.38224E+17,31.47611,41.51969,18.70116,13.62981,6.420976,-94.04059,-16.98673,-0.4441859,-4.27255,-61.51973,-6.98289,34.57793,0,0,0,74.45715,-14.56493,-46.73316,-36.05464,-110.6632,-50.32285,0.001067912,-0.1257102,0.09433498,0,0.3,0,0,0,0,
6.38224E+17,34.3033,37.56877,19.93857,18.17101,8.178861,-97.99583,-16.98673,-0.4441859,-4.27255,-61.51973,-6.98289,34.57793,0,0,0,85.19552,-20.70158,-43.47351,-36.05464,-110.6632,-50.32285,0.001067912,-0.1257102,0.09433498,0,0.3,0,0,0,0,
6.38224E+17,35.57554,35.34784,20.9425,20.44161,9.277537,-100.7059,-16.98673,-0.4441859,-4.27255,-61.51973,-6.98289,34.57793,0,0,0,91.00775,-24.04268,-41.117,-36.05464,-110.6632,-50.32285,0.001067912,-0.1257102,0.09433498,0,0.3,0,0,0,0,
6.38224E+17,37.46034,30.69558,23.74417,24.76308,11.3284,-106.419,-16.98673,-0.4441859,-4.27255,-61.44649,-6.98289,34.50468,0,0,0,102.3988,-30.6402,-34.7098,-36.05464,-110.6632,-50.32285,0.001067912,-0.1257102,0.09433498,0,0.3,0,0,0,0,
6.38224E+17,38.14358,26.0667,26.63923,28.49858,13.08629,-111.6927,-16.98673,-0.4441859,-4.27255,-61.44649,-6.909645,34.57793,0,0,0,110.9125,-37.24829,-27.11939,-36.05464,-110.6632,-50.32285,0.001067912,-0.1257102,0.09433498,0,0.3,0,0,0,0,
6.38224E+17,37.74306,21.60146,28.95061,30.91567,15.28364,-115.8676,-16.98673,-0.4441859,-4.27255,-61.44649,-6.909645,34.57793,0,0,0,115.4052,-44.24366,-19.26475,-36.05464,-110.6632,-50.32285,0.001067912,-0.1257102,0.09433498,0,0.3,0,0,0,0,
6.38224E+17,36.58862,17.79081,30.35144,32.16084,17.481,-117.9185,-16.98673,-0.4441859,-4.27255,-61.51973,-6.98289,34.57793,0,0,0,115.8484,-50.97923,-12.29532,-36.05464,-110.6632,-50.32285,0.001067912,-0.1257102,0.09433498,0,0.3,0,0,0,0,
6.38224E+17,35.64622,16.15434,30.65496,32.52707,18.57967,-118.2115,-16.98673,-0.4441859,-4.27255,-61.44649,-6.909645,34.57793,0,0,0,114.2686,-54.26339,-9.01298,-36.05464,-110.6632,-50.32285,0.001067912,-0.1257102,0.09433498,0,0.3,0,0,0,0,
6.38224E+17,32.70123,13.65287,30.37479,32.23409,20.55729,-118.1382,-16.98673,-0.4441859,-4.27255,-61.44649,-6.98289,34.57793,0,0,0,106.4368,-60.22009,-2.565393,-36.05464,-110.6632,-50.32285,0.001067912,-0.1257102,0.09433498,0,0.3,0,0,0,0,
6.38224E+17,28.81383,12.32031,29.09069,30.76918,22.82789,-116.9663,-16.98673,-0.4441859,-4.27255,-61.44649,-6.98289,34.57793,0,0,0,94.03761,-64.72427,2.60599,-36.05464,-110.6632,-50.32285,0.001067912,-0.1257102,0.09433498,0,0.3,0,0,0,0,
6.38224E+17,26.64632,12.13329,28.13346,29.59726,23.99982,-114.9887,-16.98673,-0.4441859,-4.27255,-61.51973,-6.98289,34.57793,0,0,0,86.66875,-66.21654,4.374625,-36.05464,-110.6632,-50.32285,0.001067912,-0.1257102,0.09433498,0,0.3,0,0,0,0,
6.38224E+17,20.70921,12.29694,25.21505,26.59421,26.49015,-108.3234,-16.98673,-0.4441859,-4.27255,-61.44649,-6.909645,34.57793,0,0,0,66.16323,-68.89314,6.660857,-36.05464,-110.6632,-50.32285,0.001067912,-0.1257102,0.09433498,0,0.3,0,0,0,0,
6.38224E+17,12.8873,12.41383,21.80634,21.83327,28.90724,-103.0497,-16.98673,-0.4441859,-4.27255,-61.44649,-6.98289,34.57793,0,0,0,40.09437,-71.79172,6.889713,-36.05464,-110.6632,-50.32285,0.001067912,-0.1257102,0.09433498,0,0.3,0,0,0,0,
6.38224E+17,7.539187,12.5541,20.102,17.43856,30.15241,-101.4383,-16.98673,-0.4441859,-4.27255,-61.44649,-6.909645,34.57793,0,0,0,23.09105,-72.89149,6.121748,-36.05464,-110.6632,-50.32285,0.001067912,-0.1257102,0.09433498,0,0.3,0,0,0,0,
6.38224E+17,-1.625637,13.34895,18.11748,7.477218,31.98354,-100.5594,-16.98673,-0.4441859,-4.27255,-61.44649,-6.909645,34.57793,0,0,0,-4.85717,-72.60063,2.7956,-36.05464,-110.6632,-50.32285,0.001067912,-0.1257102,0.09433498,0,0.3,0,0,0,0,
6.38224E+17,-10.27214,14.23733,17.97739,-4.534989,32.78923,-101.5116,-16.98673,-0.4441859,-4.27255,-61.51973,-6.98289,34.57793,0,0,0,-30.38844,-70.69369,-0.6698056,-36.05464,-110.6632,-50.32285,0.001067912,-0.1257102,0.09433498,0,0.3,0,0,0,0,
6.38224E+17,-18.65949,15.56988,19.49497,-19.62349,32.05679,-105.4668,-16.98673,-0.4441859,-4.27255,-61.44649,-6.909645,34.57793,0,0,0,-55.33694,-66.56221,-4.482611,-36.05464,-110.6632,-50.32285,0.001067912,-0.1257102,0.09433498,0,0.3,0,0,0,0,
6.38224E+17,-22.005,16.34136,20.42886,-27.16775,31.03135,-107.5909,-16.98673,-0.4441859,-4.27255,-61.44649,-6.98289,34.57793,0,0,0,-65.38598,-64.09383,-6.5547,-36.05464,-110.6632,-50.32285,0.001067912,-0.1257102,0.09433498,0,0.3,0,0,0,0,
6.38224E+17,-26.83479,17.27649,21.80634,-40.57161,28.39453,-110.301,-16.98673,-0.4441859,-4.27255,-61.44649,-6.98289,34.57793,0,0,0,-79.84222,-60.8554,-10.5275,-36.05464,-110.6632,-50.32285,0.001067912,-0.1257102,0.09433498,0,0.3,0,0,0,0,
6.38224E+17,-28.83739,17.34663,21.59622,-50.38646,25.97744,-111.3997,-16.98673,-0.4441859,-4.27255,-61.51973,-6.98289,34.57793,0,0,0,-85.06594,-60.8804,-13.85454,-36.05464,-110.6632,-50.32285,0.001067912,-0.1257102,0.09433498,0,0.3,0,0,0,0,
6.38224E+17,-28.97875,17.34663,20.82576,-53.97548,25.09849,-111.4729,-16.98673,-0.4441859,-4.27255,-61.51973,-6.98289,34.57793,0,0,0,-84.63696,-61.52916,-15.52726,-36.05464,-110.6632,-50.32285,0.001067912,-0.1257102,0.09433498,0,0.3,0,0,0,0,
6.38224E+17,-28.38975,17.67392,18.23421,-58.22369,24.21955,-111.4729,-16.98673,-0.4441859,-4.27255,-61.51973,-6.98289,34.57793,0,0,0,-80.24994,-62.8189,-19.86737,-36.05464,-110.6632,-50.32285,0.001067912,-0.1257102,0.09433498,0,0.3,0,0,0,0,
6.38224E+17,-26.64632,18.70256,14.45196,-59.83509,23.85333,-112.8646,-16.98673,-0.4441859,-4.27255,-61.51973,-6.98289,34.57793,0,0,0,-71.57253,-63.02105,-25.71109,-36.05464,-110.6632,-50.32285,0.001067912,-0.1257102,0.09433498,0,0.3,0,0,0,0,
6.38224E+17,-24.95,19.49742,12.04719,-59.54211,23.78008,-114.9887,-16.98673,-0.4441859,-4.27255,-61.44649,-6.909645,34.57793,0,0,0,-64.76553,-62.55562,-29.14284,-36.05464,-110.6632,-50.32285,0.001067912,-0.1257102,0.09433498,0,0.3,0,0,0,0,
6.38224E+17,-20.59141,21.04038,8.101501,-56.83204,24.14631,-118.1382,-16.98673,-0.4441859,-4.27255,-61.44649,-6.909645,34.57793,0,0,0,-50.38186,-60.79306,-34.25016,-36.05464,-110.6632,-50.32285,0.001067912,-0.1257102,0.09433498,0,0.3,0,0,0,0,
6.38224E+17,-15.62025,22.51321,5.673386,-51.77813,24.95201,-118.8707,-16.98673,-0.4441859,-4.27255,-61.44649,-6.98289,34.57793,0,0,0,-36.71908,-58.28756,-37.01628,-36.05464,-110.6632,-50.32285,0.001067912,-0.1257102,0.09433498,0,0.3,0,0,0,0,
6.38224E+17,-10.22502,24.14968,5.089704,-43.28168,26.34366,-118.358,-16.98673,-0.4441859,-4.27255,-61.44649,-6.909645,34.57793,0,0,0,-23.69986,-54.9178,-36.96101,-36.05464,-110.6632,-50.32285,0.001067912,-0.1257102,0.09433498,0,0.3,0,0,0,0,
6.38224E+17,-8.057507,24.9913,5.509954,-37.86154,27.07611,-116.5269,-16.98673,-0.4441859,-4.27255,-61.51973,-6.98289,34.57793,0,0,0,-18.73595,-53.04607,-36.0008,-36.05464,-110.6632,-50.32285,0.001067912,-0.1257102,0.09433498,0,0.3,0,0,0,0,
6.38224E+17,-7.374268,25.38873,6.116984,-34.78524,27.14936,-115.5014,-16.98673,-0.4441859,-4.27255,-61.51973,-6.98289,34.57793,0,0,0,-17.28629,-52.06596,-34.78333,-36.05464,-110.6632,-50.32285,0.001067912,-0.1257102,0.09433498,0,0.3,0,0,0,0,
6.38224E+17,-7.633427,25.7394,8.03146,-30.46378,26.63664,-114.769,-16.98673,-0.4441859,-4.27255,-61.44649,-6.98289,34.57793,0,0,0,-18.43082,-50.78098,-30.82951,-36.05464,-110.6632,-50.32285,0.001067912,-0.1257102,0.09433498,0,0.3,0,0,0,0,
6.38224E+17,-9.353305,25.71602,10.50627,-29.14537,25.46472,-114.6957,-16.98673,-0.4441859,-4.27255,-61.44649,-6.98289,34.57793,0,0,0,-23.47757,-49.90234,-25.81268,-36.05464,-110.6632,-50.32285,0.001067912,-0.1257102,0.09433498,0,0.3,0,0,0,0,
6.38224E+17,-10.67266,25.69264,12.07054,-29.58484,24.80551,-114.6957,-16.98673,-0.4441859,-4.27255,-61.51973,-6.98289,34.57793,0,0,0,-27.41883,-49.23874,-22.85948,-36.05464,-110.6632,-50.32285,0.001067912,-0.1257102,0.09433498,0,0.3,0,0,0,0,
6.38224E+17,-13.19358,25.48224,15.66602,-32.58789,23.26737,-114.9155,-16.98673,-0.4441859,-4.27255,-61.51973,-6.98289,34.57793,0,0,0,-35.6938,-47.67498,-16.09193,-36.05464,-110.6632,-50.32285,0.001067912,-0.1257102,0.09433498,0,0.3,0,0,0,0,
6.38224E+17,-14.44226,25.24846,19.26149,-37.05584,21.80246,-115.1352,-16.98673,-0.4441859,-4.27255,-61.44649,-6.909645,34.57793,0,0,0,-41.05196,-45.65575,-8.951323,-36.05464,-110.6632,-50.32285,0.001067912,-0.1257102,0.09433498,0,0.3,0,0,0,0,
6.38224E+17,-14.56006,25.01468,22.10986,-40.57161,20.70378,-114.9887,-16.98673,-0.4441859,-4.27255,-61.44649,-6.98289,34.57793,0,0,0,-42.99665,-43.80685,-2.810294,-36.05464,-110.6632,-50.32285,0.001067912,-0.1257102,0.09433498,0,0.3,0,0,0,0,
6.38224E+17,-14.5365,24.7809,24.7948,-42.76897,20.19107,-113.4506,-16.98673,-0.4441859,-4.27255,-61.44649,-6.98289,34.57793,0,0,0,-44.42483,-41.81364,2.977781,-36.05464,-110.6632,-50.32285,0.001067912,-0.1257102,0.09433498,0,0.3,0,0,0,0,
6.38224E+17,-14.48938,24.57049,26.77931,-44.38036,19.89809,-113.0111,-16.98673,-0.4441859,-4.27255,-61.44649,-6.98289,34.57793,0,0,0,-45.37555,-40.24943,7.238527,-36.05464,-110.6632,-50.32285,0.001067912,-0.1257102,0.09433498,0,0.3,0,0,0,0,
6.38224E+17,-13.9475,23.77563,29.32417,-47.23692,19.7516,-113.0111,-16.98673,-0.4441859,-4.27255,-61.44649,-6.98289,34.57793,0,0,0,-45.15528,-39.15203,13.46757,-36.05464,-110.6632,-50.32285,0.001067912,-0.1257102,0.09433498,0,0.3,0,0,0,0,
6.38224E+17,-13.2407,23.21456,29.97789,-48.55533,19.82484,-113.597,-16.98673,-0.4441859,-4.27255,-61.51973,-6.98289,34.57793,0,0,0,-43.3311,-39.59692,15.8046,-36.05464,-110.6632,-50.32285,0.001067912,-0.1257102,0.09433498,0,0.3,0,0,0,0,
6.38224E+17,-8.811425,21.017,29.65103,-49.94699,20.99677,-117.0396,-16.98673,-0.4441859,-4.27255,-61.44649,-6.909645,34.57793,0,0,0,-29.17355,-44.71313,19.85144,-36.05464,-110.6632,-50.32285,0.001067912,-0.1257102,0.09433498,0,0.3,0,0,0,0,
6.38224E+17,-6.973749,20.40917,29.16073,-49.28778,21.65597,-117.8453,-16.98673,-0.4441859,-4.27255,-61.44649,-6.909645,34.57793,0,0,0,-23.06335,-46.59663,20.2001,-36.05464,-110.6632,-50.32285,0.001067912,-0.1257102,0.09433498,0,0.3,0,0,0,0,
6.38224E+17,-1.437158,19.40391,27.24626,-45.55228,23.70683,-118.7975,-16.98673,-0.4441859,-4.27255,-61.51973,-6.98289,34.57793,0,0,0,-4.685677,-50.90216,18.4167,-36.05464,-110.6632,-50.32285,0.001067912,-0.1257102,0.09433498,0,0.3,0,0,0,0,
6.38224E+17,5.72507,19.1935,25.14501,-38.66724,26.19717,-118.7242,-16.98673,-0.4441859,-4.27255,-61.44649,-6.909645,34.57793,0,0,0,18.21523,-53.52304,13.33859,-36.05464,-110.6632,-50.32285,0.001067912,-0.1257102,0.09433498,0,0.3,0,0,0,0,
6.38224E+17,9.753823,19.21688,24.49128,-34.27253,27.51558,-118.7242,-16.98673,-0.4441859,-4.27255,-61.51973,-6.909645,34.57793,0,0,0,30.69814,-54.11028,10.23124,-36.05464,-110.6632,-50.32285,0.001067912,-0.1257102,0.09433498,0,0.3,0,0,0,0,
6.38224E+17,18.02337,19.21688,24.37455,-23.94496,29.63969,-118.7975,-16.98673,-0.4441859,-4.27255,-61.51973,-6.909645,34.57793,0,0,0,55.9878,-54.22266,3.723878,-36.05464,-110.6632,-50.32285,0.001067912,-0.1257102,0.09433498,0,0.3,0,0,0,0,
6.38224E+17,26.717,19.24026,26.35906,-11.34679,30.07917,-119.9694,-16.98673,-0.4441859,-4.27255,-61.44649,-6.98289,34.57793,0,0,0,83.22181,-52.19265,-3.004053,-36.05464,-110.6632,-50.32285,0.001067912,-0.1257102,0.09433498,0,0.3,0,0,0,0,
6.38224E+17,33.47871,19.26364,30.39814,1.251379,28.76075,-122.24,-16.98673,-0.4441859,-4.27255,-61.44649,-6.98289,34.57793,0,0,0,106.6624,-47.67417,-7.070457,-36.05464,-110.6632,-50.32285,0.001067912,-0.1257102,0.09433498,0,0.3,0,0,0,0,
6.38224E+17,35.99962,19.24026,32.70952,6.964502,27.66208,-124.3641,-16.98673,-0.4441859,-4.27255,-61.44649,-6.909645,34.57793,0,0,0,116.3577,-44.91064,-8.195066,-36.05464,-110.6632,-50.32285,0.001067912,-0.1257102,0.09433498,0,0.3,0,0,0,0,
6.38224E+17,39.65141,19.24026,37.5424,17.73154,24.95201,-129.8575,-16.98673,-0.4441859,-4.27255,-61.44649,-6.909645,34.57793,0,0,0,132.1909,-38.44071,-8.850304,-36.05464,-110.6632,-50.32285,0.001067912,-0.1257102,0.09433498,0,0.3,0,0,0,0,
6.38224E+17,41.34773,19.24026,40.81102,24.90957,22.90114,-132.6408,-16.98673,-0.4441859,-4.27255,-61.44649,-6.98289,34.57793,0,0,0,140.7498,-33.63568,-8.406775,-36.05464,-110.6632,-50.32285,0.001067912,-0.1257102,0.09433498,0,0.3,0,0,0,0,
6.38224E+17,41.86605,19.21688,42.30524,28.49858,21.87571,-133.7395,-16.98673,-0.4441859,-4.27255,-61.51973,-6.909645,34.57793,0,0,0,143.9396,-31.38012,-7.735359,-36.05464,-110.6632,-50.32285,0.001067912,-0.1257102,0.09433498,0,0.3,0,0,0,0,
6.38224E+17,41.88961,19.09999,44.07964,33.99197,20.26431,-134.1057,-16.98673,-0.4441859,-4.27255,-61.44649,-6.909645,34.57793,0,0,0,146.0755,-28.81063,-5.486843,-36.05464,-110.6632,-50.32285,0.001067912,-0.1257102,0.09433498,0,0.3,0,0,0,0,
6.38224E+17,40.80585,18.72594,45.01353,38.24019,19.16564,-133.4465,-16.98673,-0.4441859,-4.27255,-61.44649,-6.98289,34.57793,0,0,0,144.1656,-28.1095,-1.36702,-36.05464,-110.6632,-50.32285,0.001067912,-0.1257102,0.09433498,0,0.3,0,0,0,0,
6.38224E+17,38.8975,18.09473,45.2937,41.24324,18.72616,-129.125,-16.98673,-0.4441859,-4.27255,-61.44649,-6.909645,34.57793,0,0,0,139.105,-29.04107,4.060185,-36.05464,-110.6632,-50.32285,0.001067912,-0.1257102,0.09433498,0,0.3,0,0,0,0,
6.38224E+17,36.44726,17.25311,45.22365,43.4406,18.9459,-123.1189,-16.98673,-0.4441859,-4.27255,-61.44649,-6.98289,34.57793,0,0,0,131.8922,-31.02316,10.23558,-36.05464,-110.6632,-50.32285,0.001067912,-0.1257102,0.09433498,0,0.3,0,0,0,0,
6.38224E+17,35.0101,16.71542,44.94349,44.53928,19.23888,-119.0172,-16.98673,-0.4441859,-4.27255,-61.44649,-6.98289,34.57793,0,0,0,127.3172,-32.68176,13.40964,-36.05464,-110.6632,-50.32285,0.001067912,-0.1257102,0.09433498,0,0.3,0,0,0,0,
6.38224E+17,32.27715,15.42961,43.35587,46.73663,19.82484,-109.4953,-16.98673,-0.4441859,-4.27255,-61.51973,-6.98289,34.57793,0,0,0,117.5326,-38.13092,17.73249,-36.05464,-110.6632,-50.32285,0.001067912,-0.1257102,0.09433498,0,0.3,0,0,0,0,
6.38224E+17,29.26147,12.92815,40.83437,48.78749,20.26431,-99.09451,-16.98673,-0.4441859,-4.27255,-61.51973,-6.98289,34.57793,0,0,0,106.1488,-47.70876,21.10342,-36.05464,-110.6632,-50.32285,0.001067912,-0.1257102,0.09433498,0,0.3,0,0,0,0,
6.38224E+17,27.40023,10.82411,39.15337,49.4467,20.63054,-93.89409,-16.98673,-0.4441859,-4.27255,-61.51973,-6.98289,34.57793,0,0,0,99.02402,-55.015,22.68478,-36.05464,-110.6632,-50.32285,0.001067912,-0.1257102,0.09433498,0,0.3,0,0,0,0,
6.38224E+17,23.60708,5.821173,36.11822,49.4467,21.50948,-85.03143,-16.98673,-0.4441859,-4.27255,-61.44649,-6.909645,34.57793,0,0,0,84.60404,-70.84558,25.23578,-36.05464,-110.6632,-50.32285,0.001067912,-0.1257102,0.09433498,0,0.3,0,0,0,0,
6.38224E+17,19.53121,0.3039166,34.06366,47.46908,23.04763,-77.92664,-16.98673,-0.4441859,-4.27255,-61.51973,-6.98289,34.57793,0,0,0,69.55174,-86.41191,27.71861,-36.05464,-110.6632,-50.32285,0.001067912,-0.1257102,0.09433498,0,0.3,0,0,0,0,
6.38224E+17,15.45534,-1.052019,29.20743,43.73357,25.24498,-72.653,-16.98673,-0.4441859,-4.27255,-61.44649,-6.98289,34.50468,0,0,0,52.87069,-95.49405,22.8743,-36.05464,-110.6632,-50.32285,0.001067912,-0.1257102,0.09433498,0,0.3,0,0,0,0,
6.38224E+17,13.21714,-0.4441859,26.0322,41.31649,26.19717,-69.79643,-16.98673,-0.4441859,-4.27255,-61.44649,-6.98289,34.50468,0,0,0,43.86959,-97.5051,18.4376,-36.05464,-110.6632,-50.32285,0.001067912,-0.1257102,0.09433498,0,0.3,0,0,0,0,
6.38224E+17,8.622946,-1.075397,23.79086,35.8231,28.10155,-66.57365,-16.98673,-0.4441859,-4.27255,-61.51973,-6.98289,34.57793,0,0,0,28.05512,-101.1712,16.6547,-36.05464,-110.6632,-50.32285,0.001067912,-0.1257102,0.09433498,0,0.3,0,0,0,0,
6.38224E+17,4.429273,-0.9818845,22.10986,29.0113,30.15241,-65.62146,-16.98673,-0.4441859,-4.27255,-61.44649,-6.909645,34.57793,0,0,0,14.17305,-102.4791,14.62309,-36.05464,-110.6632,-50.32285,0.001067912,-0.1257102,0.09433498,0,0.3,0,0,0,0,
6.38224E+17,0.1884797,-1.005263,21.57287,21.32055,32.20328,-66.79338,-16.98673,-0.4441859,-4.27255,-61.44649,-6.98289,34.57793,0,0,0,0.5998893,-102.9984,14.00919,-36.05464,-110.6632,-50.32285,0.001067912,-0.1257102,0.09433498,0,0.3,0,0,0,0,
6.38224E+17,-3.227715,-1.005263,21.52618,15.24121,33.52169,-68.55127,-16.98673,-0.4441859,-4.27255,-61.44649,-6.909645,34.57793,0,0,0,-10.262,-103.0384,13.61997,-36.05464,-110.6632,-50.32285,0.001067912,-0.1257102,0.09433498,0,0.3,0,0,0,0,
6.38224E+17,-5.088952,-1.005263,21.50283,11.87193,34.10765,-69.72319,-16.98673,-0.4441859,-4.27255,-61.44649,-6.98289,34.57793,0,0,0,-16.1623,-103.0583,13.14031,-36.05464,-110.6632,-50.32285,0.001067912,-0.1257102,0.09433498,0,0.3,0,0,0,0,
6.38224E+17,-9.447544,-1.005263,21.71296,4.181186,34.98659,-72.06703,-16.98673,-0.4441859,-4.27255,-61.51973,-6.909645,34.57793,0,0,0,-29.98318,-102.8782,11.83563,-36.05464,-110.6632,-50.32285,0.001067912,-0.1257102,0.09433498,0,0.3,0,0,0,0,
6.38224E+17,-14.01818,-1.005263,22.64685,-3.729292,35.13308,-74.99684,-16.98673,-0.4441859,-4.27255,-61.44649,-6.909645,34.57793,0,0,0,-44.73399,-102.0577,10.82605,-36.05464,-110.6632,-50.32285,0.001067912,-0.1257102,0.09433498,0,0.3,0,0,0,0,
6.38224E+17,-16.49197,-1.005263,23.53404,-8.416983,34.91335,-76.97446,-16.98673,-0.4441859,-4.27255,-61.51973,-6.98289,34.50468,0,0,0,-52.96519,-101.2479,10.54952,-36.05464,-110.6632,-50.32285,0.001067912,-0.1257102,0.09433498,0,0.3,0,0,0,0,
6.38224E+17,-20.75632,-1.005263,25.51856,-17.35289,34.25414,-81.95513,-16.98673,-0.4441859,-4.27255,-61.44649,-6.909645,34.57793,0,0,0,-67.61032,-99.33067,10.04494,-36.05464,-110.6632,-50.32285,0.001067912,-0.1257102,0.09433498,0,0.3,0,0,0,0,
6.38224E+17,-24.66728,-0.9818845,28.29689,-26.36205,33.08222,-86.71607,-16.98673,-0.4441859,-4.27255,-61.44649,-6.98289,34.57793,0,0,0,-82.02715,-96.35021,10.25843,-36.05464,-110.6632,-50.32285,0.001067912,-0.1257102,0.09433498,0,0.3,0,0,0,0,
6.38224E+17,-26.38716,-0.9818845,29.90785,-30.68352,32.5695,-88.5472,-16.98673,-0.4441859,-4.27255,-61.44649,-6.98289,34.57793,0,0,0,-88.80669,-94.5267,10.65067,-36.05464,-110.6632,-50.32285,0.001067912,-0.1257102,0.09433498,0,0.3,0,0,0,0,
6.38224E+17,-30.03895,-0.9585064,34.01696,-40.64486,31.03135,-92.79542,-16.98673,-0.4441859,-4.27255,-61.51973,-6.98289,34.57793,0,0,0,-104.0886,-89.4108,11.65406,-36.05464,-110.6632,-50.32285,0.001067912,-0.1257102,0.09433498,0,0.3,0,0,0,0,
6.38224E+17,-31.97087,-0.8883717,36.91203,-46.43123,30.15241,-94.77303,-16.98673,-0.4441859,-4.27255,-61.44649,-6.98289,34.57793,0,0,0,-113.0046,-85.33865,12.69993,-36.05464,-110.6632,-50.32285,0.001067912,-0.1257102,0.09433498,0,0.3,0,0,0,0,
6.38224E+17,-34.0677,-0.233782,40.20399,-52.58382,29.20022,-95.87171,-16.98673,-0.4441859,-4.27255,-61.44649,-6.98289,34.57793,0,0,0,-122.9173,-79.04031,13.41875,-36.05464,-110.6632,-50.32285,0.001067912,-0.1257102,0.09433498,0,0.3,0,0,0,0,
6.38224E+17,-35.03366,0.3039166,41.90834,-55.51363,28.76075,-95.94496,-16.98673,-0.4441859,-4.27255,-61.44649,-6.98289,34.57793,0,0,0,-127.6808,-75.18365,13.76921,-36.05464,-110.6632,-50.32285,0.001067912,-0.1257102,0.09433498,0,0.3,0,0,0,0,
6.38224E+17,-36.61218,1.729987,45.27035,-59.90833,27.88181,-95.65198,-16.98673,-0.4441859,-4.27255,-61.44649,-6.98289,34.57793,0,0,0,-135.9935,-66.47097,14.68417,-36.05464,-110.6632,-50.32285,0.001067912,-0.1257102,0.09433498,0,0.3,0,0,0,0,
6.38224E+17,-38.02578,3.90416,49.35612,-63.86357,27.07611,-93.38138,-16.98673,-0.4441859,-4.27255,-61.51973,-6.909645,34.57793,0,0,0,-144.285,-54.42876,16.15525,-36.05464,-110.6632,-50.32285,0.001067912,-0.1257102,0.09433498,0,0.3,0,0,0,0,
6.38224E+17,-39.32158,7.060217,53.88549,-67.23285,26.05068,-89.64587,-16.98673,-0.4441859,-4.27255,-61.44649,-6.98289,34.57793,0,0,0,-152.1222,-38.85625,17.36424,-36.05464,-110.6632,-50.32285,0.001067912,-0.1257102,0.09433498,0,0.3,0,0,0,0,
6.38224E+17,-40.19329,10.89424,58.18139,-70.45564,24.73227,-84.29898,-16.98673,-0.4441859,-4.27255,-61.51973,-6.98289,34.57793,0,0,0,-157.6358,-21.75365,18.23104,-36.05464,-110.6632,-50.32285,0.001067912,-0.1257102,0.09433498,0,0.3,0,0,0,0,
6.38224E+17,-40.52313,12.85801,60.18925,-71.92055,23.99982,-81.22268,-16.98673,-0.4441859,-4.27255,-61.44649,-6.98289,34.57793,0,0,0,-159.6515,-13.26805,18.42512,-36.05464,-110.6632,-50.32285,0.001067912,-0.1257102,0.09433498,0,0.3,0,0,0,0,
6.38224E+17,-41.01789,16.92582,64.34506,-74.55737,22.53491,-74.9236,-16.98673,-0.4441859,-4.27255,-61.44649,-6.98289,34.57793,0,0,0,-162.6152,4.438715,18.59941,-36.05464,-110.6632,-50.32285,0.001067912,-0.1257102,0.09433498,0,0.3,0,0,0,0,
6.38224E+17,-41.30061,21.08714,68.52423,-77.12095,20.92352,-68.55127,-16.98673,-0.4441859,-4.27255,-61.44649,-6.98289,34.57793,0,0,0,-164.0203,22.50717,18.34637,-36.05464,-110.6632,-50.32285,0.001067912,-0.1257102,0.09433498,0,0.3,0,0,0,0,
6.38224E+17,-41.41841,23.14442,70.62548,-78.43936,19.97133,-65.62146,-16.98673,-0.4441859,-4.27255,-61.44649,-6.98289,34.57793,0,0,0,-164.3403,31.52548,17.93681,-36.05464,-110.6632,-50.32285,0.001067912,-0.1257102,0.09433498,0,0.3,0,0,0,0,
6.38224E+17,-41.58333,27.16547,74.54782,-81.14944,18.06696,-60.12807,-16.98673,-0.4441859,-4.27255,-61.44649,-6.909645,34.57793,0,0,0,-164.049,48.70354,16.53114,-36.05464,-110.6632,-50.32285,0.001067912,-0.1257102,0.09433498,0,0.3,0,0,0,0,
6.38224E+17,-41.60689,30.60207,77.65301,-83.27354,16.01609,-54.70793,-16.98673,-0.4441859,-4.27255,-61.44649,-6.98289,34.57793,0,0,0,-162.7126,62.72036,14.87326,-36.05464,-110.6632,-50.32285,0.001067912,-0.1257102,0.09433498,0,0.3,0,0,0,0,
6.38224E+17,-41.65401,32.05152,79.05384,-84.22573,14.99066,-52.21759,-16.98673,-0.4441859,-4.27255,-61.51973,-6.909645,34.57793,0,0,0,-162.135,68.79503,13.92069,-36.05464,-110.6632,-50.32285,0.001067912,-0.1257102,0.09433498,0,0.3,0,0,0,0,
6.38224E+17,-41.96029,34.74001,81.08505,-86.05686,12.86655,-46.79745,-16.98673,-0.4441859,-4.27255,-61.44649,-6.909645,34.57793,0,0,0,-161.3495,78.67496,11.09678,-36.05464,-110.6632,-50.32285,0.001067912,-0.1257102,0.09433498,0,0.3,0,0,0,0,
6.38224E+17,-42.54929,36.98432,81.66874,-87.66826,11.18191,-42.69572,-16.98673,-0.4441859,-4.27255,-61.44649,-6.98289,34.57793,0,0,0,-161.2543,84.25098,7.324523,-36.05464,-110.6632,-50.32285,0.001067912,-0.1257102,0.09433498,0,0.3,0,0,0,0,
6.38224E+17,-43.44457,39.81308,81.76212,-88.69369,9.717009,-38.88697,-16.98673,-0.4441859,-4.27255,-61.51973,-6.98289,34.57793,0,0,0,-161.1893,89.6252,1.837534,-36.05464,-110.6632,-50.32285,0.001067912,-0.1257102,0.09433498,0,0.3,0,0,0,0,
6.38224E+17,-43.89221,41.47293,81.76212,-89.3529,9.057802,-37.05584,-16.98673,-0.4441859,-4.27255,-61.51973,-6.98289,34.57793,0,0,0,-160.7696,92.55637,-1.24023,-36.05464,-110.6632,-50.32285,0.001067912,-0.1257102,0.09433498,0,0.3,0,0,0,0,
6.38224E+17,-44.15137,42.54833,81.64539,-89.93885,8.764822,-35.81068,-16.98673,-0.4441859,-4.27255,-61.51973,-6.909645,34.57793,0,0,0,-160.3297,94.14719,-3.199123,-36.05464,-110.6632,-50.32285,0.001067912,-0.1257102,0.09433498,0,0.3,0,0,0,0,
6.38224E+17,-44.41053,44.97966,80.45467,-91.11078,8.398596,-33.9063,-16.98673,-0.4441859,-4.27255,-61.51973,-6.98289,34.57793,0,0,0,-158.0345,95.49609,-7.029747,-36.05464,-110.6632,-50.32285,0.001067912,-0.1257102,0.09433498,0,0.3,0,0,0,0,
6.38224E+17,-44.10425,48.79031,78.51686,-91.84323,7.739389,-32.51464,-16.98673,-0.4441859,-4.27255,-61.44649,-6.909645,34.57793,0,0,0,-152.0922,97.1224,-11.42627,-36.05464,-110.6632,-50.32285,0.001067912,-0.1257102,0.09433498,0,0.3,0,0,0,0,
6.38224E+17,-43.51525,53.51271,76.27552,-92.13622,6.347731,-31.70894,-16.98673,-0.4441859,-4.27255,-61.44649,-6.909645,34.57793,0,0,0,-143.7952,98.92418,-16.90223,-36.05464,-110.6632,-50.32285,0.001067912,-0.1257102,0.09433498,0,0.3,0,0,0,0,
6.38224E+17,-43.11473,56.41161,74.43108,-92.13622,5.249053,-31.48921,-16.98673,-0.4441859,-4.27255,-61.44649,-6.98289,34.57793,0,0,0,-138.216,98.64422,-20.72522,-36.05464,-110.6632,-50.32285,0.001067912,-0.1257102,0.09433498,0,0.3,0,0,0,0,
6.38224E+17,-42.12521,62.23278,69.2013,-90.59806,2.612227,-32.36815,-16.98673,-0.4441859,-4.27255,-61.44649,-6.98289,34.57793,0,0,0,-125.2868,93.99374,-29.81498,-36.05464,-110.6632,-50.32285,0.001067912,-0.1257102,0.09433498,0,0.3,0,0,0,0,
6.38224E+17,-40.47601,67.98382,62.43059,-86.42309,-0.7570504,-35.95716,-16.98673,-0.4441859,-4.27255,-61.44649,-6.98289,34.57793,0,0,0,-109.1816,85.25842,-40.40633,-36.05464,-110.6632,-50.32285,0.001067912,-0.1257102,0.09433498,0,0.3,0,0,0,0,
6.38224E+17,-39.29802,70.64893,58.81176,-83.12706,-2.661425,-39.10671,-16.98673,-0.4441859,-4.27255,-61.44649,-6.98289,34.57793,0,0,0,-100.2367,80.11104,-45.87605,-36.05464,-110.6632,-50.32285,0.001067912,-0.1257102,0.09433498,0,0.3,0,0,0,0,
6.38224E+17,-36.32946,74.50633,51.01377,-75.80254,-5.884212,-47.38342,-16.98673,-0.4441859,-4.27255,-61.44649,-6.98289,34.57793,0,0,0,-82.51012,67.95911,-56.14705,-36.05464,-110.6632,-50.32285,0.001067912,-0.1257102,0.09433498,0,0.3,0,0,0,0,
6.38224E+17,-30.91067,75.81551,42.56207,-66.35391,-7.861832,-58.66317,-16.98673,-0.4441859,-4.27255,-61.44649,-6.98289,34.57793,0,0,0,-63.12006,54.4161,-62.92862,-36.05464,-110.6632,-50.32285,0.001067912,-0.1257102,0.09433498,0,0.3,0,0,0,0,
6.38224E+17,-27.32955,75.48822,38.73312,-60.27456,-8.447793,-64.96225,-16.98673,-0.4441859,-4.27255,-61.44649,-6.98289,34.57793,0,0,0,-53.64719,48.42343,-64.54188,-36.05464,-110.6632,-50.32285,0.001067912,-0.1257102,0.09433498,0,0.3,0,0,0,0,
6.38224E+17,-21.62804,73.10365,32.84961,-48.04262,-8.447793,-75.65604,-16.98673,-0.4441859,-4.27255,-61.44649,-6.98289,34.57793,0,0,0,-40.94581,38.91658,-65.08038,-36.05464,-110.6632,-50.32285,0.001067912,-0.1257102,0.09433498,0,0.3,0,0,0,0,
6.38224E+17,-17.78777,69.12935,28.41362,-37.42207,-6.543418,-83.8595,-16.98673,-0.4441859,-4.27255,-61.51973,-6.909645,34.57793,0,0,0,-33.89727,30.66446,-62.69489,-36.05464,-110.6632,-50.32285,0.001067912,-0.1257102,0.09433498,0,0.3,0,0,0,0,
6.38224E+17,-15.90297,64.07965,25.33178,-28.99888,-3.467122,-88.18098,-16.98673,-0.4441859,-4.27255,-61.44649,-6.909645,34.57793,0,0,0,-31.60563,22.75756,-57.41945,-36.05464,-110.6632,-50.32285,0.001067912,-0.1257102,0.09433498,0,0.3,0,0,0,0,
6.38224E+17,-15.87941,61.62495,24.32785,-25.70284,-1.709238,-89.05991,-16.98673,-0.4441859,-4.27255,-61.44649,-6.909645,34.57793,0,0,0,-32.37066,19.1698,-54.55674,-36.05464,-110.6632,-50.32285,0.001067912,-0.1257102,0.09433498,0,0.3,0,0,0,0,
6.38224E+17,-17.01029,56.31809,22.57681,-21.23489,2.392492,-89.49938,-16.98673,-0.4441859,-4.27255,-61.44649,-6.909645,34.57793,0,0,0,-36.61164,11.18362,-48.6756,-36.05464,-110.6632,-50.32285,0.001067912,-0.1257102,0.09433498,0,0.3,0,0,0,0,
6.38224E+17,-19.41341,51.10475,21.52618,-19.55025,6.933692,-88.25421,-16.98673,-0.4441859,-4.27255,-61.44649,-6.909645,34.57793,0,0,0,-44.09374,3.086829,-43.2325,-36.05464,-110.6632,-50.32285,0.001067912,-0.1257102,0.09433498,0,0.3,0,0,0,0,
6.38224E+17,-21.13329,48.93058,21.43279,-19.76999,8.911312,-87.52177,-16.98673,-0.4441859,-4.27255,-61.51973,-6.98289,34.57793,0,0,0,-49.15394,-0.2439778,-41.18459,-36.05464,-110.6632,-50.32285,0.001067912,-0.1257102,0.09433498,0,0.3,0,0,0,0,
6.38224E+17,-26.0102,44.83939,21.96978,-22.5533,13.01304,-86.42309,-16.98673,-0.4441859,-4.27255,-61.51973,-6.98289,34.57793,0,0,0,-63.34371,-6.288294,-38.53479,-36.05464,-110.6632,-50.32285,0.001067912,-0.1257102,0.09433498,0,0.3,0,0,0,0,
6.38224E+17,-31.28763,41.47293,23.76752,-27.97344,16.08934,-86.1301,-16.98673,-0.4441859,-4.27255,-61.51973,-6.98289,34.57793,0,0,0,-79.80021,-10.37717,-37.03785,-36.05464,-110.6632,-50.32285,0.001067912,-0.1257102,0.09433498,0,0.3,0,0,0,0,
6.38224E+17,-36.56506,38.01296,27.66651,-36.9826,18.43318,-86.05686,-16.98673,-0.4441859,-4.27255,-61.44649,-6.909645,34.57793,0,0,0,-99.47606,-12.63123,-34.23458,-36.05464,-110.6632,-50.32285,0.001067912,-0.1257102,0.09433498,0,0.3,0,0,0,0,
6.38224E+17,-39.29802,36.02581,30.70166,-43.06195,19.31213,-86.05686,-16.98673,-0.4441859,-4.27255,-61.44649,-6.909645,34.57793,0,0,0,-111.4268,-12.87958,-32.20342,-36.05464,-110.6632,-50.32285,0.001067912,-0.1257102,0.09433498,0,0.3,0,0,0,0,
6.38224E+17,-40.73517,35.02055,32.56944,-46.35798,19.7516,-85.98362,-16.98673,-0.4441859,-4.27255,-61.51973,-6.98289,34.57793,0,0,0,-118.1086,-12.50375,-31.20651,-36.05464,-110.6632,-50.32285,0.001067912,-0.1257102,0.09433498,0,0.3,0,0,0,0,
6.38224E+17,-43.53881,33.8984,36.60851,-52.36408,20.26431,-83.49328,-16.98673,-0.4441859,-4.27255,-61.51973,-6.98289,34.50468,0,0,0,-131.0231,-9.321688,-30.46764,-36.05464,-110.6632,-50.32285,0.001067912,-0.1257102,0.09433498,0,0.3,0,0,0,0,
6.38224E+17,-46.08328,33.8984,40.22734,-57.49125,20.04458,-80.124,-16.98673,-0.4441859,-4.27255,-61.44649,-6.98289,34.57793,0,0,0,-141.7679,-4.088911,-31.84397,-36.05464,-110.6632,-50.32285,0.001067912,-0.1257102,0.09433498,0,0.3,0,0,0,0,
6.38224E+17,-48.3686,33.92177,43.70608,-61.81271,19.67835,-76.60824,-16.98673,-0.4441859,-4.27255,-61.44649,-6.909645,34.57793,0,0,0,-151.5746,1.369475,-33.62714,-36.05464,-110.6632,-50.32285,0.001067912,-0.1257102,0.09433498,0,0.3,0,0,0,0,
6.38224E+17,-49.4288,33.96853,45.22365,-64.01007,19.60511,-74.9236,-16.98673,-0.4441859,-4.27255,-61.44649,-6.98289,34.57793,0,0,0,-155.9099,3.933738,-34.85489,-36.05464,-110.6632,-50.32285,0.001067912,-0.1257102,0.09433498,0,0.3,0,0,0,0,
6.38224E+17,-51.45495,34.38934,46.88131,-67.96531,19.53186,-72.5065,-16.98673,-0.4441859,-4.27255,-61.44649,-6.98289,34.57793,0,0,0,-162.196,7.521556,-39.12516,-36.05464,-110.6632,-50.32285,0.001067912,-0.1257102,0.09433498,0,0.3,0,0,0,0,
6.38224E+17,-53.31619,35.1842,46.90466,-71.26134,19.89809,-71.48107,-16.98673,-0.4441859,-4.27255,-61.44649,-6.98289,34.57793,0,0,0,-165.4909,9.080545,-45.06963,-36.05464,-110.6632,-50.32285,0.001067912,-0.1257102,0.09433498,0,0.3,0,0,0,0,
6.38224E+17,-54.56487,35.95568,46.5311,-73.45869,20.55729,-71.1881,-16.98673,-0.4441859,-4.27255,-61.51973,-6.909645,34.57793,0,0,0,-166.8014,9.908118,-49.65639,-36.05464,-110.6632,-50.32285,0.001067912,-0.1257102,0.09433498,0,0.3,0,0,0,0,
6.38224E+17,-55.86067,37.14796,45.6906,-75.72929,21.36299,-71.0416,-16.98673,-0.4441859,-4.27255,-61.44649,-6.98289,34.57793,0,0,0,-166.9527,10.72746,-55.14731,-36.05464,-110.6632,-50.32285,0.001067912,-0.1257102,0.09433498,0,0.3,0,0,0,0,
6.38224E+17,-57.41562,39.32214,44.38315,-78.43936,22.53491,-71.0416,-16.98673,-0.4441859,-4.27255,-61.51973,-6.909645,34.57793,0,0,0,-165.5126,12.54884,-62.56383,-36.05464,-110.6632,-50.32285,0.001067912,-0.1257102,0.09433498,0,0.3,0,0,0,0,
6.38224E+17,-57.43919,40.77158,43.1224,-79.90427,23.19412,-71.0416,-16.98673,-0.4441859,-4.27255,-61.51973,-6.98289,34.57793,0,0,0,-161.9405,13.10206,-64.94071,-36.05464,-110.6632,-50.32285,0.001067912,-0.1257102,0.09433498,0,0.3,0,0,0,0,
6.38224E+17,-57.41562,43.50684,38.89655,-81.29592,24.36604,-71.0416,-16.98673,-0.4441859,-4.27255,-61.44649,-6.98289,34.57793,0,0,0,-152.0473,11.36985,-71.17009,-36.05464,-110.6632,-50.32285,0.001067912,-0.1257102,0.09433498,0,0.3,0,0,0,0,
6.38224E+17,-57.41562,46.31222,34.69404,-80.70996,25.24498,-71.62756,-16.98673,-0.4441859,-4.27255,-61.44649,-6.909645,34.50468,0,0,0,-141.5656,10.13651,-77.86939,-36.05464,-110.6632,-50.32285,0.001067912,-0.1257102,0.09433498,0,0.3,0,0,0,0,
6.38224E+17,-57.39207,48.81369,30.91178,-79.90427,25.53797,-73.82492,-16.98673,-0.4441859,-4.27255,-61.44649,-6.98289,34.57793,0,0,0,-131.6776,9.296636,-84.11299,-36.05464,-110.6632,-50.32285,0.001067912,-0.1257102,0.09433498,0,0.3,0,0,0,0,
6.38224E+17,-57.13291,50.35665,26.17229,-79.61128,25.39147,-79.24506,-16.98673,-0.4441859,-4.27255,-61.44649,-6.98289,34.57793,0,0,0,-120.8621,6.355731,-90.25924,-36.05464,-110.6632,-50.32285,0.001067912,-0.1257102,0.09433498,0,0.3,0,0,0,0,
6.38224E+17,-56.68527,50.63719,23.72082,-79.4648,25.31823,-82.98056,-16.98673,-0.4441859,-4.27255,-61.51973,-6.98289,34.50468,0,0,0,-115.5045,4.364817,-92.43517,-36.05464,-110.6632,-50.32285,0.001067912,-0.1257102,0.09433498,0,0.3,0,0,0,0,
6.38224E+17,-55.03607,50.5203,19.26149,-78.73235,25.39147,-91.18402,-16.98673,-0.4441859,-4.27255,-61.44649,-6.98289,34.57793,0,0,0,-105.532,0.3907308,-94.55464,-36.05464,-110.6632,-50.32285,0.001067912,-0.1257102,0.09433498,0,0.3,0,0,0,0,
6.38224E+17,-52.84499,50.28652,15.87614,-77.99989,25.7577,-98.50854,-16.98673,-0.4441859,-4.27255,-61.51973,-6.909645,34.57793,0,0,0,-96.9818,-2.334026,-94.85677,-36.05464,-110.6632,-50.32285,0.001067912,-0.1257102,0.09433498,0,0.3,0,0,0,0,
6.38224E+17,-51.45495,50.35665,14.33522,-77.48718,26.05068,-101.2186,-16.98673,-0.4441859,-4.27255,-61.51973,-6.909645,34.57793,0,0,0,-92.36424,-3.164376,-94.76153,-36.05464,-110.6632,-50.32285,0.001067912,-0.1257102,0.09433498,0,0.3,0,0,0,0,
6.38224E+17,-47.59112,50.5203,10.85648,-75.28983,26.70989,-104.9541,-16.98673,-0.4441859,-4.27255,-61.51973,-6.98289,34.57793,0,0,0,-81.14548,-4.687131,-94.23093,-36.05464,-110.6632,-50.32285,0.001067912,-0.1257102,0.09433498,0,0.3,0,0,0,0,
6.38224E+17,-42.05453,50.47354,6.91079,-71.40782,27.44234,-108.9094,-16.98673,-0.4441859,-4.27255,-61.44649,-6.98289,34.57793,0,0,0,-67.5958,-6.174216,-93.42079,-36.05464,-110.6632,-50.32285,0.001067912,-0.1257102,0.09433498,0,0.3,0,0,0,0,
6.38224E+17,-36.14098,50.07611,3.782257,-66.86663,28.17479,-113.597,-16.98673,-0.4441859,-4.27255,-61.44649,-6.98289,34.57793,0,0,0,-55.66074,-7.443756,-92.13464,-36.05464,-110.6632,-50.32285,0.001067912,-0.1257102,0.09433498,0,0.3,0,0,0,0,
6.38224E+17,-32.74835,49.70206,2.544852,-64.15656,28.76075,-116.0874,-16.98673,-0.4441859,-4.27255,-61.44649,-6.98289,34.57793,0,0,0,-49.85759,-8.163564,-90.83278,-36.05464,-110.6632,-50.32285,0.001067912,-0.1257102,0.09433498,0,0.3,0,0,0,0,
6.38224E+17,-26.05732,48.57991,1.2841,-58.73641,30.15241,-120.2624,-16.98673,-0.4441859,-4.27255,-61.51973,-6.98289,34.50468,0,0,0,-40.06554,-9.970134,-86.4116,-36.05464,-110.6632,-50.32285,0.001067912,-0.1257102,0.09433498,0,0.3,0,0,0,0,
6.38224E+17,-19.38985,47.17721,1.167363,-52.80355,31.69056,-121.5075,-16.98673,-0.4441859,-4.27255,-61.51973,-6.98289,34.57793,0,0,0,-30.99467,-12.16549,-80.28606,-36.05464,-110.6632,-50.32285,0.001067912,-0.1257102,0.09433498,0,0.3,0,0,0,0,
6.38224E+17,-16.04433,46.35898,1.330794,-49.43428,32.5695,-121.5808,-16.98673,-0.4441859,-4.27255,-61.44649,-6.98289,34.57793,0,0,0,-26.29127,-13.46158,-76.92848,-36.05464,-110.6632,-50.32285,0.001067912,-0.1257102,0.09433498,0,0.3,0,0,0,0,
6.38224E+17,-9.848064,44.46534,1.984518,-43.13519,34.54712,-121.4343,-16.98673,-0.4441859,-4.27255,-61.51973,-6.98289,34.57793,0,0,0,-17.06706,-16.51132,-70.03407,-36.05464,-110.6632,-50.32285,0.001067912,-0.1257102,0.09433498,0,0.3,0,0,0,0,
6.38224E+17,-3.981634,42.1509,3.081839,-36.39664,36.59798,-120.7751,-16.98673,-0.4441859,-4.27255,-61.44649,-6.909645,34.57793,0,0,0,-7.362527,-20.31789,-62.5737,-36.05464,-110.6632,-50.32285,0.001067912,-0.1257102,0.09433498,0,0.3,0,0,0,0,
6.38224E+17,-1.225118,40.88848,3.712215,-33.17385,37.62342,-119.8961,-16.98673,-0.4441859,-4.27255,-61.44649,-6.909645,34.57793,0,0,0,-2.339999,-22.4308,-58.93065,-36.05464,-110.6632,-50.32285,0.001067912,-0.1257102,0.09433498,0,0.3,0,0,0,0,
6.38224E+17,4.217233,38.01296,5.229787,-25.99582,39.89402,-119.0904,-16.98673,-0.4441859,-4.27255,-61.51973,-6.98289,34.57793,0,0,0,8.619964,-27.32266,-51.44982,-36.05464,-110.6632,-50.32285,0.001067912,-0.1257102,0.09433498,0,0.3,0,0,0,0,
6.38224E+17,8.198866,35.62838,7.214305,-20.72217,41.57866,-119.2369,-16.98673,-0.4441859,-4.27255,-61.51973,-6.98289,34.50468,0,0,0,17.84538,-31.26452,-44.49426,-36.05464,-110.6632,-50.32285,0.001067912,-0.1257102,0.09433498,0,0.3,0,0,0,0,
6.38224E+17,10.31926,34.29583,8.801919,-17.79236,42.38435,-119.2369,-16.98673,-0.4441859,-4.27255,-61.44649,-6.98289,34.57793,0,0,0,23.38953,-33.2914,-39.89124,-36.05464,-110.6632,-50.32285,0.001067912,-0.1257102,0.09433498,0,0.3,0,0,0,0,
6.38224E+17,13.4763,32.37881,12.25731,-12.44547,43.62952,-118.065,-16.98673,-0.4441859,-4.27255,-61.44649,-6.98289,34.57793,0,0,0,32.84231,-35.54929,-31.30218,-36.05464,-110.6632,-50.32285,0.001067912,-0.1257102,0.09433498,0,0.3,0,0,0,0,
6.38224E+17,16.02077,31.39693,16.36643,-7.831022,44.06899,-117.6988,-16.98673,-0.4441859,-4.27255,-61.44649,-6.98289,34.57793,0,0,0,41.78426,-35.12603,-22.83011,-36.05464,-110.6632,-50.32285,0.001067912,-0.1257102,0.09433498,0,0.3,0,0,0,0,
6.38224E+17,18.49457,31.28004,20.33547,-3.509557,43.04356,-117.772,-16.98673,-0.4441859,-4.27255,-61.44649,-6.98289,34.57793,0,0,0,50.85191,-32.45066,-16.32178,-36.05464,-110.6632,-50.32285,0.001067912,-0.1257102,0.09433498,0,0.3,0,0,0,0,
6.38224E+17,21.43956,31.28004,24.3512,0.9583986,40.91945,-117.8453,-16.98673,-0.4441859,-4.27255,-61.51973,-6.98289,34.57793,0,0,0,61.75463,-28.89838,-11.09051,-36.05464,-110.6632,-50.32285,0.001067912,-0.1257102,0.09433498,0,0.3,0,0,0,0,
6.38224E+17,23.25368,31.28004,26.61588,3.521979,39.45455,-118.4312,-16.98673,-0.4441859,-4.27255,-61.44649,-6.98289,34.57793,0,0,0,68.5804,-26.63074,-8.753076,-36.05464,-110.6632,-50.32285,0.001067912,-0.1257102,0.09433498,0,0.3,0,0,0,0,
6.38224E+17,27.04683,31.28004,30.93513,9.088613,36.52474,-121.7273,-16.98673,-0.4441859,-4.27255,-61.44649,-6.98289,34.57793,0,0,0,82.99393,-21.79278,-5.793877,-36.05464,-110.6632,-50.32285,0.001067912,-0.1257102,0.09433498,0,0.3,0,0,0,0,
6.38224E+17,31.00491,31.28004,35.69797,15.68068,33.15546,-127.8066,-16.98673,-0.4441859,-4.27255,-61.51973,-6.98289,34.57793,0,0,0,98.78685,-15.70593,-3.972975,-36.05464,-110.6632,-50.32285,0.001067912,-0.1257102,0.09433498,0,0.3,0,0,0,0,
6.38224E+17,32.72478,31.25666,38.17278,19.19645,31.39758,-130.8096,-16.98673,-0.4441859,-4.27255,-61.44649,-6.98289,34.57793,0,0,0,106.1798,-12.29152,-3.115271,-36.05464,-110.6632,-50.32285,0.001067912,-0.1257102,0.09433498,0,0.3,0,0,0,0,
6.38224E+17,35.26926,31.28004,43.07571,26.52096,27.88181,-139.8921,-16.98673,-0.4441859,-4.27255,-61.44649,-6.909645,34.57793,0,0,0,118.3938,-4.817598,-0.9460315,-36.05464,-110.6632,-50.32285,0.001067912,-0.1257102,0.09433498,0,0.3,0,0,0,0,
6.38224E+17,36.5415,31.44369,47.06809,32.7468,25.24498,-141.7964,-16.98673,-0.4441859,-4.27255,-61.51973,-6.98289,34.57793,0,0,0,125.8698,2.084871,1.495839,-36.05464,-110.6632,-50.32285,0.001067912,-0.1257102,0.09433498,0,0.3,0,0,0,0,
6.38224E+17,36.70642,31.86449,48.95922,35.38363,24.14631,-141.9429,-16.98673,-0.4441859,-4.27255,-61.44649,-6.98289,34.57793,0,0,0,127.8107,6.18999,3.081171,-36.05464,-110.6632,-50.32285,0.001067912,-0.1257102,0.09433498,0,0.3,0,0,0,0,
6.38224E+17,36.80066,33.92177,52.48465,39.63185,21.94895,-142.0894,-16.98673,-0.4441859,-4.27255,-61.44649,-6.98289,34.57793,0,0,0,129.6461,16.56069,4.947426,-36.05464,-110.6632,-50.32285,0.001067912,-0.1257102,0.09433498,0,0.3,0,0,0,0,
6.38224E+17,36.80066,37.82593,56.08013,44.0998,18.9459,-142.0894,-16.98673,-0.4441859,-4.27255,-61.51973,-6.98289,34.57793,0,0,0,129.383,30.71515,4.595685,-36.05464,-110.6632,-50.32285,0.001067912,-0.1257102,0.09433498,0,0.3,0,0,0,0,
6.38224E+17,36.51794,42.12752,59.25536,48.78749,14.84417,-142.0894,-16.98673,-0.4441859,-4.27255,-61.44649,-6.98289,34.57793,0,0,0,127.053,44.6287,3.239894,-36.05464,-110.6632,-50.32285,0.001067912,-0.1257102,0.09433498,0,0.3,0,0,0,0,
6.38224E+17,35.74046,47.85518,61.70683,54.20764,9.350782,-142.0894,-16.98673,-0.4441859,-4.27255,-61.51973,-6.98289,34.50468,0,0,0,120.8521,59.01683,-0.4168915,-36.05464,-110.6632,-50.32285,0.001067912,-0.1257102,0.09433498,0,0.3,0,0,0,0,
6.38224E+17,35.0101,52.69447,62.47728,57.57691,4.736337,-142.0894,-16.98673,-0.4441859,-4.27255,-61.44649,-6.909645,34.57793,0,0,0,114.2148,67.79752,-5.295588,-36.05464,-110.6632,-50.32285,0.001067912,-0.1257102,0.09433498,0,0.3,0,0,0,0,
6.38224E+17,34.51534,55.85053,62.47728,59.26155,1.733285,-142.0894,-16.98673,-0.4441859,-4.27255,-61.51973,-6.98289,34.57793,0,0,0,109.4242,72.08618,-9.228168,-36.05464,-110.6632,-50.32285,0.001067912,-0.1257102,0.09433498,0,0.3,0,0,0,0,
6.38224E+17,33.3609,61.6717,62.17377,61.45891,-4.346064,-142.1627,-16.98673,-0.4441859,-4.27255,-61.44649,-6.98289,34.57793,0,0,0,99.64828,78.48376,-17.00083,-36.05464,-110.6632,-50.32285,0.001067912,-0.1257102,0.09433498,0,0.3,0,0,0,0,
6.38224E+17,31.59391,67.51625,61.30993,62.63083,-10.86488,-142.1627,-16.98673,-0.4441859,-4.27255,-61.44649,-6.98289,34.50468,0,0,0,88.00101,82.54625,-25.27231,-36.05464,-110.6632,-50.32285,0.001067912,-0.1257102,0.09433498,0,0.3,0,0,0,0,
6.38224E+17,30.39235,70.2515,60.30599,62.41109,-14.23416,-142.1627,-16.98673,-0.4441859,-4.27255,-61.44649,-6.909645,34.57793,0,0,0,81.4007,82.79969,-29.56342,-36.05464,-110.6632,-50.32285,0.001067912,-0.1257102,0.09433498,0,0.3,0,0,0,0,
6.38224E+17,27.35312,75.02065,57.92457,59.92076,-20.89947,-141.7232,-16.98673,-0.4441859,-4.27255,-61.51973,-6.98289,34.57793,0,0,0,67.75444,81.35508,-37.37622,-36.05464,-110.6632,-50.32285,0.001067912,-0.1257102,0.09433498,0,0.3,0,0,0,0,
6.38224E+17,23.23012,78.69103,55.9167,54.42737,-27.56478,-138.0609,-16.98673,-0.4441859,-4.27255,-61.51973,-6.98289,34.57793,0,0,0,53.519,79.27881,-42.9512,-36.05464,-110.6632,-50.32285,0.001067912,-0.1257102,0.09433498,0,0.3,0,0,0,0,
6.38224E+17,21.01549,80.00021,54.86607,50.83836,-30.56783,-132.1281,-16.98673,-0.4441859,-4.27255,-61.44649,-6.98289,34.57793,0,0,0,47.41331,77.93266,-44.93382,-36.05464,-110.6632,-50.32285,0.001067912,-0.1257102,0.09433498,0,0.3,0,0,0,0,
6.38224E+17,15.38465,81.40291,51.97101,38.97264,-36.13447,-117.3325,-16.98673,-0.4441859,-4.27255,-61.51973,-6.909645,34.57793,0,0,0,33.15522,73.05006,-47.8547,-36.05464,-110.6632,-50.32285,0.001067912,-0.1257102,0.09433498,0,0.3,0,0,0,0,
6.38224E+17,12.03914,81.14574,49.4962,29.30428,-37.9656,-107.3712,-16.98673,-0.4441859,-4.27255,-61.44649,-6.98289,34.57793,0,0,0,25.43002,68.50026,-49.11174,-36.05464,-110.6632,-50.32285,0.001067912,-0.1257102,0.09433498,0,0.3,0,0,0,0,
6.38224E+17,8.905665,79.48589,45.41043,16.92585,-37.59937,-97.92258,-16.98673,-0.4441859,-4.27255,-61.51973,-6.909645,34.57793,0,0,0,18.46847,60.84623,-50.48909,-36.05464,-110.6632,-50.32285,0.001067912,-0.1257102,0.09433498,0,0.3,0,0,0,0,
6.38224E+17,7.916147,78.10658,42.86558,11.21272,-36.28096,-95.06602,-16.98673,-0.4441859,-4.27255,-61.51973,-6.909645,34.57793,0,0,0,16.27863,56.09822,-51.27856,-36.05464,-110.6632,-50.32285,0.001067912,-0.1257102,0.09433498,0,0.3,0,0,0,0,
6.38224E+17,7.539187,74.64661,37.40232,2.057076,-31.88625,-92.57568,-16.98673,-0.4441859,-4.27255,-61.44649,-6.98289,34.57793,0,0,0,15.25974,46.00897,-53.05023,-36.05464,-110.6632,-50.32285,0.001067912,-0.1257102,0.09433498,0,0.3,0,0,0,0,
6.38224E+17,8.245987,70.67231,32.0558,-3.216576,-26.31961,-91.91647,-16.98673,-0.4441859,-4.27255,-61.44649,-6.98289,34.57793,0,0,0,16.48073,36.16619,-54.62826,-36.05464,-110.6632,-50.32285,0.001067912,-0.1257102,0.09433498,0,0.3,0,0,0,0,
6.38224E+17,9.612464,66.55774,27.38634,-5.413931,-20.02053,-92.2827,-16.98673,-0.4441859,-4.27255,-61.51973,-6.909645,34.57793,0,0,0,19.1011,27.28868,-55.56672,-36.05464,-110.6632,-50.32285,0.001067912,-0.1257102,0.09433498,0,0.3,0,0,0,0,
6.38224E+17,11.54438,62.34967,23.34727,-5.487176,-13.57495,-93.16164,-16.98673,-0.4441859,-4.27255,-61.44649,-6.98289,34.57793,0,0,0,22.96083,19.03966,-55.93969,-36.05464,-110.6632,-50.32285,0.001067912,-0.1257102,0.09433498,0,0.3,0,0,0,0,
6.38224E+17,12.93442,60.05861,21.50283,-5.047705,-10.05919,-94.18707,-16.98673,-0.4441859,-4.27255,-61.44649,-6.98289,34.50468,0,0,0,25.83867,14.83386,-55.84305,-36.05464,-110.6632,-50.32285,0.001067912,-0.1257102,0.09433498,0,0.3,0,0,0,0,
6.38224E+17,15.87941,56.03755,18.74786,-3.143331,-4.346064,-96.31119,-16.98673,-0.4441859,-4.27255,-61.51973,-6.909645,34.57793,0,0,0,32.10996,7.676272,-55.47319,-36.05464,-110.6632,-50.32285,0.001067912,-0.1257102,0.09433498,0,0.3,0,0,0,0,
6.38224E+17,19.74325,52.18015,16.92677,0.1527017,1.147324,-98.65503,-16.98673,-0.4441859,-4.27255,-61.51973,-6.98289,34.50468,0,0,0,40.73681,1.115881,-54.84653,-36.05464,-110.6632,-50.32285,0.001067912,-0.1257102,0.09433498,0,0.3,0,0,0,0,
6.38224E+17,21.84008,50.45016,16.41313,1.983831,3.710905,-100.0467,-16.98673,-0.4441859,-4.27255,-61.44649,-6.909645,34.57793,0,0,0,45.60562,-1.743569,-54.55876,-36.05464,-110.6632,-50.32285,0.001067912,-0.1257102,0.09433498,0,0.3,0,0,0,0,
6.38224E+17,26.99972,46.77979,16.22635,6.891257,8.471841,-102.7568,-16.98673,-0.4441859,-4.27255,-61.44649,-6.909645,34.57793,0,0,0,58.37398,-7.512287,-53.7832,-36.05464,-110.6632,-50.32285,0.001067912,-0.1257102,0.09433498,0,0.3,0,0,0,0,
6.38224E+17,32.44207,42.89901,17.51045,12.89736,12.42708,-105.1739,-16.98673,-0.4441859,-4.27255,-61.51973,-6.98289,34.57793,0,0,0,73.92689,-13.04841,-52.04869,-36.05464,-110.6632,-50.32285,0.001067912,-0.1257102,0.09433498,0,0.3,0,0,0,0,
6.38224E+17,37.74306,38.31688,20.42886,19.9289,16.01609,-108.7629,-16.98673,-0.4441859,-4.27255,-61.44649,-6.98289,34.57793,0,0,0,92.53477,-18.93477,-48.80976,-36.05464,-110.6632,-50.32285,0.001067912,-0.1257102,0.09433498,0,0.3,0,0,0,0,
6.38224E+17,39.93414,36.02581,22.46007,23.37142,17.40775,-110.594,-16.98673,-0.4441859,-4.27255,-61.44649,-6.98289,34.57793,0,0,0,101.9297,-21.45511,-46.59097,-36.05464,-110.6632,-50.32285,0.001067912,-0.1257102,0.09433498,0,0.3,0,0,0,0,
6.38224E+17,43.56237,30.92937,27.68986,30.54945,20.11782,-114.8422,-16.98673,-0.4441859,-4.27255,-61.51973,-6.98289,34.57793,0,0,0,121.533,-26.18886,-40.55981,-36.05464,-110.6632,-50.32285,0.001067912,-0.1257102,0.09433498,0,0.3,0,0,0,0,
6.38224E+17,45.44716,24.73414,33.40994,37.72747,23.26737,-121.0681,-16.98673,-0.4441859,-4.27255,-61.51973,-6.909645,34.57793,0,0,0,138.6315,-32.16948,-31.86563,-36.05464,-110.6632,-50.32285,0.001067912,-0.1257102,0.09433498,0,0.3,0,0,0,0,
6.38224E+17,45.47073,20.47931,36.04818,40.58403,25.39147,-124.9501,-16.98673,-0.4441859,-4.27255,-61.51973,-6.98289,34.57793,0,0,0,144.998,-37.81143,-25.71519,-36.05464,-110.6632,-50.32285,0.001067912,-0.1257102,0.09433498,0,0.3,0,0,0,0,
6.38224E+17,45.07021,17.97784,37.0988,41.60947,26.92962,-127.0742,-16.98673,-0.4441859,-4.27255,-61.51973,-6.98289,34.57793,0,0,0,146.7449,-41.85114,-21.96422,-36.05464,-110.6632,-50.32285,0.001067912,-0.1257102,0.09433498,0,0.3,0,0,0,0,
6.38224E+17,43.60949,13.93341,37.68249,41.60947,29.56645,-129.9307,-16.98673,-0.4441859,-4.27255,-61.51973,-6.98289,34.57793,0,0,0,145.4945,-50.0747,-15.6164,-36.05464,-110.6632,-50.32285,0.001067912,-0.1257102,0.09433498,0,0.3,0,0,0,0,
6.38224E+17,41.41841,10.49681,37.49571,39.77834,32.34977,-130.6632,-16.98673,-0.4441859,-4.27255,-61.44649,-6.909645,34.57793,0,0,0,140.4403,-58.15593,-9.154938,-36.05464,-110.6632,-50.32285,0.001067912,-0.1257102,0.09433498,0,0.3,0,0,0,0,
6.38224E+17,38.80325,7.80832,37.19219,37.21476,35.05984,-130.7364,-16.98673,-0.4441859,-4.27255,-61.44649,-6.98289,34.57793,0,0,0,133.3021,-64.76139,-2.57492,-36.05464,-110.6632,-50.32285,0.001067912,-0.1257102,0.09433498,0,0.3,0,0,0,0,
6.38224E+17,37.34254,6.756301,36.7019,35.67661,36.45149,-130.7364,-16.98673,-0.4441859,-4.27255,-61.44649,-6.98289,34.57793,0,0,0,128.668,-67.87596,0.2910035,-36.05464,-110.6632,-50.32285,0.001067912,-0.1257102,0.09433498,0,0.3,0,0,0,0,
6.38224E+17,33.97346,5.236718,34.9742,32.01435,39.01508,-130.4434,-16.98673,-0.4441859,-4.27255,-61.51973,-6.98289,34.57793,0,0,0,116.9199,-73.74739,5.164233,-36.05464,-110.6632,-50.32285,0.001067912,-0.1257102,0.09433498,0,0.3,0,0,0,0,
6.38224E+17,30.01539,3.880782,33.12977,27.03368,41.6519,-129.7842,-16.98673,-0.4441859,-4.27255,-61.44649,-6.98289,34.57793,0,0,0,103.0104,-79.29672,9.958586,-36.05464,-110.6632,-50.32285,0.001067912,-0.1257102,0.09433498,0,0.3,0,0,0,0,
6.38224E+17,27.14108,3.156058,31.6122,23.29818,43.33654,-127.9531,-16.98673,-0.4441859,-4.27255,-61.51973,-6.98289,34.57793,0,0,0,92.62588,-82.87122,12.3373,-36.05464,-110.6632,-50.32285,0.001067912,-0.1257102,0.09433498,0,0.3,0,0,0,0,
6.38224E+17,23.79556,2.711872,29.65103,18.90347,45.02118,-125.0233,-16.98673,-0.4441859,-4.27255,-61.44649,-6.98289,34.57793,0,0,0,80.36042,-86.22919,13.8897,-36.05464,-110.6632,-50.32285,0.001067912,-0.1257102,0.09433498,0,0.3,0,0,0,0,
6.38224E+17,19.08357,2.641737,26.33572,13.19034,46.85231,-121.2878,-16.98673,-0.4441859,-4.27255,-61.44649,-6.909645,34.57793,0,0,0,62.89357,-90.01342,13.4444,-36.05464,-110.6632,-50.32285,0.001067912,-0.1257102,0.09433498,0,0.3,0,0,0,0,
6.38224E+17,16.44485,2.641737,24.77145,10.0408,47.51152,-119.9694,-16.98673,-0.4441859,-4.27255,-61.44649,-6.909645,34.57793,0,0,0,53.52764,-91.58379,12.99705,-36.05464,-110.6632,-50.32285,0.001067912,-0.1257102,0.09433498,0,0.3,0,0,0,0,
6.38224E+17,7.727668,2.688493,21.94643,-1.824918,48.68344,-119.6764,-16.98673,-0.4441859,-4.27255,-61.44649,-6.909645,34.57793,0,0,0,24.61261,-94.08173,13.02908,-36.05464,-110.6632,-50.32285,0.001067912,-0.1257102,0.09433498,0,0.3,0,0,0,0,
6.38224E+17,4.900472,2.73525,21.71296,-6.292873,48.75668,-120.4821,-16.98673,-0.4441859,-4.27255,-61.51973,-6.909645,34.57793,0,0,0,15.5928,-94.17508,13.5146,-36.05464,-110.6632,-50.32285,0.001067912,-0.1257102,0.09433498,0,0.3,0,0,0,0,
6.38224E+17,-0.8717186,2.922275,21.75965,-16.62044,48.02423,-123.5584,-16.98673,-0.4441859,-4.27255,-61.51973,-6.98289,34.57793,0,0,0,-2.778207,-93.70008,14.24016,-36.05464,-110.6632,-50.32285,0.001067912,-0.1257102,0.09433498,0,0.3,0,0,0,0,
6.38224E+17,-6.05491,3.506731,21.783,-26.14231,46.26635,-127.5136,-16.98673,-0.4441859,-4.27255,-61.44649,-6.98289,34.57793,0,0,0,-19.25939,-92.32182,13.21688,-36.05464,-110.6632,-50.32285,0.001067912,-0.1257102,0.09433498,0,0.3,0,0,0,0,
6.38224E+17,-8.599386,3.880782,21.89973,-31.04974,45.02118,-128.9785,-16.98673,-0.4441859,-4.27255,-61.51973,-6.98289,34.57793,0,0,0,-27.33037,-91.35198,12.37675,-36.05464,-110.6632,-50.32285,0.001067912,-0.1257102,0.09433498,0,0.3,0,0,0,0,
6.38224E+17,-12.86374,4.582128,22.60015,-39.47293,42.38435,-130.3702,-16.98673,-0.4441859,-4.27255,-61.51973,-6.98289,34.57793,0,0,0,-41.00233,-89.10688,11.19766,-36.05464,-110.6632,-50.32285,0.001067912,-0.1257102,0.09433498,0,0.3,0,0,0,0,
6.38224E+17,-16.23281,5.236718,23.37061,-46.21149,39.82077,-131.9816,-16.98673,-0.4441859,-4.27255,-61.44649,-6.909645,34.57793,0,0,0,-51.90806,-86.88877,9.937531,-36.05464,-110.6632,-50.32285,0.001067912,-0.1257102,0.09433498,0,0.3,0,0,0,0,
6.38224E+17,-17.55217,5.4705,23.65078,-48.77507,38.64885,-133.886,-16.98673,-0.4441859,-4.27255,-61.44649,-6.98289,34.57793,0,0,0,-56.16439,-86.08692,9.216764,-36.05464,-110.6632,-50.32285,0.001067912,-0.1257102,0.09433498,0,0.3,0,0,0,0,
6.38224E+17,-19.88461,5.914686,24.3045,-53.16978,36.45149,-136.9623,-16.98673,-0.4441859,-4.27255,-61.44649,-6.909645,34.57793,0,0,0,-63.78233,-84.43993,7.994763,-36.05464,-110.6632,-50.32285,0.001067912,-0.1257102,0.09433498,0,0.3,0,0,0,0,
6.38224E+17,-22.14636,6.218602,25.09831,-56.83204,34.54712,-137.3285,-16.98673,-0.4441859,-4.27255,-61.51973,-6.98289,34.50468,0,0,0,-71.29661,-82.96452,6.825595,-36.05464,-110.6632,-50.32285,0.001067912,-0.1257102,0.09433498,0,0.3,0,0,0,0,
6.38224E+17,-23.6542,6.288737,26.0789,-58.80966,33.52169,-138.2807,-16.98673,-0.4441859,-4.27255,-61.51973,-6.98289,34.50468,0,0,0,-76.70014,-81.81657,6.757982,-36.05464,-110.6632,-50.32285,0.001067912,-0.1257102,0.09433498,0,0.3,0,0,0,0,
6.38224E+17,-24.64372,6.335493,26.94275,-59.98158,32.86248,-138.5004,-16.98673,-0.4441859,-4.27255,-61.44649,-6.98289,34.50468,0,0,0,-80.45792,-80.81098,7.031652,-36.05464,-110.6632,-50.32285,0.001067912,-0.1257102,0.09433498,0,0.3,0,0,0,0,
6.38224E+17,-26.83479,6.522519,29.41755,-62.10569,31.39758,-138.6469,-16.98673,-0.4441859,-4.27255,-61.44649,-6.98289,34.50468,0,0,0,-89.37405,-77.65858,8.313888,-36.05464,-110.6632,-50.32285,0.001067912,-0.1257102,0.09433498,0,0.3,0,0,0,0,
6.38224E+17,-29.00231,6.919948,32.75621,-65.25523,29.78619,-139.9653,-16.98673,-0.4441859,-4.27255,-61.51973,-6.909645,34.57793,0,0,0,-99.16519,-72.72839,10.53172,-36.05464,-110.6632,-50.32285,0.001067912,-0.1257102,0.09433498,0,0.3,0,0,0,0,
6.38224E+17,-30.74575,7.714807,36.32835,-68.62451,28.0283,-141.6499,-16.98673,-0.4441859,-4.27255,-61.51973,-6.98289,34.57793,0,0,0,-107.9415,-66.18026,13.11403,-36.05464,-110.6632,-50.32285,0.001067912,-0.1257102,0.09433498,0,0.3,0,0,0,0,
6.38224E+17,-31.97087,9.257769,39.90048,-72.43327,26.19717,-142.0162,-16.98673,-0.4441859,-4.27255,-61.44649,-6.98289,34.57793,0,0,0,-114.979,-57.49789,15.86316,-36.05464,-110.6632,-50.32285,0.001067912,-0.1257102,0.09433498,0,0.3,0,0,0,0,
6.38224E+17,-32.3007,10.30979,41.4414,-74.1179,25.31823,-142.1627,-16.98673,-0.4441859,-4.27255,-61.51973,-6.98289,34.57793,0,0,0,-117.2687,-52.74788,17.14564,-36.05464,-110.6632,-50.32285,0.001067912,-0.1257102,0.09433498,0,0.3,0,0,0,0,
6.38224E+17,-32.77191,13.06842,44.8501,-77.34068,23.56034,-141.7232,-16.98673,-0.4441859,-4.27255,-61.44649,-6.98289,34.57793,0,0,0,-121.2189,-41.03671,19.94763,-36.05464,-110.6632,-50.32285,0.001067912,-0.1257102,0.09433498,0,0.3,0,0,0,0,
6.38224E+17,-32.88971,16.50501,48.81913,-80.56348,21.65597,-139.5991,-16.98673,-0.4441859,-4.27255,-61.51973,-6.98289,34.57793,0,0,0,-123.9284,-26.5681,23.2896,-36.05464,-110.6632,-50.32285,0.001067912,-0.1257102,0.09433498,0,0.3,0,0,0,0,
6.38224E+17,-32.84259,18.30513,50.73361,-81.80864,20.63054,-135.6438,-16.98673,-0.4441859,-4.27255,-61.44649,-6.98289,34.57793,0,0,0,-124.6515,-19.16856,24.75597,-36.05464,-110.6632,-50.32285,0.001067912,-0.1257102,0.09433498,0,0.3,0,0,0,0,
6.38224E+17,-32.46563,22.06903,54.81938,-84.44547,18.28669,-127.2939,-16.98673,-0.4441859,-4.27255,-61.44649,-6.98289,34.57793,0,0,0,-124.8431,-3.377687,27.87414,-36.05464,-110.6632,-50.32285,0.001067912,-0.1257102,0.09433498,0,0.3,0,0,0,0,
6.38224E+17,-31.71171,25.22508,58.27478,-86.86256,15.94285,-119.3834,-16.98673,-0.4441859,-4.27255,-61.51973,-6.98289,34.57793,0,0,0,-123.0319,10.05889,30.76454,-36.05464,-110.6632,-50.32285,0.001067912,-0.1257102,0.09433498,0,0.3,0,0,0,0,
6.38224E+17,-30.86355,27.63304,61.61344,-88.62045,13.37927,-109.8615,-16.98673,-0.4441859,-4.27255,-61.44649,-6.98289,34.57793,0,0,0,-120.7876,21.80167,33.76308,-36.05464,-110.6632,-50.32285,0.001067912,-0.1257102,0.09433498,0,0.3,0,0,0,0,
6.38224E+17,-30.46303,28.45127,62.96758,-89.3529,12.06085,-105.1006,-16.98673,-0.4441859,-4.27255,-61.44649,-6.98289,34.57793,0,0,0,-119.6609,26.27257,35.09394,-36.05464,-110.6632,-50.32285,0.001067912,-0.1257102,0.09433498,0,0.3,0,0,0,0,
6.38224E+17,-29.94471,29.33965,65.13887,-90.37833,9.8635,-97.11688,-16.98673,-0.4441859,-4.27255,-61.44649,-6.98289,34.57793,0,0,0,-118.4205,32.62654,37.21819,-36.05464,-110.6632,-50.32285,0.001067912,-0.1257102,0.09433498,0,0.3,0,0,0,0,
6.38224E+17,-29.73267,29.78383,65.88599,-90.96429,7.88588,-90.15859,-16.98673,-0.4441859,-4.27255,-61.51973,-6.98289,34.57793,0,0,0,-117.7634,35.10818,37.83799,-36.05464,-110.6632,-50.32285,0.001067912,-0.1257102,0.09433498,0,0.3,0,0,0,0,
6.38224E+17,-29.73267,29.87734,66.16615,-90.15859,5.542034,-81.00294,-16.98673,-0.4441859,-4.27255,-61.51973,-6.98289,34.57793,0,0,0,-117.8411,35.89279,37.97404,-36.05464,-110.6632,-50.32285,0.001067912,-0.1257102,0.09433498,0,0.3,0,0,0,0,
6.38224E+17,-29.92115,29.73707,66.28289,-89.3529,3.93064,-75.43631,-16.98673,-0.4441859,-4.27255,-61.44649,-6.98289,34.57793,0,0,0,-118.6548,35.85815,37.82086,-36.05464,-110.6632,-50.32285,0.001067912,-0.1257102,0.09433498,0,0.3,0,0,0,0,
6.38224E+17,-30.13319,29.57343,66.30624,-88.98667,3.051698,-72.79948,-16.98673,-0.4441859,-4.27255,-61.44649,-6.98289,34.57793,0,0,0,-119.5225,35.57692,37.56221,-36.05464,-110.6632,-50.32285,0.001067912,-0.1257102,0.09433498,0,0.3,0,0,0,0,
6.38224E+17,-30.69863,29.31627,66.30624,-88.62045,1.879776,-69.79643,-16.98673,-0.4441859,-4.27255,-61.44649,-6.98289,34.57793,0,0,0,-121.699,35.05571,36.62565,-36.05464,-110.6632,-50.32285,0.001067912,-0.1257102,0.09433498,0,0.3,0,0,0,0,
6.38224E+17,-31.47611,29.01235,66.09611,-88.69369,1.367059,-68.62451,-16.98673,-0.4441859,-4.27255,-61.44649,-6.98289,34.50468,0,0,0,-124.5461,33.99059,35.0811,-36.05464,-110.6632,-50.32285,0.001067912,-0.1257102,0.09433498,0,0.3,0,0,0,0,
6.38224E+17,-32.06511,28.66168,65.7459,-88.91342,1.147324,-68.84425,-16.98673,-0.4441859,-4.27255,-61.44649,-6.98289,34.57793,0,0,0,-126.6632,32.53149,33.84182,-36.05464,-110.6632,-50.32285,0.001067912,-0.1257102,0.09433498,0,0.3,0,0,0,0,
6.38224E+17,-33.2431,27.39925,64.9054,-89.57263,1.586795,-72.5065,-16.98673,-0.4441859,-4.27255,-61.44649,-6.98289,34.57793,0,0,0,-131.1024,28.16048,31.66688,-36.05464,-110.6632,-50.32285,0.001067912,-0.1257102,0.09433498,0,0.3,0,0,0,0,
6.38224E+17,-34.4211,25.66927,64.50849,-90.30508,2.538982,-79.53804,-16.98673,-0.4441859,-4.27255,-61.44649,-6.909645,34.57793,0,0,0,-135.9804,23.72317,30.08748,-36.05464,-110.6632,-50.32285,0.001067912,-0.1257102,0.09433498,0,0.3,0,0,0,0,
6.38224E+17,-35.41062,24.66401,64.27502,-91.62349,4.370111,-88.40071,-16.98673,-0.4441859,-4.27255,-61.51973,-6.98289,34.57793,0,0,0,-139.8274,21.11564,28.32905,-36.05464,-110.6632,-50.32285,0.001067912,-0.1257102,0.09433498,0,0.3,0,0,0,0,
6.38224E+17,-36.09386,24.43022,63.10766,-92.57568,5.688524,-94.40681,-16.98673,-0.4441859,-4.27255,-61.51973,-6.98289,34.57793,0,0,0,-141.5866,18.18525,25.85735,-36.05464,-110.6632,-50.32285,0.001067912,-0.1257102,0.09433498,0,0.3,0,0,0,0,
6.38224E+17,-36.87134,24.19644,60.44607,-93.16164,7.006938,-100.1199,-16.98673,-0.4441859,-4.27255,-61.44649,-6.909645,34.50468,0,0,0,-142.5856,12.23178,21.75416,-36.05464,-110.6632,-50.32285,0.001067912,-0.1257102,0.09433498,0,0.3,0,0,0,0,
6.38224E+17,-37.74306,23.3782,55.84666,-92.35595,8.618331,-107.0782,-16.98673,-0.4441859,-4.27255,-61.44649,-6.98289,34.57793,0,0,0,-142.4743,1.399133,15.70415,-36.05464,-110.6632,-50.32285,0.001067912,-0.1257102,0.09433498,0,0.3,0,0,0,0,
6.38224E+17,-37.97866,22.79375,53.46524,-91.40376,9.424027,-109.7883,-16.98673,-0.4441859,-4.27255,-61.44649,-6.98289,34.57793,0,0,0,-141.5852,-4.37285,13.01005,-36.05464,-110.6632,-50.32285,0.001067912,-0.1257102,0.09433498,0,0.3,0,0,0,0,
6.38224E+17,-38.12002,20.57282,44.73336,-87.15554,11.91436,-117.4058,-16.98673,-0.4441859,-4.27255,-61.44649,-6.98289,34.57793,0,0,0,-135.005,-24.52162,3.704464,-36.05464,-110.6632,-50.32285,0.001067912,-0.1257102,0.09433498,0,0.3,0,0,0,0,
6.38224E+17,-37.93154,19.98837,41.74491,-85.54414,12.72006,-119.2369,-16.98673,-0.4441859,-4.27255,-61.44649,-6.98289,34.57793,0,0,0,-131.6137,-30.5617,0.523447,-36.05464,-110.6632,-50.32285,0.001067912,-0.1257102,0.09433498,0,0.3,0,0,0,0,
6.38224E+17,-37.2483,19.26364,35.13763,-81.95513,14.25821,-122.6794,-16.98673,-0.4441859,-4.27255,-61.51973,-6.98289,34.57793,0,0,0,-122.6474,-41.70566,-7.050563,-36.05464,-110.6632,-50.32285,0.001067912,-0.1257102,0.09433498,0,0.3,0,0,0,0,
6.38224E+17,-35.57554,19.12337,27.61982,-77.99989,16.23583,-123.8514,-16.98673,-0.4441859,-4.27255,-61.44649,-6.98289,34.57793,0,0,0,-109.2648,-51.11797,-15.59284,-36.05464,-110.6632,-50.32285,0.001067912,-0.1257102,0.09433498,0,0.3,0,0,0,0,
6.38224E+17,-34.09126,19.12337,23.37061,-75.58281,17.33451,-123.9979,-16.98673,-0.4441859,-4.27255,-61.51973,-6.98289,34.57793,0,0,0,-100.269,-55.37383,-20.20463,-36.05464,-110.6632,-50.32285,0.001067912,-0.1257102,0.09433498,0,0.3,0,0,0,0,
6.38224E+17,-30.43947,19.12337,16.2497,-70.16266,19.82484,-124.9501,-16.98673,-0.4441859,-4.27255,-61.51973,-6.909645,34.57793,0,0,0,-82.73518,-60.98695,-27.5536,-36.05464,-110.6632,-50.32285,0.001067912,-0.1257102,0.09433498,0,0.3,0,0,0,0,
6.38224E+17,-26.2458,19.12337,11.01991,-64.59603,23.19412,-126.7812,-16.98673,-0.4441859,-4.27255,-61.51973,-6.909645,34.57793,0,0,0,-66.98837,-63.85524,-32.48591,-36.05464,-110.6632,-50.32285,0.001067912,-0.1257102,0.09433498,0,0.3,0,0,0,0,
6.38224E+17,-23.70132,19.12337,8.988697,-61.73947,25.17174,-127.1474,-16.98673,-0.4441859,-4.27255,-61.51973,-6.98289,34.50468,0,0,0,-59.01936,-64.67645,-33.90858,-36.05464,-110.6632,-50.32285,0.001067912,-0.1257102,0.09433498,0,0.3,0,0,0,0,
6.38224E+17,-18.23541,19.12337,6.327109,-56.46581,28.834,-127.2939,-16.98673,-0.4441859,-4.27255,-61.44649,-6.98289,34.57793,0,0,0,-44.02402,-65.50185,-34.72855,-36.05464,-110.6632,-50.32285,0.001067912,-0.1257102,0.09433498,0,0.3,0,0,0,0,
6.38224E+17,-11.73286,19.12337,5.439913,-50.16673,33.22871,-127.0009,-16.98673,-0.4441859,-4.27255,-61.44649,-6.98289,34.57793,0,0,0,-28.19085,-65.71352,-32.6136,-36.05464,-110.6632,-50.32285,0.001067912,-0.1257102,0.09433498,0,0.3,0,0,0,0,
6.38224E+17,-4.688432,19.17013,5.953553,-42.47599,37.62342,-123.1189,-16.98673,-0.4441859,-4.27255,-61.51973,-6.98289,34.50468,0,0,0,-11.42579,-65.49205,-29.03094,-36.05464,-110.6632,-50.32285,0.001067912,-0.1257102,0.09433498,0,0.3,0,0,0,0,
6.38224E+17,-1.083758,19.24026,6.630623,-38.15452,39.67428,-120.4088,-16.98673,-0.4441859,-4.27255,-61.51973,-6.98289,34.57793,0,0,0,-2.67254,-65.1652,-27.07587,-36.05464,-110.6632,-50.32285,0.001067912,-0.1257102,0.09433498,0,0.3,0,0,0,0,
6.38224E+17,6.573229,19.63769,9.292212,-27.24099,43.40979,-114.8422,-16.98673,-0.4441859,-4.27255,-61.51973,-6.98289,34.57793,0,0,0,16.84194,-63.43504,-22.19126,-36.05464,-110.6632,-50.32285,0.001067912,-0.1257102,0.09433498,0,0.3,0,0,0,0,
6.38224E+17,15.76161,20.43255,14.75547,-11.05381,46.41284,-108.1037,-16.98673,-0.4441859,-4.27255,-61.44649,-6.909645,34.57793,0,0,0,43.1693,-59.04926,-15.40189,-36.05464,-110.6632,-50.32285,0.001067912,-0.1257102,0.09433498,0,0.3,0,0,0,0,
6.38224E+17,20.28513,21.15727,18.56108,-1.605182,47.14529,-106.4923,-16.98673,-0.4441859,-4.27255,-61.51973,-6.909645,34.57793,0,0,0,57.83126,-54.93387,-11.88699,-36.05464,-110.6632,-50.32285,0.001067912,-0.1257102,0.09433498,0,0.3,0,0,0,0,
6.38224E+17,22.87672,21.83524,21.01254,4.181186,47.07204,-106.1993,-16.98673,-0.4441859,-4.27255,-61.44649,-6.98289,34.57793,0,0,0,66.70894,-51.53444,-10.24866,-36.05464,-110.6632,-50.32285,0.001067912,-0.1257102,0.09433498,0,0.3,0,0,0,0,
6.38224E+17,26.90548,23.40158,25.54191,13.48332,46.04661,-108.5431,-16.98673,-0.4441859,-4.27255,-61.51973,-6.909645,34.57793,0,0,0,81.39828,-44.00468,-7.943206,-36.05464,-110.6632,-50.32285,0.001067912,-0.1257102,0.09433498,0,0.3,0,0,0,0,
6.38224E+17,29.89759,25.31859,30.46818,20.5881,44.14224,-118.5777,-16.98673,-0.4441859,-4.27255,-61.51973,-6.98289,34.57793,0,0,0,93.78726,-34.55853,-5.233078,-36.05464,-110.6632,-50.32285,0.001067912,-0.1257102,0.09433498,0,0.3,0,0,0,0,
6.38224E+17,32.65411,27.44601,36.11822,26.08149,41.43217,-132.5675,-16.98673,-0.4441859,-4.27255,-61.44649,-6.98289,34.57793,0,0,0,106.2645,-22.90777,-2.533945,-36.05464,-110.6632,-50.32285,0.001067912,-0.1257102,0.09433498,0,0.3,0,0,0,0,
6.38224E+17,33.87922,28.49803,38.75646,28.42534,39.89402,-137.6215,-16.98673,-0.4441859,-4.27255,-61.51973,-6.98289,34.57793,0,0,0,111.8629,-17.01309,-1.749971,-36.05464,-110.6632,-50.32285,0.001067912,-0.1257102,0.09433498,0,0.3,0,0,0,0,
6.38224E+17,36.16454,31.11639,43.75277,33.40601,36.37825,-141.7232,-16.98673,-0.4441859,-4.27255,-61.51973,-6.98289,34.57793,0,0,0,121.787,-4.06039,-1.732962,-36.05464,-110.6632,-50.32285,0.001067912,-0.1257102,0.09433498,0,0.3,0,0,0,0,
6.38224E+17,38.04934,34.01529,47.58173,38.53317,32.42301,-142.0162,-16.98673,-0.4441859,-4.27255,-61.51973,-6.98289,34.57793,0,0,0,128.8006,7.998241,-3.785039,-36.05464,-110.6632,-50.32285,0.001067912,-0.1257102,0.09433498,0,0.3,0,0,0,0,
6.38224E+17,38.8975,35.44136,48.79579,41.02351,30.22566,-142.0894,-16.98673,-0.4441859,-4.27255,-61.44649,-6.909645,34.57793,0,0,0,131.2181,12.83196,-5.715126,-36.05464,-110.6632,-50.32285,0.001067912,-0.1257102,0.09433498,0,0.3,0,0,0,0,
6.38224E+17,40.57025,37.24148,50.14993,45.19848,26.5634,-142.0894,-16.98673,-0.4441859,-4.27255,-61.44649,-6.909645,34.57793,0,0,0,135.6269,18.60203,-9.945041,-36.05464,-110.6632,-50.32285,0.001067912,-0.1257102,0.09433498,0,0.3,0,0,0,0,
6.38224E+17,42.50217,37.47526,49.9398,48.42127,23.92657,-142.0894,-16.98673,-0.4441859,-4.27255,-61.51973,-6.98289,34.57793,0,0,0,140.4547,18.65964,-15.08227,-36.05464,-110.6632,-50.32285,0.001067912,-0.1257102,0.09433498,0,0.3,0,0,0,0,
6.38224E+17,45.11733,36.58689,48.56231,50.47213,22.90114,-142.1627,-16.98673,-0.4441859,-4.27255,-61.51973,-6.909645,34.57793,0,0,0,146.7011,14.58037,-22.24846,-36.05464,-110.6632,-50.32285,0.001067912,-0.1257102,0.09433498,0,0.3,0,0,0,0,
6.38224E+17,48.62776,34.90366,46.50775,51.79055,22.60816,-142.1627,-16.98673,-0.4441859,-4.27255,-61.51973,-6.98289,34.57793,0,0,0,154.6665,7.873641,-32.12624,-36.05464,-110.6632,-50.32285,0.001067912,-0.1257102,0.09433498,0,0.3,0,0,0,0,
6.38224E+17,49.9,34.17893,45.87738,52.15677,22.60816,-142.1627,-16.98673,-0.4441859,-4.27255,-61.44649,-6.909645,34.57793,0,0,0,157.6076,5.425485,-35.63203,-36.05464,-110.6632,-50.32285,0.001067912,-0.1257102,0.09433498,0,0.3,0,0,0,0,
6.38224E+17,52.82143,32.35543,44.8501,53.03571,22.6814,-142.1627,-16.98673,-0.4441859,-4.27255,-61.44649,-6.98289,34.57793,0,0,0,164.6834,0.1758399,-43.44559,-36.05464,-110.6632,-50.32285,0.001067912,-0.1257102,0.09433498,0,0.3,0,0,0,0,
6.38224E+17,54.89471,30.55531,44.8034,54.06115,22.53491,-142.1627,-16.98673,-0.4441859,-4.27255,-61.44649,-6.98289,34.50468,0,0,0,170.8198,-3.474549,-48.27229,-36.05464,-110.6632,-50.32285,0.001067912,-0.1257102,0.09433498,0,0.3,0,0,0,0,
6.38224E+17,55.29523,29.85397,44.8501,54.50062,22.60816,-142.1627,-16.98673,-0.4441859,-4.27255,-61.51973,-6.98289,34.57793,0,0,0,172.3934,-4.808625,-48.95789,-36.05464,-110.6632,-50.32285,0.001067912,-0.1257102,0.09433498,0,0.3,0,0,0,0,
6.38224E+17,55.27167,28.03047,44.8034,54.7936,22.90114,-142.1627,-16.98673,-0.4441859,-4.27255,-61.51973,-6.98289,34.57793,0,0,0,173.9688,-8.599048,-47.76095,-36.05464,-110.6632,-50.32285,0.001067912,-0.1257102,0.09433498,0,0.3,0,0,0,0,
6.38224E+17,55.27167,26.44075,45.48048,54.13439,23.78008,-142.1627,-16.98673,-0.4441859,-4.27255,-61.44649,-6.909645,34.57793,0,0,0,176.2739,-10.77163,-46.16315,-36.05464,-110.6632,-50.32285,0.001067912,-0.1257102,0.09433498,0,0.3,0,0,0,0,
6.38224E+17,55.27167,25.48224,47.4183,53.84141,24.51253,-142.1627,-16.98673,-0.4441859,-4.27255,-61.51973,-6.98289,34.57793,0,0,0,179.6303,-9.508714,-43.83664,-36.05464,-110.6632,-50.32285,0.001067912,-0.1257102,0.09433498,0,0.3,0,0,0,0,
6.38224E+17,55.24811,25.45886,48.2588,53.9879,24.80551,-142.1627,-16.98673,-0.4441859,-4.27255,-61.44649,-6.909645,34.57793,0,0,0,180.6771,-8.107818,-43.001,-36.05464,-110.6632,-50.32285,0.001067912,-0.1257102,0.09433498,0,0.3,0,0,0,0,
6.38224E+17,54.96539,26.30048,51.01377,54.35413,24.73227,-142.1627,-16.98673,-0.4441859,-4.27255,-61.44649,-6.98289,34.57793,0,0,0,182.7562,-1.460414,-40.21814,-36.05464,-110.6632,-50.32285,0.001067912,-0.1257102,0.09433498,0,0.3,0,0,0,0,
6.38224E+17,54.47063,27.04858,55.21629,54.72035,24.07306,-142.2359,-16.98673,-0.4441859,-4.27255,-61.44649,-6.98289,34.57793,0,0,0,185.7834,7.916823,-35.68827,-36.05464,-110.6632,-50.32285,0.001067912,-0.1257102,0.09433498,0,0.3,0,0,0,0,
6.38224E+17,54.18791,27.18885,58.15804,55.08658,23.78008,-142.2359,-16.98673,-0.4441859,-4.27255,-61.44649,-6.98289,34.57793,0,0,0,188.0548,13.92839,-32.66025,-36.05464,-110.6632,-50.32285,0.001067912,-0.1257102,0.09433498,0,0.3,0,0,0,0,
6.38224E+17,53.41043,27.21223,65.349,56.69797,23.12087,-142.2359,-16.98673,-0.4441859,-4.27255,-61.44649,-6.909645,34.57793,0,0,0,192.5319,28.71037,-25.41758,-36.05464,-110.6632,-50.32285,0.001067912,-0.1257102,0.09433498,0,0.3,0,0,0,0,
6.38224E+17,52.60939,27.23561,71.58272,58.96857,22.38842,-142.2359,-16.98673,-0.4441859,-4.27255,-61.51973,-6.98289,34.57793,0,0,0,194.724,42.24774,-19.5228,-36.05464,-110.6632,-50.32285,0.001067912,-0.1257102,0.09433498,0,0.3,0,0,0,0,
6.38224E+17,51.80835,27.49277,76.509,61.6054,21.58273,-142.1627,-16.98673,-0.4441859,-4.27255,-61.51973,-6.98289,34.57793,0,0,0,194.8843,53.79965,-15.0372,-36.05464,-110.6632,-50.32285,0.001067912,-0.1257102,0.09433498,0,0.3,0,0,0,0,
6.38224E+17,51.00732,28.45127,79.75426,63.876,20.77703,-142.1627,-16.98673,-0.4441859,-4.27255,-61.44649,-6.98289,34.57793,0,0,0,193.1158,63.16042,-12.00873,-36.05464,-110.6632,-50.32285,0.001067912,-0.1257102,0.09433498,0,0.3,0,0,0,0,
6.38224E+17,50.51255,29.176,80.75819,65.04792,20.26431,-142.1627,-16.98673,-0.4441859,-4.27255,-61.44649,-6.98289,34.57793,0,0,0,191.4364,66.94111,-10.61247,-36.05464,-110.6632,-50.32285,0.001067912,-0.1257102,0.09433498,0,0.3,0,0,0,0,
6.38224E+17,49.1932,30.50856,82.15903,67.09879,19.23888,-142.0894,-16.98673,-0.4441859,-4.27255,-61.51973,-6.909645,34.57793,0,0,0,186.9521,72.85526,-6.938542,-36.05464,-110.6632,-50.32285,0.001067912,-0.1257102,0.09433498,0,0.3,0,0,0,0,
6.38224E+17,47.0728,31.49044,83.16296,68.71018,18.35994,-142.1627,-16.98673,-0.4441859,-4.27255,-61.44649,-6.98289,34.57793,0,0,0,180.2087,77.13145,-0.7302456,-36.05464,-110.6632,-50.32285,0.001067912,-0.1257102,0.09433498,0,0.3,0,0,0,0,
6.38224E+17,45.777,31.81774,83.55987,69.22289,18.06696,-142.1627,-16.98673,-0.4441859,-4.27255,-61.44649,-6.909645,34.57793,0,0,0,176.1621,78.69742,3.097802,-36.05464,-110.6632,-50.32285,0.001067912,-0.1257102,0.09433498,0,0.3,0,0,0,0,
6.38224E+17,42.73777,32.14503,83.86338,70.10184,17.84722,-142.1627,-16.98673,-0.4441859,-4.27255,-61.44649,-6.98289,34.57793,0,0,0,166.6029,80.04569,11.95724,-36.05464,-110.6632,-50.32285,0.001067912,-0.1257102,0.09433498,0,0.3,0,0,0,0,
6.38224E+17,39.13309,32.05152,83.7233,70.54131,17.77398,-142.1627,-16.98673,-0.4441859,-4.27255,-61.44649,-6.98289,34.57793,0,0,0,154.9878,79.5372,22.13753,-36.05464,-110.6632,-50.32285,0.001067912,-0.1257102,0.09433498,0,0.3,0,0,0,0,
6.38224E+17,35.08078,31.79436,82.64932,70.6878,17.26126,-142.1627,-16.98673,-0.4441859,-4.27255,-61.44649,-6.98289,34.57793,0,0,0,141.1505,76.54734,32.63018,-36.05464,-110.6632,-50.32285,0.001067912,-0.1257102,0.09433498,0,0.3,0,0,0,0,
6.38224E+17,33.19599,31.58395,81.41192,70.46806,16.82179,-142.1627,-16.98673,-0.4441859,-4.27255,-61.51973,-6.98289,34.57793,0,0,0,134.3862,73.27859,37.04502,-36.05464,-110.6632,-50.32285,0.001067912,-0.1257102,0.09433498,0,0.3,0,0,0,0,
6.38224E+17,29.82691,31.02288,77.72305,69.36938,15.79636,-142.1627,-16.98673,-0.4441859,-4.27255,-61.44649,-6.98289,34.57793,0,0,0,121.6477,63.72077,43.82773,-36.05464,-110.6632,-50.32285,0.001067912,-0.1257102,0.09433498,0,0.3,0,0,0,0,
6.38224E+17,27.02328,30.55531,73.59058,66.80581,14.62444,-142.1627,-16.98673,-0.4441859,-4.27255,-61.51973,-6.98289,34.57793,0,0,0,110.2946,53.46987,47.8981,-36.05464,-110.6632,-50.32285,0.001067912,-0.1257102,0.09433498,0,0.3,0,0,0,0,
6.38224E+17,25.93952,30.50856,71.69946,65.3409,14.11172,-142.1627,-16.98673,-0.4441859,-4.27255,-61.44649,-6.909645,34.57793,0,0,0,105.6347,49.17529,48.81467,-36.05464,-110.6632,-50.32285,0.001067912,-0.1257102,0.09433498,0,0.3,0,0,0,0,
