zeyangz2/DNN_classification_different_people_hand/data_by_names/Frank/frank_right_16.csv
Timestamp,Therapist joint angle 0,Therapist joint angle 1,Therapist joint angle 2,Therapist joint angle 3,Therapist joint angle 4,Therapist joint angle 5,Patient joint angle 0,Patient joint angle 1,Patient joint angle 2,Patient joint angle 3,Patient joint angle 4,Patient joint angle 5,Virtual joint angle 0,Virtual joint angle 1,Virtual joint angle 2,Therapist position x,Therapist position y,Therapist position z,Patient position x,Patient position y,Patient position z,Virtual position x,Virtual position y,Virtual position z,Assistive Force, Obstacle Force Magnitude, Therapist Constant Force, Patient Constant Force, Recovery Factor, Assistance Level,label
6.38224E+17,0,0,0,0,0,0,0,0,0,0,0,0,0,0,0,0,0,0,0,0,0,0,0,0,0,0.3,0,0,0,0,1
6.38224E+17,25.56256,42.85225,51.7142,43.00113,-0.7570504,-141.8697,-17.01029,-0.4441859,-4.27255,-61.44649,-6.98289,34.57793,0,0,0,87.34807,31.42107,14.26564,-36.10317,-110.6632,-50.33768,0.001067912,-0.1257102,0.09433498,0,0.3,0,0,0,0,
6.38224E+17,25.39764,44.37183,54.28239,46.73663,-3.686857,-141.9429,-17.01029,-0.4441859,-4.27255,-61.44649,-6.909645,34.57793,0,0,0,87.31856,38.75476,15.56202,-36.10317,-110.6632,-50.33768,0.001067912,-0.1257102,0.09433498,0,0.3,0,0,0,0,
6.38224E+17,24.8322,46.82654,57.03737,52.37651,-8.521038,-142.0162,-17.01029,-0.4441859,-4.27255,-61.51973,-6.98289,34.57793,0,0,0,85.30414,48.04559,15.99292,-36.10317,-110.6632,-50.33768,0.001067912,-0.1257102,0.09433498,0,0.3,0,0,0,0,
6.38224E+17,24.50236,47.87856,57.71444,54.42737,-10.86488,-142.0162,-17.01029,-0.4441859,-4.27255,-61.44649,-6.909645,34.57793,0,0,0,83.84695,51.03154,15.61526,-36.10317,-110.6632,-50.33768,0.001067912,-0.1257102,0.09433498,0,0.3,0,0,0,0,
6.38224E+17,24.10184,49.25787,58.27478,56.84446,-14.82012,-142.0894,-17.01029,-0.4441859,-4.27255,-61.51973,-6.909645,34.57793,0,0,0,81.85835,54.26167,14.63085,-36.10317,-110.6632,-50.33768,0.001067912,-0.1257102,0.09433498,0,0.3,0,0,0,0,
6.38224E+17,24.03116,49.91246,58.13469,58.01638,-17.89642,-142.0894,-17.01029,-0.4441859,-4.27255,-61.44649,-6.909645,34.57793,0,0,0,81.09024,54.97226,13.51541,-36.10317,-110.6632,-50.33768,0.001067912,-0.1257102,0.09433498,0,0.3,0,0,0,0,
6.38224E+17,24.03116,49.91246,57.83118,58.16287,-19.6543,-142.0894,-17.01029,-0.4441859,-4.27255,-61.51973,-6.98289,34.57793,0,0,0,80.93772,54.37331,13.17335,-36.10317,-110.6632,-50.33768,0.001067912,-0.1257102,0.09433498,0,0.3,0,0,0,0,
6.38224E+17,24.03116,49.91246,57.5977,58.01638,-20.53325,-142.0894,-17.01029,-0.4441859,-4.27255,-61.51973,-6.98289,34.57793,0,0,0,80.81953,53.91394,12.90827,-36.10317,-110.6632,-50.33768,0.001067912,-0.1257102,0.09433498,0,0.3,0,0,0,0,
6.38224E+17,24.03116,49.88908,57.31754,57.79665,-21.04596,-142.0894,-17.01029,-0.4441859,-4.27255,-61.44649,-6.98289,34.57793,0,0,0,80.69363,53.32921,12.62593,-36.10317,-110.6632,-50.33768,0.001067912,-0.1257102,0.09433498,0,0.3,0,0,0,0,
6.38224E+17,24.03116,49.84233,57.06072,57.43042,-21.41219,-142.0894,-17.01029,-0.4441859,-4.27255,-61.51973,-6.98289,34.57793,0,0,0,80.59562,52.7567,12.4061,-36.10317,-110.6632,-50.33768,0.001067912,-0.1257102,0.09433498,0,0.3,0,0,0,0,
6.38224E+17,24.03116,49.79557,56.8039,57.21069,-21.55868,-142.0894,-17.01029,-0.4441859,-4.27255,-61.51973,-6.98289,34.50468,0,0,0,80.49667,52.18559,12.18417,-36.10317,-110.6632,-50.33768,0.001067912,-0.1257102,0.09433498,0,0.3,0,0,0,0,
6.38224E+17,24.21964,49.21112,54.14231,55.59929,-21.19245,-142.0894,-17.01029,-0.4441859,-4.27255,-61.51973,-6.98289,34.57793,0,0,0,80.07423,46.19923,9.660028,-36.10317,-110.6632,-50.33768,0.001067912,-0.1257102,0.09433498,0,0.3,0,0,0,0,
6.38224E+17,24.361,48.67342,52.69478,54.50062,-20.82623,-142.0894,-17.01029,-0.4441859,-4.27255,-61.44649,-6.909645,34.57793,0,0,0,80.07425,42.67201,8.492573,-36.10317,-110.6632,-50.33768,0.001067912,-0.1257102,0.09433498,0,0.3,0,0,0,0,
6.38224E+17,24.7144,47.06033,49.23938,51.57081,-19.14159,-141.8697,-17.01029,-0.4441859,-4.27255,-61.51973,-6.98289,34.57793,0,0,0,80.2103,33.90748,5.924336,-36.10317,-110.6632,-50.33768,0.001067912,-0.1257102,0.09433498,0,0.3,0,0,0,0,
6.38224E+17,24.97356,44.86277,45.62056,48.20153,-16.28502,-141.7964,-17.01029,-0.4441859,-4.27255,-61.44649,-6.909645,34.57793,0,0,0,80.14481,24.15066,3.728383,-36.10317,-110.6632,-50.33768,0.001067912,-0.1257102,0.09433498,0,0.3,0,0,0,0,
6.38224E+17,25.0678,43.64711,43.86951,46.5169,-14.74688,-141.7964,-17.01029,-0.4441859,-4.27255,-61.51973,-6.98289,34.57793,0,0,0,80.03794,19.25545,2.762999,-36.10317,-110.6632,-50.33768,0.001067912,-0.1257102,0.09433498,0,0.3,0,0,0,0,
6.38224E+17,25.09136,40.98199,40.27403,43.07437,-10.71839,-140.0385,-17.01029,-0.4441859,-4.27255,-61.44649,-6.909645,34.57793,0,0,0,79.24519,9.062933,0.886803,-36.10317,-110.6632,-50.33768,0.001067912,-0.1257102,0.09433498,0,0.3,0,0,0,0,
6.38224E+17,25.0678,37.89607,37.12215,40.07132,-6.396928,-139.2328,-17.01029,-0.4441859,-4.27255,-61.44649,-6.98289,34.57793,0,0,0,78.68307,-1.069,-0.1335793,-36.10317,-110.6632,-50.33768,0.001067912,-0.1257102,0.09433498,0,0.3,0,0,0,0,
6.38224E+17,24.80864,34.41272,34.55396,37.58098,-2.002218,-138.8666,-17.01029,-0.4441859,-4.27255,-61.51973,-6.98289,34.57793,0,0,0,77.89497,-11.11329,0.1634126,-36.10317,-110.6632,-50.33768,0.001067912,-0.1257102,0.09433498,0,0.3,0,0,0,0,
6.38224E+17,24.52592,32.4957,33.38659,36.33582,0.4148723,-138.9399,-17.01029,-0.4441859,-4.27255,-61.44649,-6.98289,34.57793,0,0,0,77.14814,-16.35367,0.7333956,-36.10317,-110.6632,-50.33768,0.001067912,-0.1257102,0.09433498,0,0.3,0,0,0,0,
6.38224E+17,23.60708,28.49803,31.30868,33.47925,5.76177,-139.0864,-17.01029,-0.4441859,-4.27255,-61.51973,-6.98289,34.57793,0,0,0,74.68124,-26.95649,2.53105,-36.10317,-110.6632,-50.33768,0.001067912,-0.1257102,0.09433498,0,0.3,0,0,0,0,
6.38224E+17,22.38196,24.94454,29.86115,30.62269,10.15648,-139.5991,-17.01029,-0.4441859,-4.27255,-61.44649,-6.909645,34.57793,0,0,0,71.32209,-36.05658,4.845093,-36.10317,-110.6632,-50.33768,0.001067912,-0.1257102,0.09433498,0,0.3,0,0,0,0,
6.38224E+17,21.48668,23.02753,29.20743,28.86481,12.57357,-140.5513,-17.01029,-0.4441859,-4.27255,-61.51973,-6.909645,34.57793,0,0,0,68.78665,-40.88275,6.394178,-36.10317,-110.6632,-50.33768,0.001067912,-0.1257102,0.09433498,0,0.3,0,0,0,0,
6.38224E+17,19.36629,19.70782,28.27354,25.42229,16.82179,-141.5767,-17.01029,-0.4441859,-4.27255,-61.44649,-6.98289,34.57793,0,0,0,62.57552,-49.12204,9.677103,-36.10317,-110.6632,-50.33768,0.001067912,-0.1257102,0.09433498,0,0.3,0,0,0,0,
6.38224E+17,16.35061,16.85568,27.10618,21.10082,20.77703,-141.9429,-17.01029,-0.4441859,-4.27255,-61.51973,-6.909645,34.57793,0,0,0,53.0319,-56.68689,12.41206,-36.10317,-110.6632,-50.33768,0.001067912,-0.1257102,0.09433498,0,0.3,0,0,0,0,
6.38224E+17,12.81662,14.98543,26.33572,16.33988,23.99982,-142.0162,-17.01029,-0.4441859,-4.27255,-61.51973,-6.909645,34.57793,0,0,0,41.69831,-61.67885,14.9397,-36.10317,-110.6632,-50.33768,0.001067912,-0.1257102,0.09433498,0,0.3,0,0,0,0,
6.38224E+17,8.670066,14.09706,26.05555,11.28597,26.34366,-142.0894,-17.01029,-0.4441859,-4.27255,-61.44649,-6.909645,34.57793,0,0,0,28.32593,-63.96804,17.40981,-36.10317,-110.6632,-50.33768,0.001067912,-0.1257102,0.09433498,0,0.3,0,0,0,0,
6.38224E+17,6.07847,14.02692,25.98551,8.209671,27.29585,-142.0894,-17.01029,-0.4441859,-4.27255,-61.44649,-6.909645,34.57793,0,0,0,19.88625,-64.19789,18.39439,-36.10317,-110.6632,-50.33768,0.001067912,-0.1257102,0.09433498,0,0.3,0,0,0,0,
6.38224E+17,1.060198,14.30746,26.35906,1.69085,28.24804,-142.0894,-17.01029,-0.4441859,-4.27255,-61.44649,-6.98289,34.57793,0,0,0,3.486328,-63.18135,20.03845,-36.10317,-110.6632,-50.33768,0.001067912,-0.1257102,0.09433498,0,0.3,0,0,0,0,
6.38224E+17,-3.958073,15.38286,27.54977,-5.194195,27.88181,-142.1627,-17.01029,-0.4441859,-4.27255,-61.51973,-6.98289,34.57793,0,0,0,-13.13226,-59.50592,21.44584,-36.10317,-110.6632,-50.33768,0.001067912,-0.1257102,0.09433498,0,0.3,0,0,0,0,
6.38224E+17,-6.21983,16.17772,28.39028,-8.563474,27.36909,-142.0894,-17.01029,-0.4441859,-4.27255,-61.44649,-6.909645,34.57793,0,0,0,-20.74497,-56.80824,21.99709,-36.10317,-110.6632,-50.33768,0.001067912,-0.1257102,0.09433498,0,0.3,0,0,0,0,
6.38224E+17,-10.8847,18.16486,30.91178,-16.03448,25.53797,-141.9429,-17.01029,-0.4441859,-4.27255,-61.51973,-6.98289,34.57793,0,0,0,-36.86186,-49.48671,23.34657,-36.10317,-110.6632,-50.33768,0.001067912,-0.1257102,0.09433498,0,0.3,0,0,0,0,
6.38224E+17,-14.3009,20.17539,33.87688,-23.28575,23.12087,-141.7232,-17.01029,-0.4441859,-4.27255,-61.51973,-6.909645,34.57793,0,0,0,-49.27895,-41.37038,24.96637,-36.10317,-110.6632,-50.33768,0.001067912,-0.1257102,0.09433498,0,0.3,0,0,0,0,
6.38224E+17,-15.95009,22.48983,36.39838,-29.65808,20.55729,-141.6499,-17.01029,-0.4441859,-4.27255,-61.51973,-6.98289,34.50468,0,0,0,-55.60241,-32.97585,26.19806,-36.10317,-110.6632,-50.33768,0.001067912,-0.1257102,0.09433498,0,0.3,0,0,0,0,
6.38224E+17,-16.30349,23.89252,37.33228,-32.4414,19.09239,-140.185,-17.01029,-0.4441859,-4.27255,-61.44649,-6.98289,34.57793,0,0,0,-56.92858,-28.67113,26.28651,-36.10317,-110.6632,-50.33768,0.001067912,-0.1257102,0.09433498,0,0.3,0,0,0,0,
6.38224E+17,-16.37417,26.86156,38.54634,-36.39664,16.6753,-138.2074,-17.01029,-0.4441859,-4.27255,-61.44649,-6.909645,34.57793,0,0,0,-56.96207,-20.69127,25.5131,-36.10317,-110.6632,-50.33768,0.001067912,-0.1257102,0.09433498,0,0.3,0,0,0,0,
6.38224E+17,-16.35061,30.27477,39.78374,-38.88697,13.96523,-135.2776,-17.01029,-0.4441859,-4.27255,-61.44649,-6.909645,34.57793,0,0,0,-56.44167,-11.89677,24.03442,-36.10317,-110.6632,-50.33768,0.001067912,-0.1257102,0.09433498,0,0.3,0,0,0,0,
6.38224E+17,-15.97365,34.13218,41.06784,-41.23082,9.790254,-134.4719,-17.01029,-0.4441859,-4.27255,-61.44649,-6.909645,34.57793,0,0,0,-54.48438,-2.363657,21.98991,-36.10317,-110.6632,-50.33768,0.001067912,-0.1257102,0.09433498,0,0.3,0,0,0,0,
6.38224E+17,-15.19618,36.47,42.07177,-42.25625,6.933692,-134.5452,-17.01029,-0.4441859,-4.27255,-61.44649,-6.98289,34.57793,0,0,0,-51.5307,3.626964,21.36456,-36.10317,-110.6632,-50.33768,0.001067912,-0.1257102,0.09433498,0,0.3,0,0,0,0,
6.38224E+17,-14.46582,37.82593,42.63211,-42.54923,5.175808,-134.5452,-17.01029,-0.4441859,-4.27255,-61.51973,-6.98289,34.57793,0,0,0,-48.87297,7.020886,21.09396,-36.10317,-110.6632,-50.33768,0.001067912,-0.1257102,0.09433498,0,0.3,0,0,0,0,
6.38224E+17,-12.69882,40.56118,43.63604,-41.96327,1.733285,-134.5452,-17.01029,-0.4441859,-4.27255,-61.51973,-6.98289,34.57793,0,0,0,-42.49878,13.55167,20.25008,-36.10317,-110.6632,-50.33768,0.001067912,-0.1257102,0.09433498,0,0.3,0,0,0,0,
6.38224E+17,-10.71978,42.80549,44.21972,-40.79135,-1.489502,-136.4495,-17.01029,-0.4441859,-4.27255,-61.44649,-6.98289,34.57793,0,0,0,-35.49625,18.39485,19.15375,-36.10317,-110.6632,-50.33768,0.001067912,-0.1257102,0.09433498,0,0.3,0,0,0,0,
6.38224E+17,-9.518225,43.74062,44.24307,-39.91241,-2.954405,-138.8666,-17.01029,-0.4441859,-4.27255,-61.51973,-6.909645,34.57793,0,0,0,-31.31631,20.01737,18.42393,-36.10317,-110.6632,-50.33768,0.001067912,-0.1257102,0.09433498,0,0.3,0,0,0,0,
6.38224E+17,-6.973749,44.88615,43.91621,-37.93478,-5.371496,-141.5767,-17.01029,-0.4441859,-4.27255,-61.44649,-6.909645,34.57793,0,0,0,-22.70115,21.39581,17.23894,-36.10317,-110.6632,-50.33768,0.001067912,-0.1257102,0.09433498,0,0.3,0,0,0,0,
6.38224E+17,-4.005194,45.28358,42.86558,-35.00498,-7.12938,-141.8697,-17.01029,-0.4441859,-4.27255,-61.51973,-6.909645,34.57793,0,0,0,-12.88956,20.36911,15.73957,-36.10317,-110.6632,-50.33768,0.001067912,-0.1257102,0.09433498,0,0.3,0,0,0,0,
6.38224E+17,-2.049716,45.23682,41.95504,-32.80762,-7.715342,-141.9429,-17.01029,-0.4441859,-4.27255,-61.51973,-6.98289,34.57793,0,0,0,-6.547194,18.86327,14.58579,-36.10317,-110.6632,-50.33768,0.001067912,-0.1257102,0.09433498,0,0.3,0,0,0,0,
6.38224E+17,1.743437,44.74588,40.39077,-28.26642,-8.081567,-142.0162,-17.01029,-0.4441859,-4.27255,-61.44649,-6.98289,34.57793,0,0,0,5.510411,15.6585,12.68655,-36.10317,-110.6632,-50.33768,0.001067912,-0.1257102,0.09433498,0,0.3,0,0,0,0,
6.38224E+17,4.358593,43.83413,39.29345,-24.31118,-7.788587,-142.0894,-17.01029,-0.4441859,-4.27255,-61.51973,-6.909645,34.57793,0,0,0,13.72846,12.50336,11.76884,-36.10317,-110.6632,-50.33768,0.001067912,-0.1257102,0.09433498,0,0.3,0,0,0,0,
6.38224E+17,7.209348,42.05739,37.84592,-19.69674,-6.98289,-142.0894,-17.01029,-0.4441859,-4.27255,-61.44649,-6.98289,34.57793,0,0,0,22.69259,7.376142,11.04496,-36.10317,-110.6632,-50.33768,0.001067912,-0.1257102,0.09433498,0,0.3,0,0,0,0,
6.38224E+17,8.552266,40.79496,36.95872,-17.57263,-6.470173,-142.1627,-17.01029,-0.4441859,-4.27255,-61.44649,-6.98289,34.57793,0,0,0,26.93586,3.918931,10.7642,-36.10317,-110.6632,-50.33768,0.001067912,-0.1257102,0.09433498,0,0.3,0,0,0,0,
6.38224E+17,10.69622,37.91945,35.06759,-14.20335,-4.932025,-142.0894,-17.01029,-0.4441859,-4.27255,-61.44649,-6.98289,34.57793,0,0,0,33.7446,-3.842978,10.30281,-36.10317,-110.6632,-50.33768,0.001067912,-0.1257102,0.09433498,0,0.3,0,0,0,0,
6.38224E+17,12.48678,34.38934,33.76015,-11.85951,-3.174141,-142.1627,-17.01029,-0.4441859,-4.27255,-61.51973,-6.98289,34.57793,0,0,0,39.8154,-12.19548,11.44198,-36.10317,-110.6632,-50.33768,0.001067912,-0.1257102,0.09433498,0,0.3,0,0,0,0,
6.38224E+17,14.25378,30.06437,32.96634,-9.735395,-0.9035407,-142.1627,-17.01029,-0.4441859,-4.27255,-61.51973,-6.98289,34.57793,0,0,0,46.28179,-21.72467,13.83465,-36.10317,-110.6632,-50.33768,0.001067912,-0.1257102,0.09433498,0,0.3,0,0,0,0,
6.38224E+17,15.52601,24.7809,32.8963,-7.538041,1.440305,-142.1627,-17.01029,-0.4441859,-4.27255,-61.51973,-6.98289,34.57793,0,0,0,51.79417,-32.72442,18.085,-36.10317,-110.6632,-50.33768,0.001067912,-0.1257102,0.09433498,0,0.3,0,0,0,0,
6.38224E+17,15.85585,22.02227,32.98969,-6.659099,2.905208,-142.1627,-17.01029,-0.4441859,-4.27255,-61.44649,-6.909645,34.57793,0,0,0,53.61305,-38.49796,20.41196,-36.10317,-110.6632,-50.33768,0.001067912,-0.1257102,0.09433498,0,0.3,0,0,0,0,
6.38224E+17,16.04433,16.10758,33.80684,-5.560421,6.127995,-142.1627,-17.01029,-0.4441859,-4.27255,-61.51973,-6.98289,34.57793,0,0,0,55.91472,-50.45606,26.07989,-36.10317,-110.6632,-50.33768,0.001067912,-0.1257102,0.09433498,0,0.3,0,0,0,0,
6.38224E+17,16.06789,10.75397,35.09094,-5.413931,9.204292,-142.1627,-17.01029,-0.4441859,-4.27255,-61.51973,-6.98289,34.57793,0,0,0,57.47749,-60.88032,31.20507,-36.10317,-110.6632,-50.33768,0.001067912,-0.1257102,0.09433498,0,0.3,0,0,0,0,
6.38224E+17,16.37417,8.275885,36.04818,-5.706912,10.52271,-142.0894,-17.01029,-0.4441859,-4.27255,-61.44649,-6.98289,34.57793,0,0,0,59.32301,-65.27211,33.54827,-36.10317,-110.6632,-50.33768,0.001067912,-0.1257102,0.09433498,0,0.3,0,0,0,0,
6.38224E+17,17.88201,4.886045,37.84592,-5.560421,12.20734,-142.1627,-17.01029,-0.4441859,-4.27255,-61.44649,-6.909645,34.57793,0,0,0,65.91948,-70.59365,35.95993,-36.10317,-110.6632,-50.33768,0.001067912,-0.1257102,0.09433498,0,0.3,0,0,0,0,
6.38224E+17,20.12021,3.693756,39.15337,-3.656047,13.37927,-142.0894,-17.01029,-0.4441859,-4.27255,-61.51973,-6.98289,34.57793,0,0,0,74.73888,-71.46653,35.66062,-36.10317,-110.6632,-50.33768,0.001067912,-0.1257102,0.09433498,0,0.3,0,0,0,0,
6.38224E+17,22.64112,3.857404,40.62424,0.006211365,13.96523,-142.0894,-17.01029,-0.4441859,-4.27255,-61.51973,-6.909645,34.57793,0,0,0,84.64125,-68.89117,34.5769,-36.10317,-110.6632,-50.33768,0.001067912,-0.1257102,0.09433498,0,0.3,0,0,0,0,
6.38224E+17,24.05472,4.044429,41.79161,2.350057,13.89198,-142.1627,-17.01029,-0.4441859,-4.27255,-61.51973,-6.98289,34.57793,0,0,0,90.44249,-66.66707,34.26616,-36.10317,-110.6632,-50.33768,0.001067912,-0.1257102,0.09433498,0,0.3,0,0,0,0,
6.38224E+17,27.16464,4.699019,44.94349,7.550464,13.52576,-142.1627,-17.01029,-0.4441859,-4.27255,-61.51973,-6.909645,34.57793,0,0,0,103.6829,-60.11142,33.70176,-36.10317,-110.6632,-50.33768,0.001067912,-0.1257102,0.09433498,0,0.3,0,0,0,0,
6.38224E+17,31.33475,6.990083,49.4962,16.12015,12.64682,-142.0894,-17.01029,-0.4441859,-4.27255,-61.51973,-6.98289,34.57793,0,0,0,121.5604,-47.03225,31.30883,-36.10317,-110.6632,-50.33768,0.001067912,-0.1257102,0.09433498,0,0.3,0,0,0,0,
6.38224E+17,32.88971,8.836961,51.06047,21.10082,11.91436,-142.1627,-17.01029,-0.4441859,-4.27255,-61.51973,-6.909645,34.57793,0,0,0,127.8755,-39.97479,29.39338,-36.10317,-110.6632,-50.33768,0.001067912,-0.1257102,0.09433498,0,0.3,0,0,0,0,
6.38224E+17,34.56246,11.38519,53.3485,27.76613,10.88893,-142.1627,-17.01029,-0.4441859,-4.27255,-61.51973,-6.98289,34.57793,0,0,0,134.854,-29.92897,27.40628,-36.10317,-110.6632,-50.33768,0.001067912,-0.1257102,0.09433498,0,0.3,0,0,0,0,
6.38224E+17,35.29282,12.7645,54.72599,30.76918,10.37621,-142.1627,-17.01029,-0.4441859,-4.27255,-61.44649,-6.98289,34.57793,0,0,0,138.0381,-24.19502,26.65998,-36.10317,-110.6632,-50.33768,0.001067912,-0.1257102,0.09433498,0,0.3,0,0,0,0,
6.38224E+17,36.32946,15.78029,56.89729,36.18932,9.350782,-142.1627,-17.01029,-0.4441859,-4.27255,-61.44649,-6.909645,34.57793,0,0,0,142.2007,-13.21356,25.02435,-36.10317,-110.6632,-50.33768,0.001067912,-0.1257102,0.09433498,0,0.3,0,0,0,0,
6.38224E+17,37.17762,19.84809,58.4849,41.38973,8.325351,-142.1627,-17.01029,-0.4441859,-4.27255,-61.44649,-6.909645,34.57793,0,0,0,144.4911,-1.079142,22.16448,-36.10317,-110.6632,-50.33768,0.001067912,-0.1257102,0.09433498,0,0.3,0,0,0,0,
6.38224E+17,37.53102,22.11578,59.11527,43.80682,7.592898,-142.1627,-17.01029,-0.4441859,-4.27255,-61.44649,-6.98289,34.57793,0,0,0,144.9752,5.103317,20.37376,-36.10317,-110.6632,-50.33768,0.001067912,-0.1257102,0.09433498,0,0.3,0,0,0,0,
6.38224E+17,37.81374,26.74467,59.88574,48.20153,5.90826,-142.1627,-17.01029,-0.4441859,-4.27255,-61.51973,-6.909645,34.57793,0,0,0,143.7317,16.45436,16.85602,-36.10317,-110.6632,-50.33768,0.001067912,-0.1257102,0.09433498,0,0.3,0,0,0,0,
6.38224E+17,37.69594,31.77098,60.14256,52.30326,3.78415,-142.1627,-17.01029,-0.4441859,-4.27255,-61.51973,-6.98289,34.57793,0,0,0,140.0383,27.17468,12.86499,-36.10317,-110.6632,-50.33768,0.001067912,-0.1257102,0.09433498,0,0.3,0,0,0,0,
6.38224E+17,37.46034,34.50623,60.14256,54.06115,2.392492,-142.1627,-17.01029,-0.4441859,-4.27255,-61.51973,-6.98289,34.57793,0,0,0,137.1756,32.50476,10.67715,-36.10317,-110.6632,-50.33768,0.001067912,-0.1257102,0.09433498,0,0.3,0,0,0,0,
6.38224E+17,36.58862,39.43903,60.14256,57.13744,-0.4640697,-142.0162,-17.01029,-0.4441859,-4.27255,-61.51973,-6.909645,34.57793,0,0,0,130.3216,41.67403,7.200984,-36.10317,-110.6632,-50.33768,0.001067912,-0.1257102,0.09433498,0,0.3,0,0,0,0,
6.38224E+17,35.29282,44.16143,59.55888,59.92076,-3.979838,-141.7232,-17.01029,-0.4441859,-4.27255,-61.44649,-6.909645,34.57793,0,0,0,121.6928,48.69044,3.568579,-36.10317,-110.6632,-50.33768,0.001067912,-0.1257102,0.09433498,0,0.3,0,0,0,0,
6.38224E+17,34.51534,46.14857,58.81176,61.01944,-5.737722,-140.5513,-17.01029,-0.4441859,-4.27255,-61.44649,-6.98289,34.57793,0,0,0,116.9862,50.45836,1.768305,-36.10317,-110.6632,-50.33768,0.001067912,-0.1257102,0.09433498,0,0.3,0,0,0,0,
6.38224E+17,32.01799,49.91246,54.81938,61.67865,-11.30435,-130.8096,-17.01029,-0.4441859,-4.27255,-61.44649,-6.909645,34.57793,0,0,0,103.314,48.54056,-3.128414,-36.10317,-110.6632,-50.33768,0.001067912,-0.1257102,0.09433498,0,0.3,0,0,0,0,
6.38224E+17,31.57035,50.23976,53.3952,60.94619,-12.40303,-128.9785,-17.01029,-0.4441859,-4.27255,-61.51973,-6.909645,34.57793,0,0,0,100.6969,46.34425,-4.479636,-36.10317,-110.6632,-50.33768,0.001067912,-0.1257102,0.09433498,0,0.3,0,0,0,0,
6.38224E+17,30.91067,50.09949,50.14993,58.60235,-14.01443,-125.0965,-17.01029,-0.4441859,-4.27255,-61.51973,-6.909645,34.57793,0,0,0,96.53171,40.20258,-7.1254,-36.10317,-110.6632,-50.33768,0.001067912,-0.1257102,0.09433498,0,0.3,0,0,0,0,
6.38224E+17,30.81643,49.37476,46.67118,56.2585,-14.38065,-120.4821,-17.01029,-0.4441859,-4.27255,-61.51973,-6.909645,34.57793,0,0,0,94.173,33.05792,-10.47627,-36.10317,-110.6632,-50.33768,0.001067912,-0.1257102,0.09433498,0,0.3,0,0,0,0,
6.38224E+17,30.83999,48.79031,44.49989,55.23307,-14.30741,-117.8453,-17.01029,-0.4441859,-4.27255,-61.44649,-6.909645,34.57793,0,0,0,92.95192,28.55754,-12.66885,-36.10317,-110.6632,-50.33768,0.001067912,-0.1257102,0.09433498,0,0.3,0,0,0,0,
6.38224E+17,30.81643,46.94343,39.50357,52.66949,-13.28197,-111.5462,-17.01029,-0.4441859,-4.27255,-61.44649,-6.909645,34.57793,0,0,0,90.09535,17.89533,-17.31212,-36.10317,-110.6632,-50.33768,0.001067912,-0.1257102,0.09433498,0,0.3,0,0,0,0,
6.38224E+17,30.69863,44.18481,34.5773,49.37346,-11.08462,-106.126,-17.01029,-0.4441859,-4.27255,-61.44649,-6.98289,34.50468,0,0,0,87.45409,6.496382,-21.0525,-36.10317,-110.6632,-50.33768,0.001067912,-0.1257102,0.09433498,0,0.3,0,0,0,0,
6.38224E+17,30.74575,40.79496,30.56157,45.63795,-7.27587,-102.3905,-17.01029,-0.4441859,-4.27255,-61.51973,-6.909645,34.57793,0,0,0,86.27333,-4.350687,-23.31308,-36.10317,-110.6632,-50.33768,0.001067912,-0.1257102,0.09433498,0,0.3,0,0,0,0,
6.38224E+17,30.86355,39.20525,29.20743,44.02656,-5.225006,-101.0721,-17.01029,-0.4441859,-4.27255,-61.44649,-6.98289,34.57793,0,0,0,86.38959,-8.755153,-23.7949,-36.10317,-110.6632,-50.33768,0.001067912,-0.1257102,0.09433498,0,0.3,0,0,0,0,
6.38224E+17,31.38187,35.51149,26.68592,41.02351,0.268382,-99.75371,-17.01029,-0.4441859,-4.27255,-61.51973,-6.909645,34.57793,0,0,0,87.71033,-18.33728,-24.5551,-36.10317,-110.6632,-50.33768,0.001067912,-0.1257102,0.09433498,0,0.3,0,0,0,0,
6.38224E+17,31.85307,32.91651,25.70534,39.63185,4.150376,-99.60722,-17.01029,-0.4441859,-4.27255,-61.51973,-6.98289,34.57793,0,0,0,89.60126,-24.33866,-24.13639,-36.10317,-110.6632,-50.33768,0.001067912,-0.1257102,0.09433498,0,0.3,0,0,0,0,
6.38224E+17,31.97087,31.30341,25.56526,39.04589,6.567466,-99.82695,-17.01029,-0.4441859,-4.27255,-61.44649,-6.98289,34.57793,0,0,0,90.79854,-27.65962,-22.87743,-36.10317,-110.6632,-50.33768,0.001067912,-0.1257102,0.09433498,0,0.3,0,0,0,0,
6.38224E+17,31.68815,28.33438,25.6353,38.0937,10.96218,-101.1454,-17.01029,-0.4441859,-4.27255,-61.51973,-6.909645,34.57793,0,0,0,91.96162,-33.58374,-19.38253,-36.10317,-110.6632,-50.33768,0.001067912,-0.1257102,0.09433498,0,0.3,0,0,0,0,
6.38224E+17,31.05203,25.71602,25.54191,36.99502,15.28364,-103.9287,-17.01029,-0.4441859,-4.27255,-61.44649,-6.909645,34.57793,0,0,0,91.62914,-39.10568,-16.1667,-36.10317,-110.6632,-50.33768,0.001067912,-0.1257102,0.09433498,0,0.3,0,0,0,0,
6.38224E+17,30.76931,24.47698,25.5886,36.26257,17.26126,-106.0528,-17.01029,-0.4441859,-4.27255,-61.51973,-6.98289,34.57793,0,0,0,91.55297,-41.67024,-14.58125,-36.10317,-110.6632,-50.33768,0.001067912,-0.1257102,0.09433498,0,0.3,0,0,0,0,
6.38224E+17,29.87403,22.4197,25.86877,34.87091,20.70378,-110.008,-17.01029,-0.4441859,-4.27255,-61.51973,-6.98289,34.57793,0,0,0,90.38072,-45.77964,-11.00812,-36.10317,-110.6632,-50.33768,0.001067912,-0.1257102,0.09433498,0,0.3,0,0,0,0,
6.38224E+17,28.29551,20.36242,25.84542,32.89329,24.07306,-113.2308,-17.01029,-0.4441859,-4.27255,-61.51973,-6.909645,34.57793,0,0,0,86.81674,-50.26138,-7.083557,-36.10317,-110.6632,-50.33768,0.001067912,-0.1257102,0.09433498,0,0.3,0,0,0,0,
6.38224E+17,26.10444,18.63243,25.91546,30.32971,27.14936,-115.5014,-17.01029,-0.4441859,-4.27255,-61.44649,-6.909645,34.57793,0,0,0,81.24352,-53.98556,-2.543834,-36.10317,-110.6632,-50.33768,0.001067912,-0.1257102,0.09433498,0,0.3,0,0,0,0,
6.38224E+17,24.10184,17.74406,25.86877,28.05911,28.90724,-116.5269,-17.01029,-0.4441859,-4.27255,-61.51973,-6.909645,34.57793,0,0,0,75.62346,-55.99728,0.693802,-36.10317,-110.6632,-50.33768,0.001067912,-0.1257102,0.09433498,0,0.3,0,0,0,0,
6.38224E+17,21.41601,16.83231,25.79873,25.1293,30.51864,-117.6255,-17.01029,-0.4441859,-4.27255,-61.51973,-6.909645,34.57793,0,0,0,67.79576,-58.09443,4.502256,-36.10317,-110.6632,-50.33768,0.001067912,-0.1257102,0.09433498,0,0.3,0,0,0,0,
6.38224E+17,17.10453,16.03745,25.68199,20.00214,32.27652,-119.5299,-17.01029,-0.4441859,-4.27255,-61.44649,-6.909645,34.57793,0,0,0,54.69111,-59.98678,9.376215,-36.10317,-110.6632,-50.33768,0.001067912,-0.1257102,0.09433498,0,0.3,0,0,0,0,
6.38224E+17,14.67786,15.94393,25.51856,16.99909,32.93573,-120.6286,-17.01029,-0.4441859,-4.27255,-61.51973,-6.98289,34.57793,0,0,0,47.04527,-60.36035,11.25867,-36.10317,-110.6632,-50.33768,0.001067912,-0.1257102,0.09433498,0,0.3,0,0,0,0,
6.38224E+17,6.973749,16.01407,25.49521,6.158805,34.1809,-123.1189,-17.01029,-0.4441859,-4.27255,-61.51973,-6.909645,34.57793,0,0,0,22.53136,-60.22683,15.85092,-36.10317,-110.6632,-50.33768,0.001067912,-0.1257102,0.09433498,0,0.3,0,0,0,0,
6.38224E+17,4.146553,16.10758,25.72869,1.910586,34.25414,-123.5584,-17.01029,-0.4441859,-4.27255,-61.51973,-6.909645,34.57793,0,0,0,13.44952,-59.78279,17.16671,-36.10317,-110.6632,-50.33768,0.001067912,-0.1257102,0.09433498,0,0.3,0,0,0,0,
6.38224E+17,-1.036638,16.66866,26.75597,-6.073137,33.88792,-124.0711,-17.01029,-0.4441859,-4.27255,-61.51973,-6.909645,34.57793,0,0,0,-3.397264,-57.47284,19.39886,-36.10317,-110.6632,-50.33768,0.001067912,-0.1257102,0.09433498,0,0.3,0,0,0,0,
6.38224E+17,-5.513031,18.18824,27.92333,-13.83713,32.78923,-124.1443,-17.01029,-0.4441859,-4.27255,-61.44649,-6.909645,34.57793,0,0,0,-18.17048,-52.85086,19.90888,-36.10317,-110.6632,-50.33768,0.001067912,-0.1257102,0.09433498,0,0.3,0,0,0,0,
6.38224E+17,-7.397828,19.1935,28.46032,-17.13316,31.9103,-122.9724,-17.01029,-0.4441859,-4.27255,-61.51973,-6.909645,34.57793,0,0,0,-24.39777,-50.04421,19.55823,-36.10317,-110.6632,-50.33768,0.001067912,-0.1257102,0.09433498,0,0.3,0,0,0,0,
6.38224E+17,-10.4135,21.43781,29.62768,-22.48005,29.85943,-119.3834,-17.01029,-0.4441859,-4.27255,-61.44649,-6.909645,34.57793,0,0,0,-34.35123,-43.82707,18.56702,-36.10317,-110.6632,-50.33768,0.001067912,-0.1257102,0.09433498,0,0.3,0,0,0,0,
6.38224E+17,-12.4161,24.10293,30.79504,-26.58179,27.44234,-115.2084,-17.01029,-0.4441859,-4.27255,-61.51973,-6.909645,34.57793,0,0,0,-40.8507,-36.74112,17.20105,-36.10317,-110.6632,-50.33768,0.001067912,-0.1257102,0.09433498,0,0.3,0,0,0,0,
6.38224E+17,-13.09934,25.62251,31.23864,-28.11993,26.34366,-113.0111,-17.01029,-0.4441859,-4.27255,-61.51973,-6.98289,34.57793,0,0,0,-42.92393,-33.00033,16.11427,-36.10317,-110.6632,-50.33768,0.001067912,-0.1257102,0.09433498,0,0.3,0,0,0,0,
6.38224E+17,-14.27734,29.69032,31.98576,-30.53703,24.2928,-108.7629,-17.01029,-0.4441859,-4.27255,-61.51973,-6.909645,34.57793,0,0,0,-45.98884,-23.70494,12.37005,-36.10317,-110.6632,-50.33768,0.001067912,-0.1257102,0.09433498,0,0.3,0,0,0,0,
6.38224E+17,-15.05481,34.78677,33.40994,-32.29491,22.0222,-105.7598,-17.01029,-0.4441859,-4.27255,-61.44649,-6.909645,34.57793,0,0,0,-47.51836,-11.88487,8.314699,-36.10317,-110.6632,-50.33768,0.001067912,-0.1257102,0.09433498,0,0.3,0,0,0,0,
6.38224E+17,-15.43177,39.76632,35.74466,-33.68657,19.16564,-103.416,-17.01029,-0.4441859,-4.27255,-61.51973,-6.909645,34.57793,0,0,0,-48.00287,0.4177505,5.546577,-36.10317,-110.6632,-50.33768,0.001067912,-0.1257102,0.09433498,0,0.3,0,0,0,0,
6.38224E+17,-15.43177,42.24441,37.07546,-34.27253,17.55424,-102.0243,-17.01029,-0.4441859,-4.27255,-61.44649,-6.909645,34.57793,0,0,0,-47.65926,6.608226,4.301808,-36.10317,-110.6632,-50.33768,0.001067912,-0.1257102,0.09433498,0,0.3,0,0,0,0,
6.38224E+17,-15.2433,47.24735,39.62031,-35.29796,13.89198,-99.46073,-17.01029,-0.4441859,-4.27255,-61.44649,-6.909645,34.57793,0,0,0,-46.15781,18.54991,1.032998,-36.10317,-110.6632,-50.33768,0.001067912,-0.1257102,0.09433498,0,0.3,0,0,0,0,
6.38224E+17,-14.13598,53.13866,41.67487,-36.83611,8.618331,-98.58179,-17.01029,-0.4441859,-4.27255,-61.51973,-6.909645,34.57793,0,0,0,-41.19053,30.43884,-4.798321,-36.10317,-110.6632,-50.33768,0.001067912,-0.1257102,0.09433498,0,0.3,0,0,0,0,
6.38224E+17,-12.72238,56.2012,42.09512,-37.56856,5.322299,-98.50854,-17.01029,-0.4441859,-4.27255,-61.44649,-6.909645,34.57793,0,0,0,-36.02315,35.21324,-8.793277,-36.10317,-110.6632,-50.33768,0.001067912,-0.1257102,0.09433498,0,0.3,0,0,0,0,
6.38224E+17,-11.54438,57.86105,42.02508,-37.71505,3.344679,-98.50854,-17.01029,-0.4441859,-4.27255,-61.51973,-6.98289,34.57793,0,0,0,-32.06247,37.20621,-11.38036,-36.10317,-110.6632,-50.33768,0.001067912,-0.1257102,0.09433498,0,0.3,0,0,0,0,
6.38224E+17,-8.528707,60.29239,41.27797,-37.05584,-0.3175794,-99.68047,-17.01029,-0.4441859,-4.27255,-61.44649,-6.98289,34.57793,0,0,0,-22.84748,38.95832,-15.99612,-36.10317,-110.6632,-50.33768,0.001067912,-0.1257102,0.09433498,0,0.3,0,0,0,0,
6.38224E+17,-4.594193,61.74184,40.1573,-34.93173,-3.100896,-103.123,-17.01029,-0.4441859,-4.27255,-61.51973,-6.98289,34.57793,0,0,0,-11.94498,38.89146,-19.69939,-36.10317,-110.6632,-50.33768,0.001067912,-0.1257102,0.09433498,0,0.3,0,0,0,0,
6.38224E+17,-0.6361189,61.76521,38.31286,-31.56245,-5.00527,-109.0558,-17.01029,-0.4441859,-4.27255,-61.51973,-6.909645,34.57793,0,0,0,-1.618215,36.20216,-22.60197,-36.10317,-110.6632,-50.33768,0.001067912,-0.1257102,0.09433498,0,0.3,0,0,0,0,
6.38224E+17,1.013078,61.20414,37.12215,-29.80457,-5.371496,-112.6449,-17.01029,-0.4441859,-4.27255,-61.51973,-6.909645,34.57793,0,0,0,2.558605,33.88342,-23.6603,-36.10317,-110.6632,-50.33768,0.001067912,-0.1257102,0.09433498,0,0.3,0,0,0,0,
6.38224E+17,3.557554,59.1001,34.60065,-26.58179,-5.225006,-119.9694,-17.01029,-0.4441859,-4.27255,-61.44649,-6.909645,34.57793,0,0,0,8.948007,28.00869,-24.42415,-36.10317,-110.6632,-50.33768,0.001067912,-0.1257102,0.09433498,0,0.3,0,0,0,0,
6.38224E+17,5.183192,55.75702,31.44877,-24.38443,-3.686857,-126.7812,-17.01029,-0.4441859,-4.27255,-61.44649,-6.909645,34.57793,0,0,0,13.06413,19.82311,-24.33129,-36.10317,-110.6632,-50.33768,0.001067912,-0.1257102,0.09433498,0,0.3,0,0,0,0,
6.38224E+17,5.772191,52.39055,28.95061,-23.50549,-1.709238,-132.4211,-17.01029,-0.4441859,-4.27255,-61.44649,-6.909645,34.57793,0,0,0,14.67658,12.30218,-23.16084,-36.10317,-110.6632,-50.33768,0.001067912,-0.1257102,0.09433498,0,0.3,0,0,0,0,
6.38224E+17,6.172709,47.78505,26.35906,-23.43224,1.440305,-138.8666,-17.01029,-0.4441859,-4.27255,-61.44649,-6.909645,34.57793,0,0,0,16.00054,2.627417,-20.40627,-36.10317,-110.6632,-50.33768,0.001067912,-0.1257102,0.09433498,0,0.3,0,0,0,0,
6.38224E+17,6.24339,42.54833,23.97764,-24.0182,5.395544,-141.5034,-17.01029,-0.4441859,-4.27255,-61.51973,-6.909645,34.57793,0,0,0,16.57717,-8.31959,-16.82339,-36.10317,-110.6632,-50.33768,0.001067912,-0.1257102,0.09433498,0,0.3,0,0,0,0,
6.38224E+17,6.26695,39.43903,22.95036,-24.60417,7.812634,-141.8697,-17.01029,-0.4441859,-4.27255,-61.51973,-6.98289,34.57793,0,0,0,16.9182,-14.73293,-14.2922,-36.10317,-110.6632,-50.33768,0.001067912,-0.1257102,0.09433498,0,0.3,0,0,0,0,
6.38224E+17,6.785269,30.48518,21.96978,-26.4353,15.8696,-142.2359,-17.01029,-0.4441859,-4.27255,-61.51973,-6.909645,34.57793,0,0,0,19.47141,-32.66579,-4.699986,-36.10317,-110.6632,-50.33768,0.001067912,-0.1257102,0.09433498,0,0.3,0,0,0,0,
6.38224E+17,6.973749,28.19411,21.96978,-26.80152,17.99371,-142.0162,-17.01029,-0.4441859,-4.27255,-61.44649,-6.909645,34.57793,0,0,0,20.32685,-37.31373,-2.171716,-36.10317,-110.6632,-50.33768,0.001067912,-0.1257102,0.09433498,0,0.3,0,0,0,0,
6.38224E+17,7.916147,23.40158,22.53011,-27.31424,22.53491,-141.9429,-17.01029,-0.4441859,-4.27255,-61.51973,-6.909645,34.57793,0,0,0,23.89185,-46.85945,3.473579,-36.10317,-110.6632,-50.33768,0.001067912,-0.1257102,0.09433498,0,0.3,0,0,0,0,
6.38224E+17,9.659584,19.7312,23.55739,-27.02126,25.68446,-142.0162,-17.01029,-0.4441859,-4.27255,-61.44649,-6.909645,34.57793,0,0,0,30.0043,-53.86662,7.931009,-36.10317,-110.6632,-50.33768,0.001067912,-0.1257102,0.09433498,0,0.3,0,0,0,0,
6.38224E+17,10.93182,18.25838,24.32785,-26.50854,26.92962,-142.0162,-17.01029,-0.4441859,-4.27255,-61.51973,-6.98289,34.57793,0,0,0,34.43323,-56.38003,9.925915,-36.10317,-110.6632,-50.33768,0.001067912,-0.1257102,0.09433498,0,0.3,0,0,0,0,
6.38224E+17,14.48938,16.76217,26.17229,-24.16469,28.834,-142.0162,-17.01029,-0.4441859,-4.27255,-61.44649,-6.909645,34.57793,0,0,0,46.66261,-57.86977,12.21906,-36.10317,-110.6632,-50.33768,0.001067912,-0.1257102,0.09433498,0,0.3,0,0,0,0,
6.38224E+17,18.82441,16.90244,27.92333,-19.69674,29.4932,-142.0894,-17.01029,-0.4441859,-4.27255,-61.44649,-6.909645,34.57793,0,0,0,61.31867,-55.70415,11.5212,-36.10317,-110.6632,-50.33768,0.001067912,-0.1257102,0.09433498,0,0.3,0,0,0,0,
6.38224E+17,23.81912,17.46352,30.70166,-13.76388,28.76075,-142.0894,-17.01029,-0.4441859,-4.27255,-61.51973,-6.98289,34.57793,0,0,0,78.86713,-51.2912,10.30422,-36.10317,-110.6632,-50.33768,0.001067912,-0.1257102,0.09433498,0,0.3,0,0,0,0,
6.38224E+17,26.52852,17.88433,32.77956,-10.10162,28.10155,-142.0894,-17.01029,-0.4441859,-4.27255,-61.51973,-6.98289,34.57793,0,0,0,88.92805,-47.81403,9.789988,-36.10317,-110.6632,-50.33768,0.001067912,-0.1257102,0.09433498,0,0.3,0,0,0,0,
6.38224E+17,31.75883,19.1935,37.86926,-1.238957,25.7577,-142.0894,-17.01029,-0.4441859,-4.27255,-61.44649,-6.909645,34.57793,0,0,0,109.3724,-38.0782,8.332972,-36.10317,-110.6632,-50.33768,0.001067912,-0.1257102,0.09433498,0,0.3,0,0,0,0,
6.38224E+17,35.26926,20.5962,42.2352,6.232051,23.04763,-142.0894,-17.01029,-0.4441859,-4.27255,-61.51973,-6.909645,34.65118,0,0,0,123.8342,-28.47144,6.746367,-36.10317,-110.6632,-50.33768,0.001067912,-0.1257102,0.09433498,0,0.3,0,0,0,0,
6.38224E+17,36.68286,21.43781,44.31311,9.894309,21.36299,-142.0894,-17.01029,-0.4441859,-4.27255,-61.51973,-6.909645,34.57793,0,0,0,129.7997,-23.32807,5.898386,-36.10317,-110.6632,-50.33768,0.001067912,-0.1257102,0.09433498,0,0.3,0,0,0,0,
6.38224E+17,38.5441,23.12104,47.4183,15.60743,17.92047,-142.0162,-17.01029,-0.4441859,-4.27255,-61.51973,-6.98289,34.57793,0,0,0,137.6006,-14.51686,4.364645,-36.10317,-110.6632,-50.33768,0.001067912,-0.1257102,0.09433498,0,0.3,0,0,0,0,
6.38224E+17,39.58073,24.82765,49.4962,19.70916,14.69768,-142.0162,-17.01029,-0.4441859,-4.27255,-61.44649,-6.909645,34.57793,0,0,0,141.7179,-7.268267,3.074843,-36.10317,-110.6632,-50.33768,0.001067912,-0.1257102,0.09433498,0,0.3,0,0,0,0,
6.38224E+17,40.28753,26.62777,51.06047,22.93195,11.69463,-142.0894,-17.01029,-0.4441859,-4.27255,-61.44649,-6.909645,34.57793,0,0,0,144.1502,-0.6939887,1.701064,-36.10317,-110.6632,-50.33768,0.001067912,-0.1257102,0.09433498,0,0.3,0,0,0,0,
6.38224E+17,40.47601,28.07722,51.80758,25.64202,9.350782,-142.0894,-17.01029,-0.4441859,-4.27255,-61.44649,-6.909645,34.57793,0,0,0,144.4064,3.661774,0.8715284,-36.10317,-110.6632,-50.33768,0.001067912,-0.1257102,0.09433498,0,0.3,0,0,0,0,
6.38224E+17,40.47601,28.75519,51.83093,26.88719,8.471841,-142.0894,-17.01029,-0.4441859,-4.27255,-61.44649,-6.98289,34.57793,0,0,0,143.9408,5.092265,0.3259043,-36.10317,-110.6632,-50.33768,0.001067912,-0.1257102,0.09433498,0,0.3,0,0,0,0,
6.38224E+17,40.45245,30.15788,51.78423,28.79156,7.153428,-142.0894,-17.01029,-0.4441859,-4.27255,-61.44649,-6.98289,34.57793,0,0,0,142.7862,7.849381,-0.8876591,-36.10317,-110.6632,-50.33768,0.001067912,-0.1257102,0.09433498,0,0.3,0,0,0,0,
6.38224E+17,40.5467,31.98138,52.25118,30.32971,5.835015,-142.0894,-17.01029,-0.4441859,-4.27255,-61.51973,-6.98289,34.57793,0,0,0,142.0724,12.34098,-2.278769,-36.10317,-110.6632,-50.33768,0.001067912,-0.1257102,0.09433498,0,0.3,0,0,0,0,
6.38224E+17,40.57025,32.89313,52.60139,31.13541,5.175808,-142.0894,-17.01029,-0.4441859,-4.27255,-61.44649,-6.909645,34.57793,0,0,0,141.7237,14.77789,-2.824235,-36.10317,-110.6632,-50.33768,0.001067912,-0.1257102,0.09433498,0,0.3,0,0,0,0,
6.38224E+17,40.35821,34.90366,54.00222,32.82005,3.344679,-142.1627,-17.01029,-0.4441859,-4.27255,-61.51973,-6.909645,34.57793,0,0,0,140.6819,21.27566,-2.804799,-36.10317,-110.6632,-50.33768,0.001067912,-0.1257102,0.09433498,0,0.3,0,0,0,0,
6.38224E+17,39.51006,37.35837,55.98674,34.87091,1.000834,-142.1627,-17.01029,-0.4441859,-4.27255,-61.44649,-6.909645,34.57793,0,0,0,137.7587,29.67262,-1.295137,-36.10317,-110.6632,-50.33768,0.001067912,-0.1257102,0.09433498,0,0.3,0,0,0,0,
6.38224E+17,37.79018,40.42091,56.85059,36.99502,-2.002218,-142.0894,-17.01029,-0.4441859,-4.27255,-61.51973,-6.909645,34.57793,0,0,0,130.6224,36.89485,0.1069999,-36.10317,-110.6632,-50.33768,0.001067912,-0.1257102,0.09433498,0,0.3,0,0,0,0,
6.38224E+17,36.5415,42.10415,56.8039,37.72747,-3.686857,-142.0894,-17.01029,-0.4441859,-4.27255,-61.51973,-6.909645,34.57793,0,0,0,125.3467,39.74858,0.7900153,-36.10317,-110.6632,-50.33768,0.001067912,-0.1257102,0.09433498,0,0.3,0,0,0,0,
6.38224E+17,33.8321,45.11993,56.31361,38.24019,-7.056135,-141.7232,-17.01029,-0.4441859,-4.27255,-61.51973,-6.98289,34.50468,0,0,0,114.166,43.8777,1.982544,-36.10317,-110.6632,-50.33768,0.001067912,-0.1257102,0.09433498,0,0.3,0,0,0,0,
6.38224E+17,30.67507,47.6214,55.21629,37.06827,-10.49866,-137.182,-17.01029,-0.4441859,-4.27255,-61.51973,-6.909645,34.57793,0,0,0,101.7293,45.78307,3.15167,-36.10317,-110.6632,-50.33768,0.001067912,-0.1257102,0.09433498,0,0.3,0,0,0,0,
6.38224E+17,26.99972,49.2345,53.44189,33.99197,-14.01443,-128.2461,-17.01029,-0.4441859,-4.27255,-61.51973,-6.98289,34.65118,0,0,0,88.15804,44.91944,4.672017,-36.10317,-110.6632,-50.33768,0.001067912,-0.1257102,0.09433498,0,0.3,0,0,0,0,
6.38224E+17,24.29032,49.63192,51.78423,30.4762,-16.13853,-122.3865,-17.01029,-0.4441859,-4.27255,-61.51973,-6.909645,34.57793,0,0,0,78.62804,42.45568,5.870289,-36.10317,-110.6632,-50.33768,0.001067912,-0.1257102,0.09433498,0,0.3,0,0,0,0,
6.38224E+17,22.64112,49.63192,50.73361,27.91262,-17.09072,-119.1637,-17.01029,-0.4441859,-4.27255,-61.51973,-6.98289,34.57793,0,0,0,72.99236,40.54848,6.648754,-36.10317,-110.6632,-50.33768,0.001067912,-0.1257102,0.09433498,0,0.3,0,0,0,0,
6.38224E+17,19.79037,49.49166,49.16934,22.93195,-18.04291,-114.2563,-17.01029,-0.4441859,-4.27255,-61.51973,-6.98289,34.57793,0,0,0,63.48956,37.54988,8.092112,-36.10317,-110.6632,-50.33768,0.001067912,-0.1257102,0.09433498,0,0.3,0,0,0,0,
6.38224E+17,17.08097,49.16436,47.74516,17.36532,-18.62887,-110.301,-17.01029,-0.4441859,-4.27255,-61.44649,-6.909645,34.57793,0,0,0,54.60218,34.57262,9.347121,-36.10317,-110.6632,-50.33768,0.001067912,-0.1257102,0.09433498,0,0.3,0,0,0,0,
6.38224E+17,15.71449,48.86045,47.04474,14.36226,-18.70212,-108.2501,-17.01029,-0.4441859,-4.27255,-61.44649,-6.98289,34.57793,0,0,0,50.19479,32.90884,10.05041,-36.10317,-110.6632,-50.33768,0.001067912,-0.1257102,0.09433498,0,0.3,0,0,0,0,
6.38224E+17,13.80614,48.20586,45.94742,9.528083,-18.48238,-105.4668,-17.01029,-0.4441859,-4.27255,-61.44649,-6.98289,34.57793,0,0,0,44.07893,30.04762,11.02433,-36.10317,-110.6632,-50.33768,0.001067912,-0.1257102,0.09433498,0,0.3,0,0,0,0,
6.38224E+17,12.32186,47.29411,44.78006,4.840393,-17.82317,-103.2695,-17.01029,-0.4441859,-4.27255,-61.44649,-6.98289,34.57793,0,0,0,39.34571,26.6876,11.77554,-36.10317,-110.6632,-50.33768,0.001067912,-0.1257102,0.09433498,0,0.3,0,0,0,0,
6.38224E+17,11.75642,46.70965,44.10299,3.082508,-17.31046,-102.6103,-17.01029,-0.4441859,-4.27255,-61.44649,-6.98289,34.57793,0,0,0,37.53968,24.65659,12.02757,-36.10317,-110.6632,-50.33768,0.001067912,-0.1257102,0.09433498,0,0.3,0,0,0,0,
6.38224E+17,10.2957,44.90953,42.35194,-0.2135241,-16.06529,-101.1454,-17.01029,-0.4441859,-4.27255,-61.44649,-6.909645,34.57793,0,0,0,32.93555,18.94527,12.95991,-36.10317,-110.6632,-50.33768,0.001067912,-0.1257102,0.09433498,0,0.3,0,0,0,0,
6.38224E+17,8.834986,43.55359,41.11454,-2.337634,-14.74688,-100.1199,-17.01029,-0.4441859,-4.27255,-61.51973,-6.98289,34.57793,0,0,0,28.31099,14.76708,13.79214,-36.10317,-110.6632,-50.33768,0.001067912,-0.1257102,0.09433498,0,0.3,0,0,0,0,
6.38224E+17,6.314069,41.96388,39.97052,-5.487176,-12.98899,-99.16775,-17.01029,-0.4441859,-4.27255,-61.44649,-6.909645,34.57793,0,0,0,20.32596,10.31995,15.34665,-36.10317,-110.6632,-50.33768,0.001067912,-0.1257102,0.09433498,0,0.3,0,0,0,0,
6.38224E+17,4.829792,41.26253,39.57362,-7.318305,-12.1833,-98.94801,-17.01029,-0.4441859,-4.27255,-61.51973,-6.98289,34.57793,0,0,0,15.5924,8.508613,16.1842,-36.10317,-110.6632,-50.33768,0.001067912,-0.1257102,0.09433498,0,0.3,0,0,0,0,
6.38224E+17,1.649197,40.23389,39.52692,-11.85951,-9.985942,-98.65503,-17.01029,-0.4441859,-4.27255,-61.44649,-6.909645,34.57793,0,0,0,5.372371,6.625735,18.24332,-36.10317,-110.6632,-50.33768,0.001067912,-0.1257102,0.09433498,0,0.3,0,0,0,0,
6.38224E+17,-1.649197,39.95335,40.43747,-17.35289,-8.154812,-97.40987,-17.01029,-0.4441859,-4.27255,-61.51973,-6.98289,34.57793,0,0,0,-5.431207,7.487926,20.28678,-36.10317,-110.6632,-50.33768,0.001067912,-0.1257102,0.09433498,0,0.3,0,0,0,0,
6.38224E+17,-4.617752,40.00011,41.67487,-22.69979,-7.056135,-95.57873,-17.01029,-0.4441859,-4.27255,-61.44649,-6.909645,34.57793,0,0,0,-15.36222,9.462815,21.84726,-36.10317,-110.6632,-50.33768,0.001067912,-0.1257102,0.09433498,0,0.3,0,0,0,0,
6.38224E+17,-5.701511,40.18713,42.35194,-25.19013,-6.763155,-94.48006,-17.01029,-0.4441859,-4.27255,-61.51973,-6.98289,34.57793,0,0,0,-19.04533,10.8505,22.40874,-36.10317,-110.6632,-50.33768,0.001067912,-0.1257102,0.09433498,0,0.3,0,0,0,0,
6.38224E+17,-7.303588,41.33266,43.89286,-29.73133,-6.323683,-92.06297,-17.01029,-0.4441859,-4.27255,-61.44649,-6.98289,34.57793,0,0,0,-24.48258,15.32131,22.67151,-36.10317,-110.6632,-50.33768,0.001067912,-0.1257102,0.09433498,0,0.3,0,0,0,0,
6.38224E+17,-8.481586,43.62373,45.73729,-33.9063,-6.763155,-89.64587,-17.01029,-0.4441859,-4.27255,-61.51973,-6.909645,34.57793,0,0,0,-28.32257,22.27921,21.5783,-36.10317,-110.6632,-50.33768,0.001067912,-0.1257102,0.09433498,0,0.3,0,0,0,0,
6.38224E+17,-8.952785,46.05506,47.20817,-37.05584,-7.788587,-88.62045,-17.01029,-0.4441859,-4.27255,-61.44649,-6.98289,34.57793,0,0,0,-29.62956,28.77339,19.72665,-36.10317,-110.6632,-50.33768,0.001067912,-0.1257102,0.09433498,0,0.3,0,0,0,0,
6.38224E+17,-8.976345,47.45775,47.74516,-38.81373,-8.447793,-88.32746,-17.01029,-0.4441859,-4.27255,-61.51973,-6.98289,34.57793,0,0,0,-29.46766,31.93102,18.1999,-36.10317,-110.6632,-50.33768,0.001067912,-0.1257102,0.09433498,0,0.3,0,0,0,0,
6.38224E+17,-8.340226,50.66056,48.72574,-41.74353,-9.912696,-88.10773,-17.01029,-0.4441859,-4.27255,-61.44649,-6.909645,34.57793,0,0,0,-26.79858,38.51723,14.44904,-36.10317,-110.6632,-50.33768,0.001067912,-0.1257102,0.09433498,0,0.3,0,0,0,0,
6.38224E+17,-7.044428,53.69973,49.0526,-43.7944,-11.81707,-88.03448,-17.01029,-0.4441859,-4.27255,-61.44649,-6.909645,34.57793,0,0,0,-22.03408,43.42714,9.960025,-36.10317,-110.6632,-50.33768,0.001067912,-0.1257102,0.09433498,0,0.3,0,0,0,0,
6.38224E+17,-6.14915,54.9154,48.93587,-44.30712,-12.62277,-88.03448,-17.01029,-0.4441859,-4.27255,-61.44649,-6.909645,34.57793,0,0,0,-18.98008,44.87281,7.820685,-36.10317,-110.6632,-50.33768,0.001067912,-0.1257102,0.09433498,0,0.3,0,0,0,0,
6.38224E+17,-3.675354,57.13633,48.46893,-43.7944,-14.4539,-88.10773,-17.01029,-0.4441859,-4.27255,-61.44649,-6.98289,34.57793,0,0,0,-11.03769,46.94467,3.482474,-36.10317,-110.6632,-50.33768,0.001067912,-0.1257102,0.09433498,0,0.3,0,0,0,0,
6.38224E+17,-0.8010387,58.79618,47.69846,-41.45055,-16.35827,-88.69369,-17.01029,-0.4441859,-4.27255,-61.51973,-6.98289,34.57793,0,0,0,-2.344692,47.65936,-0.652486,-36.10317,-110.6632,-50.33768,0.001067912,-0.1257102,0.09433498,0,0.3,0,0,0,0,
6.38224E+17,0.7774788,59.38063,46.9747,-39.69267,-17.23721,-89.79237,-17.01029,-0.4441859,-4.27255,-61.44649,-6.98289,34.57793,0,0,0,2.244409,47.11946,-2.959921,-36.10317,-110.6632,-50.33768,0.001067912,-0.1257102,0.09433498,0,0.3,0,0,0,0,
6.38224E+17,4.382153,59.70793,44.99018,-34.93173,-18.04291,-94.11383,-17.01029,-0.4441859,-4.27255,-61.44649,-6.98289,34.57793,0,0,0,12.34297,44.18426,-7.282894,-36.10317,-110.6632,-50.33768,0.001067912,-0.1257102,0.09433498,0,0.3,0,0,0,0,
6.38224E+17,7.303588,59.26375,43.16909,-30.75676,-17.67669,-98.28881,-17.01029,-0.4441859,-4.27255,-61.51973,-6.98289,34.57793,0,0,0,20.26214,40.71101,-10.25783,-36.10317,-110.6632,-50.33768,0.001067912,-0.1257102,0.09433498,0,0.3,0,0,0,0,
6.38224E+17,8.999906,58.42213,41.76826,-28.04669,-17.09072,-100.7059,-17.01029,-0.4441859,-4.27255,-61.51973,-6.98289,34.57793,0,0,0,24.81911,37.49632,-11.64662,-36.10317,-110.6632,-50.33768,0.001067912,-0.1257102,0.09433498,0,0.3,0,0,0,0,
6.38224E+17,11.66218,55.6635,38.80315,-22.99277,-15.25959,-104.8076,-17.01029,-0.4441859,-4.27255,-61.51973,-6.98289,34.57793,0,0,0,32.09587,29.5422,-12.84808,-36.10317,-110.6632,-50.33768,0.001067912,-0.1257102,0.09433498,0,0.3,0,0,0,0,
6.38224E+17,13.42918,51.12813,35.06759,-18.67131,-11.67058,-108.9826,-17.01029,-0.4441859,-4.27255,-61.44649,-6.909645,34.57793,0,0,0,37.22932,18.02621,-12.42991,-36.10317,-110.6632,-50.33768,0.001067912,-0.1257102,0.09433498,0,0.3,0,0,0,0,
6.38224E+17,14.63074,46.07844,31.51881,-15.96124,-6.177193,-112.7181,-17.01029,-0.4441859,-4.27255,-61.51973,-6.98289,34.57793,0,0,0,40.97333,5.724,-11.39618,-36.10317,-110.6632,-50.33768,0.001067912,-0.1257102,0.09433498,0,0.3,0,0,0,0,
6.38224E+17,15.95009,41.54307,29.51094,-14.42309,0.1218917,-115.2084,-17.01029,-0.4441859,-4.27255,-61.44649,-6.98289,34.57793,0,0,0,45.47765,-4.263958,-9.227621,-36.10317,-110.6632,-50.33768,0.001067912,-0.1257102,0.09433498,0,0.3,0,0,0,0,
6.38224E+17,16.60977,39.46241,28.78718,-13.69064,3.417924,-115.7212,-17.01029,-0.4441859,-4.27255,-61.51973,-6.98289,34.57793,0,0,0,47.78513,-8.766369,-8.157787,-36.10317,-110.6632,-50.33768,0.001067912,-0.1257102,0.09433498,0,0.3,0,0,0,0,
6.38224E+17,17.90557,35.83878,27.73655,-12.44547,9.277537,-116.8198,-17.01029,-0.4441859,-4.27255,-61.44649,-6.98289,34.57793,0,0,0,52.31694,-16.60037,-6.427474,-36.10317,-110.6632,-50.33768,0.001067912,-0.1257102,0.09433498,0,0.3,0,0,0,0,
6.38224E+17,19.55477,33.10354,27.61982,-10.98056,14.4047,-117.6255,-17.01029,-0.4441859,-4.27255,-61.51973,-6.98289,34.57793,0,0,0,58.08073,-21.97429,-4.831986,-36.10317,-110.6632,-50.33768,0.001067912,-0.1257102,0.09433498,0,0.3,0,0,0,0,
6.38224E+17,21.27464,31.39693,27.85329,-9.076189,17.99371,-117.8453,-17.01029,-0.4441859,-4.27255,-61.51973,-6.98289,34.57793,0,0,0,63.90575,-25.08045,-4.225663,-36.10317,-110.6632,-50.33768,0.001067912,-0.1257102,0.09433498,0,0.3,0,0,0,0,
6.38224E+17,22.21704,30.6722,28.06341,-7.977511,19.38537,-118.1382,-17.01029,-0.4441859,-4.27255,-61.51973,-6.98289,34.57793,0,0,0,67.08863,-26.29644,-4.094005,-36.10317,-110.6632,-50.33768,0.001067912,-0.1257102,0.09433498,0,0.3,0,0,0,0,
6.38224E+17,24.17252,29.80721,28.85722,-5.926647,21.43624,-119.8961,-17.01029,-0.4441859,-4.27255,-61.44649,-6.909645,34.57793,0,0,0,73.73471,-27.15524,-4.072152,-36.10317,-110.6632,-50.33768,0.001067912,-0.1257102,0.09433498,0,0.3,0,0,0,0,
6.38224E+17,26.66988,29.52667,30.30475,-3.143331,22.6814,-121.5808,-17.01029,-0.4441859,-4.27255,-61.51973,-6.909645,34.57793,0,0,0,82.28289,-26.05952,-4.534178,-36.10317,-110.6632,-50.33768,0.001067912,-0.1257102,0.09433498,0,0.3,0,0,0,0,
6.38224E+17,28.03635,29.50329,31.21529,-1.238957,22.97438,-121.8737,-17.01029,-0.4441859,-4.27255,-61.44649,-6.909645,34.57793,0,0,0,87.03459,-25.02303,-4.911987,-36.10317,-110.6632,-50.33768,0.001067912,-0.1257102,0.09433498,0,0.3,0,0,0,0,
6.38224E+17,30.43947,29.50329,33.26986,2.716283,22.97438,-122.533,-17.01029,-0.4441859,-4.27255,-61.51973,-6.909645,34.57793,0,0,0,95.85991,-22.47207,-5.21832,-36.10317,-110.6632,-50.33768,0.001067912,-0.1257102,0.09433498,0,0.3,0,0,0,0,
6.38224E+17,32.67767,29.50329,35.69797,6.744767,22.6814,-123.4852,-17.01029,-0.4441859,-4.27255,-61.51973,-6.909645,34.57793,0,0,0,104.6725,-19.27275,-5.165877,-36.10317,-110.6632,-50.33768,0.001067912,-0.1257102,0.09433498,0,0.3,0,0,0,0,
6.38224E+17,35.19858,29.55005,38.56968,11.87193,21.94895,-124.3641,-17.01029,-0.4441859,-4.27255,-61.44649,-6.909645,34.57793,0,0,0,114.7888,-15.14372,-5.617886,-36.10317,-110.6632,-50.33768,0.001067912,-0.1257102,0.09433498,0,0.3,0,0,0,0,
6.38224E+17,36.61218,29.7137,40.27403,15.16796,21.28975,-125.3163,-17.01029,-0.4441859,-4.27255,-61.51973,-6.98289,34.57793,0,0,0,120.4835,-12.2938,-6.190797,-36.10317,-110.6632,-50.33768,0.001067912,-0.1257102,0.09433498,0,0.3,0,0,0,0,
6.38224E+17,37.29542,29.97086,41.04449,16.99909,20.92352,-125.9022,-17.01029,-0.4441859,-4.27255,-61.44649,-6.98289,34.57793,0,0,0,123.0524,-10.60631,-6.793826,-36.10317,-110.6632,-50.33768,0.001067912,-0.1257102,0.09433498,0,0.3,0,0,0,0,
6.38224E+17,38.5441,30.81247,42.37529,20.5881,20.19107,-126.2685,-17.01029,-0.4441859,-4.27255,-61.51973,-6.98289,34.57793,0,0,0,127.3671,-6.855947,-8.480383,-36.10317,-110.6632,-50.33768,0.001067912,-0.1257102,0.09433498,0,0.3,0,0,0,0,
6.38224E+17,39.81633,32.05152,44.82675,24.54334,19.09239,-126.2685,-17.01029,-0.4441859,-4.27255,-61.51973,-6.98289,34.57793,0,0,0,132.5677,-0.4609927,-9.329457,-36.10317,-110.6632,-50.33768,0.001067912,-0.1257102,0.09433498,0,0.3,0,0,0,0,
6.38224E+17,40.33466,32.93989,46.39102,26.88719,18.35994,-126.0487,-17.01029,-0.4441859,-4.27255,-61.51973,-6.909645,34.57793,0,0,0,134.9303,3.884336,-9.440587,-36.10317,-110.6632,-50.33768,0.001067912,-0.1257102,0.09433498,0,0.3,0,0,0,0,
6.38224E+17,41.08857,35.46473,49.56625,31.72137,16.38232,-125.9022,-17.01029,-0.4441859,-4.27255,-61.51973,-6.909645,34.57793,0,0,0,138.0896,14.2333,-9.99114,-36.10317,-110.6632,-50.33768,0.001067912,-0.1257102,0.09433498,0,0.3,0,0,0,0,
6.38224E+17,41.44197,38.36363,52.67143,36.40906,13.89198,-125.9022,-17.01029,-0.4441859,-4.27255,-61.51973,-6.909645,34.57793,0,0,0,139.3841,25.25227,-10.48305,-36.10317,-110.6632,-50.33768,0.001067912,-0.1257102,0.09433498,0,0.3,0,0,0,0,
6.38224E+17,41.44197,39.95335,54.09562,38.75291,12.28059,-125.9755,-17.01029,-0.4441859,-4.27255,-61.44649,-6.909645,34.57793,0,0,0,139.1463,30.7815,-10.7524,-36.10317,-110.6632,-50.33768,0.001067912,-0.1257102,0.09433498,0,0.3,0,0,0,0,
6.38224E+17,41.30061,43.99778,56.87394,44.0998,8.105616,-126.122,-17.01029,-0.4441859,-4.27255,-61.51973,-6.98289,34.57793,0,0,0,137.0208,43.10547,-12.38587,-36.10317,-110.6632,-50.33768,0.001067912,-0.1257102,0.09433498,0,0.3,0,0,0,0,
6.38224E+17,40.94721,46.77979,57.48097,46.88312,5.249053,-126.4882,-17.01029,-0.4441859,-4.27255,-61.51973,-6.98289,34.57793,0,0,0,133.5376,48.8395,-14.44646,-36.10317,-110.6632,-50.33768,0.001067912,-0.1257102,0.09433498,0,0.3,0,0,0,0,
6.38224E+17,40.57025,48.67342,57.45762,48.34802,3.271434,-126.7812,-17.01029,-0.4441859,-4.27255,-61.44649,-6.909645,34.57793,0,0,0,130.3823,51.75816,-16.07047,-36.10317,-110.6632,-50.33768,0.001067912,-0.1257102,0.09433498,0,0.3,0,0,0,0,
6.38224E+17,39.67498,52.18015,56.59377,50.10591,-1.050031,-128.0263,-17.01029,-0.4441859,-4.27255,-61.51973,-6.98289,34.57793,0,0,0,123.2726,55.27014,-19.73537,-36.10317,-110.6632,-50.33768,0.001067912,-0.1257102,0.09433498,0,0.3,0,0,0,0,
6.38224E+17,38.35562,54.82188,55.21629,50.32565,-5.298251,-129.125,-17.01029,-0.4441859,-4.27255,-61.51973,-6.98289,34.57793,0,0,0,115.6362,56.27209,-22.22107,-36.10317,-110.6632,-50.33768,0.001067912,-0.1257102,0.09433498,0,0.3,0,0,0,0,
6.38224E+17,36.8949,56.48174,54.189,49.22696,-9.033754,-129.1983,-17.01029,-0.4441859,-4.27255,-61.51973,-6.98289,34.57793,0,0,0,109.1294,56.50035,-22.97631,-36.10317,-110.6632,-50.33768,0.001067912,-0.1257102,0.09433498,0,0.3,0,0,0,0,
6.38224E+17,36.1881,56.97268,53.83879,48.42127,-10.64515,-129.125,-17.01029,-0.4441859,-4.27255,-61.44649,-6.909645,34.57793,0,0,0,106.481,56.46769,-22.79873,-36.10317,-110.6632,-50.33768,0.001067912,-0.1257102,0.09433498,0,0.3,0,0,0,0,
6.38224E+17,34.75095,57.58052,53.41854,46.88312,-12.98899,-127.7334,-17.01029,-0.4441859,-4.27255,-61.44649,-6.98289,34.57793,0,0,0,101.788,56.44489,-21.62835,-36.10317,-110.6632,-50.33768,0.001067912,-0.1257102,0.09433498,0,0.3,0,0,0,0,
6.38224E+17,33.38446,58.09484,52.92825,45.41821,-14.4539,-124.6571,-17.01029,-0.4441859,-4.27255,-61.44649,-6.909645,34.57793,0,0,0,97.32619,56.16869,-20.65995,-36.10317,-110.6632,-50.33768,0.001067912,-0.1257102,0.09433498,0,0.3,0,0,0,0,
6.38224E+17,32.44207,58.46889,52.18114,44.17305,-15.25959,-122.8259,-17.01029,-0.4441859,-4.27255,-61.44649,-6.909645,34.57793,0,0,0,93.91955,55.24588,-20.59636,-36.10317,-110.6632,-50.33768,0.001067912,-0.1257102,0.09433498,0,0.3,0,0,0,0,
6.38224E+17,31.57035,58.84294,51.10716,42.85464,-15.77231,-120.1891,-17.01029,-0.4441859,-4.27255,-61.44649,-6.98289,34.57793,0,0,0,90.45947,53.73866,-21.13957,-36.10317,-110.6632,-50.33768,0.001067912,-0.1257102,0.09433498,0,0.3,0,0,0,0,
6.38224E+17,30.41591,59.45077,49.89311,40.80377,-15.99205,-116.8198,-17.01029,-0.4441859,-4.27255,-61.44649,-6.98289,34.57793,0,0,0,85.95045,52.2839,-21.94416,-36.10317,-110.6632,-50.33768,0.001067912,-0.1257102,0.09433498,0,0.3,0,0,0,0,
6.38224E+17,29.92115,59.82482,49.47286,39.92483,-16.13853,-115.5014,-17.01029,-0.4441859,-4.27255,-61.51973,-6.98289,34.57793,0,0,0,83.99267,51.97817,-22.40697,-36.10317,-110.6632,-50.33768,0.001067912,-0.1257102,0.09433498,0,0.3,0,0,0,0,
6.38224E+17,28.69603,61.01711,48.14206,37.50774,-16.7245,-111.6194,-17.01029,-0.4441859,-4.27255,-61.51973,-6.909645,34.57793,0,0,0,78.71492,51.01725,-24.55062,-36.10317,-110.6632,-50.33768,0.001067912,-0.1257102,0.09433498,0,0.3,0,0,0,0,
6.38224E+17,28.31907,61.34441,47.3716,36.70204,-16.7245,-110.7405,-17.01029,-0.4441859,-4.27255,-61.51973,-6.98289,34.57793,0,0,0,76.87867,50.05698,-25.6846,-36.10317,-110.6632,-50.33768,0.001067912,-0.1257102,0.09433498,0,0.3,0,0,0,0,
6.38224E+17,27.61227,61.62495,44.92014,34.87091,-16.13853,-109.0558,-17.01029,-0.4441859,-4.27255,-61.51973,-6.909645,34.65118,0,0,0,73.01505,46.25471,-28.75793,-36.10317,-110.6632,-50.33768,0.001067912,-0.1257102,0.09433498,0,0.3,0,0,0,0,
6.38224E+17,27.306,61.57819,41.86165,32.60031,-15.03986,-106.7852,-17.01029,-0.4441859,-4.27255,-61.51973,-6.909645,34.57793,0,0,0,69.93904,41.31345,-32.88037,-36.10317,-110.6632,-50.33768,0.001067912,-0.1257102,0.09433498,0,0.3,0,0,0,0,
6.38224E+17,27.306,61.43792,40.36742,31.50163,-14.16092,-106.0528,-17.01029,-0.4441859,-4.27255,-61.44649,-6.909645,34.57793,0,0,0,68.86877,38.87099,-34.95346,-36.10317,-110.6632,-50.33768,0.001067912,-0.1257102,0.09433498,0,0.3,0,0,0,0,
6.38224E+17,27.49447,60.54955,36.77194,29.45077,-11.67058,-105.1739,-17.01029,-0.4441859,-4.27255,-61.51973,-6.98289,34.57793,0,0,0,67.12202,32.65204,-39.37943,-36.10317,-110.6632,-50.33768,0.001067912,-0.1257102,0.09433498,0,0.3,0,0,0,0,
6.38224E+17,27.61227,58.84294,33.97027,27.76613,-7.788587,-105.1006,-17.01029,-0.4441859,-4.27255,-61.44649,-6.98289,34.57793,0,0,0,66.51227,26.87372,-41.19013,-36.10317,-110.6632,-50.33768,0.001067912,-0.1257102,0.09433498,0,0.3,0,0,0,0,
6.38224E+17,27.63584,57.93119,33.19981,27.03368,-5.444741,-105.1739,-17.01029,-0.4441859,-4.27255,-61.51973,-6.98289,34.57793,0,0,0,66.70986,24.7695,-40.93995,-36.10317,-110.6632,-50.33768,0.001067912,-0.1257102,0.09433498,0,0.3,0,0,0,0,
6.38224E+17,27.63584,56.7389,32.35931,26.00825,-0.3908245,-105.3936,-17.01029,-0.4441859,-4.27255,-61.44649,-6.98289,34.57793,0,0,0,67.03054,22.21275,-40.32748,-36.10317,-110.6632,-50.33768,0.001067912,-0.1257102,0.09433498,0,0.3,0,0,0,0,
6.38224E+17,27.6594,55.92066,31.14525,25.1293,4.516602,-106.9317,-17.01029,-0.4441859,-4.27255,-61.44649,-6.98289,34.57793,0,0,0,66.70356,19.67002,-41.07936,-36.10317,-110.6632,-50.33768,0.001067912,-0.1257102,0.09433498,0,0.3,0,0,0,0,
6.38224E+17,27.63584,54.26081,29.95454,24.54334,8.838067,-109.2023,-17.01029,-0.4441859,-4.27255,-61.51973,-6.98289,34.57793,0,0,0,67.01366,16.05074,-40.35973,-36.10317,-110.6632,-50.33768,0.001067912,-0.1257102,0.09433498,0,0.3,0,0,0,0,
6.38224E+17,27.61227,53.18541,29.51094,24.32361,11.10867,-110.008,-17.01029,-0.4441859,-4.27255,-61.51973,-6.909645,34.57793,0,0,0,67.48068,14.0578,-39.33868,-36.10317,-110.6632,-50.33768,0.001067912,-0.1257102,0.09433498,0,0.3,0,0,0,0,
6.38224E+17,27.51804,50.98786,28.1568,24.03063,15.57662,-110.8137,-17.01029,-0.4441859,-4.27255,-61.44649,-6.909645,34.57793,0,0,0,67.85703,9.395341,-38.09798,-36.10317,-110.6632,-50.33768,0.001067912,-0.1257102,0.09433498,0,0.3,0,0,0,0,
6.38224E+17,27.306,48.29937,25.82208,23.88414,19.89809,-111.2532,-17.01029,-0.4441859,-4.27255,-61.51973,-6.909645,34.57793,0,0,0,67.3406,2.878085,-37.91347,-36.10317,-110.6632,-50.33768,0.001067912,-0.1257102,0.09433498,0,0.3,0,0,0,0,
6.38224E+17,26.92904,45.09655,23.81421,23.51791,24.58578,-111.8392,-17.01029,-0.4441859,-4.27255,-61.51973,-6.98289,34.57793,0,0,0,67.01665,-4.195065,-36.4187,-36.10317,-110.6632,-50.33768,0.001067912,-0.1257102,0.09433498,0,0.3,0,0,0,0,
6.38224E+17,26.128,41.89374,21.22267,23.51791,28.54102,-111.5462,-17.01029,-0.4441859,-4.27255,-61.44649,-6.909645,34.57793,0,0,0,64.97137,-11.91167,-35.8908,-36.10317,-110.6632,-50.33768,0.001067912,-0.1257102,0.09433498,0,0.3,0,0,0,0,
6.38224E+17,25.49188,40.18713,19.58836,23.44467,30.22566,-110.8137,-17.01029,-0.4441859,-4.27255,-61.44649,-6.909645,34.57793,0,0,0,63.0849,-16.23355,-36.04149,-36.10317,-110.6632,-50.33768,0.001067912,-0.1257102,0.09433498,0,0.3,0,0,0,0,
6.38224E+17,22.80604,36.47,15.75941,22.71221,33.88792,-109.6418,-17.01029,-0.4441859,-4.27255,-61.44649,-6.98289,34.57793,0,0,0,55.6044,-25.72399,-36.11138,-36.10317,-110.6632,-50.33768,0.001067912,-0.1257102,0.09433498,0,0.3,0,0,0,0,
6.38224E+17,18.16473,32.54246,12.21062,19.34294,37.62342,-110.1545,-17.01029,-0.4441859,-4.27255,-61.44649,-6.98289,34.57793,0,0,0,43.8375,-35.25096,-34.74035,-36.10317,-110.6632,-50.33768,0.001067912,-0.1257102,0.09433498,0,0.3,0,0,0,0,
6.38224E+17,15.64381,30.81247,10.99656,16.41313,39.45455,-112.6449,-17.01029,-0.4441859,-4.27255,-61.44649,-6.98289,34.57793,0,0,0,37.74216,-39.24566,-33.57077,-36.10317,-110.6632,-50.33768,0.001067912,-0.1257102,0.09433498,0,0.3,0,0,0,0,
6.38224E+17,10.79046,28.66168,9.105433,8.868877,42.31111,-117.6255,-17.01029,-0.4441859,-4.27255,-61.44649,-6.909645,34.57793,0,0,0,25.85723,-44.36008,-32.67894,-36.10317,-110.6632,-50.33768,0.001067912,-0.1257102,0.09433498,0,0.3,0,0,0,0,
6.38224E+17,5.677951,27.74993,8.148195,0.4456824,43.48303,-120.2624,-17.01029,-0.4441859,-4.27255,-61.51973,-6.909645,34.57793,0,0,0,13.54578,-46.56426,-32.10833,-36.10317,-110.6632,-50.33768,0.001067912,-0.1257102,0.09433498,0,0.3,0,0,0,0,
6.38224E+17,3.086355,27.46939,8.054807,-3.802537,43.11681,-121.5808,-17.01029,-0.4441859,-4.27255,-61.44649,-6.909645,34.57793,0,0,0,7.376262,-47.17346,-31.5479,-36.10317,-110.6632,-50.33768,0.001067912,-0.1257102,0.09433498,0,0.3,0,0,0,0,
6.38224E+17,-1.979037,27.42263,8.942002,-12.44547,41.13919,-123.4119,-17.01029,-0.4441859,-4.27255,-61.51973,-6.909645,34.57793,0,0,0,-4.80342,-46.96489,-29.33983,-36.10317,-110.6632,-50.33768,0.001067912,-0.1257102,0.09433498,0,0.3,0,0,0,0,
6.38224E+17,-6.549669,27.42263,10.80978,-20.42919,37.84315,-123.7781,-17.01029,-0.4441859,-4.27255,-61.44649,-6.909645,34.57793,0,0,0,-16.35406,-46.21933,-25.91017,-36.10317,-110.6632,-50.33768,0.001067912,-0.1257102,0.09433498,0,0.3,0,0,0,0,
6.38224E+17,-9.777385,27.42263,12.77096,-27.16775,34.40063,-123.7781,-17.01029,-0.4441859,-4.27255,-61.44649,-6.98289,34.57793,0,0,0,-25.10686,-45.28672,-22.65393,-36.10317,-110.6632,-50.33768,0.001067912,-0.1257102,0.09433498,0,0.3,0,0,0,0,
6.38224E+17,-12.2983,27.37588,14.82551,-33.17385,30.66513,-123.7049,-17.01029,-0.4441859,-4.27255,-61.44649,-6.909645,34.57793,0,0,0,-32.49062,-44.24293,-19.31333,-36.10317,-110.6632,-50.33768,0.001067912,-0.1257102,0.09433498,0,0.3,0,0,0,0,
6.38224E+17,-13.09934,27.28236,15.64267,-35.44445,29.12698,-123.7049,-17.01029,-0.4441859,-4.27255,-61.51973,-6.98289,34.57793,0,0,0,-35.00955,-43.93655,-17.89756,-36.10317,-110.6632,-50.33768,0.001067912,-0.1257102,0.09433498,0,0.3,0,0,0,0,
6.38224E+17,-14.13598,26.67453,17.25363,-39.91241,26.19717,-123.9246,-17.01029,-0.4441859,-4.27255,-61.44649,-6.98289,34.57793,0,0,0,-38.76068,-44.13568,-14.44632,-36.10317,-110.6632,-50.33768,0.001067912,-0.1257102,0.09433498,0,0.3,0,0,0,0,
6.38224E+17,-14.27734,25.57575,18.35095,-43.42817,24.14631,-124.7303,-17.01029,-0.4441859,-4.27255,-61.44649,-6.98289,34.57793,0,0,0,-40.01764,-45.65086,-11.09469,-36.10317,-110.6632,-50.33768,0.001067912,-0.1257102,0.09433498,0,0.3,0,0,0,0,
6.38224E+17,-14.27734,24.17306,19.14476,-45.40579,23.04763,-124.9501,-17.01029,-0.4441859,-4.27255,-61.51973,-6.909645,34.57793,0,0,0,-40.78773,-48.01877,-8.068504,-36.10317,-110.6632,-50.33768,0.001067912,-0.1257102,0.09433498,0,0.3,0,0,0,0,
6.38224E+17,-14.27734,23.19118,19.70509,-45.99176,22.6814,-124.9501,-17.01029,-0.4441859,-4.27255,-61.44649,-6.909645,34.57793,0,0,0,-41.3174,-49.67782,-5.987078,-36.10317,-110.6632,-50.33768,0.001067912,-0.1257102,0.09433498,0,0.3,0,0,0,0,
6.38224E+17,-14.15954,20.82998,20.98919,-46.65096,22.46167,-125.0233,-17.01029,-0.4441859,-4.27255,-61.51973,-6.98289,34.57793,0,0,0,-42.17273,-53.73323,-1.188678,-36.10317,-110.6632,-50.33768,0.001067912,-0.1257102,0.09433498,0,0.3,0,0,0,0,
6.38224E+17,-13.61766,17.62716,22.29664,-47.01719,22.60816,-124.9501,-17.01029,-0.4441859,-4.27255,-61.51973,-6.98289,34.57793,0,0,0,-41.83376,-59.6484,4.337173,-36.10317,-110.6632,-50.33768,0.001067912,-0.1257102,0.09433498,0,0.3,0,0,0,0,
6.38224E+17,-13.0051,15.78029,22.95036,-46.87069,22.90114,-124.9501,-17.01029,-0.4441859,-4.27255,-61.44649,-6.98289,34.57793,0,0,0,-40.57923,-63.17999,7.346639,-36.10317,-110.6632,-50.33768,0.001067912,-0.1257102,0.09433498,0,0.3,0,0,0,0,
6.38224E+17,-10.97894,12.41383,23.93095,-45.2593,23.85333,-124.2176,-17.01029,-0.4441859,-4.27255,-61.51973,-6.98289,34.57793,0,0,0,-35.10414,-69.87019,12.60017,-36.10317,-110.6632,-50.33768,0.001067912,-0.1257102,0.09433498,0,0.3,0,0,0,0,
6.38224E+17,-9.211945,9.982493,24.81814,-42.62248,24.80551,-121.1413,-17.01029,-0.4441859,-4.27255,-61.51973,-6.98289,34.57793,0,0,0,-29.98484,-74.56855,16.53778,-36.10317,-110.6632,-50.33768,0.001067912,-0.1257102,0.09433498,0,0.3,0,0,0,0,
6.38224E+17,-8.505146,8.696692,25.44852,-41.01108,25.24498,-119.6764,-17.01029,-0.4441859,-4.27255,-61.44649,-6.98289,34.57793,0,0,0,-27.97012,-76.89826,18.68751,-36.10317,-110.6632,-50.33768,0.001067912,-0.1257102,0.09433498,0,0.3,0,0,0,0,
6.38224E+17,-7.397828,6.054955,27.08283,-37.93478,25.90419,-118.1382,-17.01029,-0.4441859,-4.27255,-61.51973,-6.909645,34.57793,0,0,0,-24.89116,-81.31201,23.35823,-36.10317,-110.6632,-50.33768,0.001067912,-0.1257102,0.09433498,0,0.3,0,0,0,0,
6.38224E+17,-6.36119,4.044429,28.53036,-35.51769,26.19717,-118.065,-17.01029,-0.4441859,-4.27255,-61.44649,-6.909645,34.57793,0,0,0,-21.79453,-84.40136,27.14802,-36.10317,-110.6632,-50.33768,0.001067912,-0.1257102,0.09433498,0,0.3,0,0,0,0,
6.38224E+17,-4.900472,2.665115,29.65103,-33.10061,25.97744,-117.6255,-17.01029,-0.4441859,-4.27255,-61.44649,-6.909645,34.57793,0,0,0,-17.01465,-86.3379,30.09808,-36.10317,-110.6632,-50.33768,0.001067912,-0.1257102,0.09433498,0,0.3,0,0,0,0,
6.38224E+17,-3.392634,1.870256,30.51488,-30.31729,25.68446,-116.5269,-17.01029,-0.4441859,-4.27255,-61.44649,-6.98289,34.57793,0,0,0,-11.89414,-87.17862,32.28679,-36.10317,-110.6632,-50.33768,0.001067912,-0.1257102,0.09433498,0,0.3,0,0,0,0,
6.38224E+17,-2.827195,1.683231,31.05186,-28.99888,25.39147,-115.6479,-17.01029,-0.4441859,-4.27255,-61.44649,-6.909645,34.57793,0,0,0,-9.967176,-86.97406,33.48027,-36.10317,-110.6632,-50.33768,0.001067912,-0.1257102,0.09433498,0,0.3,0,0,0,0,
6.38224E+17,-2.544476,1.613096,32.19588,-26.36205,24.73227,-114.3295,-17.01029,-0.4441859,-4.27255,-61.44649,-6.98289,34.57793,0,0,0,-9.07201,-85.74115,35.79662,-36.10317,-110.6632,-50.33768,0.001067912,-0.1257102,0.09433498,0,0.3,0,0,0,0,
6.38224E+17,-3.180595,1.613096,33.99362,-25.26337,23.85333,-114.2563,-17.01029,-0.4441859,-4.27255,-61.44649,-6.909645,34.57793,0,0,0,-11.53239,-83.45665,39.18304,-36.10317,-110.6632,-50.33768,0.001067912,-0.1257102,0.09433498,0,0.3,0,0,0,0,
6.38224E+17,-3.816714,1.636474,35.09094,-25.19013,23.4871,-114.0365,-17.01029,-0.4441859,-4.27255,-61.51973,-6.98289,34.57793,0,0,0,-13.97567,-81.95418,41.13965,-36.10317,-110.6632,-50.33768,0.001067912,-0.1257102,0.09433498,0,0.3,0,0,0,0,
6.38224E+17,-5.819311,1.636474,37.51905,-26.28881,22.24193,-113.8168,-17.01029,-0.4441859,-4.27255,-61.44649,-6.909645,34.57793,0,0,0,-21.74942,-78.60846,45.05368,-36.10317,-110.6632,-50.33768,0.001067912,-0.1257102,0.09433498,0,0.3,0,0,0,0,
6.38224E+17,-8.128186,1.683231,39.94717,-28.63265,20.63054,-113.3773,-17.01029,-0.4441859,-4.27255,-61.44649,-6.909645,34.65118,0,0,0,-30.95186,-74.96404,48.3648,-36.10317,-110.6632,-50.33768,0.001067912,-0.1257102,0.09433498,0,0.3,0,0,0,0,
6.38224E+17,-10.4135,1.683231,43.00566,-32.29491,18.57967,-113.4506,-17.01029,-0.4441859,-4.27255,-61.44649,-6.98289,34.57793,0,0,0,-40.53278,-70.25005,52.20299,-36.10317,-110.6632,-50.33768,0.001067912,-0.1257102,0.09433498,0,0.3,0,0,0,0,
6.38224E+17,-11.16742,1.683231,44.66332,-34.41902,17.55424,-113.4506,-17.01029,-0.4441859,-4.27255,-61.51973,-6.98289,34.57793,0,0,0,-43.97028,-67.57816,54.38074,-36.10317,-110.6632,-50.33768,0.001067912,-0.1257102,0.09433498,0,0.3,0,0,0,0,
6.38224E+17,-11.61506,1.706609,47.60507,-38.52075,15.35689,-113.5238,-17.01029,-0.4441859,-4.27255,-61.44649,-6.909645,34.57793,0,0,0,-46.66388,-62.58813,58.67569,-36.10317,-110.6632,-50.33768,0.001067912,-0.1257102,0.09433498,0,0.3,0,0,0,0,
6.38224E+17,-11.0025,1.870256,49.89311,-41.30406,13.15953,-112.7181,-17.01029,-0.4441859,-4.27255,-61.44649,-6.909645,34.57793,0,0,0,-44.90189,-58.2041,62.59635,-36.10317,-110.6632,-50.33768,0.001067912,-0.1257102,0.09433498,0,0.3,0,0,0,0,
6.38224E+17,-9.447544,2.361199,51.64415,-42.03651,10.6692,-110.0813,-17.01029,-0.4441859,-4.27255,-61.44649,-6.98289,34.57793,0,0,0,-39.03458,-53.90561,66.23057,-36.10317,-110.6632,-50.33768,0.001067912,-0.1257102,0.09433498,0,0.3,0,0,0,0,
6.38224E+17,-7.845467,2.59498,52.81152,-41.45055,8.984557,-109.3488,-17.01029,-0.4441859,-4.27255,-61.44649,-6.98289,34.57793,0,0,0,-32.68489,-51.21446,68.85546,-36.10317,-110.6632,-50.33768,0.001067912,-0.1257102,0.09433498,0,0.3,0,0,0,0,
6.38224E+17,-6.502549,2.73525,53.69871,-40.7181,7.88588,-108.8361,-17.01029,-0.4441859,-4.27255,-61.44649,-6.909645,34.57793,0,0,0,-27.2549,-49.23378,70.76859,-36.10317,-110.6632,-50.33768,0.001067912,-0.1257102,0.09433498,0,0.3,0,0,0,0,
6.38224E+17,-3.746034,3.085923,55.68323,-38.4475,5.688524,-107.5177,-17.01029,-0.4441859,-4.27255,-61.51973,-6.98289,34.57793,0,0,0,-15.89544,-44.64975,74.42503,-36.10317,-110.6632,-50.33768,0.001067912,-0.1257102,0.09433498,0,0.3,0,0,0,0,
6.38224E+17,-1.060198,3.553487,58.088,-35.44445,3.124943,-106.2725,-17.01029,-0.4441859,-4.27255,-61.51973,-6.909645,34.57793,0,0,0,-4.557064,-38.8759,77.89706,-36.10317,-110.6632,-50.33768,0.001067912,-0.1257102,0.09433498,0,0.3,0,0,0,0,
6.38224E+17,0.09423985,3.693756,59.48883,-33.75981,1.586795,-105.9795,-17.01029,-0.4441859,-4.27255,-61.51973,-6.909645,34.57793,0,0,0,0.4078401,-35.76175,79.6077,-36.10317,-110.6632,-50.33768,0.001067912,-0.1257102,0.09433498,0,0.3,0,0,0,0,
6.38224E+17,1.908357,3.693756,62.61737,-30.83001,-1.782483,-105.8331,-17.01029,-0.4441859,-4.27255,-61.44649,-6.909645,34.57793,0,0,0,8.374582,-29.39087,82.99228,-36.10317,-110.6632,-50.33768,0.001067912,-0.1257102,0.09433498,0,0.3,0,0,0,0,
6.38224E+17,3.180595,3.693756,65.86263,-28.63265,-5.517986,-105.9063,-17.01029,-0.4441859,-4.27255,-61.51973,-6.98289,34.57793,0,0,0,14.13515,-22.58935,86.02145,-36.10317,-110.6632,-50.33768,0.001067912,-0.1257102,0.09433498,0,0.3,0,0,0,0,
6.38224E+17,4.193673,3.693756,68.94447,-27.31424,-9.180244,-105.9795,-17.01029,-0.4441859,-4.27255,-61.51973,-6.909645,34.57793,0,0,0,18.83191,-15.96811,88.48007,-36.10317,-110.6632,-50.33768,0.001067912,-0.1257102,0.09433498,0,0.3,0,0,0,0,
6.38224E+17,5.065392,3.763891,70.81226,-26.58179,-11.81707,-106.0528,-17.01029,-0.4441859,-4.27255,-61.44649,-6.98289,34.57793,0,0,0,22.86818,-11.72366,89.64281,-36.10317,-110.6632,-50.33768,0.001067912,-0.1257102,0.09433498,0,0.3,0,0,0,0,
6.38224E+17,6.172709,4.091186,72.11971,-25.70284,-14.60039,-106.0528,-17.01029,-0.4441859,-4.27255,-61.44649,-6.909645,34.57793,0,0,0,27.94805,-8.078643,90.06245,-36.10317,-110.6632,-50.33768,0.001067912,-0.1257102,0.09433498,0,0.3,0,0,0,0,
6.38224E+17,8.198866,4.956179,73.14698,-23.57873,-17.96966,-106.1993,-17.01029,-0.4441859,-4.27255,-61.51973,-6.98289,34.57793,0,0,0,37.14606,-3.789884,89.46195,-36.10317,-110.6632,-50.33768,0.001067912,-0.1257102,0.09433498,0,0.3,0,0,0,0,
6.38224E+17,9.423985,5.353609,73.54388,-21.7476,-19.36132,-107.0782,-17.01029,-0.4441859,-4.27255,-61.44649,-6.98289,34.57793,0,0,0,42.67952,-1.983652,88.788,-36.10317,-110.6632,-50.33768,0.001067912,-0.1257102,0.09433498,0,0.3,0,0,0,0,
6.38224E+17,13.5941,5.867929,74.01083,-15.08229,-22.51087,-115.2817,-17.01029,-0.4441859,-4.27255,-61.44649,-6.909645,34.65118,0,0,0,61.30893,0.2511292,85.18502,-36.10317,-110.6632,-50.33768,0.001067912,-0.1257102,0.09433498,0,0.3,0,0,0,0,
6.38224E+17,15.14906,5.867929,74.01083,-12.37222,-23.17007,-119.6764,-17.01029,-0.4441859,-4.27255,-61.51973,-6.98289,34.57793,0,0,0,68.16623,0.2511292,83.42799,-36.10317,-110.6632,-50.33768,0.001067912,-0.1257102,0.09433498,0,0.3,0,0,0,0,
6.38224E+17,18.40033,5.867929,73.77736,-6.732344,-23.82928,-131.0294,-17.01029,-0.4441859,-4.27255,-61.51973,-6.98289,34.57793,0,0,0,82.28851,-0.2709265,79.01365,-36.10317,-110.6632,-50.33768,0.001067912,-0.1257102,0.09433498,0,0.3,0,0,0,0,
6.38224E+17,21.84008,5.821173,73.26372,-0.8727306,-23.46305,-141.2105,-17.01029,-0.4441859,-4.27255,-61.51973,-6.909645,34.57793,0,0,0,96.8598,-1.525514,73.32629,-36.10317,-110.6632,-50.33768,0.001067912,-0.1257102,0.09433498,0,0.3,0,0,0,0,
6.38224E+17,23.70132,5.821173,73.14698,1.837341,-23.02358,-141.7964,-17.01029,-0.4441859,-4.27255,-61.44649,-6.98289,34.57793,0,0,0,104.6265,-1.785617,69.981,-36.10317,-110.6632,-50.33768,0.001067912,-0.1257102,0.09433498,0,0.3,0,0,0,0,
6.38224E+17,27.21176,5.821173,73.14698,7.330729,-21.99815,-141.9429,-17.01029,-0.4441859,-4.27255,-61.44649,-6.909645,34.57793,0,0,0,119.0233,-1.785617,63.12749,-36.10317,-110.6632,-50.33768,0.001067912,-0.1257102,0.09433498,0,0.3,0,0,0,0,
6.38224E+17,29.92115,5.821173,72.35318,12.82412,-20.75298,-142.0162,-17.01029,-0.4441859,-4.27255,-61.44649,-6.98289,34.57793,0,0,0,129.559,-3.550007,56.76764,-36.10317,-110.6632,-50.33768,0.001067912,-0.1257102,0.09433498,0,0.3,0,0,0,0,
6.38224E+17,31.00491,5.72766,69.57485,17.21883,-18.48238,-142.0162,-17.01029,-0.4441859,-4.27255,-61.51973,-6.98289,34.57793,0,0,0,132.7187,-9.878593,52.48812,-36.10317,-110.6632,-50.33768,0.001067912,-0.1257102,0.09433498,0,0.3,0,0,0,0,
6.38224E+17,30.81643,5.610769,67.35686,18.53724,-17.09072,-142.0162,-17.01029,-0.4441859,-4.27255,-61.51973,-6.98289,34.57793,0,0,0,131.0346,-14.95084,51.31942,-36.10317,-110.6632,-50.33768,0.001067912,-0.1257102,0.09433498,0,0.3,0,0,0,0,
6.38224E+17,29.52063,5.493878,62.2905,19.04996,-13.72145,-142.0162,-17.01029,-0.4441859,-4.27255,-61.51973,-6.98289,34.57793,0,0,0,123.5757,-25.8894,49.88586,-36.10317,-110.6632,-50.33768,0.001067912,-0.1257102,0.09433498,0,0.3,0,0,0,0,
6.38224E+17,28.03635,5.4705,57.73779,17.58505,-10.05919,-142.0162,-17.01029,-0.4441859,-4.27255,-61.44649,-6.98289,34.57793,0,0,0,115.3953,-35.11885,48.34512,-36.10317,-110.6632,-50.33768,0.001067912,-0.1257102,0.09433498,0,0.3,0,0,0,0,
6.38224E+17,27.14108,5.4705,55.40306,16.33988,-8.081567,-142.0894,-17.01029,-0.4441859,-4.27255,-61.51973,-6.909645,34.57793,0,0,0,110.6298,-39.65341,47.45797,-36.10317,-110.6632,-50.33768,0.001067912,-0.1257102,0.09433498,0,0.3,0,0,0,0,
6.38224E+17,25.02068,5.423743,50.73361,13.26359,-3.979838,-142.0894,-17.01029,-0.4441859,-4.27255,-61.44649,-6.909645,34.57793,0,0,0,99.8126,-48.44644,45.49728,-36.10317,-110.6632,-50.33768,0.001067912,-0.1257102,0.09433498,0,0.3,0,0,0,0,
6.38224E+17,22.92384,5.283474,47.18483,9.894309,-0.6838052,-142.0894,-17.01029,-0.4441859,-4.27255,-61.44649,-6.98289,34.57793,0,0,0,89.82127,-55.00009,44.04013,-36.10317,-110.6632,-50.33768,0.001067912,-0.1257102,0.09433498,0,0.3,0,0,0,0,
6.38224E+17,20.49717,5.166583,44.73336,6.525032,2.612227,-142.0894,-17.01029,-0.4441859,-4.27255,-61.51973,-6.98289,34.57793,0,0,0,79.36787,-59.37208,43.96104,-36.10317,-110.6632,-50.33768,0.001067912,-0.1257102,0.09433498,0,0.3,0,0,0,0,
6.38224E+17,17.43437,5.166583,43.16909,2.643037,5.468789,-142.0162,-17.01029,-0.4441859,-4.27255,-61.44649,-6.909645,34.57793,0,0,0,67.12537,-61.8988,45.39789,-36.10317,-110.6632,-50.33768,0.001067912,-0.1257102,0.09433498,0,0.3,0,0,0,0,
6.38224E+17,15.52601,5.213339,42.79554,0.299192,6.713957,-141.9429,-17.01029,-0.4441859,-4.27255,-61.44649,-6.909645,34.57793,0,0,0,59.79725,-62.38316,46.89237,-36.10317,-110.6632,-50.33768,0.001067912,-0.1257102,0.09433498,0,0.3,0,0,0,0,
6.38224E+17,11.77998,5.58739,42.58541,-4.901215,9.277537,-141.8697,-17.01029,-0.4441859,-4.27255,-61.44649,-6.98289,34.57793,0,0,0,45.51672,-61.84805,49.90719,-36.10317,-110.6632,-50.33768,0.001067912,-0.1257102,0.09433498,0,0.3,0,0,0,0,
6.38224E+17,7.916147,6.803057,42.49202,-11.12705,11.40165,-141.1372,-17.01029,-0.4441859,-4.27255,-61.44649,-6.909645,34.57793,0,0,0,30.64178,-59.18224,52.01722,-36.10317,-110.6632,-50.33768,0.001067912,-0.1257102,0.09433498,0,0.3,0,0,0,0,
6.38224E+17,6.10203,7.714807,42.46867,-14.42309,12.20734,-139.9653,-17.01029,-0.4441859,-4.27255,-61.44649,-6.909645,34.57793,0,0,0,23.61749,-57.11396,52.57035,-36.10317,-110.6632,-50.33768,0.001067912,-0.1257102,0.09433498,0,0.3,0,0,0,0,
6.38224E+17,3.204155,9.959114,42.21186,-20.94191,13.37927,-139.3793,-17.01029,-0.4441859,-4.27255,-61.44649,-6.909645,34.57793,0,0,0,12.34892,-52.35549,52.2396,-36.10317,-110.6632,-50.33768,0.001067912,-0.1257102,0.09433498,0,0.3,0,0,0,0,
6.38224E+17,1.649197,12.85801,41.34801,-26.72828,14.11172,-138.2074,-17.01029,-0.4441859,-4.27255,-61.51973,-6.909645,34.50468,0,0,0,6.276945,-47.08216,49.66098,-36.10317,-110.6632,-50.33768,0.001067912,-0.1257102,0.09433498,0,0.3,0,0,0,0,
6.38224E+17,1.366478,16.85568,39.22341,-30.90325,14.62444,-137.2552,-17.01029,-0.4441859,-4.27255,-61.44649,-6.98289,34.57793,0,0,0,5.054295,-41.28797,43.53408,-36.10317,-110.6632,-50.33768,0.001067912,-0.1257102,0.09433498,0,0.3,0,0,0,0,
6.38224E+17,1.554958,19.09999,37.75253,-32.29491,14.91741,-137.2552,-17.01029,-0.4441859,-4.27255,-61.44649,-6.909645,34.57793,0,0,0,5.634823,-38.45036,39.2263,-36.10317,-110.6632,-50.33768,0.001067912,-0.1257102,0.09433498,0,0.3,0,0,0,0,
6.38224E+17,2.638716,23.54185,34.36718,-33.75981,14.91741,-137.3285,-17.01029,-0.4441859,-4.27255,-61.44649,-6.98289,34.57793,0,0,0,9.093719,-33.45953,28.96695,-36.10317,-110.6632,-50.33768,0.001067912,-0.1257102,0.09433498,0,0.3,0,0,0,0,
6.38224E+17,4.806232,27.11872,30.91178,-33.61332,14.77092,-139.7456,-17.01029,-0.4441859,-4.27255,-61.51973,-6.98289,34.57793,0,0,0,15.6843,-30.27319,18.18606,-36.10317,-110.6632,-50.33768,0.001067912,-0.1257102,0.09433498,0,0.3,0,0,0,0,
6.38224E+17,9.094145,29.05911,27.24626,-31.04974,15.06391,-141.7232,-17.01029,-0.4441859,-4.27255,-61.51973,-6.98289,34.57793,0,0,0,28.07309,-30.43478,7.030921,-36.10317,-110.6632,-50.33768,0.001067912,-0.1257102,0.09433498,0,0.3,0,0,0,0,
6.38224E+17,12.91086,29.05911,25.16835,-27.97344,15.94285,-142.0162,-17.01029,-0.4441859,-4.27255,-61.51973,-6.909645,34.57793,0,0,0,38.71563,-32.57038,0.5442135,-36.10317,-110.6632,-50.33768,0.001067912,-0.1257102,0.09433498,0,0.3,0,0,0,0,
6.38224E+17,15.73805,28.82533,24.11773,-25.11688,16.96828,-142.0894,-17.01029,-0.4441859,-4.27255,-61.44649,-6.909645,34.57793,0,0,0,46.46761,-34.06609,-3.4567,-36.10317,-110.6632,-50.33768,0.001067912,-0.1257102,0.09433498,0,0.3,0,0,0,0,
6.38224E+17,20.89769,28.21749,23.04375,-19.18402,19.23888,-142.0894,-17.01029,-0.4441859,-4.27255,-61.51973,-6.909645,34.57793,0,0,0,60.53214,-36.30898,-9.812789,-36.10317,-110.6632,-50.33768,0.001067912,-0.1257102,0.09433498,0,0.3,0,0,0,0,
6.38224E+17,25.91596,27.28236,22.76358,-12.37222,21.58273,-142.0894,-17.01029,-0.4441859,-4.27255,-61.51973,-6.909645,34.57793,0,0,0,74.34827,-38.48883,-15.34424,-36.10317,-110.6632,-50.33768,0.001067912,-0.1257102,0.09433498,0,0.3,0,0,0,0,
6.38224E+17,27.91855,26.74467,22.88032,-9.295925,22.60816,-141.8697,-17.01029,-0.4441859,-4.27255,-61.51973,-6.909645,34.57793,0,0,0,80.033,-39.49835,-17.31225,-36.10317,-110.6632,-50.33768,0.001067912,-0.1257102,0.09433498,0,0.3,0,0,0,0,
6.38224E+17,31.12271,25.59913,23.60409,-3.289821,24.80551,-141.8697,-17.01029,-0.4441859,-4.27255,-61.51973,-6.98289,34.57793,0,0,0,89.75777,-41.22635,-19.69008,-36.10317,-110.6632,-50.33768,0.001067912,-0.1257102,0.09433498,0,0.3,0,0,0,0,
6.38224E+17,33.14886,24.57049,24.67806,1.104889,26.49015,-142.0162,-17.01029,-0.4441859,-4.27255,-61.44649,-6.98289,34.57793,0,0,0,96.75989,-42.3723,-20.19698,-36.10317,-110.6632,-50.33768,0.001067912,-0.1257102,0.09433498,0,0.3,0,0,0,0,
6.38224E+17,33.97346,24.14968,25.30844,2.789528,27.14936,-142.0162,-17.01029,-0.4441859,-4.27255,-61.51973,-6.909645,34.57793,0,0,0,99.85081,-42.64462,-20.16708,-36.10317,-110.6632,-50.33768,0.001067912,-0.1257102,0.09433498,0,0.3,0,0,0,0,
6.38224E+17,35.97606,23.58861,27.17622,5.499599,28.32128,-142.0894,-17.01029,-0.4441859,-4.27255,-61.51973,-6.98289,34.57793,0,0,0,107.5688,-41.91672,-20.16403,-36.10317,-110.6632,-50.33768,0.001067912,-0.1257102,0.09433498,0,0.3,0,0,0,0,
6.38224E+17,37.53102,23.54185,28.55371,7.037747,28.61426,-142.0894,-17.01029,-0.4441859,-4.27255,-61.51973,-6.98289,34.57793,0,0,0,113.3034,-40.51807,-20.8555,-36.10317,-110.6632,-50.33768,0.001067912,-0.1257102,0.09433498,0,0.3,0,0,0,0,
6.38224E+17,40.14618,23.63536,31.51881,9.674574,28.32128,-142.1627,-17.01029,-0.4441859,-4.27255,-61.51973,-6.909645,34.57793,0,0,0,123.7104,-36.86473,-21.67921,-36.10317,-110.6632,-50.33768,0.001067912,-0.1257102,0.09433498,0,0.3,0,0,0,0,
6.38224E+17,41.30061,23.86915,33.12977,11.5057,28.0283,-142.1627,-17.01029,-0.4441859,-4.27255,-61.51973,-6.98289,34.57793,0,0,0,128.5868,-34.36197,-21.98591,-36.10317,-110.6632,-50.33768,0.001067912,-0.1257102,0.09433498,0,0.3,0,0,0,0,
6.38224E+17,43.86865,26.72129,36.65521,18.46399,26.34366,-142.1627,-17.01029,-0.4441859,-4.27255,-61.44649,-6.98289,34.57793,0,0,0,137.7134,-23.66811,-25.08778,-36.10317,-110.6632,-50.33768,0.001067912,-0.1257102,0.09433498,0,0.3,0,0,0,0,
6.38224E+17,44.05713,28.45127,36.7486,20.88108,25.39147,-142.0894,-17.01029,-0.4441859,-4.27255,-61.44649,-6.909645,34.57793,0,0,0,137.0086,-19.96972,-26.75624,-36.10317,-110.6632,-50.33768,0.001067912,-0.1257102,0.09433498,0,0.3,0,0,0,0,
6.38224E+17,43.68017,31.7476,35.79136,24.39685,23.4871,-141.9429,-17.01029,-0.4441859,-4.27255,-61.44649,-6.98289,34.57793,0,0,0,132.1768,-14.65125,-29.93903,-36.10317,-110.6632,-50.33768,0.001067912,-0.1257102,0.09433498,0,0.3,0,0,0,0,
6.38224E+17,42.66709,35.37122,34.50726,26.52096,21.2165,-141.6499,-17.01029,-0.4441859,-4.27255,-61.44649,-6.98289,34.57793,0,0,0,124.8936,-9.345119,-32.84798,-36.10317,-110.6632,-50.33768,0.001067912,-0.1257102,0.09433498,0,0.3,0,0,0,0,
6.38224E+17,42.10165,37.10121,33.87688,27.18017,19.97133,-139.9653,-17.01029,-0.4441859,-4.27255,-61.44649,-6.98289,34.57793,0,0,0,121.1411,-6.92211,-34.28827,-36.10317,-110.6632,-50.33768,0.001067912,-0.1257102,0.09433498,0,0.3,0,0,0,0,
6.38224E+17,40.47601,39.90659,32.10249,28.05911,17.55424,-134.1789,-17.01029,-0.4441859,-4.27255,-61.51973,-6.98289,34.57793,0,0,0,112.4023,-4.061549,-36.63214,-36.10317,-110.6632,-50.33768,0.001067912,-0.1257102,0.09433498,0,0.3,0,0,0,0,
6.38224E+17,37.53102,41.21577,29.11404,27.69288,15.8696,-129.9307,-17.01029,-0.4441859,-4.27255,-61.51973,-6.98289,34.57793,0,0,0,100.6333,-5.287775,-37.34906,-36.10317,-110.6632,-50.33768,0.001067912,-0.1257102,0.09433498,0,0.3,0,0,0,0,
6.38224E+17,35.4813,41.23915,27.15287,26.52096,15.43013,-129.125,-17.01029,-0.4441859,-4.27255,-61.44649,-6.909645,34.57793,0,0,0,93.52638,-7.398995,-37.14029,-36.10317,-110.6632,-50.33768,0.001067912,-0.1257102,0.09433498,0,0.3,0,0,0,0,
6.38224E+17,30.53371,40.56118,23.11379,22.63897,15.35689,-128.9785,-17.01029,-0.4441859,-4.27255,-61.51973,-6.909645,34.57793,0,0,0,78.06383,-12.58347,-36.00204,-36.10317,-110.6632,-50.33768,0.001067912,-0.1257102,0.09433498,0,0.3,0,0,0,0,
6.38224E+17,24.52592,38.97147,19.63505,15.75392,16.30907,-129.0518,-17.01029,-0.4441859,-4.27255,-61.51973,-6.98289,34.57793,0,0,0,61.63622,-18.37772,-33.26363,-36.10317,-110.6632,-50.33768,0.001067912,-0.1257102,0.09433498,0,0.3,0,0,0,0,
6.38224E+17,21.74584,37.9662,18.58442,12.01842,17.11477,-129.0518,-17.01029,-0.4441859,-4.27255,-61.44649,-6.98289,34.57793,0,0,0,54.6949,-21.01002,-31.22726,-36.10317,-110.6632,-50.33768,0.001067912,-0.1257102,0.09433498,0,0.3,0,0,0,0,
6.38224E+17,15.92653,35.1842,17.55714,3.155754,19.01915,-130.1505,-17.01029,-0.4441859,-4.27255,-61.44649,-6.909645,34.57793,0,0,0,40.94484,-26.95091,-24.86425,-36.10317,-110.6632,-50.33768,0.001067912,-0.1257102,0.09433498,0,0.3,0,0,0,0,
6.38224E+17,11.0025,31.93463,17.72057,-6.146383,21.07001,-133.8127,-17.01029,-0.4441859,-4.27255,-61.51973,-6.909645,34.57793,0,0,0,29.34465,-33.13719,-17.42002,-36.10317,-110.6632,-50.33768,0.001067912,-0.1257102,0.09433498,0,0.3,0,0,0,0,
6.38224E+17,7.115108,28.77857,18.8179,-16.62044,23.78008,-134.9846,-17.01029,-0.4441859,-4.27255,-61.44649,-6.98289,34.57793,0,0,0,19.80486,-38.67411,-9.688211,-36.10317,-110.6632,-50.33768,0.001067912,-0.1257102,0.09433498,0,0.3,0,0,0,0,
6.38224E+17,5.371671,27.82006,19.30819,-20.79542,25.31823,-134.3987,-17.01029,-0.4441859,-4.27255,-61.44649,-6.98289,34.57793,0,0,0,15.16853,-40.2656,-7.032401,-36.10317,-110.6632,-50.33768,0.001067912,-0.1257102,0.09433498,0,0.3,0,0,0,0,
6.38224E+17,2.921435,27.70317,20.63898,-25.77609,26.70989,-133.5197,-17.01029,-0.4441859,-4.27255,-61.44649,-6.98289,34.57793,0,0,0,8.412889,-39.44837,-3.497718,-36.10317,-110.6632,-50.33768,0.001067912,-0.1257102,0.09433498,0,0.3,0,0,0,0,
6.38224E+17,1.460718,28.03047,21.54953,-28.33967,26.92962,-133.3732,-17.01029,-0.4441859,-4.27255,-61.44649,-6.909645,34.57793,0,0,0,4.249137,-38.01226,-1.716244,-36.10317,-110.6632,-50.33768,0.001067912,-0.1257102,0.09433498,0,0.3,0,0,0,0,
6.38224E+17,-1.083758,29.3864,22.83363,-34.27253,26.34366,-133.5197,-17.01029,-0.4441859,-4.27255,-61.51973,-6.909645,34.57793,0,0,0,-3.176406,-34.11566,-0.4408067,-36.10317,-110.6632,-50.33768,0.001067912,-0.1257102,0.09433498,0,0.3,0,0,0,0,
6.38224E+17,-2.426676,31.32679,23.5107,-39.83916,24.73227,-135.1311,-17.01029,-0.4441859,-4.27255,-61.51973,-6.909645,34.57793,0,0,0,-7.075393,-29.59888,-1.394161,-36.10317,-110.6632,-50.33768,0.001067912,-0.1257102,0.09433498,0,0.3,0,0,0,0,
6.38224E+17,-2.638716,32.12165,23.65078,-42.10976,23.63359,-137.182,-17.01029,-0.4441859,-4.27255,-61.51973,-6.909645,34.57793,0,0,0,-7.662184,-27.89492,-2.094723,-36.10317,-110.6632,-50.33768,0.001067912,-0.1257102,0.09433498,0,0.3,0,0,0,0,
6.38224E+17,-2.120397,32.96326,23.65078,-45.40579,21.50948,-141.357,-17.01029,-0.4441859,-4.27255,-61.44649,-6.909645,34.57793,0,0,0,-6.118899,-26.24371,-3.085153,-36.10317,-110.6632,-50.33768,0.001067912,-0.1257102,0.09433498,0,0.3,0,0,0,0,
6.38224E+17,-0.5654391,32.91651,23.09044,-47.01719,19.82484,-141.7964,-17.01029,-0.4441859,-4.27255,-61.44649,-6.909645,34.57793,0,0,0,-1.620822,-26.85235,-4.117865,-36.10317,-110.6632,-50.33768,0.001067912,-0.1257102,0.09433498,0,0.3,0,0,0,0,
6.38224E+17,0.7303588,32.65935,22.48342,-46.87069,19.31213,-141.7232,-17.01029,-0.4441859,-4.27255,-61.44649,-6.909645,34.57793,0,0,0,2.081068,-27.90269,-5.101542,-36.10317,-110.6632,-50.33768,0.001067912,-0.1257102,0.09433498,0,0.3,0,0,0,0,
6.38224E+17,4.311473,31.30341,21.36275,-44.38036,18.79941,-142.0162,-17.01029,-0.4441859,-4.27255,-61.44649,-6.98289,34.57793,0,0,0,12.21751,-31.55324,-6.296354,-36.10317,-110.6632,-50.33768,0.001067912,-0.1257102,0.09433498,0,0.3,0,0,0,0,
6.38224E+17,8.929225,29.10587,21.31605,-38.81373,19.60511,-141.357,-17.01029,-0.4441859,-4.27255,-61.51973,-6.98289,34.57793,0,0,0,25.60807,-36.0127,-5.364236,-36.10317,-110.6632,-50.33768,0.001067912,-0.1257102,0.09433498,0,0.3,0,0,0,0,
6.38224E+17,13.07578,27.07196,22.39003,-31.70894,21.14326,-135.7903,-17.01029,-0.4441859,-4.27255,-61.44649,-6.909645,34.57793,0,0,0,38.35526,-39.25825,-3.211857,-36.10317,-110.6632,-50.33768,0.001067912,-0.1257102,0.09433498,0,0.3,0,0,0,0,
6.38224E+17,16.56265,24.94454,24.56132,-22.48005,22.90114,-130.0772,-17.01029,-0.4441859,-4.27255,-61.51973,-6.909645,34.57793,0,0,0,50.26807,-41.69494,0.6732328,-36.10317,-110.6632,-50.33768,0.001067912,-0.1257102,0.09433498,0,0.3,0,0,0,0,
6.38224E+17,17.29301,24.28995,25.49521,-19.55025,23.41385,-129.0518,-17.01029,-0.4441859,-4.27255,-61.44649,-6.909645,34.57793,0,0,0,53.19257,-42.16042,2.505061,-36.10317,-110.6632,-50.33768,0.001067912,-0.1257102,0.09433498,0,0.3,0,0,0,0,
6.38224E+17,18.21185,22.88726,27.45638,-13.83713,24.36604,-128.0263,-17.01029,-0.4441859,-4.27255,-61.51973,-6.909645,34.57793,0,0,0,57.6107,-43.11737,6.751877,-36.10317,-110.6632,-50.33768,0.001067912,-0.1257102,0.09433498,0,0.3,0,0,0,0,
6.38224E+17,18.51813,21.97551,28.48367,-10.3946,24.58578,-128.1728,-17.01029,-0.4441859,-4.27255,-61.51973,-6.909645,34.57793,0,0,0,59.47371,-43.95746,9.211445,-36.10317,-110.6632,-50.33768,0.001067912,-0.1257102,0.09433498,0,0.3,0,0,0,0,
6.38224E+17,19.60189,21.76511,28.76383,-8.416983,24.36604,-129.7842,-17.01029,-0.4441859,-4.27255,-61.44649,-6.98289,34.57793,0,0,0,63.07469,-44.09954,8.765834,-36.10317,-110.6632,-50.33768,0.001067912,-0.1257102,0.09433498,0,0.3,0,0,0,0,
6.38224E+17,20.66209,21.81186,28.92726,-7.171815,24.14631,-130.0772,-17.01029,-0.4441859,-4.27255,-61.51973,-6.909645,34.57793,0,0,0,66.44435,-43.81498,7.842397,-36.10317,-110.6632,-50.33768,0.001067912,-0.1257102,0.09433498,0,0.3,0,0,0,0,
6.38224E+17,22.75892,21.882,29.06735,-3.436311,23.70683,-130.1505,-17.01029,-0.4441859,-4.27255,-61.44649,-6.98289,34.57793,0,0,0,72.9333,-43.50542,5.500264,-36.10317,-110.6632,-50.33768,0.001067912,-0.1257102,0.09433498,0,0.3,0,0,0,0,
6.38224E+17,23.84268,21.85862,29.02065,1.397869,23.41385,-129.6377,-17.01029,-0.4441859,-4.27255,-61.51973,-6.98289,34.57793,0,0,0,76.17825,-43.60868,4.021339,-36.10317,-110.6632,-50.33768,0.001067912,-0.1257102,0.09433498,0,0.3,0,0,0,0,
6.38224E+17,23.55996,21.85862,28.81053,3.66847,23.26737,-128.1728,-17.01029,-0.4441859,-4.27255,-61.44649,-6.98289,34.57793,0,0,0,75.15567,-43.84514,4.002738,-36.10317,-110.6632,-50.33768,0.001067912,-0.1257102,0.09433498,0,0.3,0,0,0,0,
6.38224E+17,20.63853,21.85862,27.82994,6.378541,23.19412,-125.3895,-17.01029,-0.4441859,-4.27255,-61.44649,-6.98289,34.57793,0,0,0,65.56564,-44.92781,5.729075,-36.10317,-110.6632,-50.33768,0.001067912,-0.1257102,0.09433498,0,0.3,0,0,0,0,
6.38224E+17,15.62025,21.85862,26.33572,4.620657,23.34061,-125.1698,-17.01029,-0.4441859,-4.27255,-61.44649,-6.909645,34.57793,0,0,0,49.25333,-46.51106,7.815169,-36.10317,-110.6632,-50.33768,0.001067912,-0.1257102,0.09433498,0,0.3,0,0,0,0,
6.38224E+17,9.565345,21.85862,25.21505,-1.385447,23.70683,-125.243,-17.01029,-0.4441859,-4.27255,-61.51973,-6.98289,34.57793,0,0,0,30.0061,-47.64522,9.711663,-36.10317,-110.6632,-50.33768,0.001067912,-0.1257102,0.09433498,0,0.3,0,0,0,0,
6.38224E+17,6.738149,21.85862,25.00492,-5.047705,23.99982,-125.6825,-17.01029,-0.4441859,-4.27255,-61.51973,-6.909645,34.57793,0,0,0,21.13494,-47.85275,10.53518,-36.10317,-110.6632,-50.33768,0.001067912,-0.1257102,0.09433498,0,0.3,0,0,0,0,
6.38224E+17,1.602077,21.85862,24.98158,-13.83713,23.92657,-128.9785,-17.01029,-0.4441859,-4.27255,-61.44649,-6.98289,34.50468,0,0,0,5.034659,-47.87571,11.65974,-36.10317,-110.6632,-50.33768,0.001067912,-0.1257102,0.09433498,0,0.3,0,0,0,0,
6.38224E+17,-1.177998,21.85862,24.91153,-22.5533,23.41385,-134.4719,-17.01029,-0.4441859,-4.27255,-61.44649,-6.98289,34.57793,0,0,0,-3.699138,-47.94447,11.5443,-36.10317,-110.6632,-50.33768,0.001067912,-0.1257102,0.09433498,0,0.3,0,0,0,0,
6.38224E+17,-0.3298394,21.76511,23.65078,-28.04669,22.97438,-136.7425,-17.01029,-0.4441859,-4.27255,-61.44649,-6.98289,34.57793,0,0,0,-1.020894,-49.35312,8.985605,-36.10317,-110.6632,-50.33768,0.001067912,-0.1257102,0.09433498,0,0.3,0,0,0,0,
6.38224E+17,1.272238,21.71835,22.57681,-28.77914,22.90114,-136.8158,-17.01029,-0.4441859,-4.27255,-61.44649,-6.98289,34.57793,0,0,0,3.887286,-50.43541,6.686811,-36.10317,-110.6632,-50.33768,0.001067912,-0.1257102,0.09433498,0,0.3,0,0,0,0,
6.38224E+17,6.47899,21.57808,20.66233,-26.06907,22.97438,-135.5706,-17.01029,-0.4441859,-4.27255,-61.44649,-6.909645,34.57793,0,0,0,19.30202,-52.38045,1.615814,-36.10317,-110.6632,-50.33768,0.001067912,-0.1257102,0.09433498,0,0.3,0,0,0,0,
6.38224E+17,13.61766,21.41443,20.40551,-16.62044,23.41385,-128.3926,-17.01029,-0.4441859,-4.27255,-61.51973,-6.98289,34.57793,0,0,0,40.17532,-52.94449,-2.508762,-36.10317,-110.6632,-50.33768,0.001067912,-0.1257102,0.09433498,0,0.3,0,0,0,0,
6.38224E+17,17.52861,21.41443,21.03589,-7.464796,23.4871,-124.2176,-17.01029,-0.4441859,-4.27255,-61.51973,-6.909645,34.57793,0,0,0,51.80643,-52.4254,-4.326651,-36.10317,-110.6632,-50.33768,0.001067912,-0.1257102,0.09433498,0,0.3,0,0,0,0,
6.38224E+17,18.87153,21.41443,21.19932,-2.191144,23.41385,-123.3387,-17.01029,-0.4441859,-4.27255,-61.51973,-6.909645,34.57793,0,0,0,55.75105,-52.28836,-5.250097,-36.10317,-110.6632,-50.33768,0.001067912,-0.1257102,0.09433498,0,0.3,0,0,0,0,
6.38224E+17,19.24849,21.25079,20.59229,6.08556,23.12087,-123.1189,-17.01029,-0.4441859,-4.27255,-61.44649,-6.909645,34.57793,0,0,0,56.43346,-53.14703,-6.7357,-36.10317,-110.6632,-50.33768,0.001067912,-0.1257102,0.09433498,0,0.3,0,0,0,0,
6.38224E+17,17.12809,20.54944,19.72844,10.48027,23.04763,-122.7527,-17.01029,-0.4441859,-4.27255,-61.51973,-6.98289,34.57793,0,0,0,50.03083,-55.36485,-6.005487,-36.10317,-110.6632,-50.33768,0.001067912,-0.1257102,0.09433498,0,0.3,0,0,0,0,
6.38224E+17,15.36109,20.10526,19.28484,11.21272,23.04763,-121.654,-17.01029,-0.4441859,-4.27255,-61.44649,-6.909645,34.57793,0,0,0,44.83849,-56.67901,-5.13209,-36.10317,-110.6632,-50.33768,0.001067912,-0.1257102,0.09433498,0,0.3,0,0,0,0,
6.38224E+17,10.71978,19.3104,18.51438,10.48027,23.56034,-119.6031,-17.01029,-0.4441859,-4.27255,-61.51973,-6.98289,34.57793,0,0,0,31.28473,-59.00141,-3.093009,-36.10317,-110.6632,-50.33768,0.001067912,-0.1257102,0.09433498,0,0.3,0,0,0,0,
6.38224E+17,5.371671,18.74932,18.09413,7.184238,24.36604,-118.5045,-17.01029,-0.4441859,-4.27255,-61.51973,-6.909645,34.57793,0,0,0,15.69842,-60.54306,-1.397069,-36.10317,-110.6632,-50.33768,0.001067912,-0.1257102,0.09433498,0,0.3,0,0,0,0,
6.38224E+17,-0.4476392,18.25838,18.09413,1.764095,25.09849,-117.5523,-17.01029,-0.4441859,-4.27255,-61.44649,-6.98289,34.57793,0,0,0,-1.31294,-61.62661,-0.3031393,-36.10317,-110.6632,-50.33768,0.001067912,-0.1257102,0.09433498,0,0.3,0,0,0,0,
6.38224E+17,-4.829792,17.97784,18.53773,-2.777105,25.46472,-116.7466,-17.01029,-0.4441859,-4.27255,-61.51973,-6.98289,34.57793,0,0,0,-14.24892,-61.92271,0.2842373,-36.10317,-110.6632,-50.33768,0.001067912,-0.1257102,0.09433498,0,0.3,0,0,0,0,
6.38224E+17,-9.777385,17.72068,19.63505,-8.490229,25.46472,-115.8676,-17.01029,-0.4441859,-4.27255,-61.44649,-6.909645,34.57793,0,0,0,-29.18061,-61.65732,0.9862168,-36.10317,-110.6632,-50.33768,0.001067912,-0.1257102,0.09433498,0,0.3,0,0,0,0,
6.38224E+17,-15.69093,17.55703,21.68961,-16.18097,24.95201,-114.2563,-17.01029,-0.4441859,-4.27255,-61.51973,-6.98289,34.57793,0,0,0,-47.71284,-60.33308,1.497016,-36.10317,-110.6632,-50.33768,0.001067912,-0.1257102,0.09433498,0,0.3,0,0,0,0,
6.38224E+17,-18.32965,17.55703,22.81028,-19.76999,24.51253,-112.9378,-17.01029,-0.4441859,-4.27255,-61.51973,-6.909645,34.57793,0,0,0,-56.24083,-59.34549,1.411837,-36.10317,-110.6632,-50.33768,0.001067912,-0.1257102,0.09433498,0,0.3,0,0,0,0,
6.38224E+17,-22.9474,17.55703,25.26174,-26.80152,23.63359,-110.1545,-17.01029,-0.4441859,-4.27255,-61.51973,-6.909645,34.57793,0,0,0,-71.75688,-57.02175,1.131029,-36.10317,-110.6632,-50.33768,0.001067912,-0.1257102,0.09433498,0,0.3,0,0,0,0,
6.38224E+17,-26.2458,17.62716,27.68986,-33.17385,22.53491,-108.1037,-17.01029,-0.4441859,-4.27255,-61.51973,-6.909645,34.57793,0,0,0,-83.60429,-54.34693,1.214077,-36.10317,-110.6632,-50.33768,0.001067912,-0.1257102,0.09433498,0,0.3,0,0,0,0,
6.38224E+17,-28.01279,18.00122,29.27747,-38.74048,21.72922,-106.712,-17.01029,-0.4441859,-4.27255,-61.51973,-6.98289,34.57793,0,0,0,-90.19327,-51.75598,1.187528,-36.10317,-110.6632,-50.33768,0.001067912,-0.1257102,0.09433498,0,0.3,0,0,0,0,
6.38224E+17,-29.35571,18.58567,29.95454,-42.76897,21.07001,-104.8076,-17.01029,-0.4441859,-4.27255,-61.51973,-6.98289,34.57793,0,0,0,-94.60408,-49.68573,-0.1509356,-36.10317,-110.6632,-50.33768,0.001067912,-0.1257102,0.09433498,0,0.3,0,0,0,0,
6.38224E+17,-29.96827,18.84283,30.25806,-44.38036,20.70378,-104.0019,-17.01029,-0.4441859,-4.27255,-61.44649,-6.98289,34.57793,0,0,0,-96.60622,-48.76453,-0.8089163,-36.10317,-110.6632,-50.33768,0.001067912,-0.1257102,0.09433498,0,0.3,0,0,0,0,
6.38224E+17,-31.14627,19.17013,30.95848,-47.23692,20.04458,-103.2695,-17.01029,-0.4441859,-4.27255,-61.44649,-6.909645,34.57793,0,0,0,-100.6276,-47.21431,-1.841958,-36.10317,-110.6632,-50.33768,0.001067912,-0.1257102,0.09433498,0,0.3,0,0,0,0,
6.38224E+17,-32.41851,19.17013,32.0558,-50.31322,19.09239,-103.1962,-17.01029,-0.4441859,-4.27255,-61.51973,-6.909645,34.57793,0,0,0,-105.467,-45.87964,-2.279201,-36.10317,-110.6632,-50.33768,0.001067912,-0.1257102,0.09433498,0,0.3,0,0,0,0,
6.38224E+17,-32.91327,19.17013,32.68617,-51.77813,18.57967,-103.2695,-17.01029,-0.4441859,-4.27255,-61.51973,-6.98289,34.57793,0,0,0,-107.5704,-45.09415,-2.155861,-36.10317,-110.6632,-50.33768,0.001067912,-0.1257102,0.09433498,0,0.3,0,0,0,0,
6.38224E+17,-33.66718,19.12337,34.20374,-55.58687,17.26126,-104.3682,-17.01029,-0.4441859,-4.27255,-61.44649,-6.909645,34.57793,0,0,0,-111.4014,-43.2504,-1.103195,-36.10317,-110.6632,-50.33768,0.001067912,-0.1257102,0.09433498,0,0.3,0,0,0,0,
6.38224E+17,-34.25618,18.65581,35.53454,-59.39562,15.94285,-106.419,-17.01029,-0.4441859,-4.27255,-61.44649,-6.909645,34.57793,0,0,0,-114.7435,-42.5093,0.1342993,-36.10317,-110.6632,-50.33768,0.001067912,-0.1257102,0.09433498,0,0.3,0,0,0,0,
6.38224E+17,-34.63314,17.37,36.44508,-62.91139,14.99066,-109.4953,-17.01029,-0.4441859,-4.27255,-61.51973,-6.909645,34.57793,0,0,0,-117.3499,-44.10982,1.547989,-36.10317,-110.6632,-50.33768,0.001067912,-0.1257102,0.09433498,0,0.3,0,0,0,0,
6.38224E+17,-34.63314,16.52839,36.53847,-64.30305,14.69768,-110.9602,-17.01029,-0.4441859,-4.27255,-61.44649,-6.98289,34.57793,0,0,0,-117.7737,-45.85424,2.161609,-36.10317,-110.6632,-50.33768,0.001067912,-0.1257102,0.09433498,0,0.3,0,0,0,0,
6.38224E+17,-34.27974,14.72827,36.42173,-66.28067,14.62444,-113.597,-17.01029,-0.4441859,-4.27255,-61.51973,-6.909645,34.57793,0,0,0,-117.2324,-50.05031,3.636848,-36.10317,-110.6632,-50.33768,0.001067912,-0.1257102,0.09433498,0,0.3,0,0,0,0,
6.38224E+17,-32.91327,12.60085,35.04425,-66.86663,14.99066,-115.5747,-17.01029,-0.4441859,-4.27255,-61.51973,-6.909645,34.57793,0,0,0,-112.3191,-56.73349,5.180829,-36.10317,-110.6632,-50.33768,0.001067912,-0.1257102,0.09433498,0,0.3,0,0,0,0,
6.38224E+17,-31.52323,11.52545,33.55002,-65.84119,15.64987,-115.8676,-17.01029,-0.4441859,-4.27255,-61.51973,-6.909645,34.57793,0,0,0,-106.8479,-61.14061,5.851376,-36.10317,-110.6632,-50.33768,0.001067912,-0.1257102,0.09433498,0,0.3,0,0,0,0,
6.38224E+17,-30.41591,10.87086,32.4527,-64.66927,16.30907,-115.7212,-17.01029,-0.4441859,-4.27255,-61.51973,-6.909645,34.57793,0,0,0,-102.5269,-64.02608,6.291795,-36.10317,-110.6632,-50.33768,0.001067912,-0.1257102,0.09433498,0,0.3,0,0,0,0,
6.38224E+17,-27.91855,10.02925,30.44483,-61.37324,17.99371,-115.6479,-17.01029,-0.4441859,-4.27255,-61.44649,-6.909645,34.57793,0,0,0,-93.11966,-68.39034,7.384806,-36.10317,-110.6632,-50.33768,0.001067912,-0.1257102,0.09433498,0,0.3,0,0,0,0,
6.38224E+17,-25.0678,9.982493,28.78718,-57.19827,19.97133,-114.9887,-17.01029,-0.4441859,-4.27255,-61.51973,-6.909645,34.57793,0,0,0,-82.85134,-70.40401,8.77775,-36.10317,-110.6632,-50.33768,0.001067912,-0.1257102,0.09433498,0,0.3,0,0,0,0,
6.38224E+17,-21.98145,10.47344,27.40969,-52.73031,21.80246,-113.3773,-17.01029,-0.4441859,-4.27255,-61.51973,-6.98289,34.57793,0,0,0,-72.05994,-70.78949,10.17103,-36.10317,-110.6632,-50.33768,0.001067912,-0.1257102,0.09433498,0,0.3,0,0,0,0,
6.38224E+17,-20.30869,10.98776,26.63923,-50.38646,22.60816,-112.4251,-17.01029,-0.4441859,-4.27255,-61.44649,-6.98289,34.57793,0,0,0,-66.18626,-70.42815,10.49137,-36.10317,-110.6632,-50.33768,0.001067912,-0.1257102,0.09433498,0,0.3,0,0,0,0,
6.38224E+17,-16.20925,12.62423,24.77145,-44.38036,24.14631,-110.0813,-17.01029,-0.4441859,-4.27255,-61.44649,-6.98289,34.57793,0,0,0,-51.92113,-68.58555,10.25604,-36.10317,-110.6632,-50.33768,0.001067912,-0.1257102,0.09433498,0,0.3,0,0,0,0,
6.38224E+17,-11.16742,14.84516,22.92702,-37.49532,25.46472,-108.0304,-17.01029,-0.4441859,-4.27255,-61.51973,-6.98289,34.57793,0,0,0,-35.02575,-65.3003,9.072351,-36.10317,-110.6632,-50.33768,0.001067912,-0.1257102,0.09433498,0,0.3,0,0,0,0,
6.38224E+17,-8.104627,16.22447,22.13321,-33.32034,25.90419,-106.9317,-17.01029,-0.4441859,-4.27255,-61.44649,-6.98289,34.57793,0,0,0,-25.13418,-62.91534,8.149752,-36.10317,-110.6632,-50.33768,0.001067912,-0.1257102,0.09433498,0,0.3,0,0,0,0,
6.38224E+17,-1.719877,18.95972,21.64292,-23.65198,25.90419,-104.5879,-17.01029,-0.4441859,-4.27255,-61.44649,-6.909645,34.57793,0,0,0,-5.26121,-57.27302,6.868682,-36.10317,-110.6632,-50.33768,0.001067912,-0.1257102,0.09433498,0,0.3,0,0,0,0,
6.38224E+17,4.617752,21.64822,22.6235,-12.51871,24.80551,-102.537,-17.01029,-0.4441859,-4.27255,-61.51973,-6.909645,34.57793,0,0,0,14.10823,-50.54532,6.321778,-36.10317,-110.6632,-50.33768,0.001067912,-0.1257102,0.09433498,0,0.3,0,0,0,0,
6.38224E+17,10.48418,24.12631,24.84149,-1.165711,22.90114,-102.0975,-17.01029,-0.4441859,-4.27255,-61.51973,-6.98289,34.57793,0,0,0,32.3392,-43.15484,6.405951,-36.10317,-110.6632,-50.33768,0.001067912,-0.1257102,0.09433498,0,0.3,0,0,0,0,
6.38224E+17,15.47889,26.30048,27.38634,9.821064,20.33756,-102.244,-17.01029,-0.4441859,-4.27255,-61.51973,-6.909645,34.57793,0,0,0,48.27531,-35.97026,5.974466,-36.10317,-110.6632,-50.33768,0.001067912,-0.1257102,0.09433498,0,0.3,0,0,0,0,
6.38224E+17,17.10453,27.00183,28.18015,13.48332,19.31213,-102.9033,-17.01029,-0.4441859,-4.27255,-61.51973,-6.909645,34.57793,0,0,0,53.46666,-33.65022,5.397202,-36.10317,-110.6632,-50.33768,0.001067912,-0.1257102,0.09433498,0,0.3,0,0,0,0,
6.38224E+17,20.47361,28.49803,29.86115,20.95433,17.33451,-105.7598,-17.01029,-0.4441859,-4.27255,-61.44649,-6.909645,34.57793,0,0,0,64.21444,-28.67063,3.640808,-36.10317,-110.6632,-50.33768,0.001067912,-0.1257102,0.09433498,0,0.3,0,0,0,0,
6.38224E+17,23.5364,29.64356,31.28534,26.96043,15.8696,-109.2756,-17.01029,-0.4441859,-4.27255,-61.44649,-6.98289,34.57793,0,0,0,73.93455,-24.65453,1.392834,-36.10317,-110.6632,-50.33768,0.001067912,-0.1257102,0.09433498,0,0.3,0,0,0,0,
6.38224E+17,26.29292,30.27477,32.28927,31.57488,15.06391,-112.4251,-17.01029,-0.4441859,-4.27255,-61.51973,-6.98289,34.57793,0,0,0,82.567,-22.15095,-1.236351,-36.10317,-110.6632,-50.33768,0.001067912,-0.1257102,0.09433498,0,0.3,0,0,0,0,
6.38224E+17,27.63584,30.39166,32.49939,33.62574,14.91741,-113.9633,-17.01029,-0.4441859,-4.27255,-61.44649,-6.909645,34.57793,0,0,0,86.58865,-21.65414,-2.973197,-36.10317,-110.6632,-50.33768,0.001067912,-0.1257102,0.09433498,0,0.3,0,0,0,0,
6.38224E+17,29.56775,30.39166,32.42935,36.33582,14.91741,-116.7466,-17.01029,-0.4441859,-4.27255,-61.51973,-6.98289,34.57793,0,0,0,92.04673,-21.74164,-6.105897,-36.10317,-110.6632,-50.33768,0.001067912,-0.1257102,0.09433498,0,0.3,0,0,0,0,
6.38224E+17,30.86355,30.39166,31.91571,37.72747,15.35689,-118.9439,-17.01029,-0.4441859,-4.27255,-61.44649,-6.909645,34.57793,0,0,0,95.17309,-22.37818,-9.097521,-36.10317,-110.6632,-50.33768,0.001067912,-0.1257102,0.09433498,0,0.3,0,0,0,0,
6.38224E+17,31.24051,30.39166,31.63554,38.02045,15.64987,-119.8961,-17.01029,-0.4441859,-4.27255,-61.51973,-6.909645,34.57793,0,0,0,95.93128,-22.72155,-10.20107,-36.10317,-110.6632,-50.33768,0.001067912,-0.1257102,0.09433498,0,0.3,0,0,0,0,
6.38224E+17,31.61747,30.39166,31.14525,38.02045,16.60205,-121.5075,-17.01029,-0.4441859,-4.27255,-61.44649,-6.909645,34.57793,0,0,0,96.45903,-23.31591,-11.66514,-36.10317,-110.6632,-50.33768,0.001067912,-0.1257102,0.09433498,0,0.3,0,0,0,0,
6.38224E+17,31.49967,30.39166,30.70166,37.58098,17.33451,-121.8737,-17.01029,-0.4441859,-4.27255,-61.44649,-6.909645,34.57793,0,0,0,95.67392,-23.84647,-12.22231,-36.10317,-110.6632,-50.33768,0.001067912,-0.1257102,0.09433498,0,0.3,0,0,0,0,
