zeyangz2/DNN_classification_different_people_hand/data_by_names/Frank/frank_right_14.csv
Timestamp,Therapist joint angle 0,Therapist joint angle 1,Therapist joint angle 2,Therapist joint angle 3,Therapist joint angle 4,Therapist joint angle 5,Patient joint angle 0,Patient joint angle 1,Patient joint angle 2,Patient joint angle 3,Patient joint angle 4,Patient joint angle 5,Virtual joint angle 0,Virtual joint angle 1,Virtual joint angle 2,Therapist position x,Therapist position y,Therapist position z,Patient position x,Patient position y,Patient position z,Virtual position x,Virtual position y,Virtual position z,Assistive Force, Obstacle Force Magnitude, Therapist Constant Force, Patient Constant Force, Recovery Factor, Assistance Level,label
6.38224E+17,0,0,0,0,0,0,0,0,0,0,0,0,0,0,0,0,0,0,0,0,0,0,0,0,0,0.3,0,0,0,0,1
6.38224E+17,10.83758,-0.9818845,-9.292212,-120.9216,-10.27892,-67.67233,-17.01029,-0.4441859,-4.27255,-61.44649,-6.98289,34.57793,0,0,0,21.02097,-110.5353,-58.54559,-36.10317,-110.6632,-50.33768,0.001067912,-0.1257102,0.09433498,0,0.3,0,0,0,0,
6.38224E+17,10.83758,-0.9818845,-9.292212,-120.9216,-10.27892,-67.67233,-17.01029,-0.4441859,-4.27255,-61.51973,-6.98289,34.57793,0,0,0,21.02097,-110.5353,-58.54559,-36.10317,-110.6632,-50.33768,0.001067912,-0.1257102,0.09433498,0,0.3,0,0,0,0,
6.38224E+17,10.83758,-0.9818845,-9.292212,-120.9216,-10.27892,-67.67233,-17.01029,-0.4441859,-4.27255,-61.51973,-6.98289,34.57793,0,0,0,21.02097,-110.5353,-58.54559,-36.10317,-110.6632,-50.33768,0.001067912,-0.1257102,0.09433498,0,0.3,0,0,0,0,
6.38224E+17,10.83758,-0.9818845,-9.292212,-120.9216,-10.27892,-67.67233,-17.01029,-0.4441859,-4.27255,-61.51973,-6.98289,34.57793,0,0,0,21.02097,-110.5353,-58.54559,-36.10317,-110.6632,-50.33768,0.001067912,-0.1257102,0.09433498,0,0.3,0,0,6.61E-08,0,
6.38224E+17,10.83758,-0.9818845,-9.292212,-120.9216,-10.27892,-67.67233,-17.01029,-0.4441859,-4.27255,-61.51973,-6.98289,34.65118,0,0,0,21.02097,-110.5353,-58.54559,-36.10317,-110.6632,-50.33768,0.001067912,-0.1257102,0.09433498,0,0.3,0,0,0,0,
6.38224E+17,10.83758,-0.9818845,-9.292212,-120.9216,-10.27892,-67.67233,-17.01029,-0.4441859,-4.27255,-61.51973,-6.98289,34.57793,0,0,0,21.02097,-110.5353,-58.54559,-36.10317,-110.6632,-50.33768,0.001067912,-0.1257102,0.09433498,0,0.3,0,0,0,0,
6.38224E+17,10.83758,-0.9818845,-9.292212,-120.9216,-10.27892,-67.67233,-17.01029,-0.4441859,-4.27255,-61.51973,-6.98289,34.57793,0,0,0,21.02097,-110.5353,-58.54559,-36.10317,-110.6632,-50.33768,0.001067912,-0.1257102,0.09433498,0,0.3,0,0,6.61E-08,0,
6.38224E+17,10.83758,-0.9818845,-9.292212,-120.9216,-10.27892,-67.67233,-17.01029,-0.4441859,-4.27255,-61.51973,-6.98289,34.57793,0,0,0,21.02097,-110.5353,-58.54559,-36.10317,-110.6632,-50.33768,0.001067912,-0.1257102,0.09433498,0,0.3,0,0,6.61E-08,0,
6.38224E+17,10.83758,-0.9818845,-9.292212,-120.9216,-10.27892,-67.67233,-17.01029,-0.4441859,-4.27255,-61.51973,-6.98289,34.57793,0,0,0,21.02097,-110.5353,-58.54559,-36.10317,-110.6632,-50.33768,0.001067912,-0.1257102,0.09433498,0,0.3,0,0,6.61E-08,0,
6.38224E+17,10.83758,-0.9818845,-9.292212,-120.9216,-10.27892,-67.67233,-17.01029,-0.4441859,-4.27255,-61.44649,-6.98289,34.57793,0,0,0,21.02097,-110.5353,-58.54559,-36.10317,-110.6632,-50.33768,0.001067912,-0.1257102,0.09433498,0,0.3,0,0,0,0,
6.38224E+17,10.83758,-0.9818845,-9.292212,-120.9216,-10.27892,-67.67233,-17.01029,-0.4441859,-4.27255,-61.51973,-6.98289,34.57793,0,0,0,21.02097,-110.5353,-58.54559,-36.10317,-110.6632,-50.33768,0.001067912,-0.1257102,0.09433498,0,0.3,0,0,0,0,
6.38224E+17,10.83758,-0.9818845,-9.292212,-120.9216,-10.27892,-67.67233,-17.01029,-0.4441859,-4.27255,-61.44649,-6.98289,34.57793,0,0,0,21.02097,-110.5353,-58.54559,-36.10317,-110.6632,-50.33768,0.001067912,-0.1257102,0.09433498,0,0.3,0,0,0,0,
6.38224E+17,10.83758,-0.9818845,-9.292212,-120.9216,-10.27892,-67.67233,-17.01029,-0.4441859,-4.27255,-61.51973,-6.98289,34.57793,0,0,0,21.02097,-110.5353,-58.54559,-36.10317,-110.6632,-50.33768,0.001067912,-0.1257102,0.09433498,0,0.3,0,0,6.61E-08,0,
6.38224E+17,10.83758,-0.9818845,-9.292212,-120.9216,-10.20568,-67.67233,-17.01029,-0.4441859,-4.27255,-61.51973,-6.98289,34.57793,0,0,0,21.02097,-110.5353,-58.54559,-36.10317,-110.6632,-50.33768,0.001067912,-0.1257102,0.09433498,0,0.3,0,0,6.61E-08,0,
6.38224E+17,10.79046,-0.9818845,-9.152128,-120.9216,-10.35217,-68.47802,-17.01029,-0.4441859,-4.27255,-61.51973,-6.98289,34.57793,0,0,0,20.99091,-110.5875,-58.21221,-36.10317,-110.6632,-50.33768,0.001067912,-0.1257102,0.09433498,0,0.3,0,0,5.09E-05,0,
6.38224E+17,10.50774,-0.9818845,-8.521752,-121.7273,-10.49866,-75.36307,-17.01029,-0.4441859,-4.27255,-61.51973,-6.98289,34.57793,0,0,0,20.71157,-110.8129,-56.68457,-36.10317,-110.6632,-50.33768,0.001067912,-0.1257102,0.09433498,0,0.3,0,0,0.000499518,0,
6.38224E+17,9.871624,-0.9818845,-7.214305,-122.8992,-10.5719,-78.43936,-17.01029,-0.4441859,-4.27255,-61.51973,-6.98289,34.57793,0,0,0,19.98734,-111.2294,-53.4919,-36.10317,-110.6632,-50.33768,0.001067912,-0.1257102,0.09433498,0,0.3,0,0,0.001926156,0,
6.38224E+17,9.612464,-0.9818845,-6.677318,-123.5584,-10.5719,-79.02532,-17.01029,-0.4441859,-4.27255,-61.51973,-6.98289,34.57793,0,0,0,19.67477,-111.3806,-52.17949,-36.10317,-110.6632,-50.33768,0.001067912,-0.1257102,0.09433498,0,0.3,0,0,0.002924928,0,
6.38224E+17,9.188385,-0.9818845,-6.397151,-125.0233,-10.5719,-79.39155,-17.01029,-0.4441859,-4.27255,-61.44649,-6.98289,34.57793,0,0,0,18.91784,-111.4548,-51.39754,-36.10317,-110.6632,-50.33768,0.001067912,-0.1257102,0.09433498,0,0.3,0,0,0.005357344,0,
6.38224E+17,8.905665,-0.9818845,-5.743428,-125.243,-10.49866,-78.21963,-17.01029,-0.4441859,-4.27255,-61.44649,-6.909645,34.57793,0,0,0,18.57473,-111.6157,-49.81092,-36.10317,-110.6632,-50.33768,0.001067912,-0.1257102,0.09433498,0,0.3,0,0,0.007943774,0,
6.38224E+17,8.717185,-0.9818845,-5.113051,-125.3163,-10.64515,-77.78016,-17.01029,-0.4441859,-4.27255,-61.51973,-6.98289,34.57793,0,0,0,18.40605,-111.7545,-48.30678,-36.10317,-110.6632,-50.33768,0.001067912,-0.1257102,0.09433498,0,0.3,0,0,0.009240723,0,
6.38224E+17,8.387346,-0.9818845,-3.852299,-125.829,-10.13243,-78.95209,-17.01029,-0.4441859,-4.27255,-61.51973,-6.98289,34.57793,0,0,0,18.14137,-111.9838,-45.30886,-36.10317,-110.6632,-50.33768,0.001067912,-0.1257102,0.09433498,0,0.3,0,0,0.01168828,0,
6.38224E+17,7.774787,-0.9818845,-2.848366,-126.2685,-8.814018,-82.68758,-17.01029,-0.4441859,-4.27255,-61.51973,-6.98289,34.57793,0,0,0,17.14045,-112.1204,-42.81086,-36.10317,-110.6632,-50.33768,0.001067912,-0.1257102,0.09433498,0,0.3,0,0,0.01426135,0,
6.38224E+17,6.714589,-0.9585064,-1.79774,-125.829,-7.788587,-83.05381,-17.01029,-0.4441859,-4.27255,-61.51973,-6.98289,34.57793,0,0,0,15.10045,-112.1651,-40.08786,-36.10317,-110.6632,-50.33768,0.001067912,-0.1257102,0.09433498,0,0.3,0,0,0.01770973,0,
6.38224E+17,5.277431,-0.9585064,-0.9805852,-125.536,-7.202625,-78.87884,-17.01029,-0.4441859,-4.27255,-61.51973,-6.98289,34.65118,0,0,0,12.05369,-112.2112,-37.85627,-36.10317,-110.6632,-50.33768,0.001067912,-0.1257102,0.09433498,0,0.3,0,0,0.02268594,0,
6.38224E+17,4.523513,-0.8883717,-0.5603344,-125.1698,-7.056135,-76.90121,-17.01029,-0.4441859,-4.27255,-61.51973,-6.98289,34.57793,0,0,0,10.41296,-112.0611,-36.7314,-36.10317,-110.6632,-50.33768,0.001067912,-0.1257102,0.09433498,0,0.3,0,0,0.02573428,0,
6.38224E+17,2.685836,-0.5143204,1.190711,-123.0457,-6.836399,-73.16571,-17.01029,-0.4441859,-4.27255,-61.44649,-6.98289,34.57793,0,0,0,6.378314,-111.1682,-32.38384,-36.10317,-110.6632,-50.33768,0.001067912,-0.1257102,0.09433498,0,0.3,0,0,0.032743,0,
6.38224E+17,0.6832389,-0.116891,2.521505,-120.0426,-6.616664,-69.21047,-17.01029,-0.4441859,-4.27255,-61.51973,-6.98289,34.57793,0,0,0,1.660084,-110.1429,-29.14353,-36.10317,-110.6632,-50.33768,0.001067912,-0.1257102,0.09433498,0,0.3,0,0,0.04124234,0,
6.38224E+17,-0.9423984,0.09351282,3.058492,-117.2593,-4.639044,-67.67233,-17.01029,-0.4441859,-4.27255,-61.44649,-6.98289,34.57793,0,0,0,-2.310254,-109.5924,-27.90423,-36.10317,-110.6632,-50.33768,0.001067912,-0.1257102,0.09433498,0,0.3,0,0,0.05084073,0,
6.38224E+17,-1.366478,0.09351282,3.035145,-114.9887,-3.100896,-67.89206,-17.01029,-0.4441859,-4.27255,-61.51973,-6.98289,34.57793,0,0,0,-3.348408,-109.5953,-27.97943,-36.10317,-110.6632,-50.33768,0.001067912,-0.1257102,0.09433498,0,0.3,0,0,0.05587386,0,
6.38224E+17,-1.931917,0.116891,3.105186,-107.7374,1.074079,-66.42715,-17.01029,-0.4441859,-4.27255,-61.51973,-6.98289,34.57793,0,0,0,-4.738992,-109.5322,-27.85672,-36.10317,-110.6632,-50.33768,0.001067912,-0.1257102,0.09433498,0,0.3,0,0,0.06590044,0,
6.38224E+17,-2.355996,0.09351282,3.105186,-98.94801,7.226673,-60.93377,-17.01029,-0.4441859,-4.27255,-61.44649,-6.98289,34.57793,0,0,0,-5.778729,-109.5866,-27.89554,-36.10317,-110.6632,-50.33768,0.001067912,-0.1257102,0.09433498,0,0.3,0,0,0.07580157,0,
6.38224E+17,-2.355996,0.1636474,3.315312,-93.67436,11.40165,-56.90528,-17.01029,-0.4441859,-4.27255,-61.51973,-6.98289,34.57793,0,0,0,-5.798786,-109.396,-27.40804,-36.10317,-110.6632,-50.33768,0.001067912,-0.1257102,0.09433498,0,0.3,0,0,0.08045687,0,
6.38224E+17,-2.214636,0.7247244,6.303762,-85.98362,18.28669,-46.065,-17.01029,-0.4441859,-4.27255,-61.51973,-6.98289,34.57793,0,0,0,-5.718444,-107.5071,-20.47943,-36.10317,-110.6632,-50.33768,0.001067912,-0.1257102,0.09433498,0,0.3,0,0,0.08653695,0,
6.38224E+17,-2.214636,1.145532,10.69305,-81.44242,23.78008,-33.17385,-17.01029,-0.4441859,-4.27255,-61.51973,-6.98289,34.57793,0,0,0,-6.10816,-105.0185,-10.40197,-36.10317,-110.6632,-50.33768,0.001067912,-0.1257102,0.09433498,0,0.3,0,0,0.08899316,0,
6.38224E+17,-2.120397,1.145532,12.42074,-76.82797,28.0283,-23.13926,-17.01029,-0.4441859,-4.27255,-61.51973,-6.98289,34.57793,0,0,0,-5.994113,-104.2129,-6.455469,-36.10317,-110.6632,-50.33768,0.001067912,-0.1257102,0.09433498,0,0.3,0,0,0.08875579,0,
6.38224E+17,-1.979037,1.145532,12.49079,-72.36002,29.56645,-18.23184,-17.01029,-0.4441859,-4.27255,-61.44649,-6.98289,34.57793,0,0,0,-5.600167,-104.1778,-6.282089,-36.10317,-110.6632,-50.33768,0.001067912,-0.1257102,0.09433498,0,0.3,0,0,0.08807007,0,
6.38224E+17,-1.955477,1.145532,12.58418,-69.43021,30.22566,-15.00905,-17.01029,-0.4441859,-4.27255,-61.51973,-6.98289,34.57793,0,0,0,-5.540765,-104.1306,-6.067753,-36.10317,-110.6632,-50.33768,0.001067912,-0.1257102,0.09433498,0,0.3,0,0,0.08766006,0,
6.38224E+17,-1.931917,1.145532,13.89162,-63.35086,30.51864,-6.659099,-17.01029,-0.4441859,-4.27255,-61.44649,-6.98289,34.57793,0,0,0,-5.57389,-103.4338,-3.105148,-36.10317,-110.6632,-50.33768,0.001067912,-0.1257102,0.09433498,0,0.3,0,0,0.08601224,0,
6.38224E+17,-1.672757,1.145532,16.62325,-58.66317,29.78619,4.474167,-17.01029,-0.4441859,-4.27255,-61.51973,-6.98289,34.65118,0,0,0,-5.005427,-101.7609,3.048681,-36.10317,-110.6632,-50.33768,0.001067912,-0.1257102,0.09433498,0,0.3,0,0,0.08192079,0,
6.38224E+17,-0.6832389,1.145532,17.4871,-55.07415,28.39453,18.46399,-17.01029,-0.4441859,-4.27255,-61.51973,-6.98289,34.57793,0,0,0,-2.067632,-101.1712,5.031508,-36.10317,-110.6632,-50.33768,0.001067912,-0.1257102,0.09433498,0,0.3,0,0,0.07609208,0,
6.38224E+17,0.02355996,1.145532,17.4871,-53.6825,27.88181,22.93195,-17.01029,-0.4441859,-4.27255,-61.51973,-6.98289,34.57793,0,0,0,0.07129935,-101.1712,5.043822,-36.10317,-110.6632,-50.33768,0.001067912,-0.1257102,0.09433498,0,0.3,0,0,0.07288597,0,
6.38224E+17,2.544476,1.145532,18.46769,-49.21454,27.07611,33.25952,-17.01029,-0.4441859,-4.27255,-61.51973,-6.98289,34.57793,0,0,0,7.79417,-100.4669,7.041503,-36.10317,-110.6632,-50.33768,0.001067912,-0.1257102,0.09433498,0,0.3,0,0,0.06474792,0,
6.38224E+17,5.513031,1.145532,20.61563,-44.45361,26.70989,41.24324,-17.01029,-0.4441859,-4.27255,-61.51973,-6.98289,34.57793,0,0,0,17.31945,-98.7948,11.09161,-36.10317,-110.6632,-50.33768,0.001067912,-0.1257102,0.09433498,0,0.3,0,0,0.053018,0,
6.38224E+17,7.963267,1.262423,22.10986,-41.01108,26.63664,45.63795,-17.01029,-0.4441859,-4.27255,-61.51973,-6.98289,34.57793,0,0,0,25.42292,-97.25603,13.38885,-36.10317,-110.6632,-50.33768,0.001067912,-0.1257102,0.09433498,0,0.3,0,0,0.04525647,0,
6.38224E+17,10.4135,1.472827,22.99706,-38.00803,26.41691,48.12829,-17.01029,-0.4441859,-4.27255,-61.51973,-6.98289,34.57793,0,0,0,33.51188,-95.97453,13.99983,-36.10317,-110.6632,-50.33768,0.001067912,-0.1257102,0.09433498,0,0.3,0,0,0.02844504,0,
6.38224E+17,14.08886,1.753365,24.07103,-33.75981,25.90419,49.30021,-17.01029,-0.4441859,-4.27255,-61.51973,-6.98289,34.57793,0,0,0,45.6855,-94.32381,13.68144,-36.10317,-110.6632,-50.33768,0.001067912,-0.1257102,0.09433498,0,0.3,0,0,0.008673387,0,
6.38224E+17,17.99981,1.893635,25.77538,-29.29186,25.24498,48.34802,-17.01029,-0.4441859,-4.27255,-61.44649,-6.98289,34.57793,0,0,0,59.10312,-92.326,13.55274,-36.10317,-110.6632,-50.33768,0.001067912,-0.1257102,0.09433498,0,0.3,0,0,0,0,
6.38224E+17,21.98145,2.267686,27.64316,-24.75066,24.51253,46.95637,-17.01029,-0.4441859,-4.27255,-61.51973,-6.98289,34.57793,0,0,0,73.03281,-89.50224,12.58124,-36.10317,-110.6632,-50.33768,0.001067912,-0.1257102,0.09433498,0,0.3,0,0,0,0,
6.38224E+17,23.51284,2.47809,28.25019,-23.06602,24.14631,46.07742,-17.01029,-0.4441859,-4.27255,-61.44649,-6.98289,34.57793,0,0,0,78.33189,-88.35087,11.69065,-36.10317,-110.6632,-50.33768,0.001067912,-0.1257102,0.09433498,0,0.3,0,0,0,0,
6.38224E+17,27.68295,2.969032,29.62768,-18.96429,23.56034,43.80682,-17.01029,-0.4441859,-4.27255,-61.51973,-6.98289,34.57793,0,0,0,92.49489,-85.65829,7.954223,-36.10317,-110.6632,-50.33768,0.001067912,-0.1257102,0.09433498,0,0.3,0,0,0,0,
6.38224E+17,32.37139,3.576865,31.33203,-14.2766,22.90114,41.02351,-17.01029,-0.4441859,-4.27255,-61.51973,-6.98289,34.57793,0,0,0,108.383,-82.23396,2.622966,-36.10317,-110.6632,-50.33768,0.001067912,-0.1257102,0.09433498,0,0.3,0,0,0,0,
6.38224E+17,34.46822,3.880782,32.24257,-11.93275,22.46167,39.70509,-17.01029,-0.4441859,-4.27255,-61.51973,-6.98289,34.57793,0,0,0,115.5595,-80.41181,-0.009937287,-36.10317,-110.6632,-50.33768,0.001067912,-0.1257102,0.09433498,0,0.3,0,0,0,0,
6.38224E+17,38.61478,4.699019,34.5773,-6.80559,21.28975,36.92178,-17.01029,-0.4441859,-4.27255,-61.51973,-6.98289,34.57793,0,0,0,130.171,-75.521,-5.373827,-36.10317,-110.6632,-50.33768,0.001067912,-0.1257102,0.09433498,0,0.3,0,0,0,0,
6.38224E+17,42.45505,5.797795,36.81864,-1.751673,19.97133,34.2117,-17.01029,-0.4441859,-4.27255,-61.44649,-6.98289,34.57793,0,0,0,143.4956,-69.93079,-11.5052,-36.10317,-110.6632,-50.33768,0.001067912,-0.1257102,0.09433498,0,0.3,0,0,0,0,
6.38224E+17,44.24561,6.569275,37.82257,0.738663,19.31213,32.67356,-17.01029,-0.4441859,-4.27255,-61.44649,-6.98289,34.57793,0,0,0,149.4878,-66.72913,-14.87291,-36.10317,-110.6632,-50.33768,0.001067912,-0.1257102,0.09433498,0,0.3,0,0,0,0,
6.38224E+17,47.52044,8.46291,39.69035,5.426354,17.84722,29.0113,-17.01029,-0.4441859,-4.27255,-61.51973,-6.98289,34.57793,0,0,0,160.086,-59.63877,-21.76322,-36.10317,-110.6632,-50.33768,0.001067912,-0.1257102,0.09433498,0,0.3,0,0,0,0,
6.38224E+17,50.46544,10.80073,42.02508,10.62676,16.60205,24.83632,-17.01029,-0.4441859,-4.27255,-61.44649,-6.98289,34.57793,0,0,0,169.8732,-50.72033,-28.14515,-36.10317,-110.6632,-50.33768,0.001067912,-0.1257102,0.09433498,0,0.3,0,0,0,0,
6.38224E+17,52.35023,12.99828,44.17303,14.14253,15.79636,21.76003,-17.01029,-0.4441859,-4.27255,-61.44649,-6.98289,34.57793,0,0,0,176.4476,-42.30046,-32.22273,-36.10317,-110.6632,-50.33768,0.001067912,-0.1257102,0.09433498,0,0.3,0,0,0,0,
6.38224E+17,53.41043,14.44773,45.57386,16.0469,15.28364,20.14863,-17.01029,-0.4441859,-4.27255,-61.44649,-6.98289,34.57793,0,0,0,180.1487,-36.72318,-34.61065,-36.10317,-110.6632,-50.33768,0.001067912,-0.1257102,0.09433498,0,0.3,0,0,0,0,
6.38224E+17,55.20099,17.62716,48.28215,19.56267,14.47795,18.02452,-17.01029,-0.4441859,-4.27255,-61.51973,-6.98289,34.57793,0,0,0,186.0955,-25.00821,-39.01502,-36.10317,-110.6632,-50.33768,0.001067912,-0.1257102,0.09433498,0,0.3,0,0,0,0,
6.38224E+17,55.24811,20.85336,49.70633,22.93195,13.74549,17.21883,-17.01029,-0.4441859,-4.27255,-61.51973,-6.98289,34.57793,0,0,0,185.956,-15.4186,-39.33866,-36.10317,-110.6632,-50.33768,0.001067912,-0.1257102,0.09433498,0,0.3,0,0,0,0,
6.38224E+17,55.24811,24.14968,50.4301,24.83632,13.74549,16.8526,-17.01029,-0.4441859,-4.27255,-61.44649,-6.98289,34.57793,0,0,0,184.4323,-7.04011,-40.39574,-36.10317,-110.6632,-50.33768,0.001067912,-0.1257102,0.09433498,0,0.3,0,0,0,0,
6.38224E+17,55.24811,28.14736,50.36005,27.10692,13.81874,17.6583,-17.01029,-0.4441859,-4.27255,-61.51973,-6.98289,34.57793,0,0,0,180.9786,1.184532,-42.7918,-36.10317,-110.6632,-50.33768,0.001067912,-0.1257102,0.09433498,0,0.3,0,0,0,0,
6.38224E+17,55.22455,30.04099,50.07989,28.27885,13.67225,18.61049,-17.01029,-0.4441859,-4.27255,-61.44649,-6.98289,34.57793,0,0,0,178.8241,4.534385,-44.17759,-36.10317,-110.6632,-50.33768,0.001067912,-0.1257102,0.09433498,0,0.3,0,0,0,0,
6.38224E+17,54.87115,34.27245,49.56625,30.91567,12.79331,20.73459,-17.01029,-0.4441859,-4.27255,-61.51973,-6.98289,34.57793,0,0,0,173.1381,11.95661,-46.53618,-36.10317,-110.6632,-50.33768,0.001067912,-0.1257102,0.09433498,0,0.3,0,0,0,0,
6.38224E+17,53.85807,38.24674,49.51955,33.40601,11.25516,23.07844,-17.01029,-0.4441859,-4.27255,-61.51973,-6.98289,34.57793,0,0,0,166.4833,19.33093,-46.76154,-36.10317,-110.6632,-50.33768,0.001067912,-0.1257102,0.09433498,0,0.3,0,0,0,0,
6.38224E+17,53.10415,40.16375,49.51955,34.3582,10.22972,24.39685,-17.01029,-0.4441859,-4.27255,-61.51973,-6.98289,34.57793,0,0,0,162.6138,22.78804,-46.27455,-36.10317,-110.6632,-50.33768,0.001067912,-0.1257102,0.09433498,0,0.3,0,0,0,0,
6.38224E+17,51.21936,43.99778,49.51955,35.89634,7.812634,27.10692,-17.01029,-0.4441859,-4.27255,-61.44649,-6.98289,34.65118,0,0,0,153.8497,29.40968,-44.73717,-36.10317,-110.6632,-50.33768,0.001067912,-0.1257102,0.09433498,0,0.3,0,0,0,0,
6.38224E+17,49.05184,47.71491,49.61294,36.55555,5.102563,29.52402,-17.01029,-0.4441859,-4.27255,-61.44649,-6.98289,34.57793,0,0,0,144.4828,35.59931,-42.98236,-36.10317,-110.6632,-50.33768,0.001067912,-0.1257102,0.09433498,0,0.3,0,0,0,0,
6.38224E+17,46.27176,51.43205,49.68298,36.55555,1.953021,32.01435,-17.01029,-0.4441859,-4.27255,-61.51973,-6.98289,34.57793,0,0,0,133.5502,41.33265,-40.60064,-36.10317,-110.6632,-50.33768,0.001067912,-0.1257102,0.09433498,0,0.3,0,0,0,0,
6.38224E+17,44.62257,53.27893,49.68298,36.33582,0.1951368,33.47925,-17.01029,-0.4441859,-4.27255,-61.51973,-6.909645,34.57793,0,0,0,127.4276,43.95784,-39.23236,-36.10317,-110.6632,-50.33768,0.001067912,-0.1257102,0.09433498,0,0.3,0,0,0,0,
6.38224E+17,40.85297,56.92593,49.5429,35.31038,-3.393876,37.14151,-17.01029,-0.4441859,-4.27255,-61.51973,-6.98289,34.57793,0,0,0,113.972,48.56477,-36.5587,-36.10317,-110.6632,-50.33768,0.001067912,-0.1257102,0.09433498,0,0.3,0,0,0,0,
6.38224E+17,36.35302,60.3859,49.33278,33.5525,-7.202625,41.68271,-17.01029,-0.4441859,-4.27255,-61.51973,-6.98289,34.57793,0,0,0,99.01597,52.38145,-33.8172,-36.10317,-110.6632,-50.33768,0.001067912,-0.1257102,0.09433498,0,0.3,0,0,0,0,
6.38224E+17,30.15675,63.98614,48.7024,29.89024,-11.81707,48.05504,-17.01029,-0.4441859,-4.27255,-61.51973,-6.98289,34.57793,0,0,0,79.7109,55.18301,-31.15485,-36.10317,-110.6632,-50.33768,0.001067912,-0.1257102,0.09433498,0,0.3,0,0,0,0,
6.38224E+17,25.58612,65.36546,47.93193,26.52096,-14.96661,52.74273,-17.01029,-0.4441859,-4.27255,-61.51973,-6.98289,34.57793,0,0,0,66.75649,55.21692,-28.93177,-36.10317,-110.6632,-50.33768,0.001067912,-0.1257102,0.09433498,0,0.3,0,0,0,0,
6.38224E+17,22.54688,65.59924,47.18483,24.10387,-16.65125,55.81903,-17.01029,-0.4441859,-4.27255,-61.51973,-6.98289,34.57793,0,0,0,58.63092,54.15952,-27.12939,-36.10317,-110.6632,-50.33768,0.001067912,-0.1257102,0.09433498,0,0.3,0,0,0,0,
6.38224E+17,16.35061,64.9914,45.08357,18.24426,-18.77536,62.63083,-17.01029,-0.4441859,-4.27255,-61.44649,-6.98289,34.57793,0,0,0,42.45362,50.04263,-23.64459,-36.10317,-110.6632,-50.33768,0.001067912,-0.1257102,0.09433498,0,0.3,0,0,0,0,
6.38224E+17,10.15434,63.05101,42.65545,10.40703,-19.58106,70.17509,-17.01029,-0.4441859,-4.27255,-61.51973,-6.98289,34.65118,0,0,0,26.58437,44.14843,-19.92172,-36.10317,-110.6632,-50.33768,0.001067912,-0.1257102,0.09433498,0,0.3,0,0,0,0,
6.38224E+17,5.607271,60.08199,39.97052,2.350057,-18.84861,75.96145,-17.01029,-0.4441859,-4.27255,-61.51973,-6.98289,34.57793,0,0,0,14.86869,36.73365,-16.9053,-36.10317,-110.6632,-50.33768,0.001067912,-0.1257102,0.09433498,0,0.3,0,0,0,0,
6.38224E+17,2.426676,55.56999,36.3517,-4.315253,-16.79774,79.98994,-17.01029,-0.4441859,-4.27255,-61.51973,-6.98289,34.57793,0,0,0,6.539026,25.94014,-14.05064,-36.10317,-110.6632,-50.33768,0.001067912,-0.1257102,0.09433498,0,0.3,0,0,0,0,
6.38224E+17,1.107318,52.53082,34.34383,-6.878834,-15.33284,81.74782,-17.01029,-0.4441859,-4.27255,-61.51973,-6.98289,34.57793,0,0,0,3.021522,19.08463,-12.02734,-36.10317,-110.6632,-50.33768,0.001067912,-0.1257102,0.09433498,0,0.3,0,0,0,0,
6.38224E+17,-0.8481586,46.14857,30.30475,-10.24811,-11.01137,84.75087,-17.01029,-0.4441859,-4.27255,-61.44649,-6.909645,34.57793,0,0,0,-2.363563,4.385626,-8.695546,-36.10317,-110.6632,-50.33768,0.001067912,-0.1257102,0.09433498,0,0.3,0,0,0,0,
6.38224E+17,-2.143956,38.59741,25.68199,-12.73845,-4.712289,86.582,-17.01029,-0.4441859,-4.27255,-61.51973,-6.98289,34.57793,0,0,0,-6.06086,-13.63715,-6.453228,-36.10317,-110.6632,-50.33768,0.001067912,-0.1257102,0.09433498,0,0.3,0,0,0,0,
6.38224E+17,-2.403116,32.47232,22.76358,-14.42309,1.367059,86.94823,-17.01029,-0.4441859,-4.27255,-61.51973,-6.98289,34.57793,0,0,0,-6.880624,-28.0187,-4.39641,-36.10317,-110.6632,-50.33768,0.001067912,-0.1257102,0.09433498,0,0.3,0,0,0,0,
6.38224E+17,-2.332436,29.01235,21.36275,-15.52176,5.029318,86.65524,-17.01029,-0.4441859,-4.27255,-61.44649,-6.98289,34.57793,0,0,0,-6.7229,-36.1634,-3.294673,-36.10317,-110.6632,-50.33768,0.001067912,-0.1257102,0.09433498,0,0.3,0,0,0,0,
6.38224E+17,-1.837677,22.9574,19.1681,-17.57263,11.91436,84.75087,-17.01029,-0.4441859,-4.27255,-61.44649,-6.98289,34.57793,0,0,0,-5.341643,-50.59428,-1.86338,-36.10317,-110.6632,-50.33768,0.001067912,-0.1257102,0.09433498,0,0.3,0,0,0,0,
6.38224E+17,-0.6596789,18.11811,17.46376,-19.25727,18.06696,81.3816,-17.01029,-0.4441859,-4.27255,-61.44649,-6.98289,34.57793,0,0,0,-1.919924,-62.38474,-1.604222,-36.10317,-110.6632,-50.33768,0.001067912,-0.1257102,0.09433498,0,0.3,0,0,0,0,
6.38224E+17,0.3062795,16.29461,16.99681,-19.91648,20.63054,79.40398,-17.01029,-0.4441859,-4.27255,-61.51973,-6.98289,34.57793,0,0,0,0.8925707,-66.76055,-1.378163,-36.10317,-110.6632,-50.33768,0.001067912,-0.1257102,0.09433498,0,0.3,0,0,0,0,
6.38224E+17,3.109915,13.02166,16.48317,-20.2827,25.24498,76.0347,-17.01029,-0.4441859,-4.27255,-61.51973,-6.98289,34.57793,0,0,0,9.101075,-74.4734,-0.8402702,-36.10317,-110.6632,-50.33768,0.001067912,-0.1257102,0.09433498,0,0.3,0,0,0,0,
6.38224E+17,6.738149,10.30979,16.31974,-18.96429,28.32128,74.27681,-17.01029,-0.4441859,-4.27255,-61.51973,-6.98289,34.57793,0,0,0,19.79015,-80.76144,-0.847041,-36.10317,-110.6632,-50.33768,0.001067912,-0.1257102,0.09433498,0,0.3,0,0,0,0,
6.38224E+17,9.047026,9.351281,16.36643,-17.86561,29.4932,74.27681,-17.01029,-0.4441859,-4.27255,-61.51973,-6.98289,34.57793,0,0,0,26.5985,-82.92891,-1.301179,-36.10317,-110.6632,-50.33768,0.001067912,-0.1257102,0.09433498,0,0.3,0,0,0,0,
6.38224E+17,14.27734,8.369397,16.50652,-14.13011,31.47083,76.32768,-17.01029,-0.4441859,-4.27255,-61.51973,-6.98289,34.57793,0,0,0,41.87975,-85.0946,-3.777263,-36.10317,-110.6632,-50.33768,0.001067912,-0.1257102,0.09433498,0,0.3,0,0,0,0,
6.38224E+17,19.83749,7.925211,17.0902,-8.783209,32.78923,78.59828,-17.01029,-0.4441859,-4.27255,-61.44649,-6.98289,34.57793,0,0,0,58.11931,-85.72536,-7.248204,-36.10317,-110.6632,-50.33768,0.001067912,-0.1257102,0.09433498,0,0.3,0,0,0,0,
6.38224E+17,25.86884,7.060217,18.91129,-2.117898,33.30195,80.28292,-17.01029,-0.4441859,-4.27255,-61.51973,-6.98289,34.57793,0,0,0,76.59819,-86.4116,-10.38365,-36.10317,-110.6632,-50.33768,0.001067912,-0.1257102,0.09433498,0,0.3,0,0,0,0,
6.38224E+17,28.43687,6.616032,20.17204,0.8851534,33.22871,80.42941,-17.01029,-0.4441859,-4.27255,-61.44649,-6.98289,34.57793,0,0,0,84.97443,-86.45657,-11.43454,-36.10317,-110.6632,-50.33768,0.001067912,-0.1257102,0.09433498,0,0.3,0,0,0,0,
6.38224E+17,33.31378,5.821173,23.79086,7.037747,32.49626,79.03775,-17.01029,-0.4441859,-4.27255,-61.51973,-6.98289,34.57793,0,0,0,102.4059,-85.14357,-12.53362,-36.10317,-110.6632,-50.33768,0.001067912,-0.1257102,0.09433498,0,0.3,0,0,0,0,
6.38224E+17,36.94202,5.610769,27.33965,12.23815,31.25109,76.18118,-17.01029,-0.4441859,-4.27255,-61.51973,-6.98289,34.57793,0,0,0,116.5676,-82.06713,-13.33338,-36.10317,-110.6632,-50.33768,0.001067912,-0.1257102,0.09433498,0,0.3,0,0,0,0,
6.38224E+17,38.40274,5.610769,29.044,14.50875,30.37215,74.35006,-17.01029,-0.4441859,-4.27255,-61.51973,-6.98289,34.57793,0,0,0,122.653,-80.19324,-13.61556,-36.10317,-110.6632,-50.33768,0.001067912,-0.1257102,0.09433498,0,0.3,0,0,0,0,
6.38224E+17,40.66449,5.58739,32.56944,17.73154,28.32128,70.10184,-17.01029,-0.4441859,-4.27255,-61.51973,-6.98289,34.57793,0,0,0,133.259,-76.04587,-13.22772,-36.10317,-110.6632,-50.33768,0.001067912,-0.1257102,0.09433498,0,0.3,0,0,0,0,
6.38224E+17,41.98385,5.564013,36.14157,20.07539,25.97744,66.1466,-17.01029,-0.4441859,-4.27255,-61.51973,-6.98289,34.57793,0,0,0,141.3893,-71.4091,-11.23221,-36.10317,-110.6632,-50.33768,0.001067912,-0.1257102,0.09433498,0,0.3,0,0,0,0,
6.38224E+17,42.24301,5.540634,39.41019,21.54029,23.85333,63.0703,-17.01029,-0.4441859,-4.27255,-61.44649,-6.98289,34.57793,0,0,0,146.1439,-66.80381,-7.418657,-36.10317,-110.6632,-50.33768,0.001067912,-0.1257102,0.09433498,0,0.3,0,0,0,0,
6.38224E+17,41.96029,5.540634,41.97839,22.49248,21.87571,61.01944,-17.01029,-0.4441859,-4.27255,-61.51973,-6.98289,34.57793,0,0,0,148.3779,-62.90686,-3.329795,-36.10317,-110.6632,-50.33768,0.001067912,-0.1257102,0.09433498,0,0.3,0,0,0,0,
6.38224E+17,41.51265,5.517256,42.84223,22.8587,20.99677,60.43347,-17.01029,-0.4441859,-4.27255,-61.51973,-6.98289,34.57793,0,0,0,148.0714,-61.60506,-1.060126,-36.10317,-110.6632,-50.33768,0.001067912,-0.1257102,0.09433498,0,0.3,0,0,0,0,
6.38224E+17,39.9577,5.447122,43.58934,23.15168,19.31213,59.77427,-17.01029,-0.4441859,-4.27255,-61.44649,-6.98289,34.57793,0,0,0,144.3012,-60.5769,3.879604,-36.10317,-110.6632,-50.33768,0.001067912,-0.1257102,0.09433498,0,0.3,0,0,0,0,
6.38224E+17,37.50746,5.447122,43.61269,22.56572,18.35994,59.62778,-17.01029,-0.4441859,-4.27255,-61.44649,-6.98289,34.57793,0,0,0,136.8302,-60.53942,9.92247,-36.10317,-110.6632,-50.33768,0.001067912,-0.1257102,0.09433498,0,0.3,0,0,0,0,
6.38224E+17,36.14098,5.400365,43.58934,21.97976,17.99371,59.77427,-17.01029,-0.4441859,-4.27255,-61.51973,-6.98289,34.57793,0,0,0,132.5228,-60.68523,13.11133,-36.10317,-110.6632,-50.33768,0.001067912,-0.1257102,0.09433498,0,0.3,0,0,0,0,
6.38224E+17,33.03107,5.213339,43.42591,20.00214,17.40775,60.57997,-17.01029,-0.4441859,-4.27255,-61.51973,-6.98289,34.57793,0,0,0,122.3546,-61.38051,19.83613,-36.10317,-110.6632,-50.33768,0.001067912,-0.1257102,0.09433498,0,0.3,0,0,0,0,
6.38224E+17,29.77979,5.07307,43.28583,17.43856,16.74854,61.75189,-17.01029,-0.4441859,-4.27255,-61.51973,-6.98289,34.57793,0,0,0,111.3815,-61.92949,26.29222,-36.10317,-110.6632,-50.33768,0.001067912,-0.1257102,0.09433498,0,0.3,0,0,0,0,
6.38224E+17,26.2458,5.002935,43.19244,14.50875,16.23583,63.14355,-17.01029,-0.4441859,-4.27255,-61.44649,-6.98289,34.57793,0,0,0,99.10812,-62.24098,32.65856,-36.10317,-110.6632,-50.33768,0.001067912,-0.1257102,0.09433498,0,0.3,0,0,0,0,
6.38224E+17,24.38456,5.002935,43.07571,12.97061,15.94285,64.24223,-17.01029,-0.4441859,-4.27255,-61.51973,-6.98289,34.57793,0,0,0,92.44542,-62.42674,35.59086,-36.10317,-110.6632,-50.33768,0.001067912,-0.1257102,0.09433498,0,0.3,0,0,0,0,
6.38224E+17,20.30869,4.979557,42.77219,9.601329,15.35689,66.73256,-17.01029,-0.4441859,-4.27255,-61.44649,-6.98289,34.57793,0,0,0,77.53812,-62.96202,41.16516,-36.10317,-110.6632,-50.33768,0.001067912,-0.1257102,0.09433498,0,0.3,0,0,0,0,
6.38224E+17,15.59669,4.979557,42.63211,5.279863,14.84417,69.22289,-17.01029,-0.4441859,-4.27255,-61.44649,-6.98289,34.57793,0,0,0,60.00058,-63.18313,46.59581,-36.10317,-110.6632,-50.33768,0.001067912,-0.1257102,0.09433498,0,0.3,0,0,0,0,
6.38224E+17,10.43706,5.166583,42.79554,-0.9459759,14.18496,70.90753,-17.01029,-0.4441859,-4.27255,-61.44649,-6.98289,34.57793,0,0,0,40.47084,-62.49154,51.35775,-36.10317,-110.6632,-50.33768,0.001067912,-0.1257102,0.09433498,0,0.3,0,0,0,0,
6.38224E+17,8.646505,5.376987,42.95897,-3.509557,13.96523,71.27377,-17.01029,-0.4441859,-4.27255,-61.44649,-6.98289,34.57793,0,0,0,33.62123,-61.7451,52.74612,-36.10317,-110.6632,-50.33768,0.001067912,-0.1257102,0.09433498,0,0.3,0,0,0,0,
6.38224E+17,4.429273,6.475762,43.82282,-10.24811,13.15953,71.78648,-17.01029,-0.4441859,-4.27255,-61.51973,-6.98289,34.57793,0,0,0,17.36364,-57.82036,55.81331,-36.10317,-110.6632,-50.33768,0.001067912,-0.1257102,0.09433498,0,0.3,0,0,0,0,
6.38224E+17,0.9659585,8.416153,45.27035,-16.84018,12.06085,72.00621,-17.01029,-0.4441859,-4.27255,-61.51973,-6.98289,34.65118,0,0,0,3.820955,-50.97936,58.26831,-36.10317,-110.6632,-50.33768,0.001067912,-0.1257102,0.09433498,0,0.3,0,0,0,0,
6.38224E+17,-2.026157,10.7306,46.76458,-22.91953,10.44946,72.1527,-17.01029,-0.4441859,-4.27255,-61.51973,-6.98289,34.57793,0,0,0,-8.067106,-43.16584,59.67703,-36.10317,-110.6632,-50.33768,0.001067912,-0.1257102,0.09433498,0,0.3,0,0,0,0,
6.38224E+17,-3.321954,11.96964,47.65177,-25.77609,9.424027,72.1527,-17.01029,-0.4441859,-4.27255,-61.51973,-6.98289,34.57793,0,0,0,-13.27005,-38.82331,60.27008,-36.10317,-110.6632,-50.33768,0.001067912,-0.1257102,0.09433498,0,0.3,0,0,0,0,
6.38224E+17,-5.371671,14.42435,49.84641,-30.90325,7.153428,72.22594,-17.01029,-0.4441859,-4.27255,-61.51973,-6.98289,34.57793,0,0,0,-21.63171,-29.42156,61.70358,-36.10317,-110.6632,-50.33768,0.001067912,-0.1257102,0.09433498,0,0.3,0,0,0,0,
6.38224E+17,-6.785269,17.22974,52.5547,-35.95716,4.516602,73.10489,-17.01029,-0.4441859,-4.27255,-61.51973,-6.98289,34.57793,0,0,0,-27.55664,-18.22853,63.25339,-36.10317,-110.6632,-50.33768,0.001067912,-0.1257102,0.09433498,0,0.3,0,0,0,0,
6.38224E+17,-7.185789,18.72594,53.81545,-38.08128,3.124943,74.20357,-17.01029,-0.4441859,-4.27255,-61.51973,-6.98289,34.57793,0,0,0,-29.26045,-12.56733,63.73324,-36.10317,-110.6632,-50.33768,0.001067912,-0.1257102,0.09433498,0,0.3,0,0,0,0,
6.38224E+17,-7.562747,22.86388,56.64047,-42.69572,-0.3908245,78.23206,-17.01029,-0.4441859,-4.27255,-61.44649,-6.98289,34.57793,0,0,0,-30.83029,1.834273,63.86386,-36.10317,-110.6632,-50.33768,0.001067912,-0.1257102,0.09433498,0,0.3,0,0,0,0,
6.38224E+17,-7.327148,26.76804,59.16197,-45.62553,-3.467122,81.74782,-17.01029,-0.4441859,-4.27255,-61.51973,-6.98289,34.57793,0,0,0,-29.78657,15.0512,63.2996,-36.10317,-110.6632,-50.33768,0.001067912,-0.1257102,0.09433498,0,0.3,0,0,0,0,
6.38224E+17,-6.785269,31.81774,63.03762,-49.21454,-7.935077,87.09471,-17.01029,-0.4441859,-4.27255,-61.51973,-6.98289,34.57793,0,0,0,-27.43021,33.19302,62.19076,-36.10317,-110.6632,-50.33768,0.001067912,-0.1257102,0.09433498,0,0.3,0,0,0,0,
6.38224E+17,-6.36119,34.03867,64.9054,-50.97242,-10.42541,89.73154,-17.01029,-0.4441859,-4.27255,-61.51973,-6.98289,34.57793,0,0,0,-25.62315,41.43734,61.49089,-36.10317,-110.6632,-50.33768,0.001067912,-0.1257102,0.09433498,0,0.3,0,0,0,0,
6.38224E+17,-4.876912,37.47526,68.19736,-54.48819,-15.69907,94.63897,-17.01029,-0.4441859,-4.27255,-61.44649,-6.98289,34.65118,0,0,0,-19.52294,54.95505,60.45864,-36.10317,-110.6632,-50.33768,0.001067912,-0.1257102,0.09433498,0,0.3,0,0,0,0,
6.38224E+17,-3.039235,39.95335,70.27527,-56.68555,-20.60649,99.83938,-17.01029,-0.4441859,-4.27255,-61.44649,-6.98289,34.57793,0,0,0,-12.07512,63.97669,59.07713,-36.10317,-110.6632,-50.33768,0.001067912,-0.1257102,0.09433498,0,0.3,0,0,0,0,
6.38224E+17,-0.4476392,42.33792,71.30255,-57.418,-25.36743,104.0876,-17.01029,-0.4441859,-4.27255,-61.51973,-6.98289,34.57793,0,0,0,-1.756942,70.41336,56.52591,-36.10317,-110.6632,-50.33768,0.001067912,-0.1257102,0.09433498,0,0.3,0,0,0,0,
6.38224E+17,0.9659585,43.46008,71.46598,-57.12502,-27.63803,105.4793,-17.01029,-0.4441859,-4.27255,-61.51973,-6.98289,34.57793,0,0,0,3.76323,72.68701,54.8447,-36.10317,-110.6632,-50.33768,0.001067912,-0.1257102,0.09433498,0,0.3,0,0,0,0,
6.38224E+17,3.675354,45.37709,71.41929,-55.73336,-32.10598,107.3104,-17.01029,-0.4441859,-4.27255,-61.51973,-6.98289,34.57793,0,0,0,14.10711,75.77055,51.26667,-36.10317,-110.6632,-50.33768,0.001067912,-0.1257102,0.09433498,0,0.3,0,0,0,0,
6.38224E+17,6.643909,46.70965,71.27921,-53.90223,-36.3542,107.8231,-17.01029,-0.4441859,-4.27255,-61.44649,-6.98289,34.57793,0,0,0,25.1913,77.61431,47.92029,-36.10317,-110.6632,-50.33768,0.001067912,-0.1257102,0.09433498,0,0.3,0,0,0,0,
6.38224E+17,9.753823,47.71491,70.08849,-50.53296,-40.30944,107.3104,-17.01029,-0.4441859,-4.27255,-61.51973,-6.98289,34.57793,0,0,0,36.44103,76.58836,43.63954,-36.10317,-110.6632,-50.33768,0.001067912,-0.1257102,0.09433498,0,0.3,0,0,0,0,
6.38224E+17,11.3559,48.08897,68.94447,-47.6764,-41.84759,105.4793,-17.01029,-0.4441859,-4.27255,-61.44649,-6.98289,34.57793,0,0,0,42.04292,74.6778,40.99107,-36.10317,-110.6632,-50.33768,0.001067912,-0.1257102,0.09433498,0,0.3,0,0,0,0,
6.38224E+17,14.74854,48.46302,65.97938,-39.17995,-43.82521,98.30123,-17.01029,-0.4441859,-4.27255,-61.51973,-6.98289,34.57793,0,0,0,53.5189,68.884,34.95013,-36.10317,-110.6632,-50.33768,0.001067912,-0.1257102,0.09433498,0,0.3,0,0,0,0,
6.38224E+17,18.09405,48.34613,62.71075,-28.99888,-44.11819,89.36532,-17.01029,-0.4441859,-4.27255,-61.51973,-6.98289,34.65118,0,0,0,64.3321,61.84691,28.54354,-36.10317,-110.6632,-50.33768,0.001067912,-0.1257102,0.09433498,0,0.3,0,0,0,0,
6.38224E+17,19.76681,48.1591,61.09979,-24.23794,-43.60548,84.89736,-17.01029,-0.4441859,-4.27255,-61.51973,-6.98289,34.57793,0,0,0,69.56491,58.24962,25.22575,-36.10317,-110.6632,-50.33768,0.001067912,-0.1257102,0.09433498,0,0.3,0,0,0,0,
6.38224E+17,23.3008,47.13046,57.80783,-14.42309,-41.77435,75.30224,-17.01029,-0.4441859,-4.27255,-61.44649,-6.98289,34.57793,0,0,0,80.52451,50.0392,18.61862,-36.10317,-110.6632,-50.33768,0.001067912,-0.1257102,0.09433498,0,0.3,0,0,0,0,
6.38224E+17,27.09396,45.19007,54.88942,-5.047705,-38.84454,66.51283,-17.01029,-0.4441859,-4.27255,-61.44649,-6.98289,34.57793,0,0,0,92.48637,41.25787,12.43125,-36.10317,-110.6632,-50.33768,0.001067912,-0.1257102,0.09433498,0,0.3,0,0,0,0,
6.38224E+17,31.24051,41.56644,51.38733,4.767147,-34.52307,57.86989,-17.01029,-0.4441859,-4.27255,-61.51973,-6.98289,34.57793,0,0,0,105.7843,28.60876,6.042247,-36.10317,-110.6632,-50.33768,0.001067912,-0.1257102,0.09433498,0,0.3,0,0,0,0,
6.38224E+17,33.57294,38.31688,49.37947,10.26054,-31.0073,53.54843,-17.01029,-0.4441859,-4.27255,-61.51973,-6.909645,34.57793,0,0,0,113.831,19.21133,3.155033,-36.10317,-110.6632,-50.33768,0.001067912,-0.1257102,0.09433498,0,0.3,0,0,0,0,
6.38224E+17,34.79806,36.02581,48.32884,13.19034,-28.59021,51.42432,-17.01029,-0.4441859,-4.27255,-61.51973,-6.98289,34.57793,0,0,0,118.3922,13.12141,2.006282,-36.10317,-110.6632,-50.33768,0.001067912,-0.1257102,0.09433498,0,0.3,0,0,0,0,
6.38224E+17,36.61218,31.13977,46.67118,17.58505,-23.5363,48.42127,-17.01029,-0.4441859,-4.27255,-61.51973,-6.98289,34.57793,0,0,0,125.9217,0.8062777,1.12841,-36.10317,-110.6632,-50.33768,0.001067912,-0.1257102,0.09433498,0,0.3,0,0,0,0,
6.38224E+17,37.79018,26.32386,45.48048,20.36837,-18.62887,46.22392,-17.01029,-0.4441859,-4.27255,-61.51973,-6.98289,34.65118,0,0,0,131.502,-11.01534,1.241347,-36.10317,-110.6632,-50.33768,0.001067912,-0.1257102,0.09433498,0,0.3,0,0,0,0,
6.38224E+17,38.30849,23.89252,45.15361,21.17406,-16.35827,45.34497,-17.01029,-0.4441859,-4.27255,-61.44649,-6.98289,34.57793,0,0,0,134.1875,-16.67983,1.509047,-36.10317,-110.6632,-50.33768,0.001067912,-0.1257102,0.09433498,0,0.3,0,0,0,0,
6.38224E+17,39.15665,18.53891,45.27035,22.27274,-11.67058,43.80682,-17.01029,-0.4441859,-4.27255,-61.51973,-6.98289,34.57793,0,0,0,139.6542,-28.09827,3.14765,-36.10317,-110.6632,-50.33768,0.001067912,-0.1257102,0.09433498,0,0.3,0,0,0,0,
6.38224E+17,39.65141,13.32558,45.76064,22.63897,-7.422361,42.34192,-17.01029,-0.4441859,-4.27255,-61.51973,-6.98289,34.57793,0,0,0,143.7647,-38.94756,5.114491,-36.10317,-110.6632,-50.33768,0.001067912,-0.1257102,0.09433498,0,0.3,0,0,0,0,
6.38224E+17,40.05193,9.398038,46.50775,22.27274,-4.053083,40.51079,-17.01029,-0.4441859,-4.27255,-61.44649,-6.98289,34.57793,0,0,0,146.9077,-46.65398,6.405806,-36.10317,-110.6632,-50.33768,0.001067912,-0.1257102,0.09433498,0,0.3,0,0,0,0,
6.38224E+17,40.45245,7.457647,47.09144,21.97976,-2.148709,39.04589,-17.01029,-0.4441859,-4.27255,-61.44649,-6.98289,34.57793,0,0,0,149.1585,-50.13079,6.585869,-36.10317,-110.6632,-50.33768,0.001067912,-0.1257102,0.09433498,0,0.3,0,0,0,0,
6.38224E+17,40.78229,6.569275,47.51169,21.68678,-0.4640697,37.80072,-17.01029,-0.4441859,-4.27255,-61.44649,-6.98289,34.57793,0,0,0,150.7612,-51.46407,6.417695,-36.10317,-110.6632,-50.33768,0.001067912,-0.1257102,0.09433498,0,0.3,0,0,0,0,
6.38224E+17,41.41841,6.569275,48.23545,21.61354,1.220569,36.40906,-17.01029,-0.4441859,-4.27255,-61.51973,-6.98289,34.57793,0,0,0,153.4397,-50.21475,5.580458,-36.10317,-110.6632,-50.33768,0.001067912,-0.1257102,0.09433498,0,0.3,0,0,0,0,
6.38224E+17,41.84249,6.63941,49.12265,21.76003,1.733285,35.96959,-17.01029,-0.4441859,-4.27255,-61.51973,-6.98289,34.57793,0,0,0,155.6198,-48.50186,5.441702,-36.10317,-110.6632,-50.33768,0.001067912,-0.1257102,0.09433498,0,0.3,0,0,0,0,
6.38224E+17,43.79797,7.060217,54.189,24.03063,2.905208,34.87091,-17.01029,-0.4441859,-4.27255,-61.51973,-6.98289,34.65118,0,0,0,166.4399,-38.28449,5.224273,-36.10317,-110.6632,-50.33768,0.001067912,-0.1257102,0.09433498,0,0.3,0,0,0,0,
6.38224E+17,44.57545,7.387512,56.43034,25.42229,3.198189,34.65118,-17.01029,-0.4441859,-4.27255,-61.44649,-6.98289,34.57793,0,0,0,170.7962,-33.23986,4.996315,-36.10317,-110.6632,-50.33768,0.001067912,-0.1257102,0.09433498,0,0.3,0,0,0,0,
6.38224E+17,45.98904,8.392776,60.98306,29.23104,2.978453,33.91872,-17.01029,-0.4441859,-4.27255,-61.51973,-6.98289,34.57793,0,0,0,178.7469,-21.87031,4.329947,-36.10317,-110.6632,-50.33768,0.001067912,-0.1257102,0.09433498,0,0.3,0,0,0,0,
6.38224E+17,46.93144,9.912358,64.48515,33.33276,2.612227,32.82005,-17.01029,-0.4441859,-4.27255,-61.51973,-6.98289,34.57793,0,0,0,183.8793,-11.13477,3.532026,-36.10317,-110.6632,-50.33768,0.001067912,-0.1257102,0.09433498,0,0.3,0,0,0,0,
6.38224E+17,47.28484,10.941,65.81594,35.45687,2.538982,32.23409,-17.01029,-0.4441859,-4.27255,-61.51973,-6.98289,34.57793,0,0,0,185.5739,-5.969822,2.983612,-36.10317,-110.6632,-50.33768,0.001067912,-0.1257102,0.09433498,0,0.3,0,0,0,0,
6.38224E+17,47.7796,13.25544,67.75376,39.48536,2.612227,31.57488,-17.01029,-0.4441859,-4.27255,-61.51973,-6.98289,34.57793,0,0,0,187.527,3.441515,1.810781,-36.10317,-110.6632,-50.33768,0.001067912,-0.1257102,0.09433498,0,0.3,0,0,0,0,
6.38224E+17,48.15656,15.26597,69.66824,43.00113,2.758718,31.57488,-17.01029,-0.4441859,-4.27255,-61.44649,-6.98289,34.57793,0,0,0,188.9889,12.12788,0.8835809,-36.10317,-110.6632,-50.33768,0.001067912,-0.1257102,0.09433498,0,0.3,0,0,0,0,
6.38224E+17,48.32148,16.20109,70.55544,44.61252,2.831963,31.57488,-17.01029,-0.4441859,-4.27255,-61.51973,-6.98289,34.57793,0,0,0,189.5591,16.16441,0.4135497,-36.10317,-110.6632,-50.33768,0.001067912,-0.1257102,0.09433498,0,0.3,0,0,0,0,
6.38224E+17,48.6042,18.30513,72.21309,47.9818,3.124943,31.64813,-17.01029,-0.4441859,-4.27255,-61.51973,-6.98289,34.57793,0,0,0,190.2239,24.49678,-0.6698663,-36.10317,-110.6632,-50.33768,0.001067912,-0.1257102,0.09433498,0,0.3,0,0,0,0,
6.38224E+17,48.8398,20.52606,73.0069,51.20458,3.857395,32.52707,-17.01029,-0.4441859,-4.27255,-61.51973,-6.98289,34.57793,0,0,0,190.0339,31.13456,-2.220895,-36.10317,-110.6632,-50.33768,0.001067912,-0.1257102,0.09433498,0,0.3,0,0,0,0,
6.38224E+17,48.9576,22.58335,73.0069,53.84141,4.809582,33.91872,-17.01029,-0.4441859,-4.27255,-61.44649,-6.98289,34.65118,0,0,0,189.0484,35.58758,-3.766948,-36.10317,-110.6632,-50.33768,0.001067912,-0.1257102,0.09433498,0,0.3,0,0,0,0,
6.38224E+17,48.98116,23.54185,73.0069,55.08658,5.395544,34.94416,-17.01029,-0.4441859,-4.27255,-61.51973,-6.98289,34.57793,0,0,0,188.4567,37.64009,-4.418236,-36.10317,-110.6632,-50.33768,0.001067912,-0.1257102,0.09433498,0,0.3,0,0,0,0,
6.38224E+17,49.05184,25.36535,72.77343,57.13744,6.494221,37.21476,-17.01029,-0.4441859,-4.27255,-61.51973,-6.98289,34.57793,0,0,0,187.2112,40.9839,-5.90695,-36.10317,-110.6632,-50.33768,0.001067912,-0.1257102,0.09433498,0,0.3,0,0,0,0,
6.38224E+17,49.0754,27.32912,71.62941,58.96857,7.446409,39.77834,-17.01029,-0.4441859,-4.27255,-61.51973,-6.98289,34.57793,0,0,0,185.1305,42.54429,-7.84576,-36.10317,-110.6632,-50.33768,0.001067912,-0.1257102,0.09433498,0,0.3,0,0,0,0,
6.38224E+17,49.05184,29.15262,69.83167,59.99401,8.252106,42.48841,-17.01029,-0.4441859,-4.27255,-61.51973,-6.98289,34.57793,0,0,0,182.5049,42.33347,-9.990599,-36.10317,-110.6632,-50.33768,0.001067912,-0.1257102,0.09433498,0,0.3,0,0,0,0,
6.38224E+17,48.91048,31.42031,67.35686,60.65321,8.545086,45.12524,-17.01029,-0.4441859,-4.27255,-61.44649,-6.98289,34.65118,0,0,0,178.5234,41.52851,-12.6716,-36.10317,-110.6632,-50.33768,0.001067912,-0.1257102,0.09433498,0,0.3,0,0,0,0,
6.38224E+17,48.76912,32.7061,66.00272,60.7997,8.325351,46.22392,-17.01029,-0.4441859,-4.27255,-61.51973,-6.98289,34.57793,0,0,0,176.0058,41.17046,-14.10094,-36.10317,-110.6632,-50.33768,0.001067912,-0.1257102,0.09433498,0,0.3,0,0,0,0,
6.38224E+17,48.39216,35.67514,63.10766,61.09268,7.666144,48.71425,-17.01029,-0.4441859,-4.27255,-61.51973,-6.98289,34.57793,0,0,0,169.9197,40.80195,-17.44662,-36.10317,-110.6632,-50.33768,0.001067912,-0.1257102,0.09433498,0,0.3,0,0,0,0,
6.38224E+17,47.63824,38.8312,59.83904,61.38566,6.494221,51.64405,-17.01029,-0.4441859,-4.27255,-61.44649,-6.98289,34.57793,0,0,0,161.9502,39.96503,-20.6672,-36.10317,-110.6632,-50.33768,0.001067912,-0.1257102,0.09433498,0,0.3,0,0,0,0,
6.38224E+17,47.14348,40.35078,57.90122,61.45891,5.76177,53.25545,-17.01029,-0.4441859,-4.27255,-61.51973,-6.98289,34.57793,0,0,0,157.3076,38.82992,-22.39307,-36.10317,-110.6632,-50.33768,0.001067912,-0.1257102,0.09433498,0,0.3,0,0,0,0,
6.38224E+17,45.68277,43.34319,53.48859,60.87295,4.077131,57.0642,-17.01029,-0.4441859,-4.27255,-61.51973,-6.98289,34.57793,0,0,0,146.0715,35.53603,-25.71896,-36.10317,-110.6632,-50.33768,0.001067912,-0.1257102,0.09433498,0,0.3,0,0,0,0,
6.38224E+17,43.39745,46.21871,49.51955,59.48129,2.026266,61.6054,-17.01029,-0.4441859,-4.27255,-61.44649,-6.98289,34.65118,0,0,0,133.0795,33.05756,-27.6098,-36.10317,-110.6632,-50.33768,0.001067912,-0.1257102,0.09433498,0,0.3,0,0,0,0,
6.38224E+17,40.57025,48.6968,45.57386,57.94314,-0.2443342,67.17203,-17.01029,-0.4441859,-4.27255,-61.44649,-6.98289,34.57793,0,0,0,119.1816,30.18259,-29.15226,-36.10317,-110.6632,-50.33768,0.001067912,-0.1257102,0.09433498,0,0.3,0,0,0,0,
6.38224E+17,38.70901,49.79557,43.00566,56.77122,-1.635992,70.83429,-17.01029,-0.4441859,-4.27255,-61.51973,-6.98289,34.57793,0,0,0,110.7108,27.67852,-30.20488,-36.10317,-110.6632,-50.33768,0.001067912,-0.1257102,0.09433498,0,0.3,0,0,0,0,
6.38224E+17,34.39754,50.89435,37.30893,53.40194,-3.906592,79.03775,-17.01029,-0.4441859,-4.27255,-61.44649,-6.98289,34.57793,0,0,0,93.17751,20.7637,-32.25516,-36.10317,-110.6632,-50.33768,0.001067912,-0.1257102,0.09433498,0,0.3,0,0,0,0,
6.38224E+17,29.19079,50.47354,31.40207,48.49451,-5.078516,88.63287,-17.01029,-0.4441859,-4.27255,-61.44649,-6.98289,34.57793,0,0,0,75.27914,12.38847,-33.603,-36.10317,-110.6632,-50.33768,0.001067912,-0.1257102,0.09433498,0,0.3,0,0,0,0,
6.38224E+17,22.57044,48.6968,25.77538,41.68271,-5.517986,101.0113,-17.01029,-0.4441859,-4.27255,-61.51973,-6.98289,34.57793,0,0,0,56.03884,3.443717,-33.52934,-36.10317,-110.6632,-50.33768,0.001067912,-0.1257102,0.09433498,0,0.3,0,0,0,0,
6.38224E+17,19.90817,47.71491,23.93095,38.67966,-5.371496,105.7722,-17.01029,-0.4441859,-4.27255,-61.51973,-6.98289,34.57793,0,0,0,48.96994,0.1165956,-33.13224,-36.10317,-110.6632,-50.33768,0.001067912,-0.1257102,0.09433498,0,0.3,0,0,0,0,
6.38224E+17,13.8297,45.33034,21.01254,30.98892,-4.346064,114.7082,-17.01029,-0.4441859,-4.27255,-61.51973,-6.98289,34.57793,0,0,0,33.83879,-6.29773,-30.89075,-36.10317,-110.6632,-50.33768,0.001067912,-0.1257102,0.09433498,0,0.3,0,0,0,0,
6.38224E+17,8.387346,44.20818,20.28877,23.73765,-2.88116,119.6888,-17.01029,-0.4441859,-4.27255,-61.51973,-6.98289,34.57793,0,0,0,20.6874,-8.745934,-28.04078,-36.10317,-110.6632,-50.33768,0.001067912,-0.1257102,0.09433498,0,0.3,0,0,0,0,
6.38224E+17,2.780076,44.32507,21.10593,16.0469,-2.295199,122.6186,-17.01029,-0.4441859,-4.27255,-61.44649,-6.98289,34.65118,0,0,0,6.955991,-7.878953,-25.10348,-36.10317,-110.6632,-50.33768,0.001067912,-0.1257102,0.09433498,0,0.3,0,0,0,0,
6.38224E+17,0.3298394,44.48872,21.85304,12.3114,-2.368444,123.6441,-17.01029,-0.4441859,-4.27255,-61.51973,-6.98289,34.57793,0,0,0,0.8333869,-6.970163,-23.58556,-36.10317,-110.6632,-50.33768,0.001067912,-0.1257102,0.09433498,0,0.3,0,0,0,0,
6.38224E+17,-4.146553,44.95628,24.07103,4.474167,-3.320631,124.9625,-17.01029,-0.4441859,-4.27255,-61.51973,-6.98289,34.57793,0,0,0,-10.75608,-4.183234,-19.98546,-36.10317,-110.6632,-50.33768,0.001067912,-0.1257102,0.09433498,0,0.3,0,0,0,0,
6.38224E+17,-8.198866,45.51736,27.52643,-3.363066,-4.932025,128.1853,-17.01029,-0.4441859,-4.27255,-61.51973,-6.98289,34.57793,0,0,0,-22.11388,0.2357822,-14.86877,-36.10317,-110.6632,-50.33768,0.001067912,-0.1257102,0.09433498,0,0.3,0,0,0,0,
6.38224E+17,-9.895184,45.75114,29.25412,-6.585854,-6.103948,130.7488,-17.01029,-0.4441859,-4.27255,-61.51973,-6.98289,34.57793,0,0,0,-27.18857,2.528069,-12.48917,-36.10317,-110.6632,-50.33768,0.001067912,-0.1257102,0.09433498,0,0.3,0,0,0,0,
6.38224E+17,-13.75902,46.1252,33.78349,-14.78931,-8.521038,134.2646,-17.01029,-0.4441859,-4.27255,-61.44649,-6.98289,34.57793,0,0,0,-39.61751,8.642996,-6.556903,-36.10317,-110.6632,-50.33768,0.001067912,-0.1257102,0.09433498,0,0.3,0,0,0,0,
6.38224E+17,-16.02077,47.01357,38.24282,-21.7476,-9.985942,135.3633,-17.01029,-0.4441859,-4.27255,-61.44649,-6.98289,34.57793,0,0,0,-47.87373,16.16519,-1.622622,-36.10317,-110.6632,-50.33768,0.001067912,-0.1257102,0.09433498,0,0.3,0,0,0,0,
6.38224E+17,-17.43437,48.72018,43.75277,-29.95106,-12.11005,138.0001,-17.01029,-0.4441859,-4.27255,-61.44649,-6.98289,34.65118,0,0,0,-53.98846,27.23929,3.565905,-36.10317,-110.6632,-50.33768,0.001067912,-0.1257102,0.09433498,0,0.3,0,0,0,0,
6.38224E+17,-17.85845,49.77219,46.71788,-34.34578,-13.13548,139.8312,-17.01029,-0.4441859,-4.27255,-61.51973,-6.98289,34.57793,0,0,0,-56.18075,33.73683,6.021198,-36.10317,-110.6632,-50.33768,0.001067912,-0.1257102,0.09433498,0,0.3,0,0,0,0,
6.38224E+17,-18.04693,51.85285,52.1111,-42.54923,-15.40608,143.64,-17.01029,-0.4441859,-4.27255,-61.51973,-6.98289,34.65118,0,0,0,-58.12027,46.32549,10.02853,-36.10317,-110.6632,-50.33768,0.001067912,-0.1257102,0.09433498,0,0.3,0,0,0,0,
6.38224E+17,-17.59929,54.33094,57.2475,-51.33865,-17.67669,144.8852,-17.01029,-0.4441859,-4.27255,-61.51973,-6.98289,34.57793,0,0,0,-57.41965,59.5395,12.66745,-36.10317,-110.6632,-50.33768,0.001067912,-0.1257102,0.09433498,0,0.3,0,0,0,0,
6.38224E+17,-16.25637,56.90255,61.0531,-59.32237,-19.58106,144.9584,-17.01029,-0.4441859,-4.27255,-61.51973,-6.98289,34.57793,0,0,0,-53.05011,70.52178,13.58136,-36.10317,-110.6632,-50.33768,0.001067912,-0.1257102,0.09433498,0,0.3,0,0,0,0,
6.38224E+17,-15.14906,58.2351,62.75745,-62.98463,-20.60649,144.8852,-17.01029,-0.4441859,-4.27255,-61.51973,-6.98289,34.57793,0,0,0,-49.32845,75.68415,13.84898,-36.10317,-110.6632,-50.33768,0.001067912,-0.1257102,0.09433498,0,0.3,0,0,0,0,
6.38224E+17,-12.7695,60.87684,65.41904,-68.62451,-22.43762,144.8852,-17.01029,-0.4441859,-4.27255,-61.44649,-6.98289,34.57793,0,0,0,-41.14793,84.37055,13.2106,-36.10317,-110.6632,-50.33768,0.001067912,-0.1257102,0.09433498,0,0.3,0,0,0,0,
6.38224E+17,-9.800944,63.51858,67.28682,-73.60519,-24.92796,143.64,-17.01029,-0.4441859,-4.27255,-61.44649,-6.98289,34.57793,0,0,0,-31.06116,91.21992,11.45725,-36.10317,-110.6632,-50.33768,0.001067912,-0.1257102,0.09433498,0,0.3,0,0,0,0,
6.38224E+17,-6.314069,65.73951,68.36079,-77.48718,-27.85776,139.6848,-17.01029,-0.4441859,-4.27255,-61.51973,-6.98289,34.57793,0,0,0,-19.65794,95.7492,9.309436,-36.10317,-110.6632,-50.33768,0.001067912,-0.1257102,0.09433498,0,0.3,0,0,0,0,
6.38224E+17,-4.335033,66.79153,68.45419,-78.95209,-29.39591,137.8536,-17.01029,-0.4441859,-4.27255,-61.51973,-6.98289,34.57793,0,0,0,-13.34758,96.93679,7.727157,-36.10317,-110.6632,-50.33768,0.001067912,-0.1257102,0.09433498,0,0.3,0,0,0,0,
6.38224E+17,-0.04711992,68.73192,68.22071,-80.34374,-33.05817,134.2646,-17.01029,-0.4441859,-4.27255,-61.51973,-6.98289,34.57793,0,0,0,-0.1416184,98.14085,3.851753,-36.10317,-110.6632,-50.33768,0.001067912,-0.1257102,0.09433498,0,0.3,0,0,0,0,
6.38224E+17,4.405713,69.99434,67.40356,-79.4648,-37.67262,128.8445,-17.01029,-0.4441859,-4.27255,-61.44649,-6.98289,34.57793,0,0,0,12.96188,97.41537,-0.1145657,-36.10317,-110.6632,-50.33768,0.001067912,-0.1257102,0.09433498,0,0.3,0,0,0,0,
6.38224E+17,6.526109,70.34502,66.74983,-78.36612,-39.94322,125.5484,-17.01029,-0.4441859,-4.27255,-61.51973,-6.98289,34.57793,0,0,0,19.02301,96.29092,-2.060892,-36.10317,-110.6632,-50.33768,0.001067912,-0.1257102,0.09433498,0,0.3,0,0,0,0,
6.38224E+17,11.16742,70.48528,64.55519,-73.53194,-44.70415,116.5393,-17.01029,-0.4441859,-4.27255,-61.44649,-6.98289,34.57793,0,0,0,31.94897,91.74711,-6.513031,-36.10317,-110.6632,-50.33768,0.001067912,-0.1257102,0.09433498,0,0.3,0,0,0,0,
6.38224E+17,14.98414,69.99434,60.86632,-62.61841,-48.36641,103.2819,-17.01029,-0.4441859,-4.27255,-61.51973,-6.98289,34.57793,0,0,0,41.91125,83.7322,-11.76167,-36.10317,-110.6632,-50.33768,0.001067912,-0.1257102,0.09433498,0,0.3,0,0,0,0,
6.38224E+17,17.97625,68.17085,55.16959,-43.64791,-49.3186,84.60438,-17.01029,-0.4441859,-4.27255,-61.51973,-6.98289,34.57793,0,0,0,49.08482,70.9756,-17.0691,-36.10317,-110.6632,-50.33768,0.001067912,-0.1257102,0.09433498,0,0.3,0,0,0,0,
6.38224E+17,19.36629,66.18369,50.59352,-31.48921,-47.19449,73.69085,-17.01029,-0.4441859,-4.27255,-61.44649,-6.98289,34.57793,0,0,0,52.02301,60.69159,-20.34476,-36.10317,-110.6632,-50.33768,0.001067912,-0.1257102,0.09433498,0,0.3,0,0,0,0,
6.38224E+17,19.93173,64.64073,47.67512,-25.6296,-44.92389,68.34396,-17.01029,-0.4441859,-4.27255,-61.51973,-6.98289,34.57793,0,0,0,53.07941,54.06135,-21.97306,-36.10317,-110.6632,-50.33768,0.001067912,-0.1257102,0.09433498,0,0.3,0,0,0,0,
6.38224E+17,20.56785,60.99373,41.88499,-17.27965,-39.35725,60.36023,-17.01029,-0.4441859,-4.27255,-61.51973,-6.98289,34.57793,0,0,0,53.99436,40.6962,-24.45519,-36.10317,-110.6632,-50.33768,0.001067912,-0.1257102,0.09433498,0,0.3,0,0,0,0,
6.38224E+17,21.10972,56.13107,36.39838,-12.29898,-32.6187,54.7936,-17.01029,-0.4441859,-4.27255,-61.44649,-6.98289,34.57793,0,0,0,55.26389,26.73763,-25.20263,-36.10317,-110.6632,-50.33768,0.001067912,-0.1257102,0.09433498,0,0.3,0,0,0,0,
6.38224E+17,21.41601,53.32568,33.83019,-10.76083,-29.02968,52.74273,-17.01029,-0.4441859,-4.27255,-61.51973,-7.056135,34.57793,0,0,0,56.18937,19.52981,-25.08944,-36.10317,-110.6632,-50.33768,0.001067912,-0.1257102,0.09433498,0,0.3,0,0,0,0,
6.38224E+17,21.86364,47.34086,29.02065,-8.709964,-21.41219,50.10591,-17.01029,-0.4441859,-4.27255,-61.51973,-6.98289,34.57793,0,0,0,57.74198,4.808101,-24.44854,-36.10317,-110.6632,-50.33768,0.001067912,-0.1257102,0.09433498,0,0.3,0,0,0,0,
6.38224E+17,22.33484,40.93523,25.26174,-7.757777,-13.28197,48.05504,-17.01029,-0.4441859,-4.27255,-61.44649,-6.909645,34.57793,0,0,0,59.90882,-9.875781,-22.52986,-36.10317,-110.6632,-50.33768,0.001067912,-0.1257102,0.09433498,0,0.3,0,0,0,0,
6.38224E+17,23.08876,34.95041,22.78693,-7.757777,-6.030703,46.22392,-17.01029,-0.4441859,-4.27255,-61.51973,-6.98289,34.57793,0,0,0,63.11654,-23.20038,-20.29488,-36.10317,-110.6632,-50.33768,0.001067912,-0.1257102,0.09433498,0,0.3,0,0,0,0,
6.38224E+17,23.86624,31.09301,22.06317,-7.831022,-1.269767,45.05199,-17.01029,-0.4441859,-4.27255,-61.44649,-6.98289,34.57793,0,0,0,66.46883,-31.36903,-18.11563,-36.10317,-110.6632,-50.33768,0.001067912,-0.1257102,0.09433498,0,0.3,0,0,0,0,
6.38224E+17,25.0678,26.97845,22.10986,-7.831022,4.077131,44.17305,-17.01029,-0.4441859,-4.27255,-61.44649,-6.98289,34.57793,0,0,0,71.61607,-39.69902,-15.24211,-36.10317,-110.6632,-50.33768,0.001067912,-0.1257102,0.09433498,0,0.3,0,0,0,0,
6.38224E+17,27.54159,22.65348,23.72082,-6.80559,9.497273,43.66033,-17.01029,-0.4441859,-4.27255,-61.51973,-6.98289,34.57793,0,0,0,81.70766,-47.37345,-11.66887,-36.10317,-110.6632,-50.33768,0.001067912,-0.1257102,0.09433498,0,0.3,0,0,0,0,
6.38224E+17,29.14367,21.18065,25.00492,-5.853402,11.69463,43.58709,-17.01029,-0.4441859,-4.27255,-61.51973,-6.98289,34.57793,0,0,0,88.00511,-49.32065,-10.51924,-36.10317,-110.6632,-50.33768,0.001067912,-0.1257102,0.09433498,0,0.3,0,0,0,0,
6.38224E+17,34.96298,18.58567,29.95454,0.006211365,15.8696,43.36735,-17.01029,-0.4441859,-4.27255,-61.51973,-6.98289,34.57793,0,0,0,110.586,-49.68573,-10.19946,-36.10317,-110.6632,-50.33768,0.001067912,-0.1257102,0.09433498,0,0.3,0,0,0,0,
6.38224E+17,36.80066,18.0246,32.03245,2.569792,16.16258,43.36735,-17.01029,-0.4441859,-4.27255,-61.51973,-6.98289,34.57793,0,0,0,118.3296,-48.43532,-10.17933,-36.10317,-110.6632,-50.33768,0.001067912,-0.1257102,0.09433498,0,0.3,0,0,0,0,
6.38224E+17,40.21685,17.1596,37.05211,8.282915,15.79636,43.00113,-17.01029,-0.4441859,-4.27255,-61.51973,-6.98289,34.57793,0,0,0,134.1489,-43.73217,-9.700897,-36.10317,-110.6632,-50.33768,0.001067912,-0.1257102,0.09433498,0,0.3,0,0,0,0,
6.38224E+17,43.35033,16.92582,42.88893,14.43551,14.55119,42.04893,-17.01029,-0.4441859,-4.27255,-61.51973,-6.98289,34.57793,0,0,0,149.8734,-35.52951,-9.587791,-36.10317,-110.6632,-50.33768,0.001067912,-0.1257102,0.09433498,0,0.3,0,0,0,0,
6.38224E+17,46.38956,17.62716,50.68691,22.71221,12.72006,40.43755,-17.01029,-0.4441859,-4.27255,-61.51973,-6.98289,34.57793,0,0,0,166.7197,-20.75362,-9.527044,-36.10317,-110.6632,-50.33768,0.001067912,-0.1257102,0.09433498,0,0.3,0,0,0,0,
6.38224E+17,47.56756,18.63243,55.58984,28.05911,11.18191,38.89939,-17.01029,-0.4441859,-4.27255,-61.51973,-6.98289,34.57793,0,0,0,174.4631,-9.403113,-8.862064,-36.10317,-110.6632,-50.33768,0.001067912,-0.1257102,0.09433498,0,0.3,0,0,0,0,
6.38224E+17,48.08588,19.54418,58.85846,31.42839,10.08323,37.80072,-17.01029,-0.4441859,-4.27255,-61.51973,-6.98289,34.57793,0,0,0,178.4465,-1.002439,-8.159688,-36.10317,-110.6632,-50.33768,0.001067912,-0.1257102,0.09433498,0,0.3,0,0,0,0,
6.38224E+17,48.53352,21.60146,66.00272,37.87396,7.666144,35.60336,-17.01029,-0.4441859,-4.27255,-61.51973,-6.98289,34.57793,0,0,0,184.1948,18.21002,-5.58022,-36.10317,-110.6632,-50.33768,0.001067912,-0.1257102,0.09433498,0,0.3,0,0,0,0,
6.38224E+17,48.06232,24.19644,73.38046,44.39278,5.322299,33.47925,-17.01029,-0.4441859,-4.27255,-61.44649,-6.98289,34.57793,0,0,0,185.5321,39.86555,-1.661212,-36.10317,-110.6632,-50.33768,0.001067912,-0.1257102,0.09433498,0,0.3,0,0,0,0,
6.38224E+17,46.4838,27.8902,78.56355,51.05809,2.685472,31.64813,-17.01029,-0.4441859,-4.27255,-61.51973,-6.98289,34.57793,0,0,0,180.253,59.28751,2.800571,-36.10317,-110.6632,-50.33768,0.001067912,-0.1257102,0.09433498,0,0.3,0,0,0,0,
6.38224E+17,45.30581,30.04099,80.15116,54.42737,1.367059,31.13541,-17.01029,-0.4441859,-4.27255,-61.44649,-6.98289,34.57793,0,0,0,175.4582,67.29817,5.245164,-36.10317,-110.6632,-50.33768,0.001067912,-0.1257102,0.09433498,0,0.3,0,0,0,0,
6.38224E+17,42.64353,34.52961,81.87886,60.36023,-1.269767,30.76918,-17.01029,-0.4441859,-4.27255,-61.51973,-6.98289,34.57793,0,0,0,163.8518,80.09916,9.566031,-36.10317,-110.6632,-50.33768,0.001067912,-0.1257102,0.09433498,0,0.3,0,0,0,0,
6.38224E+17,39.74566,39.13511,81.62204,65.56064,-3.760103,31.86786,-17.01029,-0.4441859,-4.27255,-61.51973,-6.98289,34.57793,0,0,0,150.4854,88.08459,12.61694,-36.10317,-110.6632,-50.33768,0.001067912,-0.1257102,0.09433498,0,0.3,0,0,0,0,
6.38224E+17,37.31898,42.71198,80.24455,69.14965,-6.030703,33.99197,-17.01029,-0.4441859,-4.27255,-61.44649,-6.98289,34.57793,0,0,0,139.0764,91.20782,14.08851,-36.10317,-110.6632,-50.33768,0.001067912,-0.1257102,0.09433498,0,0.3,0,0,0,0,
6.38224E+17,34.70382,46.63952,77.53627,72.00621,-8.374548,37.288,-17.01029,-0.4441859,-4.27255,-61.44649,-6.98289,34.57793,0,0,0,126.2576,91.52209,13.96319,-36.10317,-110.6632,-50.33768,0.001067912,-0.1257102,0.09433498,0,0.3,0,0,0,0,
6.38224E+17,30.83999,52.53082,71.97962,74.05708,-12.54952,43.66033,-17.01029,-0.4441859,-4.27255,-61.51973,-6.98289,34.57793,0,0,0,106.5938,87.9348,10.17929,-36.10317,-110.6632,-50.33768,0.001067912,-0.1257102,0.09433498,0,0.3,0,0,0,0,
6.38224E+17,28.79027,55.24269,69.03786,74.20357,-15.03986,47.24934,-17.01029,-0.4441859,-4.27255,-61.44649,-6.98289,34.65118,0,0,0,96.58468,85.20084,7.407552,-36.10317,-110.6632,-50.33768,0.001067912,-0.1257102,0.09433498,0,0.3,0,0,0,0,
6.38224E+17,20.63853,61.55481,58.41486,69.66236,-25.51392,61.75189,-17.01029,-0.4441859,-4.27255,-61.51973,-6.98289,34.57793,0,0,0,62.42715,70.75701,-2.603728,-36.10317,-110.6632,-50.33768,0.001067912,-0.1257102,0.09433498,0,0.3,0,0,0,0,
6.38224E+17,18.28253,62.25616,54.77269,66.29308,-28.88319,67.75799,-17.01029,-0.4441859,-4.27255,-61.44649,-6.98289,34.57793,0,0,0,53.64529,64.45058,-5.975581,-36.10317,-110.6632,-50.33768,0.001067912,-0.1257102,0.09433498,0,0.3,0,0,0,0,
6.38224E+17,14.32446,61.6717,46.67118,54.86684,-34.74281,85.55657,-17.01029,-0.4441859,-4.27255,-61.51973,-6.98289,34.57793,0,0,0,39.65533,49.22774,-13.05294,-36.10317,-110.6632,-50.33768,0.001067912,-0.1257102,0.09433498,0,0.3,0,0,0,0,
6.38224E+17,12.62814,58.32861,39.94717,41.8292,-35.695,103.6481,-17.01029,-0.4441859,-4.27255,-61.51973,-6.98289,34.65118,0,0,0,34.02563,34.60963,-16.47845,-36.10317,-110.6632,-50.33768,0.001067912,-0.1257102,0.09433498,0,0.3,0,0,0,0,
6.38224E+17,12.62814,55.82715,36.93538,36.18932,-34.66956,110.4599,-17.01029,-0.4441859,-4.27255,-61.44649,-6.98289,34.57793,0,0,0,33.89379,27.0882,-17.06693,-36.10317,-110.6632,-50.33768,0.001067912,-0.1257102,0.09433498,0,0.3,0,0,0,0,
6.38224E+17,13.52342,51.2684,32.87295,29.08454,-30.56783,117.4915,-17.01029,-0.4441859,-4.27255,-61.51973,-6.98289,34.57793,0,0,0,36.43573,15.3769,-16.85706,-36.10317,-110.6632,-50.33768,0.001067912,-0.1257102,0.09433498,0,0.3,0,0,0,0,
6.38224E+17,15.07837,47.85518,30.79504,25.935,-25.95339,119.4691,-17.01029,-0.4441859,-4.27255,-61.51973,-6.909645,34.57793,0,0,0,41.03704,7.674307,-16.03142,-36.10317,-110.6632,-50.33768,0.001067912,-0.1257102,0.09433498,0,0.3,0,0,0,0,
6.38224E+17,17.01029,44.11467,29.34751,25.20255,-21.33894,119.9818,-17.01029,-0.4441859,-4.27255,-61.44649,-6.98289,34.57793,0,0,0,47.12698,-0.06179481,-14.30356,-36.10317,-110.6632,-50.33768,0.001067912,-0.1257102,0.09433498,0,0.3,0,0,0,0,
6.38224E+17,18.09405,41.75347,28.97396,25.49553,-19.06834,119.9818,-17.01029,-0.4441859,-4.27255,-61.51973,-6.98289,34.57793,0,0,0,50.95888,-4.508565,-12.38626,-36.10317,-110.6632,-50.33768,0.001067912,-0.1257102,0.09433498,0,0.3,0,0,0,0,
6.38224E+17,20.23801,35.90892,28.69379,27.32666,-13.57495,119.1029,-17.01029,-0.4441859,-4.27255,-61.44649,-6.98289,34.57793,0,0,0,59.50942,-15.41481,-6.938605,-36.10317,-110.6632,-50.33768,0.001067912,-0.1257102,0.09433498,0,0.3,0,0,0,0,
6.38224E+17,21.13329,30.22802,28.74048,29.23104,-8.081567,116.6858,-17.01029,-0.4441859,-4.27255,-61.51973,-6.98289,34.57793,0,0,0,64.65853,-26.43811,-1.072892,-36.10317,-110.6632,-50.33768,0.001067912,-0.1257102,0.09433498,0,0.3,0,0,0,0,
6.38224E+17,21.15685,27.30574,28.92726,29.89024,-5.15176,115.0011,-17.01029,-0.4441859,-4.27255,-61.51973,-6.98289,34.57793,0,0,0,66.04597,-32.18972,2.307801,-36.10317,-110.6632,-50.33768,0.001067912,-0.1257102,0.09433498,0,0.3,0,0,0,0,
6.38224E+17,20.52073,21.71835,29.67438,30.25646,0.4148723,111.8516,-17.01029,-0.4441859,-4.27255,-61.51973,-6.98289,34.57793,0,0,0,66.56929,-43.16614,9.501508,-36.10317,-110.6632,-50.33768,0.001067912,-0.1257102,0.09433498,0,0.3,0,0,0,0,
6.38224E+17,19.20137,17.53365,31.35538,29.08454,5.835015,107.7499,-17.01029,-0.4441859,-4.27255,-61.44649,-6.98289,34.57793,0,0,0,64.64072,-50.35126,17.2586,-36.10317,-110.6632,-50.33768,0.001067912,-0.1257102,0.09433498,0,0.3,0,0,0,0,
6.38224E+17,16.84537,15.35948,32.42935,26.44772,10.08323,104.2341,-17.01029,-0.4441859,-4.27255,-61.44649,-6.98289,34.57793,0,0,0,57.98616,-53.88353,23.16119,-36.10317,-110.6632,-50.33768,0.001067912,-0.1257102,0.09433498,0,0.3,0,0,0,0,
6.38224E+17,12.43966,14.588,32.52274,21.68678,13.599,101.0845,-17.01029,-0.4441859,-4.27255,-61.51973,-6.98289,34.57793,0,0,0,43.24266,-55.50138,27.68179,-36.10317,-110.6632,-50.33768,0.001067912,-0.1257102,0.09433498,0,0.3,0,0,0,0,
6.38224E+17,9.777385,14.61138,32.61613,18.46399,15.06391,99.25342,-17.01029,-0.4441859,-4.27255,-61.44649,-6.98289,34.57793,0,0,0,34.11933,-55.33173,29.64577,-36.10317,-110.6632,-50.33768,0.001067912,-0.1257102,0.09433498,0,0.3,0,0,0,0,
6.38224E+17,3.486874,14.98543,33.59671,9.381593,17.18801,95.51791,-17.01029,-0.4441859,-4.27255,-61.51973,-6.98289,34.57793,0,0,0,12.32231,-53.24352,33.87831,-36.10317,-110.6632,-50.33768,0.001067912,-0.1257102,0.09433498,0,0.3,0,0,0,0,
6.38224E+17,-3.793154,16.29461,36.07153,-3.289821,18.57967,91.48943,-17.01029,-0.4441859,-4.27255,-61.44649,-6.98289,34.57793,0,0,0,-13.66156,-47.01963,37.70695,-36.10317,-110.6632,-50.33768,0.001067912,-0.1257102,0.09433498,0,0.3,0,0,0,0,
6.38224E+17,-6.973749,17.58041,37.56575,-9.808641,18.65292,89.65829,-17.01029,-0.4441859,-4.27255,-61.51973,-6.98289,34.65118,0,0,0,-25.3054,-42.07288,38.52952,-36.10317,-110.6632,-50.33768,0.001067912,-0.1257102,0.09433498,0,0.3,0,0,0,0,
6.38224E+17,-12.55746,21.53132,41.11454,-23.79847,17.40775,86.28902,-17.01029,-0.4441859,-4.27255,-61.51973,-6.98289,34.57793,0,0,0,-46.03424,-28.17467,38.31599,-36.10317,-110.6632,-50.33768,0.001067912,-0.1257102,0.09433498,0,0.3,0,0,0,0,
6.38224E+17,-15.78517,27.1421,45.13026,-37.56856,14.77092,83.06623,-17.01029,-0.4441859,-4.27255,-61.51973,-6.98289,34.57793,0,0,0,-57.98946,-9.893957,36.78299,-36.10317,-110.6632,-50.33768,0.001067912,-0.1257102,0.09433498,0,0.3,0,0,0,0,
6.38224E+17,-16.20925,34.13218,48.7024,-48.84832,10.6692,81.96756,-17.01029,-0.4441859,-4.27255,-61.51973,-6.98289,34.57793,0,0,0,-58.77831,10.16618,33.84436,-36.10317,-110.6632,-50.33768,0.001067912,-0.1257102,0.09433498,0,0.3,0,0,0,0,
6.38224E+17,-15.52601,38.01296,50.45344,-53.09653,8.178861,82.55352,-17.01029,-0.4441859,-4.27255,-61.51973,-6.98289,34.57793,0,0,0,-55.64709,20.5676,31.95374,-36.10317,-110.6632,-50.33768,0.001067912,-0.1257102,0.09433498,0,0.3,0,0,0,0,
6.38224E+17,-12.84018,46.0083,54.93612,-59.6886,1.733285,85.9228,-17.01029,-0.4441859,-4.27255,-61.44649,-6.98289,34.57793,0,0,0,-44.83922,42.67922,28.37192,-36.10317,-110.6632,-50.33768,0.001067912,-0.1257102,0.09433498,0,0.3,0,0,0,0,
6.38224E+17,-8.905665,52.62434,59.58222,-64.30305,-5.737722,90.90347,-17.01029,-0.4441859,-4.27255,-61.44649,-6.98289,34.57793,0,0,0,-30.33368,61.80429,25.23163,-36.10317,-110.6632,-50.33768,0.001067912,-0.1257102,0.09433498,0,0.3,0,0,0,0,
6.38224E+17,-2.497356,58.81956,63.55126,-67.96531,-15.40608,97.42229,-17.01029,-0.4441859,-4.27255,-61.51973,-6.98289,34.57793,0,0,0,-8.210629,78.04271,19.90367,-36.10317,-110.6632,-50.33768,0.001067912,-0.1257102,0.09433498,0,0.3,0,0,0,0,
6.38224E+17,0.1884797,60.54955,64.50849,-68.84425,-19.14159,99.32666,-17.01029,-0.4441859,-4.27255,-61.44649,-6.98289,34.57793,0,0,0,0.611641,82.07787,17.58154,-36.10317,-110.6632,-50.33768,0.001067912,-0.1257102,0.09433498,0,0.3,0,0,0,0,
6.38224E+17,6.926629,63.63547,65.53577,-68.771,-28.66346,102.11,-17.01029,-0.4441859,-4.27255,-61.51973,-6.98289,34.57793,0,0,0,21.77955,87.60628,10.92789,-36.10317,-110.6632,-50.33768,0.001067912,-0.1257102,0.09433498,0,0.3,0,0,0,0,
6.38224E+17,14.01818,64.85114,64.50849,-63.42411,-38.25858,99.54639,-17.01029,-0.4441859,-4.27255,-61.44649,-6.98289,34.57793,0,0,0,42.88391,86.6685,3.41583,-36.10317,-110.6632,-50.33768,0.001067912,-0.1257102,0.09433498,0,0.3,0,0,0,0,
6.38224E+17,20.70921,64.21992,62.52398,-48.92156,-45.50985,87.46095,-17.01029,-0.4441859,-4.27255,-61.51973,-6.98289,34.57793,0,0,0,62.34587,81.90301,-3.436586,-36.10317,-110.6632,-50.33768,0.001067912,-0.1257102,0.09433498,0,0.3,0,0,0,0,
6.38224E+17,23.67776,63.35493,61.09979,-38.00803,-47.7072,78.74477,-17.01029,-0.4441859,-4.27255,-61.44649,-6.98289,34.57793,0,0,0,70.89928,78.09234,-6.66644,-36.10317,-110.6632,-50.33768,0.001067912,-0.1257102,0.09433498,0,0.3,0,0,0,0,
6.38224E+17,28.36619,60.59631,56.94398,-15.66825,-48.00018,61.09268,-17.01029,-0.4441859,-4.27255,-61.44649,-6.98289,34.57793,0,0,0,84.20533,66.78521,-12.39562,-36.10317,-110.6632,-50.33768,0.001067912,-0.1257102,0.09433498,0,0.3,0,0,0,0,
6.38224E+17,30.91067,56.69214,51.83093,-0.3600145,-43.89846,49.30021,-17.01029,-0.4441859,-4.27255,-61.44649,-6.98289,34.57793,0,0,0,91.47268,52.38669,-15.57485,-36.10317,-110.6632,-50.33768,0.001067912,-0.1257102,0.09433498,0,0.3,0,0,0,0,
6.38224E+17,31.57035,54.42446,49.28608,4.254431,-41.04189,45.78444,-17.01029,-0.4441859,-4.27255,-61.51973,-6.98289,34.57793,0,0,0,93.53441,44.82823,-16.13554,-36.10317,-110.6632,-50.33768,0.001067912,-0.1257102,0.09433498,0,0.3,0,0,0,0,
6.38224E+17,32.11223,48.76693,43.07571,9.747819,-33.35115,42.19543,-17.01029,-0.4441859,-4.27255,-61.51973,-6.98289,34.65118,0,0,0,95.13537,26.22805,-16.76309,-36.10317,-110.6632,-50.33768,0.001067912,-0.1257102,0.09433498,0,0.3,0,0,0,0,
6.38224E+17,31.52323,44.11467,38.10274,10.77325,-26.61259,42.48841,-17.01029,-0.4441859,-4.27255,-61.51973,-6.98289,34.57793,0,0,0,93.0794,11.24063,-16.59635,-36.10317,-110.6632,-50.33768,0.001067912,-0.1257102,0.09433498,0,0.3,0,0,0,0,
6.38224E+17,29.87403,38.62079,33.66676,10.11404,-18.62887,44.75901,-17.01029,-0.4441859,-4.27255,-61.51973,-6.98289,34.57793,0,0,0,88.7155,-4.401835,-13.90707,-36.10317,-110.6632,-50.33768,0.001067912,-0.1257102,0.09433498,0,0.3,0,0,0,0,
6.38224E+17,28.83739,35.72189,31.54216,9.235103,-14.4539,46.07742,-17.01029,-0.4441859,-4.27255,-61.51973,-6.98289,34.57793,0,0,0,85.86378,-12.44168,-12.40552,-36.10317,-110.6632,-50.33768,0.001067912,-0.1257102,0.09433498,0,0.3,0,0,0,0,
6.38224E+17,25.96308,30.01761,28.92726,6.964502,-6.543418,49.00723,-17.01029,-0.4441859,-4.27255,-61.51973,-6.98289,34.57793,0,0,0,78.78732,-26.65202,-6.547514,-36.10317,-110.6632,-50.33768,0.001067912,-0.1257102,0.09433498,0,0.3,0,0,0,0,
6.38224E+17,22.005,25.17833,27.29295,3.81496,1.000834,52.88922,-17.01029,-0.4441859,-4.27255,-61.44649,-6.909645,34.57793,0,0,0,68.12813,-38.42261,0.2306485,-36.10317,-110.6632,-50.33768,0.001067912,-0.1257102,0.09433498,0,0.3,0,0,0,0,
6.38224E+17,16.58621,21.76511,26.10224,-0.9459759,8.03237,56.62473,-17.01029,-0.4441859,-4.27255,-61.51973,-6.98289,34.57793,0,0,0,52.10012,-46.95319,6.570113,-36.10317,-110.6632,-50.33768,0.001067912,-0.1257102,0.09433498,0,0.3,0,0,0,0,
6.38224E+17,10.13078,21.06376,24.98158,-7.684532,13.74549,58.82208,-17.01029,-0.4441859,-4.27255,-61.51973,-6.909645,34.57793,0,0,0,31.79436,-49.59739,9.588754,-36.10317,-110.6632,-50.33768,0.001067912,-0.1257102,0.09433498,0,0.3,0,0,0,0,
6.38224E+17,6.502549,21.15727,24.7481,-11.93275,15.8696,59.40804,-17.01029,-0.4441859,-4.27255,-61.44649,-6.98289,34.57793,0,0,0,20.40555,-49.62283,10.6764,-36.10317,-110.6632,-50.33768,0.001067912,-0.1257102,0.09433498,0,0.3,0,0,0,0,
6.38224E+17,-0.612559,22.8405,26.70927,-21.89409,17.92047,59.11506,-17.01029,-0.4441859,-4.27255,-61.44649,-6.98289,34.57793,0,0,0,-1.954628,-44.00928,14.46941,-36.10317,-110.6632,-50.33768,0.001067912,-0.1257102,0.09433498,0,0.3,0,0,0,0,
6.38224E+17,-6.05491,27.72655,29.69772,-32.51464,17.26126,58.60235,-17.01029,-0.4441859,-4.27255,-61.44649,-6.98289,34.57793,0,0,0,-19.4195,-30.44325,14.72625,-36.10317,-110.6632,-50.33768,0.001067912,-0.1257102,0.09433498,0,0.3,0,0,0,0,
6.38224E+17,-7.963267,30.71896,31.26199,-37.71505,15.94285,58.74884,-17.01029,-0.4441859,-4.27255,-61.44649,-6.98289,34.65118,0,0,0,-25.46901,-22.51919,13.71827,-36.10317,-110.6632,-50.33768,0.001067912,-0.1257102,0.09433498,0,0.3,0,0,0,0,
6.38224E+17,-10.03654,36.47,34.99755,-46.065,11.98761,59.77427,-17.01029,-0.4441859,-4.27255,-61.51973,-6.98289,34.57793,0,0,0,-32.01761,-6.623719,12.55612,-36.10317,-110.6632,-50.33768,0.001067912,-0.1257102,0.09433498,0,0.3,0,0,0,0,
6.38224E+17,-10.43706,40.79496,38.70977,-52.0711,7.226673,62.11811,-17.01029,-0.4441859,-4.27255,-61.51973,-6.98289,34.57793,0,0,0,-33.39541,6.418584,12.94668,-36.10317,-110.6632,-50.33768,0.001067912,-0.1257102,0.09433498,0,0.3,0,0,0,0,
6.38224E+17,-10.43706,42.12752,39.85378,-54.04872,5.102563,63.72951,-17.01029,-0.4441859,-4.27255,-61.51973,-6.98289,34.57793,0,0,0,-33.39676,10.42847,12.95405,-36.10317,-110.6632,-50.33768,0.001067912,-0.1257102,0.09433498,0,0.3,0,0,0,0,
6.38224E+17,-10.36638,43.92765,41.8383,-56.90528,1.440305,67.09879,-17.01029,-0.4441859,-4.27255,-61.44649,-6.98289,34.57793,0,0,0,-33.28737,16.51169,13.61986,-36.10317,-110.6632,-50.33768,0.001067912,-0.1257102,0.09433498,0,0.3,0,0,0,0,
6.38224E+17,-10.7669,45.23682,43.91621,-58.51668,-1.269767,70.98078,-17.01029,-0.4441859,-4.27255,-61.51973,-6.98289,34.57793,0,0,0,-34.82106,21.97229,14.76304,-36.10317,-110.6632,-50.33768,0.001067912,-0.1257102,0.09433498,0,0.3,0,0,0,0,
6.38224E+17,-11.54438,46.17195,46.08751,-60.20132,-3.540367,74.49654,-17.01029,-0.4441859,-4.27255,-61.51973,-6.98289,34.57793,0,0,0,-37.70586,27.06544,16.24819,-36.10317,-110.6632,-50.33768,0.001067912,-0.1257102,0.09433498,0,0.3,0,0,0,0,
6.38224E+17,-12.0627,46.49924,47.51169,-61.44649,-4.712289,76.0347,-17.01029,-0.4441859,-4.27255,-61.44649,-6.98289,34.57793,0,0,0,-39.73325,30.00756,17.57955,-36.10317,-110.6632,-50.33768,0.001067912,-0.1257102,0.09433498,0,0.3,0,0,0,0,
6.38224E+17,-12.39254,46.52262,48.30549,-62.10569,-5.225006,77.06013,-17.01029,-0.4441859,-4.27255,-61.44649,-6.98289,34.57793,0,0,0,-41.06025,31.41599,18.51872,-36.10317,-110.6632,-50.33768,0.001067912,-0.1257102,0.09433498,0,0.3,0,0,0,0,
6.38224E+17,-12.98154,46.24208,49.146,-63.86357,-5.884212,78.67152,-17.01029,-0.4441859,-4.27255,-61.51973,-6.98289,34.57793,0,0,0,-43.3751,32.43575,19.8048,-36.10317,-110.6632,-50.33768,0.001067912,-0.1257102,0.09433498,0,0.3,0,0,0,0,
6.38224E+17,-13.49986,45.61087,49.02925,-65.10874,-6.103948,79.47723,-17.01029,-0.4441859,-4.27255,-61.51973,-6.98289,34.57793,0,0,0,-45.28028,31.20857,20.25799,-36.10317,-110.6632,-50.33768,0.001067912,-0.1257102,0.09433498,0,0.3,0,0,0,0,
6.38224E+17,-13.9475,44.93291,48.56231,-65.69471,-6.177193,79.69696,-17.01029,-0.4441859,-4.27255,-61.51973,-6.98289,34.57793,0,0,0,-46.85008,29.28049,20.29165,-36.10317,-110.6632,-50.33768,0.001067912,-0.1257102,0.09433498,0,0.3,0,0,0,0,
6.38224E+17,-14.70142,43.4367,47.16148,-66.35391,-5.810967,79.69696,-17.01029,-0.4441859,-4.27255,-61.51973,-6.98289,34.57793,0,0,0,-49.38898,24.3659,19.89065,-36.10317,-110.6632,-50.33768,0.001067912,-0.1257102,0.09433498,0,0.3,0,0,0,0,
6.38224E+17,-15.38465,41.19239,44.92014,-66.72014,-4.639044,78.45178,-17.01029,-0.4441859,-4.27255,-61.51973,-6.98289,34.57793,0,0,0,-51.60239,16.74889,19.18748,-36.10317,-110.6632,-50.33768,0.001067912,-0.1257102,0.09433498,0,0.3,0,0,0,0,
6.38224E+17,-15.52601,38.27012,42.04842,-66.06093,-2.954405,76.6939,-17.01029,-0.4441859,-4.27255,-61.51973,-6.98289,34.57793,0,0,0,-51.93054,6.920032,18.57586,-36.10317,-110.6632,-50.33768,0.001067912,-0.1257102,0.09433498,0,0.3,0,0,0,0,
6.38224E+17,-15.43177,35.53487,39.59696,-64.96225,-1.196521,75.229,-17.01029,-0.4441859,-4.27255,-61.44649,-6.98289,34.57793,0,0,0,-51.49127,-1.899654,18.18377,-36.10317,-110.6632,-50.33768,0.001067912,-0.1257102,0.09433498,0,0.3,0,0,0,0,
6.38224E+17,-15.2433,32.12165,37.16885,-63.93682,0.5613627,73.10489,-17.01029,-0.4441859,-4.27255,-61.51973,-6.98289,34.57793,0,0,0,-50.87534,-12.0064,18.34467,-36.10317,-110.6632,-50.33768,0.001067912,-0.1257102,0.09433498,0,0.3,0,0,0,0,
6.38224E+17,-14.44226,26.62777,34.13371,-62.47192,3.93064,69.14965,-17.01029,-0.4441859,-4.27255,-61.44649,-6.98289,34.57793,0,0,0,-48.39255,-27.26138,19.55113,-36.10317,-110.6632,-50.33768,0.001067912,-0.1257102,0.09433498,0,0.3,0,0,0,0,
6.38224E+17,-13.66478,23.35482,33.10642,-61.44649,5.90826,67.24528,-17.01029,-0.4441859,-4.27255,-61.44649,-6.98289,34.57793,0,0,0,-46.12827,-35.48846,21.3826,-36.10317,-110.6632,-50.33768,0.001067912,-0.1257102,0.09433498,0,0.3,0,0,0,0,
6.38224E+17,-8.552266,12.57747,32.0091,-57.418,12.50033,62.11811,-17.01029,-0.4441859,-4.27255,-61.51973,-6.98289,34.57793,0,0,0,-29.86613,-60.68776,30.24949,-36.10317,-110.6632,-50.33768,0.001067912,-0.1257102,0.09433498,0,0.3,0,0,0,0,
6.38224E+17,-5.701511,9.257769,31.63554,-55.1474,15.06391,60.7997,-17.01029,-0.4441859,-4.27255,-61.51973,-6.98289,34.65118,0,0,0,-20.02388,-68.73155,32.20992,-36.10317,-110.6632,-50.33768,0.001067912,-0.1257102,0.09433498,0,0.3,0,0,0,0,
6.38224E+17,1.437158,4.044429,31.1219,-48.40885,19.38537,58.96857,-17.01029,-0.4441859,-4.27255,-61.51973,-6.98289,34.57793,0,0,0,5.064789,-81.4017,33.52776,-36.10317,-110.6632,-50.33768,0.001067912,-0.1257102,0.09433498,0,0.3,0,0,0,0,
6.38224E+17,10.4135,1.192288,31.37873,-38.66724,23.12087,58.01638,-17.01029,-0.4441859,-4.27255,-61.51973,-6.98289,34.57793,0,0,0,36.64825,-87.72206,31.06589,-36.10317,-110.6632,-50.33768,0.001067912,-0.1257102,0.09433498,0,0.3,0,0,0,0,
6.38224E+17,15.31397,1.122154,31.77563,-32.88087,24.51253,57.57691,-17.01029,-0.4441859,-4.27255,-61.44649,-6.98289,34.57793,0,0,0,53.75813,-87.40154,27.96847,-36.10317,-110.6632,-50.33768,0.001067912,-0.1257102,0.09433498,0,0.3,0,0,0,0,
6.38224E+17,26.10444,2.852141,35.55789,-18.59806,25.31823,55.96552,-17.01029,-0.4441859,-4.27255,-61.51973,-6.98289,34.57793,0,0,0,92.72356,-78.4987,20.88524,-36.10317,-110.6632,-50.33768,0.001067912,-0.1257102,0.09433498,0,0.3,0,0,0,0,
6.38224E+17,35.55198,6.569275,44.0096,-2.117898,23.56034,52.74273,-17.01029,-0.4441859,-4.27255,-61.44649,-6.98289,34.57793,0,0,0,130.8959,-57.30262,14.80762,-36.10317,-110.6632,-50.33768,0.001067912,-0.1257102,0.09433498,0,0.3,0,0,0,0,
6.38224E+17,41.13569,11.54883,54.2357,13.26359,19.82484,48.05504,-17.01029,-0.4441859,-4.27255,-61.44649,-6.98289,34.57793,0,0,0,157.1289,-27.88963,11.54393,-36.10317,-110.6632,-50.33768,0.001067912,-0.1257102,0.09433498,0,0.3,0,0,0,0,
6.38224E+17,42.76133,14.63475,59.23202,20.44161,17.55424,45.5647,-17.01029,-0.4441859,-4.27255,-61.51973,-6.98289,34.57793,0,0,0,165.394,-11.17519,10.50123,-36.10317,-110.6632,-50.33768,0.001067912,-0.1257102,0.09433498,0,0.3,0,0,0,0,
6.38224E+17,44.45765,22.13916,68.45419,33.33276,12.42708,40.21781,-17.01029,-0.4441859,-4.27255,-61.51973,-6.98289,34.57793,0,0,0,173.3798,24.6318,8.343602,-36.10317,-110.6632,-50.33768,0.001067912,-0.1257102,0.09433498,0,0.3,0,0,0,0,
6.38224E+17,44.50476,29.45654,75.80857,43.29411,7.519653,35.67661,-17.01029,-0.4441859,-4.27255,-61.44649,-6.98289,34.57793,0,0,0,172.0122,56.23422,6.661747,-36.10317,-110.6632,-50.33768,0.001067912,-0.1257102,0.09433498,0,0.3,0,0,0,0,
6.38224E+17,43.93933,33.29056,79.05384,48.12829,4.882828,33.18628,-17.01029,-0.4441859,-4.27255,-61.51973,-6.98289,34.57793,0,0,0,168.1941,71.22247,6.189561,-36.10317,-110.6632,-50.33768,0.001067912,-0.1257102,0.09433498,0,0.3,0,0,0,0,
6.38224E+17,41.84249,40.117,83.51317,57.21069,-0.5373149,28.71832,-17.01029,-0.4441859,-4.27255,-61.51973,-6.98289,34.57793,0,0,0,156.4135,94.20895,6.328088,-36.10317,-110.6632,-50.33768,0.001067912,-0.1257102,0.09433498,0,0.3,0,0,0,0,
6.38224E+17,38.63834,46.21871,85.70781,65.12117,-5.957458,24.83632,-17.01029,-0.4441859,-4.27255,-61.44649,-6.98289,34.57793,0,0,0,140.6416,109.6466,7.587064,-36.10317,-110.6632,-50.33768,0.001067912,-0.1257102,0.09433498,0,0.3,0,0,0,0,
6.38224E+17,34.56246,51.78272,86.22145,71.78648,-11.67058,22.1995,-17.01029,-0.4441859,-4.27255,-61.51973,-6.98289,34.57793,0,0,0,122.2861,119.3313,9.162538,-36.10317,-110.6632,-50.33768,0.001067912,-0.1257102,0.09433498,0,0.3,0,0,0,0,
6.38224E+17,29.54419,56.43498,86.15141,77.64609,-17.23721,21.02757,-17.01029,-0.4441859,-4.27255,-61.44649,-6.98289,34.57793,0,0,0,101.9603,125.5146,11.54027,-36.10317,-110.6632,-50.33768,0.001067912,-0.1257102,0.09433498,0,0.3,0,0,0,0,
6.38224E+17,26.57564,58.49226,85.91794,80.72239,-20.24026,20.66135,-17.01029,-0.4441859,-4.27255,-61.51973,-6.98289,34.57793,0,0,0,90.68469,127.5476,12.93565,-36.10317,-110.6632,-50.33768,0.001067912,-0.1257102,0.09433498,0,0.3,0,0,0,0,
6.38224E+17,19.76681,61.62495,84.30698,87.82717,-26.97882,19.9289,-17.01029,-0.4441859,-4.27255,-61.44649,-6.98289,34.57793,0,0,0,66.308,127.4506,16.16288,-36.10317,-110.6632,-50.33768,0.001067912,-0.1257102,0.09433498,0,0.3,0,0,0,0,
6.38224E+17,12.13338,63.44844,81.08505,97.42229,-35.03579,17.6583,-17.01029,-0.4441859,-4.27255,-61.44649,-6.98289,34.57793,0,0,0,40.21886,121.9709,18.72239,-36.10317,-110.6632,-50.33768,0.001067912,-0.1257102,0.09433498,0,0.3,0,0,0,0,
6.38224E+17,8.293106,63.77574,78.70364,104.82,-39.72348,15.24121,-17.01029,-0.4441859,-4.27255,-61.51973,-6.98289,34.57793,0,0,0,27.36065,116.8533,19.35851,-36.10317,-110.6632,-50.33768,0.001067912,-0.1257102,0.09433498,0,0.3,0,0,0,0,
6.38224E+17,2.379556,62.81723,71.69946,117.5647,-50.12429,8.795631,-17.01029,-0.4441859,-4.27255,-61.51973,-6.98289,34.57793,0,0,0,7.78583,100.0999,19.01212,-36.10317,-110.6632,-50.33768,0.001067912,-0.1257102,0.09433498,0,0.3,0,0,0,0,
6.38224E+17,0.4240793,59.70793,69.52816,117.4182,-57.74179,6.744767,-17.01029,-0.4441859,-4.27255,-61.51973,-6.98289,34.57793,0,0,0,1.422504,91.85434,23.83573,-36.10317,-110.6632,-50.33768,0.001067912,-0.1257102,0.09433498,0,0.3,0,0,0,0,
6.38224E+17,-0.7303588,56.99606,67.47359,112.4375,-61.11107,14.36226,-17.01029,-0.4441859,-4.27255,-61.51973,-6.98289,34.65118,0,0,0,-2.495969,84.09412,27.44521,-36.10317,-110.6632,-50.33768,0.001067912,-0.1257102,0.09433498,0,0.3,0,0,0,0,
6.38224E+17,-0.7539188,56.2012,66.72649,108.7753,-61.99001,20.36837,-17.01029,-0.4441859,-4.27255,-61.51973,-6.98289,34.57793,0,0,0,-2.587898,81.47396,28.31187,-36.10317,-110.6632,-50.33768,0.001067912,-0.1257102,0.09433498,0,0.3,0,0,0,0,
6.38224E+17,-0.4947592,56.13107,65.04549,93.61353,-62.86895,38.82615,-17.01029,-0.4441859,-4.27255,-61.44649,-6.98289,34.57793,0,0,0,-1.685705,77.81226,26.85885,-36.10317,-110.6632,-50.33768,0.001067912,-0.1257102,0.09433498,0,0.3,0,0,0,0,
6.38224E+17,-0.4947592,56.24796,62.75745,70.83429,-63.16194,75.08251,-17.01029,-0.4441859,-4.27255,-61.51973,-6.98289,34.57793,0,0,0,-1.663526,73.18176,24.29044,-36.10317,-110.6632,-50.33768,0.001067912,-0.1257102,0.09433498,0,0.3,0,0,0,0,
6.38224E+17,-1.295798,56.27134,59.51218,39.33887,-61.11107,137.0479,-17.01029,-0.4441859,-4.27255,-61.44649,-6.98289,34.57793,0,0,0,-4.273067,66.59824,20.55831,-36.10317,-110.6632,-50.33768,0.001067912,-0.1257102,0.09433498,0,0.3,0,0,0,0,
6.38224E+17,-1.743437,56.13107,58.76507,24.25036,-59.2067,144.4457,-17.01029,-0.4441859,-4.27255,-61.51973,-6.98289,34.57793,0,0,0,-5.729938,64.92402,19.89879,-36.10317,-110.6632,-50.33768,0.001067912,-0.1257102,0.09433498,0,0.3,0,0,0,0,
6.38224E+17,-2.002597,55.96742,58.53159,17.07234,-58.401,144.8852,-17.01029,-0.4441859,-4.27255,-61.51973,-6.98289,34.57793,0,0,0,-6.582522,64.24726,19.90415,-36.10317,-110.6632,-50.33768,0.001067912,-0.1257102,0.09433498,0,0.3,0,0,0,0,
6.38224E+17,-2.544476,55.38297,57.94791,6.964502,-57.22908,144.9584,-17.01029,-0.4441859,-4.27255,-61.51973,-6.98289,34.57793,0,0,0,-8.380756,62.3252,20.2414,-36.10317,-110.6632,-50.33768,0.001067912,-0.1257102,0.09433498,0,0.3,0,0,0,0,
6.38224E+17,-3.015675,54.89202,57.66774,1.031644,-56.27689,145.0316,-17.01029,-0.4441859,-4.27255,-61.51973,-6.98289,34.57793,0,0,0,-9.962475,61.12026,20.75544,-36.10317,-110.6632,-50.33768,0.001067912,-0.1257102,0.09433498,0,0.3,0,0,0,0,
6.38224E+17,-3.157035,54.63486,57.27084,-2.044653,-55.83742,145.0316,-17.01029,-0.4441859,-4.27255,-61.44649,-6.98289,34.57793,0,0,0,-10.42857,59.99613,20.7224,-36.10317,-110.6632,-50.33768,0.001067912,-0.1257102,0.09433498,0,0.3,0,0,0,0,
6.38224E+17,-3.204155,54.42446,56.8039,-2.923595,-55.76417,144.8119,-17.01029,-0.4441859,-4.27255,-61.44649,-6.98289,34.57793,0,0,0,-10.5733,58.80014,20.52157,-36.10317,-110.6632,-50.33768,0.001067912,-0.1257102,0.09433498,0,0.3,0,0,0,0,
6.38224E+17,-3.439754,53.86338,55.44976,-4.315253,-55.03172,144.9584,-17.01029,-0.4441859,-4.27255,-61.44649,-6.98289,34.57793,0,0,0,-11.30796,55.4186,19.77959,-36.10317,-110.6632,-50.33768,0.001067912,-0.1257102,0.09433498,0,0.3,0,0,0,0,
6.38224E+17,-3.722474,53.3023,54.07227,-5.780157,-53.71331,144.9584,-17.01029,-0.4441859,-4.27255,-61.51973,-6.98289,34.57793,0,0,0,-12.18425,52.02496,18.92427,-36.10317,-110.6632,-50.33768,0.001067912,-0.1257102,0.09433498,0,0.3,0,0,0,0,
6.38224E+17,-3.910954,52.95163,53.18507,-6.292873,-53.0541,144.9584,-17.01029,-0.4441859,-4.27255,-61.44649,-6.98289,34.57793,0,0,0,-12.76125,49.87264,18.31292,-36.10317,-110.6632,-50.33768,0.001067912,-0.1257102,0.09433498,0,0.3,0,0,0,0,
6.38224E+17,-4.335033,51.68921,50.00984,-7.09857,-51.07648,144.9584,-17.01029,-0.4441859,-4.27255,-61.51973,-6.98289,34.57793,0,0,0,-13.97131,42.28618,15.9552,-36.10317,-110.6632,-50.33768,0.001067912,-0.1257102,0.09433498,0,0.3,0,0,0,0,
6.38224E+17,-4.806232,49.07085,44.99018,-7.538041,-46.9015,144.9584,-17.01029,-0.4441859,-4.27255,-61.51973,-6.98289,34.65118,0,0,0,-15.21872,29.78978,12.6488,-36.10317,-110.6632,-50.33768,0.001067912,-0.1257102,0.09433498,0,0.3,0,0,0,0,
6.38224E+17,-5.041832,47.38762,42.65545,-7.831022,-43.89846,144.8852,-17.01029,-0.4441859,-4.27255,-61.51973,-6.98289,34.57793,0,0,0,-15.8751,23.4179,11.59007,-36.10317,-110.6632,-50.33768,0.001067912,-0.1257102,0.09433498,0,0.3,0,0,0,0,
6.38224E+17,-6.05491,42.80549,38.68642,-8.709964,-34.59632,144.9584,-17.01029,-0.4441859,-4.27255,-61.51973,-6.98289,34.57793,0,0,0,-19.11174,9.872718,11.82485,-36.10317,-110.6632,-50.33768,0.001067912,-0.1257102,0.09433498,0,0.3,0,0,0,0,
6.38224E+17,-6.761709,41.58982,38.70977,-9.22268,-32.25247,144.8852,-17.01029,-0.4441859,-4.27255,-61.51973,-6.98289,34.57793,0,0,0,-21.56161,7.810666,13.50468,-36.10317,-110.6632,-50.33768,0.001067912,-0.1257102,0.09433498,0,0.3,0,0,0,0,
6.38224E+17,-8.552266,39.62605,39.3168,-10.98056,-29.39591,144.9584,-17.01029,-0.4441859,-4.27255,-61.51973,-6.98289,34.57793,0,0,0,-27.83893,5.230374,16.7693,-36.10317,-110.6632,-50.33768,0.001067912,-0.1257102,0.09433498,0,0.3,0,0,0,0,
6.38224E+17,-10.81402,37.52202,41.3947,-14.56958,-27.34505,144.9584,-17.01029,-0.4441859,-4.27255,-61.44649,-6.98289,34.57793,0,0,0,-36.3872,4.533517,22.14506,-36.10317,-110.6632,-50.33768,0.001067912,-0.1257102,0.09433498,0,0.3,0,0,0,0,
6.38224E+17,-12.0627,36.51675,42.93562,-17.27965,-26.68584,144.9584,-17.01029,-0.4441859,-4.27255,-61.51973,-6.98289,34.57793,0,0,0,-41.37968,5.072817,25.28388,-36.10317,-110.6632,-50.33768,0.001067912,-0.1257102,0.09433498,0,0.3,0,0,0,0,
6.38224E+17,-14.25378,35.51149,46.62449,-23.359,-25.73365,144.8852,-17.01029,-0.4441859,-4.27255,-61.44649,-6.98289,34.57793,0,0,0,-50.59139,9.22681,30.79906,-36.10317,-110.6632,-50.33768,0.001067912,-0.1257102,0.09433498,0,0.3,0,0,0,0,
6.38224E+17,-15.76161,35.44136,50.80365,-30.09755,-25.51392,144.8852,-17.01029,-0.4441859,-4.27255,-61.51973,-6.98289,34.57793,0,0,0,-57.58286,16.40106,35.6651,-36.10317,-110.6632,-50.33768,0.001067912,-0.1257102,0.09433498,0,0.3,0,0,0,0,
6.38224E+17,-16.53909,35.76865,55.70658,-37.20233,-25.8069,144.9584,-17.01029,-0.4441859,-4.27255,-61.51973,-6.98289,34.57793,0,0,0,-62.16238,26.16136,40.98209,-36.10317,-110.6632,-50.33768,0.001067912,-0.1257102,0.09433498,0,0.3,0,0,0,0,
6.38224E+17,-16.72757,36.1427,58.29812,-40.7181,-26.17312,144.8852,-17.01029,-0.4441859,-4.27255,-61.51973,-6.98289,34.65118,0,0,0,-63.6489,31.92425,43.43248,-36.10317,-110.6632,-50.33768,0.001067912,-0.1257102,0.09433498,0,0.3,0,0,0,0,
6.38224E+17,-16.70401,37.35837,63.69135,-47.60315,-27.49154,144.9584,-17.01029,-0.4441859,-4.27255,-61.51973,-6.98289,34.57793,0,0,0,-64.82399,45.16496,47.66465,-36.10317,-110.6632,-50.33768,0.001067912,-0.1257102,0.09433498,0,0.3,0,0,0,0,
6.38224E+17,-16.37417,38.17661,68.10397,-53.02329,-29.24942,144.8852,-17.01029,-0.4441859,-4.27255,-61.51973,-6.98289,34.57793,0,0,0,-64.43259,56.04263,50.93804,-36.10317,-110.6632,-50.33768,0.001067912,-0.1257102,0.09433498,0,0.3,0,0,0,0,
6.38224E+17,-15.57313,38.87795,73.12363,-58.37019,-31.44678,144.8852,-17.01029,-0.4441859,-4.27255,-61.51973,-6.98289,34.57793,0,0,0,-62.12837,68.33643,54.57232,-36.10317,-110.6632,-50.33768,0.001067912,-0.1257102,0.09433498,0,0.3,0,0,0,0,
6.38224E+17,-14.93702,39.20525,75.83192,-61.29999,-33.05817,144.8852,-17.01029,-0.4441859,-4.27255,-61.44649,-6.98289,34.57793,0,0,0,-59.9607,75.00085,56.41442,-36.10317,-110.6632,-50.33768,0.001067912,-0.1257102,0.09433498,0,0.3,0,0,0,0,
6.38224E+17,-13.28782,39.88321,80.47802,-68.03855,-37.81911,144.8852,-17.01029,-0.4441859,-4.27255,-61.44649,-6.98289,34.57793,0,0,0,-53.74627,86.79779,59.22886,-36.10317,-110.6632,-50.33768,0.001067912,-0.1257102,0.09433498,0,0.3,0,0,0,0,
6.38224E+17,-11.75642,40.46767,83.93343,-75.94903,-43.60548,144.8852,-17.01029,-0.4441859,-4.27255,-61.51973,-6.98289,34.57793,0,0,0,-47.68848,95.8037,60.7924,-36.10317,-110.6632,-50.33768,0.001067912,-0.1257102,0.09433498,0,0.3,0,0,0,0,
6.38224E+17,-10.46062,41.26253,86.40823,-86.34984,-49.24535,144.8852,-17.01029,-0.4441859,-4.27255,-61.51973,-6.98289,34.57793,0,0,0,-42.36273,102.9417,61.09877,-36.10317,-110.6632,-50.33768,0.001067912,-0.1257102,0.09433498,0,0.3,0,0,0,0,
6.38224E+17,-9.871624,41.87036,87.0853,-92.94191,-51.66244,144.9584,-17.01029,-0.4441859,-4.27255,-61.44649,-6.909645,34.65118,0,0,0,-39.85622,105.5734,60.68551,-36.10317,-110.6632,-50.33768,0.001067912,-0.1257102,0.09433498,0,0.3,0,0,0,0,
6.38224E+17,-8.858545,43.13279,88.11259,-104.1484,-55.61768,144.8852,-17.01029,-0.4441859,-4.27255,-61.51973,-6.98289,34.65118,0,0,0,-35.51024,110.1283,59.49203,-36.10317,-110.6632,-50.33768,0.001067912,-0.1257102,0.09433498,0,0.3,0,0,0,0,
6.38224E+17,-7.869027,44.39521,89.32664,-110.4475,-58.25451,144.8119,-17.01029,-0.4441859,-4.27255,-61.51973,-6.98289,34.57793,0,0,0,-31.30064,115.075,58.12072,-36.10317,-110.6632,-50.33768,0.001067912,-0.1257102,0.09433498,0,0.3,0,0,0,0,
6.38224E+17,-7.232908,45.16669,89.86362,-111.8392,-59.13345,144.0062,-17.01029,-0.4441859,-4.27255,-61.51973,-6.98289,34.57793,0,0,0,-28.62627,117.5992,57.20832,-36.10317,-110.6632,-50.33768,0.001067912,-0.1257102,0.09433498,0,0.3,0,0,0,0,
6.38224E+17,-5.560151,46.7564,90.51735,-113.0111,-60.59835,138.9523,-17.01029,-0.4441859,-4.27255,-61.51973,-6.98289,34.57793,0,0,0,-21.77162,121.6925,55.29564,-36.10317,-110.6632,-50.33768,0.001067912,-0.1257102,0.09433498,0,0.3,0,0,0,0,
6.38224E+17,-3.910954,48.18248,91.14773,-113.3041,-62.06326,135.0703,-17.01029,-0.4441859,-4.27255,-61.51973,-6.98289,34.57793,0,0,0,-15.15782,125.4031,53.36822,-36.10317,-110.6632,-50.33768,0.001067912,-0.1257102,0.09433498,0,0.3,0,0,0,0,
6.38224E+17,-2.214636,49.72544,91.7781,-112.6449,-62.79571,129.1375,-17.01029,-0.4441859,-4.27255,-61.51973,-6.98289,34.57793,0,0,0,-8.48177,129.2278,50.9761,-36.10317,-110.6632,-50.33768,0.001067912,-0.1257102,0.09433498,0,0.3,0,0,0,0,
6.38224E+17,-1.295798,50.49692,92.10497,-111.6194,-63.01544,125.4752,-17.01029,-0.4441859,-4.27255,-61.51973,-6.98289,34.57793,0,0,0,-4.931812,131.1396,49.68081,-36.10317,-110.6632,-50.33768,0.001067912,-0.1257102,0.09433498,0,0.3,0,0,0,0,
6.38224E+17,0.7303588,52.11002,92.6186,-110.2278,-63.23518,120.348,-17.01029,-0.4441859,-4.27255,-61.51973,-6.98289,34.57793,0,0,0,2.741934,134.6811,46.73981,-36.10317,-110.6632,-50.33768,0.001067912,-0.1257102,0.09433498,0,0.3,0,0,0,0,
6.38224E+17,2.897875,53.55946,92.78204,-108.9826,-63.30842,116.173,-17.01029,-0.4441859,-4.27255,-61.44649,-6.98289,34.57793,0,0,0,10.73813,137.0989,43.77955,-36.10317,-110.6632,-50.33768,0.001067912,-0.1257102,0.09433498,0,0.3,0,0,0,0,
6.38224E+17,5.183192,54.82188,92.78204,-104.2949,-63.38167,108.702,-17.01029,-0.4441859,-4.27255,-61.51973,-6.98289,34.57793,0,0,0,18.97316,138.818,40.80968,-36.10317,-110.6632,-50.33768,0.001067912,-0.1257102,0.09433498,0,0.3,0,0,0,0,
6.38224E+17,6.761709,55.42972,92.78204,-99.53397,-63.38167,101.5973,-17.01029,-0.4441859,-4.27255,-61.51973,-6.98289,34.57793,0,0,0,24.59099,139.6268,39.05512,-36.10317,-110.6632,-50.33768,0.001067912,-0.1257102,0.09433498,0,0.3,0,0,0,0,
6.38224E+17,7.680547,55.75702,92.78204,-96.60417,-63.38167,97.34904,-17.01029,-0.4441859,-4.27255,-61.44649,-6.98289,34.57793,0,0,0,27.8298,140.0573,38.01128,-36.10317,-110.6632,-50.33768,0.001067912,-0.1257102,0.09433498,0,0.3,0,0,0,0,
6.38224E+17,9.353305,56.36485,92.78204,-89.49938,-63.38167,86.94823,-17.01029,-0.4441859,-4.27255,-61.51973,-6.98289,34.57793,0,0,0,33.65108,140.8471,35.95291,-36.10317,-110.6632,-50.33768,0.001067912,-0.1257102,0.09433498,0,0.3,0,0,0,0,
6.38224E+17,10.69622,56.83241,92.6653,-81.14944,-63.45492,75.229,-17.01029,-0.4441859,-4.27255,-61.44649,-6.98289,34.57793,0,0,0,38.2637,141.1748,34.22814,-36.10317,-110.6632,-50.33768,0.001067912,-0.1257102,0.09433498,0,0.3,0,0,0,0,
6.38224E+17,11.33234,57.01944,92.59526,-76.82797,-63.38167,68.92992,-17.01029,-0.4441859,-4.27255,-61.44649,-6.909645,34.57793,0,0,0,40.44019,141.2495,33.44054,-36.10317,-110.6632,-50.33768,0.001067912,-0.1257102,0.09433498,0,0.3,0,0,0,0,
6.38224E+17,12.5339,57.25322,92.52522,-67.15961,-63.38167,55.15982,-17.01029,-0.4441859,-4.27255,-61.51973,-6.98289,34.57793,0,0,0,44.56517,141.3819,32.10913,-36.10317,-110.6632,-50.33768,0.001067912,-0.1257102,0.09433498,0,0.3,0,0,0,0,
6.38224E+17,13.14646,57.15971,91.14773,-54.78117,-63.30842,39.85158,-17.01029,-0.4441859,-4.27255,-61.51973,-6.98289,34.57793,0,0,0,46.7707,138.0598,31.89944,-36.10317,-110.6632,-50.33768,0.001067912,-0.1257102,0.09433498,0,0.3,0,0,0,0,
6.38224E+17,13.31138,56.90255,89.7002,-47.74964,-62.57597,32.23409,-17.01029,-0.4441859,-4.27255,-61.44649,-6.98289,34.57793,0,0,0,47.46825,134.3653,32.27688,-36.10317,-110.6632,-50.33768,0.001067912,-0.1257102,0.09433498,0,0.3,0,0,0,0,
6.38224E+17,14.70142,55.71026,86.36153,-30.90325,-57.88828,15.3877,-17.01029,-0.4441859,-4.27255,-61.51973,-6.98289,34.57793,0,0,0,52.83933,125.0612,33.04128,-36.10317,-110.6632,-50.33768,0.001067912,-0.1257102,0.09433498,0,0.3,0,0,0,0,
6.38224E+17,17.12809,54.54135,85.31091,-18.45157,-53.20059,-2.410879,-17.01029,-0.4441859,-4.27255,-61.44649,-6.98289,34.57793,0,0,0,61.92405,121.067,32.58666,-36.10317,-110.6632,-50.33768,0.001067912,-0.1257102,0.09433498,0,0.3,0,0,0,0,
6.38224E+17,18.70661,53.74649,84.84396,-10.83407,-50.7835,-14.05686,-17.01029,-0.4441859,-4.27255,-61.51973,-6.909645,34.57793,0,0,0,67.88669,118.9006,32.13642,-36.10317,-110.6632,-50.33768,0.001067912,-0.1257102,0.09433498,0,0.3,0,0,0,0,
6.38224E+17,21.51024,51.85285,83.51317,4.327676,-45.14362,-36.68962,-17.01029,-0.4441859,-4.27255,-61.44649,-6.909645,34.57793,0,0,0,78.78378,113.1548,31.54946,-36.10317,-110.6632,-50.33768,0.001067912,-0.1257102,0.09433498,0,0.3,0,0,0,0,
6.38224E+17,23.08876,49.91246,80.82823,13.33683,-39.50375,-49.36103,-17.01029,-0.4441859,-4.27255,-61.51973,-6.98289,34.57793,0,0,0,85.30067,104.1157,31.74337,-36.10317,-110.6632,-50.33768,0.001067912,-0.1257102,0.09433498,0,0.3,0,0,0,0,
6.38224E+17,24.05472,47.80843,77.2561,16.41313,-33.49764,-54.85442,-17.01029,-0.4441859,-4.27255,-61.44649,-6.98289,34.57793,0,0,0,89.52089,92.73331,32.20151,-36.10317,-110.6632,-50.33768,0.001067912,-0.1257102,0.09433498,0,0.3,0,0,0,0,
6.38224E+17,24.45524,45.42385,73.56724,15.75392,-26.90557,-56.31932,-17.01029,-0.4441859,-4.27255,-61.44649,-6.98289,34.57793,0,0,0,91.69522,80.61426,33.27406,-36.10317,-110.6632,-50.33768,0.001067912,-0.1257102,0.09433498,0,0.3,0,0,0,0,
6.38224E+17,24.50236,44.20818,71.83953,14.65524,-23.5363,-55.58687,-17.01029,-0.4441859,-4.27255,-61.44649,-6.98289,34.57793,0,0,0,92.19225,74.76818,33.92535,-36.10317,-110.6632,-50.33768,0.001067912,-0.1257102,0.09433498,0,0.3,0,0,0,0,
6.38224E+17,24.80864,41.9405,68.711,11.57895,-16.7245,-53.60925,-17.01029,-0.4441859,-4.27255,-61.44649,-6.98289,34.57793,0,0,0,93.7535,64.05991,34.47085,-36.10317,-110.6632,-50.33768,0.001067912,-0.1257102,0.09433498,0,0.3,0,0,0,0,
6.38224E+17,25.63324,39.83646,65.37234,8.575896,-10.13243,-52.51057,-17.01029,-0.4441859,-4.27255,-61.44649,-6.98289,34.57793,0,0,0,96.7383,53.20424,33.25819,-36.10317,-110.6632,-50.33768,0.001067912,-0.1257102,0.09433498,0,0.3,0,0,0,0,
6.38224E+17,26.52852,37.26486,62.2905,6.232051,-4.199574,-52.0711,-17.01029,-0.4441859,-4.27255,-61.51973,-6.98289,34.57793,0,0,0,100.1298,42.08722,32.22917,-36.10317,-110.6632,-50.33768,0.001067912,-0.1257102,0.09433498,0,0.3,0,0,0,0,
6.38224E+17,26.88192,35.69852,60.81963,5.206618,-1.343012,-51.99786,-17.01029,-0.4441859,-4.27255,-61.51973,-6.909645,34.57793,0,0,0,101.6078,36.14621,32.08664,-36.10317,-110.6632,-50.33768,0.001067912,-0.1257102,0.09433498,0,0.3,0,0,0,0,
6.38224E+17,27.37668,32.40219,57.5977,3.155754,4.516602,-52.73031,-17.01029,-0.4441859,-4.27255,-61.51973,-6.98289,34.57793,0,0,0,103.5449,23.34979,31.60748,-36.10317,-110.6632,-50.33768,0.001067912,-0.1257102,0.09433498,0,0.3,0,0,0,0,
6.38224E+17,27.51804,29.12924,54.42248,0.6654179,9.717009,-54.78117,-17.01029,-0.4441859,-4.27255,-61.51973,-6.98289,34.57793,0,0,0,103.9294,10.67872,31.14315,-36.10317,-110.6632,-50.33768,0.001067912,-0.1257102,0.09433498,0,0.3,0,0,0,0,
6.38224E+17,27.51804,27.63304,53.06834,-0.57975,11.76787,-56.24608,-17.01029,-0.4441859,-4.27255,-61.51973,-6.98289,34.57793,0,0,0,103.833,5.073695,30.95819,-36.10317,-110.6632,-50.33768,0.001067912,-0.1257102,0.09433498,0,0.3,0,0,0,0,
6.38224E+17,27.51804,24.66401,50.24332,-2.85035,15.28364,-59.61535,-17.01029,-0.4441859,-4.27255,-61.44649,-6.98289,34.57793,0,0,0,103.3555,-6.284699,30.0415,-36.10317,-110.6632,-50.33768,0.001067912,-0.1257102,0.09433498,0,0.3,0,0,0,0,
6.38224E+17,27.51804,22.20929,47.79185,-4.168763,17.04152,-64.88901,-17.01029,-0.4441859,-4.27255,-61.51973,-6.98289,34.57793,0,0,0,102.6765,-15.83289,28.73831,-36.10317,-110.6632,-50.33768,0.001067912,-0.1257102,0.09433498,0,0.3,0,0,0,0,
6.38224E+17,27.47091,19.77796,45.52717,-4.608234,16.82179,-73.01923,-17.01029,-0.4441859,-4.27255,-61.51973,-6.98289,34.57793,0,0,0,101.7809,-24.94871,27.41183,-36.10317,-110.6632,-50.33768,0.001067912,-0.1257102,0.09433498,0,0.3,0,0,0,0,
6.38224E+17,27.23532,18.35189,44.31311,-5.194195,17.33451,-76.75472,-17.01029,-0.4441859,-4.27255,-61.51973,-6.98289,34.57793,0,0,0,100.5556,-30.08078,27.01367,-36.10317,-110.6632,-50.33768,0.001067912,-0.1257102,0.09433498,0,0.3,0,0,0,0,
6.38224E+17,27.04683,17.27649,43.47261,-5.853402,17.92047,-78.6591,-17.01029,-0.4441859,-4.27255,-61.44649,-6.98289,34.57793,0,0,0,99.61951,-33.81985,26.76984,-36.10317,-110.6632,-50.33768,0.001067912,-0.1257102,0.09433498,0,0.3,0,0,0,0,
6.38224E+17,26.57564,15.10232,41.30132,-7.611286,19.38537,-82.32136,-17.01029,-0.4441859,-4.27255,-61.51973,-6.98289,34.57793,0,0,0,96.97289,-42.08557,25.50624,-36.10317,-110.6632,-50.33768,0.001067912,-0.1257102,0.09433498,0,0.3,0,0,0,0,
6.38224E+17,25.98664,13.25544,38.54634,-9.36917,21.07001,-85.03143,-17.01029,-0.4441859,-4.27255,-61.51973,-6.98289,34.57793,0,0,0,93.28192,-50.36743,23.01955,-36.10317,-110.6632,-50.33768,0.001067912,-0.1257102,0.09433498,0,0.3,0,0,0,0,
6.38224E+17,24.95,11.59559,35.34776,-10.90732,22.82789,-89.3529,-17.01029,-0.4441859,-4.27255,-61.44649,-6.98289,34.57793,0,0,0,87.64574,-58.61399,20.03596,-36.10317,-110.6632,-50.33768,0.001067912,-0.1257102,0.09433498,0,0.3,0,0,0,0,
6.38224E+17,24.1254,10.77735,33.66676,-11.78626,23.63359,-93.23489,-17.01029,-0.4441859,-4.27255,-61.51973,-6.98289,34.57793,0,0,0,83.75881,-62.69847,18.67269,-36.10317,-110.6632,-50.33768,0.001067912,-0.1257102,0.09433498,0,0.3,0,0,0,0,
6.38224E+17,22.21704,9.281147,30.81839,-13.69064,24.73227,-104.3682,-17.01029,-0.4441859,-4.27255,-61.44649,-6.98289,34.57793,0,0,0,75.59373,-69.66381,16.72939,-36.10317,-110.6632,-50.33768,0.001067912,-0.1257102,0.09433498,0,0.3,0,0,0,0,
6.38224E+17,19.64901,7.714807,29.51094,-16.5472,25.46472,-116.9663,-17.01029,-0.4441859,-4.27255,-61.51973,-6.98289,34.57793,0,0,0,66.52171,-74.79818,17.96024,-36.10317,-110.6632,-50.33768,0.001067912,-0.1257102,0.09433498,0,0.3,0,0,0,0,
6.38224E+17,18.30609,7.15373,29.39421,-18.23184,25.61121,-121.4343,-17.01029,-0.4441859,-4.27255,-61.44649,-6.98289,34.57793,0,0,0,62.1158,-76.22664,19.40389,-36.10317,-110.6632,-50.33768,0.001067912,-0.1257102,0.09433498,0,0.3,0,0,0,0,
6.38224E+17,15.76161,6.756301,29.16073,-21.89409,25.68446,-126.0487,-17.01029,-0.4441859,-4.27255,-61.51973,-6.98289,34.65118,0,0,0,53.62092,-77.41054,21.62804,-36.10317,-110.6632,-50.33768,0.001067912,-0.1257102,0.09433498,0,0.3,0,0,0,0,
6.38224E+17,13.28782,6.779679,29.06735,-25.33662,25.68446,-129.8575,-17.01029,-0.4441859,-4.27255,-61.51973,-6.98289,34.57793,0,0,0,45.32591,-77.46227,23.57436,-36.10317,-110.6632,-50.33768,0.001067912,-0.1257102,0.09433498,0,0.3,0,0,0,0,
6.38224E+17,12.15694,6.826435,29.09069,-27.0945,25.61121,-132.0548,-17.01029,-0.4441859,-4.27255,-61.51973,-6.98289,34.57793,0,0,0,41.5365,-77.3278,24.46536,-36.10317,-110.6632,-50.33768,0.001067912,-0.1257102,0.09433498,0,0.3,0,0,0,0,
6.38224E+17,8.481586,7.317377,29.53429,-31.85544,25.02525,-141.5767,-17.01029,-0.4441859,-4.27255,-61.51973,-6.98289,34.57793,0,0,0,29.20305,-75.68843,27.48267,-36.10317,-110.6632,-50.33768,0.001067912,-0.1257102,0.09433498,0,0.3,0,0,0,0,
6.38224E+17,7.421387,7.597916,29.95454,-33.02736,24.65902,-141.8697,-17.01029,-0.4441859,-4.27255,-61.51973,-6.98289,34.57793,0,0,0,25.67332,-74.55577,28.74756,-36.10317,-110.6632,-50.33768,0.001067912,-0.1257102,0.09433498,0,0.3,0,0,0,0,
6.38224E+17,4.853352,8.486288,32.0091,-35.88392,23.85333,-142.0162,-17.01029,-0.4441859,-4.27255,-61.44649,-6.98289,34.57793,0,0,0,17.13881,-70.04716,33.49635,-36.10317,-110.6632,-50.33768,0.001067912,-0.1257102,0.09433498,0,0.3,0,0,0,0,
6.38224E+17,2.497356,10.00587,34.34383,-39.17995,23.12087,-142.0162,-17.01029,-0.4441859,-4.27255,-61.44649,-6.98289,34.57793,0,0,0,9.000156,-63.58325,38.00601,-36.10317,-110.6632,-50.33768,0.001067912,-0.1257102,0.09433498,0,0.3,0,0,0,0,
6.38224E+17,1.460718,11.03451,35.23103,-40.79135,22.6814,-142.0894,-17.01029,-0.4441859,-4.27255,-61.44649,-6.98289,34.65118,0,0,0,5.297425,-60.05141,39.39334,-36.10317,-110.6632,-50.33768,0.001067912,-0.1257102,0.09433498,0,0.3,0,0,0,0,
6.38224E+17,-0.4240793,12.99828,36.79529,-43.86765,21.87571,-142.0894,-17.01029,-0.4441859,-4.27255,-61.51973,-6.98289,34.57793,0,0,0,-1.552868,-53.44077,41.44842,-36.10317,-110.6632,-50.33768,0.001067912,-0.1257102,0.09433498,0,0.3,0,0,0,0,
6.38224E+17,-2.191077,15.10232,38.35956,-46.65096,20.85028,-142.0894,-17.01029,-0.4441859,-4.27255,-61.51973,-6.98289,34.57793,0,0,0,-8.08613,-46.47047,42.99601,-36.10317,-110.6632,-50.33768,0.001067912,-0.1257102,0.09433498,0,0.3,0,0,0,0,
6.38224E+17,-3.816714,16.87906,39.94717,-48.84832,20.04458,-142.0894,-17.01029,-0.4441859,-4.27255,-61.51973,-6.98289,34.57793,0,0,0,-14.19343,-40.16251,44.40384,-36.10317,-110.6632,-50.33768,0.001067912,-0.1257102,0.09433498,0,0.3,0,0,0,0,
6.38224E+17,-4.617752,17.62716,40.74098,-49.94699,19.60511,-142.0894,-17.01029,-0.4441859,-4.27255,-61.51973,-6.98289,34.57793,0,0,0,-17.2382,-37.30371,45.07342,-36.10317,-110.6632,-50.33768,0.001067912,-0.1257102,0.09433498,0,0.3,0,0,0,0,
6.38224E+17,-6.24339,18.93634,42.46867,-52.0711,18.87265,-142.0894,-17.01029,-0.4441859,-4.27255,-61.51973,-6.98289,34.57793,0,0,0,-23.50888,-31.74076,46.53712,-36.10317,-110.6632,-50.33768,0.001067912,-0.1257102,0.09433498,0,0.3,0,0,0,0,
6.38224E+17,-7.492068,19.82472,44.10299,-53.46276,18.50643,-142.0894,-17.01029,-0.4441859,-4.27255,-61.51973,-6.98289,34.57793,0,0,0,-28.45763,-27.18249,48.03868,-36.10317,-110.6632,-50.33768,0.001067912,-0.1257102,0.09433498,0,0.3,0,0,0,0,
6.38224E+17,-8.222426,20.47931,44.99018,-54.41495,18.35994,-142.0162,-17.01029,-0.4441859,-4.27255,-61.44649,-6.98289,34.57793,0,0,0,-31.34898,-24.30381,48.59533,-36.10317,-110.6632,-50.33768,0.001067912,-0.1257102,0.09433498,0,0.3,0,0,0,0,
