zeyangz2/DNN_classification_different_people_hand/data_by_names/Frank/Frank_right_11.csv
Timestamp,Therapist joint angle 0,Therapist joint angle 1,Therapist joint angle 2,Therapist joint angle 3,Therapist joint angle 4,Therapist joint angle 5,Patient joint angle 0,Patient joint angle 1,Patient joint angle 2,Patient joint angle 3,Patient joint angle 4,Patient joint angle 5,Virtual joint angle 0,Virtual joint angle 1,Virtual joint angle 2,Therapist position x,Therapist position y,Therapist position z,Patient position x,Patient position y,Patient position z,Virtual position x,Virtual position y,Virtual position z,Assistive Force, Obstacle Force Magnitude, Therapist Constant Force, Patient Constant Force, Recovery Factor, Assistance Level,label
6.38224E+17,0,0,0,0,0,0,0,0,0,0,0,0,0,0,0,0,0,0,0,0,0,0,0,0,0,0.3,0,0,0,0,1
6.38224E+17,37.7195,-0.9818845,-12.00049,-122.7527,-11.96356,-55.51363,-17.05741,-0.4441859,-4.249202,-61.66622,-7.056135,34.57793,0,0,0,64.6083,-109.3709,-84.8154,-36.2161,-110.6672,-50.31561,0.001067912,-0.1257102,0.09433498,0,0.3,0,0,7.16E-08,0,
6.38224E+17,37.7195,-0.9818845,-12.00049,-122.7527,-12.03681,-55.58687,-17.05741,-0.4441859,-4.249202,-61.66622,-7.056135,34.57793,0,0,0,64.6083,-109.3709,-84.8154,-36.2161,-110.6672,-50.31561,0.001067912,-0.1257102,0.09433498,0,0.3,0,0,1.43E-07,0,
6.38224E+17,37.7195,-0.9818845,-12.00049,-122.7527,-12.03681,-55.58687,-17.05741,-0.4441859,-4.249202,-61.73947,-7.056135,34.57793,0,0,0,64.6083,-109.3709,-84.8154,-36.2161,-110.6672,-50.31561,0.001067912,-0.1257102,0.09433498,0,0.3,0,0,7.16E-08,0,
6.38224E+17,37.7195,-0.9818845,-12.00049,-122.6794,-11.96356,-55.58687,-17.05741,-0.4441859,-4.249202,-61.73947,-7.056135,34.65118,0,0,0,64.6083,-109.3709,-84.8154,-36.2161,-110.6672,-50.31561,0.001067912,-0.1257102,0.09433498,0,0.3,0,0,0,0,
6.38224E+17,37.7195,-0.9818845,-12.00049,-122.6794,-11.96356,-55.58687,-17.05741,-0.4441859,-4.249202,-61.66622,-7.056135,34.57793,0,0,0,64.6083,-109.3709,-84.8154,-36.2161,-110.6672,-50.31561,0.001067912,-0.1257102,0.09433498,0,0.3,0,0,0,0,
6.38224E+17,37.7195,-0.9818845,-12.00049,-122.6794,-11.96356,-55.51363,-17.05741,-0.4441859,-4.249202,-61.73947,-6.98289,34.57793,0,0,0,64.6083,-109.3709,-84.8154,-36.2161,-110.6672,-50.31561,0.001067912,-0.1257102,0.09433498,0,0.3,0,0,7.16E-08,0,
6.38224E+17,37.7195,-0.9818845,-12.00049,-122.7527,-11.96356,-55.51363,-17.05741,-0.4441859,-4.249202,-61.73947,-7.056135,34.57793,0,0,0,64.6083,-109.3709,-84.8154,-36.2161,-110.6672,-50.31561,0.001067912,-0.1257102,0.09433498,0,0.3,0,0,1.43E-07,0,
6.38224E+17,37.7195,-0.9818845,-12.00049,-122.7527,-12.03681,-55.58687,-17.05741,-0.4441859,-4.249202,-61.66622,-6.98289,34.57793,0,0,0,64.6083,-109.3709,-84.8154,-36.2161,-110.6672,-50.31561,0.001067912,-0.1257102,0.09433498,0,0.3,0,0,1.43E-07,0,
6.38224E+17,37.7195,-0.9818845,-12.00049,-122.7527,-12.03681,-55.58687,-17.05741,-0.4441859,-4.249202,-61.66622,-7.056135,34.57793,0,0,0,64.6083,-109.3709,-84.8154,-36.2161,-110.6672,-50.31561,0.001067912,-0.1257102,0.09433498,0,0.3,0,0,2.15E-07,0,
6.38224E+17,37.7195,-0.9818845,-12.00049,-122.7527,-12.03681,-55.51363,-17.05741,-0.4441859,-4.249202,-61.66622,-7.056135,34.57793,0,0,0,64.6083,-109.3709,-84.8154,-36.2161,-110.6672,-50.31561,0.001067912,-0.1257102,0.09433498,0,0.3,0,0,2.15E-07,0,
6.38224E+17,37.7195,-0.9818845,-12.00049,-122.7527,-11.96356,-55.51363,-17.05741,-0.4441859,-4.249202,-61.66622,-7.056135,34.57793,0,0,0,64.6083,-109.3709,-84.8154,-36.2161,-110.6672,-50.31561,0.001067912,-0.1257102,0.09433498,0,0.3,0,0,2.86E-07,0,
6.38224E+17,37.7195,-0.9818845,-12.00049,-122.6794,-11.96356,-55.51363,-17.05741,-0.4441859,-4.249202,-61.73947,-7.056135,34.57793,0,0,0,64.6083,-109.3709,-84.8154,-36.2161,-110.6672,-50.31561,0.001067912,-0.1257102,0.09433498,0,0.3,0,0,2.86E-07,0,
6.38224E+17,37.7195,-0.9818845,-12.00049,-122.6794,-11.96356,-55.51363,-17.05741,-0.4441859,-4.249202,-61.73947,-7.056135,34.57793,0,0,0,64.6083,-109.3709,-84.8154,-36.2161,-110.6672,-50.31561,0.001067912,-0.1257102,0.09433498,0,0.3,0,0,2.15E-07,0,
6.38224E+17,37.7195,-0.9818845,-12.00049,-122.7527,-11.96356,-55.51363,-17.05741,-0.4441859,-4.249202,-61.66622,-7.056135,34.57793,0,0,0,64.6083,-109.3709,-84.8154,-36.2161,-110.6672,-50.31561,0.001067912,-0.1257102,0.09433498,0,0.3,0,0,1.43E-07,0,
6.38224E+17,37.7195,-0.9818845,-12.00049,-122.7527,-12.03681,-55.58687,-17.05741,-0.4441859,-4.249202,-61.66622,-7.056135,34.57793,0,0,0,64.6083,-109.3709,-84.8154,-36.2161,-110.6672,-50.31561,0.001067912,-0.1257102,0.09433498,0,0.3,0,0,7.16E-08,0,
6.38224E+17,37.7195,-0.9818845,-12.00049,-122.7527,-12.03681,-55.51363,-17.05741,-0.4441859,-4.249202,-61.66622,-6.98289,34.57793,0,0,0,64.6083,-109.3709,-84.8154,-36.2161,-110.6672,-50.31561,0.001067912,-0.1257102,0.09433498,0,0.3,0,0,0,0,
6.38224E+17,37.7195,-0.9818845,-12.00049,-122.6794,-11.96356,-55.51363,-17.05741,-0.4441859,-4.249202,-61.73947,-7.056135,34.57793,0,0,0,64.6083,-109.3709,-84.8154,-36.2161,-110.6672,-50.31561,0.001067912,-0.1257102,0.09433498,0,0.3,0,0,0,0,
6.38224E+17,37.7195,-0.9818845,-12.00049,-122.7527,-12.03681,-55.58687,-17.05741,-0.4441859,-4.249202,-61.66622,-7.056135,34.57793,0,0,0,64.6083,-109.3709,-84.8154,-36.2161,-110.6672,-50.31561,0.001067912,-0.1257102,0.09433498,0,0.3,0,0,0,0,
6.38224E+17,37.7195,-0.9818845,-12.00049,-122.7527,-12.03681,-55.51363,-17.05741,-0.4441859,-4.249202,-61.66622,-7.056135,34.57793,0,0,0,64.6083,-109.3709,-84.8154,-36.2161,-110.6672,-50.31561,0.001067912,-0.1257102,0.09433498,0,0.3,0,0,0,0,
6.38224E+17,37.7195,-0.9818845,-12.00049,-122.7527,-11.96356,-55.58687,-17.05741,-0.4441859,-4.249202,-61.66622,-6.98289,34.57793,0,0,0,64.6083,-109.3709,-84.8154,-36.2161,-110.6672,-50.31561,0.001067912,-0.1257102,0.09433498,0,0.3,0,0,0,0,
6.38224E+17,37.7195,-0.9818845,-12.00049,-122.6794,-11.96356,-55.51363,-17.05741,-0.4441859,-4.249202,-61.66622,-7.056135,34.57793,0,0,0,64.6083,-109.3709,-84.8154,-36.2161,-110.6672,-50.31561,0.001067912,-0.1257102,0.09433498,0,0.3,0,0,0,0,
6.38224E+17,37.7195,-0.9818845,-12.00049,-122.7527,-12.03681,-55.51363,-17.05741,-0.4441859,-4.249202,-61.73947,-7.056135,34.57793,0,0,0,64.6083,-109.3709,-84.8154,-36.2161,-110.6672,-50.31561,0.001067912,-0.1257102,0.09433498,0,0.3,0,0,0,0,
6.38224E+17,37.7195,-0.9818845,-12.00049,-122.6794,-12.03681,-55.51363,-17.05741,-0.4441859,-4.249202,-61.66622,-6.98289,34.57793,0,0,0,64.6083,-109.3709,-84.8154,-36.2161,-110.6672,-50.31561,0.001067912,-0.1257102,0.09433498,0,0.3,0,0,0,0,
6.38224E+17,37.7195,-0.9818845,-12.00049,-122.7527,-11.96356,-55.51363,-17.05741,-0.4441859,-4.249202,-61.73947,-6.98289,34.57793,0,0,0,64.6083,-109.3709,-84.8154,-36.2161,-110.6672,-50.31561,0.001067912,-0.1257102,0.09433498,0,0.3,0,0,0,0,
6.38224E+17,37.7195,-0.9818845,-12.00049,-122.7527,-11.96356,-55.58687,-17.05741,-0.4441859,-4.249202,-61.73947,-6.98289,34.57793,0,0,0,64.6083,-109.3709,-84.8154,-36.2161,-110.6672,-50.31561,0.001067912,-0.1257102,0.09433498,0,0.3,0,0,0,0,
6.38224E+17,37.7195,-0.9818845,-12.00049,-122.6794,-12.03681,-55.58687,-17.05741,-0.4441859,-4.249202,-61.66622,-6.98289,34.57793,0,0,0,64.6083,-109.3709,-84.8154,-36.2161,-110.6672,-50.31561,0.001067912,-0.1257102,0.09433498,0,0.3,0,0,7.16E-08,0,
6.38224E+17,37.7195,-0.9818845,-12.00049,-122.6794,-12.03681,-55.58687,-17.05741,-0.4441859,-4.249202,-61.66622,-6.98289,34.57793,0,0,0,64.6083,-109.3709,-84.8154,-36.2161,-110.6672,-50.31561,0.001067912,-0.1257102,0.09433498,0,0.3,0,0,1.43E-07,0,
6.38224E+17,37.64882,-0.9818845,-11.97715,-122.8259,-12.03681,-58.80966,-17.05741,-0.4441859,-4.249202,-61.66622,-7.056135,34.57793,0,0,0,64.53767,-109.3822,-84.69367,-36.2161,-110.6672,-50.31561,0.001067912,-0.1257102,0.09433498,0,0.3,0,0,2.09E-05,0,
6.38224E+17,37.43678,-0.9818845,-11.86041,-123.7781,-12.03681,-74.55737,-17.05741,-0.4441859,-4.249202,-61.66622,-7.056135,34.57793,0,0,0,64.38923,-109.4383,-84.24433,-36.2161,-110.6672,-50.31561,0.001067912,-0.1257102,0.09433498,0,0.3,0,0,0.000127215,0,
6.38224E+17,37.3661,-0.9818845,-11.86041,-124.5106,-11.96356,-85.25117,-17.05741,-0.4441859,-4.249202,-61.66622,-6.98289,34.57793,0,0,0,64.28542,-109.4383,-84.16496,-36.2161,-110.6672,-50.31561,0.001067912,-0.1257102,0.09433498,0,0.3,0,0,0.000219565,0,
6.38224E+17,37.22474,-0.9818845,-11.81372,-125.1698,-11.74383,-94.69979,-17.05741,-0.4441859,-4.249202,-61.73947,-7.056135,34.57793,0,0,0,64.14188,-109.4606,-83.92192,-36.2161,-110.6672,-50.31561,0.001067912,-0.1257102,0.09433498,0,0.3,0,0,0.00045488,0,
6.38224E+17,36.87134,-0.9818845,-12.53748,-124.9501,-11.81707,-95.79847,-17.05741,-0.4441859,-4.249202,-61.66622,-6.98289,34.57793,0,0,0,62.63192,-109.1053,-84.84515,-36.2161,-110.6672,-50.31561,0.001067912,-0.1257102,0.09433498,0,0.3,0,0,0.000940185,0,
6.38224E+17,36.47082,-0.9818845,-12.63087,-124.5838,-12.03681,-93.7476,-17.05741,-0.4441859,-4.249202,-61.73947,-6.98289,34.57793,0,0,0,61.92057,-109.0579,-84.57996,-36.2161,-110.6672,-50.31561,0.001067912,-0.1257102,0.09433498,0,0.3,0,0,0.001361131,0,
6.38224E+17,36.04674,-0.9818845,-11.67363,-124.7303,-12.03681,-92.42919,-17.05741,-0.4441859,-4.249202,-61.66622,-6.98289,34.57793,0,0,0,62.58044,-109.5269,-82.36301,-36.2161,-110.6672,-50.31561,0.001067912,-0.1257102,0.09433498,0,0.3,0,0,0.002220634,0,
6.38224E+17,35.99962,-0.9818845,-10.29614,-126.8544,-11.81707,-105.9063,-17.05741,-0.4441859,-4.249202,-61.73947,-6.98289,34.57793,0,0,0,64.35953,-110.1378,-79.76547,-36.2161,-110.6672,-50.31561,0.001067912,-0.1257102,0.09433498,0,0.3,0,0,0.002775023,0,
6.38224E+17,35.85826,-0.9818845,-9.315559,-129.125,-11.23111,-119.2369,-17.05741,-0.4441859,-4.249202,-61.73947,-6.98289,34.57793,0,0,0,65.45811,-110.5265,-77.78434,-36.2161,-110.6672,-50.31561,0.001067912,-0.1257102,0.09433498,0,0.3,0,0,0.00308522,0,
6.38224E+17,35.33994,-0.9818845,-9.105433,-130.004,-10.79164,-115.8676,-17.05741,-0.4441859,-4.249202,-61.66622,-6.98289,34.57793,0,0,0,64.91538,-110.6048,-76.80211,-36.2161,-110.6672,-50.31561,0.001067912,-0.1257102,0.09433498,0,0.3,0,0,0.003338432,0,
6.38224E+17,34.58602,-0.9818845,-8.895308,-130.2969,-10.49866,-108.7629,-17.05741,-0.4441859,-4.249202,-61.66622,-7.056135,34.57793,0,0,0,63.97936,-110.6813,-75.55821,-36.2161,-110.6672,-50.31561,0.001067912,-0.1257102,0.09433498,0,0.3,0,0,0.004059481,0,
6.38224E+17,33.71431,-0.9818845,-7.797987,-130.3702,-10.27892,-100.7059,-17.05741,-0.4441859,-4.249202,-61.66622,-6.98289,34.57793,0,0,0,63.96276,-111.052,-72.49374,-36.2161,-110.6672,-50.31561,0.001067912,-0.1257102,0.09433498,0,0.3,0,0,0.005009545,0,
6.38224E+17,33.33735,-0.9818845,-7.494472,-130.5167,-10.20568,-99.09451,-17.05741,-0.4441859,-4.249202,-61.73947,-6.98289,34.57793,0,0,0,63.71548,-111.146,-71.49009,-36.2161,-110.6672,-50.31561,0.001067912,-0.1257102,0.09433498,0,0.3,0,0,0.005545822,0,
6.38224E+17,31.73527,-0.9585064,-5.860164,-132.6408,-9.985942,-97.6296,-17.05741,-0.4441859,-4.249202,-61.73947,-6.98289,34.57793,0,0,0,62.97014,-111.5338,-66.53288,-36.2161,-110.6672,-50.31561,0.001067912,-0.1257102,0.09433498,0,0.3,0,0,0.007481744,0,
6.38224E+17,30.43947,-0.9585064,-4.716148,-135.7171,-9.839451,-97.55635,-17.05741,-0.4441859,-4.249202,-61.73947,-6.98289,34.57793,0,0,0,61.99472,-111.7792,-62.84914,-36.2161,-110.6672,-50.31561,0.001067912,-0.1257102,0.09433498,0,0.3,0,0,0.008362795,0,
6.38224E+17,27.21176,-0.9585064,-2.451463,-143.7008,-8.740773,-97.48311,-17.05741,-0.4441859,-4.249202,-61.66622,-6.98289,34.57793,0,0,0,58.36158,-112.1087,-54.84793,-36.2161,-110.6672,-50.31561,0.001067912,-0.1257102,0.09433498,0,0.3,0,0,0.01085669,0,
6.38224E+17,24.5966,-0.9818845,0.2101254,-148.4617,-7.568851,-97.48311,-17.05741,-0.4441859,-4.249202,-61.66622,-6.98289,34.57793,0,0,0,55.69925,-112.2842,-46.67321,-36.2161,-110.6672,-50.31561,0.001067912,-0.1257102,0.09433498,0,0.3,0,0,0.01406561,0,
6.38224E+17,23.84268,-0.9818845,1.79774,-150.3661,-6.909645,-97.40987,-17.05741,-0.4441859,-4.249202,-61.66622,-6.98289,34.57793,0,0,0,55.58675,-112.2195,-42.5718,-36.2161,-110.6672,-50.31561,0.001067912,-0.1257102,0.09433498,0,0.3,0,0,0.01564137,0,
6.38224E+17,22.68824,-0.9117499,4.249202,-153.6622,-5.298251,-94.5533,-17.05741,-0.4441859,-4.249202,-61.66622,-7.056135,34.57793,0,0,0,55.23989,-111.7554,-36.21863,-36.2161,-110.6672,-50.31561,0.001067912,-0.1257102,0.09433498,0,0.3,0,0,0.01860532,0,
6.38224E+17,21.58092,-0.7481025,7.00418,-156.8849,-3.613612,-90.89104,-17.05741,-0.4441859,-4.249202,-61.66622,-6.98289,34.57793,0,0,0,55.02496,-110.7459,-29.23751,-36.2161,-110.6672,-50.31561,0.001067912,-0.1257102,0.09433498,0,0.3,0,0,0.02120179,0,
6.38224E+17,20.77989,-0.7013461,8.451711,-157.3244,-2.807915,-89.79237,-17.05741,-0.4441859,-4.249202,-61.66622,-7.056135,34.57793,0,0,0,54.25959,-110.1841,-25.35942,-36.2161,-110.6672,-50.31561,0.001067912,-0.1257102,0.09433498,0,0.3,0,0,0.02239834,0,
6.38224E+17,19.55477,-0.6545897,11.30008,-157.5441,-1.489502,-88.84018,-17.05741,-0.4441859,-4.249202,-61.66622,-7.056135,34.57793,0,0,0,53.37614,-108.9384,-18.07707,-36.2161,-110.6672,-50.31561,0.001067912,-0.1257102,0.09433498,0,0.3,0,0,0.02448718,0,
6.38224E+17,19.03645,-0.5143204,14.03171,-157.5441,0.04864649,-88.47395,-17.05741,-0.4441859,-4.249202,-61.73947,-7.056135,34.57793,0,0,0,54.03864,-107.2181,-11.73413,-36.2161,-110.6672,-50.31561,0.001067912,-0.1257102,0.09433498,0,0.3,0,0,0.02591975,0,
6.38224E+17,19.03645,-0.2571602,16.6466,-157.5441,1.367059,-88.40071,-17.05741,-0.4441859,-4.249202,-61.66622,-7.056135,34.57793,0,0,0,55.95411,-105.0098,-6.182677,-36.2161,-110.6672,-50.31561,0.001067912,-0.1257102,0.09433498,0,0.3,0,0,0.02647049,0,
6.38224E+17,19.03645,-0.07013461,18.23421,-157.4709,1.806531,-88.40071,-17.05741,-0.4441859,-4.249202,-61.73947,-6.98289,34.57793,0,0,0,57.10427,-103.4671,-2.849249,-36.2161,-110.6672,-50.31561,0.001067912,-0.1257102,0.09433498,0,0.3,0,0,0.02634449,0,
6.38224E+17,19.03645,0.0233782,21.783,-157.5441,2.758718,-88.18098,-17.05741,-0.4441859,-4.249202,-61.66622,-7.056135,34.57793,0,0,0,59.63526,-100.4239,4.486128,-36.2161,-110.6672,-50.31561,0.001067912,-0.1257102,0.09433498,0,0.3,0,0,0.02519663,0,
6.38224E+17,19.27205,0.2104038,26.14894,-153.5157,4.663092,-87.7415,-17.05741,-0.4441859,-4.249202,-61.73947,-7.056135,34.57793,0,0,0,63.40905,-95.86214,13.0014,-36.2161,-110.6672,-50.31561,0.001067912,-0.1257102,0.09433498,0,0.3,0,0,0.02264289,0,
6.38224E+17,19.43697,0.3039166,28.85722,-149.0477,5.542034,-87.37527,-17.05741,-0.4441859,-4.249202,-61.73947,-7.056135,34.57793,0,0,0,65.79077,-92.73395,18.08898,-36.2161,-110.6672,-50.31561,0.001067912,-0.1257102,0.09433498,0,0.3,0,0,0.01909191,0,
6.38224E+17,19.55477,0.2805384,31.05186,-146.4109,6.05475,-86.34984,-17.05741,-0.4441859,-4.249202,-61.66622,-6.98289,34.57793,0,0,0,67.6552,-90.23812,22.12358,-36.2161,-110.6672,-50.31561,0.001067912,-0.1257102,0.09433498,0,0.3,0,0,0.01677184,0,
6.38224E+17,20.14377,0.2104038,35.18433,-142.0162,6.787202,-81.7354,-17.05741,-0.4441859,-4.249202,-61.66622,-6.98289,34.57793,0,0,0,72.3834,-85.1476,28.97974,-36.2161,-110.6672,-50.31561,0.001067912,-0.1257102,0.09433498,0,0.3,0,0,0.0110489,0,
6.38224E+17,20.56785,0.2104038,39.64366,-136.7425,7.373164,-75.65604,-17.05741,-0.4441859,-4.249202,-61.66622,-7.056135,34.57793,0,0,0,76.73726,-78.84345,36.15457,-36.2161,-110.6672,-50.31561,0.001067912,-0.1257102,0.09433498,0,0.3,0,0,0.003886377,0,
6.38224E+17,20.56785,0.2104038,44.24307,-130.3702,8.984557,-69.72319,-17.05741,-0.4441859,-4.249202,-61.73947,-6.98289,34.57793,0,0,0,79.53375,-71.69043,43.60722,-36.2161,-110.6672,-50.31561,0.001067912,-0.1257102,0.09433498,0,0.3,0,0,0,0,
6.38224E+17,20.59141,0.2104038,46.22758,-127.6601,9.570518,-67.3061,-17.05741,-0.4441859,-4.249202,-61.66622,-6.98289,34.65118,0,0,0,80.76476,-68.41125,46.61907,-36.2161,-110.6672,-50.31561,0.001067912,-0.1257102,0.09433498,0,0.3,0,0,0,0,
6.38224E+17,20.68565,0.350673,49.4962,-122.4597,9.936745,-61.66622,-17.05741,-0.4441859,-4.249202,-61.73947,-7.056135,34.57793,0,0,0,82.92034,-62.44447,51.25869,-36.2161,-110.6672,-50.31561,0.001067912,-0.1257102,0.09433498,0,0.3,0,0,0,0,
6.38224E+17,20.73277,0.7013461,51.48072,-114.9887,10.22972,-54.92767,-17.05741,-0.4441859,-4.249202,-61.73947,-7.056135,34.57793,0,0,0,84.13851,-58.06517,53.93159,-36.2161,-110.6672,-50.31561,0.001067912,-0.1257102,0.09433498,0,0.3,0,0,0,0,
6.38224E+17,20.73277,1.028641,51.87762,-110.3743,10.08323,-50.53296,-17.05741,-0.4441859,-4.249202,-61.66622,-7.056135,34.57793,0,0,0,84.33721,-56.57878,54.45652,-36.2161,-110.6672,-50.31561,0.001067912,-0.1257102,0.09433498,0,0.3,0,0,0,0,
6.38224E+17,20.94481,1.800122,52.39126,-99.60722,8.911312,-39.83916,-17.05741,-0.4441859,-4.249202,-61.66622,-6.98289,34.57793,0,0,0,85.40765,-53.84006,54.78679,-36.2161,-110.6672,-50.31561,0.001067912,-0.1257102,0.09433498,0,0.3,0,0,0,0,
6.38224E+17,21.43956,2.174173,52.48465,-87.37527,7.88588,-26.94801,-17.05741,-0.4441859,-4.249202,-61.66622,-7.056135,34.57793,0,0,0,87.36867,-52.79772,54.1362,-36.2161,-110.6672,-50.31561,0.001067912,-0.1257102,0.09433498,0,0.3,0,0,0,0,
6.38224E+17,21.74584,2.244308,52.508,-81.22268,7.446409,-21.96734,-17.05741,-0.4441859,-4.249202,-61.73947,-7.056135,34.57793,0,0,0,88.56666,-52.59151,53.69087,-36.2161,-110.6672,-50.31561,0.001067912,-0.1257102,0.09433498,0,0.3,0,0,0,0,
6.38224E+17,23.20656,2.618359,52.9049,-59.46887,5.615279,-10.83407,-17.05741,-0.4441859,-4.249202,-61.66622,-7.056135,34.57793,0,0,0,94.40404,-50.98684,51.84148,-36.2161,-110.6672,-50.31561,0.001067912,-0.1257102,0.09433498,0,0.3,0,0,0,0,
6.38224E+17,23.58352,2.782006,53.23177,-53.82899,4.956073,-8.563474,-17.05741,-0.4441859,-4.249202,-61.66622,-7.056135,34.57793,0,0,0,96.02637,-49.9983,51.6181,-36.2161,-110.6672,-50.31561,0.001067912,-0.1257102,0.09433498,0,0.3,0,0,0,0,
6.38224E+17,23.79556,3.483352,54.65595,-43.57467,2.905208,-2.99684,-17.05741,-0.4441859,-4.249202,-61.66622,-6.98289,34.57793,0,0,0,97.5909,-45.68882,52.96463,-36.2161,-110.6672,-50.31561,0.001067912,-0.1257102,0.09433498,0,0.3,0,0,0,0,
6.38224E+17,23.51284,4.628884,55.72992,-37.20233,0.4148723,3.082508,-17.05741,-0.4441859,-4.249202,-61.66622,-6.98289,34.57793,0,0,0,96.99165,-40.97712,54.57887,-36.2161,-110.6672,-50.31561,0.001067912,-0.1257102,0.09433498,0,0.3,0,0,0,0,
6.38224E+17,23.37148,5.72766,56.71051,-33.39359,-2.221954,6.451786,-17.05741,-0.4441859,-4.249202,-61.73947,-7.056135,34.57793,0,0,0,96.85314,-36.53341,55.7704,-36.2161,-110.6672,-50.31561,0.001067912,-0.1257102,0.09433498,0,0.3,0,0,0,0,
6.38224E+17,23.34792,6.171845,57.15411,-32.00193,-3.467122,7.257483,-17.05741,-0.4441859,-4.249202,-61.66622,-7.056135,34.57793,0,0,0,96.94176,-34.63998,56.22902,-36.2161,-110.6672,-50.31561,0.001067912,-0.1257102,0.09433498,0,0.3,0,0,0,0,
6.38224E+17,23.11232,6.686166,57.66774,-29.43835,-5.371496,7.91669,-17.05741,-0.4441859,-4.249202,-61.66622,-6.98289,34.57793,0,0,0,96.21761,-32.44326,57.09467,-36.2161,-110.6672,-50.31561,0.001067912,-0.1257102,0.09433498,0,0.3,0,0,0,0,
6.38224E+17,22.52332,6.966705,57.97126,-27.02126,-6.396928,8.649141,-17.05741,-0.4441859,-4.249202,-61.66622,-6.98289,34.57793,0,0,0,94.00938,-31.19709,58.34768,-36.2161,-110.6672,-50.31561,0.001067912,-0.1257102,0.09433498,0,0.3,0,0,0,0,
6.38224E+17,22.07568,7.247243,58.22808,-25.84933,-6.543418,9.088613,-17.05741,-0.4441859,-4.249202,-61.66622,-7.056135,34.57793,0,0,0,92.32375,-30.04173,59.29308,-36.2161,-110.6672,-50.31561,0.001067912,-0.1257102,0.09433498,0,0.3,0,0,0,0,
6.38224E+17,20.45005,7.901833,58.85846,-24.0182,-6.543418,11.94517,-17.05741,-0.4441859,-4.249202,-61.66622,-6.98289,34.57793,0,0,0,86.02594,-27.28004,62.3498,-36.2161,-110.6672,-50.31561,0.001067912,-0.1257102,0.09433498,0,0.3,0,0,0,0,
6.38224E+17,18.63593,8.299262,59.09193,-23.43224,-6.323683,17.21883,-17.05741,-0.4441859,-4.249202,-61.73947,-7.056135,34.57793,0,0,0,78.72739,-25.89864,65.09937,-36.2161,-110.6672,-50.31561,0.001067912,-0.1257102,0.09433498,0,0.3,0,0,0,0,
6.38224E+17,17.57573,8.439531,59.13863,-23.50549,-6.030703,21.32055,-17.05741,-0.4441859,-4.249202,-61.66622,-6.98289,34.57793,0,0,0,74.39693,-25.48239,66.52396,-36.2161,-110.6672,-50.31561,0.001067912,-0.1257102,0.09433498,0,0.3,0,0,0,0,
6.38224E+17,15.62025,8.603179,59.27871,-23.79847,-4.932025,32.16084,-17.05741,-0.4441859,-4.249202,-61.73947,-7.056135,34.57793,0,0,0,66.36877,-24.82565,69.0322,-36.2161,-110.6672,-50.31561,0.001067912,-0.1257102,0.09433498,0,0.3,0,0,0,0,
6.38224E+17,13.75902,8.673313,59.32541,-23.72522,-3.320631,47.68882,-17.05741,-0.4441859,-4.249202,-61.66622,-6.98289,34.57793,0,0,0,58.63118,-24.57082,71.09264,-36.2161,-110.6672,-50.31561,0.001067912,-0.1257102,0.09433498,0,0.3,0,0,0,0,
6.38224E+17,11.92134,8.649935,59.20866,-22.99277,-1.782483,60.06725,-17.05741,-0.4441859,-4.249202,-61.66622,-6.98289,34.57793,0,0,0,50.89559,-24.85815,72.72184,-36.2161,-110.6672,-50.31561,0.001067912,-0.1257102,0.09433498,0,0.3,0,0,0,0,
6.38224E+17,10.10722,8.743448,59.25536,-22.33356,-0.6838052,69.44263,-17.05741,-0.4441859,-4.249202,-61.73947,-7.056135,34.57793,0,0,0,43.24244,-24.54963,74.23455,-36.2161,-110.6672,-50.31561,0.001067912,-0.1257102,0.09433498,0,0.3,0,0,0,0,
6.38224E+17,9.070585,8.766827,59.25536,-22.11383,-0.3175794,73.47112,-17.05741,-0.4441859,-4.249202,-61.66622,-6.98289,34.57793,0,0,0,38.84528,-24.49585,74.969,-36.2161,-110.6672,-50.31561,0.001067912,-0.1257102,0.09433498,0,0.3,0,0,0,0,
6.38224E+17,6.879509,8.743448,59.18532,-22.18707,0.1951368,79.55046,-17.05741,-0.4441859,-4.249202,-61.73947,-6.98289,34.57793,0,0,0,29.50526,-24.68968,76.20164,-36.2161,-110.6672,-50.31561,0.001067912,-0.1257102,0.09433498,0,0.3,0,0,0,0,
6.38224E+17,4.264353,8.836961,59.27871,-23.06602,0.268382,83.43246,-17.05741,-0.4441859,-4.249202,-61.66622,-7.056135,34.57793,0,0,0,18.32211,-24.28784,77.37091,-36.2161,-110.6672,-50.31561,0.001067912,-0.1257102,0.09433498,0,0.3,0,0,0,0,
6.38224E+17,1.272238,8.766827,59.20866,-24.67741,-0.171089,85.55657,-17.05741,-0.4441859,-4.249202,-61.66622,-6.98289,34.57793,0,0,0,5.46957,-24.58923,77.93394,-36.2161,-110.6672,-50.31561,0.001067912,-0.1257102,0.09433498,0,0.3,0,0,0,0,
6.38224E+17,-0.5183191,8.72007,59.18532,-25.77609,-0.4640697,85.77631,-17.05741,-0.4441859,-4.249202,-61.66622,-6.98289,34.65118,0,0,0,-2.228394,-24.74346,77.97331,-36.2161,-110.6672,-50.31561,0.001067912,-0.1257102,0.09433498,0,0.3,0,0,0,0,
6.38224E+17,-3.722474,8.72007,59.23202,-28.63265,-1.196521,83.6522,-17.05741,-0.4441859,-4.249202,-61.66622,-6.98289,34.57793,0,0,0,-15.99649,-24.6501,77.5192,-36.2161,-110.6672,-50.31561,0.001067912,-0.1257102,0.09433498,0,0.3,0,0,0,0,
6.38224E+17,-6.05491,8.72007,59.23202,-31.56245,-2.148709,80.35616,-17.05741,-0.4441859,-4.249202,-61.73947,-6.98289,34.57793,0,0,0,-25.98949,-24.6501,76.66448,-36.2161,-110.6672,-50.31561,0.001067912,-0.1257102,0.09433498,0,0.3,0,0,0,0,
6.38224E+17,-7.020868,8.72007,59.23202,-32.73438,-2.661425,79.03775,-17.05741,-0.4441859,-4.249202,-61.73947,-6.98289,34.57793,0,0,0,-30.11634,-24.6501,76.19152,-36.2161,-110.6672,-50.31561,0.001067912,-0.1257102,0.09433498,0,0.3,0,0,0,0,
6.38224E+17,-8.458026,8.743448,59.67561,-33.97955,-3.540367,77.4996,-17.05741,-0.4441859,-4.249202,-61.66622,-6.98289,34.57793,0,0,0,-36.31605,-23.70718,75.8701,-36.2161,-110.6672,-50.31561,0.001067912,-0.1257102,0.09433498,0,0.3,0,0,0,0,
6.38224E+17,-9.659584,8.883718,60.32933,-34.19928,-4.419309,77.64609,-17.05741,-0.4441859,-4.249202,-61.66622,-6.98289,34.57793,0,0,0,-41.54851,-22.06691,75.75545,-36.2161,-110.6672,-50.31561,0.001067912,-0.1257102,0.09433498,0,0.3,0,0,0,0,
6.38224E+17,-10.71978,9.514929,61.23988,-34.34578,-5.078516,79.11099,-17.05741,-0.4441859,-4.249202,-61.66622,-6.98289,34.57793,0,0,0,-46.20676,-18.76714,75.73043,-36.2161,-110.6672,-50.31561,0.001067912,-0.1257102,0.09433498,0,0.3,0,0,0,0,
6.38224E+17,-11.1203,10.45006,61.77686,-34.56551,-5.444741,80.64914,-17.05741,-0.4441859,-4.249202,-61.73947,-7.056135,34.57793,0,0,0,-47.95406,-15.52529,75.61627,-36.2161,-110.6672,-50.31561,0.001067912,-0.1257102,0.09433498,0,0.3,0,0,0,0,
6.38224E+17,-11.30878,11.17478,62.05703,-34.56551,-5.737722,81.82106,-17.05741,-0.4441859,-4.249202,-61.73947,-7.056135,34.57793,0,0,0,-48.75449,-13.29323,75.44792,-36.2161,-110.6672,-50.31561,0.001067912,-0.1257102,0.09433498,0,0.3,0,0,0,0,
6.38224E+17,-11.75642,12.83463,62.87419,-34.41902,-6.177193,83.6522,-17.05741,-0.4441859,-4.249202,-61.66622,-7.056135,34.57793,0,0,0,-50.67315,-7.8283,75.1337,-36.2161,-110.6672,-50.31561,0.001067912,-0.1257102,0.09433498,0,0.3,0,0,0,0,
6.38224E+17,-12.15694,14.93867,64.08825,-34.93173,-7.056135,84.53114,-17.05741,-0.4441859,-4.249202,-61.73947,-6.98289,34.57793,0,0,0,-52.39213,-0.5465012,74.85796,-36.2161,-110.6672,-50.31561,0.001067912,-0.1257102,0.09433498,0,0.3,0,0,0,0,
6.38224E+17,-12.1805,16.0842,64.69527,-35.3712,-7.715342,84.67763,-17.05741,-0.4441859,-4.249202,-61.73947,-6.98289,34.57793,0,0,0,-52.47054,3.296468,74.73634,-36.2161,-110.6672,-50.31561,0.001067912,-0.1257102,0.09433498,0,0.3,0,0,0,0,
6.38224E+17,-11.99202,18.53891,66.1895,-36.76286,-9.180244,85.19034,-17.05741,-0.4441859,-4.249202,-61.66622,-7.056135,34.57793,0,0,0,-51.6177,11.91333,74.65859,-36.2161,-110.6672,-50.31561,0.001067912,-0.1257102,0.09433498,0,0.3,0,0,0,0,
6.38224E+17,-11.52082,20.5962,67.87051,-38.37426,-10.64515,85.41007,-17.05741,-0.4441859,-4.249202,-61.66622,-6.98289,34.57793,0,0,0,-49.60214,20.02669,74.99963,-36.2161,-110.6672,-50.31561,0.001067912,-0.1257102,0.09433498,0,0.3,0,0,0,0,
6.38224E+17,-11.14386,21.62484,68.7577,-39.2532,-11.52409,85.48332,-17.05741,-0.4441859,-4.249202,-61.73947,-7.056135,34.57793,0,0,0,-47.98085,24.17874,75.22331,-36.2161,-110.6672,-50.31561,0.001067912,-0.1257102,0.09433498,0,0.3,0,0,0,0,
6.38224E+17,-10.13078,24.05617,69.92506,-41.08433,-13.42846,86.28902,-17.05741,-0.4441859,-4.249202,-61.73947,-7.056135,34.57793,0,0,0,-43.44909,31.93549,74.81503,-36.2161,-110.6672,-50.31561,0.001067912,-0.1257102,0.09433498,0,0.3,0,0,0,0,
6.38224E+17,-9.164824,26.2771,70.25192,-42.25625,-14.60039,87.3877,-17.05741,-0.4441859,-4.249202,-61.66622,-6.98289,34.57793,0,0,0,-39.03474,37.32877,73.5988,-36.2161,-110.6672,-50.31561,0.001067912,-0.1257102,0.09433498,0,0.3,0,0,0,0,
6.38224E+17,-8.434465,27.74993,70.53209,-42.91546,-15.47933,87.82717,-17.05741,-0.4441859,-4.249202,-61.66622,-7.056135,34.57793,0,0,0,-35.75122,40.99681,72.75312,-36.2161,-110.6672,-50.31561,0.001067912,-0.1257102,0.09433498,0,0.3,0,0,0,0,
6.38224E+17,-6.761709,30.39166,70.78891,-44.45361,-17.5302,88.41313,-17.05741,-0.4441859,-4.249202,-61.73947,-6.98289,34.57793,0,0,0,-28.36955,46.93412,70.92416,-36.2161,-110.6672,-50.31561,0.001067912,-0.1257102,0.09433498,0,0.3,0,0,0,0,
6.38224E+17,-4.711992,32.77624,70.78891,-45.77202,-19.58106,88.55962,-17.05741,-0.4441859,-4.249202,-61.66622,-7.056135,34.57793,0,0,0,-19.55459,51.66156,68.88906,-36.2161,-110.6672,-50.31561,0.001067912,-0.1257102,0.09433498,0,0.3,0,0,0,0,
6.38224E+17,-1.979037,34.99717,70.76556,-46.21149,-21.70517,88.33988,-17.05741,-0.4441859,-4.249202,-61.66622,-6.98289,34.57793,0,0,0,-8.120422,55.90097,66.65366,-36.2161,-110.6672,-50.31561,0.001067912,-0.1257102,0.09433498,0,0.3,0,0,0,0,
6.38224E+17,1.013078,36.91418,70.43871,-44.89308,-23.97577,86.80173,-17.05741,-0.4441859,-4.249202,-61.73947,-6.98289,34.57793,0,0,0,4.10671,58.79483,63.88537,-36.2161,-110.6672,-50.31561,0.001067912,-0.1257102,0.09433498,0,0.3,0,0,0,0,
6.38224E+17,2.520916,37.66228,70.18188,-43.64791,-25.22094,85.33684,-17.05741,-0.4441859,-4.249202,-61.66622,-6.98289,34.57793,0,0,0,10.16101,59.61728,62.4419,-36.2161,-110.6672,-50.31561,0.001067912,-0.1257102,0.09433498,0,0.3,0,0,0,0,
6.38224E+17,5.583711,38.90133,69.64489,-40.27863,-27.41829,81.67458,-17.05741,-0.4441859,-4.249202,-61.66622,-6.98289,34.57793,0,0,0,22.2622,60.70715,59.36408,-36.2161,-110.6672,-50.31561,0.001067912,-0.1257102,0.09433498,0,0.3,0,0,0,0,
6.38224E+17,9.023465,39.85984,68.64096,-35.66418,-29.61565,76.62066,-17.05741,-0.4441859,-4.249202,-61.66622,-6.98289,34.57793,0,0,0,35.53225,60.24803,55.39869,-36.2161,-110.6672,-50.31561,0.001067912,-0.1257102,0.09433498,0,0.3,0,0,0,0,
6.38224E+17,12.22762,40.21051,67.66038,-30.68352,-31.1538,71.05402,-17.05741,-0.4441859,-4.249202,-61.66622,-7.056135,34.57793,0,0,0,47.69181,58.75467,51.71969,-36.2161,-110.6672,-50.31561,0.001067912,-0.1257102,0.09433498,0,0.3,0,0,0,0,
6.38224E+17,13.87682,40.21051,67.07669,-28.04669,-31.66651,68.19746,-17.05741,-0.4441859,-4.249202,-61.66622,-6.98289,34.57793,0,0,0,53.88028,57.50082,49.74849,-36.2161,-110.6672,-50.31561,0.001067912,-0.1257102,0.09433498,0,0.3,0,0,0,0,
6.38224E+17,17.57573,40.18713,65.3957,-21.30813,-32.6187,60.72646,-17.05741,-0.4441859,-4.249202,-61.66622,-6.98289,34.57793,0,0,0,67.37286,53.87874,44.34873,-36.2161,-110.6672,-50.31561,0.001067912,-0.1257102,0.09433498,0,0.3,0,0,0,0,
6.38224E+17,20.40293,40.16375,64.29837,-16.32746,-32.98492,54.86684,-17.05741,-0.4441859,-4.249202,-61.73947,-7.056135,34.57793,0,0,0,77.41579,51.52547,39.78226,-36.2161,-110.6672,-50.31561,0.001067912,-0.1257102,0.09433498,0,0.3,0,0,0,0,
6.38224E+17,21.98145,40.04686,63.76138,-13.4709,-33.2779,51.64405,-17.05741,-0.4441859,-4.249202,-61.73947,-7.056135,34.57793,0,0,0,82.98055,50.19381,37.22574,-36.2161,-110.6672,-50.31561,0.001067912,-0.1257102,0.09433498,0,0.3,0,0,0,0,
6.38224E+17,25.13848,39.34552,62.08038,-7.391551,-33.64413,45.27173,-17.05741,-0.4441859,-4.249202,-61.73947,-6.98289,34.57793,0,0,0,93.86259,45.45449,31.67537,-36.2161,-110.6672,-50.31561,0.001067912,-0.1257102,0.09433498,0,0.3,0,0,0,0,
6.38224E+17,28.13059,38.08309,59.65226,-1.898163,-32.98492,38.82615,-17.05741,-0.4441859,-4.249202,-61.73947,-6.98289,34.57793,0,0,0,103.745,38.2261,25.69762,-36.2161,-110.6672,-50.31561,0.001067912,-0.1257102,0.09433498,0,0.3,0,0,0,0,
6.38224E+17,29.56775,37.31161,58.4849,0.299192,-32.17923,35.67661,-17.05741,-0.4441859,-4.249202,-61.73947,-7.056135,34.57793,0,0,0,108.4318,34.4749,22.77493,-36.2161,-110.6672,-50.31561,0.001067912,-0.1257102,0.09433498,0,0.3,0,0,0,0,
6.38224E+17,32.48919,35.58163,56.17352,4.254431,-29.83538,30.10997,-17.05741,-0.4441859,-4.249202,-61.66622,-6.98289,34.57793,0,0,0,117.757,26.7081,16.5684,-36.2161,-110.6672,-50.31561,0.001067912,-0.1257102,0.09433498,0,0.3,0,0,0,0,
6.38224E+17,35.52842,33.73475,54.30574,7.770199,-26.61259,25.1293,-17.05741,-0.4441859,-4.249202,-61.66622,-7.056135,34.57793,0,0,0,127.3759,19.6014,10.03715,-36.2161,-110.6672,-50.31561,0.001067912,-0.1257102,0.09433498,0,0.3,0,0,0,0,
6.38224E+17,36.96558,32.84638,53.58197,9.528083,-25.14769,22.56572,-17.05741,-0.4441859,-4.249202,-61.66622,-7.056135,34.57793,0,0,0,131.8961,16.51132,6.900975,-36.2161,-110.6672,-50.31561,0.001067912,-0.1257102,0.09433498,0,0.3,0,0,0,0,
6.38224E+17,39.51006,31.16315,52.29787,12.75087,-22.14464,17.87803,-17.05741,-0.4441859,-4.249202,-61.66622,-7.056135,34.57793,0,0,0,139.7213,10.80447,1.084944,-36.2161,-110.6672,-50.31561,0.001067912,-0.1257102,0.09433498,0,0.3,0,0,0,0,
6.38224E+17,41.98385,29.52667,52.60139,15.53419,-19.21483,12.53114,-17.05741,-0.4441859,-4.249202,-61.66622,-6.98289,34.57793,0,0,0,148.4794,8.077701,-3.353395,-36.2161,-110.6672,-50.31561,0.001067912,-0.1257102,0.09433498,0,0.3,0,0,0,0,
6.38224E+17,44.17493,28.80194,53.76875,18.3175,-17.31046,8.282915,-17.05741,-0.4441859,-4.249202,-61.66622,-6.98289,34.65118,0,0,0,156.3863,8.779881,-7.393543,-36.2161,-110.6672,-50.31561,0.001067912,-0.1257102,0.09433498,0,0.3,0,0,0,0,
6.38224E+17,45.14088,28.75519,54.21235,19.78241,-16.50476,6.525032,-17.05741,-0.4441859,-4.249202,-61.73947,-6.98289,34.57793,0,0,0,159.545,9.519652,-9.587734,-36.2161,-110.6672,-50.31561,0.001067912,-0.1257102,0.09433498,0,0.3,0,0,0,0,
6.38224E+17,46.97857,28.75519,55.84666,22.8587,-15.40608,2.936018,-17.05741,-0.4441859,-4.249202,-61.73947,-7.056135,34.57793,0,0,0,166.1479,12.63647,-13.29831,-36.2161,-110.6672,-50.31561,0.001067912,-0.1257102,0.09433498,0,0.3,0,0,0,0,
6.38224E+17,48.69844,28.80194,58.46156,26.88719,-14.52714,-1.092466,-17.05741,-0.4441859,-4.249202,-61.66622,-6.98289,34.57793,0,0,0,173.1668,17.84436,-16.21087,-36.2161,-110.6672,-50.31561,0.001067912,-0.1257102,0.09433498,0,0.3,0,0,0,0,
6.38224E+17,49.28744,28.84871,60.88967,29.52402,-14.16092,-3.436311,-17.05741,-0.4441859,-4.249202,-61.66622,-6.98289,34.57793,0,0,0,176.8444,22.81733,-16.17231,-36.2161,-110.6672,-50.31561,0.001067912,-0.1257102,0.09433498,0,0.3,0,0,0,0,
6.38224E+17,49.45236,29.01235,63.08431,31.35514,-14.16092,-4.82797,-17.05741,-0.4441859,-4.249202,-61.73947,-7.056135,34.57793,0,0,0,178.9645,27.65977,-15.2423,-36.2161,-110.6672,-50.31561,0.001067912,-0.1257102,0.09433498,0,0.3,0,0,0,0,
6.38224E+17,49.33456,29.62018,66.79652,35.16389,-14.60039,-6.659099,-17.05741,-0.4441859,-4.249202,-61.66622,-6.98289,34.57793,0,0,0,180.8993,36.71841,-12.9418,-36.2161,-110.6672,-50.31561,0.001067912,-0.1257102,0.09433498,0,0.3,0,0,0,0,
6.38224E+17,48.58064,30.74234,69.55151,39.19238,-15.40608,-8.490229,-17.05741,-0.4441859,-4.249202,-61.73947,-7.056135,34.57793,0,0,0,179.6417,44.92775,-9.866656,-36.2161,-110.6672,-50.31561,0.001067912,-0.1257102,0.09433498,0,0.3,0,0,0,0,
6.38224E+17,47.52044,32.42557,71.37259,42.70815,-16.87099,-9.515661,-17.05741,-0.4441859,-4.249202,-61.73947,-7.056135,34.57793,0,0,0,176.2107,52.25906,-6.998284,-36.2161,-110.6672,-50.31561,0.001067912,-0.1257102,0.09433498,0,0.3,0,0,0,0,
6.38224E+17,46.93144,33.40745,71.90958,44.31954,-17.60344,-9.66215,-17.05741,-0.4441859,-4.249202,-61.73947,-6.98289,34.57793,0,0,0,173.9231,55.36357,-5.774599,-36.2161,-110.6672,-50.31561,0.001067912,-0.1257102,0.09433498,0,0.3,0,0,0,0,
6.38224E+17,45.68277,35.55825,72.42323,47.24934,-19.28808,-9.955132,-17.05741,-0.4441859,-4.249202,-61.73947,-6.98289,34.65118,0,0,0,168.5733,60.62755,-3.747172,-36.2161,-110.6672,-50.31561,0.001067912,-0.1257102,0.09433498,0,0.3,0,0,0,0,
6.38224E+17,44.31629,37.98958,72.37653,49.66644,-20.89947,-9.808641,-17.05741,-0.4441859,-4.249202,-61.66622,-6.98289,34.57793,0,0,0,162.2106,65.05624,-2.221119,-36.2161,-110.6672,-50.31561,0.001067912,-0.1257102,0.09433498,0,0.3,0,0,0,0,
6.38224E+17,43.18541,39.7897,72.00297,51.20458,-21.99815,-9.076189,-17.05741,-0.4441859,-4.249202,-61.73947,-6.98289,34.57793,0,0,0,156.9182,67.48936,-1.163745,-36.2161,-110.6672,-50.31561,0.001067912,-0.1257102,0.09433498,0,0.3,0,0,0,0,
6.38224E+17,41.96029,41.33266,71.39594,52.44975,-23.09683,-8.124002,-17.05741,-0.4441859,-4.249202,-61.66622,-6.98289,34.57793,0,0,0,151.4499,68.87614,0.08680848,-36.2161,-110.6672,-50.31561,0.001067912,-0.1257102,0.09433498,0,0.3,0,0,0,0,
6.38224E+17,39.7221,43.69386,69.69159,53.40194,-25.0012,-5.560421,-17.05741,-0.4441859,-4.249202,-61.73947,-6.98289,34.57793,0,0,0,141.5389,69.18661,2.000688,-36.2161,-110.6672,-50.31561,0.001067912,-0.1257102,0.09433498,0,0.3,0,0,0,0,
6.38224E+17,38.5441,44.81602,68.52423,53.32869,-25.95339,-3.802537,-17.05741,-0.4441859,-4.249202,-61.66622,-6.98289,34.57793,0,0,0,136.2674,68.51894,2.691269,-36.2161,-110.6672,-50.31561,0.001067912,-0.1257102,0.09433498,0,0.3,0,0,0,0,
6.38224E+17,34.37398,47.24735,63.5746,51.13134,-29.32266,4.107941,-17.05741,-0.4441859,-4.249202,-61.73947,-7.056135,34.57793,0,0,0,118.5302,61.92268,4.927741,-36.2161,-110.6672,-50.31561,0.001067912,-0.1257102,0.09433498,0,0.3,0,0,0,0,
6.38224E+17,33.2431,47.43437,61.8936,50.03266,-29.98187,7.257483,-17.05741,-0.4441859,-4.249202,-61.66622,-7.056135,34.57793,0,0,0,113.9293,58.74011,5.466644,-36.2161,-110.6672,-50.31561,0.001067912,-0.1257102,0.09433498,0,0.3,0,0,0,0,
6.38224E+17,30.65151,47.17721,57.03737,46.73663,-30.64108,16.33988,-17.05741,-0.4441859,-4.249202,-61.66622,-6.98289,34.57793,0,0,0,103.251,48.60218,5.88029,-36.2161,-110.6672,-50.31561,0.001067912,-0.1257102,0.09433498,0,0.3,0,0,0,0,
6.38224E+17,28.03635,45.86803,51.6208,41.90245,-29.90863,26.37447,-17.05741,-0.4441859,-4.249202,-61.73947,-6.98289,34.57793,0,0,0,92.77908,36.26825,5.875288,-36.2161,-110.6672,-50.31561,0.001067912,-0.1257102,0.09433498,0,0.3,0,0,0,0,
6.38224E+17,26.83479,44.86277,49.146,39.48536,-29.10293,30.84243,-17.05741,-0.4441859,-4.249202,-61.73947,-7.056135,34.57793,0,0,0,88.19897,30.18783,5.991112,-36.2161,-110.6672,-50.31561,0.001067912,-0.1257102,0.09433498,0,0.3,0,0,0,0,
6.38224E+17,24.4788,42.03401,44.07964,33.77223,-26.61259,39.48536,-17.05741,-0.4441859,-4.249202,-61.73947,-7.056135,34.57793,0,0,0,79.47826,16.84226,6.220287,-36.2161,-110.6672,-50.31561,0.001067912,-0.1257102,0.09433498,0,0.3,0,0,0,0,
6.38224E+17,22.61756,38.31688,39.92382,28.27885,-23.02358,46.44365,-17.05741,-0.4441859,-4.249202,-61.66622,-6.98289,34.57793,0,0,0,73.14887,3.762455,7.227175,-36.2161,-110.6672,-50.31561,0.001067912,-0.1257102,0.09433498,0,0.3,0,0,0,0,
6.38224E+17,21.43956,34.88028,36.91203,24.68983,-18.84861,51.49756,-17.05741,-0.4441859,-4.249202,-61.73947,-6.98289,34.57793,0,0,0,69.25936,-7.013136,8.020466,-36.2161,-110.6672,-50.31561,0.001067912,-0.1257102,0.09433498,0,0.3,0,0,0,0,
6.38224E+17,20.94481,33.36069,35.74466,23.29818,-16.7245,53.62167,-17.05741,-0.4441859,-4.249202,-61.73947,-6.98289,34.57793,0,0,0,67.66052,-11.55043,8.420475,-36.2161,-110.6672,-50.31561,0.001067912,-0.1257102,0.09433498,0,0.3,0,0,0,0,
6.38224E+17,19.79037,30.4618,33.43328,21.61354,-12.32979,57.7234,-17.05741,-0.4441859,-4.249202,-61.73947,-6.98289,34.57793,0,0,0,63.79337,-20.33068,8.936416,-36.2161,-110.6672,-50.31561,0.001067912,-0.1257102,0.09433498,0,0.3,0,0,0,0,
6.38224E+17,18.51813,27.8902,32.12584,20.66135,-8.887264,59.92076,-17.05741,-0.4441859,-4.249202,-61.73947,-7.056135,34.57793,0,0,0,59.95543,-27.20347,10.64966,-36.2161,-110.6672,-50.31561,0.001067912,-0.1257102,0.09433498,0,0.3,0,0,0,0,
6.38224E+17,17.71709,26.39399,31.86902,20.00214,-6.98289,60.65321,-17.05741,-0.4441859,-4.249202,-61.73947,-7.056135,34.57793,0,0,0,57.77627,-30.61889,12.5007,-36.2161,-110.6672,-50.31561,0.001067912,-0.1257102,0.09433498,0,0.3,0,0,0,0,
6.38224E+17,15.99721,24.19644,31.79898,18.24426,-3.320631,61.53215,-17.05741,-0.4441859,-4.249202,-61.66622,-7.056135,34.57793,0,0,0,52.88643,-35.32877,16.12075,-36.2161,-110.6672,-50.31561,0.001067912,-0.1257102,0.09433498,0,0.3,0,0,0,0,
6.38224E+17,13.73546,23.26131,31.91571,15.97366,-0.3908245,61.97163,-17.05741,-0.4441859,-4.249202,-61.73947,-7.056135,34.57793,0,0,0,45.82786,-37.17776,19.13912,-36.2161,-110.6672,-50.31561,0.001067912,-0.1257102,0.09433498,0,0.3,0,0,0,0,
6.38224E+17,10.31926,22.86388,31.98576,12.60438,1.51355,62.04487,-17.05741,-0.4441859,-4.249202,-61.73947,-6.98289,34.57793,0,0,0,34.66391,-37.94255,22.02933,-36.2161,-110.6672,-50.31561,0.001067912,-0.1257102,0.09433498,0,0.3,0,0,0,0,
6.38224E+17,6.47899,22.81713,32.33596,7.330729,2.978453,61.53215,-17.05741,-0.4441859,-4.249202,-61.66622,-6.98289,34.57793,0,0,0,21.918,-37.60897,24.65106,-36.2161,-110.6672,-50.31561,0.001067912,-0.1257102,0.09433498,0,0.3,0,0,0,0,
6.38224E+17,3.204155,22.9574,33.59671,1.178134,4.077131,60.50672,-17.05741,-0.4441859,-4.249202,-61.66622,-6.98289,34.57793,0,0,0,10.98742,-35.71157,27.91912,-36.2161,-110.6672,-50.31561,0.001067912,-0.1257102,0.09433498,0,0.3,0,0,0,0,
6.38224E+17,1.602077,23.1678,34.39052,-1.971408,4.443357,60.21374,-17.05741,-0.4441859,-4.249202,-61.66622,-6.98289,34.57793,0,0,0,5.533322,-34.22808,29.48899,-36.2161,-110.6672,-50.31561,0.001067912,-0.1257102,0.09433498,0,0.3,0,0,0,0,
6.38224E+17,-1.719877,23.96266,35.8147,-8.124002,4.516602,59.92076,-17.05741,-0.4441859,-4.249202,-61.66622,-7.056135,34.57793,0,0,0,-5.999255,-30.62641,31.44842,-36.2161,-110.6672,-50.31561,0.001067912,-0.1257102,0.09433498,0,0.3,0,0,0,0,
6.38224E+17,-4.193673,25.38873,37.21554,-14.2766,3.93064,59.77427,-17.05741,-0.4441859,-4.249202,-61.73947,-7.056135,34.57793,0,0,0,-14.70774,-25.67059,32.23462,-36.2161,-110.6672,-50.31561,0.001067912,-0.1257102,0.09433498,0,0.3,0,0,0,0,
6.38224E+17,-5.088952,26.4875,37.91596,-17.42614,3.564415,59.70102,-17.05741,-0.4441859,-4.249202,-61.73947,-7.056135,34.57793,0,0,0,-17.85547,-22.37709,32.15324,-36.2161,-110.6672,-50.31561,0.001067912,-0.1257102,0.09433498,0,0.3,0,0,0,0,
6.38224E+17,-5.84287,28.77857,39.10667,-22.40681,2.246002,59.70102,-17.05741,-0.4441859,-4.249202,-61.73947,-7.056135,34.57793,0,0,0,-20.46114,-15.92786,31.59799,-36.2161,-110.6672,-50.31561,0.001067912,-0.1257102,0.09433498,0,0.3,0,0,0,0,
6.38224E+17,-5.630831,31.958,40.69429,-25.84933,0.268382,60.36023,-17.05741,-0.4441859,-4.249202,-61.66622,-6.98289,34.57793,0,0,0,-19.63214,-7.174064,30.77075,-36.2161,-110.6672,-50.31561,0.001067912,-0.1257102,0.09433498,0,0.3,0,0,0,0,
6.38224E+17,-5.442351,33.87502,41.72157,-27.0945,-1.123276,61.01944,-17.05741,-0.4441859,-4.249202,-61.73947,-6.98289,34.57793,0,0,0,-18.91767,-1.853768,30.21135,-36.2161,-110.6672,-50.31561,0.001067912,-0.1257102,0.09433498,0,0.3,0,0,0,0,
6.38224E+17,-4.711992,37.56877,44.07964,-29.14537,-4.419309,62.19136,-17.05741,-0.4441859,-4.249202,-61.73947,-6.98289,34.57793,0,0,0,-16.30309,8.860147,29.44133,-36.2161,-110.6672,-50.31561,0.001067912,-0.1257102,0.09433498,0,0.3,0,0,0,0,
6.38224E+17,-3.109915,41.42618,46.5778,-31.19623,-8.301303,63.14355,-17.05741,-0.4441859,-4.249202,-61.73947,-7.056135,34.57793,0,0,0,-10.6789,19.92096,28.20034,-36.2161,-110.6672,-50.31561,0.001067912,-0.1257102,0.09433498,0,0.3,0,0,0,0,
6.38224E+17,0.2827196,45.30696,48.91252,-31.70894,-13.13548,63.94925,-17.05741,-0.4441859,-4.249202,-61.66622,-6.98289,34.57793,0,0,0,0.9587129,30.50747,25.94064,-36.2161,-110.6672,-50.31561,0.001067912,-0.1257102,0.09433498,0,0.3,0,0,0,0,
6.38224E+17,3.533994,47.29411,50.10323,-30.02431,-16.87099,64.31547,-17.05741,-0.4441859,-4.249202,-61.66622,-7.056135,34.57793,0,0,0,11.88119,35.81002,24.03244,-36.2161,-110.6672,-50.31561,0.001067912,-0.1257102,0.09433498,0,0.3,0,0,0,0,
6.38224E+17,5.560151,48.13572,50.54683,-28.33967,-18.84861,64.31547,-17.05741,-0.4441859,-4.249202,-61.66622,-7.056135,34.57793,0,0,0,18.59904,37.92254,22.70584,-36.2161,-110.6672,-50.31561,0.001067912,-0.1257102,0.09433498,0,0.3,0,0,0,0,
6.38224E+17,9.777385,49.2345,51.13051,-23.65198,-22.14464,62.85057,-17.05741,-0.4441859,-4.249202,-61.73947,-6.98289,34.57793,0,0,0,32.41808,40.66413,19.77338,-36.2161,-110.6672,-50.31561,0.001067912,-0.1257102,0.09433498,0,0.3,0,0,0,0,
6.38224E+17,14.4187,49.51503,51.29394,-17.49938,-24.63498,58.96857,-17.05741,-0.4441859,-4.249202,-61.73947,-7.056135,34.57793,0,0,0,47.47021,41.38575,16.28412,-36.2161,-110.6672,-50.31561,0.001067912,-0.1257102,0.09433498,0,0.3,0,0,0,0,
6.38224E+17,16.91605,49.32801,51.29394,-13.76388,-25.44067,56.11201,-17.05741,-0.4441859,-4.249202,-61.73947,-6.98289,34.57793,0,0,0,55.56643,41.1026,14.35662,-36.2161,-110.6672,-50.31561,0.001067912,-0.1257102,0.09433498,0,0.3,0,0,0,0,
6.38224E+17,21.25109,48.27599,51.34064,-6.073137,-26.09988,50.10591,-17.05741,-0.4441859,-4.249202,-61.66622,-6.98289,34.57793,0,0,0,69.91034,39.57474,11.41406,-36.2161,-110.6672,-50.31561,0.001067912,-0.1257102,0.09433498,0,0.3,0,0,0,0,
6.38224E+17,24.76152,46.42911,51.34064,1.324624,-25.58716,44.0998,-17.05741,-0.4441859,-4.249202,-61.66622,-6.98289,34.57793,0,0,0,82.11034,36.66275,9.666966,-36.2161,-110.6672,-50.31561,0.001067912,-0.1257102,0.09433498,0,0.3,0,0,0,0,
6.38224E+17,26.22224,45.37709,51.34064,4.767147,-24.92796,41.24324,-17.05741,-0.4441859,-4.249202,-61.66622,-6.98289,34.57793,0,0,0,87.39854,34.95895,9.093411,-36.2161,-110.6672,-50.31561,0.001067912,-0.1257102,0.09433498,0,0.3,0,0,0,0,
6.38224E+17,28.53111,43.55359,51.36399,11.13948,-23.17007,36.04284,-17.05741,-0.4441859,-4.249202,-61.66622,-6.98289,34.57793,0,0,0,95.91225,31.97268,8.069878,-36.2161,-110.6672,-50.31561,0.001067912,-0.1257102,0.09433498,0,0.3,0,0,0,0,
6.38224E+17,29.49707,42.78211,51.36399,14.06928,-22.21789,33.47925,-17.05741,-0.4441859,-4.249202,-61.73947,-6.98289,34.57793,0,0,0,99.47761,30.66311,7.497049,-36.2161,-110.6672,-50.31561,0.001067912,-0.1257102,0.09433498,0,0.3,0,0,0,0,
6.38224E+17,30.34523,42.10415,51.7142,16.63286,-21.33894,30.84243,-17.05741,-0.4441859,-4.249202,-61.66622,-6.98289,34.57793,0,0,0,102.8638,30.13694,7.361723,-36.2161,-110.6672,-50.31561,0.001067912,-0.1257102,0.09433498,0,0.3,0,0,0,0,
6.38224E+17,30.69863,41.91712,52.13445,17.58505,-21.04596,29.817,-17.05741,-0.4441859,-4.249202,-61.73947,-7.056135,34.57793,0,0,0,104.4023,30.58346,7.49308,-36.2161,-110.6672,-50.31561,0.001067912,-0.1257102,0.09433498,0,0.3,0,0,0,0,
6.38224E+17,31.52323,41.63658,53.90884,19.1232,-21.33894,27.76613,-17.05741,-0.4441859,-4.249202,-61.73947,-7.056135,34.65118,0,0,0,108.4483,33.39549,8.460586,-36.2161,-110.6672,-50.31561,0.001067912,-0.1257102,0.09433498,0,0.3,0,0,0,0,
6.38224E+17,32.27715,41.37942,56.19687,20.95433,-22.07139,25.935,-17.05741,-0.4441859,-4.249202,-61.66622,-6.98289,34.57793,0,0,0,112.606,37.31192,9.932507,-36.2161,-110.6672,-50.31561,0.001067912,-0.1257102,0.09433498,0,0.3,0,0,0,0,
6.38224E+17,32.84259,41.12226,58.41486,23.15168,-23.09683,24.25036,-17.05741,-0.4441859,-4.249202,-61.73947,-6.98289,34.57793,0,0,0,116.0861,41.20596,11.48664,-36.2161,-110.6672,-50.31561,0.001067912,-0.1257102,0.09433498,0,0.3,0,0,0,0,
6.38224E+17,33.07819,41.02874,60.00248,25.34904,-24.12226,22.41923,-17.05741,-0.4441859,-4.249202,-61.73947,-6.98289,34.57793,0,0,0,117.935,44.21594,12.71251,-36.2161,-110.6672,-50.31561,0.001067912,-0.1257102,0.09433498,0,0.3,0,0,0,0,
6.38224E+17,33.12531,41.02874,60.67955,26.37447,-24.70822,21.61354,-17.05741,-0.4441859,-4.249202,-61.73947,-7.056135,34.57793,0,0,0,118.5099,45.58529,13.2685,-36.2161,-110.6672,-50.31561,0.001067912,-0.1257102,0.09433498,0,0.3,0,0,0,0,
6.38224E+17,33.2431,41.02874,62.52398,28.35209,-25.95339,20.14863,-17.05741,-0.4441859,-4.249202,-61.66622,-6.98289,34.57793,0,0,0,120.0022,49.36128,14.73189,-36.2161,-110.6672,-50.31561,0.001067912,-0.1257102,0.09433498,0,0.3,0,0,0,0,
6.38224E+17,33.33735,41.02874,64.57854,30.69594,-27.19856,18.83022,-17.05741,-0.4441859,-4.249202,-61.73947,-6.98289,34.57793,0,0,0,121.4736,53.64233,16.3135,-36.2161,-110.6672,-50.31561,0.001067912,-0.1257102,0.09433498,0,0.3,0,0,0,0,
6.38224E+17,33.33735,41.02874,65.41904,32.01435,-27.78452,18.02452,-17.05741,-0.4441859,-4.249202,-61.73947,-7.056135,34.57793,0,0,0,121.928,55.4152,17.0042,-36.2161,-110.6672,-50.31561,0.001067912,-0.1257102,0.09433498,0,0.3,0,0,0,0,
6.38224E+17,33.31378,40.95861,66.67979,34.57793,-29.10293,16.33988,-17.05741,-0.4441859,-4.249202,-61.73947,-7.056135,34.57793,0,0,0,122.5648,57.97356,18.13921,-36.2161,-110.6672,-50.31561,0.001067912,-0.1257102,0.09433498,0,0.3,0,0,0,0,
6.38224E+17,33.31378,40.5378,67.59034,37.36125,-30.42134,14.87498,-17.05741,-0.4441859,-4.249202,-61.66622,-6.98289,34.57793,0,0,0,123.3681,59.18425,19.36156,-36.2161,-110.6672,-50.31561,0.001067912,-0.1257102,0.09433498,0,0.3,0,0,0,0,
6.38224E+17,33.26667,40.28064,67.59034,38.82615,-30.78757,14.43551,-17.05741,-0.4441859,-4.249202,-61.73947,-7.056135,34.57793,0,0,0,123.4265,58.72852,19.78735,-36.2161,-110.6672,-50.31561,0.001067912,-0.1257102,0.09433498,0,0.3,0,0,0,0,
6.38224E+17,32.96038,39.69619,66.98331,41.17,-31.08055,14.14253,-17.05741,-0.4441859,-4.249202,-61.66622,-6.98289,34.57793,0,0,0,122.5978,56.3831,20.72019,-36.2161,-110.6672,-50.31561,0.001067912,-0.1257102,0.09433498,0,0.3,0,0,0,0,
6.38224E+17,32.65411,39.20525,66.23619,42.48841,-31.0073,14.36226,-17.05741,-0.4441859,-4.249202,-61.73947,-6.98289,34.57793,0,0,0,121.6047,53.90489,21.40293,-36.2161,-110.6672,-50.31561,0.001067912,-0.1257102,0.09433498,0,0.3,0,0,0,0,
6.38224E+17,32.63055,38.24674,64.13494,43.22086,-30.42134,16.26664,-17.05741,-0.4441859,-4.249202,-61.73947,-7.056135,34.57793,0,0,0,121.1725,47.72586,20.89984,-36.2161,-110.6672,-50.31561,0.001067912,-0.1257102,0.09433498,0,0.3,0,0,0,0,
6.38224E+17,32.65411,37.35837,63.31779,43.29411,-29.83538,17.6583,-17.05741,-0.4441859,-4.249202,-61.66622,-6.98289,34.57793,0,0,0,121.4799,44.38687,21.2082,-36.2161,-110.6672,-50.31561,0.001067912,-0.1257102,0.09433498,0,0.3,0,0,0,0,
6.38224E+17,32.65411,35.76865,61.82356,43.22086,-28.66346,20.00214,-17.05741,-0.4441859,-4.249202,-61.73947,-7.056135,34.57793,0,0,0,121.8047,38.3286,21.7151,-36.2161,-110.6672,-50.31561,0.001067912,-0.1257102,0.09433498,0,0.3,0,0,0,0,
6.38224E+17,32.65411,34.95041,60.74959,43.00113,-28.0775,20.95433,-17.05741,-0.4441859,-4.249202,-61.66622,-6.98289,34.57793,0,0,0,121.7514,34.58337,21.63193,-36.2161,-110.6672,-50.31561,0.001067912,-0.1257102,0.09433498,0,0.3,0,0,0,0,
6.38224E+17,32.63055,31.06963,56.38364,41.24324,-25.07445,25.935,-17.05741,-0.4441859,-4.249202,-61.73947,-6.98289,34.57793,0,0,0,121.4693,18.34273,21.36341,-36.2161,-110.6672,-50.31561,0.001067912,-0.1257102,0.09433498,0,0.3,0,0,0,0,
6.38224E+17,32.55987,29.45654,54.79603,40.29105,-23.82928,27.98586,-17.05741,-0.4441859,-4.249202,-61.73947,-7.056135,34.57793,0,0,0,121.1297,12.05182,21.3479,-36.2161,-110.6672,-50.31561,0.001067912,-0.1257102,0.09433498,0,0.3,0,0,0,0,
6.38224E+17,32.27715,25.94981,51.2706,37.94721,-20.67974,31.9411,-17.05741,-0.4441859,-4.249202,-61.73947,-6.98289,34.57793,0,0,0,119.5836,-1.727736,20.97968,-36.2161,-110.6672,-50.31561,0.001067912,-0.1257102,0.09433498,0,0.3,0,0,0,0,
6.38224E+17,31.71171,21.95213,48.72574,35.16389,-17.01748,35.38363,-17.05741,-0.4441859,-4.249202,-61.73947,-7.056135,34.57793,0,0,0,117.6932,-14.76572,22.12449,-36.2161,-110.6672,-50.31561,0.001067912,-0.1257102,0.09433498,0,0.3,0,0,0,0,
6.38224E+17,31.38187,20.08188,48.07202,33.69899,-15.25959,36.70204,-17.05741,-0.4441859,-4.249202,-61.73947,-6.98289,34.57793,0,0,0,116.8816,-19.96652,23.26917,-36.2161,-110.6672,-50.31561,0.001067912,-0.1257102,0.09433498,0,0.3,0,0,0,0,
6.38224E+17,30.62795,17.22974,46.81127,31.79461,-12.32979,39.63185,-17.05741,-0.4441859,-4.249202,-61.73947,-6.98289,34.57793,0,0,0,114.4208,-28.41646,24.90981,-36.2161,-110.6672,-50.31561,0.001067912,-0.1257102,0.09433498,0,0.3,0,0,0,0,
6.38224E+17,29.66199,15.1257,45.36374,30.54945,-9.839451,42.92788,-17.05741,-0.4441859,-4.249202,-61.66622,-6.98289,34.57793,0,0,0,110.6654,-35.54617,25.96647,-36.2161,-110.6672,-50.31561,0.001067912,-0.1257102,0.09433498,0,0.3,0,0,0,0,
6.38224E+17,28.15415,13.32558,44.07964,29.23104,-8.228058,45.85769,-17.05741,-0.4441859,-4.249202,-61.73947,-7.056135,34.57793,0,0,0,104.9977,-41.71006,27.84668,-36.2161,-110.6672,-50.31561,0.001067912,-0.1257102,0.09433498,0,0.3,0,0,0,0,
6.38224E+17,27.14108,12.36707,43.42591,28.2056,-7.642097,47.24934,-17.05741,-0.4441859,-4.249202,-61.66622,-6.98289,34.57793,0,0,0,101.2373,-44.93719,29.13583,-36.2161,-110.6672,-50.31561,0.001067912,-0.1257102,0.09433498,0,0.3,0,0,0,0,
6.38224E+17,24.76152,10.70722,42.49202,25.64202,-6.836399,49.95942,-17.05741,-0.4441859,-4.249202,-61.73947,-7.056135,34.57793,0,0,0,92.60795,-50.20333,32.42598,-36.2161,-110.6672,-50.31561,0.001067912,-0.1257102,0.09433498,0,0.3,0,0,0,0,
6.38224E+17,22.38196,9.608441,42.09512,22.8587,-6.470173,51.7173,-17.05741,-0.4441859,-4.249202,-61.73947,-7.056135,34.57793,0,0,0,84.10358,-53.34211,35.88305,-36.2161,-110.6672,-50.31561,0.001067912,-0.1257102,0.09433498,0,0.3,0,0,0,0,
6.38224E+17,20.92125,8.953853,42.04842,21.02757,-6.396928,52.59624,-17.05741,-0.4441859,-4.249202,-61.73947,-6.98289,34.57793,0,0,0,78.92896,-54.91846,38.11477,-36.2161,-110.6672,-50.31561,0.001067912,-0.1257102,0.09433498,0,0.3,0,0,0,0,
6.38224E+17,17.92913,7.831698,42.32859,16.63286,-6.616664,53.84141,-17.05741,-0.4441859,-4.249202,-61.66622,-7.056135,34.57793,0,0,0,68.31028,-57.06425,42.77563,-36.2161,-110.6672,-50.31561,0.001067912,-0.1257102,0.09433498,0,0.3,0,0,0,0,
6.38224E+17,15.12549,7.668051,43.07571,11.79868,-7.27587,54.86684,-17.05741,-0.4441859,-4.249202,-61.66622,-6.98289,34.57793,0,0,0,58.24853,-56.2624,47.14735,-36.2161,-110.6672,-50.31561,0.001067912,-0.1257102,0.09433498,0,0.3,0,0,0,0,
6.38224E+17,12.55746,7.878454,43.86951,7.330729,-8.447793,56.77122,-17.05741,-0.4441859,-4.249202,-61.66622,-6.98289,34.57793,0,0,0,48.81163,-54.50612,50.7848,-36.2161,-110.6672,-50.31561,0.001067912,-0.1257102,0.09433498,0,0.3,0,0,0,0,
6.38224E+17,10.36638,8.392776,44.31311,2.643037,-9.326735,58.89533,-17.05741,-0.4441859,-4.249202,-61.66622,-7.056135,34.57793,0,0,0,40.50089,-52.60278,53.05354,-36.2161,-110.6672,-50.31561,0.001067912,-0.1257102,0.09433498,0,0.3,0,0,0,0,
6.38224E+17,9.400424,8.579801,44.49989,0.5189275,-9.399981,59.70102,-17.05741,-0.4441859,-4.249202,-61.73947,-6.98289,34.57793,0,0,0,36.80286,-51.86808,53.94787,-36.2161,-110.6672,-50.31561,0.001067912,-0.1257102,0.09433498,0,0.3,0,0,0,0,
6.38224E+17,7.916147,9.398038,45.10692,-4.681479,-9.473226,60.72646,-17.05741,-0.4441859,-4.249202,-61.66622,-6.98289,34.57793,0,0,0,31.12949,-48.99156,55.52473,-36.2161,-110.6672,-50.31561,0.001067912,-0.1257102,0.09433498,0,0.3,0,0,0,0,
6.38224E+17,7.185789,10.84749,45.6906,-9.442415,-9.106999,61.23917,-17.05741,-0.4441859,-4.249202,-61.73947,-7.056135,34.57793,0,0,0,28.31843,-44.70348,56.26147,-36.2161,-110.6672,-50.31561,0.001067912,-0.1257102,0.09433498,0,0.3,0,0,0,0,
6.38224E+17,6.973749,11.57221,46.1342,-11.56653,-8.814018,61.31242,-17.05741,-0.4441859,-4.249202,-61.66622,-6.98289,34.57793,0,0,0,27.5344,-42.30739,56.75227,-36.2161,-110.6672,-50.31561,0.001067912,-0.1257102,0.09433498,0,0.3,0,0,0,0,
6.38224E+17,6.761709,13.34895,47.51169,-15.59501,-8.228058,61.38566,-17.05741,-0.4441859,-4.249202,-61.73947,-7.056135,34.57793,0,0,0,26.85439,-35.9319,58.14501,-36.2161,-110.6672,-50.31561,0.001067912,-0.1257102,0.09433498,0,0.3,0,0,0,0,
6.38224E+17,6.785269,15.56988,48.98256,-18.8178,-7.861832,61.89838,-17.05741,-0.4441859,-4.249202,-61.73947,-6.98289,34.57793,0,0,0,27.06437,-28.37315,59.11602,-36.2161,-110.6672,-50.31561,0.001067912,-0.1257102,0.09433498,0,0.3,0,0,0,0,
6.38224E+17,7.492068,18.25838,50.89704,-21.45462,-8.301303,62.33785,-17.05741,-0.4441859,-4.249202,-61.66622,-6.98289,34.57793,0,0,0,30.0048,-18.97706,59.80318,-36.2161,-110.6672,-50.31561,0.001067912,-0.1257102,0.09433498,0,0.3,0,0,0,0,
6.38224E+17,8.081067,19.82472,51.94767,-22.48005,-8.887264,62.48434,-17.05741,-0.4441859,-4.249202,-61.66622,-7.056135,34.57793,0,0,0,32.39574,-13.61958,59.81479,-36.2161,-110.6672,-50.31561,0.001067912,-0.1257102,0.09433498,0,0.3,0,0,0,0,
6.38224E+17,9.376864,23.42496,53.65202,-23.28575,-9.839451,62.63083,-17.05741,-0.4441859,-4.249202,-61.66622,-6.98289,34.57793,0,0,0,37.43487,-2.671954,58.34378,-36.2161,-110.6672,-50.31561,0.001067912,-0.1257102,0.09433498,0,0.3,0,0,0,0,
6.38224E+17,10.5313,27.23561,55.00616,-22.99277,-11.15786,62.63083,-17.05741,-0.4441859,-4.249202,-61.66622,-7.056135,34.57793,0,0,0,41.63706,7.903026,55.62054,-36.2161,-110.6672,-50.31561,0.001067912,-0.1257102,0.09433498,0,0.3,0,0,0,0,
6.38224E+17,11.77998,31.11639,57.2008,-21.96734,-13.50171,62.48434,-17.05741,-0.4441859,-4.249202,-61.73947,-7.056135,34.57793,0,0,0,46.19068,20.02715,53.13889,-36.2161,-110.6672,-50.31561,0.001067912,-0.1257102,0.09433498,0,0.3,0,0,0,0,
6.38224E+17,13.09934,33.40745,59.09193,-21.01515,-16.06529,62.19136,-17.05741,-0.4441859,-4.249202,-61.66622,-6.98289,34.57793,0,0,0,51.15962,28.27424,51.50689,-36.2161,-110.6672,-50.31561,0.001067912,-0.1257102,0.09433498,0,0.3,0,0,0,0,
6.38224E+17,14.20666,34.62312,60.1659,-19.98972,-17.82317,61.89838,-17.05741,-0.4441859,-4.249202,-61.66622,-6.98289,34.65118,0,0,0,55.32055,32.77592,50.16793,-36.2161,-110.6672,-50.31561,0.001067912,-0.1257102,0.09433498,0,0.3,0,0,0,0,
6.38224E+17,16.56265,36.58689,61.73017,-17.2064,-21.11921,61.23917,-17.05741,-0.4441859,-4.249202,-61.73947,-6.98289,34.57793,0,0,0,64.00215,39.67426,46.85323,-36.2161,-110.6672,-50.31561,0.001067912,-0.1257102,0.09433498,0,0.3,0,0,0,0,
6.38224E+17,19.53121,38.22336,63.06097,-12.81169,-24.56173,59.40804,-17.05741,-0.4441859,-4.249202,-61.66622,-7.056135,34.57793,0,0,0,74.76753,45.44431,42.42208,-36.2161,-110.6672,-50.31561,0.001067912,-0.1257102,0.09433498,0,0.3,0,0,0,0,
6.38224E+17,20.92125,38.80782,63.83142,-9.588906,-26.09988,57.86989,-17.05741,-0.4441859,-4.249202,-61.66622,-6.98289,34.57793,0,0,0,79.84228,48.11262,40.50385,-36.2161,-110.6672,-50.31561,0.001067912,-0.1257102,0.09433498,0,0.3,0,0,0,0,
6.38224E+17,22.90028,39.25201,65.32565,-2.117898,-28.88319,53.91465,-17.05741,-0.4441859,-4.249202,-61.66622,-6.98289,34.57793,0,0,0,87.33475,52.05653,38.39748,-36.2161,-110.6672,-50.31561,0.001067912,-0.1257102,0.09433498,0,0.3,0,0,0,0,
6.38224E+17,24.14896,39.34552,65.86263,3.228999,-30.56783,50.47213,-17.05741,-0.4441859,-4.249202,-61.66622,-6.98289,34.57793,0,0,0,91.97429,53.36305,36.79063,-36.2161,-110.6672,-50.31561,0.001067912,-0.1257102,0.09433498,0,0.3,0,0,0,0,
6.38224E+17,24.69084,39.34552,65.86263,5.133373,-31.08055,48.64101,-17.05741,-0.4441859,-4.249202,-61.66622,-7.056135,34.57793,0,0,0,93.91028,53.36305,35.91162,-36.2161,-110.6672,-50.31561,0.001067912,-0.1257102,0.09433498,0,0.3,0,0,0,0,
6.38224E+17,25.93952,39.32214,65.86263,8.136425,-31.88625,44.53928,-17.05741,-0.4441859,-4.249202,-61.66622,-6.98289,34.57793,0,0,0,98.3543,53.32097,33.84765,-36.2161,-110.6672,-50.31561,0.001067912,-0.1257102,0.09433498,0,0.3,0,0,0,0,
6.38224E+17,26.76412,39.20525,65.83929,10.26054,-32.39896,41.60947,-17.05741,-0.4441859,-4.249202,-61.66622,-7.056135,34.57793,0,0,0,101.3216,53.06075,32.54513,-36.2161,-110.6672,-50.31561,0.001067912,-0.1257102,0.09433498,0,0.3,0,0,0,0,
6.38224E+17,27.49447,38.55066,65.79259,12.67763,-32.91168,38.0937,-17.05741,-0.4441859,-4.249202,-61.73947,-7.056135,34.57793,0,0,0,104.295,51.7756,32.04602,-36.2161,-110.6672,-50.31561,0.001067912,-0.1257102,0.09433498,0,0.3,0,0,0,0,
6.38224E+17,27.63584,38.03634,65.79259,13.7763,-33.20466,36.26257,-17.05741,-0.4441859,-4.249202,-61.73947,-7.056135,34.57793,0,0,0,105.1332,50.83612,32.44525,-36.2161,-110.6672,-50.31561,0.001067912,-0.1257102,0.09433498,0,0.3,0,0,0,0,
6.38224E+17,27.51804,36.6804,65.09218,15.75392,-33.64413,32.96654,-17.05741,-0.4441859,-4.249202,-61.73947,-6.98289,34.65118,0,0,0,105.2918,46.84509,33.75838,-36.2161,-110.6672,-50.31561,0.001067912,-0.1257102,0.09433498,0,0.3,0,0,0,0,
6.38224E+17,27.02328,34.92704,63.36448,17.14558,-33.35115,31.06216,-17.05741,-0.4441859,-4.249202,-61.73947,-6.98289,34.57793,0,0,0,103.833,39.91467,35.22926,-36.2161,-110.6672,-50.31561,0.001067912,-0.1257102,0.09433498,0,0.3,0,0,0,0,
6.38224E+17,26.3636,33.01003,61.12315,17.87803,-32.10598,30.76918,-17.05741,-0.4441859,-4.249202,-61.73947,-6.98289,34.57793,0,0,0,101.5105,31.59863,36.46818,-36.2161,-110.6672,-50.31561,0.001067912,-0.1257102,0.09433498,0,0.3,0,0,0,0,
6.38224E+17,26.03376,31.91125,60.30599,18.09777,-30.93406,31.20865,-17.05741,-0.4441859,-4.249202,-61.66622,-7.056135,34.57793,0,0,0,100.5238,27.78217,37.44651,-36.2161,-110.6672,-50.31561,0.001067912,-0.1257102,0.09433498,0,0.3,0,0,0,0,
6.38224E+17,25.6568,30.32153,59.55888,18.68373,-28.73671,32.60031,-17.05741,-0.4441859,-4.249202,-61.66622,-7.056135,34.57793,0,0,0,99.6183,23.10988,39.04159,-36.2161,-110.6672,-50.31561,0.001067912,-0.1257102,0.09433498,0,0.3,0,0,0,0,
6.38224E+17,25.539,29.50329,58.64833,20.07539,-26.90557,34.2117,-17.05741,-0.4441859,-4.249202,-61.66622,-6.98289,34.57793,0,0,0,99.13197,19.64075,39.12098,-36.2161,-110.6672,-50.31561,0.001067912,-0.1257102,0.09433498,0,0.3,0,0,0,0,
6.38224E+17,25.49188,28.26425,57.01402,21.97976,-25.22094,36.04284,-17.05741,-0.4441859,-4.249202,-61.73947,-7.056135,34.57793,0,0,0,98.68925,13.89614,38.63183,-36.2161,-110.6672,-50.31561,0.001067912,-0.1257102,0.09433498,0,0.3,0,0,0,0,
6.38224E+17,25.49188,27.37588,55.9167,22.63897,-24.26875,36.92178,-17.05741,-0.4441859,-4.249202,-61.73947,-6.98289,34.57793,0,0,0,98.49733,9.938768,38.22931,-36.2161,-110.6672,-50.31561,0.001067912,-0.1257102,0.09433498,0,0.3,0,0,0,0,
6.38224E+17,25.539,24.96792,53.51193,23.15168,-21.9249,38.89939,-17.05741,-0.4441859,-4.249202,-61.66622,-6.98289,34.57793,0,0,0,98.33904,0.3411789,37.46147,-36.2161,-110.6672,-50.31561,0.001067912,-0.1257102,0.09433498,0,0.3,0,0,0,0,
6.38224E+17,25.51544,22.55997,50.7803,22.27274,-18.62887,40.29105,-17.05741,-0.4441859,-4.249202,-61.66622,-7.056135,34.57793,0,0,0,97.54677,-9.80688,36.01933,-36.2161,-110.6672,-50.31561,0.001067912,-0.1257102,0.09433498,0,0.3,0,0,0,0,
6.38224E+17,25.25628,19.5208,48.04868,20.29512,-15.1131,41.02351,-17.05741,-0.4441859,-4.249202,-61.73947,-6.98289,34.57793,0,0,0,95.94019,-21.23558,35.01455,-36.2161,-110.6672,-50.31561,0.001067912,-0.1257102,0.09433498,0,0.3,0,0,0,0,
6.38224E+17,24.97356,17.4869,46.85796,18.90347,-12.91575,41.17,-17.05741,-0.4441859,-4.249202,-61.73947,-6.98289,34.57793,0,0,0,94.77865,-27.76594,35.14861,-36.2161,-110.6672,-50.31561,0.001067912,-0.1257102,0.09433498,0,0.3,0,0,0,0,
6.38224E+17,24.17252,13.93341,45.80734,15.97366,-8.667529,41.38973,-17.05741,-0.4441859,-4.249202,-61.66622,-6.98289,34.57793,0,0,0,92.14991,-37.49484,36.95615,-36.2161,-110.6672,-50.31561,0.001067912,-0.1257102,0.09433498,0,0.3,0,0,0,0,
6.38224E+17,22.68824,11.24492,44.47654,12.75087,-3.979838,42.04893,-17.05741,-0.4441859,-4.249202,-61.66622,-7.056135,34.57793,0,0,0,86.48438,-45.79652,38.51677,-36.2161,-110.6672,-50.31561,0.001067912,-0.1257102,0.09433498,0,0.3,0,0,0,0,
6.38224E+17,21.43956,10.47344,43.23914,10.91974,-2.075463,42.78139,-17.05741,-0.4441859,-4.249202,-61.66622,-6.98289,34.57793,0,0,0,81.32045,-49.55528,38.73429,-36.2161,-110.6672,-50.31561,0.001067912,-0.1257102,0.09433498,0,0.3,0,0,0,0,
6.38224E+17,20.47361,9.982493,42.63211,9.454838,-0.9035407,43.07437,-17.05741,-0.4441859,-4.249202,-61.66622,-7.056135,34.57793,0,0,0,77.52697,-51.64209,39.29686,-36.2161,-110.6672,-50.31561,0.001067912,-0.1257102,0.09433498,0,0.3,0,0,0,0,
6.38224E+17,18.35321,9.327903,42.21186,6.012315,1.000834,43.4406,-17.05741,-0.4441859,-4.249202,-61.73947,-6.98289,34.57793,0,0,0,69.64418,-53.8038,41.58036,-36.2161,-110.6672,-50.31561,0.001067912,-0.1257102,0.09433498,0,0.3,0,0,0,0,
6.38224E+17,16.23281,9.37466,42.2819,2.423302,2.246002,44.46603,-17.05741,-0.4441859,-4.249202,-61.73947,-7.056135,34.57793,0,0,0,61.85798,-53.58683,44.1123,-36.2161,-110.6672,-50.31561,0.001067912,-0.1257102,0.09433498,0,0.3,0,0,0,0,
6.38224E+17,13.33494,9.468172,42.60876,-1.165711,2.978453,46.3704,-17.05741,-0.4441859,-4.249202,-61.73947,-6.98289,34.65118,0,0,0,51.15891,-52.85871,47.47946,-36.2161,-110.6672,-50.31561,0.001067912,-0.1257102,0.09433498,0,0.3,0,0,0,0,
6.38224E+17,11.73286,9.608441,42.93562,-3.216576,3.198189,47.1761,-17.05741,-0.4441859,-4.249202,-61.73947,-7.056135,34.57793,0,0,0,45.20733,-52.02016,49.31918,-36.2161,-110.6672,-50.31561,0.001067912,-0.1257102,0.09433498,0,0.3,0,0,0,0,
6.38224E+17,8.293106,10.37992,44.07964,-8.563474,3.051698,48.71425,-17.05741,-0.4441859,-4.249202,-61.66622,-6.98289,34.57793,0,0,0,32.29955,-48.41885,53.24197,-36.2161,-110.6672,-50.31561,0.001067912,-0.1257102,0.09433498,0,0.3,0,0,0,0,
6.38224E+17,5.300992,11.80599,45.6906,-15.00905,2.172756,49.59319,-17.05741,-0.4441859,-4.249202,-61.66622,-6.98289,34.57793,0,0,0,20.87516,-42.51614,56.63509,-36.2161,-110.6672,-50.31561,0.001067912,-0.1257102,0.09433498,0,0.3,0,0,0,0,
6.38224E+17,4.193673,12.67099,46.67118,-18.23184,1.367059,49.95942,-17.05741,-0.4441859,-4.249202,-61.66622,-6.98289,34.57793,0,0,0,16.60774,-38.90206,58.14679,-36.2161,-110.6672,-50.31561,0.001067912,-0.1257102,0.09433498,0,0.3,0,0,0,0,
6.38224E+17,2.568036,14.75165,49.0993,-24.0182,-0.3908245,51.05809,-17.05741,-0.4441859,-4.249202,-61.66622,-7.056135,34.57793,0,0,0,10.29395,-30.00604,61.16586,-36.2161,-110.6672,-50.31561,0.001067912,-0.1257102,0.09433498,0,0.3,0,0,0,0,
6.38224E+17,1.649197,17.32325,52.0644,-29.3651,-3.100896,52.88922,-17.05741,-0.4441859,-4.249202,-61.66622,-7.056135,34.57793,0,0,0,6.69061,-18.92369,64.0284,-36.2161,-110.6672,-50.31561,0.001067912,-0.1257102,0.09433498,0,0.3,0,0,0,0,
6.38224E+17,1.602077,18.67918,53.44189,-31.56245,-4.639044,53.84141,-17.05741,-0.4441859,-4.249202,-61.73947,-7.056135,34.57793,0,0,0,6.526483,-13.37044,64.99857,-36.2161,-110.6672,-50.31561,0.001067912,-0.1257102,0.09433498,0,0.3,0,0,0,0,
6.38224E+17,1.979037,21.74173,56.54708,-35.59094,-8.228058,56.18526,-17.05741,-0.4441859,-4.249202,-61.73947,-6.98289,34.65118,0,0,0,8.119699,-0.7634512,66.63275,-36.2161,-110.6672,-50.31561,0.001067912,-0.1257102,0.09433498,0,0.3,0,0,0,0,
6.38224E+17,3.015675,24.80427,59.58222,-38.74048,-12.1833,58.67559,-17.05741,-0.4441859,-4.249202,-61.66622,-6.98289,34.57793,0,0,0,12.41803,11.77768,67.36633,-36.2161,-110.6672,-50.31561,0.001067912,-0.1257102,0.09433498,0,0.3,0,0,0,0,
6.38224E+17,3.816714,26.39399,61.02975,-40.0589,-14.60039,59.92076,-17.05741,-0.4441859,-4.249202,-61.73947,-7.056135,34.57793,0,0,0,15.71688,18.04078,67.2398,-36.2161,-110.6672,-50.31561,0.001067912,-0.1257102,0.09433498,0,0.3,0,0,0,0,
6.38224E+17,5.88999,29.03573,63.78473,-41.59705,-19.80079,62.11811,-17.05741,-0.4441859,-4.249202,-61.66622,-6.98289,34.57793,0,0,0,24.241,29.16539,66.62682,-36.2161,-110.6672,-50.31561,0.001067912,-0.1257102,0.09433498,0,0.3,0,0,0,0,
6.38224E+17,8.104627,30.43842,66.32958,-41.37731,-25.22094,63.80275,-17.05741,-0.4441859,-4.249202,-61.73947,-6.98289,34.57793,0,0,0,33.42694,37.37003,66.38408,-36.2161,-110.6672,-50.31561,0.001067912,-0.1257102,0.09433498,0,0.3,0,0,0,0,
6.38224E+17,10.24858,30.92937,68.85109,-39.91241,-30.56783,64.75494,-17.05741,-0.4441859,-4.249202,-61.66622,-6.98289,34.57793,0,0,0,42.47931,43.77759,66.59684,-36.2161,-110.6672,-50.31561,0.001067912,-0.1257102,0.09433498,0,0.3,0,0,0,0,
6.38224E+17,11.26166,30.97612,69.90171,-38.66724,-32.98492,65.12117,-17.05741,-0.4441859,-4.249202,-61.73947,-7.056135,34.57793,0,0,0,46.78394,46.1594,66.59884,-36.2161,-110.6672,-50.31561,0.001067912,-0.1257102,0.09433498,0,0.3,0,0,0,0,
6.38224E+17,13.26426,30.97612,71.41929,-35.07822,-37.52613,65.3409,-17.05741,-0.4441859,-4.249202,-61.66622,-7.056135,34.57793,0,0,0,55.23397,49.492,65.95892,-36.2161,-110.6672,-50.31561,0.001067912,-0.1257102,0.09433498,0,0.3,0,0,0,0,
6.38224E+17,15.05481,30.97612,72.5633,-30.39053,-41.11514,64.16898,-17.05741,-0.4441859,-4.249202,-61.66622,-6.98289,34.57793,0,0,0,62.74203,52.02409,64.91357,-36.2161,-110.6672,-50.31561,0.001067912,-0.1257102,0.09433498,0,0.3,0,0,0,0,
6.38224E+17,15.85585,30.97612,72.77343,-27.75371,-42.50679,62.92381,-17.05741,-0.4441859,-4.249202,-61.73947,-7.056135,34.57793,0,0,0,66.0368,52.49094,64.15377,-36.2161,-110.6672,-50.31561,0.001067912,-0.1257102,0.09433498,0,0.3,0,0,0,0,
6.38224E+17,17.29301,30.95274,72.75008,-22.26032,-44.41117,59.40804,-17.05741,-0.4441859,-4.249202,-61.73947,-6.98289,34.57793,0,0,0,71.85088,52.39238,62.43575,-36.2161,-110.6672,-50.31561,0.001067912,-0.1257102,0.09433498,0,0.3,0,0,0,0,
6.38224E+17,18.82441,30.95274,72.37653,-17.79236,-45.29012,55.30631,-17.05741,-0.4441859,-4.249202,-61.73947,-6.98289,34.57793,0,0,0,77.90884,51.56292,60.18654,-36.2161,-110.6672,-50.31561,0.001067912,-0.1257102,0.09433498,0,0.3,0,0,0,0,
6.38224E+17,19.67257,30.90598,72.09636,-15.81474,-45.4366,53.25545,-17.05741,-0.4441859,-4.249202,-61.73947,-7.056135,34.57793,0,0,0,81.23511,50.8486,58.87358,-36.2161,-110.6672,-50.31561,0.001067912,-0.1257102,0.09433498,0,0.3,0,0,0,0,
6.38224E+17,21.81652,30.74234,71.65276,-10.98056,-45.5831,47.76206,-17.05741,-0.4441859,-4.249202,-61.73947,-6.98289,34.57793,0,0,0,89.63192,49.54034,55.55849,-36.2161,-110.6672,-50.31561,0.001067912,-0.1257102,0.09433498,0,0.3,0,0,0,0,
6.38224E+17,23.79556,30.41504,71.13912,-5.340686,-45.4366,41.75596,-17.05741,-0.4441859,-4.249202,-61.66622,-6.98289,34.57793,0,0,0,97.31335,47.75155,52.33522,-36.2161,-110.6672,-50.31561,0.001067912,-0.1257102,0.09433498,0,0.3,0,0,0,0,
6.38224E+17,25.51544,29.7137,70.20523,0.07945653,-44.55766,35.60336,-17.05741,-0.4441859,-4.249202,-61.66622,-6.98289,34.57793,0,0,0,103.9353,44.28785,49.40391,-36.2161,-110.6672,-50.31561,0.001067912,-0.1257102,0.09433498,0,0.3,0,0,0,0,
6.38224E+17,26.2458,29.26951,69.55151,2.276812,-43.82521,32.60031,-17.05741,-0.4441859,-4.249202,-61.66622,-6.98289,34.57793,0,0,0,106.6961,41.9594,48.04839,-36.2161,-110.6672,-50.31561,0.001067912,-0.1257102,0.09433498,0,0.3,0,0,0,0,
6.38224E+17,27.49447,28.12398,68.26741,5.206618,-41.84759,27.76613,-17.05741,-0.4441859,-4.249202,-61.73947,-7.056135,34.57793,0,0,0,111.481,36.83245,45.85354,-36.2161,-110.6672,-50.31561,0.001067912,-0.1257102,0.09433498,0,0.3,0,0,0,0,
6.38224E+17,28.67247,26.58102,66.60975,7.330729,-39.06427,23.29818,-17.05741,-0.4441859,-4.249202,-61.73947,-6.98289,34.57793,0,0,0,115.9426,30.08032,43.66532,-36.2161,-110.6672,-50.31561,0.001067912,-0.1257102,0.09433498,0,0.3,0,0,0,0,
6.38224E+17,29.16723,25.59913,65.06883,8.209671,-37.23314,21.54029,-17.05741,-0.4441859,-4.249202,-61.73947,-6.98289,34.57793,0,0,0,117.5435,24.75589,42.25209,-36.2161,-110.6672,-50.31561,0.001067912,-0.1257102,0.09433498,0,0.3,0,0,0,0,
6.38224E+17,29.40283,24.87441,63.94816,8.575896,-35.84149,20.5881,-17.05741,-0.4441859,-4.249202,-61.73947,-7.056135,34.57793,0,0,0,118.2105,20.87589,41.41557,-36.2161,-110.6672,-50.31561,0.001067912,-0.1257102,0.09433498,0,0.3,0,0,0,0,
6.38224E+17,29.56775,23.12104,61.77686,9.015368,-32.69194,19.04996,-17.05741,-0.4441859,-4.249202,-61.73947,-6.98289,34.57793,0,0,0,118.4954,12.65111,40.51318,-36.2161,-110.6672,-50.31561,0.001067912,-0.1257102,0.09433498,0,0.3,0,0,0,0,
6.38224E+17,29.42639,21.22741,59.44214,8.795631,-29.32266,18.61049,-17.05741,-0.4441859,-4.249202,-61.73947,-7.056135,34.57793,0,0,0,117.4868,3.835865,39.93113,-36.2161,-110.6672,-50.31561,0.001067912,-0.1257102,0.09433498,0,0.3,0,0,0,0,
6.38224E+17,29.02587,19.05324,57.52766,7.989935,-25.73365,18.46399,-17.05741,-0.4441859,-4.249202,-61.66622,-6.98289,34.57793,0,0,0,115.7433,-4.712951,40.23421,-36.2161,-110.6672,-50.31561,0.001067912,-0.1257102,0.09433498,0,0.3,0,0,0,0,
6.38224E+17,28.71959,18.07135,56.66381,7.477218,-23.90252,18.46399,-17.05741,-0.4441859,-4.249202,-61.66622,-6.98289,34.57793,0,0,0,114.4514,-8.567251,40.53009,-36.2161,-110.6672,-50.31561,0.001067912,-0.1257102,0.09433498,0,0.3,0,0,0,0,
6.38224E+17,27.80075,16.55177,55.19294,6.232051,-20.60649,18.53724,-17.05741,-0.4441859,-4.249202,-61.66622,-6.98289,34.57793,0,0,0,110.6834,-14.7792,41.57306,-36.2161,-110.6672,-50.31561,0.001067912,-0.1257102,0.09433498,0,0.3,0,0,0,0,
6.38224E+17,26.92904,15.75691,54.189,4.474167,-17.67669,18.97671,-17.05741,-0.4441859,-4.249202,-61.66622,-7.056135,34.57793,0,0,0,107.0984,-18.4628,42.48752,-36.2161,-110.6672,-50.31561,0.001067912,-0.1257102,0.09433498,0,0.3,0,0,0,0,
6.38224E+17,26.62276,15.73353,53.23177,3.302244,-15.99205,19.9289,-17.05741,-0.4441859,-4.249202,-61.73947,-7.056135,34.57793,0,0,0,105.3855,-20.31089,41.89142,-36.2161,-110.6672,-50.31561,0.001067912,-0.1257102,0.09433498,0,0.3,0,0,0,0,
6.38224E+17,26.57564,15.73353,52.1111,2.423302,-14.52714,20.80784,-17.05741,-0.4441859,-4.249202,-61.73947,-7.056135,34.57793,0,0,0,104.505,-22.38486,40.56355,-36.2161,-110.6672,-50.31561,0.001067912,-0.1257102,0.09433498,0,0.3,0,0,0,0,
6.38224E+17,26.52852,15.73353,50.64022,2.057076,-12.91575,21.46704,-17.05741,-0.4441859,-4.249202,-61.66622,-7.056135,34.57793,0,0,0,103.3788,-25.05927,38.73759,-36.2161,-110.6672,-50.31561,0.001067912,-0.1257102,0.09433498,0,0.3,0,0,0,0,
6.38224E+17,26.43428,15.73353,50.24332,2.057076,-12.25654,21.68678,-17.05741,-0.4441859,-4.249202,-61.66622,-6.98289,34.57793,0,0,0,102.7761,-25.77146,38.38055,-36.2161,-110.6672,-50.31561,0.001067912,-0.1257102,0.09433498,0,0.3,0,0,0,0,
6.38224E+17,26.15156,15.78029,50.21997,1.764095,-11.01137,21.90652,-17.05741,-0.4441859,-4.249202,-61.66622,-6.98289,34.57793,0,0,0,101.7265,-25.7085,38.82745,-36.2161,-110.6672,-50.31561,0.001067912,-0.1257102,0.09433498,0,0.3,0,0,0,0,
6.38224E+17,26.08088,15.85042,50.36005,1.617605,-10.71839,21.97976,-17.05741,-0.4441859,-4.249202,-61.73947,-7.056135,34.57793,0,0,0,101.5428,-25.30063,39.09991,-36.2161,-110.6672,-50.31561,0.001067912,-0.1257102,0.09433498,0,0.3,0,0,0,0,
6.38224E+17,25.98664,16.13096,50.71026,1.397869,-10.5719,22.05301,-17.05741,-0.4441859,-4.249202,-61.73947,-6.98289,34.57793,0,0,0,101.3497,-24.04372,39.57065,-36.2161,-110.6672,-50.31561,0.001067912,-0.1257102,0.09433498,0,0.3,0,0,0,0,
6.38224E+17,25.98664,16.6219,51.29394,1.251379,-10.86488,22.05301,-17.05741,-0.4441859,-4.249202,-61.66622,-7.056135,34.57793,0,0,0,101.5831,-21.89172,40.0495,-36.2161,-110.6672,-50.31561,0.001067912,-0.1257102,0.09433498,0,0.3,0,0,0,0,
6.38224E+17,26.03376,16.9492,51.80758,1.251379,-11.08462,22.05301,-17.05741,-0.4441859,-4.249202,-61.66622,-7.056135,34.57793,0,0,0,101.9841,-20.22621,40.43615,-36.2161,-110.6672,-50.31561,0.001067912,-0.1257102,0.09433498,0,0.3,0,0,0,0,
6.38224E+17,26.29292,17.83757,53.3485,1.69085,-11.96356,22.05301,-17.05741,-0.4441859,-4.249202,-61.73947,-7.056135,34.57793,0,0,0,103.619,-15.40507,41.37242,-36.2161,-110.6672,-50.31561,0.001067912,-0.1257102,0.09433498,0,0.3,0,0,0,0,
6.38224E+17,26.50496,19.07661,55.44976,2.643037,-13.28197,22.05301,-17.05741,-0.4441859,-4.249202,-61.73947,-7.056135,34.57793,0,0,0,105.2574,-8.693543,42.71804,-36.2161,-110.6672,-50.31561,0.001067912,-0.1257102,0.09433498,0,0.3,0,0,0,0,
6.38224E+17,26.57564,19.84809,56.68716,3.155754,-14.23416,22.05301,-17.05741,-0.4441859,-4.249202,-61.73947,-6.98289,34.57793,0,0,0,105.9693,-4.611163,43.49071,-36.2161,-110.6672,-50.31561,0.001067912,-0.1257102,0.09433498,0,0.3,0,0,0,0,
6.38224E+17,26.78768,21.81186,59.65226,4.547412,-16.94423,22.05301,-17.05741,-0.4441859,-4.249202,-61.73947,-6.98289,34.57793,0,0,0,107.6602,5.522877,44.89499,-36.2161,-110.6672,-50.31561,0.001067912,-0.1257102,0.09433498,0,0.3,0,0,0,0,
6.38224E+17,27.09396,23.77563,63.80808,6.744767,-20.82623,22.05301,-17.05741,-0.4441859,-4.249202,-61.73947,-7.056135,34.57793,0,0,0,110.0782,18.25293,46.81755,-36.2161,-110.6672,-50.31561,0.001067912,-0.1257102,0.09433498,0,0.3,0,0,0,0,
6.38224E+17,27.21176,24.87441,68.36079,9.528083,-25.14769,22.05301,-17.05741,-0.4441859,-4.249202,-61.73947,-6.98289,34.57793,0,0,0,112.0024,30.26686,49.47308,-36.2161,-110.6672,-50.31561,0.001067912,-0.1257102,0.09433498,0,0.3,0,0,0,0,
6.38224E+17,27.21176,25.10819,70.90565,11.5057,-27.78452,21.90652,-17.05741,-0.4441859,-4.249202,-61.66622,-6.98289,34.57793,0,0,0,112.8398,36.31216,51.10168,-36.2161,-110.6672,-50.31561,0.001067912,-0.1257102,0.09433498,0,0.3,0,0,0,0,
6.38224E+17,27.09396,25.17833,75.5284,15.75392,-33.13141,20.36837,-17.05741,-0.4441859,-4.249202,-61.66622,-6.98289,34.57793,0,0,0,113.7713,46.75785,54.03643,-36.2161,-110.6672,-50.31561,0.001067912,-0.1257102,0.09433498,0,0.3,0,0,0,0,
6.38224E+17,26.81124,25.17833,79.03049,21.32055,-38.47831,16.70611,-17.05741,-0.4441859,-4.249202,-61.73947,-7.056135,34.57793,0,0,0,113.482,54.70731,56.19669,-36.2161,-110.6672,-50.31561,0.001067912,-0.1257102,0.09433498,0,0.3,0,0,0,0,
6.38224E+17,26.62276,25.17833,80.2679,24.61659,-40.82215,14.21577,-17.05741,-0.4441859,-4.249202,-61.66622,-7.056135,34.57793,0,0,0,112.9746,57.54032,57.03136,-36.2161,-110.6672,-50.31561,0.001067912,-0.1257102,0.09433498,0,0.3,0,0,0,0,
6.38224E+17,26.22224,25.2017,81.15509,30.18322,-44.26468,9.747819,-17.05741,-0.4441859,-4.249202,-61.73947,-7.056135,34.57793,0,0,0,111.5333,59.62732,58.09379,-36.2161,-110.6672,-50.31561,0.001067912,-0.1257102,0.09433498,0,0.3,0,0,0,0,
6.38224E+17,25.93952,25.2017,81.15509,34.28495,-46.16905,7.550464,-17.05741,-0.4441859,-4.249202,-61.66622,-7.056135,34.57793,0,0,0,110.4146,59.62732,58.64138,-36.2161,-110.6672,-50.31561,0.001067912,-0.1257102,0.09433498,0,0.3,0,0,0,0,
6.38224E+17,25.86884,25.2017,80.99167,35.67661,-46.68177,7.037747,-17.05741,-0.4441859,-4.249202,-61.73947,-7.056135,34.57793,0,0,0,110.1088,59.25156,58.7243,-36.2161,-110.6672,-50.31561,0.001067912,-0.1257102,0.09433498,0,0.3,0,0,0,0,
6.38224E+17,25.72748,25.17833,80.40799,37.58098,-46.9015,7.330729,-17.05741,-0.4441859,-4.249202,-61.73947,-6.98289,34.57793,0,0,0,109.463,57.86172,58.81836,-36.2161,-110.6672,-50.31561,0.001067912,-0.1257102,0.09433498,0,0.3,0,0,0,0,
6.38224E+17,25.51544,25.17833,79.89434,37.72747,-46.68177,8.50265,-17.05741,-0.4441859,-4.249202,-61.66622,-6.98289,34.57793,0,0,0,108.5334,56.6839,59.03737,-36.2161,-110.6672,-50.31561,0.001067912,-0.1257102,0.09433498,0,0.3,0,0,0,0,
6.38224E+17,25.37408,25.17833,79.4274,37.288,-46.53528,9.454838,-17.05741,-0.4441859,-4.249202,-61.66622,-6.98289,34.57793,0,0,0,107.8885,55.61478,59.12822,-36.2161,-110.6672,-50.31561,0.001067912,-0.1257102,0.09433498,0,0.3,0,0,0,0,
6.38224E+17,25.09136,25.17833,78.07326,35.53012,-46.02256,12.45789,-17.05741,-0.4441859,-4.249202,-61.73947,-7.056135,34.57793,0,0,0,106.504,52.52379,59.10101,-36.2161,-110.6672,-50.31561,0.001067912,-0.1257102,0.09433498,0,0.3,0,0,0,0,
6.38224E+17,24.7144,25.17833,75.80857,32.30733,-44.99713,16.8526,-17.05741,-0.4441859,-4.249202,-61.73947,-6.98289,34.57793,0,0,0,104.5074,47.38962,58.71498,-36.2161,-110.6672,-50.31561,0.001067912,-0.1257102,0.09433498,0,0.3,0,0,0,0,
6.38224E+17,24.33744,25.17833,71.79285,27.61964,-42.65329,22.78546,-17.05741,-0.4441859,-4.249202,-61.66622,-6.98289,34.57793,0,0,0,101.9369,38.41633,57.02243,-36.2161,-110.6672,-50.31561,0.001067912,-0.1257102,0.09433498,0,0.3,0,0,0,0,
6.38224E+17,24.1254,25.17833,67.47359,23.15168,-38.91778,28.13236,-17.05741,-0.4441859,-4.249202,-61.73947,-6.98289,34.57793,0,0,0,99.67249,28.99442,54.20589,-36.2161,-110.6672,-50.31561,0.001067912,-0.1257102,0.09433498,0,0.3,0,0,0,0,
6.38224E+17,24.10184,25.17833,65.30231,21.24731,-36.57394,30.62269,-17.05741,-0.4441859,-4.249202,-61.73947,-6.98289,34.57793,0,0,0,98.75445,24.36431,52.39931,-36.2161,-110.6672,-50.31561,0.001067912,-0.1257102,0.09433498,0,0.3,0,0,0,0,
6.38224E+17,24.07828,25.17833,62.31385,19.63592,-33.13141,33.77223,-17.05741,-0.4441859,-4.249202,-61.73947,-6.98289,34.57793,0,0,0,97.41132,18.12388,49.63741,-36.2161,-110.6672,-50.31561,0.001067912,-0.1257102,0.09433498,0,0.3,0,0,0,0,
6.38224E+17,24.07828,25.17833,58.81176,18.75698,-29.24942,36.55555,-17.05741,-0.4441859,-4.249202,-61.73947,-6.98289,34.57793,0,0,0,95.77726,11.02653,45.98068,-36.2161,-110.6672,-50.31561,0.001067912,-0.1257102,0.09433498,0,0.3,0,0,0,0,
6.38224E+17,24.07828,25.10819,56.01009,18.17101,-25.88014,38.0937,-17.05741,-0.4441859,-4.249202,-61.73947,-6.98289,34.57793,0,0,0,94.37283,5.385351,42.83785,-36.2161,-110.6672,-50.31561,0.001067912,-0.1257102,0.09433498,0,0.3,0,0,0,0,
6.38224E+17,24.03116,24.9913,54.65595,17.80479,-24.342,38.60641,-17.05741,-0.4441859,-4.249202,-61.66622,-6.98289,34.57793,0,0,0,93.51601,2.546826,41.38335,-36.2161,-110.6672,-50.31561,0.001067912,-0.1257102,0.09433498,0,0.3,0,0,0,0,
6.38224E+17,23.8898,24.21982,52.04106,16.99909,-21.41219,39.19238,-17.05741,-0.4441859,-4.249202,-61.66622,-7.056135,34.57793,0,0,0,91.8299,-3.967836,38.97557,-36.2161,-110.6672,-50.31561,0.001067912,-0.1257102,0.09433498,0,0.3,0,0,0,0,
6.38224E+17,23.51284,22.55997,49.9865,15.82717,-18.48238,39.48536,-17.05741,-0.4441859,-4.249202,-61.73947,-7.056135,34.57793,0,0,0,89.87556,-11.23005,38.22303,-36.2161,-110.6672,-50.31561,0.001067912,-0.1257102,0.09433498,0,0.3,0,0,0,0,
6.38224E+17,23.23012,21.53132,49.146,15.16796,-16.94423,39.5586,-17.05741,-0.4441859,-4.249202,-61.66622,-7.056135,34.57793,0,0,0,88.70918,-14.93798,38.32388,-36.2161,-110.6672,-50.31561,0.001067912,-0.1257102,0.09433498,0,0.3,0,0,0,0,
6.38224E+17,22.38196,19.7312,47.60507,13.48332,-14.08767,40.07132,-17.05741,-0.4441859,-4.249202,-61.73947,-6.98289,34.57793,0,0,0,85.29517,-21.53948,38.77663,-36.2161,-110.6672,-50.31561,0.001067912,-0.1257102,0.09433498,0,0.3,0,0,0,0,
6.38224E+17,20.89769,18.49216,46.5311,11.87193,-11.23111,41.09675,-17.05741,-0.4441859,-4.249202,-61.73947,-6.98289,34.57793,0,0,0,79.63092,-26.0943,40.20804,-36.2161,-110.6672,-50.31561,0.001067912,-0.1257102,0.09433498,0,0.3,0,0,0,0,
6.38224E+17,17.81133,17.97784,45.97077,8.50265,-8.594284,43.66033,-17.05741,-0.4441859,-4.249202,-61.73947,-7.056135,34.57793,0,0,0,68.12517,-28.17327,43.69098,-36.2161,-110.6672,-50.31561,0.001067912,-0.1257102,0.09433498,0,0.3,0,0,0,0,
6.38224E+17,15.52601,17.97784,46.08751,4.913638,-7.495606,45.41821,-17.05741,-0.4441859,-4.249202,-61.73947,-6.98289,34.57793,0,0,0,59.66619,-27.97773,46.42063,-36.2161,-110.6672,-50.31561,0.001067912,-0.1257102,0.09433498,0,0.3,0,0,0,0,
6.38224E+17,14.1831,18.00122,46.48441,2.716283,-7.27587,46.44365,-17.05741,-0.4441859,-4.249202,-61.73947,-7.056135,34.57793,0,0,0,54.7687,-27.2583,48.3626,-36.2161,-110.6672,-50.31561,0.001067912,-0.1257102,0.09433498,0,0.3,0,0,0,0,
6.38224E+17,11.07318,18.21162,48.04868,-2.410879,-7.422361,49.37346,-17.05741,-0.4441859,-4.249202,-61.73947,-6.98289,34.57793,0,0,0,43.37628,-24.1188,53.28983,-36.2161,-110.6672,-50.31561,0.001067912,-0.1257102,0.09433498,0,0.3,0,0,0,0,
6.38224E+17,8.198866,18.93634,50.00984,-7.684532,-8.594284,52.59624,-17.05741,-0.4441859,-4.249202,-61.66622,-6.98289,34.57793,0,0,0,32.55769,-19.07377,57.61637,-36.2161,-110.6672,-50.31561,0.001067912,-0.1257102,0.09433498,0,0.3,0,0,0,0,
6.38224E+17,6.997309,19.38053,51.08382,-10.54109,-9.399981,53.84141,-17.05741,-0.4441859,-4.249202,-61.66622,-6.98289,34.57793,0,0,0,27.96426,-16.16724,59.48915,-36.2161,-110.6672,-50.31561,0.001067912,-0.1257102,0.09433498,0,0.3,0,0,0,0,
6.38224E+17,5.253871,20.61958,54.28239,-16.62044,-11.59733,56.40499,-17.05741,-0.4441859,-4.249202,-61.66622,-7.056135,34.57793,0,0,0,21.34241,-7.537768,63.74572,-36.2161,-110.6672,-50.31561,0.001067912,-0.1257102,0.09433498,0,0.3,0,0,0,0,
6.38224E+17,4.452833,21.97551,57.85452,-21.82085,-14.96661,59.84751,-17.05741,-0.4441859,-4.249202,-61.73947,-6.98289,34.57793,0,0,0,18.36681,2.299301,67.50468,-36.2161,-110.6672,-50.31561,0.001067912,-0.1257102,0.09433498,0,0.3,0,0,0,0,
6.38224E+17,4.664873,23.35482,61.4967,-25.48311,-18.62887,63.58302,-17.05741,-0.4441859,-4.249202,-61.66622,-6.98289,34.57793,0,0,0,19.48695,12.57729,70.46716,-36.2161,-110.6672,-50.31561,0.001067912,-0.1257102,0.09433498,0,0.3,0,0,0,0,
6.38224E+17,4.994712,24.68738,64.43845,-27.60722,-22.21789,66.87905,-17.05741,-0.4441859,-4.249202,-61.66622,-6.98289,34.57793,0,0,0,21.02241,21.50798,72.19296,-36.2161,-110.6672,-50.31561,0.001067912,-0.1257102,0.09433498,0,0.3,0,0,0,0,
6.38224E+17,5.371671,25.94981,67.05334,-29.87782,-26.24637,70.39482,-17.05741,-0.4441859,-4.249202,-61.73947,-7.056135,34.57793,0,0,0,22.72091,29.71209,73.28727,-36.2161,-110.6672,-50.31561,0.001067912,-0.1257102,0.09433498,0,0.3,0,0,0,0,
6.38224E+17,6.384749,27.04858,71.23251,-32.95412,-31.95949,74.93602,-17.05741,-0.4441859,-4.249202,-61.73947,-7.056135,34.57793,0,0,0,27.24779,41.08785,75.15463,-36.2161,-110.6672,-50.31561,0.001067912,-0.1257102,0.09433498,0,0.3,0,0,0,0,
6.38224E+17,7.091548,27.21223,73.40381,-34.49226,-35.18228,77.64609,-17.05741,-0.4441859,-4.249202,-61.66622,-6.98289,34.57793,0,0,0,30.41755,46.24126,76.1507,-36.2161,-110.6672,-50.31561,0.001067912,-0.1257102,0.09433498,0,0.3,0,0,0,0,
6.38224E+17,9.541784,27.53952,77.7464,-38.59399,-44.41117,85.26359,-17.05741,-0.4441859,-4.249202,-61.73947,-7.056135,34.57793,0,0,0,41.20174,56.70366,76.76365,-36.2161,-110.6672,-50.31561,0.001067912,-0.1257102,0.09433498,0,0.3,0,0,0,0,
6.38224E+17,10.48418,27.7733,78.84372,-39.32644,-47.048,86.582,-17.05741,-0.4441859,-4.249202,-61.66622,-6.98289,34.57793,0,0,0,45.27592,59.68636,76.31396,-36.2161,-110.6672,-50.31561,0.001067912,-0.1257102,0.09433498,0,0.3,0,0,0,0,
6.38224E+17,12.39254,28.40452,80.12782,-38.88697,-52.10191,88.12015,-17.05741,-0.4441859,-4.249202,-61.73947,-7.056135,34.57793,0,0,0,53.36695,63.92076,74.52759,-36.2161,-110.6672,-50.31561,0.001067912,-0.1257102,0.09433498,0,0.3,0,0,0,0,
6.38224E+17,13.97106,29.10587,80.36129,-33.9063,-55.91066,85.1171,-17.05741,-0.4441859,-4.249202,-61.73947,-7.056135,34.57793,0,0,0,59.86985,65.88731,72.29266,-36.2161,-110.6672,-50.31561,0.001067912,-0.1257102,0.09433498,0,0.3,0,0,0,0,
6.38224E+17,14.84277,29.40978,80.40799,-29.58484,-57.08258,81.96756,-17.05741,-0.4441859,-4.249202,-61.73947,-7.056135,34.57793,0,0,0,63.4401,66.61155,71.03735,-36.2161,-110.6672,-50.31561,0.001067912,-0.1257102,0.09433498,0,0.3,0,0,0,0,
6.38224E+17,16.72757,29.85397,80.40799,-17.35289,-58.54749,71.56674,-17.05741,-0.4441859,-4.249202,-61.73947,-7.056135,34.57793,0,0,0,71.1321,67.51015,68.33178,-36.2161,-110.6672,-50.31561,0.001067912,-0.1257102,0.09433498,0,0.3,0,0,0,0,
6.38224E+17,18.63593,29.99424,80.40799,-1.312202,-58.98696,56.55148,-17.05741,-0.4441859,-4.249202,-61.73947,-6.98289,34.57793,0,0,0,78.92234,67.79308,65.67743,-36.2161,-110.6672,-50.31561,0.001067912,-0.1257102,0.09433498,0,0.3,0,0,0,0,
6.38224E+17,20.75632,29.97086,80.33794,14.28902,-58.18126,41.38973,-17.05741,-0.4441859,-4.249202,-61.73947,-7.056135,34.57793,0,0,0,87.52716,67.58524,62.59703,-36.2161,-110.6672,-50.31561,0.001067912,-0.1257102,0.09433498,0,0.3,0,0,0,0,
6.38224E+17,21.86364,29.9241,80.10447,20.73459,-57.37556,34.57793,-17.05741,-0.4441859,-4.249202,-61.73947,-6.98289,34.57793,0,0,0,91.95976,66.95546,60.82719,-36.2161,-110.6672,-50.31561,0.001067912,-0.1257102,0.09433498,0,0.3,0,0,0,0,
6.38224E+17,24.14896,29.62018,79.10054,31.50163,-54.73874,22.05301,-17.05741,-0.4441859,-4.249202,-61.73947,-7.056135,34.57793,0,0,0,100.9964,64.04333,56.91367,-36.2161,-110.6672,-50.31561,0.001067912,-0.1257102,0.09433498,0,0.3,0,0,0,0,
6.38224E+17,26.128,29.26951,77.76974,37.14151,-51.73569,14.06928,-17.05741,-0.4441859,-4.249202,-61.73947,-6.98289,34.57793,0,0,0,108.6186,60.29827,53.09425,-36.2161,-110.6672,-50.31561,0.001067912,-0.1257102,0.09433498,0,0.3,0,0,0,0,
6.38224E+17,27.02328,29.08249,77.02263,38.60641,-50.12429,11.43246,-17.05741,-0.4441859,-4.249202,-61.66622,-7.056135,34.57793,0,0,0,111.9894,58.2213,51.22109,-36.2161,-110.6672,-50.31561,0.001067912,-0.1257102,0.09433498,0,0.3,0,0,0,0,
6.38224E+17,28.83739,28.6383,75.20155,40.07132,-46.75502,7.843444,-17.05741,-0.4441859,-4.249202,-61.66622,-6.98289,34.57793,0,0,0,118.6343,53.20158,47.11177,-36.2161,-110.6672,-50.31561,0.001067912,-0.1257102,0.09433498,0,0.3,0,0,0,0,
6.38224E+17,30.34523,28.311,72.82012,40.07132,-43.38574,5.865825,-17.05741,-0.4441859,-4.249202,-61.73947,-7.056135,34.57793,0,0,0,123.675,47.20428,42.91143,-36.2161,-110.6672,-50.31561,0.001067912,-0.1257102,0.09433498,0,0.3,0,0,0,0,
6.38224E+17,31.64103,27.86682,69.9951,39.26562,-39.94322,4.986883,-17.05741,-0.4441859,-4.249202,-61.73947,-7.056135,34.57793,0,0,0,127.5766,40.06108,38.69049,-36.2161,-110.6672,-50.31561,0.001067912,-0.1257102,0.09433498,0,0.3,0,0,0,0,
6.38224E+17,32.70123,26.97845,67.07669,37.43449,-36.57394,4.620657,-17.05741,-0.4441859,-4.249202,-61.66622,-7.056135,34.57793,0,0,0,130.5574,31.90529,35.00455,-36.2161,-110.6672,-50.31561,0.001067912,-0.1257102,0.09433498,0,0.3,0,0,0,0,
6.38224E+17,33.17242,26.37061,65.53577,36.40906,-34.96254,4.547412,-17.05741,-0.4441859,-4.249202,-61.73947,-6.98289,34.57793,0,0,0,131.7844,27.35726,33.2493,-36.2161,-110.6672,-50.31561,0.001067912,-0.1257102,0.09433498,0,0.3,0,0,0,0,
6.38224E+17,33.9499,24.85103,62.68741,34.06521,-31.59327,4.547412,-17.05741,-0.4441859,-4.249202,-61.66622,-6.98289,34.57793,0,0,0,133.7452,18.20477,30.30984,-36.2161,-110.6672,-50.31561,0.001067912,-0.1257102,0.09433498,0,0.3,0,0,0,0,
6.38224E+17,34.23262,23.19118,59.88574,31.9411,-28.00425,5.060128,-17.05741,-0.4441859,-4.249202,-61.73947,-7.056135,34.57793,0,0,0,133.8463,8.958105,28.35786,-36.2161,-110.6672,-50.31561,0.001067912,-0.1257102,0.09433498,0,0.3,0,0,0,0,
6.38224E+17,34.1855,22.30281,58.20473,30.69594,-26.24637,5.499599,-17.05741,-0.4441859,-4.249202,-61.66622,-6.98289,34.57793,0,0,0,133.003,3.696328,27.46457,-36.2161,-110.6672,-50.31561,0.001067912,-0.1257102,0.09433498,0,0.3,0,0,0,0,
6.38224E+17,33.43158,20.15201,54.58591,27.47315,-22.43762,6.964502,-17.05741,-0.4441859,-4.249202,-61.66622,-6.98289,34.57793,0,0,0,128.8457,-7.983199,26.82058,-36.2161,-110.6672,-50.31561,0.001067912,-0.1257102,0.09433498,0,0.3,0,0,0,0,
6.38224E+17,32.32427,18.53891,51.36399,24.54334,-19.28808,8.649141,-17.05741,-0.4441859,-4.249202,-61.66622,-7.056135,34.57793,0,0,0,123.3008,-17.51138,26.50979,-36.2161,-110.6672,-50.31561,0.001067912,-0.1257102,0.09433498,0,0.3,0,0,0,0,
6.38224E+17,31.54679,17.60379,49.16934,22.71221,-17.31046,9.821064,-17.05741,-0.4441859,-4.249202,-61.73947,-6.98289,34.57793,0,0,0,119.2905,-23.50821,25.95799,-36.2161,-110.6672,-50.31561,0.001067912,-0.1257102,0.09433498,0,0.3,0,0,0,0,
6.38224E+17,29.80335,15.47637,45.20031,18.75698,-13.50171,11.87193,-17.05741,-0.4441859,-4.249202,-61.73947,-7.056135,34.57793,0,0,0,110.9044,-35.02923,25.27372,-36.2161,-110.6672,-50.31561,0.001067912,-0.1257102,0.09433498,0,0.3,0,0,0,0,
6.38224E+17,27.61227,12.90477,42.14182,14.80174,-9.25349,13.99604,-17.05741,-0.4441859,-4.249202,-61.66622,-6.98289,34.57793,0,0,0,101.7145,-45.74599,26.11047,-36.2161,-110.6672,-50.31561,0.001067912,-0.1257102,0.09433498,0,0.3,0,0,0,0,
6.38224E+17,25.16204,10.87086,40.22734,11.13948,-5.371496,16.8526,-17.05741,-0.4441859,-4.249202,-61.73947,-6.98289,34.57793,0,0,0,92.29689,-53.31183,28.12867,-36.2161,-110.6672,-50.31561,0.001067912,-0.1257102,0.09433498,0,0.3,0,0,0,0,
6.38224E+17,21.76941,9.327903,38.47629,6.891257,-1.635992,20.88108,-17.05741,-0.4441859,-4.249202,-61.73947,-6.98289,34.57793,0,0,0,79.57275,-59.43118,30.90458,-36.2161,-110.6672,-50.31561,0.001067912,-0.1257102,0.09433498,0,0.3,0,0,0,0,
6.38224E+17,18.82441,8.860339,38.17278,3.375489,0.6346079,25.05606,-17.05741,-0.4441859,-4.249202,-61.73947,-7.056135,34.57793,0,0,0,69.10719,-60.94375,34.36792,-36.2161,-110.6672,-50.31561,0.001067912,-0.1257102,0.09433498,0,0.3,0,0,0,0,
6.38224E+17,16.98673,8.860339,38.19613,1.178134,1.733285,27.69288,-17.05741,-0.4441859,-4.249202,-61.66622,-6.98289,34.57793,0,0,0,62.58337,-60.91016,36.52063,-36.2161,-110.6672,-50.31561,0.001067912,-0.1257102,0.09433498,0,0.3,0,0,0,0,
6.38224E+17,13.14646,9.117499,38.73312,-3.729292,3.344679,33.11303,-17.05741,-0.4441859,-4.249202,-61.66622,-7.056135,34.57793,0,0,0,48.92288,-59.5416,41.11402,-36.2161,-110.6672,-50.31561,0.001067912,-0.1257102,0.09433498,0,0.3,0,0,0,0,
6.38224E+17,9.612464,9.468172,39.87713,-8.783209,4.150376,37.94721,-17.05741,-0.4441859,-4.249202,-61.73947,-7.056135,34.57793,0,0,0,36.24035,-57.04957,45.6327,-36.2161,-110.6672,-50.31561,0.001067912,-0.1257102,0.09433498,0,0.3,0,0,0,0,
6.38224E+17,8.010387,9.678576,40.78767,-11.71302,4.077131,40.3643,-17.05741,-0.4441859,-4.249202,-61.73947,-6.98289,34.57793,0,0,0,30.45745,-55.19513,48.0813,-36.2161,-110.6672,-50.31561,0.001067912,-0.1257102,0.09433498,0,0.3,0,0,0,0,
6.38224E+17,5.748631,10.1929,43.19244,-16.76693,3.564415,44.97874,-17.05741,-0.4441859,-4.249202,-61.66622,-6.98289,34.57793,0,0,0,22.28825,-50.27203,53.04789,-36.2161,-110.6672,-50.31561,0.001067912,-0.1257102,0.09433498,0,0.3,0,0,0,0,
6.38224E+17,4.405713,11.01113,45.38708,-20.57568,2.538982,49.88617,-17.05741,-0.4441859,-4.249202,-61.66622,-6.98289,34.57793,0,0,0,17.34734,-44.83369,56.80532,-36.2161,-110.6672,-50.31561,0.001067912,-0.1257102,0.09433498,0,0.3,0,0,0,0,
6.38224E+17,3.910954,11.80599,46.29763,-22.11383,1.806531,51.93703,-17.05741,-0.4441859,-4.249202,-61.66622,-6.98289,34.65118,0,0,0,15.4782,-41.49996,58.0545,-36.2161,-110.6672,-50.31561,0.001067912,-0.1257102,0.09433498,0,0.3,0,0,0,0,
6.38224E+17,2.992115,14.84516,48.09537,-25.04364,-0.3908245,55.67254,-17.05741,-0.4441859,-4.249202,-61.66622,-6.98289,34.57793,0,0,0,11.90887,-31.5482,59.48473,-36.2161,-110.6672,-50.31561,0.001067912,-0.1257102,0.09433498,0,0.3,0,0,0,0,
6.38224E+17,2.685836,17.95446,49.33278,-26.87477,-2.73467,57.50367,-17.05741,-0.4441859,-4.249202,-61.73947,-6.98289,34.57793,0,0,0,10.68411,-22.44288,59.40257,-36.2161,-110.6672,-50.31561,0.001067912,-0.1257102,0.09433498,0,0.3,0,0,0,0,
6.38224E+17,2.638716,19.89485,50.3367,-28.04669,-4.492554,58.38261,-17.05741,-0.4441859,-4.249202,-61.66622,-6.98289,34.57793,0,0,0,10.49876,-16.3856,59.45368,-36.2161,-110.6672,-50.31561,0.001067912,-0.1257102,0.09433498,0,0.3,0,0,0,0,
6.38224E+17,2.662276,23.68212,52.9516,-30.39053,-8.301303,59.99401,-17.05741,-0.4441859,-4.249202,-61.73947,-6.98289,34.57793,0,0,0,10.61589,-3.430342,59.95386,-36.2161,-110.6672,-50.31561,0.001067912,-0.1257102,0.09433498,0,0.3,0,0,0,0,
6.38224E+17,2.874315,27.1421,56.03344,-32.80762,-12.76926,61.97163,-17.05741,-0.4441859,-4.249202,-61.66622,-6.98289,34.57793,0,0,0,11.49634,9.680267,60.62245,-36.2161,-110.6672,-50.31561,0.001067912,-0.1257102,0.09433498,0,0.3,0,0,0,0,
6.38224E+17,3.416194,30.06437,58.69503,-35.15147,-17.5302,64.60844,-17.05741,-0.4441859,-4.249202,-61.73947,-7.056135,34.57793,0,0,0,13.66636,20.86693,60.58804,-36.2161,-110.6672,-50.31561,0.001067912,-0.1257102,0.09433498,0,0.3,0,0,0,0,
6.38224E+17,4.240793,32.4957,60.98306,-36.9826,-22.14464,67.97772,-17.05741,-0.4441859,-4.249202,-61.73947,-7.056135,34.57793,0,0,0,16.94029,30.30662,60.10583,-36.2161,-110.6672,-50.31561,0.001067912,-0.1257102,0.09433498,0,0.3,0,0,0,0,
6.38224E+17,4.759112,33.47759,61.96364,-37.56856,-24.342,69.51588,-17.05741,-0.4441859,-4.249202,-61.73947,-7.056135,34.57793,0,0,0,18.99346,34.22856,59.7895,-36.2161,-110.6672,-50.31561,0.001067912,-0.1257102,0.09433498,0,0.3,0,0,0,0,
6.38224E+17,5.86643,35.02055,63.64465,-38.37426,-28.37048,71.78648,-17.05741,-0.4441859,-4.249202,-61.66622,-6.98289,34.57793,0,0,0,23.37494,40.67658,59.14811,-36.2161,-110.6672,-50.31561,0.001067912,-0.1257102,0.09433498,0,0.3,0,0,0,0,
6.38224E+17,6.903069,36.3531,65.02214,-38.66724,-32.17923,73.03164,-17.05741,-0.4441859,-4.249202,-61.73947,-6.98289,34.57793,0,0,0,27.4364,46.08508,58.27044,-36.2161,-110.6672,-50.31561,0.001067912,-0.1257102,0.09433498,0,0.3,0,0,0,0,
6.38224E+17,7.704108,37.03107,65.76924,-38.81373,-34.30334,73.47112,-17.05741,-0.4441859,-4.249202,-61.73947,-7.056135,34.57793,0,0,0,30.5726,48.93127,57.64783,-36.2161,-110.6672,-50.31561,0.001067912,-0.1257102,0.09433498,0,0.3,0,0,0,0,
6.38224E+17,8.293106,37.38175,66.02607,-38.81373,-35.32877,73.61761,-17.05741,-0.4441859,-4.249202,-61.73947,-6.98289,34.57793,0,0,0,32.85822,50.12691,57.07479,-36.2161,-110.6672,-50.31561,0.001067912,-0.1257102,0.09433498,0,0.3,0,0,0,0,
6.38224E+17,9.895184,38.03634,66.42297,-38.15452,-37.01341,73.7641,-17.05741,-0.4441859,-4.249202,-61.66622,-6.98289,34.57793,0,0,0,39.05164,52.17754,55.51693,-36.2161,-110.6672,-50.31561,0.001067912,-0.1257102,0.09433498,0,0.3,0,0,0,0,
6.38224E+17,11.92134,38.69093,66.93661,-35.95716,-38.69805,73.25138,-17.05741,-0.4441859,-4.249202,-61.66622,-7.056135,34.57793,0,0,0,46.84464,54.46986,53.53414,-36.2161,-110.6672,-50.31561,0.001067912,-0.1257102,0.09433498,0,0.3,0,0,0,0,
6.38224E+17,13.07578,39.0416,67.14674,-34.05279,-39.79673,72.37244,-17.05741,-0.4441859,-4.249202,-61.73947,-7.056135,34.57793,0,0,0,51.23281,55.55563,52.23225,-36.2161,-110.6672,-50.31561,0.001067912,-0.1257102,0.09433498,0,0.3,0,0,0,0,
6.38224E+17,15.62025,39.5793,67.54364,-28.77914,-41.92084,68.56369,-17.05741,-0.4441859,-4.249202,-61.66622,-6.98289,34.57793,0,0,0,60.85735,57.37637,49.31944,-36.2161,-110.6672,-50.31561,0.001067912,-0.1257102,0.09433498,0,0.3,0,0,0,0,
6.38224E+17,18.11761,39.64943,68.24406,-21.23489,-43.89846,62.19136,-17.05741,-0.4441859,-4.249202,-61.73947,-7.056135,34.57793,0,0,0,70.44253,59.01242,46.94507,-36.2161,-110.6672,-50.31561,0.001067912,-0.1257102,0.09433498,0,0.3,0,0,0,0,
6.38224E+17,19.13069,39.62605,68.50088,-17.49938,-44.70415,58.82208,-17.05741,-0.4441859,-4.249202,-61.66622,-6.98289,34.57793,0,0,0,74.32164,59.52617,45.90688,-36.2161,-110.6672,-50.31561,0.001067912,-0.1257102,0.09433498,0,0.3,0,0,0,0,
6.38224E+17,21.2982,39.62605,68.64096,-9.076189,-45.94932,50.61862,-17.05741,-0.4441859,-4.249202,-61.66622,-6.98289,34.57793,0,0,0,82.4152,59.82965,43.05362,-36.2161,-110.6672,-50.31561,0.001067912,-0.1257102,0.09433498,0,0.3,0,0,0,0,
6.38224E+17,22.85316,39.62605,68.64096,-3.289821,-46.46204,44.61252,-17.05741,-0.4441859,-4.249202,-61.73947,-6.98289,34.57793,0,0,0,88.12145,59.82965,40.73937,-36.2161,-110.6672,-50.31561,0.001067912,-0.1257102,0.09433498,0,0.3,0,0,0,0,
6.38224E+17,24.5966,39.60268,68.64096,2.423302,-46.68177,38.24019,-17.05741,-0.4441859,-4.249202,-61.66622,-6.98289,34.57793,0,0,0,94.45644,59.78774,37.99312,-36.2161,-110.6672,-50.31561,0.001067912,-0.1257102,0.09433498,0,0.3,0,0,0,0,
6.38224E+17,25.49188,39.5793,68.57092,5.499599,-46.75502,34.57793,-17.05741,-0.4441859,-4.249202,-61.73947,-7.056135,34.57793,0,0,0,97.65834,59.59403,36.46968,-36.2161,-110.6672,-50.31561,0.001067912,-0.1257102,0.09433498,0,0.3,0,0,0,0,
6.38224E+17,27.89499,39.25201,67.70707,13.55657,-46.38879,24.90957,-17.05741,-0.4441859,-4.249202,-61.73947,-7.056135,34.57793,0,0,0,106.0366,57.13961,31.96056,-36.2161,-110.6672,-50.31561,0.001067912,-0.1257102,0.09433498,0,0.3,0,0,0,0,
6.38224E+17,28.79027,38.97147,67.24013,15.90041,-46.02256,21.61354,-17.05741,-0.4441859,-4.249202,-61.73947,-7.056135,34.57793,0,0,0,109.1513,55.62915,30.27539,-36.2161,-110.6672,-50.31561,0.001067912,-0.1257102,0.09433498,0,0.3,0,0,0,0,
6.38224E+17,30.58083,38.10647,66.35294,19.9289,-44.7774,15.82717,-17.05741,-0.4441859,-4.249202,-61.73947,-7.056135,34.57793,0,0,0,115.5285,52.15667,27.14731,-36.2161,-110.6672,-50.31561,0.001067912,-0.1257102,0.09433498,0,0.3,0,0,0,0,
6.38224E+17,32.27715,36.72716,65.02214,23.44467,-43.01951,10.55352,-17.05741,-0.4441859,-4.249202,-61.73947,-6.98289,34.57793,0,0,0,121.6256,46.78453,24.21275,-36.2161,-110.6672,-50.31561,0.001067912,-0.1257102,0.09433498,0,0.3,0,0,0,0,
6.38224E+17,34.11483,34.3192,62.7808,26.30123,-39.86997,6.232051,-17.05741,-0.4441859,-4.249202,-61.73947,-6.98289,34.57793,0,0,0,128.2774,37.53936,21.00933,-36.2161,-110.6672,-50.31561,0.001067912,-0.1257102,0.09433498,0,0.3,0,0,0,0,
6.38224E+17,35.15146,32.30868,60.77293,27.32666,-37.23314,4.474167,-17.05741,-0.4441859,-4.249202,-61.66622,-7.056135,34.57793,0,0,0,131.8895,29.51188,18.95195,-36.2161,-110.6672,-50.31561,0.001067912,-0.1257102,0.09433498,0,0.3,0,0,0,0,
6.38224E+17,35.5991,31.11639,59.53553,27.54639,-35.695,3.81496,-17.05741,-0.4441859,-4.249202,-61.73947,-7.056135,34.57793,0,0,0,133.3636,24.65339,17.93649,-36.2161,-110.6672,-50.31561,0.001067912,-0.1257102,0.09433498,0,0.3,0,0,0,0,
6.38224E+17,36.25878,28.47465,56.59377,27.10692,-32.10598,3.228999,-17.05741,-0.4441859,-4.249202,-61.73947,-6.98289,34.57793,0,0,0,135.1646,13.50856,15.93203,-36.2161,-110.6672,-50.31561,0.001067912,-0.1257102,0.09433498,0,0.3,0,0,0,0,
6.38224E+17,36.49438,25.41211,53.62867,25.64202,-28.29723,3.009263,-17.05741,-0.4441859,-4.249202,-61.73947,-7.056135,34.50468,0,0,0,135.4945,1.49526,14.79784,-36.2161,-110.6672,-50.31561,0.001067912,-0.1257102,0.09433498,0,0.3,0,0,0,0,
6.38224E+17,36.51794,23.98604,52.18114,24.76308,-26.4661,3.009263,-17.05741,-0.4441859,-4.249202,-61.66622,-6.98289,34.57793,0,0,0,135.1859,-4.207197,14.22367,-36.2161,-110.6672,-50.31561,0.001067912,-0.1257102,0.09433498,0,0.3,0,0,0,0,
6.38224E+17,36.47082,20.85336,49.19269,22.93195,-22.80385,3.082508,-17.05741,-0.4441859,-4.249202,-61.73947,-6.98289,34.57793,0,0,0,134.0693,-16.32693,13.02743,-36.2161,-110.6672,-50.31561,0.001067912,-0.1257102,0.09433498,0,0.3,0,0,0,0,
6.38224E+17,36.28234,17.51027,46.41436,21.17406,-19.14159,3.082508,-17.05741,-0.4441859,-4.249202,-61.73947,-7.056135,34.57793,0,0,0,132.4147,-28.46463,12.02721,-36.2161,-110.6672,-50.31561,0.001067912,-0.1257102,0.09433498,0,0.3,0,0,0,0,
6.38224E+17,36.04674,15.82704,45.03687,20.36837,-17.31046,3.082508,-17.05741,-0.4441859,-4.249202,-61.66622,-7.056135,34.57793,0,0,0,131.0161,-34.51285,11.66918,-36.2161,-110.6672,-50.31561,0.001067912,-0.1257102,0.09433498,0,0.3,0,0,0,0,
6.38224E+17,35.03366,11.75924,41.81495,18.39075,-13.06224,3.009263,-17.05741,-0.4441859,-4.249202,-61.73947,-6.98289,34.57793,0,0,0,125.9823,-48.85935,11.34661,-36.2161,-110.6672,-50.31561,0.001067912,-0.1257102,0.09433498,0,0.3,0,0,0,0,
6.38224E+17,33.92635,9.117499,39.99387,16.70611,-10.27892,3.009263,-17.05741,-0.4441859,-4.249202,-61.73947,-6.98289,34.57793,0,0,0,121.32,-57.68061,12.01399,-36.2161,-110.6672,-50.31561,0.001067912,-0.1257102,0.09433498,0,0.3,0,0,0,0,
6.38224E+17,32.25359,6.24198,38.00935,14.36226,-7.12938,3.155754,-17.05741,-0.4441859,-4.249202,-61.73947,-6.98289,34.57793,0,0,0,114.5651,-67.21899,13.19949,-36.2161,-110.6672,-50.31561,0.001067912,-0.1257102,0.09433498,0,0.3,0,0,0,0,
6.38224E+17,31.24051,4.979557,36.95872,13.1171,-5.517986,3.302244,-17.05741,-0.4441859,-4.249202,-61.66622,-7.056135,34.57793,0,0,0,110.4799,-71.63101,13.78333,-36.2161,-110.6672,-50.31561,0.001067912,-0.1257102,0.09433498,0,0.3,0,0,0,0,
6.38224E+17,29.12011,3.226192,35.32441,10.48027,-2.954405,3.595225,-17.05741,-0.4441859,-4.249202,-61.73947,-7.056135,34.57793,0,0,0,102.3128,-77.94444,15.31801,-36.2161,-110.6672,-50.31561,0.001067912,-0.1257102,0.09433498,0,0.3,0,0,0,0,
