zeyangz2/DNN_classification_different_people_hand/data_by_names/Frank/frank_right_30.csv
Timestamp,Therapist joint angle 0,Therapist joint angle 1,Therapist joint angle 2,Therapist joint angle 3,Therapist joint angle 4,Therapist joint angle 5,Patient joint angle 0,Patient joint angle 1,Patient joint angle 2,Patient joint angle 3,Patient joint angle 4,Patient joint angle 5,Virtual joint angle 0,Virtual joint angle 1,Virtual joint angle 2,Therapist position x,Therapist position y,Therapist position z,Patient position x,Patient position y,Patient position z,Virtual position x,Virtual position y,Virtual position z,Assistive Force, Obstacle Force Magnitude, Therapist Constant Force, Patient Constant Force, Recovery Factor, Assistance Level,label
6.38224E+17,0,0,0,0,0,0,0,0,0,0,0,0,0,0,0,0,0,0,0,0,0,0,0,0,0,0.3,0,0,0,0,1
6.38224E+17,5.348111,0.7247244,-8.778571,-111.9124,-11.01137,-71.1881,-16.98673,-0.4441859,-4.295897,-61.44649,-6.98289,34.57793,0,0,0,10.53123,-106.7512,-55.8539,-36.03881,-110.6591,-50.37467,0.001067912,-0.1257102,0.09433498,0,0.3,0,0,8.11E-08,0,
6.38224E+17,5.348111,0.7247244,-8.778571,-111.9124,-11.01137,-71.1881,-16.98673,-0.4441859,-4.295897,-61.44649,-6.98289,34.57793,0,0,0,10.53123,-106.7512,-55.8539,-36.03881,-110.6591,-50.37467,0.001067912,-0.1257102,0.09433498,0,0.3,0,0,1.62E-07,0,
6.38224E+17,5.348111,0.7247244,-8.778571,-111.9124,-11.01137,-71.11485,-16.98673,-0.4441859,-4.295897,-61.44649,-6.98289,34.57793,0,0,0,10.53123,-106.7512,-55.8539,-36.03881,-110.6591,-50.37467,0.001067912,-0.1257102,0.09433498,0,0.3,0,0,8.11E-08,0,
6.38224E+17,5.348111,0.7247244,-8.778571,-111.9124,-11.01137,-71.1881,-16.98673,-0.4441859,-4.295897,-61.44649,-6.98289,34.57793,0,0,0,10.53123,-106.7512,-55.8539,-36.03881,-110.6591,-50.37467,0.001067912,-0.1257102,0.09433498,0,0.3,0,0,0,0,
6.38224E+17,5.348111,0.7247244,-8.778571,-111.9124,-11.01137,-71.1881,-16.98673,-0.4441859,-4.295897,-61.44649,-6.98289,34.57793,0,0,0,10.53123,-106.7512,-55.8539,-36.03881,-110.6591,-50.37467,0.001067912,-0.1257102,0.09433498,0,0.3,0,0,0,0,
6.38224E+17,5.348111,0.7247244,-8.778571,-111.9124,-11.01137,-71.1881,-16.98673,-0.4441859,-4.295897,-61.44649,-6.98289,34.57793,0,0,0,10.53123,-106.7512,-55.8539,-36.03881,-110.6591,-50.37467,0.001067912,-0.1257102,0.09433498,0,0.3,0,0,0,0,
6.38224E+17,5.348111,0.7247244,-8.778571,-111.9124,-11.01137,-71.1881,-16.98673,-0.4441859,-4.295897,-61.44649,-6.98289,34.57793,0,0,0,10.53123,-106.7512,-55.8539,-36.03881,-110.6591,-50.37467,0.001067912,-0.1257102,0.09433498,0,0.3,0,0,0,0,
6.38224E+17,5.348111,0.7247244,-8.778571,-111.9124,-10.93813,-71.1881,-16.98673,-0.4441859,-4.295897,-61.44649,-6.98289,34.57793,0,0,0,10.53123,-106.7512,-55.8539,-36.03881,-110.6591,-50.37467,0.001067912,-0.1257102,0.09433498,0,0.3,0,0,0,0,
6.38224E+17,5.348111,0.7247244,-8.778571,-111.8392,-10.93813,-71.1881,-16.98673,-0.4441859,-4.295897,-61.44649,-6.98289,34.57793,0,0,0,10.53123,-106.7512,-55.8539,-36.03881,-110.6591,-50.37467,0.001067912,-0.1257102,0.09433498,0,0.3,0,0,0,0,
6.38224E+17,5.348111,0.7247244,-8.778571,-111.8392,-11.01137,-71.1881,-16.98673,-0.4441859,-4.295897,-61.44649,-6.98289,34.57793,0,0,0,10.53123,-106.7512,-55.8539,-36.03881,-110.6591,-50.37467,0.001067912,-0.1257102,0.09433498,0,0.3,0,0,0,0,
6.38224E+17,5.348111,0.7247244,-8.778571,-111.9124,-11.01137,-71.1881,-16.98673,-0.4441859,-4.295897,-61.44649,-6.98289,34.57793,0,0,0,10.53123,-106.7512,-55.8539,-36.03881,-110.6591,-50.37467,0.001067912,-0.1257102,0.09433498,0,0.3,0,0,0,0,
6.38224E+17,5.348111,0.7247244,-8.778571,-111.9124,-11.01137,-71.1881,-16.98673,-0.4441859,-4.295897,-61.44649,-6.98289,34.57793,0,0,0,10.53123,-106.7512,-55.8539,-36.03881,-110.6591,-50.37467,0.001067912,-0.1257102,0.09433498,0,0.3,0,0,0,0,
6.38224E+17,5.348111,0.7247244,-8.778571,-111.9124,-11.01137,-71.1881,-16.98673,-0.4441859,-4.295897,-61.44649,-6.98289,34.57793,0,0,0,10.53123,-106.7512,-55.8539,-36.03881,-110.6591,-50.37467,0.001067912,-0.1257102,0.09433498,0,0.3,0,0,0,0,
6.38224E+17,5.348111,0.7247244,-8.778571,-111.9124,-11.01137,-71.1881,-16.98673,-0.4441859,-4.295897,-61.44649,-6.98289,34.57793,0,0,0,10.53123,-106.7512,-55.8539,-36.03881,-110.6591,-50.37467,0.001067912,-0.1257102,0.09433498,0,0.3,0,0,0,0,
6.38224E+17,5.348111,0.7247244,-8.778571,-111.9124,-11.01137,-71.11485,-16.98673,-0.4441859,-4.295897,-61.44649,-6.98289,34.57793,0,0,0,10.53123,-106.7512,-55.8539,-36.03881,-110.6591,-50.37467,0.001067912,-0.1257102,0.09433498,0,0.3,0,0,0,0,
6.38224E+17,5.348111,0.7247244,-8.778571,-111.9124,-11.01137,-71.1881,-16.98673,-0.4441859,-4.295897,-61.44649,-6.98289,34.57793,0,0,0,10.53123,-106.7512,-55.8539,-36.03881,-110.6591,-50.37467,0.001067912,-0.1257102,0.09433498,0,0.3,0,0,0,0,
6.38224E+17,5.348111,0.7013461,-8.755224,-111.9124,-11.01137,-71.1881,-16.98673,-0.4441859,-4.295897,-61.44649,-6.98289,34.57793,0,0,0,10.5363,-106.8139,-55.79976,-36.03881,-110.6591,-50.37467,0.001067912,-0.1257102,0.09433498,0,0.3,0,0,4.78E-06,0,
6.38224E+17,5.230311,0.2571602,-8.19489,-111.9856,-11.08462,-72.79948,-16.98673,-0.4441859,-4.295897,-61.44649,-6.98289,34.57793,0,0,0,10.42325,-108.0398,-54.48522,-36.03881,-110.6591,-50.37467,0.001067912,-0.1257102,0.09433498,0,0.3,0,0,0.00033685,0,
6.38224E+17,5.136071,-0.5844551,-7.541167,-112.6449,-10.79164,-74.1179,-16.98673,-0.4441859,-4.295897,-61.44649,-6.98289,34.50468,0,0,0,10.37037,-110.2069,-52.97271,-36.03881,-110.6591,-50.37467,0.001067912,-0.1257102,0.09433498,0,0.3,0,0,0.000984039,0,
6.38224E+17,4.664873,-1.028641,-7.494472,-112.9378,-10.64515,-74.33764,-16.98673,-0.4441859,-4.295897,-61.44649,-6.98289,34.57793,0,0,0,9.428748,-111.2548,-52.79845,-36.03881,-110.6591,-50.37467,0.001067912,-0.1257102,0.09433498,0,0.3,0,0,0.001903788,0,
6.38224E+17,2.120397,-0.8883717,-7.214305,-113.597,-10.20568,-74.48412,-16.98673,-0.4441859,-4.295897,-61.44649,-6.98289,34.57793,0,0,0,4.313683,-111.0118,-51.84208,-36.03881,-110.6591,-50.37467,0.001067912,-0.1257102,0.09433498,0,0.3,0,0,0.007645231,0,
6.38224E+17,-0.4005193,-0.9585064,-6.093637,-115.4282,-9.985942,-73.75167,-16.98673,-0.4441859,-4.295897,-61.44649,-6.98289,34.57793,0,0,0,-0.8330771,-111.4773,-49.17716,-36.03881,-110.6591,-50.37467,0.001067912,-0.1257102,0.09433498,0,0.3,0,0,0.01876565,0,
6.38224E+17,-2.638716,-0.9818845,-4.78619,-117.6988,-9.692961,-72.36002,-16.98673,-0.4441859,-4.295897,-61.44649,-6.98289,34.57793,0,0,0,-5.626028,-111.8201,-46.27557,-36.03881,-110.6591,-50.37467,0.001067912,-0.1257102,0.09433498,0,0.3,0,0,0.0342403,0,
6.38224E+17,-3.180595,-0.9818845,-4.342592,-118.4312,-9.399981,-70.01617,-16.98673,-0.4441859,-4.295897,-61.44649,-6.98289,34.57793,0,0,0,-6.837388,-111.9023,-45.30667,-36.03881,-110.6591,-50.37467,0.001067912,-0.1257102,0.09433498,0,0.3,0,0,0.04241922,0,
6.38224E+17,-3.416194,-0.9818845,-3.105186,-118.5777,-8.887264,-63.71709,-16.98673,-0.4441859,-4.295897,-61.44649,-6.98289,34.57793,0,0,0,-7.514527,-112.0893,-42.46713,-36.03881,-110.6591,-50.37467,0.001067912,-0.1257102,0.09433498,0,0.3,0,0,0.05775557,0,
6.38224E+17,-3.887394,-0.9818845,-1.120669,-118.5777,-8.154812,-59.83509,-16.98673,-0.4441859,-4.295897,-61.44649,-6.98289,34.57793,0,0,0,-8.862423,-112.2596,-37.92842,-36.03881,-110.6591,-50.37467,0.001067912,-0.1257102,0.09433498,0,0.3,0,0,0.071363,0,
6.38224E+17,-4.617752,-0.9818845,0,-119.3834,-7.349115,-58.07721,-16.98673,-0.4441859,-4.295897,-61.44649,-6.98289,34.57793,0,0,0,-10.73413,-112.2851,-35.45237,-36.03881,-110.6591,-50.37467,0.001067912,-0.1257102,0.09433498,0,0.3,0,0,0.08417431,0,
6.38224E+17,-4.829792,-0.9818845,0.6537234,-119.8229,-7.056135,-57.71098,-16.98673,-0.4441859,-4.295897,-61.44649,-6.98289,34.57793,0,0,0,-11.35398,-112.2764,-33.97697,-36.03881,-110.6591,-50.37467,0.001067912,-0.1257102,0.09433498,0,0.3,0,0,0.09011349,0,
6.38224E+17,-5.277431,-0.9818845,2.21799,-121.361,-6.689909,-57.19827,-16.98673,-0.4441859,-4.295897,-61.44649,-6.98289,34.57793,0,0,0,-12.7382,-112.1852,-30.44579,-36.03881,-110.6591,-50.37467,0.001067912,-0.1257102,0.09433498,0,0.3,0,0,0.1006288,0,
6.38224E+17,-5.93711,-0.9585064,3.362006,-122.8992,-6.177193,-56.39257,-16.98673,-0.4441859,-4.295897,-61.44649,-6.98289,34.57793,0,0,0,-14.60026,-112.0012,-27.95556,-36.03881,-110.6591,-50.37467,0.001067912,-0.1257102,0.09433498,0,0.3,0,0,0.10986,0,
6.38224E+17,-7.044428,-0.8182371,4.739495,-124.1443,-5.810967,-53.09653,-16.98673,-0.4441859,-4.295897,-61.44649,-6.98289,34.57793,0,0,0,-17.70349,-111.4483,-25.08517,-36.03881,-110.6591,-50.37467,0.001067912,-0.1257102,0.09433498,0,0.3,0,0,0.1183177,0,
6.38224E+17,-7.774787,-0.7247244,5.766775,-124.8768,-5.591231,-50.97242,-16.98673,-0.4441859,-4.295897,-61.44649,-6.98289,34.57793,0,0,0,-19.85069,-111.0118,-22.96064,-36.03881,-110.6591,-50.37467,0.001067912,-0.1257102,0.09433498,0,0.3,0,0,0.1220455,0,
6.38224E+17,-9.447544,-0.4208077,8.545099,-127.7334,-5.078516,-46.43123,-16.98673,-0.4441859,-4.295897,-61.44649,-6.98289,34.57793,0,0,0,-25.14048,-109.4991,-17.26683,-36.03881,-110.6591,-50.37467,0.001067912,-0.1257102,0.09433498,0,0.3,0,0,0.1274465,0,
6.38224E+17,-10.90826,0.3039166,11.23003,-131.9083,-4.419309,-42.18301,-16.98673,-0.4441859,-4.295897,-61.44649,-6.98289,34.57793,0,0,0,-30.14884,-106.7394,-11.9108,-36.03881,-110.6591,-50.37467,0.001067912,-0.1257102,0.09433498,0,0.3,0,0,0.1296471,0,
6.38224E+17,-11.63862,0.6545897,12.67757,-133.9592,-4.126328,-40.35188,-16.98673,-0.4441859,-4.295897,-61.44649,-6.98289,34.57793,0,0,0,-32.80401,-105.2255,-9.086431,-36.03881,-110.6591,-50.37467,0.001067912,-0.1257102,0.09433498,0,0.3,0,0,0.1293579,0,
6.38224E+17,-13.17002,1.052019,16.10961,-137.6947,-3.320631,-36.83611,-16.98673,-0.4441859,-4.295897,-61.44649,-6.98289,34.57793,0,0,0,-38.80798,-102.3154,-2.50102,-36.03881,-110.6591,-50.37467,0.001067912,-0.1257102,0.09433498,0,0.3,0,0,0.1253624,0,
6.38224E+17,-14.67786,1.075397,20.24208,-142.3824,-2.514934,-34.05279,-16.98673,-0.4441859,-4.295897,-61.44649,-6.98289,34.57793,0,0,0,-45.4733,-99.26147,5.257257,-36.03881,-110.6591,-50.37467,0.001067912,-0.1257102,0.09433498,0,0.3,0,0,0.1159988,0,
6.38224E+17,-16.44485,1.075397,26.0322,-148.535,-1.123276,-32.00193,-16.98673,-0.4441859,-4.295897,-61.44649,-6.98289,34.57793,0,0,0,-54.31145,-93.96858,15.65255,-36.03881,-110.6591,-50.37467,0.001067912,-0.1257102,0.09433498,0,0.3,0,0,0.09992721,0,
6.38224E+17,-17.29301,1.075397,29.62768,-151.5381,0.1218917,-31.26948,-16.98673,-0.4441859,-4.295897,-61.44649,-6.98289,34.57793,0,0,0,-59.22864,-90.06258,21.893,-36.03881,-110.6591,-50.37467,0.001067912,-0.1257102,0.09433498,0,0.3,0,0,0.07882728,0,
6.38224E+17,-17.76421,1.075397,32.0091,-152.7832,0.9275885,-30.75676,-16.98673,-0.4441859,-4.295897,-61.44649,-6.98289,34.57793,0,0,0,-62.24331,-87.22326,25.93208,-36.03881,-110.6591,-50.37467,0.001067912,-0.1257102,0.09433498,0,0.3,0,0,0.06630044,0,
6.38224E+17,-18.54169,1.052019,37.00542,-156.5187,2.246002,-29.43835,-16.98673,-0.4441859,-4.295897,-61.44649,-7.056135,34.57793,0,0,0,-67.92034,-80.69213,34.15273,-36.03881,-110.6591,-50.37467,0.001067912,-0.1257102,0.09433498,0,0.3,0,0,0.03723774,0,
6.38224E+17,-19.22493,1.052019,41.62818,-157.2512,3.78415,-27.46073,-16.98673,-0.4441859,-4.295897,-61.44649,-6.98289,34.57793,0,0,0,-73.07034,-73.877,41.18584,-36.03881,-110.6591,-50.37467,0.001067912,-0.1257102,0.09433498,0,0.3,0,0,0.003744423,0,
6.38224E+17,-19.53121,1.052019,46.08751,-157.3977,5.249053,-24.89715,-16.98673,-0.4441859,-4.295897,-61.44649,-6.98289,34.57793,0,0,0,-76.69067,-66.68776,47.84347,-36.03881,-110.6591,-50.37467,0.001067912,-0.1257102,0.09433498,0,0.3,0,0,0,0,
6.38224E+17,-19.55477,1.098776,47.93193,-157.3244,5.981505,-23.43224,-16.98673,-0.4441859,-4.295897,-61.44649,-6.98289,34.57793,0,0,0,-77.75856,-63.43909,50.56815,-36.03881,-110.6591,-50.37467,0.001067912,-0.1257102,0.09433498,0,0.3,0,0,0,0,
6.38224E+17,-19.55477,1.519583,51.24725,-157.3977,7.519653,-20.06297,-16.98673,-0.4441859,-4.295897,-61.44649,-6.98289,34.57793,0,0,0,-79.42504,-56.58563,55.25989,-36.03881,-110.6591,-50.37467,0.001067912,-0.1257102,0.09433498,0,0.3,0,0,0,0,
6.38224E+17,-19.46053,2.244308,53.58197,-155.1271,9.717009,-16.76693,-16.98673,-0.4441859,-4.295897,-61.44649,-6.98289,34.57793,0,0,0,-80.14281,-50.59411,58.46276,-36.03881,-110.6591,-50.37467,0.001067912,-0.1257102,0.09433498,0,0.3,0,0,0,0,
6.38224E+17,-19.36629,2.688493,54.70264,-152.4902,11.10867,-14.05686,-16.98673,-0.4441859,-4.295897,-61.44649,-6.98289,34.50468,0,0,0,-80.26152,-47.4474,59.99368,-36.03881,-110.6591,-50.37467,0.001067912,-0.1257102,0.09433498,0,0.3,0,0,0,0,
6.38224E+17,-19.27205,2.99241,55.70658,-150.5858,12.1341,-11.71302,-16.98673,-0.4441859,-4.295897,-61.44649,-6.98289,34.57793,0,0,0,-80.31433,-44.8222,61.3509,-36.03881,-110.6591,-50.37467,0.001067912,-0.1257102,0.09433498,0,0.3,0,0,0,0,
6.38224E+17,-19.17781,3.459974,57.06072,-149.4872,13.01304,-9.66215,-16.98673,-0.4441859,-4.295897,-61.44649,-6.98289,34.57793,0,0,0,-80.48946,-41.11122,63.07281,-36.03881,-110.6591,-50.37467,0.001067912,-0.1257102,0.09433498,0,0.3,0,0,0,0,
6.38224E+17,-19.17781,3.717134,57.90122,-149.1942,13.23278,-9.076189,-16.98673,-0.4441859,-4.295897,-61.44649,-6.98289,34.57793,0,0,0,-80.8226,-38.86442,64.03066,-36.03881,-110.6591,-50.37467,0.001067912,-0.1257102,0.09433498,0,0.3,0,0,0,0,
6.38224E+17,-19.17781,4.16132,59.95578,-148.535,12.86655,-8.270493,-16.98673,-0.4441859,-4.295897,-61.44649,-6.98289,34.57793,0,0,0,-81.60994,-33.73758,66.29441,-36.03881,-110.6591,-50.37467,0.001067912,-0.1257102,0.09433498,0,0.3,0,0,0,0,
6.38224E+17,-19.17781,4.605506,62.19712,-148.3152,12.28059,-7.904267,-16.98673,-0.4441859,-4.295897,-61.44649,-6.98289,34.57793,0,0,0,-82.4127,-28.1413,68.60252,-36.03881,-110.6591,-50.37467,0.001067912,-0.1257102,0.09433498,0,0.3,0,0,0,0,
6.38224E+17,-19.15425,4.886045,63.27109,-148.3152,11.69463,-7.757777,-16.98673,-0.4441859,-4.295897,-61.44649,-6.98289,34.57793,0,0,0,-82.67326,-25.26881,69.66706,-36.03881,-110.6591,-50.37467,0.001067912,-0.1257102,0.09433498,0,0.3,0,0,0,0,
6.38224E+17,-19.08357,5.400365,65.27895,-148.3152,10.74244,-7.464796,-16.98673,-0.4441859,-4.295897,-61.44649,-6.98289,34.57793,0,0,0,-83.00763,-19.86688,71.58424,-36.03881,-110.6591,-50.37467,0.001067912,-0.1257102,0.09433498,0,0.3,0,0,0,0,
6.38224E+17,-18.87153,6.218602,66.51636,-148.0955,10.37621,-5.999893,-16.98673,-0.4441859,-4.295897,-61.44649,-6.98289,34.57793,0,0,0,-82.43716,-15.34351,72.82023,-36.03881,-110.6591,-50.37467,0.001067912,-0.1257102,0.09433498,0,0.3,0,0,0,0,
6.38224E+17,-18.70661,6.63941,66.91327,-147.656,10.30297,-4.168763,-16.98673,-0.4441859,-4.295897,-61.44649,-6.98289,34.57793,0,0,0,-81.82458,-13.52178,73.29852,-36.03881,-110.6591,-50.37467,0.001067912,-0.1257102,0.09433498,0,0.3,0,0,0,0,
6.38224E+17,-18.32965,7.434268,67.61369,-145.239,11.10867,1.178134,-16.98673,-0.4441859,-4.295897,-61.44649,-6.98289,34.57793,0,0,0,-80.35984,-10.18231,74.21457,-36.03881,-110.6591,-50.37467,0.001067912,-0.1257102,0.09433498,0,0.3,0,0,0,0,
6.38224E+17,-17.95269,7.971967,68.08063,-140.478,12.06085,11.21272,-16.98673,-0.4441859,-4.295897,-61.44649,-6.98289,34.57793,0,0,0,-78.83684,-7.935631,74.96828,-36.03881,-110.6591,-50.37467,0.001067912,-0.1257102,0.09433498,0,0.3,0,0,0,0,
6.38224E+17,-17.55217,8.392776,68.50088,-135.4241,12.64682,24.54334,-16.98673,-0.4441859,-4.295897,-61.44649,-6.98289,34.57793,0,0,0,-77.20111,-6.057502,75.72548,-36.03881,-110.6591,-50.37467,0.001067912,-0.1257102,0.09433498,0,0.3,0,0,0,0,
6.38224E+17,-17.24589,8.790204,68.85109,-130.4434,12.86655,38.82615,-16.98673,-0.4441859,-4.295897,-61.44649,-6.98289,34.57793,0,0,0,-75.94219,-4.383635,76.28578,-36.03881,-110.6591,-50.37467,0.001067912,-0.1257102,0.09433498,0,0.3,0,0,0,0,
6.38224E+17,-17.19877,8.907095,68.96782,-128.832,12.9398,44.0998,-16.98673,-0.4441859,-4.295897,-61.44649,-6.98289,34.57793,0,0,0,-75.75751,-3.861329,76.40157,-36.03881,-110.6591,-50.37467,0.001067912,-0.1257102,0.09433498,0,0.3,0,0,0,0,
6.38224E+17,-17.15165,9.281147,69.34138,-125.6825,13.01304,54.20764,-16.98673,-0.4441859,-4.295897,-61.44649,-6.98289,34.57793,0,0,0,-75.60686,-2.189204,76.62793,-36.03881,-110.6591,-50.37467,0.001067912,-0.1257102,0.09433498,0,0.3,0,0,0,0,
6.38224E+17,-17.12809,9.725332,69.76163,-123.8514,12.79331,61.23917,-16.98673,-0.4441859,-4.295897,-61.44649,-6.98289,34.57793,0,0,0,-75.5565,-0.2531422,76.82244,-36.03881,-110.6591,-50.37467,0.001067912,-0.1257102,0.09433498,0,0.3,0,0,0,0,
6.38224E+17,-17.10453,10.33317,70.32196,-122.0935,12.86655,67.31852,-16.98673,-0.4441859,-4.295897,-61.44649,-6.98289,34.57793,0,0,0,-75.51414,2.365695,77.04347,-36.03881,-110.6591,-50.37467,0.001067912,-0.1257102,0.09433498,0,0.3,0,0,0,0,
6.38224E+17,-17.10453,10.66046,70.50874,-120.6286,13.01304,70.17509,-16.98673,-0.4441859,-4.295897,-61.44649,-6.98289,34.57793,0,0,0,-75.51617,3.524249,77.0501,-36.03881,-110.6591,-50.37467,0.001067912,-0.1257102,0.09433498,0,0.3,0,0,0,0,
6.38224E+17,-17.19877,11.26829,70.60213,-116.7466,13.23278,77.79259,-16.98673,-0.4441859,-4.295897,-61.44649,-6.98289,34.57793,0,0,0,-75.86154,5.118044,76.73765,-36.03881,-110.6591,-50.37467,0.001067912,-0.1257102,0.09433498,0,0.3,0,0,0,0,
6.38224E+17,-17.41081,11.4787,70.60213,-109.3488,13.599,85.9228,-16.98673,-0.4441859,-4.295897,-61.44649,-6.98289,34.57793,0,0,0,-76.73914,5.59812,76.36308,-36.03881,-110.6591,-50.37467,0.001067912,-0.1257102,0.09433498,0,0.3,0,0,0,0,
6.38224E+17,-17.41081,11.52545,70.60213,-105.1006,13.81874,89.73154,-16.98673,-0.4441859,-4.295897,-61.44649,-6.98289,34.57793,0,0,0,-76.73265,5.704756,76.34237,-36.03881,-110.6591,-50.37467,0.001067912,-0.1257102,0.09433498,0,0.3,0,0,0,0,
6.38224E+17,-17.36369,11.99302,70.71887,-94.69979,13.15953,98.59421,-16.98673,-0.4441859,-4.295897,-61.44649,-6.98289,34.57793,0,0,0,-76.49206,7.026482,76.27959,-36.03881,-110.6591,-50.37467,0.001067912,-0.1257102,0.09433498,0,0.3,0,0,0,0,
6.38224E+17,-17.38725,12.74112,71.11578,-89.05991,12.79331,104.2341,-16.98673,-0.4441859,-4.295897,-61.44649,-6.98289,34.57793,0,0,0,-76.57145,9.600187,76.18047,-36.03881,-110.6591,-50.37467,0.001067912,-0.1257102,0.09433498,0,0.3,0,0,0,0,
6.38224E+17,-17.38725,13.3022,71.39594,-87.00905,12.64682,106.2117,-16.98673,-0.4441859,-4.295897,-61.44649,-6.98289,34.57793,0,0,0,-76.54614,11.48993,76.09964,-36.03881,-110.6591,-50.37467,0.001067912,-0.1257102,0.09433498,0,0.3,0,0,0,0,
6.38224E+17,-17.38725,14.86854,71.86288,-84.6652,12.28059,108.3358,-16.98673,-0.4441859,-4.295897,-61.44649,-6.98289,34.57793,0,0,0,-76.38338,16.05709,75.57986,-36.03881,-110.6591,-50.37467,0.001067912,-0.1257102,0.09433498,0,0.3,0,0,0,0,
6.38224E+17,-17.29301,16.76217,71.83953,-83.8595,12.06085,108.995,-16.98673,-0.4441859,-4.295897,-61.44649,-6.98289,34.57793,0,0,0,-75.62,20.24566,74.54221,-36.03881,-110.6591,-50.37467,0.001067912,-0.1257102,0.09433498,0,0.3,0,0,0,0,
6.38224E+17,-16.98673,18.74932,71.86288,-83.34679,11.69463,109.288,-16.98673,-0.4441859,-4.295897,-61.44649,-6.98289,34.57793,0,0,0,-73.91344,24.70165,73.61036,-36.03881,-110.6591,-50.37467,0.001067912,-0.1257102,0.09433498,0,0.3,0,0,0,0,
6.38224E+17,-16.65689,20.54944,71.86288,-82.61434,11.18191,110.1669,-16.98673,-0.4441859,-4.295897,-61.44649,-6.98289,34.50468,0,0,0,-72.11551,28.64711,72.68222,-36.03881,-110.6591,-50.37467,0.001067912,-0.1257102,0.09433498,0,0.3,0,0,0,0,
6.38224E+17,-16.42129,21.71835,71.86288,-82.17487,10.74244,110.7529,-16.98673,-0.4441859,-4.295897,-61.44649,-6.98289,34.57793,0,0,0,-70.84649,31.18461,72.03587,-36.03881,-110.6591,-50.37467,0.001067912,-0.1257102,0.09433498,0,0.3,0,0,0,0,
6.38224E+17,-15.83229,24.10293,71.88623,-81.36917,10.00999,112.0713,-16.98673,-0.4441859,-4.295897,-61.44649,-6.98289,34.57793,0,0,0,-67.78684,36.34792,70.68929,-36.03881,-110.6591,-50.37467,0.001067912,-0.1257102,0.09433498,0,0.3,0,0,0,0,
6.38224E+17,-15.14906,26.58102,71.88623,-80.49023,9.277537,113.8292,-16.98673,-0.4441859,-4.295897,-61.44649,-6.98289,34.57793,0,0,0,-64.28653,41.56001,69.09799,-36.03881,-110.6591,-50.37467,0.001067912,-0.1257102,0.09433498,0,0.3,0,0,0,0,
6.38224E+17,-14.46582,28.96559,71.93292,-79.4648,8.398596,115.5871,-16.98673,-0.4441859,-4.295897,-61.44649,-6.98289,34.57793,0,0,0,-60.81298,46.57346,67.37644,-36.03881,-110.6591,-50.37467,0.001067912,-0.1257102,0.09433498,0,0.3,0,0,0,0,
6.38224E+17,-14.13598,30.34491,72.02631,-78.95209,7.88588,116.466,-16.98673,-0.4441859,-4.295897,-61.44649,-6.98289,34.57793,0,0,0,-59.08347,49.56981,66.24761,-36.03881,-110.6591,-50.37467,0.001067912,-0.1257102,0.09433498,0,0.3,0,0,0,0,
6.38224E+17,-13.52342,33.15029,72.21309,-78.43936,6.787202,117.7844,-16.98673,-0.4441859,-4.295897,-61.44649,-6.98289,34.57793,0,0,0,-55.79993,55.53527,63.65567,-36.03881,-110.6591,-50.37467,0.001067912,-0.1257102,0.09433498,0,0.3,0,0,0,0,
6.38224E+17,-12.84018,35.97906,72.42323,-78.43936,5.76177,118.2239,-16.98673,-0.4441859,-4.295897,-61.44649,-6.98289,34.57793,0,0,0,-52.23244,61.42221,60.80801,-36.03881,-110.6591,-50.37467,0.001067912,-0.1257102,0.09433498,0,0.3,0,0,0,0,
6.38224E+17,-12.51034,37.33499,72.46991,-78.73235,5.102563,118.3704,-16.98673,-0.4441859,-4.295897,-61.44649,-6.98289,34.57793,0,0,0,-50.51136,64.05742,59.2976,-36.03881,-110.6591,-50.37467,0.001067912,-0.1257102,0.09433498,0,0.3,0,0,0,0,
6.38224E+17,-11.80354,40.18713,72.51661,-79.31831,4.150376,118.4436,-16.98673,-0.4441859,-4.295897,-61.44649,-6.98289,34.57793,0,0,0,-46.85599,69.33665,55.86774,-36.03881,-110.6591,-50.37467,0.001067912,-0.1257102,0.09433498,0,0.3,0,0,0,0,
6.38224E+17,-11.04962,42.85225,72.49326,-80.124,3.051698,118.5901,-16.98673,-0.4441859,-4.295897,-61.37324,-6.98289,34.57793,0,0,0,-43.11058,73.9286,52.41374,-36.03881,-110.6591,-50.37467,0.001067912,-0.1257102,0.09433498,0,0.3,0,0,0,0,
6.38224E+17,-9.965863,46.17195,72.25979,-80.78321,1.367059,118.6634,-16.98673,-0.4441859,-4.295897,-61.44649,-7.056135,34.50468,0,0,0,-37.96159,78.91957,47.69351,-36.03881,-110.6591,-50.37467,0.001067912,-0.1257102,0.09433498,0,0.3,0,0,0,0,
6.38224E+17,-9.117705,48.25261,72.21309,-80.9297,0.04864649,119.1029,-16.98673,-0.4441859,-4.295897,-61.44649,-6.98289,34.57793,0,0,0,-34.19106,82.10534,44.69032,-36.03881,-110.6591,-50.37467,0.001067912,-0.1257102,0.09433498,0,0.3,0,0,0,0,
6.38224E+17,-8.528707,49.49166,72.21309,-80.85645,-0.7570504,119.3958,-16.98673,-0.4441859,-4.295897,-61.44649,-6.98289,34.57793,0,0,0,-31.6771,84.00207,42.88243,-36.03881,-110.6591,-50.37467,0.001067912,-0.1257102,0.09433498,0,0.3,0,0,0,0,
6.38224E+17,-7.327148,51.71259,72.18974,-80.34374,-2.441689,120.1283,-16.98673,-0.4441859,-4.295897,-61.44649,-6.98289,34.57793,0,0,0,-26.72917,87.23089,39.52227,-36.03881,-110.6591,-50.37467,0.001067912,-0.1257102,0.09433498,0,0.3,0,0,0,0,
6.38224E+17,-6.00779,53.81662,71.79285,-79.09857,-4.272818,120.7142,-16.98673,-0.4441859,-4.295897,-61.44649,-6.98289,34.57793,0,0,0,-21.49788,89.31532,35.92149,-36.03881,-110.6591,-50.37467,0.001067912,-0.1257102,0.09433498,0,0.3,0,0,0,0,
6.38224E+17,-4.476392,55.64013,70.74222,-76.46174,-6.396928,121.5932,-16.98673,-0.4441859,-4.295897,-61.44649,-6.98289,34.57793,0,0,0,-15.69939,89.45026,32.18599,-36.03881,-110.6591,-50.37467,0.001067912,-0.1257102,0.09433498,0,0.3,0,0,0,0,
6.38224E+17,-3.675354,56.27134,69.9951,-74.48412,-7.422361,122.1059,-16.98673,-0.4441859,-4.295897,-61.44649,-6.98289,34.57793,0,0,0,-12.77882,88.63496,30.58811,-36.03881,-110.6591,-50.37467,0.001067912,-0.1257102,0.09433498,0,0.3,0,0,0,0,
6.38224E+17,-1.908357,57.15971,68.29076,-69.28372,-8.887264,123.2046,-16.98673,-0.4441859,-4.295897,-61.44649,-6.98289,34.57793,0,0,0,-6.533895,86.063,27.74865,-36.03881,-110.6591,-50.37467,0.001067912,-0.1257102,0.09433498,0,0.3,0,0,0,0,
6.38224E+17,-0.1177998,57.53376,66.79652,-63.27761,-9.912696,123.937,-16.98673,-0.4441859,-4.295897,-61.44649,-6.98289,34.57793,0,0,0,-0.3991631,83.31886,25.79573,-36.03881,-110.6591,-50.37467,0.001067912,-0.1257102,0.09433498,0,0.3,0,0,0,0,
6.38224E+17,1.201558,57.58052,65.65251,-58.66317,-10.27892,124.23,-16.98673,-0.4441859,-4.295897,-61.44649,-6.98289,34.57793,0,0,0,4.046733,80.94067,24.58846,-36.03881,-110.6591,-50.37467,0.001067912,-0.1257102,0.09433498,0,0.3,0,0,0,0,
6.38224E+17,2.520916,57.58052,64.41511,-54.04872,-10.27892,124.3033,-16.98673,-0.4441859,-4.295897,-61.44649,-6.98289,34.57793,0,0,0,8.434624,78.3299,23.22976,-36.03881,-110.6591,-50.37467,0.001067912,-0.1257102,0.09433498,0,0.3,0,0,0,0,
6.38224E+17,4.452833,57.58052,62.57067,-47.82288,-10.35217,124.3765,-16.98673,-0.4441859,-4.295897,-61.44649,-6.98289,34.57793,0,0,0,14.73961,74.48859,20.9265,-36.03881,-110.6591,-50.37467,0.001067912,-0.1257102,0.09433498,0,0.3,0,0,0,0,
6.38224E+17,5.536591,57.58052,61.54339,-44.52685,-10.27892,124.3033,-16.98673,-0.4441859,-4.295897,-61.44649,-6.98289,34.57793,0,0,0,18.20886,72.37647,19.49874,-36.03881,-110.6591,-50.37467,0.001067912,-0.1257102,0.09433498,0,0.3,0,0,0,0,
6.38224E+17,8.905665,57.55714,58.4849,-34.85849,-8.374548,123.3511,-16.98673,-0.4441859,-4.295897,-61.44649,-6.98289,34.57793,0,0,0,28.67323,66.1825,14.63503,-36.03881,-110.6591,-50.37467,0.001067912,-0.1257102,0.09433498,0,0.3,0,0,0,0,
6.38224E+17,10.03654,57.53376,57.57436,-31.78219,-7.715342,122.6919,-16.98673,-0.4441859,-4.295897,-61.44649,-6.98289,34.57793,0,0,0,32.09154,64.35556,12.97381,-36.03881,-110.6591,-50.37467,0.001067912,-0.1257102,0.09433498,0,0.3,0,0,0,0,
6.38224E+17,12.25118,57.41687,55.68323,-24.97039,-5.737722,121.3002,-16.98673,-0.4441859,-4.295897,-61.44649,-6.98289,34.57793,0,0,0,38.60944,60.53373,9.456616,-36.03881,-110.6591,-50.37467,0.001067912,-0.1257102,0.09433498,0,0.3,0,0,0,0,
6.38224E+17,14.44226,57.13633,54.00222,-18.59806,-3.613612,120.2015,-16.98673,-0.4441859,-4.295897,-61.44649,-6.98289,34.57793,0,0,0,44.95429,56.98224,6.200878,-36.03881,-110.6591,-50.37467,0.001067912,-0.1257102,0.09433498,0,0.3,0,0,0,0,
6.38224E+17,15.57313,56.94931,53.20842,-15.30203,-2.221954,119.9085,-16.98673,-0.4441859,-4.295897,-61.44649,-6.98289,34.57793,0,0,0,48.19428,55.2583,4.575523,-36.03881,-110.6591,-50.37467,0.001067912,-0.1257102,0.09433498,0,0.3,0,0,0,0,
6.38224E+17,17.69353,56.62201,51.92432,-9.295925,0.04864649,119.2493,-16.98673,-0.4441859,-4.295897,-61.44649,-6.98289,34.57793,0,0,0,54.20102,52.46796,1.550472,-36.03881,-110.6591,-50.37467,0.001067912,-0.1257102,0.09433498,0,0.3,0,0,0,0,
6.38224E+17,19.93173,56.41161,50.64022,-3.070086,2.685472,118.7366,-16.98673,-0.4441859,-4.295897,-61.44649,-6.98289,34.57793,0,0,0,60.29695,49.86603,-2.069264,-36.03881,-110.6591,-50.37467,0.001067912,-0.1257102,0.09433498,0,0.3,0,0,0,0,
6.38224E+17,21.03905,56.31809,50.10323,-0.2867693,3.93064,118.5901,-16.98673,-0.4441859,-4.295897,-61.44649,-6.98289,34.57793,0,0,0,63.27797,48.7829,-3.840414,-36.03881,-110.6591,-50.37467,0.001067912,-0.1257102,0.09433498,0,0.3,0,0,0,0,
6.38224E+17,23.60708,56.13107,49.37947,5.426354,6.201241,118.3704,-16.98673,-0.4441859,-4.295897,-61.44649,-6.98289,34.57793,0,0,0,70.29435,47.25543,-7.506778,-36.03881,-110.6591,-50.37467,0.001067912,-0.1257102,0.09433498,0,0.3,0,0,0,0,
6.38224E+17,26.29292,55.87391,49.07595,11.21272,7.959125,118.0042,-16.98673,-0.4441859,-4.295897,-61.44649,-6.98289,34.57793,0,0,0,77.76962,46.3858,-10.94615,-36.03881,-110.6591,-50.37467,0.001067912,-0.1257102,0.09433498,0,0.3,0,0,0,0,
6.38224E+17,28.93163,55.61674,48.81913,16.41313,10.08323,117.1252,-16.98673,-0.4441859,-4.295897,-61.44649,-6.98289,34.57793,0,0,0,84.98313,45.59817,-14.604,-36.03881,-110.6591,-50.37467,0.001067912,-0.1257102,0.09433498,0,0.3,0,0,0,0,
6.38224E+17,30.34523,55.49986,48.67905,19.1232,11.18191,116.9055,-16.98673,-0.4441859,-4.295897,-61.44649,-6.98289,34.57793,0,0,0,88.75484,45.19918,-16.73917,-36.03881,-110.6591,-50.37467,0.001067912,-0.1257102,0.09433498,0,0.3,0,0,0,0,
6.38224E+17,33.73786,55.14918,48.14206,24.90957,13.45251,116.6125,-16.98673,-0.4441859,-4.295897,-61.44649,-6.98289,34.57793,0,0,0,97.48335,43.80012,-22.38894,-36.03881,-110.6591,-50.37467,0.001067912,-0.1257102,0.09433498,0,0.3,0,0,0,0,
6.38224E+17,37.4839,54.86864,47.74516,30.98892,16.08934,116.6125,-16.98673,-0.4441859,-4.295897,-61.44649,-6.98289,34.57793,0,0,0,106.7603,42.73983,-29.13634,-36.03881,-110.6591,-50.37467,0.001067912,-0.1257102,0.09433498,0,0.3,0,0,0,0,
6.38224E+17,41.37129,54.82188,47.69846,38.02045,18.28669,116.2463,-16.98673,-0.4441859,-4.295897,-61.44649,-6.98289,34.57793,0,0,0,115.9632,42.59676,-36.68262,-36.03881,-110.6591,-50.37467,0.001067912,-0.1257102,0.09433498,0,0.3,0,0,0,0,
6.38224E+17,44.55189,54.82188,47.67512,44.0998,19.67835,114.1954,-16.98673,-0.4441859,-4.295897,-61.44649,-6.98289,34.57793,0,0,0,123.0643,42.55658,-43.34554,-36.03881,-110.6591,-50.37467,0.001067912,-0.1257102,0.09433498,0,0.3,0,0,0,0,
6.38224E+17,46.15396,54.82188,47.67512,47.1761,20.26431,112.8038,-16.98673,-0.4441859,-4.295897,-61.44649,-6.98289,34.57793,0,0,0,126.511,42.55658,-46.83502,-36.03881,-110.6591,-50.37467,0.001067912,-0.1257102,0.09433498,0,0.3,0,0,0,0,
6.38224E+17,48.50996,54.84526,47.74516,51.20458,20.77703,110.3867,-16.98673,-0.4441859,-4.295897,-61.44649,-6.98289,34.57793,0,0,0,131.4482,42.70851,-52.09519,-36.03881,-110.6591,-50.37467,0.001067912,-0.1257102,0.09433498,0,0.3,0,0,0,0,
6.38224E+17,50.6068,54.96216,48.07202,54.50062,20.77703,108.9218,-16.98673,-0.4441859,-4.295897,-61.44649,-6.98289,34.57793,0,0,0,135.8358,43.42945,-56.80017,-36.03881,-110.6591,-50.37467,0.001067912,-0.1257102,0.09433498,0,0.3,0,0,0,0,
6.38224E+17,51.54919,55.1258,48.35219,55.96552,20.63054,108.4823,-16.98673,-0.4441859,-4.295897,-61.44649,-6.98289,34.57793,0,0,0,137.748,44.13386,-58.97329,-36.03881,-110.6591,-50.37467,0.001067912,-0.1257102,0.09433498,0,0.3,0,0,0,0,
6.38224E+17,52.98635,55.80377,48.93587,58.60235,20.26431,107.8963,-16.98673,-0.4441859,-4.295897,-61.44649,-6.98289,34.57793,0,0,0,140.1267,46.04807,-62.70464,-36.03881,-110.6591,-50.37467,0.001067912,-0.1257102,0.09433498,0,0.3,0,0,0,0,
6.38224E+17,54.02299,56.97268,49.79972,60.94619,19.82484,107.6034,-16.98673,-0.4441859,-4.295897,-61.44649,-6.98289,34.57793,0,0,0,141.2411,49.07979,-65.81892,-36.03881,-110.6591,-50.37467,0.001067912,-0.1257102,0.09433498,0,0.3,0,0,0,0,
6.38224E+17,54.82403,59.02996,50.17327,62.99706,18.65292,107.4569,-16.98673,-0.4441859,-4.295897,-61.44649,-6.98289,34.50468,0,0,0,139.7987,52.28275,-69.82064,-36.03881,-110.6591,-50.37467,0.001067912,-0.1257102,0.09433498,0,0.3,0,0,0,0,
6.38224E+17,55.22455,60.33914,50.19662,63.72951,17.70073,107.4569,-16.98673,-0.4441859,-4.295897,-61.44649,-6.98289,34.57793,0,0,0,138.3521,53.86245,-72.28065,-36.03881,-110.6591,-50.37467,0.001067912,-0.1257102,0.09433498,0,0.3,0,0,0,0,
6.38224E+17,55.29523,62.9575,50.17327,64.60844,15.2104,107.4569,-16.98673,-0.4441859,-4.295897,-61.44649,-6.98289,34.57793,0,0,0,134.0334,56.71437,-75.52435,-36.03881,-110.6591,-50.37467,0.001067912,-0.1257102,0.09433498,0,0.3,0,0,0,0,
6.38224E+17,55.27167,65.90316,50.14993,64.68169,12.06085,107.4569,-16.98673,-0.4441859,-4.295897,-61.44649,-6.98289,34.57793,0,0,0,128.8846,59.6313,-79.01176,-36.03881,-110.6591,-50.37467,0.001067912,-0.1257102,0.09433498,0,0.3,0,0,0,0,
6.38224E+17,55.22455,69.22286,49.9865,63.876,8.178861,106.7977,-16.98673,-0.4441859,-4.295897,-61.44649,-6.98289,34.57793,0,0,0,122.7455,62.28809,-83.11766,-36.03881,-110.6591,-50.37467,0.001067912,-0.1257102,0.09433498,0,0.3,0,0,0,0,
6.38224E+17,55.20099,70.60218,49.9398,63.0703,6.420976,105.7722,-16.98673,-0.4441859,-4.295897,-61.44649,-6.98289,34.57793,0,0,0,120.1773,63.30742,-84.82767,-36.03881,-110.6591,-50.37467,0.001067912,-0.1257102,0.09433498,0,0.3,0,0,0,0,
6.38224E+17,55.05963,73.80499,49.89311,60.57997,1.733285,101.8902,-16.98673,-0.4441859,-4.295897,-61.44649,-6.98289,34.57793,0,0,0,114.0961,65.50224,-88.63589,-36.03881,-110.6591,-50.37467,0.001067912,-0.1257102,0.09433498,0,0.3,0,0,0,0,
6.38224E+17,54.75335,76.56361,49.65963,57.57691,-3.393876,96.39685,-16.98673,-0.4441859,-4.295897,-61.44649,-6.98289,34.57793,0,0,0,108.3132,66.72897,-91.8113,-36.03881,-110.6591,-50.37467,0.001067912,-0.1257102,0.09433498,0,0.3,0,0,0,0,
6.38224E+17,54.68267,77.66239,49.4962,56.03876,-5.737722,93.54029,-16.98673,-0.4441859,-4.295897,-61.44649,-6.98289,34.57793,0,0,0,105.9834,67.00974,-93.26145,-36.03881,-110.6591,-50.37467,0.001067912,-0.1257102,0.09433498,0,0.3,0,0,0,0,
6.38224E+17,54.65911,79.46251,49.00591,53.32869,-9.912696,87.68068,-16.98673,-0.4441859,-4.295897,-61.44649,-6.98289,34.57793,0,0,0,101.9953,66.97603,-96.02393,-36.03881,-110.6591,-50.37467,0.001067912,-0.1257102,0.09433498,0,0.3,0,0,0,0,
6.38224E+17,54.65911,80.77169,48.07202,51.13134,-12.47628,82.91974,-16.98673,-0.4441859,-4.295897,-61.44649,-6.98289,34.57793,0,0,0,98.37287,65.87014,-98.59267,-36.03881,-110.6591,-50.37467,0.001067912,-0.1257102,0.09433498,0,0.3,0,0,0,0,
6.38224E+17,54.63555,82.03412,47.02139,49.08047,-13.72145,80.20967,-16.98673,-0.4441859,-4.295897,-61.44649,-6.98289,34.57793,0,0,0,94.62917,64.50521,-101.1889,-36.03881,-110.6591,-50.37467,0.001067912,-0.1257102,0.09433498,0,0.3,0,0,0,0,
6.38224E+17,54.56487,82.71208,46.5311,47.90855,-14.16092,79.40398,-16.98673,-0.4441859,-4.295897,-61.44649,-6.98289,34.57793,0,0,0,92.63528,63.88313,-102.432,-36.03881,-110.6591,-50.37467,0.001067912,-0.1257102,0.09433498,0,0.3,0,0,0,0,
6.38224E+17,54.23503,84.13815,45.48048,45.49146,-15.1131,78.23206,-16.98673,-0.4441859,-4.295897,-61.44649,-6.98289,34.57793,0,0,0,88.2008,62.50406,-104.8195,-36.03881,-110.6591,-50.37467,0.001067912,-0.1257102,0.09433498,0,0.3,0,0,0,0,
6.38224E+17,53.81095,85.1668,44.82675,43.36735,-15.69907,77.57285,-16.98673,-0.4441859,-4.295897,-61.44649,-6.98289,34.57793,0,0,0,84.93847,61.64846,-106.2094,-36.03881,-110.6591,-50.37467,0.001067912,-0.1257102,0.09433498,0,0.3,0,0,0,0,
6.38224E+17,53.57535,85.79801,44.66332,42.19543,-15.99205,77.13338,-16.98673,-0.4441859,-4.295897,-61.44649,-6.98289,34.57793,0,0,0,83.28645,61.49641,-106.8906,-36.03881,-110.6591,-50.37467,0.001067912,-0.1257102,0.09433498,0,0.3,0,0,0,0,
6.38224E+17,52.72719,87.15395,44.59328,40.07132,-17.01748,76.10795,-16.98673,-0.4441859,-4.295897,-61.44649,-6.98289,34.57793,0,0,0,79.76879,61.57586,-107.6423,-36.03881,-110.6591,-50.37467,0.001067912,-0.1257102,0.09433498,0,0.3,0,0,0,0,
6.38224E+17,51.52563,88.58002,44.61663,37.72747,-18.40914,74.71628,-16.98673,-0.4441859,-4.295897,-61.44649,-6.909645,34.57793,0,0,0,75.91196,61.73755,-108.0223,-36.03881,-110.6591,-50.37467,0.001067912,-0.1257102,0.09433498,0,0.3,0,0,0,0,
6.38224E+17,50.81884,89.32812,44.61663,36.4823,-19.14159,74.05708,-16.98673,-0.4441859,-4.295897,-61.44649,-6.98289,34.57793,0,0,0,73.8126,61.76933,-108.1903,-36.03881,-110.6591,-50.37467,0.001067912,-0.1257102,0.09433498,0,0.3,0,0,0,0,
6.38224E+17,49.4288,90.68405,44.61663,33.84548,-20.67974,72.9584,-16.98673,-0.4441859,-4.295897,-61.44649,-6.98289,34.57793,0,0,0,69.93443,61.76899,-108.4699,-36.03881,-110.6591,-50.37467,0.001067912,-0.1257102,0.09433498,0,0.3,0,0,0,0,
6.38224E+17,47.99164,92.15688,44.61663,30.76918,-21.9249,71.71323,-16.98673,-0.4441859,-4.295897,-61.44649,-6.98289,34.57793,0,0,0,65.8644,61.68402,-109.028,-36.03881,-110.6591,-50.37467,0.001067912,-0.1257102,0.09433498,0,0.3,0,0,0,0,
6.38224E+17,46.24821,93.55957,44.75671,27.54639,-23.24332,70.24833,-16.98673,-0.4441859,-4.295897,-61.44649,-6.98289,34.57793,0,0,0,61.84135,61.75051,-109.1461,-36.03881,-110.6591,-50.37467,0.001067912,-0.1257102,0.09433498,0,0.3,0,0,0,0,
6.38224E+17,45.21157,94.47132,45.66725,25.49553,-24.26875,69.29614,-16.98673,-0.4441859,-4.295897,-61.44649,-6.98289,34.57793,0,0,0,60.31737,63.10593,-108.4764,-36.03881,-110.6591,-50.37467,0.001067912,-0.1257102,0.09433498,0,0.3,0,0,0,0,
6.38224E+17,43.56237,95.7805,46.92801,23.44467,-25.95339,68.49045,-16.98673,-0.4441859,-4.295897,-61.44649,-6.98289,34.57793,0,0,0,57.87495,64.95496,-107.4953,-36.03881,-110.6591,-50.37467,0.001067912,-0.1257102,0.09433498,0,0.3,0,0,0,0,
6.38224E+17,41.67757,97.37022,48.53897,20.95433,-28.00425,68.12422,-16.98673,-0.4441859,-4.295897,-61.44649,-6.98289,34.57793,0,0,0,55.07493,67.30582,-106.4865,-36.03881,-110.6591,-50.37467,0.001067912,-0.1257102,0.09433498,0,0.3,0,0,0,0,
6.38224E+17,40.80585,98.00143,49.16934,19.56267,-29.02968,67.97772,-16.98673,-0.4441859,-4.295897,-61.44649,-6.98289,34.57793,0,0,0,53.80682,68.21414,-106.0271,-36.03881,-110.6591,-50.37467,0.001067912,-0.1257102,0.09433498,0,0.3,0,0,0,0,
6.38224E+17,39.29802,99.03007,50.36005,16.70611,-31.0073,67.90449,-16.98673,-0.4441859,-4.295897,-61.44649,-6.98289,34.57793,0,0,0,51.78239,69.97517,-105.0798,-36.03881,-110.6591,-50.37467,0.001067912,-0.1257102,0.09433498,0,0.3,0,0,0,0,
6.38224E+17,38.37918,99.73141,51.38733,14.28902,-32.6187,67.90449,-16.98673,-0.4441859,-4.295897,-61.44649,-6.98289,34.57793,0,0,0,50.69795,71.56384,-104.3373,-36.03881,-110.6591,-50.37467,0.001067912,-0.1257102,0.09433498,0,0.3,0,0,0,0,
6.38224E+17,38.28493,100.1288,52.39126,12.97061,-33.79062,67.90449,-16.98673,-0.4441859,-4.295897,-61.44649,-6.98289,34.57793,0,0,0,50.92155,73.24274,-103.8373,-36.03881,-110.6591,-50.37467,0.001067912,-0.1257102,0.09433498,0,0.3,0,0,0,0,
6.38224E+17,38.30849,100.3159,53.69871,12.60438,-34.96254,67.97772,-16.98673,-0.4441859,-4.295897,-61.44649,-6.98289,34.57793,0,0,0,51.81653,75.59708,-102.7589,-36.03881,-110.6591,-50.37467,0.001067912,-0.1257102,0.09433498,0,0.3,0,0,0,0,
6.38224E+17,38.30849,100.4561,54.67929,12.60438,-35.695,67.90449,-16.98673,-0.4441859,-4.295897,-61.44649,-6.98289,34.57793,0,0,0,52.44524,77.38897,-101.9631,-36.03881,-110.6591,-50.37467,0.001067912,-0.1257102,0.09433498,0,0.3,0,0,0,0,
6.38224E+17,38.33206,100.6432,56.94398,12.97061,-37.52613,67.75799,-16.98673,-0.4441859,-4.295897,-61.44649,-6.98289,34.57793,0,0,0,54.04394,81.66898,-99.99716,-36.03881,-110.6591,-50.37467,0.001067912,-0.1257102,0.09433498,0,0.3,0,0,0,0,
6.38224E+17,38.40274,100.6665,59.25536,13.7763,-39.79673,67.31852,-16.98673,-0.4441859,-4.295897,-61.44649,-6.98289,34.57793,0,0,0,55.86076,86.22564,-97.87817,-36.03881,-110.6591,-50.37467,0.001067912,-0.1257102,0.09433498,0,0.3,0,0,0,0,
6.38224E+17,38.47342,100.6432,60.44607,14.50875,-40.96865,67.17203,-16.98673,-0.4441859,-4.295897,-61.44649,-6.98289,34.57793,0,0,0,56.84686,88.63202,-96.8156,-36.03881,-110.6591,-50.37467,0.001067912,-0.1257102,0.09433498,0,0.3,0,0,0,0,
6.38224E+17,38.5441,100.5964,62.80414,16.0469,-43.60548,66.65932,-16.98673,-0.4441859,-4.295897,-61.44649,-6.98289,34.57793,0,0,0,58.6268,93.48054,-94.76232,-36.03881,-110.6591,-50.37467,0.001067912,-0.1257102,0.09433498,0,0.3,0,0,0,0,
6.38224E+17,38.7797,100.3392,65.349,17.29207,-46.53528,65.70713,-16.98673,-0.4441859,-4.295897,-61.44649,-6.98289,34.57793,0,0,0,60.91914,98.91576,-92.52686,-36.03881,-110.6591,-50.37467,0.001067912,-0.1257102,0.09433498,0,0.3,0,0,0,0,
6.38224E+17,38.96818,99.98857,66.51636,18.02452,-48.00018,64.82819,-16.98673,-0.4441859,-4.295897,-61.44649,-6.98289,34.57793,0,0,0,62.37025,101.5405,-91.24163,-36.03881,-110.6591,-50.37467,0.001067912,-0.1257102,0.09433498,0,0.3,0,0,0,0,
6.38224E+17,39.41582,98.93655,68.50088,20.95433,-50.92999,61.6054,-16.98673,-0.4441859,-4.295897,-61.44649,-6.98289,34.50468,0,0,0,65.62605,106.2102,-88.5005,-36.03881,-110.6591,-50.37467,0.001067912,-0.1257102,0.09433498,0,0.3,0,0,0,0,
6.38224E+17,39.53362,97.88454,70.15854,25.27579,-53.12735,57.35718,-16.98673,-0.4441859,-4.295897,-61.44649,-6.98289,34.57793,0,0,0,68.19864,110.1779,-85.71725,-36.03881,-110.6591,-50.37467,0.001067912,-0.1257102,0.09433498,0,0.3,0,0,0,0,
6.38224E+17,39.53362,96.73901,71.48933,30.4762,-54.81199,52.96247,-16.98673,-0.4441859,-4.295897,-61.44649,-6.98289,34.57793,0,0,0,70.52944,113.4426,-82.89314,-36.03881,-110.6591,-50.37467,0.001067912,-0.1257102,0.09433498,0,0.3,0,0,0,0,
6.38224E+17,39.53362,95.82726,72.02631,33.47925,-55.39795,50.76511,-16.98673,-0.4441859,-4.295897,-61.44649,-6.98289,34.57793,0,0,0,72.12106,114.8618,-80.96466,-36.03881,-110.6591,-50.37467,0.001067912,-0.1257102,0.09433498,0,0.3,0,0,0,0,
6.38224E+17,39.53362,95.19604,72.28313,35.0174,-55.61768,49.81293,-16.98673,-0.4441859,-4.295897,-61.44649,-6.98289,34.57793,0,0,0,73.16844,115.5718,-79.6956,-36.03881,-110.6591,-50.37467,0.001067912,-0.1257102,0.09433498,0,0.3,0,0,0,0,
6.38224E+17,39.53362,94.00376,72.86681,37.65423,-55.83742,48.56776,-16.98673,-0.4441859,-4.295897,-61.44649,-6.98289,34.57793,0,0,0,75.18799,117.0905,-77.24863,-36.03881,-110.6591,-50.37467,0.001067912,-0.1257102,0.09433498,0,0.3,0,0,0,0,
6.38224E+17,39.62786,92.85822,73.42715,39.70509,-55.98391,47.9818,-16.98673,-0.4441859,-4.295897,-61.44649,-6.98289,34.57793,0,0,0,77.27624,118.4981,-75.03149,-36.03881,-110.6591,-50.37467,0.001067912,-0.1257102,0.09433498,0,0.3,0,0,0,0,
6.38224E+17,39.79277,92.20364,73.56724,40.58403,-55.98391,47.8353,-16.98673,-0.4441859,-4.295897,-61.44649,-6.98289,34.57793,0,0,0,78.5779,118.878,-74.01369,-36.03881,-110.6591,-50.37467,0.001067912,-0.1257102,0.09433498,0,0.3,0,0,0,0,
6.38224E+17,40.52313,90.63729,73.59058,42.19543,-55.3247,47.54232,-16.98673,-0.4441859,-4.295897,-61.44649,-6.98289,34.57793,0,0,0,82.15186,119.0205,-72.24113,-36.03881,-110.6591,-50.37467,0.001067912,-0.1257102,0.09433498,0,0.3,0,0,0,0,
6.38224E+17,41.25349,88.8138,73.59058,43.88007,-53.64006,47.46908,-16.98673,-0.4441859,-4.295897,-61.44649,-6.98289,34.57793,0,0,0,86.16857,119.0002,-70.10565,-36.03881,-110.6591,-50.37467,0.001067912,-0.1257102,0.09433498,0,0.3,0,0,0,0,
6.38224E+17,41.88961,86.92016,73.56724,45.27173,-51.66244,47.46908,-16.98673,-0.4441859,-4.295897,-61.44649,-6.98289,34.57793,0,0,0,90.18426,118.784,-67.80132,-36.03881,-110.6591,-50.37467,0.001067912,-0.1257102,0.09433498,0,0.3,0,0,0,0,
6.38224E+17,42.64353,85.30706,73.42715,46.22392,-49.90456,47.8353,-16.98673,-0.4441859,-4.295897,-61.44649,-6.98289,34.57793,0,0,0,93.97411,118.217,-66.30963,-36.03881,-110.6591,-50.37467,0.001067912,-0.1257102,0.09433498,0,0.3,0,0,0,0,
6.38224E+17,43.42101,83.46019,73.07694,46.88312,-47.92694,48.64101,-16.98673,-0.4441859,-4.295897,-61.44649,-6.98289,34.50468,0,0,0,98.12884,117.0158,-64.65785,-36.03881,-110.6591,-50.37467,0.001067912,-0.1257102,0.09433498,0,0.3,0,0,0,0,
6.38224E+17,44.24561,80.60804,72.63335,47.39584,-44.85064,50.69187,-16.98673,-0.4441859,-4.295897,-61.44649,-6.98289,34.57793,0,0,0,103.985,115.1094,-61.58999,-36.03881,-110.6591,-50.37467,0.001067912,-0.1257102,0.09433498,0,0.3,0,0,0,0,
6.38224E+17,44.59901,79.11184,72.53996,47.61557,-43.31249,51.86379,-16.98673,-0.4441859,-4.295897,-61.44649,-6.98289,34.57793,0,0,0,107.0027,114.289,-59.839,-36.03881,-110.6591,-50.37467,0.001067912,-0.1257102,0.09433498,0,0.3,0,0,0,0,
6.38224E+17,45.49429,74.2258,72.53996,48.56776,-38.69805,54.42737,-16.98673,-0.4441859,-4.295897,-61.44649,-6.98289,34.57793,0,0,0,116.5743,111.6677,-53.76992,-36.03881,-110.6591,-50.37467,0.001067912,-0.1257102,0.09433498,0,0.3,0,0,0,0,
6.38224E+17,45.80056,72.4958,72.53996,48.86074,-37.30639,54.86684,-16.98673,-0.4441859,-4.295897,-61.44649,-6.98289,34.57793,0,0,0,119.9507,110.5148,-51.70534,-36.03881,-110.6591,-50.37467,0.001067912,-0.1257102,0.09433498,0,0.3,0,0,0,0,
6.38224E+17,46.31889,68.59165,72.58665,49.51994,-34.23009,55.67254,-16.98673,-0.4441859,-4.295897,-61.44649,-6.98289,34.57793,0,0,0,127.2194,107.5925,-46.85668,-36.03881,-110.6591,-50.37467,0.001067912,-0.1257102,0.09433498,0,0.3,0,0,0,0,
6.38224E+17,46.6016,64.61736,73.17033,50.10591,-31.0073,56.11201,-16.98673,-0.4441859,-4.295897,-61.44649,-6.98289,34.50468,0,0,0,134.275,105.2186,-41.37958,-36.03881,-110.6591,-50.37467,0.001067912,-0.1257102,0.09433498,0,0.3,0,0,0,0,
6.38224E+17,46.62516,62.60683,73.59058,50.61862,-29.24942,56.11201,-16.98673,-0.4441859,-4.295897,-61.44649,-6.98289,34.57793,0,0,0,137.5772,104.0762,-38.36407,-36.03881,-110.6591,-50.37467,0.001067912,-0.1257102,0.09433498,0,0.3,0,0,0,0,
6.38224E+17,46.6016,58.91307,74.291,51.57081,-25.8069,56.11201,-16.98673,-0.4441859,-4.295897,-61.44649,-6.98289,34.57793,0,0,0,143.301,101.4442,-32.84459,-36.03881,-110.6591,-50.37467,0.001067912,-0.1257102,0.09433498,0,0.3,0,0,0,0,
6.38224E+17,46.41312,55.4531,74.99142,52.37651,-22.58411,55.89228,-16.98673,-0.4441859,-4.295897,-61.44649,-6.98289,34.57793,0,0,0,148.0684,98.65255,-27.41102,-36.03881,-110.6591,-50.37467,0.001067912,-0.1257102,0.09433498,0,0.3,0,0,0,0,
6.38224E+17,46.29532,53.88676,75.20155,52.59624,-20.89947,55.74578,-16.98673,-0.4441859,-4.295897,-61.44649,-6.98289,34.57793,0,0,0,150.0192,97.01707,-24.96511,-36.03881,-110.6591,-50.37467,0.001067912,-0.1257102,0.09433498,0,0.3,0,0,0,0,
6.38224E+17,46.05972,51.01124,75.24824,52.88922,-17.82317,55.37956,-16.98673,-0.4441859,-4.295897,-61.44649,-6.98289,34.57793,0,0,0,153.2684,93.04374,-20.64882,-36.03881,-110.6591,-50.37467,0.001067912,-0.1257102,0.09433498,0,0.3,0,0,0,0,
6.38224E+17,46.03617,47.94869,75.06145,52.81598,-14.74688,55.15982,-16.98673,-0.4441859,-4.295897,-61.44649,-6.98289,34.57793,0,0,0,157.0271,87.99309,-16.90212,-36.03881,-110.6591,-50.37467,0.001067912,-0.1257102,0.09433498,0,0.3,0,0,0,0,
6.38224E+17,46.13041,44.25494,75.10815,52.37651,-10.93813,55.08658,-16.98673,-0.4441859,-4.295897,-61.44649,-6.98289,34.57793,0,0,0,161.7612,82.13828,-12.84895,-36.03881,-110.6591,-50.37467,0.001067912,-0.1257102,0.09433498,0,0.3,0,0,0,0,
6.38224E+17,46.13041,42.4782,75.24824,52.08353,-9.106999,55.08658,-16.98673,-0.4441859,-4.295897,-61.44649,-6.98289,34.57793,0,0,0,163.8683,79.4474,-10.82341,-36.03881,-110.6591,-50.37467,0.001067912,-0.1257102,0.09433498,0,0.3,0,0,0,0,
6.38224E+17,46.13041,39.11173,75.38832,51.35107,-5.591231,55.01333,-16.98673,-0.4441859,-4.295897,-61.44649,-6.98289,34.57793,0,0,0,167.6178,73.83205,-7.219027,-36.03881,-110.6591,-50.37467,0.001067912,-0.1257102,0.09433498,0,0.3,0,0,0,0,
6.38224E+17,46.22464,35.16082,75.38832,50.10591,-1.928973,55.01333,-16.98673,-0.4441859,-4.295897,-61.44649,-6.98289,34.57793,0,0,0,171.8902,66.50296,-3.655097,-36.03881,-110.6591,-50.37467,0.001067912,-0.1257102,0.09433498,0,0.3,0,0,0,0,
6.38224E+17,46.22464,32.96326,75.27159,49.22696,-0.171089,54.86684,-16.98673,-0.4441859,-4.295897,-61.44649,-6.98289,34.57793,0,0,0,173.9088,62.00331,-1.720981,-36.03881,-110.6591,-50.37467,0.001067912,-0.1257102,0.09433498,0,0.3,0,0,0,0,
6.38224E+17,46.15396,31.56057,75.1782,48.49451,0.7810982,54.72035,-16.98673,-0.4441859,-4.295897,-61.44649,-6.98289,34.57793,0,0,0,174.9199,59.0326,-0.3378479,-36.03881,-110.6591,-50.37467,0.001067912,-0.1257102,0.09433498,0,0.3,0,0,0,0,
6.38224E+17,45.96548,28.91884,74.66456,46.80988,2.758718,54.42737,-16.98673,-0.4441859,-4.295897,-61.44649,-6.98289,34.57793,0,0,0,176.3686,52.56705,2.172607,-36.03881,-110.6591,-50.37467,0.001067912,-0.1257102,0.09433498,0,0.3,0,0,0,0,
6.38224E+17,45.80056,26.95507,73.31042,44.75901,4.663092,54.06115,-16.98673,-0.4441859,-4.295897,-61.44649,-6.98289,34.57793,0,0,0,176.7888,45.50013,3.566212,-36.03881,-110.6591,-50.37467,0.001067912,-0.1257102,0.09433498,0,0.3,0,0,0,0,
6.38224E+17,45.47073,25.17833,71.27921,42.41516,6.494221,53.91465,-16.98673,-0.4441859,-4.295897,-61.44649,-6.98289,34.57793,0,0,0,176.0667,37.28243,4.847135,-36.03881,-110.6591,-50.37467,0.001067912,-0.1257102,0.09433498,0,0.3,0,0,0,0,
6.38224E+17,45.25869,24.31333,70.01845,41.24324,7.373164,53.84141,-16.98673,-0.4441859,-4.295897,-61.44649,-6.98289,34.57793,0,0,0,175.3324,32.68568,5.406324,-36.03881,-110.6591,-50.37467,0.001067912,-0.1257102,0.09433498,0,0.3,0,0,0,0,
6.38224E+17,44.76393,22.4197,67.00665,38.38668,9.717009,53.91465,-16.98673,-0.4441859,-4.295897,-61.44649,-6.98289,34.57793,0,0,0,173.2485,22.11837,6.332041,-36.03881,-110.6591,-50.37467,0.001067912,-0.1257102,0.09433498,0,0.3,0,0,0,0,
6.38224E+17,44.26917,20.33904,63.80808,35.09065,11.98761,54.35413,-16.98673,-0.4441859,-4.295897,-61.44649,-6.98289,34.57793,0,0,0,170.8035,10.84113,6.867404,-36.03881,-110.6591,-50.37467,0.001067912,-0.1257102,0.09433498,0,0.3,0,0,0,0,
6.38224E+17,43.91577,19.1935,62.08038,33.03978,13.15953,54.7936,-16.98673,-0.4441859,-4.295897,-61.44649,-6.98289,34.57793,0,0,0,169.0764,4.751297,7.24958,-36.03881,-110.6591,-50.37467,0.001067912,-0.1257102,0.09433498,0,0.3,0,0,0,0,
6.38224E+17,43.06761,17.27649,59.16197,28.86481,15.72311,55.37956,-16.98673,-0.4441859,-4.295897,-61.44649,-6.98289,34.57793,0,0,0,165.1366,-5.404227,8.318945,-36.03881,-110.6591,-50.37467,0.001067912,-0.1257102,0.09433498,0,0.3,0,0,0,0,
6.38224E+17,42.07809,15.94393,56.29026,24.98281,18.1402,55.59929,-16.98673,-0.4441859,-4.295897,-61.44649,-6.98289,34.57793,0,0,0,160.2638,-14.02658,9.15382,-36.03881,-110.6591,-50.37467,0.001067912,-0.1257102,0.09433498,0,0.3,0,0,0,0,
6.38224E+17,41.04145,15.17245,52.74147,21.17406,20.48405,55.81903,-16.98673,-0.4441859,-4.295897,-61.44649,-6.98289,34.57793,0,0,0,154.1949,-22.48069,8.77192,-36.03881,-110.6591,-50.37467,0.001067912,-0.1257102,0.09433498,0,0.3,0,0,0,0,
6.38224E+17,39.74566,14.89192,48.63235,17.36532,22.90114,55.89228,-16.98673,-0.4441859,-4.295897,-61.44649,-6.98289,34.57793,0,0,0,146.385,-30.50896,7.686042,-36.03881,-110.6591,-50.37467,0.001067912,-0.1257102,0.09433498,0,0.3,0,0,0,0,
6.38224E+17,39.13309,14.82178,47.02139,15.90041,23.85333,55.89228,-16.98673,-0.4441859,-4.295897,-61.44649,-6.98289,34.57793,0,0,0,142.9325,-33.44536,7.320954,-36.03881,-110.6591,-50.37467,0.001067912,-0.1257102,0.09433498,0,0.3,0,0,0,0,
6.38224E+17,37.53102,14.70489,43.16909,12.45789,26.05068,55.89228,-16.98673,-0.4441859,-4.295897,-61.44649,-6.98289,34.57793,0,0,0,134.1525,-40.05756,6.285052,-36.03881,-110.6591,-50.37467,0.001067912,-0.1257102,0.09433498,0,0.3,0,0,0,0,
6.38224E+17,36.16454,14.61138,39.83044,9.528083,28.0283,55.89228,-16.98673,-0.4441859,-4.295897,-61.44649,-6.98289,34.57793,0,0,0,126.5485,-45.41618,4.781297,-36.03881,-110.6591,-50.37467,0.001067912,-0.1257102,0.09433498,0,0.3,0,0,0,0,
6.38224E+17,35.33994,14.588,37.91596,8.06318,29.20022,55.89228,-16.98673,-0.4441859,-4.295897,-61.44649,-6.98289,34.57793,0,0,0,122.0452,-48.26512,3.766153,-36.03881,-110.6591,-50.37467,0.001067912,-0.1257102,0.09433498,0,0.3,0,0,0,0,
6.38224E+17,33.62006,14.588,34.20374,5.133373,30.59188,55.81903,-16.98673,-0.4441859,-4.295897,-61.44649,-6.98289,34.57793,0,0,0,112.9581,-53.34988,1.53645,-36.03881,-110.6591,-50.37467,0.001067912,-0.1257102,0.09433498,0,0.3,0,0,0,0,
6.38224E+17,31.47611,14.61138,30.84174,1.764095,31.69056,55.30631,-16.98673,-0.4441859,-4.295897,-61.44649,-6.98289,34.57793,0,0,0,103.0719,-57.50346,0.005595098,-36.03881,-110.6591,-50.37467,0.001067912,-0.1257102,0.09433498,0,0.3,0,0,0,0,
6.38224E+17,29.35571,14.75165,28.18015,-1.605182,32.78923,54.7936,-16.98673,-0.4441859,-4.295897,-61.44649,-6.98289,34.57793,0,0,0,94.08916,-60.23877,-1.066439,-36.03881,-110.6591,-50.37467,0.001067912,-0.1257102,0.09433498,0,0.3,0,0,0,0,
6.38224E+17,28.29551,14.98543,26.89605,-3.509557,33.30195,54.64711,-16.98673,-0.4441859,-4.295897,-61.44649,-6.98289,34.57793,0,0,0,89.6555,-61.0946,-1.810414,-36.03881,-110.6591,-50.37467,0.001067912,-0.1257102,0.09433498,0,0.3,0,0,0,0,
6.38224E+17,25.98664,15.99069,24.3512,-7.391551,34.0344,54.28088,-16.98673,-0.4441859,-4.295897,-61.44649,-6.98289,34.57793,0,0,0,80.2599,-61.40113,-3.695364,-36.03881,-110.6591,-50.37467,0.001067912,-0.1257102,0.09433498,0,0.3,0,0,0,0,
6.38224E+17,24.43168,17.34663,22.43672,-9.881886,34.47387,54.20764,-16.98673,-0.4441859,-4.295897,-61.44649,-6.98289,34.57793,0,0,0,73.69656,-60.14708,-6.125307,-36.03881,-110.6591,-50.37467,0.001067912,-0.1257102,0.09433498,0,0.3,0,0,0,0,
6.38224E+17,23.58352,18.235,21.45614,-10.98056,34.54712,54.13439,-16.98673,-0.4441859,-4.295897,-61.44649,-6.98289,34.57793,0,0,0,70.18749,-59.03133,-7.571148,-36.03881,-110.6591,-50.37467,0.001067912,-0.1257102,0.09433498,0,0.3,0,0,0,0,
6.38224E+17,22.14636,20.24553,20.07865,-12.73845,34.62037,54.13439,-16.98673,-0.4441859,-4.295897,-61.44649,-6.98289,34.57793,0,0,0,64.42173,-55.75035,-10.06596,-36.03881,-110.6591,-50.37467,0.001067912,-0.1257102,0.09433498,0,0.3,0,0,0,0,
6.38224E+17,20.99193,22.23267,19.2148,-13.61739,34.40063,54.20764,-16.98673,-0.4441859,-4.295897,-61.44649,-6.98289,34.57793,0,0,0,59.94118,-52.1158,-12.13209,-36.03881,-110.6591,-50.37467,0.001067912,-0.1257102,0.09433498,0,0.3,0,0,0,0,
6.38224E+17,19.83749,24.26657,19.07472,-13.76388,34.1809,54.13439,-16.98673,-0.4441859,-4.295897,-61.44649,-6.98289,34.57793,0,0,0,56.04304,-47.87365,-13.00345,-36.03881,-110.6591,-50.37467,0.001067912,-0.1257102,0.09433498,0,0.3,0,0,0,0,
6.38224E+17,18.70661,26.93169,19.07472,-13.76388,33.52169,54.06115,-16.98673,-0.4441859,-4.295897,-61.44649,-6.98289,34.57793,0,0,0,52.10669,-42.28025,-14.46587,-36.03881,-110.6591,-50.37467,0.001067912,-0.1257102,0.09433498,0,0.3,0,0,0,0,
6.38224E+17,18.04693,28.52141,19.07472,-13.83713,32.93573,54.13439,-16.98673,-0.4441859,-4.295897,-61.44649,-6.98289,34.57793,0,0,0,49.79826,-39.00528,-15.5128,-36.03881,-110.6591,-50.37467,0.001067912,-0.1257102,0.09433498,0,0.3,0,0,0,0,
6.38224E+17,16.56265,31.51382,19.26149,-14.56958,31.25109,54.20764,-16.98673,-0.4441859,-4.295897,-61.44649,-6.98289,34.57793,0,0,0,44.94663,-32.83285,-17.21978,-36.03881,-110.6591,-50.37467,0.001067912,-0.1257102,0.09433498,0,0.3,0,0,0,0,
6.38224E+17,15.10193,34.59974,19.79848,-16.03448,28.98049,54.20764,-16.98673,-0.4441859,-4.295897,-61.44649,-6.98289,34.57793,0,0,0,40.36578,-26.39618,-18.76784,-36.03881,-110.6591,-50.37467,0.001067912,-0.1257102,0.09433498,0,0.3,0,0,0,0,
6.38224E+17,13.99462,38.12985,20.75572,-17.57263,26.49015,54.28088,-16.98673,-0.4441859,-4.295897,-61.44649,-6.98289,34.57793,0,0,0,36.79504,-19.00917,-20.71405,-36.03881,-110.6591,-50.37467,0.001067912,-0.1257102,0.09433498,0,0.3,0,0,0,0,
6.38224E+17,13.49986,40.14038,21.40944,-18.15859,25.09849,54.64711,-16.98673,-0.4441859,-4.295897,-61.44649,-6.98289,34.57793,0,0,0,35.16083,-14.83253,-21.89302,-36.03881,-110.6591,-50.37467,0.001067912,-0.1257102,0.09433498,0,0.3,0,0,0,0,
6.38224E+17,12.58102,44.5121,22.95036,-19.25727,21.80246,55.4528,-16.98673,-0.4441859,-4.295897,-61.44649,-6.98289,34.57793,0,0,0,32.0391,-5.958084,-24.79194,-36.03881,-110.6591,-50.37467,0.001067912,-0.1257102,0.09433498,0,0.3,0,0,0,0,
6.38224E+17,11.68574,48.95396,24.91153,-20.20946,18.06696,56.40499,-16.98673,-0.4441859,-4.295897,-61.44649,-6.98289,34.50468,0,0,0,29.11276,2.977171,-27.59339,-36.03881,-110.6591,-50.37467,0.001067912,-0.1257102,0.09433498,0,0.3,0,0,0,0,
6.38224E+17,11.3559,51.08138,25.98551,-20.72217,16.16258,57.13744,-16.98673,-0.4441859,-4.295897,-61.44649,-6.98289,34.57793,0,0,0,27.9994,7.232527,-28.93475,-36.03881,-110.6591,-50.37467,0.001067912,-0.1257102,0.09433498,0,0.3,0,0,0,0,
6.38224E+17,10.71978,55.19594,28.32023,-21.7476,12.1341,58.74884,-16.98673,-0.4441859,-4.295897,-61.44649,-6.98289,34.57793,0,0,0,25.9243,15.45553,-31.40872,-36.03881,-110.6591,-50.37467,0.001067912,-0.1257102,0.09433498,0,0.3,0,0,0,0,
6.38224E+17,10.31926,59.38063,30.98182,-22.84628,8.252106,60.72646,-16.98673,-0.4441859,-4.295897,-61.44649,-6.98289,34.57793,0,0,0,24.46303,23.78196,-33.99541,-36.03881,-110.6591,-50.37467,0.001067912,-0.1257102,0.09433498,0,0.3,0,0,0,0,
6.38224E+17,10.43706,64.87452,34.95086,-23.87171,3.78415,63.14355,-16.98673,-0.4441859,-4.295897,-61.44649,-6.98289,34.57793,0,0,0,24.09609,34.78294,-37.53737,-36.03881,-110.6591,-50.37467,0.001067912,-0.1257102,0.09433498,0,0.3,0,0,0,0,
6.38224E+17,10.60198,69.08259,38.49964,-24.31118,-0.171089,65.26765,-16.98673,-0.4441859,-4.295897,-61.44649,-6.98289,34.57793,0,0,0,24.03227,43.55039,-39.95929,-36.03881,-110.6591,-50.37467,0.001067912,-0.1257102,0.09433498,0,0.3,0,0,0,0,
6.38224E+17,10.6491,71.60744,40.90441,-24.67741,-3.027651,66.58607,-16.98673,-0.4441859,-4.295897,-61.44649,-6.98289,34.57793,0,0,0,23.91097,49.10174,-41.18567,-36.03881,-110.6591,-50.37467,0.001067912,-0.1257102,0.09433498,0,0.3,0,0,0,0,
6.38224E+17,10.69622,75.88565,45.55051,-25.48311,-8.521038,68.85667,-16.98673,-0.4441859,-4.295897,-61.44649,-6.98289,34.57793,0,0,0,23.70372,59.29193,-42.85623,-36.03881,-110.6591,-50.37467,0.001067912,-0.1257102,0.09433498,0,0.3,0,0,0,0,
6.38224E+17,10.83758,79.6963,50.71026,-26.4353,-14.60039,71.27377,-16.98673,-0.4441859,-4.295897,-61.44649,-6.98289,34.57793,0,0,0,23.89025,70.10667,-43.55772,-36.03881,-110.6591,-50.37467,0.001067912,-0.1257102,0.09433498,0,0.3,0,0,0,0,
6.38224E+17,10.93182,81.40291,53.20842,-26.80152,-17.82317,72.88515,-16.98673,-0.4441859,-4.295897,-61.44649,-6.98289,34.57793,0,0,0,24.03187,75.33756,-43.92646,-36.03881,-110.6591,-50.37467,0.001067912,-0.1257102,0.09433498,0,0.3,0,0,0,0,
6.38224E+17,11.40302,83.95113,57.27084,-27.31424,-23.90252,76.18118,-16.98673,-0.4441859,-4.295897,-61.44649,-6.98289,34.57793,0,0,0,24.95696,83.85941,-44.61092,-36.03881,-110.6591,-50.37467,0.001067912,-0.1257102,0.09433498,0,0.3,0,0,0,0,
6.38224E+17,12.43966,85.72787,60.58615,-26.65503,-29.68889,78.89126,-16.98673,-0.4441859,-4.295897,-61.44649,-6.98289,34.50468,0,0,0,27.16213,90.83939,-45.216,-36.03881,-110.6591,-50.37467,0.001067912,-0.1257102,0.09433498,0,0.3,0,0,0,0,
6.38224E+17,14.44226,86.63962,61.98699,-23.359,-35.40202,80.50266,-16.98673,-0.4441859,-4.295897,-61.44649,-6.98289,34.57793,0,0,0,31.31102,93.83995,-46.77394,-36.03881,-110.6591,-50.37467,0.001067912,-0.1257102,0.09433498,0,0.3,0,0,0,0,
6.38224E+17,15.78517,86.70975,62.01034,-20.42919,-37.37963,80.20967,-16.98673,-0.4441859,-4.295897,-61.44649,-6.98289,34.57793,0,0,0,34.11431,93.8974,-47.6734,-36.03881,-110.6591,-50.37467,0.001067912,-0.1257102,0.09433498,0,0.3,0,0,0,0,
6.38224E+17,18.04693,86.59286,62.03368,-14.86256,-39.21077,77.93907,-16.98673,-0.4441859,-4.295897,-61.44649,-6.98289,34.57793,0,0,0,38.94225,93.9295,-48.83127,-36.03881,-110.6591,-50.37467,0.001067912,-0.1257102,0.09433498,0,0.3,0,0,0,0,
6.38224E+17,20.82701,86.1253,62.01034,-6.439363,-40.30944,73.17814,-16.98673,-0.4441859,-4.295897,-61.44649,-6.98289,34.57793,0,0,0,45.07043,93.8124,-49.86951,-36.03881,-110.6591,-50.37467,0.001067912,-0.1257102,0.09433498,0,0.3,0,0,0,0,
6.38224E+17,22.19348,85.82138,61.9403,-2.264389,-40.60242,70.46806,-16.98673,-0.4441859,-4.295897,-61.44649,-6.98289,34.57793,0,0,0,48.12064,93.61884,-50.39561,-36.03881,-110.6591,-50.37467,0.001067912,-0.1257102,0.09433498,0,0.3,0,0,0,0,
6.38224E+17,25.13848,84.86288,61.61344,5.279863,-40.82215,65.70713,-16.98673,-0.4441859,-4.295897,-61.44649,-6.98289,34.57793,0,0,0,54.90897,92.76739,-51.33654,-36.03881,-110.6591,-50.37467,0.001067912,-0.1257102,0.09433498,0,0.3,0,0,0,0,
6.38224E+17,27.94211,83.36668,61.45,11.35921,-40.8954,62.77732,-16.98673,-0.4441859,-4.295897,-61.44649,-6.98289,34.57793,0,0,0,62.10485,92.07597,-51.26255,-36.03881,-110.6591,-50.37467,0.001067912,-0.1257102,0.09433498,0,0.3,0,0,0,0,
6.38224E+17,30.69863,81.23926,60.91301,16.70611,-40.52918,59.84751,-16.98673,-0.4441859,-4.295897,-61.44649,-6.98289,34.57793,0,0,0,69.86121,90.31785,-50.68389,-36.03881,-110.6591,-50.37467,0.001067912,-0.1257102,0.09433498,0,0.3,0,0,0,0,
6.38224E+17,32.93682,78.2936,59.95578,21.54029,-39.06427,55.81903,-16.98673,-0.4441859,-4.295897,-61.44649,-6.98289,34.57793,0,0,0,77.4734,87.16223,-48.76296,-36.03881,-110.6591,-50.37467,0.001067912,-0.1257102,0.09433498,0,0.3,0,0,0,0,
6.38224E+17,33.90279,76.6805,59.51218,23.51791,-38.03884,54.13439,-16.98673,-0.4441859,-4.295897,-61.44649,-6.98289,34.57793,0,0,0,81.23248,85.45715,-47.47601,-36.03881,-110.6591,-50.37467,0.001067912,-0.1257102,0.09433498,0,0.3,0,0,0,0,
6.38224E+17,35.45774,73.08027,58.57829,27.10692,-35.25552,51.42432,-16.98673,-0.4441859,-4.295897,-61.44649,-6.98289,34.57793,0,0,0,88.52579,81.40797,-44.04759,-36.03881,-110.6591,-50.37467,0.001067912,-0.1257102,0.09433498,0,0.3,0,0,0,0,
6.38224E+17,36.40014,69.36313,57.57436,29.67051,-32.10598,49.81293,-16.98673,-0.4441859,-4.295897,-61.44649,-6.98289,34.57793,0,0,0,94.68477,76.64043,-39.92336,-36.03881,-110.6591,-50.37467,0.001067912,-0.1257102,0.09433498,0,0.3,0,0,0,0,
6.38224E+17,36.61218,67.49287,56.99068,30.54945,-30.49459,49.37346,-16.98673,-0.4441859,-4.295897,-61.44649,-6.98289,34.57793,0,0,0,97.13557,73.89717,-37.61491,-36.03881,-110.6591,-50.37467,0.001067912,-0.1257102,0.09433498,0,0.3,0,0,0,0,
6.38224E+17,36.84778,63.40169,55.87001,31.50163,-26.75908,48.78749,-16.98673,-0.4441859,-4.295897,-61.44649,-6.98289,34.57793,0,0,0,102.0002,67.76822,-32.24033,-36.03881,-110.6591,-50.37467,0.001067912,-0.1257102,0.09433498,0,0.3,0,0,0,0,
6.38224E+17,36.84778,59.17023,55.26298,31.72137,-23.09683,48.49451,-16.98673,-0.4441859,-4.295897,-61.44649,-6.98289,34.57793,0,0,0,106.6996,61.87256,-25.9694,-36.03881,-110.6591,-50.37467,0.001067912,-0.1257102,0.09433498,0,0.3,0,0,0,0,
6.38224E+17,36.82422,55.07904,54.53922,31.64813,-19.28808,48.34802,-16.98673,-0.4441859,-4.295897,-61.44649,-6.98289,34.57793,0,0,0,110.8526,55.32692,-20.30084,-36.03881,-110.6591,-50.37467,0.001067912,-0.1257102,0.09433498,0,0.3,0,0,0,0,
6.38224E+17,36.72998,53.04515,54.04892,31.50163,-17.45695,48.34802,-16.98673,-0.4441859,-4.295897,-61.44649,-6.98289,34.50468,0,0,0,112.5026,51.62222,-17.5809,-36.03881,-110.6591,-50.37467,0.001067912,-0.1257102,0.09433498,0,0.3,0,0,0,0,
6.38224E+17,36.35302,49.04747,52.85821,30.91567,-14.01443,48.64101,-16.98673,-0.4441859,-4.295897,-61.44649,-6.98289,34.50468,0,0,0,114.8181,43.54763,-12.34692,-36.03881,-110.6591,-50.37467,0.001067912,-0.1257102,0.09433498,0,0.3,0,0,0,0,
6.38224E+17,35.4813,44.06791,50.54683,29.23104,-9.106999,49.81293,-16.98673,-0.4441859,-4.295897,-61.44649,-6.98289,34.57793,0,0,0,115.379,31.35943,-6.482838,-36.03881,-110.6591,-50.37467,0.001067912,-0.1257102,0.09433498,0,0.3,0,0,0,0,
6.38224E+17,34.82162,41.35604,49.0526,28.05911,-6.323683,50.61862,-16.98673,-0.4441859,-4.295897,-61.44649,-6.98289,34.57793,0,0,0,114.6705,24.06614,-3.493574,-36.03881,-110.6591,-50.37467,0.001067912,-0.1257102,0.09433498,0,0.3,0,0,0,0,
6.38224E+17,34.1855,39.48579,47.97863,27.18017,-4.419309,51.42432,-16.98673,-0.4441859,-4.295897,-61.44649,-6.98289,34.57793,0,0,0,113.4886,18.87998,-1.26568,-36.03881,-110.6591,-50.37467,0.001067912,-0.1257102,0.09433498,0,0.3,0,0,0,0,
6.38224E+17,32.79546,36.23622,45.97077,25.42229,-1.050031,53.1822,-16.98673,-0.4441859,-4.295897,-61.44649,-6.98289,34.57793,0,0,0,110.1889,9.493641,2.659423,-36.03881,-110.6591,-50.37467,0.001067912,-0.1257102,0.09433498,0,0.3,0,0,0,0,
6.38224E+17,31.16983,32.84638,43.91621,23.51791,2.319247,54.86684,-16.98673,-0.4441859,-4.295897,-61.44649,-6.98289,34.57793,0,0,0,105.8565,-0.3818405,6.64774,-36.03881,-110.6591,-50.37467,0.001067912,-0.1257102,0.09433498,0,0.3,0,0,0,0,
6.38224E+17,29.23791,29.52667,42.56207,21.46704,5.542034,56.47824,-16.98673,-0.4441859,-4.295897,-61.44649,-6.98289,34.57793,0,0,0,100.7293,-9.149586,11.60415,-36.03881,-110.6591,-50.37467,0.001067912,-0.1257102,0.09433498,0,0.3,0,0,0,0,
6.38224E+17,28.13059,28.05384,41.95504,20.36837,7.080183,57.21069,-16.98673,-0.4441859,-4.295897,-61.44649,-6.98289,34.57793,0,0,0,97.51818,-13.1037,14.05086,-36.03881,-110.6591,-50.37467,0.001067912,-0.1257102,0.09433498,0,0.3,0,0,0,0,
6.38224E+17,25.539,25.03806,40.53086,17.36532,10.08323,58.82208,-16.98673,-0.4441859,-4.295897,-61.44649,-6.98289,34.57793,0,0,0,89.44866,-21.56708,18.855,-36.03881,-110.6591,-50.37467,0.001067912,-0.1257102,0.09433498,0,0.3,0,0,0,0,
6.38224E+17,22.61756,22.18591,39.20006,13.92279,12.79331,60.36023,-16.98673,-0.4441859,-4.295897,-61.44649,-6.98289,34.57793,0,0,0,79.89938,-29.63404,23.43023,-36.03881,-110.6591,-50.37467,0.001067912,-0.1257102,0.09433498,0,0.3,0,0,0,0,
6.38224E+17,21.0626,20.87674,38.61638,12.09166,14.25821,61.16593,-16.98673,-0.4441859,-4.295897,-61.44649,-6.98289,34.57793,0,0,0,74.68784,-33.32154,25.58482,-36.03881,-110.6591,-50.37467,0.001067912,-0.1257102,0.09433498,0,0.3,0,0,0,0,
6.38224E+17,17.76421,18.53891,37.33228,8.722386,16.82179,62.85057,-16.98673,-0.4441859,-4.295897,-61.44649,-6.98289,34.57793,0,0,0,63.24687,-40.28239,29.06453,-36.03881,-110.6591,-50.37467,0.001067912,-0.1257102,0.09433498,0,0.3,0,0,0,0,
6.38224E+17,13.85326,16.27123,36.04818,4.620657,19.23888,64.82819,-16.98673,-0.4441859,-4.295897,-61.44649,-6.98289,34.57793,0,0,0,49.43891,-47.10384,32.12458,-36.03881,-110.6591,-50.37467,0.001067912,-0.1257102,0.09433498,0,0.3,0,0,0,0,
6.38224E+17,9.518225,14.14381,35.25437,0.5189275,21.2165,67.17203,-16.98673,-0.4441859,-4.295897,-61.44649,-6.98289,34.57793,0,0,0,34.11043,-52.95833,35.08835,-36.03881,-110.6591,-50.37467,0.001067912,-0.1257102,0.09433498,0,0.3,0,0,0,0,
6.38224E+17,4.735552,12.20342,34.99755,-4.388499,23.04763,69.8821,-16.98673,-0.4441859,-4.295897,-61.44649,-6.98289,34.57793,0,0,0,17.07429,-57.69925,37.76247,-36.03881,-110.6591,-50.37467,0.001067912,-0.1257102,0.09433498,0,0.3,0,0,0,0,
6.38224E+17,2.874315,11.4787,35.0209,-6.366118,23.56034,71.12727,-16.98673,-0.4441859,-4.295897,-61.44649,-6.98289,34.57793,0,0,0,10.39055,-59.31889,38.59841,-36.03881,-110.6591,-50.37467,0.001067912,-0.1257102,0.09433498,0,0.3,0,0,0,0,
6.38224E+17,-1.413598,10.35654,35.27772,-11.05381,24.07306,73.69085,-16.98673,-0.4441859,-4.295897,-61.44649,-6.98289,34.57793,0,0,0,-5.13599,-61.53916,39.7791,-36.03881,-110.6591,-50.37467,0.001067912,-0.1257102,0.09433498,0,0.3,0,0,0,0,
6.38224E+17,-5.371671,10.1929,35.79136,-16.47395,23.63359,75.37549,-16.98673,-0.4441859,-4.295897,-61.44649,-6.98289,34.57793,0,0,0,-19.58759,-61.21915,39.96433,-36.03881,-110.6591,-50.37467,0.001067912,-0.1257102,0.09433498,0,0.3,0,0,0,0,
6.38224E+17,-7.020868,10.1929,36.2583,-18.96429,23.26737,75.96145,-16.98673,-0.4441859,-4.295897,-61.44649,-6.98289,34.57793,0,0,0,-25.68218,-60.57998,40.18665,-36.03881,-110.6591,-50.37467,0.001067912,-0.1257102,0.09433498,0,0.3,0,0,0,0,
6.38224E+17,-10.13078,10.30979,37.47236,-24.09145,22.31518,77.06013,-16.98673,-0.4441859,-4.295897,-61.44649,-6.909645,34.57793,0,0,0,-37.34692,-58.61713,40.6639,-36.03881,-110.6591,-50.37467,0.001067912,-0.1257102,0.09433498,0,0.3,0,0,0,0,
6.38224E+17,-12.74594,10.68384,38.70977,-29.29186,21.14326,77.71934,-16.98673,-0.4441859,-4.295897,-61.44649,-6.98289,34.57793,0,0,0,-47.30982,-55.9845,40.79819,-36.03881,-110.6591,-50.37467,0.001067912,-0.1257102,0.09433498,0,0.3,0,0,0,0,
6.38224E+17,-14.93702,11.1514,40.08725,-33.61332,20.26431,78.37854,-16.98673,-0.4441859,-4.295897,-61.44649,-6.98289,34.57793,0,0,0,-55.85685,-52.88118,41.03102,-36.03881,-110.6591,-50.37467,0.001067912,-0.1257102,0.09433498,0,0.3,0,0,0,0,
6.38224E+17,-15.95009,11.40856,40.83437,-35.59094,19.82484,78.81802,-16.98673,-0.4441859,-4.295897,-61.44649,-6.98289,34.57793,0,0,0,-59.88149,-51.16586,41.17019,-36.03881,-110.6591,-50.37467,0.001067912,-0.1257102,0.09433498,0,0.3,0,0,0,0,
6.38224E+17,-18.25897,12.15667,42.79554,-40.20539,18.65292,79.84344,-16.98673,-0.4441859,-4.295897,-61.44649,-6.98289,34.57793,0,0,0,-69.22813,-46.41836,41.48047,-36.03881,-110.6591,-50.37467,0.001067912,-0.1257102,0.09433498,0,0.3,0,0,0,0,
6.38224E+17,-20.00241,12.41383,44.89679,-43.57467,17.55424,80.86888,-16.98673,-0.4441859,-4.295897,-61.44649,-6.98289,34.57793,0,0,0,-76.74279,-42.44601,42.47153,-36.03881,-110.6591,-50.37467,0.001067912,-0.1257102,0.09433498,0,0.3,0,0,0,0,
6.38224E+17,-21.03905,12.4372,46.5778,-45.55228,16.89503,81.52808,-16.98673,-0.4441859,-4.295897,-61.44649,-6.98289,34.57793,0,0,0,-81.52043,-39.59114,43.58619,-36.03881,-110.6591,-50.37467,0.001067912,-0.1257102,0.09433498,0,0.3,0,0,0,0,
6.38224E+17,-22.73536,12.46058,49.65963,-48.77507,15.8696,83.28596,-16.98673,-0.4441859,-4.295897,-61.44649,-6.98289,34.57793,0,0,0,-89.60429,-34.1984,45.48513,-36.03881,-110.6591,-50.37467,0.001067912,-0.1257102,0.09433498,0,0.3,0,0,0,0,
6.38224E+17,-24.64372,12.46058,53.11503,-51.85137,14.62444,86.36227,-16.98673,-0.4441859,-4.295897,-61.44649,-6.98289,34.57793,0,0,0,-98.76785,-27.91541,46.9435,-36.03881,-110.6591,-50.37467,0.001067912,-0.1257102,0.09433498,0,0.3,0,0,0,0,
6.38224E+17,-26.55208,12.36707,56.71051,-54.63469,13.30602,90.61049,-16.98673,-0.4441859,-4.295897,-61.44649,-6.98289,34.57793,0,0,0,-108.0533,-21.28165,47.87901,-36.03881,-110.6591,-50.37467,0.001067912,-0.1257102,0.09433498,0,0.3,0,0,0,0,
6.38224E+17,-28.34263,12.15667,59.769,-57.34475,11.84112,95.29817,-16.98673,-0.4441859,-4.295897,-61.44649,-6.98289,34.50468,0,0,0,-116.5848,-15.70848,47.78603,-36.03881,-110.6591,-50.37467,0.001067912,-0.1257102,0.09433498,0,0.3,0,0,0,0,
6.38224E+17,-29.07299,12.13329,60.88967,-58.58992,11.40165,97.56878,-16.98673,-0.4441859,-4.295897,-61.44649,-6.98289,34.57793,0,0,0,-119.9633,-13.49545,47.42081,-36.03881,-110.6591,-50.37467,0.001067912,-0.1257102,0.09433498,0,0.3,0,0,0,0,
6.38224E+17,-30.36879,12.20342,62.59402,-60.4943,10.96218,101.4508,-16.98673,-0.4441859,-4.295897,-61.44649,-7.056135,34.57793,0,0,0,-125.7441,-9.842053,46.24336,-36.03881,-110.6591,-50.37467,0.001067912,-0.1257102,0.09433498,0,0.3,0,0,0,0,
6.38224E+17,-31.75883,12.48396,64.0649,-61.73947,10.88893,104.8933,-16.98673,-0.4441859,-4.295897,-61.44649,-6.98289,34.57793,0,0,0,-131.6481,-6.145225,44.31767,-36.03881,-110.6591,-50.37467,0.001067912,-0.1257102,0.09433498,0,0.3,0,0,0,0,
6.38224E+17,-33.14886,13.02166,65.37234,-62.69165,11.10867,107.6034,-16.98673,-0.4441859,-4.295897,-61.44649,-6.98289,34.57793,0,0,0,-137.3278,-2.173224,41.91824,-36.03881,-110.6591,-50.37467,0.001067912,-0.1257102,0.09433498,0,0.3,0,0,0,0,
6.38224E+17,-33.8321,13.39571,65.86263,-63.27761,11.10867,108.7753,-16.98673,-0.4441859,-4.295897,-61.44649,-6.98289,34.57793,0,0,0,-139.9769,-0.2863644,40.4918,-36.03881,-110.6591,-50.37467,0.001067912,-0.1257102,0.09433498,0,0.3,0,0,0,0,
6.38224E+17,-35.0101,14.19057,66.5864,-64.37629,11.3284,110.6064,-16.98673,-0.4441859,-4.295897,-61.44649,-6.98289,34.57793,0,0,0,-144.3774,3.051745,37.76492,-36.03881,-110.6591,-50.37467,0.001067912,-0.1257102,0.09433498,0,0.3,0,0,0,0,
6.38224E+17,-36.25878,15.28934,66.86657,-65.32848,11.54814,112.584,-16.98673,-0.4441859,-4.295897,-61.44649,-6.98289,34.57793,0,0,0,-148.6023,6.123836,34.25283,-36.03881,-110.6591,-50.37467,0.001067912,-0.1257102,0.09433498,0,0.3,0,0,0,0,
6.38224E+17,-36.91846,15.94393,66.86657,-65.62146,11.47489,113.9025,-16.98673,-0.4441859,-4.295897,-61.44649,-6.98289,34.57793,0,0,0,-150.6787,7.591077,32.2006,-36.03881,-110.6591,-50.37467,0.001067912,-0.1257102,0.09433498,0,0.3,0,0,0,0,
6.38224E+17,-38.33206,16.92582,66.86657,-65.98769,11.03542,116.9055,-16.98673,-0.4441859,-4.295897,-61.44649,-6.98289,34.57793,0,0,0,-155.1793,9.782915,27.91525,-36.03881,-110.6591,-50.37467,0.001067912,-0.1257102,0.09433498,0,0.3,0,0,0,0,
6.38224E+17,-39.62786,17.62716,66.86657,-66.13418,10.59595,120.2015,-16.98673,-0.4441859,-4.295897,-61.44649,-6.98289,34.57793,0,0,0,-159.2688,11.34157,23.98246,-36.03881,-110.6591,-50.37467,0.001067912,-0.1257102,0.09433498,0,0.3,0,0,0,0,
6.38224E+17,-40.92365,18.67918,66.86657,-66.28067,10.74244,123.1313,-16.98673,-0.4441859,-4.295897,-61.44649,-6.98289,34.57793,0,0,0,-163.0778,13.66814,19.75519,-36.03881,-110.6591,-50.37467,0.001067912,-0.1257102,0.09433498,0,0.3,0,0,0,0,
6.38224E+17,-41.72469,20.24553,66.81988,-66.64689,11.3284,123.6441,-16.98673,-0.4441859,-4.295897,-61.44649,-6.98289,34.57793,0,0,0,-164.8548,17.0053,16.51851,-36.03881,-110.6591,-50.37467,0.001067912,-0.1257102,0.09433498,0,0.3,0,0,0,0,
6.38224E+17,-42.14877,21.57808,66.60975,-67.08636,11.62138,123.7173,-16.98673,-0.4441859,-4.295897,-61.44649,-6.98289,34.57793,0,0,0,-165.346,19.45313,14.32924,-36.03881,-110.6591,-50.37467,0.001067912,-0.1257102,0.09433498,0,0.3,0,0,0,0,
6.38224E+17,-42.83201,24.71076,65.37234,-68.03855,11.76787,124.816,-16.98673,-0.4441859,-4.295897,-61.44649,-6.98289,34.57793,0,0,0,-164.768,23.52576,9.383959,-36.03881,-110.6591,-50.37467,0.001067912,-0.1257102,0.09433498,0,0.3,0,0,0,0,
6.38224E+17,-43.49169,28.12398,63.90147,-68.62451,11.62138,125.4019,-16.98673,-0.4441859,-4.295897,-61.44649,-6.98289,34.57793,0,0,0,-163.362,27.54583,3.847691,-36.03881,-110.6591,-50.37467,0.001067912,-0.1257102,0.09433498,0,0.3,0,0,0,0,
6.38224E+17,-44.36341,31.37355,62.19712,-68.91749,11.3284,125.5484,-16.98673,-0.4441859,-4.295897,-61.44649,-6.98289,34.57793,0,0,0,-162.0823,30.57548,-2.625391,-36.03881,-110.6591,-50.37467,0.001067912,-0.1257102,0.09433498,0,0.3,0,0,0,0,
6.38224E+17,-44.83461,32.93989,61.40331,-68.99074,11.10867,125.5484,-16.98673,-0.4441859,-4.295897,-61.44649,-6.98289,34.57793,0,0,0,-161.4562,32.03344,-5.958931,-36.03881,-110.6591,-50.37467,0.001067912,-0.1257102,0.09433498,0,0.3,0,0,0,0,
6.38224E+17,-45.98904,36.00243,59.69896,-69.13722,10.52271,125.5484,-16.98673,-0.4441859,-4.295897,-61.44649,-6.98289,34.57793,0,0,0,-160.3915,34.45489,-13.40241,-36.03881,-110.6591,-50.37467,0.001067912,-0.1257102,0.09433498,0,0.3,0,0,0,0,
6.38224E+17,-47.21416,38.36363,58.67168,-69.13722,9.936745,125.4752,-16.98673,-0.4441859,-4.295897,-61.44649,-6.98289,34.57793,0,0,0,-160.3316,36.77952,-19.95486,-36.03881,-110.6591,-50.37467,0.001067912,-0.1257102,0.09433498,0,0.3,0,0,0,0,
6.38224E+17,-48.06232,39.43903,58.11135,-69.21047,9.717009,125.4019,-16.98673,-0.4441859,-4.295897,-61.44649,-6.98289,34.57793,0,0,0,-160.8331,37.61665,-23.85168,-36.03881,-110.6591,-50.37467,0.001067912,-0.1257102,0.09433498,0,0.3,0,0,0,0,
6.38224E+17,-48.91048,40.5378,57.17745,-69.50346,9.8635,125.4752,-16.98673,-0.4441859,-4.295897,-61.44649,-6.98289,34.57793,0,0,0,-160.8392,37.73989,-28.09285,-36.03881,-110.6591,-50.37467,0.001067912,-0.1257102,0.09433498,0,0.3,0,0,0,0,
6.38224E+17,-49.80576,43.34319,54.74934,-70.16266,10.88893,124.3765,-16.98673,-0.4441859,-4.295897,-61.44649,-6.98289,34.57793,0,0,0,-157.262,37.91344,-35.4804,-36.03881,-110.6591,-50.37467,0.001067912,-0.1257102,0.09433498,0,0.3,0,0,0,0,
6.38224E+17,-50.06492,45.00304,53.32516,-70.45564,11.25516,123.6441,-16.98673,-0.4441859,-4.295897,-61.44649,-6.98289,34.57793,0,0,0,-154.3048,38.00133,-39.17052,-36.03881,-110.6591,-50.37467,0.001067912,-0.1257102,0.09433498,0,0.3,0,0,0,0,
6.38224E+17,-50.30051,50.30989,48.2588,-70.16266,11.03542,120.7142,-16.98673,-0.4441859,-4.295897,-61.44649,-6.98289,34.57793,0,0,0,-142.0802,37.18409,-50.39491,-36.03881,-110.6591,-50.37467,0.001067912,-0.1257102,0.09433498,0,0.3,0,0,0,0,
6.38224E+17,-50.30051,52.11002,46.60114,-69.72319,10.88893,119.3226,-16.98673,-0.4441859,-4.295897,-61.44649,-6.98289,34.57793,0,0,0,-137.5597,36.96749,-54.1478,-36.03881,-110.6591,-50.37467,0.001067912,-0.1257102,0.09433498,0,0.3,0,0,0,0,
6.38224E+17,-50.27696,55.56999,43.5193,-68.99074,10.6692,116.0266,-16.98673,-0.4441859,-4.295897,-61.44649,-6.98289,34.57793,0,0,0,-128.6165,36.64167,-61.4831,-36.03881,-110.6591,-50.37467,0.001067912,-0.1257102,0.09433498,0,0.3,0,0,0,0,
6.38224E+17,-49.9,58.72605,40.32073,-68.11179,10.30297,112.4375,-16.98673,-0.4441859,-4.295897,-61.44649,-6.98289,34.57793,0,0,0,-118.9547,35.65295,-68.18086,-36.03881,-110.6591,-50.37467,0.001067912,-0.1257102,0.09433498,0,0.3,0,0,0,0,
6.38224E+17,-49.57016,60.12874,38.89655,-67.52583,10.08323,110.7529,-16.98673,-0.4441859,-4.295897,-61.44649,-6.98289,34.57793,0,0,0,-114.2927,35.20023,-70.97658,-36.03881,-110.6591,-50.37467,0.001067912,-0.1257102,0.09433498,0,0.3,0,0,0,0,
6.38224E+17,-48.62776,62.70034,36.14157,-65.84119,9.790254,107.3104,-16.98673,-0.4441859,-4.295897,-61.44649,-6.98289,34.57793,0,0,0,-104.9161,34.15905,-75.94434,-36.03881,-110.6591,-50.37467,0.001067912,-0.1257102,0.09433498,0,0.3,0,0,0,0,
6.38224E+17,-47.11992,65.08492,33.45663,-64.2298,9.424027,103.6481,-16.98673,-0.4441859,-4.295897,-61.44649,-6.98289,34.65118,0,0,0,-95.0368,33.03518,-80.09792,-36.03881,-110.6591,-50.37467,0.001067912,-0.1257102,0.09433498,0,0.3,0,0,0,0,
6.38224E+17,-46.20108,66.11356,32.406,-63.27761,9.277537,101.9635,-16.98673,-0.4441859,-4.295897,-61.44649,-6.98289,34.57793,0,0,0,-90.55446,32.6949,-81.51468,-36.03881,-110.6591,-50.37467,0.001067912,-0.1257102,0.09433498,0,0.3,0,0,0,0,
6.38224E+17,-43.60949,68.19422,30.56157,-60.93377,8.691576,98.59421,-16.98673,-0.4441859,-4.295897,-61.44649,-6.98289,34.57793,0,0,0,-80.93269,32.33313,-83.39047,-36.03881,-110.6591,-50.37467,0.001067912,-0.1257102,0.09433498,0,0.3,0,0,0,0,
6.38224E+17,-39.9577,70.15799,29.13739,-57.71098,7.812634,95.88414,-16.98673,-0.4441859,-4.295897,-61.44649,-6.98289,34.57793,0,0,0,-70.7674,32.30811,-83.88612,-36.03881,-110.6591,-50.37467,0.001067912,-0.1257102,0.09433498,0,0.3,0,0,0,0,
6.38224E+17,-36.14098,71.49055,28.13346,-54.3417,6.860447,93.97977,-16.98673,-0.4441859,-4.295897,-61.44649,-6.98289,34.57793,0,0,0,-62.05105,32.20705,-83.38449,-36.03881,-110.6591,-50.37467,0.001067912,-0.1257102,0.09433498,0,0.3,0,0,0,0,
6.38224E+17,-34.04414,72.00487,27.7132,-52.36408,6.494221,93.02757,-16.98673,-0.4441859,-4.295897,-61.44649,-6.98289,34.50468,0,0,0,-57.55712,32.09023,-82.85691,-36.03881,-110.6591,-50.37467,0.001067912,-0.1257102,0.09433498,0,0.3,0,0,0,0,
6.38224E+17,-29.40283,72.77635,27.03613,-47.96938,5.615279,90.97672,-16.98673,-0.4441859,-4.295897,-61.44649,-6.98289,34.57793,0,0,0,-49.14368,31.94256,-81.1441,-36.03881,-110.6591,-50.37467,0.001067912,-0.1257102,0.09433498,0,0.3,0,0,0,0,
6.38224E+17,-24.54948,73.12702,26.8727,-43.35493,4.663092,88.92585,-16.98673,-0.4441859,-4.295897,-61.44649,-6.98289,34.50468,0,0,0,-41.1243,32.00943,-78.31709,-36.03881,-110.6591,-50.37467,0.001067912,-0.1257102,0.09433498,0,0.3,0,0,0,0,
6.38224E+17,-19.29561,73.10365,26.84936,-38.4475,3.93064,87.09471,-16.98673,-0.4441859,-4.295897,-61.44649,-6.98289,34.50468,0,0,0,-32.7085,31.96907,-74.92625,-36.03881,-110.6591,-50.37467,0.001067912,-0.1257102,0.09433498,0,0.3,0,0,0,0,
6.38224E+17,-13.78258,72.70621,26.8727,-33.02736,3.344679,85.62981,-16.98673,-0.4441859,-4.295897,-61.44649,-6.98289,34.57793,0,0,0,-23.80396,31.72172,-71.31028,-36.03881,-110.6591,-50.37467,0.001067912,-0.1257102,0.09433498,0,0.3,0,0,0,0,
6.38224E+17,-11.1203,72.19189,26.89605,-30.24404,3.124943,84.75087,-16.98673,-0.4441859,-4.295897,-61.44649,-6.98289,34.57793,0,0,0,-19.50036,31.38532,-69.14193,-36.03881,-110.6591,-50.37467,0.001067912,-0.1257102,0.09433498,0,0.3,0,0,0,0,
6.38224E+17,-5.701511,70.39178,26.89605,-23.72522,3.051698,83.28596,-16.98673,-0.4441859,-4.295897,-61.44649,-6.98289,34.57793,0,0,0,-10.43873,30.04157,-63.79533,-36.03881,-110.6591,-50.37467,0.001067912,-0.1257102,0.09433498,0,0.3,0,0,0,0,
6.38224E+17,-1.460718,68.00719,26.8727,-17.49938,3.198189,82.11404,-16.98673,-0.4441859,-4.295897,-61.44649,-6.98289,34.57793,0,0,0,-2.809522,28.04631,-58.17204,-36.03881,-110.6591,-50.37467,0.001067912,-0.1257102,0.09433498,0,0.3,0,0,0,0,
6.38224E+17,0.04711992,66.79153,26.8727,-14.71607,3.344679,81.52808,-16.98673,-0.4441859,-4.295897,-61.44649,-6.98289,34.57793,0,0,0,0.09278766,26.959,-55.52425,-36.03881,-110.6591,-50.37467,0.001067912,-0.1257102,0.09433498,0,0.3,0,0,0,0,
6.38224E+17,1.955477,64.10303,26.84936,-9.955132,4.370111,80.42941,-16.98673,-0.4441859,-4.295897,-61.44649,-6.98289,34.57793,0,0,0,4.042476,24.33463,-49.95079,-36.03881,-110.6591,-50.37467,0.001067912,-0.1257102,0.09433498,0,0.3,0,0,0,0,
6.38224E+17,2.426676,61.41454,26.66258,-7.318305,5.542034,79.33073,-16.98673,-0.4441859,-4.295897,-61.44649,-6.98289,34.50468,0,0,0,5.235135,21.27504,-44.81817,-36.03881,-110.6591,-50.37467,0.001067912,-0.1257102,0.09433498,0,0.3,0,0,0,0,
6.38224E+17,2.426676,58.58578,26.40576,-6.219628,6.640712,78.37854,-16.98673,-0.4441859,-4.295897,-61.44649,-6.98289,34.57793,0,0,0,5.453879,17.71654,-39.65652,-36.03881,-110.6591,-50.37467,0.001067912,-0.1257102,0.09433498,0,0.3,0,0,0,0,
6.38224E+17,2.426676,56.99606,26.24233,-5.926647,7.226673,78.01232,-16.98673,-0.4441859,-4.295897,-61.44649,-6.98289,34.57793,0,0,0,5.571989,15.57585,-36.86953,-36.03881,-110.6591,-50.37467,0.001067912,-0.1257102,0.09433498,0,0.3,0,0,0,0,
6.38224E+17,2.426676,54.00365,26.05555,-5.853402,8.252106,77.64609,-16.98673,-0.4441859,-4.295897,-61.44649,-6.98289,34.57793,0,0,0,5.79846,11.43995,-31.52555,-36.03881,-110.6591,-50.37467,0.001067912,-0.1257102,0.09433498,0,0.3,0,0,0,0,
6.38224E+17,2.426676,50.98786,25.98551,-5.999893,9.424027,77.42635,-16.98673,-0.4441859,-4.295897,-61.44649,-6.98289,34.57793,0,0,0,6.027991,7.095663,-26.10937,-36.03881,-110.6591,-50.37467,0.001067912,-0.1257102,0.09433498,0,0.3,0,0,0,0,
6.38224E+17,2.426676,47.59802,25.98551,-6.512609,11.03542,77.20662,-16.98673,-0.4441859,-4.295897,-61.44649,-6.98289,34.57793,0,0,0,6.281181,1.950945,-20.13494,-36.03881,-110.6591,-50.37467,0.001067912,-0.1257102,0.09433498,0,0.3,0,0,0,0,
6.38224E+17,2.426676,45.19007,25.98551,-6.878834,11.91436,76.91364,-16.98673,-0.4441859,-4.295897,-61.44649,-6.98289,34.57793,0,0,0,6.452989,-1.914003,-16.08083,-36.03881,-110.6591,-50.37467,0.001067912,-0.1257102,0.09433498,0,0.3,0,0,0,0,
6.38224E+17,2.426676,43.60035,25.98551,-7.24506,12.35384,76.62066,-16.98673,-0.4441859,-4.295897,-61.44649,-6.98289,34.57793,0,0,0,6.562583,-4.557615,-13.49476,-36.03881,-110.6591,-50.37467,0.001067912,-0.1257102,0.09433498,0,0.3,0,0,0,0,
6.38224E+17,2.497356,39.90659,26.05555,-8.050756,13.15953,75.81496,-16.98673,-0.4441859,-4.295897,-61.37324,-6.98289,34.57793,0,0,0,7.009398,-10.89838,-7.63819,-36.03881,-110.6591,-50.37467,0.001067912,-0.1257102,0.09433498,0,0.3,0,0,0,0,
6.38224E+17,2.638716,35.44136,26.54584,-8.563474,14.11172,74.93602,-16.98673,-0.4441859,-4.295897,-61.44649,-6.98289,34.57793,0,0,0,7.745315,-18.61627,-0.2909374,-36.03881,-110.6591,-50.37467,0.001067912,-0.1257102,0.09433498,0,0.3,0,0,0,0,
6.38224E+17,2.615156,30.92937,27.29295,-8.490229,15.94285,74.49654,-16.98673,-0.4441859,-4.295897,-61.44649,-6.98289,34.57793,0,0,0,8.009139,-26.61527,7.001377,-36.03881,-110.6591,-50.37467,0.001067912,-0.1257102,0.09433498,0,0.3,0,0,0,0,
6.38224E+17,2.379556,26.72129,28.27354,-7.904267,17.84722,74.27681,-16.98673,-0.4441859,-4.295897,-61.44649,-6.98289,34.57793,0,0,0,7.567872,-34.1299,13.76706,-36.03881,-110.6591,-50.37467,0.001067912,-0.1257102,0.09433498,0,0.3,0,0,0,0,
6.38224E+17,2.238196,24.68738,28.81053,-7.538041,18.79941,74.20357,-16.98673,-0.4441859,-4.295897,-61.44649,-6.98289,34.57793,0,0,0,7.241587,-37.7978,16.93369,-36.03881,-110.6591,-50.37467,0.001067912,-0.1257102,0.09433498,0,0.3,0,0,0,0,
6.38224E+17,2.143956,21.18065,29.79111,-6.878834,20.48405,74.20357,-16.98673,-0.4441859,-4.295897,-61.44649,-6.98289,34.57793,0,0,0,7.130236,-44.19615,22.11176,-36.03881,-110.6591,-50.37467,0.001067912,-0.1257102,0.09433498,0,0.3,0,0,0,0,
6.38224E+17,2.355996,18.93634,30.02458,-6.219628,21.80246,74.20357,-16.98673,-0.4441859,-4.295897,-61.44649,-6.98289,34.57793,0,0,0,7.928049,-48.83146,24.34458,-36.03881,-110.6591,-50.37467,0.001067912,-0.1257102,0.09433498,0,0.3,0,0,0,0,
6.38224E+17,2.897875,18.30513,29.95454,-5.926647,22.38842,74.20357,-16.98673,-0.4441859,-4.295897,-61.44649,-6.98289,34.57793,0,0,0,9.766666,-50.30511,24.58845,-36.03881,-110.6591,-50.37467,0.001067912,-0.1257102,0.09433498,0,0.3,0,0,0,0,
6.38224E+17,5.513031,17.6973,29.8845,-4.82797,23.12087,74.05708,-16.98673,-0.4441859,-4.295897,-61.44649,-6.98289,34.57793,0,0,0,18.58817,-51.73184,24.23641,-36.03881,-110.6591,-50.37467,0.001067912,-0.1257102,0.09433498,0,0.3,0,0,0,0,
6.38224E+17,10.10722,17.41676,29.90785,-1.458692,23.4871,74.13033,-16.98673,-0.4441859,-4.295897,-61.37324,-6.98289,34.57793,0,0,0,33.99704,-52.32726,22.36904,-36.03881,-110.6591,-50.37467,0.001067912,-0.1257102,0.09433498,0,0.3,0,0,0,0,
6.38224E+17,15.03126,16.99595,30.09463,3.448734,23.78008,73.54436,-16.98673,-0.4441859,-4.295897,-61.44649,-6.98289,34.57793,0,0,0,50.41468,-53.04545,19.39042,-36.03881,-110.6591,-50.37467,0.001067912,-0.1257102,0.09433498,0,0.3,0,0,0,0,
6.38224E+17,17.22233,16.85568,30.3281,5.865825,23.78008,72.66542,-16.98673,-0.4441859,-4.295897,-61.44649,-6.98289,34.57793,0,0,0,57.72271,-53.08435,17.865,-36.03881,-110.6591,-50.37467,0.001067912,-0.1257102,0.09433498,0,0.3,0,0,0,0,
6.38224E+17,21.5338,16.90244,30.93513,10.91974,23.92657,69.80886,-16.98673,-0.4441859,-4.295897,-61.44649,-6.98289,34.57793,0,0,0,71.99332,-52.26038,14.09994,-36.03881,-110.6591,-50.37467,0.001067912,-0.1257102,0.09433498,0,0.3,0,0,0,0,
6.38224E+17,25.32696,17.44014,31.49546,15.09472,24.21955,66.43958,-16.98673,-0.4441859,-4.295897,-61.44649,-6.98289,34.57793,0,0,0,84.22459,-50.38886,9.61173,-36.03881,-110.6591,-50.37467,0.001067912,-0.1257102,0.09433498,0,0.3,0,0,0,0,
6.38224E+17,29.16723,18.9831,31.91571,19.1232,24.58578,62.85057,-16.98673,-0.4441859,-4.295897,-61.44649,-6.98289,34.57793,0,0,0,95.8131,-46.46372,3.317811,-36.03881,-110.6591,-50.37467,0.001067912,-0.1257102,0.09433498,0,0.3,0,0,0,0,
6.38224E+17,31.61747,20.82998,32.28927,21.90652,24.43929,60.14049,-16.98673,-0.4441859,-4.295897,-61.44649,-6.98289,34.57793,0,0,0,102.6834,-41.96028,-1.554409,-36.03881,-110.6591,-50.37467,0.001067912,-0.1257102,0.09433498,0,0.3,0,0,0,0,
6.38224E+17,32.91327,22.11578,32.59278,23.51791,24.07306,58.60235,-16.98673,-0.4441859,-4.295897,-61.44649,-6.98289,34.57793,0,0,0,106.1578,-38.79654,-4.33829,-36.03881,-110.6591,-50.37467,0.001067912,-0.1257102,0.09433498,0,0.3,0,0,0,0,
6.38224E+17,35.15146,25.2017,33.50333,26.7407,22.97438,55.37956,-16.98673,-0.4441859,-4.295897,-61.44649,-6.98289,34.57793,0,0,0,111.8457,-31.06315,-9.51315,-36.03881,-110.6591,-50.37467,0.001067912,-0.1257102,0.09433498,0,0.3,0,0,0,0,
6.38224E+17,36.7771,28.68506,34.9742,29.52402,21.2165,52.59624,-16.98673,-0.4441859,-4.295897,-61.44649,-6.98289,34.57793,0,0,0,115.802,-21.91106,-13.42514,-36.03881,-110.6591,-50.37467,0.001067912,-0.1257102,0.09433498,0,0.3,0,0,0,0,
6.38224E+17,37.46034,30.71896,35.90809,30.91567,20.04458,51.42432,-16.98673,-0.4441859,-4.295897,-61.44649,-6.98289,34.57793,0,0,0,117.2917,-16.53917,-15.27313,-36.03881,-110.6591,-50.37467,0.001067912,-0.1257102,0.09433498,0,0.3,0,0,0,0,
6.38224E+17,38.30849,35.51149,37.79922,33.47925,17.26126,49.51994,-16.98673,-0.4441859,-4.295897,-61.44649,-6.98289,34.57793,0,0,0,117.9515,-4.55977,-19.04299,-36.03881,-110.6591,-50.37467,0.001067912,-0.1257102,0.09433498,0,0.3,0,0,0,0,
6.38224E+17,38.35562,40.95861,39.73705,35.89634,13.81874,48.64101,-16.98673,-0.4441859,-4.295897,-61.44649,-6.98289,34.57793,0,0,0,115.3893,8.218416,-22.53301,-36.03881,-110.6591,-50.37467,0.001067912,-0.1257102,0.09433498,0,0.3,0,0,0,0,
6.38224E+17,38.14358,43.69386,40.74098,36.77529,11.84112,48.42127,-16.98673,-0.4441859,-4.295897,-61.44649,-6.98289,34.57793,0,0,0,113.3032,14.43385,-24.07515,-36.03881,-110.6591,-50.37467,0.001067912,-0.1257102,0.09433498,0,0.3,0,0,0,0,
6.38224E+17,36.84778,50.4034,43.54265,38.67966,6.127995,48.05504,-16.98673,-0.4441859,-4.295897,-61.44649,-6.98289,34.57793,0,0,0,106.0604,29.44268,-26.82229,-36.03881,-110.6591,-50.37467,0.001067912,-0.1257102,0.09433498,0,0.3,0,0,0,0,
6.38224E+17,35.2457,54.63486,45.17696,39.33887,1.586795,47.90855,-16.98673,-0.4441859,-4.295897,-61.44649,-6.98289,34.57793,0,0,0,99.12251,38.09325,-28.07257,-36.03881,-110.6591,-50.37467,0.001067912,-0.1257102,0.09433498,0,0.3,0,0,0,0,
6.38224E+17,32.60699,58.72605,46.15754,39.33887,-4.199574,47.90855,-16.98673,-0.4441859,-4.295897,-61.44649,-6.98289,34.57793,0,0,0,89.13203,44.95498,-29.01555,-36.03881,-110.6591,-50.37467,0.001067912,-0.1257102,0.09433498,0,0.3,0,0,0,0,
6.38224E+17,31.14627,60.19888,46.29763,38.82615,-6.763155,47.90855,-16.98673,-0.4441859,-4.295897,-61.44649,-6.98289,34.57793,0,0,0,84.14086,46.93206,-29.12242,-36.03881,-110.6591,-50.37467,0.001067912,-0.1257102,0.09433498,0,0.3,0,0,0,0,
6.38224E+17,27.37668,62.84061,46.32097,36.84853,-11.96356,49.30021,-16.98673,-0.4441859,-4.295897,-61.44649,-6.98289,34.57793,0,0,0,72.33777,49.90298,-28.65713,-36.03881,-110.6591,-50.37467,0.001067912,-0.1257102,0.09433498,0,0.3,0,0,0,0,
6.38224E+17,23.93692,64.38357,46.32097,34.13846,-16.06529,52.44975,-16.98673,-0.4441859,-4.295897,-61.44649,-6.98289,34.57793,0,0,0,62.52086,51.49897,-27.50875,-36.03881,-110.6591,-50.37467,0.001067912,-0.1257102,0.09433498,0,0.3,0,0,0,0,
6.38224E+17,20.07309,65.10829,46.1342,30.32971,-19.6543,57.35718,-16.98673,-0.4441859,-4.295897,-61.37324,-6.98289,34.57793,0,0,0,52.2613,51.90468,-25.33117,-36.03881,-110.6591,-50.37467,0.001067912,-0.1257102,0.09433498,0,0.3,0,0,0,0,
6.38224E+17,16.89249,64.96803,45.64391,26.37447,-22.29113,62.63083,-16.98673,-0.4441859,-4.295897,-61.44649,-6.98289,34.57793,0,0,0,44.10084,50.9476,-23.12864,-36.03881,-110.6591,-50.37467,0.001067912,-0.1257102,0.09433498,0,0.3,0,0,0,0,
6.38224E+17,15.26685,64.68748,45.38708,24.17712,-23.46305,65.41415,-16.98673,-0.4441859,-4.295897,-61.44649,-6.98289,34.57793,0,0,0,40.00863,50.24345,-21.76999,-36.03881,-110.6591,-50.37467,0.001067912,-0.1257102,0.09433498,0,0.3,0,0,0,0,
6.38224E+17,12.58102,63.77574,44.59328,19.48943,-25.0012,70.24833,-16.98673,-0.4441859,-4.295897,-61.44649,-6.98289,34.57793,0,0,0,33.22765,48.0148,-19.46636,-36.03881,-110.6591,-50.37467,0.001067912,-0.1257102,0.09433498,0,0.3,0,0,0,0,
6.38224E+17,10.74334,62.44318,43.28583,14.50875,-25.51392,74.27681,-16.98673,-0.4441859,-4.295897,-61.44649,-6.98289,34.57793,0,0,0,28.54333,44.50066,-17.91258,-36.03881,-110.6591,-50.37467,0.001067912,-0.1257102,0.09433498,0,0.3,0,0,0,0,
6.38224E+17,10.2957,61.76521,42.6788,12.53114,-25.29418,75.66847,-16.98673,-0.4441859,-4.295897,-61.44649,-6.98289,34.57793,0,0,0,27.43165,42.79922,-17.33899,-36.03881,-110.6591,-50.37467,0.001067912,-0.1257102,0.09433498,0,0.3,0,0,0,0,
6.38224E+17,10.13078,60.19888,41.16123,9.308348,-24.26875,77.79259,-16.98673,-0.4441859,-4.295897,-61.44649,-6.98289,34.57793,0,0,0,27.09533,38.67128,-16.70962,-36.03881,-110.6591,-50.37467,0.001067912,-0.1257102,0.09433498,0,0.3,0,0,0,0,
6.38224E+17,10.15434,58.21173,38.75646,7.550464,-22.65736,79.11099,-16.98673,-0.4441859,-4.295897,-61.44649,-6.98289,34.57793,0,0,0,27.10178,32.70938,-17.0329,-36.03881,-110.6591,-50.37467,0.001067912,-0.1257102,0.09433498,0,0.3,0,0,0,0,
6.38224E+17,10.15434,57.06619,37.42567,6.891257,-21.55868,79.47723,-16.98673,-0.4441859,-4.295897,-61.44649,-6.98289,34.57793,0,0,0,27.06906,29.37166,-17.2156,-36.03881,-110.6591,-50.37467,0.001067912,-0.1257102,0.09433498,0,0.3,0,0,0,0,
6.38224E+17,10.20146,54.56472,34.64734,5.646089,-18.55563,79.84344,-16.98673,-0.4441859,-4.295897,-61.44649,-6.98289,34.57793,0,0,0,27.12025,22.29708,-17.64408,-36.03881,-110.6591,-50.37467,0.001067912,-0.1257102,0.09433498,0,0.3,0,0,0,0,
6.38224E+17,10.48418,51.92299,31.65889,4.547412,-15.25959,79.98994,-16.98673,-0.4441859,-4.295897,-61.44649,-6.98289,34.57793,0,0,0,27.70036,14.81489,-18.6616,-36.03881,-110.6591,-50.37467,0.001067912,-0.1257102,0.09433498,0,0.3,0,0,0,0,
6.38224E+17,11.8271,47.73829,28.04007,3.81496,-9.912696,79.40398,-16.98673,-0.4441859,-4.295897,-61.44649,-6.98289,34.57793,0,0,0,31.22892,4.342507,-19.21802,-36.03881,-110.6591,-50.37467,0.001067912,-0.1257102,0.09433498,0,0.3,0,0,0,0,
6.38224E+17,13.09934,45.14331,26.35906,4.034696,-6.470173,78.59828,-16.98673,-0.4441859,-4.295897,-61.44649,-6.98289,34.57793,0,0,0,34.7356,-1.607254,-19.07484,-36.03881,-110.6591,-50.37467,0.001067912,-0.1257102,0.09433498,0,0.3,0,0,0,0,
6.38224E+17,14.08886,43.50684,25.49521,4.474167,-4.199574,78.08556,-16.98673,-0.4441859,-4.295897,-61.44649,-6.98289,34.57793,0,0,0,37.51598,-5.21092,-18.86959,-36.03881,-110.6591,-50.37467,0.001067912,-0.1257102,0.09433498,0,0.3,0,0,0,0,
6.38224E+17,16.35061,40.56118,24.16442,6.158805,0.4148723,76.98688,-16.98673,-0.4441859,-4.295897,-61.44649,-6.98289,34.57793,0,0,0,43.88678,-11.60301,-18.75958,-36.03881,-110.6591,-50.37467,0.001067912,-0.1257102,0.09433498,0,0.3,0,0,0,0,
6.38224E+17,19.08357,38.12985,23.83756,8.35616,4.516602,75.229,-16.98673,-0.4441859,-4.295897,-61.44649,-6.98289,34.57793,0,0,0,51.91512,-16.28818,-18.2889,-36.03881,-110.6591,-50.37467,0.001067912,-0.1257102,0.09433498,0,0.3,0,0,0,0,
6.38224E+17,22.4762,36.6804,24.93488,11.72544,7.959125,72.9584,-16.98673,-0.4441859,-4.295897,-61.44649,-6.98289,34.57793,0,0,0,62.37708,-17.91338,-17.58132,-36.03881,-110.6591,-50.37467,0.001067912,-0.1257102,0.09433498,0,0.3,0,0,0,0,
6.38224E+17,24.2432,36.32973,25.91546,13.70306,8.984557,72.00621,-16.98673,-0.4441859,-4.295897,-61.44649,-6.98289,34.57793,0,0,0,68.04207,-17.5896,-17.25433,-36.03881,-110.6591,-50.37467,0.001067912,-0.1257102,0.09433498,0,0.3,0,0,0,0,
6.38224E+17,28.27195,36.02581,28.97396,18.68373,9.570518,69.80886,-16.98673,-0.4441859,-4.295897,-61.44649,-6.98289,34.50468,0,0,0,81.67907,-14.88016,-16.47746,-36.03881,-110.6591,-50.37467,0.001067912,-0.1257102,0.09433498,0,0.3,0,0,0,0,
6.38224E+17,31.82951,35.79203,32.47605,25.1293,8.984557,68.12422,-16.98673,-0.4441859,-4.295897,-61.44649,-6.98289,34.57793,0,0,0,94.80851,-11.15714,-15.61522,-36.03881,-110.6591,-50.37467,0.001067912,-0.1257102,0.09433498,0,0.3,0,0,0,0,
6.38224E+17,33.76143,35.11406,34.67069,30.18322,8.105616,66.87905,-16.98673,-0.4441859,-4.295897,-61.44649,-6.98289,34.57793,0,0,0,102.7771,-9.618006,-14.59952,-36.03881,-110.6591,-50.37467,0.001067912,-0.1257102,0.09433498,0,0.3,0,0,0,0,
6.38224E+17,34.79806,34.13218,36.09487,33.84548,7.88588,65.56064,-16.98673,-0.4441859,-4.295897,-61.44649,-6.98289,34.57793,0,0,0,107.8251,-9.579272,-13.1988,-36.03881,-110.6591,-50.37467,0.001067912,-0.1257102,0.09433498,0,0.3,0,0,0,0,
6.38224E+17,35.33994,32.42557,37.05211,37.06827,8.03237,64.16898,-16.98673,-0.4441859,-4.295897,-61.44649,-6.98289,34.57793,0,0,0,111.5831,-11.57227,-10.9882,-36.03881,-110.6591,-50.37467,0.001067912,-0.1257102,0.09433498,0,0.3,0,0,0,0,
6.38224E+17,35.31638,31.39693,37.0988,38.16694,8.398596,63.50977,-16.98673,-0.4441859,-4.295897,-61.44649,-6.98289,34.57793,0,0,0,112.3001,-13.53897,-9.838975,-36.03881,-110.6591,-50.37467,0.001067912,-0.1257102,0.09433498,0,0.3,0,0,0,0,
6.38224E+17,34.82162,28.03047,36.21161,39.04589,10.96218,62.33785,-16.98673,-0.4441859,-4.295897,-61.44649,-6.98289,34.57793,0,0,0,112.1986,-21.57557,-7.04733,-36.03881,-110.6591,-50.37467,0.001067912,-0.1257102,0.09433498,0,0.3,0,0,0,0,
6.38224E+17,34.60958,26.97845,35.60458,39.04589,11.84112,62.19136,-16.98673,-0.4441859,-4.295897,-61.44649,-6.98289,34.57793,0,0,0,111.5932,-24.57585,-6.644383,-36.03881,-110.6591,-50.37467,0.001067912,-0.1257102,0.09433498,0,0.3,0,0,0,0,
6.38224E+17,33.78498,24.21982,33.64341,37.94721,14.33146,61.97163,-16.98673,-0.4441859,-4.295897,-61.44649,-6.98289,34.57793,0,0,0,108.7083,-32.9588,-5.871356,-36.03881,-110.6591,-50.37467,0.001067912,-0.1257102,0.09433498,0,0.3,0,0,0,0,
6.38224E+17,32.81903,21.27416,31.49546,35.74985,17.55424,61.82513,-16.98673,-0.4441859,-4.295897,-61.44649,-6.98289,34.57793,0,0,0,105.1071,-41.97156,-5.374626,-36.03881,-110.6591,-50.37467,0.001067912,-0.1257102,0.09433498,0,0.3,0,0,0,0,
6.38224E+17,31.99443,18.46878,29.86115,33.18628,20.63054,61.16593,-16.98673,-0.4441859,-4.295897,-61.44649,-7.056135,34.57793,0,0,0,102.1933,-50.05206,-4.771135,-36.03881,-110.6591,-50.37467,0.001067912,-0.1257102,0.09433498,0,0.3,0,0,0,0,
6.38224E+17,31.54679,17.18298,29.13739,31.64813,22.31518,60.72646,-16.98673,-0.4441859,-4.295897,-61.44649,-6.98289,34.57793,0,0,0,100.6244,-53.73036,-4.446459,-36.03881,-110.6591,-50.37467,0.001067912,-0.1257102,0.09433498,0,0.3,0,0,0,0,
6.38224E+17,30.48659,15.24259,27.38634,28.42534,25.46472,59.70102,-16.98673,-0.4441859,-4.295897,-61.44649,-6.98289,34.57793,0,0,0,96.39313,-59.99623,-4.619319,-36.03881,-110.6591,-50.37467,0.001067912,-0.1257102,0.09433498,0,0.3,0,0,0,0,
6.38224E+17,29.12011,13.98017,25.37848,25.34904,28.10155,58.82208,-16.98673,-0.4441859,-4.295897,-61.44649,-6.98289,34.57793,0,0,0,90.78471,-64.91575,-5.376728,-36.03881,-110.6591,-50.37467,0.001067912,-0.1257102,0.09433498,0,0.3,0,0,0,0,
6.38224E+17,28.36619,13.48922,24.51463,23.95738,29.12698,58.5291,-16.98673,-0.4441859,-4.295897,-61.44649,-6.98289,34.57793,0,0,0,87.89526,-66.87366,-5.561623,-36.03881,-110.6591,-50.37467,0.001067912,-0.1257102,0.09433498,0,0.3,0,0,0,0,
6.38224E+17,26.29292,12.67099,22.69354,20.66135,30.81162,58.01638,-16.98673,-0.4441859,-4.295897,-61.44649,-6.98289,34.57793,0,0,0,80.41904,-70.42564,-5.583783,-36.03881,-110.6591,-50.37467,0.001067912,-0.1257102,0.09433498,0,0.3,0,0,0,0,
6.38224E+17,24.29032,12.46058,21.31605,17.87803,31.69056,57.7234,-16.98673,-0.4441859,-4.295897,-61.44649,-6.98289,34.57793,0,0,0,73.50321,-72.1048,-5.485072,-36.03881,-110.6591,-50.37467,0.001067912,-0.1257102,0.09433498,0,0.3,0,0,0,0,
6.38224E+17,22.97096,12.46058,20.59229,16.12015,32.05679,57.65016,-16.98673,-0.4441859,-4.295897,-61.37324,-6.98289,34.57793,0,0,0,69.11983,-72.70721,-5.284167,-36.03881,-110.6591,-50.37467,0.001067912,-0.1257102,0.09433498,0,0.3,0,0,0,0,
6.38224E+17,19.95529,12.46058,19.6117,12.67763,32.64275,57.43042,-16.98673,-0.4441859,-4.295897,-61.44649,-6.98289,34.57793,0,0,0,59.71392,-73.49157,-3.888129,-36.03881,-110.6591,-50.37467,0.001067912,-0.1257102,0.09433498,0,0.3,0,0,0,0,
6.38224E+17,16.44485,12.57747,18.70116,8.942122,32.93573,57.35718,-16.98673,-0.4441859,-4.295897,-61.44649,-6.98289,34.57793,0,0,0,48.94843,-73.92139,-2.516908,-36.03881,-110.6591,-50.37467,0.001067912,-0.1257102,0.09433498,0,0.3,0,0,0,0,
6.38224E+17,12.4161,12.83463,17.72057,4.986883,33.15546,57.43042,-16.98673,-0.4441859,-4.295897,-61.44649,-6.98289,34.57793,0,0,0,36.68211,-74.05075,-1.733457,-36.03881,-110.6591,-50.37467,0.001067912,-0.1257102,0.09433498,0,0.3,0,0,0,0,
6.38224E+17,7.303588,12.85801,16.83338,0.4456824,33.00897,57.57691,-16.98673,-0.4441859,-4.295897,-61.44649,-6.98289,34.57793,0,0,0,21.43648,-74.61094,-1.095185,-36.03881,-110.6591,-50.37467,0.001067912,-0.1257102,0.09433498,0,0.3,0,0,0,0,
6.38224E+17,4.122993,12.85801,16.57656,-2.630615,32.71599,57.57691,-16.98673,-0.4441859,-4.295897,-61.44649,-6.98289,34.57793,0,0,0,12.08244,-74.78275,-0.7344688,-36.03881,-110.6591,-50.37467,0.001067912,-0.1257102,0.09433498,0,0.3,0,0,0,0,
6.38224E+17,-2.261756,12.83463,16.6466,-9.881886,31.61732,57.57691,-16.98673,-0.4441859,-4.295897,-61.44649,-6.98289,34.57793,0,0,0,-6.638727,-74.7892,-0.2622961,-36.03881,-110.6591,-50.37467,0.001067912,-0.1257102,0.09433498,0,0.3,0,0,0,0,
6.38224E+17,-8.222426,12.83463,17.39371,-18.30508,29.63969,56.91771,-16.98673,-0.4441859,-4.295897,-61.44649,-6.98289,34.57793,0,0,0,-24.29582,-74.28024,-0.2149142,-36.03881,-110.6591,-50.37467,0.001067912,-0.1257102,0.09433498,0,0.3,0,0,0,0,
6.38224E+17,-12.81662,12.90477,18.51438,-27.02126,27.2226,54.7936,-16.98673,-0.4441859,-4.295897,-61.37324,-6.98289,34.57793,0,0,0,-38.22736,-73.31712,-0.3172553,-36.03881,-110.6591,-50.37467,0.001067912,-0.1257102,0.09433498,0,0.3,0,0,0,0,
6.38224E+17,-14.5365,12.92815,18.86459,-30.90325,26.05068,53.9879,-16.98673,-0.4441859,-4.295897,-61.44649,-6.98289,34.57793,0,0,0,-43.44405,-73.0029,-0.8046659,-36.03881,-110.6591,-50.37467,0.001067912,-0.1257102,0.09433498,0,0.3,0,0,0,0,
6.38224E+17,-17.38725,12.88139,18.88794,-37.12909,24.36604,53.40194,-16.98673,-0.4441859,-4.295897,-61.44649,-6.98289,34.57793,0,0,0,-51.7457,-73.09139,-3.100418,-36.03881,-110.6591,-50.37467,0.001067912,-0.1257102,0.09433498,0,0.3,0,0,0,0,
6.38224E+17,-20.04953,12.62423,18.84124,-40.93784,23.41385,55.23307,-16.98673,-0.4441859,-4.295897,-61.44649,-6.98289,34.57793,0,0,0,-59.37553,-73.71028,-5.654795,-36.03881,-110.6591,-50.37467,0.001067912,-0.1257102,0.09433498,0,0.3,0,0,0,0,
6.38224E+17,-21.5338,12.48396,18.84124,-42.76897,23.12087,56.47824,-16.98673,-0.4441859,-4.295897,-61.37324,-6.98289,34.57793,0,0,0,-63.59589,-74.02894,-7.181359,-36.03881,-110.6591,-50.37467,0.001067912,-0.1257102,0.09433498,0,0.3,0,0,0,0,
6.38224E+17,-24.07828,12.5541,18.8179,-46.21149,22.82789,58.5291,-16.98673,-0.4441859,-4.295897,-61.44649,-6.98289,34.57793,0,0,0,-70.65282,-73.88712,-10.24285,-36.03881,-110.6591,-50.37467,0.001067912,-0.1257102,0.09433498,0,0.3,0,0,0,0,
6.38224E+17,-25.539,13.02166,17.76727,-49.58077,22.90114,60.65321,-16.98673,-0.4441859,-4.295897,-61.44649,-6.98289,34.57793,0,0,0,-73.55551,-73.59338,-14.4074,-36.03881,-110.6591,-50.37467,0.001067912,-0.1257102,0.09433498,0,0.3,0,0,0,0,
6.38224E+17,-25.35052,13.98017,14.87221,-51.48514,23.4871,63.0703,-16.98673,-0.4441859,-4.295897,-61.44649,-6.98289,34.57793,0,0,0,-70.05737,-73.31738,-20.48008,-36.03881,-110.6591,-50.37467,0.001067912,-0.1257102,0.09433498,0,0.3,0,0,0,0,
6.38224E+17,-23.5364,14.37759,12.44409,-51.48514,24.65902,64.46196,-16.98673,-0.4441859,-4.295897,-61.44649,-6.98289,34.57793,0,0,0,-63.05793,-73.75489,-23.57827,-36.03881,-110.6591,-50.37467,0.001067912,-0.1257102,0.09433498,0,0.3,0,0,0,0,
6.38224E+17,-21.60448,14.42435,10.87983,-51.04567,25.83095,64.97468,-16.98673,-0.4441859,-4.295897,-61.44649,-6.98289,34.57793,0,0,0,-56.81882,-74.38538,-24.87485,-36.03881,-110.6591,-50.37467,0.001067912,-0.1257102,0.09433498,0,0.3,0,0,0,0,
6.38224E+17,-16.53909,14.51786,7.611208,-49.06805,29.05373,65.41415,-16.98673,-0.4441859,-4.295897,-61.44649,-6.98289,34.57793,0,0,0,-41.77647,-75.39671,-27.66753,-36.03881,-110.6591,-50.37467,0.001067912,-0.1257102,0.09433498,0,0.3,0,0,0,0,
