zeyangz2/DNN_classification_different_people_hand/data_by_names/Frank/frank_right_28.csv
Timestamp,Therapist joint angle 0,Therapist joint angle 1,Therapist joint angle 2,Therapist joint angle 3,Therapist joint angle 4,Therapist joint angle 5,Patient joint angle 0,Patient joint angle 1,Patient joint angle 2,Patient joint angle 3,Patient joint angle 4,Patient joint angle 5,Virtual joint angle 0,Virtual joint angle 1,Virtual joint angle 2,Therapist position x,Therapist position y,Therapist position z,Patient position x,Patient position y,Patient position z,Virtual position x,Virtual position y,Virtual position z,Assistive Force, Obstacle Force Magnitude, Therapist Constant Force, Patient Constant Force, Recovery Factor, Assistance Level,label
6.38224E+17,0,0,0,0,0,0,0,0,0,0,0,0,0,0,0,0,0,0,0,0,0,0,0,0,0,0.3,0,0,0,0,1
6.38224E+17,17.41081,1.262423,-15.12903,-36.90935,20.26431,-113.4506,-17.01029,-0.4441859,-4.27255,-61.51973,-6.98289,34.50468,0,0,0,29.47748,-102.4402,-74.3494,-36.10317,-110.6632,-50.33768,0.001067912,-0.1257102,0.09433498,0,0.3,0,0,0.218927,0,
6.38224E+17,17.41081,0.9585064,-15.12903,-36.39664,20.77703,-111.0335,-17.01029,-0.4441859,-4.27255,-61.44649,-6.909645,34.57793,0,0,0,29.48158,-103.1474,-74.33632,-36.10317,-110.6632,-50.33768,0.001067912,-0.1257102,0.09433498,0,0.3,0,0,0.2192713,0,
6.38224E+17,17.41081,0.8416153,-15.12903,-36.10366,20.99677,-110.5207,-17.01029,-0.4441859,-4.27255,-61.44649,-6.909645,34.57793,0,0,0,29.48286,-103.4195,-74.33224,-36.10317,-110.6632,-50.33768,0.001067912,-0.1257102,0.09433498,0,0.3,0,0,0.2194508,0,
6.38224E+17,17.41081,0.7481025,-15.12903,-35.07822,21.43624,-110.008,-17.01029,-0.4441859,-4.27255,-61.51973,-6.98289,34.57793,0,0,0,29.48377,-103.6371,-74.32936,-36.10317,-110.6632,-50.33768,0.001067912,-0.1257102,0.09433498,0,0.3,0,0,0.2197267,0,
6.38224E+17,17.41081,0.7247244,-15.12903,-33.39359,21.87571,-110.008,-17.01029,-0.4441859,-4.27255,-61.44649,-6.98289,34.57793,0,0,0,29.48397,-103.6915,-74.3287,-36.10317,-110.6632,-50.33768,0.001067912,-0.1257102,0.09433498,0,0.3,0,0,0.2198866,0,
6.38224E+17,17.41081,0.7013461,-15.15238,-32.51464,22.09544,-109.715,-17.01029,-0.4441859,-4.27255,-61.51973,-6.98289,34.57793,0,0,0,29.46848,-103.7317,-74.3781,-36.10317,-110.6632,-50.33768,0.001067912,-0.1257102,0.09433498,0,0.3,0,0,0.2199474,0,
6.38224E+17,17.41081,0.6779679,-15.15238,-30.68352,22.38842,-108.4699,-17.01029,-0.4441859,-4.27255,-61.44649,-6.909645,34.57793,0,0,0,29.46868,-103.7861,-74.37747,-36.10317,-110.6632,-50.33768,0.001067912,-0.1257102,0.09433498,0,0.3,0,0,0.2200485,0,
6.38224E+17,17.34013,0.6312115,-15.19907,-28.77914,22.53491,-105.8331,-17.01029,-0.4441859,-4.27255,-61.51973,-6.98289,34.57793,0,0,0,29.32184,-103.8665,-74.44012,-36.10317,-110.6632,-50.33768,0.001067912,-0.1257102,0.09433498,0,0.3,0,0,0.2202506,0,
6.38224E+17,17.19877,0.4909423,-15.29246,-27.02126,22.6814,-102.6103,-17.01029,-0.4441859,-4.27255,-61.51973,-6.98289,34.50468,0,0,0,29.029,-104.1358,-74.56535,-36.10317,-110.6632,-50.33768,0.001067912,-0.1257102,0.09433498,0,0.3,0,0,0.2207257,0,
6.38224E+17,17.17521,0.3974294,-15.29246,-26.28881,22.90114,-101.7313,-17.01029,-0.4441859,-4.27255,-61.44649,-6.98289,34.57793,0,0,0,28.99093,-104.3534,-74.5518,-36.10317,-110.6632,-50.33768,0.001067912,-0.1257102,0.09433498,0,0.3,0,0,0.2210028,0,
6.38224E+17,17.17521,0.3974294,-14.59204,-24.60417,23.56034,-100.4129,-17.01029,-0.4441859,-4.27255,-61.44649,-6.98289,34.57793,0,0,0,29.45602,-104.7737,-73.04702,-36.10317,-110.6632,-50.33768,0.001067912,-0.1257102,0.09433498,0,0.3,0,0,0.2215568,0,
6.38224E+17,17.24589,0.4909423,-13.14451,-23.28575,24.43929,-99.75371,-17.01029,-0.4441859,-4.27255,-61.44649,-6.909645,34.57793,0,0,0,30.54274,-105.3636,-69.9614,-36.10317,-110.6632,-50.33768,0.001067912,-0.1257102,0.09433498,0,0.3,0,0,0.2220236,0,
6.38224E+17,17.29301,0.5376987,-12.16393,-22.62654,24.87876,-99.46073,-17.01029,-0.4441859,-4.27255,-61.44649,-6.98289,34.57793,0,0,0,31.28527,-105.7547,-67.8614,-36.10317,-110.6632,-50.33768,0.001067912,-0.1257102,0.09433498,0,0.3,0,0,0.2221461,0,
6.38224E+17,17.29301,0.5376987,-10.34284,-21.38138,25.46472,-97.26337,-17.01029,-0.4441859,-4.27255,-61.44649,-6.98289,34.57793,0,0,0,32.52089,-106.5818,-63.89256,-36.10317,-110.6632,-50.33768,0.001067912,-0.1257102,0.09433498,0,0.3,0,0,0.2221909,0,
6.38224E+17,17.10453,0.4208077,-8.591794,-19.62349,25.53797,-93.16164,-17.01029,-0.4441859,-4.27255,-61.44649,-6.98289,34.57793,0,0,0,33.36002,-107.5241,-59.94205,-36.10317,-110.6632,-50.33768,0.001067912,-0.1257102,0.09433498,0,0.3,0,0,0.2220545,0,
6.38224E+17,16.23281,0.3039166,-6.607276,-18.08535,25.53797,-87.81474,-17.01029,-0.4441859,-4.27255,-61.44649,-6.909645,34.57793,0,0,0,32.98708,-108.407,-55.04996,-36.10317,-110.6632,-50.33768,0.001067912,-0.1257102,0.09433498,0,0.3,0,0,0.2224039,0,
6.38224E+17,14.51294,0.2805384,-4.506022,-17.49938,24.95201,-83.56653,-17.01029,-0.4441859,-4.27255,-61.44649,-6.909645,34.57793,0,0,0,30.79152,-108.9349,-49.3988,-36.10317,-110.6632,-50.33768,0.001067912,-0.1257102,0.09433498,0,0.3,0,0,0.2241977,0,
6.38224E+17,13.40562,0.2571602,-3.315312,-17.86561,24.43929,-82.17487,-17.01029,-0.4441859,-4.27255,-61.44649,-6.98289,34.57793,0,0,0,29.12807,-109.1783,-46.13629,-36.10317,-110.6632,-50.33768,0.001067912,-0.1257102,0.09433498,0,0.3,0,0,0.2257978,0,
6.38224E+17,10.93182,0.2571602,-0.6770707,-19.477,23.19412,-80.19725,-17.01029,-0.4441859,-4.27255,-61.44649,-6.98289,34.50468,0,0,0,24.98951,-109.3922,-38.96833,-36.10317,-110.6632,-50.33768,0.001067912,-0.1257102,0.09433498,0,0.3,0,0,0.2304907,0,
6.38224E+17,8.340226,0.2571602,2.21799,-21.52787,21.65597,-78.29288,-17.01029,-0.4441859,-4.27255,-61.51973,-6.98289,34.57793,0,0,0,20.09093,-109.3016,-31.30534,-36.10317,-110.6632,-50.33768,0.001067912,-0.1257102,0.09433498,0,0.3,0,0,0.2364926,0,
6.38224E+17,5.018272,0.2571602,5.579997,-24.31118,19.60511,-75.14333,-17.01029,-0.4441859,-4.27255,-61.51973,-6.909645,34.57793,0,0,0,12.79867,-108.7696,-22.59584,-36.10317,-110.6632,-50.33768,0.001067912,-0.1257102,0.09433498,0,0.3,0,0,0.2435168,0,
6.38224E+17,3.392634,0.2571602,7.261,-25.70284,18.50643,-73.67843,-17.01029,-0.4441859,-4.27255,-61.51973,-6.98289,34.57793,0,0,0,8.888701,-108.3321,-18.41055,-36.10317,-110.6632,-50.33768,0.001067912,-0.1257102,0.09433498,0,0.3,0,0,0.2472848,0,
6.38224E+17,-0.2355996,0.2104038,10.99656,-29.29186,16.30907,-70.30915,-17.01029,-0.4441859,-4.27255,-61.44649,-6.98289,34.57793,0,0,0,-0.6529229,-107.0618,-9.565717,-36.10317,-110.6632,-50.33768,0.001067912,-0.1257102,0.09433498,0,0.3,0,0,0.2547814,0,
6.38224E+17,-4.052313,0.1636474,14.98894,-33.61332,14.18496,-65.98769,-17.01029,-0.4441859,-4.27255,-61.51973,-6.98289,34.57793,0,0,0,-11.86066,-105.082,-0.9314833,-36.10317,-110.6632,-50.33768,0.001067912,-0.1257102,0.09433498,0,0.3,0,0,0.2612618,0,
6.38224E+17,-5.65439,0.1636474,16.81003,-35.73743,13.15953,-63.93682,-17.01029,-0.4441859,-4.27255,-61.51973,-6.909645,34.57793,0,0,0,-16.9383,-103.9209,2.727716,-36.10317,-110.6632,-50.33768,0.001067912,-0.1257102,0.09433498,0,0.3,0,0,0.2637649,0,
6.38224E+17,-8.528707,0.1870256,20.47555,-40.42512,11.18191,-58.95615,-17.01029,-0.4441859,-4.27255,-61.44649,-6.98289,34.57793,0,0,0,-26.69431,-101.1399,9.655688,-36.10317,-110.6632,-50.33768,0.001067912,-0.1257102,0.09433498,0,0.3,0,0,0.2666767,0,
6.38224E+17,-10.7669,0.2571602,23.76752,-44.01414,9.717009,-53.90223,-17.01029,-0.4441859,-4.27255,-61.44649,-6.909645,34.57793,0,0,0,-34.95142,-98.09185,15.44854,-36.10317,-110.6632,-50.33768,0.001067912,-0.1257102,0.09433498,0,0.3,0,0,0.2669303,0,
6.38224E+17,-13.09934,0.9117499,27.54977,-47.60315,8.325351,-47.60315,-17.01029,-0.4441859,-4.27255,-61.51973,-6.98289,34.57793,0,0,0,-44.19708,-92.75745,21.58559,-36.10317,-110.6632,-50.33768,0.001067912,-0.1257102,0.09433498,0,0.3,0,0,0.2640287,0,
6.38224E+17,-14.37158,1.753365,29.8378,-50.09349,7.153428,-43.50142,-17.01029,-0.4441859,-4.27255,-61.51973,-6.98289,34.57793,0,0,0,-49.55137,-88.24263,25.03807,-36.10317,-110.6632,-50.33768,0.001067912,-0.1257102,0.09433498,0,0.3,0,0,0.2588409,0,
6.38224E+17,-14.8899,2.314442,30.98182,-51.19216,6.640712,-41.59705,-17.01029,-0.4441859,-4.27255,-61.44649,-6.98289,34.57793,0,0,0,-51.87692,-85.58988,26.75626,-36.10317,-110.6632,-50.33768,0.001067912,-0.1257102,0.09433498,0,0.3,0,0,0.2554536,0,
6.38224E+17,-15.66737,4.044429,33.6901,-53.16978,5.249053,-37.71505,-17.01029,-0.4441859,-4.27255,-61.51973,-6.98289,34.57793,0,0,0,-55.89737,-78.19868,30.94678,-36.10317,-110.6632,-50.33768,0.001067912,-0.1257102,0.09433498,0,0.3,0,0,0.2469334,0,
6.38224E+17,-16.56265,5.891307,37.51905,-55.1474,3.857395,-33.97955,-17.01029,-0.4441859,-4.27255,-61.44649,-6.909645,34.57793,0,0,0,-60.96349,-68.7294,36.6359,-36.10317,-110.6632,-50.33768,0.001067912,-0.1257102,0.09433498,0,0.3,0,0,0.2353017,0,
6.38224E+17,-17.03385,6.732923,39.48022,-56.46581,2.978453,-32.29491,-17.01029,-0.4441859,-4.27255,-61.44649,-6.909645,34.57793,0,0,0,-63.63049,-63.94127,39.337,-36.10317,-110.6632,-50.33768,0.001067912,-0.1257102,0.09433498,0,0.3,0,0,0.2282972,0,
6.38224E+17,-17.97625,8.649935,43.58934,-59.46887,1.220569,-28.92563,-17.01029,-0.4441859,-4.27255,-61.44649,-6.98289,34.57793,0,0,0,-69.06238,-53.17997,44.50231,-36.10317,-110.6632,-50.33768,0.001067912,-0.1257102,0.09433498,0,0.3,0,0,0.2119573,0,
6.38224E+17,-19.10713,10.75397,47.67512,-62.17894,-0.2443342,-25.77609,-17.01029,-0.4441859,-4.27255,-61.51973,-6.98289,34.57793,0,0,0,-75.15585,-41.55698,48.59984,-36.10317,-110.6632,-50.33768,0.001067912,-0.1257102,0.09433498,0,0.3,0,0,0.1926078,0,
6.38224E+17,-19.76681,11.82937,49.63629,-63.57059,-0.9767859,-23.94496,-17.01029,-0.4441859,-4.27255,-61.44649,-6.98289,34.50468,0,0,0,-78.5026,-35.676,50.09635,-36.10317,-110.6632,-50.33768,0.001067912,-0.1257102,0.09433498,0,0.3,0,0,0.1819267,0,
6.38224E+17,-21.86364,14.42435,54.189,-66.79338,-2.661425,-18.52482,-17.01029,-0.4441859,-4.27255,-61.44649,-6.98289,34.57793,0,0,0,-88.36537,-21.45717,51.86945,-36.10317,-110.6632,-50.33768,0.001067912,-0.1257102,0.09433498,0,0.3,0,0,0.1582629,0,
6.38224E+17,-23.60708,16.0842,56.31361,-68.69775,-3.247386,-14.86256,-17.01029,-0.4441859,-4.27255,-61.44649,-6.98289,34.57793,0,0,0,-95.74602,-13.66757,50.73018,-36.10317,-110.6632,-50.33768,0.001067912,-0.1257102,0.09433498,0,0.3,0,0,0.1331649,0,
6.38224E+17,-26.22224,17.79081,57.6444,-70.38239,-3.393876,-11.42003,-17.01029,-0.4441859,-4.27255,-61.51973,-6.98289,34.57793,0,0,0,-105.8768,-7.271125,46.60949,-36.10317,-110.6632,-50.33768,0.001067912,-0.1257102,0.09433498,0,0.3,0,0,0.107468,0,
6.38224E+17,-27.6594,18.32851,57.97126,-70.89511,-3.247386,-10.24811,-17.01029,-0.4441859,-4.27255,-61.51973,-6.909645,34.57793,0,0,0,-111.2429,-5.43756,43.90178,-36.10317,-110.6632,-50.33768,0.001067912,-0.1257102,0.09433498,0,0.3,0,0,0.09464861,0,
6.38224E+17,-31.00491,18.86621,58.46156,-71.55432,-2.514934,-7.904267,-17.01029,-0.4441859,-4.27255,-61.44649,-6.98289,34.57793,0,0,0,-123.5437,-3.281486,37.22132,-36.10317,-110.6632,-50.33768,0.001067912,-0.1257102,0.09433498,0,0.3,0,0,0.06916423,0,
6.38224E+17,-34.4211,18.86621,58.4849,-71.55432,-1.709238,-6.146383,-17.01029,-0.4441859,-4.27255,-61.51973,-6.909645,34.57793,0,0,0,-135.5899,-3.235168,29.51768,-36.10317,-110.6632,-50.33768,0.001067912,-0.1257102,0.09433498,0,0.3,0,0,0.04415743,0,
6.38224E+17,-37.53102,18.86621,58.57829,-71.26134,-0.61056,-4.901215,-17.01029,-0.4441859,-4.27255,-61.51973,-6.98289,34.57793,0,0,0,-146.194,-3.049781,21.96029,-36.10317,-110.6632,-50.33768,0.001067912,-0.1257102,0.09433498,0,0.3,0,0,0.0195317,0,
6.38224E+17,-40.35821,18.86621,58.62498,-70.89511,0.707853,-2.777105,-17.01029,-0.4441859,-4.27255,-61.51973,-6.98289,34.57793,0,0,0,-155.4395,-2.957019,14.56095,-36.10317,-110.6632,-50.33768,0.001067912,-0.1257102,0.09433498,0,0.3,0,0,0,0,
6.38224E+17,-41.74825,18.86621,58.64833,-70.74863,1.220569,-1.898163,-17.01029,-0.4441859,-4.27255,-61.44649,-6.909645,34.57793,0,0,0,-159.8497,-2.91062,10.75752,-36.10317,-110.6632,-50.33768,0.001067912,-0.1257102,0.09433498,0,0.3,0,0,0,0,
6.38224E+17,-44.36341,18.86621,58.81176,-70.67538,2.465737,-0.9459759,-17.01029,-0.4441859,-4.27255,-61.51973,-6.98289,34.57793,0,0,0,-167.9935,-2.585507,3.418633,-36.10317,-110.6632,-50.33768,0.001067912,-0.1257102,0.09433498,0,0.3,0,0,0,0,
6.38224E+17,-46.88432,18.86621,58.83511,-70.74863,4.077131,-0.140279,-17.01029,-0.4441859,-4.27255,-61.51973,-6.98289,34.57793,0,0,0,-175.4065,-2.539017,-4.117414,-36.10317,-110.6632,-50.33768,0.001067912,-0.1257102,0.09433498,0,0.3,0,0,0,0,
6.38224E+17,-48.15656,18.79608,58.83511,-70.82186,4.736337,0.2259469,-17.01029,-0.4441859,-4.27255,-61.51973,-6.98289,34.57793,0,0,0,-179.049,-2.693511,-8.017288,-36.10317,-110.6632,-50.33768,0.001067912,-0.1257102,0.09433498,0,0.3,0,0,0,0,
6.38224E+17,-50.58324,18.72594,58.83511,-70.89511,5.981505,1.397869,-17.01029,-0.4441859,-4.27255,-61.44649,-6.98289,34.57793,0,0,0,-185.7176,-2.848069,-15.70882,-36.10317,-110.6632,-50.33768,0.001067912,-0.1257102,0.09433498,0,0.3,0,0,0,0,
6.38224E+17,-52.79787,18.72594,58.99854,-70.89511,6.713957,3.741715,-17.01029,-0.4441859,-4.27255,-61.51973,-6.98289,34.57793,0,0,0,-191.6338,-2.522314,-22.88079,-36.10317,-110.6632,-50.33768,0.001067912,-0.1257102,0.09433498,0,0.3,0,0,0,0,
6.38224E+17,-53.90519,18.74932,59.06858,-70.89511,7.006938,5.133373,-17.01029,-0.4441859,-4.27255,-61.51973,-6.98289,34.57793,0,0,0,-194.4629,-2.331007,-26.57219,-36.10317,-110.6632,-50.33768,0.001067912,-0.1257102,0.09433498,0,0.3,0,0,0,0,
6.38224E+17,-56.02559,18.9831,59.74565,-70.89511,7.812634,7.550464,-17.01029,-0.4441859,-4.27255,-61.51973,-6.98289,34.57793,0,0,0,-200.0946,-0.4596763,-33.51445,-36.10317,-110.6632,-50.33768,0.001067912,-0.1257102,0.09433498,0,0.3,0,0,0,0,
6.38224E+17,-57.43919,19.42729,61.02975,-71.11485,8.545086,10.40703,-17.01029,-0.4441859,-4.27255,-61.51973,-6.98289,34.57793,0,0,0,-204.318,3.114793,-37.87996,-36.10317,-110.6632,-50.33768,0.001067912,-0.1257102,0.09433498,0,0.3,0,0,0,0,
6.38224E+17,-57.48631,19.80134,61.56674,-71.33459,8.911312,12.60438,-17.01029,-0.4441859,-4.27255,-61.51973,-6.98289,34.57793,0,0,0,-204.685,5.03106,-37.8825,-36.10317,-110.6632,-50.33768,0.001067912,-0.1257102,0.09433498,0,0.3,0,0,0,0,
6.38224E+17,-57.46275,21.29754,62.87419,-70.60213,8.838067,18.97671,-17.01029,-0.4441859,-4.27255,-61.51973,-6.98289,34.57793,0,0,0,-204.7965,10.98383,-37.69298,-36.10317,-110.6632,-50.33768,0.001067912,-0.1257102,0.09433498,0,0.3,0,0,0,0,
6.38224E+17,-57.46275,23.3782,65.02214,-69.35696,8.03237,25.86176,-17.01029,-0.4441859,-4.27255,-61.44649,-6.98289,34.57793,0,0,0,-205.0958,19.95366,-37.50203,-36.10317,-110.6632,-50.33768,0.001067912,-0.1257102,0.09433498,0,0.3,0,0,0,0,
6.38224E+17,-57.46275,25.92643,67.59034,-68.69775,7.226673,31.20865,-17.01029,-0.4441859,-4.27255,-61.44649,-6.98289,34.57793,0,0,0,-205.0352,30.81631,-37.54066,-36.10317,-110.6632,-50.33768,0.001067912,-0.1257102,0.09433498,0,0.3,0,0,0,0,
6.38224E+17,-57.46275,27.18885,68.99117,-68.771,6.787202,33.33276,-17.01029,-0.4441859,-4.27255,-61.51973,-6.98289,34.57793,0,0,0,-204.9444,36.47338,-37.59858,-36.10317,-110.6632,-50.33768,0.001067912,-0.1257102,0.09433498,0,0.3,0,0,0,0,
6.38224E+17,-57.41562,30.04099,71.83953,-69.5767,5.615279,36.55555,-17.01029,-0.4441859,-4.27255,-61.44649,-6.98289,34.57793,0,0,0,-204.0306,48.54517,-37.94539,-36.10317,-110.6632,-50.33768,0.001067912,-0.1257102,0.09433498,0,0.3,0,0,0,0,
6.38224E+17,-57.39207,32.89313,74.24431,-71.11485,4.516602,38.53317,-17.01029,-0.4441859,-4.27255,-61.44649,-6.98289,34.57793,0,0,0,-202.4333,59.55955,-38.84899,-36.10317,-110.6632,-50.33768,0.001067912,-0.1257102,0.09433498,0,0.3,0,0,0,0,
6.38224E+17,-57.34494,34.24907,75.20155,-72.06703,4.077131,39.11913,-17.01029,-0.4441859,-4.27255,-61.51973,-6.98289,34.57793,0,0,0,-201.3518,64.33802,-39.30739,-36.10317,-110.6632,-50.33768,0.001067912,-0.1257102,0.09433498,0,0.3,0,0,0,0,
6.38224E+17,-56.99155,36.65702,76.39225,-73.67843,3.124943,39.85158,-17.01029,-0.4441859,-4.27255,-61.44649,-6.98289,34.57793,0,0,0,-198.3964,71.58937,-39.46823,-36.10317,-110.6632,-50.33768,0.001067912,-0.1257102,0.09433498,0,0.3,0,0,0,0,
6.38224E+17,-56.52034,38.94809,77.16271,-74.99684,2.172756,40.29105,-17.01029,-0.4441859,-4.27255,-61.44649,-6.98289,34.57793,0,0,0,-194.946,77.54783,-39.41757,-36.10317,-110.6632,-50.33768,0.001067912,-0.1257102,0.09433498,0,0.3,0,0,0,0,
6.38224E+17,-55.88423,41.65996,77.65301,-76.09552,1.367059,40.43755,-17.01029,-0.4441859,-4.27255,-61.44649,-6.98289,34.57793,0,0,0,-190.3288,83.47441,-39.41126,-36.10317,-110.6632,-50.33768,0.001067912,-0.1257102,0.09433498,0,0.3,0,0,0,0,
6.38224E+17,-55.01251,45.0498,77.86314,-77.1942,0.3416272,40.58403,-17.01029,-0.4441859,-4.27255,-61.44649,-6.98289,34.57793,0,0,0,-183.9933,89.68807,-39.57632,-36.10317,-110.6632,-50.33768,0.001067912,-0.1257102,0.09433498,0,0.3,0,0,0,0,
6.38224E+17,-54.47063,47.06033,77.88648,-77.78016,-0.171089,40.58403,-17.01029,-0.4441859,-4.27255,-61.51973,-6.98289,34.57793,0,0,0,-180.0348,92.9883,-39.79311,-36.10317,-110.6632,-50.33768,0.001067912,-0.1257102,0.09433498,0,0.3,0,0,0,0,
6.38224E+17,-53.31619,51.45543,77.88648,-78.6591,-1.562747,40.58403,-17.01029,-0.4441859,-4.27255,-61.44649,-6.98289,34.57793,0,0,0,-171.1945,99.66278,-40.82077,-36.10317,-110.6632,-50.33768,0.001067912,-0.1257102,0.09433498,0,0.3,0,0,0,0,
6.38224E+17,-51.83192,56.38823,77.95652,-79.53804,-3.467122,40.65728,-17.01029,-0.4441859,-4.27255,-61.44649,-6.98289,34.57793,0,0,0,-160.5678,106.5809,-42.14033,-36.10317,-110.6632,-50.33768,0.001067912,-0.1257102,0.09433498,0,0.3,0,0,0,0,
6.38224E+17,-50.98376,58.95983,78.07326,-79.90427,-4.565799,40.51079,-17.01029,-0.4441859,-4.27255,-61.44649,-6.909645,34.57793,0,0,0,-154.7966,110.0468,-42.92549,-36.10317,-110.6632,-50.33768,0.001067912,-0.1257102,0.09433498,0,0.3,0,0,0,0,
6.38224E+17,-49.12252,64.12641,78.30673,-80.41698,-7.056135,39.99807,-17.01029,-0.4441859,-4.27255,-61.51973,-6.98289,34.57793,0,0,0,-142.7346,116.3065,-44.80755,-36.10317,-110.6632,-50.33768,0.001067912,-0.1257102,0.09433498,0,0.3,0,0,0,0,
6.38224E+17,-46.86076,69.57353,78.63359,-80.70996,-9.839451,39.33887,-17.01029,-0.4441859,-4.27255,-61.51973,-6.909645,34.57793,0,0,0,-129.3561,122.0341,-47.13443,-36.10317,-110.6632,-50.33768,0.001067912,-0.1257102,0.09433498,0,0.3,0,0,0,0,
6.38224E+17,-45.49429,72.42567,78.72698,-80.70996,-11.45084,38.89939,-17.01029,-0.4441859,-4.27255,-61.51973,-6.909645,34.57793,0,0,0,-121.9833,124.4082,-48.45338,-36.10317,-110.6632,-50.33768,0.001067912,-0.1257102,0.09433498,0,0.3,0,0,0,0,
6.38224E+17,-42.50217,77.40523,78.77367,-80.124,-14.89337,37.43449,-17.01029,-0.4441859,-4.27255,-61.44649,-6.909645,34.57793,0,0,0,-108.0151,127.5299,-50.48116,-36.10317,-110.6632,-50.33768,0.001067912,-0.1257102,0.09433498,0,0.3,0,0,0,0,
6.38224E+17,-39.10954,81.61331,78.79703,-78.95209,-18.48238,35.67661,-17.01029,-0.4441859,-4.27255,-61.44649,-6.98289,34.50468,0,0,0,-94.78384,129.366,-51.75816,-36.10317,-110.6632,-50.33768,0.001067912,-0.1257102,0.09433498,0,0.3,0,0,0,0,
6.38224E+17,-35.45774,85.26031,78.84372,-77.48718,-22.14464,33.62574,-17.01029,-0.4441859,-4.27255,-61.44649,-6.98289,34.57793,0,0,0,-82.28674,130.4427,-52.80808,-36.10317,-110.6632,-50.33768,0.001067912,-0.1257102,0.09433498,0,0.3,0,0,0,0,
6.38224E+17,-30.76931,88.62677,78.9371,-75.65604,-26.53935,31.35514,-17.01029,-0.4441859,-4.27255,-61.51973,-6.98289,34.57793,0,0,0,-68.58672,131.0736,-53.15445,-36.10317,-110.6632,-50.33768,0.001067912,-0.1257102,0.09433498,0,0.3,0,0,0,0,
6.38224E+17,-28.76671,89.7723,78.9371,-74.7771,-28.29723,30.40295,-17.01029,-0.4441859,-4.27255,-61.51973,-6.98289,34.57793,0,0,0,-63.23645,131.1109,-53.16486,-36.10317,-110.6632,-50.33768,0.001067912,-0.1257102,0.09433498,0,0.3,0,0,0,0,
6.38224E+17,-23.70132,92.08675,78.9371,-72.5065,-32.54545,27.69288,-17.01029,-0.4441859,-4.27255,-61.51973,-6.98289,34.57793,0,0,0,-50.65466,131.0235,-52.96269,-36.10317,-110.6632,-50.33768,0.001067912,-0.1257102,0.09433498,0,0.3,0,0,0,0,
6.38224E+17,-17.43437,93.72321,78.65694,-68.99074,-36.94016,23.00519,-17.01029,-0.4441859,-4.27255,-61.44649,-6.98289,34.57793,0,0,0,-36.57857,130.1909,-51.87255,-36.10317,-110.6632,-50.33768,0.001067912,-0.1257102,0.09433498,0,0.3,0,0,0,0,
6.38224E+17,-10.69622,94.37781,77.53627,-63.05788,-40.45593,13.92279,-17.01029,-0.4441859,-4.27255,-61.51973,-6.98289,34.57793,0,0,0,-22.27748,127.5311,-50.40715,-36.10317,-110.6632,-50.33768,0.001067912,-0.1257102,0.09433498,0,0.3,0,0,0,0,
6.38224E+17,-7.350708,94.37781,76.8592,-59.02939,-41.7011,7.550464,-17.01029,-0.4441859,-4.27255,-61.51973,-6.98289,34.57793,0,0,0,-15.31204,125.9945,-49.65441,-36.10317,-110.6632,-50.33768,0.001067912,-0.1257102,0.09433498,0,0.3,0,0,0,0,
6.38224E+17,-1.013078,93.7466,75.71518,-49.87375,-43.166,-7.831022,-17.01029,-0.4441859,-4.27255,-61.51973,-6.909645,34.57793,0,0,0,-2.130753,123.5119,-47.85546,-36.10317,-110.6632,-50.33768,0.001067912,-0.1257102,0.09433498,0,0.3,0,0,0,0,
6.38224E+17,4.429273,92.4608,74.71125,-40.64486,-43.82521,-24.31118,-17.01029,-0.4441859,-4.27255,-61.44649,-6.909645,34.57793,0,0,0,9.491771,121.4148,-45.81191,-36.10317,-110.6632,-50.33768,0.001067912,-0.1257102,0.09433498,0,0.3,0,0,0,0,
6.38224E+17,6.926629,91.66593,74.12756,-35.81068,-44.04494,-32.88087,-17.01029,-0.4441859,-4.27255,-61.44649,-6.909645,34.57793,0,0,0,15.00109,120.1729,-44.86884,-36.10317,-110.6632,-50.33768,0.001067912,-0.1257102,0.09433498,0,0.3,0,0,0,0,
6.38224E+17,10.90826,89.6554,72.28313,-25.92258,-43.67872,-48.92156,-17.01029,-0.4441859,-4.27255,-61.44649,-6.98289,34.57793,0,0,0,24.18969,116.1174,-42.8322,-36.10317,-110.6632,-50.33768,0.001067912,-0.1257102,0.09433498,0,0.3,0,0,0,0,
6.38224E+17,13.0051,87.7384,70.4854,-19.84323,-42.36031,-58.66317,-17.01029,-0.4441859,-4.27255,-61.51973,-6.98289,34.57793,0,0,0,29.46918,112.0509,-40.75674,-36.10317,-110.6632,-50.33768,0.001067912,-0.1257102,0.09433498,0,0.3,0,0,0,0,
6.38224E+17,15.2433,85.14342,68.24406,-14.71607,-39.79673,-66.79338,-17.01029,-0.4441859,-4.27255,-61.51973,-6.98289,34.57793,0,0,0,35.53112,106.7946,-37.96323,-36.10317,-110.6632,-50.33768,0.001067912,-0.1257102,0.09433498,0,0.3,0,0,0,0,
6.38224E+17,16.53909,83.60046,67.24013,-12.6652,-38.18533,-69.94292,-17.01029,-0.4441859,-4.27255,-61.51973,-6.98289,34.57793,0,0,0,39.23598,104.28,-36.22267,-36.10317,-110.6632,-50.33768,0.001067912,-0.1257102,0.09433498,0,0.3,0,0,0,0,
6.38224E+17,19.81393,80.35088,66.70313,-8.929699,-35.5485,-75.21658,-17.01029,-0.4441859,-4.27255,-61.51973,-6.909645,34.57793,0,0,0,49.09221,102.0742,-32.09508,-36.10317,-110.6632,-50.33768,0.001067912,-0.1257102,0.09433498,0,0.3,0,0,0,0,
6.38224E+17,23.72488,77.07793,66.84322,-3.802537,-33.57088,-80.49023,-17.01029,-0.4441859,-4.27255,-61.51973,-6.98289,34.57793,0,0,0,61.32819,100.8833,-28.80515,-36.10317,-110.6632,-50.33768,0.001067912,-0.1257102,0.09433498,0,0.3,0,0,0,0,
6.38224E+17,27.77719,73.24391,67.12339,2.276812,-31.73976,-87.30203,-17.01029,-0.4441859,-4.27255,-61.51973,-6.98289,34.57793,0,0,0,75.17406,99.19852,-25.63203,-36.10317,-110.6632,-50.33768,0.001067912,-0.1257102,0.09433498,0,0.3,0,0,0,0,
6.38224E+17,29.61487,71.21001,67.21678,5.499599,-30.64108,-90.74455,-17.01029,-0.4441859,-4.27255,-61.51973,-6.98289,34.57793,0,0,0,81.98124,97.95398,-24.1241,-36.10317,-110.6632,-50.33768,0.001067912,-0.1257102,0.09433498,0,0.3,0,0,0,0,
6.38224E+17,32.91327,66.90842,67.28682,11.06623,-28.37048,-97.26337,-17.01029,-0.4441859,-4.27255,-61.51973,-6.98289,34.57793,0,0,0,95.25731,94.52702,-21.17934,-36.10317,-110.6632,-50.33768,0.001067912,-0.1257102,0.09433498,0,0.3,0,0,0,0,
6.38224E+17,35.76402,62.02237,67.28682,15.3877,-25.66041,-102.7568,-17.01029,-0.4441859,-4.27255,-61.51973,-6.98289,34.57793,0,0,0,108.4541,89.62663,-17.77546,-36.10317,-110.6632,-50.33768,0.001067912,-0.1257102,0.09433498,0,0.3,0,0,0,0,
6.38224E+17,38.12002,56.38823,67.4269,18.24426,-22.65736,-106.712,-17.01029,-0.4441859,-4.27255,-61.51973,-6.98289,34.57793,0,0,0,121.5804,83.21691,-13.40426,-36.10317,-110.6632,-50.33768,0.001067912,-0.1257102,0.09433498,0,0.3,0,0,0,0,
6.38224E+17,39.08598,53.37244,67.70707,19.19645,-20.82623,-107.8839,-17.01029,-0.4441859,-4.27255,-61.51973,-6.98289,34.57793,0,0,0,127.9514,79.7822,-10.82701,-36.10317,-110.6632,-50.33768,0.001067912,-0.1257102,0.09433498,0,0.3,0,0,0,0,
6.38224E+17,40.71161,47.48113,68.73435,20.36837,-17.09072,-109.9348,-17.01029,-0.4441859,-4.27255,-61.51973,-6.98289,34.57793,0,0,0,139.8379,73.2712,-5.84012,-36.10317,-110.6632,-50.33768,0.001067912,-0.1257102,0.09433498,0,0.3,0,0,0,0,
6.38224E+17,42.24301,42.6886,70.43871,21.02757,-13.72145,-112.6449,-17.01029,-0.4441859,-4.27255,-61.44649,-6.909645,34.57793,0,0,0,150.3697,69.11549,-2.765288,-36.10317,-110.6632,-50.33768,0.001067912,-0.1257102,0.09433498,0,0.3,0,0,0,0,
6.38224E+17,43.04405,40.70145,71.48933,21.32055,-12.40303,-114.9155,-17.01029,-0.4441859,-4.27255,-61.51973,-6.98289,34.57793,0,0,0,155.3139,67.97375,-2.052683,-36.10317,-110.6632,-50.33768,0.001067912,-0.1257102,0.09433498,0,0.3,0,0,0,0,
6.38224E+17,44.38697,37.24148,73.8007,22.12625,-10.64515,-120.4821,-17.01029,-0.4441859,-4.27255,-61.44649,-6.98289,34.57793,0,0,0,163.8332,66.84828,-0.9728701,-36.10317,-110.6632,-50.33768,0.001067912,-0.1257102,0.09433498,0,0.3,0,0,0,0,
6.38224E+17,45.37648,33.8984,76.27552,23.22493,-10.05919,-126.0487,-17.01029,-0.4441859,-4.27255,-61.51973,-6.98289,34.57793,0,0,0,170.9785,66.08448,0.3961609,-36.10317,-110.6632,-50.33768,0.001067912,-0.1257102,0.09433498,0,0.3,0,0,0,0,
6.38224E+17,46.15396,30.55531,78.65694,24.03063,-10.27892,-131.1759,-17.01029,-0.4441859,-4.27255,-61.51973,-6.98289,34.57793,0,0,0,177.1119,64.91344,1.767601,-36.10317,-110.6632,-50.33768,0.001067912,-0.1257102,0.09433498,0,0.3,0,0,0,0,
6.38224E+17,46.69584,28.52141,80.38464,24.54334,-10.71839,-134.7649,-17.01029,-0.4441859,-4.27255,-61.51973,-6.98289,34.57793,0,0,0,180.9433,64.74903,2.187119,-36.10317,-110.6632,-50.33768,0.001067912,-0.1257102,0.09433498,0,0.3,0,0,0,0,
6.38224E+17,46.97857,27.60966,81.15509,24.83632,-10.93813,-136.596,-17.01029,-0.4441859,-4.27255,-61.51973,-6.98289,34.57793,0,0,0,182.7227,64.64651,2.169587,-36.10317,-110.6632,-50.33768,0.001067912,-0.1257102,0.09433498,0,0.3,0,0,0,0,
6.38224E+17,47.59112,26.25372,82.67267,25.42229,-11.59733,-139.3793,-17.01029,-0.4441859,-4.27255,-61.51973,-6.98289,34.57793,0,0,0,185.9575,65.3298,1.505364,-36.10317,-110.6632,-50.33768,0.001067912,-0.1257102,0.09433498,0,0.3,0,0,0,0,
6.38224E+17,48.32148,25.55238,84.5638,26.66745,-12.40303,-141.5034,-17.01029,-0.4441859,-4.27255,-61.44649,-6.98289,34.57793,0,0,0,189.0054,68.23543,-0.07934809,-36.10317,-110.6632,-50.33768,0.001067912,-0.1257102,0.09433498,0,0.3,0,0,0,0,
6.38224E+17,48.67488,25.50562,85.54439,27.54639,-12.8425,-141.7232,-17.01029,-0.4441859,-4.27255,-61.51973,-6.98289,34.57793,0,0,0,190.2227,70.41092,-1.08743,-36.10317,-110.6632,-50.33768,0.001067912,-0.1257102,0.09433498,0,0.3,0,0,0,0,
6.38224E+17,49.33456,25.529,88.46278,30.25646,-13.86794,-141.8697,-17.01029,-0.4441859,-4.27255,-61.51973,-6.98289,34.57793,0,0,0,192.3874,77.24229,-3.072539,-36.10317,-110.6632,-50.33768,0.001067912,-0.1257102,0.09433498,0,0.3,0,0,0,0,
6.38224E+17,49.75864,25.85629,91.70806,33.77223,-14.60039,-142.0162,-17.01029,-0.4441859,-4.27255,-61.44649,-6.98289,34.57793,0,0,0,193.3447,85.48074,-4.721642,-36.10317,-110.6632,-50.33768,0.001067912,-0.1257102,0.09433498,0,0.3,0,0,0,0,
6.38224E+17,49.92356,26.25372,93.38906,35.89634,-14.82012,-142.0894,-17.01029,-0.4441859,-4.27255,-61.44649,-6.98289,34.57793,0,0,0,193.3709,90.22006,-5.652405,-36.10317,-110.6632,-50.33768,0.001067912,-0.1257102,0.09433498,0,0.3,0,0,0,0,
6.38224E+17,50.04136,27.91357,96.35417,41.53622,-15.55258,-142.0894,-17.01029,-0.4441859,-4.27255,-61.44649,-6.98289,34.57793,0,0,0,191.9077,100.5347,-7.556214,-36.10317,-110.6632,-50.33768,0.001067912,-0.1257102,0.09433498,0,0.3,0,0,0,0,
6.38224E+17,50.0178,29.08249,97.56822,44.9055,-15.77231,-142.1627,-17.01029,-0.4441859,-4.27255,-61.51973,-6.98289,34.57793,0,0,0,190.5846,105.7303,-8.531393,-36.10317,-110.6632,-50.33768,0.001067912,-0.1257102,0.09433498,0,0.3,0,0,0,0,
6.38224E+17,49.97068,30.55531,99.10915,48.49451,-15.9188,-142.1627,-17.01029,-0.4441859,-4.27255,-61.51973,-6.98289,34.57793,0,0,0,188.7497,112.2525,-9.805513,-36.10317,-110.6632,-50.33768,0.001067912,-0.1257102,0.09433498,0,0.3,0,0,0,0,
6.38224E+17,49.97068,31.32679,99.85625,50.17915,-15.84556,-142.1627,-17.01029,-0.4441859,-4.27255,-61.51973,-6.98289,34.57793,0,0,0,187.8235,115.5076,-10.58354,-36.10317,-110.6632,-50.33768,0.001067912,-0.1257102,0.09433498,0,0.3,0,0,0,0,
6.38224E+17,49.94712,32.91651,101.4439,53.54843,-15.69907,-142.1627,-17.01029,-0.4441859,-4.27255,-61.51973,-6.98289,34.57793,0,0,0,185.73,122.2723,-12.21164,-36.10317,-110.6632,-50.33768,0.001067912,-0.1257102,0.09433498,0,0.3,0,0,0,0,
6.38224E+17,49.85288,34.36596,102.8914,56.91771,-15.55258,-142.1627,-17.01029,-0.4441859,-4.27255,-61.51973,-6.98289,34.57793,0,0,0,183.5017,128.3739,-13.5691,-36.10317,-110.6632,-50.33768,0.001067912,-0.1257102,0.09433498,0,0.3,0,0,0,0,
6.38224E+17,49.59372,35.72189,104.1522,59.99401,-15.33284,-142.1627,-17.01029,-0.4441859,-4.27255,-61.51973,-6.98289,34.57793,0,0,0,180.8975,133.8104,-14.35995,-36.10317,-110.6632,-50.33768,0.001067912,-0.1257102,0.09433498,0,0.3,0,0,0,0,
6.38224E+17,49.05184,37.03107,105.2495,62.77732,-15.18635,-142.1627,-17.01029,-0.4441859,-4.27255,-61.44649,-6.98289,34.57793,0,0,0,177.5787,138.7338,-14.26508,-36.10317,-110.6632,-50.33768,0.001067912,-0.1257102,0.09433498,0,0.3,0,0,0,0,
6.38224E+17,48.76912,37.91945,105.2261,63.876,-15.03986,-142.1627,-17.01029,-0.4441859,-4.27255,-61.51973,-6.98289,34.50468,0,0,0,175.8809,140.3222,-14.21041,-36.10317,-110.6632,-50.33768,0.001067912,-0.1257102,0.09433498,0,0.3,0,0,0,0,
6.38224E+17,48.2508,39.76632,105.2495,65.63388,-14.89337,-142.1627,-17.01029,-0.4441859,-4.27255,-61.44649,-6.98289,34.50468,0,0,0,172.4574,143.7224,-14.43022,-36.10317,-110.6632,-50.33768,0.001067912,-0.1257102,0.09433498,0,0.3,0,0,0,0,
6.38224E+17,47.73248,41.58982,105.2495,67.17203,-14.96661,-142.1627,-17.01029,-0.4441859,-4.27255,-61.44649,-6.98289,34.50468,0,0,0,169.0109,146.9409,-14.73692,-36.10317,-110.6632,-50.33768,0.001067912,-0.1257102,0.09433498,0,0.3,0,0,0,0,
6.38224E+17,47.44976,42.61847,105.2495,67.97772,-15.1131,-142.1627,-17.01029,-0.4441859,-4.27255,-61.44649,-6.98289,34.57793,0,0,0,167.0684,148.7171,-14.99029,-36.10317,-110.6632,-50.33768,0.001067912,-0.1257102,0.09433498,0,0.3,0,0,0,0,
6.38224E+17,46.88432,44.7225,105.2495,69.80886,-15.33284,-142.1627,-17.01029,-0.4441859,-4.27255,-61.51973,-6.98289,34.57793,0,0,0,163.0786,152.2589,-15.65998,-36.10317,-110.6632,-50.33768,0.001067912,-0.1257102,0.09433498,0,0.3,0,0,0,0,
6.38224E+17,46.03617,47.15384,105.2495,71.93297,-15.69907,-142.1627,-17.01029,-0.4441859,-4.27255,-61.44649,-6.98289,34.57793,0,0,0,157.874,156.1939,-16.08532,-36.10317,-110.6632,-50.33768,0.001067912,-0.1257102,0.09433498,0,0.3,0,0,0,0,
6.38224E+17,45.5414,48.46302,105.2495,73.03164,-15.84556,-142.1627,-17.01029,-0.4441859,-4.27255,-61.51973,-6.98289,34.57793,0,0,0,154.942,158.2402,-16.30886,-36.10317,-110.6632,-50.33768,0.001067912,-0.1257102,0.09433498,0,0.3,0,0,0,0,
6.38224E+17,44.45765,51.24502,105.2495,75.59522,-16.13853,-142.2359,-17.01029,-0.4441859,-4.27255,-61.51973,-6.98289,34.57793,0,0,0,148.5724,162.4144,-16.93785,-36.10317,-110.6632,-50.33768,0.001067912,-0.1257102,0.09433498,0,0.3,0,0,0,0,
6.38224E+17,43.11473,54.28419,105.2261,78.67152,-16.87099,-142.1627,-17.01029,-0.4441859,-4.27255,-61.44649,-6.98289,34.57793,0,0,0,141.1444,166.6415,-17.59748,-36.10317,-110.6632,-50.33768,0.001067912,-0.1257102,0.09433498,0,0.3,0,0,0,0,
6.38224E+17,41.55977,57.90781,104.8292,82.99299,-18.26265,-142.1627,-17.01029,-0.4441859,-4.27255,-61.44649,-6.98289,34.57793,0,0,0,132.5177,170.4528,-18.88043,-36.10317,-110.6632,-50.33768,0.001067912,-0.1257102,0.09433498,0,0.3,0,0,0,0,
6.38224E+17,40.85297,59.8482,104.1755,84.89736,-19.06834,-142.1627,-17.01029,-0.4441859,-4.27255,-61.44649,-6.98289,34.50468,0,0,0,128.3843,171.3139,-19.89303,-36.10317,-110.6632,-50.33768,0.001067912,-0.1257102,0.09433498,0,0.3,0,0,0,0,
6.38224E+17,40.42889,61.15738,103.5918,86.06928,-19.72755,-142.1627,-17.01029,-0.4441859,-4.27255,-61.51973,-6.98289,34.50468,0,0,0,125.7736,171.4954,-20.71744,-36.10317,-110.6632,-50.33768,0.001067912,-0.1257102,0.09433498,0,0.3,0,0,0,0,
6.38224E+17,39.7221,63.56533,102.4478,87.53419,-21.2657,-142.1627,-17.01029,-0.4441859,-4.27255,-61.51973,-6.98289,34.57793,0,0,0,121.1536,171.5009,-22.53419,-36.10317,-110.6632,-50.33768,0.001067912,-0.1257102,0.09433498,0,0.3,0,0,0,0,
6.38224E+17,39.06242,65.80965,101.2104,88.33988,-22.95034,-142.1627,-17.01029,-0.4441859,-4.27255,-61.51973,-6.98289,34.57793,0,0,0,116.8634,170.9153,-24.35672,-36.10317,-110.6632,-50.33768,0.001067912,-0.1257102,0.09433498,0,0.3,0,0,0,0,
6.38224E+17,38.5441,67.72665,99.80956,88.70612,-24.70822,-142.2359,-17.01029,-0.4441859,-4.27255,-61.51973,-6.98289,34.57793,0,0,0,113.372,169.4696,-26.0468,-36.10317,-110.6632,-50.33768,0.001067912,-0.1257102,0.09433498,0,0.3,0,0,0,0,
6.38224E+17,38.30849,68.54489,99.0391,88.63287,-25.58716,-142.1627,-17.01029,-0.4441859,-4.27255,-61.44649,-6.98289,34.57793,0,0,0,111.8723,168.4099,-26.73824,-36.10317,-110.6632,-50.33768,0.001067912,-0.1257102,0.09433498,0,0.3,0,0,0,0,
6.38224E+17,38.00222,69.90083,97.52153,88.04691,-27.19856,-142.2359,-17.01029,-0.4441859,-4.27255,-61.51973,-6.98289,34.57793,0,0,0,109.6103,166.0342,-28.06639,-36.10317,-110.6632,-50.33768,0.001067912,-0.1257102,0.09433498,0,0.3,0,0,0,0,
6.38224E+17,37.86086,70.97623,96.05065,86.87498,-28.73671,-142.2359,-17.01029,-0.4441859,-4.27255,-61.44649,-6.909645,34.57793,0,0,0,108.0647,163.473,-29.33899,-36.10317,-110.6632,-50.33768,0.001067912,-0.1257102,0.09433498,0,0.3,0,0,0,0,
6.38224E+17,37.8373,71.44379,95.1868,86.06928,-29.39591,-142.2359,-17.01029,-0.4441859,-4.27255,-61.51973,-6.909645,34.57793,0,0,0,107.4963,161.8226,-29.95272,-36.10317,-110.6632,-50.33768,0.001067912,-0.1257102,0.09433498,0,0.3,0,0,0,0,
6.38224E+17,37.97866,72.075,93.45911,83.94518,-30.42134,-141.7232,-17.01029,-0.4441859,-4.27255,-61.44649,-6.98289,34.57793,0,0,0,107.1653,158.273,-31.07924,-36.10317,-110.6632,-50.33768,0.001067912,-0.1257102,0.09433498,0,0.3,0,0,0,0,
6.38224E+17,38.47342,72.23865,92.15166,81.60133,-30.64108,-139.4526,-17.01029,-0.4441859,-4.27255,-61.44649,-6.98289,34.57793,0,0,0,108.2138,155.3505,-32.17698,-36.10317,-110.6632,-50.33768,0.001067912,-0.1257102,0.09433498,0,0.3,0,0,0,0,
6.38224E+17,38.82682,72.23865,91.61468,80.50266,-30.3481,-136.4495,-17.01029,-0.4441859,-4.27255,-61.44649,-6.98289,34.57793,0,0,0,109.0774,154.1014,-32.81504,-36.10317,-110.6632,-50.33768,0.001067912,-0.1257102,0.09433498,0,0.3,0,0,0,0,
6.38224E+17,39.4865,72.19189,90.68078,78.45178,-29.76214,-132.2746,-17.01029,-0.4441859,-4.27255,-61.51973,-6.98289,34.57793,0,0,0,110.7242,151.8951,-33.96629,-36.10317,-110.6632,-50.33768,0.001067912,-0.1257102,0.09433498,0,0.3,0,0,0,0,
6.38224E+17,40.00481,71.93473,90.14379,76.84039,-29.39591,-131.3956,-17.01029,-0.4441859,-4.27255,-61.51973,-6.98289,34.57793,0,0,0,112.3072,150.461,-34.53036,-36.10317,-110.6632,-50.33768,0.001067912,-0.1257102,0.09433498,0,0.3,0,0,0,0,
6.38224E+17,40.45245,71.37366,89.72354,75.74171,-29.17617,-131.0294,-17.01029,-0.4441859,-4.27255,-61.44649,-6.909645,34.57793,0,0,0,114.1527,149.0719,-34.46956,-36.10317,-110.6632,-50.33768,0.001067912,-0.1257102,0.09433498,0,0.3,0,0,0,0,
6.38224E+17,40.71161,70.97623,89.39668,75.229,-29.17617,-130.9561,-17.01029,-0.4441859,-4.27255,-61.44649,-6.909645,34.57793,0,0,0,115.3243,148.0127,-34.32806,-36.10317,-110.6632,-50.33768,0.001067912,-0.1257102,0.09433498,0,0.3,0,0,0,0,
6.38224E+17,41.39485,69.62029,88.43945,74.05708,-29.02968,-129.4913,-17.01029,-0.4441859,-4.27255,-61.44649,-6.98289,34.50468,0,0,0,118.851,144.7214,-33.51559,-36.10317,-110.6632,-50.33768,0.001067912,-0.1257102,0.09433498,0,0.3,0,0,0,0,
6.38224E+17,42.24301,67.63314,87.45886,71.85973,-28.66346,-125.3895,-17.01029,-0.4441859,-4.27255,-61.51973,-6.98289,34.57793,0,0,0,123.6742,140.7553,-32.16196,-36.10317,-110.6632,-50.33768,0.001067912,-0.1257102,0.09433498,0,0.3,0,0,0,0,
6.38224E+17,42.69065,66.6045,86.94521,70.6878,-28.15074,-123.5584,-17.01029,-0.4441859,-4.27255,-61.44649,-6.98289,34.50468,0,0,0,126.1904,138.6304,-31.55403,-36.10317,-110.6632,-50.33768,0.001067912,-0.1257102,0.09433498,0,0.3,0,0,0,0,
6.38224E+17,43.79797,64.33681,85.66112,68.19746,-26.24637,-119.8229,-17.01029,-0.4441859,-4.27255,-61.51973,-6.909645,34.57793,0,0,0,132,133.4571,-30.6919,-36.10317,-110.6632,-50.33768,0.001067912,-0.1257102,0.09433498,0,0.3,0,0,0,0,
6.38224E+17,44.9524,62.23278,84.16689,65.56064,-23.75603,-116.4536,-17.01029,-0.4441859,-4.27255,-61.44649,-6.98289,34.57793,0,0,0,137.6191,127.7919,-30.50205,-36.10317,-110.6632,-50.33768,0.001067912,-0.1257102,0.09433498,0,0.3,0,0,0,0,
6.38224E+17,46.15396,60.29239,82.76605,63.29004,-21.19245,-113.2308,-17.01029,-0.4441859,-4.27255,-61.44649,-6.909645,34.57793,0,0,0,143.0676,122.3817,-30.93222,-36.10317,-110.6632,-50.33768,0.001067912,-0.1257102,0.09433498,0,0.3,0,0,0,0,
6.38224E+17,46.6016,59.5209,82.29912,62.55759,-20.09377,-112.3519,-17.01029,-0.4441859,-4.27255,-61.51973,-6.98289,34.57793,0,0,0,145.163,120.4038,-31.08384,-36.10317,-110.6632,-50.33768,0.001067912,-0.1257102,0.09433498,0,0.3,0,0,0,0,
6.38224E+17,47.80316,57.2766,81.1084,60.72646,-17.23721,-110.0813,-17.01029,-0.4441859,-4.27255,-61.51973,-6.98289,34.57793,0,0,0,151.009,114.9247,-31.4386,-36.10317,-110.6632,-50.33768,0.001067912,-0.1257102,0.09433498,0,0.3,0,0,0,0,
6.38224E+17,48.8398,54.79851,79.87099,59.26155,-14.16092,-107.5909,-17.01029,-0.4441859,-4.27255,-61.51973,-6.98289,34.57793,0,0,0,156.7041,108.8627,-31.35805,-36.10317,-110.6632,-50.33768,0.001067912,-0.1257102,0.09433498,0,0.3,0,0,0,0,
6.38224E+17,49.71152,52.3438,78.9371,57.7234,-10.79164,-105.9795,-17.01029,-0.4441859,-4.27255,-61.51973,-6.909645,34.57793,0,0,0,161.9714,103.3339,-31.04423,-36.10317,-110.6632,-50.33768,0.001067912,-0.1257102,0.09433498,0,0.3,0,0,0,0,
6.38224E+17,50.08848,51.08138,78.65694,57.0642,-9.25349,-105.4668,-17.01029,-0.4441859,-4.27255,-61.51973,-6.909645,34.57793,0,0,0,164.543,100.8738,-30.71448,-36.10317,-110.6632,-50.33768,0.001067912,-0.1257102,0.09433498,0,0.3,0,0,0,0,
6.38224E+17,50.70104,48.39288,78.37677,56.03876,-6.177193,-104.9541,-17.01029,-0.4441859,-4.27255,-61.51973,-6.98289,34.57793,0,0,0,169.5992,96.19118,-29.53978,-36.10317,-110.6632,-50.33768,0.001067912,-0.1257102,0.09433498,0,0.3,0,0,0,0,
6.38224E+17,51.10155,45.7979,78.04991,55.23307,-3.467122,-104.5146,-17.01029,-0.4441859,-4.27255,-61.44649,-6.98289,34.57793,0,0,0,173.8871,91.33523,-28.04859,-36.10317,-110.6632,-50.33768,0.001067912,-0.1257102,0.09433498,0,0.3,0,0,0,0,
6.38224E+17,51.24292,44.55886,77.93317,54.94009,-2.148709,-104.2949,-17.01029,-0.4441859,-4.27255,-61.44649,-6.909645,34.57793,0,0,0,175.7837,89.03676,-27.23294,-36.10317,-110.6632,-50.33768,0.001067912,-0.1257102,0.09433498,0,0.3,0,0,0,0,
6.38224E+17,51.47852,42.19766,77.44288,54.28088,0.707853,-103.0497,-17.01029,-0.4441859,-4.27255,-61.51973,-6.98289,34.57793,0,0,0,179.1248,83.9279,-25.75797,-36.10317,-110.6632,-50.33768,0.001067912,-0.1257102,0.09433498,0,0.3,0,0,0,0,
6.38224E+17,51.52563,41.21577,76.74246,54.06115,2.538982,-101.4383,-17.01029,-0.4441859,-4.27255,-61.44649,-6.98289,34.57793,0,0,0,180.1472,80.6329,-25.18595,-36.10317,-110.6632,-50.33768,0.001067912,-0.1257102,0.09433498,0,0.3,0,0,0,0,
6.38224E+17,51.52563,40.79496,76.22883,54.13439,3.710905,-100.1199,-17.01029,-0.4441859,-4.27255,-61.44649,-6.98289,34.57793,0,0,0,180.4316,78.73148,-24.95996,-36.10317,-110.6632,-50.33768,0.001067912,-0.1257102,0.09433498,0,0.3,0,0,0,0,
6.38224E+17,51.4314,40.28064,75.29494,54.86684,6.05475,-96.67741,-17.01029,-0.4441859,-4.27255,-61.51973,-6.98289,34.57793,0,0,0,180.3859,75.71502,-24.51161,-36.10317,-110.6632,-50.33768,0.001067912,-0.1257102,0.09433498,0,0.3,0,0,0,0,
6.38224E+17,51.31359,39.67281,74.291,56.11201,8.03237,-93.16164,-17.01029,-0.4441859,-4.27255,-61.51973,-6.98289,34.57793,0,0,0,180.3208,72.37626,-23.95603,-36.10317,-110.6632,-50.33768,0.001067912,-0.1257102,0.09433498,0,0.3,0,0,0,0,
6.38224E+17,51.12512,38.5039,73.07694,57.35718,9.790254,-89.93885,-17.01029,-0.4441859,-4.27255,-61.51973,-6.98289,34.57793,0,0,0,180.5622,67.55295,-22.78527,-36.10317,-110.6632,-50.33768,0.001067912,-0.1257102,0.09433498,0,0.3,0,0,0,0,
6.38224E+17,50.8424,36.93756,71.67611,58.08963,11.40165,-86.71607,-17.01029,-0.4441859,-4.27255,-61.44649,-6.98289,34.57793,0,0,0,180.8058,61.56224,-21.11104,-36.10317,-110.6632,-50.33768,0.001067912,-0.1257102,0.09433498,0,0.3,0,0,0,0,
6.38224E+17,50.67748,36.09594,70.99904,58.23612,12.1341,-84.88493,-17.01029,-0.4441859,-4.27255,-61.44649,-6.909645,34.57793,0,0,0,180.8928,58.49507,-20.17215,-36.10317,-110.6632,-50.33768,0.001067912,-0.1257102,0.09433498,0,0.3,0,0,0,0,
6.38224E+17,50.46544,34.62312,69.78498,58.5291,13.23278,-81.95513,-17.01029,-0.4441859,-4.27255,-61.44649,-6.98289,34.57793,0,0,0,181.1418,53.03792,-18.8446,-36.10317,-110.6632,-50.33768,0.001067912,-0.1257102,0.09433498,0,0.3,0,0,0,0,
6.38224E+17,50.30051,33.05678,68.52423,58.74884,14.25821,-79.24506,-17.01029,-0.4441859,-4.27255,-61.51973,-6.98289,34.57793,0,0,0,181.4693,47.26793,-17.69408,-36.10317,-110.6632,-50.33768,0.001067912,-0.1257102,0.09433498,0,0.3,0,0,0,0,
6.38224E+17,50.08848,31.09301,67.05334,58.96857,15.43013,-76.31525,-17.01029,-0.4441859,-4.27255,-61.44649,-6.909645,34.57793,0,0,0,181.7794,40.2261,-16.29667,-36.10317,-110.6632,-50.33768,0.001067912,-0.1257102,0.09433498,0,0.3,0,0,0,0,
6.38224E+17,49.97068,30.04099,66.1428,59.11506,16.08934,-74.99684,-17.01029,-0.4441859,-4.27255,-61.51973,-6.98289,34.57793,0,0,0,181.7754,36.17307,-15.66377,-36.10317,-110.6632,-50.33768,0.001067912,-0.1257102,0.09433498,0,0.3,0,0,0,0,
6.38224E+17,49.68796,27.8902,63.92481,58.96857,17.55424,-72.36002,-17.01029,-0.4441859,-4.27255,-61.51973,-6.98289,34.57793,0,0,0,181.2068,27.11425,-14.60995,-36.10317,-110.6632,-50.33768,0.001067912,-0.1257102,0.09433498,0,0.3,0,0,0,0,
6.38224E+17,49.311,25.34197,61.37996,58.60235,19.09239,-69.13722,-17.01029,-0.4441859,-4.27255,-61.51973,-6.98289,34.57793,0,0,0,180.143,16.55197,-13.46274,-36.10317,-110.6632,-50.33768,0.001067912,-0.1257102,0.09433498,0,0.3,0,0,0,0,
6.38224E+17,49.05184,24.03279,60.04917,58.23612,19.97133,-67.37935,-17.01029,-0.4441859,-4.27255,-61.51973,-6.98289,34.57793,0,0,0,179.2574,11.08217,-12.80839,-36.10317,-110.6632,-50.33768,0.001067912,-0.1257102,0.09433498,0,0.3,0,0,0,0,
6.38224E+17,48.3686,21.53132,57.55101,57.57691,21.58273,-64.2298,-17.01029,-0.4441859,-4.27255,-61.51973,-6.98289,34.57793,0,0,0,176.8238,0.7420172,-11.1851,-36.10317,-110.6632,-50.33768,0.001067912,-0.1257102,0.09433498,0,0.3,0,0,0,0,
6.38224E+17,47.6618,19.33377,55.26298,56.84446,23.19412,-61.22675,-17.01029,-0.4441859,-4.27255,-61.51973,-6.98289,34.57793,0,0,0,174.0136,-8.485974,-9.797592,-36.10317,-110.6632,-50.33768,0.001067912,-0.1257102,0.09433498,0,0.3,0,0,0,0,
6.38224E+17,46.69584,16.73879,52.76482,56.2585,24.80551,-57.78423,-17.01029,-0.4441859,-4.27255,-61.44649,-6.98289,34.57793,0,0,0,170.1907,-18.9325,-7.947097,-36.10317,-110.6632,-50.33768,0.001067912,-0.1257102,0.09433498,0,0.3,0,0,0,0,
6.38224E+17,45.84768,15.1257,51.03712,55.74578,25.7577,-55.9531,-17.01029,-0.4441859,-4.27255,-61.44649,-6.98289,34.50468,0,0,0,166.757,-25.7067,-6.455741,-36.10317,-110.6632,-50.33768,0.001067912,-0.1257102,0.09433498,0,0.3,0,0,0,0,
6.38224E+17,45.23512,14.12043,49.89311,55.4528,26.34366,-54.70793,-17.01029,-0.4441859,-4.27255,-61.51973,-6.98289,34.57793,0,0,0,164.2327,-30.02397,-5.459759,-36.10317,-110.6632,-50.33768,0.001067912,-0.1257102,0.09433498,0,0.3,0,0,0,0,
6.38224E+17,44.01001,12.13329,47.8152,54.64711,27.14936,-52.36408,-17.01029,-0.4441859,-4.27255,-61.51973,-6.98289,34.57793,0,0,0,159.2314,-38.16935,-3.51866,-36.10317,-110.6632,-50.33768,0.001067912,-0.1257102,0.09433498,0,0.3,0,0,0,0,
6.38224E+17,42.64353,10.14614,45.52717,53.62167,27.73532,-50.31322,-17.01029,-0.4441859,-4.27255,-61.44649,-6.909645,34.57793,0,0,0,153.3854,-46.58027,-1.798733,-36.10317,-110.6632,-50.33768,0.001067912,-0.1257102,0.09433498,0,0.3,0,0,0,0,
6.38224E+17,41.79537,9.164255,44.21972,53.10896,27.95506,-49.50752,-17.01029,-0.4441859,-4.27255,-61.44649,-6.909645,34.57793,0,0,0,149.7215,-50.97999,-0.8683873,-36.10317,-110.6632,-50.33768,0.001067912,-0.1257102,0.09433498,0,0.3,0,0,0,0,
6.38224E+17,39.86345,7.574538,41.3947,51.86379,28.39453,-48.04262,-17.01029,-0.4441859,-4.27255,-61.44649,-6.909645,34.57793,0,0,0,141.244,-59.10782,0.7950212,-36.10317,-110.6632,-50.33768,0.001067912,-0.1257102,0.09433498,0,0.3,0,0,0,0,
6.38224E+17,37.43678,6.569275,38.10274,50.39889,28.834,-45.40579,-17.01029,-0.4441859,-4.27255,-61.51973,-6.98289,34.57793,0,0,0,130.5502,-66.32803,2.175677,-36.10317,-110.6632,-50.33768,0.001067912,-0.1257102,0.09433498,0,0.3,0,0,0,0,
6.38224E+17,34.75095,6.38225,34.25044,48.93398,29.27347,-41.45055,-17.01029,-0.4441859,-4.27255,-61.44649,-6.98289,34.57793,0,0,0,118.3196,-72.05184,2.20095,-36.10317,-110.6632,-50.33768,0.001067912,-0.1257102,0.09433498,0,0.3,0,0,0,0,
6.38224E+17,32.86615,6.38225,31.75228,47.90855,29.4932,-38.15452,-17.01029,-0.4441859,-4.27255,-61.51973,-6.98289,34.57793,0,0,0,110.0002,-75.21835,1.904874,-36.10317,-110.6632,-50.33768,0.001067912,-0.1257102,0.09433498,0,0.3,0,0,0,0,
6.38224E+17,30.76931,6.38225,29.20743,46.73663,29.71294,-34.56551,-17.01029,-0.4441859,-4.27255,-61.44649,-6.98289,34.57793,0,0,0,101.086,-78.2224,1.43012,-36.10317,-110.6632,-50.33768,0.001067912,-0.1257102,0.09433498,0,0.3,0,0,0,0,
6.38224E+17,27.89499,6.452384,25.44852,45.05199,29.78619,-30.39053,-17.01029,-0.4441859,-4.27255,-61.51973,-6.98289,34.57793,0,0,0,88.80113,-82.07574,-0.5984028,-36.10317,-110.6632,-50.33768,0.001067912,-0.1257102,0.09433498,0,0.3,0,0,0,0,
6.38224E+17,26.29292,6.522519,23.55739,43.95331,29.85943,-28.48616,-17.01029,-0.4441859,-4.27255,-61.51973,-6.98289,34.57793,0,0,0,82.29429,-83.73891,-1.788318,-36.10317,-110.6632,-50.33768,0.001067912,-0.1257102,0.09433498,0,0.3,0,0,0,0,
6.38224E+17,20.92125,6.662788,18.07078,39.04589,30.95811,-23.57873,-17.01029,-0.4441859,-4.27255,-61.44649,-6.909645,34.57793,0,0,0,62.06607,-87.95036,-5.995704,-36.10317,-110.6632,-50.33768,0.001067912,-0.1257102,0.09433498,0,0.3,0,0,0,0,
6.38224E+17,19.41341,6.873192,16.71664,37.36125,31.25109,-22.84628,-17.01029,-0.4441859,-4.27255,-61.51973,-6.98289,34.57793,0,0,0,56.75364,-88.40619,-7.309615,-36.10317,-110.6632,-50.33768,0.001067912,-0.1257102,0.09433498,0,0.3,0,0,0,0,
6.38224E+17,15.76161,7.995345,13.89162,32.89329,31.83705,-21.7476,-17.01029,-0.4441859,-4.27255,-61.44649,-6.98289,34.57793,0,0,0,44.56704,-87.55172,-10.44973,-36.10317,-110.6632,-50.33768,0.001067912,-0.1257102,0.09433498,0,0.3,0,0,0,0,
6.38224E+17,12.4161,9.561686,12.02384,28.27885,32.34977,-21.30813,-17.01029,-0.4441859,-4.27255,-61.44649,-6.909645,34.57793,0,0,0,34.24605,-84.92375,-12.79847,-36.10317,-110.6632,-50.33768,0.001067912,-0.1257102,0.09433498,0,0.3,0,0,0,0,
6.38224E+17,9.259066,11.38519,10.80978,22.05301,32.42301,-21.0884,-17.01029,-0.4441859,-4.27255,-61.44649,-6.909645,34.57793,0,0,0,25.05766,-81.30993,-14.64345,-36.10317,-110.6632,-50.33768,0.001067912,-0.1257102,0.09433498,0,0.3,0,0,0,0,
6.38224E+17,8.882105,12.10991,10.80978,18.46399,32.27652,-21.82085,-17.01029,-0.4441859,-4.27255,-61.44649,-6.909645,34.50468,0,0,0,23.99284,-79.65855,-14.82122,-36.10317,-110.6632,-50.33768,0.001067912,-0.1257102,0.09433498,0,0.3,0,0,0,0,
6.38224E+17,9.259066,12.57747,11.01991,16.55962,32.20328,-22.40681,-17.01029,-0.4441859,-4.27255,-61.51973,-6.98289,34.57793,0,0,0,25.04224,-78.5029,-14.73805,-36.10317,-110.6632,-50.33768,0.001067912,-0.1257102,0.09433498,0,0.3,0,0,0,0,
6.38224E+17,10.93182,13.3022,11.53355,14.87498,32.05679,-23.28575,-17.01029,-0.4441859,-4.27255,-61.44649,-6.98289,34.50468,0,0,0,29.66635,-76.62526,-14.75428,-36.10317,-110.6632,-50.33768,0.001067912,-0.1257102,0.09433498,0,0.3,0,0,0,0,
6.38224E+17,13.80614,14.0503,12.3974,15.53419,31.98354,-23.79847,-17.01029,-0.4441859,-4.27255,-61.44649,-6.98289,34.50468,0,0,0,37.70224,-74.51669,-14.92492,-36.10317,-110.6632,-50.33768,0.001067912,-0.1257102,0.09433498,0,0.3,0,0,0,0,
6.38224E+17,17.36369,15.10232,13.56476,17.80479,31.9103,-24.16469,-17.01029,-0.4441859,-4.27255,-61.44649,-6.98289,34.57793,0,0,0,47.75599,-71.53677,-15.62136,-36.10317,-110.6632,-50.33768,0.001067912,-0.1257102,0.09433498,0,0.3,0,0,0,0,
6.38224E+17,19.43697,15.89718,14.38192,19.56267,31.83705,-24.45767,-17.01029,-0.4441859,-4.27255,-61.51973,-6.909645,34.57793,0,0,0,53.69971,-69.29488,-16.17486,-36.10317,-110.6632,-50.33768,0.001067912,-0.1257102,0.09433498,0,0.3,0,0,0,0,
6.38224E+17,22.7118,17.27649,15.82945,22.78546,31.39758,-25.26337,-17.01029,-0.4441859,-4.27255,-61.51973,-6.98289,34.57793,0,0,0,63.20706,-65.34039,-17.33604,-36.10317,-110.6632,-50.33768,0.001067912,-0.1257102,0.09433498,0,0.3,0,0,0,0,
6.38224E+17,26.15156,19.28702,17.90735,26.37447,30.81162,-26.94801,-17.01029,-0.4441859,-4.27255,-61.51973,-6.98289,34.57793,0,0,0,73.54664,-59.49428,-18.56394,-36.10317,-110.6632,-50.33768,0.001067912,-0.1257102,0.09433498,0,0.3,0,0,0,0,
6.38224E+17,28.67247,21.48457,19.84518,29.15779,30.07917,-28.5594,-17.01029,-0.4441859,-4.27255,-61.51973,-6.98289,34.50468,0,0,0,81.25637,-53.24128,-19.76277,-36.10317,-110.6632,-50.33768,0.001067912,-0.1257102,0.09433498,0,0.3,0,0,0,0,
6.38224E+17,30.86355,23.68212,22.01647,31.57488,29.05373,-30.31729,-17.01029,-0.4441859,-4.27255,-61.51973,-6.98289,34.57793,0,0,0,88.29144,-46.71397,-20.61254,-36.10317,-110.6632,-50.33768,0.001067912,-0.1257102,0.09433498,0,0.3,0,0,0,0,
6.38224E+17,33.73786,27.44601,25.72869,34.94416,27.2226,-33.61332,-17.01029,-0.4441859,-4.27255,-61.44649,-6.98289,34.57793,0,0,0,97.8768,-35.31696,-21.79983,-36.10317,-110.6632,-50.33768,0.001067912,-0.1257102,0.09433498,0,0.3,0,0,0,0,
6.38224E+17,36.21166,31.79436,29.62768,38.31343,24.73227,-37.20233,-17.01029,-0.4441859,-4.27255,-61.44649,-6.909645,34.57793,0,0,0,105.9033,-22.30692,-23.71321,-36.10317,-110.6632,-50.33768,0.001067912,-0.1257102,0.09433498,0,0.3,0,0,0,0,
6.38224E+17,38.0729,36.72716,33.52667,41.17,21.65597,-41.37731,-17.01029,-0.4441859,-4.27255,-61.51973,-6.98289,34.57793,0,0,0,111.3272,-8.070417,-26.23072,-36.10317,-110.6632,-50.33768,0.001067912,-0.1257102,0.09433498,0,0.3,0,0,0,0,
6.38224E+17,38.73257,39.27538,35.51119,42.34192,19.97133,-43.20844,-17.01029,-0.4441859,-4.27255,-61.44649,-6.98289,34.57793,0,0,0,113.0526,-0.780185,-27.40155,-36.10317,-110.6632,-50.33768,0.001067912,-0.1257102,0.09433498,0,0.3,0,0,0,0,
6.38224E+17,39.69854,44.90953,39.41019,44.46603,16.08934,-47.09043,-17.01029,-0.4441859,-4.27255,-61.51973,-6.98289,34.57793,0,0,0,114.4005,14.46471,-30.54677,-36.10317,-110.6632,-50.33768,0.001067912,-0.1257102,0.09433498,0,0.3,0,0,0,0,
6.38224E+17,39.91058,50.82421,43.23914,46.59014,11.25516,-51.33865,-17.01029,-0.4441859,-4.27255,-61.51973,-6.909645,34.57793,0,0,0,112.6558,29.57887,-33.66567,-36.10317,-110.6632,-50.33768,0.001067912,-0.1257102,0.09433498,0,0.3,0,0,0,0,
6.38224E+17,39.83989,53.91014,45.10692,47.46908,8.545086,-53.6825,-17.01029,-0.4441859,-4.27255,-61.51973,-6.98289,34.57793,0,0,0,110.8435,36.99278,-35.49969,-36.10317,-110.6632,-50.33768,0.001067912,-0.1257102,0.09433498,0,0.3,0,0,0,0,
6.38224E+17,38.87394,59.54428,47.8152,48.71425,2.905208,-58.95615,-17.01029,-0.4441859,-4.27255,-61.51973,-6.98289,34.57793,0,0,0,104.4351,48.75279,-38.80167,-36.10317,-110.6632,-50.33768,0.001067912,-0.1257102,0.09433498,0,0.3,0,0,0,0,
6.38224E+17,36.84778,64.45371,48.28215,49.08047,-2.954405,-64.37629,-17.01029,-0.4441859,-4.27255,-61.44649,-6.98289,34.57793,0,0,0,94.17696,54.92383,-42.67968,-36.10317,-110.6632,-50.33768,0.001067912,-0.1257102,0.09433498,0,0.3,0,0,0,0,
6.38224E+17,35.66978,66.67464,48.14206,48.71425,-5.884212,-66.28067,-17.01029,-0.4441859,-4.27255,-61.44649,-6.909645,34.57793,0,0,0,88.70284,56.81888,-44.76946,-36.10317,-110.6632,-50.33768,0.001067912,-0.1257102,0.09433498,0,0.3,0,0,0,0,
6.38224E+17,33.0075,70.43852,47.74516,47.24934,-11.30435,-69.06399,-17.01029,-0.4441859,-4.27255,-61.44649,-6.98289,34.57793,0,0,0,78.08894,59.33496,-48.13806,-36.10317,-110.6632,-50.33768,0.001067912,-0.1257102,0.09433498,0,0.3,0,0,0,0,
6.38224E+17,29.94471,73.22053,46.60114,44.97874,-16.43152,-70.52889,-17.01029,-0.4441859,-4.27255,-61.51973,-6.98289,34.57793,0,0,0,67.58042,59.40117,-51.03598,-36.10317,-110.6632,-50.33768,0.001067912,-0.1257102,0.09433498,0,0.3,0,0,0,0,
6.38224E+17,26.99972,74.52972,44.66332,41.68271,-20.02053,-70.96836,-17.01029,-0.4441859,-4.27255,-61.44649,-6.98289,34.57793,0,0,0,58.70338,57.02345,-53.1367,-36.10317,-110.6632,-50.33768,0.001067912,-0.1257102,0.09433498,0,0.3,0,0,0,0,
6.38224E+17,25.51544,74.69336,43.28583,39.5586,-21.41219,-70.60213,-17.01029,-0.4441859,-4.27255,-61.44649,-6.98289,34.57793,0,0,0,54.54738,54.89854,-54.06828,-36.10317,-110.6632,-50.33768,0.001067912,-0.1257102,0.09433498,0,0.3,0,0,0,0,
6.38224E+17,23.01808,74.34269,40.13395,34.72442,-23.24332,-67.81882,-17.01029,-0.4441859,-4.27255,-61.44649,-6.909645,34.57793,0,0,0,47.68244,49.80044,-56.11571,-36.10317,-110.6632,-50.33768,0.001067912,-0.1257102,0.09433498,0,0.3,0,0,0,0,
6.38224E+17,21.36888,73.12702,36.91203,29.52402,-23.5363,-64.30305,-17.01029,-0.4441859,-4.27255,-61.51973,-6.98289,34.50468,0,0,0,43.28488,44.33822,-57.72321,-36.10317,-110.6632,-50.33768,0.001067912,-0.1257102,0.09433498,0,0.3,0,0,0,0,
6.38224E+17,21.08616,71.53731,34.74073,25.64202,-22.87709,-61.66622,-17.01029,-0.4441859,-4.27255,-61.51973,-6.909645,34.57793,0,0,0,42.53276,40.25756,-58.04449,-36.10317,-110.6632,-50.33768,0.001067912,-0.1257102,0.09433498,0,0.3,0,0,0,0,
6.38224E+17,21.43956,69.7138,33.01303,23.37142,-21.77841,-58.51668,-17.01029,-0.4441859,-4.27255,-61.44649,-6.98289,34.57793,0,0,0,43.45546,36.60843,-57.68974,-36.10317,-110.6632,-50.33768,0.001067912,-0.1257102,0.09433498,0,0.3,0,0,0,0,
6.38224E+17,21.55737,68.70854,32.10249,22.71221,-21.11921,-57.19827,-17.01029,-0.4441859,-4.27255,-61.44649,-6.98289,34.57793,0,0,0,43.83028,34.63762,-57.40623,-36.10317,-110.6632,-50.33768,0.001067912,-0.1257102,0.09433498,0,0.3,0,0,0,0,
6.38224E+17,21.58092,66.44086,30.3281,21.68678,-19.14159,-54.92767,-17.01029,-0.4441859,-4.27255,-61.44649,-6.98289,34.57793,0,0,0,44.37122,30.48421,-56.17199,-36.10317,-110.6632,-50.33768,0.001067912,-0.1257102,0.09433498,0,0.3,0,0,0,0,
6.38224E+17,21.5338,63.7056,28.43697,20.44161,-16.87099,-53.46276,-17.01029,-0.4441859,-4.27255,-61.51973,-6.98289,34.57793,0,0,0,44.99007,25.64205,-54.33337,-36.10317,-110.6632,-50.33768,0.001067912,-0.1257102,0.09433498,0,0.3,0,0,0,0,
6.38224E+17,21.51024,62.16264,27.43304,19.70916,-15.40608,-52.95005,-17.01029,-0.4441859,-4.27255,-61.44649,-6.909645,34.57793,0,0,0,45.35878,22.91352,-53.26038,-36.10317,-110.6632,-50.33768,0.001067912,-0.1257102,0.09433498,0,0.3,0,0,0,0,
6.38224E+17,21.48668,59.21699,25.86877,18.02452,-12.69601,-52.51057,-17.01029,-0.4441859,-4.27255,-61.51973,-6.98289,34.57793,0,0,0,46.30907,17.92478,-50.7074,-36.10317,-110.6632,-50.33768,0.001067912,-0.1257102,0.09433498,0,0.3,0,0,0,0,
6.38224E+17,21.48668,56.15445,24.51463,16.0469,-9.473226,-52.36408,-17.01029,-0.4441859,-4.27255,-61.44649,-6.98289,34.57793,0,0,0,47.47069,12.77355,-47.75645,-36.10317,-110.6632,-50.33768,0.001067912,-0.1257102,0.09433498,0,0.3,0,0,0,0,
6.38224E+17,21.48668,54.5881,23.83756,15.16796,-7.935077,-52.36408,-17.01029,-0.4441859,-4.27255,-61.51973,-6.98289,34.57793,0,0,0,48.04284,10.05668,-46.30299,-36.10317,-110.6632,-50.33768,0.001067912,-0.1257102,0.09433498,0,0.3,0,0,0,0,
6.38224E+17,21.48668,51.45543,22.34333,13.55657,-5.15176,-52.29084,-17.01029,-0.4441859,-4.27255,-61.44649,-6.909645,34.57793,0,0,0,49.00427,4.307773,-43.86058,-36.10317,-110.6632,-50.33768,0.001067912,-0.1257102,0.09433498,0,0.3,0,0,0,0,
6.38224E+17,21.55737,48.22923,20.96585,12.38465,-2.295199,-52.29084,-17.01029,-0.4441859,-4.27255,-61.51973,-6.98289,34.57793,0,0,0,50.17127,-1.716855,-41.35582,-36.10317,-110.6632,-50.33768,0.001067912,-0.1257102,0.09433498,0,0.3,0,0,0,0,
6.38224E+17,21.98145,45.7979,20.17204,11.57895,0.1218917,-52.29084,-17.01029,-0.4441859,-4.27255,-61.51973,-6.98289,34.50468,0,0,0,52.01169,-6.22388,-39.49641,-36.10317,-110.6632,-50.33768,0.001067912,-0.1257102,0.09433498,0,0.3,0,0,0,0,
6.38224E+17,22.99452,43.9744,20.102,11.5057,2.246002,-52.36408,-17.01029,-0.4441859,-4.27255,-61.44649,-6.98289,34.50468,0,0,0,55.39191,-9.286797,-37.82013,-36.10317,-110.6632,-50.33768,0.001067912,-0.1257102,0.09433498,0,0.3,0,0,0,0,
6.38224E+17,23.48928,43.34319,20.14869,11.65219,2.831963,-52.29084,-17.01029,-0.4441859,-4.27255,-61.44649,-6.98289,34.57793,0,0,0,56.96189,-10.31222,-37.27958,-36.10317,-110.6632,-50.33768,0.001067912,-0.1257102,0.09433498,0,0.3,0,0,0,0,
6.38224E+17,24.78508,41.49631,20.42886,12.38465,4.223621,-52.36408,-17.01029,-0.4441859,-4.27255,-61.44649,-6.909645,34.57793,0,0,0,61.38322,-13.25917,-35.41364,-36.10317,-110.6632,-50.33768,0.001067912,-0.1257102,0.09433498,0,0.3,0,0,0,0,
6.38224E+17,26.05732,39.25201,20.68568,13.19034,5.542034,-52.58382,-17.01029,-0.4441859,-4.27255,-61.51973,-6.98289,34.57793,0,0,0,66.05172,-17.02838,-33.26705,-36.10317,-110.6632,-50.33768,0.001067912,-0.1257102,0.09433498,0,0.3,0,0,0,0,
6.38224E+17,26.66988,38.10647,20.77907,13.55657,6.201241,-52.95005,-17.01029,-0.4441859,-4.27255,-61.44649,-6.98289,34.57793,0,0,0,68.33121,-19.03271,-32.31036,-36.10317,-110.6632,-50.33768,0.001067912,-0.1257102,0.09433498,0,0.3,0,0,0,0,
6.38224E+17,28.10703,35.83878,21.01254,14.28902,7.739389,-54.12197,-17.01029,-0.4441859,-4.27255,-61.51973,-6.98289,34.57793,0,0,0,73.45618,-23.05519,-30.81944,-36.10317,-110.6632,-50.33768,0.001067912,-0.1257102,0.09433498,0,0.3,0,0,0,0,
6.38224E+17,29.75623,33.29056,21.47948,15.24121,9.424027,-55.66012,-17.01029,-0.4441859,-4.27255,-61.44649,-6.98289,34.57793,0,0,0,79.5564,-27.54484,-29.1903,-36.10317,-110.6632,-50.33768,0.001067912,-0.1257102,0.09433498,0,0.3,0,0,0,0,
6.38224E+17,31.28763,30.29815,22.01647,16.12015,11.25516,-57.418,-17.01029,-0.4441859,-4.27255,-61.44649,-6.909645,34.57793,0,0,0,85.75528,-33.00056,-27.23871,-36.10317,-110.6632,-50.33768,0.001067912,-0.1257102,0.09433498,0,0.3,0,0,0,0,
6.38224E+17,31.97087,28.61492,22.03982,16.48637,12.1341,-58.51668,-17.01029,-0.4441859,-4.27255,-61.44649,-6.98289,34.57793,0,0,0,88.47856,-36.39117,-26.59437,-36.10317,-110.6632,-50.33768,0.001067912,-0.1257102,0.09433498,0,0.3,0,0,0,0,
6.38224E+17,33.43158,24.26657,22.15656,16.92585,14.69768,-61.59297,-17.01029,-0.4441859,-4.27255,-61.51973,-6.98289,34.57793,0,0,0,94.68418,-45.34848,-24.92601,-36.10317,-110.6632,-50.33768,0.001067912,-0.1257102,0.09433498,0,0.3,0,0,0,0,
6.38224E+17,34.7745,21.11052,22.78693,16.92585,16.74854,-65.10874,-17.01029,-0.4441859,-4.27255,-61.44649,-6.98289,34.57793,0,0,0,100.4085,-51.56382,-23.74387,-36.10317,-110.6632,-50.33768,0.001067912,-0.1257102,0.09433498,0,0.3,0,0,0,0,
6.38224E+17,36.96558,17.55703,24.53798,17.21883,18.87265,-69.43021,-17.01029,-0.4441859,-4.27255,-61.44649,-6.98289,34.57793,0,0,0,109.7544,-57.73097,-22.51873,-36.10317,-110.6632,-50.33768,0.001067912,-0.1257102,0.09433498,0,0.3,0,0,0,0,
6.38224E+17,38.35562,15.94393,26.14894,17.95128,19.60511,-71.33459,-17.01029,-0.4441859,-4.27255,-61.44649,-6.98289,34.57793,0,0,0,116.0338,-59.72104,-21.71856,-36.10317,-110.6632,-50.33768,0.001067912,-0.1257102,0.09433498,0,0.3,0,0,0,0,
6.38224E+17,41.41841,13.02166,30.2814,20.5881,20.55729,-74.04465,-17.01029,-0.4441859,-4.27255,-61.44649,-6.98289,34.57793,0,0,0,130.4333,-61.75929,-20.49829,-36.10317,-110.6632,-50.33768,0.001067912,-0.1257102,0.09433498,0,0.3,0,0,0,0,
6.38224E+17,44.17493,10.33317,34.64734,24.76308,20.19107,-75.94903,-17.01029,-0.4441859,-4.27255,-61.51973,-6.98289,34.57793,0,0,0,144.2481,-62.43341,-19.88645,-36.10317,-110.6632,-50.33768,0.001067912,-0.1257102,0.09433498,0,0.3,0,0,0,0,
6.38224E+17,46.8372,7.855076,39.36349,29.45077,19.38537,-78.51261,-17.01029,-0.4441859,-4.27255,-61.44649,-6.98289,34.57793,0,0,0,158.0451,-61.52327,-20.12875,-36.10317,-110.6632,-50.33768,0.001067912,-0.1257102,0.09433498,0,0.3,0,0,0,0,
6.38224E+17,47.99164,6.943326,41.37135,31.57488,18.79941,-79.75778,-17.01029,-0.4441859,-4.27255,-61.44649,-6.98289,34.57793,0,0,0,163.8478,-60.60104,-20.77747,-36.10317,-110.6632,-50.33768,0.001067912,-0.1257102,0.09433498,0,0.3,0,0,0,0,
6.38224E+17,49.9,6.101711,44.4065,35.31038,17.55424,-82.76083,-17.01029,-0.4441859,-4.27255,-61.51973,-6.98289,34.57793,0,0,0,172.7999,-57.74007,-22.83895,-36.10317,-110.6632,-50.33768,0.001067912,-0.1257102,0.09433498,0,0.3,0,0,0,0,
6.38224E+17,51.36071,6.101711,46.55445,38.60641,16.45556,-85.10468,-17.01029,-0.4441859,-4.27255,-61.44649,-6.98289,34.57793,0,0,0,179.1908,-54.17585,-25.10264,-36.10317,-110.6632,-50.33768,0.001067912,-0.1257102,0.09433498,0,0.3,0,0,0,0,
6.38224E+17,52.44447,6.125089,48.49227,41.31649,15.50338,-86.78931,-17.01029,-0.4441859,-4.27255,-61.51973,-6.98289,34.57793,0,0,0,184.2778,-50.79548,-26.66471,-36.10317,-110.6632,-50.33768,0.001067912,-0.1257102,0.09433498,0,0.3,0,0,0,0,
6.38224E+17,52.86855,6.125089,49.40281,42.48841,15.2104,-87.22878,-17.01029,-0.4441859,-4.27255,-61.51973,-6.98289,34.57793,0,0,0,186.431,-49.1974,-27.19239,-36.10317,-110.6632,-50.33768,0.001067912,-0.1257102,0.09433498,0,0.3,0,0,0,0,
6.38224E+17,53.33975,6.125089,50.73361,44.9055,14.77092,-87.7415,-17.01029,-0.4441859,-4.27255,-61.51973,-6.98289,34.57793,0,0,0,189.1804,-46.82242,-27.54336,-36.10317,-110.6632,-50.33768,0.001067912,-0.1257102,0.09433498,0,0.3,0,0,0,0,
6.38224E+17,53.17484,6.125089,51.01377,46.80988,14.77092,-87.88799,-17.01029,-0.4441859,-4.27255,-61.51973,-6.98289,34.57793,0,0,0,189.1037,-46.31658,-26.75278,-36.10317,-110.6632,-50.33768,0.001067912,-0.1257102,0.09433498,0,0.3,0,0,0,0,
6.38224E+17,52.84499,6.054955,50.99043,47.68882,14.84417,-87.81474,-17.01029,-0.4441859,-4.27255,-61.44649,-6.98289,34.57793,0,0,0,188.2719,-46.52112,-25.6767,-36.10317,-110.6632,-50.33768,0.001067912,-0.1257102,0.09433498,0,0.3,0,0,0,0,
6.38224E+17,52.09107,5.58739,50.99043,48.71425,15.28364,-85.91037,-17.01029,-0.4441859,-4.27255,-61.51973,-6.909645,34.50468,0,0,0,186.4654,-47.60371,-23.14396,-36.10317,-110.6632,-50.33768,0.001067912,-0.1257102,0.09433498,0,0.3,0,0,0,0,
6.38224E+17,51.03088,4.535372,50.85035,49.81293,16.08934,-82.02838,-17.01029,-0.4441859,-4.27255,-61.44649,-6.98289,34.57793,0,0,0,183.7549,-50.29568,-19.71208,-36.10317,-110.6632,-50.33768,0.001067912,-0.1257102,0.09433498,0,0.3,0,0,0,0,
6.38224E+17,49.14608,2.08066,49.68298,51.13134,17.84722,-75.14333,-17.01029,-0.4441859,-4.27255,-61.44649,-6.909645,34.57793,0,0,0,177.7026,-58.08817,-14.66918,-36.10317,-110.6632,-50.33768,0.001067912,-0.1257102,0.09433498,0,0.3,0,0,0,0,
6.38224E+17,47.6618,-0.07013461,48.11871,51.86379,19.38537,-69.50346,-17.01029,-0.4441859,-4.27255,-61.44649,-6.98289,34.50468,0,0,0,171.9581,-65.83628,-11.67045,-36.10317,-110.6632,-50.33768,0.001067912,-0.1257102,0.09433498,0,0.3,0,0,0,0,
6.38224E+17,46.53092,-1.098776,46.71788,52.08353,20.4108,-65.84119,-17.01029,-0.4441859,-4.27255,-61.44649,-6.98289,34.50468,0,0,0,167.2137,-70.63072,-9.841601,-36.10317,-110.6632,-50.33768,0.001067912,-0.1257102,0.09433498,0,0.3,0,0,0,0,
6.38224E+17,44.17493,-0.8883717,41.74491,52.01028,22.60816,-58.07721,-17.01029,-0.4441859,-4.27255,-61.44649,-6.98289,34.50468,0,0,0,154.7849,-78.21215,-9.041739,-36.10317,-110.6632,-50.33768,0.001067912,-0.1257102,0.09433498,0,0.3,0,0,0,0,
6.38224E+17,41.30061,-1.005263,40.25069,50.83836,23.92657,-52.73031,-17.01029,-0.4441859,-4.27255,-61.51973,-6.98289,34.57793,0,0,0,144.8664,-80.76554,-3.455585,-36.10317,-110.6632,-50.33768,0.001067912,-0.1257102,0.09433498,0,0.3,0,0,0,0,
6.38224E+17,39.9577,-0.9351282,40.27403,50.17915,24.58578,-50.53296,-17.01029,-0.4441859,-4.27255,-61.51973,-6.98289,34.57793,0,0,0,140.9905,-80.56721,-0.0718563,-36.10317,-110.6632,-50.33768,0.001067912,-0.1257102,0.09433498,0,0.3,0,0,0,0,
6.38224E+17,37.46034,-0.8883717,40.53086,48.86074,25.68446,-46.94394,-17.01029,-0.4441859,-4.27255,-61.51973,-6.98289,34.57793,0,0,0,133.8021,-80.071,6.274416,-36.10317,-110.6632,-50.33768,0.001067912,-0.1257102,0.09433498,0,0.3,0,0,0,0,
6.38224E+17,34.79806,-0.9818845,40.25069,47.24934,26.5634,-44.30712,-17.01029,-0.4441859,-4.27255,-61.44649,-6.909645,34.57793,0,0,0,125.2611,-80.71114,11.89014,-36.10317,-110.6632,-50.33768,0.001067912,-0.1257102,0.09433498,0,0.3,0,0,0,0,
6.38224E+17,33.31378,-0.9818845,39.7137,46.07742,26.85638,-43.50142,-17.01029,-0.4441859,-4.27255,-61.51973,-6.909645,34.50468,0,0,0,120.0244,-81.51418,14.27399,-36.10317,-110.6632,-50.33768,0.001067912,-0.1257102,0.09433498,0,0.3,0,0,0,0,
6.38224E+17,29.30859,-0.9818845,37.6358,42.19543,27.58883,-42.3295,-17.01029,-0.4441859,-4.27255,-61.44649,-6.98289,34.57793,0,0,0,105.1275,-84.5361,18.91919,-36.10317,-110.6632,-50.33768,0.001067912,-0.1257102,0.09433498,0,0.3,0,0,0,0,
6.38224E+17,26.41072,-0.9818845,36.28165,38.75291,28.10155,-42.03651,-17.01029,-0.4441859,-4.27255,-61.51973,-6.98289,34.50468,0,0,0,94.40535,-86.43094,21.73907,-36.10317,-110.6632,-50.33768,0.001067912,-0.1257102,0.09433498,0,0.3,0,0,0,0,
6.38224E+17,22.80604,-0.9818845,34.64734,33.69899,28.98049,-41.81678,-17.01029,-0.4441859,-4.27255,-61.44649,-6.98289,34.57793,0,0,0,81.06653,-88.63776,24.44273,-36.10317,-110.6632,-50.33768,0.001067912,-0.1257102,0.09433498,0,0.3,0,0,0,0,
6.38224E+17,21.01549,-0.9818845,33.83019,31.06216,29.41996,-41.81678,-17.01029,-0.4441859,-4.27255,-61.44649,-6.98289,34.57793,0,0,0,74.43909,-89.7078,25.41394,-36.10317,-110.6632,-50.33768,0.001067912,-0.1257102,0.09433498,0,0.3,0,0,0,0,
6.38224E+17,15.47889,-0.9818845,31.68224,23.95738,30.73837,-41.74353,-17.01029,-0.4441859,-4.27255,-61.44649,-6.98289,34.57793,0,0,0,54.27525,-92.4125,27.64054,-36.10317,-110.6632,-50.33768,0.001067912,-0.1257102,0.09433498,0,0.3,0,0,0,0,
6.38224E+17,13.26426,-0.9818845,30.88843,21.76003,31.1046,-41.59705,-17.01029,-0.4441859,-4.27255,-61.44649,-6.98289,34.50468,0,0,0,46.29877,-93.3719,28.05478,-36.10317,-110.6632,-50.33768,0.001067912,-0.1257102,0.09433498,0,0.3,0,0,0,0,
6.38224E+17,8.575826,-0.9818845,29.18408,16.99909,31.61732,-40.93784,-17.01029,-0.4441859,-4.27255,-61.51973,-6.98289,34.57793,0,0,0,29.57821,-95.35735,27.78644,-36.10317,-110.6632,-50.33768,0.001067912,-0.1257102,0.09433498,0,0.3,0,0,0,0,
6.38224E+17,3.486874,-0.9818845,27.66651,11.65219,32.13003,-40.49837,-17.01029,-0.4441859,-4.27255,-61.44649,-6.909645,34.57793,0,0,0,11.87496,-97.03857,26.53663,-36.10317,-110.6632,-50.33768,0.001067912,-0.1257102,0.09433498,0,0.3,0,0,0,0,
6.38224E+17,0.6361189,-0.9818845,27.08283,8.209671,32.42301,-40.35188,-17.01029,-0.4441859,-4.27255,-61.51973,-6.909645,34.50468,0,0,0,2.154279,-97.6632,25.67979,-36.10317,-110.6632,-50.33768,0.001067912,-0.1257102,0.09433498,0,0.3,0,0,0,0,
6.38224E+17,-4.759112,-0.9585064,26.56919,0.8851534,32.86248,-40.27863,-17.01029,-0.4441859,-4.27255,-61.44649,-6.98289,34.57793,0,0,0,-16.01057,-98.14828,23.96057,-36.10317,-110.6632,-50.33768,0.001067912,-0.1257102,0.09433498,0,0.3,0,0,0,0,
6.38224E+17,-10.10722,-0.8883717,26.59254,-7.318305,33.30195,-40.20539,-17.01029,-0.4441859,-4.27255,-61.44649,-6.98289,34.50468,0,0,0,-33.87449,-97.96075,21.68154,-36.10317,-110.6632,-50.33768,0.001067912,-0.1257102,0.09433498,0,0.3,0,0,0,0,
6.38224E+17,-14.81922,-0.3974294,26.82601,-15.37527,32.93573,-40.57161,-17.01029,-0.4441859,-4.27255,-61.44649,-6.909645,34.57793,0,0,0,-49.49797,-96.57398,18.73823,-36.10317,-110.6632,-50.33768,0.001067912,-0.1257102,0.09433498,0,0.3,0,0,0,0,
6.38224E+17,-16.68045,0.09351282,26.82601,-18.89104,32.71599,-40.79135,-17.01029,-0.4441859,-4.27255,-61.51973,-6.98289,34.57793,0,0,0,-55.54917,-95.43137,17.03478,-36.10317,-110.6632,-50.33768,0.001067912,-0.1257102,0.09433498,0,0.3,0,0,0,0,
6.38224E+17,-20.02597,1.145532,26.61588,-25.33662,32.13003,-40.93784,-17.01029,-0.4441859,-4.27255,-61.51973,-6.98289,34.57793,0,0,0,-66.11436,-93.20298,13.04188,-36.10317,-110.6632,-50.33768,0.001067912,-0.1257102,0.09433498,0,0.3,0,0,0,0,
6.38224E+17,-23.01808,1.729987,26.26567,-29.80457,31.17784,-38.88697,-17.01029,-0.4441859,-4.27255,-61.44649,-6.909645,34.57793,0,0,0,-75.1939,-92.20609,8.640403,-36.10317,-110.6632,-50.33768,0.001067912,-0.1257102,0.09433498,0,0.3,0,0,0,0,
6.38224E+17,-24.54948,1.800122,26.26567,-31.70894,30.51864,-36.9826,-17.01029,-0.4441859,-4.27255,-61.44649,-6.909645,34.57793,0,0,0,-79.89497,-92.04293,6.563076,-36.10317,-110.6632,-50.33768,0.001067912,-0.1257102,0.09433498,0,0.3,0,0,0,0,
6.38224E+17,-27.04683,2.033904,26.4758,-35.07822,29.27347,-33.68657,-17.01029,-0.4441859,-4.27255,-61.51973,-6.98289,34.57793,0,0,0,-87.63159,-91.28191,3.289688,-36.10317,-110.6632,-50.33768,0.001067912,-0.1257102,0.09433498,0,0.3,0,0,0,0,
6.38224E+17,-30.01539,2.571602,27.08283,-39.69267,27.66208,-31.41597,-17.01029,-0.4441859,-4.27255,-61.44649,-6.98289,34.57793,0,0,0,-97.00863,-89.39495,-0.4303084,-36.10317,-110.6632,-50.33768,0.001067912,-0.1257102,0.09433498,0,0.3,0,0,0,0,
6.38224E+17,-31.59391,3.156058,27.40969,-42.54923,26.78313,-30.75676,-17.01029,-0.4441859,-4.27255,-61.44649,-6.909645,34.57793,0,0,0,-101.9162,-87.68812,-2.648115,-36.10317,-110.6632,-50.33768,0.001067912,-0.1257102,0.09433498,0,0.3,0,0,0,0,
6.38224E+17,-32.65411,3.576865,27.54977,-44.38036,26.12393,-30.46378,-17.01029,-0.4441859,-4.27255,-61.44649,-6.909645,34.57793,0,0,0,-105.0897,-86.55998,-4.36712,-36.10317,-110.6632,-50.33768,0.001067912,-0.1257102,0.09433498,0,0.3,0,0,0,0,
6.38224E+17,-34.60958,4.137942,27.89998,-47.82288,24.87876,-30.1708,-17.01029,-0.4441859,-4.27255,-61.44649,-6.98289,34.57793,0,0,0,-110.984,-84.87791,-7.527063,-36.10317,-110.6632,-50.33768,0.001067912,-0.1257102,0.09433498,0,0.3,0,0,0,0,
6.38224E+17,-36.61218,4.254833,28.32023,-50.89918,23.85333,-30.02431,-17.01029,-0.4441859,-4.27255,-61.44649,-6.98289,34.57793,0,0,0,-117.0388,-84.14574,-10.82708,-36.10317,-110.6632,-50.33768,0.001067912,-0.1257102,0.09433498,0,0.3,0,0,0,0,
6.38224E+17,-38.47342,4.254833,28.78718,-53.24303,23.04763,-29.95106,-17.01029,-0.4441859,-4.27255,-61.51973,-6.98289,34.57793,0,0,0,-122.6871,-83.62628,-13.96416,-36.10317,-110.6632,-50.33768,0.001067912,-0.1257102,0.09433498,0,0.3,0,0,0,0,
6.38224E+17,-39.39226,4.254833,28.90392,-54.41495,22.75465,-29.95106,-17.01029,-0.4441859,-4.27255,-61.44649,-6.98289,34.57793,0,0,0,-125.2981,-83.49521,-15.76751,-36.10317,-110.6632,-50.33768,0.001067912,-0.1257102,0.09433498,0,0.3,0,0,0,0,
6.38224E+17,-41.01789,4.16132,28.92726,-56.46581,22.31518,-29.87782,-17.01029,-0.4441859,-4.27255,-61.51973,-6.98289,34.57793,0,0,0,-129.618,-83.68599,-19.33556,-36.10317,-110.6632,-50.33768,0.001067912,-0.1257102,0.09433498,0,0.3,0,0,0,0,
6.38224E+17,-42.57285,3.927538,28.92726,-58.22369,22.38842,-29.87782,-17.01029,-0.4441859,-4.27255,-61.51973,-6.98289,34.50468,0,0,0,-133.6398,-84.22874,-22.87946,-36.10317,-110.6632,-50.33768,0.001067912,-0.1257102,0.09433498,0,0.3,0,0,0,0,
6.38224E+17,-43.96289,3.90416,28.92726,-59.6886,22.75465,-29.87782,-17.01029,-0.4441859,-4.27255,-61.44649,-6.98289,34.57793,0,0,0,-137.132,-84.28302,-26.16147,-36.10317,-110.6632,-50.33768,0.001067912,-0.1257102,0.09433498,0,0.3,0,0,0,0,
6.38224E+17,-44.57545,3.90416,29.02065,-60.34781,22.97438,-29.80457,-17.01029,-0.4441859,-4.27255,-61.44649,-6.909645,34.57793,0,0,0,-138.7777,-84.17773,-27.50023,-36.10317,-110.6632,-50.33768,0.001067912,-0.1257102,0.09433498,0,0.3,0,0,0,0,
6.38224E+17,-45.94193,3.90416,29.16073,-61.73947,23.56034,-29.87782,-17.01029,-0.4441859,-4.27255,-61.44649,-6.98289,34.57793,0,0,0,-142.3019,-84.01922,-30.65164,-36.10317,-110.6632,-50.33768,0.001067912,-0.1257102,0.09433498,0,0.3,0,0,0,0,
6.38224E+17,-47.49688,3.880782,29.67438,-63.20437,24.21955,-30.31729,-17.01029,-0.4441859,-4.27255,-61.44649,-6.98289,34.57793,0,0,0,-146.7565,-83.48634,-33.85778,-36.10317,-110.6632,-50.33768,0.001067912,-0.1257102,0.09433498,0,0.3,0,0,0,0,
6.38224E+17,-49.14608,3.717134,30.14132,-65.32848,24.87876,-31.48921,-17.01029,-0.4441859,-4.27255,-61.51973,-6.98289,34.57793,0,0,0,-151.298,-83.3245,-37.50441,-36.10317,-110.6632,-50.33768,0.001067912,-0.1257102,0.09433498,0,0.3,0,0,0,0,
6.38224E+17,-49.80576,3.483352,30.2814,-66.28067,25.02525,-32.14842,-17.01029,-0.4441859,-4.27255,-61.44649,-6.98289,34.57793,0,0,0,-153.0357,-83.70348,-39.05114,-36.10317,-110.6632,-50.33768,0.001067912,-0.1257102,0.09433498,0,0.3,0,0,0,0,
6.38224E+17,-51.05444,2.852141,30.725,-67.96531,25.39147,-33.68657,-17.01029,-0.4441859,-4.27255,-61.51973,-6.98289,34.57793,0,0,0,-156.572,-84.64626,-41.8066,-36.10317,-110.6632,-50.33768,0.001067912,-0.1257102,0.09433498,0,0.3,0,0,0,0,
6.38224E+17,-52.256,2.47809,31.02851,-69.5767,25.68446,-35.07822,-17.01029,-0.4441859,-4.27255,-61.44649,-6.98289,34.57793,0,0,0,-159.7026,-85.15337,-44.72177,-36.10317,-110.6632,-50.33768,0.001067912,-0.1257102,0.09433498,0,0.3,0,0,0,0,
6.38224E+17,-53.29263,2.431333,31.02851,-71.0416,25.90419,-36.46988,-17.01029,-0.4441859,-4.27255,-61.44649,-6.909645,34.57793,0,0,0,-161.9168,-85.26208,-47.62852,-36.10317,-110.6632,-50.33768,0.001067912,-0.1257102,0.09433498,0,0.3,0,0,0,0,
6.38224E+17,-53.69315,2.47809,31.05186,-71.77406,26.27042,-37.27558,-17.01029,-0.4441859,-4.27255,-61.51973,-6.909645,34.57793,0,0,0,-162.7905,-85.12534,-48.73851,-36.10317,-110.6632,-50.33768,0.001067912,-0.1257102,0.09433498,0,0.3,0,0,0,0,
6.38224E+17,-54.11723,3.24957,31.05186,-72.79948,26.85638,-37.86154,-17.01029,-0.4441859,-4.27255,-61.44649,-6.909645,34.57793,0,0,0,-163.5987,-83.33206,-49.99927,-36.10317,-110.6632,-50.33768,0.001067912,-0.1257102,0.09433498,0,0.3,0,0,0,0,
6.38224E+17,-54.14079,5.119827,31.05186,-73.3122,27.29585,-35.81068,-17.01029,-0.4441859,-4.27255,-61.51973,-6.909645,34.57793,0,0,0,-163.3899,-78.99103,-50.25261,-36.10317,-110.6632,-50.33768,0.001067912,-0.1257102,0.09433498,0,0.3,0,0,0,0,
6.38224E+17,-54.04655,6.686166,31.05186,-73.45869,27.36909,-34.19928,-17.01029,-0.4441859,-4.27255,-61.44649,-6.98289,34.50468,0,0,0,-162.892,-75.36498,-50.20414,-36.10317,-110.6632,-50.33768,0.001067912,-0.1257102,0.09433498,0,0.3,0,0,0,0,
6.38224E+17,-53.48111,12.25018,30.93513,-74.55737,26.78313,-31.34272,-17.01029,-0.4441859,-4.27255,-61.44649,-6.909645,34.57793,0,0,0,-159.8196,-62.73665,-50.00814,-36.10317,-110.6632,-50.33768,0.001067912,-0.1257102,0.09433498,0,0.3,0,0,0,0,
6.38224E+17,-52.63295,18.42202,30.95848,-75.94903,25.61121,-30.24404,-17.01029,-0.4441859,-4.27255,-61.44649,-6.909645,34.57793,0,0,0,-155.0695,-48.86257,-49.9317,-36.10317,-110.6632,-50.33768,0.001067912,-0.1257102,0.09433498,0,0.3,0,0,0,0,
6.38224E+17,-52.02039,22.23267,30.98182,-76.60824,24.51253,-29.87782,-17.01029,-0.4441859,-4.27255,-61.51973,-6.98289,34.57793,0,0,0,-151.4033,-40.51958,-50.14753,-36.10317,-110.6632,-50.33768,0.001067912,-0.1257102,0.09433498,0,0.3,0,0,0,0,
6.38224E+17,-50.30051,29.85397,31.19195,-77.41393,21.94895,-28.92563,-17.01029,-0.4441859,-4.27255,-61.44649,-6.98289,34.57793,0,0,0,-142.1222,-24.34209,-50.36006,-36.10317,-110.6632,-50.33768,0.001067912,-0.1257102,0.09433498,0,0.3,0,0,0,0,
6.38224E+17,-48.32148,37.54539,32.33596,-76.82797,19.16564,-28.04669,-17.01029,-0.4441859,-4.27255,-61.51973,-6.98289,34.57793,0,0,0,-132.2409,-8.058789,-50.61658,-36.10317,-110.6632,-50.33768,0.001067912,-0.1257102,0.09433498,0,0.3,0,0,0,0,
6.38224E+17,-46.34245,45.4706,33.66676,-75.94903,15.94285,-27.31424,-17.01029,-0.4441859,-4.27255,-61.51973,-6.98289,34.57793,0,0,0,-121.1387,7.429992,-52.75893,-36.10317,-110.6632,-50.33768,0.001067912,-0.1257102,0.09433498,0,0.3,0,0,0,0,
6.38224E+17,-44.26917,52.71785,33.99362,-74.48412,12.42708,-26.94801,-17.01029,-0.4441859,-4.27255,-61.44649,-6.909645,34.57793,0,0,0,-108.4261,18.89109,-57.12196,-36.10317,-110.6632,-50.33768,0.001067912,-0.1257102,0.09433498,0,0.3,0,0,0,0,
6.38224E+17,-43.06761,56.08431,33.99362,-73.53194,10.74244,-26.94801,-17.01029,-0.4441859,-4.27255,-61.51973,-6.909645,34.57793,0,0,0,-101.7201,23.4513,-59.52628,-36.10317,-110.6632,-50.33768,0.001067912,-0.1257102,0.09433498,0,0.3,0,0,0,0,
6.38224E+17,-40.19329,62.39642,34.20374,-71.0416,7.446409,-27.46073,-17.01029,-0.4441859,-4.27255,-61.44649,-6.98289,34.50468,0,0,0,-88.25342,31.23509,-63.89138,-36.10317,-110.6632,-50.33768,0.001067912,-0.1257102,0.09433498,0,0.3,0,0,0,0,
6.38224E+17,-37.17762,67.79679,34.25044,-68.18504,4.516602,-28.7059,-17.01029,-0.4441859,-4.27255,-61.51973,-6.98289,34.57793,0,0,0,-75.80361,36.58685,-68.40138,-36.10317,-110.6632,-50.33768,0.001067912,-0.1257102,0.09433498,0,0.3,0,0,0,0,
6.38224E+17,-35.29282,70.43852,34.27379,-66.42715,2.978453,-29.73133,-17.01029,-0.4441859,-4.27255,-61.44649,-6.98289,34.57793,0,0,0,-69.18261,38.80883,-70.61394,-36.10317,-110.6632,-50.33768,0.001067912,-0.1257102,0.09433498,0,0.3,0,0,0,0,
6.38224E+17,-31.19339,74.92714,34.27379,-62.61841,0.1951368,-32.07517,-17.01029,-0.4441859,-4.27255,-61.51973,-6.98289,34.57793,0,0,0,-56.85458,41.91764,-74.44747,-36.10317,-110.6632,-50.33768,0.001067912,-0.1257102,0.09433498,0,0.3,0,0,0,0,
6.38224E+17,-27.14108,78.27023,34.13371,-58.51668,-2.368444,-35.15147,-17.01029,-0.4441859,-4.27255,-61.51973,-6.98289,34.57793,0,0,0,-46.50133,43.53744,-77.63885,-36.10317,-110.6632,-50.33768,0.001067912,-0.1257102,0.09433498,0,0.3,0,0,0,0,
6.38224E+17,-22.8296,80.67818,33.43328,-54.04872,-4.639044,-39.03346,-17.01029,-0.4441859,-4.27255,-61.51973,-6.98289,34.57793,0,0,0,-36.88687,43.65469,-80.72636,-36.10317,-110.6632,-50.33768,0.001067912,-0.1257102,0.09433498,0,0.3,0,0,0,0,
6.38224E+17,-20.89769,81.28601,32.84961,-51.85137,-5.591231,-41.01108,-17.01029,-0.4441859,-4.27255,-61.51973,-6.909645,34.57793,0,0,0,-33.00784,43.13375,-81.90055,-36.10317,-110.6632,-50.33768,0.001067912,-0.1257102,0.09433498,0,0.3,0,0,0,0,
6.38224E+17,-17.12809,81.54317,32.75621,-46.94394,-6.909645,-44.74659,-17.01029,-0.4441859,-4.27255,-61.44649,-6.98289,34.57793,0,0,0,-27.02476,43.10535,-80.65765,-36.10317,-110.6632,-50.33768,0.001067912,-0.1257102,0.09433498,0,0.3,0,0,0,0,
6.38224E+17,-13.05222,81.54317,32.75621,-42.47599,-8.154812,-46.35798,-17.01029,-0.4441859,-4.27255,-61.44649,-6.98289,34.57793,0,0,0,-20.72346,43.10535,-78.9586,-36.10317,-110.6632,-50.33768,0.001067912,-0.1257102,0.09433498,0,0.3,0,0,0,0,
6.38224E+17,-10.81402,81.49641,32.75621,-39.98565,-8.740773,-46.79745,-17.01029,-0.4441859,-4.27255,-61.44649,-6.909645,34.57793,0,0,0,-17.23676,43.0893,-78.11174,-36.10317,-110.6632,-50.33768,0.001067912,-0.1257102,0.09433498,0,0.3,0,0,0,0,
6.38224E+17,-5.206751,81.23926,32.63948,-33.75981,-9.985942,-47.38342,-17.01029,-0.4441859,-4.27255,-61.44649,-6.909645,34.57793,0,0,0,-8.370124,42.8527,-76.49774,-36.10317,-110.6632,-50.33768,0.001067912,-0.1257102,0.09433498,0,0.3,0,0,0,0,
6.38224E+17,-0.4005193,80.39764,32.21923,-27.46073,-10.93813,-47.60315,-17.01029,-0.4441859,-4.27255,-61.51973,-6.98289,34.57793,0,0,0,-0.6524834,42.01565,-75.01134,-36.10317,-110.6632,-50.33768,0.001067912,-0.1257102,0.09433498,0,0.3,0,0,0,0,
6.38224E+17,1.884797,79.62616,31.68224,-23.94496,-11.15786,-48.11587,-17.01029,-0.4441859,-4.27255,-61.44649,-6.909645,34.57793,0,0,0,3.093263,41.04285,-74.35207,-36.10317,-110.6632,-50.33768,0.001067912,-0.1257102,0.09433498,0,0.3,0,0,0,0,
6.38224E+17,5.230311,77.73253,30.21136,-17.93885,-11.15786,-50.82594,-17.01029,-0.4441859,-4.27255,-61.44649,-6.98289,34.57793,0,0,0,8.699726,38.41739,-73.31316,-36.10317,-110.6632,-50.33768,0.001067912,-0.1257102,0.09433498,0,0.3,0,0,0,0,
6.38224E+17,7.963267,75.55836,28.43697,-13.4709,-10.5719,-55.22065,-17.01029,-0.4441859,-4.27255,-61.44649,-6.98289,34.57793,0,0,0,13.40452,35.22623,-72.52618,-36.10317,-110.6632,-50.33768,0.001067912,-0.1257102,0.09433498,0,0.3,0,0,0,0,
6.38224E+17,10.4135,72.93999,26.52249,-10.32136,-8.814018,-60.12807,-17.01029,-0.4441859,-4.27255,-61.51973,-6.909645,34.57793,0,0,0,17.83445,31.51621,-71.30656,-36.10317,-110.6632,-50.33768,0.001067912,-0.1257102,0.09433498,0,0.3,0,0,0,0,
6.38224E+17,11.7093,71.37366,25.44852,-8.929699,-7.788587,-62.91139,-17.01029,-0.4441859,-4.27255,-61.51973,-6.909645,34.57793,0,0,0,20.27267,29.30407,-70.53694,-36.10317,-110.6632,-50.33768,0.001067912,-0.1257102,0.09433498,0,0.3,0,0,0,0,
6.38224E+17,14.13598,67.93706,23.27722,-6.878834,-5.444741,-67.74557,-17.01029,-0.4441859,-4.27255,-61.44649,-6.909645,34.57793,0,0,0,25.10302,24.43923,-68.67562,-36.10317,-110.6632,-50.33768,0.001067912,-0.1257102,0.09433498,0,0.3,0,0,0,0,
6.38224E+17,17.08097,62.16264,20.07865,-4.754725,-2.002218,-73.45869,-17.01029,-0.4441859,-4.27255,-61.51973,-6.98289,34.57793,0,0,0,31.73673,16.02301,-65.06611,-36.10317,-110.6632,-50.33768,0.001067912,-0.1257102,0.09433498,0,0.3,0,0,0,0,
6.38224E+17,18.87153,57.37011,17.72057,-3.363066,0.9275885,-76.82797,-17.01029,-0.4441859,-4.27255,-61.51973,-6.98289,34.57793,0,0,0,36.38526,8.630691,-61.90477,-36.10317,-110.6632,-50.33768,0.001067912,-0.1257102,0.09433498,0,0.3,0,0,0,0,
6.38224E+17,19.88461,54.1673,16.31974,-2.557369,3.051698,-78.43936,-17.01029,-0.4441859,-4.27255,-61.51973,-6.98289,34.57793,0,0,0,39.29718,3.483685,-59.70153,-36.10317,-110.6632,-50.33768,0.001067912,-0.1257102,0.09433498,0,0.3,0,0,0,0,
6.38224E+17,21.91076,46.59276,13.65815,-0.9459759,8.325351,-81.36917,-17.01029,-0.4441859,-4.27255,-61.44649,-6.98289,34.57793,0,0,0,45.94487,-9.351956,-54.12056,-36.10317,-110.6632,-50.33768,0.001067912,-0.1257102,0.09433498,0,0.3,0,0,0,0,
6.38224E+17,23.48928,38.55066,12.09388,0.299192,14.25821,-83.71302,-17.01029,-0.4441859,-4.27255,-61.44649,-6.98289,34.57793,0,0,0,52.70234,-23.93582,-47.08088,-36.10317,-110.6632,-50.33768,0.001067912,-0.1257102,0.09433498,0,0.3,0,0,0,0,
6.38224E+17,24.17252,34.06204,12.02384,0.738663,17.84722,-84.95818,-17.01029,-0.4441859,-4.27255,-61.51973,-6.909645,34.57793,0,0,0,56.61164,-32.38639,-42.22164,-36.10317,-110.6632,-50.33768,0.001067912,-0.1257102,0.09433498,0,0.3,0,0,0,0,
6.38224E+17,25.09136,26.16021,12.91104,1.104889,24.43929,-87.15554,-17.01029,-0.4441859,-4.27255,-61.44649,-6.909645,34.57793,0,0,0,63.39133,-47.83697,-32.97085,-36.10317,-110.6632,-50.33768,0.001067912,-0.1257102,0.09433498,0,0.3,0,0,0,0,
6.38224E+17,25.46832,19.26364,14.47531,0.3724372,30.15241,-90.81779,-17.01029,-0.4441859,-4.27255,-61.51973,-6.98289,34.57793,0,0,0,68.46492,-61.77265,-24.60581,-36.10317,-110.6632,-50.33768,0.001067912,-0.1257102,0.09433498,0,0.3,0,0,0,0,
6.38224E+17,25.82172,14.00354,16.73999,-1.531937,34.32739,-95.87171,-17.01029,-0.4441859,-4.27255,-61.44649,-6.98289,34.57793,0,0,0,73.08712,-72.08057,-17.30816,-36.10317,-110.6632,-50.33768,0.001067912,-0.1257102,0.09433498,0,0.3,0,0,0,0,
6.38224E+17,26.52852,11.85275,18.02409,-2.777105,36.305,-98.72827,-17.01029,-0.4441859,-4.27255,-61.51973,-6.909645,34.57793,0,0,0,76.7188,-76.06634,-14.66749,-36.10317,-110.6632,-50.33768,0.001067912,-0.1257102,0.09433498,0,0.3,0,0,0,0,
6.38224E+17,27.91855,10.96438,19.07472,-3.582802,37.62342,-100.6326,-17.01029,-0.4441859,-4.27255,-61.44649,-6.98289,34.50468,0,0,0,81.70119,-77.31519,-14.16405,-36.10317,-110.6632,-50.33768,0.001067912,-0.1257102,0.09433498,0,0.3,0,0,0,0,
6.38224E+17,30.62795,10.96438,21.08258,-2.777105,37.98964,-101.8046,-17.01029,-0.4441859,-4.27255,-61.44649,-6.98289,34.57793,0,0,0,91.13422,-75.71095,-14.42187,-36.10317,-110.6632,-50.33768,0.001067912,-0.1257102,0.09433498,0,0.3,0,0,0,0,
6.38224E+17,32.13579,10.96438,22.6235,-1.531937,37.69667,-102.0243,-17.01029,-0.4441859,-4.27255,-61.44649,-6.98289,34.57793,0,0,0,96.92361,-74.37606,-14.05469,-36.10317,-110.6632,-50.33768,0.001067912,-0.1257102,0.09433498,0,0.3,0,0,0,0,
6.38224E+17,36.70642,10.96438,28.13346,3.96145,35.79229,-102.1708,-17.01029,-0.4441859,-4.27255,-61.51973,-6.909645,34.57793,0,0,0,115.8335,-68.88194,-12.98376,-36.10317,-110.6632,-50.33768,0.001067912,-0.1257102,0.09433498,0,0.3,0,0,0,0,
6.38224E+17,38.12002,11.01113,29.93119,6.012315,34.8401,-102.1708,-17.01029,-0.4441859,-4.27255,-61.51973,-6.98289,34.57793,0,0,0,121.8765,-66.74466,-13.02696,-36.10317,-110.6632,-50.33768,0.001067912,-0.1257102,0.09433498,0,0.3,0,0,0,0,
6.38224E+17,40.42889,11.10465,33.26986,9.528083,32.93573,-103.123,-17.01029,-0.4441859,-4.27255,-61.44649,-6.909645,34.57793,0,0,0,132.2992,-62.46,-13.05768,-36.10317,-110.6632,-50.33768,0.001067912,-0.1257102,0.09433498,0,0.3,0,0,0,0,
6.38224E+17,42.54929,11.40856,36.91203,12.82412,30.59188,-105.9063,-17.01029,-0.4441859,-4.27255,-61.51973,-6.98289,34.57793,0,0,0,142.5505,-56.894,-13.05183,-36.10317,-110.6632,-50.33768,0.001067912,-0.1257102,0.09433498,0,0.3,0,0,0,0,
6.38224E+17,43.53881,11.66572,38.61638,14.14253,29.4932,-107.5909,-17.01029,-0.4441859,-4.27255,-61.44649,-6.98289,34.57793,0,0,0,147.2888,-53.87841,-13.35044,-36.10317,-110.6632,-50.33768,0.001067912,-0.1257102,0.09433498,0,0.3,0,0,0,0,
6.38224E+17,45.63565,12.46058,42.84223,17.14558,26.63664,-111.6927,-17.01029,-0.4441859,-4.27255,-61.44649,-6.98289,34.57793,0,0,0,157.912,-45.65342,-13.90343,-36.10317,-110.6632,-50.33768,0.001067912,-0.1257102,0.09433498,0,0.3,0,0,0,0,
6.38224E+17,46.90788,13.02166,45.87738,18.83022,24.73227,-114.1098,-17.01029,-0.4441859,-4.27255,-61.51973,-6.909645,34.57793,0,0,0,164.7797,-39.44144,-14.19441,-36.10317,-110.6632,-50.33768,0.001067912,-0.1257102,0.09433498,0,0.3,0,0,0,0,
6.38224E+17,47.75604,13.39571,48.07202,19.9289,23.4871,-115.062,-17.01029,-0.4441859,-4.27255,-61.44649,-6.98289,34.50468,0,0,0,169.4762,-34.86006,-14.44131,-36.10317,-110.6632,-50.33768,0.001067912,-0.1257102,0.09433498,0,0.3,0,0,0,0,
6.38224E+17,49.311,14.09706,52.83487,22.34599,20.77703,-117.3325,-17.01029,-0.4441859,-4.27255,-61.51973,-6.98289,34.57793,0,0,0,178.6462,-24.72923,-14.74964,-36.10317,-110.6632,-50.33768,0.001067912,-0.1257102,0.09433498,0,0.3,0,0,0,0,
6.38224E+17,50.55968,14.89192,58.22808,25.49553,17.84722,-120.2624,-17.01029,-0.4441859,-4.27255,-61.44649,-6.98289,34.57793,0,0,0,187.0777,-12.59353,-14.462,-36.10317,-110.6632,-50.33768,0.001067912,-0.1257102,0.09433498,0,0.3,0,0,0,0,
6.38224E+17,51.31359,15.78029,63.10766,28.86481,14.99066,-122.8259,-17.01029,-0.4441859,-4.27255,-61.44649,-6.98289,34.57793,0,0,0,193.0008,-0.7018487,-13.80234,-36.10317,-110.6632,-50.33768,0.001067912,-0.1257102,0.09433498,0,0.3,0,0,0,0,
6.38224E+17,51.50208,16.24785,65.06883,30.40295,13.67225,-123.4852,-17.01029,-0.4441859,-4.27255,-61.44649,-6.98289,34.57793,0,0,0,194.8342,4.449477,-13.3834,-36.10317,-110.6632,-50.33768,0.001067912,-0.1257102,0.09433498,0,0.3,0,0,0,0,
6.38224E+17,51.66699,17.44014,68.40749,33.47925,10.88893,-124.3641,-17.01029,-0.4441859,-4.27255,-61.44649,-6.98289,34.57793,0,0,0,197.0556,14.24302,-12.54047,-36.10317,-110.6632,-50.33768,0.001067912,-0.1257102,0.09433498,0,0.3,0,0,0,0,
6.38224E+17,51.69056,18.53891,71.02238,35.74985,8.618331,-124.6571,-17.01029,-0.4441859,-4.27255,-61.44649,-6.98289,34.57793,0,0,0,198.1554,22.3832,-11.80326,-36.10317,-110.6632,-50.33768,0.001067912,-0.1257102,0.09433498,0,0.3,0,0,0,0,
6.38224E+17,51.71412,19.49742,72.72674,37.36125,7.080183,-124.9501,-17.01029,-0.4441859,-4.27255,-61.44649,-6.98289,34.57793,0,0,0,198.6177,28.26196,-11.5706,-36.10317,-110.6632,-50.33768,0.001067912,-0.1257102,0.09433498,0,0.3,0,0,0,0,
6.38224E+17,51.69056,20.5962,74.05753,38.97264,5.76177,-125.536,-17.01029,-0.4441859,-4.27255,-61.51973,-6.909645,34.57793,0,0,0,198.56,33.63227,-11.48358,-36.10317,-110.6632,-50.33768,0.001067912,-0.1257102,0.09433498,0,0.3,0,0,0,0,
6.38224E+17,51.64344,22.23267,75.69183,41.17,4.370111,-126.2685,-17.01029,-0.4441859,-4.27255,-61.44649,-6.98289,34.57793,0,0,0,198.1188,40.84973,-11.56738,-36.10317,-110.6632,-50.33768,0.001067912,-0.1257102,0.09433498,0,0.3,0,0,0,0,
6.38224E+17,51.59631,23.19118,76.64907,42.41516,3.564415,-126.4149,-17.01029,-0.4441859,-4.27255,-61.44649,-6.98289,34.50468,0,0,0,197.7321,45.07081,-11.60873,-36.10317,-110.6632,-50.33768,0.001067912,-0.1257102,0.09433498,0,0.3,0,0,0,0,
6.38224E+17,51.33715,25.83291,79.28732,45.7112,1.586795,-126.7812,-17.01029,-0.4441859,-4.27255,-61.51973,-6.98289,34.57793,0,0,0,196.0289,56.66937,-11.50987,-36.10317,-110.6632,-50.33768,0.001067912,-0.1257102,0.09433498,0,0.3,0,0,0,0,
6.38224E+17,51.26648,26.74467,80.22121,46.73663,1.000834,-127.2206,-17.01029,-0.4441859,-4.27255,-61.51973,-6.98289,34.57793,0,0,0,195.4037,60.71074,-11.61431,-36.10317,-110.6632,-50.33768,0.001067912,-0.1257102,0.09433498,0,0.3,0,0,0,0,
6.38224E+17,51.10155,28.91884,82.48589,49.4467,-0.2443342,-128.7588,-17.01029,-0.4441859,-4.27255,-61.51973,-6.909645,34.57793,0,0,0,193.7299,70.39586,-12.03837,-36.10317,-110.6632,-50.33768,0.001067912,-0.1257102,0.09433498,0,0.3,0,0,0,0,
6.38224E+17,50.91308,31.06963,84.63383,52.523,-1.196521,-130.5167,-17.01029,-0.4441859,-4.27255,-61.51973,-6.98289,34.57793,0,0,0,191.7076,79.69825,-12.6261,-36.10317,-110.6632,-50.33768,0.001067912,-0.1257102,0.09433498,0,0.3,0,0,0,0,
6.38224E+17,50.79528,32.19178,85.63777,54.20764,-1.709238,-131.3956,-17.01029,-0.4441859,-4.27255,-61.44649,-6.909645,34.57793,0,0,0,190.4792,84.25004,-12.9728,-36.10317,-110.6632,-50.33768,0.001067912,-0.1257102,0.09433498,0,0.3,0,0,0,0,
6.38224E+17,50.55968,34.6465,87.34212,58.01638,-2.88116,-134.3987,-17.01029,-0.4441859,-4.27255,-61.44649,-6.909645,34.57793,0,0,0,187.5964,92.97729,-14.03536,-36.10317,-110.6632,-50.33768,0.001067912,-0.1257102,0.09433498,0,0.3,0,0,0,0,
6.38224E+17,50.22984,37.03107,88.29936,61.97163,-3.979838,-138.2807,-17.01029,-0.4441859,-4.27255,-61.44649,-6.909645,34.57793,0,0,0,184.2726,99.70229,-14.98235,-36.10317,-110.6632,-50.33768,0.001067912,-0.1257102,0.09433498,0,0.3,0,0,0,0,
6.38224E+17,50.04136,38.15323,88.53283,63.80275,-4.492554,-139.8921,-17.01029,-0.4441859,-4.27255,-61.44649,-6.98289,34.57793,0,0,0,182.5574,102.3149,-15.39056,-36.10317,-110.6632,-50.33768,0.001067912,-0.1257102,0.09433498,0,0.3,0,0,0,0,
6.38224E+17,49.6644,40.58456,88.60287,66.65932,-5.737722,-141.6499,-17.01029,-0.4441859,-4.27255,-61.44649,-6.909645,34.57793,0,0,0,178.8144,106.8521,-16.51325,-36.10317,-110.6632,-50.33768,0.001067912,-0.1257102,0.09433498,0,0.3,0,0,0,0,
6.38224E+17,49.14608,43.17954,88.60287,69.22289,-7.349115,-141.7232,-17.01029,-0.4441859,-4.27255,-61.44649,-6.98289,34.57793,0,0,0,174.384,111.3483,-17.5391,-36.10317,-110.6632,-50.33768,0.001067912,-0.1257102,0.09433498,0,0.3,0,0,0,0,
6.38224E+17,48.58064,45.86803,88.55618,71.42025,-8.814018,-141.8697,-17.01029,-0.4441859,-4.27255,-61.51973,-6.98289,34.57793,0,0,0,169.5954,115.7004,-18.7297,-36.10317,-110.6632,-50.33768,0.001067912,-0.1257102,0.09433498,0,0.3,0,0,0,0,
6.38224E+17,48.20368,47.411,88.48614,72.51893,-9.692961,-142.0162,-17.01029,-0.4441859,-4.27255,-61.51973,-6.98289,34.57793,0,0,0,166.6578,118.0029,-19.36002,-36.10317,-110.6632,-50.33768,0.001067912,-0.1257102,0.09433498,0,0.3,0,0,0,0,
6.38224E+17,47.33196,50.56705,88.11259,74.27681,-11.67058,-142.0894,-17.01029,-0.4441859,-4.27255,-61.51973,-6.909645,34.57793,0,0,0,160.2778,121.9534,-20.61536,-36.10317,-110.6632,-50.33768,0.001067912,-0.1257102,0.09433498,0,0.3,0,0,0,0,
6.38224E+17,46.366,53.86338,87.24873,75.52198,-13.94118,-142.0894,-17.01029,-0.4441859,-4.27255,-61.44649,-6.909645,34.57793,0,0,0,153.3179,124.6444,-22.17381,-36.10317,-110.6632,-50.33768,0.001067912,-0.1257102,0.09433498,0,0.3,0,0,0,0,
6.38224E+17,45.42361,57.08957,86.08137,76.18118,-16.65125,-142.1627,-17.01029,-0.4441859,-4.27255,-61.51973,-6.98289,34.57793,0,0,0,146.3743,126.187,-24.12421,-36.10317,-110.6632,-50.33768,0.001067912,-0.1257102,0.09433498,0,0.3,0,0,0,0,
6.38224E+17,44.26917,60.7132,84.47041,76.40092,-19.43457,-142.1627,-17.01029,-0.4441859,-4.27255,-61.51973,-6.98289,34.57793,0,0,0,138.1833,126.8059,-26.59577,-36.10317,-110.6632,-50.33768,0.001067912,-0.1257102,0.09433498,0,0.3,0,0,0,0,
6.38224E+17,43.63305,62.60683,83.48982,76.25443,-20.67974,-142.1627,-17.01029,-0.4441859,-4.27255,-61.51973,-6.909645,34.57793,0,0,0,133.7593,126.6283,-28.05101,-36.10317,-110.6632,-50.33768,0.001067912,-0.1257102,0.09433498,0,0.3,0,0,0,0,
6.38224E+17,42.10165,66.34734,80.89828,75.44874,-23.46305,-142.0162,-17.01029,-0.4441859,-4.27255,-61.44649,-6.98289,34.57793,0,0,0,124.1467,124.4035,-30.96204,-36.10317,-110.6632,-50.33768,0.001067912,-0.1257102,0.09433498,0,0.3,0,0,0,0,
6.38224E+17,40.19329,69.90083,77.3028,72.88515,-26.53935,-140.4048,-17.01029,-0.4441859,-4.27255,-61.51973,-6.98289,34.57793,0,0,0,113.5294,119.2687,-33.97416,-36.10317,-110.6632,-50.33768,0.001067912,-0.1257102,0.09433498,0,0.3,0,0,0,0,
6.38224E+17,38.96818,71.51392,75.1315,70.76105,-28.22399,-135.1311,-17.01029,-0.4441859,-4.27255,-61.44649,-6.98289,34.57793,0,0,0,107.6449,115.6014,-35.2685,-36.10317,-110.6632,-50.33768,0.001067912,-0.1257102,0.09433498,0,0.3,0,0,0,0,
6.38224E+17,36.23522,73.82837,70.99904,65.3409,-31.22704,-122.9724,-17.01029,-0.4441859,-4.27255,-61.51973,-6.98289,34.57793,0,0,0,96.48211,108.0069,-36.69381,-36.10317,-110.6632,-50.33768,0.001067912,-0.1257102,0.09433498,0,0.3,0,0,0,0,
6.38224E+17,33.10175,75.11417,67.05334,58.23612,-33.71738,-109.3488,-17.01029,-0.4441859,-4.27255,-61.44649,-6.909645,34.57793,0,0,0,85.77182,100.235,-36.78505,-36.10317,-110.6632,-50.33768,0.001067912,-0.1257102,0.09433498,0,0.3,0,0,0,0,
6.38224E+17,31.61747,75.32457,65.32565,54.64711,-34.59632,-102.9033,-17.01029,-0.4441859,-4.27255,-61.51973,-6.98289,34.57793,0,0,0,81.23594,96.68132,-36.39302,-36.10317,-110.6632,-50.33768,0.001067912,-0.1257102,0.09433498,0,0.3,0,0,0,0,
6.38224E+17,28.79027,75.41808,62.57067,47.76206,-35.5485,-91.98972,-17.01029,-0.4441859,-4.27255,-61.44649,-6.98289,34.57793,0,0,0,73.17094,90.97639,-35.19901,-36.10317,-110.6632,-50.33768,0.001067912,-0.1257102,0.09433498,0,0.3,0,0,0,0,
6.38224E+17,25.82172,75.39471,60.11921,41.09675,-36.13447,-82.32136,-17.01029,-0.4441859,-4.27255,-61.44649,-6.98289,34.57793,0,0,0,65.00845,85.95633,-34.00355,-36.10317,-110.6632,-50.33768,0.001067912,-0.1257102,0.09433498,0,0.3,0,0,0,0,
6.38224E+17,24.21964,75.37133,58.71837,37.65423,-36.28096,-77.8534,-17.01029,-0.4441859,-4.27255,-61.44649,-6.98289,34.57793,0,0,0,60.56815,83.13585,-33.70322,-36.10317,-110.6632,-50.33768,0.001067912,-0.1257102,0.09433498,0,0.3,0,0,0,0,
6.38224E+17,20.92125,75.06741,56.10348,30.91567,-36.50069,-70.08942,-17.01029,-0.4441859,-4.27255,-61.44649,-6.98289,34.50468,0,0,0,51.79459,77.82814,-32.86414,-36.10317,-110.6632,-50.33768,0.001067912,-0.1257102,0.09433498,0,0.3,0,0,0,0,
6.38224E+17,17.62285,74.34269,53.53528,23.73765,-36.3542,-62.03245,-17.01029,-0.4441859,-4.27255,-61.44649,-6.98289,34.50468,0,0,0,43.36351,72.49819,-31.83983,-36.10317,-110.6632,-50.33768,0.001067912,-0.1257102,0.09433498,0,0.3,0,0,0,0,
6.38224E+17,15.17262,73.1504,50.61687,16.12015,-35.5485,-55.07415,-17.01029,-0.4441859,-4.27255,-61.44649,-6.909645,34.57793,0,0,0,37.09256,66.36417,-31.56835,-36.10317,-110.6632,-50.33768,0.001067912,-0.1257102,0.09433498,0,0.3,0,0,0,0,
6.38224E+17,14.27734,72.35555,48.93587,12.67763,-34.74281,-53.02329,-17.01029,-0.4441859,-4.27255,-61.51973,-6.98289,34.57793,0,0,0,34.76349,62.82858,-31.74166,-36.10317,-110.6632,-50.33768,0.001067912,-0.1257102,0.09433498,0,0.3,0,0,0,0,
6.38224E+17,12.8873,69.24624,43.91621,5.499599,-31.66651,-50.89918,-17.01029,-0.4441859,-4.27255,-61.44649,-6.909645,34.57793,0,0,0,31.16794,51.98785,-32.12488,-36.10317,-110.6632,-50.33768,0.001067912,-0.1257102,0.09433498,0,0.3,0,0,0,0,
6.38224E+17,12.5339,64.19655,38.00935,-1.019221,-26.31961,-52.80355,-17.01029,-0.4441859,-4.27255,-61.44649,-6.909645,34.57793,0,0,0,30.41733,38.33617,-31.52944,-36.10317,-110.6632,-50.33768,0.001067912,-0.1257102,0.09433498,0,0.3,0,0,0,0,
6.38224E+17,12.72238,61.41454,35.27772,-3.875783,-22.95034,-55.07415,-17.01029,-0.4441859,-4.27255,-61.44649,-6.909645,34.57793,0,0,0,31.01214,31.58332,-30.98847,-36.10317,-110.6632,-50.33768,0.001067912,-0.1257102,0.09433498,0,0.3,0,0,0,0,
6.38224E+17,13.52342,55.82715,30.09463,-8.197248,-15.40608,-60.27456,-17.01029,-0.4441859,-4.27255,-61.44649,-6.909645,34.57793,0,0,0,33.15123,18.30248,-30.51339,-36.10317,-110.6632,-50.33768,0.001067912,-0.1257102,0.09433498,0,0.3,0,0,0,0,
6.38224E+17,14.27734,50.09949,25.00492,-10.54109,-8.008322,-65.54821,-17.01029,-0.4441859,-4.27255,-61.44649,-6.98289,34.57793,0,0,0,34.99594,4.799408,-30.82821,-36.10317,-110.6632,-50.33768,0.001067912,-0.1257102,0.09433498,0,0.3,0,0,0,0,
6.38224E+17,14.79566,43.78737,20.84911,-11.56653,0.1218917,-70.08942,-17.01029,-0.4441859,-4.27255,-61.51973,-6.98289,34.57793,0,0,0,36.70402,-8.99229,-29.3882,-36.10317,-110.6632,-50.33768,0.001067912,-0.1257102,0.09433498,0,0.3,0,0,0,0,
6.38224E+17,14.84277,41.87036,19.84518,-11.63977,2.758718,-70.89511,-17.01029,-0.4441859,-4.27255,-61.51973,-6.98289,34.57793,0,0,0,37.03403,-13.07668,-28.60433,-36.10317,-110.6632,-50.33768,0.001067912,-0.1257102,0.09433498,0,0.3,0,0,0,0,
6.38224E+17,14.84277,37.2181,17.65053,-11.93275,8.984557,-72.06703,-17.01029,-0.4441859,-4.27255,-61.44649,-6.98289,34.57793,0,0,0,37.56054,-23.06552,-26.61761,-36.10317,-110.6632,-50.33768,0.001067912,-0.1257102,0.09433498,0,0.3,0,0,0,0,
6.38224E+17,15.19618,32.86975,16.36643,-12.51871,14.47795,-73.38544,-17.01029,-0.4441859,-4.27255,-61.51973,-6.98289,34.57793,0,0,0,39.20779,-32.22336,-24.00329,-36.10317,-110.6632,-50.33768,0.001067912,-0.1257102,0.09433498,0,0.3,0,0,0,0,
6.38224E+17,16.13857,28.82533,16.03957,-13.10467,19.09239,-75.87578,-17.01029,-0.4441859,-4.27255,-61.51973,-6.909645,34.57793,0,0,0,42.71485,-40.51534,-20.73401,-36.10317,-110.6632,-50.33768,0.001067912,-0.1257102,0.09433498,0,0.3,0,0,0,0,
6.38224E+17,16.86893,26.95507,16.03957,-13.25116,21.28975,-77.12095,-17.01029,-0.4441859,-4.27255,-61.51973,-6.98289,34.57793,0,0,0,45.18384,-44.36239,-19.34202,-36.10317,-110.6632,-50.33768,0.001067912,-0.1257102,0.09433498,0,0.3,0,0,0,0,
6.38224E+17,18.80085,23.26131,16.22635,-12.95818,25.02525,-79.24506,-17.01029,-0.4441859,-4.27255,-61.44649,-6.98289,34.57793,0,0,0,51.49152,-52.02476,-17.10199,-36.10317,-110.6632,-50.33768,0.001067912,-0.1257102,0.09433498,0,0.3,0,0,0,0,
6.38224E+17,21.1804,20.0585,16.97346,-11.78626,27.95506,-82.3946,-17.01029,-0.4441859,-4.27255,-61.44649,-6.98289,34.57793,0,0,0,59.32281,-58.45498,-15.25139,-36.10317,-110.6632,-50.33768,0.001067912,-0.1257102,0.09433498,0,0.3,0,0,0,0,
6.38224E+17,22.57044,18.53891,17.58049,-11.05381,29.05373,-84.22573,-17.01029,-0.4441859,-4.27255,-61.44649,-6.909645,34.57793,0,0,0,63.98568,-61.37324,-14.4105,-36.10317,-110.6632,-50.33768,0.001067912,-0.1257102,0.09433498,0,0.3,0,0,0,0,
6.38224E+17,26.29292,15.56988,19.82183,-8.343738,30.81162,-88.32746,-17.01029,-0.4441859,-4.27255,-61.44649,-6.909645,34.57793,0,0,0,76.93117,-66.30629,-12.64315,-36.10317,-110.6632,-50.33768,0.001067912,-0.1257102,0.09433498,0,0.3,0,0,0,0,
6.38224E+17,29.42639,14.07368,22.13321,-5.633667,31.47083,-90.89104,-17.01029,-0.4441859,-4.27255,-61.44649,-6.98289,34.57793,0,0,0,88.2327,-67.74685,-11.93069,-36.10317,-110.6632,-50.33768,0.001067912,-0.1257102,0.09433498,0,0.3,0,0,0,0,
6.38224E+17,31.28763,13.48922,23.72082,-3.509557,31.47083,-92.06297,-17.01029,-0.4441859,-4.27255,-61.44649,-6.98289,34.57793,0,0,0,95.20207,-67.62857,-11.6939,-36.10317,-110.6632,-50.33768,0.001067912,-0.1257102,0.09433498,0,0.3,0,0,0,0,
6.38224E+17,35.19858,12.92815,27.43304,1.251379,30.66513,-94.40681,-17.01029,-0.4441859,-4.27255,-61.51973,-6.98289,34.57793,0,0,0,110.3285,-65.17052,-11.94111,-36.10317,-110.6632,-50.33768,0.001067912,-0.1257102,0.09433498,0,0.3,0,0,0,0,
6.38224E+17,38.52053,12.92815,30.98182,6.08556,29.20022,-96.38443,-17.01029,-0.4441859,-4.27255,-61.51973,-6.98289,34.57793,0,0,0,123.6957,-61.14079,-12.95753,-36.10317,-110.6632,-50.33768,0.001067912,-0.1257102,0.09433498,0,0.3,0,0,0,0,
6.38224E+17,41.25349,12.99828,34.95086,11.13948,27.2226,-99.24099,-17.01029,-0.4441859,-4.27255,-61.51973,-6.98289,34.57793,0,0,0,136.0495,-55.95617,-13.23431,-36.10317,-110.6632,-50.33768,0.001067912,-0.1257102,0.09433498,0,0.3,0,0,0,0,
6.38224E+17,43.39745,13.32558,38.35956,15.31445,25.17174,-102.0975,-17.01029,-0.4441859,-4.27255,-61.51973,-6.98289,34.57793,0,0,0,146.0102,-50.4789,-13.93478,-36.10317,-110.6632,-50.33768,0.001067912,-0.1257102,0.09433498,0,0.3,0,0,0,0,
