zeyangz2/DNN_classification_different_people_hand/data_by_names/Frank/frank_right_15.csv
Timestamp,Therapist joint angle 0,Therapist joint angle 1,Therapist joint angle 2,Therapist joint angle 3,Therapist joint angle 4,Therapist joint angle 5,Patient joint angle 0,Patient joint angle 1,Patient joint angle 2,Patient joint angle 3,Patient joint angle 4,Patient joint angle 5,Virtual joint angle 0,Virtual joint angle 1,Virtual joint angle 2,Therapist position x,Therapist position y,Therapist position z,Patient position x,Patient position y,Patient position z,Virtual position x,Virtual position y,Virtual position z,Assistive Force, Obstacle Force Magnitude, Therapist Constant Force, Patient Constant Force, Recovery Factor, Assistance Level,label
6.38224E+17,0,0,0,0,0,0,0,0,0,0,0,0,0,0,0,0,0,0,0,0,0,0,0,0,0,0.3,0,0,0,0,1
6.38224E+17,6.808829,1.56634,-15.87614,-97.11688,-13.57495,-52.0711,-17.01029,-0.4441859,-4.27255,-61.51973,-6.98289,34.57793,0,0,0,11.47882,-101.2684,-72.21173,-36.10317,-110.6632,-50.33768,0.001067912,-0.1257102,0.09433498,0,0.3,0,0,7.17E-08,0,
6.38224E+17,6.808829,1.56634,-15.87614,-97.11688,-13.57495,-52.0711,-17.01029,-0.4441859,-4.27255,-61.44649,-6.909645,34.57793,0,0,0,11.47882,-101.2684,-72.21173,-36.10317,-110.6632,-50.33768,0.001067912,-0.1257102,0.09433498,0,0.3,0,0,7.17E-08,0,
6.38224E+17,6.808829,1.56634,-15.87614,-97.11688,-13.57495,-52.0711,-17.01029,-0.4441859,-4.27255,-61.44649,-6.909645,34.57793,0,0,0,11.47882,-101.2684,-72.21173,-36.10317,-110.6632,-50.33768,0.001067912,-0.1257102,0.09433498,0,0.3,0,0,7.17E-08,0,
6.38224E+17,6.808829,1.56634,-15.87614,-97.11688,-13.57495,-52.0711,-17.01029,-0.4441859,-4.27255,-61.44649,-6.909645,34.57793,0,0,0,11.47882,-101.2684,-72.21173,-36.10317,-110.6632,-50.33768,0.001067912,-0.1257102,0.09433498,0,0.3,0,0,0,0,
6.38224E+17,6.808829,1.56634,-15.87614,-97.04363,-13.57495,-52.0711,-17.01029,-0.4441859,-4.27255,-61.44649,-6.98289,34.57793,0,0,0,11.47882,-101.2684,-72.21173,-36.10317,-110.6632,-50.33768,0.001067912,-0.1257102,0.09433498,0,0.3,0,0,0,0,
6.38224E+17,6.808829,1.56634,-15.87614,-97.11688,-13.57495,-52.14435,-17.01029,-0.4441859,-4.27255,-61.44649,-6.98289,34.57793,0,0,0,11.47882,-101.2684,-72.21173,-36.10317,-110.6632,-50.33768,0.001067912,-0.1257102,0.09433498,0,0.3,0,0,7.17E-08,0,
6.38224E+17,6.808829,1.56634,-15.87614,-97.11688,-13.57495,-52.0711,-17.01029,-0.4441859,-4.27255,-61.44649,-6.909645,34.57793,0,0,0,11.47882,-101.2684,-72.21173,-36.10317,-110.6632,-50.33768,0.001067912,-0.1257102,0.09433498,0,0.3,0,0,7.17E-08,0,
6.38224E+17,6.808829,1.56634,-15.87614,-97.04363,-13.57495,-52.0711,-17.01029,-0.4441859,-4.27255,-61.44649,-6.98289,34.57793,0,0,0,11.47882,-101.2684,-72.21173,-36.10317,-110.6632,-50.33768,0.001067912,-0.1257102,0.09433498,0,0.3,0,0,1.43E-07,0,
6.38224E+17,6.808829,1.56634,-15.87614,-97.04363,-13.57495,-52.0711,-17.01029,-0.4441859,-4.27255,-61.44649,-6.98289,34.57793,0,0,0,11.47882,-101.2684,-72.21173,-36.10317,-110.6632,-50.33768,0.001067912,-0.1257102,0.09433498,0,0.3,0,0,1.43E-07,0,
6.38224E+17,6.808829,1.56634,-15.87614,-97.04363,-13.57495,-52.0711,-17.01029,-0.4441859,-4.27255,-61.51973,-6.909645,34.57793,0,0,0,11.47882,-101.2684,-72.21173,-36.10317,-110.6632,-50.33768,0.001067912,-0.1257102,0.09433498,0,0.3,0,0,2.15E-07,0,
6.38224E+17,6.808829,1.56634,-15.87614,-97.11688,-13.57495,-52.0711,-17.01029,-0.4441859,-4.27255,-61.51973,-6.98289,34.57793,0,0,0,11.47882,-101.2684,-72.21173,-36.10317,-110.6632,-50.33768,0.001067912,-0.1257102,0.09433498,0,0.3,0,0,2.15E-07,0,
6.38224E+17,6.808829,1.56634,-15.87614,-97.11688,-13.57495,-52.0711,-17.01029,-0.4441859,-4.27255,-61.51973,-6.909645,34.57793,0,0,0,11.47882,-101.2684,-72.21173,-36.10317,-110.6632,-50.33768,0.001067912,-0.1257102,0.09433498,0,0.3,0,0,2.15E-07,0,
6.38224E+17,6.808829,1.56634,-15.87614,-97.11688,-13.57495,-52.0711,-17.01029,-0.4441859,-4.27255,-61.44649,-6.909645,34.57793,0,0,0,11.47882,-101.2684,-72.21173,-36.10317,-110.6632,-50.33768,0.001067912,-0.1257102,0.09433498,0,0.3,0,0,2.15E-07,0,
6.38224E+17,6.808829,1.56634,-15.87614,-97.11688,-13.50171,-52.0711,-17.01029,-0.4441859,-4.27255,-61.44649,-6.98289,34.57793,0,0,0,11.47882,-101.2684,-72.21173,-36.10317,-110.6632,-50.33768,0.001067912,-0.1257102,0.09433498,0,0.3,0,0,2.87E-07,0,
6.38224E+17,6.808829,1.56634,-15.87614,-97.11688,-13.57495,-52.14435,-17.01029,-0.4441859,-4.27255,-61.44649,-6.98289,34.57793,0,0,0,11.47882,-101.2684,-72.21173,-36.10317,-110.6632,-50.33768,0.001067912,-0.1257102,0.09433498,0,0.3,0,0,2.87E-07,0,
6.38224E+17,6.808829,1.56634,-15.87614,-97.11688,-13.50171,-52.14435,-17.01029,-0.4441859,-4.27255,-61.44649,-6.98289,34.57793,0,0,0,11.47882,-101.2684,-72.21173,-36.10317,-110.6632,-50.33768,0.001067912,-0.1257102,0.09433498,0,0.3,0,0,2.87E-07,0,
6.38224E+17,6.808829,1.56634,-15.87614,-97.11688,-13.57495,-52.14435,-17.01029,-0.4441859,-4.27255,-61.44649,-6.98289,34.57793,0,0,0,11.47882,-101.2684,-72.21173,-36.10317,-110.6632,-50.33768,0.001067912,-0.1257102,0.09433498,0,0.3,0,0,2.87E-07,0,
6.38224E+17,6.808829,1.56634,-15.87614,-97.04363,-13.57495,-52.14435,-17.01029,-0.4441859,-4.27255,-61.51973,-6.909645,34.57793,0,0,0,11.47882,-101.2684,-72.21173,-36.10317,-110.6632,-50.33768,0.001067912,-0.1257102,0.09433498,0,0.3,0,0,2.87E-07,0,
6.38224E+17,6.808829,1.56634,-15.87614,-97.04363,-13.57495,-52.0711,-17.01029,-0.4441859,-4.27255,-61.51973,-6.98289,34.57793,0,0,0,11.47882,-101.2684,-72.21173,-36.10317,-110.6632,-50.33768,0.001067912,-0.1257102,0.09433498,0,0.3,0,0,2.87E-07,0,
6.38224E+17,6.808829,1.56634,-15.87614,-97.11688,-13.57495,-52.0711,-17.01029,-0.4441859,-4.27255,-61.51973,-6.909645,34.57793,0,0,0,11.47882,-101.2684,-72.21173,-36.10317,-110.6632,-50.33768,0.001067912,-0.1257102,0.09433498,0,0.3,0,0,2.87E-07,0,
6.38224E+17,6.808829,1.56634,-15.87614,-97.04363,-13.57495,-52.0711,-17.01029,-0.4441859,-4.27255,-61.51973,-6.98289,34.57793,0,0,0,11.47882,-101.2684,-72.21173,-36.10317,-110.6632,-50.33768,0.001067912,-0.1257102,0.09433498,0,0.3,0,0,2.87E-07,0,
6.38224E+17,6.808829,1.56634,-15.87614,-97.11688,-13.57495,-52.0711,-17.01029,-0.4441859,-4.27255,-61.44649,-6.909645,34.57793,0,0,0,11.47882,-101.2684,-72.21173,-36.10317,-110.6632,-50.33768,0.001067912,-0.1257102,0.09433498,0,0.3,0,0,2.87E-07,0,
6.38224E+17,6.808829,1.56634,-15.87614,-97.11688,-13.57495,-52.0711,-17.01029,-0.4441859,-4.27255,-61.51973,-6.98289,34.57793,0,0,0,11.47882,-101.2684,-72.21173,-36.10317,-110.6632,-50.33768,0.001067912,-0.1257102,0.09433498,0,0.3,0,0,2.87E-07,0,
6.38224E+17,6.808829,1.56634,-15.87614,-97.11688,-13.50171,-52.0711,-17.01029,-0.4441859,-4.27255,-61.44649,-6.909645,34.57793,0,0,0,11.47882,-101.2684,-72.21173,-36.10317,-110.6632,-50.33768,0.001067912,-0.1257102,0.09433498,0,0.3,0,0,3.58E-07,0,
6.38224E+17,6.808829,1.56634,-15.87614,-97.04363,-13.50171,-52.0711,-17.01029,-0.4441859,-4.27255,-61.44649,-6.98289,34.57793,0,0,0,11.47882,-101.2684,-72.21173,-36.10317,-110.6632,-50.33768,0.001067912,-0.1257102,0.09433498,0,0.3,0,0,3.58E-07,0,
6.38224E+17,6.808829,1.56634,-15.87614,-97.11688,-13.57495,-52.0711,-17.01029,-0.4441859,-4.27255,-61.51973,-6.98289,34.57793,0,0,0,11.47882,-101.2684,-72.21173,-36.10317,-110.6632,-50.33768,0.001067912,-0.1257102,0.09433498,0,0.3,0,0,3.58E-07,0,
6.38224E+17,6.808829,1.56634,-15.87614,-97.11688,-13.57495,-52.0711,-17.01029,-0.4441859,-4.27255,-61.44649,-6.909645,34.57793,0,0,0,11.47882,-101.2684,-72.21173,-36.10317,-110.6632,-50.33768,0.001067912,-0.1257102,0.09433498,0,0.3,0,0,3.58E-07,0,
6.38224E+17,6.808829,1.56634,-15.87614,-97.11688,-13.57495,-52.0711,-17.01029,-0.4441859,-4.27255,-61.51973,-6.98289,34.57793,0,0,0,11.47882,-101.2684,-72.21173,-36.10317,-110.6632,-50.33768,0.001067912,-0.1257102,0.09433498,0,0.3,0,0,3.58E-07,0,
6.38224E+17,6.808829,1.56634,-15.87614,-97.11688,-13.57495,-52.0711,-17.01029,-0.4441859,-4.27255,-61.51973,-6.98289,34.57793,0,0,0,11.47882,-101.2684,-72.21173,-36.10317,-110.6632,-50.33768,0.001067912,-0.1257102,0.09433498,0,0.3,0,0,3.58E-07,0,
6.38224E+17,6.808829,1.56634,-15.87614,-97.11688,-13.57495,-52.0711,-17.01029,-0.4441859,-4.27255,-61.51973,-6.98289,34.57793,0,0,0,11.47882,-101.2684,-72.21173,-36.10317,-110.6632,-50.33768,0.001067912,-0.1257102,0.09433498,0,0.3,0,0,3.58E-07,0,
6.38224E+17,6.808829,1.262423,-15.4092,-97.11688,-13.6482,-53.31627,-17.01029,-0.4441859,-4.27255,-61.44649,-6.909645,34.57793,0,0,0,11.60496,-102.2685,-71.15527,-36.10317,-110.6632,-50.33768,0.001067912,-0.1257102,0.09433498,0,0.3,0,0,0.000180966,0,
6.38224E+17,6.808829,0.5143204,-14.31187,-97.70284,-13.20873,-61.44649,-17.01029,-0.4441859,-4.27255,-61.51973,-6.909645,34.57793,0,0,0,11.90081,-104.6644,-68.67743,-36.10317,-110.6632,-50.33768,0.001067912,-0.1257102,0.09433498,0,0.3,0,0,0.000999398,0,
6.38224E+17,6.785269,-0.1636474,-13.75154,-99.02126,-12.54952,-72.21353,-17.01029,-0.4441859,-4.27255,-61.51973,-6.98289,34.57793,0,0,0,12.00988,-106.5585,-67.41141,-36.10317,-110.6632,-50.33768,0.001067912,-0.1257102,0.09433498,0,0.3,0,0,0.00216198,0,
6.38224E+17,6.45543,-0.4441859,-12.70091,-100.5594,-11.89032,-85.4709,-17.01029,-0.4441859,-4.27255,-61.44649,-6.98289,34.57793,0,0,0,11.69583,-107.7709,-64.98215,-36.10317,-110.6632,-50.33768,0.001067912,-0.1257102,0.09433498,0,0.3,0,0,0.00379655,0,
6.38224E+17,6.21983,-0.4441859,-11.88376,-101.8046,-11.45084,-94.18707,-17.01029,-0.4441859,-4.27255,-61.44649,-6.909645,34.57793,0,0,0,11.47201,-108.1758,-63.08764,-36.10317,-110.6632,-50.33768,0.001067912,-0.1257102,0.09433498,0,0.3,0,0,0.004914035,0,
6.38224E+17,5.88999,-0.4441859,-10.03932,-104.3682,-10.79164,-111.9856,-17.01029,-0.4441859,-4.27255,-61.51973,-6.98289,34.57793,0,0,0,11.29831,-108.992,-58.83136,-36.10317,-110.6632,-50.33768,0.001067912,-0.1257102,0.09433498,0,0.3,0,0,0.007628878,0,
6.38224E+17,5.79575,-0.4441859,-7.074222,-106.3458,-10.05919,-118.651,-17.01029,-0.4441859,-4.27255,-61.51973,-6.98289,34.57793,0,0,0,11.80721,-110.0187,-52.02441,-36.10317,-110.6632,-50.33768,0.001067912,-0.1257102,0.09433498,0,0.3,0,0,0.01040538,0,
6.38224E+17,5.748631,-0.4441859,-5.136398,-107.5909,-9.473226,-121.5075,-17.01029,-0.4441859,-4.27255,-61.51973,-6.909645,34.57793,0,0,0,12.1607,-110.4983,-47.55301,-36.10317,-110.6632,-50.33768,0.001067912,-0.1257102,0.09433498,0,0.3,0,0,0.01161356,0,
6.38224E+17,5.065392,-0.4909423,-1.564267,-110.2278,-8.081567,-137.0355,-17.01029,-0.4441859,-4.27255,-61.44649,-6.98289,34.57793,0,0,0,11.45199,-111.0929,-39.15166,-36.10317,-110.6632,-50.33768,0.001067912,-0.1257102,0.09433498,0,0.3,0,0,0.01365509,0,
6.38224E+17,3.958073,-0.4441859,-0.1634309,-110.594,-6.836399,-139.7456,-17.01029,-0.4441859,-4.27255,-61.51973,-6.98289,34.57793,0,0,0,9.178149,-111.0332,-35.70152,-36.10317,-110.6632,-50.33768,0.001067912,-0.1257102,0.09433498,0,0.3,0,0,0.01599868,0,
6.38224E+17,3.298395,-0.3974294,0.1634309,-109.8615,-6.396928,-139.5258,-17.01029,-0.4441859,-4.27255,-61.44649,-6.909645,34.57793,0,0,0,7.694133,-110.9244,-34.84437,-36.10317,-110.6632,-50.33768,0.001067912,-0.1257102,0.09433498,0,0.3,0,0,0.01753782,0,
6.38224E+17,1.625637,-0.07013461,1.751045,-107.7374,-5.664476,-139.5991,-17.01029,-0.4441859,-4.27255,-61.44649,-6.909645,34.57793,0,0,0,3.898588,-110.101,-30.98067,-36.10317,-110.6632,-50.33768,0.001067912,-0.1257102,0.09433498,0,0.3,0,0,0.02129774,0,
6.38224E+17,-0.04711992,0.233782,4.412633,-106.3458,-5.298251,-139.5991,-17.01029,-0.4441859,-4.27255,-61.44649,-6.98289,34.57793,0,0,0,-0.1181035,-109.0606,-24.74136,-36.10317,-110.6632,-50.33768,0.001067912,-0.1257102,0.09433498,0,0.3,0,0,0.02522822,0,
6.38224E+17,-1.460718,0.5376987,8.334974,-106.0528,-4.712289,-133.9592,-17.01029,-0.4441859,-4.27255,-61.44649,-6.909645,34.57793,0,0,0,-3.891914,-107.3401,-15.72504,-36.10317,-110.6632,-50.33768,0.001067912,-0.1257102,0.09433498,0,0.3,0,0,0.02794285,0,
6.38224E+17,-2.261756,0.7714807,11.15999,-106.9317,-3.613612,-130.0772,-17.01029,-0.4441859,-4.27255,-61.44649,-6.98289,34.57793,0,0,0,-6.280739,-105.6829,-9.326265,-36.10317,-110.6632,-50.33768,0.001067912,-0.1257102,0.09433498,0,0.3,0,0,0.02887463,0,
6.38224E+17,-2.874315,0.9351282,13.42468,-108.1037,-2.441689,-127.2206,-17.01029,-0.4441859,-4.27255,-61.44649,-6.909645,34.57793,0,0,0,-8.238444,-104.18,-4.264998,-36.10317,-110.6632,-50.33768,0.001067912,-0.1257102,0.09433498,0,0.3,0,0,0.02827976,0,
6.38224E+17,-4.005194,1.145532,18.02409,-110.2278,0.6346079,-119.2369,-17.01029,-0.4441859,-4.27255,-61.44649,-6.909645,34.57793,0,0,0,-12.19416,-100.7901,5.8077,-36.10317,-110.6632,-50.33768,0.001067912,-0.1257102,0.09433498,0,0.3,0,0,0.02460717,0,
6.38224E+17,-5.065392,1.215667,22.1799,-112.0589,5.322299,-110.9602,-17.01029,-0.4441859,-4.27255,-61.51973,-6.909645,34.57793,0,0,0,-16.21598,-97.30338,14.59447,-36.10317,-110.6632,-50.33768,0.001067912,-0.1257102,0.09433498,0,0.3,0,0,0.01775234,0,
6.38224E+17,-5.513031,1.262423,23.86091,-112.1321,7.592898,-106.9317,-17.01029,-0.4441859,-4.27255,-61.51973,-6.909645,34.57793,0,0,0,-17.99047,-95.66468,18.04387,-36.10317,-110.6632,-50.33768,0.001067912,-0.1257102,0.09433498,0,0.3,0,0,0.01337009,0,
6.38224E+17,-6.47899,1.42607,26.84936,-109.3488,13.01304,-98.06907,-17.01029,-0.4441859,-4.27255,-61.51973,-6.909645,34.57793,0,0,0,-21.83835,-92.30579,23.94967,-36.10317,-110.6632,-50.33768,0.001067912,-0.1257102,0.09433498,0,0.3,0,0,0.00291316,0,
6.38224E+17,-7.444948,1.56634,27.7132,-101.3651,18.72616,-88.84018,-17.01029,-0.4441859,-4.27255,-61.44649,-6.909645,34.57793,0,0,0,-25.30753,-91.05791,25.31754,-36.10317,-110.6632,-50.33768,0.001067912,-0.1257102,0.09433498,0,0.3,0,0,0,0,
6.38224E+17,-7.916147,2.174173,28.55371,-89.79237,23.92657,-72.21353,-17.01029,-0.4441859,-4.27255,-61.51973,-6.98289,34.57793,0,0,0,-27.13059,-88.72162,26.76574,-36.10317,-110.6632,-50.33768,0.001067912,-0.1257102,0.09433498,0,0.3,0,0,0,0,
6.38224E+17,-7.892587,3.062545,30.46818,-82.68758,26.78313,-57.49125,-17.01029,-0.4441859,-4.27255,-61.51973,-6.98289,34.57793,0,0,0,-27.56983,-84.46146,30.52407,-36.10317,-110.6632,-50.33768,0.001067912,-0.1257102,0.09433498,0,0.3,0,0,0,0,
6.38224E+17,-7.892587,4.488615,33.36324,-77.26745,28.834,-44.30712,-17.01029,-0.4441859,-4.27255,-61.44649,-6.98289,34.57793,0,0,0,-28.3251,-77.58793,35.97217,-36.10317,-110.6632,-50.33768,0.001067912,-0.1257102,0.09433498,0,0.3,0,0,0,0,
6.38224E+17,-7.892587,7.504403,36.98207,-72.36002,30.66513,-29.80457,-17.01029,-0.4441859,-4.27255,-61.44649,-6.909645,34.57793,0,0,0,-29.16965,-65.75732,42.06427,-36.10317,-110.6632,-50.33768,0.001067912,-0.1257102,0.09433498,0,0.3,0,0,0,0,
6.38224E+17,-7.892587,9.398038,38.54634,-70.52889,31.17784,-23.43224,-17.01029,-0.4441859,-4.27255,-61.51973,-6.98289,34.57793,0,0,0,-29.4759,-59.16862,44.27345,-36.10317,-110.6632,-50.33768,0.001067912,-0.1257102,0.09433498,0,0.3,0,0,0,0,
6.38224E+17,-7.751227,15.24259,43.00566,-66.06093,30.66513,-7.684532,-17.01029,-0.4441859,-4.27255,-61.51973,-6.909645,34.57793,0,0,0,-29.61968,-39.10846,49.25644,-36.10317,-110.6632,-50.33768,0.001067912,-0.1257102,0.09433498,0,0.3,0,0,0,0,
6.38224E+17,-7.515628,17.32325,44.71001,-64.96225,29.85943,-3.143331,-17.01029,-0.4441859,-4.27255,-61.44649,-6.98289,34.57793,0,0,0,-28.92116,-31.71212,50.86594,-36.10317,-110.6632,-50.33768,0.001067912,-0.1257102,0.09433498,0,0.3,0,0,0,0,
6.38224E+17,-6.785269,21.53132,48.81913,-62.7649,27.66208,5.353109,-17.01029,-0.4441859,-4.27255,-61.51973,-6.909645,34.57793,0,0,0,-26.51354,-15.51197,54.48652,-36.10317,-110.6632,-50.33768,0.001067912,-0.1257102,0.09433498,0,0.3,0,0,0,0,
6.38224E+17,-5.677951,25.87967,53.48859,-60.56754,24.58578,13.55657,-17.01029,-0.4441859,-4.27255,-61.44649,-6.98289,34.57793,0,0,0,-22.47401,2.213981,57.69071,-36.10317,-110.6632,-50.33768,0.001067912,-0.1257102,0.09433498,0,0.3,0,0,0,0,
6.38224E+17,-5.018272,28.12398,55.94005,-59.61535,22.60816,17.58505,-17.01029,-0.4441859,-4.27255,-61.44649,-6.98289,34.57793,0,0,0,-19.95089,11.52465,58.85513,-36.10317,-110.6632,-50.33768,0.001067912,-0.1257102,0.09433498,0,0.3,0,0,0,0,
6.38224E+17,-3.628234,32.44894,60.58615,-57.85748,18.06696,25.20255,-17.01029,-0.4441859,-4.27255,-61.44649,-6.98289,34.57793,0,0,0,-14.47207,29.40857,59.88221,-36.10317,-110.6632,-50.33768,0.001067912,-0.1257102,0.09433498,0,0.3,0,0,0,0,
6.38224E+17,-2.073277,36.47,65.25561,-56.75879,12.72006,31.57488,-17.01029,-0.4441859,-4.27255,-61.51973,-6.98289,34.57793,0,0,0,-8.260874,46.79705,59.84271,-36.10317,-110.6632,-50.33768,0.001067912,-0.1257102,0.09433498,0,0.3,0,0,0,0,
6.38224E+17,-1.130878,38.41039,67.61369,-56.46581,9.8635,34.3582,-17.01029,-0.4441859,-4.27255,-61.44649,-6.98289,34.57793,0,0,0,-4.49574,55.41271,59.39648,-36.10317,-110.6632,-50.33768,0.001067912,-0.1257102,0.09433498,0,0.3,0,0,0,0,
6.38224E+17,0.9423984,41.87036,71.53602,-56.53906,4.296866,39.11913,-17.01029,-0.4441859,-4.27255,-61.51973,-6.98289,34.57793,0,0,0,3.713543,70.12106,57.40499,-36.10317,-110.6632,-50.33768,0.001067912,-0.1257102,0.09433498,0,0.3,0,0,0,0,
6.38224E+17,3.604674,45.72776,74.45443,-57.19827,-1.782483,43.4406,-17.01029,-0.4441859,-4.27255,-61.51973,-6.98289,34.57793,0,0,0,13.92985,83.09432,52.77082,-36.10317,-110.6632,-50.33768,0.001067912,-0.1257102,0.09433498,0,0.3,0,0,0,0,
6.38224E+17,6.526109,49.2345,75.36497,-57.49125,-6.836399,45.93093,-17.01029,-0.4441859,-4.27255,-61.44649,-6.98289,34.57793,0,0,0,24.56063,90.6554,46.34602,-36.10317,-110.6632,-50.33768,0.001067912,-0.1257102,0.09433498,0,0.3,0,0,0,0,
6.38224E+17,8.481586,51.31516,75.36497,-56.97853,-9.546471,46.80988,-17.01029,-0.4441859,-4.27255,-61.51973,-6.909645,34.57793,0,0,0,31.32308,93.75011,41.69938,-36.10317,-110.6632,-50.33768,0.001067912,-0.1257102,0.09433498,0,0.3,0,0,0,0,
6.38224E+17,12.39254,55.35958,75.34162,-54.92767,-15.18635,47.90855,-17.01029,-0.4441859,-4.27255,-61.51973,-6.909645,34.57793,0,0,0,43.9537,99.31689,31.68707,-36.10317,-110.6632,-50.33768,0.001067912,-0.1257102,0.09433498,0,0.3,0,0,0,0,
6.38224E+17,16.16213,58.70267,75.1782,-52.43733,-20.75298,47.61557,-17.01029,-0.4441859,-4.27255,-61.44649,-6.98289,34.50468,0,0,0,55.1662,103.1826,22.00278,-36.10317,-110.6632,-50.33768,0.001067912,-0.1257102,0.09433498,0,0.3,0,0,0,0,
6.38224E+17,20.09665,61.13401,74.57117,-50.02024,-25.95339,45.34497,-17.01029,-0.4441859,-4.27255,-61.44649,-6.909645,34.57793,0,0,0,66.28847,104.6548,12.8246,-36.10317,-110.6632,-50.33768,0.001067912,-0.1257102,0.09433498,0,0.3,0,0,0,0,
6.38224E+17,24.07828,62.77048,73.31042,-46.79745,-29.98187,42.04893,-17.01029,-0.4441859,-4.27255,-61.44649,-6.98289,34.57793,0,0,0,77.00612,103.6259,3.974565,-36.10317,-110.6632,-50.33768,0.001067912,-0.1257102,0.09433498,0,0.3,0,0,0,0,
6.38224E+17,26.41072,63.42507,72.1664,-44.01414,-31.95949,39.33887,-17.01029,-0.4441859,-4.27255,-61.44649,-6.909645,34.57793,0,0,0,82.99976,101.7727,-1.226573,-36.10317,-110.6632,-50.33768,0.001067912,-0.1257102,0.09433498,0,0.3,0,0,0,0,
6.38224E+17,30.58083,63.8225,69.69159,-37.12909,-34.66956,32.38057,-17.01029,-0.4441859,-4.27255,-61.51973,-6.909645,34.57793,0,0,0,93.55391,96.74028,-10.03811,-36.10317,-110.6632,-50.33768,0.001067912,-0.1257102,0.09433498,0,0.3,0,0,0,0,
6.38224E+17,34.32687,63.75236,67.14674,-28.26642,-35.98798,23.73765,-17.01029,-0.4441859,-4.27255,-61.51973,-6.909645,34.57793,0,0,0,102.5514,91.16095,-18.16661,-36.10317,-110.6632,-50.33768,0.001067912,-0.1257102,0.09433498,0,0.3,0,0,0,0,
6.38224E+17,35.9525,63.68222,65.76924,-23.94496,-36.28096,20.07539,-17.01029,-0.4441859,-4.27255,-61.44649,-6.909645,34.57793,0,0,0,106.1048,88.14962,-22.05442,-36.10317,-110.6632,-50.33768,0.001067912,-0.1257102,0.09433498,0,0.3,0,0,0,0,
6.38224E+17,39.18022,63.37831,62.71075,-15.00905,-36.28096,13.04385,-17.01029,-0.4441859,-4.27255,-61.44649,-6.909645,34.57793,0,0,0,112.6193,81.42418,-30.16764,-36.10317,-110.6632,-50.33768,0.001067912,-0.1257102,0.09433498,0,0.3,0,0,0,0,
6.38224E+17,41.77181,62.58345,59.95578,-7.684532,-35.76824,7.623709,-17.01029,-0.4441859,-4.27255,-61.44649,-6.909645,34.57793,0,0,0,117.8013,74.95834,-36.4659,-36.10317,-110.6632,-50.33768,0.001067912,-0.1257102,0.09433498,0,0.3,0,0,0,0,
6.38224E+17,44.08069,60.90022,56.92064,-0.7262403,-34.96254,4.181186,-17.01029,-0.4441859,-4.27255,-61.51973,-6.98289,34.57793,0,0,0,122.8474,67.08531,-41.49582,-36.10317,-110.6632,-50.33768,0.001067912,-0.1257102,0.09433498,0,0.3,0,0,0,0,
6.38224E+17,44.74036,59.54428,55.40306,2.057076,-34.37658,3.228999,-17.01029,-0.4441859,-4.27255,-61.44649,-6.909645,34.57793,0,0,0,124.8434,62.58443,-42.37003,-36.10317,-110.6632,-50.33768,0.001067912,-0.1257102,0.09433498,0,0.3,0,0,0,0,
6.38224E+17,45.61209,55.68688,52.36792,6.598277,-32.10598,2.057076,-17.01029,-0.4441859,-4.27255,-61.51973,-6.98289,34.57793,0,0,0,129.1874,52.07099,-41.89374,-36.10317,-110.6632,-50.33768,0.001067912,-0.1257102,0.09433498,0,0.3,0,0,0,0,
6.38224E+17,46.08328,51.43205,49.89311,9.821064,-28.80995,1.471115,-17.01029,-0.4441859,-4.27255,-61.51973,-6.98289,34.57793,0,0,0,133.3567,41.70611,-39.94301,-36.10317,-110.6632,-50.33768,0.001067912,-0.1257102,0.09433498,0,0.3,0,0,0,0,
6.38224E+17,46.50736,46.73303,47.3716,12.53114,-24.63498,1.251379,-17.01029,-0.4441859,-4.27255,-61.51973,-6.98289,34.65118,0,0,0,137.4837,30.14115,-37.91641,-36.10317,-110.6632,-50.33768,0.001067912,-0.1257102,0.09433498,0,0.3,0,0,0,0,
6.38224E+17,46.4838,43.20292,45.73729,14.06928,-21.41219,1.104889,-17.01029,-0.4441859,-4.27255,-61.51973,-6.98289,34.57793,0,0,0,139.7433,21.56777,-35.6635,-36.10317,-110.6632,-50.33768,0.001067912,-0.1257102,0.09433498,0,0.3,0,0,0,0,
6.38224E+17,46.22464,40.93523,44.89679,14.87498,-19.58106,1.031644,-17.01029,-0.4441859,-4.27255,-61.51973,-6.98289,34.57793,0,0,0,140.7017,16.25927,-33.53808,-36.10317,-110.6632,-50.33768,0.001067912,-0.1257102,0.09433498,0,0.3,0,0,0,0,
6.38224E+17,45.37648,36.49338,44.12633,15.68068,-16.35827,1.031644,-17.01029,-0.4441859,-4.27255,-61.51973,-6.98289,34.57793,0,0,0,142.3813,6.937741,-27.82762,-36.10317,-110.6632,-50.33768,0.001067912,-0.1257102,0.09433498,0,0.3,0,0,0,0,
6.38224E+17,44.26917,32.2853,44.14968,15.97366,-14.01443,0.9583986,-17.01029,-0.4441859,-4.27255,-61.44649,-6.909645,34.57793,0,0,0,143.5268,-1.10468,-21.11421,-36.10317,-110.6632,-50.33768,0.001067912,-0.1257102,0.09433498,0,0.3,0,0,0,0,
6.38224E+17,43.56237,30.27477,44.24307,15.97366,-12.98899,0.9583986,-17.01029,-0.4441859,-4.27255,-61.44649,-6.909645,34.57793,0,0,0,143.4812,-4.952061,-17.48155,-36.10317,-110.6632,-50.33768,0.001067912,-0.1257102,0.09433498,0,0.3,0,0,0,0,
6.38224E+17,42.00741,27.09534,44.54658,15.53419,-11.67058,0.8851534,-17.01029,-0.4441859,-4.27255,-61.44649,-6.98289,34.57793,0,0,0,142.049,-10.94867,-10.62966,-36.10317,-110.6632,-50.33768,0.001067912,-0.1257102,0.09433498,0,0.3,0,0,0,0,
6.38224E+17,40.33466,24.40685,45.22365,14.582,-11.23111,0.5189275,-17.01029,-0.4441859,-4.27255,-61.44649,-6.98289,34.57793,0,0,0,139.8665,-15.47192,-3.62718,-36.10317,-110.6632,-50.33768,0.001067912,-0.1257102,0.09433498,0,0.3,0,0,0,0,
6.38224E+17,39.4865,23.30807,45.50382,13.92279,-11.3776,0.07945653,-17.01029,-0.4441859,-4.27255,-61.44649,-6.909645,34.57793,0,0,0,138.3619,-17.34667,-0.4230021,-36.10317,-110.6632,-50.33768,0.001067912,-0.1257102,0.09433498,0,0.3,0,0,0,0,
6.38224E+17,36.80066,20.47931,46.29763,12.23815,-12.03681,-1.165711,-17.01029,-0.4441859,-4.27255,-61.51973,-6.98289,34.57793,0,0,0,132.5815,-22.12812,8.871106,-36.10317,-110.6632,-50.33768,0.001067912,-0.1257102,0.09433498,0,0.3,0,0,0,0,
6.38224E+17,34.63314,18.46878,47.23152,10.48027,-12.8425,-1.824918,-17.01029,-0.4441859,-4.27255,-61.44649,-6.909645,34.57793,0,0,0,127.5166,-24.956,16.26724,-36.10317,-110.6632,-50.33768,0.001067912,-0.1257102,0.09433498,0,0.3,0,0,0,0,
6.38224E+17,31.87663,16.45825,48.28215,7.989935,-13.94118,-1.898163,-17.01029,-0.4441859,-4.27255,-61.51973,-6.909645,34.57793,0,0,0,120.1001,-27.60921,24.77446,-36.10317,-110.6632,-50.33768,0.001067912,-0.1257102,0.09433498,0,0.3,0,0,0,0,
6.38224E+17,30.20387,15.64002,48.72574,6.818012,-14.38065,-1.751673,-17.01029,-0.4441859,-4.27255,-61.44649,-6.909645,34.57793,0,0,0,115.0204,-28.66605,29.24419,-36.10317,-110.6632,-50.33768,0.001067912,-0.1257102,0.09433498,0,0.3,0,0,0,0,
6.38224E+17,26.45784,14.65813,49.77637,3.888205,-15.47933,-0.5065048,-17.01029,-0.4441859,-4.27255,-61.44649,-6.98289,34.57793,0,0,0,102.8423,-29.01942,38.30034,-36.10317,-110.6632,-50.33768,0.001067912,-0.1257102,0.09433498,0,0.3,0,0,0,0,
6.38224E+17,22.09924,14.23733,51.43402,-0.6529952,-17.23721,1.69085,-17.01029,-0.4441859,-4.27255,-61.44649,-6.909645,34.57793,0,0,0,87.85278,-26.98649,48.01352,-36.10317,-110.6632,-50.33768,0.001067912,-0.1257102,0.09433498,0,0.3,0,0,0,0,
6.38224E+17,18.14117,14.23733,53.11503,-5.780157,-19.14159,5.279863,-17.01029,-0.4441859,-4.27255,-61.44649,-6.98289,34.57793,0,0,0,73.45377,-23.89211,55.83644,-36.10317,-110.6632,-50.33768,0.001067912,-0.1257102,0.09433498,0,0.3,0,0,0,0,
6.38224E+17,15.99721,14.16719,54.09562,-8.563474,-20.09377,7.403974,-17.01029,-0.4441859,-4.27255,-61.44649,-6.909645,34.57793,0,0,0,65.39967,-22.21331,59.76761,-36.10317,-110.6632,-50.33768,0.001067912,-0.1257102,0.09433498,0,0.3,0,0,0,0,
6.38224E+17,12.25118,13.93341,57.13076,-14.2766,-21.55868,11.65219,-17.01029,-0.4441859,-4.27255,-61.51973,-6.98289,34.57793,0,0,0,51.2306,-16.91231,67.58041,-36.10317,-110.6632,-50.33768,0.001067912,-0.1257102,0.09433498,0,0.3,0,0,0,0,
6.38224E+17,8.929225,13.95679,60.79628,-20.64893,-23.17007,17.29207,-17.01029,-0.4441859,-4.27255,-61.51973,-6.98289,34.57793,0,0,0,38.15372,-9.550954,74.48411,-36.10317,-110.6632,-50.33768,0.001067912,-0.1257102,0.09433498,0,0.3,0,0,0,0,
6.38224E+17,7.609867,13.95679,62.45394,-23.72522,-24.12226,20.36837,-17.01029,-0.4441859,-4.27255,-61.51973,-6.909645,34.57793,0,0,0,32.79512,-6.156564,77.11549,-36.10317,-110.6632,-50.33768,0.001067912,-0.1257102,0.09433498,0,0.3,0,0,0,0,
6.38224E+17,5.465911,14.21395,65.53577,-29.07212,-25.66041,26.37447,-17.01029,-0.4441859,-4.27255,-61.51973,-6.98289,34.57793,0,0,0,23.87486,0.8696402,81.15574,-36.10317,-110.6632,-50.33768,0.001067912,-0.1257102,0.09433498,0,0.3,0,0,0,0,
6.38224E+17,3.251275,15.03218,68.61761,-33.75981,-27.05207,32.16084,-17.01029,-0.4441859,-4.27255,-61.51973,-6.909645,34.57793,0,0,0,14.34651,9.317719,84.20089,-36.10317,-110.6632,-50.33768,0.001067912,-0.1257102,0.09433498,0,0.3,0,0,0,0,
6.38224E+17,1.413598,16.01407,71.39594,-38.88697,-27.93101,37.14151,-17.01029,-0.4441859,-4.27255,-61.51973,-6.98289,34.57793,0,0,0,6.279779,17.59553,86.12965,-36.10317,-110.6632,-50.33768,0.001067912,-0.1257102,0.09433498,0,0.3,0,0,0,0,
6.38224E+17,0.6361189,16.57515,72.58665,-41.59705,-28.37048,39.48536,-17.01029,-0.4441859,-4.27255,-61.51973,-6.909645,34.57793,0,0,0,2.831573,21.48437,86.68176,-36.10317,-110.6632,-50.33768,0.001067912,-0.1257102,0.09433498,0,0.3,0,0,0,0,
6.38224E+17,-0.6361189,17.51027,75.20155,-47.16368,-29.24942,43.95331,-17.01029,-0.4441859,-4.27255,-61.44649,-6.909645,34.57793,0,0,0,-2.843234,29.4117,87.73199,-36.10317,-110.6632,-50.33768,0.001067912,-0.1257102,0.09433498,0,0.3,0,0,0,0,
6.38224E+17,-1.225118,18.235,78.28338,-51.99786,-30.3481,47.76206,-17.01029,-0.4441859,-4.27255,-61.44649,-6.909645,34.57793,0,0,0,-5.49965,37.99768,88.81602,-36.10317,-110.6632,-50.33768,0.001067912,-0.1257102,0.09433498,0,0.3,0,0,0,0,
6.38224E+17,-1.743437,19.35715,81.22514,-57.5645,-31.88625,53.84141,-17.01029,-0.4441859,-4.27255,-61.44649,-6.98289,34.57793,0,0,0,-7.837259,47.20677,89.13177,-36.10317,-110.6632,-50.33768,0.001067912,-0.1257102,0.09433498,0,0.3,0,0,0,0,
6.38224E+17,-2.120397,19.7312,81.59869,-60.64079,-32.83843,57.13744,-17.01029,-0.4441859,-4.27255,-61.44649,-6.98289,34.57793,0,0,0,-9.525126,48.88684,88.91335,-36.10317,-110.6632,-50.33768,0.001067912,-0.1257102,0.09433498,0,0.3,0,0,0,0,
6.38224E+17,-2.308876,19.7312,81.62204,-62.17894,-33.13141,58.60235,-17.01029,-0.4441859,-4.27255,-61.44649,-6.98289,34.57793,0,0,0,-10.37168,48.94059,88.88854,-36.10317,-110.6632,-50.33768,0.001067912,-0.1257102,0.09433498,0,0.3,0,0,0,0,
6.38224E+17,-2.615156,19.7312,81.62204,-64.2298,-33.4244,60.21374,-17.01029,-0.4441859,-4.27255,-61.51973,-6.98289,34.57793,0,0,0,-11.74662,48.94059,88.82942,-36.10317,-110.6632,-50.33768,0.001067912,-0.1257102,0.09433498,0,0.3,0,0,0,0,
6.38224E+17,-3.251275,19.63769,81.27184,-66.13418,-33.35115,61.53215,-17.01029,-0.4441859,-4.27255,-61.44649,-6.909645,34.57793,0,0,0,-14.59842,47.92966,88.63533,-36.10317,-110.6632,-50.33768,0.001067912,-0.1257102,0.09433498,0,0.3,0,0,0,0,
6.38224E+17,-3.934513,19.21688,79.87099,-67.89206,-32.83843,62.19136,-17.01029,-0.4441859,-4.27255,-61.44649,-6.909645,34.57793,0,0,0,-17.6475,43.78986,88.23514,-36.10317,-110.6632,-50.33768,0.001067912,-0.1257102,0.09433498,0,0.3,0,0,0,0,
6.38224E+17,-4.193673,18.91297,78.56355,-68.47802,-32.32572,62.33785,-17.01029,-0.4441859,-4.27255,-61.44649,-6.909645,34.57793,0,0,0,-18.78317,40.13218,87.81536,-36.10317,-110.6632,-50.33768,0.001067912,-0.1257102,0.09433498,0,0.3,0,0,0,0,
6.38224E+17,-4.405713,18.16486,74.47778,-67.45258,-30.71432,61.09268,-17.01029,-0.4441859,-4.27255,-61.44649,-6.909645,34.57793,0,0,0,-19.60334,29.23609,86.08652,-36.10317,-110.6632,-50.33768,0.001067912,-0.1257102,0.09433498,0,0.3,0,0,0,0,
6.38224E+17,-4.099433,16.9492,69.38808,-63.79033,-28.66346,57.13744,-17.01029,-0.4441859,-4.27255,-61.51973,-6.98289,34.57793,0,0,0,-18.04143,15.28061,83.37583,-36.10317,-110.6632,-50.33768,0.001067912,-0.1257102,0.09433498,0,0.3,0,0,0,0,
6.38224E+17,-3.345515,15.5465,65.46573,-59.76185,-26.61259,52.96247,-17.01029,-0.4441859,-4.27255,-61.44649,-6.98289,34.57793,0,0,0,-14.57651,3.718619,81.00571,-36.10317,-110.6632,-50.33768,0.001067912,-0.1257102,0.09433498,0,0.3,0,0,0,0,
6.38224E+17,-2.261756,14.42435,62.52398,-56.31932,-24.92796,49.30021,-17.01029,-0.4441859,-4.27255,-61.51973,-6.98289,34.57793,0,0,0,-9.765777,-4.956985,78.91233,-36.10317,-110.6632,-50.33768,0.001067912,-0.1257102,0.09433498,0,0.3,0,0,0,0,
6.38224E+17,0.1649197,13.18531,58.53159,-51.11892,-22.7306,43.80682,-17.01029,-0.4441859,-4.27255,-61.44649,-6.98289,34.57793,0,0,0,0.7010963,-15.84518,75.22151,-36.10317,-110.6632,-50.33768,0.001067912,-0.1257102,0.09433498,0,0.3,0,0,0,0,
6.38224E+17,1.908357,12.88139,56.8039,-48.40885,-21.70517,41.09675,-17.01029,-0.4441859,-4.27255,-61.44649,-6.909645,34.57793,0,0,0,8.044896,-19.93178,73.09756,-36.10317,-110.6632,-50.33768,0.001067912,-0.1257102,0.09433498,0,0.3,0,0,0,0,
6.38224E+17,9.659584,13.16193,53.20842,-39.69267,-19.28808,32.30733,-17.01029,-0.4441859,-4.27255,-61.51973,-6.98289,34.57793,0,0,0,39.70614,-26.14979,64.93121,-36.10317,-110.6632,-50.33768,0.001067912,-0.1257102,0.09433498,0,0.3,0,0,0,0,
6.38224E+17,12.81662,13.39571,52.53135,-35.88392,-18.77536,29.23104,-17.01029,-0.4441859,-4.27255,-61.51973,-6.909645,34.57793,0,0,0,52.2546,-26.87657,61.34108,-36.10317,-110.6632,-50.33768,0.001067912,-0.1257102,0.09433498,0,0.3,0,0,0,0,
6.38224E+17,18.96577,13.98017,51.7142,-28.04669,-18.1894,23.00519,-17.01029,-0.4441859,-4.27255,-61.44649,-6.909645,34.57793,0,0,0,76.07366,-27.05612,53.01349,-36.10317,-110.6632,-50.33768,0.001067912,-0.1257102,0.09433498,0,0.3,0,0,0,0,
6.38224E+17,25.4212,14.75165,51.92432,-19.55025,-18.26265,15.82717,-17.01029,-0.4441859,-4.27255,-61.44649,-6.909645,34.57793,0,0,0,100.4178,-24.93231,42.92765,-36.10317,-110.6632,-50.33768,0.001067912,-0.1257102,0.09433498,0,0.3,0,0,0,0,
6.38224E+17,28.79027,15.42961,52.57804,-14.86256,-18.62887,11.87193,-17.01029,-0.4441859,-4.27255,-61.44649,-6.98289,34.65118,0,0,0,112.9113,-22.20581,37.11747,-36.10317,-110.6632,-50.33768,0.001067912,-0.1257102,0.09433498,0,0.3,0,0,0,0,
6.38224E+17,34.20906,17.13622,54.42248,-5.999893,-19.43457,4.327676,-17.01029,-0.4441859,-4.27255,-61.51973,-6.98289,34.57793,0,0,0,132.6194,-14.94271,26.72709,-36.10317,-110.6632,-50.33768,0.001067912,-0.1257102,0.09433498,0,0.3,0,0,0,0,
6.38224E+17,39.2509,19.26364,57.01402,3.082508,-20.89947,-4.388499,-17.01029,-0.4441859,-4.27255,-61.51973,-6.98289,34.57793,0,0,0,150.4212,-5.256026,15.75044,-36.10317,-110.6632,-50.33768,0.001067912,-0.1257102,0.09433498,0,0.3,0,0,0,0,
6.38224E+17,41.20637,20.50268,58.34481,7.110993,-21.63192,-8.636719,-17.01029,-0.4441859,-4.27255,-61.44649,-6.98289,34.57793,0,0,0,157.0604,0.07312754,11.0184,-36.10317,-110.6632,-50.33768,0.001067912,-0.1257102,0.09433498,0,0.3,0,0,0,0,
6.38224E+17,44.81104,23.51847,60.95971,14.87498,-23.24332,-16.91342,-17.01029,-0.4441859,-4.27255,-61.51973,-6.98289,34.57793,0,0,0,168.3401,11.83125,1.104098,-36.10317,-110.6632,-50.33768,0.001067912,-0.1257102,0.09433498,0,0.3,0,0,0,0,
6.38224E+17,48.10944,26.88494,63.76138,22.49248,-25.14769,-24.8239,-17.01029,-0.4441859,-4.27255,-61.51973,-6.909645,34.57793,0,0,0,177.5793,24.69546,-9.069966,-36.10317,-110.6632,-50.33768,0.001067912,-0.1257102,0.09433498,0,0.3,0,0,0,0,
6.38224E+17,49.4288,28.47465,65.27895,25.935,-25.95339,-28.48616,-17.01029,-0.4441859,-4.27255,-61.51973,-6.909645,34.57793,0,0,0,181.0484,31.1602,-13.33058,-36.10317,-110.6632,-50.33768,0.001067912,-0.1257102,0.09433498,0,0.3,0,0,0,0,
6.38224E+17,51.66699,31.958,68.40749,32.96654,-27.41829,-36.25014,-17.01029,-0.4441859,-4.27255,-61.44649,-6.909645,34.57793,0,0,0,186.0102,44.85862,-21.27395,-36.10317,-110.6632,-50.33768,0.001067912,-0.1257102,0.09433498,0,0.3,0,0,0,0,
6.38224E+17,53.24551,35.69852,71.23251,40.29105,-29.17617,-44.89308,-17.01029,-0.4441859,-4.27255,-61.44649,-6.909645,34.57793,0,0,0,187.9258,58.25991,-27.99621,-36.10317,-110.6632,-50.33768,0.001067912,-0.1257102,0.09433498,0,0.3,0,0,0,0,
6.38224E+17,53.88163,38.97147,74.59451,46.80988,-30.78757,-53.02329,-17.01029,-0.4441859,-4.27255,-61.44649,-6.909645,34.57793,0,0,0,187.598,71.79403,-31.45905,-36.10317,-110.6632,-50.33768,0.001067912,-0.1257102,0.09433498,0,0.3,0,0,0,0,
6.38224E+17,53.97587,41.89374,76.81251,52.66949,-32.39896,-59.98158,-17.01029,-0.4441859,-4.27255,-61.51973,-6.909645,34.57793,0,0,0,185.2867,81.97237,-33.61208,-36.10317,-110.6632,-50.33768,0.001067912,-0.1257102,0.09433498,0,0.3,0,0,0,0,
6.38224E+17,53.97587,43.88089,77.86314,57.50367,-33.86386,-65.54821,-17.01029,-0.4441859,-4.27255,-61.51973,-6.98289,34.57793,0,0,0,183.1747,87.74654,-35.14788,-36.10317,-110.6632,-50.33768,0.001067912,-0.1257102,0.09433498,0,0.3,0,0,0,0,
6.38224E+17,53.97587,44.25494,78.11996,59.04182,-34.37658,-67.01311,-17.01029,-0.4441859,-4.27255,-61.44649,-6.98289,34.57793,0,0,0,182.7856,88.9567,-35.43085,-36.10317,-110.6632,-50.33768,0.001067912,-0.1257102,0.09433498,0,0.3,0,0,0,0,
6.38224E+17,54.04655,44.23156,78.18999,61.16593,-34.8893,-68.62451,-17.01029,-0.4441859,-4.27255,-61.44649,-6.98289,34.57793,0,0,0,183.0072,89.07726,-35.6145,-36.10317,-110.6632,-50.33768,0.001067912,-0.1257102,0.09433498,0,0.3,0,0,0,0,
6.38224E+17,54.18791,43.67049,77.93317,61.82513,-34.59632,-68.91749,-17.01029,-0.4441859,-4.27255,-61.44649,-6.909645,34.57793,0,0,0,183.9689,87.55235,-35.60846,-36.10317,-110.6632,-50.33768,0.001067912,-0.1257102,0.09433498,0,0.3,0,0,0,0,
6.38224E+17,54.21147,43.2263,77.51292,61.89838,-34.23009,-68.84425,-17.01029,-0.4441859,-4.27255,-61.51973,-6.909645,34.57793,0,0,0,184.4314,85.8461,-35.38998,-36.10317,-110.6632,-50.33768,0.001067912,-0.1257102,0.09433498,0,0.3,0,0,0,0,
6.38224E+17,54.21147,41.87036,76.4156,61.45891,-33.49764,-67.52583,-17.01029,-0.4441859,-4.27255,-61.44649,-6.909645,34.57793,0,0,0,185.6952,81.03321,-34.47894,-36.10317,-110.6632,-50.33768,0.001067912,-0.1257102,0.09433498,0,0.3,0,0,0,0,
6.38224E+17,54.23503,39.62605,74.54782,59.99401,-32.25247,-64.01007,-17.01029,-0.4441859,-4.27255,-61.51973,-6.98289,34.57793,0,0,0,187.6323,72.86823,-33.19961,-36.10317,-110.6632,-50.33768,0.001067912,-0.1257102,0.09433498,0,0.3,0,0,0,0,
6.38224E+17,54.14079,36.82067,73.12363,57.94314,-30.42134,-59.61535,-17.01029,-0.4441859,-4.27255,-61.51973,-6.98289,34.57793,0,0,0,189.9357,64.55581,-31.06544,-36.10317,-110.6632,-50.33768,0.001067912,-0.1257102,0.09433498,0,0.3,0,0,0,0,
6.38224E+17,54.04655,35.13744,72.96021,56.91771,-29.39591,-57.85748,-17.01029,-0.4441859,-4.27255,-61.44649,-6.98289,34.57793,0,0,0,191.4828,61.0219,-29.46712,-36.10317,-110.6632,-50.33768,0.001067912,-0.1257102,0.09433498,0,0.3,0,0,0,0,
6.38224E+17,53.81095,31.44369,72.79677,55.59929,-27.63803,-55.36714,-17.01029,-0.4441859,-4.27255,-61.44649,-6.98289,34.57793,0,0,0,194.6274,53.47355,-25.96137,-36.10317,-110.6632,-50.33768,0.001067912,-0.1257102,0.09433498,0,0.3,0,0,0,0,
6.38224E+17,53.36331,26.93169,72.42323,54.13439,-25.8069,-53.53601,-17.01029,-0.4441859,-4.27255,-61.51973,-6.909645,34.65118,0,0,0,197.4089,43.47842,-21.54502,-36.10317,-110.6632,-50.33768,0.001067912,-0.1257102,0.09433498,0,0.3,0,0,0,0,
6.38224E+17,52.49159,21.15727,72.46991,51.93703,-23.75603,-51.33865,-17.01029,-0.4441859,-4.27255,-61.44649,-6.98289,34.57793,0,0,0,199.5205,31.31401,-15.20603,-36.10317,-110.6632,-50.33768,0.001067912,-0.1257102,0.09433498,0,0.3,0,0,0,0,
6.38224E+17,52.23243,19.61431,72.44656,51.20458,-23.24332,-50.75269,-17.01029,-0.4441859,-4.27255,-61.44649,-6.909645,34.57793,0,0,0,199.8016,27.89614,-13.54905,-36.10317,-110.6632,-50.33768,0.001067912,-0.1257102,0.09433498,0,0.3,0,0,0,0,
6.38224E+17,51.38427,15.52313,72.14305,49.00723,-21.9249,-49.65401,-17.01029,-0.4441859,-4.27255,-61.44649,-6.909645,34.57793,0,0,0,199.5657,18.14746,-8.949136,-36.10317,-110.6632,-50.33768,0.001067912,-0.1257102,0.09433498,0,0.3,0,0,0,0,
6.38224E+17,50.08848,12.13329,71.53602,46.80988,-21.04596,-49.21454,-17.01029,-0.4441859,-4.27255,-61.44649,-6.909645,34.57793,0,0,0,197.0183,9.14532,-3.549757,-36.10317,-110.6632,-50.33768,0.001067912,-0.1257102,0.09433498,0,0.3,0,0,0,0,
6.38224E+17,48.2508,10.12276,70.20523,44.0998,-20.24026,-47.74964,-17.01029,-0.4441859,-4.27255,-61.51973,-6.98289,34.57793,0,0,0,191.5487,1.628052,2.608961,-36.10317,-110.6632,-50.33768,0.001067912,-0.1257102,0.09433498,0,0.3,0,0,0,0,
6.38224E+17,47.21416,9.468172,69.31803,42.56165,-19.72755,-46.13824,-17.01029,-0.4441859,-4.27255,-61.44649,-6.909645,34.57793,0,0,0,188.0904,-1.810575,5.73731,-36.10317,-110.6632,-50.33768,0.001067912,-0.1257102,0.09433498,0,0.3,0,0,0,0,
6.38224E+17,44.9524,8.20575,67.59034,39.70509,-18.40914,-42.3295,-17.01029,-0.4441859,-4.27255,-61.44649,-6.909645,34.57793,0,0,0,180.3492,-8.453721,12.29906,-36.10317,-110.6632,-50.33768,0.001067912,-0.1257102,0.09433498,0,0.3,0,0,0,0,
6.38224E+17,42.17233,6.990083,65.79259,36.55555,-16.94423,-37.49532,-17.01029,-0.4441859,-4.27255,-61.44649,-6.98289,34.57793,0,0,0,170.5147,-15.10059,19.88414,-36.10317,-110.6632,-50.33768,0.001067912,-0.1257102,0.09433498,0,0.3,0,0,0,0,
6.38224E+17,40.66449,6.616032,64.78866,34.87091,-16.35827,-34.712,-17.01029,-0.4441859,-4.27255,-61.44649,-6.98289,34.57793,0,0,0,164.9333,-18.08761,23.64319,-36.10317,-110.6632,-50.33768,0.001067912,-0.1257102,0.09433498,0,0.3,0,0,0,0,
6.38224E+17,36.80066,6.38225,61.68347,30.54945,-14.30741,-27.46073,-17.01029,-0.4441859,-4.27255,-61.51973,-6.98289,34.57793,0,0,0,149.7085,-25.0802,31.76464,-36.10317,-110.6632,-50.33768,0.001067912,-0.1257102,0.09433498,0,0.3,0,0,0,0,
6.38224E+17,33.54939,6.38225,59.60557,27.18017,-12.69601,-22.04058,-17.01029,-0.4441859,-4.27255,-61.51973,-6.909645,34.57793,0,0,0,136.8078,-29.2951,37.95752,-36.10317,-110.6632,-50.33768,0.001067912,-0.1257102,0.09433498,0,0.3,0,0,0,0,
6.38224E+17,31.57035,6.38225,58.67168,25.20255,-11.81707,-18.67131,-17.01029,-0.4441859,-4.27255,-61.51973,-6.909645,34.57793,0,0,0,129.0179,-31.16086,41.60904,-36.10317,-110.6632,-50.33768,0.001067912,-0.1257102,0.09433498,0,0.3,0,0,0,0,
6.38224E+17,27.73007,6.475762,57.34089,20.95433,-9.839451,-12.006,-17.01029,-0.4441859,-4.27255,-61.44649,-6.909645,34.57793,0,0,0,113.8913,-33.57136,48.30452,-36.10317,-110.6632,-50.33768,0.001067912,-0.1257102,0.09433498,0,0.3,0,0,0,0,
6.38224E+17,23.79556,6.616032,56.38364,16.77936,-8.081567,-5.413931,-17.01029,-0.4441859,-4.27255,-61.51973,-6.909645,34.57793,0,0,0,98.25043,-35.11253,54.46031,-36.10317,-110.6632,-50.33768,0.001067912,-0.1257102,0.09433498,0,0.3,0,0,0,0,
6.38224E+17,19.41341,7.177108,55.44976,12.60438,-6.689909,1.397869,-17.01029,-0.4441859,-4.27255,-61.51973,-6.909645,34.57793,0,0,0,80.48165,-35.61629,60.01944,-36.10317,-110.6632,-50.33768,0.001067912,-0.1257102,0.09433498,0,0.3,0,0,0,0,
6.38224E+17,14.46582,8.088859,54.30574,7.696954,-5.444741,8.795631,-17.01029,-0.4441859,-4.27255,-61.44649,-6.98289,34.57793,0,0,0,60.03311,-35.69086,64.35346,-36.10317,-110.6632,-50.33768,0.001067912,-0.1257102,0.09433498,0,0.3,0,0,0,0,
6.38224E+17,9.753823,9.000608,53.95553,1.69085,-4.419309,15.3877,-17.01029,-0.4441859,-4.27255,-61.44649,-6.98289,34.50468,0,0,0,40.57997,-34.25294,67.71711,-36.10317,-110.6632,-50.33768,0.001067912,-0.1257102,0.09433498,0,0.3,0,0,0,0,
6.38224E+17,7.468508,9.748712,54.04892,-1.531937,-4.053083,18.61049,-17.01029,-0.4441859,-4.27255,-61.51973,-6.98289,34.57793,0,0,0,31.11409,-32.35923,68.99297,-36.10317,-110.6632,-50.33768,0.001067912,-0.1257102,0.09433498,0,0.3,0,0,0,0,
6.38224E+17,2.827195,12.27356,54.09562,-8.050756,-3.833347,25.42229,-17.01029,-0.4441859,-4.27255,-61.51973,-6.98289,34.57793,0,0,0,11.75462,-26.50355,69.67513,-36.10317,-110.6632,-50.33768,0.001067912,-0.1257102,0.09433498,0,0.3,0,0,0,0,
6.38224E+17,-1.366478,14.91529,54.37578,-14.20335,-4.126328,30.98892,-17.01029,-0.4441859,-4.27255,-61.44649,-6.98289,34.57793,0,0,0,-5.657796,-19.99887,68.83379,-36.10317,-110.6632,-50.33768,0.001067912,-0.1257102,0.09433498,0,0.3,0,0,0,0,
6.38224E+17,-3.369075,16.29461,54.60926,-17.49938,-4.346064,33.33276,-17.01029,-0.4441859,-4.27255,-61.44649,-6.98289,34.57793,0,0,0,-13.91048,-16.46473,67.94423,-36.10317,-110.6632,-50.33768,0.001067912,-0.1257102,0.09433498,0,0.3,0,0,0,0,
6.38224E+17,-7.138669,18.93634,55.16959,-23.65198,-4.565799,37.65423,-17.01029,-0.4441859,-4.27255,-61.44649,-6.909645,34.57793,0,0,0,-29.2774,-9.538357,65.41665,-36.10317,-110.6632,-50.33768,0.001067912,-0.1257102,0.09433498,0,0.3,0,0,0,0,
6.38224E+17,-10.74334,21.53132,55.35637,-29.14537,-4.419309,42.34192,-17.01029,-0.4441859,-4.27255,-61.44649,-6.98289,34.57793,0,0,0,-43.57368,-3.514768,61.30479,-36.10317,-110.6632,-50.33768,0.001067912,-0.1257102,0.09433498,0,0.3,0,0,0,0,
6.38224E+17,-12.43966,22.72361,55.40306,-31.41597,-4.272818,44.46603,-17.01029,-0.4441859,-4.27255,-61.44649,-6.909645,34.57793,0,0,0,-50.14097,-0.8548315,58.9539,-36.10317,-110.6632,-50.33768,0.001067912,-0.1257102,0.09433498,0,0.3,0,0,0,0,
6.38224E+17,-15.99721,25.27184,55.63654,-36.25014,-3.760103,48.86074,-17.01029,-0.4441859,-4.27255,-61.51973,-6.98289,34.57793,0,0,0,-63.56892,5.01073,53.38186,-36.10317,-110.6632,-50.33768,0.001067912,-0.1257102,0.09433498,0,0.3,0,0,0,0,
6.38224E+17,-19.22493,28.19411,55.63654,-40.93784,-2.88116,52.59624,-17.01029,-0.4441859,-4.27255,-61.44649,-6.98289,34.57793,0,0,0,-74.94527,11.08439,46.56238,-36.10317,-110.6632,-50.33768,0.001067912,-0.1257102,0.09433498,0,0.3,0,0,0,0,
6.38224E+17,-22.9474,31.51382,55.40306,-45.77202,-1.928973,56.47824,-17.01029,-0.4441859,-4.27255,-61.51973,-6.98289,34.57793,0,0,0,-87.1208,17.3365,37.41875,-36.10317,-110.6632,-50.33768,0.001067912,-0.1257102,0.09433498,0,0.3,0,0,0,0,
6.38224E+17,-25.49188,33.5711,55.09955,-48.40885,-1.416257,58.89533,-17.01029,-0.4441859,-4.27255,-61.51973,-6.98289,34.57793,0,0,0,-94.88825,20.79221,30.65996,-36.10317,-110.6632,-50.33768,0.001067912,-0.1257102,0.09433498,0,0.3,0,0,0,0,
6.38224E+17,-27.21176,34.71663,54.86607,-50.02024,-1.196521,60.36023,-17.01029,-0.4441859,-4.27255,-61.51973,-6.909645,34.57793,0,0,0,-99.99154,22.55371,26.11435,-36.10317,-110.6632,-50.33768,0.001067912,-0.1257102,0.09433498,0,0.3,0,0,0,0,
6.38224E+17,-30.29811,36.04919,54.49252,-52.80355,-0.61056,62.99706,-17.01029,-0.4441859,-4.27255,-61.44649,-6.909645,34.57793,0,0,0,-109.1571,24.37284,18.46415,-36.10317,-110.6632,-50.33768,0.001067912,-0.1257102,0.09433498,0,0.3,0,0,0,0,
6.38224E+17,-32.93682,36.51675,53.65202,-55.29389,0.1218917,65.12117,-17.01029,-0.4441859,-4.27255,-61.44649,-6.909645,34.57793,0,0,0,-116.6677,23.66603,11.7369,-36.10317,-110.6632,-50.33768,0.001067912,-0.1257102,0.09433498,0,0.3,0,0,0,0,
6.38224E+17,-35.2457,36.51675,51.90097,-57.19827,1.440305,66.36633,-17.01029,-0.4441859,-4.27255,-61.51973,-6.98289,34.57793,0,0,0,-122.4054,20.421,4.877265,-36.10317,-110.6632,-50.33768,0.001067912,-0.1257102,0.09433498,0,0.3,0,0,0,0,
6.38224E+17,-36.28234,36.37648,50.54683,-57.93071,2.026266,66.80581,-17.01029,-0.4441859,-4.27255,-61.44649,-6.909645,34.57793,0,0,0,-124.4662,17.70145,1.199661,-36.10317,-110.6632,-50.33768,0.001067912,-0.1257102,0.09433498,0,0.3,0,0,0,0,
6.38224E+17,-38.00222,35.51149,48.07202,-58.58992,3.271434,67.31852,-17.01029,-0.4441859,-4.27255,-61.44649,-6.98289,34.57793,0,0,0,-127.9145,11.70458,-4.640029,-36.10317,-110.6632,-50.33768,0.001067912,-0.1257102,0.09433498,0,0.3,0,0,0,0,
6.38224E+17,-39.34513,33.68799,46.08751,-58.73641,4.736337,67.6115,-17.01029,-0.4441859,-4.27255,-61.51973,-6.98289,34.57793,0,0,0,-131.2499,4.829159,-8.251466,-36.10317,-110.6632,-50.33768,0.001067912,-0.1257102,0.09433498,0,0.3,0,0,0,0,
6.38224E+17,-39.9577,31.72422,43.9629,-58.58992,6.347731,67.68475,-17.01029,-0.4441859,-4.27255,-61.51973,-6.98289,34.57793,0,0,0,-132.2955,-2.51432,-10.44973,-36.10317,-110.6632,-50.33768,0.001067912,-0.1257102,0.09433498,0,0.3,0,0,0,0,
6.38224E+17,-40.09905,30.39166,42.46867,-58.29694,7.446409,67.68475,-17.01029,-0.4441859,-4.27255,-61.51973,-6.98289,34.57793,0,0,0,-132.0828,-7.552303,-11.49135,-36.10317,-110.6632,-50.33768,0.001067912,-0.1257102,0.09433498,0,0.3,0,0,0,0,
6.38224E+17,-40.07549,27.67979,39.87713,-57.34475,9.570518,67.31852,-17.01029,-0.4441859,-4.27255,-61.51973,-6.909645,34.57793,0,0,0,-131.0677,-17.04057,-12.56697,-36.10317,-110.6632,-50.33768,0.001067912,-0.1257102,0.09433498,0,0.3,0,0,0,0,
6.38224E+17,-39.69854,24.71076,37.65914,-56.24608,11.62138,66.1466,-17.01029,-0.4441859,-4.27255,-61.51973,-6.909645,34.57793,0,0,0,-129.4174,-26.47246,-12.4579,-36.10317,-110.6632,-50.33768,0.001067912,-0.1257102,0.09433498,0,0.3,0,0,0,0,
6.38224E+17,-38.70901,21.97551,35.65128,-55.1474,13.45251,64.31547,-17.01029,-0.4441859,-4.27255,-61.51973,-6.909645,34.57793,0,0,0,-125.9389,-35.10654,-11.2033,-36.10317,-110.6632,-50.33768,0.001067912,-0.1257102,0.09433498,0,0.3,0,0,0,0,
6.38224E+17,-37.79018,20.73647,34.85747,-54.63469,14.4047,63.21679,-17.01029,-0.4441859,-4.27255,-61.44649,-6.909645,34.57793,0,0,0,-123.1217,-38.8586,-9.566298,-36.10317,-110.6632,-50.33768,0.001067912,-0.1257102,0.09433498,0,0.3,0,0,0,0,
6.38224E+17,-35.66978,19.40391,33.43328,-53.38951,16.30907,61.23917,-17.01029,-0.4441859,-4.27255,-61.44649,-6.98289,34.57793,0,0,0,-116.1835,-43.63203,-6.483504,-36.10317,-110.6632,-50.33768,0.001067912,-0.1257102,0.09433498,0,0.3,0,0,0,0,
6.38224E+17,-32.96038,18.74932,32.10249,-51.77813,17.77398,59.26155,-17.01029,-0.4441859,-4.27255,-61.44649,-6.98289,34.57793,0,0,0,-107.2561,-46.74818,-2.939824,-36.10317,-110.6632,-50.33768,0.001067912,-0.1257102,0.09433498,0,0.3,0,0,0,0,
6.38224E+17,-31.35831,18.51554,31.49546,-50.89918,18.28669,58.01638,-17.01029,-0.4441859,-4.27255,-61.44649,-6.909645,34.57793,0,0,0,-102.0553,-48.00822,-0.8827251,-36.10317,-110.6632,-50.33768,0.001067912,-0.1257102,0.09433498,0,0.3,0,0,0,0,
6.38224E+17,-27.89499,17.97784,30.60827,-49.28778,18.9459,55.23307,-17.01029,-0.4441859,-4.27255,-61.51973,-6.98289,34.57793,0,0,0,-91.10799,-50.2618,3.759427,-36.10317,-110.6632,-50.33768,0.001067912,-0.1257102,0.09433498,0,0.3,0,0,0,0,
6.38224E+17,-23.60708,17.41676,29.97789,-47.09043,19.31213,52.01028,-17.01029,-0.4441859,-4.27255,-61.51973,-6.98289,34.57793,0,0,0,-77.6363,-52.2459,9.29263,-36.10317,-110.6632,-50.33768,0.001067912,-0.1257102,0.09433498,0,0.3,0,0,0,0,
6.38224E+17,-21.01549,17.18298,29.69772,-45.55228,19.38537,50.39889,-17.01029,-0.4441859,-4.27255,-61.44649,-6.98289,34.57793,0,0,0,-69.37971,-53.08981,12.24442,-36.10317,-110.6632,-50.33768,0.001067912,-0.1257102,0.09433498,0,0.3,0,0,0,0,
6.38224E+17,-15.92653,16.66866,29.30082,-41.96327,19.53186,46.95637,-17.01029,-0.4441859,-4.27255,-61.51973,-6.98289,34.57793,0,0,0,-52.96211,-54.68985,17.24867,-36.10317,-110.6632,-50.33768,0.001067912,-0.1257102,0.09433498,0,0.3,0,0,0,0,
6.38224E+17,-10.1779,16.45825,29.27747,-37.34882,19.31213,43.29411,-17.01029,-0.4441859,-4.27255,-61.44649,-6.98289,34.57793,0,0,0,-34.12169,-55.18581,21.71094,-36.10317,-110.6632,-50.33768,0.001067912,-0.1257102,0.09433498,0,0.3,0,0,0,0,
6.38224E+17,-4.664873,16.45825,29.37086,-32.51464,18.72616,39.85158,-17.01029,-0.4441859,-4.27255,-61.44649,-6.98289,34.57793,0,0,0,-15.71971,-55.07936,24.29881,-36.10317,-110.6632,-50.33768,0.001067912,-0.1257102,0.09433498,0,0.3,0,0,0,0,
6.38224E+17,-1.460718,16.45825,29.60433,-29.65808,18.43318,37.65423,-17.01029,-0.4441859,-4.27255,-61.44649,-6.909645,34.57793,0,0,0,-4.9393,-54.81189,25.34912,-36.10317,-110.6632,-50.33768,0.001067912,-0.1257102,0.09433498,0,0.3,0,0,0,0,
6.38224E+17,4.358593,16.45825,30.3281,-23.87171,17.481,32.60031,-17.01029,-0.4441859,-4.27255,-61.44649,-6.98289,34.57793,0,0,0,14.83652,-53.97051,26.30679,-36.10317,-110.6632,-50.33768,0.001067912,-0.1257102,0.09433498,0,0.3,0,0,0,0,
6.38224E+17,10.43706,16.45825,31.91571,-17.2064,16.52881,26.81394,-17.01029,-0.4441859,-4.27255,-61.51973,-6.98289,34.57793,0,0,0,35.93841,-52.06077,26.75209,-36.10317,-110.6632,-50.33768,0.001067912,-0.1257102,0.09433498,0,0.3,0,0,0,0,
6.38224E+17,14.98414,16.52839,33.66676,-11.49328,15.79636,21.3938,-17.01029,-0.4441859,-4.27255,-61.44649,-6.909645,34.57793,0,0,0,52.16639,-49.6972,26.55347,-36.10317,-110.6632,-50.33768,0.001067912,-0.1257102,0.09433498,0,0.3,0,0,0,0,
6.38224E+17,18.94221,16.83231,35.51119,-6.659099,14.69768,15.53419,-17.01029,-0.4441859,-4.27255,-61.51973,-6.98289,34.57793,0,0,0,66.57668,-46.58281,25.63814,-36.10317,-110.6632,-50.33768,0.001067912,-0.1257102,0.09433498,0,0.3,0,0,0,0,
6.38224E+17,20.80345,17.11284,36.42173,-4.608234,14.18496,12.45789,-17.01029,-0.4441859,-4.27255,-61.51973,-6.98289,34.57793,0,0,0,73.38358,-44.71371,24.79864,-36.10317,-110.6632,-50.33768,0.001067912,-0.1257102,0.09433498,0,0.3,0,0,0,0,
6.38224E+17,24.4788,18.07135,38.07939,-1.165711,13.15953,7.037747,-17.01029,-0.4441859,-4.27255,-61.51973,-6.98289,34.57793,0,0,0,86.60712,-40.25206,21.87848,-36.10317,-110.6632,-50.33768,0.001067912,-0.1257102,0.09433498,0,0.3,0,0,0,0,
6.38224E+17,27.98923,19.47404,39.83044,2.276812,11.76787,1.983831,-17.01029,-0.4441859,-4.27255,-61.44649,-6.909645,34.57793,0,0,0,99.08658,-34.59906,18.08926,-36.10317,-110.6632,-50.33768,0.001067912,-0.1257102,0.09433498,0,0.3,0,0,0,0,
6.38224E+17,29.56775,20.31566,40.76432,3.888205,10.96218,-0.4332596,-17.01029,-0.4441859,-4.27255,-61.44649,-6.909645,34.57793,0,0,0,104.6739,-31.35148,16.15109,-36.10317,-110.6632,-50.33768,0.001067912,-0.1257102,0.09433498,0,0.3,0,0,0,0,
6.38224E+17,32.46563,21.95213,42.81889,6.671522,9.277537,-5.047705,-17.01029,-0.4441859,-4.27255,-61.44649,-6.98289,34.57793,0,0,0,115.0442,-24.61253,12.47251,-36.10317,-110.6632,-50.33768,0.001067912,-0.1257102,0.09433498,0,0.3,0,0,0,0,
6.38224E+17,35.15146,23.3782,45.2937,9.381593,7.446409,-9.66215,-17.01029,-0.4441859,-4.27255,-61.44649,-6.98289,34.57793,0,0,0,125.0378,-17.545,9.22148,-36.10317,-110.6632,-50.33768,0.001067912,-0.1257102,0.09433498,0,0.3,0,0,0,0,
6.38224E+17,37.64882,25.24846,47.65177,12.45789,5.615279,-13.83713,-17.01029,-0.4441859,-4.27255,-61.51973,-6.98289,34.57793,0,0,0,133.8703,-9.599514,5.178041,-36.10317,-110.6632,-50.33768,0.001067912,-0.1257102,0.09433498,0,0.3,0,0,0,0,
6.38224E+17,38.61478,26.32386,48.51562,13.92279,4.882828,-15.59501,-17.01029,-0.4441859,-4.27255,-61.51973,-6.98289,34.57793,0,0,0,136.9354,-5.849842,3.095274,-36.10317,-110.6632,-50.33768,0.001067912,-0.1257102,0.09433498,0,0.3,0,0,0,0,
6.38224E+17,40.45245,28.82533,50.94373,16.8526,2.978453,-19.40376,-17.01029,-0.4441859,-4.27255,-61.44649,-6.98289,34.57793,0,0,0,142.9843,3.621891,-0.6552692,-36.10317,-110.6632,-50.33768,0.001067912,-0.1257102,0.09433498,0,0.3,0,0,0,0,
6.38224E+17,42.31369,31.60733,54.44583,19.63592,0.707853,-22.5533,-17.01029,-0.4441859,-4.27255,-61.51973,-6.98289,34.57793,0,0,0,149.487,15.6987,-4.144799,-36.10317,-110.6632,-50.33768,0.001067912,-0.1257102,0.09433498,0,0.3,0,0,0,0,
6.38224E+17,44.05713,35.09068,58.83511,23.88414,-2.954405,-26.21556,-17.01029,-0.4441859,-4.27255,-61.44649,-6.909645,34.57793,0,0,0,155.2202,31.00021,-7.935189,-36.10317,-110.6632,-50.33768,0.001067912,-0.1257102,0.09433498,0,0.3,0,0,0,0,
6.38224E+17,44.83461,37.73242,62.08038,27.47315,-6.250438,-29.29186,-17.01029,-0.4441859,-4.27255,-61.51973,-6.909645,34.57793,0,0,0,157.435,42.51802,-10.0034,-36.10317,-110.6632,-50.33768,0.001067912,-0.1257102,0.09433498,0,0.3,0,0,0,0,
6.38224E+17,45.09377,39.18187,63.66799,29.37753,-8.154812,-31.12299,-17.01029,-0.4441859,-4.27255,-61.51973,-6.909645,34.57793,0,0,0,157.8569,48.44809,-11.0089,-36.10317,-110.6632,-50.33768,0.001067912,-0.1257102,0.09433498,0,0.3,0,0,0,0,
6.38224E+17,45.14088,42.05739,66.5864,33.11303,-12.03681,-34.78524,-17.01029,-0.4441859,-4.27255,-61.44649,-6.98289,34.57793,0,0,0,156.923,59.68906,-12.19683,-36.10317,-110.6632,-50.33768,0.001067912,-0.1257102,0.09433498,0,0.3,0,0,0,0,
6.38224E+17,44.78749,45.02642,69.69159,36.55555,-15.69907,-37.49532,-17.01029,-0.4441859,-4.27255,-61.44649,-6.98289,34.57793,0,0,0,154.4993,71.40393,-12.70037,-36.10317,-110.6632,-50.33768,0.001067912,-0.1257102,0.09433498,0,0.3,0,0,0,0,
6.38224E+17,44.45765,46.52262,70.99904,38.45993,-17.60344,-38.88697,-17.01029,-0.4441859,-4.27255,-61.44649,-6.909645,34.57793,0,0,0,152.5698,76.69827,-12.86409,-36.10317,-110.6632,-50.33768,0.001067912,-0.1257102,0.09433498,0,0.3,0,0,0,0,
6.38224E+17,43.25609,49.11761,72.77343,42.19543,-21.04596,-41.67029,-17.01029,-0.4441859,-4.27255,-61.44649,-6.909645,34.57793,0,0,0,147.0889,84.67814,-12.02314,-36.10317,-110.6632,-50.33768,0.001067912,-0.1257102,0.09433498,0,0.3,0,0,0,0,
6.38224E+17,41.58333,51.64245,73.52054,44.75901,-24.41524,-43.28168,-17.01029,-0.4441859,-4.27255,-61.51973,-6.98289,34.57793,0,0,0,139.7935,90.08926,-10.80451,-36.10317,-110.6632,-50.33768,0.001067912,-0.1257102,0.09433498,0,0.3,0,0,0,0,
6.38224E+17,40.66449,52.92825,73.54388,45.5647,-25.95339,-43.64791,-17.01029,-0.4441859,-4.27255,-61.51973,-6.98289,34.57793,0,0,0,135.7166,91.97197,-10.36701,-36.10317,-110.6632,-50.33768,0.001067912,-0.1257102,0.09433498,0,0.3,0,0,0,0,
6.38224E+17,37.90798,56.17782,73.47385,46.5169,-29.76214,-43.06195,-17.01029,-0.4441859,-4.27255,-61.44649,-6.909645,34.57793,0,0,0,124.1485,96.20125,-8.920048,-36.10317,-110.6632,-50.33768,0.001067912,-0.1257102,0.09433498,0,0.3,0,0,0,0,
6.38224E+17,35.90538,58.09484,73.38046,46.59014,-32.03274,-41.5238,-17.01029,-0.4441859,-4.27255,-61.44649,-6.909645,34.57793,0,0,0,116.2674,98.41389,-7.764678,-36.10317,-110.6632,-50.33768,0.001067912,-0.1257102,0.09433498,0,0.3,0,0,0,0,
6.38224E+17,32.93682,60.43266,72.32983,45.85769,-35.18228,-38.22777,-17.01029,-0.4441859,-4.27255,-61.51973,-6.909645,34.57793,0,0,0,104.8604,98.858,-6.488651,-36.10317,-110.6632,-50.33768,0.001067912,-0.1257102,0.09433498,0,0.3,0,0,0,0,
6.38224E+17,31.33475,61.46129,71.30255,44.68576,-36.79367,-35.81068,-17.01029,-0.4441859,-4.27255,-61.44649,-6.909645,34.57793,0,0,0,98.81782,97.74913,-6.045067,-36.10317,-110.6632,-50.33768,0.001067912,-0.1257102,0.09433498,0,0.3,0,0,0,0,
6.38224E+17,26.2458,63.7056,65.95602,36.55555,-40.2362,-22.77304,-17.01029,-0.4441859,-4.27255,-61.44649,-6.909645,34.57793,0,0,0,79.97666,88.57043,-6.143374,-36.10317,-110.6632,-50.33768,0.001067912,-0.1257102,0.09433498,0,0.3,0,0,0,0,
6.38224E+17,24.90288,63.89263,64.0182,33.40601,-40.45593,-18.37833,-17.01029,-0.4441859,-4.27255,-61.44649,-6.98289,34.57793,0,0,0,75.18578,84.67571,-6.3974,-36.10317,-110.6632,-50.33768,0.001067912,-0.1257102,0.09433498,0,0.3,0,0,0,0,
6.38224E+17,21.86364,63.58871,58.85846,25.27579,-39.57699,-7.904267,-17.01029,-0.4441859,-4.27255,-61.51973,-6.98289,34.57793,0,0,0,64.59218,73.81898,-7.376828,-36.10317,-110.6632,-50.33768,0.001067912,-0.1257102,0.09433498,0,0.3,0,0,0,0,
6.38224E+17,19.10713,62.32629,53.7921,16.55962,-36.94016,1.324624,-17.01029,-0.4441859,-4.27255,-61.51973,-6.98289,34.57793,0,0,0,55.49311,62.67357,-8.159899,-36.10317,-110.6632,-50.33768,0.001067912,-0.1257102,0.09433498,0,0.3,0,0,0,0,
6.38224E+17,17.15165,59.42739,47.8619,7.696954,-32.32572,9.601329,-17.01029,-0.4441859,-4.27255,-61.44649,-6.98289,34.57793,0,0,0,49.16273,48.69522,-9.055159,-36.10317,-110.6632,-50.33768,0.001067912,-0.1257102,0.09433498,0,0.3,0,0,0,0,
6.38224E+17,16.70401,56.94931,44.54658,4.181186,-28.66346,13.1171,-17.01029,-0.4441859,-4.27255,-61.44649,-6.909645,34.57793,0,0,0,47.79061,40.08649,-9.096112,-36.10317,-110.6632,-50.33768,0.001067912,-0.1257102,0.09433498,0,0.3,0,0,0,0,
6.38224E+17,16.56265,55.05567,42.30524,2.643037,-26.17312,14.87498,-17.01029,-0.4441859,-4.27255,-61.51973,-6.909645,34.57793,0,0,0,47.35919,34.0366,-9.107697,-36.10317,-110.6632,-50.33768,0.001067912,-0.1257102,0.09433498,0,0.3,0,0,0,0,
6.38224E+17,16.58621,50.59044,37.56575,0.5921727,-20.53325,16.99909,-17.01029,-0.4441859,-4.27255,-61.51973,-6.909645,34.57793,0,0,0,47.37406,20.67944,-9.297097,-36.10317,-110.6632,-50.33768,0.001067912,-0.1257102,0.09433498,0,0.3,0,0,0,0,
6.38224E+17,17.05741,45.5875,33.43328,-0.6529952,-14.23416,17.58505,-17.01029,-0.4441859,-4.27255,-61.51973,-6.98289,34.57793,0,0,0,48.92511,7.320268,-8.894805,-36.10317,-110.6632,-50.33768,0.001067912,-0.1257102,0.09433498,0,0.3,0,0,0,0,
6.38224E+17,18.25897,40.14038,30.21136,-1.165711,-7.715342,15.75392,-17.01029,-0.4441859,-4.27255,-61.44649,-6.98289,34.57793,0,0,0,52.96305,-5.921998,-7.818985,-36.10317,-110.6632,-50.33768,0.001067912,-0.1257102,0.09433498,0,0.3,0,0,0,0,
6.38224E+17,19.15425,37.28823,29.37086,-0.9459759,-4.85878,14.28902,-17.01029,-0.4441859,-4.27255,-61.44649,-6.909645,34.57793,0,0,0,56.26994,-12.07287,-6.348338,-36.10317,-110.6632,-50.33768,0.001067912,-0.1257102,0.09433498,0,0.3,0,0,0,0,
6.38224E+17,21.39244,31.65409,29.16073,0.6654179,0.7810982,11.28597,-17.01029,-0.4441859,-4.27255,-61.51973,-6.98289,34.57793,0,0,0,65.10424,-23.11801,-2.159055,-36.10317,-110.6632,-50.33768,0.001067912,-0.1257102,0.09433498,0,0.3,0,0,0,0,
6.38224E+17,23.3008,26.4875,29.79111,3.375489,5.76177,8.795631,-17.01029,-0.4441859,-4.27255,-61.51973,-6.98289,34.57793,0,0,0,73.418,-32.90236,2.118128,-36.10317,-110.6632,-50.33768,0.001067912,-0.1257102,0.09433498,0,0.3,0,0,0,0,
6.38224E+17,24.1254,22.48983,30.65496,5.353109,8.838067,6.451786,-17.01029,-0.4441859,-4.27255,-61.44649,-6.98289,34.57793,0,0,0,78.1498,-40.35581,6.148475,-36.10317,-110.6632,-50.33768,0.001067912,-0.1257102,0.09433498,0,0.3,0,0,0,0,
6.38224E+17,24.21964,19.02986,31.68224,6.744767,10.96218,4.620657,-17.01029,-0.4441859,-4.27255,-61.51973,-6.98289,34.57793,0,0,0,80.44669,-46.64717,10.48803,-36.10317,-110.6632,-50.33768,0.001067912,-0.1257102,0.09433498,0,0.3,0,0,0,0,
6.38224E+17,23.60708,14.86854,33.19981,7.989935,13.45251,2.423302,-17.01029,-0.4441859,-4.27255,-61.44649,-6.909645,34.57793,0,0,0,80.85423,-54.01487,16.6557,-36.10317,-110.6632,-50.33768,0.001067912,-0.1257102,0.09433498,0,0.3,0,0,0,0,
6.38224E+17,23.04164,13.39571,33.7368,8.209671,14.55119,1.54436,-17.01029,-0.4441859,-4.27255,-61.44649,-6.909645,34.57793,0,0,0,79.76017,-56.64967,19.17414,-36.10317,-110.6632,-50.33768,0.001067912,-0.1257102,0.09433498,0,0.3,0,0,0,0,
6.38224E+17,20.40293,10.89424,35.04425,7.623709,16.6753,-0.6529952,-17.01029,-0.4441859,-4.27255,-61.44649,-6.909645,34.57793,0,0,0,72.34473,-60.62211,26.1487,-36.10317,-110.6632,-50.33768,0.001067912,-0.1257102,0.09433498,0,0.3,0,0,0,0,
6.38224E+17,19.24849,10.75397,35.32441,7.037747,17.11477,-0.8727306,-17.01029,-0.4441859,-4.27255,-61.44649,-6.98289,34.57793,0,0,0,68.6073,-60.56704,28.12779,-36.10317,-110.6632,-50.33768,0.001067912,-0.1257102,0.09433498,0,0.3,0,0,0,0,
6.38224E+17,16.37417,10.98776,35.76801,5.060128,17.70073,-0.8727306,-17.01029,-0.4441859,-4.27255,-61.44649,-6.98289,34.57793,0,0,0,58.87645,-59.43249,32.02845,-36.10317,-110.6632,-50.33768,0.001067912,-0.1257102,0.09433498,0,0.3,0,0,0,0,
6.38224E+17,12.72238,11.33843,35.97814,1.837341,18.21345,0.07945653,-17.01029,-0.4441859,-4.27255,-61.44649,-6.909645,34.57793,0,0,0,46.04674,-58.3452,35.60401,-36.10317,-110.6632,-50.33768,0.001067912,-0.1257102,0.09433498,0,0.3,0,0,0,0,
6.38224E+17,10.62554,11.50208,36.07153,-0.140279,18.43318,0.6654179,-17.01029,-0.4441859,-4.27255,-61.44649,-6.98289,34.57793,0,0,0,38.57203,-57.84404,37.25088,-36.10317,-110.6632,-50.33768,0.001067912,-0.1257102,0.09433498,0,0.3,0,0,0,0,
6.38224E+17,5.819311,11.94626,36.18826,-5.267441,18.79941,1.69085,-17.01029,-0.4441859,-4.27255,-61.51973,-6.98289,34.57793,0,0,0,21.21083,-56.67162,39.76907,-36.10317,-110.6632,-50.33768,0.001067912,-0.1257102,0.09433498,0,0.3,0,0,0,0,
6.38224E+17,0.8952785,12.69436,36.86533,-11.34679,18.79941,2.862773,-17.01029,-0.4441859,-4.27255,-61.51973,-6.909645,34.57793,0,0,0,3.28267,-54.03268,41.71627,-36.10317,-110.6632,-50.33768,0.001067912,-0.1257102,0.09433498,0,0.3,0,0,0,0,
6.38224E+17,-6.12559,15.00881,39.17671,-22.26032,17.55424,4.767147,-17.01029,-0.4441859,-4.27255,-61.51973,-6.909645,34.57793,0,0,0,-22.73311,-45.48978,43.47363,-36.10317,-110.6632,-50.33768,0.001067912,-0.1257102,0.09433498,0,0.3,0,0,0,0,
6.38224E+17,-9.942304,17.53365,41.60483,-30.31729,16.08934,6.378541,-17.01029,-0.4441859,-4.27255,-61.51973,-6.98289,34.57793,0,0,0,-37.24156,-36.18761,44.10822,-36.10317,-110.6632,-50.33768,0.001067912,-0.1257102,0.09433498,0,0.3,0,0,0,0,
6.38224E+17,-11.07318,18.72594,42.6788,-33.46683,15.35689,7.403974,-17.01029,-0.4441859,-4.27255,-61.51973,-6.909645,34.57793,0,0,0,-41.61756,-31.87339,44.30331,-36.10317,-110.6632,-50.33768,0.001067912,-0.1257102,0.09433498,0,0.3,0,0,0,0,
6.38224E+17,-12.93442,21.97551,45.13026,-39.91241,13.599,10.55352,-17.01029,-0.4441859,-4.27255,-61.44649,-6.98289,34.57793,0,0,0,-48.8338,-20.82713,44.28253,-36.10317,-110.6632,-50.33768,0.001067912,-0.1257102,0.09433498,0,0.3,0,0,0,0,
6.38224E+17,-14.08886,26.41737,47.88524,-44.6001,11.18191,15.60743,-17.01029,-0.4441859,-4.27255,-61.44649,-6.98289,34.57793,0,0,0,-53.15084,-6.748564,43.42669,-36.10317,-110.6632,-50.33768,0.001067912,-0.1257102,0.09433498,0,0.3,0,0,0,0,
6.38224E+17,-14.44226,29.01235,49.5429,-46.50447,9.570518,18.61049,-17.01029,-0.4441859,-4.27255,-61.44649,-6.98289,34.57793,0,0,0,-54.39045,1.496547,42.84006,-36.10317,-110.6632,-50.33768,0.001067912,-0.1257102,0.09433498,0,0.3,0,0,0,0,
6.38224E+17,-14.6543,33.99191,53.06834,-49.58077,6.347731,24.39685,-17.01029,-0.4441859,-4.27255,-61.51973,-6.98289,34.57793,0,0,0,-54.93758,17.7778,41.74225,-36.10317,-110.6632,-50.33768,0.001067912,-0.1257102,0.09433498,0,0.3,0,0,0,0,
6.38224E+17,-14.51294,39.27538,57.52766,-52.58382,1.953021,30.54945,-17.01029,-0.4441859,-4.27255,-61.44649,-6.98289,34.57793,0,0,0,-54.06131,36.1724,40.49503,-36.10317,-110.6632,-50.33768,0.001067912,-0.1257102,0.09433498,0,0.3,0,0,0,0,
6.38224E+17,-13.52342,44.44196,62.19712,-56.17283,-3.320631,36.4823,-17.01029,-0.4441859,-4.27255,-61.51973,-6.909645,34.57793,0,0,0,-49.84647,54.52127,38.90227,-36.10317,-110.6632,-50.33768,0.001067912,-0.1257102,0.09433498,0,0.3,0,0,0,0,
6.38224E+17,-12.81662,46.8733,64.25168,-58.00396,-6.103948,39.33887,-17.01029,-0.4441859,-4.27255,-61.44649,-6.909645,34.57793,0,0,0,-46.86625,62.7449,37.65596,-36.10317,-110.6632,-50.33768,0.001067912,-0.1257102,0.09433498,0,0.3,0,0,0,0,
6.38224E+17,-10.4135,51.57232,66.84322,-61.73947,-12.47628,44.75901,-17.01029,-0.4441859,-4.27255,-61.44649,-6.909645,34.57793,0,0,0,-37.14194,75.37581,33.75224,-36.10317,-110.6632,-50.33768,0.001067912,-0.1257102,0.09433498,0,0.3,0,0,0,0,
6.38224E+17,-8.175306,54.26081,67.10004,-62.98463,-16.87099,47.46908,-17.01029,-0.4441859,-4.27255,-61.44649,-6.909645,34.57793,0,0,0,-28.54419,79.69849,30.33949,-36.10317,-110.6632,-50.33768,0.001067912,-0.1257102,0.09433498,0,0.3,0,0,0,0,
6.38224E+17,-6.643909,55.6635,66.98331,-62.83814,-19.28808,48.49451,-17.01029,-0.4441859,-4.27255,-61.44649,-6.909645,34.57793,0,0,0,-22.90255,81.32256,28.27113,-36.10317,-110.6632,-50.33768,0.001067912,-0.1257102,0.09433498,0,0.3,0,0,0,0,
6.38224E+17,-3.463314,58.14159,66.21284,-61.08026,-23.38981,49.59319,-17.01029,-0.4441859,-4.27255,-61.44649,-6.909645,34.57793,0,0,0,-11.6232,82.82609,23.70559,-36.10317,-110.6632,-50.33768,0.001067912,-0.1257102,0.09433498,0,0.3,0,0,0,0,
6.38224E+17,1.790557,60.73657,63.20105,-54.41495,-28.73671,46.59014,-17.01029,-0.4441859,-4.27255,-61.44649,-6.98289,34.57793,0,0,0,5.755904,79.55972,15.77238,-36.10317,-110.6632,-50.33768,0.001067912,-0.1257102,0.09433498,0,0.3,0,0,0,0,
6.38224E+17,3.698914,61.20414,62.12708,-51.19216,-29.90863,43.95331,-17.01029,-0.4441859,-4.27255,-61.44649,-6.98289,34.57793,0,0,0,11.74873,77.86739,13.38367,-36.10317,-110.6632,-50.33768,0.001067912,-0.1257102,0.09433498,0,0.3,0,0,0,0,
6.38224E+17,7.680547,61.53143,59.16197,-43.20844,-31.813,37.21476,-17.01029,-0.4441859,-4.27255,-61.44649,-6.98289,34.57793,0,0,0,23.79791,72.21822,8.114324,-36.10317,-110.6632,-50.33768,0.001067912,-0.1257102,0.09433498,0,0.3,0,0,0,0,
6.38224E+17,11.2381,60.59631,54.79603,-34.49226,-32.25247,28.42534,-17.01029,-0.4441859,-4.27255,-61.51973,-6.98289,34.57793,0,0,0,33.99417,62.64734,2.735893,-36.10317,-110.6632,-50.33768,0.001067912,-0.1257102,0.09433498,0,0.3,0,0,0,0,
6.38224E+17,12.86374,59.54428,52.41461,-29.80457,-31.66651,23.15168,-17.01029,-0.4441859,-4.27255,-61.44649,-6.909645,34.57793,0,0,0,38.57431,56.96461,0.5654567,-36.10317,-110.6632,-50.33768,0.001067912,-0.1257102,0.09433498,0,0.3,0,0,0,0,
6.38224E+17,15.40822,56.50512,47.60507,-21.52787,-28.73671,13.33683,-17.01029,-0.4441859,-4.27255,-61.51973,-6.909645,34.57793,0,0,0,45.71852,44.64574,-2.462874,-36.10317,-110.6632,-50.33768,0.001067912,-0.1257102,0.09433498,0,0.3,0,0,0,0,
6.38224E+17,16.96317,52.15677,42.53872,-15.59501,-24.26875,5.572844,-17.01029,-0.4441859,-4.27255,-61.51973,-6.98289,34.57793,0,0,0,50.17257,30.40044,-3.864855,-36.10317,-110.6632,-50.33768,0.001067912,-0.1257102,0.09433498,0,0.3,0,0,0,0,
6.38224E+17,17.48149,49.49166,40.1573,-13.39765,-21.48543,2.423302,-17.01029,-0.4441859,-4.27255,-61.44649,-6.909645,34.50468,0,0,0,51.853,22.8212,-3.707856,-36.10317,-110.6632,-50.33768,0.001067912,-0.1257102,0.09433498,0,0.3,0,0,0,0,
6.38224E+17,18.02337,43.83413,36.09487,-10.32136,-15.18635,-2.044653,-17.01029,-0.4441859,-4.27255,-61.44649,-6.98289,34.57793,0,0,0,54.06894,7.952128,-2.173563,-36.10317,-110.6632,-50.33768,0.001067912,-0.1257102,0.09433498,0,0.3,0,0,0,0,
6.38224E+17,18.11761,38.12985,32.75621,-8.929699,-8.154812,-4.754725,-17.01029,-0.4441859,-4.27255,-61.44649,-6.98289,34.57793,0,0,0,55.05574,-6.458336,-0.08189303,-36.10317,-110.6632,-50.33768,0.001067912,-0.1257102,0.09433498,0,0.3,0,0,0,0,
6.38224E+17,18.11761,32.26192,30.81839,-8.856454,-1.782483,-7.025325,-17.01029,-0.4441859,-4.27255,-61.51973,-6.98289,34.57793,0,0,0,56.3104,-19.98942,3.752733,-36.10317,-110.6632,-50.33768,0.001067912,-0.1257102,0.09433498,0,0.3,0,0,0,0,
6.38224E+17,18.11761,29.40978,30.46818,-9.076189,1.367059,-7.977511,-17.01029,-0.4441859,-4.27255,-61.51973,-6.909645,34.57793,0,0,0,57.1503,-26.10397,6.319755,-36.10317,-110.6632,-50.33768,0.001067912,-0.1257102,0.09433498,0,0.3,0,0,0,0,
6.38224E+17,18.07049,24.19644,30.35144,-9.735395,7.080183,-9.076189,-17.01029,-0.4441859,-4.27255,-61.51973,-6.98289,34.57793,0,0,0,58.6305,-37.06766,11.34359,-36.10317,-110.6632,-50.33768,0.001067912,-0.1257102,0.09433498,0,0.3,0,0,0,0,
6.38224E+17,17.92913,19.70782,30.56157,-10.61434,12.57357,-10.32136,-17.01029,-0.4441859,-4.27255,-61.44649,-6.909645,34.57793,0,0,0,59.51867,-46.50665,15.60353,-36.10317,-110.6632,-50.33768,0.001067912,-0.1257102,0.09433498,0,0.3,0,0,0,0,
6.38224E+17,17.76421,17.72068,30.53822,-11.05381,15.2104,-11.05381,-17.01029,-0.4441859,-4.27255,-61.51973,-6.98289,34.57793,0,0,0,59.42737,-50.91442,17.14258,-36.10317,-110.6632,-50.33768,0.001067912,-0.1257102,0.09433498,0,0.3,0,0,0,0,
6.38224E+17,17.55217,16.52839,30.53822,-11.2003,16.52881,-11.42003,-17.01029,-0.4441859,-4.27255,-61.44649,-6.909645,34.57793,0,0,0,58.9869,-53.56628,18.14026,-36.10317,-110.6632,-50.33768,0.001067912,-0.1257102,0.09433498,0,0.3,0,0,0,0,
6.38224E+17,17.03385,14.70489,30.51488,-10.90732,18.9459,-11.71302,-17.01029,-0.4441859,-4.27255,-61.44649,-6.98289,34.57793,0,0,0,57.6184,-57.68104,19.71381,-36.10317,-110.6632,-50.33768,0.001067912,-0.1257102,0.09433498,0,0.3,0,0,0,0,
6.38224E+17,16.20925,13.55936,29.8845,-9.955132,20.85028,-11.2003,-17.01029,-0.4441859,-4.27255,-61.51973,-6.98289,34.57793,0,0,0,54.73367,-61.00441,19.93101,-36.10317,-110.6632,-50.33768,0.001067912,-0.1257102,0.09433498,0,0.3,0,0,0,0,
6.38224E+17,15.54957,13.16193,29.34751,-9.149435,21.72922,-10.3946,-17.01029,-0.4441859,-4.27255,-61.44649,-6.98289,34.57793,0,0,0,52.32833,-62.52197,19.70788,-36.10317,-110.6632,-50.33768,0.001067912,-0.1257102,0.09433498,0,0.3,0,0,0,0,
6.38224E+17,13.26426,12.32031,28.13346,-7.391551,23.41385,-7.831022,-17.01029,-0.4441859,-4.27255,-61.51973,-6.98289,34.57793,0,0,0,44.31846,-65.79113,19.65405,-36.10317,-110.6632,-50.33768,0.001067912,-0.1257102,0.09433498,0,0.3,0,0,0,0,
6.38224E+17,9.683144,11.29167,26.9194,-6.732344,24.95201,-4.608234,-17.01029,-0.4441859,-4.27255,-61.51973,-6.98289,34.57793,0,0,0,32.14983,-69.44035,20.068,-36.10317,-110.6632,-50.33768,0.001067912,-0.1257102,0.09433498,0,0.3,0,0,0,0,
6.38224E+17,4.711992,10.28641,25.93881,-8.270493,26.19717,-1.824918,-17.01029,-0.4441859,-4.27255,-61.51973,-6.98289,34.57793,0,0,0,15.56979,-72.75439,20.5449,-36.10317,-110.6632,-50.33768,0.001067912,-0.1257102,0.09433498,0,0.3,0,0,0,0,
6.38224E+17,0.8952785,9.678576,25.54191,-10.76083,26.70989,-0.57975,-17.01029,-0.4441859,-4.27255,-61.51973,-6.98289,34.57793,0,0,0,2.952307,-74.54881,20.57556,-36.10317,-110.6632,-50.33768,0.001067912,-0.1257102,0.09433498,0,0.3,0,0,0,0,
6.38224E+17,-3.039235,9.281147,25.49521,-14.2766,26.85638,0.1527017,-17.01029,-0.4441859,-4.27255,-61.51973,-6.98289,34.57793,0,0,0,-10.02089,-75.50798,20.38705,-36.10317,-110.6632,-50.33768,0.001067912,-0.1257102,0.09433498,0,0.3,0,0,0,0,
6.38224E+17,-7.892587,9.164255,25.68199,-19.84323,26.19717,0.6654179,-17.01029,-0.4441859,-4.27255,-61.44649,-6.909645,34.57793,0,0,0,-26.01302,-75.58876,19.29406,-36.10317,-110.6632,-50.33768,0.001067912,-0.1257102,0.09433498,0,0.3,0,0,0,0,
6.38224E+17,-10.01298,9.164255,25.84542,-22.5533,25.68446,0.8119082,-17.01029,-0.4441859,-4.27255,-61.44649,-6.98289,34.57793,0,0,0,-32.9975,-75.42343,18.54045,-36.10317,-110.6632,-50.33768,0.001067912,-0.1257102,0.09433498,0,0.3,0,0,0,0,
6.38224E+17,-15.12549,9.164255,26.00885,-29.3651,24.36604,2.130321,-17.01029,-0.4441859,-4.27255,-61.44649,-6.98289,34.57793,0,0,0,-49.60963,-75.25712,15.1867,-36.10317,-110.6632,-50.33768,0.001067912,-0.1257102,0.09433498,0,0.3,0,0,0,0,
6.38224E+17,-16.65689,9.117499,26.00885,-30.9765,24.07306,3.375489,-17.01029,-0.4441859,-4.27255,-61.44649,-6.98289,34.57793,0,0,0,-54.50183,-75.36456,13.8119,-36.10317,-110.6632,-50.33768,0.001067912,-0.1257102,0.09433498,0,0.3,0,0,0,0,
6.38224E+17,-19.79037,8.953853,26.12559,-33.54007,23.70683,6.451786,-17.01029,-0.4441859,-4.27255,-61.44649,-6.98289,34.57793,0,0,0,-64.48061,-75.62132,10.84629,-36.10317,-110.6632,-50.33768,0.001067912,-0.1257102,0.09433498,0,0.3,0,0,0,0,
6.38224E+17,-22.90028,8.813582,26.45245,-36.25014,23.4871,8.868877,-17.01029,-0.4441859,-4.27255,-61.51973,-6.98289,34.57793,0,0,0,-74.39235,-75.60693,7.758945,-36.10317,-110.6632,-50.33768,0.001067912,-0.1257102,0.09433498,0,0.3,0,0,0,0,
6.38224E+17,-24.31388,8.766827,26.70927,-37.6418,23.41385,9.821064,-17.01029,-0.4441859,-4.27255,-61.44649,-6.98289,34.57793,0,0,0,-78.94115,-75.44702,6.372419,-36.10317,-110.6632,-50.33768,0.001067912,-0.1257102,0.09433498,0,0.3,0,0,0,0,
6.38224E+17,-26.99972,8.743448,27.26961,-40.49837,23.34061,11.87193,-17.01029,-0.4441859,-4.27255,-61.51973,-6.909645,34.57793,0,0,0,-87.57317,-74.90895,3.524147,-36.10317,-110.6632,-50.33768,0.001067912,-0.1257102,0.09433498,0,0.3,0,0,0,0,
6.38224E+17,-29.59131,8.743448,28.08676,-43.13519,23.26737,14.582,-17.01029,-0.4441859,-4.27255,-61.44649,-6.98289,34.50468,0,0,0,-96.08682,-74.02554,0.8531384,-36.10317,-110.6632,-50.33768,0.001067912,-0.1257102,0.09433498,0,0.3,0,0,0,0,
6.38224E+17,-30.76931,8.743448,28.55371,-44.45361,23.19412,15.97366,-17.01029,-0.4441859,-4.27255,-61.44649,-6.909645,34.57793,0,0,0,-100.0345,-73.50999,-0.3360032,-36.10317,-110.6632,-50.33768,0.001067912,-0.1257102,0.09433498,0,0.3,0,0,0,0,
6.38224E+17,-32.96038,8.813582,29.65103,-46.65096,23.12087,18.90347,-17.01029,-0.4441859,-4.27255,-61.44649,-6.98289,34.57793,0,0,0,-107.5854,-72.10654,-2.431994,-36.10317,-110.6632,-50.33768,0.001067912,-0.1257102,0.09433498,0,0.3,0,0,0,0,
6.38224E+17,-34.84518,9.047364,30.70166,-48.84832,22.97438,21.17406,-17.01029,-0.4441859,-4.27255,-61.44649,-6.909645,34.57793,0,0,0,-114.1437,-70.33993,-4.394746,-36.10317,-110.6632,-50.33768,0.001067912,-0.1257102,0.09433498,0,0.3,0,0,0,0,
6.38224E+17,-36.44726,9.351281,31.77563,-50.82594,22.82789,23.00519,-17.01029,-0.4441859,-4.27255,-61.44649,-6.98289,34.57793,0,0,0,-119.8854,-68.34543,-6.021897,-36.10317,-110.6632,-50.33768,0.001067912,-0.1257102,0.09433498,0,0.3,0,0,0,0,
6.38224E+17,-37.22474,9.655198,32.406,-51.70488,22.6814,24.03063,-17.01029,-0.4441859,-4.27255,-61.44649,-6.909645,34.57793,0,0,0,-122.7583,-66.86837,-6.766844,-36.10317,-110.6632,-50.33768,0.001067912,-0.1257102,0.09433498,0,0.3,0,0,0,0,
6.38224E+17,-39.08598,10.4033,34.55396,-53.53601,22.0222,26.59421,-17.01029,-0.4441859,-4.27255,-61.44649,-6.909645,34.57793,0,0,0,-130.3792,-62.39627,-7.838209,-36.10317,-110.6632,-50.33768,0.001067912,-0.1257102,0.09433498,0,0.3,0,0,0,0,
6.38224E+17,-40.66449,10.89424,37.51905,-55.58687,21.07001,29.15779,-17.01029,-0.4441859,-4.27255,-61.51973,-6.98289,34.57793,0,0,0,-138.2496,-57.21394,-7.418326,-36.10317,-110.6632,-50.33768,0.001067912,-0.1257102,0.09433498,0,0.3,0,0,0,0,
6.38224E+17,-41.91317,11.71248,40.83437,-57.78423,19.89809,32.23409,-17.01029,-0.4441859,-4.27255,-61.51973,-6.98289,34.57793,0,0,0,-145.4696,-50.47288,-6.296465,-36.10317,-110.6632,-50.33768,0.001067912,-0.1257102,0.09433498,0,0.3,0,0,0,0,
6.38224E+17,-42.87913,13.04504,44.59328,-59.6886,18.43318,36.33582,-17.01029,-0.4441859,-4.27255,-61.51973,-6.98289,34.50468,0,0,0,-152.1016,-41.51031,-4.549564,-36.10317,-110.6632,-50.33768,0.001067912,-0.1257102,0.09433498,0,0.3,0,0,0,0,
6.38224E+17,-43.30321,13.88665,46.67118,-60.64079,17.55424,38.89939,-17.01029,-0.4441859,-4.27255,-61.44649,-6.909645,34.57793,0,0,0,-155.3162,-36.14842,-3.550923,-36.10317,-110.6632,-50.33768,0.001067912,-0.1257102,0.09433498,0,0.3,0,0,0,0,
6.38224E+17,-43.82153,15.71015,50.31336,-62.03245,16.01609,43.88007,-17.01029,-0.4441859,-4.27255,-61.51973,-6.98289,34.57793,0,0,0,-159.9393,-25.69845,-1.692249,-36.10317,-110.6632,-50.33768,0.001067912,-0.1257102,0.09433498,0,0.3,0,0,0,0,
6.38224E+17,-43.91577,17.95446,53.46524,-63.27761,14.47795,49.59319,-17.01029,-0.4441859,-4.27255,-61.44649,-6.98289,34.57793,0,0,0,-162.304,-14.92804,0.2159363,-36.10317,-110.6632,-50.33768,0.001067912,-0.1257102,0.09433498,0,0.3,0,0,0,0,
6.38224E+17,-43.91577,19.26364,54.88942,-63.71709,13.67225,52.44975,-17.01029,-0.4441859,-4.27255,-61.44649,-6.909645,34.57793,0,0,0,-162.9751,-9.352877,0.9129856,-36.10317,-110.6632,-50.33768,0.001067912,-0.1257102,0.09433498,0,0.3,0,0,0,0,
6.38224E+17,-43.86865,22.23267,57.78448,-64.88901,11.84112,57.65016,-17.01029,-0.4441859,-4.27255,-61.44649,-6.98289,34.57793,0,0,0,-163.7276,2.715853,1.974647,-36.10317,-110.6632,-50.33768,0.001067912,-0.1257102,0.09433498,0,0.3,0,0,0,0,
6.38224E+17,-43.70373,25.34197,60.93637,-66.20742,9.643764,62.48434,-17.01029,-0.4441859,-4.27255,-61.51973,-6.98289,34.57793,0,0,0,-163.803,15.64761,3.037713,-36.10317,-110.6632,-50.33768,0.001067912,-0.1257102,0.09433498,0,0.3,0,0,0,0,
6.38224E+17,-43.35033,28.38114,64.27502,-67.52583,7.153428,67.24528,-17.01029,-0.4441859,-4.27255,-61.51973,-6.98289,34.57793,0,0,0,-163.003,28.85505,4.320464,-36.10317,-110.6632,-50.33768,0.001067912,-0.1257102,0.09433498,0,0.3,0,0,0,0,
6.38224E+17,-43.11473,29.73707,65.86263,-68.25829,5.981505,69.66236,-17.01029,-0.4441859,-4.27255,-61.44649,-6.909645,34.57793,0,0,0,-162.3085,34.96412,5.007322,-36.10317,-110.6632,-50.33768,0.001067912,-0.1257102,0.09433498,0,0.3,0,0,0,0,
6.38224E+17,-42.50217,32.23854,68.38414,-69.72319,3.564415,74.20357,-17.01029,-0.4441859,-4.27255,-61.44649,-6.909645,34.57793,0,0,0,-159.9621,45.36122,6.204774,-36.10317,-110.6632,-50.33768,0.001067912,-0.1257102,0.09433498,0,0.3,0,0,0,0,
6.38224E+17,-41.65401,34.69325,70.39201,-71.0416,1.293814,78.3053,-17.01029,-0.4441859,-4.27255,-61.51973,-6.909645,34.57793,0,0,0,-156.3604,54.50052,7.428887,-36.10317,-110.6632,-50.33768,0.001067912,-0.1257102,0.09433498,0,0.3,0,0,0,0,
6.38224E+17,-40.26397,38.03634,71.48933,-72.06703,-1.416257,82.62676,-17.01029,-0.4441859,-4.27255,-61.44649,-6.909645,34.57793,0,0,0,-149.608,63.17895,8.28674,-36.10317,-110.6632,-50.33768,0.001067912,-0.1257102,0.09433498,0,0.3,0,0,0,0,
6.38224E+17,-39.76921,39.20525,71.65276,-72.28677,-2.368444,83.94518,-17.01029,-0.4441859,-4.27255,-61.44649,-6.909645,34.57793,0,0,0,-147.0679,65.6653,8.359312,-36.10317,-110.6632,-50.33768,0.001067912,-0.1257102,0.09433498,0,0.3,0,0,0,0,
6.38224E+17,-38.23782,42.4782,71.88623,-72.57975,-5.00527,86.65524,-17.01029,-0.4441859,-4.27255,-61.44649,-6.909645,34.57793,0,0,0,-139.3152,71.94337,8.447813,-36.10317,-110.6632,-50.33768,0.001067912,-0.1257102,0.09433498,0,0.3,0,0,0,0,
6.38224E+17,-36.25878,46.1252,71.88623,-72.79948,-8.008322,88.48637,-17.01029,-0.4441859,-4.27255,-61.44649,-6.98289,34.57793,0,0,0,-129.621,78.01698,8.373915,-36.10317,-110.6632,-50.33768,0.001067912,-0.1257102,0.09433498,0,0.3,0,0,0,0,
6.38224E+17,-34.09126,49.58517,71.83953,-72.72624,-10.93813,89.51181,-17.01029,-0.4441859,-4.27255,-61.44649,-6.98289,34.57793,0,0,0,-119.4792,83.31632,8.178021,-36.10317,-110.6632,-50.33768,0.001067912,-0.1257102,0.09433498,0,0.3,0,0,0,0,
6.38224E+17,-32.77191,51.50218,71.79285,-72.43327,-12.47628,89.80479,-17.01029,-0.4441859,-4.27255,-61.44649,-6.98289,34.57793,0,0,0,-113.5,86.04827,7.957295,-36.10317,-110.6632,-50.33768,0.001067912,-0.1257102,0.09433498,0,0.3,0,0,0,0,
6.38224E+17,-29.80335,55.26608,71.69946,-71.33459,-15.9188,90.09777,-17.01029,-0.4441859,-4.27255,-61.44649,-6.909645,34.57793,0,0,0,-100.6892,91.06583,7.439351,-36.10317,-110.6632,-50.33768,0.001067912,-0.1257102,0.09433498,0,0.3,0,0,0,0,
6.38224E+17,-26.2458,59.12348,71.55936,-69.5767,-19.43457,90.17101,-17.01029,-0.4441859,-4.27255,-61.51973,-6.98289,34.57793,0,0,0,-86.20541,95.61948,6.489624,-36.10317,-110.6632,-50.33768,0.001067912,-0.1257102,0.09433498,0,0.3,0,0,0,0,
6.38224E+17,-24.43168,60.90022,71.51267,-68.40478,-21.2657,89.80479,-17.01029,-0.4441859,-4.27255,-61.44649,-6.909645,34.57793,0,0,0,-79.13175,97.58318,5.838903,-36.10317,-110.6632,-50.33768,0.001067912,-0.1257102,0.09433498,0,0.3,0,0,0,0,
6.38224E+17,-19.50765,65.13168,71.04573,-64.52278,-26.09988,87.02148,-17.01029,-0.4441859,-4.27255,-61.44649,-6.909645,34.57793,0,0,0,-60.84179,101.0215,3.389053,-36.10317,-110.6632,-50.33768,0.001067912,-0.1257102,0.09433498,0,0.3,0,0,0,0,
6.38224E+17,-15.62025,67.72665,70.04179,-60.42105,-29.24942,82.48027,-17.01029,-0.4441859,-4.27255,-61.44649,-6.909645,34.57793,0,0,0,-47.35866,101.2333,1.038468,-36.10317,-110.6632,-50.33768,0.001067912,-0.1257102,0.09433498,0,0.3,0,0,0,0,
6.38224E+17,-13.68834,68.77867,69.5982,-57.93071,-30.49459,79.40398,-17.01029,-0.4441859,-4.27255,-61.44649,-6.909645,34.57793,0,0,0,-40.99889,101.1714,-0.0168789,-36.10317,-110.6632,-50.33768,0.001067912,-0.1257102,0.09433498,0,0.3,0,0,0,0,
6.38224E+17,-9.329745,70.76582,68.61761,-51.48514,-33.13141,71.56674,-17.01029,-0.4441859,-4.27255,-61.44649,-6.98289,34.57793,0,0,0,-27.25184,100.6383,-2.472961,-36.10317,-110.6632,-50.33768,0.001067912,-0.1257102,0.09433498,0,0.3,0,0,0,0,
6.38224E+17,-4.947592,72.14513,66.44632,-43.72115,-35.10904,62.19136,-17.01029,-0.4441859,-4.27255,-61.51973,-6.98289,34.57793,0,0,0,-14.06873,96.98962,-5.831689,-36.10317,-110.6632,-50.33768,0.001067912,-0.1257102,0.09433498,0,0.3,0,0,0,0,
6.38224E+17,-0.7067988,72.26203,63.20105,-35.51769,-35.47526,51.79055,-17.01029,-0.4441859,-4.27255,-61.51973,-6.98289,34.57793,0,0,0,-1.969442,90.23817,-8.707732,-36.10317,-110.6632,-50.33768,0.001067912,-0.1257102,0.09433498,0,0.3,0,0,0,0,
6.38224E+17,2.732955,71.53731,58.90515,-27.38748,-33.93711,41.09675,-17.01029,-0.4441859,-4.27255,-61.51973,-6.909645,34.57793,0,0,0,7.458243,80.96703,-12.10826,-36.10317,-110.6632,-50.33768,0.001067912,-0.1257102,0.09433498,0,0.3,0,0,0,0,
6.38224E+17,5.277431,69.97096,53.76875,-21.23489,-30.49459,30.76918,-17.01029,-0.4441859,-4.27255,-61.44649,-6.98289,34.57793,0,0,0,14.0945,69.81894,-15.76249,-36.10317,-110.6632,-50.33768,0.001067912,-0.1257102,0.09433498,0,0.3,0,0,0,0,
6.38224E+17,6.172709,68.80206,51.20055,-19.25727,-28.37048,25.935,-17.01029,-0.4441859,-4.27255,-61.51973,-6.909645,34.57793,0,0,0,16.35938,64.12049,-17.08838,-36.10317,-110.6632,-50.33768,0.001067912,-0.1257102,0.09433498,0,0.3,0,0,0,0,
6.38224E+17,7.162228,65.24857,45.50382,-16.98667,-23.31656,16.0469,-17.01029,-0.4441859,-4.27255,-61.44649,-6.98289,34.57793,0,0,0,18.82026,50.98959,-18.57835,-36.10317,-110.6632,-50.33768,0.001067912,-0.1257102,0.09433498,0,0.3,0,0,0,0,
6.38224E+17,7.162228,60.50279,40.34408,-17.35289,-17.23721,7.696954,-17.01029,-0.4441859,-4.27255,-61.44649,-6.98289,34.57793,0,0,0,18.94957,37.77969,-17.54928,-36.10317,-110.6632,-50.33768,0.001067912,-0.1257102,0.09433498,0,0.3,0,0,0,0,
6.38224E+17,7.138669,58.00132,38.0327,-18.23184,-13.86794,4.034696,-17.01029,-0.4441859,-4.27255,-61.44649,-6.98289,34.57793,0,0,0,18.99118,31.40448,-16.71409,-36.10317,-110.6632,-50.33768,0.001067912,-0.1257102,0.09433498,0,0.3,0,0,0,0,
6.38224E+17,7.138669,52.97501,34.13371,-20.13621,-7.056135,-1.605182,-17.01029,-0.4441859,-4.27255,-61.44649,-6.909645,34.57793,0,0,0,19.27752,19.43518,-14.42785,-36.10317,-110.6632,-50.33768,0.001067912,-0.1257102,0.09433498,0,0.3,0,0,0,0,
6.38224E+17,6.879509,48.01883,30.86509,-21.45462,-0.3175794,-4.754725,-17.01029,-0.4441859,-4.27255,-61.51973,-6.98289,34.57793,0,0,0,18.87844,8.013016,-11.87775,-36.10317,-110.6632,-50.33768,0.001067912,-0.1257102,0.09433498,0,0.3,0,0,0,0,
6.38224E+17,5.465911,43.2263,28.85722,-22.33356,6.127995,-5.706912,-17.01029,-0.4441859,-4.27255,-61.51973,-6.98289,34.57793,0,0,0,15.38578,-2.112317,-7.559864,-36.10317,-110.6632,-50.33768,0.001067912,-0.1257102,0.09433498,0,0.3,0,0,0,0,
6.38224E+17,4.287913,41.21577,28.36693,-23.06602,9.057802,-4.901215,-17.01029,-0.4441859,-4.27255,-61.44649,-6.909645,34.57793,0,0,0,12.23712,-6.123872,-5.141002,-36.10317,-110.6632,-50.33768,0.001067912,-0.1257102,0.09433498,0,0.3,0,0,0,0,
6.38224E+17,0.8010387,38.05972,27.61982,-25.40986,14.69768,-2.70386,-17.01029,-0.4441859,-4.27255,-61.51973,-6.98289,34.57793,0,0,0,2.332153,-12.59594,-1.549298,-36.10317,-110.6632,-50.33768,0.001067912,-0.1257102,0.09433498,0,0.3,0,0,0,0,
6.38224E+17,-4.759112,35.69852,27.40969,-30.31729,19.67835,-1.165711,-17.01029,-0.4441859,-4.27255,-61.51973,-6.909645,34.57793,0,0,0,-14.07787,-17.21739,0.7460102,-36.10317,-110.6632,-50.33768,0.001067912,-0.1257102,0.09433498,0,0.3,0,0,0,0,
6.38224E+17,-7.892587,35.20757,27.363,-33.75981,21.58273,-0.7994855,-17.01029,-0.4441859,-4.27255,-61.51973,-6.98289,34.57793,0,0,0,-23.37774,-18.19814,0.284564,-36.10317,-110.6632,-50.33768,0.001067912,-0.1257102,0.09433498,0,0.3,0,0,0,0,
6.38224E+17,-9.706704,35.20757,27.29295,-35.73743,22.38842,-0.6529952,-17.01029,-0.4441859,-4.27255,-61.44649,-6.909645,34.57793,0,0,0,-28.68007,-18.27298,-0.682775,-36.10317,-110.6632,-50.33768,0.001067912,-0.1257102,0.09433498,0,0.3,0,0,0,0,
6.38224E+17,-13.7119,35.20757,27.363,-38.96022,22.97438,0.1527017,-17.01029,-0.4441859,-4.27255,-61.51973,-6.98289,34.57793,0,0,0,-40.35539,-18.19814,-2.954785,-36.10317,-110.6632,-50.33768,0.001067912,-0.1257102,0.09433498,0,0.3,0,0,0,0,
6.38224E+17,-17.48149,35.48811,28.50701,-41.30406,22.6814,1.324624,-17.01029,-0.4441859,-4.27255,-61.44649,-6.98289,34.57793,0,0,0,-51.73504,-16.41826,-4.082401,-36.10317,-110.6632,-50.33768,0.001067912,-0.1257102,0.09433498,0,0.3,0,0,0,0,
6.38224E+17,-20.42649,36.25959,30.79504,-44.30712,21.58273,2.276812,-17.01029,-0.4441859,-4.27255,-61.44649,-6.98289,34.57793,0,0,0,-61.35415,-12.32906,-3.606803,-36.10317,-110.6632,-50.33768,0.001067912,-0.1257102,0.09433498,0,0.3,0,0,0,0,
6.38224E+17,-21.20397,37.12459,31.98576,-46.065,20.77703,2.569792,-17.01029,-0.4441859,-4.27255,-61.44649,-6.909645,34.57793,0,0,0,-64.00446,-9.271362,-3.370499,-36.10317,-110.6632,-50.33768,0.001067912,-0.1257102,0.09433498,0,0.3,0,0,0,0,
6.38224E+17,-21.51024,40.18713,33.83019,-49.28778,18.57967,2.936018,-17.01029,-0.4441859,-4.27255,-61.44649,-6.909645,34.57793,0,0,0,-64.57453,-1.373775,-4.503915,-36.10317,-110.6632,-50.33768,0.001067912,-0.1257102,0.09433498,0,0.3,0,0,0,0,
6.38224E+17,-21.32176,44.34845,35.8147,-51.33865,15.79636,3.66847,-17.01029,-0.4441859,-4.27255,-61.51973,-6.98289,34.57793,0,0,0,-63.04575,8.429014,-6.827346,-36.10317,-110.6632,-50.33768,0.001067912,-0.1257102,0.09433498,0,0.3,0,0,0,0,
6.38224E+17,-20.80345,47.73829,37.26224,-52.36408,13.37927,4.181186,-17.01029,-0.4441859,-4.27255,-61.51973,-6.909645,34.57793,0,0,0,-60.52652,15.91013,-9.041672,-36.10317,-110.6632,-50.33768,0.001067912,-0.1257102,0.09433498,0,0.3,0,0,0,0,
6.38224E+17,-19.97885,51.08138,38.75646,-53.02329,10.6692,4.986883,-17.01029,-0.4441859,-4.27255,-61.51973,-6.909645,34.57793,0,0,0,-57.14526,23.11331,-11.16415,-36.10317,-110.6632,-50.33768,0.001067912,-0.1257102,0.09433498,0,0.3,0,0,0,0,
6.38224E+17,-18.87153,55.4531,41.37135,-53.38951,6.933692,6.964502,-17.01029,-0.4441859,-4.27255,-61.44649,-6.909645,34.57793,0,0,0,-52.96647,33.11398,-13.39639,-36.10317,-110.6632,-50.33768,0.001067912,-0.1257102,0.09433498,0,0.3,0,0,0,0,
6.38224E+17,-17.81133,59.40401,44.35981,-53.46276,3.051698,9.381593,-17.01029,-0.4441859,-4.27255,-61.44649,-6.98289,34.57793,0,0,0,-49.27964,42.79434,-14.9661,-36.10317,-110.6632,-50.33768,0.001067912,-0.1257102,0.09433498,0,0.3,0,0,0,0,
6.38224E+17,-16.16213,63.07439,47.18483,-53.60925,-0.9767859,11.94517,-17.01029,-0.4441859,-4.27255,-61.44649,-6.909645,34.57793,0,0,0,-44.03715,51.61481,-16.39838,-36.10317,-110.6632,-50.33768,0.001067912,-0.1257102,0.09433498,0,0.3,0,0,0,0,
6.38224E+17,-15.0077,64.80437,48.39888,-53.46276,-3.027651,13.33683,-17.01029,-0.4441859,-4.27255,-61.51973,-6.98289,34.57793,0,0,0,-40.52175,55.47652,-17.20197,-36.10317,-110.6632,-50.33768,0.001067912,-0.1257102,0.09433498,0,0.3,0,0,0,0,
6.38224E+17,-12.7695,67.93706,50.50013,-52.51057,-6.98289,16.0469,-17.01029,-0.4441859,-4.27255,-61.51973,-6.98289,34.57793,0,0,0,-33.81438,62.11423,-19.14786,-36.10317,-110.6632,-50.33768,0.001067912,-0.1257102,0.09433498,0,0.3,0,0,0,0,
6.38224E+17,-10.46062,70.69569,52.27453,-51.11892,-10.93813,18.02452,-17.01029,-0.4441859,-4.27255,-61.44649,-6.98289,34.57793,0,0,0,-27.15352,67.60851,-21.27868,-36.10317,-110.6632,-50.33768,0.001067912,-0.1257102,0.09433498,0,0.3,0,0,0,0,
6.38224E+17,-9.117705,72.09838,53.30181,-50.16673,-13.20873,18.75698,-17.01029,-0.4441859,-4.27255,-61.44649,-6.98289,34.57793,0,0,0,-23.43811,70.55402,-22.30995,-36.10317,-110.6632,-50.33768,0.001067912,-0.1257102,0.09433498,0,0.3,0,0,0,0,
6.38224E+17,-6.832388,74.50633,55.5198,-48.40885,-17.38371,20.14863,-17.01029,-0.4441859,-4.27255,-61.44649,-6.98289,34.57793,0,0,0,-17.31484,76.36176,-23.83825,-36.10317,-110.6632,-50.33768,0.001067912,-0.1257102,0.09433498,0,0.3,0,0,0,0,
6.38224E+17,-4.641313,76.28308,57.83118,-46.87069,-21.41219,21.54029,-17.01029,-0.4441859,-4.27255,-61.51973,-6.909645,34.57793,0,0,0,-11.69253,81.8991,-24.3247,-36.10317,-110.6632,-50.33768,0.001067912,-0.1257102,0.09433498,0,0.3,0,0,0,0,
6.38224E+17,-3.604674,77.05456,59.11527,-46.28474,-23.31656,21.97976,-17.01029,-0.4441859,-4.27255,-61.44649,-6.98289,34.57793,0,0,0,-9.073344,84.86053,-24.32081,-36.10317,-110.6632,-50.33768,0.001067912,-0.1257102,0.09433498,0,0.3,0,0,0,0,
6.38224E+17,-1.201558,78.57414,62.22046,-45.47904,-27.41829,23.22493,-17.01029,-0.4441859,-4.27255,-61.51973,-6.98289,34.57793,0,0,0,-3.027962,91.90672,-23.98407,-36.10317,-110.6632,-50.33768,0.001067912,-0.1257102,0.09433498,0,0.3,0,0,0,0,
6.38224E+17,1.649197,79.71967,65.32565,-44.96632,-31.88625,25.20255,-17.01029,-0.4441859,-4.27255,-61.44649,-6.98289,34.57793,0,0,0,4.172307,98.89091,-23.43733,-36.10317,-110.6632,-50.33768,0.001067912,-0.1257102,0.09433498,0,0.3,0,0,0,0,
6.38224E+17,4.099433,80.30412,67.77711,-44.38036,-35.695,26.66745,-17.01029,-0.4441859,-4.27255,-61.51973,-6.98289,34.57793,0,0,0,10.43027,104.3608,-22.82,-36.10317,-110.6632,-50.33768,0.001067912,-0.1257102,0.09433498,0,0.3,0,0,0,0,
6.38224E+17,5.371671,80.53791,69.10791,-44.01414,-37.81911,27.32666,-17.01029,-0.4441859,-4.27255,-61.44649,-6.98289,34.57793,0,0,0,13.7152,107.3319,-22.48859,-36.10317,-110.6632,-50.33768,0.001067912,-0.1257102,0.09433498,0,0.3,0,0,0,0,
6.38224E+17,8.057507,80.74831,71.65276,-42.91546,-41.99408,28.57183,-17.01029,-0.4441859,-4.27255,-61.44649,-6.909645,34.57793,0,0,0,20.74614,112.9901,-21.80096,-36.10317,-110.6632,-50.33768,0.001067912,-0.1257102,0.09433498,0,0.3,0,0,0,0,
6.38224E+17,10.55486,80.72494,73.33376,-41.23082,-45.72958,29.23104,-17.01029,-0.4441859,-4.27255,-61.51973,-6.909645,34.57793,0,0,0,27.33747,116.7123,-21.63438,-36.10317,-110.6632,-50.33768,0.001067912,-0.1257102,0.09433498,0,0.3,0,0,0,0,
6.38224E+17,13.05222,80.39764,74.66456,-38.08128,-48.80588,28.2056,-17.01029,-0.4441859,-4.27255,-61.51973,-6.98289,34.57793,0,0,0,34.0669,119.5646,-21.40119,-36.10317,-110.6632,-50.33768,0.001067912,-0.1257102,0.09433498,0,0.3,0,0,0,0,
6.38224E+17,15.64381,79.97683,75.69183,-33.02736,-51.51595,24.76308,-17.01029,-0.4441859,-4.27255,-61.44649,-6.98289,34.57793,0,0,0,41.10172,121.709,-21.57361,-36.10317,-110.6632,-50.33768,0.001067912,-0.1257102,0.09433498,0,0.3,0,0,0,0,
6.38224E+17,16.82181,79.76643,75.83192,-29.73133,-52.54139,21.83327,-17.01029,-0.4441859,-4.27255,-61.44649,-6.98289,34.57793,0,0,0,44.27325,121.9389,-21.91143,-36.10317,-110.6632,-50.33768,0.001067912,-0.1257102,0.09433498,0,0.3,0,0,0,0,
6.38224E+17,19.08357,79.27549,75.90196,-21.96734,-53.71331,14.14253,-17.01029,-0.4441859,-4.27255,-61.51973,-6.98289,34.57793,0,0,0,50.39829,121.8892,-22.67332,-36.10317,-110.6632,-50.33768,0.001067912,-0.1257102,0.09433498,0,0.3,0,0,0,0,
6.38224E+17,21.1804,78.69103,75.92531,-13.61739,-54.29927,5.206618,-17.01029,-0.4441859,-4.27255,-61.44649,-6.909645,34.57793,0,0,0,56.18183,121.6819,-23.35754,-36.10317,-110.6632,-50.33768,0.001067912,-0.1257102,0.09433498,0,0.3,0,0,0,0,
6.38224E+17,22.07568,78.50401,75.92531,-9.66215,-54.44576,1.031644,-17.01029,-0.4441859,-4.27255,-61.51973,-6.98289,34.57793,0,0,0,58.60083,121.5959,-23.85767,-36.10317,-110.6632,-50.33768,0.001067912,-0.1257102,0.09433498,0,0.3,0,0,0,0,
6.38224E+17,23.8898,77.96631,75.92531,-2.044653,-54.59225,-7.977511,-17.01029,-0.4441859,-4.27255,-61.44649,-6.909645,34.57793,0,0,0,63.64181,121.3407,-24.66504,-36.10317,-110.6632,-50.33768,0.001067912,-0.1257102,0.09433498,0,0.3,0,0,0,0,
6.38224E+17,25.539,77.17145,75.92531,4.693902,-54.59225,-16.32746,-17.01029,-0.4441859,-4.27255,-61.51973,-6.98289,34.57793,0,0,0,68.52955,120.9425,-24.92612,-36.10317,-110.6632,-50.33768,0.001067912,-0.1257102,0.09433498,0,0.3,0,0,0,0,
6.38224E+17,26.97615,76.51686,75.90196,10.48027,-54.29927,-23.06602,-17.01029,-0.4441859,-4.27255,-61.51973,-6.98289,34.57793,0,0,0,72.77208,120.543,-25.37969,-36.10317,-110.6632,-50.33768,0.001067912,-0.1257102,0.09433498,0,0.3,0,0,0,0,
6.38224E+17,27.6594,76.14281,75.78522,12.97061,-54.07953,-26.06907,-17.01029,-0.4441859,-4.27255,-61.44649,-6.909645,34.57793,0,0,0,74.83359,120.0739,-25.56724,-36.10317,-110.6632,-50.33768,0.001067912,-0.1257102,0.09433498,0,0.3,0,0,0,0,
6.38224E+17,29.02587,75.20768,75.41167,16.70611,-53.20059,-30.90325,-17.01029,-0.4441859,-4.27255,-61.51973,-6.98289,34.57793,0,0,0,79.13553,118.6933,-25.73763,-36.10317,-110.6632,-50.33768,0.001067912,-0.1257102,0.09433498,0,0.3,0,0,0,0,
6.38224E+17,30.43947,74.15565,75.24824,19.48943,-51.95542,-34.49226,-17.01029,-0.4441859,-4.27255,-61.51973,-6.909645,34.50468,0,0,0,83.77718,117.6785,-25.78036,-36.10317,-110.6632,-50.33768,0.001067912,-0.1257102,0.09433498,0,0.3,0,0,0,0,
6.38224E+17,32.15935,72.96337,75.24824,22.8587,-50.49052,-38.37426,-17.01029,-0.4441859,-4.27255,-61.44649,-6.909645,34.57793,0,0,0,89.435,116.8932,-26.1059,-36.10317,-110.6632,-50.33768,0.001067912,-0.1257102,0.09433498,0,0.3,0,0,0,0,
6.38224E+17,33.50227,71.95811,75.24824,25.20255,-49.39184,-41.81678,-17.01029,-0.4441859,-4.27255,-61.44649,-6.909645,34.57793,0,0,0,93.97546,116.1881,-26.38077,-36.10317,-110.6632,-50.33768,0.001067912,-0.1257102,0.09433498,0,0.3,0,0,0,0,
6.38224E+17,34.20906,71.28014,75.22489,26.44772,-48.73264,-43.57467,-17.01029,-0.4441859,-4.27255,-61.44649,-6.98289,34.57793,0,0,0,96.55366,115.638,-26.32394,-36.10317,-110.6632,-50.33768,0.001067912,-0.1257102,0.09433498,0,0.3,0,0,0,0,
6.38224E+17,35.81114,69.57353,75.15485,28.71832,-47.19449,-46.50447,-17.01029,-0.4441859,-4.27255,-61.51973,-6.909645,34.57793,0,0,0,102.652,114.1498,-26.07787,-36.10317,-110.6632,-50.33768,0.001067912,-0.1257102,0.09433498,0,0.3,0,0,0,0,
6.38224E+17,37.31898,67.70328,75.15485,30.54945,-45.65634,-48.92156,-17.01029,-0.4441859,-4.27255,-61.51973,-6.98289,34.57793,0,0,0,108.8176,112.5643,-25.60456,-36.10317,-110.6632,-50.33768,0.001067912,-0.1257102,0.09433498,0,0.3,0,0,0,0,
6.38224E+17,38.82682,65.62261,75.1782,32.01435,-43.89846,-50.82594,-17.01029,-0.4441859,-4.27255,-61.51973,-6.98289,34.57793,0,0,0,115.3324,110.6986,-25.04283,-36.10317,-110.6632,-50.33768,0.001067912,-0.1257102,0.09433498,0,0.3,0,0,0,0,
6.38224E+17,40.24041,63.7056,75.1782,33.18628,-42.06733,-52.51057,-17.01029,-0.4441859,-4.27255,-61.44649,-6.909645,34.57793,0,0,0,121.4375,108.7895,-24.85359,-36.10317,-110.6632,-50.33768,0.001067912,-0.1257102,0.09433498,0,0.3,0,0,0,0,
6.38224E+17,40.90009,62.72372,75.1782,33.69899,-41.04189,-53.38951,-17.01029,-0.4441859,-4.27255,-61.51973,-6.909645,34.57793,0,0,0,124.4172,107.7597,-24.71931,-36.10317,-110.6632,-50.33768,0.001067912,-0.1257102,0.09433498,0,0.3,0,0,0,0,
6.38224E+17,42.05453,60.78333,75.22489,34.3582,-39.50375,-54.78117,-17.01029,-0.4441859,-4.27255,-61.44649,-6.909645,34.57793,0,0,0,129.969,105.7275,-24.28077,-36.10317,-110.6632,-50.33768,0.001067912,-0.1257102,0.09433498,0,0.3,0,0,0,0,
6.38224E+17,43.23253,58.72605,75.24824,34.87091,-37.9656,-56.09959,-17.01029,-0.4441859,-4.27255,-61.44649,-6.98289,34.57793,0,0,0,135.746,103.3684,-23.9596,-36.10317,-110.6632,-50.33768,0.001067912,-0.1257102,0.09433498,0,0.3,0,0,0,0,
6.38224E+17,44.31629,56.64539,75.24824,35.31038,-36.57394,-57.63773,-17.01029,-0.4441859,-4.27255,-61.44649,-6.98289,34.57793,0,0,0,141.3116,100.7799,-23.6249,-36.10317,-110.6632,-50.33768,0.001067912,-0.1257102,0.09433498,0,0.3,0,0,0,0,
6.38224E+17,44.78749,55.61674,75.24824,35.45687,-35.91473,-58.37019,-17.01029,-0.4441859,-4.27255,-61.51973,-6.98289,34.57793,0,0,0,143.8974,99.44576,-23.38114,-36.10317,-110.6632,-50.33768,0.001067912,-0.1257102,0.09433498,0,0.3,0,0,0,0,
6.38224E+17,45.63565,53.16203,75.34162,35.53012,-34.66956,-59.83509,-17.01029,-0.4441859,-4.27255,-61.51973,-6.909645,34.57793,0,0,0,149.3873,96.32967,-22.24109,-36.10317,-110.6632,-50.33768,0.001067912,-0.1257102,0.09433498,0,0.3,0,0,0,0,
6.38224E+17,46.43668,50.61381,75.55175,35.38363,-33.49764,-60.86052,-17.01029,-0.4441859,-4.27255,-61.44649,-6.98289,34.57793,0,0,0,154.8854,93.14287,-21.0436,-36.10317,-110.6632,-50.33768,0.001067912,-0.1257102,0.09433498,0,0.3,0,0,0,0,
6.38224E+17,46.88432,49.32801,75.5751,35.31038,-32.98492,-61.22675,-17.01029,-0.4441859,-4.27255,-61.44649,-6.98289,34.57793,0,0,0,157.7141,91.27078,-20.68279,-36.10317,-110.6632,-50.33768,0.001067912,-0.1257102,0.09433498,0,0.3,0,0,0,0,
6.38224E+17,47.85028,46.80317,75.55175,35.16389,-31.59327,-62.17894,-17.01029,-0.4441859,-4.27255,-61.44649,-6.909645,34.57793,0,0,0,163.4118,87.29146,-20.43835,-36.10317,-110.6632,-50.33768,0.001067912,-0.1257102,0.09433498,0,0.3,0,0,0,0,
6.38224E+17,48.86336,44.34845,75.5751,35.09065,-30.20161,-64.08331,-17.01029,-0.4441859,-4.27255,-61.51973,-6.909645,34.57793,0,0,0,169.0843,83.34542,-20.65783,-36.10317,-110.6632,-50.33768,0.001067912,-0.1257102,0.09433498,0,0.3,0,0,0,0,
6.38224E+17,50.32408,41.73009,75.55175,35.67661,-28.66346,-66.93987,-17.01029,-0.4441859,-4.27255,-61.44649,-6.909645,34.57793,0,0,0,175.9847,78.8392,-22.36956,-36.10317,-110.6632,-50.33768,0.001067912,-0.1257102,0.09433498,0,0.3,0,0,0,0,
6.38224E+17,51.1958,40.04686,75.55175,36.40906,-27.63803,-69.21047,-17.01029,-0.4441859,-4.27255,-61.44649,-6.909645,34.50468,0,0,0,180.1836,75.8777,-23.4569,-36.10317,-110.6632,-50.33768,0.001067912,-0.1257102,0.09433498,0,0.3,0,0,0,0,
6.38224E+17,51.83192,39.11173,75.5284,36.92178,-26.75908,-70.60213,-17.01029,-0.4441859,-4.27255,-61.44649,-6.909645,34.57793,0,0,0,182.8606,74.14764,-24.61772,-36.10317,-110.6632,-50.33768,0.001067912,-0.1257102,0.09433498,0,0.3,0,0,0,0,
6.38224E+17,53.05703,37.91945,75.24824,38.02045,-25.07445,-72.43327,-17.01029,-0.4441859,-4.27255,-61.44649,-6.98289,34.57793,0,0,0,187.1415,71.3455,-27.62057,-36.10317,-110.6632,-50.33768,0.001067912,-0.1257102,0.09433498,0,0.3,0,0,0,0,
6.38224E+17,54.30571,37.4285,74.82799,39.33887,-23.46305,-74.26439,-17.01029,-0.4441859,-4.27255,-61.51973,-6.98289,34.57793,0,0,0,190.5259,69.49619,-31.47203,-36.10317,-110.6632,-50.33768,0.001067912,-0.1257102,0.09433498,0,0.3,0,0,0,0,
6.38224E+17,55.31879,37.4285,74.82799,40.87702,-21.99815,-76.3885,-17.01029,-0.4441859,-4.27255,-61.51973,-6.98289,34.57793,0,0,0,192.9162,69.49619,-34.86205,-36.10317,-110.6632,-50.33768,0.001067912,-0.1257102,0.09433498,0,0.3,0,0,0,0,
6.38224E+17,55.36591,37.45188,74.64121,41.68271,-21.48543,-77.41393,-17.01029,-0.4441859,-4.27255,-61.51973,-6.98289,34.57793,0,0,0,192.9046,69.12003,-35.10459,-36.10317,-110.6632,-50.33768,0.001067912,-0.1257102,0.09433498,0,0.3,0,0,0,0,
6.38224E+17,55.36591,37.4285,74.24431,41.53622,-20.67974,-77.41393,-17.01029,-0.4441859,-4.27255,-61.44649,-6.909645,34.57793,0,0,0,192.7279,68.18692,-35.2266,-36.10317,-110.6632,-50.33768,0.001067912,-0.1257102,0.09433498,0,0.3,0,0,0,0,
6.38224E+17,55.36591,37.59215,74.36105,40.58403,-19.94728,-75.72929,-17.01029,-0.4441859,-4.27255,-61.51973,-6.98289,34.57793,0,0,0,192.5976,68.7506,-35.31662,-36.10317,-110.6632,-50.33768,0.001067912,-0.1257102,0.09433498,0,0.3,0,0,0,0,
6.38224E+17,55.36591,38.03634,74.50112,39.92483,-19.28808,-73.89817,-17.01029,-0.4441859,-4.27255,-61.44649,-6.98289,34.57793,0,0,0,192.1481,69.88137,-35.62711,-36.10317,-110.6632,-50.33768,0.001067912,-0.1257102,0.09433498,0,0.3,0,0,0,0,
6.38224E+17,55.36591,38.97147,74.50112,39.5586,-18.84861,-72.06703,-17.01029,-0.4441859,-4.27255,-61.51973,-6.98289,34.57793,0,0,0,191.0332,71.58453,-36.39718,-36.10317,-110.6632,-50.33768,0.001067912,-0.1257102,0.09433498,0,0.3,0,0,0,0,
6.38224E+17,55.34235,40.58456,74.50112,39.70509,-19.06834,-70.67538,-17.01029,-0.4441859,-4.27255,-61.44649,-6.909645,34.57793,0,0,0,189.0032,74.46974,-37.68458,-36.10317,-110.6632,-50.33768,0.001067912,-0.1257102,0.09433498,0,0.3,0,0,0,0,
6.38224E+17,55.31879,42.01063,74.50112,40.43755,-19.50781,-70.23591,-17.01029,-0.4441859,-4.27255,-61.44649,-6.98289,34.57793,0,0,0,187.1482,76.96323,-38.85323,-36.10317,-110.6632,-50.33768,0.001067912,-0.1257102,0.09433498,0,0.3,0,0,0,0,
6.38224E+17,55.27167,42.43144,74.52448,41.17,-19.80079,-70.08942,-17.01029,-0.4441859,-4.27255,-61.44649,-6.98289,34.57793,0,0,0,186.5126,77.74089,-39.06603,-36.10317,-110.6632,-50.33768,0.001067912,-0.1257102,0.09433498,0,0.3,0,0,0,0,
6.38224E+17,55.27167,42.38468,74.54782,41.38973,-19.94728,-70.01617,-17.01029,-0.4441859,-4.27255,-61.51973,-6.98289,34.57793,0,0,0,186.5849,77.71291,-39.01597,-36.10317,-110.6632,-50.33768,0.001067912,-0.1257102,0.09433498,0,0.3,0,0,0,0,
6.38224E+17,55.27167,42.05739,74.71125,41.68271,-20.02053,-70.01617,-17.01029,-0.4441859,-4.27255,-61.51973,-6.909645,34.57793,0,0,0,187.0884,77.51556,-38.66692,-36.10317,-110.6632,-50.33768,0.001067912,-0.1257102,0.09433498,0,0.3,0,0,0,0,
