zeyangz2/DNN_classification_different_people_hand/data_by_names/Frank/Frank_right_2.csv
Timestamp,Therapist joint angle 0,Therapist joint angle 1,Therapist joint angle 2,Therapist joint angle 3,Therapist joint angle 4,Therapist joint angle 5,Patient joint angle 0,Patient joint angle 1,Patient joint angle 2,Patient joint angle 3,Patient joint angle 4,Patient joint angle 5,Virtual joint angle 0,Virtual joint angle 1,Virtual joint angle 2,Therapist position x,Therapist position y,Therapist position z,Patient position x,Patient position y,Patient position z,Virtual position x,Virtual position y,Virtual position z,Assistive Force, Obstacle Force Magnitude, Therapist Constant Force, Patient Constant Force, Recovery Factor, Assistance Level,label
6.38223E+17,0,0,0,0,0,0,0,0,0,0,0,0,0,0,0,0,0,0,0,0,0,0,0,0,0,0.3,0,0,0,0,1
6.38223E+17,29.16723,16.76217,-2.708283,-18.23184,20.04458,43.36735,-4.570632,-0.4441859,0.1400836,-35.15147,-8.447793,45.05199,0,0,0,59.1573,-71.39296,-62.35818,-10.65206,-111.0334,-35.10307,0.001067912,-0.1257102,0.09433498,0,0.3,0,0,0.3077438,0,
6.38223E+17,29.16723,16.57515,-2.895061,-18.52482,20.11782,42.92788,-4.570632,-0.4441859,0.1400836,-35.15147,-8.447793,45.12524,0,0,0,59.00654,-71.7887,-62.6283,-10.65206,-111.0334,-35.10307,0.001067912,-0.1257102,0.09433498,0,0.3,0,0,0.3084969,0,
6.38223E+17,29.16723,16.50501,-2.98845,-18.89104,20.26431,42.34192,-4.570632,-0.4441859,0.1400836,-35.15147,-8.447793,45.05199,0,0,0,58.9234,-71.93402,-62.77726,-10.65206,-111.0334,-35.10307,0.001067912,-0.1257102,0.09433498,0,0.3,0,0,0.3091499,0,
6.38223E+17,29.16723,16.50501,-2.98845,-19.18402,20.48405,41.90245,-4.570632,-0.4441859,0.1400836,-35.15147,-8.447793,45.05199,0,0,0,58.9234,-71.93402,-62.77726,-10.65206,-111.0334,-35.10307,0.001067912,-0.1257102,0.09433498,0,0.3,0,0,0.3094675,0,
6.38223E+17,29.16723,16.50501,-3.011797,-19.40376,20.70378,41.60947,-4.570632,-0.4441859,0.1400836,-35.22471,-8.447793,45.05199,0,0,0,58.89695,-71.93118,-62.82464,-10.65206,-111.0334,-35.10307,0.001067912,-0.1257102,0.09433498,0,0.3,0,0,0.3096484,0,
6.38223E+17,29.16723,16.50501,-3.011797,-19.40376,20.77703,41.53622,-4.570632,-0.4441859,0.1400836,-35.15147,-8.447793,45.05199,0,0,0,58.89695,-71.93118,-62.82464,-10.65206,-111.0334,-35.10307,0.001067912,-0.1257102,0.09433498,0,0.3,0,0,0.3097137,0,
6.38223E+17,29.16723,16.48163,-3.011797,-19.477,20.92352,41.53622,-4.570632,-0.4441859,0.1400836,-35.22471,-8.447793,45.05199,0,0,0,58.90448,-71.98335,-62.81115,-10.65206,-111.0334,-35.10307,0.001067912,-0.1257102,0.09433498,0,0.3,0,0,0.3098422,0,
6.38223E+17,29.16723,16.45825,-3.035145,-19.55025,20.99677,41.60947,-4.570632,-0.4441859,0.1400836,-35.22471,-8.447793,45.05199,0,0,0,58.88555,-72.03266,-62.84507,-10.65206,-111.0334,-35.10307,0.001067912,-0.1257102,0.09433498,0,0.3,0,0,0.3099498,0,
6.38223E+17,29.21435,16.36474,-3.128534,-19.69674,21.14326,41.68271,-4.570632,-0.4441859,0.1400836,-35.15147,-8.447793,45.05199,0,0,0,58.89638,-72.22975,-63.02929,-10.65206,-111.0334,-35.10307,0.001067912,-0.1257102,0.09433498,0,0.3,0,0,0.3100607,0,
6.38223E+17,29.40283,16.27123,-3.151881,-20.06297,21.28975,41.68271,-4.570632,-0.4441859,0.1400836,-35.15147,-8.447793,45.05199,0,0,0,59.24591,-72.43565,-63.2176,-10.65206,-111.0334,-35.10307,0.001067912,-0.1257102,0.09433498,0,0.3,0,0,0.3100082,0,
6.38223E+17,29.56775,16.27123,-3.151881,-20.06297,21.36299,41.68271,-4.570632,-0.4441859,0.1400836,-35.15147,-8.447793,45.12524,0,0,0,59.54827,-72.43565,-63.38857,-10.65206,-111.0334,-35.10307,0.001067912,-0.1257102,0.09433498,0,0.3,0,0,0.3097071,0,
6.38223E+17,29.59131,16.24785,-3.058492,-19.69674,21.36299,41.38973,-4.570632,-0.4441859,0.1400836,-35.15147,-8.521038,45.05199,0,0,0,59.70612,-72.49966,-63.21109,-10.65206,-111.0334,-35.10307,0.001067912,-0.1257102,0.09433498,0,0.3,0,0,0.309368,0,
6.38223E+17,29.59131,16.24785,-2.708283,-19.18402,21.28975,40.3643,-4.570632,-0.4441859,0.1400836,-35.22471,-8.447793,45.05199,0,0,0,60.10811,-72.54066,-62.50322,-10.65206,-111.0334,-35.10307,0.001067912,-0.1257102,0.09433498,0,0.3,0,0,0.3090404,0,
6.38223E+17,29.59131,16.24785,-2.054559,-18.59806,21.28975,39.33887,-4.570632,-0.4441859,0.1400836,-35.15147,-8.447793,45.05199,0,0,0,60.85877,-72.60387,-61.18135,-10.65206,-111.0334,-35.10307,0.001067912,-0.1257102,0.09433498,0,0.3,0,0,0.3086678,0,
6.38223E+17,29.59131,16.24785,-1.564267,-18.45157,21.28975,39.11913,-4.570632,-0.4441859,0.1400836,-35.22471,-8.447793,45.12524,0,0,0,61.42198,-72.63991,-60.18958,-10.65206,-111.0334,-35.10307,0.001067912,-0.1257102,0.09433498,0,0.3,0,0,0.3084373,0,
6.38223E+17,29.59131,16.29461,-0.2334726,-17.93885,21.28975,38.89939,-4.570632,-0.4441859,0.1400836,-35.15147,-8.447793,45.12524,0,0,0,62.93617,-72.58403,-57.52317,-10.65206,-111.0334,-35.10307,0.001067912,-0.1257102,0.09433498,0,0.3,0,0,0.3077801,0,
6.38223E+17,29.59131,16.34136,1.144016,-17.27965,21.2165,38.82615,-4.570632,-0.4441859,0.1400836,-35.22471,-8.447793,45.05199,0,0,0,64.50412,-72.45412,-54.76211,-10.65206,-111.0334,-35.10307,0.001067912,-0.1257102,0.09433498,0,0.3,0,0,0.3068507,0,
6.38223E+17,29.59131,16.34136,3.525437,-16.40071,20.63054,38.75291,-4.570632,-0.4441859,0.1400836,-35.15147,-8.447793,45.05199,0,0,0,67.2386,-72.22835,-49.94685,-10.65206,-111.0334,-35.10307,0.001067912,-0.1257102,0.09433498,0,0.3,0,0,0.3054463,0,
6.38223E+17,29.59131,16.31799,4.716148,-15.88799,20.26431,39.04589,-4.570632,-0.4441859,0.1400836,-35.15147,-8.447793,45.05199,0,0,0,68.61107,-72.08143,-47.53003,-10.65206,-111.0334,-35.10307,0.001067912,-0.1257102,0.09433498,0,0.3,0,0,0.3036636,0,
6.38223E+17,29.42639,16.29461,6.583929,-15.15554,19.82484,39.63185,-4.570632,-0.4441859,0.1400836,-35.15147,-8.447793,45.05199,0,0,0,70.39578,-71.7057,-43.55205,-10.65206,-111.0334,-35.10307,0.001067912,-0.1257102,0.09433498,0,0.3,0,0,0.3015253,0,
6.38223E+17,28.97875,16.27123,8.825266,-14.34984,19.31213,40.58403,-4.570632,-0.4441859,0.1400836,-35.15147,-8.447793,45.12524,0,0,0,71.93035,-71.05862,-38.47064,-10.65206,-111.0334,-35.10307,0.001067912,-0.1257102,0.09433498,0,0.3,0,0,0.2990544,0,
6.38223E+17,28.05991,16.29461,11.32342,-13.83713,18.79941,41.97569,-4.570632,-0.4441859,0.1400836,-35.22471,-8.521038,45.12524,0,0,0,72.52376,-69.98941,-32.29605,-10.65206,-111.0334,-35.10307,0.001067912,-0.1257102,0.09433498,0,0.3,0,0,0.2964017,0,
6.38223E+17,27.306,16.29461,12.7943,-13.61739,18.50643,43.36735,-4.570632,-0.4441859,0.1400836,-35.22471,-8.447793,45.12524,0,0,0,72.26301,-69.27425,-28.37892,-10.65206,-111.0334,-35.10307,0.001067912,-0.1257102,0.09433498,0,0.3,0,0,0.2938021,0,
6.38223E+17,26.57564,16.29461,14.68543,-13.32441,18.35994,45.05199,-4.570632,-0.4441859,0.1400836,-35.22471,-8.447793,45.05199,0,0,0,72.38561,-68.2289,-23.64561,-10.65206,-111.0334,-35.10307,0.001067912,-0.1257102,0.09433498,0,0.3,0,0,0.2911471,0,
6.38223E+17,26.34004,16.29461,15.66602,-13.10467,18.1402,45.7112,-4.570632,-0.4441859,0.1400836,-35.22471,-8.447793,45.12524,0,0,0,72.76727,-67.63146,-21.37527,-10.65206,-111.0334,-35.10307,0.001067912,-0.1257102,0.09433498,0,0.3,0,0,0.2896881,0,
6.38223E+17,25.82172,16.43488,19.2148,-12.07924,17.70073,48.34802,-4.570632,-0.4441859,0.1400836,-35.15147,-8.447793,45.05199,0,0,0,74.8263,-64.84316,-13.71397,-10.65206,-111.0334,-35.10307,0.001067912,-0.1257102,0.09433498,0,0.3,0,0,0.2842739,0,
6.38223E+17,25.7746,16.66866,20.73237,-11.49328,17.26126,49.51994,-4.570632,-0.4441859,0.1400836,-35.15147,-8.447793,45.05199,0,0,0,76.0751,-63.11516,-10.80286,-10.65206,-111.0334,-35.10307,0.001067912,-0.1257102,0.09433498,0,0.3,0,0,0.2819276,0,
6.38223E+17,25.86884,17.25311,23.37061,-10.02838,16.38232,52.08353,-4.570632,-0.4441859,0.1400836,-35.15147,-8.447793,45.05199,0,0,0,78.64386,-59.50899,-6.164922,-10.65206,-111.0334,-35.10307,0.001067912,-0.1257102,0.09433498,0,0.3,0,0,0.2763651,0,
6.38223E+17,26.34004,17.6973,25.89212,-8.270493,15.13715,53.91465,-4.570632,-0.4441859,0.1400836,-35.15147,-8.447793,45.05199,0,0,0,82.20399,-56.07722,-2.31506,-10.65206,-111.0334,-35.10307,0.001067912,-0.1257102,0.09433498,0,0.3,0,0,0.2695377,0,
6.38223E+17,27.77719,18.42202,29.25412,-6.219628,13.30602,55.23307,-4.570632,-0.4441859,0.1400836,-35.15147,-8.447793,45.12524,0,0,0,89.33064,-50.85222,1.244213,-10.65206,-111.0334,-35.10307,0.001067912,-0.1257102,0.09433498,0,0.3,0,0,0.2608236,0,
6.38223E+17,28.90807,19.07661,30.70166,-5.194195,12.20734,55.52605,-4.570632,-0.4441859,0.1400836,-35.15147,-8.447793,45.05199,0,0,0,93.83434,-47.72626,1.574029,-10.65206,-111.0334,-35.10307,0.001067912,-0.1257102,0.09433498,0,0.3,0,0,0.2510137,0,
6.38223E+17,30.88711,20.12863,32.63948,-3.289821,10.37621,55.74578,-4.570632,-0.4441859,0.1400836,-35.22471,-8.447793,45.05199,0,0,0,101.1952,-43.0519,0.8211961,-10.65206,-111.0334,-35.10307,0.001067912,-0.1257102,0.09433498,0,0.3,0,0,0.2395722,0,
6.38223E+17,33.29023,20.99363,34.74073,-1.092466,8.398596,55.37956,-4.570632,-0.4441859,0.1400836,-35.22471,-8.447793,45.05199,0,0,0,110.0448,-38.4544,-0.7605329,-10.65206,-111.0334,-35.10307,0.001067912,-0.1257102,0.09433498,0,0.3,0,0,0.2265527,0,
6.38223E+17,36.23522,21.62484,38.3829,1.69085,6.05475,53.32869,-4.570632,-0.4441859,0.1400836,-35.15147,-8.447793,45.05199,0,0,0,122.2181,-32.03708,-1.57534,-10.65206,-111.0334,-35.10307,0.001067912,-0.1257102,0.09433498,0,0.3,0,0,0.2112717,0,
6.38223E+17,38.40274,21.95213,41.62818,4.254431,3.857395,51.35107,-4.570632,-0.4441859,0.1400836,-35.15147,-8.447793,45.05199,0,0,0,131.856,-26.47485,-2.005415,-10.65206,-111.0334,-35.10307,0.001067912,-0.1257102,0.09433498,0,0.3,0,0,0.1941182,0,
6.38223E+17,39.43937,21.97551,43.49596,5.719335,2.392492,50.10591,-4.570632,-0.4441859,0.1400836,-35.22471,-8.447793,45.12524,0,0,0,136.8649,-23.48421,-1.961225,-10.65206,-111.0334,-35.10307,0.001067912,-0.1257102,0.09433498,0,0.3,0,0,0.1848539,0,
6.38223E+17,40.87653,21.99889,47.65177,8.575896,-1.343012,46.59014,-4.570632,-0.4441859,0.1400836,-35.15147,-8.447793,45.12524,0,0,0,145.4114,-16.52782,-0.3434444,-10.65206,-111.0334,-35.10307,0.001067912,-0.1257102,0.09433498,0,0.3,0,0,0.1650963,0,
6.38223E+17,41.30061,22.23267,52.34457,11.28597,-6.616664,42.70815,-4.570632,-0.4441859,0.1400836,-35.15147,-8.447793,45.12524,0,0,0,151.1483,-7.659569,3.694749,-10.65206,-111.0334,-35.10307,0.001067912,-0.1257102,0.09433498,0,0.3,0,0,0.1442336,0,
6.38223E+17,41.30061,22.65348,54.79603,12.16491,-9.326735,40.95026,-4.570632,-0.4441859,0.1400836,-35.15147,-8.447793,45.05199,0,0,0,153.1375,-2.164127,5.959033,-10.65206,-111.0334,-35.10307,0.001067912,-0.1257102,0.09433498,0,0.3,0,0,0.1232163,0,
6.38223E+17,41.30061,23.72888,59.18532,13.62981,-14.16092,38.0937,-4.570632,-0.4441859,0.1400836,-35.22471,-8.447793,45.12524,0,0,0,156.1592,8.701003,9.398464,-10.65206,-111.0334,-35.10307,0.001067912,-0.1257102,0.09433498,0,0.3,0,0,0.1013621,0,
6.38223E+17,41.15925,24.73414,63.31779,15.90041,-19.58106,35.60336,-4.570632,-0.4441859,0.1400836,-35.15147,-8.447793,45.12524,0,0,0,158.1321,19.26504,12.54224,-10.65206,-111.0334,-35.10307,0.001067912,-0.1257102,0.09433498,0,0.3,0,0,0.07877506,0,
6.38223E+17,40.49957,25.41211,66.70313,18.90347,-25.58716,32.89329,-4.570632,-0.4441859,0.1400836,-35.22471,-8.447793,45.05199,0,0,0,157.766,27.83467,16.37309,-10.65206,-111.0334,-35.10307,0.001067912,-0.1257102,0.09433498,0,0.3,0,0,0.05601463,0,
6.38223E+17,39.74566,25.83291,68.17402,20.44161,-29.32266,31.57488,-4.570632,-0.4441859,0.1400836,-35.15147,-8.447793,45.05199,0,0,0,155.8908,31.87898,19.1172,-10.65206,-111.0334,-35.10307,0.001067912,-0.1257102,0.09433498,0,0.3,0,0,0.03382846,0,
6.38223E+17,39.27446,26.16021,68.7577,21.10082,-31.37353,30.98892,-4.570632,-0.4441859,0.1400836,-35.15147,-8.447793,45.05199,0,0,0,154.4481,33.82728,20.52042,-10.65206,-111.0334,-35.10307,0.001067912,-0.1257102,0.09433498,0,0.3,0,0,0.02304911,0,
6.38223E+17,38.56766,26.8148,69.41142,21.68678,-34.59632,30.62269,-4.570632,-0.4441859,0.1400836,-35.15147,-8.521038,45.05199,0,0,0,152.0215,36.61206,22.30467,-10.65206,-111.0334,-35.10307,0.001067912,-0.1257102,0.09433498,0,0.3,0,0,0.00218089,0,
6.38223E+17,37.8373,27.53952,69.83167,21.83327,-36.94016,30.54945,-4.570632,-0.4441859,0.1400836,-35.22471,-8.447793,45.12524,0,0,0,149.3152,39.02943,23.88753,-10.65206,-111.0334,-35.10307,0.001067912,-0.1257102,0.09433498,0,0.3,0,0,0,0,
6.38223E+17,37.1305,28.49803,70.34531,21.46704,-38.84454,30.98892,-4.570632,-0.4441859,0.1400836,-35.22471,-8.447793,45.05199,0,0,0,146.5457,42.12274,25.20391,-10.65206,-111.0334,-35.10307,0.001067912,-0.1257102,0.09433498,0,0.3,0,0,0,0,
6.38223E+17,36.7771,29.08249,70.74222,21.24731,-39.72348,31.35514,-4.570632,-0.4441859,0.1400836,-35.15147,-8.447793,45.12524,0,0,0,145.1411,44.18585,25.82584,-10.65206,-111.0334,-35.10307,0.001067912,-0.1257102,0.09433498,0,0.3,0,0,0,0,
6.38223E+17,35.9525,30.81247,71.79285,20.80784,-41.26163,32.08759,-4.570632,-0.4441859,0.1400836,-35.22471,-8.447793,45.12524,0,0,0,141.6126,49.99016,26.90318,-10.65206,-111.0334,-35.10307,0.001067912,-0.1257102,0.09433498,0,0.3,0,0,0,0,
6.38223E+17,34.91586,32.91651,72.72674,20.07539,-42.94627,32.96654,-4.570632,-0.4441859,0.1400836,-35.22471,-8.447793,45.12524,0,0,0,136.9564,56.21904,27.85662,-10.65206,-111.0334,-35.10307,0.001067912,-0.1257102,0.09433498,0,0.3,0,0,0,0,
6.38223E+17,33.5965,34.97379,73.54388,17.87803,-44.63091,34.43144,-4.570632,-0.4441859,0.1400836,-35.22471,-8.447793,45.12524,0,0,0,131.2283,62.01094,29.19068,-10.65206,-111.0334,-35.10307,0.001067912,-0.1257102,0.09433498,0,0.3,0,0,0,0,
6.38223E+17,32.91327,36.04919,73.68398,16.12015,-45.36336,35.53012,-4.570632,-0.4441859,0.1400836,-35.15147,-8.447793,45.05199,0,0,0,128.1235,64.36104,29.59821,-10.65206,-111.0334,-35.10307,0.001067912,-0.1257102,0.09433498,0,0.3,0,0,0,0,
6.38223E+17,31.59391,38.10647,73.61393,12.01842,-46.38879,38.31343,-4.570632,-0.4441859,0.1400836,-35.15147,-8.521038,45.05199,0,0,0,121.9954,68.02445,29.99795,-10.65206,-111.0334,-35.10307,0.001067912,-0.1257102,0.09433498,0,0.3,0,0,0,0,
6.38223E+17,30.29811,40.30402,73.63728,7.403974,-46.9015,41.75596,-4.570632,-0.4441859,0.1400836,-35.22471,-8.447793,45.05199,0,0,0,115.8556,72.03956,29.92808,-10.65206,-111.0334,-35.10307,0.001067912,-0.1257102,0.09433498,0,0.3,0,0,0,0,
6.38223E+17,29.07299,42.45482,73.63728,3.155754,-46.68177,44.97874,-4.570632,-0.4441859,0.1400836,-35.15147,-8.521038,45.05199,0,0,0,109.9819,75.79539,29.46792,-10.65206,-111.0334,-35.10307,0.001067912,-0.1257102,0.09433498,0,0.3,0,0,0,0,
6.38223E+17,28.48399,43.69386,73.61393,1.178134,-46.46204,46.59014,-4.570632,-0.4441859,0.1400836,-35.15147,-8.521038,45.12524,0,0,0,106.9961,77.84971,28.84358,-10.65206,-111.0334,-35.10307,0.001067912,-0.1257102,0.09433498,0,0.3,0,0,0,0,
6.38223E+17,27.18819,46.31222,73.31042,-2.777105,-45.94932,49.95942,-4.570632,-0.4441859,0.1400836,-35.15147,-8.447793,45.12524,0,0,0,100.4487,81.48101,27.20106,-10.65206,-111.0334,-35.10307,0.001067912,-0.1257102,0.09433498,0,0.3,0,0,0,0,
6.38223E+17,25.4212,48.29937,72.53996,-6.659099,-45.4366,53.1822,-4.570632,-0.4441859,0.1400836,-35.22471,-8.447793,45.12524,0,0,0,92.68597,82.9028,26.65995,-10.65206,-111.0334,-35.10307,0.001067912,-0.1257102,0.09433498,0,0.3,0,0,0,0,
6.38223E+17,22.594,50.16962,70.41535,-13.17792,-43.9717,59.11506,-4.570632,-0.4441859,0.1400836,-35.22471,-8.447793,45.05199,0,0,0,81.08447,81.05653,26.50041,-10.65206,-111.0334,-35.10307,0.001067912,-0.1257102,0.09433498,0,0.3,0,0,0,0,
6.38223E+17,21.03905,51.08138,68.40749,-16.91342,-42.65329,62.70407,-4.570632,-0.4441859,0.1400836,-35.22471,-8.447793,45.05199,0,0,0,74.58838,78.02829,25.56429,-10.65206,-111.0334,-35.10307,0.001067912,-0.1257102,0.09433498,0,0.3,0,0,0,0,
6.38223E+17,19.10713,52.32042,65.30231,-21.01515,-40.16295,66.21985,-4.570632,-0.4441859,0.1400836,-35.22471,-8.447793,45.05199,0,0,0,66.33824,73.17101,23.14635,-10.65206,-111.0334,-35.10307,0.001067912,-0.1257102,0.09433498,0,0.3,0,0,0,0,
6.38223E+17,17.24589,53.41919,62.3372,-23.94496,-37.30639,68.34396,-4.570632,-0.4441859,0.1400836,-35.15147,-8.447793,45.05199,0,0,0,58.57661,68.52232,20.3453,-10.65206,-111.0334,-35.10307,0.001067912,-0.1257102,0.09433498,0,0.3,0,0,0,0,
6.38223E+17,14.81922,53.60622,58.53159,-25.84933,-34.59632,70.17509,-4.570632,-0.4441859,0.1400836,-35.15147,-8.447793,45.12524,0,0,0,49.32747,61.0787,18.0938,-10.65206,-111.0334,-35.10307,0.001067912,-0.1257102,0.09433498,0,0.3,0,0,0,0,
6.38223E+17,13.80614,53.25555,56.87394,-26.36205,-33.2779,70.76105,-4.570632,-0.4441859,0.1400836,-35.15147,-8.447793,45.05199,0,0,0,45.68784,57.33142,17.57158,-10.65206,-111.0334,-35.10307,0.001067912,-0.1257102,0.09433498,0,0.3,0,0,0,0,
6.38223E+17,11.56794,51.82948,53.13838,-27.82695,-29.76214,71.85973,-4.570632,-0.4441859,0.1400836,-35.15147,-8.447793,45.05199,0,0,0,37.92066,48.19183,16.91127,-10.65206,-111.0334,-35.10307,0.001067912,-0.1257102,0.09433498,0,0.3,0,0,0,0,
6.38223E+17,10.03654,49.9826,49.96315,-29.43835,-25.88014,72.44569,-4.570632,-0.4441859,0.1400836,-35.15147,-8.447793,45.12524,0,0,0,32.73668,39.69458,16.61901,-10.65206,-111.0334,-35.10307,0.001067912,-0.1257102,0.09433498,0,0.3,0,0,0,0,
6.38223E+17,9.329745,48.86045,47.58173,-30.46378,-22.29113,72.8119,-4.570632,-0.4441859,0.1400836,-35.15147,-8.447793,45.12524,0,0,0,30.18192,33.82751,15.3619,-10.65206,-111.0334,-35.10307,0.001067912,-0.1257102,0.09433498,0,0.3,0,0,0,0,
6.38223E+17,9.188385,48.55653,46.60114,-30.75676,-20.75298,72.8119,-4.570632,-0.4441859,0.1400836,-35.15147,-8.447793,45.05199,0,0,0,29.56533,31.68918,14.42661,-10.65206,-111.0334,-35.10307,0.001067912,-0.1257102,0.09433498,0,0.3,0,0,0,0,
6.38223E+17,9.141265,48.04221,44.61663,-30.46378,-18.26265,72.88515,-4.570632,-0.4441859,0.1400836,-35.15147,-8.447793,45.05199,0,0,0,29.0437,27.59257,12.14338,-10.65206,-111.0334,-35.10307,0.001067912,-0.1257102,0.09433498,0,0.3,0,0,0,0,
6.38223E+17,9.164824,47.34086,42.2352,-29.58484,-16.35827,72.88515,-4.570632,-0.4441859,0.1400836,-35.22471,-8.447793,45.05199,0,0,0,28.66909,22.68409,9.349495,-10.65206,-111.0334,-35.10307,0.001067912,-0.1257102,0.09433498,0,0.3,0,0,0,0,
6.38223E+17,9.447544,46.07844,39.64366,-28.85239,-14.08767,72.37244,-4.570632,-0.4441859,0.1400836,-35.22471,-8.447793,45.05199,0,0,0,29.1488,16.71754,6.821397,-10.65206,-111.0334,-35.10307,0.001067912,-0.1257102,0.09433498,0,0.3,0,0,0,0,
6.38223E+17,10.13078,45.02642,37.986,-28.48616,-11.89032,70.90753,-4.570632,-0.4441859,0.1400836,-35.15147,-8.447793,45.05199,0,0,0,31.01427,12.58487,5.222914,-10.65206,-111.0334,-35.10307,0.001067912,-0.1257102,0.09433498,0,0.3,0,0,0,0,
6.38223E+17,11.30878,44.18481,36.7019,-27.97344,-9.399981,68.4172,-4.570632,-0.4441859,0.1400836,-35.15147,-8.447793,45.05199,0,0,0,34.37993,9.377471,3.56761,-10.65206,-111.0334,-35.10307,0.001067912,-0.1257102,0.09433498,0,0.3,0,0,0,0,
6.38223E+17,13.38206,43.50684,35.18433,-26.80152,-6.250438,64.90143,-4.570632,-0.4441859,0.1400836,-35.15147,-8.447793,45.12524,0,0,0,40.16817,6.166331,0.4928636,-10.65206,-111.0334,-35.10307,0.001067912,-0.1257102,0.09433498,0,0.3,0,0,0,0,
6.38223E+17,16.37417,42.99252,33.50333,-25.04364,-3.467122,60.57997,-4.570632,-0.4441859,0.1400836,-35.15147,-8.447793,45.05199,0,0,0,48.24736,3.087339,-4.146303,-10.65206,-111.0334,-35.10307,0.001067912,-0.1257102,0.09433498,0,0.3,0,0,0,0,
6.38223E+17,20.12021,42.4782,32.19588,-22.26032,-1.635992,56.03876,-4.570632,-0.4441859,0.1400836,-35.22471,-8.447793,45.12524,0,0,0,58.27245,0.5575628,-9.286898,-10.65206,-111.0334,-35.10307,0.001067912,-0.1257102,0.09433498,0,0.3,0,0,0,0,
6.38223E+17,22.16992,42.12752,31.65889,-20.20946,-0.9035407,53.76817,-4.570632,-0.4441859,0.1400836,-35.22471,-8.447793,45.12524,0,0,0,63.73134,-0.707,-11.94647,-10.65206,-111.0334,-35.10307,0.001067912,-0.1257102,0.09433498,0,0.3,0,0,0,0,
6.38223E+17,26.10444,41.02874,30.67831,-15.81474,0.4881175,49.51994,-4.570632,-0.4441859,0.1400836,-35.15147,-8.447793,45.05199,0,0,0,74.20047,-3.801115,-16.91768,-10.65206,-111.0334,-35.10307,0.001067912,-0.1257102,0.09433498,0,0.3,0,0,0,0,
6.38223E+17,29.87403,39.22863,29.51094,-10.68758,1.806531,44.61252,-4.570632,-0.4441859,0.1400836,-35.22471,-8.447793,45.05199,0,0,0,84.16984,-8.366663,-21.82052,-10.65206,-111.0334,-35.10307,0.001067912,-0.1257102,0.09433498,0,0.3,0,0,0,0,
6.38223E+17,33.5965,35.74527,27.73655,-4.534989,3.344679,37.72747,-4.570632,-0.4441859,0.1400836,-35.15147,-8.447793,45.05199,0,0,0,94.22939,-16.77691,-26.50458,-10.65206,-111.0334,-35.10307,0.001067912,-0.1257102,0.09433498,0,0.3,0,0,0,0,
6.38223E+17,34.82162,33.12691,26.89605,-1.678428,4.663092,34.65118,-4.570632,-0.4441859,0.1400836,-35.15147,-8.447793,45.05199,0,0,0,98.21577,-22.7002,-27.14977,-10.65206,-111.0334,-35.10307,0.001067912,-0.1257102,0.09433498,0,0.3,0,0,0,0,
6.38223E+17,35.69334,28.70843,25.91546,1.471115,7.446409,30.98892,-4.570632,-0.4441859,0.1400836,-35.15147,-8.521038,45.05199,0,0,0,102.242,-32.53529,-26.0303,-10.65206,-111.0334,-35.10307,0.001067912,-0.1257102,0.09433498,0,0.3,0,0,0,0,
6.38223E+17,35.76402,24.31333,24.86484,3.302244,10.81569,28.27885,-4.570632,-0.4441859,0.1400836,-35.15147,-8.447793,45.12524,0,0,0,103.7943,-42.73503,-24.24493,-10.65206,-111.0334,-35.10307,0.001067912,-0.1257102,0.09433498,0,0.3,0,0,0,0,
6.38223E+17,35.43418,19.21688,23.86091,4.254431,14.84417,26.08149,-4.570632,-0.4441859,0.1400836,-35.15147,-8.447793,45.12524,0,0,0,104.2782,-54.71113,-21.80159,-10.65206,-111.0334,-35.10307,0.001067912,-0.1257102,0.09433498,0,0.3,0,0,0,0,
6.38223E+17,34.79806,15.52313,23.74417,4.474167,17.481,25.05606,-4.570632,-0.4441859,0.1400836,-35.22471,-8.447793,45.05199,0,0,0,103.9673,-63.02415,-18.74987,-10.65206,-111.0334,-35.10307,0.001067912,-0.1257102,0.09433498,0,0.3,0,0,0,0,
6.38223E+17,34.20906,13.55936,23.79086,4.474167,19.01915,24.68983,-4.570632,-0.4441859,0.1400836,-35.22471,-8.447793,45.05199,0,0,0,103.125,-67.4042,-16.6578,-10.65206,-111.0334,-35.10307,0.001067912,-0.1257102,0.09433498,0,0.3,0,0,0,0,
6.38223E+17,32.65411,10.87086,23.67413,3.81496,21.87571,24.17712,-4.570632,-0.4441859,0.1400836,-35.22471,-8.447793,45.05199,0,0,0,99.5508,-73.62851,-13.01013,-10.65206,-111.0334,-35.10307,0.001067912,-0.1257102,0.09433498,0,0.3,0,0,0,0,
6.38223E+17,29.54419,8.766827,22.97371,1.617605,25.39147,24.03063,-4.570632,-0.4441859,0.1400836,-35.15147,-8.447793,45.05199,0,0,0,90.65039,-79.09886,-8.41393,-10.65206,-111.0334,-35.10307,0.001067912,-0.1257102,0.09433498,0,0.3,0,0,0,0,
6.38223E+17,28.15415,8.182371,22.95036,0.5189275,26.19717,24.03063,-4.570632,-0.4441859,0.1400836,-35.15147,-8.447793,45.12524,0,0,0,86.8149,-80.46546,-6.129336,-10.65206,-111.0334,-35.10307,0.001067912,-0.1257102,0.09433498,0,0.3,0,0,0,0,
6.38223E+17,24.50236,7.574538,22.95036,-2.264389,27.36909,24.25036,-4.570632,-0.4441859,0.1400836,-35.22471,-8.521038,45.12524,0,0,0,76.38678,-81.86677,-0.7527931,-10.65206,-111.0334,-35.10307,0.001067912,-0.1257102,0.09433498,0,0.3,0,0,0,0,
6.38223E+17,20.23801,7.597916,22.97371,-6.292873,28.10155,24.98281,-4.570632,-0.4441859,0.1400836,-35.22471,-8.447793,45.05199,0,0,0,63.72789,-81.79163,4.503425,-10.65206,-111.0334,-35.10307,0.001067912,-0.1257102,0.09433498,0,0.3,0,0,0,0,
6.38223E+17,13.85326,8.20575,23.74417,-13.32441,28.32128,26.44772,-4.570632,-0.4441859,0.1400836,-35.22471,-8.447793,45.12524,0,0,0,44.45815,-79.67944,11.92761,-10.65206,-111.0334,-35.10307,0.001067912,-0.1257102,0.09433498,0,0.3,0,0,0,0,
6.38223E+17,10.31926,9.211012,24.58467,-17.79236,27.95506,27.61964,-4.570632,-0.4441859,0.1400836,-35.15147,-8.447793,45.12524,0,0,0,33.51742,-76.56602,15.73261,-10.65206,-111.0334,-35.10307,0.001067912,-0.1257102,0.09433498,0,0.3,0,0,0,0,
6.38223E+17,5.88999,11.10465,26.68592,-24.38443,26.5634,29.08454,-4.570632,-0.4441859,0.1400836,-35.22471,-8.447793,45.05199,0,0,0,19.57358,-70.11237,21.38375,-10.65206,-111.0334,-35.10307,0.001067912,-0.1257102,0.09433498,0,0.3,0,0,0,0,
6.38223E+17,3.157035,14.09706,29.39421,-30.83001,24.43929,30.69594,-4.570632,-0.4441859,0.1400836,-35.15147,-8.447793,45.12524,0,0,0,10.72732,-60.35356,26.13876,-10.65206,-111.0334,-35.10307,0.001067912,-0.1257102,0.09433498,0,0.3,0,0,0,0,
6.38223E+17,1.672757,18.46878,32.26592,-36.1769,21.72922,34.43144,-4.570632,-0.4441859,0.1400836,-35.22471,-8.447793,45.05199,0,0,0,5.770204,-47.16436,29.23659,-10.65206,-111.0334,-35.10307,0.001067912,-0.1257102,0.09433498,0,0.3,0,0,0,0,
6.38223E+17,1.413598,20.33904,33.43328,-37.7883,20.48405,36.18932,-4.570632,-0.4441859,0.1400836,-35.15147,-8.447793,45.05199,0,0,0,4.89706,-41.58523,30.09679,-10.65206,-111.0334,-35.10307,0.001067912,-0.1257102,0.09433498,0,0.3,0,0,0,0,
6.38223E+17,1.177998,25.01468,36.37504,-40.42512,17.40775,41.24324,-4.570632,-0.4441859,0.1400836,-35.15147,-8.447793,45.05199,0,0,0,4.110206,-27.62995,31.53509,-10.65206,-111.0334,-35.10307,0.001067912,-0.1257102,0.09433498,0,0.3,0,0,0,0,
6.38223E+17,1.248678,29.73707,39.48022,-41.89003,13.74549,46.95637,-4.570632,-0.4441859,0.1400836,-35.15147,-8.447793,45.05199,0,0,0,4.370888,-13.43105,32.17712,-10.65206,-111.0334,-35.10307,0.001067912,-0.1257102,0.09433498,0,0.3,0,0,0,0,
6.38223E+17,1.390038,32.05152,41.18458,-42.54923,11.62138,49.81293,-4.570632,-0.4441859,0.1400836,-35.15147,-8.447793,45.12524,0,0,0,4.871875,-6.241784,32.42376,-10.65206,-111.0334,-35.10307,0.001067912,-0.1257102,0.09433498,0,0.3,0,0,0,0,
6.38223E+17,1.861237,36.28297,44.75671,-44.01414,7.080183,54.57386,-4.570632,-0.4441859,0.1400836,-35.15147,-8.521038,45.05199,0,0,0,6.540798,7.570785,32.9292,-10.65206,-111.0334,-35.10307,0.001067912,-0.1257102,0.09433498,0,0.3,0,0,0,0,
6.38223E+17,2.968555,40.56118,48.7024,-46.065,2.099511,57.94314,-4.570632,-0.4441859,0.1400836,-35.22471,-8.447793,45.12524,0,0,0,10.43486,22.05509,32.87197,-10.65206,-111.0334,-35.10307,0.001067912,-0.1257102,0.09433498,0,0.3,0,0,0,0,
6.38223E+17,5.065392,44.90953,52.53135,-47.74964,-3.760103,60.94619,-4.570632,-0.4441859,0.1400836,-35.15147,-8.447793,45.05199,0,0,0,17.68321,36.37324,31.14735,-10.65206,-111.0334,-35.10307,0.001067912,-0.1257102,0.09433498,0,0.3,0,0,0,0,
6.38223E+17,6.36119,46.6629,54.32909,-48.11587,-6.909645,62.63083,-4.570632,-0.4441859,0.1400836,-35.15147,-8.447793,45.05199,0,0,0,22.14226,42.57901,30.26712,-10.65206,-111.0334,-35.10307,0.001067912,-0.1257102,0.09433498,0,0.3,0,0,0,0,
6.38223E+17,9.659584,49.63192,57.83118,-47.60315,-14.16092,66.29308,-4.570632,-0.4441859,0.1400836,-35.15147,-8.447793,45.05199,0,0,0,33.43274,53.95163,28.07377,-10.65206,-111.0334,-35.10307,0.001067912,-0.1257102,0.09433498,0,0.3,0,0,0,0,
6.38223E+17,12.01558,50.91772,59.60557,-45.99176,-19.06834,68.05097,-4.570632,-0.4441859,0.1400836,-35.15147,-8.521038,45.05199,0,0,0,41.44637,59.39338,26.37947,-10.65206,-111.0334,-35.10307,0.001067912,-0.1257102,0.09433498,0,0.3,0,0,0,0,
6.38223E+17,14.6543,51.78272,60.79628,-43.20844,-24.04902,69.22289,-4.570632,-0.4441859,0.1400836,-35.15147,-8.447793,45.05199,0,0,0,50.31804,63.0555,24.07617,-10.65206,-111.0334,-35.10307,0.001067912,-0.1257102,0.09433498,0,0.3,0,0,0,0,
6.38223E+17,15.87941,52.0165,60.86632,-41.5238,-26.09988,69.44263,-4.570632,-0.4441859,0.1400836,-35.22471,-8.521038,45.05199,0,0,0,54.32533,63.53357,22.62094,-10.65206,-111.0334,-35.10307,0.001067912,-0.1257102,0.09433498,0,0.3,0,0,0,0,
6.38223E+17,18.28253,52.15677,60.25929,-37.93478,-28.73671,67.75799,-4.570632,-0.4441859,0.1400836,-35.15147,-8.447793,45.05199,0,0,0,61.98634,62.50378,19.27127,-10.65206,-111.0334,-35.10307,0.001067912,-0.1257102,0.09433498,0,0.3,0,0,0,0,
6.38223E+17,21.20397,52.06326,58.9285,-32.88087,-30.27485,63.50977,-4.570632,-0.4441859,0.1400836,-35.15147,-8.521038,45.12524,0,0,0,70.96335,59.69889,14.56688,-10.65206,-111.0334,-35.10307,0.001067912,-0.1257102,0.09433498,0,0.3,0,0,0,0,
6.38223E+17,23.5364,51.50218,57.52766,-27.16775,-30.64108,58.38261,-4.570632,-0.4441859,0.1400836,-35.22471,-8.447793,45.12524,0,0,0,78.073,56.11936,10.8941,-10.65206,-111.0334,-35.10307,0.001067912,-0.1257102,0.09433498,0,0.3,0,0,0,0,
6.38223E+17,25.27984,50.28652,55.40306,-21.23489,-29.76214,53.32869,-4.570632,-0.4441859,0.1400836,-35.15147,-8.447793,45.05199,0,0,0,83.26126,50.21328,7.9511,-10.65206,-111.0334,-35.10307,0.001067912,-0.1257102,0.09433498,0,0.3,0,0,0,0,
6.38223E+17,26.76412,48.41626,52.04106,-15.88799,-27.12531,47.46908,-4.570632,-0.4441859,0.1400836,-35.22471,-8.447793,45.05199,0,0,0,87.20249,41.07085,4.550585,-10.65206,-111.0334,-35.10307,0.001067912,-0.1257102,0.09433498,0,0.3,0,0,0,0,
6.38223E+17,27.306,47.10708,49.65963,-13.4709,-24.85471,44.53928,-4.570632,-0.4441859,0.1400836,-35.22471,-8.447793,45.05199,0,0,0,88.26348,34.72477,2.613467,-10.65206,-111.0334,-35.10307,0.001067912,-0.1257102,0.09433498,0,0.3,0,0,0,0,
6.38223E+17,27.73007,45.37709,46.34432,-11.27355,-21.41219,41.38973,-4.570632,-0.4441859,0.1400836,-35.15147,-8.447793,45.12524,0,0,0,88.47759,26.20667,-0.03972974,-10.65206,-111.0334,-35.10307,0.001067912,-0.1257102,0.09433498,0,0.3,0,0,0,0,
6.38223E+17,27.80075,44.48872,44.45319,-10.32136,-19.58106,39.99807,-4.570632,-0.4441859,0.1400836,-35.15147,-8.447793,45.05199,0,0,0,87.92487,21.60925,-1.590955,-10.65206,-111.0334,-35.10307,0.001067912,-0.1257102,0.09433498,0,0.3,0,0,0,0,
6.38223E+17,27.68295,39.97673,37.05211,-8.343738,-12.47628,35.23714,-4.570632,-0.4441859,0.1400836,-35.15147,-8.447793,45.12524,0,0,0,84.80218,2.599216,-6.708823,-10.65206,-111.0334,-35.10307,0.001067912,-0.1257102,0.09433498,0,0.3,0,0,0,0,
6.38223E+17,27.68295,36.70378,33.31655,-7.684532,-8.228058,32.89329,-4.570632,-0.4441859,0.1400836,-35.22471,-8.447793,45.05199,0,0,0,83.69658,-8.383397,-8.816202,-10.65206,-111.0334,-35.10307,0.001067912,-0.1257102,0.09433498,0,0.3,0,0,0,0,
6.38223E+17,27.6594,34.71663,31.30868,-7.318305,-5.664476,31.9411,-4.570632,-0.4441859,0.1400836,-35.15147,-8.447793,45.05199,0,0,0,83.05075,-14.63634,-9.888863,-10.65206,-111.0334,-35.10307,0.001067912,-0.1257102,0.09433498,0,0.3,0,0,0,0,
6.38223E+17,27.37668,30.39166,27.17622,-6.366118,0.04864649,30.84243,-4.570632,-0.4441859,0.1400836,-35.22471,-8.447793,45.05199,0,0,0,80.89972,-27.8161,-12.12299,-10.65206,-111.0334,-35.10307,0.001067912,-0.1257102,0.09433498,0,0.3,0,0,0,0,
6.38223E+17,26.717,26.8148,23.67413,-5.633667,5.835015,30.4762,-4.570632,-0.4441859,0.1400836,-35.15147,-8.447793,45.05199,0,0,0,77.57813,-38.62254,-14.21697,-10.65206,-111.0334,-35.10307,0.001067912,-0.1257102,0.09433498,0,0.3,0,0,0,0,
6.38223E+17,25.49188,23.93928,20.38216,-4.97446,11.54814,31.20865,-4.570632,-0.4441859,0.1400836,-35.22471,-8.447793,45.05199,0,0,0,72.44289,-47.54182,-16.41489,-10.65206,-111.0334,-35.10307,0.001067912,-0.1257102,0.09433498,0,0.3,0,0,0,0,
6.38223E+17,23.23012,22.25605,17.97739,-4.82797,15.94285,32.38057,-4.570632,-0.4441859,0.1400836,-35.15147,-8.521038,45.05199,0,0,0,64.91167,-52.98381,-17.11936,-10.65206,-111.0334,-35.10307,0.001067912,-0.1257102,0.09433498,0,0.3,0,0,0,0,
6.38223E+17,19.64901,21.46119,16.36643,-6.292873,19.16564,33.62574,-4.570632,-0.4441859,0.1400836,-35.15147,-8.521038,45.05199,0,0,0,54.36591,-55.80767,-16.08503,-10.65206,-111.0334,-35.10307,0.001067912,-0.1257102,0.09433498,0,0.3,0,0,0,0,
6.38223E+17,14.74854,21.3443,15.78275,-9.66215,21.28975,35.45687,-4.570632,-0.4441859,0.1400836,-35.15147,-8.447793,45.12524,0,0,0,40.85289,-56.4371,-13.16373,-10.65206,-111.0334,-35.10307,0.001067912,-0.1257102,0.09433498,0,0.3,0,0,0,0,
6.38223E+17,10.46062,21.3443,15.85279,-13.03143,22.0222,37.65423,-4.570632,-0.4441859,0.1400836,-35.22471,-8.447793,45.05199,0,0,0,29.164,-56.39266,-10.38937,-10.65206,-111.0334,-35.10307,0.001067912,-0.1257102,0.09433498,0,0.3,0,0,0,0,
6.38223E+17,7.397828,21.3443,16.22635,-15.52176,22.09544,39.26562,-4.570632,-0.4441859,0.1400836,-35.15147,-8.447793,45.12524,0,0,0,20.79002,-56.15244,-8.228148,-10.65206,-111.0334,-35.10307,0.001067912,-0.1257102,0.09433498,0,0.3,0,0,0,0,
6.38223E+17,0.9423984,21.32092,18.49104,-22.18707,20.92352,42.04893,-4.570632,-0.4441859,0.1400836,-35.22471,-8.447793,45.05199,0,0,0,2.738726,-54.63066,-1.856407,-10.65206,-111.0334,-35.10307,0.001067912,-0.1257102,0.09433498,0,0.3,0,0,0,0,
6.38223E+17,-4.170113,21.20403,22.46007,-30.02431,18.57967,44.17305,-4.570632,-0.4441859,0.1400836,-35.22471,-8.447793,45.05199,0,0,0,-12.74506,-51.65349,6.452939,-10.65206,-111.0334,-35.10307,0.001067912,-0.1257102,0.09433498,0,0.3,0,0,0,0,
6.38223E+17,-7.350708,21.04038,27.363,-38.15452,15.79636,46.73663,-4.570632,-0.4441859,0.1400836,-35.15147,-8.447793,45.05199,0,0,0,-23.76535,-47.20369,15.87383,-10.65206,-111.0334,-35.10307,0.001067912,-0.1257102,0.09433498,0,0.3,0,0,0,0,
6.38223E+17,-8.175306,21.017,29.37086,-41.67029,14.4047,48.78749,-4.570632,-0.4441859,0.1400836,-35.15147,-8.447793,45.05199,0,0,0,-27.00162,-45.03433,19.60203,-10.65206,-111.0334,-35.10307,0.001067912,-0.1257102,0.09433498,0,0.3,0,0,0,0,
6.38223E+17,-9.235504,20.82998,32.4527,-46.43123,11.69463,54.64711,-4.570632,-0.4441859,0.1400836,-35.15147,-8.447793,45.05199,0,0,0,-31.48713,-41.75663,25.29703,-10.65206,-111.0334,-35.10307,0.001067912,-0.1257102,0.09433498,0,0.3,0,0,0,0,
6.38223E+17,-9.965863,20.03512,34.95086,-48.9948,9.277537,61.31242,-4.570632,-0.4441859,0.1400836,-35.15147,-8.521038,45.05199,0,0,0,-34.90176,-40.2643,30.2797,-10.65206,-111.0334,-35.10307,0.001067912,-0.1257102,0.09433498,0,0.3,0,0,0,0,
6.38223E+17,-10.69622,18.30513,36.7019,-50.75269,7.592898,67.09879,-4.570632,-0.4441859,0.1400836,-35.15147,-8.447793,45.12524,0,0,0,-38.28947,-41.6819,34.36456,-10.65206,-111.0334,-35.10307,0.001067912,-0.1257102,0.09433498,0,0.3,0,0,0,0,
6.38223E+17,-10.97894,17.13622,36.98207,-51.55839,7.153428,69.22289,-4.570632,-0.4441859,0.1400836,-35.15147,-8.521038,45.12524,0,0,0,-39.54636,-43.88231,35.49834,-10.65206,-111.0334,-35.10307,0.001067912,-0.1257102,0.09433498,0,0.3,0,0,0,0,
6.38223E+17,-11.16742,14.35422,36.18826,-52.65706,7.226673,71.63998,-4.570632,-0.4441859,0.1400836,-35.15147,-8.447793,45.12524,0,0,0,-40.26966,-51.21471,35.63533,-10.65206,-111.0334,-35.10307,0.001067912,-0.1257102,0.09433498,0,0.3,0,0,0,0,
6.38223E+17,-10.74334,10.54357,34.15705,-52.95005,8.545086,71.56674,-4.570632,-0.4441859,0.1400836,-35.15147,-8.447793,45.12524,0,0,0,-38.39478,-62.59655,34.00942,-10.65206,-111.0334,-35.10307,0.001067912,-0.1257102,0.09433498,0,0.3,0,0,0,0,
6.38223E+17,-9.141265,5.844551,32.56944,-51.11892,11.3284,69.80886,-4.570632,-0.4441859,0.1400836,-35.15147,-8.447793,45.12524,0,0,0,-32.47953,-75.45033,33.49548,-10.65206,-111.0334,-35.10307,0.001067912,-0.1257102,0.09433498,0,0.3,0,0,0,0,
6.38223E+17,-8.057507,3.343083,31.23864,-48.84832,13.599,69.00316,-4.570632,-0.4441859,0.1400836,-35.15147,-8.447793,45.05199,0,0,0,-28.35281,-82.88995,31.93196,-10.65206,-111.0334,-35.10307,0.001067912,-0.1257102,0.09433498,0,0.3,0,0,0,0,
6.38223E+17,-7.397828,2.08066,30.35144,-47.45666,14.99066,68.12422,-4.570632,-0.4441859,0.1400836,-35.22471,-8.447793,45.05199,0,0,0,-25.83455,-86.88188,30.62404,-10.65206,-111.0334,-35.10307,0.001067912,-0.1257102,0.09433498,0,0.3,0,0,0,0,
6.38223E+17,-5.418791,0.6545897,28.97396,-44.96632,17.70073,65.26765,-4.570632,-0.4441859,0.1400836,-35.15147,-8.447793,45.12524,0,0,0,-18.69221,-91.78645,28.70307,-10.65206,-111.0334,-35.10307,0.001067912,-0.1257102,0.09433498,0,0.3,0,0,0,0,
6.38223E+17,-0.9659585,1.239045,27.40969,-39.83916,21.2165,62.33785,-4.570632,-0.4441859,0.1400836,-35.15147,-8.521038,45.05199,0,0,0,-3.282431,-92.14628,26.32881,-10.65206,-111.0334,-35.10307,0.001067912,-0.1257102,0.09433498,0,0.3,0,0,0,0,
6.38223E+17,0.8010387,1.519583,27.10618,-37.71505,22.31518,61.75189,-4.570632,-0.4441859,0.1400836,-35.22471,-8.447793,45.12524,0,0,0,2.713058,-91.81707,25.69385,-10.65206,-111.0334,-35.10307,0.001067912,-0.1257102,0.09433498,0,0.3,0,0,0,0,
6.38223E+17,5.136071,1.589718,27.01279,-32.80762,24.58578,60.36023,-4.570632,-0.4441859,0.1400836,-35.22471,-8.521038,45.12524,0,0,0,17.35504,-91.75278,24.73643,-10.65206,-111.0334,-35.10307,0.001067912,-0.1257102,0.09433498,0,0.3,0,0,0,0,
6.38223E+17,10.24858,1.659852,27.52643,-27.60722,26.19717,58.01638,-4.570632,-0.4441859,0.1400836,-35.15147,-8.447793,45.05199,0,0,0,34.6805,-91.04189,23.4628,-10.65206,-111.0334,-35.10307,0.001067912,-0.1257102,0.09433498,0,0.3,0,0,0,0,
6.38223E+17,16.98673,2.665115,29.62768,-19.69674,27.36909,54.57386,-4.570632,-0.4441859,0.1400836,-35.15147,-8.447793,45.12524,0,0,0,58.17556,-86.36477,22.09141,-10.65206,-111.0334,-35.10307,0.001067912,-0.1257102,0.09433498,0,0.3,0,0,0,0,
6.38223E+17,20.61497,4.488615,31.42542,-14.86256,27.2226,52.08353,-4.570632,-0.4441859,0.1400836,-35.22471,-8.447793,45.05199,0,0,0,71.28622,-80.00406,21.15361,-10.65206,-111.0334,-35.10307,0.001067912,-0.1257102,0.09433498,0,0.3,0,0,0,0,
6.38223E+17,24.7144,8.579801,34.13371,-9.295925,25.97744,48.27478,-4.570632,-0.4441859,0.1400836,-35.15147,-8.447793,45.05199,0,0,0,86.41356,-67.1338,19.40224,-10.65206,-111.0334,-35.10307,0.001067912,-0.1257102,0.09433498,0,0.3,0,0,0,0,
6.38223E+17,27.91855,13.67625,37.05211,-4.82797,23.63359,44.75901,-4.570632,-0.4441859,0.1400836,-35.15147,-8.447793,45.05199,0,0,0,98.28697,-51.54635,17.13651,-10.65206,-111.0334,-35.10307,0.001067912,-0.1257102,0.09433498,0,0.3,0,0,0,0,
6.38223E+17,30.48659,20.47931,40.18064,-1.092466,19.53186,41.09675,-4.570632,-0.4441859,0.1400836,-35.15147,-8.447793,45.12524,0,0,0,107.0275,-31.87623,13.44388,-10.65206,-111.0334,-35.10307,0.001067912,-0.1257102,0.09433498,0,0.3,0,0,0,0,
6.38223E+17,31.16983,23.1678,41.37135,0.006211365,17.62749,39.85158,-4.570632,-0.4441859,0.1400836,-35.15147,-8.447793,45.05199,0,0,0,109.07,-24.25813,11.96018,-10.65206,-111.0334,-35.10307,0.001067912,-0.1257102,0.09433498,0,0.3,0,0,0,0,
6.38223E+17,32.15935,29.47991,44.63997,1.764095,12.06085,37.72747,-4.570632,-0.4441859,0.1400836,-35.15147,-8.447793,45.05199,0,0,0,111.6625,-5.909338,9.246444,-10.65206,-111.0334,-35.10307,0.001067912,-0.1257102,0.09433498,0,0.3,0,0,0,0,
6.38223E+17,32.41851,35.1842,48.16541,2.496547,5.76177,36.11608,-4.570632,-0.4441859,0.1400836,-35.15147,-8.447793,45.05199,0,0,0,111.6926,11.24508,7.52376,-10.65206,-111.0334,-35.10307,0.001067912,-0.1257102,0.09433498,0,0.3,0,0,0,0,
6.38223E+17,32.37139,41.30928,53.44189,1.54436,-3.906592,33.91872,-4.570632,-0.4441859,0.1400836,-35.15147,-8.447793,45.05199,0,0,0,110.9791,31.94916,6.718261,-10.65206,-111.0334,-35.10307,0.001067912,-0.1257102,0.09433498,0,0.3,0,0,0,0,
6.38223E+17,32.39495,43.83413,56.40699,0.3724372,-9.180244,32.67356,-4.570632,-0.4441859,0.1400836,-35.22471,-8.447793,45.12524,0,0,0,111.0458,41.9234,6.664305,-10.65206,-111.0334,-35.10307,0.001067912,-0.1257102,0.09433498,0,0.3,0,0,0,0,
6.38223E+17,32.39495,46.77979,60.6095,-1.385447,-16.94423,31.50163,-4.570632,-0.4441859,0.1400836,-35.15147,-8.447793,45.05199,0,0,0,111.1717,55.083,6.862803,-10.65206,-111.0334,-35.10307,0.001067912,-0.1257102,0.09433498,0,0.3,0,0,0,0,
6.38223E+17,32.46563,48.65004,63.92481,-2.99684,-24.04902,31.20865,-4.570632,-0.4441859,0.1400836,-35.15147,-8.447793,45.05199,0,0,0,111.5864,64.84027,7.037745,-10.65206,-111.0334,-35.10307,0.001067912,-0.1257102,0.09433498,0,0.3,0,0,0,0,
6.38223E+17,32.91327,49.88908,66.04942,-5.194195,-31.22704,30.76918,-4.570632,-0.4441859,0.1400836,-35.15147,-8.447793,45.05199,0,0,0,112.9019,71.20266,6.081201,-10.65206,-111.0334,-35.10307,0.001067912,-0.1257102,0.09433498,0,0.3,0,0,0,0,
6.38223E+17,33.62006,50.07611,66.21284,-6.585854,-34.74281,29.96349,-4.570632,-0.4441859,0.1400836,-35.15147,-8.447793,45.12524,0,0,0,114.9457,71.83039,4.52578,-10.65206,-111.0334,-35.10307,0.001067912,-0.1257102,0.09433498,0,0.3,0,0,0,0,
6.38223E+17,34.27974,50.05273,66.04942,-7.09857,-36.3542,28.93805,-4.570632,-0.4441859,0.1400836,-35.15147,-8.447793,45.05199,0,0,0,116.8652,71.44762,3.09821,-10.65206,-111.0334,-35.10307,0.001067912,-0.1257102,0.09433498,0,0.3,0,0,0,0,
6.38223E+17,35.99962,49.81895,65.53577,-6.439363,-38.25858,25.86176,-4.570632,-0.4441859,0.1400836,-35.15147,-8.447793,45.05199,0,0,0,121.9149,70.0071,-0.5461801,-10.65206,-111.0334,-35.10307,0.001067912,-0.1257102,0.09433498,0,0.3,0,0,0,0,
6.38223E+17,38.12002,49.25787,65.02214,-4.022273,-39.28401,21.10082,-4.570632,-0.4441859,0.1400836,-35.22471,-8.447793,45.12524,0,0,0,128.3448,68.0738,-4.783534,-10.65206,-111.0334,-35.10307,0.001067912,-0.1257102,0.09433498,0,0.3,0,0,0,0,
6.38223E+17,40.19329,48.22923,63.99486,0.299192,-39.28401,15.02147,-4.570632,-0.4441859,0.1400836,-35.15147,-8.447793,45.12524,0,0,0,134.6757,64.33701,-8.945043,-10.65206,-111.0334,-35.10307,0.001067912,-0.1257102,0.09433498,0,0.3,0,0,0,0,
6.38223E+17,41.74825,46.61614,62.3839,4.181186,-38.18533,9.308348,-4.570632,-0.4441859,0.1400836,-35.15147,-8.447793,45.05199,0,0,0,139.6664,58.45079,-11.85744,-10.65206,-111.0334,-35.10307,0.001067912,-0.1257102,0.09433498,0,0.3,0,0,0,0,
6.38223E+17,42.94981,44.86277,60.51611,7.110993,-35.98798,5.499599,-4.570632,-0.4441859,0.1400836,-35.15147,-8.447793,45.05199,0,0,0,143.493,51.78454,-14.20214,-10.65206,-111.0334,-35.10307,0.001067912,-0.1257102,0.09433498,0,0.3,0,0,0,0,
6.38223E+17,44.05713,42.50157,57.29419,9.454838,-32.39896,1.983831,-4.570632,-0.4441859,0.1400836,-35.22471,-8.447793,45.05199,0,0,0,146.3915,41.39023,-17.05931,-10.65206,-111.0334,-35.10307,0.001067912,-0.1257102,0.09433498,0,0.3,0,0,0,0,
6.38223E+17,44.31629,40.44429,54.72599,10.18729,-29.68889,-0.0670338,-4.570632,-0.4441859,0.1400836,-35.15147,-8.447793,45.05199,0,0,0,146.9553,32.84733,-17.84495,-10.65206,-111.0334,-35.10307,0.001067912,-0.1257102,0.09433498,0,0.3,0,0,0,0,
6.38223E+17,44.33985,37.35837,51.52742,10.40703,-25.8069,-2.191144,-4.570632,-0.4441859,0.1400836,-35.15147,-8.447793,45.05199,0,0,0,147.0474,21.30419,-17.8744,-10.65206,-111.0334,-35.10307,0.001067912,-0.1257102,0.09433498,0,0.3,0,0,0,0,
6.38223E+17,44.33985,35.65176,50.07989,10.26054,-23.60954,-3.143331,-4.570632,-0.4441859,0.1400836,-35.22471,-8.447793,45.05199,0,0,0,147.2108,15.5008,-17.70723,-10.65206,-111.0334,-35.10307,0.001067912,-0.1257102,0.09433498,0,0.3,0,0,0,0,
6.38223E+17,44.03357,30.55531,46.04081,9.821064,-17.09072,-5.633667,-4.570632,-0.4441859,0.1400836,-35.15147,-8.447793,45.12524,0,0,0,146.5386,-1.423222,-16.78261,-10.65206,-111.0334,-35.10307,0.001067912,-0.1257102,0.09433498,0,0.3,0,0,0,0,
6.38223E+17,43.72729,28.82533,44.96684,9.674574,-14.82012,-6.659099,-4.570632,-0.4441859,0.1400836,-35.15147,-8.447793,45.12524,0,0,0,145.8939,-6.70376,-15.82627,-10.65206,-111.0334,-35.10307,0.001067912,-0.1257102,0.09433498,0,0.3,0,0,0,0,
6.38223E+17,43.04405,25.55238,43.566,9.015368,-10.49866,-8.709964,-4.570632,-0.4441859,0.1400836,-35.15147,-8.447793,45.05199,0,0,0,144.8466,-15.75422,-13.26026,-10.65206,-111.0334,-35.10307,0.001067912,-0.1257102,0.09433498,0,0.3,0,0,0,0,
6.38223E+17,42.50217,23.3782,42.2352,8.575896,-6.616664,-9.588906,-4.570632,-0.4441859,0.1400836,-35.15147,-8.447793,45.05199,0,0,0,143.2563,-22.46813,-12.0251,-10.65206,-111.0334,-35.10307,0.001067912,-0.1257102,0.09433498,0,0.3,0,0,0,0,
6.38223E+17,41.06501,21.11052,40.22734,8.136425,-2.58818,-10.10162,-4.570632,-0.4441859,0.1400836,-35.15147,-8.447793,45.12524,0,0,0,138.2943,-30.43271,-9.624668,-10.65206,-111.0334,-35.10307,0.001067912,-0.1257102,0.09433498,0,0.3,0,0,0,0,
6.38223E+17,40.05193,20.0585,39.41019,7.550464,-0.7570504,-10.24811,-4.570632,-0.4441859,0.1400836,-35.22471,-8.447793,45.05199,0,0,0,135.0803,-33.94268,-7.66355,-10.65206,-111.0334,-35.10307,0.001067912,-0.1257102,0.09433498,0,0.3,0,0,0,0,
6.38223E+17,38.30849,19.09999,38.14943,6.012315,1.586795,-10.32136,-4.570632,-0.4441859,0.1400836,-35.15147,-8.447793,45.12524,0,0,0,129.1745,-37.88227,-4.836526,-10.65206,-111.0334,-35.10307,0.001067912,-0.1257102,0.09433498,0,0.3,0,0,0,0,
6.38223E+17,37.46034,18.81945,37.49571,5.133373,2.538982,-10.24811,-4.570632,-0.4441859,0.1400836,-35.15147,-8.447793,45.12524,0,0,0,126.138,-39.43276,-3.72791,-10.65206,-111.0334,-35.10307,0.001067912,-0.1257102,0.09433498,0,0.3,0,0,0,0,
6.38223E+17,34.53891,18.65581,35.55789,1.983831,5.615279,-8.270493,-4.570632,-0.4441859,0.1400836,-35.15147,-8.447793,45.12524,0,0,0,115.5985,-42.47771,-0.3975188,-10.65206,-111.0334,-35.10307,0.001067912,-0.1257102,0.09433498,0,0.3,0,0,0,0,
6.38223E+17,33.47871,18.65581,35.11428,0.9583986,6.494221,-7.171815,-4.570632,-0.4441859,0.1400836,-35.22471,-8.521038,45.05199,0,0,0,112.0065,-43.07484,1.010143,-10.65206,-111.0334,-35.10307,0.001067912,-0.1257102,0.09433498,0,0.3,0,0,0,0,
6.38223E+17,30.67507,18.65581,33.92358,-1.898163,8.325351,-3.656047,-4.570632,-0.4441859,0.1400836,-35.22471,-8.447793,45.05199,0,0,0,102.4237,-44.64522,4.322205,-10.65206,-111.0334,-35.10307,0.001067912,-0.1257102,0.09433498,0,0.3,0,0,0,0,
6.38223E+17,27.4238,18.65581,32.52274,-5.413931,10.30297,0.5189275,-4.570632,-0.4441859,0.1400836,-35.15147,-8.447793,45.05199,0,0,0,91.20958,-46.4315,7.432402,-10.65206,-111.0334,-35.10307,0.001067912,-0.1257102,0.09433498,0,0.3,0,0,0,0,
6.38223E+17,23.34792,18.65581,30.725,-9.515661,12.35384,5.865825,-4.570632,-0.4441859,0.1400836,-35.22471,-8.447793,45.05199,0,0,0,77.07282,-48.62528,10.19987,-10.65206,-111.0334,-35.10307,0.001067912,-0.1257102,0.09433498,0,0.3,0,0,0,0,
6.38223E+17,21.25109,18.65581,29.93119,-11.71302,13.30602,8.35616,-4.570632,-0.4441859,0.1400836,-35.15147,-8.447793,45.05199,0,0,0,69.91034,-49.55817,11.41407,-10.65206,-111.0334,-35.10307,0.001067912,-0.1257102,0.09433498,0,0.3,0,0,0,0,
6.38223E+17,16.32705,18.63243,28.83387,-16.91342,15.2104,13.62981,-4.570632,-0.4441859,0.1400836,-35.22471,-8.447793,45.05199,0,0,0,53.60162,-50.86275,14.63247,-10.65206,-111.0334,-35.10307,0.001067912,-0.1257102,0.09433498,0,0.3,0,0,0,0,
6.38223E+17,11.45014,18.63243,28.50701,-22.84628,16.60205,17.58505,-4.570632,-0.4441859,0.1400836,-35.15147,-8.447793,45.05199,0,0,0,37.71872,-51.22773,17.87279,-10.65206,-111.0334,-35.10307,0.001067912,-0.1257102,0.09433498,0,0.3,0,0,0,0,
6.38223E+17,6.643909,18.7727,28.90392,-29.65808,16.96828,20.22188,-4.570632,-0.4441859,0.1400836,-35.22471,-8.521038,45.05199,0,0,0,22.06482,-50.47482,21.07909,-10.65206,-111.0334,-35.10307,0.001067912,-0.1257102,0.09433498,0,0.3,0,0,0,0,
6.38223E+17,3.439754,19.28702,29.39421,-35.15147,16.52881,21.76003,-4.570632,-0.4441859,0.1400836,-35.22471,-8.447793,45.05199,0,0,0,11.47877,-48.7874,22.62144,-10.65206,-111.0334,-35.10307,0.001067912,-0.1257102,0.09433498,0,0.3,0,0,0,0,
6.38223E+17,2.096837,19.47404,29.55764,-37.56856,16.23583,23.07844,-4.570632,-0.4441859,0.1400836,-35.22471,-8.447793,45.05199,0,0,0,7.006806,-48.18962,23.02457,-10.65206,-111.0334,-35.10307,0.001067912,-0.1257102,0.09433498,0,0.3,0,0,0,0,
6.38223E+17,-0.09423985,19.38053,29.8378,-41.74353,15.50338,25.86176,-4.570632,-0.4441859,0.1400836,-35.22471,-8.447793,45.12524,0,0,0,-0.3160335,-48.07183,23.79134,-10.65206,-111.0334,-35.10307,0.001067912,-0.1257102,0.09433498,0,0.3,0,0,0,0,
6.38223E+17,-1.649197,19.38053,30.00124,-44.74659,14.91741,28.79156,-4.570632,-0.4441859,0.1400836,-35.15147,-8.447793,45.05199,0,0,0,-5.539313,-47.88211,24.04155,-10.65206,-111.0334,-35.10307,0.001067912,-0.1257102,0.09433498,0,0.3,0,0,0,0,
6.38223E+17,-3.133475,19.26364,30.07128,-46.87069,14.47795,33.18628,-4.570632,-0.4441859,0.1400836,-35.15147,-8.447793,45.05199,0,0,0,-10.53354,-48.05724,24.06431,-10.65206,-111.0334,-35.10307,0.001067912,-0.1257102,0.09433498,0,0.3,0,0,0,0,
6.38223E+17,-4.594193,18.93634,30.91178,-48.77507,14.03847,36.6288,-4.570632,-0.4441859,0.1400836,-35.22471,-8.447793,45.05199,0,0,0,-15.59004,-47.78447,25.66194,-10.65206,-111.0334,-35.10307,0.001067912,-0.1257102,0.09433498,0,0.3,0,0,0,0,
6.38223E+17,-5.300992,18.88959,31.5655,-49.94699,13.89198,37.94721,-4.570632,-0.4441859,0.1400836,-35.22471,-8.521038,45.05199,0,0,0,-18.10556,-47.09837,26.7853,-10.65206,-111.0334,-35.10307,0.001067912,-0.1257102,0.09433498,0,0.3,0,0,0,0,
6.38223E+17,-6.596789,18.91297,32.38266,-52.0711,13.45251,41.02351,-4.570632,-0.4441859,0.1400836,-35.22471,-8.447793,45.05199,0,0,0,-22.69703,-46.03981,27.91106,-10.65206,-111.0334,-35.10307,0.001067912,-0.1257102,0.09433498,0,0.3,0,0,0,0,
6.38223E+17,-8.905665,18.86621,32.56944,-54.3417,12.50033,45.93093,-4.570632,-0.4441859,0.1400836,-35.22471,-8.521038,45.12524,0,0,0,-30.64752,-45.90936,27.23445,-10.65206,-111.0334,-35.10307,0.001067912,-0.1257102,0.09433498,0,0.3,0,0,0,0,
6.38223E+17,-10.46062,18.56229,32.54609,-55.87985,11.62138,47.61557,-4.570632,-0.4441859,0.1400836,-35.22471,-8.521038,45.12524,0,0,0,-35.97646,-46.60854,26.50892,-10.65206,-111.0334,-35.10307,0.001067912,-0.1257102,0.09433498,0,0.3,0,0,0,0,
6.38223E+17,-12.51034,17.32325,32.406,-59.46887,9.790254,48.78749,-4.570632,-0.4441859,0.1400836,-35.22471,-8.447793,45.12524,0,0,0,-43.05576,-49.52704,25.69625,-10.65206,-111.0334,-35.10307,0.001067912,-0.1257102,0.09433498,0,0.3,0,0,0,0,
6.38223E+17,-14.20666,14.7984,32.38266,-63.57059,7.739389,47.68882,-4.570632,-0.4441859,0.1400836,-35.15147,-8.447793,45.12524,0,0,0,-49.16874,-55.20266,25.86808,-10.65206,-111.0334,-35.10307,0.001067912,-0.1257102,0.09433498,0,0.3,0,0,0,0,
6.38223E+17,-14.96058,10.63708,32.406,-67.59908,6.347731,43.95331,-4.570632,-0.4441859,0.1400836,-35.22471,-8.521038,45.05199,0,0,0,-52.28215,-64.6189,27.30805,-10.65206,-111.0334,-35.10307,0.001067912,-0.1257102,0.09433498,0,0.3,0,0,0,0,
6.38223E+17,-14.96058,8.299262,32.38266,-68.91749,6.640712,42.56165,-4.570632,-0.4441859,0.1400836,-35.15147,-8.447793,45.05199,0,0,0,-52.50135,-70.01455,28.12837,-10.65206,-111.0334,-35.10307,0.001067912,-0.1257102,0.09433498,0,0.3,0,0,0,0,
6.38223E+17,-14.96058,7.55116,32.26592,-69.06399,6.933692,43.07437,-4.570632,-0.4441859,0.1400836,-35.15147,-8.447793,45.05199,0,0,0,-52.50405,-71.88432,28.1385,-10.65206,-111.0334,-35.10307,0.001067912,-0.1257102,0.09433498,0,0.3,0,0,0,0,
6.38223E+17,-15.05481,6.966705,31.77563,-68.84425,7.299919,45.85769,-4.570632,-0.4441859,0.1400836,-35.15147,-8.447793,45.05199,0,0,0,-52.62051,-73.83871,27.28356,-10.65206,-111.0334,-35.10307,0.001067912,-0.1257102,0.09433498,0,0.3,0,0,0,0,
6.38223E+17,-15.38465,6.218602,31.65889,-68.47802,7.006938,48.93398,-4.570632,-0.4441859,0.1400836,-35.15147,-8.447793,45.05199,0,0,0,-53.73757,-75.71115,26.9473,-10.65206,-111.0334,-35.10307,0.001067912,-0.1257102,0.09433498,0,0.3,0,0,0,0,
6.38223E+17,-15.57313,5.797795,31.65889,-68.47802,6.933692,49.81293,-4.570632,-0.4441859,0.1400836,-35.15147,-8.447793,45.05199,0,0,0,-54.40725,-76.68516,26.86822,-10.65206,-111.0334,-35.10307,0.001067912,-0.1257102,0.09433498,0,0.3,0,0,0,0,
6.38223E+17,-15.66737,5.07307,31.65889,-68.69775,7.080183,50.83836,-4.570632,-0.4441859,0.1400836,-35.22471,-8.521038,45.12524,0,0,0,-54.77141,-78.36428,26.9323,-10.65206,-111.0334,-35.10307,0.001067912,-0.1257102,0.09433498,0,0.3,0,0,0,0,
6.38223E+17,-15.78517,4.465237,31.68224,-68.33153,7.299919,51.79055,-4.570632,-0.4441859,0.1400836,-35.15147,-8.447793,45.12524,0,0,0,-55.21737,-79.74551,26.97696,-10.65206,-111.0334,-35.10307,0.001067912,-0.1257102,0.09433498,0,0.3,0,0,0,0,
6.38223E+17,-15.83229,3.880782,31.91571,-67.59908,7.666144,52.66949,-4.570632,-0.4441859,0.1400836,-35.15147,-8.447793,45.05199,0,0,0,-55.53099,-80.81583,27.47102,-10.65206,-111.0334,-35.10307,0.001067912,-0.1257102,0.09433498,0,0.3,0,0,0,0,
6.38223E+17,-16.39773,4.137942,32.03245,-67.23285,8.178861,52.523,-4.570632,-0.4441859,0.1400836,-35.22471,-8.447793,45.12524,0,0,0,-57.51402,-80.07491,27.09442,-10.65206,-111.0334,-35.10307,0.001067912,-0.1257102,0.09433498,0,0.3,0,0,0,0,
6.38223E+17,-16.75113,4.395102,32.0558,-67.23285,8.398596,51.64405,-4.570632,-0.4441859,0.1400836,-35.22471,-8.447793,45.05199,0,0,0,-58.71885,-79.44923,26.73742,-10.65206,-111.0334,-35.10307,0.001067912,-0.1257102,0.09433498,0,0.3,0,0,0,0,
6.38223E+17,-17.34013,4.628884,32.10249,-67.45258,8.252106,49.37346,-4.570632,-0.4441859,0.1400836,-35.15147,-8.447793,45.05199,0,0,0,-60.7359,-78.8491,26.17054,-10.65206,-111.0334,-35.10307,0.001067912,-0.1257102,0.09433498,0,0.3,0,0,0,0,
6.38223E+17,-17.97625,5.049692,32.42935,-67.59908,7.959125,46.73663,-4.570632,-0.4441859,0.1400836,-35.15147,-8.447793,45.05199,0,0,0,-63.06478,-77.46709,26.01752,-10.65206,-111.0334,-35.10307,0.001067912,-0.1257102,0.09433498,0,0.3,0,0,0,0,
6.38223E+17,-18.35321,5.961442,32.94299,-67.59908,7.153428,45.41821,-4.570632,-0.4441859,0.1400836,-35.15147,-8.521038,45.05199,0,0,0,-64.59488,-74.70931,26.36013,-10.65206,-111.0334,-35.10307,0.001067912,-0.1257102,0.09433498,0,0.3,0,0,0,0,
6.38223E+17,-18.58881,6.335493,33.24651,-67.59908,6.640712,45.7112,-4.570632,-0.4441859,0.1400836,-35.22471,-8.447793,45.05199,0,0,0,-65.5539,-73.45804,26.56541,-10.65206,-111.0334,-35.10307,0.001067912,-0.1257102,0.09433498,0,0.3,0,0,0,0,
6.38223E+17,-19.17781,6.732923,33.87688,-67.89206,5.835015,47.24934,-4.570632,-0.4441859,0.1400836,-35.22471,-8.447793,45.05199,0,0,0,-67.92116,-71.728,26.93652,-10.65206,-111.0334,-35.10307,0.001067912,-0.1257102,0.09433498,0,0.3,0,0,0,0,
6.38223E+17,-19.76681,6.990083,34.15705,-68.55127,5.688524,47.76206,-4.570632,-0.4441859,0.1400836,-35.22471,-8.447793,45.05199,0,0,0,-70.08368,-70.76898,26.66932,-10.65206,-111.0334,-35.10307,0.001067912,-0.1257102,0.09433498,0,0.3,0,0,0,0,
6.38223E+17,-20.49717,7.434268,34.5773,-69.13722,6.640712,46.80988,-4.570632,-0.4441859,0.1400836,-35.22471,-8.447793,45.05199,0,0,0,-72.80112,-69.19125,26.3948,-10.65206,-111.0334,-35.10307,0.001067912,-0.1257102,0.09433498,0,0.3,0,0,0,0,
6.38223E+17,-21.01549,7.644672,34.81077,-69.06399,7.666144,47.90855,-4.570632,-0.4441859,0.1400836,-35.22471,-8.447793,45.12524,0,0,0,-74.69703,-68.39649,26.08533,-10.65206,-111.0334,-35.10307,0.001067912,-0.1257102,0.09433498,0,0.3,0,0,0,0,
6.38223E+17,-21.98145,8.088859,35.09094,-68.40478,9.131048,51.35107,-4.570632,-0.4441859,0.1400836,-35.15147,-8.447793,45.05199,0,0,0,-78.11136,-66.99888,25.16282,-10.65206,-111.0334,-35.10307,0.001067912,-0.1257102,0.09433498,0,0.3,0,0,0,0,
6.38223E+17,-22.8296,9.070744,35.83805,-67.81882,10.15648,54.72035,-4.570632,-0.4441859,0.1400836,-35.15147,-8.447793,45.05199,0,0,0,-81.38451,-63.73039,24.97643,-10.65206,-111.0334,-35.10307,0.001067912,-0.1257102,0.09433498,0,0.3,0,0,0,0,
6.38223E+17,-23.44216,10.30979,36.3517,-67.81882,9.936745,57.86989,-4.570632,-0.4441859,0.1400836,-35.15147,-8.447793,45.12524,0,0,0,-83.63789,-60.18358,24.53621,-10.65206,-111.0334,-35.10307,0.001067912,-0.1257102,0.09433498,0,0.3,0,0,0,0,
6.38223E+17,-23.6542,11.6891,36.51513,-67.96531,9.277537,59.84751,-4.570632,-0.4441859,0.1400836,-35.15147,-8.447793,45.05199,0,0,0,-84.22818,-56.80653,23.94465,-10.65206,-111.0334,-35.10307,0.001067912,-0.1257102,0.09433498,0,0.3,0,0,0,0,
6.38223E+17,-23.67776,12.60085,36.63186,-68.11179,8.838067,60.72646,-4.570632,-0.4441859,0.1400836,-35.15147,-8.447793,45.05199,0,0,0,-84.21559,-54.57015,23.70097,-10.65206,-111.0334,-35.10307,0.001067912,-0.1257102,0.09433498,0,0.3,0,0,0,0,
6.38223E+17,-23.70132,15.1257,37.47236,-68.47802,7.88588,62.41109,-4.570632,-0.4441859,0.1400836,-35.15147,-8.447793,45.12524,0,0,0,-84.35618,-47.6868,23.8067,-10.65206,-111.0334,-35.10307,0.001067912,-0.1257102,0.09433498,0,0.3,0,0,0,0,
6.38223E+17,-23.772,18.65581,39.29345,-69.50346,6.201241,64.97468,-4.570632,-0.4441859,0.1400836,-35.22471,-8.447793,45.05199,0,0,0,-84.97025,-37.19495,24.55861,-10.65206,-111.0334,-35.10307,0.001067912,-0.1257102,0.09433498,0,0.3,0,0,0,0,
6.38223E+17,-23.60708,22.06903,41.23127,-71.11485,4.223621,68.56369,-4.570632,-0.4441859,0.1400836,-35.22471,-8.447793,45.05199,0,0,0,-84.68604,-26.83387,25.42339,-10.65206,-111.0334,-35.10307,0.001067912,-0.1257102,0.09433498,0,0.3,0,0,0,0,
6.38223E+17,-23.13588,25.36535,43.42591,-72.94598,2.099511,72.37244,-4.570632,-0.4441859,0.1400836,-35.15147,-8.447793,45.05199,0,0,0,-83.36093,-16.37164,26.74832,-10.65206,-111.0334,-35.10307,0.001067912,-0.1257102,0.09433498,0,0.3,0,0,0,0,
6.38223E+17,-22.42908,28.80194,45.64391,-74.85035,-0.09784385,77.06013,-4.570632,-0.4441859,0.1400836,-35.22471,-8.447793,45.05199,0,0,0,-80.96259,-5.63125,27.79733,-10.65206,-111.0334,-35.10307,0.001067912,-0.1257102,0.09433498,0,0.3,0,0,0,0,
6.38223E+17,-21.91076,30.43842,46.5778,-75.72929,-1.196521,79.55046,-4.570632,-0.4441859,0.1400836,-35.15147,-8.447793,45.05199,0,0,0,-79.04474,-0.7539491,28.17327,-10.65206,-111.0334,-35.10307,0.001067912,-0.1257102,0.09433498,0,0.3,0,0,0,0,
6.38223E+17,-20.56785,34.24907,48.30549,-77.12095,-3.613612,83.87193,-4.570632,-0.4441859,0.1400836,-35.22471,-8.447793,45.05199,0,0,0,-73.70604,9.699321,28.07638,-10.65206,-111.0334,-35.10307,0.001067912,-0.1257102,0.09433498,0,0.3,0,0,0,0,
6.38223E+17,-18.87153,39.01822,50.21997,-78.21963,-6.250438,87.02148,-4.570632,-0.4441859,0.1400836,-35.22471,-8.447793,45.05199,0,0,0,-66.65797,21.97991,26.65816,-10.65206,-111.0334,-35.10307,0.001067912,-0.1257102,0.09433498,0,0.3,0,0,0,0,
6.38223E+17,-17.81133,41.73009,51.15386,-78.6591,-7.788587,88.70612,-4.570632,-0.4441859,0.1400836,-35.22471,-8.447793,45.12524,0,0,0,-62.20907,28.46947,25.27701,-10.65206,-111.0334,-35.10307,0.001067912,-0.1257102,0.09433498,0,0.3,0,0,0,0,
6.38223E+17,-15.21973,47.50451,52.9049,-79.24506,-11.59733,91.63592,-4.570632,-0.4441859,0.1400836,-35.22471,-8.447793,45.05199,0,0,0,-51.57155,41.24434,21.20676,-10.65206,-111.0334,-35.10307,0.001067912,-0.1257102,0.09433498,0,0.3,0,0,0,0,
6.38223E+17,-11.5915,53.74649,54.60926,-78.6591,-16.65125,93.54029,-4.570632,-0.4441859,0.1400836,-35.15147,-8.447793,45.12524,0,0,0,-37.68843,53.65497,15.39207,-10.65206,-111.0334,-35.10307,0.001067912,-0.1257102,0.09433498,0,0.3,0,0,0,0,
6.38223E+17,-8.622946,57.81429,55.56649,-77.1942,-20.75298,93.97977,-4.570632,-0.4441859,0.1400836,-35.22471,-8.447793,45.05199,0,0,0,-27.13992,60.8049,10.61957,-10.65206,-111.0334,-35.10307,0.001067912,-0.1257102,0.09433498,0,0.3,0,0,0,0,
6.38223E+17,-4.971152,61.74184,55.87001,-74.48412,-25.51392,93.61353,-4.570632,-0.4441859,0.1400836,-35.15147,-8.447793,45.12524,0,0,0,-15.03593,65.98878,4.513921,-10.65206,-111.0334,-35.10307,0.001067912,-0.1257102,0.09433498,0,0.3,0,0,0,0,
6.38223E+17,-2.968555,63.56533,55.87001,-72.28677,-28.0775,92.51486,-4.570632,-0.4441859,0.1400836,-35.15147,-8.447793,45.05199,0,0,0,-8.79084,67.93826,1.169269,-10.65206,-111.0334,-35.10307,0.001067912,-0.1257102,0.09433498,0,0.3,0,0,0,0,
6.38223E+17,0.6361189,66.20708,55.82331,-66.86663,-32.6187,88.77935,-4.570632,-0.4441859,0.1400836,-35.15147,-8.447793,45.05199,0,0,0,1.822077,70.45757,-4.240726,-10.65206,-111.0334,-35.10307,0.001067912,-0.1257102,0.09433498,0,0.3,0,0,0,0,
6.38223E+17,3.769594,67.96043,55.33302,-59.98158,-36.50069,82.91974,-4.570632,-0.4441859,0.1400836,-35.22471,-8.447793,45.05199,0,0,0,10.50041,71.10522,-8.979754,-10.65206,-111.0334,-35.10307,0.001067912,-0.1257102,0.09433498,0,0.3,0,0,0,0,
6.38223E+17,6.45543,68.98907,54.51587,-52.29084,-39.13752,75.44874,-4.570632,-0.4441859,0.1400836,-35.22471,-8.521038,45.12524,0,0,0,17.58363,70.42716,-12.94577,-10.65206,-111.0334,-35.10307,0.001067912,-0.1257102,0.09433498,0,0.3,0,0,0,0,
6.38223E+17,9.306185,69.64367,53.58197,-43.86765,-40.45593,66.95229,-4.570632,-0.4441859,0.1400836,-35.22471,-8.521038,45.05199,0,0,0,24.85399,69.20577,-16.67839,-10.65206,-111.0334,-35.10307,0.001067912,-0.1257102,0.09433498,0,0.3,0,0,0,0,
6.38223E+17,12.62814,70.20474,52.76482,-34.93173,-41.04189,58.01638,-4.570632,-0.4441859,0.1400836,-35.22471,-8.521038,45.05199,0,0,0,33.08372,68.1317,-20.68265,-10.65206,-111.0334,-35.10307,0.001067912,-0.1257102,0.09433498,0,0.3,0,0,0,0,
6.38223E+17,15.54957,70.43852,52.04106,-27.46073,-41.11514,51.13134,-4.570632,-0.4441859,0.1400836,-35.15147,-8.447793,45.05199,0,0,0,40.15398,66.98027,-24.04439,-10.65206,-111.0334,-35.10307,0.001067912,-0.1257102,0.09433498,0,0.3,0,0,0,0,
6.38223E+17,19.17781,70.27488,50.87369,-18.0121,-40.67567,42.85464,-4.570632,-0.4441859,0.1400836,-35.15147,-8.447793,45.05199,0,0,0,48.76722,64.72725,-28.13479,-10.65206,-111.0334,-35.10307,0.001067912,-0.1257102,0.09433498,0,0.3,0,0,0,0,
6.38223E+17,21.01549,70.08785,50.36005,-12.95818,-40.08971,38.45993,-4.570632,-0.4441859,0.1400836,-35.15147,-8.447793,45.12524,0,0,0,53.1134,63.65569,-30.09656,-10.65206,-111.0334,-35.10307,0.001067912,-0.1257102,0.09433498,0,0.3,0,0,0,0,
6.38223E+17,26.05732,69.12935,48.95922,0.738663,-37.52613,25.71527,-4.570632,-0.4441859,0.1400836,-35.15147,-8.447793,45.05199,0,0,0,65.04949,60.39343,-35.31671,-10.65206,-111.0334,-35.10307,0.001067912,-0.1257102,0.09433498,0,0.3,0,0,0,0,
6.38223E+17,27.51804,68.68517,48.49227,4.400921,-36.42745,21.90652,-4.570632,-0.4441859,0.1400836,-35.22471,-8.521038,45.05199,0,0,0,68.53399,59.20462,-36.79854,-10.65206,-111.0334,-35.10307,0.001067912,-0.1257102,0.09433498,0,0.3,0,0,0,0,
6.38223E+17,30.18031,67.6799,47.46499,10.77325,-34.01036,14.87498,-4.570632,-0.4441859,0.1400836,-35.15147,-8.521038,45.05199,0,0,0,74.85777,56.55894,-39.62975,-10.65206,-111.0334,-35.10307,0.001067912,-0.1257102,0.09433498,0,0.3,0,0,0,0,
6.38223E+17,32.08867,66.79153,46.43771,14.43551,-31.52002,9.674574,-4.570632,-0.4441859,0.1400836,-35.22471,-8.521038,45.12524,0,0,0,79.24857,54.01174,-41.96143,-10.65206,-111.0334,-35.10307,0.001067912,-0.1257102,0.09433498,0,0.3,0,0,0,0,
6.38223E+17,34.11483,65.48235,44.94349,16.99909,-28.44372,4.547412,-4.570632,-0.4441859,0.1400836,-35.15147,-8.447793,45.12524,0,0,0,83.86795,50.29064,-44.54656,-10.65206,-111.0334,-35.10307,0.001067912,-0.1257102,0.09433498,0,0.3,0,0,0,0,
6.38223E+17,34.93942,64.45371,43.86951,17.58505,-26.68584,1.471115,-4.570632,-0.4441859,0.1400836,-35.15147,-8.447793,45.05199,0,0,0,85.86062,47.52864,-45.45198,-10.65206,-111.0334,-35.10307,0.001067912,-0.1257102,0.09433498,0,0.3,0,0,0,0,
6.38223E+17,35.74046,62.88737,42.32859,17.36532,-24.26875,-2.410879,-4.570632,-0.4441859,0.1400836,-35.15147,-8.447793,45.05199,0,0,0,87.94926,43.46147,-46.13787,-10.65206,-111.0334,-35.10307,0.001067912,-0.1257102,0.09433498,0,0.3,0,0,0,0,
6.38223E+17,36.11742,61.01711,40.48416,16.33988,-21.99815,-5.926647,-4.570632,-0.4441859,0.1400836,-35.15147,-8.447793,45.05199,0,0,0,89.11797,38.57576,-46.21679,-10.65206,-111.0334,-35.10307,0.001067912,-0.1257102,0.09433498,0,0.3,0,0,0,0,
6.38223E+17,36.28234,58.32861,37.84592,14.36226,-18.77536,-10.10162,-4.570632,-0.4441859,0.1400836,-35.15147,-8.447793,45.05199,0,0,0,89.84796,31.53901,-45.95777,-10.65206,-111.0334,-35.10307,0.001067912,-0.1257102,0.09433498,0,0.3,0,0,0,0,
6.38223E+17,36.35302,55.96742,35.8614,12.38465,-16.06529,-12.6652,-4.570632,-0.4441859,0.1400836,-35.15147,-8.447793,45.05199,0,0,0,90.5446,25.78803,-45.32723,-10.65206,-111.0334,-35.10307,0.001067912,-0.1257102,0.09433498,0,0.3,0,0,0,0,
6.38223E+17,36.49438,54.3777,34.71738,11.28597,-14.4539,-13.98362,-4.570632,-0.4441859,0.1400836,-35.22471,-8.521038,45.05199,0,0,0,91.36157,22.1369,-44.85658,-10.65206,-111.0334,-35.10307,0.001067912,-0.1257102,0.09433498,0,0.3,0,0,0,0,
6.38223E+17,36.96558,50.84759,32.66283,8.942122,-10.64515,-16.76693,-4.570632,-0.4441859,0.1400836,-35.15147,-8.447793,45.12524,0,0,0,93.90658,14.49664,-43.57587,-10.65206,-111.0334,-35.10307,0.001067912,-0.1257102,0.09433498,0,0.3,0,0,0,0,
6.38223E+17,37.9551,47.24735,31.58885,7.184238,-6.836399,-19.84323,-4.570632,-0.4441859,0.1400836,-35.15147,-8.447793,45.12524,0,0,0,98.63704,7.676336,-41.8962,-10.65206,-111.0334,-35.10307,0.001067912,-0.1257102,0.09433498,0,0.3,0,0,0,0,
6.38223E+17,39.53362,44.23156,31.49546,6.451786,-3.467122,-22.84628,-4.570632,-0.4441859,0.1400836,-35.22471,-8.447793,45.05199,0,0,0,105.1644,2.664527,-40.92773,-10.65206,-111.0334,-35.10307,0.001067912,-0.1257102,0.09433498,0,0.3,0,0,0,0,
6.38223E+17,41.77181,42.1509,32.406,7.037747,-0.61056,-25.84933,-4.570632,-0.4441859,0.1400836,-35.22471,-8.447793,45.05199,0,0,0,113.4662,0.2556126,-41.31923,-10.65206,-111.0334,-35.10307,0.001067912,-0.1257102,0.09433498,0,0.3,0,0,0,0,
6.38223E+17,44.92884,40.98199,34.85747,9.088613,1.074079,-29.58484,-4.570632,-0.4441859,0.1400836,-35.22471,-8.447793,45.05199,0,0,0,124.9194,1.379974,-43.11998,-10.65206,-111.0334,-35.10307,0.001067912,-0.1257102,0.09433498,0,0.3,0,0,0,0,
6.38223E+17,48.50996,40.77158,38.96659,13.19034,0.8543434,-33.75981,-4.570632,-0.4441859,0.1400836,-35.22471,-8.447793,45.05199,0,0,0,138.4642,6.75223,-45.89013,-10.65206,-111.0334,-35.10307,0.001067912,-0.1257102,0.09433498,0,0.3,0,0,0,0,
6.38223E+17,50.6068,40.74821,42.18851,16.92585,-0.171089,-36.9826,-4.570632,-0.4441859,0.1400836,-35.15147,-8.447793,45.05199,0,0,0,147.2805,11.5881,-47.40171,-10.65206,-111.0334,-35.10307,0.001067912,-0.1257102,0.09433498,0,0.3,0,0,0,0,
6.38223E+17,52.06751,40.84172,45.48048,21.3938,-1.782483,-40.79135,-4.570632,-0.4441859,0.1400836,-35.22471,-8.521038,45.05199,0,0,0,154.5621,17.05846,-47.88585,-10.65206,-111.0334,-35.10307,0.001067912,-0.1257102,0.09433498,0,0.3,0,0,0,0,
6.38223E+17,52.60939,41.09888,46.9747,23.44467,-2.73467,-42.54923,-4.570632,-0.4441859,0.1400836,-35.15147,-8.447793,45.12524,0,0,0,157.2941,20.02149,-48.13041,-10.65206,-111.0334,-35.10307,0.001067912,-0.1257102,0.09433498,0,0.3,0,0,0,0,
6.38223E+17,53.57535,42.4782,49.86976,27.91262,-5.810967,-46.57772,-4.570632,-0.4441859,0.1400836,-35.22471,-8.447793,45.05199,0,0,0,161.1748,27.45482,-49.41462,-10.65206,-111.0334,-35.10307,0.001067912,-0.1257102,0.09433498,0,0.3,0,0,0,0,
6.38223E+17,53.92875,42.87563,50.87369,29.15779,-6.98289,-48.04262,-4.570632,-0.4441859,0.1400836,-35.22471,-8.447793,45.12524,0,0,0,162.6031,29.93443,-49.90273,-10.65206,-111.0334,-35.10307,0.001067912,-0.1257102,0.09433498,0,0.3,0,0,0,0,
6.38223E+17,54.61199,43.06265,53.02164,31.57488,-9.033754,-50.89918,-4.570632,-0.4441859,0.1400836,-35.22471,-8.447793,45.05199,0,0,0,166.274,34.18926,-50.23758,-10.65206,-111.0334,-35.10307,0.001067912,-0.1257102,0.09433498,0,0.3,0,0,0,0,
6.38223E+17,54.94183,42.80549,54.67929,33.77223,-10.71839,-53.46276,-4.570632,-0.4441859,0.1400836,-35.22471,-8.447793,45.05199,0,0,0,169.1478,36.86624,-49.65535,-10.65206,-111.0334,-35.10307,0.001067912,-0.1257102,0.09433498,0,0.3,0,0,0,0,
6.38223E+17,55.15387,41.47293,56.01009,36.18932,-12.1833,-56.75879,-4.570632,-0.4441859,0.1400836,-35.15147,-8.447793,45.05199,0,0,0,172.7389,37.11429,-48.08694,-10.65206,-111.0334,-35.10307,0.001067912,-0.1257102,0.09433498,0,0.3,0,0,0,0,
6.38223E+17,55.15387,39.90659,56.05679,37.14151,-12.40303,-58.22369,-4.570632,-0.4441859,0.1400836,-35.22471,-8.447793,45.05199,0,0,0,174.7393,34.44031,-46.69429,-10.65206,-111.0334,-35.10307,0.001067912,-0.1257102,0.09433498,0,0.3,0,0,0,0,
6.38223E+17,55.13031,36.82067,55.77662,37.65423,-11.96356,-59.6886,-4.570632,-0.4441859,0.1400836,-35.15147,-8.447793,45.05199,0,0,0,178.0462,28.26949,-44.28319,-10.65206,-111.0334,-35.10307,0.001067912,-0.1257102,0.09433498,0,0.3,0,0,0,0,
6.38223E+17,55.08319,32.58922,55.63654,37.50774,-10.64515,-60.56754,-4.570632,-0.4441859,0.1400836,-35.15147,-8.447793,45.12524,0,0,0,182.3902,19.90576,-41.03324,-10.65206,-111.0334,-35.10307,0.001067912,-0.1257102,0.09433498,0,0.3,0,0,0,0,
6.38223E+17,54.82403,27.98371,55.49645,36.70204,-8.301303,-61.00701,-4.570632,-0.4441859,0.1400836,-35.22471,-8.521038,45.05199,0,0,0,186.0792,10.38347,-37.2024,-10.65206,-111.0334,-35.10307,0.001067912,-0.1257102,0.09433498,0,0.3,0,0,0,0,
6.38223E+17,54.65911,26.0667,55.44976,36.26257,-7.27587,-61.08026,-4.570632,-0.4441859,0.1400836,-35.22471,-8.447793,45.05199,0,0,0,187.3043,6.319657,-35.53035,-10.65206,-111.0334,-35.10307,0.001067912,-0.1257102,0.09433498,0,0.3,0,0,0,0,
6.38223E+17,54.37639,21.97551,55.42641,34.65118,-4.785534,-61.44649,-4.570632,-0.4441859,0.1400836,-35.22471,-8.447793,45.05199,0,0,0,189.7717,-2.420424,-32.36853,-10.65206,-111.0334,-35.10307,0.001067912,-0.1257102,0.09433498,0,0.3,0,0,0,0,
6.38223E+17,54.32927,19.02986,55.42641,32.89329,-2.954405,-62.10569,-4.570632,-0.4441859,0.1400836,-35.15147,-8.447793,45.05199,0,0,0,191.6102,-8.841151,-30.81244,-10.65206,-111.0334,-35.10307,0.001067912,-0.1257102,0.09433498,0,0.3,0,0,0,0,
6.38223E+17,54.35283,16.38812,55.35637,30.40295,-1.416257,-63.57059,-4.570632,-0.4441859,0.1400836,-35.22471,-8.447793,45.12524,0,0,0,193.1112,-14.83182,-29.85535,-10.65206,-111.0334,-35.10307,0.001067912,-0.1257102,0.09433498,0,0.3,0,0,0,0,
6.38223E+17,54.37639,15.45299,55.21629,29.08454,-1.123276,-64.66927,-4.570632,-0.4441859,0.1400836,-35.22471,-8.447793,45.05199,0,0,0,193.5025,-17.19273,-29.69519,-10.65206,-111.0334,-35.10307,0.001067912,-0.1257102,0.09433498,0,0.3,0,0,0,0,
6.38223E+17,54.56487,14.91529,55.28632,27.18017,-1.343012,-66.5004,-4.570632,-0.4441859,0.1400836,-35.22471,-8.447793,45.05199,0,0,0,194.3003,-18.26653,-30.08857,-10.65206,-111.0334,-35.10307,0.001067912,-0.1257102,0.09433498,0,0.3,0,0,0,0,
6.38223E+17,55.29523,15.1257,55.98674,25.935,-1.855728,-67.89206,-4.570632,-0.4441859,0.1400836,-35.22471,-8.521038,45.05199,0,0,0,196.699,-16.44794,-32.1249,-10.65206,-111.0334,-35.10307,0.001067912,-0.1257102,0.09433498,0,0.3,0,0,0,0,
6.38223E+17,55.34235,15.31272,56.57042,25.64202,-2.514934,-69.06399,-4.570632,-0.4441859,0.1400836,-35.22471,-8.521038,45.05199,0,0,0,197.3373,-14.89803,-31.92283,-10.65206,-111.0334,-35.10307,0.001067912,-0.1257102,0.09433498,0,0.3,0,0,0,0,
6.38223E+17,55.34235,15.75691,56.82725,25.49553,-2.661425,-69.43021,-4.570632,-0.4441859,0.1400836,-35.15147,-8.447793,45.12524,0,0,0,197.3795,-13.40243,-31.89366,-10.65206,-111.0334,-35.10307,0.001067912,-0.1257102,0.09433498,0,0.3,0,0,0,0,
6.38223E+17,55.34235,16.03745,57.06072,25.64202,-2.661425,-69.50346,-4.570632,-0.4441859,0.1400836,-35.22471,-8.447793,45.05199,0,0,0,197.4762,-12.31905,-31.82681,-10.65206,-111.0334,-35.10307,0.001067912,-0.1257102,0.09433498,0,0.3,0,0,0,0,
6.38223E+17,55.27167,16.59852,57.55101,26.44772,-2.73467,-69.35696,-4.570632,-0.4441859,0.1400836,-35.22471,-8.447793,45.05199,0,0,0,197.5127,-10.10549,-31.44119,-10.65206,-111.0334,-35.10307,0.001067912,-0.1257102,0.09433498,0,0.3,0,0,0,0,
6.38223E+17,55.22455,16.99595,58.01796,27.39991,-3.247386,-69.21047,-4.570632,-0.4441859,0.1400836,-35.15147,-8.447793,45.05199,0,0,0,197.6563,-8.30053,-31.10082,-10.65206,-111.0334,-35.10307,0.001067912,-0.1257102,0.09433498,0,0.3,0,0,0,0,
6.38223E+17,55.22455,17.06609,58.27478,28.2056,-3.906592,-69.21047,-4.570632,-0.4441859,0.1400836,-35.15147,-8.447793,45.05199,0,0,0,197.8762,-7.636754,-30.94817,-10.65206,-111.0334,-35.10307,0.001067912,-0.1257102,0.09433498,0,0.3,0,0,0,0,
6.38223E+17,55.17743,17.04271,58.27478,28.71832,-4.492554,-69.21047,-4.570632,-0.4441859,0.1400836,-35.15147,-8.447793,45.05199,0,0,0,197.7762,-7.688772,-30.77637,-10.65206,-111.0334,-35.10307,0.001067912,-0.1257102,0.09433498,0,0.3,0,0,0,0,
6.38223E+17,55.15387,16.83231,58.25143,29.0113,-4.785534,-69.21047,-4.570632,-0.4441859,0.1400836,-35.15147,-8.447793,45.12524,0,0,0,197.8132,-8.203437,-30.62987,-10.65206,-111.0334,-35.10307,0.001067912,-0.1257102,0.09433498,0,0.3,0,0,0,0,
6.38223E+17,55.08319,16.10758,58.22808,29.0113,-4.932025,-69.35696,-4.570632,-0.4441859,0.1400836,-35.15147,-8.447793,45.12524,0,0,0,198.0119,-9.86714,-30.12861,-10.65206,-111.0334,-35.10307,0.001067912,-0.1257102,0.09433498,0,0.3,0,0,0,0,
6.38223E+17,55.05963,15.59326,58.11135,28.79156,-4.932025,-69.50346,-4.570632,-0.4441859,0.1400836,-35.15147,-8.447793,45.12524,0,0,0,198.1056,-11.24948,-29.94202,-10.65206,-111.0334,-35.10307,0.001067912,-0.1257102,0.09433498,0,0.3,0,0,0,0,
6.38223E+17,55.05963,14.75165,57.73779,28.42534,-4.712289,-69.79643,-4.570632,-0.4441859,0.1400836,-35.15147,-8.447793,45.12524,0,0,0,198.1474,-13.87666,-29.91283,-10.65206,-111.0334,-35.10307,0.001067912,-0.1257102,0.09433498,0,0.3,0,0,0,0,
6.38223E+17,55.03607,14.00354,57.38758,28.13236,-4.492554,-69.94292,-4.570632,-0.4441859,0.1400836,-35.22471,-8.447793,45.12524,0,0,0,198.0864,-16.25115,-29.83414,-10.65206,-111.0334,-35.10307,0.001067912,-0.1257102,0.09433498,0,0.3,0,0,0,0,
6.38223E+17,54.75335,11.57221,56.40699,27.47315,-3.979838,-70.16266,-4.570632,-0.4441859,0.1400836,-35.15147,-8.447793,45.05199,0,0,0,197.4054,-23.68082,-28.85493,-10.65206,-111.0334,-35.10307,0.001067912,-0.1257102,0.09433498,0,0.3,0,0,0,0,
6.38223E+17,54.56487,10.54357,56.01009,27.03368,-3.686857,-70.16266,-4.570632,-0.4441859,0.1400836,-35.15147,-8.447793,45.05199,0,0,0,196.901,-26.7981,-28.23795,-10.65206,-111.0334,-35.10307,0.001067912,-0.1257102,0.09433498,0,0.3,0,0,0,0,
6.38223E+17,54.14079,8.696692,55.09955,26.08149,-2.807915,-70.23591,-4.570632,-0.4441859,0.1400836,-35.15147,-8.447793,45.05199,0,0,0,195.4693,-32.7835,-27.0658,-10.65206,-111.0334,-35.10307,0.001067912,-0.1257102,0.09433498,0,0.3,0,0,0,0,
6.38223E+17,53.66959,7.060217,54.00222,24.76308,-1.782483,-70.23591,-4.570632,-0.4441859,0.1400836,-35.15147,-8.447793,45.05199,0,0,0,193.5281,-38.6366,-26.03129,-10.65206,-111.0334,-35.10307,0.001067912,-0.1257102,0.09433498,0,0.3,0,0,0,0,
6.38223E+17,52.70363,5.002935,51.87762,22.93195,-0.02459868,-69.86968,-4.570632,-0.4441859,0.1400836,-35.15147,-8.447793,45.12524,0,0,0,189.1311,-47.34369,-24.2897,-10.65206,-111.0334,-35.10307,0.001067912,-0.1257102,0.09433498,0,0.3,0,0,0,0,
6.38223E+17,52.02039,3.997673,50.87369,21.90652,1.000834,-69.35696,-4.570632,-0.4441859,0.1400836,-35.22471,-8.447793,45.05199,0,0,0,186.3948,-51.5015,-22.8292,-10.65206,-111.0334,-35.10307,0.001067912,-0.1257102,0.09433498,0,0.3,0,0,0,0,
6.38223E+17,50.79528,2.618359,49.51955,19.85565,2.246002,-68.33153,-4.570632,-0.4441859,0.1400836,-35.22471,-8.447793,45.12524,0,0,0,181.8211,-57.12745,-20.03536,-10.65206,-111.0334,-35.10307,0.001067912,-0.1257102,0.09433498,0,0.3,0,0,0,0,
6.38223E+17,49.28744,1.519583,48.39888,17.51181,3.710905,-66.13418,-4.570632,-0.4441859,0.1400836,-35.15147,-8.447793,45.05199,0,0,0,176.6273,-61.65025,-16.35914,-10.65206,-111.0334,-35.10307,0.001067912,-0.1257102,0.09433498,0,0.3,0,0,0,0,
6.38223E+17,46.97857,0.7247244,47.39495,14.21577,5.615279,-63.35086,-4.570632,-0.4441859,0.1400836,-35.15147,-8.447793,45.05199,0,0,0,169.2419,-65.23339,-10.41092,-10.65206,-111.0334,-35.10307,0.001067912,-0.1257102,0.09433498,0,0.3,0,0,0,0,
6.38223E+17,45.32936,0.6312115,47.25487,11.79868,6.713957,-61.59297,-4.570632,-0.4441859,0.1400836,-35.22471,-8.447793,45.05199,0,0,0,164.471,-65.69071,-5.759123,-10.65206,-111.0334,-35.10307,0.001067912,-0.1257102,0.09433498,0,0.3,0,0,0,0,
6.38223E+17,44.36341,0.7247244,47.27821,10.48027,7.446409,-60.12807,-4.570632,-0.4441859,0.1400836,-35.22471,-8.447793,45.05199,0,0,0,161.7306,-65.43317,-2.984998,-10.65206,-111.0334,-35.10307,0.001067912,-0.1257102,0.09433498,0,0.3,0,0,0,0,
6.38223E+17,42.45505,1.42607,47.34826,8.136425,8.545086,-56.09959,-4.570632,-0.4441859,0.1400836,-35.15147,-8.447793,45.05199,0,0,0,156.188,-63.68134,2.36801,-10.65206,-111.0334,-35.10307,0.001067912,-0.1257102,0.09433498,0,0.3,0,0,0,0,
6.38223E+17,40.47601,2.548224,47.34826,6.378541,9.497273,-51.70488,-4.570632,-0.4441859,0.1400836,-35.15147,-8.447793,45.05199,0,0,0,150.1405,-61.07125,7.591066,-10.65206,-111.0334,-35.10307,0.001067912,-0.1257102,0.09433498,0,0.3,0,0,0,0,
6.38223E+17,38.5441,4.348346,47.34826,4.913638,10.15648,-47.89613,-4.570632,-0.4441859,0.1400836,-35.22471,-8.521038,45.05199,0,0,0,143.9669,-56.88941,12.3555,-10.65206,-111.0334,-35.10307,0.001067912,-0.1257102,0.09433498,0,0.3,0,0,0,0,
6.38223E+17,36.63574,6.662788,47.32491,3.521979,10.30297,-43.64791,-4.570632,-0.4441859,0.1400836,-35.15147,-8.447793,45.05199,0,0,0,137.539,-51.56796,16.60528,-10.65206,-111.0334,-35.10307,0.001067912,-0.1257102,0.09433498,0,0.3,0,0,0,0,
6.38223E+17,35.08078,8.836961,47.25487,2.496547,9.936745,-40.27863,-4.570632,-0.4441859,0.1400836,-35.22471,-8.521038,45.05199,0,0,0,132.0137,-46.6741,19.62055,-10.65206,-111.0334,-35.10307,0.001067912,-0.1257102,0.09433498,0,0.3,0,0,0,0,
6.38223E+17,32.98395,11.12803,47.11478,0.8851534,9.057802,-36.54313,-4.570632,-0.4441859,0.1400836,-35.22471,-8.447793,45.12524,0,0,0,124.424,-41.66212,23.36371,-10.65206,-111.0334,-35.10307,0.001067912,-0.1257102,0.09433498,0,0.3,0,0,0,0,
6.38223E+17,31.71171,12.64761,47.06809,-0.6529952,8.398596,-34.34578,-4.570632,-0.4441859,0.1400836,-35.22471,-8.447793,45.05199,0,0,0,119.7149,-38.281,25.39633,-10.65206,-111.0334,-35.10307,0.001067912,-0.1257102,0.09433498,0,0.3,0,0,0,0,
6.38223E+17,31.21695,13.55936,46.99805,-1.605182,8.03237,-33.17385,-4.570632,-0.4441859,0.1400836,-35.22471,-8.447793,45.05199,0,0,0,117.7305,-36.33355,25.91641,-10.65206,-111.0334,-35.10307,0.001067912,-0.1257102,0.09433498,0,0.3,0,0,0,0,
6.38223E+17,30.93423,15.21921,46.60114,-3.216576,7.006938,-31.41597,-4.570632,-0.4441859,0.1400836,-35.15147,-8.447793,45.05199,0,0,0,115.9519,-33.26512,25.12913,-10.65206,-111.0334,-35.10307,0.001067912,-0.1257102,0.09433498,0,0.3,0,0,0,0,
6.38223E+17,31.40543,16.22447,45.45713,-4.095518,6.05475,-30.24404,-4.570632,-0.4441859,0.1400836,-35.15147,-8.447793,45.05199,0,0,0,116.2455,-32.92924,22.05016,-10.65206,-111.0334,-35.10307,0.001067912,-0.1257102,0.09433498,0,0.3,0,0,0,0,
6.38223E+17,31.61747,16.10758,44.82675,-4.022273,6.05475,-30.09755,-4.570632,-0.4441859,0.1400836,-35.15147,-8.447793,45.05199,0,0,0,116.4465,-34.23051,20.80192,-10.65206,-111.0334,-35.10307,0.001067912,-0.1257102,0.09433498,0,0.3,0,0,0,0,
6.38223E+17,31.85307,15.42961,42.95897,-3.802537,6.420976,-29.87782,-4.570632,-0.4441859,0.1400836,-35.15147,-8.447793,45.05199,0,0,0,115.7965,-38.76277,18.02494,-10.65206,-111.0334,-35.10307,0.001067912,-0.1257102,0.09433498,0,0.3,0,0,0,0,
6.38223E+17,31.87663,13.8399,40.90441,-3.802537,7.446409,-30.02431,-4.570632,-0.4441859,0.1400836,-35.22471,-8.447793,45.12524,0,0,0,114.4882,-45.53774,15.7504,-10.65206,-111.0334,-35.10307,0.001067912,-0.1257102,0.09433498,0,0.3,0,0,0,0,
6.38223E+17,31.87663,10.1929,38.8732,-3.949028,9.8635,-30.90325,-4.570632,-0.4441859,0.1400836,-35.15147,-8.447793,45.12524,0,0,0,113.5058,-56.86991,14.17067,-10.65206,-111.0334,-35.10307,0.001067912,-0.1257102,0.09433498,0,0.3,0,0,0,0,
6.38223E+17,31.87663,8.158993,37.96265,-4.095518,11.3284,-31.41597,-4.570632,-0.4441859,0.1400836,-35.15147,-8.447793,45.12524,0,0,0,113.0276,-62.85963,13.40169,-10.65206,-111.0334,-35.10307,0.001067912,-0.1257102,0.09433498,0,0.3,0,0,0,0,
6.38223E+17,31.90019,4.956179,36.95872,-4.461744,13.52576,-32.14842,-4.570632,-0.4441859,0.1400836,-35.15147,-8.447793,45.05199,0,0,0,112.5721,-71.68522,12.50327,-10.65206,-111.0334,-35.10307,0.001067912,-0.1257102,0.09433498,0,0.3,0,0,0,0,
6.38223E+17,32.04155,3.436596,36.77194,-4.681479,14.55119,-32.95412,-4.570632,-0.4441859,0.1400836,-35.22471,-8.447793,45.05199,0,0,0,112.9707,-75.47311,12.14954,-10.65206,-111.0334,-35.10307,0.001067912,-0.1257102,0.09433498,0,0.3,0,0,0,0,
6.38223E+17,32.84259,1.028641,36.93538,-5.120951,16.23583,-35.07822,-4.570632,-0.4441859,0.1400836,-35.15147,-8.447793,45.05199,0,0,0,115.7666,-80.84457,10.99166,-10.65206,-111.0334,-35.10307,0.001067912,-0.1257102,0.09433498,0,0.3,0,0,0,0,
6.38223E+17,34.35042,-0.0233782,37.02876,-4.754725,17.40775,-37.27558,-4.570632,-0.4441859,0.1400836,-35.15147,-8.447793,45.05199,0,0,0,120.5557,-83.16216,8.044397,-10.65206,-111.0334,-35.10307,0.001067912,-0.1257102,0.09433498,0,0.3,0,0,0,0,
6.38223E+17,36.04674,-0.07013461,37.02876,-3.729292,17.99371,-39.03346,-4.570632,-0.4441859,0.1400836,-35.22471,-8.521038,45.05199,0,0,0,125.7244,-83.27097,4.398334,-10.65206,-111.0334,-35.10307,0.001067912,-0.1257102,0.09433498,0,0.3,0,0,0,0,
6.38223E+17,37.08338,-0.07013461,37.16885,-2.70386,18.06696,-39.98565,-4.570632,-0.4441859,0.1400836,-35.15147,-8.447793,45.12524,0,0,0,128.986,-83.07432,2.302933,-10.65206,-111.0334,-35.10307,0.001067912,-0.1257102,0.09433498,0,0.3,0,0,0,0,
6.38223E+17,39.06242,-0.07013461,38.00935,-0.140279,17.481,-41.96327,-4.570632,-0.4441859,0.1400836,-35.22471,-8.447793,45.12524,0,0,0,135.7792,-81.88107,-1.049667,-10.65206,-111.0334,-35.10307,0.001067912,-0.1257102,0.09433498,0,0.3,0,0,0,0,
6.38223E+17,40.92365,-0.07013461,39.48022,2.350057,16.60205,-44.16063,-4.570632,-0.4441859,0.1400836,-35.15147,-8.447793,45.12524,0,0,0,142.8902,-79.73864,-3.530562,-10.65206,-111.0334,-35.10307,0.001067912,-0.1257102,0.09433498,0,0.3,0,0,0,0,
6.38223E+17,43.11473,0.0233782,41.48809,5.279863,15.64987,-45.99176,-4.570632,-0.4441859,0.1400836,-35.15147,-8.447793,45.12524,0,0,0,151.5163,-76.4872,-6.519552,-10.65206,-111.0334,-35.10307,0.001067912,-0.1257102,0.09433498,0,0.3,0,0,0,0,
6.38223E+17,45.07021,0.350673,43.44926,8.575896,14.47795,-47.38342,-4.570632,-0.4441859,0.1400836,-35.22471,-8.447793,45.05199,0,0,0,159.332,-72.64377,-9.40798,-10.65206,-111.0334,-35.10307,0.001067912,-0.1257102,0.09433498,0,0.3,0,0,0,0,
6.38223E+17,46.41312,0.4675641,45.38708,11.79868,13.37927,-48.9948,-4.570632,-0.4441859,0.1400836,-35.15147,-8.447793,45.05199,0,0,0,165.345,-69.21532,-10.96626,-10.65206,-111.0334,-35.10307,0.001067912,-0.1257102,0.09433498,0,0.3,0,0,0,0,
6.38223E+17,46.97857,0.4675641,46.36767,13.7763,12.35384,-50.23997,-4.570632,-0.4441859,0.1400836,-35.15147,-8.447793,45.05199,0,0,0,168.0517,-67.57705,-11.52162,-10.65206,-111.0334,-35.10307,0.001067912,-0.1257102,0.09433498,0,0.3,0,0,0,0,
6.38223E+17,47.23772,0.4675641,46.90466,15.31445,11.54814,-51.48514,-4.570632,-0.4441859,0.1400836,-35.15147,-8.447793,45.12524,0,0,0,169.3894,-66.66845,-11.70072,-10.65206,-111.0334,-35.10307,0.001067912,-0.1257102,0.09433498,0,0.3,0,0,0,0,
6.38223E+17,47.23772,0.350673,46.90466,16.55962,10.88893,-52.58382,-4.570632,-0.4441859,0.1400836,-35.15147,-8.521038,45.05199,0,0,0,169.3908,-66.94049,-11.6994,-10.65206,-111.0334,-35.10307,0.001067912,-0.1257102,0.09433498,0,0.3,0,0,0,0,
6.38223E+17,47.16704,0.1870256,46.76458,16.92585,10.81569,-52.8768,-4.570632,-0.4441859,0.1400836,-35.15147,-8.447793,45.05199,0,0,0,169.0352,-67.55917,-11.64098,-10.65206,-111.0334,-35.10307,0.001067912,-0.1257102,0.09433498,0,0.3,0,0,0,0,
6.38223E+17,46.27176,-0.8883717,45.57386,17.58505,11.18191,-53.16978,-4.570632,-0.4441859,0.1400836,-35.22471,-8.447793,45.05199,0,0,0,165.1681,-72.06107,-10.35612,-10.65206,-111.0334,-35.10307,0.001067912,-0.1257102,0.09433498,0,0.3,0,0,0,0,
6.38223E+17,45.56496,-1.028641,44.66332,17.51181,11.62138,-52.80355,-4.570632,-0.4441859,0.1400836,-35.22471,-8.447793,45.05199,0,0,0,162.1349,-73.88907,-9.381426,-10.65206,-111.0334,-35.10307,0.001067912,-0.1257102,0.09433498,0,0.3,0,0,0,0,
6.38223E+17,43.60949,-1.005263,41.48809,16.63286,12.86655,-51.4119,-4.570632,-0.4441859,0.1400836,-35.22471,-8.447793,45.05199,0,0,0,152.8939,-78.88113,-7.848792,-10.65206,-111.0334,-35.10307,0.001067912,-0.1257102,0.09433498,0,0.3,0,0,0,0,
6.38223E+17,40.92365,-1.005263,38.24282,14.43551,14.4047,-49.50752,-4.570632,-0.4441859,0.1400836,-35.22471,-8.447793,45.05199,0,0,0,141.4079,-83.72188,-5.240358,-10.65206,-111.0334,-35.10307,0.001067912,-0.1257102,0.09433498,0,0.3,0,0,0,0,
6.38223E+17,36.32946,-1.005263,35.27772,10.18729,17.11477,-46.57772,-4.570632,-0.4441859,0.1400836,-35.15147,-8.447793,45.12524,0,0,0,124.6138,-87.85143,1.1085,-10.65206,-111.0334,-35.10307,0.001067912,-0.1257102,0.09433498,0,0.3,0,0,0,0,
6.38223E+17,33.9499,-1.005263,34.67069,7.477218,18.35994,-44.89308,-4.570632,-0.4441859,0.1400836,-35.15147,-8.447793,45.05199,0,0,0,116.8241,-88.66125,5.175933,-10.65206,-111.0334,-35.10307,0.001067912,-0.1257102,0.09433498,0,0.3,0,0,0,0,
6.38223E+17,30.22743,-1.005263,34.43722,3.302244,19.97133,-41.45055,-4.570632,-0.4441859,0.1400836,-35.15147,-8.447793,45.12524,0,0,0,105.0864,-88.96945,12.00781,-10.65206,-111.0334,-35.10307,0.001067912,-0.1257102,0.09433498,0,0.3,0,0,0,0,
6.38223E+17,25.91596,-1.005263,34.46056,-0.7994855,21.07001,-37.42207,-4.570632,-0.4441859,0.1400836,-35.22471,-8.447793,45.05199,0,0,0,91.24957,-88.93871,19.43794,-10.65206,-111.0334,-35.10307,0.001067912,-0.1257102,0.09433498,0,0.3,0,0,0,0,
6.38223E+17,20.42649,-0.9351282,35.0209,-6.512609,21.80246,-33.39359,-4.570632,-0.4441859,0.1400836,-35.15147,-8.447793,45.05199,0,0,0,73.24172,-88.03233,28.31275,-10.65206,-111.0334,-35.10307,0.001067912,-0.1257102,0.09433498,0,0.3,0,0,0,0,
6.38223E+17,16.46841,-0.7247244,35.55789,-10.83407,21.94895,-30.61027,-4.570632,-0.4441859,0.1400836,-35.22471,-8.447793,45.12524,0,0,0,59.78329,-86.82069,33.88437,-10.65206,-111.0334,-35.10307,0.001067912,-0.1257102,0.09433498,0,0.3,0,0,0,0,
6.38223E+17,11.92134,-0.4441859,37.0988,-16.5472,21.43624,-27.53397,-4.570632,-0.4441859,0.1400836,-35.15147,-8.447793,45.12524,0,0,0,44.16056,-84.04328,40.82074,-10.65206,-111.0334,-35.10307,0.001067912,-0.1257102,0.09433498,0,0.3,0,0,0,0,
6.38223E+17,9.871624,-0.04675641,38.17278,-19.33051,20.99677,-25.77609,-4.570632,-0.4441859,0.1400836,-35.15147,-8.521038,45.05199,0,0,0,36.99099,-81.592,44.22038,-10.65206,-111.0334,-35.10307,0.001067912,-0.1257102,0.09433498,0,0.3,0,0,0,0,
6.38223E+17,4.759112,2.782006,41.18458,-27.02126,19.23888,-19.55025,-4.570632,-0.4441859,0.1400836,-35.15147,-8.447793,45.05199,0,0,0,18.33581,-70.53588,51.89012,-10.65206,-111.0334,-35.10307,0.001067912,-0.1257102,0.09433498,0,0.3,0,0,0,0,
6.38223E+17,3.557554,4.044429,42.21186,-29.21861,18.50643,-17.2064,-4.570632,-0.4441859,0.1400836,-35.22471,-8.521038,45.05199,0,0,0,13.81335,-66.01258,53.83331,-10.65206,-111.0334,-35.10307,0.001067912,-0.1257102,0.09433498,0,0.3,0,0,0,0,
6.38223E+17,1.814117,6.499141,44.28976,-32.88087,16.74854,-12.95818,-4.570632,-0.4441859,0.1400836,-35.15147,-8.447793,45.05199,0,0,0,7.14213,-57.0106,57.14658,-10.65206,-111.0334,-35.10307,0.001067912,-0.1257102,0.09433498,0,0.3,0,0,0,0,
6.38223E+17,0.9659585,8.860339,46.36767,-35.88392,14.77092,-8.636719,-4.570632,-0.4441859,0.1400836,-35.22471,-8.521038,45.05199,0,0,0,3.848343,-48.12581,59.89267,-10.65206,-111.0334,-35.10307,0.001067912,-0.1257102,0.09433498,0,0.3,0,0,0,0,
6.38223E+17,0.8481586,12.18004,47.53503,-37.7883,12.42708,-4.168763,-4.570632,-0.4441859,0.1400836,-35.22471,-8.447793,45.05199,0,0,0,3.385643,-38.54506,60.34415,-10.65206,-111.0334,-35.10307,0.001067912,-0.1257102,0.09433498,0,0.3,0,0,0,0,
6.38223E+17,1.060198,14.70489,47.60507,-38.30101,10.96218,-2.264389,-4.570632,-0.4441859,0.1400836,-35.15147,-8.447793,45.12524,0,0,0,4.208728,-32.70987,59.07431,-10.65206,-111.0334,-35.10307,0.001067912,-0.1257102,0.09433498,0,0.3,0,0,0,0,
6.38223E+17,1.625637,18.11811,47.60507,-38.74048,9.057802,-0.7262403,-4.570632,-0.4441859,0.1400836,-35.15147,-8.447793,45.12524,0,0,0,6.389224,-25.09074,56.77851,-10.65206,-111.0334,-35.10307,0.001067912,-0.1257102,0.09433498,0,0.3,0,0,0,0,
6.38223E+17,2.026157,20.03512,47.62842,-38.74048,7.88588,-0.0670338,-4.570632,-0.4441859,0.1400836,-35.22471,-8.447793,45.05199,0,0,0,7.91253,-20.83418,55.30772,-10.65206,-111.0334,-35.10307,0.001067912,-0.1257102,0.09433498,0,0.3,0,0,0,0,
6.38223E+17,3.675354,26.2771,47.74516,-38.22777,4.296866,1.251379,-4.570632,-0.4441859,0.1400836,-35.22471,-8.447793,45.05199,0,0,0,13.99181,-7.282696,49.47166,-10.65206,-111.0334,-35.10307,0.001067912,-0.1257102,0.09433498,0,0.3,0,0,0,0,
6.38223E+17,4.311473,27.67979,47.69846,-38.00803,3.344679,1.397869,-4.570632,-0.4441859,0.1400836,-35.15147,-8.447793,45.05199,0,0,0,16.2924,-4.453821,47.75321,-10.65206,-111.0334,-35.10307,0.001067912,-0.1257102,0.09433498,0,0.3,0,0,0,0,
6.38223E+17,6.33763,30.2514,47.16148,-37.12909,1.074079,1.617605,-4.570632,-0.4441859,0.1400836,-35.15147,-8.447793,45.05199,0,0,0,23.50944,-0.138199,43.32122,-10.65206,-111.0334,-35.10307,0.001067912,-0.1257102,0.09433498,0,0.3,0,0,0,0,
6.38223E+17,9.023465,31.67747,45.71395,-35.3712,-0.4640697,0.8851534,-4.570632,-0.4441859,0.1400836,-35.22471,-8.521038,45.05199,0,0,0,32.77048,0.266571,38.00766,-10.65206,-111.0334,-35.10307,0.001067912,-0.1257102,0.09433498,0,0.3,0,0,0,0,
6.38223E+17,12.03914,31.46706,43.49596,-32.36815,-1.196521,-1.385447,-4.570632,-0.4441859,0.1400836,-35.15147,-8.447793,45.05199,0,0,0,42.86834,-3.775343,32.65441,-10.65206,-111.0334,-35.10307,0.001067912,-0.1257102,0.09433498,0,0.3,0,0,0,0,
6.38223E+17,13.4763,31.02288,42.37529,-30.75676,-1.196521,-2.85035,-4.570632,-0.4441859,0.1400836,-35.22471,-8.447793,45.05199,0,0,0,47.57611,-6.435836,30.18055,-10.65206,-111.0334,-35.10307,0.001067912,-0.1257102,0.09433498,0,0.3,0,0,0,0,
6.38223E+17,16.82181,29.55005,39.55027,-26.4353,-0.4640697,-6.80559,-4.570632,-0.4441859,0.1400836,-35.22471,-8.447793,45.12524,0,0,0,58.14427,-13.70564,23.96849,-10.65206,-111.0334,-35.10307,0.001067912,-0.1257102,0.09433498,0,0.3,0,0,0,0,
6.38223E+17,19.97885,27.79668,36.7019,-21.96734,1.220569,-11.56653,-4.570632,-0.4441859,0.1400836,-35.15147,-8.447793,45.05199,0,0,0,67.5349,-21.37831,17.41396,-10.65206,-111.0334,-35.10307,0.001067912,-0.1257102,0.09433498,0,0.3,0,0,0,0,
6.38223E+17,22.90028,25.01468,34.1804,-17.71912,3.417924,-16.84018,-4.570632,-0.4441859,0.1400836,-35.22471,-8.447793,45.05199,0,0,0,76.17493,-30.57973,11.97884,-10.65206,-111.0334,-35.10307,0.001067912,-0.1257102,0.09433498,0,0.3,0,0,0,0,
6.38223E+17,25.4212,21.43781,32.49939,-13.83713,6.201241,-21.82085,-4.570632,-0.4441859,0.1400836,-35.15147,-8.447793,45.05199,0,0,0,84.03886,-40.37876,8.466558,-10.65206,-111.0334,-35.10307,0.001067912,-0.1257102,0.09433498,0,0.3,0,0,0,0,
6.38223E+17,26.99972,17.37,31.63554,-10.3946,9.424027,-25.19013,-4.570632,-0.4441859,0.1400836,-35.15147,-8.447793,45.05199,0,0,0,89.53185,-50.37395,7.368314,-10.65206,-111.0334,-35.10307,0.001067912,-0.1257102,0.09433498,0,0.3,0,0,0,0,
6.38223E+17,27.37668,15.26597,31.28534,-9.002944,10.96218,-26.36205,-4.570632,-0.4441859,0.1400836,-35.15147,-8.447793,45.05199,0,0,0,90.99893,-55.49875,7.379795,-10.65206,-111.0334,-35.10307,0.001067912,-0.1257102,0.09433498,0,0.3,0,0,0,0,
6.38223E+17,27.25887,11.12803,30.81839,-7.318305,14.03847,-28.33967,-4.570632,-0.4441859,0.1400836,-35.22471,-8.447793,45.05199,0,0,0,91.21781,-65.43357,8.692955,-10.65206,-111.0334,-35.10307,0.001067912,-0.1257102,0.09433498,0,0.3,0,0,0,0,
6.38223E+17,25.8924,7.504403,30.81839,-6.80559,16.96828,-29.58484,-4.570632,-0.4441859,0.1400836,-35.15147,-8.447793,45.05199,0,0,0,87.56596,-73.75455,12.04591,-10.65206,-111.0334,-35.10307,0.001067912,-0.1257102,0.09433498,0,0.3,0,0,0,0,
6.38223E+17,23.27724,5.564013,30.86509,-8.050756,19.38537,-29.87782,-4.570632,-0.4441859,0.1400836,-35.15147,-8.447793,45.05199,0,0,0,79.48376,-78.18535,16.41119,-10.65206,-111.0334,-35.10307,0.001067912,-0.1257102,0.09433498,0,0.3,0,0,0,0,
6.38223E+17,21.95788,5.353609,30.86509,-9.002944,20.04458,-29.73133,-4.570632,-0.4441859,0.1400836,-35.22471,-8.521038,45.05199,0,0,0,75.22596,-78.67282,18.23554,-10.65206,-111.0334,-35.10307,0.001067912,-0.1257102,0.09433498,0,0.3,0,0,0,0,
6.38223E+17,18.68305,5.306852,30.91178,-11.71302,21.36299,-28.85239,-4.570632,-0.4441859,0.1400836,-35.15147,-8.447793,45.12524,0,0,0,64.47742,-78.72538,22.32609,-10.65206,-111.0334,-35.10307,0.001067912,-0.1257102,0.09433498,0,0.3,0,0,0,0,
6.38223E+17,13.85326,5.447122,32.07914,-16.5472,22.09544,-26.36205,-4.570632,-0.4441859,0.1400836,-35.15147,-8.447793,45.05199,0,0,0,48.74168,-76.98097,29.29732,-10.65206,-111.0334,-35.10307,0.001067912,-0.1257102,0.09433498,0,0.3,0,0,0,0,
6.38223E+17,11.37946,5.751038,32.77956,-18.89104,22.0222,-24.31118,-4.570632,-0.4441859,0.1400836,-35.15147,-8.447793,45.05199,0,0,0,40.42317,-75.40284,32.49816,-10.65206,-111.0334,-35.10307,0.001067912,-0.1257102,0.09433498,0,0.3,0,0,0,0,
6.38223E+17,7.704108,6.125089,34.15705,-22.40681,21.36299,-20.79542,-4.570632,-0.4441859,0.1400836,-35.15147,-8.521038,45.05199,0,0,0,27.81149,-72.76897,37.23725,-10.65206,-111.0334,-35.10307,0.001067912,-0.1257102,0.09433498,0,0.3,0,0,0,0,
6.38223E+17,5.748631,6.218602,35.09094,-24.31118,20.92352,-18.59806,-4.570632,-0.4441859,0.1400836,-35.15147,-8.447793,45.05199,0,0,0,20.95688,-71.31763,39.82283,-10.65206,-111.0334,-35.10307,0.001067912,-0.1257102,0.09433498,0,0.3,0,0,0,0,
6.38223E+17,2.191077,6.218602,37.42567,-28.5594,19.82484,-14.42309,-4.570632,-0.4441859,0.1400836,-35.15147,-8.447793,45.05199,0,0,0,8.166636,-68.10414,45.10019,-10.65206,-111.0334,-35.10307,0.001067912,-0.1257102,0.09433498,0,0.3,0,0,0,0,
6.38223E+17,-0.3062795,6.569275,39.43353,-32.36815,18.57967,-11.34679,-4.570632,-0.4441859,0.1400836,-35.15147,-8.447793,45.12524,0,0,0,-1.160928,-64.38863,48.82296,-10.65206,-111.0334,-35.10307,0.001067912,-0.1257102,0.09433498,0,0.3,0,0,0,0,
6.38223E+17,-2.520916,7.784942,41.11454,-36.25014,17.18801,-7.904267,-4.570632,-0.4441859,0.1400836,-35.15147,-8.447793,45.12524,0,0,0,-9.66803,-59.05249,51.24473,-10.65206,-111.0334,-35.10307,0.001067912,-0.1257102,0.09433498,0,0.3,0,0,0,0,
6.38223E+17,-4.287913,9.772089,42.56207,-39.69267,15.94285,-4.461744,-4.570632,-0.4441859,0.1400836,-35.15147,-8.447793,45.12524,0,0,0,-16.56953,-52.23486,52.64128,-10.65206,-111.0334,-35.10307,0.001067912,-0.1257102,0.09433498,0,0.3,0,0,0,0,
6.38223E+17,-4.994712,11.05789,43.37922,-41.37731,15.28364,-3.070086,-4.570632,-0.4441859,0.1400836,-35.15147,-8.447793,45.05199,0,0,0,-19.3684,-47.99533,53.26744,-10.65206,-111.0334,-35.10307,0.001067912,-0.1257102,0.09433498,0,0.3,0,0,0,0,
6.38223E+17,-5.84287,14.00354,44.87344,-44.6001,13.81874,-0.9459759,-4.570632,-0.4441859,0.1400836,-35.22471,-8.447793,45.05199,0,0,0,-22.74951,-38.88245,53.96015,-10.65206,-111.0334,-35.10307,0.001067912,-0.1257102,0.09433498,0,0.3,0,0,0,0,
6.38223E+17,-5.98423,17.67392,45.87738,-47.01719,11.98761,0.9583986,-4.570632,-0.4441859,0.1400836,-35.15147,-8.447793,45.12524,0,0,0,-23.22601,-29.00279,53.21732,-10.65206,-111.0334,-35.10307,0.001067912,-0.1257102,0.09433498,0,0.3,0,0,0,0,
6.38223E+17,-5.98423,19.70782,46.32097,-47.82288,10.96218,2.203566,-4.570632,-0.4441859,0.1400836,-35.15147,-8.447793,45.05199,0,0,0,-23.1425,-23.77507,52.42069,-10.65206,-111.0334,-35.10307,0.001067912,-0.1257102,0.09433498,0,0.3,0,0,0,0,
6.38223E+17,-5.748631,23.58861,47.34826,-48.9948,8.471841,4.986883,-4.570632,-0.4441859,0.1400836,-35.15147,-8.447793,45.05199,0,0,0,-22.06465,-13.63778,50.82674,-10.65206,-111.0334,-35.10307,0.001067912,-0.1257102,0.09433498,0,0.3,0,0,0,0,
6.38223E+17,-4.876912,28.40452,48.67905,-50.16673,5.029318,8.429405,-4.570632,-0.4441859,0.1400836,-35.15147,-8.447793,45.12524,0,0,0,-18.48618,-1.264114,48.30779,-10.65206,-111.0334,-35.10307,0.001067912,-0.1257102,0.09433498,0,0.3,0,0,0,0,
6.38223E+17,-3.958073,30.78909,49.0993,-50.53296,2.905208,9.967555,-4.570632,-0.4441859,0.1400836,-35.15147,-8.447793,45.05199,0,0,0,-14.86467,4.298192,46.48365,-10.65206,-111.0334,-35.10307,0.001067912,-0.1257102,0.09433498,0,0.3,0,0,0,0,
6.38223E+17,-2.238196,33.71137,49.0526,-49.94699,0.268382,11.72544,-4.570632,-0.4441859,0.1400836,-35.22471,-8.447793,45.05199,0,0,0,-8.265661,9.967483,43.13574,-10.65206,-111.0334,-35.10307,0.001067912,-0.1257102,0.09433498,0,0.3,0,0,0,0,
6.38223E+17,-1.295798,34.88028,48.88918,-49.36103,-0.9035407,12.16491,-4.570632,-0.4441859,0.1400836,-35.22471,-8.447793,45.12524,0,0,0,-4.745881,11.92803,41.46095,-10.65206,-111.0334,-35.10307,0.001067912,-0.1257102,0.09433498,0,0.3,0,0,0,0,
6.38223E+17,2.026157,37.14796,47.23152,-45.84526,-4.126328,12.60438,-4.570632,-0.4441859,0.1400836,-35.22471,-8.447793,45.05199,0,0,0,7.219045,13.32713,35.70549,-10.65206,-111.0334,-35.10307,0.001067912,-0.1257102,0.09433498,0,0.3,0,0,0,0,
6.38223E+17,2.944995,37.26486,46.50775,-44.6001,-4.565799,12.09166,-4.570632,-0.4441859,0.1400836,-35.22471,-8.447793,45.05199,0,0,0,10.42275,12.31448,34.2491,-10.65206,-111.0334,-35.10307,0.001067912,-0.1257102,0.09433498,0,0.3,0,0,0,0,
6.38223E+17,5.159632,37.10121,44.31311,-41.45055,-5.15176,9.015368,-4.570632,-0.4441859,0.1400836,-35.22471,-8.447793,45.12524,0,0,0,17.94226,8.373715,30.35321,-10.65206,-111.0334,-35.10307,0.001067912,-0.1257102,0.09433498,0,0.3,0,0,0,0,
6.38223E+17,7.680547,36.30635,41.60483,-37.93478,-4.85878,4.913638,-4.570632,-0.4441859,0.1400836,-35.22471,-8.447793,45.05199,0,0,0,26.19598,2.595451,25.89632,-10.65206,-111.0334,-35.10307,0.001067912,-0.1257102,0.09433498,0,0.3,0,0,0,0,
6.38223E+17,10.15434,34.76339,38.8732,-33.97955,-3.686857,0.299192,-4.570632,-0.4441859,0.1400836,-35.15147,-8.447793,45.05199,0,0,0,34.06815,-4.433217,21.86235,-10.65206,-111.0334,-35.10307,0.001067912,-0.1257102,0.09433498,0,0.3,0,0,0,0,
6.38223E+17,11.2381,33.92177,37.61245,-32.07517,-2.954405,-1.678428,-4.570632,-0.4441859,0.1400836,-35.15147,-8.447793,45.05199,0,0,0,37.42596,-7.866784,20.00746,-10.65206,-111.0334,-35.10307,0.001067912,-0.1257102,0.09433498,0,0.3,0,0,0,0,
6.38223E+17,13.0051,31.86449,34.99755,-28.19318,-0.7570504,-5.340686,-4.570632,-0.4441859,0.1400836,-35.15147,-8.447793,45.05199,0,0,0,42.69771,-15.49012,16.51906,-10.65206,-111.0334,-35.10307,0.001067912,-0.1257102,0.09433498,0,0.3,0,0,0,0,
6.38223E+17,14.04174,28.96559,32.406,-24.89715,1.806531,-9.36917,-4.570632,-0.4441859,0.1400836,-35.15147,-8.447793,45.05199,0,0,0,45.64661,-24.65433,14.16207,-10.65206,-111.0334,-35.10307,0.001067912,-0.1257102,0.09433498,0,0.3,0,0,0,0,
6.38223E+17,14.37158,26.04332,30.42149,-22.91953,4.809582,-12.95818,-4.570632,-0.4441859,0.1400836,-35.22471,-8.447793,45.05199,0,0,0,46.49773,-33.09349,13.12038,-10.65206,-111.0334,-35.10307,0.001067912,-0.1257102,0.09433498,0,0.3,0,0,0,0,
6.38223E+17,14.34802,23.96266,29.30082,-22.11383,6.787202,-15.22878,-4.570632,-0.4441859,0.1400836,-35.15147,-8.447793,45.12524,0,0,0,46.36975,-38.78058,12.93093,-10.65206,-111.0334,-35.10307,0.001067912,-0.1257102,0.09433498,0,0.3,0,0,0,0,
6.38223E+17,14.32446,21.29754,28.08676,-21.60111,9.277537,-18.15859,-4.570632,-0.4441859,0.1400836,-35.22471,-8.447793,45.05199,0,0,0,46.27243,-45.8619,12.86077,-10.65206,-111.0334,-35.10307,0.001067912,-0.1257102,0.09433498,0,0.3,0,0,0,0,
6.38223E+17,14.1831,17.86095,27.15287,-21.16164,12.06085,-21.0884,-4.570632,-0.4441859,0.1400836,-35.22471,-8.447793,45.05199,0,0,0,46.00998,-54.40427,13.70549,-10.65206,-111.0334,-35.10307,0.001067912,-0.1257102,0.09433498,0,0.3,0,0,0,0,
6.38223E+17,13.57054,15.24259,26.68592,-21.01515,14.33146,-22.40681,-4.570632,-0.4441859,0.1400836,-35.15147,-8.447793,45.05199,0,0,0,44.24094,-60.73722,14.93247,-10.65206,-111.0334,-35.10307,0.001067912,-0.1257102,0.09433498,0,0.3,0,0,0,0,
6.38223E+17,13.02866,14.14381,26.33572,-21.01515,15.57662,-22.77304,-4.570632,-0.4441859,0.1400836,-35.15147,-8.447793,45.05199,0,0,0,42.48738,-63.57466,15.26402,-10.65206,-111.0334,-35.10307,0.001067912,-0.1257102,0.09433498,0,0.3,0,0,0,0,
6.38223E+17,11.3559,12.5541,25.77538,-21.60111,17.70073,-23.28575,-4.570632,-0.4441859,0.1400836,-35.15147,-8.447793,45.05199,0,0,0,37.04691,-67.74731,16.11486,-10.65206,-111.0334,-35.10307,0.001067912,-0.1257102,0.09433498,0,0.3,0,0,0,0,
6.38223E+17,9.306185,11.73586,25.61195,-22.91953,19.01915,-23.50549,-4.570632,-0.4441859,0.1400836,-35.22471,-8.447793,45.05199,0,0,0,30.43488,-69.77394,17.37901,-10.65206,-111.0334,-35.10307,0.001067912,-0.1257102,0.09433498,0,0.3,0,0,0,0,
6.38223E+17,7.115108,11.59559,25.61195,-24.89715,19.89809,-23.28575,-4.570632,-0.4441859,0.1400836,-35.15147,-8.447793,45.12524,0,0,0,23.31998,-70.09367,18.47231,-10.65206,-111.0334,-35.10307,0.001067912,-0.1257102,0.09433498,0,0.3,0,0,0,0,
6.38223E+17,4.193673,11.59559,25.68199,-27.46073,20.55729,-20.86866,-4.570632,-0.4441859,0.1400836,-35.15147,-8.447793,45.05199,0,0,0,13.77872,-70.02311,19.56461,-10.65206,-111.0334,-35.10307,0.001067912,-0.1257102,0.09433498,0,0.3,0,0,0,0,
6.38223E+17,2.473796,11.59559,25.86877,-29.21861,20.4108,-18.52482,-4.570632,-0.4441859,0.1400836,-35.22471,-8.447793,45.05199,0,0,0,8.149529,-69.83408,20.28459,-10.65206,-111.0334,-35.10307,0.001067912,-0.1257102,0.09433498,0,0.3,0,0,0,0,
6.38223E+17,0.3062795,11.59559,26.19563,-31.56245,20.11782,-14.71607,-4.570632,-0.4441859,0.1400836,-35.15147,-8.447793,45.05199,0,0,0,1.012952,-69.50021,21.1414,-10.65206,-111.0334,-35.10307,0.001067912,-0.1257102,0.09433498,0,0.3,0,0,0,0,
6.38223E+17,-0.7303588,11.59559,26.31237,-32.66114,19.97133,-12.73845,-4.570632,-0.4441859,0.1400836,-35.15147,-8.447793,45.05199,0,0,0,-2.418553,-69.38003,21.37236,-10.65206,-111.0334,-35.10307,0.001067912,-0.1257102,0.09433498,0,0.3,0,0,0,0,
6.38223E+17,-3.439754,11.6891,26.8727,-35.44445,19.53186,-7.684532,-4.570632,-0.4441859,0.1400836,-35.22471,-8.447793,45.05199,0,0,0,-11.45141,-68.58308,22.16616,-10.65206,-111.0334,-35.10307,0.001067912,-0.1257102,0.09433498,0,0.3,0,0,0,0,
6.38223E+17,-4.358593,11.85275,27.10618,-36.32339,19.31213,-6.439363,-4.570632,-0.4441859,0.1400836,-35.22471,-8.447793,45.05199,0,0,0,-14.53596,-67.96362,22.36336,-10.65206,-111.0334,-35.10307,0.001067912,-0.1257102,0.09433498,0,0.3,0,0,0,0,
6.38223E+17,-6.26695,12.25018,27.47973,-38.4475,18.72616,-4.242009,-4.570632,-0.4441859,0.1400836,-35.15147,-8.447793,45.12524,0,0,0,-20.94209,-66.66037,22.34956,-10.65206,-111.0334,-35.10307,0.001067912,-0.1257102,0.09433498,0,0.3,0,0,0,0,
